data/fiter_cube/89350833/1022875/file.cube
# Created by Adobe Lightroom plugin Export LUT (1.24.0)
# www.johnrellis.com/lightroom/exportlut.htm
# Preset: 婚礼接亲预设[余晖]-5 晨间化妆2
# Color profile: C:\Windows\System32\Spool\Drivers\Color\AppleRGB.icc
LUT_3D_SIZE 5
DOMAIN_MIN 0.000000 0.000000 0.000000
DOMAIN_MAX 0.903226 0.903226 0.903226
0.105074 0.140444 0.147311
0.162936 0.140078 0.146120
0.515923 0.108919 0.132143
0.851469 0.082918 0.100130
1.000000 0.147890 0.041505
0.054353 0.210666 0.156588
0.189853 0.195254 0.139742
0.602533 0.270665 0.091463
0.914092 0.330144 0.000000
1.000000 0.359869 0.000000
0.000000 0.576043 0.212131
0.000000 0.555291 0.130282
0.625849 0.503410 0.000000
0.908568 0.416419 0.000000
1.000000 0.613916 0.000000
0.000000 0.832639 0.393896
0.000000 0.823331 0.353796
0.450477 0.799588 0.279210
0.852842 0.717250 0.000000
1.000000 0.528893 0.000000
0.235630 0.965515 0.607752
0.374762 0.957671 0.600336
0.518914 0.941527 0.519066
0.772457 0.927459 0.416052
1.000000 0.868132 0.057069
0.090791 0.154849 0.194827
0.178836 0.140322 0.223697
0.425757 0.088075 0.217136
0.793027 0.000000 0.177646
1.000000 0.112306 0.106874
0.053986 0.220615 0.234043
0.156039 0.221775 0.238987
0.467292 0.197208 0.239658
0.831144 0.235874 0.210971
1.000000 0.304784 0.116487
0.000000 0.560540 0.443244
0.000000 0.545403 0.396612
0.526452 0.510582 0.256199
0.840024 0.520073 0.318791
1.000000 0.645197 0.317052
0.000000 0.826566 0.558618
0.118166 0.814145 0.546715
0.463935 0.790829 0.492042
0.816098 0.735958 0.275181
1.000000 0.603204 0.244480
0.201358 0.965423 0.676905
0.366064 0.955962 0.672847
0.546319 0.945190 0.636622
0.749722 0.930266 0.567651
0.998169 0.881559 0.333257
0.000000 0.244999 0.452064
0.053986 0.202487 0.510338
0.573571 0.139467 0.612390
0.751156 0.218296 0.554314
0.967376 0.195254 0.494484
0.000000 0.349523 0.440772
0.154177 0.355138 0.511284
0.531975 0.331579 0.622400
0.726711 0.384405 0.589471
0.957000 0.326207 0.511070
0.000000 0.542931 0.569238
0.139406 0.537652 0.568292
0.450599 0.539818 0.576867
0.703365 0.560998 0.622004
0.930877 0.604486 0.594354
0.000000 0.778683 0.710475
0.175509 0.778500 0.713405
0.467597 0.786007 0.717678
0.710262 0.761379 0.643000
0.933257 0.782895 0.676081
0.053498 0.963348 0.799496
0.257786 0.958312 0.785153
0.530632 0.941863 0.768246
0.707179 0.926390 0.724422
0.945678 0.892058 0.593744
0.000000 0.422156 0.714717
0.143191 0.388190 0.741756
0.486580 0.383337 0.785733
0.793545 0.421088 0.824277
0.882719 0.482429 0.785733
0.184573 0.521660 0.696712
0.269627 0.504112 0.719203
0.470253 0.479377 0.769131
0.768246 0.517998 0.816678
0.864103 0.550530 0.786954
0.163027 0.608453 0.671717
0.274296 0.602136 0.665095
0.487221 0.623743 0.729122
0.701472 0.637598 0.797696
0.852079 0.675563 0.802792
0.260166 0.764279 0.770687
0.338994 0.758083 0.767422
0.490425 0.751614 0.766354
0.657191 0.751797 0.770626
0.858732 0.772274 0.803433
0.302098 0.923278 0.863890
0.381964 0.922026 0.864591
0.526696 0.932586 0.875792
0.703731 0.931518 0.867826
0.883757 0.910246 0.807797
0.379309 0.631312 0.856565
0.413123 0.610651 0.866636
0.533440 0.581109 0.888609
0.744411 0.595300 0.910277
0.911803 0.611261 0.925933
0.426825 0.684443 0.845365
0.452918 0.668360 0.854917
0.526329 0.624567 0.881315
0.726406 0.637568 0.903746
0.901701 0.655482 0.923857
0.421332 0.746487 0.822965
0.463783 0.742336 0.832059
0.557183 0.729641 0.858854
0.687251 0.706264 0.892912
0.890257 0.745327 0.926055
0.442237 0.834592 0.855314
0.473884 0.829068 0.852110
0.551568 0.818479 0.846159
0.699519 0.824949 0.886778
0.874937 0.845762 0.930755
0.474739 0.928649 0.909972
0.507744 0.926787 0.909972
0.590356 0.924102 0.911803
0.705501 0.918425 0.913054
0.844572 0.911589 0.913146
