data/fiter_cube/89350833/1022875/file.cube
# Created by Adobe Lightroom plugin Export LUT (1.24.0)
# www.johnrellis.com/lightroom/exportlut.htm
# Preset: 婚礼接亲预设[余晖]-5 晨间化妆2
# Color profile: C:\Windows\System32\Spool\Drivers\Color\AppleRGB.icc
LUT_3D_SIZE 8
DOMAIN_MIN 0.000000 0.000000 0.000000
DOMAIN_MAX 0.903226 0.903226 0.903226
0.105074 0.140444 0.147311
0.116670 0.140352 0.147158
0.189944 0.139620 0.145357
0.385779 0.126101 0.138582
0.637354 0.091981 0.123934
0.815976 0.081025 0.105074
0.967529 0.104860 0.078065
1.000000 0.147890 0.041505
0.098817 0.153017 0.148562
0.121309 0.150576 0.146334
0.203128 0.164004 0.141512
0.409247 0.177646 0.128054
0.645624 0.176455 0.107912
0.812222 0.178866 0.085756
0.957641 0.197269 0.051331
1.000000 0.221317 0.000000
0.000000 0.241032 0.160281
0.077485 0.238743 0.146120
0.226596 0.218601 0.135042
0.431159 0.204715 0.126711
0.716976 0.322210 0.055085
0.882383 0.363470 0.000000
1.000000 0.391608 0.000000
1.000000 0.398199 0.000000
0.000000 0.450752 0.185031
0.000000 0.451423 0.148409
0.159640 0.450050 0.121035
0.526116 0.421302 0.053529
0.741268 0.290318 0.083406
0.906554 0.431556 0.000000
1.000000 0.549523 0.000000
1.000000 0.573938 0.000000
0.000000 0.664759 0.248325
0.000000 0.658045 0.219516
0.000000 0.648096 0.158358
0.401648 0.635554 0.101839
0.694911 0.564721 0.000000
0.844541 0.326116 0.051301
0.978546 0.476967 0.000000
1.000000 0.596338 0.000000
0.000000 0.795285 0.347753
0.000000 0.799893 0.351446
0.000000 0.790616 0.299840
0.336889 0.775113 0.256870
0.603204 0.754604 0.145418
0.824094 0.688411 0.000000
0.961517 0.420874 0.000000
1.000000 0.551415 0.000000
0.000000 0.896605 0.483589
0.000000 0.893248 0.487678
0.210910 0.885466 0.450324
0.383978 0.874754 0.412909
0.536339 0.860105 0.356298
0.764889 0.844755 0.211185
0.924529 0.786893 0.000000
1.000000 0.569604 0.000000
0.235630 0.965515 0.607752
0.301579 0.961883 0.607721
0.373816 0.959014 0.581415
0.491676 0.954192 0.565545
0.580133 0.937652 0.501488
0.726894 0.929686 0.442756
0.901915 0.919921 0.307561
1.000000 0.868132 0.057069
0.102724 0.143404 0.157107
0.118563 0.140444 0.160739
0.167758 0.137179 0.160281
0.322606 0.119753 0.153719
0.573602 0.083986 0.139834
0.778378 0.085969 0.115541
0.936614 0.141695 0.076265
1.000000 0.164126 0.044190
0.098421 0.156680 0.164706
0.114687 0.156954 0.165805
0.177462 0.153170 0.165408
0.347204 0.149783 0.156649
0.592065 0.139223 0.138064
0.789670 0.154971 0.109438
0.929595 0.196201 0.066133
1.000000 0.227909 0.000000
0.000000 0.236606 0.211582
0.062165 0.236393 0.200687
0.201968 0.228550 0.166873
0.410193 0.231632 0.162356
0.665248 0.290013 0.136782
0.831510 0.308965 0.099062
0.957885 0.336950 0.023011
1.000000 0.376104 0.000000
0.000000 0.427344 0.267002
0.000000 0.426734 0.244846
0.105898 0.422126 0.192874
0.448585 0.391333 0.128908
0.662318 0.285801 0.132815
0.841550 0.426642 0.126711
0.961242 0.520867 0.083345
1.000000 0.528405 0.000000
0.000000 0.647547 0.339178
0.000000 0.638819 0.314641
0.000000 0.624842 0.245762
0.328710 0.605188 0.209934
0.647852 0.546197 0.073915
0.810544 0.328466 0.097719
0.947875 0.486244 0.109834
1.000000 0.607568 0.079225
0.000000 0.778012 0.406439
0.000000 0.774319 0.396490
0.000000 0.763058 0.377111
0.313970 0.754482 0.323827
0.560174 0.738827 0.244511
0.802457 0.685786 0.076326
0.948394 0.403174 0.037629
1.000000 0.561578 0.080934
0.000000 0.879606 0.500206
0.000000 0.872953 0.494148
0.210788 0.860472 0.487648
0.356115 0.855467 0.441566
0.516564 0.845243 0.400427
0.730739 0.831296 0.278233
0.899901 0.773220 0.069490
1.000000 0.542168 0.000000
0.176242 0.959411 0.617121
0.259678 0.956329 0.618585
0.390509 0.949004 0.618372
0.477424 0.947631 0.586145
0.591241 0.939788 0.556756
0.716762 0.929168 0.499062
0.885954 0.916930 0.368933
1.000000 0.866728 0.156832
0.079957 0.163210 0.221775
0.097444 0.152499 0.237675
0.222263 0.138216 0.268528
0.324346 0.133089 0.256687
0.552972 0.023011 0.251682
0.763058 0.000000 0.206271
0.918364 0.000000 0.197726
1.000000 0.089693 0.151186
0.086732 0.192630 0.222934
0.105470 0.190372 0.241428
0.205783 0.170352 0.275944
0.323980 0.166171 0.267735
0.549645 0.095827 0.255070
0.750118 0.027863 0.226596
0.911925 0.110536 0.205814
1.000000 0.174075 0.154391
0.000000 0.257633 0.274357
0.068360 0.257877 0.276036
0.183719 0.258793 0.280613
0.356359 0.262272 0.317144
0.592737 0.242496 0.293858
0.785336 0.277043 0.283940
0.925292 0.313909 0.254124
1.000000 0.344274 0.190372
0.000000 0.419440 0.386328
0.000000 0.432593 0.397833
0.095460 0.454627 0.416022
0.378332 0.444953 0.368353
0.648219 0.463203 0.385718
0.798306 0.523003 0.405432
0.920745 0.539757 0.372961
1.000000 0.546899 0.296788
0.000000 0.658625 0.524376
0.000000 0.653956 0.513756
0.000000 0.641138 0.481392
0.337224 0.625116 0.432685
0.617395 0.602289 0.327703
0.802792 0.446967 0.282506
0.908141 0.614862 0.406653
0.992676 0.718257 0.452277
0.000000 0.781552 0.557122
0.000000 0.777523 0.549889
0.085054 0.764553 0.530724
0.356664 0.748074 0.504509
0.514672 0.734798 0.459144
0.767147 0.708431 0.316503
0.935332 0.467384 0.204044
1.000000 0.655177 0.357946
0.000000 0.885679 0.616480
0.000000 0.880125 0.611810
0.235874 0.866911 0.598840
0.409339 0.853330 0.580529
0.527520 0.843839 0.537255
0.696162 0.834134 0.469917
0.883482 0.797116 0.318364
1.000000 0.563195 0.142214
0.134005 0.960815 0.678920
0.223728 0.956634 0.676173
0.366369 0.948882 0.673030
0.497017 0.944274 0.667262
0.591669 0.938170 0.635767
0.698482 0.930236 0.604059
0.860807 0.919738 0.513390
0.988830 0.877928 0.352972
0.000000 0.209628 0.360967
0.000000 0.193606 0.388922
0.181277 0.172427 0.438148
0.456001 0.116518 0.497047
0.551537 0.123232 0.447059
0.725124 0.160891 0.462013
0.874998 0.077638 0.414618
0.999115 0.000000 0.329595
0.000000 0.263035 0.374884
0.027253 0.252262 0.398505
0.159457 0.216098 0.446448
0.458381 0.182437 0.515312
0.558373 0.190524 0.469398
0.716426 0.221958 0.472297
0.864744 0.156863 0.419379
0.988220 0.080293 0.337316
0.000000 0.318944 0.367285
0.062257 0.322850 0.371679
0.197604 0.340185 0.441016
0.393744 0.320684 0.518822
0.564538 0.334508 0.517906
0.720363 0.363378 0.521141
0.870024 0.321630 0.464302
0.982238 0.335973 0.408759
0.000000 0.465644 0.492775
0.000000 0.463020 0.491768
0.179873 0.459113 0.492164
0.371771 0.463386 0.502037
0.546929 0.480323 0.557153
0.704433 0.464576 0.530297
0.841154 0.501122 0.520592
0.964813 0.539849 0.500206
0.000000 0.622736 0.594354
0.000000 0.619196 0.593347
0.150546 0.614679 0.595178
0.384222 0.614130 0.603662
0.542168 0.620966 0.601740
0.722347 0.654627 0.621515
0.846983 0.703548 0.636652
0.948882 0.720455 0.611322
0.000000 0.775265 0.681270
0.000000 0.781338 0.690089
0.181918 0.781949 0.694362
0.393317 0.767147 0.669795
0.542748 0.749844 0.639033
0.709438 0.737911 0.569696
0.875731 0.634668 0.515770
0.955962 0.768582 0.627680
0.000000 0.888975 0.734127
0.000000 0.886229 0.728511
0.243107 0.878202 0.714626
0.422827 0.866484 0.699947
0.549432 0.853422 0.671382
0.663081 0.842222 0.637690
0.849729 0.820645 0.532586
1.000000 0.611109 0.360266
0.086397 0.969421 0.763394
0.191592 0.966613 0.759457
0.350286 0.957885 0.753597
0.492653 0.948028 0.745663
0.593378 0.939727 0.721462
0.693629 0.931487 0.696101
0.827665 0.923033 0.643763
0.964416 0.892119 0.537804
0.000000 0.287663 0.540948
0.000000 0.272007 0.562676
0.092317 0.234714 0.600031
0.402228 0.224949 0.653101
0.660029 0.210056 0.697017
0.717372 0.226658 0.638697
0.821714 0.325322 0.637049
0.926452 0.356420 0.627832
0.000000 0.345129 0.543267
0.000000 0.332982 0.562493
0.101167 0.287968 0.605707
0.390784 0.287510 0.654444
0.653925 0.290562 0.701900
0.711604 0.298711 0.649622
0.811734 0.384802 0.648524
0.920348 0.394995 0.634455
0.000000 0.419806 0.525383
0.074769 0.425727 0.546746
0.219883 0.421302 0.589563
0.356390 0.390478 0.640131
0.599115 0.411597 0.686305
0.687098 0.409247 0.657557
0.785824 0.475288 0.659693
0.907195 0.443427 0.628840
0.000000 0.503044 0.561425
0.044160 0.503655 0.562158
0.229770 0.504112 0.562554
0.403967 0.528222 0.619623
0.546044 0.530266 0.676387
0.677211 0.541314 0.684321
0.777523 0.567773 0.679896
0.910307 0.504906 0.619471
0.000000 0.615808 0.638483
0.038941 0.614649 0.638758
0.242863 0.611078 0.638422
0.393042 0.608972 0.639582
0.521477 0.610071 0.642817
0.659571 0.633967 0.695033
0.778714 0.622187 0.672236
0.901061 0.648157 0.658106
0.000000 0.718074 0.694026
0.000000 0.716091 0.693843
0.208988 0.709804 0.691279
0.364904 0.707637 0.693507
0.511986 0.707454 0.698817
0.643366 0.728328 0.711971
0.805814 0.770993 0.740108
0.913481 0.818204 0.760922
0.018799 0.851133 0.774533
0.126070 0.850004 0.773800
0.254337 0.851286 0.775540
0.393835 0.862486 0.786893
0.536095 0.853910 0.768521
0.645167 0.838956 0.734310
0.793668 0.825650 0.678645
0.932372 0.735927 0.626001
0.112551 0.961059 0.840055
0.183932 0.959014 0.835477
0.297032 0.953826 0.822934
0.437446 0.950286 0.809995
0.580682 0.939055 0.797787
0.681697 0.929534 0.774380
0.781491 0.920714 0.744289
0.930480 0.898253 0.662348
0.000000 0.405982 0.698939
0.000000 0.396399 0.712764
0.156039 0.355810 0.736324
0.392737 0.360266 0.762783
0.610132 0.375708 0.791257
0.778592 0.397436 0.810849
0.825772 0.409857 0.780972
0.891020 0.486488 0.770443
0.049287 0.448188 0.686885
0.108248 0.436866 0.696681
0.199771 0.403418 0.719661
0.377203 0.391974 0.748623
0.588342 0.412329 0.778805
0.763973 0.437903 0.804196
0.814298 0.447578 0.779019
0.882261 0.513603 0.770626
0.178378 0.533043 0.681147
0.235599 0.532830 0.689876
0.310002 0.518029 0.709865
0.388800 0.483314 0.740658
0.568566 0.505791 0.770657
0.748226 0.536522 0.805509
0.802762 0.537804 0.788144
0.872587 0.581720 0.780850
0.172610 0.585748 0.656153
0.223880 0.585290 0.661219
0.337255 0.593561 0.686549
0.465644 0.611078 0.730190
0.560357 0.603601 0.772274
0.721096 0.634699 0.808804
0.799405 0.636164 0.805051
0.870146 0.663081 0.797818
0.176242 0.652064 0.696590
0.228611 0.651026 0.695979
0.323033 0.648096 0.693721
0.423651 0.644923 0.690578
0.550561 0.665675 0.733211
0.664271 0.676661 0.783413
0.774990 0.691371 0.797086
0.859892 0.708309 0.792447
0.201328 0.730892 0.741909
0.254002 0.732815 0.744472
0.336248 0.729152 0.743282
0.431098 0.724727 0.742000
0.527092 0.719051 0.739651
0.632990 0.726589 0.748318
0.762570 0.764157 0.802274
0.871611 0.747097 0.778347
0.263493 0.838499 0.808621
0.301213 0.839322 0.810391
0.370062 0.837430 0.810758
0.456611 0.836088 0.812314
0.550164 0.835691 0.814786
0.656458 0.836820 0.818906
0.752621 0.836973 0.810910
0.891447 0.862333 0.832242
0.279789 0.928679 0.859068
0.306645 0.928862 0.859312
0.369848 0.930510 0.861234
0.460517 0.936370 0.867460
0.557977 0.942321 0.871733
0.675410 0.931884 0.852384
0.770779 0.921508 0.830259
0.898222 0.911467 0.783841
0.197177 0.511131 0.784207
0.233036 0.506676 0.793210
0.292180 0.480995 0.807767
0.415717 0.470069 0.826505
0.579065 0.484932 0.844114
0.737026 0.502678 0.864469
0.850767 0.516899 0.875090
0.891691 0.520867 0.858518
0.233463 0.537804 0.772366
0.261997 0.533349 0.780545
0.313451 0.511192 0.795071
0.405524 0.487953 0.815366
0.563378 0.502220 0.833646
0.717159 0.516960 0.853758
0.836728 0.529046 0.866606
0.878904 0.527916 0.850065
0.320867 0.611200 0.767239
0.349767 0.610101 0.773312
0.385351 0.593805 0.786191
0.439429 0.566735 0.806973
0.555383 0.563928 0.827695
0.700740 0.581750 0.850095
0.831662 0.602747 0.871550
0.877745 0.603021 0.860990
0.323217 0.660548 0.753841
0.350896 0.659419 0.758267
0.417334 0.659998 0.772152
0.489570 0.656855 0.795987
0.547356 0.630488 0.824094
0.684688 0.652338 0.849882
0.825101 0.678859 0.877867
0.873533 0.674220 0.868772
0.307988 0.699550 0.750790
0.328862 0.695308 0.747280
0.377722 0.687404 0.740536
0.463874 0.693782 0.763577
0.561639 0.701717 0.798062
0.645228 0.693721 0.834134
0.790402 0.726650 0.867826
0.864042 0.735653 0.870695
0.321599 0.763638 0.788785
0.344915 0.762264 0.788113
0.396582 0.758724 0.786313
0.464332 0.754147 0.783871
0.539178 0.747646 0.779385
0.652064 0.768368 0.818570
0.764157 0.785916 0.865080
0.856138 0.799649 0.873472
0.353185 0.838895 0.833524
0.375921 0.838682 0.834043
0.423774 0.836332 0.833799
0.488319 0.833707 0.834073
0.560571 0.829160 0.833188
0.641444 0.825071 0.832914
0.732326 0.824613 0.835019
0.852232 0.857328 0.877745
0.377935 0.916503 0.880308
0.399054 0.916777 0.881285
0.450629 0.918486 0.884672
0.512993 0.918608 0.887114
0.585229 0.917967 0.889220
0.671534 0.917815 0.892119
0.776547 0.922728 0.900053
0.854520 0.915312 0.884489
0.379309 0.631312 0.856565
0.395178 0.626551 0.861540
0.421546 0.604150 0.869200
0.475563 0.577752 0.883299
0.592248 0.583886 0.894011
0.713680 0.591974 0.906554
0.833646 0.605859 0.921416
0.911803 0.611261 0.925933
0.393805 0.648707 0.849577
0.407263 0.643732 0.854124
0.433753 0.625116 0.862791
0.476204 0.595056 0.877226
0.584833 0.597620 0.889433
0.704555 0.605402 0.902373
0.823270 0.616724 0.916991
0.905303 0.622217 0.922820
0.433722 0.694118 0.841642
0.443458 0.689326 0.845426
0.464424 0.673640 0.853361
0.505333 0.654047 0.869566
0.575708 0.634607 0.884337
0.689815 0.640772 0.897032
0.807919 0.653162 0.912840
0.897704 0.660822 0.921874
0.428290 0.730312 0.830930
0.448829 0.731380 0.836149
0.497719 0.730617 0.845365
0.535027 0.717617 0.860624
0.578210 0.691127 0.879515
0.676905 0.690120 0.895598
0.794400 0.705135 0.912535
0.893736 0.718837 0.925414
0.418067 0.764675 0.816342
0.435462 0.765377 0.820798
0.472236 0.763363 0.829465
0.529747 0.762020 0.845060
0.594690 0.755123 0.865415
0.650965 0.731289 0.889220
0.774411 0.752346 0.909331
0.889921 0.778714 0.929290
0.424994 0.813931 0.841367
0.436286 0.811093 0.839506
0.464454 0.804929 0.835508
0.508629 0.798184 0.831266
0.577935 0.799466 0.847257
0.674159 0.808194 0.880369
0.764889 0.811185 0.911955
0.879728 0.835843 0.931823
0.463142 0.878935 0.882567
0.474769 0.877562 0.882017
0.502617 0.874083 0.880461
0.544549 0.869596 0.878782
0.596033 0.863157 0.875883
0.656519 0.854612 0.871153
0.760159 0.861906 0.895750
0.859983 0.875975 0.927245
0.474739 0.928649 0.909972
0.486641 0.927886 0.909880
0.516899 0.926421 0.910094
0.563134 0.925048 0.911192
0.619562 0.922850 0.912261
0.686793 0.919402 0.912902
0.764553 0.915129 0.913298
0.844572 0.911589 0.913146
