data/fiter_cube/89350833/1022875/file.cube
# Created by Adobe Lightroom plugin Export LUT (1.24.0)
# www.johnrellis.com/lightroom/exportlut.htm
# Preset: 婚礼接亲预设[余晖]-5 晨间化妆2
# Color profile: C:\Windows\System32\Spool\Drivers\Color\AppleRGB.icc
LUT_3D_SIZE 32
DOMAIN_MIN 0.0 0.0 0.0
DOMAIN_MAX 1.0 1.0 1.0
0.105074 0.140444 0.147311
0.105257 0.140414 0.147311
0.106569 0.140352 0.147311
0.110109 0.140322 0.147219
0.116670 0.140352 0.147158
0.127443 0.140291 0.146944
0.142550 0.140230 0.146578
0.162936 0.140078 0.146120
0.189944 0.139620 0.145357
0.225559 0.138552 0.144350
0.270115 0.136172 0.142885
0.324681 0.132204 0.140993
0.385779 0.126101 0.138582
0.451057 0.118013 0.135653
0.515923 0.108919 0.132143
0.578668 0.099763 0.128328
0.637354 0.091981 0.123934
0.689601 0.085878 0.119417
0.735622 0.082002 0.114809
0.777371 0.080995 0.110048
0.815976 0.081025 0.105074
0.851469 0.082918 0.100130
0.886015 0.086641 0.094545
0.930877 0.095338 0.086091
0.967529 0.104860 0.078065
0.998810 0.114595 0.069947
1.000000 0.125307 0.061524
1.000000 0.136080 0.052277
1.000000 0.147890 0.041505
1.000000 0.160250 0.027466
1.000000 0.173465 0.000000
1.000000 0.187564 0.000000
0.104952 0.140658 0.147280
0.105348 0.140597 0.147280
0.106691 0.140719 0.147219
0.110231 0.140993 0.147219
0.117067 0.141176 0.147036
0.127565 0.141360 0.146761
0.142611 0.141604 0.146456
0.162661 0.141726 0.145876
0.189212 0.141634 0.145144
0.223819 0.141024 0.144045
0.267826 0.139376 0.142489
0.320928 0.136233 0.140536
0.380957 0.131044 0.138125
0.444923 0.124239 0.135164
0.508751 0.116121 0.131777
0.571069 0.108309 0.127810
0.629419 0.101411 0.123445
0.682216 0.096010 0.118868
0.728420 0.092470 0.114290
0.770260 0.090791 0.109651
0.809110 0.091432 0.104555
0.844511 0.092714 0.099702
0.880919 0.096407 0.093782
0.923003 0.103029 0.086091
0.958038 0.111086 0.078492
0.988220 0.119173 0.070985
1.000000 0.128969 0.062867
1.000000 0.137942 0.054383
1.000000 0.148653 0.044129
1.000000 0.160342 0.031006
1.000000 0.172580 0.008148
1.000000 0.186282 0.000000
0.104372 0.142061 0.147433
0.104921 0.142092 0.147341
0.107454 0.141817 0.147219
0.110903 0.141695 0.147097
0.118318 0.143587 0.146609
0.129244 0.144442 0.146334
0.144747 0.145357 0.145785
0.165255 0.146212 0.145174
0.192569 0.147005 0.144167
0.228061 0.147189 0.142855
0.272648 0.146944 0.141115
0.326238 0.145052 0.138918
0.385931 0.141451 0.136233
0.449134 0.136385 0.132906
0.512047 0.130373 0.129366
0.572992 0.125063 0.125185
0.630030 0.120180 0.120668
0.681697 0.116976 0.115877
0.727443 0.114870 0.111086
0.769100 0.113863 0.106294
0.808072 0.114809 0.101015
0.843595 0.116396 0.095766
0.883970 0.120577 0.088899
0.923095 0.126345 0.081300
0.956176 0.133333 0.073701
0.985046 0.139681 0.066285
1.000000 0.147311 0.058259
1.000000 0.155520 0.049317
1.000000 0.164584 0.038453
1.000000 0.175051 0.023224
1.000000 0.187015 0.000000
1.000000 0.199649 0.000000
0.102480 0.146029 0.147768
0.103090 0.146181 0.147280
0.106264 0.146090 0.147127
0.112520 0.145052 0.146883
0.118929 0.143191 0.146853
0.130770 0.146242 0.146090
0.148653 0.151034 0.144839
0.171664 0.154147 0.143618
0.200717 0.156100 0.142428
0.237949 0.157778 0.140719
0.284215 0.158602 0.138643
0.338231 0.158572 0.135988
0.397925 0.156954 0.132723
0.459998 0.154238 0.129152
0.521508 0.151095 0.125032
0.580133 0.147860 0.120577
0.635096 0.145815 0.115663
0.684627 0.144259 0.110658
0.728328 0.143069 0.105806
0.768917 0.143587 0.100557
0.806851 0.144106 0.095308
0.843076 0.146120 0.089570
0.886046 0.150698 0.081697
0.923064 0.156832 0.073548
0.955566 0.162448 0.065309
0.984710 0.168734 0.056855
1.000000 0.175692 0.047456
1.000000 0.183261 0.036133
1.000000 0.191806 0.020294
1.000000 0.200534 0.000000
1.000000 0.210941 0.000000
1.000000 0.221195 0.000000
0.098817 0.153017 0.148562
0.099641 0.153048 0.147799
0.103212 0.153079 0.147066
0.110842 0.152682 0.146700
0.121309 0.150576 0.146334
0.130129 0.145144 0.146761
0.146151 0.149203 0.145754
0.169589 0.155306 0.144167
0.203128 0.164004 0.141512
0.244388 0.170047 0.138674
0.293095 0.173709 0.135744
0.349310 0.176852 0.131868
0.409247 0.177646 0.128054
0.471168 0.177462 0.123720
0.532403 0.177035 0.118837
0.591302 0.176547 0.113527
0.645624 0.176455 0.107912
0.694057 0.176761 0.102296
0.736599 0.176974 0.097017
0.775692 0.177646 0.091585
0.812222 0.178866 0.085756
0.854215 0.182742 0.077821
0.892882 0.187625 0.069337
0.926909 0.192203 0.060822
0.957641 0.197269 0.051331
0.985534 0.202304 0.041627
1.000000 0.208408 0.028748
1.000000 0.214420 0.006226
1.000000 0.221317 0.000000
1.000000 0.229038 0.000000
1.000000 0.237491 0.000000
1.000000 0.246769 0.000000
0.092348 0.164126 0.149935
0.093599 0.164218 0.149050
0.096956 0.164218 0.147219
0.105531 0.163790 0.146853
0.119051 0.163088 0.145937
0.134768 0.159487 0.145357
0.145968 0.148562 0.146151
0.167910 0.153170 0.144961
0.199130 0.161166 0.142824
0.243137 0.171847 0.139437
0.301701 0.185977 0.134066
0.363714 0.195163 0.128481
0.426307 0.199374 0.123018
0.490120 0.203586 0.116762
0.553002 0.208133 0.109651
0.611566 0.212039 0.102327
0.663233 0.213748 0.095857
0.708461 0.214817 0.089815
0.749050 0.215671 0.083711
0.786679 0.216800 0.077516
0.828794 0.220279 0.069001
0.869078 0.224765 0.059236
0.963958 0.258732 0.000000
0.995331 0.265873 0.000000
1.000000 0.272282 0.000000
1.000000 0.277867 0.000000
1.000000 0.282963 0.000000
1.000000 0.287724 0.000000
1.000000 0.292943 0.000000
1.000000 0.298314 0.000000
1.000000 0.303960 0.000000
1.000000 0.309514 0.000000
0.076234 0.187320 0.153231
0.078309 0.187198 0.151858
0.083314 0.187198 0.148379
0.095521 0.186709 0.146944
0.111666 0.185672 0.146151
0.137575 0.184146 0.143954
0.162020 0.177249 0.142824
0.176059 0.158724 0.144320
0.210178 0.160281 0.143069
0.258061 0.171542 0.139864
0.320500 0.186282 0.134646
0.395300 0.205051 0.126467
0.475319 0.228092 0.114809
0.545922 0.243565 0.103426
0.604486 0.248905 0.094453
0.656703 0.254124 0.085206
0.703243 0.258701 0.075868
0.744808 0.263340 0.065736
0.782406 0.266758 0.056153
0.827909 0.272068 0.042054
0.872038 0.278874 0.020783
0.912840 0.286046 0.000000
0.950530 0.293767 0.000000
0.984314 0.301183 0.000000
1.000000 0.308049 0.000000
1.000000 0.313756 0.000000
1.000000 0.317937 0.000000
1.000000 0.321904 0.000000
1.000000 0.325719 0.000000
1.000000 0.329686 0.000000
1.000000 0.333867 0.000000
1.000000 0.338476 0.000000
0.054353 0.210666 0.156588
0.057679 0.210605 0.155032
0.065675 0.210300 0.151644
0.078370 0.209842 0.147311
0.099794 0.208591 0.146334
0.123171 0.207156 0.144839
0.159274 0.205112 0.141360
0.189853 0.195254 0.139742
0.204410 0.170321 0.142123
0.246983 0.165225 0.141238
0.304082 0.178317 0.137331
0.373754 0.195102 0.131075
0.450904 0.215854 0.121859
0.528893 0.241276 0.108858
0.602533 0.270665 0.091463
0.660578 0.289006 0.075288
0.705043 0.292576 0.064607
0.749538 0.298070 0.050874
0.795407 0.306401 0.029603
0.837705 0.315038 0.000000
0.877287 0.324681 0.000000
0.914092 0.330144 0.000000
0.948577 0.336248 0.000000
0.980011 0.341833 0.000000
1.000000 0.347143 0.000000
1.000000 0.351080 0.000000
1.000000 0.354314 0.000000
1.000000 0.356909 0.000000
1.000000 0.359869 0.000000
1.000000 0.362524 0.000000
1.000000 0.366064 0.000000
1.000000 0.369574 0.000000
0.000000 0.241032 0.160281
0.000000 0.240909 0.158694
0.024537 0.240574 0.154818
0.043244 0.240238 0.147433
0.077485 0.238743 0.146120
0.107607 0.236851 0.144717
0.143191 0.234745 0.141787
0.189761 0.231998 0.136843
0.226596 0.218601 0.135042
0.245212 0.187533 0.138277
0.291142 0.170382 0.138674
0.356878 0.185702 0.133944
0.431159 0.204715 0.126711
0.508141 0.228153 0.116213
0.582055 0.255985 0.102022
0.652705 0.287877 0.082368
0.716976 0.322210 0.055085
0.767208 0.344640 0.018433
0.807431 0.350042 0.000000
0.845487 0.355901 0.000000
0.882383 0.363470 0.000000
0.917998 0.372442 0.000000
0.951446 0.382788 0.000000
0.981231 0.387488 0.000000
1.000000 0.391608 0.000000
1.000000 0.393988 0.000000
1.000000 0.395422 0.000000
1.000000 0.396857 0.000000
1.000000 0.398199 0.000000
1.000000 0.399664 0.000000
1.000000 0.401648 0.000000
1.000000 0.403967 0.000000
0.000000 0.278569 0.164462
0.000000 0.278264 0.162600
0.000000 0.277501 0.158206
0.000000 0.276524 0.150759
0.028290 0.275303 0.145113
0.081727 0.273075 0.143465
0.120943 0.270726 0.141573
0.171756 0.267948 0.136538
0.228794 0.264347 0.130098
0.271580 0.246921 0.128206
0.293492 0.209201 0.132937
0.338781 0.175265 0.135531
0.410346 0.192752 0.129976
0.495155 0.216434 0.120821
0.579370 0.246647 0.107332
0.654780 0.280644 0.089601
0.717708 0.314855 0.067018
0.770260 0.347814 0.035065
0.816770 0.380194 0.000000
0.856931 0.404578 0.000000
0.890227 0.409033 0.000000
0.921935 0.414679 0.000000
0.951598 0.420844 0.000000
0.979034 0.427924 0.000000
1.000000 0.433295 0.000000
1.000000 0.433783 0.000000
1.000000 0.433875 0.000000
1.000000 0.434577 0.000000
1.000000 0.435248 0.000000
1.000000 0.436530 0.000000
1.000000 0.438056 0.000000
1.000000 0.439948 0.000000
0.000000 0.318547 0.168765
0.000000 0.318334 0.166842
0.000000 0.317723 0.161990
0.000000 0.316960 0.154177
0.000000 0.316472 0.143618
0.021576 0.314702 0.141512
0.092958 0.312840 0.139315
0.142794 0.310491 0.136538
0.210697 0.307652 0.128359
0.278691 0.303655 0.119814
0.330297 0.284154 0.117617
0.361151 0.240574 0.123903
0.410529 0.192416 0.129000
0.490150 0.205264 0.122866
0.571069 0.233738 0.112001
0.645014 0.266575 0.097475
0.707485 0.300572 0.079683
0.760433 0.333745 0.056641
0.807065 0.366430 0.017639
0.848997 0.398444 0.000000
0.887144 0.429938 0.000000
0.921538 0.457435 0.000000
0.950225 0.461738 0.000000
0.976867 0.466651 0.000000
1.000000 0.471687 0.000000
1.000000 0.476448 0.000000
1.000000 0.476478 0.000000
1.000000 0.475563 0.000000
1.000000 0.475166 0.000000
1.000000 0.475349 0.000000
1.000000 0.475990 0.000000
1.000000 0.476967 0.000000
0.000000 0.366796 0.174136
0.000000 0.366339 0.171725
0.000000 0.366094 0.166201
0.000000 0.365332 0.157778
0.000000 0.365057 0.141390
0.000000 0.363439 0.138979
0.033112 0.362158 0.136080
0.115145 0.363836 0.132723
0.185122 0.364843 0.126314
0.269352 0.365087 0.114015
0.353857 0.363409 0.100160
0.410224 0.336461 0.098604
0.517723 0.320958 0.093172
0.568933 0.246220 0.107332
0.645106 0.242710 0.102907
0.711757 0.281163 0.089204
0.766018 0.318639 0.073243
0.812375 0.354559 0.053071
0.852934 0.388891 0.020386
0.889677 0.422156 0.000000
0.922881 0.454414 0.000000
0.953094 0.485481 0.000000
0.980102 0.514733 0.000000
1.000000 0.542138 0.000000
1.000000 0.542199 0.000000
1.000000 0.542199 0.000000
1.000000 0.542412 0.000000
1.000000 0.540490 0.000000
1.000000 0.536797 0.000000
1.000000 0.533898 0.000000
1.000000 0.531456 0.000000
1.000000 0.529778 0.000000
0.000000 0.450752 0.185031
0.000000 0.450782 0.182132
0.000000 0.451057 0.175937
0.000000 0.451270 0.165316
0.000000 0.451423 0.148409
0.000000 0.451148 0.135073
0.000000 0.450660 0.131136
0.063294 0.449989 0.126284
0.159640 0.450050 0.121035
0.258579 0.450965 0.106874
0.362219 0.452125 0.084901
0.462470 0.452949 0.056306
0.526116 0.421302 0.053529
0.567163 0.357214 0.075380
0.614282 0.280125 0.094728
0.681971 0.251621 0.096437
0.741268 0.290318 0.083406
0.790677 0.327520 0.068238
0.833677 0.363470 0.048737
0.872007 0.397986 0.013794
0.906554 0.431556 0.000000
0.938048 0.463600 0.000000
0.966155 0.494240 0.000000
0.991608 0.522881 0.000000
1.000000 0.549523 0.000000
1.000000 0.573754 0.000000
1.000000 0.576440 0.000000
1.000000 0.575677 0.000000
1.000000 0.573938 0.000000
1.000000 0.570367 0.000000
1.000000 0.567315 0.000000
1.000000 0.565087 0.000000
0.000000 0.519768 0.197665
0.000000 0.519066 0.194949
0.000000 0.517632 0.187076
0.000000 0.515373 0.175723
0.000000 0.512566 0.160708
0.000000 0.510430 0.135927
0.000000 0.507195 0.131197
0.000000 0.504540 0.125978
0.119722 0.502647 0.119753
0.208804 0.501854 0.113344
0.321508 0.502098 0.090272
0.424750 0.502190 0.060273
0.522606 0.501427 0.000000
0.578912 0.463722 0.000000
0.615747 0.396277 0.051301
0.652857 0.314427 0.080476
0.711330 0.258701 0.090608
0.765591 0.297398 0.077790
0.812284 0.335210 0.062745
0.853239 0.371588 0.043030
0.889769 0.406622 0.000000
0.922942 0.440497 0.000000
0.952575 0.472694 0.000000
0.979431 0.503288 0.000000
1.000000 0.531731 0.000000
1.000000 0.557763 0.000000
1.000000 0.581323 0.000000
1.000000 0.602564 0.000000
1.000000 0.608698 0.000000
1.000000 0.606867 0.000000
1.000000 0.603326 0.000000
1.000000 0.600519 0.000000
0.000000 0.576043 0.212131
0.000000 0.575555 0.209110
0.000000 0.573785 0.201328
0.000000 0.570672 0.189548
0.000000 0.566674 0.174929
0.000000 0.563622 0.142153
0.000000 0.559075 0.136568
0.000000 0.555291 0.130282
0.059022 0.552514 0.123812
0.178134 0.551019 0.116915
0.274113 0.550591 0.103822
0.383734 0.550469 0.074464
0.484077 0.549371 0.027527
0.576532 0.546471 0.000000
0.625849 0.503410 0.000000
0.658534 0.433661 0.008453
0.689052 0.349493 0.063142
0.742611 0.267552 0.083406
0.792569 0.306493 0.070436
0.835691 0.344366 0.055421
0.874205 0.380987 0.034730
0.908568 0.416419 0.000000
0.939452 0.450233 0.000000
0.967559 0.482490 0.000000
0.992981 0.512932 0.000000
1.000000 0.541375 0.000000
1.000000 0.567651 0.000000
1.000000 0.591638 0.000000
1.000000 0.613916 0.000000
1.000000 0.634363 0.000000
1.000000 0.643702 0.000000
1.000000 0.640925 0.000000
0.000000 0.625025 0.229648
0.000000 0.625452 0.227298
0.000000 0.624659 0.221103
0.000000 0.622736 0.210788
0.000000 0.620050 0.197360
0.000000 0.617700 0.173220
0.000000 0.615686 0.153323
0.000000 0.612757 0.146883
0.000000 0.609949 0.139467
0.152316 0.607446 0.132082
0.244999 0.604791 0.123262
0.345708 0.601648 0.100923
0.446571 0.597528 0.062806
0.538323 0.591821 0.000000
0.622370 0.584833 0.000000
0.663020 0.536248 0.000000
0.692988 0.466804 0.000000
0.722499 0.384588 0.039948
0.772274 0.302312 0.068055
0.820035 0.316625 0.061585
0.861723 0.355993 0.045045
0.898711 0.394079 0.020783
0.931426 0.430365 0.000000
0.960845 0.465187 0.000000
0.987457 0.498116 0.000000
1.000000 0.528679 0.000000
1.000000 0.557305 0.000000
1.000000 0.583337 0.000000
1.000000 0.607141 0.000000
1.000000 0.628595 0.000000
1.000000 0.647547 0.000000
1.000000 0.668971 0.000000
0.000000 0.664759 0.248325
0.000000 0.664271 0.245975
0.000000 0.663050 0.240299
0.000000 0.660914 0.230961
0.000000 0.658045 0.219516
0.000000 0.655146 0.204410
0.000000 0.654200 0.172366
0.000000 0.650965 0.165530
0.000000 0.648096 0.158358
0.116335 0.645197 0.150362
0.219852 0.642329 0.142245
0.299626 0.639307 0.132509
0.401648 0.635554 0.101839
0.495369 0.630304 0.056855
0.580804 0.623529 0.000000
0.659632 0.615381 0.000000
0.694911 0.564721 0.000000
0.723751 0.497475 0.000000
0.753109 0.418585 0.000000
0.798734 0.337163 0.049012
0.844541 0.326116 0.051301
0.884154 0.366125 0.032258
0.919127 0.404639 0.000000
0.950378 0.441535 0.000000
0.978546 0.476967 0.000000
1.000000 0.510338 0.000000
1.000000 0.541558 0.000000
1.000000 0.570184 0.000000
1.000000 0.596338 0.000000
1.000000 0.619715 0.000000
1.000000 0.640558 0.000000
1.000000 0.658839 0.000000
0.000000 0.702724 0.271244
0.000000 0.703548 0.270054
0.000000 0.740078 0.299596
0.000000 0.737789 0.292729
0.000000 0.734615 0.284001
0.000000 0.730587 0.273533
0.000000 0.728908 0.237888
0.000000 0.724514 0.228733
0.000000 0.720089 0.219364
0.146700 0.715755 0.209842
0.240787 0.711452 0.199374
0.315831 0.706844 0.188113
0.391241 0.701289 0.169192
0.482033 0.694667 0.131411
0.566461 0.686641 0.082246
0.644617 0.677699 0.000000
0.717250 0.667872 0.000000
0.746761 0.614405 0.000000
0.773953 0.546929 0.000000
0.802029 0.468055 0.000000
0.842252 0.384802 0.000000
0.885344 0.347112 0.030335
0.920287 0.387762 0.000000
0.951324 0.426734 0.000000
0.978729 0.463508 0.000000
1.000000 0.498116 0.000000
1.000000 0.530114 0.000000
1.000000 0.559899 0.000000
1.000000 0.587640 0.000000
1.000000 0.612848 0.000000
1.000000 0.635370 0.000000
1.000000 0.654902 0.000000
0.000000 0.748989 0.307836
0.000000 0.751858 0.309453
0.000000 0.754086 0.309667
0.000000 0.755032 0.307134
0.000000 0.754330 0.302770
0.000000 0.751736 0.295567
0.000000 0.750057 0.269322
0.000000 0.747066 0.252140
0.000000 0.743069 0.242771
0.124392 0.739315 0.233585
0.221103 0.735470 0.223667
0.296544 0.731228 0.213291
0.361273 0.726253 0.200870
0.439429 0.720607 0.173678
0.523186 0.713588 0.133120
0.601038 0.705592 0.081819
0.674495 0.696895 0.000000
0.743069 0.687953 0.000000
0.768856 0.634760 0.000000
0.795895 0.571466 0.000000
0.823972 0.497108 0.000000
0.862150 0.417151 0.000000
0.906126 0.356176 0.000000
0.939818 0.397528 0.000000
0.969360 0.436957 0.000000
0.995636 0.474159 0.000000
1.000000 0.509087 0.000000
1.000000 0.541588 0.000000
1.000000 0.571588 0.000000
1.000000 0.599207 0.000000
1.000000 0.623835 0.000000
1.000000 0.645319 0.000000
0.000000 0.771633 0.325841
0.000000 0.774136 0.328069
0.000000 0.776059 0.329015
0.000000 0.777005 0.328038
0.000000 0.776455 0.325231
0.000000 0.774136 0.320226
0.000000 0.772061 0.303471
0.000000 0.770535 0.278447
0.000000 0.767178 0.270085
0.115114 0.763607 0.261021
0.210300 0.760067 0.251591
0.284062 0.756069 0.240757
0.347173 0.751553 0.228672
0.404425 0.746517 0.215030
0.485939 0.740352 0.179873
0.562676 0.733211 0.137270
0.635492 0.725307 0.083314
0.704463 0.716976 0.000000
0.766262 0.706508 0.000000
0.791257 0.655818 0.000000
0.817929 0.596094 0.000000
0.846128 0.526268 0.000000
0.881926 0.448981 0.000000
0.926665 0.370275 0.000000
0.958984 0.407630 0.000000
0.987243 0.447517 0.000000
1.000000 0.484993 0.000000
1.000000 0.520226 0.000000
1.000000 0.553063 0.000000
1.000000 0.583429 0.000000
1.000000 0.610651 0.000000
1.000000 0.634577 0.000000
0.000000 0.795285 0.347753
0.000000 0.797665 0.350713
0.000000 0.799619 0.352483
0.000000 0.800443 0.352911
0.000000 0.799893 0.351446
0.000000 0.797604 0.348089
0.000000 0.794583 0.340215
0.000000 0.794064 0.308782
0.000000 0.790616 0.299840
0.118166 0.786923 0.290196
0.206699 0.783200 0.279911
0.276158 0.779324 0.269261
0.336889 0.775113 0.256870
0.392462 0.770596 0.244388
0.454017 0.765713 0.223239
0.530144 0.760159 0.186801
0.603204 0.754604 0.145418
0.673152 0.748898 0.092897
0.740017 0.743374 0.000000
0.797635 0.733303 0.000000
0.824094 0.688411 0.000000
0.852323 0.634668 0.000000
0.881834 0.569909 0.000000
0.916472 0.495613 0.000000
0.961517 0.420874 0.000000
0.994293 0.434485 0.000000
1.000000 0.476295 0.000000
1.000000 0.515404 0.000000
1.000000 0.551415 0.000000
1.000000 0.584009 0.000000
1.000000 0.613001 0.000000
1.000000 0.638056 0.000000
0.000000 0.832639 0.393896
0.000000 0.833249 0.395239
0.000000 0.832944 0.395300
0.000000 0.831815 0.394171
0.000000 0.829709 0.392065
0.000000 0.826688 0.388952
0.000000 0.823087 0.385962
0.000000 0.823331 0.353796
0.056855 0.820584 0.345190
0.162936 0.817868 0.337011
0.234836 0.815091 0.327916
0.296269 0.811978 0.317754
0.351232 0.808286 0.306706
0.402380 0.804135 0.293645
0.450477 0.799588 0.279210
0.514824 0.794614 0.250462
0.584192 0.789303 0.212863
0.651392 0.783749 0.169833
0.716487 0.778164 0.118196
0.778042 0.772854 0.040436
0.828550 0.760067 0.000000
0.852842 0.717250 0.000000
0.878782 0.665400 0.000000
0.906004 0.602625 0.000000
0.936370 0.529808 0.000000
0.979919 0.457740 0.000000
1.000000 0.447395 0.000000
1.000000 0.489662 0.000000
1.000000 0.528893 0.000000
1.000000 0.564965 0.000000
1.000000 0.597009 0.000000
1.000000 0.624872 0.000000
0.000000 0.853025 0.418555
0.000000 0.853422 0.419867
0.000000 0.853086 0.420478
0.000000 0.851865 0.420111
0.000000 0.849821 0.418860
0.000000 0.846891 0.416724
0.000000 0.843442 0.414771
0.000000 0.843168 0.389471
0.104341 0.841276 0.375616
0.183841 0.838834 0.367590
0.247105 0.836210 0.359045
0.303319 0.833433 0.349432
0.354253 0.830259 0.338598
0.402625 0.826688 0.327001
0.448493 0.822873 0.313390
0.494697 0.818814 0.297520
0.561669 0.814420 0.263828
0.627192 0.809751 0.225864
0.690669 0.805020 0.183291
0.751919 0.800320 0.132937
0.810361 0.795865 0.063111
0.855100 0.782254 0.000000
0.878843 0.743008 0.000000
0.904326 0.695491 0.000000
0.927581 0.632959 0.000000
0.955901 0.562707 0.000000
0.998688 0.495216 0.000000
1.000000 0.462898 0.000000
1.000000 0.505486 0.000000
1.000000 0.544884 0.000000
1.000000 0.580316 0.000000
1.000000 0.611353 0.000000
0.000000 0.881621 0.464057
0.000000 0.882017 0.465705
0.000000 0.881285 0.466407
0.000000 0.879606 0.465736
0.000000 0.876951 0.464057
0.000000 0.873533 0.461860
0.123079 0.869566 0.459113
0.140414 0.868101 0.437812
0.172213 0.866087 0.418677
0.224949 0.862821 0.408515
0.273442 0.859281 0.397101
0.319951 0.855833 0.385870
0.364477 0.852140 0.373358
0.407050 0.848142 0.359625
0.448402 0.843687 0.344427
0.488838 0.839139 0.328435
0.539361 0.834562 0.303990
0.601587 0.829953 0.268925
0.663539 0.825711 0.231083
0.724392 0.821897 0.189029
0.782803 0.818357 0.139864
0.838041 0.814817 0.071290
0.877256 0.799374 0.000000
0.899168 0.762234 0.000000
0.922332 0.716457 0.000000
0.946990 0.660212 0.000000
0.973663 0.593439 0.000000
1.000000 0.528374 0.000000
1.000000 0.474983 0.000000
1.000000 0.517266 0.000000
1.000000 0.556329 0.000000
1.000000 0.591180 0.000000
0.000000 0.896605 0.483589
0.000000 0.897124 0.486061
0.000000 0.896696 0.487373
0.000000 0.895384 0.488014
0.000000 0.893248 0.487678
0.098299 0.890532 0.486854
0.170718 0.887388 0.485756
0.192508 0.886229 0.469642
0.210910 0.885466 0.450324
0.256870 0.883024 0.441901
0.300633 0.880339 0.433173
0.343023 0.877684 0.423590
0.383978 0.874754 0.412909
0.423468 0.871427 0.400549
0.461738 0.867826 0.386847
0.499214 0.863981 0.371679
0.536339 0.860105 0.356298
0.591943 0.855985 0.325750
0.650477 0.852018 0.291112
0.708278 0.848356 0.253574
0.764889 0.844755 0.211185
0.818692 0.841337 0.162905
0.869902 0.837766 0.098665
0.903746 0.820981 0.000000
0.924529 0.786893 0.000000
0.946807 0.744930 0.000000
0.970977 0.693507 0.000000
0.996735 0.631312 0.000000
1.000000 0.569604 0.000000
1.000000 0.504082 0.000000
1.000000 0.539696 0.000000
1.000000 0.577630 0.000000
0.000000 0.915038 0.514031
0.000000 0.915160 0.515618
0.000000 0.914366 0.516167
0.000000 0.912810 0.516014
0.102083 0.910582 0.514946
0.161074 0.907805 0.513420
0.212161 0.904692 0.511620
0.233463 0.903166 0.498268
0.241306 0.902831 0.476997
0.281285 0.900542 0.469368
0.320714 0.898161 0.460792
0.359960 0.895811 0.452522
0.398352 0.893309 0.443183
0.435401 0.890593 0.432593
0.471290 0.887388 0.420233
0.506493 0.883940 0.406317
0.541192 0.880369 0.390997
0.581567 0.876860 0.371313
0.637049 0.873228 0.339117
0.692256 0.869810 0.305394
0.746578 0.866484 0.268040
0.799527 0.863310 0.225772
0.849973 0.860075 0.176913
0.897734 0.856870 0.114656
0.926909 0.839017 0.029755
0.946807 0.807401 0.000000
0.968078 0.768826 0.000000
0.991028 0.721157 0.000000
1.000000 0.663172 0.000000
1.000000 0.604608 0.000000
1.000000 0.543236 0.000000
1.000000 0.556023 0.000000
0.000000 0.929778 0.536736
0.000000 0.929656 0.537469
0.054688 0.928862 0.537957
0.113375 0.927581 0.538079
0.162875 0.925994 0.538354
0.210391 0.924163 0.538872
0.256779 0.922606 0.540398
0.283177 0.922515 0.533257
0.291966 0.924224 0.515801
0.332158 0.923766 0.513695
0.371893 0.923308 0.511376
0.410559 0.922667 0.508476
0.447791 0.921691 0.504204
0.483436 0.920226 0.498238
0.517357 0.918242 0.490455
0.549340 0.915587 0.479774
0.580621 0.912688 0.467506
0.611841 0.909850 0.454444
0.655940 0.906828 0.432349
0.705653 0.903838 0.403937
0.754849 0.900969 0.371740
0.803098 0.898070 0.336309
0.849973 0.894987 0.295171
0.895171 0.891691 0.247471
0.938445 0.888212 0.191196
0.962371 0.869780 0.133272
0.980774 0.841428 0.061921
1.000000 0.806699 0.000000
1.000000 0.764370 0.000000
1.000000 0.712398 0.000000
1.000000 0.656916 0.000000
1.000000 0.599023 0.000000
0.183810 0.952911 0.586419
0.192752 0.952728 0.586908
0.211002 0.951904 0.586999
0.234653 0.950561 0.586511
0.262028 0.948821 0.585626
0.292515 0.946777 0.584863
0.324926 0.944701 0.584283
0.343511 0.943877 0.576135
0.344457 0.944945 0.556909
0.375402 0.943603 0.552453
0.406928 0.942138 0.547692
0.438636 0.940642 0.542351
0.470222 0.938903 0.536370
0.500816 0.936919 0.528923
0.530877 0.934569 0.519951
