data/fiter_cube/60169440/1023143/file.cube
# Created by Adobe Lightroom plugin Export LUT (1.17.0)
# www.johnrellis.com/lightroom/exportlut.htm
# Preset: 海滩旅拍低饱和胶片_01 云集
# Color profile: C:\Program Files (x86)\Common Files\Adobe\Color\Profiles\Recommended\AdobeRGB1998.icc
LUT_3D_SIZE 32
DOMAIN_MIN 0.0 0.0 0.0
DOMAIN_MAX 1.0 1.0 1.0
0.039918 0.046296 0.071168
0.048219 0.047059 0.071778
0.056245 0.049165 0.073030
0.067903 0.054322 0.076448
0.084565 0.058717 0.080140
0.107912 0.059052 0.083375
0.138735 0.051362 0.086213
0.175540 0.029480 0.088502
0.217502 0.000000 0.090944
0.263157 0.000000 0.092958
0.312200 0.000000 0.094606
0.362890 0.000000 0.096437
0.414466 0.000000 0.097810
0.465614 0.000000 0.099550
0.515343 0.000000 0.101625
0.570245 0.000000 0.104402
0.626001 0.000000 0.108644
0.674342 0.000000 0.114504
0.716823 0.000000 0.122072
0.756802 0.000000 0.132052
0.794400 0.000000 0.144900
0.829404 0.000000 0.161166
0.861112 0.000000 0.180575
0.889891 0.000000 0.203861
0.915831 0.129519 0.231449
0.939208 0.209567 0.264256
0.960174 0.278782 0.304112
0.978515 0.346227 0.352361
0.993835 0.415259 0.410712
1.000000 0.487556 0.480201
1.000000 0.563684 0.560815
1.000000 0.639948 0.646632
0.038056 0.054383 0.073732
0.045594 0.051759 0.073060
0.055329 0.054597 0.073182
0.067048 0.059297 0.076265
0.083467 0.062287 0.079927
0.106020 0.062470 0.083253
0.136507 0.058473 0.086091
0.172732 0.041718 0.088411
0.214145 0.003571 0.090608
0.259525 0.000000 0.092683
0.307988 0.000000 0.094392
0.358404 0.000000 0.096284
0.409461 0.000000 0.097749
0.460334 0.000000 0.099306
0.510063 0.000000 0.101259
0.564691 0.000000 0.103914
0.618677 0.000000 0.107942
0.666468 0.000000 0.113069
0.708827 0.000000 0.120211
0.748959 0.000000 0.129702
0.786923 0.000000 0.141970
0.822446 0.000000 0.157534
0.854856 0.000000 0.176333
0.884337 0.000000 0.198825
0.910979 0.116396 0.225772
0.935119 0.199863 0.257908
0.956878 0.269780 0.297154
0.975952 0.337865 0.344732
0.991943 0.407294 0.402502
1.000000 0.479713 0.471504
1.000000 0.556023 0.551843
1.000000 0.633204 0.638392
0.032776 0.063600 0.077729
0.045655 0.060853 0.077790
0.052247 0.058961 0.076204
0.065949 0.063264 0.076722
0.081880 0.066255 0.080049
0.104311 0.066590 0.083040
0.133944 0.063874 0.085939
0.169680 0.054139 0.088258
0.210666 0.021637 0.090517
0.255772 0.000000 0.092592
0.304051 0.000000 0.094331
0.354253 0.000000 0.095979
0.405402 0.000000 0.097475
0.456336 0.000000 0.099062
0.505943 0.000000 0.100801
0.561151 0.000000 0.103487
0.613947 0.000000 0.107271
0.661250 0.000000 0.112215
0.703792 0.000000 0.118929
0.744076 0.000000 0.128054
0.782467 0.000000 0.140078
0.818448 0.000000 0.155306
0.851255 0.000000 0.173922
0.881132 0.000000 0.196139
0.908202 0.114992 0.222599
0.932738 0.197452 0.254398
0.954894 0.267094 0.293217
0.974395 0.334874 0.340551
0.990784 0.404273 0.398199
1.000000 0.476570 0.466926
1.000000 0.552667 0.547021
1.000000 0.630030 0.633906
0.023468 0.077760 0.085817
0.039063 0.075532 0.085878
0.050294 0.071412 0.086061
0.062470 0.068757 0.082795
0.079347 0.073213 0.080598
0.100862 0.075074 0.083192
0.130068 0.073915 0.085756
0.165438 0.068482 0.088106
0.205844 0.055482 0.090364
0.250645 0.010559 0.092164
0.298466 0.000000 0.093965
0.348669 0.000000 0.095338
0.399420 0.000000 0.096864
0.450233 0.000000 0.098238
0.500084 0.000000 0.100008
0.556023 0.000000 0.102541
0.607416 0.000000 0.105989
0.654108 0.000000 0.110780
0.696254 0.000000 0.117006
0.736294 0.000000 0.125612
0.774746 0.000000 0.136934
0.811154 0.000000 0.151492
0.844968 0.000000 0.169680
0.876188 0.000000 0.191958
0.904723 0.123293 0.218906
0.930510 0.202762 0.251560
0.953582 0.271702 0.291142
0.973571 0.339025 0.339208
0.990204 0.407477 0.397070
1.000000 0.478584 0.465583
1.000000 0.553216 0.544915
1.000000 0.629175 0.630915
0.006470 0.098054 0.097322
0.021820 0.095583 0.096681
0.041932 0.092500 0.097047
0.059236 0.082246 0.096651
0.074037 0.079896 0.090486
0.096529 0.083589 0.085115
0.123629 0.086732 0.085359
0.158175 0.084565 0.087373
0.197879 0.077790 0.089693
0.241917 0.065095 0.091524
0.289555 0.021790 0.093080
0.339300 0.000000 0.094728
0.390234 0.000000 0.096010
0.441352 0.000000 0.097383
0.493935 0.000000 0.099031
0.549096 0.000000 0.101228
0.600305 0.000000 0.104524
0.647517 0.000000 0.108888
0.690364 0.000000 0.114900
0.730831 0.000000 0.123293
0.769345 0.000000 0.134432
0.806027 0.000000 0.148714
0.840269 0.000000 0.166537
0.872099 0.000000 0.188540
0.901305 0.141939 0.215396
0.927733 0.212924 0.247990
0.951293 0.278202 0.287572
0.971740 0.343023 0.335332
0.988739 0.409644 0.392889
1.000000 0.479286 0.461036
1.000000 0.552941 0.540368
1.000000 0.628382 0.626764
0.000000 0.125734 0.111421
0.000000 0.123293 0.110079
0.012726 0.119631 0.108797
0.050660 0.109682 0.107912
0.066285 0.099184 0.106325
0.091005 0.094331 0.098909
0.121920 0.097414 0.091279
0.151156 0.101625 0.087098
0.189944 0.099184 0.089082
0.233707 0.092927 0.090547
0.281071 0.080934 0.092073
0.330816 0.059907 0.093446
0.381628 0.000000 0.094697
0.433265 0.000000 0.096040
0.488838 0.000000 0.097658
0.542962 0.000000 0.099702
0.593927 0.000000 0.102571
0.641535 0.000000 0.106691
0.685206 0.000000 0.112703
0.726558 0.000000 0.121248
0.765988 0.000000 0.132143
0.803555 0.000000 0.146761
0.872923 0.126741 0.189181
0.901122 0.186709 0.215671
0.926207 0.241245 0.246921
0.948363 0.295140 0.283726
0.967681 0.350164 0.327001
0.984070 0.407416 0.378332
0.997284 0.468025 0.438758
1.000000 0.532738 0.508995
1.000000 0.600610 0.587457
1.000000 0.667109 0.667109
0.000000 0.166323 0.130739
0.000000 0.163455 0.128481
0.000000 0.159518 0.126467
0.007813 0.150973 0.125490
0.061250 0.128756 0.121645
0.081849 0.124575 0.118593
0.121157 0.115724 0.110414
0.160861 0.117891 0.099794
0.192966 0.119448 0.090913
0.232029 0.120668 0.089296
0.280552 0.114778 0.090730
0.331365 0.104402 0.092103
0.382971 0.088777 0.093050
0.439643 0.064149 0.094270
0.496895 0.000000 0.095705
0.550225 0.000000 0.097688
0.600519 0.000000 0.101045
0.647852 0.000000 0.105287
0.691768 0.000000 0.111940
0.734463 0.000000 0.121340
0.776181 0.000000 0.134493
0.816587 0.065126 0.151888
0.854154 0.136019 0.174624
0.888029 0.193637 0.202579
0.917510 0.248203 0.235813
0.942412 0.301366 0.274052
0.963348 0.355047 0.318181
0.980774 0.410376 0.369635
0.994873 0.469184 0.429969
1.000000 0.531792 0.499641
1.000000 0.598260 0.578058
1.000000 0.664363 0.658778
0.000000 0.208286 0.149844
0.000000 0.205325 0.147585
0.000000 0.201541 0.145022
0.000000 0.193179 0.141878
0.031128 0.176211 0.140200
0.075837 0.144015 0.139590
0.106142 0.153597 0.130922
0.157076 0.140139 0.122988
0.201907 0.141115 0.109560
0.235874 0.140627 0.096864
0.269169 0.143343 0.088838
0.319097 0.138949 0.089845
0.374395 0.132174 0.090639
0.431556 0.122377 0.091371
0.486519 0.109010 0.092622
0.538781 0.092348 0.094636
0.588647 0.075074 0.097200
0.636255 0.059052 0.101472
0.680934 0.049531 0.107668
0.724269 0.068086 0.116579
0.766629 0.096590 0.129244
0.807675 0.133059 0.146181
0.845945 0.174502 0.168338
0.880613 0.219028 0.195712
0.911070 0.265660 0.228336
0.936889 0.313725 0.266056
0.958801 0.363439 0.309697
0.977173 0.415900 0.360937
0.992096 0.472480 0.421118
1.000000 0.533104 0.490669
1.000000 0.598169 0.569604
1.000000 0.663630 0.651637
0.000000 0.255222 0.171389
0.000000 0.252567 0.169131
0.000000 0.248997 0.166659
0.000000 0.241001 0.162448
0.000000 0.228519 0.162020
0.063600 0.198276 0.154879
0.094911 0.173037 0.157076
0.140810 0.189242 0.145327
0.202060 0.169924 0.138064
0.250828 0.169192 0.121035
0.286381 0.167453 0.104738
0.322026 0.168154 0.090730
0.367102 0.169406 0.087343
0.422705 0.164584 0.087922
0.476387 0.157870 0.088777
0.528130 0.150332 0.090608
0.578088 0.143252 0.093050
0.626123 0.138613 0.096895
0.671595 0.137850 0.102815
0.715663 0.144472 0.111604
0.758633 0.159243 0.124208
0.800290 0.182223 0.140993
0.839170 0.212711 0.162905
0.874388 0.248722 0.190005
0.905516 0.289006 0.222324
0.932158 0.331670 0.259861
0.954833 0.377386 0.303471
0.973907 0.426459 0.354406
0.989502 0.479957 0.414405
1.000000 0.537926 0.483772
1.000000 0.600732 0.562585
1.000000 0.664851 0.645411
0.000000 0.306096 0.194919
0.000000 0.303532 0.192905
0.000000 0.300114 0.190188
0.000000 0.292607 0.185611
0.000000 0.280858 0.182681
0.009796 0.259098 0.181186
0.089204 0.219516 0.173892
0.122957 0.210025 0.174624
0.184756 0.229709 0.161837
0.256840 0.206790 0.156924
0.310430 0.205264 0.135988
0.346502 0.201297 0.114870
0.379187 0.199069 0.096498
0.410224 0.200626 0.083375
0.464668 0.197818 0.084230
0.517723 0.194247 0.085451
0.569177 0.191409 0.088045
0.618524 0.190005 0.091371
0.664973 0.191684 0.097475
0.709468 0.197208 0.106416
0.752285 0.208133 0.119142
0.793210 0.225437 0.135714
0.831510 0.248447 0.156924
0.866575 0.277134 0.183078
0.898039 0.310826 0.214206
0.925566 0.348638 0.251225
0.949462 0.390570 0.294804
0.969787 0.437110 0.346136
0.986481 0.488624 0.406958
0.999084 0.545068 0.477668
1.000000 0.606714 0.558160
1.000000 0.670100 0.643030
0.000000 0.357763 0.219883
0.000000 0.355505 0.217899
0.000000 0.352483 0.215274
0.000000 0.345739 0.210605
0.000000 0.334905 0.206363
0.000000 0.319951 0.208194
0.075685 0.285252 0.198154
0.122133 0.242527 0.200595
0.162722 0.255680 0.196323
0.242802 0.280674 0.182956
0.319921 0.250004 0.179446
0.372045 0.244450 0.153536
0.404883 0.237339 0.127474
0.434821 0.232700 0.104341
0.463294 0.230900 0.083955
0.504753 0.231998 0.079438
0.556786 0.231174 0.081453
0.606653 0.231815 0.084840
0.654170 0.234226 0.090608
0.699611 0.239658 0.099519
0.743221 0.249302 0.112337
0.785061 0.263676 0.129274
0.824308 0.283665 0.150881
0.860197 0.308476 0.177035
0.892424 0.337865 0.208682
0.920653 0.371374 0.245579
0.945129 0.409125 0.288823
0.966064 0.451850 0.340002
0.983368 0.499947 0.400488
0.996674 0.553277 0.471015
1.000000 0.612360 0.551812
1.000000 0.674098 0.637873
0.000000 0.413245 0.248203
0.000000 0.411627 0.246525
0.000000 0.409125 0.244022
0.000000 0.403815 0.239628
0.000000 0.394995 0.235172
0.000000 0.382513 0.234318
0.027436 0.359564 0.233890
0.116854 0.316442 0.222049
0.158389 0.277714 0.228977
0.211429 0.305699 0.220340
0.303777 0.331487 0.205936
0.385260 0.295995 0.204532
0.473213 0.313207 0.185519
0.502159 0.301244 0.150179
0.528099 0.292790 0.119142
0.553246 0.288304 0.089296
0.580591 0.290074 0.070283
0.629816 0.292271 0.076112
0.675563 0.295537 0.084749
0.719203 0.301488 0.097108
0.760861 0.310582 0.113344
0.800229 0.323644 0.133333
0.836728 0.340551 0.157290
0.870146 0.361883 0.185885
0.900206 0.387213 0.219486
0.926696 0.416846 0.258396
0.949615 0.450721 0.303471
0.969055 0.489082 0.355871
0.984985 0.532708 0.417243
0.997162 0.581994 0.488228
1.000000 0.636622 0.568353
1.000000 0.693629 0.652369
0.000000 0.488716 0.289921
0.000000 0.487037 0.288029
0.000000 0.483925 0.285130
0.000000 0.477638 0.279881
0.000000 0.467781 0.273564
0.000000 0.454078 0.269444
0.000000 0.436561 0.272740
0.111025 0.398596 0.258946
0.160464 0.350134 0.252110
0.204349 0.333257 0.259312
0.275090 0.367102 0.251743
0.377996 0.392950 0.239078
0.470649 0.359777 0.242069
0.520195 0.350011 0.206394
0.548974 0.338354 0.168521
0.574182 0.329778 0.134859
0.598047 0.324712 0.102541
0.621820 0.324987 0.073426
0.660487 0.329137 0.073274
0.705318 0.334844 0.086275
0.748013 0.343206 0.102998
0.788602 0.354711 0.123568
0.826047 0.369482 0.147951
0.860594 0.387976 0.176699
0.891752 0.410315 0.210239
0.919310 0.436591 0.248966
0.943389 0.467201 0.293858
0.963928 0.502647 0.346288
0.980957 0.543359 0.407477
0.994141 0.590173 0.478920
1.000000 0.642725 0.560296
1.000000 0.698024 0.645869
0.000000 0.542504 0.322728
0.000000 0.540734 0.320836
0.000000 0.537804 0.317967
0.000000 0.531884 0.312657
0.000000 0.522393 0.305760
0.000000 0.509667 0.299931
0.000000 0.493721 0.299107
0.093050 0.468482 0.298192
0.158511 0.423835 0.280705
0.203189 0.372839 0.282963
0.250828 0.381964 0.285710
0.333227 0.417823 0.278508
0.435645 0.438331 0.266972
0.528161 0.405798 0.271733
0.571771 0.392889 0.232547
0.596429 0.378698 0.190799
0.618280 0.367926 0.153872
0.639765 0.361761 0.119783
0.662593 0.360357 0.084474
0.691157 0.366461 0.072724
0.735256 0.374548 0.091218
0.777127 0.385321 0.113100
0.815915 0.398657 0.138521
0.851713 0.415320 0.168063
0.884031 0.435279 0.202182
0.912718 0.459083 0.241367
0.937835 0.487068 0.286564
0.959380 0.519799 0.339330
0.977295 0.557946 0.401099
0.991302 0.602167 0.473335
1.000000 0.652461 0.555840
1.000000 0.705043 0.641840
0.000000 0.591913 0.356023
0.000000 0.590661 0.354467
0.000000 0.588006 0.351598
0.000000 0.582483 0.346319
0.000000 0.573724 0.339239
0.000000 0.562066 0.332341
0.000000 0.547723 0.328862
0.000000 0.529747 0.332891
0.154574 0.494240 0.317967
0.202853 0.448096 0.305730
0.245243 0.394995 0.316045
0.302373 0.431769 0.314122
0.393194 0.467842 0.307317
0.491402 0.482155 0.297032
0.581018 0.450782 0.303441
0.618585 0.434485 0.261051
0.639765 0.418341 0.216098
0.658869 0.406012 0.176730
0.679072 0.399207 0.141482
0.701808 0.398108 0.106600
0.725826 0.404669 0.084535
0.765377 0.414832 0.101534
0.805325 0.427039 0.128481
0.842313 0.442115 0.159121
0.876005 0.460304 0.194034
0.906096 0.482429 0.234012
0.932677 0.508934 0.280827
0.955596 0.540368 0.335576
0.974609 0.577417 0.400092
0.989349 0.620447 0.475380
0.999207 0.669673 0.561547
1.000000 0.719539 0.648280
0.000000 0.637873 0.389593
0.000000 0.636866 0.388281
0.000000 0.635035 0.386084
0.000000 0.630732 0.381415
0.000000 0.623774 0.375067
0.000000 0.614343 0.368505
0.000000 0.602380 0.364080
0.000000 0.587182 0.364904
0.155734 0.564172 0.365667
0.209415 0.523217 0.344152
0.248264 0.475044 0.336309
0.291997 0.445472 0.347204
0.357641 0.481392 0.344732
0.452186 0.514702 0.337194
0.541405 0.521324 0.327367
0.624842 0.490089 0.334722
0.657588 0.471809 0.290440
0.677180 0.455207 0.243687
0.696010 0.443244 0.203037
0.717006 0.437598 0.167636
0.740505 0.437812 0.134615
0.765530 0.445289 0.112093
0.797513 0.457557 0.119326
0.835782 0.471901 0.152255
0.870573 0.489052 0.189029
0.901762 0.509758 0.230900
0.929198 0.534600 0.279271
0.952758 0.564141 0.335515
0.972259 0.598810 0.401404
0.987274 0.639094 0.477729
0.997284 0.684840 0.563989
1.000000 0.730434 0.648920
0.000000 0.677211 0.420905
0.000000 0.676112 0.419501
0.000000 0.674403 0.417456
0.000000 0.670802 0.413275
0.000000 0.665003 0.407477
0.000000 0.657160 0.401251
0.000000 0.647028 0.396307
0.000000 0.633875 0.394781
0.117861 0.617090 0.400153
0.213077 0.585718 0.385443
0.255497 0.543877 0.368322
0.293187 0.494514 0.368505
0.338598 0.490913 0.376349
0.411200 0.525811 0.374365
0.506737 0.556970 0.367132
0.586725 0.557275 0.358526
0.663264 0.526757 0.367742
0.692805 0.507530 0.322728
0.711788 0.491371 0.274693
0.730800 0.480201 0.233463
0.751888 0.475257 0.197940
0.775357 0.476295 0.166415
0.800290 0.483772 0.144289
0.826200 0.497841 0.142489
0.862425 0.513970 0.180880
0.894987 0.533471 0.224033
0.923735 0.556909 0.273808
0.948425 0.584833 0.331579
0.968872 0.617670 0.398993
0.984649 0.656031 0.477394
0.995087 0.698695 0.563989
1.000000 0.742000 0.650233
0.000000 0.714229 0.452522
0.000000 0.713802 0.451637
0.000000 0.732784 0.468299
0.000000 0.729610 0.464637
0.000000 0.724514 0.459236
0.000000 0.717250 0.453162
0.000000 0.707759 0.447578
0.000000 0.695705 0.444312
0.026612 0.680507 0.446296
0.241093 0.659510 0.449104
0.281743 0.624201 0.424445
0.315648 0.581048 0.410193
0.351385 0.528893 0.416297
0.402930 0.549645 0.420111
0.479072 0.581811 0.418219
0.571496 0.609247 0.411322
0.640558 0.602564 0.404181
0.708919 0.573144 0.415137
0.735134 0.552697 0.368292
0.753201 0.536492 0.318242
0.771664 0.525505 0.275578
0.792325 0.520897 0.239780
0.815000 0.522362 0.210147
0.839017 0.529900 0.188998
0.862119 0.544396 0.190036
0.891356 0.561669 0.222629
0.919829 0.582086 0.272129
0.944610 0.607050 0.329686
0.965484 0.637201 0.397559
0.981903 0.673182 0.477119
0.992706 0.712184 0.563073
0.999023 0.752682 0.649866
0.000000 0.752743 0.487648
0.000000 0.754452 0.488960
0.000000 0.755764 0.489815
0.000000 0.755367 0.488838
0.000000 0.752865 0.485969
0.000000 0.747616 0.481392
0.000000 0.739895 0.476570
0.000000 0.729641 0.473121
0.000000 0.716823 0.473426
0.218814 0.700679 0.480018
0.293065 0.674708 0.467323
0.326665 0.639673 0.446815
0.355383 0.596704 0.436622
0.391608 0.554742 0.446998
0.449561 0.587976 0.449104
0.525780 0.617060 0.447578
0.613825 0.641291 0.441474
0.673548 0.630121 0.435798
0.736843 0.603235 0.448829
0.762112 0.583886 0.403723
0.780331 0.569146 0.354528
0.799802 0.560143 0.313359
0.820890 0.557092 0.279576
0.843534 0.559960 0.252689
0.867155 0.568231 0.233463
0.889647 0.584680 0.240208
0.914488 0.604913 0.268162
0.940368 0.628565 0.327398
0.962127 0.657099 0.396948
0.978943 0.690059 0.476600
0.990265 0.726314 0.563195
0.997070 0.764248 0.650721
0.000000 0.781582 0.515587
0.000000 0.783017 0.516808
0.000000 0.784176 0.517632
0.000000 0.783841 0.516930
0.000000 0.781674 0.514488
0.000000 0.777249 0.510552
0.000000 0.770565 0.506218
0.000000 0.761868 0.502800
0.000000 0.750790 0.502281
0.177310 0.736873 0.506249
0.309392 0.719020 0.513329
0.341924 0.690425 0.489387
0.370245 0.655604 0.472572
0.398322 0.613123 0.469032
0.436561 0.594965 0.478279
0.496864 0.625055 0.480873
0.571008 0.650843 0.479927
0.654017 0.672419 0.475013
0.705623 0.658076 0.471138
0.763790 0.634211 0.486122
0.788083 0.615961 0.443153
0.806638 0.603052 0.395941
0.826566 0.595850 0.356786
0.847745 0.594324 0.325292
0.869871 0.598322 0.301335
0.892821 0.607813 0.285679
0.914244 0.626215 0.298833
0.935821 0.649470 0.324620
0.958434 0.676265 0.395636
0.975555 0.705928 0.474311
0.987549 0.739590 0.561639
0.994934 0.774990 0.650019
0.000000 0.809018 0.543603
0.000000 0.810269 0.544701
0.000000 0.811307 0.545647
0.000000 0.811063 0.545159
0.000000 0.809201 0.543145
0.000000 0.805356 0.539788
0.000000 0.799680 0.535943
0.000000 0.792050 0.532860
0.000000 0.782315 0.531731
0.125795 0.770169 0.534173
0.292454 0.755245 0.542046
0.360449 0.733944 0.534325
0.387854 0.705531 0.513725
0.412299 0.671504 0.500755
0.441047 0.629572 0.503990
0.482856 0.633234 0.512016
0.544244 0.660975 0.516136
0.616541 0.684962 0.517571
0.695125 0.705562 0.515709
0.740108 0.690303 0.515465
0.793118 0.670710 0.533989
0.817288 0.655146 0.495430
0.836179 0.644282 0.451179
0.856718 0.639704 0.415869
0.877958 0.640681 0.388861
0.899626 0.647150 0.370916
0.921538 0.659205 0.363470
0.941253 0.680629 0.387457
0.959594 0.706111 0.424720
0.975616 0.733913 0.496956
0.986816 0.764584 0.585077
0.993713 0.796384 0.671473
0.000000 0.841794 0.579248
0.000000 0.842069 0.579461
0.000000 0.841978 0.579278
0.000000 0.840879 0.577966
0.000000 0.838590 0.575616
0.000000 0.834897 0.572473
0.000000 0.829862 0.569268
0.000000 0.823301 0.566796
0.000000 0.815091 0.566094
0.069581 0.804654 0.568292
0.278111 0.791928 0.574701
0.391638 0.776272 0.586877
0.417029 0.753567 0.565301
0.440375 0.726192 0.548638
0.461616 0.693385 0.539208
0.489448 0.652827 0.547478
0.535882 0.674617 0.554925
0.595392 0.699153 0.559899
0.662806 0.720272 0.562188
0.734249 0.738155 0.561364
0.771115 0.721035 0.561669
0.817655 0.703639 0.580102
0.840024 0.688960 0.544244
0.857786 0.678553 0.501457
0.877714 0.675319 0.469184
0.898314 0.677943 0.446723
0.919280 0.686427 0.435096
0.939910 0.700557 0.435828
0.957000 0.722805 0.467597
0.972168 0.749081 0.514153
0.984131 0.778073 0.585626
0.991516 0.807584 0.672480
0.000000 0.865812 0.606775
0.000000 0.866117 0.607080
0.000000 0.866178 0.607172
0.000000 0.865202 0.606195
0.000000 0.863218 0.604364
0.000000 0.859922 0.601617
0.000000 0.855344 0.598871
0.000000 0.849454 0.596735
0.000000 0.841978 0.595972
0.000000 0.832731 0.597650
0.258152 0.821408 0.602716
0.377600 0.807736 0.612268
0.442145 0.790494 0.611170
0.464546 0.768490 0.593072
0.485359 0.742336 0.580285
0.506065 0.710903 0.576165
0.535393 0.684413 0.587091
0.583490 0.709682 0.594903
0.640436 0.731838 0.600793
0.702998 0.750759 0.604181
0.767788 0.766720 0.604852
0.798306 0.749294 0.606775
0.839597 0.734890 0.625422
0.860716 0.722805 0.595697
0.875059 0.709224 0.549523
0.894682 0.708217 0.522606
0.914824 0.713161 0.506401
0.934295 0.722652 0.500267
0.952941 0.737453 0.507683
0.967529 0.761349 0.549371
0.979828 0.788571 0.604608
0.989075 0.817594 0.670588
0.000000 0.893278 0.640436
0.000000 0.893645 0.640986
0.000000 0.893523 0.641016
0.000000 0.892454 0.640070
0.000000 0.890410 0.638239
0.000000 0.887205 0.635859
0.000000 0.882841 0.633417
0.000000 0.877165 0.631281
0.000000 0.869963 0.630274
0.000000 0.861173 0.631250
0.248631 0.850492 0.634760
0.371038 0.837980 0.642084
0.464820 0.823362 0.653895
0.492958 0.805478 0.639734
0.511406 0.784024 0.624109
0.528740 0.758541 0.613703
0.549645 0.727749 0.614649
0.579644 0.717861 0.624170
0.626154 0.740352 0.631769
0.679835 0.760067 0.638056
0.737575 0.777005 0.642329
0.793820 0.789548 0.644190
0.820829 0.773526 0.646235
0.857023 0.760678 0.663447
0.876402 0.749966 0.638025
0.892088 0.742458 0.604089
0.910491 0.742885 0.582513
0.928893 0.748470 0.571221
0.946746 0.759487 0.572534
0.963226 0.775509 0.588556
0.975189 0.799893 0.636927
0.984558 0.826535 0.695125
0.000000 0.913573 0.666438
0.000000 0.913878 0.667109
0.000000 0.913817 0.667231
0.000000 0.912902 0.666529
0.000000 0.911040 0.665156
0.000000 0.908263 0.663416
0.000000 0.904448 0.661707
0.000000 0.899504 0.660456
0.000000 0.893187 0.660273
0.000000 0.885466 0.661830
0.242191 0.876158 0.665522
0.369390 0.865141 0.672419
0.464607 0.852506 0.682704
0.525628 0.838224 0.686854
0.543114 0.821592 0.671656
0.559899 0.801877 0.659968
0.576074 0.778683 0.653529
0.597955 0.750637 0.659998
0.630365 0.755367 0.669520
0.674556 0.774990 0.677424
0.723476 0.791958 0.683680
0.774685 0.806302 0.687984
0.821653 0.815244 0.690059
0.844724 0.800687 0.691676
0.875364 0.789090 0.706600
0.892790 0.779843 0.685725
0.907073 0.773648 0.656855
0.924376 0.776577 0.643305
0.941436 0.784543 0.640711
0.957397 0.797269 0.651057
0.971313 0.814481 0.675959
0.980499 0.838468 0.727077
0.000000 0.934295 0.694423
0.000000 0.934417 0.694820
0.000000 0.934142 0.694759
0.000000 0.933135 0.694087
0.000000 0.931273 0.692866
0.000000 0.928618 0.691463
0.000000 0.925048 0.690181
0.000000 0.920439 0.689418
0.000000 0.914672 0.689754
0.000000 0.907683 0.691707
0.243137 0.899229 0.695644
0.371588 0.889464 0.702358
0.467292 0.878325 0.711513
0.543664 0.865995 0.722408
0.574945 0.852720 0.716274
0.590784 0.837461 0.704433
0.606195 0.819547 0.696284
0.621485 0.798734 0.693355
0.643793 0.773556 0.703792
0.677974 0.789059 0.712703
0.718563 0.805814 0.720211
0.761776 0.819669 0.725399
0.805966 0.831144 0.728359
0.844480 0.836790 0.729427
0.863859 0.823087 0.729793
0.890166 0.812619 0.742855
0.906188 0.805142 0.726955
0.919341 0.800748 0.704005
0.935271 0.805325 0.696986
0.950805 0.815030 0.701930
0.964721 0.829038 0.719265
0.976074 0.846830 0.749752
0.000000 0.952575 0.719997
0.000000 0.952544 0.720272
0.000000 0.952270 0.720272
0.000000 0.951446 0.719966
0.000000 0.949920 0.719509
0.000000 0.947845 0.719265
0.000000 0.945159 0.719722
0.000000 0.941619 0.721065
0.000000 0.937041 0.723781
0.000000 0.931304 0.728084
0.279667 0.924254 0.734310
0.402838 0.915984 0.742641
0.495125 0.906706 0.752132
0.569085 0.896605 0.762325
0.625788 0.885740 0.771145
0.640650 0.874723 0.761410
0.655299 0.861906 0.753994
0.669581 0.846983 0.749935
0.685664 0.829404 0.752193
0.706203 0.814603 0.761959
0.736507 0.829252 0.768429
0.770230 0.841733 0.773648
0.805570 0.852171 0.777066
0.841337 0.860746 0.778744
0.871244 0.863523 0.778866
0.886778 0.851041 0.778347
0.908202 0.841733 0.788724
0.922087 0.836088 0.777951
0.933715 0.833890 0.762600
0.947509 0.839841 0.762295
0.960693 0.850736 0.773922
0.971740 0.865080 0.795712
0.000000 0.974640 0.753048
0.000000 0.974487 0.753262
0.000000 0.974121 0.753231
0.000000 0.973144 0.752987
0.000000 0.971557 0.752804
0.000000 0.969329 0.752865
0.000000 0.966369 0.753506
0.000000 0.962554 0.755001
0.000000 0.957671 0.757656
0.125277 0.951690 0.761746
0.315221 0.944549 0.767453
0.428107 0.936492 0.774716
0.514183 0.927733 0.782406
0.584192 0.918395 0.790555
