data/fiter_cube/60169440/1023143/file.cube
# Created by Adobe Lightroom plugin Export LUT (1.17.0)
# www.johnrellis.com/lightroom/exportlut.htm
# Preset: 海滩旅拍低饱和胶片_01 云集
# Color profile: C:\Program Files (x86)\Common Files\Adobe\Color\Profiles\Recommended\AdobeRGB1998.icc
LUT_3D_SIZE 5
DOMAIN_MIN 0.000000 0.000000 0.000000
DOMAIN_MAX 0.903226 0.903226 0.903226
0.039918 0.046296 0.071168
0.175540 0.029480 0.088502
0.515343 0.000000 0.101625
0.829404 0.000000 0.161166
0.993835 0.415259 0.410712
0.000000 0.208286 0.149844
0.157076 0.140139 0.122988
0.486519 0.109010 0.092622
0.807675 0.133059 0.146181
0.992096 0.472480 0.421118
0.000000 0.591913 0.356023
0.000000 0.529747 0.332891
0.581018 0.450782 0.303441
0.765377 0.414832 0.101534
0.974609 0.577417 0.400092
0.000000 0.841794 0.579248
0.000000 0.823301 0.566796
0.461616 0.693385 0.539208
0.817655 0.703639 0.580102
0.957000 0.722805 0.467597
0.000000 0.990509 0.777035
0.000000 0.978698 0.781674
0.641291 0.924132 0.814084
0.786374 0.867491 0.830594
0.931182 0.877653 0.843717
0.000000 0.065797 0.158145
0.235477 0.000000 0.142000
0.489296 0.000000 0.099031
0.793606 0.000000 0.142580
0.986419 0.393347 0.382330
0.000000 0.222141 0.233158
0.195346 0.199527 0.198642
0.483650 0.151125 0.124849
0.780392 0.166445 0.132448
0.982788 0.440223 0.382147
0.000000 0.611658 0.417243
0.000000 0.556481 0.381689
0.573388 0.466011 0.360906
0.747433 0.407843 0.138064
0.971618 0.570336 0.388220
0.000000 0.847654 0.610895
0.000000 0.829404 0.598077
0.493050 0.710719 0.574426
0.818082 0.715480 0.624201
0.955444 0.722347 0.471443
0.000000 0.993072 0.787320
0.000000 0.982330 0.789670
0.641688 0.932128 0.825956
0.792538 0.870329 0.839963
0.931914 0.882078 0.854582
0.000000 0.099275 0.426612
0.229068 0.034852 0.422766
0.719783 0.000000 0.357397
0.806302 0.000000 0.225406
0.989105 0.407111 0.393408
0.000000 0.281102 0.452613
0.232639 0.262028 0.464668
0.647395 0.224125 0.363348
0.794369 0.215030 0.248539
0.986786 0.447974 0.396246
0.000000 0.626825 0.599420
0.000000 0.638972 0.586664
0.595819 0.550896 0.509819
0.771450 0.453040 0.326421
0.975982 0.565606 0.399756
0.000000 0.870665 0.717494
0.000000 0.856779 0.696010
0.579858 0.773404 0.689540
0.813840 0.748074 0.704707
0.949401 0.729824 0.524132
0.000000 0.998840 0.825559
0.000000 0.993744 0.822995
0.522301 0.952422 0.834043
0.790555 0.879271 0.846494
0.929961 0.887022 0.872221
0.000000 0.177584 0.726406
0.194095 0.158206 0.728206
0.754879 0.100893 0.750637
0.916594 0.354437 0.606134
0.981353 0.486122 0.560967
0.000000 0.364752 0.729793
0.193790 0.319646 0.733394
0.734188 0.367498 0.755306
0.893675 0.440253 0.618036
0.976226 0.509758 0.564111
0.000000 0.609461 0.754543
0.000000 0.612055 0.747372
0.652369 0.632624 0.756222
0.805844 0.545190 0.601282
0.966339 0.599603 0.595331
0.000000 0.855528 0.828855
0.000000 0.860929 0.829435
0.516960 0.843748 0.813352
0.802640 0.776150 0.772885
0.949737 0.739803 0.666896
0.000000 1.000000 0.892302
0.000000 1.000000 0.889128
0.190341 0.983246 0.880705
0.802029 0.921111 0.885618
0.928801 0.900053 0.896880
0.000000 0.312291 0.901640
0.267582 0.302586 0.900145
0.686671 0.273503 0.898100
0.939879 0.526787 0.884031
0.985199 0.620386 0.799741
0.000000 0.427314 0.896117
0.235752 0.402441 0.895964
0.665736 0.398322 0.894621
0.928313 0.594293 0.887663
0.978943 0.654170 0.810636
0.000000 0.648127 0.886442
0.000000 0.640864 0.883421
0.579767 0.611688 0.889006
0.896483 0.718959 0.899779
0.964385 0.741268 0.843565
0.000000 0.835843 0.917693
0.000000 0.830777 0.914458
0.429053 0.815000 0.905180
0.824918 0.820096 0.909056
0.942596 0.808652 0.863737
0.000000 0.987457 0.945769
0.000000 0.986786 0.944549
0.000000 0.977844 0.941833
0.725582 0.947906 0.934508
0.920775 0.912535 0.922698
