data/fiter_cube/21023058/1023013/file.cube
# Created by Adobe Lightroom plugin Export LUT (1.17.0)
# www.johnrellis.com/lightroom/exportlut.htm
# Preset: 温暖焦糖婚礼婚纱_09 云集
# Color profile: C:\Program Files (x86)\Common Files\Adobe\Color\Profiles\Recommended\AdobeRGB1998.icc
LUT_3D_SIZE 8
DOMAIN_MIN 0.000000 0.000000 0.000000
DOMAIN_MAX 0.903226 0.903226 0.903226
0.074983 0.074983 0.074983
0.074983 0.074983 0.074983
0.081453 0.081453 0.081453
0.140139 0.140139 0.140139
0.266819 0.266819 0.266819
0.420844 0.420844 0.420844
0.597620 0.597620 0.597620
0.755184 0.755184 0.755184
0.075288 0.075288 0.075288
0.075898 0.075898 0.075898
0.088930 0.088930 0.088930
0.163790 0.163790 0.163790
0.297459 0.297459 0.297459
0.452949 0.452949 0.452949
0.622095 0.622095 0.622095
0.765927 0.765927 0.765927
0.100191 0.100191 0.100191
0.105470 0.105470 0.105470
0.127443 0.127443 0.127443
0.199893 0.199893 0.199893
0.326879 0.326879 0.326879
0.468818 0.468818 0.468818
0.615534 0.615534 0.615534
0.760861 0.760861 0.760861
0.217777 0.217777 0.217777
0.227695 0.227695 0.227695
0.251408 0.251408 0.251408
0.278050 0.278050 0.278050
0.371618 0.371618 0.371618
0.486244 0.486244 0.486244
0.638880 0.638880 0.638880
0.774929 0.774929 0.774929
0.402930 0.402930 0.402930
0.409125 0.409125 0.409125
0.424567 0.424567 0.424567
0.444800 0.444800 0.444800
0.483650 0.483650 0.483650
0.585840 0.585840 0.585840
0.692958 0.692958 0.692958
0.793820 0.793820 0.793820
0.581109 0.581109 0.581109
0.574365 0.574365 0.574365
0.586328 0.586328 0.586328
0.605188 0.605188 0.605188
0.634394 0.634394 0.634394
0.666133 0.666133 0.666133
0.743496 0.743496 0.743496
0.817288 0.817288 0.817288
0.731807 0.731807 0.731807
0.731930 0.731930 0.731930
0.740627 0.740627 0.740627
0.751858 0.751858 0.751858
0.767697 0.767697 0.767697
0.784329 0.784329 0.784329
0.801694 0.801694 0.801694
0.845823 0.845823 0.845823
0.833219 0.833219 0.833219
0.834226 0.834226 0.834226
0.836790 0.836790 0.836790
0.840085 0.840085 0.840085
0.851774 0.851774 0.851774
0.858427 0.858427 0.858427
0.865049 0.865049 0.865049
0.873320 0.873320 0.873320
0.074983 0.074983 0.074983
0.074983 0.074983 0.074983
0.087617 0.087617 0.087617
0.175753 0.175753 0.175753
0.311315 0.311315 0.311315
0.468482 0.468482 0.468482
0.633967 0.633967 0.633967
0.773404 0.773404 0.773404
0.075288 0.075288 0.075288
0.076783 0.076783 0.076783
0.102327 0.102327 0.102327
0.189731 0.189731 0.189731
0.328191 0.328191 0.328191
0.484932 0.484932 0.484932
0.650874 0.650874 0.650874
0.783017 0.783017 0.783017
0.109133 0.109133 0.109133
0.119051 0.119051 0.119051
0.139681 0.139681 0.139681
0.222721 0.222721 0.222721
0.359930 0.359930 0.359930
0.503838 0.503838 0.503838
0.655299 0.655299 0.655299
0.781460 0.781460 0.781460
0.244388 0.244388 0.244388
0.253635 0.253635 0.253635
0.273625 0.273625 0.273625
0.312169 0.312169 0.312169
0.417365 0.417365 0.417365
0.535515 0.535515 0.535515
0.677974 0.677974 0.677974
0.793088 0.793088 0.793088
0.416968 0.416968 0.416968
0.424567 0.424567 0.424567
0.442786 0.442786 0.442786
0.470222 0.470222 0.470222
0.512047 0.512047 0.512047
0.610254 0.610254 0.610254
0.710445 0.710445 0.710445
0.804227 0.804227 0.804227
0.597498 0.597498 0.597498
0.600183 0.600183 0.600183
0.610742 0.610742 0.610742
0.625483 0.625483 0.625483
0.648981 0.648981 0.648981
0.674952 0.674952 0.674952
0.750912 0.750912 0.750912
0.823026 0.823026 0.823026
0.746273 0.746273 0.746273
0.749722 0.749722 0.749722
0.755825 0.755825 0.755825
0.763027 0.763027 0.763027
0.775143 0.775143 0.775143
0.791318 0.791318 0.791318
0.809232 0.809232 0.809232
0.851347 0.851347 0.851347
0.837736 0.837736 0.837736
0.838071 0.838071 0.838071
0.840208 0.840208 0.840208
0.843015 0.843015 0.843015
0.849058 0.849058 0.849058
0.857694 0.857694 0.857694
0.866087 0.866087 0.866087
0.874907 0.874907 0.874907
0.074983 0.074983 0.074983
0.075288 0.075288 0.075288
0.078279 0.078279 0.078279
0.133181 0.133181 0.133181
0.295598 0.295598 0.295598
0.483406 0.483406 0.483406
0.640101 0.640101 0.640101
0.774289 0.774289 0.774289
0.077089 0.077089 0.077089
0.079744 0.079744 0.079744
0.089418 0.089418 0.089418
0.168215 0.168215 0.168215
0.334630 0.334630 0.334630
0.500572 0.500572 0.500572
0.652949 0.652949 0.652949
0.780117 0.780117 0.780117
0.097963 0.097963 0.097963
0.109926 0.109926 0.109926
0.153964 0.153964 0.153964
0.250034 0.250034 0.250034
0.376898 0.376898 0.376898
0.516869 0.516869 0.516869
0.664668 0.664668 0.664668
0.786313 0.786313 0.786313
0.236027 0.236027 0.236027
0.246616 0.246616 0.246616
0.285588 0.285588 0.285588
0.319554 0.319554 0.319554
0.419257 0.419257 0.419257
0.544762 0.544762 0.544762
0.681453 0.681453 0.681453
0.794400 0.794400 0.794400
0.416815 0.416815 0.416815
0.425788 0.425788 0.425788
0.452033 0.452033 0.452033
0.473732 0.473732 0.473732
0.511192 0.511192 0.511192
0.611109 0.611109 0.611109
0.712795 0.712795 0.712795
0.807553 0.807553 0.807553
0.597833 0.597833 0.597833
0.603449 0.603449 0.603449
0.620172 0.620172 0.620172
0.637201 0.637201 0.637201
0.660609 0.660609 0.660609
0.686183 0.686183 0.686183
0.758114 0.758114 0.758114
0.824338 0.824338 0.824338
0.744411 0.744411 0.744411
0.748531 0.748531 0.748531
0.757687 0.757687 0.757687
0.767361 0.767361 0.767361
0.779965 0.779965 0.779965
0.794003 0.794003 0.794003
0.808560 0.808560 0.808560
0.849699 0.849699 0.849699
0.838621 0.838621 0.838621
0.840299 0.840299 0.840299
0.843015 0.843015 0.843015
0.844572 0.844572 0.844572
0.850767 0.850767 0.850767
0.858549 0.858549 0.858549
0.866239 0.866239 0.866239
0.874540 0.874540 0.874540
0.076783 0.076783 0.076783
0.078279 0.078279 0.078279
0.087098 0.087098 0.087098
0.118349 0.118349 0.118349
0.216739 0.216739 0.216739
0.419532 0.419532 0.419532
0.629450 0.629450 0.629450
0.784054 0.784054 0.784054
0.087617 0.087617 0.087617
0.090639 0.090639 0.090639
0.104646 0.104646 0.104646
0.138949 0.138949 0.138949
0.241276 0.241276 0.241276
0.446357 0.446357 0.446357
0.647517 0.647517 0.647517
0.791043 0.791043 0.791043
0.115785 0.115785 0.115785
0.129397 0.129397 0.129397
0.184756 0.184756 0.184756
0.220188 0.220188 0.220188
0.336736 0.336736 0.336736
0.508904 0.508904 0.508904
0.673213 0.673213 0.673213
0.793057 0.793057 0.793057
0.203586 0.203586 0.203586
0.219150 0.219150 0.219150
0.269169 0.269169 0.269169
0.346197 0.346197 0.346197
0.459419 0.459419 0.459419
0.581476 0.581476 0.581476
0.703792 0.703792 0.703792
0.802945 0.802945 0.802945
0.405615 0.405615 0.405615
0.416968 0.416968 0.416968
0.448981 0.448981 0.448981
0.490181 0.490181 0.490181
0.521935 0.521935 0.521935
0.617762 0.617762 0.617762
0.723079 0.723079 0.723079
0.813596 0.813596 0.813596
0.584710 0.584710 0.584710
0.583917 0.583917 0.583917
0.608637 0.608637 0.608637
0.639002 0.639002 0.639002
0.660670 0.660670 0.660670
0.689052 0.689052 0.689052
0.761898 0.761898 0.761898
0.826993 0.826993 0.826993
0.741238 0.741238 0.741238
0.743496 0.743496 0.743496
0.752804 0.752804 0.752804
0.765927 0.765927 0.765927
0.778225 0.778225 0.778225
0.793301 0.793301 0.793301
0.809995 0.809995 0.809995
0.851865 0.851865 0.851865
0.835294 0.835294 0.835294
0.836240 0.836240 0.836240
0.840574 0.840574 0.840574
0.846067 0.846067 0.846067
0.852293 0.852293 0.852293
0.859922 0.859922 0.859922
0.867033 0.867033 0.867033
0.874815 0.874815 0.874815
0.091646 0.091646 0.091646
0.095674 0.095674 0.095674
0.114137 0.114137 0.114137
0.147097 0.147097 0.147097
0.206455 0.206455 0.206455
0.338567 0.338567 0.338567
0.544976 0.544976 0.544976
0.747097 0.747097 0.747097
0.115419 0.115419 0.115419
0.118715 0.118715 0.118715
0.136873 0.136873 0.136873
0.171450 0.171450 0.171450
0.230289 0.230289 0.230289
0.358831 0.358831 0.358831
0.562585 0.562585 0.562585
0.755001 0.755001 0.755001
0.174655 0.174655 0.174655
0.197177 0.197177 0.197177
0.223972 0.223972 0.223972
0.256565 0.256565 0.256565
0.310521 0.310521 0.310521
0.431556 0.431556 0.431556
0.624292 0.624292 0.624292
0.781949 0.781949 0.781949
0.236088 0.236088 0.236088
0.251835 0.251835 0.251835
0.300938 0.300938 0.300938
0.386358 0.386358 0.386358
0.425635 0.425635 0.425635
0.541650 0.541650 0.541650
0.698238 0.698238 0.698238
0.811368 0.811368 0.811368
0.363500 0.363500 0.363500
0.375311 0.375311 0.375311
0.416236 0.416236 0.416236
0.478981 0.478981 0.478981
0.556237 0.556237 0.556237
0.657618 0.657618 0.657618
0.752255 0.752255 0.752255
0.826871 0.826871 0.826871
0.592401 0.592401 0.592401
0.598932 0.598932 0.598932
0.622736 0.622736 0.622736
0.655695 0.655695 0.655695
0.692958 0.692958 0.692958
0.710597 0.710597 0.710597
0.773709 0.773709 0.773709
0.835355 0.835355 0.835355
0.741176 0.741176 0.741176
0.745174 0.745174 0.745174
0.756252 0.756252 0.756252
0.771572 0.771572 0.771572
0.789242 0.789242 0.789242
0.801877 0.801877 0.801877
0.817746 0.817746 0.817746
0.858091 0.858091 0.858091
0.837949 0.837949 0.837949
0.839353 0.839353 0.839353
0.843656 0.843656 0.843656
0.847532 0.847532 0.847532
0.855924 0.855924 0.855924
0.863188 0.863188 0.863188
0.869963 0.869963 0.869963
0.877562 0.877562 0.877562
0.130190 0.130190 0.130190
0.136110 0.136110 0.136110
0.159213 0.159213 0.159213
0.195926 0.195926 0.195926
0.248020 0.248020 0.248020
0.326787 0.326787 0.326787
0.480446 0.480446 0.480446
0.667140 0.667140 0.667140
0.165347 0.165347 0.165347
0.171237 0.171237 0.171237
0.191958 0.191958 0.191958
0.226871 0.226871 0.226871
0.275914 0.275914 0.275914
0.350896 0.350896 0.350896
0.499336 0.499336 0.499336
0.681331 0.681331 0.681331
0.250675 0.250675 0.250675
0.256992 0.256992 0.256992
0.275792 0.275792 0.275792
0.306157 0.306157 0.306157
0.349798 0.349798 0.349798
0.415106 0.415106 0.415106
0.548150 0.548150 0.548150
0.717342 0.717342 0.717342
0.280735 0.280735 0.280735
0.303502 0.303502 0.303502
0.374914 0.374914 0.374914
0.421973 0.421973 0.421973
0.452216 0.452216 0.452216
0.501915 0.501915 0.501915
0.613947 0.613947 0.613947
0.763851 0.763851 0.763851
0.403479 0.403479 0.403479
0.414557 0.414557 0.414557
0.451667 0.451667 0.451667
0.508354 0.508354 0.508354
0.587671 0.587671 0.587671
0.620752 0.620752 0.620752
0.713252 0.713252 0.713252
0.817472 0.817472 0.817472
0.540612 0.540612 0.540612
0.546532 0.546532 0.546532
0.573632 0.573632 0.573632
0.616968 0.616968 0.616968
0.669673 0.669673 0.669673
0.724880 0.724880 0.724880
0.790341 0.790341 0.790341
0.845548 0.845548 0.845548
0.723964 0.723964 0.723964
0.727352 0.727352 0.727352
0.743160 0.743160 0.743160
0.762478 0.762478 0.762478
0.784268 0.784268 0.784268
0.807889 0.807889 0.807889
0.822507 0.822507 0.822507
0.860472 0.860472 0.860472
0.835752 0.835752 0.835752
0.837247 0.837247 0.837247
0.841764 0.841764 0.841764
0.847837 0.847837 0.847837
0.856748 0.856748 0.856748
0.866545 0.866545 0.866545
0.872465 0.872465 0.872465
0.879881 0.879881 0.879881
0.221347 0.221347 0.221347
0.229709 0.229709 0.229709
0.251835 0.251835 0.251835
0.287266 0.287266 0.287266
0.337041 0.337041 0.337041
0.400031 0.400031 0.400031
0.479316 0.479316 0.479316
0.639460 0.639460 0.639460
0.244541 0.244541 0.244541
0.252049 0.252049 0.252049
0.271855 0.271855 0.271855
0.304936 0.304936 0.304936
0.349279 0.349279 0.349279
0.405493 0.405493 0.405493
0.479744 0.479744 0.479744
0.633692 0.633692 0.633692
0.337438 0.337438 0.337438
0.341558 0.341558 0.341558
0.355779 0.355779 0.355779
0.382544 0.382544 0.382544
0.417365 0.417365 0.417365
0.464393 0.464393 0.464393
0.533471 0.533471 0.533471
0.674128 0.674128 0.674128
0.417456 0.417456 0.417456
0.435004 0.435004 0.435004
0.475471 0.475471 0.475471
0.496620 0.496620 0.496620
0.522881 0.522881 0.522881
0.558556 0.558556 0.558556
0.614252 0.614252 0.614252
0.723598 0.723598 0.723598
0.454475 0.454475 0.454475
0.461219 0.461219 0.461219
0.487861 0.487861 0.487861
0.566461 0.566461 0.566461
0.621332 0.621332 0.621332
0.645045 0.645045 0.645045
0.682155 0.682155 0.682155
0.769436 0.769436 0.769436
0.578088 0.578088 0.578088
0.584710 0.584710 0.584710
0.606867 0.606867 0.606867
0.642115 0.642115 0.642115
0.684352 0.684352 0.684352
0.745144 0.745144 0.745144
0.767086 0.767086 0.767086
0.824094 0.824094 0.824094
0.696040 0.696040 0.696040
0.701320 0.701320 0.701320
0.715053 0.715053 0.715053
0.737392 0.737392 0.737392
0.763699 0.763699 0.763699
0.794797 0.794797 0.794797
0.829191 0.829191 0.829191
0.866667 0.866667 0.866667
0.821317 0.821317 0.821317
0.823117 0.823117 0.823117
0.831724 0.831724 0.831724
0.842405 0.842405 0.842405
0.853910 0.853910 0.853910
0.863951 0.863951 0.863951
0.875120 0.875120 0.875120
0.882109 0.882109 0.882109
0.322210 0.322210 0.322210
0.328771 0.328771 0.328771
0.344244 0.344244 0.344244
0.375616 0.375616 0.375616
0.416419 0.416419 0.416419
0.464027 0.464027 0.464027
0.528344 0.528344 0.528344
0.600305 0.600305 0.600305
0.340429 0.340429 0.340429
0.346502 0.346502 0.346502
0.361425 0.361425 0.361425
0.389258 0.389258 0.389258
0.427741 0.427741 0.427741
0.472847 0.472847 0.472847
0.532647 0.532647 0.532647
0.602411 0.602411 0.602411
0.406287 0.406287 0.406287
0.410529 0.410529 0.410529
0.420203 0.420203 0.420203
0.449165 0.449165 0.449165
0.479835 0.479835 0.479835
0.515557 0.515557 0.515557
0.566888 0.566888 0.566888
0.630549 0.630549 0.630549
0.503655 0.503655 0.503655
0.507836 0.507836 0.507836
0.515404 0.515404 0.515404
0.534173 0.534173 0.534173
0.559045 0.559045 0.559045
0.587884 0.587884 0.587884
0.626978 0.626978 0.626978
0.679469 0.679469 0.679469
0.502739 0.502739 0.502739
0.517021 0.517021 0.517021
0.557824 0.557824 0.557824
0.624414 0.624414 0.624414
0.640009 0.640009 0.640009
0.660761 0.660761 0.660761
0.689479 0.689479 0.689479
0.736324 0.736324 0.736324
0.596460 0.596460 0.596460
0.599023 0.599023 0.599023
0.609857 0.609857 0.609857
0.630426 0.630426 0.630426
0.689021 0.689021 0.689021
0.743801 0.743801 0.743801
0.769528 0.769528 0.769528
0.801999 0.801999 0.801999
0.717159 0.717159 0.717159
0.719020 0.719020 0.719020
0.726467 0.726467 0.726467
0.742123 0.742123 0.742123
0.764065 0.764065 0.764065
0.791836 0.791836 0.791836
0.833066 0.833066 0.833066
0.845121 0.845121 0.845121
0.806729 0.806729 0.806729
0.807675 0.807675 0.807675
0.812070 0.812070 0.812070
0.820890 0.820890 0.820890
0.832639 0.832639 0.832639
0.846677 0.846677 0.846677
0.862974 0.862974 0.862974
0.880827 0.880827 0.880827
