data/fiter_cube/21023058/1023013/file.cube
# Created by Adobe Lightroom plugin Export LUT (1.17.0)
# www.johnrellis.com/lightroom/exportlut.htm
# Preset: 温暖焦糖婚礼婚纱_09 云集
# Color profile: C:\Program Files (x86)\Common Files\Adobe\Color\Profiles\Recommended\AdobeRGB1998.icc
LUT_3D_SIZE 32
DOMAIN_MIN 0.0 0.0 0.0
DOMAIN_MAX 1.0 1.0 1.0
0.074983 0.074983 0.074983
0.074983 0.074983 0.074983
0.074983 0.074983 0.074983
0.074983 0.074983 0.074983
0.074983 0.074983 0.074983
0.075288 0.075288 0.075288
0.075898 0.075898 0.075898
0.077668 0.077668 0.077668
0.081453 0.081453 0.081453
0.088930 0.088930 0.088930
0.101259 0.101259 0.101259
0.118349 0.118349 0.118349
0.140139 0.140139 0.140139
0.166323 0.166323 0.166323
0.196597 0.196597 0.196597
0.230381 0.230381 0.230381
0.266819 0.266819 0.266819
0.304601 0.304601 0.304601
0.342657 0.342657 0.342657
0.381109 0.381109 0.381109
0.420844 0.420844 0.420844
0.462257 0.462257 0.462257
0.506096 0.506096 0.506096
0.551385 0.551385 0.551385
0.597620 0.597620 0.597620
0.642603 0.642603 0.642603
0.684047 0.684047 0.684047
0.721675 0.721675 0.721675
0.755184 0.755184 0.755184
0.783658 0.783658 0.783658
0.807828 0.807828 0.807828
0.828367 0.828367 0.828367
0.074983 0.074983 0.074983
0.074983 0.074983 0.074983
0.074983 0.074983 0.074983
0.074983 0.074983 0.074983
0.074983 0.074983 0.074983
0.075288 0.075288 0.075288
0.076204 0.076204 0.076204
0.077974 0.077974 0.077974
0.082277 0.082277 0.082277
0.090639 0.090639 0.090639
0.103822 0.103822 0.103822
0.121859 0.121859 0.121859
0.144717 0.144717 0.144717
0.172030 0.172030 0.172030
0.203220 0.203220 0.203220
0.237888 0.237888 0.237888
0.274998 0.274998 0.274998
0.313268 0.313268 0.313268
0.351781 0.351781 0.351781
0.390539 0.390539 0.390539
0.430274 0.430274 0.430274
0.471626 0.471626 0.471626
0.515312 0.515312 0.515312
0.560235 0.560235 0.560235
0.605982 0.605982 0.605982
0.650019 0.650019 0.650019
0.690455 0.690455 0.690455
0.727108 0.727108 0.727108
0.759609 0.759609 0.759609
0.787289 0.787289 0.787289
0.810697 0.810697 0.810697
0.830716 0.830716 0.830716
0.074983 0.074983 0.074983
0.074983 0.074983 0.074983
0.074983 0.074983 0.074983
0.074983 0.074983 0.074983
0.074983 0.074983 0.074983
0.075593 0.075593 0.075593
0.076509 0.076509 0.076509
0.078584 0.078584 0.078584
0.083375 0.083375 0.083375
0.092378 0.092378 0.092378
0.106325 0.106325 0.106325
0.125277 0.125277 0.125277
0.148470 0.148470 0.148470
0.176333 0.176333 0.176333
0.208011 0.208011 0.208011
0.243168 0.243168 0.243168
0.280735 0.280735 0.280735
0.319188 0.319188 0.319188
0.357855 0.357855 0.357855
0.396399 0.396399 0.396399
0.436011 0.436011 0.436011
0.477241 0.477241 0.477241
0.520531 0.520531 0.520531
0.565240 0.565240 0.565240
0.610773 0.610773 0.610773
0.654231 0.654231 0.654231
0.694118 0.694118 0.694118
0.730190 0.730190 0.730190
0.762112 0.762112 0.762112
0.789242 0.789242 0.789242
0.812314 0.812314 0.812314
0.832059 0.832059 0.832059
0.074983 0.074983 0.074983
0.074983 0.074983 0.074983
0.074983 0.074983 0.074983
0.074983 0.074983 0.074983
0.075288 0.075288 0.075288
0.075593 0.075593 0.075593
0.076783 0.076783 0.076783
0.079469 0.079469 0.079469
0.085298 0.085298 0.085298
0.095216 0.095216 0.095216
0.110109 0.110109 0.110109
0.130037 0.130037 0.130037
0.154360 0.154360 0.154360
0.182742 0.182742 0.182742
0.215152 0.215152 0.215152
0.250675 0.250675 0.250675
0.288670 0.288670 0.288670
0.327581 0.327581 0.327581
0.366552 0.366552 0.366552
0.405707 0.405707 0.405707
0.445991 0.445991 0.445991
0.487190 0.487190 0.487190
0.529717 0.529717 0.529717
0.573083 0.573083 0.573083
0.616510 0.616510 0.616510
0.657984 0.657984 0.657984
0.696407 0.696407 0.696407
0.731685 0.731685 0.731685
0.763149 0.763149 0.763149
0.790127 0.790127 0.790127
0.813291 0.813291 0.813291
0.833158 0.833158 0.833158
0.075288 0.075288 0.075288
0.075288 0.075288 0.075288
0.075288 0.075288 0.075288
0.075593 0.075593 0.075593
0.075898 0.075898 0.075898
0.076783 0.076783 0.076783
0.078279 0.078279 0.078279
0.081727 0.081727 0.081727
0.088930 0.088930 0.088930
0.100832 0.100832 0.100832
0.117250 0.117250 0.117250
0.138369 0.138369 0.138369
0.163790 0.163790 0.163790
0.192966 0.192966 0.192966
0.225223 0.225223 0.225223
0.260380 0.260380 0.260380
0.297459 0.297459 0.297459
0.335454 0.335454 0.335454
0.373724 0.373724 0.373724
0.412757 0.412757 0.412757
0.452949 0.452949 0.452949
0.494240 0.494240 0.494240
0.536645 0.536645 0.536645
0.579431 0.579431 0.579431
0.622095 0.622095 0.622095
0.662654 0.662654 0.662654
0.700343 0.700343 0.700343
0.735012 0.735012 0.735012
0.765927 0.765927 0.765927
0.792477 0.792477 0.792477
0.815183 0.815183 0.815183
0.834653 0.834653 0.834653
0.076509 0.076509 0.076509
0.076509 0.076509 0.076509
0.076509 0.076509 0.076509
0.076783 0.076783 0.076783
0.077394 0.077394 0.077394
0.078584 0.078584 0.078584
0.082002 0.082002 0.082002
0.086854 0.086854 0.086854
0.094270 0.094270 0.094270
0.106722 0.106722 0.106722
0.124422 0.124422 0.124422
0.146548 0.146548 0.146548
0.172488 0.172488 0.172488
0.201968 0.201968 0.201968
0.234287 0.234287 0.234287
0.269261 0.269261 0.269261
0.305638 0.305638 0.305638
0.342962 0.342962 0.342962
0.380224 0.380224 0.380224
0.418311 0.418311 0.418311
0.457618 0.457618 0.457618
0.497993 0.497993 0.497993
0.489082 0.489082 0.489082
0.533135 0.533135 0.533135
0.578515 0.578515 0.578515
0.623957 0.623957 0.623957
0.667079 0.667079 0.667079
0.706905 0.706905 0.706905
0.743099 0.743099 0.743099
0.774594 0.774594 0.774594
0.801389 0.801389 0.801389
0.824399 0.824399 0.824399
0.078584 0.078584 0.078584
0.078859 0.078859 0.078859
0.078859 0.078859 0.078859
0.079469 0.079469 0.079469
0.080354 0.080354 0.080354
0.082002 0.082002 0.082002
0.084504 0.084504 0.084504
0.091127 0.091127 0.091127
0.098848 0.098848 0.098848
0.109529 0.109529 0.109529
0.123415 0.123415 0.123415
0.143740 0.143740 0.143740
0.168338 0.168338 0.168338
0.196811 0.196811 0.196811
0.229068 0.229068 0.229068
0.264225 0.264225 0.264225
0.300938 0.300938 0.300938
0.337865 0.337865 0.337865
0.374060 0.374060 0.374060
0.409979 0.409979 0.409979
0.445686 0.445686 0.445686
0.481239 0.481239 0.481239
0.517357 0.517357 0.517357
0.554955 0.554955 0.554955
0.594568 0.594568 0.594568
0.635706 0.635706 0.635706
0.676173 0.676173 0.676173
0.714382 0.714382 0.714382
0.749233 0.749233 0.749233
0.779660 0.779660 0.779660
0.805570 0.805570 0.805570
0.827756 0.827756 0.827756
0.085542 0.085542 0.085542
0.086061 0.086061 0.086061
0.086580 0.086580 0.086580
0.087617 0.087617 0.087617
0.089418 0.089418 0.089418
0.092134 0.092134 0.092134
0.095918 0.095918 0.095918
0.101045 0.101045 0.101045
0.113558 0.113558 0.113558
0.125429 0.125429 0.125429
0.140414 0.140414 0.140414
0.158328 0.158328 0.158328
0.181369 0.181369 0.181369
0.210452 0.210452 0.210452
0.242954 0.242954 0.242954
0.278172 0.278172 0.278172
0.314611 0.314611 0.314611
0.351110 0.351110 0.351110
0.386908 0.386908 0.386908
0.422705 0.422705 0.422705
0.458259 0.458259 0.458259
0.493660 0.493660 0.493660
0.529625 0.529625 0.529625
0.567041 0.567041 0.567041
0.606043 0.606043 0.606043
0.646082 0.646082 0.646082
0.685176 0.685176 0.685176
0.722042 0.722042 0.722042
0.755550 0.755550 0.755550
0.784665 0.784665 0.784665
0.809537 0.809537 0.809537
0.830900 0.830900 0.830900
0.100191 0.100191 0.100191
0.100618 0.100618 0.100618
0.101472 0.101472 0.101472
0.102998 0.102998 0.102998
0.105470 0.105470 0.105470
0.109133 0.109133 0.109133
0.113924 0.113924 0.113924
0.120119 0.120119 0.120119
0.127443 0.127443 0.127443
0.142733 0.142733 0.142733
0.160220 0.160220 0.160220
0.178317 0.178317 0.178317
0.199893 0.199893 0.199893
0.224643 0.224643 0.224643
0.256016 0.256016 0.256016
0.291020 0.291020 0.291020
0.326879 0.326879 0.326879
0.362982 0.362982 0.362982
0.398260 0.398260 0.398260
0.433600 0.433600 0.433600
0.468818 0.468818 0.468818
0.504021 0.504021 0.504021
0.539910 0.539910 0.539910
0.577020 0.577020 0.577020
0.615534 0.615534 0.615534
0.654597 0.654597 0.654597
0.692622 0.692622 0.692622
0.728420 0.728420 0.728420
0.760861 0.760861 0.760861
0.789029 0.789029 0.789029
0.813107 0.813107 0.813107
0.833829 0.833829 0.833829
0.122713 0.122713 0.122713
0.123415 0.123415 0.123415
0.124422 0.124422 0.124422
0.126436 0.126436 0.126436
0.129549 0.129549 0.129549
0.133944 0.133944 0.133944
0.139254 0.139254 0.139254
0.146273 0.146273 0.146273
0.154360 0.154360 0.154360
0.163058 0.163058 0.163058
0.179629 0.179629 0.179629
0.203403 0.203403 0.203403
0.224887 0.224887 0.224887
0.248692 0.248692 0.248692
0.274876 0.274876 0.274876
0.303502 0.303502 0.303502
0.337652 0.337652 0.337652
0.372198 0.372198 0.372198
0.406653 0.406653 0.406653
0.441688 0.441688 0.441688
0.477607 0.477607 0.477607
0.513939 0.513939 0.513939
0.551232 0.551232 0.551232
0.589288 0.589288 0.589288
0.627924 0.627924 0.627924
0.665888 0.665888 0.665888
0.702205 0.702205 0.702205
0.736172 0.736172 0.736172
0.766720 0.766720 0.766720
0.793240 0.793240 0.793240
0.816098 0.816098 0.816098
0.835904 0.835904 0.835904
0.154879 0.154879 0.154879
0.155764 0.155764 0.155764
0.156680 0.156680 0.156680
0.158694 0.158694 0.158694
0.161837 0.161837 0.161837
0.166079 0.166079 0.166079
0.171450 0.171450 0.171450
0.177890 0.177890 0.177890
0.185794 0.185794 0.185794
0.194736 0.194736 0.194736
0.204685 0.204685 0.204685
0.221012 0.221012 0.221012
0.251408 0.251408 0.251408
0.274662 0.274662 0.274662
0.299992 0.299992 0.299992
0.326970 0.326970 0.326970
0.354772 0.354772 0.354772
0.385657 0.385657 0.385657
0.419623 0.419623 0.419623
0.454292 0.454292 0.454292
0.489570 0.489570 0.489570
0.525322 0.525322 0.525322
0.561913 0.561913 0.561913
0.599268 0.599268 0.599268
0.636896 0.636896 0.636896
0.674037 0.674037 0.674037
0.709560 0.709560 0.709560
0.742702 0.742702 0.742702
0.772213 0.772213 0.772213
0.797757 0.797757 0.797757
0.819791 0.819791 0.819791
0.838865 0.838865 0.838865
0.191958 0.191958 0.191958
0.192660 0.192660 0.192660
0.193545 0.193545 0.193545
0.195529 0.195529 0.195529
0.198642 0.198642 0.198642
0.202731 0.202731 0.202731
0.207828 0.207828 0.207828
0.213748 0.213748 0.213748
0.221012 0.221012 0.221012
0.229404 0.229404 0.229404
0.238834 0.238834 0.238834
0.249058 0.249058 0.249058
0.232700 0.232700 0.232700
0.266209 0.266209 0.266209
0.289799 0.289799 0.289799
0.315282 0.315282 0.315282
0.342565 0.342565 0.342565
0.370428 0.370428 0.370428
0.398993 0.398993 0.398993
0.433143 0.433143 0.433143
0.469429 0.469429 0.469429
0.506737 0.506737 0.506737
0.545434 0.545434 0.545434
0.584985 0.584985 0.584985
0.624994 0.624994 0.624994
0.663905 0.663905 0.663905
0.701198 0.701198 0.701198
0.736019 0.736019 0.736019
0.767361 0.767361 0.767361
0.794308 0.794308 0.794308
0.817502 0.817502 0.817502
0.837339 0.837339 0.837339
0.217777 0.217777 0.217777
0.218631 0.218631 0.218631
0.220249 0.220249 0.220249
0.223209 0.223209 0.223209
0.227695 0.227695 0.227695
0.233188 0.233188 0.233188
0.239139 0.239139 0.239139
0.245274 0.245274 0.245274
0.251408 0.251408 0.251408
0.257908 0.257908 0.257908
0.264225 0.264225 0.264225
0.270573 0.270573 0.270573
0.278050 0.278050 0.278050
0.287022 0.287022 0.287022
0.323308 0.323308 0.323308
0.346380 0.346380 0.346380
0.371618 0.371618 0.371618
0.398108 0.398108 0.398108
0.425635 0.425635 0.425635
0.454932 0.454932 0.454932
0.486244 0.486244 0.486244
0.523033 0.523033 0.523033
0.561212 0.561212 0.561212
0.600092 0.600092 0.600092
0.638880 0.638880 0.638880
0.676417 0.676417 0.676417
0.712184 0.712184 0.712184
0.745418 0.745418 0.745418
0.774929 0.774929 0.774929
0.800290 0.800290 0.800290
0.822171 0.822171 0.822171
0.840970 0.840970 0.840970
0.263554 0.263554 0.263554
0.264225 0.264225 0.264225
0.265873 0.265873 0.265873
0.268833 0.268833 0.268833
0.273167 0.273167 0.273167
0.278508 0.278508 0.278508
0.284092 0.284092 0.284092
0.290043 0.290043 0.290043
0.295598 0.295598 0.295598
0.301213 0.301213 0.301213
0.306950 0.306950 0.306950
0.312902 0.312902 0.312902
0.319677 0.319677 0.319677
0.327977 0.327977 0.327977
0.338262 0.338262 0.338262
0.377966 0.377966 0.377966
0.401953 0.401953 0.401953
0.427283 0.427283 0.427283
0.453468 0.453468 0.453468
0.481422 0.481422 0.481422
0.510796 0.510796 0.510796
0.541466 0.541466 0.541466
0.576135 0.576135 0.576135
0.613947 0.613947 0.613947
0.651087 0.651087 0.651087
0.687160 0.687160 0.687160
0.721370 0.721370 0.721370
0.753109 0.753109 0.753109
0.781064 0.781064 0.781064
0.805173 0.805173 0.805173
0.825986 0.825986 0.825986
0.843931 0.843931 0.843931
0.309636 0.309636 0.309636
0.310033 0.310033 0.310033
0.311559 0.311559 0.311559
0.314397 0.314397 0.314397
0.318761 0.318761 0.318761
0.324163 0.324163 0.324163
0.329534 0.329534 0.329534
0.335027 0.335027 0.335027
0.340246 0.340246 0.340246
0.345190 0.345190 0.345190
0.350072 0.350072 0.350072
0.355352 0.355352 0.355352
0.361517 0.361517 0.361517
0.369238 0.369238 0.369238
0.378759 0.378759 0.378759
0.390539 0.390539 0.390539
0.431739 0.431739 0.431739
0.455818 0.455818 0.455818
0.480873 0.480873 0.480873
0.507836 0.507836 0.507836
0.536217 0.536217 0.536217
0.565850 0.565850 0.565850
0.597009 0.597009 0.597009
0.628656 0.628656 0.628656
0.663416 0.663416 0.663416
0.697505 0.697505 0.697505
0.729580 0.729580 0.729580
0.759182 0.759182 0.759182
0.785153 0.785153 0.785153
0.807797 0.807797 0.807797
0.827543 0.827543 0.827543
0.844785 0.844785 0.844785
0.355688 0.355688 0.355688
0.355871 0.355871 0.355871
0.356634 0.356634 0.356634
0.358740 0.358740 0.358740
0.361913 0.361913 0.361913
0.365881 0.365881 0.365881
0.370001 0.370001 0.370001
0.374548 0.374548 0.374548
0.379034 0.379034 0.379034
0.383825 0.383825 0.383825
0.388861 0.388861 0.388861
0.395270 0.395270 0.395270
0.402441 0.402441 0.402441
0.410925 0.410925 0.410925
0.420844 0.420844 0.420844
0.432197 0.432197 0.432197
0.444434 0.444434 0.444434
0.483040 0.483040 0.483040
0.508598 0.508598 0.508598
0.533410 0.533410 0.533410
0.559625 0.559625 0.559625
0.587335 0.587335 0.587335
0.616388 0.616388 0.616388
0.645686 0.645686 0.645686
0.675013 0.675013 0.675013
0.704402 0.704402 0.704402
0.735164 0.735164 0.735164
0.763546 0.763546 0.763546
0.788663 0.788663 0.788663
0.810697 0.810697 0.810697
0.830106 0.830106 0.830106
0.847135 0.847135 0.847135
0.402930 0.402930 0.402930
0.403479 0.403479 0.403479
0.404456 0.404456 0.404456
0.406348 0.406348 0.406348
0.409125 0.409125 0.409125
0.412543 0.412543 0.412543
0.416327 0.416327 0.416327
0.420294 0.420294 0.420294
0.424567 0.424567 0.424567
0.428779 0.428779 0.428779
0.433417 0.433417 0.433417
0.438483 0.438483 0.438483
0.444800 0.444800 0.444800
0.452338 0.452338 0.452338
0.461372 0.461372 0.461372
0.471962 0.471962 0.471962
0.483650 0.483650 0.483650
0.496071 0.496071 0.496071
0.531487 0.531487 0.531487
0.560784 0.560784 0.560784
0.585840 0.585840 0.585840
0.612116 0.612116 0.612116
0.638941 0.638941 0.638941
0.666041 0.666041 0.666041
0.692958 0.692958 0.692958
0.719417 0.719417 0.719417
0.745022 0.745022 0.745022
0.770230 0.770230 0.770230
0.793820 0.793820 0.793820
0.814725 0.814725 0.814725
0.833188 0.833188 0.833188
0.849485 0.849485 0.849485
0.446967 0.446967 0.446967
0.446723 0.446723 0.446723
0.420630 0.420630 0.420630
0.422431 0.422431 0.422431
0.425238 0.425238 0.425238
0.429053 0.429053 0.429053
0.433539 0.433539 0.433539
0.438300 0.438300 0.438300
0.443153 0.443153 0.443153
0.448127 0.448127 0.448127
0.453407 0.453407 0.453407
0.459113 0.459113 0.459113
0.466316 0.466316 0.466316
0.474800 0.474800 0.474800
0.484596 0.484596 0.484596
0.495369 0.495369 0.495369
0.507408 0.507408 0.507408
0.520134 0.520134 0.520134
0.533227 0.533227 0.533227
0.566217 0.566217 0.566217
0.599878 0.599878 0.599878
0.625422 0.625422 0.625422
0.651362 0.651362 0.651362
0.677790 0.677790 0.677790
0.704372 0.704372 0.704372
0.730587 0.730587 0.730587
0.755673 0.755673 0.755673
0.778592 0.778592 0.778592
0.799161 0.799161 0.799161
0.818967 0.818967 0.818967
0.836637 0.836637 0.836637
0.852384 0.852384 0.852384
0.484504 0.484504 0.484504
0.481483 0.481483 0.481483
0.478431 0.478431 0.478431
0.476905 0.476905 0.476905
0.476905 0.476905 0.476905
0.478981 0.478981 0.478981
0.482460 0.482460 0.482460
0.486763 0.486763 0.486763
0.491188 0.491188 0.491188
0.495949 0.495949 0.495949
0.500755 0.500755 0.500755
0.506188 0.506188 0.506188
0.512627 0.512627 0.512627
0.520623 0.520623 0.520623
0.529870 0.529870 0.529870
0.540154 0.540154 0.540154
0.551446 0.551446 0.551446
0.563317 0.563317 0.563317
0.575402 0.575402 0.575402
0.587335 0.587335 0.587335
0.615869 0.615869 0.615869
0.649592 0.649592 0.649592
0.673121 0.673121 0.673121
0.697017 0.697017 0.697017
0.721126 0.721126 0.721126
0.744991 0.744991 0.744991
0.767636 0.767636 0.767636
0.788418 0.788418 0.788418
0.807218 0.807218 0.807218
0.824247 0.824247 0.824247
0.840024 0.840024 0.840024
0.855222 0.855222 0.855222
0.533074 0.533074 0.533074
0.530358 0.530358 0.530358
0.527642 0.527642 0.527642
0.526116 0.526116 0.526116
0.526055 0.526055 0.526055
0.527886 0.527886 0.527886
0.530999 0.530999 0.530999
0.534813 0.534813 0.534813
0.538903 0.538903 0.538903
0.543206 0.543206 0.543206
0.547662 0.547662 0.547662
0.552758 0.552758 0.552758
0.558648 0.558648 0.558648
0.565698 0.565698 0.565698
0.574304 0.574304 0.574304
0.583917 0.583917 0.583917
0.594354 0.594354 0.594354
0.605188 0.605188 0.605188
0.616144 0.616144 0.616144
0.626734 0.626734 0.626734
0.637110 0.637110 0.637110
0.659754 0.659754 0.659754
0.692988 0.692988 0.692988
0.714748 0.714748 0.714748
0.736904 0.736904 0.736904
0.758663 0.758663 0.758663
0.779202 0.779202 0.779202
0.798154 0.798154 0.798154
0.815427 0.815427 0.815427
0.831144 0.831144 0.831144
0.845548 0.845548 0.845548
0.858885 0.858885 0.858885
0.581109 0.581109 0.581109
0.578454 0.578454 0.578454
0.575982 0.575982 0.575982
0.574548 0.574548 0.574548
0.574365 0.574365 0.574365
0.576074 0.576074 0.576074
0.578882 0.578882 0.578882
0.582483 0.582483 0.582483
0.586328 0.586328 0.586328
0.590509 0.590509 0.590509
0.594842 0.594842 0.594842
0.599695 0.599695 0.599695
0.605188 0.605188 0.605188
0.611322 0.611322 0.611322
0.618433 0.618433 0.618433
0.626368 0.626368 0.626368
0.634394 0.634394 0.634394
0.642603 0.642603 0.642603
0.650660 0.650660 0.650660
0.658381 0.658381 0.658381
0.666133 0.666133 0.666133
0.673732 0.673732 0.673732
0.690913 0.690913 0.690913
0.723354 0.723354 0.723354
0.743496 0.743496 0.743496
0.763485 0.763485 0.763485
0.782650 0.782650 0.782650
0.800687 0.800687 0.800687
0.817288 0.817288 0.817288
0.832639 0.832639 0.832639
0.846830 0.846830 0.846830
0.860105 0.860105 0.860105
0.616266 0.616266 0.616266
0.615290 0.615290 0.615290
0.614649 0.614649 0.614649
0.614832 0.614832 0.614832
0.615869 0.615869 0.615869
0.618006 0.618006 0.618006
0.620569 0.620569 0.620569
0.623468 0.623468 0.623468
0.626551 0.626551 0.626551
0.629694 0.629694 0.629694
0.633112 0.633112 0.633112
0.637110 0.637110 0.637110
0.641779 0.641779 0.641779
0.647181 0.647181 0.647181
0.653254 0.653254 0.653254
0.660304 0.660304 0.660304
0.667659 0.667659 0.667659
0.675105 0.675105 0.675105
0.682643 0.682643 0.682643
0.690059 0.690059 0.690059
0.697536 0.697536 0.697536
0.704982 0.704982 0.704982
0.712581 0.712581 0.712581
0.726680 0.726680 0.726680
0.758267 0.758267 0.758267
0.776272 0.776272 0.776272
0.793515 0.793515 0.793515
0.809842 0.809842 0.809842
0.825040 0.825040 0.825040
0.839200 0.839200 0.839200
0.852415 0.852415 0.852415
0.864408 0.864408 0.864408
0.660334 0.660334 0.660334
0.659480 0.659480 0.659480
0.658778 0.658778 0.658778
0.658778 0.658778 0.658778
0.659693 0.659693 0.659693
0.661585 0.661585 0.661585
0.664088 0.664088 0.664088
0.666865 0.666865 0.666865
0.669764 0.669764 0.669764
0.672663 0.672663 0.672663
0.675776 0.675776 0.675776
0.679194 0.679194 0.679194
0.683253 0.683253 0.683253
0.687678 0.687678 0.687678
0.692683 0.692683 0.692683
0.698146 0.698146 0.698146
0.704067 0.704067 0.704067
0.710140 0.710140 0.710140
0.716274 0.716274 0.716274
0.722408 0.722408 0.722408
0.728450 0.728450 0.728450
0.734463 0.734463 0.734463
0.740566 0.740566 0.740566
0.746792 0.746792 0.746792
0.761593 0.761593 0.761593
0.789151 0.789151 0.789151
0.805173 0.805173 0.805173
0.819852 0.819852 0.819852
0.833585 0.833585 0.833585
0.846494 0.846494 0.846494
0.858579 0.858579 0.858579
0.868711 0.868711 0.868711
0.693050 0.693050 0.693050
0.692012 0.692012 0.692012
0.691493 0.691493 0.691493
0.691981 0.691981 0.691981
0.693324 0.693324 0.693324
0.695399 0.695399 0.695399
0.698054 0.698054 0.698054
0.701198 0.701198 0.701198
0.704494 0.704494 0.704494
0.707881 0.707881 0.707881
0.711635 0.711635 0.711635
0.715297 0.715297 0.715297
0.719326 0.719326 0.719326
0.723812 0.723812 0.723812
0.728939 0.728939 0.728939
0.734340 0.734340 0.734340
0.740108 0.740108 0.740108
0.745815 0.745815 0.745815
0.751064 0.751064 0.751064
0.755886 0.755886 0.755886
0.760525 0.760525 0.760525
0.765255 0.765255 0.765255
0.770352 0.770352 0.770352
0.775723 0.775723 0.775723
0.781552 0.781552 0.781552
0.788815 0.788815 0.788815
0.812589 0.812589 0.812589
0.827817 0.827817 0.827817
0.840665 0.840665 0.840665
0.852689 0.852689 0.852689
0.863432 0.863432 0.863432
0.872496 0.872496 0.872496
0.731807 0.731807 0.731807
0.730922 0.730922 0.730922
0.730495 0.730495 0.730495
0.730892 0.730892 0.730892
0.731930 0.731930 0.731930
0.733608 0.733608 0.733608
0.735714 0.735714 0.735714
0.738094 0.738094 0.738094
0.740627 0.740627 0.740627
0.743221 0.743221 0.743221
0.745968 0.745968 0.745968
0.748745 0.748745 0.748745
0.751858 0.751858 0.751858
0.755276 0.755276 0.755276
0.759182 0.759182 0.759182
0.763394 0.763394 0.763394
0.767697 0.767697 0.767697
0.772183 0.772183 0.772183
0.776425 0.776425 0.776425
0.780453 0.780453 0.780453
0.784329 0.784329 0.784329
0.788296 0.788296 0.788296
0.792477 0.792477 0.792477
0.796963 0.796963 0.796963
0.801694 0.801694 0.801694
0.806668 0.806668 0.806668
0.811704 0.811704 0.811704
0.831785 0.831785 0.831785
0.845823 0.845823 0.845823
0.857145 0.857145 0.857145
0.866423 0.866423 0.866423
0.874968 0.874968 0.874968
0.763821 0.763821 0.763821
0.763333 0.763333 0.763333
0.763302 0.763302 0.763302
0.763882 0.763882 0.763882
0.765042 0.765042 0.765042
0.766567 0.766567 0.766567
0.768460 0.768460 0.768460
0.770474 0.770474 0.770474
0.772519 0.772519 0.772519
0.774533 0.774533 0.774533
0.776699 0.776699 0.776699
0.778805 0.778805 0.778805
0.781125 0.781125 0.781125
0.783780 0.783780 0.783780
0.786893 0.786893 0.786893
0.790249 0.790249 0.790249
0.793759 0.793759 0.793759
0.797269 0.797269 0.797269
0.800809 0.800809 0.800809
0.804105 0.804105 0.804105
0.807340 0.807340 0.807340
0.810605 0.810605 0.810605
0.814054 0.814054 0.814054
0.817746 0.817746 0.817746
0.821622 0.821622 0.821622
0.825711 0.825711 0.825711
0.829892 0.829892 0.829892
0.834195 0.834195 0.834195
0.850034 0.850034 0.850034
0.861936 0.861936 0.861936
0.870451 0.870451 0.870451
0.878416 0.878416 0.878416
0.792996 0.792996 0.792996
0.792782 0.792782 0.792782
0.792752 0.792752 0.792752
0.793118 0.793118 0.793118
0.793729 0.793729 0.793729
0.794461 0.794461 0.794461
0.795102 0.795102 0.795102
0.795712 0.795712 0.795712
0.796231 0.796231 0.796231
0.796719 0.796719 0.796719
0.797330 0.797330 0.797330
0.798123 0.798123 0.798123
0.799252 0.799252 0.799252
0.800809 0.800809 0.800809
0.802914 0.802914 0.802914
0.805570 0.805570 0.805570
0.808499 0.808499 0.808499
0.811460 0.811460 0.811460
0.814420 0.814420 0.814420
0.817411 0.817411 0.817411
0.820340 0.820340 0.820340
0.823362 0.823362 0.823362
0.826535 0.826535 0.826535
0.829892 0.829892 0.829892
0.833494 0.833494 0.833494
0.837217 0.837217 0.837217
0.841062 0.841062 0.841062
0.844968 0.844968 0.844968
0.848203 0.848203 0.848203
0.860197 0.860197 0.860197
0.871031 0.871031 0.871031
0.878935 0.878935 0.878935
0.811398 0.811398 0.811398
0.811307 0.811307 0.811307
0.811460 0.811460 0.811460
0.811948 0.811948 0.811948
0.812680 0.812680 0.812680
0.813596 0.813596 0.813596
0.814542 0.814542 0.814542
0.815518 0.815518 0.815518
0.816495 0.816495 0.816495
0.817502 0.817502 0.817502
0.818631 0.818631 0.818631
0.819852 0.819852 0.819852
0.821317 0.821317 0.821317
0.822995 0.822995 0.822995
