data/fiter_cube/21023058/1023013/file.cube
# Created by Adobe Lightroom plugin Export LUT (1.17.0)
# www.johnrellis.com/lightroom/exportlut.htm
# Preset: 温暖焦糖婚礼婚纱_09 云集
# Color profile: C:\Program Files (x86)\Common Files\Adobe\Color\Profiles\Recommended\AdobeRGB1998.icc
LUT_3D_SIZE 5
DOMAIN_MIN 0.000000 0.000000 0.000000
DOMAIN_MAX 0.903226 0.903226 0.903226
0.074983 0.074983 0.074983
0.077668 0.077668 0.077668
0.196597 0.196597 0.196597
0.462257 0.462257 0.462257
0.755184 0.755184 0.755184
0.085542 0.085542 0.085542
0.101045 0.101045 0.101045
0.242954 0.242954 0.242954
0.493660 0.493660 0.493660
0.755550 0.755550 0.755550
0.309636 0.309636 0.309636
0.335027 0.335027 0.335027
0.378759 0.378759 0.378759
0.565850 0.565850 0.565850
0.785153 0.785153 0.785153
0.616266 0.616266 0.616266
0.623468 0.623468 0.623468
0.653254 0.653254 0.653254
0.704982 0.704982 0.704982
0.825040 0.825040 0.825040
0.833219 0.833219 0.833219
0.836118 0.836118 0.836118
0.848814 0.848814 0.848814
0.860258 0.860258 0.860258
0.873320 0.873320 0.873320
0.074983 0.074983 0.074983
0.076509 0.076509 0.076509
0.229892 0.229892 0.229892
0.527825 0.527825 0.527825
0.778225 0.778225 0.778225
0.085298 0.085298 0.085298
0.120638 0.120638 0.120638
0.296452 0.296452 0.296452
0.546685 0.546685 0.546685
0.782773 0.782773 0.782773
0.328679 0.328679 0.328679
0.365087 0.365087 0.365087
0.421881 0.421881 0.421881
0.601678 0.601678 0.601678
0.796872 0.796872 0.796872
0.625177 0.625177 0.625177
0.636011 0.636011 0.636011
0.664759 0.664759 0.664759
0.714137 0.714137 0.714137
0.829038 0.829038 0.829038
0.835416 0.835416 0.835416
0.838254 0.838254 0.838254
0.845884 0.845884 0.845884
0.859312 0.859312 0.859312
0.872923 0.872923 0.872923
0.081453 0.081453 0.081453
0.093568 0.093568 0.093568
0.158572 0.158572 0.158572
0.423285 0.423285 0.423285
0.768948 0.768948 0.768948
0.134279 0.134279 0.134279
0.169619 0.169619 0.169619
0.236179 0.236179 0.236179
0.499916 0.499916 0.499916
0.787655 0.787655 0.787655
0.283268 0.283268 0.283268
0.329900 0.329900 0.329900
0.457069 0.457069 0.457069
0.648646 0.648646 0.648646
0.814511 0.814511 0.814511
0.627344 0.627344 0.627344
0.648981 0.648981 0.648981
0.694026 0.694026 0.694026
0.731289 0.731289 0.731289
0.838224 0.838224 0.838224
0.838010 0.838010 0.838010
0.840970 0.840970 0.840970
0.851072 0.851072 0.851072
0.863767 0.863767 0.863767
0.876890 0.876890 0.876890
0.153964 0.153964 0.153964
0.174746 0.174746 0.174746
0.241428 0.241428 0.241428
0.366369 0.366369 0.366369
0.653407 0.653407 0.653407
0.250095 0.250095 0.250095
0.267430 0.267430 0.267430
0.324315 0.324315 0.324315
0.433143 0.433143 0.433143
0.689418 0.689418 0.689418
0.361517 0.361517 0.361517
0.400916 0.400916 0.400916
0.530449 0.530449 0.530449
0.584985 0.584985 0.584985
0.782071 0.782071 0.782071
0.579889 0.579889 0.579889
0.606928 0.606928 0.606928
0.672877 0.672877 0.672877
0.759030 0.759030 0.759030
0.852842 0.852842 0.852842
0.835477 0.835477 0.835477
0.839353 0.839353 0.839353
0.850706 0.850706 0.850706
0.868070 0.868070 0.868070
0.880888 0.880888 0.880888
0.322210 0.322210 0.322210
0.338964 0.338964 0.338964
0.395270 0.395270 0.395270
0.477485 0.477485 0.477485
0.600305 0.600305 0.600305
0.388678 0.388678 0.388678
0.401587 0.401587 0.401587
0.447700 0.447700 0.447700
0.514427 0.514427 0.514427
0.624598 0.624598 0.624598
0.507073 0.507073 0.507073
0.548150 0.548150 0.548150
0.584558 0.584558 0.584558
0.624689 0.624689 0.624689
0.705409 0.705409 0.705409
0.634333 0.634333 0.634333
0.643702 0.643702 0.643702
0.678431 0.678431 0.678431
0.767880 0.767880 0.767880
0.814420 0.814420 0.814420
0.806729 0.806729 0.806729
0.810513 0.810513 0.810513
0.826505 0.826505 0.826505
0.850584 0.850584 0.850584
0.880827 0.880827 0.880827
