data/fiter_cube/15997792/1023464/file.cube
# Created by Adobe Lightroom plugin Export LUT (1.17.0)
# www.johnrellis.com/lightroom/exportlut.htm
# Preset: 日系A通透明亮[云集]-5 亮冷色
# Color profile: C:\Program Files (x86)\Common Files\Adobe\Color\Profiles\Recommended\AdobeRGB1998.icc
LUT_3D_SIZE 32
DOMAIN_MIN 0.0 0.0 0.0
DOMAIN_MAX 1.0 1.0 1.0
0.000000 0.000000 0.000000
0.052949 0.012024 0.000000
0.078798 0.028290 0.000000
0.134463 0.062043 0.000000
0.231601 0.068482 0.000000
0.333440 0.060456 0.000000
0.429664 0.025757 0.000000
0.517662 0.001556 0.000000
0.596490 0.021942 0.000000
0.666102 0.077394 0.000000
0.726070 0.111513 0.000000
0.775998 0.143893 0.000000
0.817990 0.172305 0.000000
0.853422 0.195987 0.000000
0.883604 0.217746 0.000000
0.909697 0.236637 0.000000
0.932403 0.253666 0.000000
0.952209 0.269474 0.000000
0.969665 0.284001 0.000000
0.987945 0.299748 0.000000
1.000000 0.314580 0.000000
1.000000 0.328069 0.000000
1.000000 0.340307 0.000000
1.000000 0.351415 0.000000
1.000000 0.361273 0.000000
1.000000 0.370459 0.000000
1.000000 0.379156 0.000000
1.000000 0.387427 0.000000
1.000000 0.395239 0.000000
1.000000 0.402869 0.000000
1.000000 0.410224 0.013489
1.000000 0.417426 0.066957
0.000000 0.064179 0.007904
0.042084 0.068452 0.000000
0.077577 0.072328 0.000000
0.137423 0.089143 0.000000
0.235691 0.101228 0.000000
0.336767 0.101564 0.000000
0.432227 0.095521 0.000000
0.519005 0.092592 0.000000
0.596735 0.098970 0.000000
0.665858 0.118563 0.000000
0.725307 0.142458 0.000000
0.774899 0.166781 0.000000
0.816617 0.189975 0.000000
0.851957 0.210849 0.000000
0.882200 0.229984 0.000000
0.908263 0.246952 0.000000
0.930999 0.262608 0.000000
0.950927 0.277073 0.000000
0.968444 0.290593 0.000000
0.986603 0.305272 0.000000
1.000000 0.319097 0.000000
1.000000 0.331731 0.000000
1.000000 0.343297 0.000000
1.000000 0.353857 0.000000
1.000000 0.363409 0.000000
1.000000 0.372473 0.000000
1.000000 0.380774 0.000000
1.000000 0.388983 0.000000
1.000000 0.396643 0.000000
1.000000 0.404028 0.000000
1.000000 0.411231 0.000000
1.000000 0.418280 0.060395
0.000000 0.090578 0.021424
0.025360 0.090883 0.018402
0.072786 0.098726 0.000000
0.137301 0.117098 0.000000
0.240879 0.135653 0.000000
0.341894 0.140261 0.000000
0.435798 0.139101 0.000000
0.521355 0.138186 0.000000
0.598413 0.143923 0.000000
0.666468 0.156771 0.000000
0.725551 0.175357 0.000000
0.774868 0.194583 0.000000
0.816251 0.212650 0.000000
0.851530 0.230228 0.000000
0.881590 0.246586 0.000000
0.907744 0.261051 0.000000
0.930419 0.275120 0.000000
0.950317 0.288029 0.000000
0.967864 0.300053 0.000000
0.986023 0.313695 0.000000
1.000000 0.326360 0.000000
1.000000 0.338079 0.000000
1.000000 0.348943 0.000000
1.000000 0.358709 0.000000
1.000000 0.367926 0.000000
1.000000 0.376318 0.000000
1.000000 0.384405 0.000000
1.000000 0.392248 0.000000
1.000000 0.399634 0.000000
1.000000 0.406806 0.000000
1.000000 0.413642 0.000000
1.000000 0.420447 0.059327
0.000000 0.149569 0.046082
0.000000 0.151247 0.022827
0.054017 0.152773 0.031189
0.128786 0.172183 0.000000
0.233707 0.190341 0.000000
0.354803 0.208133 0.000000
0.446845 0.207980 0.000000
0.530327 0.207980 0.000000
0.604822 0.211490 0.000000
0.671321 0.219913 0.000000
0.728542 0.231540 0.000000
0.776669 0.243900 0.000000
0.817227 0.256291 0.000000
0.851896 0.268345 0.000000
0.881773 0.279606 0.000000
0.907622 0.290379 0.000000
0.930144 0.300664 0.000000
0.949920 0.310674 0.000000
0.967651 0.320653 0.000000
0.985229 0.331518 0.000000
1.000000 0.341833 0.000000
1.000000 0.351720 0.000000
1.000000 0.361273 0.000000
1.000000 0.370001 0.000000
1.000000 0.378241 0.000000
1.000000 0.386053 0.000000
1.000000 0.393378 0.000000
1.000000 0.400702 0.000000
1.000000 0.407538 0.000000
1.000000 0.413947 0.000000
1.000000 0.420203 0.016632
1.000000 0.426215 0.064881
0.000000 0.230350 0.050507
0.000000 0.232212 0.013794
0.000000 0.233890 0.005280
0.093507 0.242496 0.000000
0.208560 0.260777 0.000000
0.322850 0.266545 0.000000
0.441230 0.283024 0.000000
0.541131 0.290166 0.000000
0.612940 0.290196 0.000000
0.676905 0.294499 0.000000
0.732143 0.299992 0.000000
0.778775 0.306035 0.000000
0.818479 0.312108 0.000000
0.852659 0.318608 0.000000
0.882261 0.324926 0.000000
0.908049 0.331334 0.000000
0.930510 0.337438 0.000000
0.950195 0.343816 0.000000
0.968322 0.350683 0.000000
0.985412 0.358373 0.000000
1.000000 0.365911 0.000000
1.000000 0.373510 0.000000
1.000000 0.380835 0.000000
1.000000 0.387854 0.000000
1.000000 0.394537 0.000000
1.000000 0.401007 0.000000
1.000000 0.407294 0.000000
1.000000 0.413184 0.000000
1.000000 0.419104 0.000000
1.000000 0.424720 0.000000
1.000000 0.429999 0.043091
1.000000 0.435340 0.074006
0.000000 0.311223 0.054017
0.000000 0.313085 0.012299
0.000000 0.314824 0.000000
0.009796 0.317021 0.000000
0.159976 0.332006 0.000000
0.289220 0.343999 0.000000
0.403326 0.339788 0.000000
0.515618 0.357733 0.000000
0.616938 0.373480 0.000000
0.686458 0.377081 0.000000
0.738918 0.376715 0.000000
0.783627 0.376287 0.000000
0.821988 0.376501 0.000000
0.855344 0.377050 0.000000
0.884367 0.378332 0.000000
0.909636 0.379736 0.000000
0.931731 0.381750 0.000000
0.951171 0.384131 0.000000
0.969574 0.387945 0.000000
0.986236 0.392248 0.000000
1.000000 0.396979 0.000000
1.000000 0.401740 0.000000
1.000000 0.416876 0.000000
1.000000 0.421698 0.000000
1.000000 0.426154 0.000000
1.000000 0.430426 0.000000
1.000000 0.434546 0.000000
1.000000 0.438605 0.047486
1.000000 0.442725 0.075532
1.000000 0.446754 0.092195
1.000000 0.450690 0.105837
1.000000 0.454627 0.117830
0.000000 0.394354 0.068116
0.000000 0.395575 0.035645
0.000000 0.397406 0.000000
0.000000 0.400183 0.000000
0.118318 0.402838 0.000000
0.241520 0.421820 0.000000
0.373297 0.427253 0.000000
0.482826 0.415259 0.000000
0.588190 0.435706 0.000000
0.680934 0.454261 0.000000
0.755093 0.464942 0.000000
0.797177 0.457588 0.000000
0.833127 0.450904 0.000000
0.864500 0.445197 0.000000
0.891691 0.440253 0.000000
0.915343 0.436347 0.000000
0.936309 0.433478 0.000000
0.955901 0.432258 0.000000
0.973907 0.432654 0.000000
0.990387 0.433814 0.000000
1.000000 0.436103 0.000000
1.000000 0.439033 0.000000
1.000000 0.442512 0.000000
1.000000 0.446021 0.000000
1.000000 0.449439 0.000000
1.000000 0.452369 0.000000
1.000000 0.455238 0.046052
1.000000 0.457893 0.075959
1.000000 0.460609 0.092195
1.000000 0.463294 0.105501
1.000000 0.465919 0.116030
1.000000 0.468757 0.126314
0.000000 0.463172 0.094545
0.000000 0.464332 0.080293
0.000000 0.465797 0.051026
0.000000 0.468879 0.000000
0.070008 0.471290 0.000000
0.198459 0.476600 0.022919
0.319005 0.493904 0.000000
0.442634 0.494850 0.000000
0.544396 0.480110 0.000000
0.640772 0.500298 0.000000
0.723629 0.516960 0.000000
0.790616 0.525322 0.000000
0.837247 0.522210 0.000000
0.867582 0.511131 0.000000
0.893950 0.501305 0.000000
0.917082 0.492805 0.000000
0.937987 0.486183 0.000000
0.957427 0.481453 0.000000
0.974578 0.477852 0.000000
0.990387 0.475410 0.000000
1.000000 0.474342 0.000000
1.000000 0.474281 0.000000
1.000000 0.475074 0.000000
1.000000 0.476051 0.000000
1.000000 0.477119 0.000000
1.000000 0.478248 0.060426
1.000000 0.479225 0.082582
1.000000 0.480201 0.097475
1.000000 0.481453 0.110292
1.000000 0.482643 0.120302
1.000000 0.484169 0.129610
1.000000 0.485725 0.138155
0.000000 0.527398 0.130800
0.000000 0.528344 0.120790
0.000000 0.529686 0.107240
0.000000 0.532311 0.067628
0.000000 0.535302 0.061006
0.178195 0.537438 0.096925
0.279606 0.546105 0.067109
0.394079 0.560327 0.000000
0.507561 0.558068 0.000000
0.602594 0.547234 0.000000
0.686946 0.559503 0.000000
0.760128 0.572076 0.000000
0.819547 0.576989 0.000000
0.868345 0.576806 0.000000
0.897124 0.564996 0.000000
0.919951 0.552575 0.000000
0.941009 0.542351 0.000000
0.959380 0.533532 0.000000
0.975616 0.525902 0.000000
0.990906 0.520073 0.000000
1.000000 0.515953 0.000000
1.000000 0.512840 0.000000
1.000000 0.510887 0.000000
1.000000 0.509514 0.043854
1.000000 0.508385 0.080598
1.000000 0.507195 0.098543
1.000000 0.506340 0.112062
1.000000 0.505638 0.122286
1.000000 0.505058 0.130953
1.000000 0.504875 0.138949
1.000000 0.504936 0.145998
1.000000 0.505119 0.152590
0.000000 0.586786 0.169070
0.000000 0.587518 0.162600
0.000000 0.588617 0.152407
0.000000 0.591028 0.128420
0.000000 0.594232 0.099214
0.160616 0.596246 0.125246
0.263218 0.598138 0.153719
0.356725 0.608942 0.097719
0.464088 0.620569 0.000000
0.565332 0.616602 0.000000
0.653864 0.608240 0.000000
0.725338 0.609766 0.000000
0.790341 0.618799 0.000000
0.843778 0.620966 0.000000
0.888762 0.619471 0.000000
0.924254 0.614160 0.000000
0.944335 0.600000 0.000000
0.961822 0.587304 0.000000
0.977478 0.576410 0.000000
0.992096 0.567163 0.000000
1.000000 0.559869 0.000000
1.000000 0.553796 0.059632
1.000000 0.548791 0.084474
1.000000 0.544640 0.103365
1.000000 0.541039 0.117556
1.000000 0.537896 0.129305
1.000000 0.535149 0.138064
1.000000 0.532830 0.146181
1.000000 0.530907 0.153323
1.000000 0.529290 0.159396
1.000000 0.528099 0.165286
1.000000 0.527153 0.170718
0.000000 0.640162 0.208042
0.000000 0.640925 0.202792
0.000000 0.641993 0.194949
0.000000 0.644160 0.177951
0.000000 0.647486 0.148348
0.144472 0.650019 0.155489
0.253147 0.652064 0.180056
0.339086 0.654932 0.200168
0.427619 0.665553 0.128817
0.525505 0.674189 0.000000
0.614954 0.668452 0.000000
0.693324 0.657404 0.000000
0.758999 0.654322 0.000000
0.818570 0.661250 0.000000
0.867552 0.661616 0.000000
0.907683 0.657862 0.000000
0.940764 0.651789 0.000000
0.963073 0.640772 0.062501
0.978180 0.626551 0.080690
0.992370 0.614435 0.096071
1.000000 0.604303 0.110994
1.000000 0.595636 0.123476
1.000000 0.588373 0.135592
1.000000 0.581933 0.146029
1.000000 0.576287 0.155215
1.000000 0.571069 0.162264
1.000000 0.566339 0.167910
1.000000 0.562219 0.173068
1.000000 0.558618 0.177493
1.000000 0.555383 0.181247
1.000000 0.552697 0.185428
1.000000 0.550469 0.189548
0.000000 0.689021 0.246555
0.000000 0.689662 0.242283
0.000000 0.690455 0.236484
0.000000 0.692195 0.223209
0.000000 0.695155 0.201450
0.133700 0.697993 0.187533
0.245243 0.699672 0.208682
0.331304 0.701228 0.233097
0.407599 0.705745 0.229343
0.489296 0.713924 0.161746
0.576867 0.720394 0.000000
0.658808 0.715297 0.000000
0.745174 0.718776 0.000000
0.805142 0.709529 0.000000
0.856992 0.711238 0.000000
0.899443 0.707393 0.000000
0.933898 0.700496 0.065431
0.962066 0.692256 0.134554
0.985412 0.684077 0.178958
0.999603 0.670161 0.187716
1.000000 0.656764 0.191196
1.000000 0.645167 0.195712
1.000000 0.634730 0.199527
1.000000 0.625605 0.203769
1.000000 0.617334 0.207370
1.000000 0.609888 0.210147
1.000000 0.602991 0.212284
1.000000 0.596796 0.213748
1.000000 0.591211 0.215091
1.000000 0.586206 0.216373
1.000000 0.581903 0.218235
1.000000 0.578027 0.219791
0.000000 0.737118 0.288060
0.000000 0.737545 0.284825
0.000000 0.737972 0.279576
0.000000 0.738979 0.269017
0.094697 0.740688 0.251469
0.144839 0.743099 0.227329
0.244053 0.743954 0.241184
0.327703 0.744686 0.262882
0.402228 0.745968 0.287968
0.471473 0.753414 0.263554
0.547173 0.761776 0.202976
0.628199 0.768673 0.101534
0.703731 0.763546 0.000000
0.773556 0.755001 0.000000
0.828519 0.740810 0.000000
0.875425 0.740169 0.000000
0.913634 0.734646 0.049866
0.944701 0.726650 0.129824
0.970489 0.717952 0.176761
0.992554 0.709651 0.213901
1.000000 0.700832 0.240482
1.000000 0.687007 0.240574
1.000000 0.674708 0.241215
1.000000 0.663569 0.242008
1.000000 0.653376 0.242283
1.000000 0.644129 0.242466
1.000000 0.635615 0.242191
1.000000 0.627863 0.241947
1.000000 0.620691 0.241123
1.000000 0.614374 0.241062
1.000000 0.608637 0.240818
1.000000 0.603571 0.241367
0.040253 0.771878 0.322606
0.066896 0.772244 0.319585
0.085023 0.772580 0.315526
0.113954 0.773434 0.307012
0.146761 0.774746 0.293034
0.183139 0.777157 0.274968
0.245853 0.779355 0.271946
0.325933 0.780514 0.292088
0.397864 0.781918 0.315831
0.463539 0.783902 0.342535
0.523827 0.791226 0.296849
0.592065 0.797574 0.238346
0.665064 0.802304 0.153445
0.733791 0.795560 0.097200
0.798398 0.786404 0.000000
0.849027 0.767910 0.000000
0.891051 0.764828 0.000000
0.925414 0.757992 0.122194
0.954070 0.749538 0.171633
0.978454 0.740963 0.210391
0.999359 0.732784 0.244419
1.000000 0.725246 0.274113
1.000000 0.714626 0.285618
1.000000 0.701869 0.283299
1.000000 0.690089 0.280949
1.000000 0.679225 0.278691
1.000000 0.669154 0.275975
1.000000 0.659876 0.273320
1.000000 0.651423 0.270909
1.000000 0.643732 0.268833
1.000000 0.636805 0.267460
1.000000 0.630518 0.266484
0.141817 0.804837 0.358038
0.148959 0.805203 0.356054
0.156191 0.805509 0.352667
0.172549 0.806271 0.345647
0.195346 0.807370 0.334783
0.221653 0.808957 0.319860
0.253910 0.811063 0.303593
0.327855 0.811337 0.321416
0.395117 0.811978 0.342626
0.457313 0.813077 0.367132
0.512383 0.816190 0.373297
0.567376 0.822080 0.328008
0.629175 0.826719 0.271397
0.695735 0.829709 0.194156
0.758907 0.821805 0.156619
0.819059 0.812284 0.100984
0.867857 0.794156 0.000000
0.904723 0.786374 0.109102
0.936370 0.778927 0.163760
0.963287 0.770565 0.205173
0.986297 0.762051 0.240177
1.000000 0.753841 0.270787
1.000000 0.746029 0.297917
1.000000 0.738766 0.322728
1.000000 0.726528 0.321996
1.000000 0.714382 0.317174
1.000000 0.703120 0.312902
1.000000 0.692836 0.309209
1.000000 0.683284 0.305486
1.000000 0.674586 0.302373
1.000000 0.666651 0.299992
1.000000 0.659449 0.298619
0.197604 0.832853 0.391760
0.202884 0.833188 0.390265
0.207889 0.833524 0.387610
0.220218 0.834134 0.382086
0.237491 0.835080 0.373449
0.259098 0.836454 0.361822
0.284092 0.838346 0.347814
0.335424 0.839231 0.352605
0.397803 0.839414 0.372015
0.455512 0.839841 0.394110
0.508995 0.840482 0.418769
0.555138 0.843778 0.404242
0.604547 0.847745 0.358312
0.660487 0.850431 0.302037
0.721035 0.851286 0.230838
0.779232 0.842710 0.199191
0.835813 0.833341 0.157931
0.884550 0.818082 0.113497
0.917235 0.805600 0.152895
0.947143 0.798367 0.198520
0.972656 0.790249 0.235264
0.994415 0.781918 0.268437
1.000000 0.773709 0.297215
1.000000 0.765713 0.322606
1.000000 0.758206 0.345739
1.000000 0.750057 0.361425
1.000000 0.737636 0.354742
1.000000 0.726162 0.348791
1.000000 0.715511 0.343481
1.000000 0.705501 0.337987
1.000000 0.696345 0.333684
1.000000 0.687953 0.330083
0.241886 0.855497 0.422156
0.244938 0.855711 0.420478
0.249546 0.855833 0.418585
0.258762 0.856352 0.413886
0.272862 0.857053 0.406928
0.290959 0.858061 0.397864
0.312200 0.859495 0.386755
0.343114 0.860838 0.379644
0.399847 0.860685 0.397040
0.453346 0.860655 0.417090
0.503716 0.860868 0.439796
0.550896 0.861204 0.464424
0.589899 0.864988 0.430396
0.635309 0.867948 0.384894
0.686732 0.869566 0.329717
0.742519 0.868956 0.265751
0.796872 0.860624 0.237430
0.850584 0.851682 0.202029
0.899992 0.839567 0.164675
0.929229 0.823423 0.186374
0.957305 0.816068 0.226658
0.981262 0.807919 0.261082
1.000000 0.799496 0.291508
1.000000 0.791165 0.318761
1.000000 0.783047 0.342809
1.000000 0.775357 0.364630
1.000000 0.768093 0.383917
1.000000 0.758480 0.388800
1.000000 0.746853 0.381384
1.000000 0.735988 0.374762
1.000000 0.725856 0.368475
1.000000 0.716579 0.363897
0.281102 0.875364 0.451240
0.284398 0.875700 0.450294
0.304631 0.883299 0.461555
0.311864 0.883604 0.457893
0.323339 0.884001 0.452552
0.337560 0.884550 0.445167
0.355016 0.885313 0.436469
0.374823 0.886351 0.426154
0.418067 0.886046 0.436378
0.465736 0.885435 0.454475
0.511131 0.884977 0.474586
0.554528 0.884550 0.496742
0.592859 0.885008 0.505913
0.626886 0.887816 0.466773
0.667628 0.889586 0.420874
0.714351 0.890196 0.366003
0.765927 0.888457 0.307927
0.816953 0.880369 0.281071
0.867887 0.871763 0.248997
0.917937 0.862425 0.215091
0.943664 0.842710 0.224063
0.969482 0.834806 0.260197
0.991455 0.826200 0.291814
1.000000 0.817441 0.319768
1.000000 0.808621 0.344244
1.000000 0.800107 0.365850
1.000000 0.791836 0.384771
1.000000 0.784115 0.401953
1.000000 0.776822 0.417304
1.000000 0.765988 0.412940
1.000000 0.755032 0.405097
1.000000 0.744869 0.398718
0.320623 0.894469 0.481941
0.324956 0.895476 0.482704
0.329992 0.896513 0.482979
0.338415 0.897551 0.481819
0.349310 0.898497 0.478584
0.362737 0.899229 0.473518
0.377935 0.899992 0.466560
0.395636 0.900816 0.458656
0.424323 0.901183 0.458961
0.467536 0.900481 0.475257
0.509667 0.899840 0.493568
0.550378 0.899229 0.513817
0.589258 0.898558 0.535607
0.620447 0.899870 0.525963
0.652003 0.902068 0.486702
0.690028 0.903319 0.440864
0.733852 0.903563 0.386999
0.782193 0.901274 0.333593
0.830808 0.893797 0.308690
0.879637 0.885924 0.279728
0.930785 0.879545 0.247562
0.954253 0.857511 0.247959
0.978515 0.849546 0.282078
0.999054 0.840970 0.312352
1.000000 0.832059 0.338720
1.000000 0.823239 0.361730
1.000000 0.814603 0.382116
1.000000 0.806394 0.400641
1.000000 0.798581 0.417395
1.000000 0.791257 0.432807
1.000000 0.783780 0.444007
1.000000 0.772976 0.436194
0.350225 0.909148 0.506218
0.354192 0.909941 0.507195
0.358618 0.910826 0.507652
0.365667 0.911681 0.506767
0.375250 0.912474 0.504326
0.386786 0.913085 0.500298
0.400336 0.913664 0.494972
0.415900 0.914305 0.488655
0.433600 0.915160 0.482094
0.472084 0.914458 0.496132
0.511131 0.913725 0.513207
0.549096 0.912993 0.531792
0.585657 0.912200 0.551629
0.620783 0.911376 0.572656
0.645747 0.913420 0.545617
0.675288 0.915221 0.506218
0.710842 0.916197 0.460487
0.752132 0.916228 0.407752
0.798001 0.913603 0.358862
0.844480 0.906767 0.335454
0.891264 0.899474 0.309117
0.941039 0.894133 0.279362
0.964782 0.871702 0.270939
0.987396 0.863584 0.303471
1.000000 0.854795 0.331853
1.000000 0.845792 0.356512
1.000000 0.836820 0.378119
1.000000 0.828183 0.397833
1.000000 0.819883 0.415686
1.000000 0.812009 0.432013
1.000000 0.804593 0.447059
1.000000 0.797787 0.461952
0.377600 0.922698 0.529747
0.381109 0.923400 0.530632
0.385107 0.924132 0.531243
0.391363 0.924834 0.530755
0.399786 0.925475 0.528985
0.409979 0.925963 0.525841
0.421668 0.926421 0.521538
0.435431 0.926909 0.516655
0.451301 0.927520 0.511559
0.478645 0.927367 0.516991
0.514305 0.926513 0.532341
0.549645 0.925628 0.549401
0.583917 0.924743 0.567590
0.617121 0.923796 0.586755
0.646601 0.923583 0.597101
0.668940 0.925902 0.564202
0.697078 0.927611 0.525811
0.730983 0.928710 0.481697
0.770443 0.928985 0.430579
0.814389 0.926543 0.387793
0.859129 0.920531 0.367132
0.904387 0.914092 0.343999
0.951263 0.908293 0.317449
0.977081 0.887144 0.300908
0.997925 0.878721 0.332158
1.000000 0.869841 0.359472
1.000000 0.860746 0.383459
1.000000 0.851835 0.404852
1.000000 0.843168 0.424018
1.000000 0.834867 0.441535
1.000000 0.827054 0.458320
1.000000 0.819852 0.474586
0.410163 0.937560 0.558160
0.412390 0.937865 0.558343
0.414832 0.938140 0.558282
0.419532 0.938415 0.557305
0.426398 0.938689 0.555505
0.434943 0.938933 0.552850
0.445411 0.939239 0.549584
0.457771 0.939605 0.546044
0.472053 0.940124 0.542351
0.490486 0.940551 0.541497
0.523278 0.939727 0.556085
0.555901 0.938842 0.571984
0.587671 0.937896 0.588525
0.618463 0.936889 0.605737
0.648280 0.935912 0.623346
0.671473 0.936584 0.618006
0.692653 0.938598 0.586267
0.718990 0.940124 0.548486
0.750790 0.941039 0.504814
0.788022 0.941161 0.454139
0.829648 0.938323 0.414893
0.872221 0.932494 0.394781
0.915282 0.926299 0.372442
0.959045 0.919860 0.347021
0.987213 0.902220 0.328313
1.000000 0.890929 0.350652
1.000000 0.881895 0.376654
1.000000 0.872801 0.399786
1.000000 0.863859 0.420691
1.000000 0.855192 0.439582
1.000000 0.846921 0.457679
1.000000 0.839078 0.474434
0.433997 0.948882 0.579767
0.436164 0.949157 0.580072
0.438453 0.949401 0.580163
0.442725 0.949645 0.579583
0.448707 0.949828 0.578210
0.456214 0.949981 0.576043
0.465400 0.950164 0.573358
0.476265 0.950378 0.570459
0.489174 0.950713 0.567681
0.503655 0.951110 0.565209
0.529870 0.950561 0.574701
0.559686 0.949645 0.588952
0.589075 0.948669 0.603906
0.618128 0.947662 0.619715
0.646326 0.946654 0.635889
0.673823 0.945678 0.652522
0.692012 0.947356 0.633570
0.712551 0.949279 0.602899
0.737911 0.950713 0.566857
0.768215 0.951598 0.524102
0.803708 0.951751 0.474525
0.843565 0.948821 0.439521
0.884337 0.943511 0.421027
0.925689 0.937774 0.400275
0.966461 0.930541 0.371099
0.996246 0.915648 0.351049
1.000000 0.901976 0.365667
1.000000 0.892912 0.390723
1.000000 0.883787 0.413275
1.000000 0.874846 0.434211
1.000000 0.866270 0.454047
1.000000 0.857755 0.470954
0.462074 0.960906 0.605341
0.464149 0.961181 0.605829
0.466133 0.961334 0.605921
0.469581 0.961425 0.605310
0.474495 0.961456 0.603967
0.480903 0.961456 0.602106
0.488746 0.961456 0.599847
0.498024 0.961425 0.597253
0.508904 0.961486 0.594537
0.521233 0.961608 0.592126
0.539208 0.961303 0.594690
0.565911 0.960235 0.607019
0.592798 0.959106 0.620203
0.619440 0.957916 0.633967
0.645563 0.956695 0.648157
0.671168 0.955474 0.662745
0.694545 0.954803 0.671901
0.709987 0.956756 0.646052
0.729824 0.958495 0.616022
0.754269 0.959869 0.580804
0.783444 0.960754 0.539208
0.817411 0.960937 0.490272
0.855528 0.957824 0.458839
0.894560 0.952667 0.440681
0.934020 0.947112 0.420264
0.974151 0.941222 0.397070
1.000000 0.928893 0.375982
1.000000 0.913085 0.382788
1.000000 0.903868 0.406958
1.000000 0.894682 0.429511
1.000000 0.885649 0.450263
1.000000 0.876616 0.467811
0.482338 0.970275 0.624170
0.484138 0.970489 0.624720
0.486030 0.970611 0.624842
0.489174 0.970672 0.624445
0.493538 0.970703 0.623407
0.499306 0.970703 0.621942
0.506401 0.970672 0.620203
0.514824 0.970672 0.618250
0.524834 0.970703 0.616327
0.536095 0.970794 0.614588
0.548425 0.970977 0.612970
0.572839 0.969970 0.624018
0.597803 0.968933 0.636255
0.622705 0.967803 0.648920
0.647364 0.966613 0.662104
0.671656 0.965454 0.675593
0.695613 0.964263 0.689479
0.713924 0.964691 0.686366
0.729122 0.966644 0.661799
0.748348 0.968292 0.633112
0.771756 0.969574 0.599268
0.799496 0.970336 0.558740
0.831724 0.970428 0.509850
0.868070 0.967193 0.481758
0.905425 0.962310 0.464485
0.943297 0.957122 0.445136
0.981781 0.951537 0.424018
1.000000 0.941802 0.402808
1.000000 0.924376 0.403693
1.000000 0.915129 0.428687
1.000000 0.905577 0.449805
1.000000 0.896178 0.468971
0.503319 0.979553 0.643732
0.504814 0.979644 0.644068
0.506157 0.979706 0.644007
0.508721 0.979706 0.643488
0.512322 0.979644 0.642451
0.517235 0.979553 0.641108
0.523339 0.979461 0.639429
0.530877 0.979400 0.637751
0.539788 0.979370 0.636164
0.549859 0.979400 0.634730
0.561151 0.979492 0.633539
0.579583 0.978973 0.639429
0.602716 0.977935 0.650599
0.626123 0.976837 0.662470
0.649256 0.975677 0.674434
0.672175 0.974456 0.686793
0.694911 0.973266 0.699458
0.717342 0.972107 0.712551
0.731197 0.973541 0.698421
0.746090 0.975372 0.674647
0.764675 0.976959 0.646784
0.787198 0.978119 0.613855
0.813687 0.978790 0.574060
0.844419 0.978790 0.525566
0.879271 0.975463 0.500908
0.915099 0.970886 0.484504
0.951568 0.966033 0.466621
0.988617 0.960845 0.446998
1.000000 0.953521 0.426734
1.000000 0.934447 0.420722
1.000000 0.924681 0.443091
1.000000 0.914946 0.463630
0.521172 0.987884 0.660517
0.522362 0.987945 0.660731
0.523613 0.988006 0.660700
0.525841 0.988006 0.660273
0.529351 0.988006 0.659632
0.534295 0.988006 0.658991
0.540642 0.988067 0.658442
0.548394 0.988190 0.658045
0.557519 0.988373 0.657954
0.567773 0.988617 0.658045
0.579034 0.988861 0.658412
0.592981 0.988891 0.661067
0.614832 0.988037 0.671931
0.636744 0.987060 0.683131
0.658564 0.985992 0.694514
0.679988 0.984802 0.705837
0.701320 0.983581 0.717403
0.722408 0.982391 0.729122
0.741939 0.981689 0.737301
0.752987 0.983642 0.718166
0.767178 0.985382 0.695949
0.784665 0.986786 0.669642
0.805722 0.987823 0.638087
0.830564 0.988373 0.599939
0.859464 0.988312 0.553429
0.892546 0.984924 0.533196
0.926604 0.980713 0.518059
0.961364 0.976257 0.502007
0.996643 0.971405 0.483772
1.000000 0.965942 0.462684
1.000000 0.945495 0.450294
1.000000 0.935393 0.472541
0.545373 0.997284 0.682734
0.546227 0.997314 0.682795
0.547265 0.997314 0.682765
0.549035 0.997253 0.682246
0.551934 0.997192 0.681575
0.555993 0.997070 0.680781
0.561212 0.997009 0.680018
0.567590 0.996979 0.679316
0.575097 0.996948 0.678737
0.583886 0.996948 0.678462
0.593439 0.996948 0.678218
0.603784 0.996979 0.678248
0.622065 0.996124 0.686122
0.642084 0.995026 0.695949
