data/fiter_cube/15997792/1023464/file.cube
# Created by Adobe Lightroom plugin Export LUT (1.17.0)
# www.johnrellis.com/lightroom/exportlut.htm
# Preset: 日系A通透明亮[云集]-5 亮冷色
# Color profile: C:\Program Files (x86)\Common Files\Adobe\Color\Profiles\Recommended\AdobeRGB1998.icc
LUT_3D_SIZE 5
DOMAIN_MIN 0.000000 0.000000 0.000000
DOMAIN_MAX 0.903226 0.903226 0.903226
0.000000 0.000000 0.000000
0.517662 0.001556 0.000000
0.883604 0.217746 0.000000
1.000000 0.328069 0.000000
1.000000 0.395239 0.000000
0.000000 0.463172 0.094545
0.442634 0.494850 0.000000
0.893950 0.501305 0.000000
1.000000 0.474281 0.000000
1.000000 0.481453 0.110292
0.141817 0.804837 0.358038
0.327855 0.811337 0.321416
0.758907 0.821805 0.156619
1.000000 0.753841 0.270787
1.000000 0.683284 0.305486
0.410163 0.937560 0.558160
0.457771 0.939605 0.546044
0.648280 0.935912 0.623346
0.872221 0.932494 0.394781
1.000000 0.863859 0.420691
0.561425 1.000000 0.697719
0.582086 1.000000 0.695399
0.660487 1.000000 0.710292
0.781491 0.997711 0.736324
0.941924 0.993896 0.547478
0.000000 0.000000 0.433539
0.410468 0.000000 0.450965
0.795407 0.000000 0.340887
0.974670 0.289036 0.291936
1.000000 0.424048 0.319768
0.000000 0.394202 0.412940
0.355261 0.382025 0.419013
0.798123 0.374487 0.329870
0.977813 0.463050 0.349248
1.000000 0.508263 0.360174
0.122469 0.767849 0.490120
0.442176 0.759091 0.538506
0.728145 0.782925 0.483253
0.976867 0.772122 0.563256
1.000000 0.712886 0.512352
0.435096 0.924651 0.627466
0.558953 0.918761 0.677516
0.683742 0.923491 0.708217
0.867704 0.924376 0.590326
1.000000 0.877104 0.609827
0.597864 0.998718 0.744808
0.639033 0.996216 0.759518
0.700008 0.995972 0.765652
0.809903 0.992889 0.798825
0.943603 0.991577 0.670161
0.000000 0.000000 0.768673
0.212467 0.000000 0.776455
0.687404 0.000000 0.785489
0.885222 0.263798 0.704036
1.000000 0.322942 0.585321
0.000000 0.298802 0.735134
0.125978 0.279484 0.749538
0.674647 0.372992 0.773312
0.878935 0.418402 0.705043
1.000000 0.427131 0.590478
0.000000 0.665583 0.722652
0.148226 0.660487 0.721401
0.620935 0.658900 0.732082
0.881315 0.663172 0.692226
1.000000 0.725734 0.720699
0.283116 0.893828 0.721614
0.444251 0.887236 0.737179
0.699733 0.881193 0.796841
0.854307 0.900175 0.801694
1.000000 0.908873 0.842435
0.537133 0.993378 0.777218
0.608362 0.989502 0.797787
0.769375 0.980346 0.855589
0.853452 0.982300 0.878843
0.949218 0.985077 0.828153
0.000000 0.000000 0.912993
0.000000 0.000000 0.913787
0.541619 0.000000 0.917449
0.817258 0.274144 0.912810
0.977874 0.382940 0.861051
0.000000 0.226322 0.900603
0.000000 0.233310 0.902007
0.536980 0.294102 0.907439
0.811093 0.417914 0.906126
0.971008 0.473884 0.860288
0.000000 0.523552 0.860777
0.000000 0.514000 0.860899
0.485756 0.536156 0.876921
0.795560 0.648646 0.886778
0.957092 0.659113 0.859495
0.000000 0.811856 0.865354
0.124849 0.808377 0.863432
0.502190 0.803799 0.860746
0.773068 0.815488 0.867491
0.966033 0.851164 0.872465
0.364843 0.983185 0.848631
0.462379 0.979736 0.854093
0.662318 0.972503 0.874022
0.858732 0.968688 0.915435
0.957031 0.978210 0.921874
0.000000 0.000000 0.992035
0.000000 0.000000 0.991394
0.414893 0.000000 0.990539
0.694972 0.183658 0.988800
0.907103 0.333654 0.982208
0.000000 0.175387 0.986633
0.000000 0.173617 0.986145
0.410010 0.190646 0.985565
0.692042 0.305303 0.983520
0.904173 0.416144 0.978363
0.000000 0.447608 0.970397
0.000000 0.440253 0.970825
0.351446 0.418250 0.972320
0.680690 0.507652 0.971344
0.903197 0.609247 0.971038
0.000000 0.688746 0.954467
0.000000 0.680354 0.952636
0.000000 0.648127 0.949737
0.640528 0.689357 0.957366
0.914275 0.807553 0.966430
0.000000 0.926085 0.956207
0.117098 0.924804 0.955291
0.446754 0.924376 0.954376
0.690608 0.925048 0.951965
0.910430 0.932525 0.954070
