data/fiter_cube/15997792/1023464/file.cube
# Created by Adobe Lightroom plugin Export LUT (1.17.0)
# www.johnrellis.com/lightroom/exportlut.htm
# Preset: 日系A通透明亮[云集]-5 亮冷色
# Color profile: C:\Program Files (x86)\Common Files\Adobe\Color\Profiles\Recommended\AdobeRGB1998.icc
LUT_3D_SIZE 8
DOMAIN_MIN 0.000000 0.000000 0.000000
DOMAIN_MAX 0.903226 0.903226 0.903226
0.000000 0.000000 0.000000
0.231601 0.068482 0.000000
0.596490 0.021942 0.000000
0.817990 0.172305 0.000000
0.932403 0.253666 0.000000
1.000000 0.314580 0.000000
1.000000 0.361273 0.000000
1.000000 0.395239 0.000000
0.000000 0.230350 0.050507
0.208560 0.260777 0.000000
0.612940 0.290196 0.000000
0.818479 0.312108 0.000000
0.930510 0.337438 0.000000
1.000000 0.365911 0.000000
1.000000 0.394537 0.000000
1.000000 0.419104 0.000000
0.000000 0.527398 0.130800
0.000000 0.535302 0.061006
0.507561 0.558068 0.000000
0.819547 0.576989 0.000000
0.941009 0.542351 0.000000
1.000000 0.515953 0.000000
1.000000 0.508385 0.080598
1.000000 0.505058 0.130953
0.000000 0.737118 0.288060
0.094697 0.740688 0.251469
0.402228 0.745968 0.287968
0.703731 0.763546 0.000000
0.913634 0.734646 0.049866
1.000000 0.700832 0.240482
1.000000 0.653376 0.242283
1.000000 0.620691 0.241123
0.241886 0.855497 0.422156
0.272862 0.857053 0.406928
0.399847 0.860685 0.397040
0.589899 0.864988 0.430396
0.796872 0.860624 0.237430
0.957305 0.816068 0.226658
1.000000 0.783047 0.342809
1.000000 0.746853 0.381384
0.377600 0.922698 0.529747
0.399786 0.925475 0.528985
0.451301 0.927520 0.511559
0.583917 0.924743 0.567590
0.697078 0.927611 0.525811
0.859129 0.920531 0.367132
0.997925 0.878721 0.332158
1.000000 0.843168 0.424018
0.482338 0.970275 0.624170
0.493538 0.970703 0.623407
0.524834 0.970703 0.616327
0.597803 0.968933 0.636255
0.695613 0.964263 0.689479
0.771756 0.969574 0.599268
0.905425 0.962310 0.464485
1.000000 0.924376 0.403693
0.561425 1.000000 0.697719
0.567559 1.000000 0.696834
0.589227 1.000000 0.695247
0.630365 1.000000 0.700374
0.699916 0.997864 0.730800
0.770199 0.995880 0.753628
0.830625 1.000000 0.659327
0.941924 0.993896 0.547478
0.000000 0.000000 0.223606
0.209506 0.000000 0.231327
0.516258 0.000000 0.169741
0.756344 0.000000 0.103639
0.900633 0.205356 0.095308
0.984192 0.305150 0.116884
1.000000 0.364691 0.145541
1.000000 0.403571 0.166934
0.000000 0.222354 0.217075
0.182132 0.217288 0.220371
0.519493 0.166842 0.148440
0.767117 0.232944 0.120974
0.903197 0.308354 0.112856
0.983398 0.360601 0.131777
1.000000 0.398230 0.154086
1.000000 0.426215 0.172213
0.000000 0.494850 0.255802
0.213230 0.491585 0.285863
0.481941 0.519402 0.227085
0.797726 0.559869 0.220066
0.915099 0.528618 0.197574
0.987427 0.512993 0.203922
1.000000 0.510002 0.217136
1.000000 0.510979 0.227298
0.079255 0.711696 0.363836
0.265507 0.709194 0.385626
0.428168 0.723598 0.380560
0.683833 0.737636 0.264073
0.891966 0.720821 0.266331
0.990173 0.695064 0.339666
1.000000 0.653956 0.324041
1.000000 0.625696 0.312016
0.288182 0.842405 0.476997
0.351598 0.840665 0.485725
0.426947 0.846677 0.455756
0.597864 0.849699 0.503563
0.786221 0.847959 0.341833
0.946136 0.811307 0.329839
1.000000 0.786954 0.427100
1.000000 0.752834 0.443763
0.411383 0.912963 0.569024
0.436164 0.913024 0.571283
0.482033 0.915892 0.557061
0.594568 0.916258 0.597711
0.703304 0.920500 0.579980
0.856138 0.916381 0.441260
0.991760 0.878019 0.406409
1.000000 0.846708 0.485847
0.505699 0.963012 0.650996
0.513298 0.962860 0.647913
0.543175 0.963561 0.642298
0.607477 0.963836 0.655940
0.702998 0.960540 0.707240
0.776120 0.965606 0.636255
0.902770 0.959014 0.511376
1.000000 0.922728 0.449104
0.577173 1.000000 0.715450
0.583673 1.000000 0.715297
0.604608 1.000000 0.714137
0.640589 1.000000 0.715633
0.713771 0.997162 0.750912
0.780819 0.994385 0.774166
0.835447 0.999481 0.688197
0.941405 0.992523 0.583917
0.000000 0.000000 0.499153
0.036988 0.000000 0.508568
0.467414 0.000000 0.516564
0.676844 0.000000 0.480293
0.850095 0.000000 0.388647
0.952239 0.136263 0.326421
1.000000 0.363348 0.357610
1.000000 0.433875 0.371771
0.000000 0.185214 0.476692
0.000000 0.169955 0.487282
0.454749 0.197971 0.504173
0.671992 0.177951 0.473182
0.847898 0.000000 0.370428
0.946288 0.276646 0.341833
1.000000 0.400824 0.366857
1.000000 0.457313 0.379095
0.000000 0.442908 0.469276
0.000000 0.441382 0.470039
0.405371 0.430213 0.476814
0.684840 0.379553 0.401617
0.851255 0.441260 0.398383
0.949157 0.488899 0.411505
1.000000 0.521202 0.420905
1.000000 0.539849 0.420783
0.000000 0.672480 0.488533
0.172519 0.671351 0.498024
0.457710 0.668849 0.534661
0.652705 0.695857 0.520714
0.865507 0.722164 0.560021
0.952941 0.696345 0.544945
1.000000 0.675135 0.524376
1.000000 0.657343 0.501671
0.216220 0.821683 0.549065
0.317144 0.818997 0.562799
0.509087 0.812009 0.611414
0.630335 0.824430 0.645014
0.774594 0.831785 0.567803
0.926116 0.816617 0.572778
1.000000 0.815640 0.649012
1.000000 0.780636 0.614374
0.382147 0.903014 0.612757
0.435615 0.900633 0.628534
0.563531 0.893980 0.677058
0.629969 0.900114 0.681758
0.727749 0.905303 0.707485
0.849454 0.906218 0.615503
0.974487 0.881071 0.595880
1.000000 0.866300 0.661494
0.501854 0.958312 0.684382
0.533593 0.956115 0.697139
0.612116 0.951110 0.730037
0.650721 0.953887 0.726375
0.729854 0.953155 0.760952
0.796811 0.958068 0.737270
0.903258 0.955474 0.656062
1.000000 0.927153 0.613916
0.588006 0.997559 0.744198
0.608423 0.995880 0.753262
0.653986 0.993042 0.770932
0.686641 0.994263 0.773281
0.740627 0.992523 0.791012
0.808103 0.989319 0.822812
0.852903 0.995056 0.765805
0.943359 0.990326 0.693172
0.000000 0.000000 0.699153
0.000000 0.000000 0.704524
0.368994 0.000000 0.718257
0.632929 0.000000 0.720424
0.777676 0.114656 0.672419
0.893004 0.201389 0.613977
0.987152 0.241154 0.535943
1.000000 0.314794 0.473518
0.000000 0.144167 0.686885
0.000000 0.145510 0.692012
0.359411 0.149020 0.707820
0.627802 0.190097 0.715572
0.772396 0.240177 0.671290
0.890288 0.271855 0.612787
0.985290 0.289494 0.533867
1.000000 0.373663 0.490303
0.000000 0.364569 0.641535
0.000000 0.358129 0.645960
0.287938 0.355077 0.674739
0.610742 0.424903 0.699001
0.756497 0.439185 0.669276
0.889555 0.426947 0.612970
0.985657 0.432349 0.543999
1.000000 0.539300 0.564324
0.000000 0.607507 0.658503
0.000000 0.605921 0.658167
0.287358 0.600336 0.658900
0.565026 0.597314 0.670192
0.760647 0.589563 0.643641
0.888029 0.608759 0.618311
0.972747 0.651820 0.639124
1.000000 0.672724 0.643793
0.000000 0.782650 0.652888
0.153811 0.779965 0.655055
0.413031 0.774563 0.670222
0.615015 0.772793 0.709438
0.744533 0.793668 0.720058
0.899748 0.824643 0.761929
0.972198 0.818112 0.760281
1.000000 0.799802 0.738033
0.303197 0.886870 0.679194
0.368811 0.886625 0.689479
0.512200 0.879545 0.715969
0.658503 0.874296 0.760800
0.749966 0.885557 0.792386
0.841947 0.892363 0.754940
0.955413 0.888701 0.763058
1.000000 0.891936 0.805570
0.455268 0.950958 0.719356
0.491310 0.949371 0.728939
0.586847 0.944518 0.758145
0.699855 0.939330 0.801114
0.757412 0.944152 0.813596
0.823972 0.948882 0.826261
0.904540 0.949676 0.776333
0.996857 0.932341 0.759854
0.564477 0.996002 0.766903
0.586542 0.994690 0.774502
0.650294 0.990448 0.797452
0.736568 0.984833 0.832609
0.769558 0.986694 0.833402
0.831724 0.985138 0.859251
0.874998 0.989319 0.839231
0.947662 0.987274 0.793637
0.000000 0.000000 0.820523
0.000000 0.000000 0.822171
0.256687 0.000000 0.826566
0.544488 0.000000 0.836210
0.731899 0.137911 0.833616
0.848173 0.240391 0.794034
0.932525 0.323461 0.749355
1.000000 0.356237 0.690394
0.000000 0.130282 0.812528
0.000000 0.128786 0.815244
0.250187 0.121523 0.820981
0.540795 0.168551 0.831052
0.728237 0.244663 0.830167
0.844633 0.306401 0.793149
0.931090 0.366491 0.750301
1.000000 0.388739 0.691829
0.000000 0.329076 0.787472
0.000000 0.326818 0.791196
0.190433 0.312718 0.800259
0.523674 0.365240 0.813657
0.716609 0.428992 0.818692
0.830869 0.452338 0.788083
0.925750 0.475624 0.751614
1.000000 0.475776 0.693843
0.000000 0.515709 0.764218
0.000000 0.511284 0.762936
0.000000 0.494087 0.760433
0.473426 0.518914 0.786374
0.705074 0.604517 0.805051
0.814908 0.608331 0.786313
0.924559 0.600702 0.753017
1.000000 0.583642 0.693080
0.000000 0.713344 0.772702
0.000000 0.712337 0.772488
0.228702 0.708034 0.771389
0.475410 0.703578 0.771450
0.667872 0.710018 0.779812
0.817258 0.719692 0.774777
0.928405 0.734524 0.759701
0.997772 0.767697 0.775967
0.000000 0.850889 0.761563
0.193790 0.849271 0.762295
0.385016 0.843381 0.764706
0.560876 0.837613 0.775418
0.708492 0.840604 0.802365
0.817227 0.861753 0.819791
0.943053 0.894224 0.858915
0.996612 0.893767 0.862181
0.357397 0.936797 0.767422
0.398047 0.935058 0.771115
0.508537 0.930236 0.785153
0.635767 0.925780 0.809537
0.755917 0.924743 0.843442
0.834836 0.934447 0.870603
0.902098 0.939910 0.846403
0.986084 0.937041 0.852628
0.505821 0.991058 0.793057
0.529381 0.989685 0.797604
0.599115 0.985718 0.812863
0.695613 0.981903 0.839811
0.795956 0.976959 0.873869
0.844877 0.979828 0.885527
0.893400 0.982910 0.891569
0.951995 0.983459 0.860899
0.000000 0.000000 0.899596
0.000000 0.000000 0.899840
0.153628 0.000000 0.900145
0.456764 0.000000 0.903227
0.658137 0.165316 0.907408
0.802792 0.255863 0.900511
0.911315 0.321935 0.875120
0.982330 0.389868 0.836393
0.000000 0.119448 0.893126
0.000000 0.116670 0.893431
0.145663 0.108278 0.894926
0.453681 0.132815 0.898222
0.655146 0.240726 0.903075
0.799680 0.311406 0.897490
0.908202 0.362585 0.873503
0.979980 0.419165 0.836393
0.000000 0.277287 0.880949
0.000000 0.272190 0.881621
0.088869 0.284367 0.883787
0.446204 0.317937 0.888243
0.650446 0.395941 0.894102
0.794491 0.451972 0.891478
0.900816 0.477760 0.871061
0.973785 0.509697 0.838804
0.000000 0.459632 0.854978
0.000000 0.457862 0.855924
0.000000 0.459968 0.861448
0.413001 0.470222 0.871977
0.641871 0.545129 0.881224
0.790829 0.606104 0.884489
0.891600 0.611261 0.868742
0.970214 0.617517 0.840818
0.000000 0.630854 0.845823
0.000000 0.628748 0.845182
0.000000 0.620722 0.842924
0.308965 0.603845 0.839872
0.596338 0.642817 0.857359
0.782193 0.719265 0.872313
0.878325 0.716670 0.860288
0.970367 0.712154 0.835569
0.000000 0.792233 0.847929
0.000000 0.792142 0.848264
0.210788 0.789395 0.847227
0.427985 0.786130 0.845731
0.592859 0.784970 0.844572
0.752956 0.796597 0.852781
0.885100 0.812863 0.854734
0.972869 0.840085 0.859892
0.197116 0.917174 0.845701
0.259464 0.916411 0.846250
0.394324 0.912413 0.846708
0.538842 0.907195 0.848569
0.671931 0.903532 0.854093
0.803067 0.907256 0.877592
0.891630 0.923308 0.891844
0.981903 0.946746 0.922271
0.406043 0.985321 0.835874
0.434852 0.984009 0.837858
0.517754 0.980316 0.844938
0.625818 0.976043 0.858335
0.738003 0.972045 0.878111
0.846036 0.970092 0.907195
0.909178 0.975891 0.928862
0.956603 0.979583 0.912016
0.000000 0.000000 0.953643
0.000000 0.000000 0.954681
0.000000 0.000000 0.954253
0.385870 0.000000 0.954253
0.578759 0.100679 0.954376
0.739528 0.264347 0.954559
0.860380 0.323430 0.947143
0.966033 0.366064 0.931365
0.000000 0.102785 0.947326
0.000000 0.100313 0.948333
0.000000 0.088502 0.948455
0.380194 0.095644 0.948516
0.573632 0.173251 0.948699
0.733577 0.295811 0.948882
0.853452 0.344244 0.941466
0.959167 0.373968 0.925841
0.000000 0.246433 0.942779
0.000000 0.247990 0.942748
0.000000 0.253849 0.942260
0.376715 0.273655 0.942596
0.572320 0.324407 0.942626
0.733028 0.416236 0.943816
0.853483 0.459480 0.939330
0.958129 0.481270 0.926574
0.000000 0.431495 0.930053
0.000000 0.430365 0.929686
0.000000 0.405432 0.930907
0.351293 0.419806 0.933074
0.566979 0.470069 0.934447
0.734737 0.553124 0.937469
0.854887 0.595972 0.936034
0.953582 0.599634 0.924590
0.000000 0.563897 0.907713
0.000000 0.559228 0.906096
0.000000 0.549279 0.905303
0.270146 0.551110 0.910521
0.520531 0.570428 0.917449
0.717250 0.646479 0.922820
0.847440 0.696498 0.925566
0.944274 0.700557 0.917632
0.000000 0.718593 0.903807
0.000000 0.717220 0.903349
0.000000 0.712154 0.901884
0.229587 0.702724 0.900145
0.430884 0.685573 0.896910
0.685176 0.732937 0.909453
0.851835 0.802457 0.921721
0.938293 0.800259 0.913878
0.000000 0.859739 0.906188
0.000000 0.859983 0.906554
0.200961 0.858549 0.905882
0.392370 0.857237 0.904997
0.547539 0.855131 0.902403
0.688594 0.855589 0.900603
0.832242 0.867826 0.907317
0.948272 0.886900 0.912810
0.242496 0.971679 0.905089
0.282628 0.970886 0.904936
0.399603 0.970336 0.906828
0.524315 0.966888 0.907164
0.648768 0.962066 0.907836
0.769650 0.958282 0.912932
0.887572 0.960967 0.934203
0.955413 0.972137 0.945953
0.000000 0.000000 0.992035
0.000000 0.000000 0.992370
0.000000 0.000000 0.991119
0.311437 0.000000 0.990784
0.503502 0.000000 0.989990
0.658747 0.142092 0.988922
0.796170 0.286229 0.987610
0.907103 0.333654 0.982208
0.000000 0.068299 0.989197
0.000000 0.061524 0.989563
0.000000 0.000000 0.988769
0.307164 0.000000 0.988098
0.501030 0.071870 0.987457
0.656641 0.191745 0.986542
0.793973 0.313054 0.985138
0.904356 0.352422 0.979828
0.000000 0.206119 0.984466
0.000000 0.206577 0.984527
0.000000 0.205264 0.983185
0.299168 0.217044 0.984466
0.498268 0.247196 0.983520
0.654658 0.311498 0.982086
0.794430 0.410193 0.981323
0.902708 0.436652 0.976806
0.000000 0.360876 0.977264
0.000000 0.350622 0.978027
0.000000 0.336309 0.977844
0.258427 0.351720 0.977966
0.486610 0.384466 0.977691
0.652277 0.442023 0.977020
0.796262 0.528740 0.976745
0.903441 0.553246 0.973602
0.000000 0.510491 0.963317
0.000000 0.509361 0.964141
0.000000 0.502525 0.964721
0.155032 0.484779 0.967651
0.435859 0.490608 0.968475
0.634760 0.547814 0.968322
0.792538 0.630243 0.969482
0.904845 0.668513 0.969268
0.000000 0.649226 0.953033
0.000000 0.645960 0.952209
0.000000 0.634852 0.950347
0.000000 0.613153 0.948699
0.343572 0.611292 0.953002
0.599298 0.648310 0.959319
0.793149 0.734768 0.964324
0.914336 0.786862 0.968139
0.000000 0.793118 0.952605
0.000000 0.791836 0.952117
0.000000 0.787594 0.950896
0.000000 0.781552 0.950011
0.353735 0.773190 0.948730
0.532280 0.763882 0.947112
0.769589 0.812589 0.955291
0.915892 0.868070 0.962158
0.000000 0.926085 0.956207
0.000000 0.925536 0.955810
0.182193 0.924651 0.955169
0.367468 0.924346 0.954772
0.520409 0.924346 0.953796
0.657740 0.924804 0.952331
0.787564 0.925963 0.950988
0.910430 0.932525 0.954070
