data/fiter_cube/37639453/1023442/file.cube
# Created by Adobe Lightroom plugin Export LUT (1.17.0)
# www.johnrellis.com/lightroom/exportlut.htm
# Preset: 油管牛人_08 云集
# Color profile: C:\Program Files (x86)\Common Files\Adobe\Color\Profiles\Recommended\AdobeRGB1998.icc
LUT_3D_SIZE 5
DOMAIN_MIN 0.000000 0.000000 0.000000
DOMAIN_MAX 0.903226 0.903226 0.903226
0.016114 0.021424 0.048219
0.185580 0.044648 0.081880
0.551537 0.000000 0.097902
0.813809 0.128359 0.151614
0.947570 0.354650 0.271519
0.000000 0.167239 0.119265
0.162203 0.193393 0.110445
0.548516 0.205478 0.105898
0.808469 0.274662 0.161105
0.947173 0.419043 0.289799
0.000000 0.440467 0.220615
0.049989 0.445289 0.183902
0.501884 0.496986 0.202640
0.801663 0.528679 0.208042
0.935058 0.564874 0.329412
0.000000 0.691737 0.381567
0.002930 0.690364 0.365637
0.417609 0.653254 0.296239
0.730404 0.709651 0.373724
0.912169 0.741512 0.456580
0.038605 0.863340 0.553429
0.267399 0.858610 0.548821
0.474647 0.839414 0.504356
0.668849 0.803555 0.455909
0.873198 0.859098 0.614923
0.002899 0.072847 0.177371
0.202670 0.062440 0.202823
0.540185 0.000000 0.222477
0.790402 0.220005 0.278874
0.933806 0.388739 0.364813
0.000000 0.180117 0.205997
0.185946 0.224094 0.227420
0.537499 0.246860 0.246525
0.788663 0.314763 0.287297
0.931853 0.439063 0.375158
0.000000 0.465156 0.322393
0.148775 0.472847 0.310887
0.502220 0.497139 0.302861
0.785122 0.529381 0.321813
0.925658 0.577447 0.413367
0.000000 0.701595 0.455756
0.149630 0.700008 0.445838
0.441596 0.670222 0.377783
0.729763 0.711727 0.440803
0.907774 0.744686 0.508904
0.097261 0.865446 0.589075
0.280491 0.860685 0.584741
0.526268 0.844816 0.576684
0.675471 0.810727 0.501610
0.873594 0.861265 0.643122
0.000000 0.143038 0.423285
0.230625 0.145541 0.464179
0.596918 0.125734 0.498726
0.801785 0.292271 0.497292
0.916686 0.470222 0.556634
0.018524 0.267247 0.416846
0.225315 0.278599 0.460945
0.584314 0.297459 0.510552
0.787320 0.384405 0.512169
0.908843 0.526879 0.579736
0.000000 0.460395 0.486305
0.234684 0.481117 0.498360
0.539757 0.537011 0.535943
0.761471 0.563195 0.552270
0.906157 0.617243 0.590661
0.000000 0.731319 0.635065
0.254276 0.725765 0.624231
0.517388 0.711849 0.591363
0.733089 0.723018 0.596094
0.899504 0.752041 0.625208
0.229953 0.870695 0.696498
0.333013 0.867887 0.691371
0.528008 0.855772 0.670100
0.684627 0.825132 0.614527
0.869322 0.861173 0.700313
0.155093 0.261387 0.664179
0.318395 0.269535 0.683406
0.633051 0.292058 0.738247
0.807340 0.384100 0.716670
0.921050 0.547906 0.722377
0.191287 0.351446 0.657343
0.322179 0.359411 0.675044
0.614466 0.389136 0.729152
0.798123 0.453559 0.718746
0.914885 0.579248 0.726284
0.218265 0.500999 0.642359
0.317693 0.512108 0.645930
0.554589 0.554528 0.697566
0.773281 0.602930 0.727291
0.900664 0.661494 0.738857
0.276463 0.678462 0.705226
0.366247 0.683162 0.707271
0.559960 0.703456 0.718532
0.743557 0.742611 0.742885
0.885344 0.758999 0.751278
0.391363 0.879515 0.822171
0.458259 0.878965 0.823178
0.592615 0.873045 0.811246
0.719173 0.857816 0.772274
0.869108 0.866453 0.780606
0.433387 0.440497 0.833829
0.495705 0.447639 0.838865
0.660792 0.478859 0.856382
0.834806 0.543572 0.877501
0.916411 0.615351 0.849485
0.431403 0.486000 0.827207
0.491188 0.492653 0.832609
0.652888 0.521935 0.851102
0.829526 0.581018 0.875456
0.913298 0.639033 0.850828
0.395087 0.583795 0.800534
0.449378 0.586847 0.808164
0.615198 0.613428 0.833371
0.805447 0.665827 0.867979
0.906950 0.706691 0.858366
0.419928 0.705165 0.817533
0.456947 0.705592 0.816342
0.562188 0.708858 0.813901
0.740444 0.742458 0.844511
0.899626 0.794400 0.872343
0.486671 0.831846 0.852811
0.520348 0.833158 0.853330
0.617639 0.839078 0.856138
0.742275 0.851682 0.862455
0.879332 0.882444 0.882475
