data/fiter_cube/37639453/1023442/file.cube
# Created by Adobe Lightroom plugin Export LUT (1.17.0)
# www.johnrellis.com/lightroom/exportlut.htm
# Preset: 油管牛人_08 云集
# Color profile: C:\Program Files (x86)\Common Files\Adobe\Color\Profiles\Recommended\AdobeRGB1998.icc
LUT_3D_SIZE 32
DOMAIN_MIN 0.0 0.0 0.0
DOMAIN_MAX 1.0 1.0 1.0
0.016114 0.021424 0.048219
0.034791 0.024079 0.050965
0.055177 0.028229 0.055940
0.072175 0.036225 0.062562
0.091798 0.047517 0.068818
0.116762 0.052796 0.074861
0.148318 0.051820 0.078981
0.185580 0.044648 0.081880
0.229679 0.021576 0.085054
0.279759 0.000000 0.086885
0.334356 0.000000 0.088869
0.391363 0.000000 0.090486
0.447486 0.000000 0.092164
0.501396 0.000000 0.094636
0.551537 0.000000 0.097902
0.597528 0.000000 0.101778
0.639887 0.000000 0.105837
0.679011 0.000000 0.111269
0.718624 0.000000 0.118685
0.754818 0.000000 0.128420
0.786191 0.073091 0.139498
0.813809 0.128359 0.151614
0.838010 0.168978 0.164584
0.859709 0.203555 0.178470
0.879423 0.234989 0.193118
0.897704 0.264988 0.209812
0.915038 0.294591 0.227634
0.931609 0.324437 0.248234
0.947570 0.354650 0.271519
0.963043 0.385962 0.297978
0.978119 0.418524 0.328130
0.992889 0.452796 0.362036
0.015229 0.036347 0.057893
0.031830 0.039460 0.058198
0.054505 0.044587 0.059266
0.072053 0.049378 0.064271
0.091371 0.057282 0.070771
0.116579 0.060243 0.075624
0.147799 0.060395 0.079316
0.184878 0.055634 0.082551
0.228122 0.039887 0.085054
0.277958 0.004273 0.087190
0.332311 0.000000 0.089174
0.388647 0.000000 0.090547
0.444770 0.000000 0.092592
0.498451 0.000000 0.095033
0.548333 0.000000 0.098116
0.594354 0.000000 0.101595
0.636652 0.000000 0.106386
0.675868 0.000000 0.111421
0.715480 0.000000 0.118563
0.751308 0.000000 0.127596
0.782589 0.077882 0.138399
0.810300 0.129427 0.149874
0.834714 0.168795 0.162905
0.856718 0.202579 0.176516
0.876738 0.233494 0.190921
0.895293 0.263310 0.207126
0.912902 0.292790 0.225040
0.929747 0.322576 0.245487
0.945922 0.352819 0.268742
0.961608 0.384192 0.295171
0.976806 0.416602 0.324743
0.991699 0.450690 0.358770
0.013489 0.056336 0.065248
0.032258 0.057588 0.064179
0.049928 0.059144 0.065553
0.070863 0.061769 0.067659
0.091432 0.064851 0.072419
0.116670 0.066957 0.076814
0.147463 0.067689 0.080507
0.184176 0.065766 0.083314
0.227298 0.059541 0.085756
0.276707 0.031983 0.087861
0.330846 0.000000 0.089235
0.387121 0.000000 0.091127
0.442664 0.000000 0.093172
0.496559 0.000000 0.095308
0.546471 0.000000 0.098604
0.592584 0.000000 0.101808
0.634852 0.000000 0.106630
0.674037 0.000000 0.111421
0.713893 0.000000 0.118776
0.749355 0.000000 0.127382
0.780667 0.090028 0.137942
0.808408 0.135744 0.149325
0.833005 0.172671 0.162081
0.855100 0.205325 0.175662
0.875212 0.235874 0.190249
0.893919 0.264805 0.206455
0.911681 0.293889 0.223972
0.928649 0.323491 0.244358
0.945006 0.353521 0.267521
0.960754 0.384649 0.294011
0.976074 0.416693 0.323461
0.990997 0.450538 0.357153
0.016327 0.071809 0.075288
0.033967 0.071962 0.076478
0.049928 0.072602 0.076295
0.066743 0.074617 0.077852
0.089540 0.079469 0.077852
0.117128 0.081483 0.078645
0.147982 0.082673 0.081819
0.184665 0.082460 0.084504
0.227420 0.079072 0.086519
0.276555 0.071077 0.088502
0.330083 0.050752 0.090303
0.386023 0.000000 0.091859
0.441382 0.000000 0.094270
0.494636 0.000000 0.096620
0.544640 0.000000 0.099336
0.590539 0.000000 0.102724
0.632807 0.000000 0.107271
0.672053 0.000000 0.112245
0.711757 0.000000 0.119295
0.746456 0.064302 0.127626
0.777371 0.112856 0.137819
0.805142 0.149874 0.149050
0.830014 0.182589 0.161471
0.852659 0.213687 0.175143
0.873503 0.242954 0.189883
0.892790 0.271489 0.206394
0.910948 0.300328 0.224460
0.928161 0.329320 0.245243
0.944579 0.358831 0.268437
0.960327 0.389044 0.294530
0.975555 0.420325 0.323857
0.990387 0.453101 0.356725
0.017426 0.087922 0.086519
0.029969 0.088930 0.086641
0.042847 0.089967 0.084413
0.065126 0.090486 0.085298
0.082582 0.095735 0.086183
0.111757 0.102266 0.085542
0.147646 0.105135 0.083986
0.184543 0.105959 0.085603
0.227115 0.104799 0.087770
0.275334 0.101411 0.089876
0.328435 0.093965 0.091493
0.383795 0.081514 0.093446
0.438911 0.063478 0.095491
0.492164 0.023835 0.097902
0.542260 0.000000 0.100710
0.588464 0.000000 0.103914
0.631189 0.000000 0.108644
0.671748 0.028290 0.113405
0.711116 0.080903 0.120363
0.745327 0.113954 0.128847
0.775723 0.143893 0.138827
0.803250 0.173037 0.149722
0.828183 0.200992 0.161746
0.850919 0.228672 0.175418
0.871916 0.255680 0.190188
0.891417 0.282597 0.206729
0.909728 0.309789 0.224796
0.927031 0.337346 0.245426
0.943481 0.365637 0.268650
0.959289 0.394873 0.294652
0.974548 0.425330 0.324010
0.989441 0.457374 0.356664
0.011139 0.108797 0.096864
0.021424 0.109895 0.096193
0.034150 0.111604 0.095155
0.058503 0.112642 0.091981
0.078676 0.114412 0.093050
0.103212 0.121981 0.093690
0.139254 0.131258 0.092927
0.181552 0.135470 0.090181
0.227878 0.135927 0.089662
0.276402 0.134371 0.091279
0.329290 0.130739 0.093233
0.384436 0.124819 0.095155
0.438880 0.117617 0.096956
0.491798 0.109468 0.099519
0.541680 0.102998 0.102358
0.587884 0.101595 0.105592
0.630671 0.105959 0.109895
0.672694 0.117891 0.115694
0.711208 0.136019 0.122164
0.745083 0.156863 0.130556
0.775479 0.179355 0.140627
0.803098 0.202792 0.151949
0.846708 0.252811 0.177859
0.867613 0.276463 0.193027
0.886687 0.299718 0.208591
0.904265 0.323156 0.225925
0.920775 0.346746 0.244846
0.936400 0.371283 0.266209
0.951507 0.396582 0.289311
0.966125 0.423285 0.315404
0.980316 0.451331 0.344427
0.994232 0.480934 0.376562
0.000000 0.137148 0.108248
0.002411 0.138216 0.107179
0.013642 0.139925 0.106020
0.037507 0.142428 0.100221
0.072724 0.142611 0.100313
0.099031 0.146883 0.101350
0.131228 0.157229 0.102113
0.176303 0.169223 0.100832
0.227420 0.174197 0.097383
0.284977 0.175387 0.094087
0.339940 0.173068 0.094942
0.395056 0.169772 0.096956
0.449195 0.165530 0.099184
0.501213 0.161318 0.101198
0.549706 0.158389 0.104616
0.594324 0.158694 0.108003
0.636316 0.162692 0.112490
0.680201 0.173526 0.118441
0.717891 0.187228 0.126253
0.751797 0.203861 0.135683
0.782956 0.223270 0.146670
0.811551 0.244694 0.159365
0.837583 0.267674 0.174136
0.861051 0.290990 0.190280
0.882139 0.314214 0.207248
0.900938 0.337011 0.225345
0.918090 0.359747 0.244968
0.934112 0.382666 0.266117
0.949432 0.406683 0.289250
0.964111 0.431922 0.314977
0.978393 0.458564 0.343786
0.992432 0.487129 0.375616
0.000000 0.167239 0.119265
0.000000 0.168215 0.118318
0.000000 0.169711 0.117067
0.014069 0.172580 0.113893
0.059266 0.173526 0.107485
0.092073 0.172580 0.108370
0.123079 0.180545 0.109285
0.162203 0.193393 0.110445
0.215000 0.207279 0.109377
0.273014 0.212985 0.104707
0.334813 0.214847 0.100526
0.395026 0.212955 0.098054
0.448829 0.209873 0.100526
0.500267 0.207034 0.102785
0.548516 0.205478 0.105898
0.592950 0.205447 0.109773
0.637568 0.210483 0.114748
0.679530 0.218631 0.120943
0.716121 0.228763 0.128145
0.749355 0.241733 0.137331
0.780026 0.256931 0.148714
0.808469 0.274662 0.161105
0.834379 0.293950 0.175357
0.857908 0.313878 0.191226
0.879057 0.334447 0.208347
0.898039 0.355047 0.226474
0.915435 0.375525 0.245426
0.931609 0.396704 0.266911
0.947173 0.419043 0.289799
0.962036 0.442786 0.315709
0.976471 0.468177 0.344152
0.990631 0.495430 0.375738
0.000000 0.201663 0.131472
0.000000 0.202457 0.130282
0.000000 0.203677 0.129152
0.000000 0.206271 0.125734
0.019226 0.208988 0.116823
0.079469 0.207736 0.116335
0.116457 0.205783 0.117067
0.152438 0.218479 0.118074
0.199161 0.233066 0.119081
0.260166 0.249088 0.118654
0.323217 0.255253 0.112764
0.386847 0.256931 0.108431
0.448432 0.256107 0.103243
0.500969 0.253239 0.104494
0.548547 0.251499 0.107973
0.594781 0.252720 0.112001
0.639368 0.257145 0.117372
0.679744 0.263310 0.123903
0.715389 0.270787 0.131075
0.748074 0.280674 0.140444
0.778317 0.293034 0.151461
0.806424 0.307439 0.164218
0.832151 0.323491 0.178653
0.855528 0.340826 0.194308
0.876677 0.358465 0.211185
0.895720 0.376318 0.229068
0.913237 0.394690 0.248051
0.929534 0.413977 0.269169
0.945159 0.434333 0.291966
0.960113 0.456489 0.317418
0.974640 0.480140 0.345586
0.988861 0.505913 0.376715
0.000000 0.238926 0.144045
0.000000 0.239658 0.143282
0.000000 0.240543 0.141817
0.000000 0.242679 0.138766
0.000000 0.245853 0.133669
0.059236 0.245457 0.124819
0.105806 0.243076 0.125429
0.144778 0.243870 0.125917
0.187625 0.258671 0.127138
0.241459 0.274540 0.128267
0.308995 0.291905 0.129030
0.374121 0.297826 0.122011
0.436744 0.299901 0.117372
0.496040 0.299504 0.111788
0.550927 0.299413 0.109682
0.598474 0.301091 0.114412
0.642054 0.304143 0.119905
0.681544 0.308537 0.126986
0.716457 0.314305 0.135042
0.748287 0.321477 0.144503
0.777676 0.330663 0.155703
0.804776 0.341772 0.167910
0.829709 0.354314 0.181460
0.852506 0.368139 0.197177
0.873381 0.382879 0.213504
0.892454 0.398352 0.231327
0.910246 0.414740 0.250217
0.926970 0.432258 0.271183
0.942901 0.451392 0.294377
0.958190 0.472053 0.320165
0.972961 0.494667 0.348516
0.987427 0.519219 0.380102
0.000000 0.276829 0.156985
0.000000 0.277531 0.156283
0.000000 0.278386 0.154788
0.000000 0.280400 0.152163
0.000000 0.282994 0.147463
0.000000 0.285008 0.135744
0.089601 0.282536 0.134401
0.136080 0.279057 0.134249
0.178439 0.284154 0.135164
0.228214 0.300298 0.136812
0.288182 0.317174 0.138460
0.360143 0.335576 0.140536
0.424537 0.341314 0.133028
0.487556 0.344976 0.128206
0.546075 0.347356 0.123476
0.599054 0.349035 0.118898
0.642695 0.350225 0.122652
0.681239 0.352789 0.130037
0.715450 0.356237 0.138369
0.746761 0.361059 0.148318
0.775845 0.368048 0.159670
0.802762 0.376501 0.171725
0.827634 0.386816 0.185855
0.850370 0.398138 0.201266
0.871214 0.410376 0.217838
0.890318 0.423621 0.235203
0.908049 0.437751 0.254337
0.924743 0.453193 0.275181
0.940734 0.470283 0.297765
0.956023 0.489082 0.323369
0.970916 0.509911 0.351476
0.985473 0.532982 0.382696
0.000000 0.316930 0.171359
0.000000 0.317388 0.170352
0.000000 0.318242 0.169131
0.000000 0.319738 0.166262
0.000000 0.322118 0.162020
0.000000 0.324987 0.156405
0.063233 0.323522 0.143893
0.123751 0.319768 0.143893
0.170871 0.315007 0.143801
0.217685 0.325566 0.145418
0.273625 0.342473 0.147768
0.338354 0.360296 0.149630
0.434058 0.396490 0.159030
0.501396 0.405219 0.152956
0.560693 0.409705 0.148440
0.613672 0.412482 0.144472
0.661250 0.414343 0.140566
0.701137 0.414771 0.140627
0.732509 0.414893 0.150576
0.761440 0.416938 0.161471
0.788205 0.420508 0.173739
0.812924 0.425727 0.187045
0.835660 0.432410 0.201266
0.856748 0.440406 0.216526
0.876219 0.449653 0.233066
0.894255 0.459876 0.250553
0.911131 0.471382 0.269444
0.927123 0.484230 0.289525
0.942382 0.498726 0.312047
0.957214 0.515007 0.336431
0.971588 0.533593 0.363928
0.985840 0.554498 0.394507
0.000000 0.363317 0.188418
0.000000 0.363836 0.187503
0.000000 0.363897 0.186282
0.000000 0.364843 0.183444
0.000000 0.366094 0.178836
0.000000 0.367651 0.173373
0.000000 0.367956 0.158236
0.107576 0.363836 0.155489
0.162509 0.358679 0.155154
0.210513 0.352728 0.154330
0.265354 0.371283 0.157931
0.331121 0.393133 0.162356
0.404517 0.415503 0.167453
0.483528 0.439185 0.175448
0.547204 0.448768 0.170779
0.601495 0.453071 0.166323
0.649897 0.455573 0.163241
0.691859 0.456123 0.160037
0.728267 0.455543 0.158267
0.758175 0.455268 0.166018
0.784695 0.456672 0.178805
0.809323 0.459571 0.191806
0.831998 0.464088 0.206088
0.853086 0.469886 0.221500
0.872618 0.476997 0.237278
0.890776 0.485237 0.254429
0.907805 0.494789 0.273533
0.923949 0.505852 0.293248
0.939422 0.518547 0.315373
0.954406 0.533471 0.339910
0.969024 0.550408 0.367224
0.983459 0.570031 0.397894
0.000000 0.402289 0.204105
0.000000 0.402502 0.203098
0.000000 0.402625 0.201999
0.000000 0.403265 0.199435
0.000000 0.404089 0.195193
0.000000 0.405127 0.189700
0.000000 0.406806 0.183230
0.082460 0.403601 0.167086
0.149874 0.398749 0.166537
0.204013 0.394690 0.166354
0.255863 0.395544 0.167208
0.316320 0.415991 0.172274
0.383764 0.436988 0.177890
0.455909 0.458198 0.184390
0.529198 0.480018 0.194125
0.588006 0.489631 0.191440
0.637354 0.492927 0.185733
0.680354 0.494209 0.183139
0.717800 0.493782 0.181674
0.751461 0.493202 0.181155
0.781338 0.493050 0.184634
0.805997 0.494209 0.197879
0.828794 0.496651 0.211856
0.849943 0.500633 0.227085
0.869535 0.505821 0.243565
0.887816 0.512352 0.260716
0.904967 0.520043 0.279271
0.921233 0.529412 0.299046
0.936858 0.540551 0.320989
0.952026 0.553735 0.345220
0.966766 0.569299 0.372686
0.981384 0.587396 0.402930
0.000000 0.440467 0.220615
0.000000 0.440803 0.220035
0.000000 0.440772 0.218967
0.000000 0.441108 0.216312
0.000000 0.441657 0.212375
0.000000 0.442664 0.207492
0.000000 0.444892 0.201541
0.049989 0.445289 0.183902
0.136049 0.441535 0.180606
0.196475 0.436347 0.179538
0.249210 0.430579 0.178988
0.302983 0.436561 0.181247
0.365820 0.456641 0.187289
0.432990 0.476936 0.194308
0.501884 0.496986 0.202640
0.569085 0.516899 0.213565
0.624201 0.527245 0.213687
0.668818 0.529503 0.207858
0.707179 0.529747 0.206302
0.741756 0.529320 0.206119
0.773007 0.528893 0.206638
0.801663 0.528679 0.208042
0.825467 0.529198 0.218814
0.846708 0.531426 0.234195
0.866453 0.534966 0.250126
0.884947 0.539971 0.267643
0.902434 0.546502 0.286534
0.919097 0.554772 0.306859
0.935058 0.564874 0.329412
0.950530 0.577050 0.354314
0.965637 0.591516 0.382055
0.980438 0.608637 0.413336
0.000000 0.480659 0.240055
0.000000 0.481239 0.239475
0.000000 0.481392 0.238560
0.000000 0.482155 0.236393
0.000000 0.483131 0.232944
0.000000 0.484382 0.228489
0.000000 0.485939 0.223178
0.072175 0.487465 0.215702
0.120790 0.484291 0.196628
0.188449 0.478737 0.195529
0.244114 0.472023 0.194156
0.294438 0.464088 0.192325
0.350072 0.475196 0.196445
0.412696 0.493812 0.203555
0.477241 0.512291 0.211673
0.541192 0.530846 0.221256
0.603082 0.549584 0.233646
0.655665 0.561181 0.236881
0.696315 0.562890 0.231907
0.732296 0.563470 0.232242
0.764675 0.563684 0.233005
0.794064 0.563745 0.235508
0.820859 0.563775 0.238163
0.844938 0.564172 0.243748
0.864714 0.566278 0.260258
0.883360 0.569726 0.277836
0.900877 0.574762 0.296513
0.917540 0.581598 0.317296
0.933532 0.590112 0.339239
0.948943 0.600641 0.363836
0.963928 0.613275 0.391028
0.978668 0.628595 0.421668
0.000000 0.519310 0.260929
0.000000 0.519524 0.260319
0.000000 0.519707 0.259464
0.000000 0.519982 0.257267
0.000000 0.520531 0.253971
0.000000 0.521019 0.249485
0.000000 0.521874 0.244297
0.050477 0.522606 0.237736
0.108888 0.521324 0.216495
0.177340 0.515801 0.211124
0.236545 0.508995 0.209323
0.288304 0.501183 0.207370
0.335760 0.491829 0.204654
0.394415 0.509178 0.212039
0.455756 0.526970 0.220859
0.517082 0.544701 0.230411
0.576837 0.562646 0.241001
0.634638 0.580774 0.255161
0.684077 0.592737 0.262730
0.721431 0.594202 0.258976
0.754788 0.594873 0.259312
0.784939 0.595087 0.261631
0.812406 0.595178 0.264683
0.837552 0.595514 0.268528
0.860716 0.596094 0.273014
0.880491 0.598016 0.286412
0.898253 0.601709 0.305425
0.915099 0.607111 0.326116
0.931243 0.614343 0.348119
0.946807 0.623560 0.372778
0.961944 0.635004 0.400275
0.976867 0.649073 0.430762
0.000000 0.555749 0.283024
0.000000 0.556207 0.282200
0.000000 0.569787 0.290318
0.000000 0.569757 0.288151
0.000000 0.569787 0.285069
0.000000 0.569543 0.280491
0.000000 0.569329 0.274968
0.049622 0.568963 0.268162
0.141176 0.568109 0.258030
0.176303 0.563409 0.235386
0.238834 0.555932 0.232639
0.292424 0.547387 0.229770
0.340703 0.537255 0.226261
0.387884 0.532647 0.225132
0.446448 0.549584 0.234195
0.505333 0.566583 0.244511
0.563104 0.583978 0.256077
0.619104 0.601373 0.268711
0.671138 0.617487 0.284306
0.716152 0.628626 0.296696
0.749660 0.629358 0.293828
0.780026 0.629358 0.294194
0.807492 0.629175 0.297124
0.832547 0.629053 0.300755
0.855497 0.628870 0.304936
0.876768 0.629053 0.310063
0.896391 0.629969 0.317113
0.912932 0.633478 0.336706
0.928985 0.638880 0.357977
0.944518 0.646601 0.382544
0.959777 0.656641 0.409461
0.974792 0.669154 0.439246
0.000000 0.593805 0.307988
0.000000 0.595697 0.308690
0.000000 0.597528 0.309117
0.000000 0.599176 0.308415
0.000000 0.600214 0.306126
0.000000 0.600549 0.302251
0.000000 0.600275 0.297154
0.013519 0.599695 0.290990
0.142123 0.598779 0.283879
0.172274 0.596063 0.258640
0.229740 0.589166 0.250889
0.285252 0.580865 0.247593
0.334936 0.570977 0.243412
0.379614 0.560052 0.238865
0.428168 0.561730 0.240879
0.484779 0.578302 0.251164
0.541039 0.595117 0.262760
0.595514 0.611841 0.275914
0.647578 0.628229 0.290349
0.695857 0.643366 0.307561
0.738186 0.654932 0.324590
0.769833 0.656092 0.322789
0.798520 0.656489 0.323949
0.824277 0.656733 0.328374
0.847837 0.656825 0.332952
0.869688 0.657130 0.338262
0.890166 0.658015 0.344366
0.909514 0.659724 0.351904
0.926635 0.663508 0.368963
0.942321 0.669886 0.392737
0.957610 0.678523 0.419501
0.972778 0.689754 0.449073
0.000000 0.625635 0.329992
0.000000 0.627375 0.331212
0.000000 0.629023 0.331151
0.000000 0.630488 0.330846
0.000000 0.631403 0.328771
0.000000 0.631464 0.325170
0.000000 0.630976 0.320531
0.000000 0.630213 0.314641
0.138735 0.629175 0.307530
0.193851 0.627375 0.295567
0.221958 0.622187 0.270329
0.279606 0.614130 0.266758
0.330327 0.604700 0.262150
0.376074 0.594324 0.257694
0.417487 0.582544 0.252140
0.467872 0.590936 0.258183
0.522454 0.607294 0.269932
0.575555 0.623377 0.283177
0.626337 0.639185 0.297581
0.675105 0.654780 0.313970
0.719844 0.668910 0.332647
0.759670 0.680720 0.354070
0.789273 0.682124 0.354192
0.816190 0.682704 0.355291
0.840238 0.683131 0.360662
0.862486 0.683589 0.366064
0.883299 0.684413 0.372778
0.902983 0.685969 0.380468
0.921843 0.688563 0.390234
0.939818 0.692622 0.403204
0.955291 0.699886 0.428992
0.970489 0.709834 0.458595
0.000000 0.656672 0.353063
0.000000 0.658259 0.353826
0.000000 0.659724 0.354376
0.000000 0.660914 0.353857
0.000000 0.661524 0.351934
0.000000 0.661433 0.348730
0.000000 0.660700 0.344060
0.000000 0.659785 0.338598
0.138247 0.658473 0.332189
0.202396 0.656764 0.324743
0.223056 0.653468 0.296239
0.274449 0.646265 0.287114
0.326207 0.637507 0.282292
0.372961 0.627649 0.277165
0.415259 0.616846 0.271885
0.453864 0.604883 0.265476
0.507164 0.620569 0.277745
0.559564 0.636713 0.291478
0.610010 0.652644 0.307347
0.658564 0.668360 0.325017
0.704463 0.683711 0.344091
0.747158 0.698268 0.364935
0.783536 0.709712 0.391730
0.811185 0.711330 0.393256
0.836210 0.712306 0.396216
0.858885 0.713130 0.402136
0.879850 0.714168 0.409857
0.899657 0.715877 0.418341
0.918547 0.718471 0.428595
0.936736 0.722194 0.440711
0.954437 0.727291 0.455390
0.970703 0.735286 0.479103
0.000000 0.691737 0.381567
0.000000 0.692378 0.381781
0.000000 0.692866 0.381445
0.000000 0.693050 0.380316
0.000000 0.692836 0.377844
0.000000 0.692256 0.374548
0.000000 0.691432 0.370581
0.002930 0.690364 0.365637
0.146395 0.689021 0.359777
0.209476 0.687465 0.353002
0.252110 0.685298 0.339605
0.275273 0.680354 0.312718
0.327489 0.672419 0.307866
0.374731 0.663355 0.302403
0.417609 0.653254 0.296239
0.456977 0.642206 0.289555
0.496498 0.636561 0.286931
0.547356 0.651759 0.301396
0.596338 0.666743 0.317449
0.643427 0.681422 0.334752
0.688167 0.695735 0.353826
0.730404 0.709651 0.373724
0.769772 0.723110 0.395361
0.802335 0.733181 0.424353
0.827848 0.734676 0.426642
0.851316 0.735744 0.430121
0.872862 0.737057 0.437049
0.893004 0.738888 0.446113
0.912169 0.741512 0.456580
0.930571 0.745113 0.469123
0.948455 0.750057 0.483803
0.966186 0.756710 0.501549
0.000000 0.718959 0.404730
0.000000 0.719448 0.405035
0.000000 0.719966 0.404791
0.000000 0.720058 0.403754
0.000000 0.719814 0.401831
0.000000 0.719020 0.398566
0.000000 0.718013 0.394690
0.052033 0.716640 0.389899
0.154208 0.715206 0.384955
0.215610 0.713436 0.378820
0.267796 0.711360 0.371771
0.281773 0.708217 0.341711
0.325994 0.701411 0.331243
0.373480 0.693172 0.325841
0.416724 0.684047 0.319341
0.456397 0.674159 0.312718
0.492988 0.663447 0.305425
0.534295 0.664637 0.308873
0.582544 0.679133 0.325292
0.628962 0.693385 0.343114
0.673121 0.707301 0.362249
0.715023 0.720882 0.382940
0.754238 0.734005 0.404608
0.790707 0.746609 0.427039
0.818021 0.752926 0.452033
0.842466 0.755550 0.457862
0.864805 0.757137 0.463050
0.885618 0.759091 0.470558
0.905058 0.761837 0.481727
0.923796 0.765438 0.494453
0.941955 0.770413 0.510033
0.959930 0.777127 0.528466
0.000000 0.748959 0.432410
0.000000 0.749538 0.432807
0.000000 0.749813 0.432471
0.000000 0.749569 0.431220
0.000000 0.748959 0.429297
0.000000 0.747860 0.426154
0.000000 0.746487 0.422736
0.095552 0.744717 0.418128
0.172396 0.742611 0.412696
0.229129 0.740322 0.407050
0.278172 0.737636 0.400366
0.310643 0.734585 0.384527
0.328527 0.729732 0.357366
0.374456 0.721889 0.351171
0.416693 0.713100 0.344640
0.455818 0.703487 0.336980
0.491920 0.693355 0.329229
0.525261 0.682734 0.321050
0.568109 0.689815 0.330877
0.613825 0.703578 0.348791
0.657801 0.717128 0.368231
0.699245 0.730251 0.388891
0.738125 0.742763 0.410559
0.774258 0.754665 0.432624
0.807614 0.765835 0.454597
0.834226 0.773373 0.483009
0.857603 0.776944 0.492988
0.878721 0.778988 0.499123
0.898650 0.781491 0.507836
0.917479 0.785122 0.521080
0.935821 0.790036 0.536767
0.953979 0.796719 0.555749
0.000000 0.772335 0.454261
0.000000 0.772885 0.454658
0.000000 0.773098 0.454597
0.000000 0.772915 0.453620
0.000000 0.772244 0.451911
0.000000 0.771267 0.449378
0.000000 0.769894 0.446204
0.123568 0.768276 0.442298
0.189395 0.766384 0.437995
0.242435 0.764340 0.433356
0.289891 0.761868 0.427619
0.334478 0.759091 0.421668
0.342504 0.756069 0.390936
0.379492 0.749691 0.379217
0.420935 0.741939 0.372595
0.459358 0.733486 0.365515
0.495064 0.724544 0.357885
0.528618 0.715175 0.349889
0.560174 0.705409 0.341497
0.604700 0.717830 0.359045
0.647578 0.730648 0.378790
0.688411 0.743099 0.399634
0.726802 0.755001 0.421057
0.762570 0.766323 0.443427
0.795773 0.777035 0.465827
0.826291 0.787167 0.488441
0.850401 0.793790 0.516838
0.872770 0.798520 0.531304
0.893004 0.801450 0.539788
0.912322 0.805051 0.550958
0.930846 0.810025 0.566888
0.949279 0.816678 0.585565
0.000000 0.796170 0.477974
0.000000 0.796475 0.478340
0.000000 0.796506 0.478035
0.000000 0.796017 0.477058
0.000000 0.795224 0.475441
0.000000 0.794095 0.472877
0.069520 0.792599 0.470161
0.153017 0.790890 0.466621
0.209659 0.788998 0.462898
0.258518 0.786954 0.458900
0.303960 0.784604 0.454353
0.346777 0.782040 0.449744
0.372900 0.779232 0.434119
0.386908 0.775265 0.408118
0.426459 0.768399 0.401526
0.463600 0.760891 0.394446
0.498543 0.752743 0.386603
0.531487 0.744289 0.378668
0.562829 0.735592 0.370336
0.595727 0.731380 0.368261
0.638117 0.743526 0.388006
0.678340 0.755337 0.409033
0.716243 0.766598 0.430732
0.751675 0.777401 0.452888
0.784634 0.787594 0.475441
0.815122 0.797269 0.498207
0.843137 0.806546 0.521660
0.865080 0.812528 0.549828
0.886320 0.818051 0.567987
0.905974 0.821958 0.578454
0.925048 0.826780 0.591730
0.943786 0.833310 0.609583
0.000000 0.817777 0.500359
0.000000 0.817868 0.500389
0.000000 0.817868 0.500420
0.000000 0.817502 0.499611
0.000000 0.816861 0.498268
0.000000 0.816129 0.496803
0.129458 0.815274 0.495338
0.188968 0.814359 0.493507
0.239658 0.813291 0.491646
0.286259 0.812009 0.489387
0.330175 0.810513 0.487251
0.372045 0.808682 0.484810
0.411872 0.806271 0.481758
0.416541 0.804379 0.453223
0.446387 0.799344 0.441840
0.481086 0.792996 0.435401
0.514122 0.786038 0.427955
0.545617 0.778744 0.420050
0.576043 0.771206 0.412207
0.605066 0.763485 0.403906
0.639033 0.764370 0.409216
0.678279 0.775174 0.430488
0.715114 0.785458 0.452461
0.749538 0.795285 0.475074
0.781521 0.804593 0.497932
0.811154 0.813504 0.521019
0.838437 0.822080 0.544549
0.863584 0.830289 0.567864
0.883360 0.835691 0.594324
0.903258 0.841855 0.614771
0.922393 0.846921 0.627283
0.941497 0.853300 0.642847
0.000000 0.843412 0.529870
0.000000 0.843412 0.529961
0.000000 0.843229 0.529686
0.000000 0.842710 0.528832
0.080354 0.841917 0.527672
0.139986 0.840848 0.526177
0.187747 0.839719 0.524773
0.231846 0.838376 0.522972
0.274296 0.836820 0.521172
0.315496 0.835050 0.519219
0.355230 0.833005 0.517052
0.393805 0.830716 0.514885
0.430884 0.828061 0.512535
0.450538 0.825620 0.498238
