data/fiter_cube/37639453/1023442/file.cube
# Created by Adobe Lightroom plugin Export LUT (1.17.0)
# www.johnrellis.com/lightroom/exportlut.htm
# Preset: 油管牛人_08 云集
# Color profile: C:\Program Files (x86)\Common Files\Adobe\Color\Profiles\Recommended\AdobeRGB1998.icc
LUT_3D_SIZE 8
DOMAIN_MIN 0.000000 0.000000 0.000000
DOMAIN_MAX 0.903226 0.903226 0.903226
0.016114 0.021424 0.048219
0.091798 0.047517 0.068818
0.229679 0.021576 0.085054
0.447486 0.000000 0.092164
0.639887 0.000000 0.105837
0.786191 0.073091 0.139498
0.879423 0.234989 0.193118
0.947570 0.354650 0.271519
0.017426 0.087922 0.086519
0.082582 0.095735 0.086183
0.227115 0.104799 0.087770
0.438911 0.063478 0.095491
0.631189 0.000000 0.108644
0.775723 0.143893 0.138827
0.871916 0.255680 0.190188
0.943481 0.365637 0.268650
0.000000 0.201663 0.131472
0.019226 0.208988 0.116823
0.199161 0.233066 0.119081
0.448432 0.256107 0.103243
0.639368 0.257145 0.117372
0.778317 0.293034 0.151461
0.876677 0.358465 0.211185
0.945159 0.434333 0.291966
0.000000 0.363317 0.188418
0.000000 0.366094 0.178836
0.162509 0.358679 0.155154
0.404517 0.415503 0.167453
0.649897 0.455573 0.163241
0.784695 0.456672 0.178805
0.872618 0.476997 0.237278
0.939422 0.518547 0.315373
0.000000 0.519310 0.260929
0.000000 0.520531 0.253971
0.108888 0.521324 0.216495
0.335760 0.491829 0.204654
0.576837 0.562646 0.241001
0.754788 0.594873 0.259312
0.860716 0.596094 0.273014
0.931243 0.614343 0.348119
0.000000 0.656672 0.353063
0.000000 0.661524 0.351934
0.138247 0.658473 0.332189
0.326207 0.637507 0.282292
0.507164 0.620569 0.277745
0.704463 0.683711 0.344091
0.836210 0.712306 0.396216
0.918547 0.718471 0.428595
0.000000 0.772335 0.454261
0.000000 0.772244 0.451911
0.189395 0.766384 0.437995
0.342504 0.756069 0.390936
0.495064 0.724544 0.357885
0.647578 0.730648 0.378790
0.795773 0.777035 0.465827
0.893004 0.801450 0.539788
0.038605 0.863340 0.553429
0.155459 0.861875 0.551812
0.305760 0.857145 0.547784
0.453803 0.849332 0.544610
0.529076 0.830594 0.488258
0.642329 0.809171 0.462684
0.770108 0.829465 0.524651
0.873198 0.859098 0.614923
0.027283 0.056092 0.111360
0.090761 0.056703 0.118502
0.222507 0.055634 0.128969
0.431800 0.000000 0.148043
0.624933 0.000000 0.160342
0.768460 0.123140 0.185367
0.866361 0.245609 0.227848
0.939025 0.357610 0.295567
0.020050 0.089998 0.121004
0.085084 0.106477 0.130556
0.222507 0.121279 0.140566
0.431525 0.108675 0.150118
0.622309 0.102510 0.161898
0.763912 0.173587 0.185641
0.860929 0.266117 0.225711
0.934874 0.367224 0.291722
0.000000 0.210452 0.167819
0.059266 0.221530 0.166751
0.208164 0.242527 0.161196
0.440742 0.260441 0.156405
0.626947 0.265476 0.169436
0.764340 0.297948 0.194675
0.861997 0.355291 0.239902
0.935576 0.430701 0.310582
0.000000 0.366766 0.220615
0.000000 0.371771 0.216190
0.173495 0.370916 0.190188
0.398230 0.409491 0.202121
0.626062 0.439399 0.199161
0.763912 0.443885 0.212406
0.857816 0.467201 0.260136
0.930388 0.512474 0.330388
0.000000 0.524407 0.293034
0.000000 0.524285 0.286137
0.158083 0.524559 0.263676
0.338567 0.493080 0.230686
0.566339 0.553338 0.265568
0.744656 0.586908 0.282841
0.853422 0.591089 0.295689
0.925231 0.611139 0.365576
0.000000 0.654444 0.374578
0.000000 0.654292 0.369665
0.147372 0.651881 0.351446
0.327672 0.635523 0.303624
0.504570 0.616327 0.296147
0.701991 0.681880 0.364782
0.832639 0.710170 0.412665
0.914794 0.715785 0.439765
0.000000 0.766659 0.464576
0.000000 0.764553 0.460029
0.186435 0.760037 0.447486
0.357855 0.751919 0.415656
0.494575 0.723598 0.372961
0.643488 0.726497 0.388830
0.790768 0.772519 0.472328
0.888548 0.796902 0.541039
0.000000 0.860472 0.559350
0.147494 0.859617 0.558465
0.301946 0.855344 0.554925
0.451514 0.847898 0.551659
0.539605 0.835172 0.509026
0.645686 0.811948 0.478218
0.768673 0.828244 0.531365
0.871061 0.857298 0.618067
0.000000 0.079561 0.206912
0.087922 0.078523 0.221561
0.257450 0.060639 0.239139
0.465614 0.000000 0.244419
0.632868 0.087739 0.263981
0.765164 0.227207 0.310185
0.861723 0.316411 0.346838
0.933776 0.407721 0.398718
0.013397 0.129885 0.211185
0.088838 0.132967 0.227390
0.250767 0.134676 0.245182
0.453101 0.134524 0.251835
0.622400 0.186526 0.280064
0.760616 0.253178 0.309300
0.857877 0.330938 0.344427
0.931487 0.417334 0.397070
0.000000 0.217929 0.240604
0.075746 0.232334 0.248081
0.234501 0.270359 0.267308
0.441382 0.284825 0.278233
0.629023 0.306859 0.296849
0.761135 0.344060 0.319554
0.856016 0.397101 0.353979
0.928923 0.463722 0.405493
0.000000 0.400580 0.329717
0.000000 0.405493 0.326940
0.221775 0.414527 0.312902
0.427100 0.433417 0.311040
0.636805 0.457465 0.317021
0.761227 0.467842 0.338811
0.853666 0.495094 0.373693
0.925383 0.538109 0.424079
0.000000 0.546014 0.386206
0.000000 0.547997 0.384039
0.210391 0.549981 0.372442
0.379492 0.531731 0.333104
0.584344 0.571008 0.365423
0.746700 0.597986 0.382208
0.847776 0.603235 0.398108
0.919554 0.625422 0.449012
0.000000 0.668910 0.451637
0.000000 0.669062 0.449622
0.205264 0.666163 0.437690
0.361547 0.656519 0.392462
0.514153 0.620294 0.364202
0.702113 0.684535 0.434821
0.828397 0.712703 0.475929
0.911803 0.722286 0.500206
0.000000 0.775662 0.524041
0.000000 0.773922 0.520928
0.231998 0.768215 0.509361
0.398199 0.758572 0.489967
0.509087 0.734493 0.437537
0.645899 0.727810 0.438849
0.792386 0.776852 0.525444
0.889006 0.803311 0.588739
0.086824 0.863615 0.597131
0.160769 0.861936 0.594232
0.308446 0.857084 0.589624
0.460029 0.850858 0.588312
0.552758 0.839139 0.553613
0.650965 0.817075 0.521263
0.768704 0.828641 0.562097
0.871519 0.859556 0.646326
0.000000 0.116121 0.344274
0.067872 0.119783 0.360510
0.291997 0.099916 0.407965
0.494697 0.065187 0.409186
0.670008 0.128695 0.412329
0.772274 0.241947 0.422095
0.851011 0.347509 0.455482
0.918273 0.457557 0.512352
0.000000 0.169009 0.353948
0.083925 0.172122 0.366796
0.285527 0.169253 0.409186
0.491249 0.159060 0.414893
0.663813 0.198917 0.418311
0.766232 0.278355 0.427283
0.845579 0.373480 0.463050
0.917449 0.464881 0.510765
0.000000 0.261418 0.354803
0.100343 0.272526 0.360906
0.255833 0.295689 0.400916
0.476539 0.307317 0.430549
0.644373 0.337011 0.438087
0.754910 0.383764 0.454841
0.845151 0.454383 0.493385
0.918608 0.509178 0.522881
0.000000 0.382483 0.405188
0.038788 0.391669 0.410834
0.260197 0.419867 0.428473
0.453346 0.459052 0.455390
0.620905 0.472602 0.464973
0.745144 0.493446 0.478798
0.839841 0.525109 0.500114
0.914702 0.568627 0.533013
0.000000 0.580529 0.524956
0.000000 0.583490 0.526909
0.256016 0.584405 0.517296
0.443305 0.581079 0.495186
0.602411 0.592309 0.492958
0.746395 0.611200 0.503807
0.837949 0.621668 0.521752
0.910521 0.645899 0.552270
0.000000 0.696132 0.567926
0.000000 0.698878 0.568719
0.267918 0.693690 0.557519
0.434455 0.685145 0.537041
0.550988 0.658228 0.490089
0.709621 0.696742 0.536950
0.825650 0.721523 0.566735
0.906706 0.731411 0.581476
0.000000 0.787655 0.608789
0.114748 0.787015 0.607172
0.289372 0.783169 0.599634
0.435828 0.774960 0.583459
0.545190 0.759335 0.544366
0.652064 0.732876 0.513664
0.793545 0.782162 0.597070
0.887663 0.807889 0.642298
0.198489 0.870390 0.663386
0.240360 0.869505 0.661830
0.338170 0.865476 0.654108
0.464851 0.857755 0.643915
0.593042 0.845121 0.637385
0.661158 0.826535 0.589502
0.766842 0.828305 0.603937
0.871550 0.862150 0.684352
0.000000 0.172793 0.497353
0.084504 0.176761 0.508354
0.297887 0.176303 0.541863
0.534112 0.148562 0.588586
0.679377 0.198978 0.577874
0.791257 0.293889 0.568719
0.859403 0.391272 0.572656
0.917876 0.490394 0.604547
0.000000 0.217075 0.499489
0.110933 0.221073 0.510521
0.299290 0.224002 0.542443
0.533135 0.211429 0.591424
0.675044 0.248783 0.579583
0.787320 0.327764 0.572076
0.856626 0.412848 0.576959
0.915770 0.503532 0.608057
0.086854 0.314122 0.483040
0.153201 0.322026 0.496529
0.290043 0.331121 0.533989
0.511101 0.343542 0.587518
0.660151 0.364050 0.584497
0.771176 0.413581 0.579217
0.845365 0.472084 0.587457
0.907897 0.539910 0.615747
0.077119 0.408148 0.509239
0.152285 0.414923 0.512444
0.293614 0.437629 0.523919
0.465705 0.472053 0.568383
0.640894 0.494362 0.596460
0.750179 0.521416 0.596399
0.829465 0.553979 0.606897
0.899443 0.600214 0.632959
0.061860 0.531060 0.557977
0.156741 0.536278 0.561151
0.308659 0.551537 0.570611
0.468421 0.576165 0.587091
0.612207 0.607019 0.607111
0.728145 0.616724 0.612085
0.821195 0.633722 0.622217
0.898375 0.659144 0.639277
0.000000 0.697902 0.653559
0.139986 0.699458 0.654871
0.314153 0.702724 0.657893
0.468940 0.703059 0.652949
0.589685 0.691279 0.623835
0.710811 0.703120 0.628779
0.821225 0.725093 0.645624
0.897307 0.736904 0.660212
0.182315 0.800595 0.704494
0.232395 0.799039 0.702113
0.347845 0.794430 0.694179
0.471077 0.787350 0.679866
0.581933 0.775937 0.655818
0.664210 0.748806 0.609796
0.792172 0.785092 0.662928
0.885069 0.808804 0.691951
0.275792 0.873533 0.734737
0.304021 0.872343 0.732967
0.382483 0.868498 0.726314
0.485969 0.864775 0.717311
0.587030 0.854887 0.698054
0.672816 0.839780 0.666529
0.757839 0.824094 0.643336
0.869322 0.862638 0.721981
0.117800 0.244785 0.638025
0.189059 0.247379 0.644587
0.346624 0.252720 0.665431
0.542473 0.260075 0.701167
0.701137 0.282048 0.722286
0.788235 0.351141 0.694667
0.868986 0.448981 0.691493
0.921202 0.539483 0.701900
0.137423 0.276982 0.632776
0.196994 0.279179 0.638911
0.345159 0.285588 0.660700
0.533959 0.294316 0.695216
0.695552 0.314611 0.719387
0.783932 0.375097 0.693935
0.865721 0.465614 0.692470
0.919036 0.549157 0.703059
0.195865 0.371679 0.626154
0.235386 0.374121 0.634211
0.345281 0.376135 0.654994
0.519860 0.392370 0.689052
0.687556 0.415106 0.720546
0.775967 0.454231 0.699275
0.857755 0.524102 0.700740
0.913756 0.585199 0.710323
0.197086 0.452827 0.611444
0.233707 0.456611 0.612116
0.341527 0.474006 0.628138
0.495705 0.500237 0.675685
0.671992 0.535698 0.721462
0.765957 0.559564 0.711574
0.846952 0.601343 0.714382
0.906493 0.635950 0.720943
0.210391 0.546502 0.641901
0.248508 0.550103 0.643488
0.350469 0.561547 0.648646
0.475654 0.580560 0.657191
0.617212 0.614588 0.692073
0.745144 0.642054 0.714900
0.827665 0.661952 0.717037
0.893553 0.681514 0.723232
0.237400 0.650355 0.677516
0.276188 0.653773 0.679957
0.374426 0.661555 0.684535
0.494942 0.674586 0.692042
0.613703 0.692500 0.702327
0.721767 0.719661 0.719966
0.811337 0.728786 0.724910
0.888853 0.742885 0.733272
0.289616 0.787655 0.753475
0.322637 0.789761 0.755612
0.409613 0.794858 0.760739
0.523156 0.799771 0.766262
0.627710 0.800259 0.763607
0.705287 0.787167 0.734005
0.796658 0.794278 0.735775
0.887175 0.813443 0.750637
0.378058 0.881285 0.812314
0.397467 0.880156 0.810758
0.457221 0.876738 0.805631
0.537102 0.872404 0.797086
0.616236 0.865965 0.781582
0.692866 0.855711 0.755917
0.758236 0.832609 0.712398
0.869230 0.865782 0.768673
0.277531 0.328923 0.746212
0.315190 0.332280 0.750546
0.419806 0.340490 0.761746
0.559442 0.357092 0.780972
0.706142 0.387976 0.805020
0.805325 0.422583 0.809659
0.859464 0.488899 0.779690
0.921447 0.580346 0.783719
0.279179 0.350774 0.741207
0.314946 0.353826 0.745357
0.416205 0.361364 0.756863
0.553002 0.376593 0.775906
0.699062 0.405554 0.800381
0.800198 0.436683 0.806271
0.855283 0.496956 0.777218
0.918456 0.583124 0.781460
0.291814 0.419501 0.735805
0.321202 0.421027 0.739193
0.413825 0.428931 0.750393
0.544488 0.445533 0.769863
0.686488 0.473579 0.794766
0.793698 0.502403 0.805936
0.851133 0.550317 0.782437
0.916625 0.620783 0.789090
0.295567 0.500175 0.713588
0.321691 0.502281 0.717464
0.407691 0.512535 0.733272
0.525475 0.527489 0.757809
0.665431 0.558221 0.785397
0.784756 0.590845 0.807095
0.845121 0.619471 0.790341
0.912352 0.667933 0.797299
0.298314 0.572503 0.718959
0.319768 0.573510 0.718563
0.386175 0.578515 0.718593
0.481331 0.589471 0.723140
0.623896 0.622583 0.763912
0.764736 0.663203 0.802579
0.833616 0.680171 0.794156
0.903868 0.714046 0.802121
0.325170 0.658167 0.743404
0.346410 0.659541 0.743832
0.411505 0.664454 0.745113
0.501518 0.673121 0.747738
0.599756 0.685542 0.750637
0.718166 0.718227 0.780758
0.823362 0.747677 0.803067
0.893217 0.762966 0.806912
0.365637 0.746731 0.771817
0.386267 0.748196 0.772763
0.446906 0.751858 0.774563
0.532891 0.758694 0.777981
0.625055 0.768246 0.782589
0.716274 0.782864 0.790677
0.803494 0.805386 0.805509
0.880766 0.812314 0.809079
0.417365 0.852598 0.826169
0.434333 0.853452 0.827054
0.491829 0.857877 0.831724
0.566125 0.864225 0.837888
0.649195 0.871580 0.844938
0.730800 0.874327 0.844877
0.788571 0.863432 0.817014
0.871489 0.871427 0.821500
0.433387 0.440497 0.833829
0.453651 0.443397 0.835721
0.514611 0.450111 0.840543
0.608087 0.466468 0.850217
0.714687 0.494148 0.863157
0.818662 0.536339 0.877836
0.881895 0.564660 0.876616
0.916411 0.615351 0.849485
0.431983 0.454139 0.830991
0.451850 0.456825 0.832914
0.512566 0.463661 0.838132
0.604730 0.478859 0.847715
0.711177 0.505760 0.860960
0.816556 0.547326 0.876585
0.879423 0.572381 0.875303
0.914794 0.620508 0.848966
0.428168 0.497627 0.824643
0.446784 0.499702 0.826444
0.504814 0.505455 0.831540
0.598352 0.523186 0.842954
0.703273 0.548516 0.856596
0.807858 0.584924 0.873014
0.874266 0.605859 0.874327
0.912108 0.645594 0.851011
0.413703 0.556085 0.811215
0.435004 0.559533 0.813870
0.494881 0.566918 0.821561
0.580774 0.578912 0.833555
0.686824 0.603418 0.849180
0.792721 0.635950 0.867857
0.867338 0.655970 0.874601
0.909087 0.684932 0.855772
0.387701 0.614130 0.796078
0.401465 0.615076 0.796231
0.446632 0.616663 0.798550
0.535210 0.625574 0.814328
0.650629 0.649439 0.835355
0.764858 0.681209 0.857939
0.857023 0.708736 0.874571
0.905180 0.731136 0.861997
0.409155 0.684688 0.811643
0.420294 0.684596 0.811093
0.458106 0.684871 0.809720
0.517418 0.686183 0.808042
0.589990 0.688533 0.805692
0.721950 0.723293 0.841855
0.845335 0.767941 0.876738
0.901457 0.782681 0.870848
0.441749 0.759609 0.830808
0.452613 0.759823 0.830564
0.489357 0.760830 0.830137
0.547723 0.763760 0.830320
0.618189 0.768215 0.830686
0.694179 0.774685 0.831418
0.798581 0.802213 0.856565
0.893614 0.831174 0.877562
0.486671 0.831846 0.852811
0.497017 0.832181 0.852934
0.530968 0.833616 0.853544
0.585382 0.836820 0.855070
0.651728 0.841764 0.857450
0.723751 0.849241 0.861143
0.799039 0.861112 0.867796
0.879332 0.882444 0.882475
