data/fiter_cube/49007420/1023426/file.cube
# Created by Adobe Lightroom plugin Export LUT (1.17.0)
# www.johnrellis.com/lightroom/exportlut.htm
# Preset: 10 - 日系情绪-秋 [云集]
# Color profile: C:\Program Files (x86)\Common Files\Adobe\Color\Profiles\Recommended\AdobeRGB1998.icc
LUT_3D_SIZE 32
DOMAIN_MIN 0.0 0.0 0.0
DOMAIN_MAX 1.0 1.0 1.0
0.066560 0.089662 0.103578
0.070527 0.090059 0.104189
0.075837 0.090242 0.104982
0.093050 0.090486 0.107118
0.130739 0.087343 0.109621
0.182071 0.076539 0.111208
0.240543 0.041871 0.112917
0.304051 0.000000 0.114412
0.371771 0.000000 0.116213
0.441962 0.000000 0.118502
0.513390 0.000000 0.121614
0.583734 0.000000 0.125734
0.650294 0.000000 0.131716
0.709377 0.000000 0.139406
0.760372 0.000000 0.150027
0.803922 0.000000 0.162631
0.840726 0.000000 0.177096
0.871550 0.000000 0.192447
0.897246 0.000000 0.209110
0.919554 0.000000 0.227115
0.938964 0.000000 0.246342
0.956512 0.000000 0.268193
0.972076 0.003113 0.292180
0.985168 0.144167 0.316777
0.996277 0.201755 0.342168
1.000000 0.248295 0.368444
1.000000 0.290166 0.395911
1.000000 0.329534 0.424842
1.000000 0.367254 0.454749
1.000000 0.404486 0.486305
1.000000 0.440803 0.518761
1.000000 0.476326 0.551720
0.065797 0.094026 0.105806
0.070130 0.093324 0.104646
0.076051 0.093416 0.104982
0.093782 0.094423 0.106844
0.132418 0.093202 0.108949
0.183658 0.085084 0.110658
0.242252 0.063996 0.112245
0.305547 0.000000 0.113710
0.372747 0.000000 0.115480
0.442847 0.000000 0.117739
0.513878 0.000000 0.120577
0.583825 0.000000 0.124910
0.650080 0.000000 0.130495
0.708980 0.000000 0.138399
0.759731 0.000000 0.149020
0.803281 0.000000 0.161257
0.839933 0.000000 0.175601
0.870787 0.000000 0.191257
0.896513 0.000000 0.207858
0.918883 0.000000 0.225742
0.938323 0.000000 0.245335
0.955932 0.000000 0.266880
0.971405 0.050324 0.290654
0.984497 0.149416 0.315038
0.995666 0.204593 0.340307
1.000000 0.250034 0.366461
1.000000 0.291112 0.394110
1.000000 0.330114 0.422827
1.000000 0.367773 0.453285
1.000000 0.404639 0.484749
1.000000 0.440772 0.517113
1.000000 0.476204 0.550286
0.064607 0.100313 0.108949
0.070466 0.098390 0.108553
0.075441 0.098695 0.106203
0.095430 0.100710 0.106355
0.134737 0.101900 0.108248
0.186435 0.096193 0.109834
0.244816 0.080537 0.111269
0.307744 0.027588 0.112642
0.374945 0.000000 0.114321
0.444587 0.000000 0.116518
0.515496 0.000000 0.119265
0.585077 0.000000 0.123537
0.651087 0.000000 0.128939
0.709590 0.000000 0.137087
0.759976 0.000000 0.147280
0.803342 0.000000 0.160159
0.839872 0.000000 0.174472
0.870603 0.000000 0.189914
0.896361 0.000000 0.206577
0.918639 0.000000 0.224857
0.938109 0.000000 0.244358
0.955718 0.000000 0.266239
0.971099 0.084504 0.289708
0.984161 0.159976 0.314061
0.995300 0.211490 0.339239
1.000000 0.254887 0.365576
1.000000 0.294865 0.392920
1.000000 0.333013 0.421851
1.000000 0.369970 0.452277
1.000000 0.406470 0.483864
1.000000 0.442298 0.516442
1.000000 0.477302 0.549371
0.054261 0.124636 0.119539
0.065858 0.122408 0.116030
0.077058 0.117189 0.114870
0.095491 0.118135 0.108888
0.139467 0.123751 0.106416
0.192691 0.121187 0.107454
0.251469 0.111269 0.108675
0.314458 0.091066 0.110048
0.381170 0.033906 0.111330
0.450507 0.000000 0.113527
0.520531 0.000000 0.116152
0.589502 0.000000 0.120272
0.654414 0.000000 0.125795
0.711910 0.000000 0.133944
0.761654 0.000000 0.144411
0.804379 0.000000 0.157565
0.840543 0.000000 0.172061
0.870939 0.000000 0.187808
0.896361 0.000000 0.204532
0.918425 0.000000 0.222660
0.937804 0.000000 0.242405
0.955352 0.000000 0.264683
0.970642 0.125917 0.287846
0.983673 0.182193 0.312383
0.994903 0.227054 0.337835
1.000000 0.267185 0.364477
1.000000 0.304875 0.392187
1.000000 0.341497 0.421180
1.000000 0.377264 0.451698
1.000000 0.412299 0.483223
1.000000 0.446937 0.515648
1.000000 0.480964 0.548547
0.000000 0.177584 0.140719
0.018311 0.174350 0.133608
0.062196 0.169802 0.126284
0.098054 0.151553 0.126070
0.136995 0.158999 0.110292
0.199557 0.164462 0.102876
0.260868 0.155215 0.103243
0.323919 0.143282 0.104372
0.390387 0.123323 0.105653
0.458991 0.092653 0.107362
0.527977 0.000000 0.110231
0.595850 0.000000 0.114076
0.659449 0.000000 0.119722
0.715602 0.000000 0.128054
0.764340 0.000000 0.139406
0.806424 0.000000 0.152956
0.842100 0.000000 0.168002
0.872007 0.000000 0.184390
0.897154 0.000000 0.201877
0.918883 0.000000 0.220493
0.938048 0.019196 0.240391
0.955505 0.123232 0.262730
0.970459 0.172580 0.285985
0.983368 0.213565 0.310552
0.994568 0.250767 0.336248
1.000000 0.285985 0.362829
1.000000 0.320256 0.390661
1.000000 0.353918 0.420020
1.000000 0.387427 0.450324
1.000000 0.420905 0.481880
1.000000 0.454078 0.514397
1.000000 0.486976 0.547448
0.000000 0.248020 0.168002
0.000000 0.244724 0.159701
0.000000 0.239689 0.150088
0.082338 0.224155 0.137850
0.134768 0.202548 0.138125
0.193576 0.214633 0.110567
0.271153 0.220310 0.092988
0.337011 0.207095 0.093294
0.403754 0.191623 0.094423
0.471595 0.175357 0.096376
0.539757 0.155673 0.099336
0.606134 0.131624 0.103548
0.667506 0.103609 0.109987
0.721798 0.069429 0.119478
0.768948 0.004334 0.132082
0.809964 0.000000 0.146609
0.844663 0.000000 0.162600
0.873869 0.049805 0.179782
0.898405 0.090761 0.197757
0.919799 0.123842 0.217166
0.939025 0.156954 0.238163
0.956085 0.189364 0.260960
0.975341 0.235874 0.292668
0.987610 0.266453 0.318364
0.998108 0.295903 0.344274
1.000000 0.324956 0.371221
1.000000 0.354192 0.399207
1.000000 0.383246 0.427955
1.000000 0.413092 0.458137
1.000000 0.443030 0.489143
1.000000 0.473274 0.520958
1.000000 0.503227 0.553002
0.000000 0.332464 0.202029
0.000000 0.328923 0.193637
0.000000 0.324224 0.183474
0.000000 0.312413 0.166903
0.132509 0.283635 0.162203
0.188602 0.268772 0.152499
0.264073 0.284062 0.111757
0.355352 0.291661 0.075105
0.423926 0.275731 0.071565
0.493202 0.257084 0.073701
0.560052 0.244175 0.077882
0.624506 0.231052 0.084169
0.682734 0.217777 0.093233
0.733974 0.204929 0.105928
0.778531 0.194553 0.121340
0.817166 0.189090 0.138369
0.850095 0.188205 0.156191
0.877928 0.191379 0.174807
0.901518 0.199893 0.194034
0.922454 0.212619 0.214481
0.941894 0.231601 0.237369
0.958801 0.252720 0.261601
0.973480 0.275822 0.286931
0.986145 0.299962 0.313115
0.996979 0.324987 0.340154
1.000000 0.349981 0.367773
1.000000 0.375738 0.396216
1.000000 0.401831 0.425330
1.000000 0.428565 0.455421
1.000000 0.456275 0.486641
1.000000 0.484352 0.518608
1.000000 0.512657 0.550835
0.000000 0.418280 0.239445
0.000000 0.415015 0.231662
0.000000 0.410559 0.222538
0.000000 0.399756 0.204868
0.090761 0.378698 0.184878
0.192447 0.340948 0.193759
0.251957 0.339300 0.170748
0.338018 0.357427 0.118837
0.439704 0.368902 0.051789
0.507439 0.352087 0.000000
0.574762 0.334417 0.000916
0.637568 0.318212 0.024598
0.692927 0.306432 0.060670
0.741695 0.295079 0.082033
0.784268 0.285710 0.103120
0.821408 0.278630 0.124117
0.853117 0.274510 0.145083
0.879973 0.273167 0.166140
0.902831 0.275242 0.186801
0.923888 0.282170 0.209171
0.942443 0.292699 0.232547
0.958801 0.305913 0.257237
0.973053 0.321813 0.283055
0.985473 0.339635 0.309331
0.996185 0.358770 0.336645
1.000000 0.379431 0.364538
1.000000 0.400946 0.393042
1.000000 0.423407 0.422156
1.000000 0.447333 0.452705
1.000000 0.472328 0.484138
1.000000 0.498146 0.516197
1.000000 0.524315 0.548638
0.000000 0.507652 0.282689
0.000000 0.504601 0.275822
0.000000 0.500816 0.267674
0.000000 0.491127 0.251194
0.000000 0.475074 0.233280
0.179385 0.443732 0.223056
0.258305 0.401617 0.232486
0.323980 0.416205 0.194064
0.417395 0.436347 0.131868
0.525292 0.453346 0.006439
0.590478 0.434424 0.000000
0.650782 0.415717 0.000000
0.704463 0.394629 0.000000
0.750820 0.380072 0.000000
0.791165 0.368566 0.071962
0.826627 0.359380 0.103243
0.856870 0.352026 0.129854
0.882597 0.346990 0.154208
0.905333 0.345495 0.178439
0.925383 0.346929 0.202274
0.943145 0.351720 0.226902
0.958923 0.359136 0.252598
0.972808 0.369299 0.278904
0.984924 0.381811 0.305730
0.995453 0.396277 0.333410
1.000000 0.412055 0.361334
1.000000 0.429480 0.389929
1.000000 0.448524 0.419562
1.000000 0.469123 0.450233
1.000000 0.491157 0.481636
1.000000 0.514336 0.513909
1.000000 0.538109 0.546197
0.000000 0.596704 0.329839
0.000000 0.594171 0.324437
0.000000 0.590509 0.316930
0.000000 0.582238 0.301946
0.000000 0.568322 0.283116
0.135439 0.546502 0.258091
0.261021 0.508141 0.266514
0.327642 0.473610 0.268772
0.400855 0.495796 0.221042
0.496742 0.517052 0.152102
0.606043 0.537896 0.000000
0.663416 0.514000 0.000000
0.714290 0.492775 0.000000
0.758968 0.469276 0.000000
0.798367 0.449104 0.000000
0.832242 0.436896 0.065705
0.861479 0.426612 0.108003
0.886656 0.418616 0.139742
0.908110 0.413184 0.167636
0.927153 0.410071 0.194003
0.944060 0.409979 0.220249
0.959106 0.412421 0.246769
0.972412 0.417365 0.273594
0.984161 0.424964 0.301122
0.994476 0.434516 0.328710
1.000000 0.446265 0.357092
1.000000 0.459815 0.386145
1.000000 0.475532 0.416266
1.000000 0.493080 0.447242
1.000000 0.512322 0.479164
1.000000 0.532860 0.511589
1.000000 0.554467 0.544366
0.000000 0.677455 0.379583
0.000000 0.675441 0.374701
0.000000 0.672663 0.368170
0.000000 0.666163 0.355230
0.000000 0.655055 0.337774
0.102388 0.638727 0.321630
0.246403 0.610468 0.306035
0.339910 0.571221 0.313817
0.400946 0.552453 0.303136
0.478370 0.575006 0.252079
0.572808 0.595605 0.179446
0.675898 0.615167 0.059480
0.724178 0.586999 0.000000
0.766720 0.561944 0.000000
0.804807 0.538506 0.000000
0.838376 0.515984 0.000000
0.866361 0.499916 0.070527
0.889860 0.488136 0.118074
0.910155 0.478218 0.152529
0.928252 0.471015 0.183078
0.944518 0.466865 0.211826
0.959045 0.465064 0.239963
0.972045 0.466072 0.267796
0.983551 0.469520 0.296056
0.993652 0.475288 0.324651
1.000000 0.482918 0.353246
1.000000 0.492866 0.382940
1.000000 0.504875 0.412970
1.000000 0.519005 0.444190
1.000000 0.535180 0.476356
1.000000 0.553002 0.508995
1.000000 0.572015 0.541955
0.000000 0.746029 0.428199
0.000000 0.744503 0.424292
0.000000 0.742153 0.419043
0.000000 0.737057 0.408331
0.000000 0.728573 0.393439
0.000000 0.715877 0.378119
0.229831 0.697902 0.359503
0.339361 0.667018 0.358007
0.415320 0.629786 0.365118
0.474189 0.627253 0.341100
0.550408 0.646998 0.288121
0.639338 0.664851 0.215793
0.743282 0.691035 0.120699
0.784329 0.661769 0.045075
0.820127 0.635218 0.000000
0.850950 0.610407 0.000000
0.876829 0.585534 0.000000
0.898680 0.563439 0.094209
0.917113 0.549371 0.140383
0.933745 0.538170 0.175723
0.948669 0.529686 0.207675
0.962127 0.524041 0.237858
0.974121 0.520623 0.267216
0.984924 0.519921 0.296147
0.994476 0.521508 0.325261
1.000000 0.525414 0.354253
1.000000 0.531487 0.384039
1.000000 0.539971 0.414374
1.000000 0.550500 0.445258
1.000000 0.563226 0.477363
1.000000 0.577752 0.509728
1.000000 0.593744 0.542473
0.000000 0.805783 0.478523
0.000000 0.804593 0.475593
0.000000 0.802518 0.471015
0.000000 0.798245 0.462440
0.000000 0.791104 0.449928
0.000000 0.780697 0.436713
0.234623 0.766415 0.427710
0.334325 0.745602 0.409827
0.424353 0.717006 0.415320
0.486976 0.684260 0.422187
0.545586 0.696040 0.387732
0.619379 0.713802 0.335180
0.702144 0.729366 0.266117
0.786343 0.742397 0.179110
0.824247 0.716304 0.125795
0.853605 0.688838 0.055573
0.878782 0.662654 0.000000
0.899596 0.636866 0.057954
0.917937 0.612726 0.116609
0.934020 0.595911 0.158663
0.948425 0.584192 0.195163
0.961425 0.574914 0.228244
0.973144 0.568292 0.259251
0.983703 0.564141 0.289433
0.993194 0.562280 0.319158
1.000000 0.562829 0.349218
1.000000 0.565789 0.379217
1.000000 0.571038 0.409979
1.000000 0.578607 0.441444
1.000000 0.588525 0.473884
1.000000 0.600275 0.506676
1.000000 0.613764 0.539757
0.000000 0.851164 0.523919
0.000000 0.850095 0.521263
0.000000 0.848631 0.518151
0.000000 0.845274 0.511742
0.000000 0.839475 0.502037
0.000000 0.831296 0.492164
0.233097 0.820066 0.484840
0.350408 0.805386 0.479133
0.428595 0.783902 0.469551
0.498695 0.757992 0.474495
0.550072 0.733272 0.476448
0.606134 0.749508 0.435218
0.673701 0.763729 0.382940
0.748104 0.775570 0.314549
0.821073 0.784115 0.235325
0.854917 0.760647 0.183413
0.878782 0.732418 0.134737
0.899718 0.705745 0.064698
0.917510 0.680232 0.100038
0.933562 0.656855 0.144625
0.948150 0.637140 0.180850
0.960784 0.625055 0.217441
0.972229 0.615442 0.250431
0.982635 0.608331 0.282475
0.991913 0.603632 0.313603
1.000000 0.601190 0.344274
1.000000 0.601099 0.374914
1.000000 0.603418 0.406104
1.000000 0.608240 0.438239
1.000000 0.615167 0.470771
1.000000 0.624292 0.503899
1.000000 0.635279 0.537316
0.000000 0.887572 0.567315
0.000000 0.886748 0.565637
0.000000 0.885405 0.563165
0.000000 0.882475 0.558129
0.000000 0.877623 0.551141
0.000000 0.870787 0.543755
0.241764 0.861479 0.538537
0.362799 0.849332 0.538781
0.434852 0.834592 0.525078
0.506828 0.814054 0.528313
0.562371 0.791043 0.532403
0.606012 0.778866 0.524071
0.657893 0.791989 0.483223
0.718868 0.802976 0.431373
0.784970 0.811673 0.364874
0.847959 0.816464 0.288670
0.878264 0.795407 0.237217
0.898314 0.768002 0.190585
0.916533 0.741970 0.139437
0.932616 0.717769 0.137026
0.946807 0.695491 0.174807
0.959930 0.675135 0.207126
0.971313 0.661433 0.241245
0.981476 0.651698 0.275029
0.990661 0.644343 0.307347
0.998962 0.639368 0.339239
1.000000 0.636774 0.370947
1.000000 0.636652 0.403143
1.000000 0.638880 0.435828
1.000000 0.643427 0.469032
1.000000 0.650080 0.502647
1.000000 0.658625 0.536522
0.000000 0.914336 0.605646
0.000000 0.913634 0.604486
0.000000 0.912535 0.602747
0.000000 0.910155 0.599451
0.000000 0.906126 0.594995
0.072541 0.900359 0.590509
0.262150 0.892790 0.587945
0.374365 0.882963 0.589624
0.466957 0.870665 0.596796
0.517632 0.856382 0.583124
0.573297 0.838102 0.585382
0.617060 0.817746 0.588281
0.654353 0.814633 0.570428
0.700862 0.824399 0.529717
0.754788 0.832273 0.478126
0.812863 0.838315 0.413031
0.868284 0.840940 0.339269
0.896239 0.822507 0.286412
0.914031 0.797177 0.240848
0.930755 0.773098 0.194003
0.945678 0.750301 0.174228
0.958373 0.729519 0.207340
0.970123 0.710262 0.237797
0.980682 0.694606 0.268528
0.989715 0.684993 0.302190
0.997925 0.677760 0.335119
1.000000 0.672786 0.367864
1.000000 0.670192 0.400580
1.000000 0.669917 0.433570
1.000000 0.671870 0.467323
1.000000 0.675929 0.500999
1.000000 0.681910 0.534966
0.000000 0.934051 0.638972
0.000000 0.933410 0.638087
0.000000 0.932433 0.637049
0.000000 0.930266 0.634913
0.000000 0.926757 0.632288
0.146487 0.921813 0.630091
0.285679 0.915221 0.629511
0.388281 0.906767 0.632258
0.476478 0.896452 0.640192
0.528496 0.885924 0.630854
0.581628 0.871550 0.632105
0.625574 0.855558 0.633600
0.660456 0.837797 0.635584
0.694026 0.841337 0.611322
0.735714 0.848814 0.572869
0.783291 0.854612 0.522911
0.834592 0.859068 0.460212
0.884367 0.860563 0.388281
0.910918 0.844663 0.333745
0.927245 0.821653 0.287816
0.942748 0.799344 0.240391
0.956786 0.777890 0.209720
0.968109 0.758541 0.240299
0.978668 0.740627 0.269139
0.988464 0.724147 0.296788
0.996643 0.714412 0.330358
1.000000 0.707393 0.363928
1.000000 0.702693 0.397375
1.000000 0.700160 0.430945
1.000000 0.699947 0.465156
1.000000 0.701686 0.499214
1.000000 0.705379 0.533471
0.000000 0.949401 0.669001
0.000000 0.948791 0.668574
0.000000 0.950835 0.674739
0.000000 0.948852 0.673732
0.000000 0.945586 0.672847
0.224613 0.941039 0.672511
0.329198 0.935058 0.673976
0.418067 0.927550 0.677882
0.496956 0.918730 0.685084
0.566003 0.908782 0.695430
0.598352 0.899138 0.681971
0.639307 0.886503 0.682063
0.673548 0.872526 0.682551
0.700984 0.858274 0.681971
0.731167 0.864927 0.654353
0.767544 0.870420 0.618494
0.809079 0.874723 0.572290
0.854368 0.877928 0.512230
0.899321 0.878630 0.440986
0.924529 0.864775 0.385016
0.939605 0.843778 0.336828
0.954101 0.823026 0.286900
0.967315 0.802792 0.248966
0.977295 0.784939 0.277073
0.986603 0.768124 0.304295
0.995300 0.752712 0.330968
1.000000 0.741238 0.360967
1.000000 0.734463 0.394598
1.000000 0.729915 0.428809
1.000000 0.727535 0.463081
1.000000 0.727169 0.497566
1.000000 0.728664 0.531884
0.000000 0.962158 0.697719
0.000000 0.961852 0.698299
0.000000 0.961334 0.699001
0.000000 0.959838 0.699580
0.160311 0.957092 0.700282
0.269139 0.953063 0.701656
0.357153 0.947723 0.704372
0.436530 0.941131 0.709133
0.508537 0.933471 0.715816
0.572259 0.925017 0.724636
0.609369 0.917327 0.718227
0.647211 0.907103 0.717830
0.680232 0.895903 0.717678
0.707820 0.883665 0.717556
0.731014 0.875914 0.711513
0.758236 0.881132 0.685817
0.790707 0.885466 0.652857
0.827634 0.888884 0.610376
0.868437 0.891447 0.554650
0.910002 0.892058 0.485542
0.934386 0.880003 0.428626
0.948913 0.861021 0.378851
0.962860 0.841825 0.326818
0.975555 0.822934 0.285344
0.984527 0.806485 0.311772
0.992950 0.791073 0.337865
1.000000 0.776944 0.364477
1.000000 0.764767 0.392218
1.000000 0.758602 0.426795
1.000000 0.754421 0.461463
1.000000 0.752163 0.496132
1.000000 0.751766 0.530632
0.000000 0.971710 0.721675
0.000000 0.971374 0.722530
0.000000 0.970855 0.723384
0.135286 0.969360 0.724453
0.231022 0.966766 0.725917
0.311803 0.963073 0.728237
0.387518 0.958129 0.731868
0.457710 0.952300 0.736751
0.522545 0.945586 0.743099
0.581842 0.938140 0.751095
0.634791 0.930144 0.760983
0.657740 0.923369 0.750698
0.688167 0.914244 0.749935
0.714839 0.904387 0.749477
0.737240 0.893645 0.749111
0.757321 0.890745 0.738613
0.781735 0.894957 0.714931
0.810727 0.898466 0.684993
0.843870 0.901183 0.645930
0.880735 0.903258 0.594934
0.919280 0.903807 0.529351
0.942962 0.893339 0.471199
0.957031 0.876005 0.419776
0.970642 0.858244 0.364843
0.982849 0.840513 0.321630
0.990906 0.825376 0.347143
0.998505 0.811276 0.373205
1.000000 0.798398 0.399634
1.000000 0.786893 0.426795
1.000000 0.780179 0.460182
1.000000 0.776303 0.495003
1.000000 0.774197 0.529686
0.086854 0.979736 0.743984
0.129397 0.979339 0.744839
0.167941 0.978790 0.745815
0.224186 0.977325 0.747311
0.287724 0.974884 0.749477
0.353399 0.971344 0.752438
0.417578 0.966918 0.756344
0.479713 0.961608 0.761318
0.538689 0.955566 0.767330
0.593133 0.948974 0.774624
0.642695 0.941955 0.783383
0.672816 0.935912 0.781888
0.698085 0.928710 0.779232
0.722652 0.920653 0.778347
0.744289 0.911986 0.777707
0.762661 0.902647 0.777279
0.780606 0.903471 0.764004
0.802731 0.907073 0.742702
0.828794 0.910094 0.715816
0.858732 0.912474 0.681086
0.892058 0.914214 0.635370
0.927977 0.914946 0.574670
0.950866 0.905730 0.516289
0.964721 0.889952 0.462715
0.978180 0.873472 0.404334
0.989837 0.857084 0.362890
0.997101 0.843259 0.387793
1.000000 0.830442 0.413642
1.000000 0.818753 0.440070
1.000000 0.808316 0.467536
1.000000 0.800778 0.497841
1.000000 0.797177 0.532464
0.219425 0.986938 0.766751
0.235264 0.986511 0.767483
0.254978 0.985840 0.768185
0.292210 0.984314 0.769680
0.340978 0.981872 0.771939
0.394812 0.978546 0.775082
0.449989 0.974456 0.779110
0.505119 0.969665 0.784054
0.558343 0.964233 0.790036
0.608301 0.958373 0.796933
0.654597 0.952117 0.805112
0.696498 0.945586 0.814511
0.712428 0.940734 0.807340
0.734035 0.934203 0.806271
0.753689 0.927153 0.805295
0.771176 0.919615 0.804562
0.786191 0.911528 0.804013
0.802182 0.914946 0.788663
0.821714 0.917906 0.769436
0.844938 0.920348 0.744594
0.871672 0.922240 0.712734
0.901762 0.923552 0.670741
0.935210 0.924224 0.613611
0.957092 0.915862 0.555566
0.970733 0.901274 0.499916
0.984192 0.885863 0.437385
0.995209 0.870634 0.400397
1.000000 0.858000 0.425208
1.000000 0.846311 0.451118
1.000000 0.835630 0.477546
1.000000 0.826047 0.504570
1.000000 0.817960 0.532525
0.289158 0.992370 0.785428
0.301305 0.991913 0.786130
0.316167 0.991302 0.787045
0.345953 0.989837 0.788663
0.385321 0.987549 0.791073
0.430945 0.984436 0.794186
0.479103 0.980682 0.798215
0.527977 0.976257 0.802914
0.576257 0.971313 0.808591
0.622461 0.965942 0.815122
0.665705 0.960296 0.822690
0.704768 0.954467 0.831174
0.729763 0.949584 0.832975
0.745388 0.944640 0.829282
0.762966 0.938903 0.828244
0.779110 0.932708 0.827329
0.793545 0.926146 0.826566
0.806271 0.921599 0.823331
0.820645 0.924498 0.809659
0.838193 0.927031 0.792325
0.858976 0.929076 0.770108
0.883055 0.930663 0.741024
0.910399 0.931731 0.702663
0.941222 0.932219 0.650080
0.962249 0.924315 0.589837
0.975921 0.910979 0.532677
0.989624 0.896483 0.466163
0.999695 0.882597 0.437781
1.000000 0.871000 0.462745
1.000000 0.860227 0.488441
1.000000 0.850462 0.514885
1.000000 0.841733 0.541588
0.351720 0.997192 0.803922
0.360967 0.996796 0.804685
0.373053 0.996155 0.805570
0.396490 0.994751 0.807156
0.429389 0.992584 0.809476
0.468025 0.989685 0.812528
0.510155 0.986145 0.816281
0.553521 0.982055 0.820768
0.597162 0.977447 0.826017
0.639155 0.972534 0.832151
0.678767 0.967346 0.839048
0.714992 0.962097 0.846677
0.747433 0.956817 0.854856
0.758602 0.953277 0.849973
0.773587 0.948486 0.848631
0.787778 0.943328 0.847379
0.800931 0.937835 0.846220
0.812863 0.932006 0.845426
0.823789 0.930144 0.840055
0.836759 0.932647 0.827634
0.852506 0.934813 0.812009
0.871183 0.936584 0.791836
0.892912 0.937865 0.765286
0.917937 0.938659 0.729152
0.946349 0.938903 0.679957
0.966613 0.931853 0.623163
0.980865 0.919829 0.563714
0.994873 0.906096 0.491798
1.000000 0.893492 0.476997
1.000000 0.882811 0.501671
1.000000 0.872923 0.527031
1.000000 0.863890 0.552697
0.397650 1.000000 0.818631
0.405249 1.000000 0.819364
0.415625 1.000000 0.820218
0.435737 0.998718 0.821805
0.464271 0.996643 0.824094
0.498512 0.993957 0.827176
0.536339 0.990631 0.830961
0.575769 0.986847 0.835386
0.615869 0.982605 0.840665
0.655024 0.978058 0.846647
0.691859 0.973327 0.853239
0.725948 0.968536 0.860441
0.756466 0.963836 0.867979
0.777188 0.959869 0.871336
0.786313 0.956512 0.867430
0.798611 0.952331 0.866178
0.810330 0.947845 0.865080
0.821286 0.943114 0.864103
0.831357 0.938048 0.863432
0.840879 0.938262 0.856718
0.852415 0.940398 0.845548
0.866331 0.942229 0.831449
0.882933 0.943664 0.812985
0.902434 0.944701 0.788632
0.925170 0.945312 0.755367
0.951507 0.945373 0.709163
0.970855 0.938781 0.653468
0.985626 0.927855 0.591547
1.000000 0.914702 0.513573
1.000000 0.903563 0.517845
1.000000 0.893736 0.542229
1.000000 0.884459 0.566003
0.439582 1.000000 0.832364
0.446601 1.000000 0.833036
0.454963 1.000000 0.833799
0.472328 1.000000 0.835264
0.497200 1.000000 0.837522
0.527520 0.997650 0.840543
0.561456 0.994568 0.844144
0.597681 0.990967 0.848539
0.634730 0.986999 0.853727
0.670802 0.982788 0.859434
0.705257 0.978424 0.865812
0.737026 0.974060 0.872587
0.765805 0.969787 0.879637
0.791470 0.965637 0.886809
0.799741 0.963073 0.883818
0.810117 0.959686 0.882628
0.820218 0.956023 0.881437
0.829923 0.952117 0.880369
0.839170 0.947967 0.879484
0.847684 0.943633 0.878904
0.855985 0.945342 0.871092
0.866270 0.947173 0.860960
0.878660 0.948669 0.848051
0.893462 0.949889 0.831235
0.911009 0.950744 0.808713
0.931792 0.951141 0.777829
0.956268 0.951141 0.734340
0.974975 0.944976 0.678950
0.990143 0.934752 0.613214
1.000000 0.922240 0.534600
1.000000 0.912352 0.556542
1.000000 0.903014 0.578943
0.475410 1.000000 0.844205
0.481117 1.000000 0.844816
0.488746 1.000000 0.845579
0.504112 1.000000 0.847044
0.526940 1.000000 0.849363
0.554711 1.000000 0.852476
0.586511 0.997955 0.856352
0.620539 0.994598 0.861021
0.655512 0.990906 0.866392
0.689631 0.986999 0.872313
0.721950 0.983032 0.878691
0.751919 0.979095 0.885344
0.778958 0.975250 0.892088
0.803037 0.971588 0.898711
0.820188 0.968505 0.902617
0.825315 0.966339 0.899290
0.833799 0.963409 0.898283
0.842039 0.960296 0.897246
0.850034 0.957000 0.896300
0.857603 0.953460 0.895506
0.864561 0.950835 0.893736
0.871733 0.952544 0.886473
0.880613 0.954009 0.877379
0.891386 0.955261 0.865690
0.904356 0.956207 0.850462
0.919951 0.956878 0.830014
0.938689 0.957153 0.801572
0.961303 0.957031 0.760800
0.979309 0.951232 0.705776
0.994965 0.941436 0.634302
1.000000 0.929992 0.576562
1.000000 0.920623 0.596551
0.513268 1.000000 0.856596
0.518486 1.000000 0.857176
0.525170 1.000000 0.857847
0.538781 1.000000 0.859312
0.559197 1.000000 0.861570
0.584466 1.000000 0.864622
0.613336 1.000000 0.868406
0.644190 0.997772 0.872831
0.676020 0.994263 0.877928
0.707332 0.990570 0.883543
0.736995 0.986877 0.889464
0.764645 0.983185 0.895628
0.789822 0.979644 0.901823
0.812192 0.976287 0.907836
