data/fiter_cube/49007420/1023426/file.cube
# Created by Adobe Lightroom plugin Export LUT (1.17.0)
# www.johnrellis.com/lightroom/exportlut.htm
# Preset: 10 - 日系情绪-秋 [云集]
# Color profile: C:\Program Files (x86)\Common Files\Adobe\Color\Profiles\Recommended\AdobeRGB1998.icc
LUT_3D_SIZE 8
DOMAIN_MIN 0.000000 0.000000 0.000000
DOMAIN_MAX 0.903226 0.903226 0.903226
0.066560 0.089662 0.103578
0.130739 0.087343 0.109621
0.371771 0.000000 0.116213
0.650294 0.000000 0.131716
0.840726 0.000000 0.177096
0.938964 0.000000 0.246342
0.996277 0.201755 0.342168
1.000000 0.367254 0.454749
0.000000 0.177584 0.140719
0.136995 0.158999 0.110292
0.390387 0.123323 0.105653
0.659449 0.000000 0.119722
0.842100 0.000000 0.168002
0.938048 0.019196 0.240391
0.994568 0.250767 0.336248
1.000000 0.387427 0.450324
0.000000 0.507652 0.282689
0.000000 0.475074 0.233280
0.417395 0.436347 0.131868
0.704463 0.394629 0.000000
0.856870 0.352026 0.129854
0.943145 0.351720 0.226902
0.995453 0.396277 0.333410
1.000000 0.469123 0.450233
0.000000 0.805783 0.478523
0.000000 0.791104 0.449928
0.424353 0.717006 0.415320
0.702144 0.729366 0.266117
0.878782 0.662654 0.000000
0.948425 0.584192 0.195163
0.993194 0.562280 0.319158
1.000000 0.578607 0.441444
0.000000 0.934051 0.638972
0.000000 0.926757 0.632288
0.476478 0.896452 0.640192
0.660456 0.837797 0.635584
0.834592 0.859068 0.460212
0.942748 0.799344 0.240391
0.988464 0.724147 0.296788
1.000000 0.700160 0.430945
0.086854 0.979736 0.743984
0.287724 0.974884 0.749477
0.538689 0.955566 0.767330
0.698085 0.928710 0.779232
0.780606 0.903471 0.764004
0.892058 0.914214 0.635370
0.978180 0.873472 0.404334
1.000000 0.818753 0.440070
0.397650 1.000000 0.818631
0.464271 0.996643 0.824094
0.615869 0.982605 0.840665
0.756466 0.963836 0.867979
0.810330 0.947845 0.865080
0.852415 0.940398 0.845548
0.925170 0.945312 0.755367
1.000000 0.914702 0.513573
0.541558 1.000000 0.866026
0.584436 1.000000 0.871153
0.694087 0.997070 0.887633
0.801205 0.983429 0.910826
0.855344 0.973449 0.921202
0.879667 0.964477 0.918517
0.902495 0.964172 0.900298
0.949737 0.966094 0.832364
0.029603 0.094911 0.186557
0.147585 0.083925 0.161593
0.383307 0.000000 0.131075
0.658137 0.000000 0.121798
0.841337 0.000000 0.169162
0.937346 0.000000 0.240513
0.994018 0.229252 0.335607
1.000000 0.369879 0.449165
0.000000 0.193271 0.241337
0.152071 0.181338 0.208438
0.405280 0.160586 0.162325
0.669398 0.120760 0.108553
0.844388 0.077821 0.161044
0.937713 0.164553 0.236118
0.992737 0.272618 0.330785
1.000000 0.389197 0.444465
0.000000 0.534874 0.392462
0.000000 0.503319 0.346227
0.433570 0.453620 0.263096
0.705592 0.409125 0.148959
0.857023 0.380316 0.121096
0.941131 0.372869 0.220981
0.992676 0.402838 0.325139
1.000000 0.467781 0.443244
0.000000 0.811551 0.548302
0.000000 0.797574 0.524773
0.437934 0.733059 0.480262
0.698421 0.727871 0.366033
0.869383 0.659998 0.206424
0.944091 0.585534 0.184787
0.990417 0.561975 0.310155
1.000000 0.576257 0.434974
0.000000 0.934966 0.679133
0.000000 0.927550 0.671534
0.477852 0.897856 0.670314
0.665370 0.840421 0.664485
0.828641 0.857084 0.523247
0.936370 0.800351 0.334478
0.987274 0.724392 0.293156
1.000000 0.699031 0.427222
0.126497 0.979034 0.763516
0.292149 0.973754 0.765866
0.536797 0.954986 0.779141
0.701717 0.928588 0.792111
0.782345 0.902251 0.781155
0.888731 0.914183 0.674281
0.972686 0.875395 0.472877
1.000000 0.817960 0.437842
0.396948 1.000000 0.826352
0.460395 0.996124 0.830350
0.612177 0.982361 0.845029
0.754177 0.963836 0.870329
0.812650 0.947936 0.870665
0.853147 0.939788 0.853574
0.922759 0.944823 0.773648
0.994934 0.915435 0.561822
0.535058 1.000000 0.868925
0.579095 1.000000 0.873869
0.690669 0.997406 0.889555
0.799344 0.983734 0.911833
0.859312 0.973846 0.924895
0.882048 0.964996 0.921752
0.903471 0.964111 0.904692
0.948699 0.966003 0.842649
0.000000 0.107515 0.465949
0.190280 0.082734 0.467536
0.482979 0.000000 0.407233
0.702571 0.000000 0.307988
0.846830 0.037385 0.260929
0.942870 0.215640 0.239872
0.995941 0.296391 0.338384
1.000000 0.393103 0.454261
0.000000 0.218753 0.473243
0.126131 0.212863 0.486732
0.481056 0.219272 0.441413
0.690547 0.133761 0.333959
0.846830 0.216464 0.287572
0.942809 0.274174 0.234928
0.994965 0.329656 0.334264
1.000000 0.412177 0.451179
0.000000 0.508476 0.596338
0.000000 0.503899 0.579461
0.452033 0.485451 0.519493
0.695857 0.458595 0.445289
0.852262 0.440406 0.363989
0.942412 0.428748 0.275181
0.994049 0.436225 0.327398
1.000000 0.481086 0.446723
0.000000 0.846220 0.747494
0.000000 0.839109 0.731319
0.439521 0.783963 0.662318
0.702663 0.744991 0.603326
0.854215 0.686519 0.499763
0.935729 0.626246 0.387366
0.992096 0.580957 0.314885
1.000000 0.585107 0.440253
0.000000 0.946227 0.783017
0.000000 0.938628 0.777340
0.483131 0.909697 0.766049
0.692622 0.861631 0.756008
0.823239 0.863584 0.695308
0.918364 0.816922 0.575433
0.981201 0.741939 0.406561
1.000000 0.702358 0.431800
0.097627 0.982757 0.818906
0.304753 0.976715 0.821073
0.550500 0.957885 0.827024
0.725673 0.931945 0.839750
0.794064 0.901946 0.831785
0.881804 0.915587 0.772335
0.955047 0.883818 0.650996
1.000000 0.818296 0.441901
0.405676 1.000000 0.856077
0.472053 0.997314 0.859159
0.619196 0.983764 0.868406
0.755947 0.965911 0.884916
0.824430 0.950164 0.890990
0.859922 0.939940 0.880858
0.919402 0.946044 0.831724
0.980713 0.921080 0.699153
0.521965 1.000000 0.882170
0.563134 1.000000 0.885161
0.681147 0.999237 0.897948
0.796017 0.985229 0.917327
0.868711 0.974151 0.934417
0.888060 0.966400 0.930358
0.907774 0.964355 0.918822
0.947112 0.966552 0.874784
0.000000 0.156008 0.754025
0.172152 0.153292 0.761257
0.588464 0.175448 0.777493
0.766506 0.205997 0.682765
0.874846 0.251896 0.564843
0.931151 0.303502 0.474220
0.990509 0.361486 0.412421
1.000000 0.400549 0.457618
0.000000 0.261204 0.757229
0.119356 0.269963 0.763821
0.571313 0.315984 0.781735
0.761013 0.343206 0.702998
0.866484 0.347662 0.587732
0.921904 0.386328 0.509300
0.988098 0.399054 0.427070
1.000000 0.417945 0.455909
0.000000 0.486824 0.765805
0.000000 0.484230 0.758267
0.463264 0.514488 0.773037
0.735958 0.588403 0.751400
0.836454 0.544518 0.652125
0.910460 0.548363 0.589715
0.981964 0.515892 0.484932
1.000000 0.485359 0.455329
0.000000 0.766567 0.840146
0.000000 0.765774 0.835599
0.392645 0.762081 0.819089
0.696132 0.753719 0.787198
0.815427 0.731807 0.741176
0.898314 0.706325 0.680415
0.967987 0.656245 0.568902
1.000000 0.585016 0.447852
0.000000 0.947173 0.887846
0.000000 0.943023 0.884947
0.449836 0.928252 0.877409
0.707332 0.888121 0.848966
0.818601 0.869505 0.828061
0.890837 0.838956 0.779019
0.949767 0.794797 0.689265
1.000000 0.707210 0.468605
0.000000 0.990539 0.891417
0.284215 0.984863 0.890837
0.549432 0.966003 0.886870
0.729732 0.941405 0.883848
0.816403 0.915160 0.881285
0.878904 0.919005 0.860502
0.934844 0.895750 0.805356
0.988800 0.841672 0.660548
0.396918 1.000000 0.896635
0.466529 1.000000 0.897765
0.619104 0.987640 0.901183
0.755276 0.970672 0.907622
0.843351 0.954650 0.917784
0.871000 0.940856 0.911254
0.917967 0.947906 0.886900
0.965087 0.927916 0.818875
0.521630 1.000000 0.907286
0.563134 1.000000 0.909056
0.667475 1.000000 0.914458
0.782071 0.988983 0.925475
0.864012 0.976928 0.939117
0.896117 0.968872 0.941558
0.913848 0.964843 0.935271
0.946532 0.967529 0.909300
0.000000 0.256992 0.896117
0.277043 0.267674 0.898009
0.571862 0.318608 0.902831
0.798856 0.421851 0.901946
0.876982 0.475319 0.833768
0.928985 0.516686 0.758206
0.970123 0.505608 0.673701
1.000000 0.540429 0.628046
0.000000 0.342962 0.894163
0.276463 0.354864 0.896422
0.566094 0.405798 0.901579
0.796017 0.513909 0.903105
0.871214 0.544945 0.842771
0.922789 0.565026 0.772488
0.964843 0.543603 0.690333
1.000000 0.556359 0.633722
0.000000 0.507439 0.879118
0.156497 0.517296 0.882628
0.518975 0.568353 0.892332
0.778103 0.679164 0.902831
0.855009 0.693782 0.864195
0.904021 0.676692 0.806668
0.948241 0.638972 0.733791
0.999512 0.602289 0.647364
0.000000 0.705959 0.897185
0.000000 0.707454 0.894438
0.419440 0.714443 0.884306
0.705440 0.764065 0.888640
0.836973 0.811490 0.884764
0.880034 0.776394 0.838529
0.928099 0.750362 0.791287
0.996490 0.662257 0.656977
0.000000 0.880339 0.919371
0.179995 0.879789 0.917906
0.477211 0.876921 0.912535
0.684718 0.872709 0.903868
0.813474 0.868467 0.891752
0.869535 0.854063 0.870268
0.922911 0.831388 0.833097
0.982025 0.770321 0.724605
0.234012 0.979034 0.938659
0.343847 0.975311 0.937438
0.545647 0.963745 0.933501
0.717800 0.949920 0.929290
0.821439 0.928832 0.915892
0.878172 0.920439 0.908476
0.921447 0.905058 0.885740
0.964782 0.868772 0.819913
0.403296 1.000000 0.939605
0.463508 1.000000 0.939544
0.611292 0.992523 0.938018
0.747127 0.976501 0.935302
0.834409 0.961913 0.932982
0.881682 0.946563 0.932067
0.918761 0.949554 0.922484
0.954803 0.934234 0.890013
0.513848 1.000000 0.936522
0.555169 1.000000 0.936858
0.660456 1.000000 0.938140
0.767788 0.993347 0.940948
0.848203 0.981903 0.945159
0.904021 0.972137 0.952911
0.919921 0.965209 0.949401
0.947356 0.968566 0.935119
0.342046 0.385992 0.952758
0.414618 0.399115 0.952697
0.592981 0.448005 0.952056
0.779294 0.555962 0.950774
0.885161 0.610315 0.944488
0.920134 0.649958 0.897429
0.953918 0.669276 0.855619
0.989349 0.627375 0.791257
0.357366 0.448798 0.949920
0.424262 0.460090 0.949859
0.595392 0.505913 0.949554
0.775509 0.600855 0.948699
0.880980 0.654994 0.943542
0.916381 0.683711 0.900969
0.950256 0.694514 0.861814
0.985840 0.650172 0.799985
0.355932 0.581750 0.942718
0.429969 0.596887 0.942809
0.592645 0.635035 0.943175
0.763943 0.705104 0.943999
0.872496 0.764279 0.942779
0.907225 0.771237 0.912322
0.940032 0.763546 0.880247
0.975311 0.716365 0.826322
0.242679 0.700130 0.936950
0.318914 0.703944 0.934966
0.516686 0.726833 0.931853
0.733516 0.788693 0.936553
0.865415 0.851774 0.943481
0.898955 0.850584 0.926024
0.928405 0.832029 0.900999
0.962219 0.789242 0.856687
0.314611 0.836210 0.944457
0.379797 0.837858 0.943236
0.531090 0.842283 0.939086
0.679591 0.847868 0.932097
0.819944 0.872740 0.933959
0.890776 0.895140 0.934264
0.916136 0.872648 0.911498
0.950011 0.847135 0.881254
0.410193 0.930419 0.952453
0.461769 0.929778 0.951873
0.586877 0.927184 0.949615
0.715969 0.924285 0.946166
0.809262 0.922301 0.941924
0.877775 0.920531 0.936614
0.912749 0.911498 0.925139
0.949737 0.892424 0.900237
0.505669 0.992096 0.963989
0.543816 0.990509 0.963897
0.643122 0.985351 0.963378
0.749691 0.975738 0.960388
0.831205 0.968475 0.957946
0.887419 0.956909 0.950958
0.921721 0.951720 0.946990
0.949828 0.940795 0.932280
0.556970 1.000000 0.963745
0.587549 1.000000 0.963592
0.671626 1.000000 0.963195
0.765408 0.996796 0.963043
0.841245 0.986511 0.960876
0.896056 0.977386 0.960143
0.927855 0.968658 0.961334
0.949828 0.970153 0.955077
0.507988 0.527672 0.978271
0.545281 0.539788 0.977874
0.647181 0.576135 0.975952
0.769802 0.639368 0.973022
0.873289 0.722805 0.969635
0.928008 0.722560 0.962890
0.946288 0.743465 0.928435
0.973053 0.738064 0.897917
0.519158 0.568383 0.975708
0.553613 0.578546 0.975341
0.650172 0.610040 0.973754
0.768338 0.665766 0.971130
0.870054 0.741146 0.968231
0.925597 0.742519 0.962554
0.943481 0.758389 0.929381
0.970520 0.749691 0.899779
0.549157 0.673091 0.970581
0.577539 0.679347 0.970245
0.661616 0.701534 0.968994
0.769070 0.742947 0.967254
0.864469 0.797879 0.965698
0.920134 0.808011 0.962432
0.938293 0.813748 0.936614
0.964355 0.800046 0.912261
0.480751 0.738705 0.965820
0.523278 0.746151 0.965209
0.642542 0.775296 0.963500
0.762814 0.814115 0.962646
0.855833 0.851286 0.963073
0.914641 0.872221 0.962768
0.933684 0.870207 0.946075
0.957336 0.852537 0.926665
0.469703 0.825559 0.965332
0.500175 0.827329 0.964355
0.587610 0.833402 0.961181
0.696529 0.843503 0.956725
0.829587 0.878752 0.958984
0.910460 0.911528 0.963653
0.929808 0.907561 0.953277
0.951110 0.892271 0.938384
0.516808 0.903197 0.968048
0.545373 0.903655 0.967498
0.626581 0.905180 0.965606
0.720119 0.907530 0.962646
0.797147 0.908934 0.958526
0.881926 0.922301 0.959472
0.928618 0.935668 0.960082
0.946258 0.920165 0.946624
0.578485 0.958160 0.971923
0.603754 0.957641 0.971649
0.673274 0.955962 0.970611
0.753323 0.954376 0.969116
0.822232 0.953246 0.967224
0.877867 0.952605 0.965026
0.922179 0.951751 0.962280
0.946349 0.945129 0.954925
0.625879 0.999023 0.978210
0.646601 0.997833 0.978027
0.707759 0.994751 0.977874
0.777859 0.991394 0.977752
0.841520 0.986328 0.976287
0.893828 0.981384 0.974640
0.931334 0.974823 0.971496
0.953002 0.971862 0.969512
0.637140 0.662623 0.990112
0.654902 0.668544 0.989685
0.707515 0.685695 0.988128
0.781827 0.718044 0.985657
0.856931 0.761227 0.982574
0.919097 0.800259 0.979706
0.951690 0.779782 0.971374
0.966430 0.779629 0.944396
0.644587 0.686336 0.988617
0.661372 0.691615 0.988220
0.711788 0.707149 0.986816
0.783047 0.735897 0.984527
0.856413 0.775326 0.981720
0.918334 0.813230 0.979065
0.950347 0.792782 0.971405
0.964813 0.791012 0.945373
0.664698 0.749874 0.984833
0.679011 0.753475 0.984527
0.722927 0.764309 0.983368
0.789181 0.788144 0.981659
0.856565 0.816831 0.979614
0.916655 0.849241 0.977722
0.947570 0.833158 0.972351
0.960784 0.828275 0.949676
0.632471 0.787716 0.982818
0.659632 0.797116 0.982086
0.734646 0.826261 0.979644
0.792752 0.840391 0.978576
0.855497 0.860410 0.977417
0.911986 0.883543 0.976623
0.945892 0.879179 0.974548
0.956664 0.872648 0.956176
0.571191 0.832273 0.981201
0.591180 0.834897 0.980652
0.656153 0.843290 0.978912
0.756435 0.862547 0.977173
0.844083 0.889006 0.975708
0.903410 0.907561 0.975677
0.941863 0.915770 0.975250
0.953948 0.910948 0.963256
0.594598 0.891264 0.981537
0.611627 0.892088 0.981079
0.663935 0.895018 0.979583
0.730800 0.899077 0.977356
0.795010 0.903044 0.974334
0.887297 0.924834 0.974884
0.941802 0.944671 0.977081
0.954131 0.940917 0.970428
0.632685 0.939605 0.982818
0.648707 0.939757 0.982513
0.696468 0.940398 0.981567
0.759121 0.941863 0.980163
0.819181 0.943847 0.978485
0.869780 0.945525 0.976440
0.926024 0.953307 0.976349
0.955108 0.960479 0.975738
0.666804 0.974853 0.984222
0.681056 0.974456 0.984039
0.724849 0.973419 0.983429
0.783474 0.972442 0.982635
0.839658 0.972045 0.981781
0.887358 0.972290 0.980957
0.925933 0.972747 0.980133
0.954711 0.972625 0.978851
