data/fiter_cube/49007420/1023426/file.cube
# Created by Adobe Lightroom plugin Export LUT (1.17.0)
# www.johnrellis.com/lightroom/exportlut.htm
# Preset: 10 - 日系情绪-秋 [云集]
# Color profile: C:\Program Files (x86)\Common Files\Adobe\Color\Profiles\Recommended\AdobeRGB1998.icc
LUT_3D_SIZE 5
DOMAIN_MIN 0.000000 0.000000 0.000000
DOMAIN_MAX 0.903226 0.903226 0.903226
0.066560 0.089662 0.103578
0.304051 0.000000 0.114412
0.760372 0.000000 0.150027
0.956512 0.000000 0.268193
1.000000 0.367254 0.454749
0.000000 0.418280 0.239445
0.338018 0.357427 0.118837
0.784268 0.285710 0.103120
0.958801 0.305913 0.257237
1.000000 0.447333 0.452705
0.000000 0.887572 0.567315
0.362799 0.849332 0.538781
0.784970 0.811673 0.364874
0.959930 0.675135 0.207126
1.000000 0.638880 0.435828
0.219425 0.986938 0.766751
0.505119 0.969665 0.784054
0.753689 0.927153 0.805295
0.901762 0.923552 0.670741
1.000000 0.846311 0.451118
0.541558 1.000000 0.866026
0.664271 1.000000 0.882536
0.837736 0.977264 0.919951
0.885283 0.961913 0.917906
0.949737 0.966094 0.832364
0.000000 0.102296 0.385992
0.389380 0.000000 0.333349
0.770169 0.000000 0.220859
0.956817 0.205020 0.261021
1.000000 0.385168 0.450752
0.000000 0.424262 0.504845
0.373022 0.402655 0.435309
0.784817 0.362371 0.302556
0.958160 0.370184 0.250065
1.000000 0.456428 0.446784
0.000000 0.904234 0.723964
0.358526 0.867979 0.686763
0.775601 0.814572 0.595392
0.950744 0.694484 0.356817
1.000000 0.643000 0.435828
0.251286 0.988128 0.817868
0.523857 0.970794 0.827970
0.771115 0.930938 0.844480
0.894621 0.924743 0.768612
1.000000 0.846036 0.453010
0.528862 1.000000 0.878599
0.657038 1.000000 0.892149
0.838529 0.978790 0.925322
0.891630 0.963622 0.927459
0.947753 0.966613 0.867155
0.000000 0.202060 0.842649
0.491890 0.230716 0.853361
0.836851 0.349065 0.773861
0.945312 0.400458 0.598108
1.000000 0.411170 0.461646
0.000000 0.440894 0.826780
0.420111 0.475288 0.846738
0.816587 0.597681 0.813382
0.923369 0.551629 0.660945
1.000000 0.467109 0.459358
0.000000 0.836423 0.890349
0.331456 0.834195 0.881865
0.765988 0.824796 0.852750
0.894194 0.789944 0.789517
1.000000 0.669062 0.550347
0.205997 0.996216 0.920806
0.506035 0.981079 0.917723
0.788235 0.943999 0.908232
0.890013 0.928618 0.893706
0.970336 0.877653 0.783658
0.515496 1.000000 0.921233
0.635126 1.000000 0.924712
0.818112 0.985016 0.936004
0.904082 0.968231 0.946197
0.946593 0.967864 0.922667
0.384680 0.418463 0.960601
0.559014 0.462776 0.959716
0.841581 0.636744 0.956207
0.927459 0.678187 0.906859
0.984375 0.656397 0.825101
0.418189 0.573388 0.953429
0.570825 0.608118 0.952911
0.830381 0.731594 0.952087
0.918242 0.763333 0.916716
0.974426 0.720790 0.846830
0.321294 0.768673 0.946746
0.481666 0.778683 0.941894
0.783413 0.838224 0.941314
0.903929 0.877379 0.935027
0.954253 0.832212 0.887999
0.466316 0.939178 0.958465
0.581292 0.936461 0.956451
0.771298 0.932280 0.951476
0.890166 0.929625 0.944182
0.946899 0.909026 0.918883
0.576257 1.000000 0.968994
0.659846 1.000000 0.968170
0.807736 0.991974 0.966949
0.906310 0.976654 0.963470
0.950530 0.970520 0.959106
0.637140 0.662623 0.990112
0.691463 0.680079 0.988617
0.820188 0.738735 0.984161
0.928832 0.795743 0.979217
0.966430 0.779629 0.944396
0.660517 0.733455 0.985931
0.707240 0.745937 0.984771
0.822751 0.789242 0.981353
0.926024 0.836637 0.977630
0.962005 0.818418 0.948547
0.593683 0.805417 0.981933
0.670100 0.821134 0.980285
0.819547 0.866636 0.976776
0.920287 0.901244 0.976013
0.954955 0.892668 0.959625
0.606409 0.905180 0.981903
0.659297 0.907469 0.980560
0.771786 0.913390 0.976928
0.897307 0.932525 0.974975
0.954376 0.946685 0.971954
0.666804 0.974853 0.984222
0.711635 0.973693 0.983612
0.812467 0.972168 0.982208
0.897856 0.972381 0.980774
0.954711 0.972625 0.978851
