data/fiter_cube/35558087/1023150/file.cube
# Created by Adobe Lightroom plugin Export LUT (1.17.0)
# www.johnrellis.com/lightroom/exportlut.htm
# Preset: 明亮通透美食摄影_03 云集
# Color profile: C:\Program Files (x86)\Common Files\Adobe\Color\Profiles\Recommended\AdobeRGB1998.icc
LUT_3D_SIZE 5
DOMAIN_MIN 0.000000 0.000000 0.000000
DOMAIN_MAX 0.903226 0.903226 0.903226
0.000000 0.000000 0.000000
0.179110 0.001465 0.003540
0.475563 0.000000 0.000000
0.787655 0.000000 0.000000
1.000000 0.000000 0.000000
0.000000 0.183322 0.104311
0.157809 0.189212 0.000000
0.455451 0.224186 0.000000
0.781582 0.233951 0.000000
1.000000 0.205142 0.000000
0.000000 0.485084 0.264195
0.000000 0.493812 0.229160
0.411139 0.499458 0.000000
0.752010 0.499641 0.000000
0.981994 0.488380 0.000000
0.000000 0.781949 0.423163
0.000000 0.786038 0.400366
0.000000 0.800656 0.302007
0.646509 0.784695 0.000000
0.976715 0.735683 0.000000
0.000000 0.986023 0.539940
0.000000 0.988128 0.525170
0.000000 0.995544 0.469093
0.000000 1.000000 0.063294
0.812009 0.976379 0.000000
0.000000 0.000000 0.196597
0.185916 0.000000 0.196384
0.476265 0.000000 0.218936
0.788754 0.000000 0.157870
1.000000 0.000000 0.135317
0.000000 0.187320 0.195895
0.174685 0.181399 0.195285
0.475715 0.152071 0.181643
0.783963 0.104646 0.156893
1.000000 0.081025 0.135134
0.000000 0.480964 0.311192
0.000000 0.486275 0.308782
0.412360 0.496712 0.151461
0.749905 0.487404 0.199588
0.985473 0.473304 0.190982
0.000000 0.779416 0.460853
0.000000 0.781643 0.454566
0.000000 0.796597 0.369024
0.649989 0.783749 0.021180
0.975067 0.732418 0.185519
0.000000 0.983703 0.573327
0.000000 0.984680 0.566552
0.000000 0.992401 0.515618
0.000000 1.000000 0.310185
0.817685 0.975402 0.147524
0.000000 0.000000 0.531884
0.229923 0.000000 0.528649
0.491615 0.000000 0.522148
0.778836 0.000000 0.519280
0.998871 0.000000 0.465614
0.000000 0.188510 0.527916
0.136324 0.154879 0.526635
0.484199 0.063691 0.520928
0.777584 0.000000 0.507927
0.997681 0.000000 0.457557
0.000000 0.491066 0.515587
0.000000 0.487465 0.515373
0.456214 0.473732 0.509636
0.767575 0.455909 0.489937
0.986175 0.455848 0.478035
0.000000 0.774777 0.558312
0.000000 0.775692 0.561639
0.406500 0.773190 0.587243
0.679713 0.775906 0.481270
0.958709 0.744472 0.543053
0.000000 0.981567 0.644953
0.000000 0.980652 0.649805
0.390387 0.974212 0.680537
0.426551 0.988434 0.611963
0.845792 0.969390 0.496864
0.000000 0.000000 0.812161
0.207919 0.000000 0.810697
0.485359 0.000000 0.805600
0.754574 0.000000 0.798978
0.982269 0.000000 0.754971
0.000000 0.134066 0.809812
0.069001 0.110353 0.808377
0.464240 0.000000 0.804013
0.751278 0.000000 0.797879
0.980560 0.000000 0.752926
0.000000 0.466560 0.800320
0.000000 0.455573 0.799466
0.428260 0.444495 0.795865
0.738338 0.434699 0.787198
0.971649 0.459358 0.751492
0.000000 0.753994 0.788235
0.000000 0.753109 0.787930
0.427985 0.752560 0.786160
0.741970 0.754543 0.781216
0.955779 0.755520 0.771023
0.000000 0.977661 0.759396
0.000000 0.976226 0.764645
0.442878 0.970092 0.786069
0.733700 0.957946 0.830259
0.895476 0.958465 0.773495
0.000000 0.000000 0.974456
0.153109 0.000000 0.973724
0.427100 0.000000 0.972381
0.672511 0.000000 0.969726
0.919097 0.000000 0.966308
0.000000 0.058778 0.972351
0.000000 0.000000 0.971679
0.406195 0.000000 0.970336
0.664942 0.000000 0.966888
0.916991 0.000000 0.964050
0.000000 0.394568 0.967559
0.000000 0.391119 0.966979
0.372747 0.384222 0.964843
0.656672 0.380194 0.961120
0.916991 0.406592 0.960388
0.000000 0.670832 0.960113
0.000000 0.670314 0.959014
0.407599 0.678828 0.957092
0.700404 0.707820 0.954925
0.926818 0.734157 0.957580
0.000000 0.928435 0.956359
0.012818 0.928618 0.955688
0.470222 0.931426 0.954986
0.737240 0.936187 0.953033
0.936126 0.941222 0.950622
