data/fiter_cube/35558087/1023150/file.cube
# Created by Adobe Lightroom plugin Export LUT (1.17.0)
# www.johnrellis.com/lightroom/exportlut.htm
# Preset: 明亮通透美食摄影_03 云集
# Color profile: C:\Program Files (x86)\Common Files\Adobe\Color\Profiles\Recommended\AdobeRGB1998.icc
LUT_3D_SIZE 32
DOMAIN_MIN 0.0 0.0 0.0
DOMAIN_MAX 1.0 1.0 1.0
0.000000 0.000000 0.000000
0.019654 0.000244 0.000549
0.045899 0.000580 0.000916
0.074189 0.001343 0.001465
0.097292 0.002472 0.002380
0.121920 0.003326 0.003449
0.149325 0.002472 0.003265
0.179110 0.001465 0.003540
0.212192 0.000000 0.001648
0.248447 0.000000 0.000000
0.288365 0.000000 0.000000
0.331212 0.000000 0.000000
0.376806 0.000000 0.000000
0.425177 0.000000 0.000000
0.475563 0.000000 0.000000
0.526024 0.000000 0.000000
0.575097 0.000000 0.000000
0.622339 0.000000 0.000000
0.667018 0.000000 0.000000
0.709224 0.000000 0.000000
0.749386 0.000000 0.000000
0.787655 0.000000 0.000000
0.824002 0.000000 0.000000
0.858366 0.000000 0.000000
0.890837 0.000000 0.000000
0.921447 0.000000 0.000000
0.950286 0.000000 0.000000
0.977386 0.000000 0.000000
1.000000 0.000000 0.000000
1.000000 0.000000 0.000000
1.000000 0.000000 0.000000
1.000000 0.000000 0.000000
0.000000 0.021180 0.005890
0.014893 0.022126 0.001038
0.043824 0.020813 0.002564
0.072938 0.023011 0.004120
0.096803 0.022675 0.004028
0.121920 0.022126 0.002991
0.149233 0.022461 0.003784
0.179049 0.022675 0.002899
0.211978 0.022553 0.001923
0.248447 0.019104 0.000000
0.288212 0.011872 0.000000
0.330907 0.001862 0.000000
0.376684 0.000000 0.000000
0.424842 0.000000 0.000000
0.475288 0.000000 0.000000
0.525780 0.000000 0.000000
0.574762 0.000000 0.000000
0.621973 0.000000 0.000000
0.666621 0.000000 0.000000
0.708766 0.000000 0.000000
0.748928 0.000000 0.000000
0.787259 0.000000 0.000000
0.823575 0.000000 0.000000
0.858061 0.000000 0.000000
0.890532 0.000000 0.000000
0.921172 0.000000 0.000000
0.950011 0.000000 0.000000
0.977142 0.000000 0.000000
1.000000 0.000000 0.000000
1.000000 0.000000 0.000000
1.000000 0.000000 0.000000
1.000000 0.000000 0.000000
0.000000 0.046937 0.014649
0.000000 0.049653 0.008911
0.034150 0.048737 0.002655
0.072358 0.048463 0.006378
0.094606 0.049073 0.009644
0.120180 0.050446 0.008423
0.148379 0.050385 0.005921
0.178836 0.050935 0.003784
0.211795 0.051759 0.001617
0.248264 0.050965 0.000000
0.287846 0.048585 0.000000
0.330724 0.044739 0.000000
0.376257 0.034943 0.000000
0.424689 0.021210 0.000000
0.474861 0.000000 0.000000
0.525414 0.000000 0.000000
0.574426 0.000000 0.000000
0.621637 0.000000 0.000000
0.666346 0.000000 0.000000
0.708400 0.000000 0.000000
0.748562 0.000000 0.000000
0.786893 0.000000 0.000000
0.823301 0.000000 0.000000
0.857725 0.000000 0.000000
0.890288 0.000000 0.000000
0.920958 0.000000 0.000000
0.949798 0.000000 0.000000
0.976959 0.000000 0.000000
1.000000 0.000000 0.000000
1.000000 0.000000 0.000000
1.000000 0.000000 0.000000
1.000000 0.000000 0.000000
0.000000 0.074800 0.032593
0.000000 0.075898 0.027955
0.000000 0.076997 0.018952
0.064485 0.076204 0.004028
0.095521 0.073945 0.008331
0.116304 0.074617 0.019654
0.144503 0.076753 0.015656
0.175540 0.078492 0.012085
0.209659 0.080018 0.005127
0.247257 0.081300 0.000000
0.287541 0.082673 0.000000
0.330205 0.083314 0.000000
0.375891 0.083131 0.000000
0.424018 0.081666 0.000000
0.474372 0.077668 0.000000
0.524773 0.072602 0.000000
0.573816 0.063325 0.000000
0.621057 0.043153 0.000000
0.665644 0.014313 0.000000
0.707668 0.000000 0.000000
0.747921 0.000000 0.000000
0.786191 0.000000 0.000000
0.822690 0.000000 0.000000
0.857145 0.000000 0.000000
0.889799 0.000000 0.000000
0.920562 0.000000 0.000000
0.949493 0.000000 0.000000
0.976684 0.000000 0.000000
1.000000 0.000000 0.000000
1.000000 0.000000 0.000000
1.000000 0.000000 0.000000
1.000000 0.000000 0.000000
0.000000 0.098390 0.056092
0.000000 0.098878 0.052674
0.000000 0.099947 0.046571
0.000000 0.102296 0.011994
0.084688 0.100404 0.006714
0.121004 0.098634 0.007294
0.143282 0.098939 0.019776
0.170047 0.101839 0.025299
0.204593 0.105715 0.016388
0.242283 0.109407 0.007752
0.283238 0.112825 0.000000
0.327276 0.115541 0.000000
0.374243 0.117708 0.000000
0.423102 0.119203 0.000000
0.473426 0.119661 0.000000
0.523857 0.118776 0.000000
0.572930 0.115999 0.000000
0.620081 0.112490 0.000000
0.664668 0.106294 0.000000
0.706783 0.099825 0.000000
0.747036 0.091096 0.000000
0.785458 0.082429 0.000000
0.821927 0.069825 0.000000
0.856535 0.051514 0.000000
0.889158 0.019196 0.000000
0.920043 0.000000 0.000000
0.948974 0.000000 0.000000
0.976257 0.000000 0.000000
1.000000 0.000000 0.000000
1.000000 0.000000 0.000000
1.000000 0.000000 0.000000
1.000000 0.000000 0.000000
0.000000 0.124025 0.072084
0.000000 0.124453 0.070222
0.000000 0.125277 0.066957
0.000000 0.127047 0.060761
0.020752 0.129152 0.007233
0.106874 0.126986 0.005951
0.148470 0.125612 0.004456
0.173678 0.126741 0.014923
0.200473 0.129305 0.026551
0.235843 0.134524 0.022065
0.277043 0.140200 0.008545
0.321294 0.145418 0.000000
0.368231 0.150027 0.000000
0.418006 0.153964 0.000000
0.469734 0.157259 0.000000
0.521782 0.158694 0.000000
0.571771 0.158968 0.000000
0.619013 0.157839 0.000000
0.663416 0.155642 0.000000
0.705684 0.151858 0.000000
0.745968 0.147463 0.000000
0.784543 0.142123 0.000000
0.822599 0.136782 0.000000
0.857145 0.130495 0.000000
0.889738 0.123568 0.000000
0.920500 0.116609 0.000000
0.949401 0.109407 0.000000
0.976562 0.102846 0.000000
1.000000 0.095949 0.000000
1.000000 0.088716 0.000000
1.000000 0.082795 0.000000
1.000000 0.078065 0.000000
0.000000 0.152255 0.087282
0.000000 0.152712 0.085756
0.000000 0.153506 0.083558
0.000000 0.155062 0.078187
0.000000 0.157382 0.068879
0.064363 0.158938 0.005219
0.131197 0.156680 0.003357
0.178134 0.154879 0.000000
0.207340 0.157748 0.006561
0.237217 0.161044 0.017029
0.270115 0.165408 0.025208
0.314397 0.173007 0.005707
0.361517 0.179995 0.000000
0.411383 0.186343 0.000000
0.463508 0.191775 0.000000
0.515740 0.196078 0.000000
0.566552 0.198520 0.000000
0.615229 0.199374 0.000000
0.661311 0.198520 0.000000
0.704707 0.196628 0.000000
0.745327 0.193545 0.000000
0.784024 0.190280 0.000000
0.820859 0.186526 0.000000
0.855680 0.181491 0.000000
0.888548 0.177218 0.000000
0.919463 0.171725 0.000000
0.948486 0.166598 0.000000
0.975738 0.161746 0.000000
1.000000 0.156161 0.000000
1.000000 0.151583 0.000000
1.000000 0.147494 0.000000
1.000000 0.144320 0.000000
0.000000 0.183322 0.104311
0.000000 0.183719 0.102815
0.000000 0.184329 0.101045
0.000000 0.185733 0.096345
0.000000 0.187839 0.088685
0.000000 0.190860 0.067170
0.091188 0.191318 0.000397
0.157809 0.189212 0.000000
0.210513 0.188540 0.000000
0.244388 0.191958 0.000000
0.276951 0.195804 0.000000
0.312261 0.200778 0.005859
0.353185 0.207706 0.002533
0.403204 0.216312 0.000000
0.455451 0.224186 0.000000
0.508293 0.230564 0.000000
0.559442 0.235294 0.000000
0.608545 0.237522 0.000000
0.655146 0.238529 0.000000
0.699397 0.238102 0.000000
0.741512 0.236637 0.000000
0.781582 0.233951 0.000000
0.819364 0.230808 0.000000
0.854337 0.227085 0.000000
0.887358 0.222751 0.000000
0.918395 0.218631 0.000000
0.947478 0.214267 0.000000
0.974853 0.209323 0.000000
1.000000 0.205142 0.000000
1.000000 0.200443 0.000000
1.000000 0.196780 0.000000
1.000000 0.192996 0.000000
0.000000 0.217533 0.123018
0.000000 0.217960 0.121798
0.000000 0.218570 0.119936
0.000000 0.219730 0.115938
0.000000 0.221775 0.109194
0.000000 0.224308 0.099123
0.000000 0.228153 0.033814
0.118776 0.227481 0.000000
0.187320 0.225345 0.000000
0.245701 0.226658 0.000000
0.284855 0.229679 0.000000
0.319799 0.234043 0.000000
0.357366 0.239506 0.000000
0.397467 0.245609 0.000000
0.446265 0.254551 0.000000
0.499519 0.263249 0.000000
0.551141 0.269657 0.000000
0.600793 0.274052 0.000000
0.648096 0.276463 0.000000
0.693172 0.277256 0.000000
0.735958 0.277165 0.000000
0.776638 0.275669 0.000000
0.815061 0.273136 0.000000
0.851194 0.270298 0.000000
0.885161 0.266300 0.000000
0.916991 0.261723 0.000000
0.946410 0.257694 0.000000
0.973846 0.253452 0.000000
0.999664 0.248783 0.000000
1.000000 0.244572 0.000000
1.000000 0.240269 0.000000
1.000000 0.236637 0.000000
0.000000 0.255131 0.142916
0.000000 0.255467 0.141756
0.000000 0.256077 0.140200
0.000000 0.257206 0.136355
0.000000 0.259007 0.130312
0.000000 0.261540 0.121492
0.000000 0.264561 0.108614
0.000000 0.268620 0.000000
0.148318 0.267033 0.000000
0.219272 0.264744 0.000000
0.278904 0.263493 0.000000
0.327398 0.269780 0.000000
0.365454 0.275120 0.000000
0.404944 0.280827 0.000000
0.446723 0.287327 0.000000
0.489754 0.293706 0.000000
0.541955 0.302281 0.000000
0.592218 0.308354 0.000000
0.640192 0.312444 0.000000
0.686183 0.314641 0.000000
0.729763 0.315679 0.000000
0.771084 0.315068 0.000000
0.810086 0.313634 0.000000
0.846769 0.311223 0.000000
0.881224 0.308110 0.000000
0.913481 0.304204 0.000000
0.943694 0.299962 0.000000
0.971893 0.295445 0.000000
0.998352 0.290440 0.000000
1.000000 0.285740 0.000000
1.000000 0.281437 0.000000
1.000000 0.277379 0.000000
0.000000 0.295750 0.164462
0.000000 0.296269 0.163424
0.000000 0.296788 0.161868
0.000000 0.297856 0.158480
0.000000 0.299535 0.152865
0.000000 0.301793 0.144839
0.000000 0.304845 0.133364
0.000000 0.308415 0.113100
0.019257 0.311742 0.000000
0.179965 0.309789 0.000000
0.254185 0.307439 0.000000
0.314946 0.303777 0.000000
0.371649 0.311833 0.000000
0.413458 0.318883 0.000000
0.454627 0.324651 0.000000
0.496559 0.330510 0.000000
0.538262 0.335454 0.000000
0.582391 0.340887 0.000000
0.631403 0.346593 0.000000
0.678340 0.350530 0.000000
0.722805 0.352667 0.000000
0.764828 0.353124 0.000000
0.804562 0.352544 0.000000
0.841855 0.350927 0.000000
0.876890 0.348241 0.000000
0.909667 0.344854 0.000000
0.940276 0.341100 0.000000
0.968872 0.336675 0.000000
0.995666 0.332006 0.000000
1.000000 0.327214 0.000000
1.000000 0.322271 0.000000
1.000000 0.317510 0.000000
0.000000 0.339605 0.187686
0.000000 0.340063 0.186679
0.000000 0.340368 0.185122
0.000000 0.341344 0.181888
0.000000 0.343023 0.176486
0.000000 0.345190 0.169131
0.000000 0.348089 0.159091
0.000000 0.351476 0.145205
0.000000 0.355810 0.093629
0.092775 0.357763 0.000000
0.214511 0.355627 0.000000
0.291203 0.353033 0.000000
0.356878 0.350347 0.000000
0.418860 0.357000 0.000000
0.464363 0.365789 0.000000
0.505394 0.370397 0.000000
0.546349 0.374701 0.000000
0.586450 0.378119 0.000000
0.625971 0.381109 0.000000
0.670832 0.385534 0.000000
0.716152 0.388922 0.000000
0.758968 0.390539 0.000000
0.799252 0.390723 0.000000
0.837217 0.389624 0.000000
0.872740 0.387579 0.000000
0.906004 0.384680 0.000000
0.936980 0.381048 0.000000
0.965911 0.376959 0.000000
0.992981 0.372473 0.000000
1.000000 0.367620 0.000000
1.000000 0.363012 0.000000
1.000000 0.358160 0.000000
0.000000 0.386572 0.212253
0.000000 0.386847 0.211307
0.000000 0.387304 0.209812
0.000000 0.388159 0.206851
0.000000 0.389624 0.201816
0.000000 0.391608 0.194888
0.000000 0.394263 0.185336
0.000000 0.397436 0.173129
0.000000 0.401160 0.156435
0.000000 0.406256 0.013855
0.135531 0.406500 0.000000
0.250736 0.404089 0.000000
0.330846 0.401465 0.000000
0.399695 0.398444 0.000000
0.466529 0.402869 0.000000
0.513481 0.411749 0.000000
0.553491 0.414771 0.000000
0.592767 0.417243 0.000000
0.631556 0.419318 0.000000
0.669978 0.421363 0.000000
0.707668 0.423102 0.000000
0.751339 0.426062 0.000000
0.792447 0.427314 0.000000
0.831144 0.427039 0.000000
0.867338 0.425574 0.000000
0.901183 0.423102 0.000000
0.932769 0.419898 0.000000
0.962158 0.416083 0.000000
0.989624 0.411688 0.000000
1.000000 0.407233 0.000000
1.000000 0.402594 0.000000
1.000000 0.397894 0.000000
0.000000 0.435340 0.237949
0.000000 0.435706 0.237095
0.000000 0.436072 0.235813
0.000000 0.436988 0.232853
0.000000 0.438331 0.228122
0.000000 0.440192 0.221408
0.000000 0.442451 0.212680
0.000000 0.445411 0.200931
0.000000 0.448737 0.186374
0.000000 0.452857 0.166567
0.000000 0.458381 0.000000
0.176608 0.456703 0.000000
0.288487 0.453925 0.000000
0.371435 0.450965 0.000000
0.442756 0.447486 0.000000
0.513390 0.449378 0.000000
0.560693 0.456855 0.000000
0.599603 0.458320 0.000000
0.637446 0.459205 0.000000
0.674983 0.460151 0.000000
0.711940 0.460883 0.000000
0.747921 0.461677 0.000000
0.785153 0.462623 0.000000
0.824674 0.463355 0.000000
0.861570 0.462715 0.000000
0.896056 0.460792 0.000000
0.928161 0.457832 0.000000
0.958038 0.454444 0.000000
0.985962 0.450324 0.000000
1.000000 0.445991 0.000000
1.000000 0.441505 0.000000
1.000000 0.436988 0.000000
0.000000 0.485084 0.264195
0.000000 0.485328 0.263310
0.000000 0.485664 0.261936
0.000000 0.486519 0.259098
0.000000 0.487556 0.254551
0.000000 0.489204 0.248203
0.000000 0.491218 0.239933
0.000000 0.493812 0.229160
0.000000 0.496651 0.215702
0.000000 0.500359 0.198184
0.000000 0.504784 0.148592
0.000000 0.508629 0.000000
0.216403 0.506126 0.000000
0.326543 0.503105 0.000000
0.411139 0.499458 0.000000
0.484688 0.495338 0.000000
0.558404 0.498024 0.000000
0.604669 0.499641 0.000000
0.643763 0.500755 0.000000
0.680476 0.500328 0.000000
0.716579 0.500023 0.000000
0.752010 0.499641 0.000000
0.786374 0.499306 0.000000
0.819699 0.498909 0.000000
0.855344 0.498756 0.000000
0.890471 0.497536 0.000000
0.923186 0.495247 0.000000
0.953613 0.492164 0.000000
0.981994 0.488380 0.000000
1.000000 0.484291 0.000000
1.000000 0.479988 0.000000
1.000000 0.475624 0.000000
0.000000 0.533379 0.289708
0.000000 0.533593 0.288762
0.000000 0.533898 0.287541
0.000000 0.534569 0.284886
0.000000 0.535607 0.280613
0.000000 0.537041 0.274540
0.000000 0.538903 0.266636
0.000000 0.541161 0.256657
0.000000 0.543816 0.244083
0.000000 0.546929 0.228489
0.000000 0.550561 0.208652
0.000000 0.555291 0.109163
0.000000 0.557214 0.000000
0.255436 0.553887 0.000000
0.363592 0.550225 0.000000
0.449317 0.546136 0.000000
0.524346 0.541466 0.000000
0.601587 0.545495 0.000000
0.646815 0.541222 0.000000
0.686122 0.542046 0.000000
0.721675 0.540520 0.000000
0.756313 0.538811 0.000000
0.790158 0.537438 0.000000
0.822904 0.535943 0.000000
0.854429 0.534691 0.000000
0.884672 0.533562 0.000000
0.917937 0.531762 0.000000
0.948882 0.529259 0.000000
0.977752 0.525811 0.000000
1.000000 0.521965 0.000000
1.000000 0.517937 0.000000
1.000000 0.513939 0.033845
0.000000 0.579889 0.314397
0.000000 0.580041 0.313542
0.000000 0.580255 0.312352
0.000000 0.580957 0.309758
0.000000 0.581811 0.305547
0.000000 0.583093 0.299901
0.000000 0.584649 0.292576
0.000000 0.586603 0.283116
0.000000 0.589075 0.271611
0.000000 0.591760 0.257176
0.000000 0.594995 0.239536
0.000000 0.598566 0.217411
0.000000 0.603510 0.000000
0.105287 0.603143 0.000000
0.293248 0.599298 0.000000
0.399664 0.595209 0.000000
0.485725 0.590661 0.000000
0.561975 0.585657 0.000000
0.642451 0.590753 0.000000
0.687343 0.581689 0.000000
0.726589 0.582177 0.000000
0.760739 0.579278 0.000000
0.793912 0.576410 0.000000
0.826108 0.573816 0.000000
0.857206 0.571313 0.000000
0.886992 0.569055 0.000000
0.915465 0.567193 0.000000
0.943725 0.565545 0.066712
0.973083 0.562615 0.073579
1.000000 0.559228 0.084047
1.000000 0.555535 0.097383
1.000000 0.551781 0.112459
0.000000 0.624170 0.337987
0.000000 0.624384 0.337163
0.000000 0.625513 0.336645
0.000000 0.626032 0.334081
0.000000 0.626917 0.330266
0.000000 0.627924 0.324804
0.000000 0.629328 0.317784
0.000000 0.631006 0.309026
0.000000 0.633051 0.298253
0.000000 0.635462 0.285008
0.000000 0.638239 0.268833
0.000000 0.641382 0.249454
0.000000 0.645014 0.204532
0.000000 0.649897 0.000000
0.170047 0.647028 0.000000
0.330053 0.642939 0.000000
0.434791 0.638483 0.000000
0.521172 0.633570 0.000000
0.597955 0.628321 0.000000
0.676295 0.630030 0.000000
0.726711 0.621210 0.000000
0.765438 0.621027 0.000000
0.798184 0.616846 0.000000
0.829740 0.612909 0.000000
0.860258 0.609003 0.000000
0.889555 0.605554 0.000000
0.917571 0.602319 0.000000
0.944305 0.599756 0.000000
0.969604 0.598108 0.105837
0.995850 0.595880 0.132723
1.000000 0.592584 0.143923
1.000000 0.589288 0.157443
0.000000 0.666499 0.360723
0.000000 0.666835 0.360082
0.000000 0.667170 0.358892
0.000000 0.667689 0.356664
0.000000 0.668452 0.353216
0.000000 0.669459 0.347997
0.000000 0.670832 0.341497
0.000000 0.672297 0.333257
0.000000 0.674189 0.323186
0.000000 0.676326 0.311131
0.000000 0.678859 0.296544
0.000000 0.681666 0.278904
0.000000 0.684810 0.257542
0.000000 0.688716 0.172183
0.000000 0.691890 0.000000
0.219974 0.688258 0.000000
0.365606 0.683894 0.000000
0.468208 0.679164 0.000000
0.554528 0.674159 0.000000
0.631769 0.668666 0.000000
0.707820 0.667445 0.000000
0.763851 0.658900 0.000000
0.801114 0.657374 0.000000
0.833158 0.652674 0.000000
0.863157 0.647517 0.000000
0.892088 0.642695 0.000000
0.919738 0.638209 0.000000
0.946136 0.634302 0.000000
0.971252 0.631189 0.036774
0.995056 0.629236 0.128084
1.000000 0.628931 0.181674
1.000000 0.626429 0.198154
0.000000 0.706661 0.382300
0.000000 0.706905 0.381720
0.000000 0.707240 0.380652
0.000000 0.707759 0.378576
0.000000 0.708492 0.375219
0.000000 0.709407 0.370520
0.000000 0.710536 0.364202
0.000000 0.711940 0.356573
0.000000 0.713588 0.347234
0.000000 0.715572 0.335943
0.000000 0.717861 0.322637
0.000000 0.720424 0.306493
0.000000 0.723201 0.287633
0.000000 0.726375 0.264622
0.000000 0.730434 0.117952
0.000000 0.731624 0.000000
0.264103 0.727565 0.000000
0.399908 0.722957 0.000000
0.500938 0.718044 0.000000
0.586725 0.712795 0.000000
0.663935 0.707149 0.000000
0.737575 0.703334 0.000000
0.799283 0.695155 0.000000
0.834684 0.692287 0.000000
0.866148 0.686976 0.000000
0.894652 0.680720 0.000000
0.921935 0.674952 0.000000
0.948058 0.669642 0.000000
0.972930 0.665126 0.000000
0.996521 0.661646 0.081941
1.000000 0.659632 0.153841
1.000000 0.659724 0.210025
0.000000 0.745083 0.403143
0.000000 0.745235 0.402441
0.000000 0.745541 0.401587
0.000000 0.745998 0.399573
0.000000 0.746670 0.396429
0.000000 0.747524 0.391852
0.000000 0.748562 0.386145
0.000000 0.749813 0.379034
0.000000 0.751278 0.370153
0.000000 0.753079 0.359716
0.000000 0.755154 0.347417
0.000000 0.757443 0.332860
0.000000 0.760006 0.315587
0.000000 0.762814 0.295293
0.000000 0.766018 0.257053
0.000000 0.770108 0.000000
0.000000 0.769314 0.000000
0.305333 0.764889 0.000000
0.433143 0.760189 0.000000
0.532128 0.755093 0.000000
0.617395 0.749783 0.000000
0.694606 0.744015 0.000000
0.766903 0.738582 0.000000
0.832883 0.733364 0.000000
0.866880 0.725826 0.000000
0.897490 0.719997 0.000000
0.924529 0.712673 0.000000
0.950286 0.706050 0.000000
0.974945 0.700069 0.000000
0.998383 0.695155 0.000000
1.000000 0.691554 0.116579
1.000000 0.689815 0.185214
0.000000 0.781949 0.423163
0.000000 0.782132 0.422553
0.000000 0.782284 0.421759
0.000000 0.782650 0.419837
0.000000 0.783230 0.416846
0.000000 0.783963 0.412482
0.000000 0.784848 0.406958
0.000000 0.786038 0.400366
0.000000 0.787442 0.392157
0.000000 0.789059 0.382483
0.000000 0.790921 0.371221
0.000000 0.793027 0.357702
0.000000 0.795407 0.342107
0.000000 0.797910 0.323735
0.000000 0.800656 0.302007
0.000000 0.803983 0.228153
0.000000 0.807980 0.000000
0.126925 0.804898 0.000000
0.343694 0.800320 0.000000
0.465431 0.795407 0.000000
0.562158 0.790249 0.000000
0.646509 0.784695 0.000000
0.723293 0.778836 0.000000
0.795346 0.773281 0.000000
0.864225 0.770626 0.000000
0.896941 0.757687 0.000000
0.926604 0.751125 0.000000
0.952239 0.743038 0.000000
0.976715 0.735683 0.000000
1.000000 0.729274 0.000000
1.000000 0.724117 0.021576
1.000000 0.720363 0.150759
0.000000 0.816495 0.442206
0.000000 0.816678 0.441566
0.000000 0.816861 0.440864
0.000000 0.817166 0.439002
0.000000 0.817685 0.436042
0.000000 0.818357 0.432044
0.000000 0.819211 0.427008
0.000000 0.820279 0.420813
0.000000 0.821500 0.413123
0.000000 0.822965 0.404120
0.000000 0.824643 0.393500
0.000000 0.826566 0.381201
0.000000 0.828641 0.366796
0.000000 0.830930 0.350042
0.000000 0.833463 0.330755
0.000000 0.836240 0.308263
0.000000 0.839689 0.189029
0.000000 0.842313 0.000000
0.201724 0.838254 0.000000
0.379889 0.833555 0.000000
0.496071 0.828550 0.000000
0.591089 0.823178 0.000000
0.674281 0.817594 0.000000
0.750332 0.811643 0.000000
0.821500 0.805753 0.000000
0.893767 0.805997 0.000000
0.925261 0.787900 0.000000
0.953674 0.780636 0.000000
0.978393 0.772061 0.000000
1.000000 0.764187 0.000000
1.000000 0.757473 0.000000
1.000000 0.751644 0.096803
0.000000 0.849546 0.460578
0.000000 0.849668 0.460029
0.000000 0.849760 0.459174
0.000000 0.850095 0.457465
0.000000 0.850492 0.454688
0.000000 0.851102 0.450965
0.000000 0.851896 0.446204
0.000000 0.852750 0.440284
0.000000 0.853849 0.433051
0.000000 0.855131 0.424628
0.000000 0.856657 0.414740
0.000000 0.858335 0.403388
0.000000 0.860197 0.390051
0.000000 0.862272 0.375006
0.000000 0.864500 0.357427
0.000000 0.866972 0.337285
0.000000 0.869657 0.304631
0.000000 0.873106 0.127749
0.000000 0.873808 0.000000
0.256504 0.869474 0.000000
0.414038 0.864652 0.000000
0.525475 0.859525 0.000000
0.618280 0.854093 0.000000
0.700435 0.848325 0.000000
0.775479 0.842283 0.000000
0.846067 0.836240 0.000000
0.921782 0.839780 0.000000
0.952178 0.817014 0.000000
0.979156 0.808865 0.000000
1.000000 0.800046 0.000000
1.000000 0.791501 0.000000
1.000000 0.783719 0.000000
0.000000 0.880186 0.477729
0.000000 0.880308 0.477241
0.000000 0.880461 0.476478
0.000000 0.880705 0.474800
0.000000 0.881132 0.472297
0.000000 0.881682 0.468727
0.000000 0.882353 0.464332
0.000000 0.883177 0.458869
0.000000 0.884184 0.452094
0.000000 0.885374 0.444190
0.000000 0.886748 0.435035
0.000000 0.888273 0.424384
0.000000 0.889982 0.412207
0.000000 0.891844 0.398260
0.000000 0.893889 0.382422
0.000000 0.896147 0.364202
0.000000 0.898558 0.343236
0.000000 0.901366 0.279240
0.000000 0.904753 0.000000
0.000000 0.903502 0.000000
0.303380 0.898894 0.000000
0.446876 0.893950 0.000000
0.554009 0.888701 0.000000
0.644373 0.883238 0.000000
0.725277 0.877409 0.000000
0.799466 0.871366 0.000000
0.868925 0.865019 0.000000
0.947662 0.871458 0.000000
0.977935 0.844999 0.000000
1.000000 0.836179 0.000000
1.000000 0.826291 0.000000
1.000000 0.816739 0.000000
0.000000 0.909117 0.494209
0.000000 0.909209 0.493721
0.000000 0.909331 0.493080
0.000000 0.909575 0.491493
0.000000 0.909911 0.489143
0.000000 0.910430 0.485817
0.000000 0.911040 0.481575
0.000000 0.911772 0.476417
0.000000 0.912657 0.470039
0.000000 0.913756 0.462776
0.000000 0.914977 0.454292
0.000000 0.916381 0.444373
0.000000 0.917967 0.433021
0.000000 0.919677 0.420203
0.000000 0.921538 0.405646
0.000000 0.923613 0.389197
0.000000 0.925780 0.370367
0.000000 0.928130 0.348943
0.000000 0.931060 0.248081
0.000000 0.934325 0.000000
0.035889 0.931151 0.000000
0.345800 0.926390 0.000000
0.478126 0.921386 0.000000
0.581048 0.916136 0.000000
0.669337 0.910643 0.000000
0.748714 0.904845 0.000000
0.821988 0.898833 0.000000
0.890623 0.892607 0.000000
0.966888 0.897093 0.000000
1.000000 0.871397 0.000000
1.000000 0.861082 0.000000
1.000000 0.850523 0.000000
0.000000 0.936217 0.509880
0.000000 0.936309 0.509514
0.000000 0.936400 0.508721
0.000000 0.936614 0.507408
0.000000 0.936950 0.505058
0.000000 0.937438 0.502037
0.000000 0.938018 0.498116
0.000000 0.938750 0.493324
0.000000 0.939635 0.487373
0.000000 0.940673 0.480690
0.000000 0.941833 0.472694
0.000000 0.943175 0.463569
0.000000 0.944640 0.453132
0.000000 0.946227 0.441382
0.000000 0.947967 0.428046
0.000000 0.949859 0.413001
0.000000 0.951904 0.395911
0.000000 0.954040 0.376715
0.000000 0.956420 0.349310
0.000000 0.959442 0.209598
0.000000 0.961608 0.000000
0.182925 0.957397 0.000000
0.384924 0.952636 0.000000
0.508446 0.947631 0.000000
0.607599 0.942382 0.000000
0.693782 0.936919 0.000000
0.771695 0.931212 0.000000
0.843870 0.925261 0.000000
0.911254 0.918730 0.000000
0.984100 0.920775 0.000000
1.000000 0.897185 0.000000
1.000000 0.884642 0.000000
0.000000 0.962005 0.525231
0.000000 0.962066 0.524834
0.000000 0.962158 0.524193
0.000000 0.962371 0.522820
0.000000 0.962646 0.520745
0.000000 0.963043 0.517845
0.000000 0.963592 0.514153
0.000000 0.964263 0.509545
0.000000 0.965026 0.504173
0.000000 0.965972 0.497658
0.000000 0.967010 0.490364
0.000000 0.968200 0.481819
0.000000 0.969543 0.472175
0.000000 0.970977 0.461311
