data/fiter_cube/35558087/1023150/file.cube
# Created by Adobe Lightroom plugin Export LUT (1.17.0)
# www.johnrellis.com/lightroom/exportlut.htm
# Preset: 明亮通透美食摄影_03 云集
# Color profile: C:\Program Files (x86)\Common Files\Adobe\Color\Profiles\Recommended\AdobeRGB1998.icc
LUT_3D_SIZE 8
DOMAIN_MIN 0.000000 0.000000 0.000000
DOMAIN_MAX 0.903226 0.903226 0.903226
0.000000 0.000000 0.000000
0.097292 0.002472 0.002380
0.212192 0.000000 0.001648
0.376806 0.000000 0.000000
0.575097 0.000000 0.000000
0.749386 0.000000 0.000000
0.890837 0.000000 0.000000
1.000000 0.000000 0.000000
0.000000 0.098390 0.056092
0.084688 0.100404 0.006714
0.204593 0.105715 0.016388
0.374243 0.117708 0.000000
0.572930 0.115999 0.000000
0.747036 0.091096 0.000000
0.889158 0.019196 0.000000
1.000000 0.000000 0.000000
0.000000 0.217533 0.123018
0.000000 0.221775 0.109194
0.187320 0.225345 0.000000
0.357366 0.239506 0.000000
0.551141 0.269657 0.000000
0.735958 0.277165 0.000000
0.885161 0.266300 0.000000
0.999664 0.248783 0.000000
0.000000 0.386572 0.212253
0.000000 0.389624 0.201816
0.000000 0.401160 0.156435
0.330846 0.401465 0.000000
0.553491 0.414771 0.000000
0.707668 0.423102 0.000000
0.867338 0.425574 0.000000
0.989624 0.411688 0.000000
0.000000 0.579889 0.314397
0.000000 0.581811 0.305547
0.000000 0.589075 0.271611
0.000000 0.603510 0.000000
0.485725 0.590661 0.000000
0.726589 0.582177 0.000000
0.857206 0.571313 0.000000
0.973083 0.562615 0.073579
0.000000 0.745083 0.403143
0.000000 0.746670 0.396429
0.000000 0.751278 0.370153
0.000000 0.760006 0.315587
0.000000 0.769314 0.000000
0.617395 0.749783 0.000000
0.866880 0.725826 0.000000
0.974945 0.700069 0.000000
0.000000 0.880186 0.477729
0.000000 0.881132 0.472297
0.000000 0.884184 0.452094
0.000000 0.889982 0.412207
0.000000 0.898558 0.343236
0.303380 0.898894 0.000000
0.725277 0.877409 0.000000
0.977935 0.844999 0.000000
0.000000 0.986023 0.539940
0.000000 0.986633 0.535637
0.000000 0.988861 0.520256
0.000000 0.993042 0.490547
0.000000 0.998962 0.442542
0.000000 1.000000 0.304387
0.455818 0.999207 0.000000
0.812009 0.976379 0.000000
0.000336 0.000702 0.101900
0.097749 0.000549 0.102480
0.212375 0.000000 0.107362
0.377569 0.000000 0.090761
0.575097 0.000000 0.066011
0.748653 0.000000 0.000000
0.890562 0.000000 0.000000
1.000000 0.000000 0.000000
0.000000 0.098695 0.102449
0.095155 0.097688 0.102663
0.212284 0.089967 0.099336
0.376226 0.068849 0.090486
0.573327 0.000000 0.061402
0.746792 0.000000 0.000000
0.889128 0.000000 0.000000
1.000000 0.000000 0.000000
0.000000 0.216007 0.144839
0.059144 0.218418 0.147005
0.189334 0.224521 0.093050
0.356786 0.233890 0.105135
0.557702 0.256504 0.067353
0.739376 0.256046 0.000000
0.885679 0.243473 0.000000
0.999603 0.227634 0.000000
0.000000 0.384527 0.230411
0.000000 0.387091 0.227451
0.000000 0.398901 0.186862
0.330694 0.400183 0.001709
0.552392 0.409247 0.000000
0.710689 0.418036 0.069459
0.868742 0.417456 0.000000
0.990387 0.403204 0.000000
0.000000 0.577996 0.330571
0.000000 0.579919 0.324865
0.000000 0.586999 0.292149
0.000000 0.601007 0.155886
0.485512 0.589502 0.000000
0.726253 0.578790 0.000000
0.856474 0.568170 0.000000
0.973724 0.560204 0.140932
0.000000 0.743465 0.417731
0.000000 0.744717 0.411505
0.000000 0.749538 0.385962
0.000000 0.758389 0.333501
0.000000 0.769223 0.000000
0.617884 0.749416 0.000000
0.867216 0.724392 0.000000
0.974334 0.698756 0.000000
0.000000 0.878752 0.490455
0.000000 0.879576 0.485054
0.000000 0.882750 0.465339
0.000000 0.888701 0.426520
0.000000 0.897398 0.360418
0.298497 0.898772 0.000000
0.725917 0.876951 0.000000
0.977722 0.844022 0.000000
0.000000 0.984924 0.551141
0.000000 0.985565 0.546990
0.000000 0.987823 0.531884
0.000000 0.992035 0.503105
0.000000 0.998230 0.456825
0.000000 1.000000 0.341375
0.456947 0.999023 0.000000
0.813352 0.976013 0.000000
0.000000 0.000000 0.235630
0.107179 0.000000 0.235264
0.221469 0.000000 0.234653
0.378027 0.000000 0.255375
0.575189 0.000000 0.260685
0.749752 0.000000 0.226078
0.893004 0.000000 0.190219
1.000000 0.000000 0.181460
0.000000 0.097841 0.235599
0.084230 0.090120 0.235752
0.218845 0.074220 0.234958
0.378180 0.000000 0.249454
0.574914 0.000000 0.246342
0.749722 0.000000 0.201938
0.891630 0.000000 0.190249
1.000000 0.000000 0.181704
0.000000 0.223087 0.233829
0.033753 0.221897 0.234043
0.207187 0.215396 0.232547
0.378454 0.198276 0.223484
0.572320 0.179324 0.214969
0.744625 0.160037 0.203586
0.887694 0.147066 0.191928
1.000000 0.145571 0.183841
0.000000 0.382116 0.277043
0.000000 0.384344 0.278660
0.165408 0.389014 0.283787
0.336431 0.396735 0.213870
0.549432 0.394934 0.230625
0.725032 0.399695 0.225071
0.876860 0.390478 0.209018
0.994720 0.375036 0.196414
0.000000 0.575280 0.370764
0.000000 0.576623 0.370214
0.000000 0.580224 0.368170
0.061555 0.593866 0.310948
0.489235 0.587976 0.182223
0.725978 0.569757 0.189456
0.854215 0.562890 0.256352
0.976623 0.554284 0.267887
0.000000 0.741604 0.452155
0.000000 0.742245 0.451453
0.000000 0.744106 0.448402
0.000000 0.753109 0.402777
0.000000 0.767361 0.217411
0.621851 0.748043 0.150942
0.868070 0.720180 0.147860
0.971710 0.697475 0.265385
0.000000 0.877440 0.521386
0.000000 0.877592 0.521172
0.000000 0.878538 0.516930
0.000000 0.884459 0.482155
0.000000 0.893248 0.424659
0.292393 0.898680 0.163485
0.731289 0.876158 0.146822
0.977508 0.841917 0.153170
0.000000 0.983398 0.580072
0.000000 0.983215 0.580987
0.000000 0.983856 0.576501
0.000000 0.988098 0.550530
0.000000 0.994293 0.509361
0.000000 1.000000 0.449165
0.467475 0.998016 0.207095
0.819913 0.974853 0.207279
0.000000 0.000000 0.427131
0.113802 0.000000 0.426337
0.256199 0.000000 0.423713
0.395911 0.000000 0.420386
0.571893 0.000000 0.438727
0.743709 0.000000 0.434150
0.887907 0.000000 0.405982
1.000000 0.000000 0.369085
0.000000 0.077668 0.425757
0.035950 0.065949 0.425177
0.243168 0.000000 0.423377
0.393988 0.000000 0.420691
0.571649 0.000000 0.435370
0.743282 0.000000 0.428260
0.887572 0.000000 0.399939
1.000000 0.000000 0.364721
0.000000 0.243778 0.422400
0.000000 0.233036 0.422461
0.187716 0.201846 0.422339
0.385534 0.182925 0.419867
0.569940 0.144961 0.423651
0.742336 0.000000 0.409277
0.886900 0.000000 0.381781
0.999939 0.000000 0.363531
0.000000 0.397559 0.417578
0.000000 0.396368 0.417426
0.149142 0.391791 0.416785
0.364904 0.380682 0.412940
0.564782 0.361517 0.398993
0.736446 0.354620 0.391760
0.879911 0.352178 0.384710
0.993500 0.352697 0.377813
0.000000 0.571252 0.435615
0.000000 0.572412 0.436988
0.000000 0.575402 0.442634
0.330480 0.576379 0.457099
0.505669 0.580591 0.393652
0.715541 0.563226 0.415717
0.858946 0.561913 0.424048
0.979644 0.550256 0.416724
0.000000 0.739223 0.508324
0.000000 0.740017 0.508843
0.000000 0.741176 0.511650
0.283635 0.740780 0.523095
0.332860 0.753048 0.473610
0.637110 0.744045 0.379126
0.862821 0.714900 0.388159
0.962493 0.706935 0.463661
0.000000 0.875853 0.568383
0.000000 0.875975 0.568933
0.000000 0.875944 0.572259
0.251774 0.873808 0.586511
0.281621 0.882628 0.542931
0.331853 0.895537 0.387121
0.746395 0.873167 0.378698
0.973846 0.839719 0.386084
0.000000 0.982452 0.619562
0.000000 0.982300 0.620630
0.000000 0.981231 0.626032
0.225376 0.978546 0.639399
0.255863 0.984771 0.606256
0.292119 0.993225 0.559869
0.506493 0.994293 0.407752
0.834958 0.971801 0.407141
0.000000 0.000000 0.626703
0.094301 0.000000 0.625635
0.270054 0.000000 0.623072
0.424079 0.000000 0.619532
0.578546 0.000000 0.614130
0.736690 0.000000 0.608148
0.879728 0.000000 0.587945
0.994629 0.000000 0.553857
0.000000 0.000000 0.625055
0.000000 0.000000 0.624445
0.250126 0.000000 0.622309
0.416419 0.000000 0.619013
0.576471 0.000000 0.613703
0.736538 0.000000 0.606592
0.879454 0.000000 0.585595
0.994293 0.000000 0.552056
0.000000 0.220737 0.621820
0.000000 0.201938 0.621759
0.162264 0.183902 0.619989
0.388769 0.154055 0.616449
0.569329 0.096651 0.611902
0.734768 0.000000 0.601160
0.877928 0.000000 0.578698
0.992523 0.000000 0.547814
0.000000 0.411048 0.613855
0.000000 0.405707 0.613672
0.000000 0.387243 0.613153
0.345220 0.364355 0.611139
0.557336 0.355718 0.607294
0.729549 0.356085 0.595026
0.873564 0.342443 0.572503
0.988464 0.338140 0.546136
0.000000 0.576532 0.605188
0.000000 0.575799 0.605219
0.000000 0.572747 0.604608
0.331518 0.567864 0.602838
0.544213 0.561822 0.598138
0.720974 0.551965 0.585534
0.864042 0.550469 0.577569
0.977539 0.551476 0.571435
0.000000 0.735348 0.596490
0.000000 0.735775 0.595453
0.000000 0.736446 0.591974
0.313481 0.735470 0.603449
0.522911 0.731685 0.626093
0.667109 0.734554 0.581292
0.846708 0.718593 0.600397
0.957366 0.719753 0.616510
0.000000 0.873381 0.632502
0.000000 0.873350 0.633539
0.000000 0.872984 0.638331
0.280430 0.870878 0.650813
0.505028 0.865995 0.674830
0.543145 0.876219 0.637934
0.773037 0.867124 0.572320
0.963928 0.839719 0.583642
0.000000 0.980621 0.673976
0.000000 0.980346 0.675288
0.000000 0.979034 0.681209
0.278660 0.976135 0.694697
0.514031 0.969177 0.725521
0.529290 0.977783 0.690486
0.574548 0.986908 0.586603
0.858701 0.966644 0.583307
0.000000 0.000000 0.779782
0.000000 0.000000 0.779263
0.256260 0.000000 0.777432
0.414038 0.000000 0.774411
0.567773 0.000000 0.770657
0.723140 0.000000 0.766232
0.870665 0.000000 0.752224
0.984833 0.000000 0.716793
0.000000 0.000000 0.778714
0.000000 0.000000 0.778195
0.234379 0.000000 0.776791
0.404364 0.000000 0.773587
0.563561 0.000000 0.769955
0.721828 0.000000 0.765805
0.870359 0.000000 0.751339
0.984375 0.000000 0.715999
0.000000 0.184024 0.776486
0.000000 0.179904 0.775967
0.138186 0.164462 0.774380
0.372961 0.133028 0.771786
0.550225 0.062989 0.768704
0.717952 0.000000 0.764736
0.869047 0.000000 0.748684
0.982452 0.000000 0.714321
0.000000 0.384955 0.770626
0.000000 0.378973 0.770474
0.000000 0.360876 0.769924
0.331518 0.350134 0.768307
0.534874 0.343755 0.765469
0.712581 0.338903 0.761990
0.865019 0.344823 0.745052
0.978363 0.358618 0.713649
0.000000 0.559533 0.763027
0.000000 0.557458 0.763058
0.000000 0.551324 0.762722
0.320928 0.546960 0.761471
0.531456 0.547112 0.759152
0.707973 0.545342 0.756283
0.857511 0.550500 0.741451
0.971099 0.549126 0.716884
0.000000 0.721950 0.755581
0.000000 0.721675 0.755673
0.000000 0.720638 0.755337
0.315709 0.719539 0.754299
0.529259 0.719326 0.752285
0.705928 0.719570 0.748562
0.848753 0.715389 0.738979
0.959716 0.719326 0.735592
0.000000 0.870726 0.741421
0.000000 0.870665 0.740993
0.000000 0.869780 0.739315
0.319524 0.867308 0.736843
0.525017 0.862699 0.746242
0.694362 0.856809 0.770626
0.806516 0.859068 0.738857
0.947539 0.847898 0.756863
0.000000 0.978363 0.741054
0.000000 0.977996 0.742550
0.000000 0.976440 0.748348
0.329320 0.973297 0.759945
0.524651 0.967956 0.779660
0.694789 0.960204 0.809842
0.719173 0.968750 0.782315
0.887999 0.960174 0.739010
0.000000 0.000000 0.895537
0.000000 0.000000 0.896391
0.231907 0.000000 0.895140
0.389868 0.000000 0.893248
0.539269 0.000000 0.890867
0.687892 0.000000 0.887785
0.837247 0.000000 0.883970
0.972656 0.000000 0.865812
0.000000 0.000000 0.891112
0.000000 0.000000 0.891814
0.208988 0.000000 0.890898
0.378576 0.000000 0.888975
0.531609 0.000000 0.886107
0.681453 0.000000 0.882353
0.831083 0.000000 0.878019
0.967315 0.000000 0.860105
0.000000 0.162661 0.892729
0.000000 0.158602 0.892332
0.113924 0.143160 0.890562
0.349096 0.111940 0.888548
0.517662 0.002991 0.885069
0.675898 0.000000 0.881865
0.831632 0.000000 0.879362
0.969238 0.000000 0.861631
0.000000 0.350286 0.891356
0.000000 0.346044 0.890684
0.000000 0.337804 0.888945
0.318608 0.334752 0.887663
0.507134 0.329534 0.884733
0.674617 0.328130 0.882506
0.833280 0.333165 0.880522
0.967742 0.347539 0.860838
0.000000 0.523461 0.881987
0.000000 0.521141 0.880980
0.000000 0.516594 0.879454
0.313420 0.518212 0.878569
0.508232 0.521019 0.876677
0.672663 0.521721 0.874144
0.827787 0.526604 0.871977
0.960021 0.543542 0.856168
0.000000 0.681788 0.874388
0.000000 0.681300 0.874296
0.000000 0.680751 0.873960
0.317388 0.683162 0.873777
0.523583 0.690944 0.872496
0.693965 0.704494 0.871489
0.833402 0.707576 0.870481
0.952941 0.715145 0.857359
0.000000 0.835843 0.870634
0.000000 0.836454 0.871153
0.000000 0.836759 0.870970
0.333867 0.838041 0.870787
0.531548 0.839109 0.868772
0.697627 0.841611 0.866697
0.837125 0.846159 0.865415
0.945892 0.847776 0.861295
0.000000 0.972992 0.857328
0.000000 0.972595 0.856931
0.081788 0.972717 0.857786
0.369940 0.969726 0.856626
0.552819 0.964050 0.855192
0.706111 0.957366 0.864500
0.835172 0.951324 0.886473
0.916045 0.952758 0.863462
0.000000 0.000000 0.974456
0.000000 0.000000 0.974701
0.199863 0.000000 0.973419
0.355413 0.000000 0.972808
0.497536 0.000000 0.971618
0.637354 0.000000 0.969970
0.778225 0.000000 0.968688
0.919097 0.000000 0.966308
0.000000 0.000000 0.972747
0.000000 0.000000 0.973022
0.177920 0.000000 0.972076
0.345769 0.000000 0.971099
0.491920 0.000000 0.969970
0.633845 0.000000 0.968292
0.775509 0.000000 0.966583
0.916991 0.000000 0.964263
0.000000 0.125582 0.971313
0.000000 0.121157 0.971283
0.059663 0.100832 0.969818
0.317082 0.061341 0.970459
0.477760 0.000000 0.968841
0.626154 0.000000 0.966491
0.772061 0.000000 0.964843
0.916014 0.000000 0.962860
0.000000 0.303014 0.970001
0.000000 0.303044 0.970153
0.000000 0.299229 0.969085
0.282322 0.295689 0.968444
0.464179 0.291173 0.967224
0.621576 0.286320 0.965270
0.771603 0.287175 0.963653
0.916869 0.299504 0.961975
0.000000 0.477302 0.964843
0.000000 0.477363 0.965179
0.000000 0.476417 0.964569
0.286351 0.478065 0.964172
0.467567 0.477516 0.962432
0.625086 0.479164 0.960540
0.775021 0.488106 0.959442
0.918608 0.509575 0.959319
0.000000 0.631220 0.959594
0.000000 0.630518 0.959106
0.000000 0.629664 0.958007
0.286839 0.632319 0.957031
0.493660 0.646693 0.955962
0.656153 0.663996 0.956146
0.796048 0.678096 0.957427
0.926482 0.697963 0.959167
0.000000 0.780789 0.957000
0.000000 0.780758 0.956664
0.000000 0.781125 0.955932
0.323125 0.784817 0.955444
0.517418 0.794064 0.954620
0.684382 0.810086 0.953979
0.824369 0.830320 0.954559
0.929076 0.834257 0.953521
0.000000 0.928435 0.956359
0.000000 0.928344 0.956085
0.160067 0.928771 0.955596
0.381598 0.930358 0.955261
0.552636 0.932616 0.954498
0.702876 0.935393 0.953307
0.832975 0.938476 0.952087
0.936126 0.941222 0.950622
