data/fiter_cube/25649002/1023275/file.cube
# Created by Adobe Lightroom plugin Export LUT (1.17.0)
# www.johnrellis.com/lightroom/exportlut.htm
# Preset: 高级电影质感情绪胶片_05 云集
# Color profile: C:\Program Files (x86)\Common Files\Adobe\Color\Profiles\Recommended\AdobeRGB1998.icc
LUT_3D_SIZE 32
DOMAIN_MIN 0.0 0.0 0.0
DOMAIN_MAX 1.0 1.0 1.0
0.068147 0.076265 0.088075
0.072389 0.077394 0.088472
0.076997 0.078767 0.089418
0.092042 0.082551 0.091249
0.125399 0.088838 0.092683
0.172488 0.094484 0.092988
0.229709 0.098909 0.092256
0.295232 0.100893 0.090333
0.364233 0.100526 0.087251
0.429572 0.102449 0.083650
0.487984 0.111391 0.081392
0.539025 0.130007 0.079866
0.581872 0.156069 0.080873
0.618250 0.186740 0.084779
0.648951 0.219303 0.092439
0.680140 0.258671 0.105898
0.705928 0.297154 0.123568
0.725551 0.330846 0.143038
0.742428 0.361669 0.163088
0.758236 0.391577 0.184482
0.773251 0.420447 0.207401
0.787350 0.447700 0.232181
0.800595 0.472663 0.256474
0.812894 0.495918 0.281437
0.824765 0.517205 0.305303
0.836179 0.537560 0.329961
0.847532 0.557519 0.355322
0.858824 0.576989 0.381567
0.870024 0.596216 0.408881
0.881071 0.615229 0.436805
0.891875 0.633692 0.464607
0.902098 0.651423 0.492226
0.069276 0.078523 0.089296
0.071565 0.079591 0.090272
0.078767 0.080934 0.088960
0.098360 0.085664 0.088930
0.134615 0.092470 0.090639
0.183108 0.098604 0.090639
0.240299 0.103029 0.089631
0.305119 0.105013 0.087404
0.372015 0.104860 0.084199
0.435218 0.107424 0.080507
0.492195 0.116304 0.077241
0.541497 0.134310 0.075593
0.583001 0.159640 0.077272
0.618769 0.189487 0.081575
0.648859 0.220523 0.088594
0.679652 0.259068 0.101747
0.704402 0.295628 0.119081
0.723659 0.328038 0.137728
0.740139 0.357885 0.157626
0.756008 0.387121 0.178073
0.770962 0.415595 0.200687
0.785061 0.442847 0.225132
0.798337 0.468025 0.249516
0.810819 0.491371 0.274296
0.822751 0.512993 0.298650
0.834318 0.533776 0.323613
0.845884 0.553948 0.349187
0.857298 0.573816 0.375921
0.868742 0.593347 0.403388
0.879942 0.612604 0.431647
0.890898 0.631250 0.459876
0.901244 0.649256 0.487892
0.071321 0.081270 0.091798
0.073213 0.082582 0.093538
0.075288 0.083284 0.093446
0.099611 0.090883 0.089845
0.147951 0.100404 0.087373
0.198001 0.106325 0.087526
0.255283 0.110262 0.086122
0.318853 0.111666 0.083528
0.383764 0.112093 0.079591
0.444282 0.114809 0.075715
0.499245 0.124392 0.072206
0.546899 0.142123 0.070161
0.587030 0.166445 0.071839
0.621607 0.195224 0.076448
0.650935 0.225589 0.084688
0.680934 0.262455 0.097841
0.704921 0.297368 0.114260
0.723568 0.328405 0.133272
0.739895 0.357519 0.152590
0.755459 0.386236 0.173404
0.770352 0.414374 0.196292
0.784573 0.441230 0.219974
0.797787 0.466407 0.244755
0.810300 0.489754 0.269627
0.822171 0.511406 0.294255
0.833768 0.532158 0.319280
0.845396 0.552361 0.344976
0.856840 0.572381 0.372076
0.868345 0.592004 0.399786
0.879637 0.611383 0.428321
0.890623 0.630091 0.456611
0.900969 0.648219 0.485206
0.075166 0.088899 0.096437
0.078126 0.091890 0.099886
0.080842 0.094331 0.101320
0.086915 0.094942 0.099947
0.140383 0.113283 0.091432
0.221561 0.130922 0.082094
0.294255 0.133150 0.075166
0.355047 0.132418 0.071107
0.413275 0.131838 0.066804
0.468330 0.135042 0.061585
0.517723 0.144137 0.057221
0.560662 0.160678 0.053925
0.597803 0.183444 0.056794
0.629877 0.209964 0.063081
0.657069 0.237308 0.072633
0.685817 0.272709 0.087892
0.707576 0.304173 0.106355
0.725154 0.332708 0.125216
0.740719 0.359808 0.144656
0.755612 0.386847 0.165347
0.770169 0.413519 0.187259
0.783993 0.439582 0.211460
0.797330 0.464607 0.236240
0.810025 0.488289 0.262303
0.822446 0.510582 0.287541
0.834409 0.531975 0.313878
0.846159 0.552728 0.341131
0.857755 0.572961 0.368963
0.869261 0.592462 0.396643
0.880400 0.611536 0.425208
0.891173 0.629969 0.453590
0.901305 0.647608 0.481575
0.081422 0.104555 0.103120
0.085939 0.108949 0.107668
0.092073 0.115358 0.113283
0.101808 0.123171 0.116335
0.110964 0.117617 0.110323
0.181186 0.141146 0.095583
0.300481 0.170077 0.071290
0.389471 0.175967 0.046326
0.455390 0.172641 0.013092
0.501549 0.172671 0.003937
0.543511 0.179263 0.000000
0.580743 0.192447 0.000000
0.613275 0.211093 0.000000
0.641962 0.233616 0.013489
0.668116 0.259403 0.044465
0.693416 0.289830 0.070100
0.713161 0.317388 0.092226
0.729763 0.343297 0.113283
0.744656 0.368475 0.134310
0.758907 0.393500 0.156222
0.772793 0.418372 0.178378
0.786160 0.443000 0.202792
0.799069 0.466804 0.228000
0.811643 0.489754 0.253849
0.823789 0.511711 0.280400
0.835630 0.532830 0.307347
0.847349 0.553216 0.334539
0.858824 0.572961 0.362310
0.870085 0.592309 0.390967
0.881102 0.611078 0.419379
0.891722 0.629419 0.448402
0.901823 0.646937 0.476783
0.092348 0.131472 0.113924
0.097780 0.137545 0.119295
0.106477 0.146212 0.127535
0.121920 0.160250 0.137118
0.139590 0.168887 0.137789
0.146639 0.151614 0.125002
0.225528 0.174746 0.103944
0.373419 0.213169 0.055268
0.477577 0.234348 0.000000
0.533501 0.232883 0.000000
0.578027 0.235111 0.000000
0.608240 0.241520 0.000000
0.635279 0.253513 0.000000
0.659297 0.269444 0.000000
0.683619 0.291508 0.000000
0.704494 0.315190 0.013275
0.721675 0.337896 0.068788
0.736965 0.360204 0.095979
0.751095 0.382605 0.120272
0.764736 0.405432 0.144076
0.778012 0.428504 0.168887
0.791135 0.451514 0.193851
0.820157 0.505028 0.255009
0.831052 0.524559 0.281529
0.841459 0.542962 0.307866
0.851652 0.560571 0.333471
0.861479 0.577722 0.359655
0.871336 0.594385 0.385565
0.881041 0.610956 0.411963
0.890562 0.627314 0.438758
0.899718 0.643183 0.465156
0.908385 0.658381 0.490669
0.112062 0.178103 0.132692
0.119295 0.185367 0.139284
0.130343 0.195468 0.149020
0.155520 0.217014 0.169680
0.183078 0.240421 0.180880
0.202548 0.237644 0.171023
0.200168 0.201968 0.147860
0.282383 0.219638 0.120333
0.438453 0.264561 0.054749
0.545617 0.296178 0.000000
0.606683 0.314763 0.000000
0.640681 0.315373 0.000000
0.668025 0.318334 0.000000
0.687404 0.325994 0.000000
0.707881 0.341650 0.000000
0.723995 0.357031 0.000000
0.738491 0.373785 0.000000
0.751766 0.391516 0.074037
0.764736 0.410315 0.106203
0.777646 0.430793 0.136202
0.791104 0.452857 0.165194
0.804532 0.475837 0.196048
0.817807 0.498970 0.227359
0.830289 0.521019 0.259159
0.842039 0.541497 0.289799
0.852720 0.560174 0.318914
0.862943 0.577447 0.346349
0.872679 0.594049 0.373602
0.882292 0.610285 0.400793
0.891539 0.626307 0.428260
0.900633 0.641871 0.455024
0.909148 0.656947 0.481392
0.138430 0.231266 0.156466
0.146731 0.238773 0.163607
0.158389 0.248478 0.173434
0.186984 0.271122 0.196689
0.221530 0.299077 0.216770
0.264012 0.331304 0.234287
0.270634 0.304082 0.204959
0.256931 0.253574 0.173709
0.328435 0.259922 0.142947
0.479011 0.310063 0.080415
0.585565 0.348791 0.000000
0.645808 0.376593 0.000000
0.677760 0.381323 0.000000
0.703792 0.385046 0.000000
0.723781 0.387915 0.000000
0.736904 0.394507 0.000000
0.749142 0.404150 0.000000
0.760922 0.416083 0.000000
0.772549 0.430182 0.068055
0.784390 0.446571 0.109682
0.796811 0.465095 0.143496
0.809445 0.484901 0.175875
0.821866 0.505394 0.208774
0.833707 0.525566 0.241886
0.844968 0.544396 0.273014
0.855283 0.562036 0.303258
0.865141 0.578576 0.331762
0.874662 0.594537 0.359899
0.884031 0.610315 0.388006
0.893187 0.625971 0.416175
0.902037 0.641291 0.444099
0.910430 0.656153 0.471382
0.176150 0.296635 0.188296
0.185275 0.303777 0.195651
0.197665 0.313329 0.205966
0.226627 0.333776 0.229068
0.270603 0.362829 0.261723
0.310277 0.391119 0.280705
0.349310 0.411841 0.292119
0.344335 0.371984 0.246128
0.321263 0.310704 0.204898
0.372900 0.302281 0.171176
0.513939 0.356512 0.114107
0.612696 0.396918 0.000000
0.674739 0.428504 0.000000
0.714015 0.448188 0.000000
0.731899 0.444190 0.000000
0.747860 0.442054 0.000000
0.762600 0.442115 0.000000
0.772763 0.447883 0.000000
0.782864 0.456489 0.000000
0.793606 0.468208 0.064912
0.804807 0.482490 0.114229
0.816434 0.498665 0.152010
0.827848 0.516075 0.188327
0.838987 0.533562 0.222568
0.849485 0.550622 0.255558
0.859312 0.566583 0.286595
0.868650 0.581933 0.316411
0.877806 0.596948 0.345403
0.886809 0.611902 0.374334
0.895598 0.626825 0.403357
0.904143 0.641566 0.432166
0.912261 0.655940 0.460212
0.224521 0.366491 0.227909
0.233555 0.372320 0.235203
0.246189 0.380011 0.245182
0.275212 0.396979 0.268650
0.320165 0.421912 0.305547
0.359625 0.447089 0.329717
0.401678 0.474830 0.352209
0.421759 0.474739 0.343999
0.411658 0.432929 0.292363
0.382513 0.367071 0.240482
0.413794 0.344244 0.203006
0.548516 0.405219 0.153536
0.639857 0.448066 0.076814
0.697017 0.472267 0.000000
0.731472 0.487922 0.000000
0.755215 0.494148 0.000000
0.769528 0.490333 0.000000
0.783200 0.488777 0.000000
0.796048 0.489387 0.000000
0.805112 0.495735 0.000000
0.814847 0.504936 0.066407
0.824765 0.516350 0.120668
0.834775 0.529168 0.160861
0.844541 0.543114 0.198062
0.854093 0.557336 0.232700
0.863279 0.571435 0.265293
0.872282 0.585565 0.296452
0.881132 0.599756 0.327642
0.889891 0.614252 0.358770
0.898589 0.628656 0.389258
0.907012 0.643000 0.419379
0.914916 0.657160 0.449134
0.279484 0.429297 0.272557
0.288090 0.433845 0.279667
0.300328 0.440284 0.289616
0.326116 0.453620 0.311040
0.364904 0.473426 0.343694
0.407080 0.496620 0.377111
0.442390 0.519463 0.398077
0.480507 0.544488 0.422309
0.482246 0.526909 0.393164
0.471290 0.487953 0.340124
0.444923 0.427192 0.286687
0.457588 0.391547 0.242527
0.576806 0.449989 0.198001
0.657252 0.487221 0.141543
0.711025 0.506554 0.014008
0.744747 0.520317 0.000000
0.773312 0.533715 0.000000
0.788296 0.531945 0.000000
0.800473 0.528893 0.000000
0.812772 0.527916 0.000000
0.824887 0.529320 0.000000
0.833799 0.536461 0.064332
0.842771 0.545830 0.126711
0.851774 0.556512 0.170108
0.860533 0.568139 0.208621
0.868925 0.580072 0.244083
0.877226 0.592248 0.277073
0.885527 0.604791 0.308904
0.893858 0.617823 0.340612
0.901946 0.631189 0.372747
0.910002 0.644678 0.403967
0.917601 0.658167 0.434882
0.338170 0.486610 0.321416
0.345800 0.490242 0.327764
0.356420 0.495155 0.336797
0.378027 0.505272 0.355474
0.410529 0.520500 0.383978
0.449866 0.539727 0.420020
0.480262 0.558984 0.441566
0.511009 0.579644 0.463050
0.544244 0.602411 0.487465
0.537713 0.577447 0.446693
0.527947 0.542626 0.395087
0.498756 0.482216 0.334722
0.516991 0.459083 0.304295
0.620508 0.514000 0.268437
0.687434 0.543084 0.224552
0.735653 0.558465 0.165743
0.772152 0.570184 0.110811
0.798154 0.580713 0.093507
0.818418 0.586755 0.080446
0.828641 0.581720 0.086824
0.839139 0.578637 0.089693
0.849851 0.577264 0.093477
0.860044 0.577661 0.103975
0.867002 0.583734 0.156283
0.873930 0.591394 0.199252
0.880888 0.599939 0.236210
0.887816 0.609216 0.270634
0.894835 0.619074 0.302861
0.901915 0.629725 0.334844
0.908995 0.641016 0.366827
0.915953 0.652674 0.398138
0.922667 0.664637 0.429267
0.405005 0.544579 0.379095
0.410925 0.547051 0.384436
0.418891 0.550164 0.391608
0.435676 0.557183 0.407080
0.460121 0.567864 0.430518
0.490028 0.581872 0.459998
0.520867 0.600000 0.488930
0.548608 0.619409 0.511345
0.576837 0.639216 0.535912
0.594293 0.647456 0.543481
0.588067 0.625605 0.503777
0.579583 0.594965 0.453712
0.552758 0.540002 0.392950
0.534356 0.483742 0.334203
0.630518 0.536889 0.306401
0.692561 0.564569 0.271519
0.739651 0.580774 0.224857
0.779446 0.591333 0.158877
0.804440 0.601221 0.149569
0.826871 0.610071 0.141543
0.841001 0.610376 0.140871
0.850950 0.606775 0.144015
0.860960 0.604517 0.145632
0.871061 0.603449 0.147585
0.880461 0.604181 0.157168
0.886717 0.610193 0.201389
0.893004 0.617395 0.240330
0.899474 0.625574 0.276097
0.906065 0.634699 0.310521
0.912840 0.644739 0.344091
0.919463 0.655451 0.377447
0.925841 0.666682 0.410773
0.452399 0.583551 0.423133
0.458015 0.586175 0.428656
0.464637 0.589105 0.435126
0.479042 0.595727 0.449470
0.499672 0.605310 0.470436
0.524956 0.617548 0.497261
0.553368 0.631952 0.528618
0.574212 0.645808 0.546777
0.595972 0.660609 0.566674
0.617945 0.676081 0.587671
0.623255 0.673060 0.578485
0.616602 0.652705 0.539910
0.608179 0.624537 0.490608
0.582727 0.573175 0.429541
0.554742 0.511040 0.366094
0.640406 0.558190 0.342596
0.697566 0.583734 0.312810
0.742763 0.600153 0.274846
0.782101 0.611353 0.223239
0.810697 0.620356 0.195285
0.832853 0.628901 0.190463
0.852689 0.636500 0.187289
0.862028 0.632532 0.190036
0.871519 0.629816 0.191897
0.881041 0.628046 0.193179
0.890593 0.627131 0.194156
0.899168 0.628321 0.205966
0.905058 0.634485 0.246372
0.911162 0.641993 0.284001
0.917388 0.650629 0.320806
0.923583 0.660090 0.356512
0.929686 0.670375 0.391791
0.500237 0.622889 0.471626
0.504112 0.624537 0.475776
0.508843 0.626368 0.480781
0.519432 0.630732 0.492042
0.534600 0.637079 0.508598
0.553582 0.645411 0.529900
0.575677 0.655634 0.555657
0.595361 0.666712 0.576745
0.612512 0.678492 0.592584
0.630915 0.692042 0.609705
0.650141 0.706935 0.627222
0.646571 0.694575 0.606134
0.638483 0.673945 0.570062
0.630152 0.647761 0.521935
0.606683 0.600488 0.462226
0.580133 0.542321 0.398169
0.648890 0.576837 0.375280
0.702144 0.600946 0.350286
0.746181 0.617914 0.319066
0.784970 0.630121 0.277806
0.817258 0.638422 0.234897
0.838865 0.646601 0.232700
0.858122 0.653498 0.230930
0.872221 0.655634 0.231479
0.881224 0.652491 0.233066
0.890318 0.650477 0.235111
0.899626 0.649378 0.236637
0.909087 0.649317 0.239536
0.917266 0.652125 0.257542
0.923186 0.659449 0.298405
0.929015 0.667933 0.337987
0.934630 0.677424 0.377478
0.536034 0.651301 0.510918
0.539361 0.652674 0.514641
0.543206 0.654231 0.518914
0.551385 0.657404 0.528283
0.563622 0.662348 0.542443
0.579248 0.668910 0.560906
0.596948 0.677028 0.582208
0.616114 0.687190 0.605280
0.630396 0.697841 0.618128
0.645747 0.709712 0.631678
0.661982 0.722499 0.645655
0.675624 0.732021 0.655055
0.666804 0.713802 0.628504
0.656794 0.691920 0.594018
0.646632 0.665522 0.547539
0.624720 0.621546 0.489174
0.600824 0.568261 0.426551
0.655695 0.592523 0.404273
0.706691 0.616724 0.384314
0.750454 0.635065 0.359533
0.788876 0.648341 0.326848
0.822751 0.656916 0.283909
0.845731 0.664363 0.274205
0.864622 0.671015 0.274235
0.881407 0.676661 0.275181
0.891234 0.674983 0.277195
0.899992 0.672786 0.279362
0.908904 0.671748 0.282811
0.917967 0.671595 0.286961
0.927062 0.672206 0.291966
0.934142 0.676204 0.316258
0.939147 0.684169 0.357885
0.563439 0.672389 0.542931
0.565789 0.673274 0.545708
0.568750 0.674281 0.549187
0.575494 0.676814 0.557153
0.585321 0.680751 0.568872
0.597803 0.686244 0.583856
0.612421 0.693416 0.601404
0.628687 0.702480 0.620844
0.643153 0.712459 0.635767
0.656397 0.722957 0.647150
0.670802 0.734432 0.659571
0.686091 0.746426 0.672908
0.692073 0.747250 0.671443
0.682887 0.729061 0.644892
0.672236 0.707118 0.612573
0.660792 0.680934 0.569665
0.640070 0.640070 0.514122
0.618738 0.591363 0.453803
0.662348 0.607233 0.431342
0.711635 0.631739 0.415869
0.754665 0.650660 0.395575
0.792355 0.664424 0.369085
0.825681 0.673365 0.334020
0.851774 0.679683 0.308843
0.870146 0.686091 0.311009
0.886503 0.691524 0.313420
0.899718 0.694423 0.316320
0.908171 0.692470 0.320073
0.916777 0.691524 0.324926
0.925444 0.691432 0.330938
0.934020 0.692226 0.338445
0.942412 0.694057 0.349096
0.587335 0.690883 0.571710
0.589624 0.692012 0.574456
0.605585 0.704402 0.593683
0.610529 0.706661 0.599603
0.617975 0.710109 0.608453
0.627497 0.714870 0.619776
0.638758 0.720974 0.633051
0.651637 0.728634 0.648066
0.665919 0.737636 0.664515
0.677241 0.746487 0.674372
0.689662 0.756069 0.685267
0.702754 0.765927 0.696803
0.716182 0.775814 0.708614
0.714382 0.768399 0.695857
0.704280 0.749966 0.668147
0.692805 0.727962 0.636866
0.679927 0.701778 0.597589
0.658473 0.662654 0.546532
0.639582 0.618677 0.488258
0.673152 0.626978 0.465217
0.720912 0.651545 0.453315
0.762722 0.670375 0.436713
0.799344 0.683864 0.415229
0.831479 0.692470 0.386511
0.859800 0.697047 0.348943
0.877012 0.702510 0.351202
0.892393 0.707057 0.353704
0.906188 0.711177 0.356878
0.915740 0.711147 0.361059
0.923827 0.710201 0.367468
0.931945 0.710323 0.375463
0.939879 0.711513 0.386236
0.610773 0.711025 0.599878
0.613947 0.713252 0.603662
0.617609 0.715663 0.608026
0.623255 0.718990 0.614740
0.630579 0.723140 0.623499
0.639277 0.727962 0.633692
0.649226 0.733669 0.645319
0.660731 0.740444 0.658808
0.674067 0.748592 0.674586
0.685908 0.756832 0.686732
0.697047 0.765286 0.696590
0.708888 0.774075 0.707118
0.721004 0.782925 0.717891
0.733333 0.791653 0.728695
0.725338 0.777890 0.706600
0.715297 0.759945 0.679164
0.703944 0.738582 0.648188
0.691066 0.713436 0.612024
0.669734 0.676234 0.565454
0.652094 0.635676 0.510918
0.679133 0.639368 0.487556
0.726223 0.664668 0.479194
0.767483 0.683925 0.466224
0.803311 0.697719 0.449226
0.834714 0.706661 0.426001
0.862516 0.711757 0.395544
0.882536 0.716152 0.383978
0.897520 0.720882 0.388952
0.910948 0.725185 0.394568
0.922362 0.728573 0.402045
0.929992 0.728176 0.410834
0.937499 0.728786 0.422004
0.626551 0.725948 0.618585
0.629175 0.727871 0.621698
0.632227 0.730037 0.625330
0.636957 0.733028 0.630945
0.643275 0.736751 0.638331
0.650721 0.741024 0.647089
0.659663 0.746120 0.657588
0.670100 0.752132 0.669978
0.682124 0.759274 0.684321
0.695033 0.767239 0.699367
0.705043 0.774716 0.708370
0.715755 0.782559 0.717952
0.726772 0.790433 0.727749
0.738064 0.798337 0.737636
0.745144 0.801633 0.740780
0.735988 0.787045 0.717342
0.726192 0.769863 0.690486
0.715297 0.749508 0.660121
0.702449 0.725307 0.626307
0.681849 0.690486 0.584436
0.664546 0.652735 0.534325
0.686275 0.652583 0.510338
0.732570 0.678370 0.504906
0.773007 0.697688 0.494789
0.808011 0.711391 0.481086
0.838621 0.720546 0.462440
0.865751 0.726009 0.437934
0.888212 0.729458 0.415930
0.902678 0.734371 0.423133
0.915496 0.738857 0.431525
0.926757 0.743252 0.442145
0.935027 0.745266 0.454139
0.640650 0.740230 0.635126
0.642847 0.741939 0.637751
0.645502 0.743893 0.640803
0.649622 0.746578 0.645716
0.655177 0.749844 0.652247
0.661921 0.753689 0.660243
0.669978 0.758114 0.669825
0.679377 0.763394 0.681086
0.690303 0.769619 0.694209
0.702571 0.776730 0.708949
0.713069 0.783749 0.719783
0.722713 0.790677 0.728420
0.732753 0.797757 0.737301
0.743130 0.804868 0.746365
0.753658 0.811978 0.755459
0.755245 0.809903 0.750698
0.746761 0.796323 0.728511
0.737819 0.780514 0.703120
0.728237 0.762081 0.674647
0.716487 0.739803 0.643061
0.697261 0.708125 0.606744
0.680568 0.673854 0.563043
0.697688 0.670802 0.539361
0.743435 0.696925 0.536858
0.782864 0.716091 0.530175
0.816861 0.729702 0.520287
0.846494 0.738888 0.506645
0.872496 0.744778 0.488838
0.895476 0.747890 0.466621
0.910063 0.752407 0.471443
0.921630 0.757137 0.483467
0.931365 0.761715 0.497139
0.657832 0.758083 0.655299
0.659327 0.759060 0.657069
0.661006 0.760159 0.659083
0.664149 0.761929 0.662806
0.668757 0.764431 0.668330
0.674678 0.767544 0.675410
0.681941 0.771389 0.684199
0.690578 0.776059 0.694636
0.700740 0.781643 0.706874
0.712154 0.788144 0.720638
0.723995 0.795102 0.734463
0.732906 0.801358 0.742397
0.742031 0.807675 0.750484
0.751431 0.813993 0.758602
0.761013 0.820310 0.766751
0.770626 0.826566 0.774868
0.767330 0.819913 0.763272
0.759152 0.807126 0.742153
0.750729 0.792325 0.717891
0.741634 0.775051 0.690242
0.730251 0.753872 0.659480
0.711635 0.723995 0.625788
0.694881 0.691798 0.586297
0.706813 0.685176 0.562249
0.751217 0.710658 0.561059
0.789548 0.729366 0.556268
0.822782 0.742885 0.548943
0.851591 0.752407 0.539055
0.876768 0.758755 0.526085
0.898863 0.762661 0.510643
0.915007 0.766323 0.507591
0.925414 0.771542 0.522667
0.669825 0.770504 0.669459
0.671138 0.771420 0.671077
0.672816 0.772457 0.673060
0.675685 0.774014 0.676600
0.679866 0.776211 0.681666
0.685206 0.778897 0.688075
0.691768 0.782223 0.696010
0.699611 0.786252 0.705531
0.708797 0.791104 0.716701
0.719234 0.796780 0.729213
0.730770 0.803128 0.742977
0.740261 0.809079 0.752590
0.748623 0.814755 0.759854
0.757321 0.820523 0.767330
0.766201 0.826291 0.774868
0.775113 0.832059 0.782406
0.784115 0.837736 0.789914
0.776974 0.827665 0.772946
0.769467 0.815854 0.753231
0.761776 0.802243 0.730465
0.753536 0.786374 0.704311
0.743069 0.766781 0.675166
0.726131 0.739467 0.643488
0.710140 0.710048 0.608881
0.715114 0.697658 0.581537
0.758572 0.722744 0.581567
0.796201 0.741360 0.578820
0.828641 0.754940 0.574090
0.856718 0.764950 0.567895
0.881071 0.772061 0.560143
0.901793 0.776913 0.551598
0.919158 0.780209 0.543633
0.684535 0.785245 0.687160
0.685817 0.786099 0.688746
0.687251 0.786923 0.690486
0.689723 0.788174 0.693507
0.693324 0.789822 0.697871
0.698024 0.792020 0.703578
0.703792 0.794705 0.710597
0.710780 0.798032 0.719081
0.718898 0.801999 0.728878
0.728115 0.806668 0.739925
0.738369 0.811948 0.751980
0.748867 0.817594 0.763821
0.756252 0.822416 0.770108
0.763851 0.827329 0.776486
0.771572 0.832212 0.782895
0.779446 0.837125 0.789364
0.787442 0.842039 0.795895
0.791714 0.843473 0.796933
0.785000 0.833982 0.780850
0.778164 0.823087 0.762295
0.771237 0.810575 0.741085
0.763912 0.796109 0.716640
0.754116 0.777737 0.688808
0.738308 0.752193 0.658106
0.722774 0.724514 0.625879
0.725917 0.712337 0.602625
0.768338 0.736751 0.603815
0.804807 0.754788 0.602655
0.836332 0.768399 0.600366
0.863279 0.778653 0.597681
0.886046 0.786252 0.594842
0.904906 0.792081 0.593042
0.694728 0.795468 0.699367
0.695949 0.796201 0.700862
0.697261 0.796963 0.702449
0.699550 0.798093 0.705257
0.702876 0.799588 0.709346
0.707240 0.801572 0.714687
0.712673 0.804013 0.721279
0.719203 0.807034 0.729152
0.726894 0.810697 0.738399
0.735622 0.814939 0.748745
0.745266 0.819760 0.760037
0.755764 0.825162 0.772122
0.764157 0.830045 0.780301
0.771206 0.834531 0.786221
0.778408 0.839017 0.792203
0.785702 0.843503 0.798184
0.793118 0.847990 0.804227
0.800626 0.852537 0.810391
0.801297 0.850797 0.806546
0.795254 0.842222 0.791745
0.789181 0.832395 0.774655
0.782864 0.821012 0.754940
0.776272 0.807736 0.731991
0.767300 0.790890 0.705928
0.753048 0.767575 0.676783
0.739071 0.742306 0.646326
0.738949 0.728511 0.624445
0.780453 0.752377 0.627314
0.816037 0.770291 0.628595
0.846281 0.783841 0.629023
0.871519 0.794247 0.630091
0.892149 0.802335 0.632349
0.705653 0.806149 0.712581
0.706752 0.806729 0.713832
0.707759 0.807248 0.715114
0.709743 0.808103 0.717556
0.712703 0.809323 0.721126
0.716609 0.810971 0.725917
0.721553 0.813077 0.731868
0.727565 0.815732 0.739132
0.734707 0.818936 0.747585
0.742824 0.822751 0.757137
0.751888 0.827085 0.767605
0.761746 0.831937 0.778836
0.771633 0.837034 0.789792
0.778164 0.841123 0.795193
0.784726 0.845121 0.800595
0.791409 0.849149 0.806027
0.798184 0.853178 0.811521
0.805051 0.857267 0.817105
0.812070 0.861387 0.822843
0.809598 0.857084 0.814878
0.804257 0.849332 0.801205
0.798795 0.840421 0.785367
0.793210 0.830106 0.767178
0.787411 0.818112 0.745937
0.779232 0.802579 0.721584
0.766659 0.781521 0.694423
0.754513 0.758755 0.665858
0.752285 0.744106 0.644648
0.792386 0.766964 0.648676
0.826627 0.784604 0.652277
0.855192 0.798123 0.655756
0.878294 0.808774 0.660883
0.715267 0.815427 0.724025
0.716060 0.815824 0.725002
0.717067 0.816312 0.726253
0.718959 0.817105 0.728511
0.721920 0.818326 0.732082
0.725887 0.820035 0.736873
0.731044 0.822354 0.743038
0.737270 0.825193 0.750454
0.744625 0.828611 0.759091
0.752926 0.832547 0.768734
0.762020 0.836912 0.779171
0.771756 0.841672 0.790158
0.781949 0.846677 0.801450
0.789761 0.850980 0.809079
0.795926 0.854673 0.814176
0.801999 0.858244 0.819120
0.808072 0.861784 0.824033
0.814206 0.865293 0.828977
0.820432 0.868864 0.834043
0.826413 0.872221 0.838865
0.821866 0.866453 0.828305
0.817288 0.859770 0.816190
0.812589 0.852110 0.802090
0.808011 0.843259 0.785946
0.803403 0.833127 0.767239
0.796628 0.819730 0.745846
0.786404 0.801724 0.721614
0.776791 0.782223 0.695949
0.774105 0.768154 0.676204
0.811154 0.789029 0.681788
0.842496 0.805661 0.688289
0.867582 0.818509 0.695613
0.728847 0.827726 0.740139
0.729549 0.828031 0.740993
0.730373 0.828336 0.741970
0.732021 0.828977 0.743923
0.734646 0.829923 0.747066
0.738155 0.831266 0.751278
0.742672 0.833066 0.756619
0.748196 0.835325 0.763058
0.754696 0.838071 0.770596
0.762020 0.841245 0.779049
0.770108 0.844816 0.788205
0.778836 0.848753 0.797971
0.788022 0.852934 0.808072
0.797147 0.857267 0.817929
