data/fiter_cube/25649002/1023275/file.cube
# Created by Adobe Lightroom plugin Export LUT (1.17.0)
# www.johnrellis.com/lightroom/exportlut.htm
# Preset: 高级电影质感情绪胶片_05 云集
# Color profile: C:\Program Files (x86)\Common Files\Adobe\Color\Profiles\Recommended\AdobeRGB1998.icc
LUT_3D_SIZE 8
DOMAIN_MIN 0.000000 0.000000 0.000000
DOMAIN_MAX 0.903226 0.903226 0.903226
0.068147 0.076265 0.088075
0.125399 0.088838 0.092683
0.364233 0.100526 0.087251
0.581872 0.156069 0.080873
0.705928 0.297154 0.123568
0.773251 0.420447 0.207401
0.824765 0.517205 0.305303
0.870024 0.596216 0.408881
0.081422 0.104555 0.103120
0.110964 0.117617 0.110323
0.455390 0.172641 0.013092
0.613275 0.211093 0.000000
0.713161 0.317388 0.092226
0.772793 0.418372 0.178378
0.823789 0.511711 0.280400
0.870085 0.592309 0.390967
0.176150 0.296635 0.188296
0.270603 0.362829 0.261723
0.321263 0.310704 0.204898
0.674739 0.428504 0.000000
0.762600 0.442115 0.000000
0.804807 0.482490 0.114229
0.849485 0.550622 0.255558
0.886809 0.611902 0.374334
0.405005 0.544579 0.379095
0.460121 0.567864 0.430518
0.576837 0.639216 0.535912
0.552758 0.540002 0.392950
0.739651 0.580774 0.224857
0.841001 0.610376 0.140871
0.880461 0.604181 0.157168
0.906065 0.634699 0.310521
0.563439 0.672389 0.542931
0.585321 0.680751 0.568872
0.643153 0.712459 0.635767
0.692073 0.747250 0.671443
0.640070 0.640070 0.514122
0.754665 0.650660 0.395575
0.870146 0.686091 0.311009
0.916777 0.691524 0.324926
0.640650 0.740230 0.635126
0.655177 0.749844 0.652247
0.690303 0.769619 0.694209
0.732753 0.797757 0.737301
0.746761 0.796323 0.728511
0.697261 0.708125 0.606744
0.782864 0.716091 0.530175
0.895476 0.747890 0.466621
0.694728 0.795468 0.699367
0.702876 0.799588 0.709346
0.726894 0.810697 0.738399
0.764157 0.830045 0.780301
0.793118 0.847990 0.804227
0.789181 0.832395 0.774655
0.753048 0.767575 0.676783
0.816037 0.770291 0.628595
0.737911 0.836088 0.750607
0.743404 0.838041 0.757076
0.762600 0.845548 0.779446
0.794491 0.859220 0.815061
0.816068 0.869230 0.834775
0.838010 0.881529 0.852934
0.829862 0.866026 0.821988
0.813138 0.827848 0.757961
0.070741 0.085176 0.115755
0.141207 0.079652 0.128084
0.303716 0.146426 0.154879
0.549371 0.208469 0.167208
0.681941 0.321386 0.197116
0.749935 0.422400 0.252537
0.807004 0.514122 0.330602
0.857908 0.593256 0.421820
0.079408 0.109865 0.116823
0.130922 0.146792 0.155489
0.403754 0.191287 0.142763
0.588678 0.248356 0.149966
0.695308 0.343328 0.181552
0.755367 0.429236 0.236332
0.808316 0.512169 0.312108
0.857847 0.589044 0.404883
0.176608 0.290929 0.202762
0.279088 0.361242 0.288701
0.343633 0.339452 0.258976
0.667689 0.441840 0.108949
0.742672 0.445960 0.113436
0.786618 0.485176 0.196628
0.831022 0.544549 0.287846
0.874022 0.607050 0.388586
0.396796 0.531914 0.381689
0.455360 0.558526 0.435157
0.571160 0.630396 0.540826
0.539971 0.531182 0.404303
0.724117 0.570611 0.254612
0.821439 0.598199 0.198489
0.863127 0.597650 0.215549
0.894469 0.630884 0.333532
0.561700 0.668360 0.545220
0.581537 0.675746 0.568231
0.637964 0.705196 0.633967
0.686213 0.740902 0.670558
0.632105 0.633173 0.514336
0.748013 0.646876 0.405341
0.862943 0.684840 0.337896
0.910369 0.689418 0.345129
0.635767 0.734340 0.631586
0.646448 0.740230 0.643977
0.681117 0.760281 0.684810
0.726284 0.790951 0.731868
0.744198 0.793973 0.729244
0.695155 0.707118 0.610101
0.780880 0.715785 0.535515
0.892668 0.746731 0.472877
0.688228 0.789242 0.692714
0.694667 0.791928 0.700526
0.719295 0.803983 0.730251
0.759274 0.825498 0.776059
0.790372 0.845457 0.802335
0.787167 0.830716 0.774411
0.748318 0.763272 0.673640
0.811429 0.765682 0.623621
0.733577 0.832853 0.746151
0.739559 0.835294 0.753262
0.759091 0.843137 0.775967
0.791379 0.857206 0.812070
0.818753 0.870970 0.838407
0.839078 0.882170 0.854826
0.829801 0.866087 0.823209
0.811002 0.825986 0.756466
0.024842 0.116396 0.239567
0.131258 0.101900 0.292058
0.443427 0.113832 0.293278
0.436011 0.315190 0.324651
0.631952 0.396887 0.353063
0.718746 0.482307 0.393286
0.784665 0.555413 0.443885
0.842283 0.622095 0.505852
0.125307 0.193881 0.241215
0.163485 0.208377 0.299260
0.406958 0.248264 0.314061
0.493843 0.336736 0.332128
0.648432 0.414282 0.351751
0.724941 0.487343 0.385565
0.787472 0.555322 0.433600
0.844053 0.620996 0.496956
0.172488 0.300145 0.260136
0.250614 0.348852 0.307713
0.404242 0.417426 0.389776
0.636805 0.477333 0.355352
0.705470 0.498360 0.360174
0.757748 0.532372 0.380621
0.808103 0.578882 0.422065
0.856596 0.631067 0.481971
0.378332 0.519860 0.388159
0.441474 0.550744 0.442084
0.571130 0.624109 0.567163
0.564599 0.570489 0.490272
0.731258 0.612238 0.405188
0.803891 0.621057 0.383520
0.842893 0.627924 0.401312
0.878752 0.655512 0.457008
0.546868 0.658289 0.539422
0.571984 0.668330 0.567071
0.632410 0.699580 0.635798
0.693721 0.747677 0.695186
0.641230 0.652277 0.566033
0.754147 0.670558 0.482673
0.857267 0.704067 0.452705
0.900175 0.701076 0.444678
0.629755 0.728756 0.630488
0.641566 0.735286 0.644190
0.676173 0.755276 0.684230
0.723537 0.786282 0.736172
0.749203 0.799191 0.747555
0.695735 0.711696 0.628992
0.782834 0.724788 0.567437
0.888212 0.757595 0.537011
0.685908 0.787350 0.694026
0.692958 0.790524 0.702449
0.716304 0.801663 0.730129
0.755489 0.822110 0.774990
0.789639 0.843900 0.805661
0.791531 0.835233 0.787655
0.751919 0.769345 0.689509
0.818845 0.775631 0.645167
0.729366 0.830655 0.743648
0.734005 0.832242 0.749020
0.753079 0.839719 0.771054
0.786862 0.854765 0.808530
0.818418 0.870115 0.840177
0.840024 0.882506 0.857786
0.832944 0.869200 0.831724
0.813474 0.829862 0.766445
0.000000 0.191318 0.414557
0.142000 0.192050 0.450568
0.468177 0.127382 0.525566
0.631128 0.333806 0.476265
0.583062 0.446326 0.453681
0.648554 0.509300 0.484169
0.734768 0.576837 0.526665
0.807584 0.641260 0.577020
0.197574 0.299596 0.423651
0.220737 0.291051 0.457038
0.472328 0.260472 0.534142
0.618769 0.398077 0.488716
0.568139 0.468391 0.465553
0.660060 0.518517 0.487648
0.740108 0.580041 0.524834
0.810880 0.641840 0.573175
0.267247 0.413916 0.424781
0.322118 0.432746 0.444099
0.453651 0.481941 0.520134
0.569848 0.512474 0.513481
0.621271 0.528862 0.502007
0.701717 0.565606 0.511833
0.769131 0.612543 0.539971
0.828641 0.657435 0.575219
0.363531 0.515312 0.441962
0.408972 0.533715 0.465888
0.520134 0.587121 0.535363
0.587518 0.609857 0.574945
0.711177 0.638239 0.547723
0.757748 0.634882 0.531640
0.803586 0.648890 0.537041
0.851286 0.677333 0.564660
0.520073 0.640558 0.527947
0.543908 0.649744 0.551171
0.608240 0.680049 0.618311
0.681514 0.732906 0.696956
0.651850 0.674006 0.621271
0.765957 0.703639 0.575952
0.841489 0.718959 0.564111
0.880888 0.715541 0.555566
0.618402 0.719936 0.626642
0.632593 0.728756 0.642451
0.665858 0.747555 0.679683
0.717617 0.779812 0.738369
0.765621 0.814939 0.782254
0.703883 0.725765 0.662379
0.793057 0.743587 0.616968
0.884123 0.771695 0.608698
0.676356 0.780209 0.689143
0.684138 0.784176 0.698177
0.708827 0.796811 0.726741
0.747951 0.817685 0.770626
0.790311 0.843198 0.812589
0.802274 0.845579 0.811398
0.756130 0.777310 0.711666
0.826841 0.786343 0.670741
0.725307 0.828519 0.743496
0.730465 0.830655 0.749386
0.746944 0.837278 0.767666
0.776852 0.849973 0.800046
0.816129 0.867948 0.841062
0.840360 0.882292 0.861082
0.838010 0.874235 0.844572
0.816312 0.834714 0.779812
0.199161 0.306676 0.550317
0.254002 0.309850 0.567834
0.439429 0.298741 0.617853
0.640681 0.357916 0.637201
0.708217 0.502129 0.593683
0.672602 0.546899 0.556115
0.661219 0.599695 0.583917
0.761105 0.662928 0.636957
0.295018 0.389685 0.550317
0.312230 0.382116 0.568353
0.451301 0.376867 0.615900
0.639582 0.415229 0.642542
0.699855 0.525170 0.596735
0.666102 0.556207 0.559930
0.670130 0.604700 0.587457
0.765743 0.664668 0.636835
0.381994 0.482338 0.524437
0.415686 0.497536 0.539696
0.482979 0.523369 0.603571
0.627436 0.535546 0.648493
0.672938 0.580346 0.604669
0.638514 0.583185 0.571984
0.697536 0.619715 0.595880
0.780056 0.669184 0.633539
0.428382 0.580316 0.558495
0.454200 0.586603 0.566857
0.527123 0.608240 0.594965
0.608728 0.641871 0.645838
0.631647 0.636194 0.621729
0.682460 0.635554 0.608728
0.745480 0.654871 0.613123
0.809751 0.685054 0.631769
0.498024 0.629236 0.560266
0.518303 0.635767 0.571435
0.575006 0.657862 0.607324
0.640314 0.693568 0.661097
0.660395 0.691279 0.663447
0.763699 0.718959 0.648035
0.803403 0.710323 0.630365
0.846860 0.717891 0.632136
0.585412 0.696407 0.604578
0.597528 0.699916 0.615015
0.631464 0.716884 0.649500
0.682368 0.749691 0.704952
0.743526 0.793820 0.769467
0.707179 0.735256 0.691859
0.808164 0.762600 0.664637
0.877348 0.776944 0.661738
0.658137 0.765713 0.676570
0.664637 0.768795 0.683711
0.687373 0.780423 0.708949
0.725124 0.801236 0.750637
0.773678 0.829557 0.801572
0.813321 0.855985 0.834745
0.757626 0.782986 0.732570
0.836088 0.796811 0.697597
0.711147 0.819028 0.733486
0.715694 0.820829 0.738491
0.731441 0.827329 0.755703
0.761013 0.841337 0.787045
0.798215 0.858579 0.824887
0.836301 0.879026 0.860624
0.844144 0.880156 0.859068
0.816373 0.837156 0.790829
0.357733 0.434241 0.645655
0.384253 0.435767 0.653529
0.477241 0.440986 0.680476
0.626947 0.438849 0.723720
0.714321 0.521233 0.697749
0.763149 0.598657 0.674311
0.743099 0.630671 0.646937
0.749294 0.680293 0.675227
0.396124 0.476753 0.639765
0.409339 0.473426 0.648463
0.484260 0.476509 0.674342
0.619684 0.474739 0.716640
0.709651 0.539757 0.696864
0.757229 0.606744 0.673487
0.738247 0.633570 0.646601
0.744930 0.681453 0.675044
0.472511 0.559533 0.625422
0.487312 0.565820 0.635584
0.519890 0.567803 0.665339
0.612390 0.573693 0.707607
0.703883 0.601648 0.705379
0.743465 0.636805 0.677943
0.725399 0.647333 0.650416
0.733364 0.689204 0.678950
0.503258 0.613367 0.624323
0.516289 0.615961 0.627344
0.558831 0.628016 0.640436
0.614008 0.655482 0.692348
0.702083 0.668025 0.723629
0.723201 0.675257 0.686122
0.702541 0.671321 0.661830
0.753384 0.703731 0.688655
0.533227 0.670863 0.642603
0.545220 0.673304 0.646723
0.580896 0.681086 0.659724
0.626947 0.696071 0.682063
0.681178 0.719722 0.722835
0.682765 0.701869 0.689570
0.733913 0.702052 0.681453
0.796262 0.721981 0.692836
0.578729 0.694026 0.637598
0.588525 0.697475 0.643549
0.615839 0.709010 0.661677
0.654932 0.730037 0.691157
0.706081 0.760922 0.737331
0.719234 0.754696 0.734066
0.812589 0.778286 0.726558
0.849912 0.768948 0.710384
0.638972 0.755459 0.674128
0.645289 0.758480 0.679316
0.663996 0.766354 0.694514
0.699672 0.782742 0.729519
0.746761 0.810422 0.778927
0.802701 0.846891 0.832547
0.765194 0.795682 0.763912
0.853605 0.817136 0.744686
0.695674 0.809201 0.723873
0.699825 0.810819 0.728298
0.714626 0.816983 0.744015
0.741146 0.829282 0.771633
0.777371 0.846616 0.807919
0.822080 0.869596 0.850767
0.855436 0.889860 0.878508
0.819425 0.843229 0.808469
0.473671 0.539696 0.712184
0.486244 0.540612 0.717372
0.529931 0.540612 0.733913
0.613764 0.538750 0.762783
0.720699 0.550835 0.785183
0.775021 0.610590 0.755215
0.812161 0.658381 0.734554
0.809110 0.694514 0.723232
0.489204 0.560327 0.708003
0.497658 0.559503 0.713191
0.535668 0.559594 0.729915
0.612238 0.557702 0.758480
0.717678 0.566033 0.783780
0.772488 0.618494 0.755154
0.808896 0.662348 0.733974
0.806210 0.695705 0.722408
0.537469 0.616205 0.695705
0.546777 0.619684 0.702296
0.557336 0.611475 0.720485
0.613764 0.613275 0.750027
0.712398 0.614099 0.784634
0.768734 0.648280 0.760342
0.802060 0.682033 0.738430
0.801022 0.706691 0.726802
0.556390 0.643763 0.673732
0.562737 0.644556 0.674800
0.586297 0.657343 0.694942
0.617517 0.666621 0.734585
0.693965 0.671626 0.777035
0.763272 0.690333 0.769741
0.790646 0.709346 0.744869
0.790494 0.721248 0.731594
0.574517 0.688869 0.688106
0.580377 0.689601 0.689601
0.599542 0.692805 0.695552
0.628351 0.698360 0.706630
0.672938 0.718624 0.753964
0.753323 0.732235 0.780179
0.772000 0.734676 0.748531
0.770626 0.737758 0.736568
0.597192 0.730373 0.702968
0.602228 0.731685 0.705257
0.618830 0.736538 0.713375
0.645930 0.745296 0.727871
0.683589 0.756039 0.746822
0.736660 0.777798 0.785122
0.741939 0.760861 0.755123
0.784085 0.765011 0.754726
0.629541 0.753201 0.701289
0.634241 0.754818 0.704097
0.649714 0.759823 0.713344
0.676234 0.770565 0.731136
0.713283 0.788144 0.758450
0.760891 0.813748 0.797574
0.775357 0.811154 0.798825
0.854368 0.827573 0.794186
0.678737 0.802853 0.729244
0.682521 0.804227 0.732052
0.695979 0.809506 0.742367
0.717830 0.818143 0.759335
0.751766 0.831052 0.787900
0.797177 0.854520 0.831052
0.846891 0.883330 0.875486
0.825559 0.852995 0.832334
0.568963 0.634913 0.783017
0.574823 0.634546 0.785946
0.596155 0.631739 0.795224
0.641505 0.627192 0.812009
0.716457 0.620203 0.834501
0.794217 0.638056 0.838987
0.831876 0.683223 0.809934
0.858427 0.725917 0.796597
0.573114 0.643336 0.780209
0.578424 0.643000 0.783200
0.598260 0.640620 0.792813
0.641047 0.636316 0.809720
0.713802 0.630030 0.832578
0.792264 0.644831 0.838682
0.830686 0.687709 0.810483
0.857359 0.729000 0.797330
0.599512 0.677699 0.771237
0.599695 0.674952 0.774472
0.604547 0.665614 0.785092
0.640742 0.664210 0.803586
0.706081 0.660212 0.827481
0.786954 0.668544 0.839078
0.827939 0.704952 0.814115
0.854276 0.740444 0.800839
0.605554 0.694911 0.749416
0.609735 0.696834 0.753689
0.624903 0.702571 0.768276
0.641688 0.698848 0.791379
0.694118 0.699947 0.817990
0.778256 0.703883 0.840909
0.824063 0.731197 0.820951
0.849638 0.757992 0.806607
0.616358 0.723110 0.746517
0.619684 0.723140 0.747341
0.629969 0.722164 0.749264
0.647578 0.724453 0.760983
0.682795 0.735775 0.800351
0.757198 0.742855 0.836484
0.818448 0.761166 0.830014
0.843015 0.779202 0.813687
0.629328 0.762051 0.760006
0.632288 0.761959 0.760647
0.642542 0.761807 0.763027
0.660243 0.761685 0.767636
0.685878 0.761837 0.775021
0.732296 0.779843 0.816434
0.813107 0.795956 0.843748
0.834012 0.803616 0.822171
0.649989 0.795346 0.770077
0.652888 0.795865 0.771267
0.662867 0.797757 0.775570
0.680995 0.801724 0.783963
0.707576 0.808377 0.796872
0.742000 0.813993 0.810605
0.792050 0.831205 0.842435
0.817655 0.827756 0.830289
0.679469 0.813779 0.766995
0.682216 0.814359 0.768399
0.692164 0.816709 0.773648
0.710506 0.821592 0.783871
0.737423 0.829435 0.799435
0.773220 0.843320 0.822507
0.815732 0.863005 0.852201
0.840421 0.871305 0.866911
