data/fiter_cube/25649002/1023275/file.cube
# Created by Adobe Lightroom plugin Export LUT (1.17.0)
# www.johnrellis.com/lightroom/exportlut.htm
# Preset: 高级电影质感情绪胶片_05 云集
# Color profile: C:\Program Files (x86)\Common Files\Adobe\Color\Profiles\Recommended\AdobeRGB1998.icc
LUT_3D_SIZE 5
DOMAIN_MIN 0.000000 0.000000 0.000000
DOMAIN_MAX 0.903226 0.903226 0.903226
0.068147 0.076265 0.088075
0.295232 0.100893 0.090333
0.648951 0.219303 0.092439
0.787350 0.447700 0.232181
0.870024 0.596216 0.408881
0.138430 0.231266 0.156466
0.256931 0.253574 0.173709
0.723781 0.387915 0.000000
0.809445 0.484901 0.175875
0.884031 0.610315 0.388006
0.500237 0.622889 0.471626
0.595361 0.666712 0.576745
0.606683 0.600488 0.462226
0.838865 0.646601 0.232700
0.917266 0.652125 0.257542
0.657832 0.758083 0.655299
0.690578 0.776059 0.694636
0.761013 0.820310 0.766751
0.711635 0.723995 0.625788
0.876768 0.758755 0.526085
0.737911 0.836088 0.750607
0.756435 0.843076 0.772335
0.805417 0.863218 0.826078
0.839017 0.880980 0.851316
0.813138 0.827848 0.757961
0.053956 0.104250 0.196841
0.364416 0.080629 0.243168
0.578332 0.324010 0.295659
0.742641 0.481331 0.364294
0.845212 0.610285 0.478035
0.138338 0.240055 0.215366
0.334051 0.348882 0.329686
0.669612 0.436469 0.298589
0.769680 0.517021 0.350286
0.858061 0.620874 0.462745
0.483558 0.607019 0.472541
0.584466 0.653895 0.578790
0.602350 0.606195 0.507408
0.823270 0.660975 0.379278
0.898009 0.669551 0.406470
0.653285 0.752743 0.655634
0.685939 0.770901 0.694148
0.759609 0.817441 0.771695
0.712154 0.727932 0.642023
0.875425 0.764645 0.559594
0.733364 0.833494 0.747555
0.751858 0.840482 0.769009
0.807614 0.864530 0.830320
0.844083 0.884581 0.859892
0.815549 0.831601 0.767758
0.110872 0.246098 0.490455
0.366491 0.231296 0.563134
0.676478 0.431434 0.542901
0.626032 0.540368 0.525444
0.786557 0.653010 0.610346
0.318486 0.422187 0.471443
0.418341 0.458534 0.550042
0.644007 0.528130 0.559808
0.666102 0.569055 0.542931
0.801968 0.661250 0.608453
0.438483 0.579889 0.506737
0.524956 0.615106 0.557336
0.628199 0.655665 0.624994
0.770535 0.678645 0.591241
0.848661 0.698543 0.600641
0.624323 0.727718 0.637140
0.653742 0.743435 0.669306
0.740597 0.797574 0.765927
0.718898 0.743526 0.688045
0.875334 0.781064 0.640711
0.717647 0.823239 0.737575
0.734646 0.830564 0.756527
0.787015 0.853849 0.812070
0.844297 0.884245 0.865568
0.814878 0.834409 0.782925
0.383825 0.456916 0.659907
0.460975 0.463355 0.683833
0.680446 0.481636 0.738796
0.774746 0.613581 0.688960
0.764920 0.679103 0.680995
0.474617 0.557214 0.647181
0.500755 0.553002 0.672389
0.672663 0.561791 0.737453
0.761105 0.637934 0.690211
0.752438 0.685756 0.682521
0.523552 0.643305 0.640375
0.559503 0.650996 0.650629
0.641291 0.682673 0.709407
0.721523 0.690669 0.694789
0.751064 0.709377 0.695216
0.595422 0.710658 0.656245
0.616419 0.717433 0.668574
0.680262 0.750942 0.716701
0.732601 0.768612 0.750118
0.849485 0.780545 0.727657
0.690303 0.805631 0.720027
0.705104 0.812070 0.735744
0.753536 0.834714 0.785641
0.829221 0.873442 0.858152
0.819974 0.844663 0.812955
0.568963 0.634913 0.783017
0.588891 0.632624 0.792172
0.674983 0.624048 0.822660
0.810208 0.646357 0.837278
0.858427 0.725917 0.796597
0.592279 0.668482 0.774411
0.597498 0.659541 0.784817
0.670619 0.654170 0.816831
0.804685 0.668299 0.837339
0.855344 0.737179 0.799924
0.611231 0.704891 0.740932
0.620813 0.706233 0.747555
0.661372 0.716487 0.794949
0.787747 0.725643 0.840330
0.846555 0.768063 0.809903
0.634028 0.772824 0.764706
0.644068 0.772915 0.767117
0.677394 0.773739 0.776516
0.746609 0.792294 0.822110
0.830747 0.809445 0.823941
0.679469 0.813779 0.766995
0.688869 0.815915 0.771878
0.722988 0.825101 0.790982
0.783261 0.847654 0.829313
0.840421 0.871305 0.866911
