data/fiter_cube/72007313/1022718/file.cube
# Created by Adobe Lightroom plugin Export LUT (1.17.0)
# www.johnrellis.com/lightroom/exportlut.htm
# Preset: 高级电影暗青色_07 云集
# Color profile: C:\Program Files (x86)\Common Files\Adobe\Color\Profiles\Recommended\AdobeRGB1998.icc
LUT_3D_SIZE 32
DOMAIN_MIN 0.0 0.0 0.0
DOMAIN_MAX 1.0 1.0 1.0
0.061311 0.070375 0.067231
0.061311 0.070375 0.067231
0.061311 0.070375 0.067231
0.061311 0.070375 0.067231
0.061311 0.070375 0.067231
0.061860 0.070283 0.067231
0.095216 0.067536 0.066407
0.140780 0.056764 0.064820
0.200351 0.000000 0.061555
0.271458 0.000000 0.053834
0.351812 0.000000 0.035340
0.432013 0.000000 0.008087
0.504601 0.000000 0.000000
0.565332 0.000000 0.000000
0.612757 0.000000 0.000000
0.649042 0.000000 0.000000
0.676661 0.000000 0.000000
0.697597 0.000000 0.000000
0.713802 0.000000 0.000000
0.727169 0.000000 0.000000
0.739284 0.000000 0.000000
0.748623 0.000000 0.000000
0.756191 0.000000 0.000000
0.763088 0.000000 0.000000
0.770138 0.000000 0.000000
0.777890 0.000000 0.000000
0.787045 0.000000 0.000000
0.798032 0.000000 0.034455
0.810880 0.000000 0.089723
0.825376 0.000000 0.128450
0.841367 0.000000 0.169223
0.858579 0.145754 0.214664
0.061311 0.070375 0.067231
0.061311 0.070375 0.067231
0.061311 0.070375 0.067231
0.061311 0.070375 0.067231
0.061311 0.070375 0.067231
0.061860 0.070283 0.067231
0.094453 0.068971 0.066316
0.139620 0.060975 0.064637
0.198062 0.012726 0.061341
0.268925 0.000000 0.053468
0.348455 0.000000 0.034943
0.428565 0.000000 0.007782
0.501213 0.000000 0.000000
0.562432 0.000000 0.000000
0.610224 0.000000 0.000000
0.647028 0.000000 0.000000
0.674861 0.000000 0.000000
0.696254 0.000000 0.000000
0.712703 0.000000 0.000000
0.726345 0.000000 0.000000
0.738430 0.000000 0.000000
0.747768 0.000000 0.000000
0.755398 0.000000 0.000000
0.762295 0.000000 0.000000
0.769223 0.000000 0.000000
0.776944 0.000000 0.000000
0.785977 0.000000 0.000000
0.796841 0.000000 0.024201
0.809598 0.000000 0.086336
0.824094 0.000000 0.125643
0.840055 0.000000 0.166293
0.857298 0.140047 0.211185
0.061311 0.070375 0.067231
0.061311 0.070375 0.067231
0.061311 0.070375 0.067231
0.061311 0.070375 0.067231
0.061311 0.070375 0.067231
0.061860 0.070283 0.067231
0.093599 0.071229 0.066163
0.138186 0.065309 0.064393
0.196414 0.028412 0.061006
0.266880 0.000000 0.052674
0.346105 0.000000 0.033783
0.426184 0.000000 0.006409
0.498970 0.000000 0.000000
0.560418 0.000000 0.000000
0.608637 0.000000 0.000000
0.645777 0.000000 0.000000
0.673884 0.000000 0.000000
0.695399 0.000000 0.000000
0.712001 0.000000 0.000000
0.725917 0.000000 0.000000
0.737942 0.000000 0.000000
0.747311 0.000000 0.000000
0.754940 0.000000 0.000000
0.761807 0.000000 0.000000
0.768734 0.000000 0.000000
0.776364 0.000000 0.000000
0.785367 0.000000 0.000000
0.796139 0.000000 0.021180
0.808896 0.000000 0.084993
0.823362 0.000000 0.124605
0.839261 0.000000 0.165316
0.856565 0.141390 0.209628
0.061311 0.070375 0.067231
0.061311 0.070375 0.067231
0.061311 0.070375 0.067231
0.061311 0.070375 0.067231
0.061311 0.070375 0.067231
0.061799 0.070710 0.067201
0.093538 0.075105 0.065827
0.137728 0.073243 0.063661
0.195529 0.058717 0.059968
0.265537 0.000000 0.050263
0.344152 0.000000 0.030060
0.423865 0.000000 0.002350
0.496620 0.000000 0.000000
0.558099 0.000000 0.000000
0.606867 0.000000 0.000000
0.644190 0.000000 0.000000
0.672602 0.000000 0.000000
0.694240 0.000000 0.000000
0.710994 0.000000 0.000000
0.725216 0.000000 0.000000
0.737087 0.000000 0.000000
0.746456 0.000000 0.000000
0.754147 0.000000 0.000000
0.761074 0.000000 0.000000
0.768093 0.000000 0.000000
0.775875 0.000000 0.000000
0.784939 0.000000 0.000000
0.795804 0.000000 0.018189
0.808560 0.000000 0.085176
0.822965 0.000000 0.124025
0.838743 0.000000 0.164553
0.855741 0.152926 0.209842
0.061311 0.070375 0.067231
0.061311 0.070375 0.067231
0.061311 0.070375 0.067231
0.061311 0.070375 0.067231
0.061311 0.070375 0.067231
0.061311 0.070375 0.067231
0.092866 0.081270 0.065248
0.136049 0.085023 0.062501
0.192935 0.079866 0.057954
0.261936 0.051148 0.045869
0.339971 0.000000 0.023590
0.420111 0.000000 0.000000
0.492988 0.000000 0.000000
0.554986 0.000000 0.000000
0.604273 0.000000 0.000000
0.642359 0.000000 0.000000
0.671290 0.000000 0.000000
0.693263 0.000000 0.000000
0.710231 0.000000 0.000000
0.724819 0.000000 0.000000
0.736538 0.000000 0.000000
0.745846 0.000000 0.000000
0.753475 0.000000 0.000000
0.760433 0.000000 0.000000
0.767453 0.000000 0.000000
0.775204 0.000000 0.000000
0.784207 0.000000 0.000000
0.795010 0.000000 0.012818
0.807645 0.000000 0.083131
0.821958 0.000000 0.123049
0.837705 0.000000 0.164218
0.854704 0.166720 0.208652
0.061311 0.070375 0.067231
0.061311 0.070375 0.067231
0.061311 0.070375 0.067231
0.061311 0.070375 0.067231
0.061311 0.070375 0.067231
0.061311 0.070375 0.067231
0.084138 0.084474 0.065217
0.134707 0.100404 0.060517
0.192508 0.104005 0.052064
0.260868 0.094423 0.035981
0.338872 0.059632 0.011353
0.418219 0.000000 0.000000
0.491310 0.000000 0.000000
0.553460 0.000000 0.000000
0.602899 0.000000 0.000000
0.641169 0.000000 0.000000
0.670283 0.000000 0.000000
0.692409 0.000000 0.000000
0.709804 0.000000 0.000000
0.724575 0.000000 0.000000
0.736263 0.000000 0.000000
0.745541 0.000000 0.000000
0.757656 0.000000 0.000000
0.764614 0.000000 0.000000
0.771878 0.000000 0.000000
0.780056 0.000000 0.000000
0.789578 0.000000 0.000000
0.800809 0.000000 0.062745
0.813626 0.000000 0.103151
0.827878 0.000000 0.141390
0.843290 0.137057 0.182254
0.859800 0.222232 0.226688
0.056123 0.086610 0.070405
0.056825 0.085634 0.069734
0.057679 0.084688 0.068666
0.059113 0.082643 0.066133
0.062287 0.077058 0.066590
0.065858 0.077333 0.066499
0.075563 0.084504 0.065492
0.119356 0.109804 0.060029
0.195041 0.132784 0.040284
0.269474 0.135317 0.015198
0.349218 0.122713 0.000000
0.428412 0.090547 0.000000
0.500053 0.000000 0.000000
0.560235 0.000000 0.000000
0.607721 0.000000 0.000000
0.644129 0.000000 0.000000
0.672023 0.000000 0.000000
0.693538 0.000000 0.000000
0.711635 0.000000 0.000000
0.726223 0.000000 0.000000
0.737789 0.000000 0.000000
0.747127 0.000000 0.000000
0.755001 0.000000 0.000000
0.762387 0.000000 0.000000
0.770016 0.000000 0.000000
0.778317 0.000000 0.000000
0.787930 0.000000 0.000000
0.799069 0.000000 0.055970
0.811795 0.000000 0.101015
0.825895 0.018524 0.139681
0.841276 0.163241 0.179812
0.857664 0.238254 0.225071
0.034760 0.117006 0.075776
0.036683 0.115908 0.074159
0.039002 0.114748 0.071809
0.043671 0.112428 0.066804
0.057923 0.107210 0.062928
0.068513 0.098573 0.063935
0.080781 0.103212 0.062867
0.101839 0.112215 0.060548
0.158999 0.139986 0.044800
0.255131 0.170321 0.000000
0.342260 0.174197 0.000000
0.425605 0.164248 0.000000
0.497169 0.142214 0.000000
0.557397 0.109895 0.000000
0.604913 0.051728 0.000000
0.641718 0.000000 0.000000
0.669947 0.000000 0.000000
0.692561 0.000000 0.000000
0.710567 0.000000 0.000000
0.724910 0.000000 0.000000
0.736416 0.000000 0.000000
0.745754 0.000000 0.000000
0.753628 0.000000 0.000000
0.760952 0.000000 0.000000
0.768521 0.000000 0.000000
0.776761 0.000000 0.000000
0.786160 0.000000 0.000000
0.797208 0.000000 0.044984
0.809873 0.000000 0.097414
0.823880 0.115328 0.137728
0.839170 0.192599 0.178500
0.855558 0.257389 0.223575
0.000000 0.156222 0.081544
0.000000 0.155123 0.079194
0.000000 0.153841 0.075776
0.005676 0.151400 0.068605
0.028382 0.147555 0.061036
0.068879 0.137911 0.067475
0.087037 0.127993 0.073854
0.104097 0.138277 0.059358
0.137453 0.149569 0.043397
0.207095 0.178164 0.009033
0.315984 0.212467 0.000000
0.415381 0.222904 0.000000
0.493568 0.216495 0.000000
0.555383 0.201541 0.000000
0.602777 0.181582 0.000000
0.639582 0.156374 0.000000
0.668818 0.123476 0.000000
0.691798 0.077028 0.000000
0.709377 0.000000 0.000000
0.723568 0.000000 0.000000
0.735073 0.000000 0.000000
0.744350 0.000000 0.000000
0.752255 0.000000 0.000000
0.759548 0.000000 0.000000
0.767086 0.000000 0.000000
0.775235 0.000000 0.000000
0.784543 0.000000 0.000000
0.795468 0.000000 0.034119
0.808042 0.093263 0.095491
0.821958 0.164614 0.136355
0.837125 0.223819 0.178195
0.853361 0.280156 0.223850
0.000000 0.203525 0.087343
0.000000 0.202609 0.084657
0.000000 0.201205 0.080354
0.000000 0.198581 0.071778
0.000000 0.194766 0.073060
0.063203 0.186465 0.075929
0.095552 0.174197 0.085878
0.115389 0.169039 0.087312
0.139773 0.181888 0.066682
0.181674 0.195377 0.018585
0.261479 0.222660 0.000000
0.377600 0.258640 0.000000
0.480598 0.278111 0.000000
0.547784 0.272526 0.000000
0.600153 0.261265 0.000000
0.638880 0.244144 0.000000
0.668513 0.222751 0.000000
0.690944 0.196658 0.000000
0.708278 0.166506 0.000000
0.722286 0.129274 0.000000
0.733669 0.076997 0.000000
0.742702 0.000000 0.000000
0.750515 0.000000 0.000000
0.757778 0.000000 0.000000
0.765194 0.000000 0.000000
0.773220 0.000000 0.000000
0.782437 0.046906 0.000000
0.793362 0.111299 0.016052
0.805936 0.160067 0.092592
0.819883 0.207980 0.136202
0.835203 0.256046 0.178653
0.851530 0.305913 0.225345
0.000000 0.256718 0.093111
0.000000 0.255955 0.089509
0.000000 0.254551 0.086702
0.000000 0.251743 0.085298
0.000000 0.248020 0.086793
0.030060 0.243015 0.087831
0.097108 0.231418 0.098939
0.131746 0.216892 0.112276
0.152865 0.219150 0.104433
0.184848 0.234043 0.076539
0.235050 0.248905 0.010224
0.321447 0.274937 0.000000
0.436622 0.308721 0.000000
0.534905 0.331853 0.000000
0.593683 0.328954 0.000000
0.636164 0.317327 0.000000
0.666499 0.298619 0.000000
0.688624 0.275120 0.000000
0.705867 0.249119 0.000000
0.720058 0.221256 0.000000
0.731441 0.193149 0.000000
0.740658 0.171481 0.000000
0.748592 0.153658 0.000000
0.755947 0.141451 0.000000
0.763363 0.136812 0.000000
0.771450 0.141207 0.000000
0.780575 0.155917 0.000000
0.791348 0.179690 0.000336
0.803769 0.210544 0.090455
0.817685 0.246250 0.134585
0.832822 0.287327 0.179416
0.849149 0.331090 0.226047
0.000000 0.316350 0.105684
0.000000 0.315526 0.104738
0.000000 0.314214 0.104097
0.000000 0.311711 0.103517
0.000000 0.308629 0.104677
0.000000 0.304662 0.111452
0.091188 0.295842 0.115785
0.141268 0.282414 0.130129
0.177371 0.266148 0.146548
0.200259 0.277623 0.125887
0.238804 0.293339 0.091524
0.298253 0.310430 0.010193
0.407904 0.352941 0.000000
0.516106 0.383856 0.000000
0.594873 0.396460 0.000000
0.641535 0.391943 0.000000
0.671473 0.373663 0.000000
0.693721 0.351446 0.000000
0.709468 0.324681 0.000000
0.722347 0.298070 0.000000
0.732601 0.276005 0.000000
0.741176 0.256291 0.000000
0.748775 0.239689 0.000000
0.756069 0.227909 0.000000
0.763577 0.221592 0.000000
0.771786 0.221958 0.000000
0.781155 0.229282 0.000000
0.792020 0.244297 0.020478
0.804379 0.266484 0.099245
0.818082 0.294957 0.144625
0.833036 0.327855 0.187900
0.849149 0.365576 0.235599
0.000000 0.385077 0.129580
0.000000 0.384436 0.129152
0.000000 0.382940 0.128603
0.000000 0.380255 0.128267
0.000000 0.376593 0.129793
0.000000 0.372442 0.136416
0.082734 0.366552 0.140810
0.149264 0.354131 0.154055
0.197848 0.339818 0.171084
0.234989 0.330205 0.185977
0.265110 0.349432 0.157961
0.313664 0.368719 0.120211
0.379492 0.386511 0.056703
0.465980 0.408881 0.000000
0.557977 0.433600 0.000000
0.622431 0.439460 0.000000
0.662959 0.430152 0.000000
0.686519 0.408698 0.000000
0.704738 0.385107 0.000000
0.718593 0.360784 0.000000
0.729152 0.338079 0.000000
0.738003 0.317540 0.000000
0.745815 0.299901 0.000000
0.753262 0.285985 0.000000
0.760800 0.277256 0.000000
0.769039 0.273838 0.000000
0.778317 0.277379 0.000000
0.789090 0.287846 0.000000
0.801419 0.304601 0.095155
0.815122 0.327855 0.142519
0.830076 0.356817 0.188174
0.846220 0.390265 0.236820
0.000000 0.441382 0.154665
0.000000 0.440681 0.154238
0.000000 0.439643 0.153994
0.000000 0.437537 0.154482
0.000000 0.435065 0.157046
0.000000 0.432136 0.163729
0.090272 0.429053 0.177462
0.155612 0.421546 0.182681
0.215213 0.410163 0.199741
0.263951 0.396979 0.219730
0.297002 0.395300 0.222965
0.330510 0.412634 0.192050
0.379492 0.428931 0.152438
0.441413 0.442756 0.093690
0.515892 0.458778 0.000000
0.590417 0.475593 0.000000
0.642603 0.475288 0.000000
0.677790 0.462257 0.000000
0.697475 0.440620 0.000000
0.713008 0.417578 0.000000
0.725429 0.393988 0.000000
0.734585 0.372747 0.000000
0.742641 0.353887 0.000000
0.750301 0.338659 0.000000
0.757992 0.327733 0.000000
0.766293 0.321996 0.000000
0.775631 0.322210 0.000000
0.786404 0.328985 0.000000
0.798734 0.342046 0.092317
0.812406 0.361883 0.143343
0.827390 0.386481 0.189822
0.843565 0.416175 0.239689
0.000000 0.497780 0.186252
0.000000 0.497261 0.186313
0.000000 0.496407 0.186435
0.000000 0.494697 0.187564
0.000000 0.491768 0.190372
0.000000 0.488594 0.196719
0.088075 0.484901 0.208835
0.167636 0.480110 0.216159
0.230961 0.470436 0.230838
0.285527 0.459022 0.249699
0.330083 0.446326 0.271275
0.357977 0.451972 0.261295
0.391852 0.466468 0.228855
0.437934 0.479133 0.188418
0.493202 0.489204 0.133486
0.555322 0.499428 0.043061
0.615076 0.509026 0.000000
0.657984 0.504479 0.000000
0.687800 0.489448 0.000000
0.706355 0.468360 0.000000
0.719509 0.446174 0.000000
0.730404 0.423835 0.000000
0.739284 0.403326 0.000000
0.747127 0.386816 0.000000
0.755001 0.374182 0.000000
0.763455 0.366674 0.000000
0.772946 0.364721 0.000000
0.783902 0.369360 0.000000
0.796475 0.379919 0.092744
0.810452 0.396582 0.146304
0.825650 0.418769 0.196109
0.842100 0.445319 0.247837
0.000000 0.543542 0.219638
0.000000 0.543267 0.220188
0.000000 0.542779 0.220859
0.000000 0.541344 0.222538
0.000000 0.539147 0.226047
0.000000 0.536309 0.232914
0.101869 0.533043 0.244450
0.200412 0.529351 0.262913
0.251560 0.522545 0.267521
0.307836 0.512871 0.284611
0.354986 0.501884 0.303868
0.392889 0.489662 0.325292
0.414405 0.499336 0.300999
0.445380 0.509667 0.267338
0.485817 0.518151 0.225650
0.533165 0.524712 0.173465
0.584741 0.531090 0.113771
0.633417 0.535515 0.000000
0.670008 0.529076 0.000000
0.696254 0.513329 0.000000
0.713649 0.492348 0.000000
0.725124 0.471321 0.000000
0.735012 0.450904 0.000000
0.744137 0.432227 0.000000
0.752255 0.418708 0.000000
0.760891 0.409705 0.000000
0.770565 0.406043 0.000000
0.781704 0.408362 0.000000
0.794339 0.416358 0.095491
0.808316 0.429908 0.151186
0.823484 0.448280 0.201358
0.839780 0.471260 0.253574
0.000000 0.578820 0.252720
0.000000 0.578576 0.253574
0.000000 0.577874 0.254032
0.000000 0.576593 0.256046
0.000000 0.574640 0.260075
0.000000 0.572045 0.266972
0.122591 0.568872 0.277928
0.214572 0.564843 0.294408
0.272526 0.560296 0.303319
0.325475 0.552361 0.317174
0.373358 0.543145 0.334508
0.413336 0.533043 0.353491
0.442115 0.526055 0.365881
0.461250 0.534997 0.338170
0.488930 0.542626 0.304936
0.523827 0.548669 0.264591
0.564477 0.553216 0.215000
0.608118 0.557000 0.162448
0.648127 0.557733 0.095125
0.679835 0.550195 0.000000
0.702937 0.534264 0.000000
0.719356 0.512932 0.000000
0.729580 0.493385 0.000000
0.739071 0.475257 0.000000
0.748531 0.459510 0.000000
0.757839 0.448493 0.000000
0.767636 0.443091 0.000000
0.778927 0.443397 0.000000
0.791684 0.449317 0.096590
0.805783 0.460243 0.154299
0.820981 0.476326 0.207279
0.837491 0.496590 0.260472
0.000000 0.607385 0.285801
0.000000 0.607172 0.286931
0.000000 0.615686 0.300511
0.000000 0.614435 0.303014
0.000000 0.612390 0.307652
0.062409 0.609583 0.314641
0.176425 0.605951 0.325200
0.253544 0.601465 0.340185
0.323308 0.596277 0.360998
0.360693 0.590600 0.364233
0.404547 0.582849 0.378912
0.442267 0.574456 0.394995
0.473030 0.565332 0.411994
0.492012 0.563073 0.411383
0.508019 0.569238 0.384314
0.530846 0.574273 0.352026
0.559899 0.578271 0.312779
0.593988 0.581109 0.265782
0.630396 0.582544 0.217838
0.662470 0.579828 0.170596
0.689265 0.571038 0.069368
0.709255 0.554589 0.000000
0.724361 0.533654 0.000000
0.734524 0.515526 0.000000
0.743984 0.499916 0.000000
0.754086 0.487312 0.000000
0.765103 0.478676 0.000000
0.776303 0.476844 0.000000
0.789029 0.480385 0.098695
0.803098 0.489174 0.159213
0.818387 0.502708 0.212863
0.834897 0.520378 0.266361
0.000000 0.631800 0.320806
0.000000 0.632441 0.323217
0.000000 0.632929 0.326146
0.000000 0.632654 0.330419
0.000000 0.631464 0.336309
0.121492 0.629175 0.344121
0.205447 0.625788 0.354528
0.274632 0.621546 0.368536
0.338842 0.616663 0.387121
0.381109 0.612116 0.396033
0.420325 0.605768 0.407874
0.455940 0.598749 0.421912
0.485969 0.591333 0.436622
0.510063 0.583490 0.452003
0.522637 0.584894 0.441444
0.536736 0.589593 0.415564
0.556512 0.593469 0.385046
0.581781 0.596460 0.348455
0.611780 0.598627 0.305058
0.643977 0.599237 0.259648
0.670863 0.595026 0.221866
0.694728 0.586267 0.151614
0.712978 0.570550 0.000000
0.727443 0.551598 0.000000
0.738643 0.534783 0.000000
0.748775 0.522240 0.000000
0.760098 0.513176 0.000000
0.773251 0.508232 0.000000
0.786374 0.509850 0.101839
0.800504 0.516625 0.164034
0.815854 0.528069 0.218692
0.832395 0.543725 0.273472
0.000000 0.648707 0.349493
0.000000 0.649134 0.351965
0.000000 0.649348 0.354772
0.000000 0.648890 0.359075
0.087404 0.647547 0.364965
0.172274 0.645258 0.372869
0.237400 0.642023 0.382940
0.298772 0.637903 0.396216
0.357214 0.633204 0.413092
0.412055 0.628107 0.433967
0.438239 0.623865 0.436866
0.470619 0.618128 0.449073
0.498482 0.611994 0.461738
0.521904 0.605676 0.475166
0.540551 0.599145 0.488808
0.548608 0.602960 0.470253
0.560845 0.606653 0.446326
0.577996 0.609705 0.418463
0.600061 0.612024 0.384436
0.626551 0.613764 0.344579
0.655085 0.613886 0.301427
0.677516 0.608637 0.271336
0.698695 0.599878 0.212284
0.715969 0.585290 0.124514
0.730312 0.568841 0.000000
0.743313 0.553765 0.000000
0.754452 0.544732 0.000000
0.767453 0.539422 0.074464
0.782315 0.538445 0.121065
0.797665 0.542504 0.169375
0.813046 0.552117 0.225223
0.829618 0.565881 0.280980
0.000000 0.662379 0.377142
0.000000 0.662562 0.379370
0.000000 0.662623 0.382330
0.093660 0.661982 0.386511
0.159731 0.660548 0.392554
0.216983 0.658228 0.400214
0.271427 0.655055 0.409949
0.324895 0.651179 0.422370
0.377447 0.646632 0.437995
0.427283 0.641688 0.456733
0.458198 0.637842 0.465492
0.485542 0.633173 0.475044
0.510704 0.628138 0.486000
0.532464 0.622950 0.497353
0.550866 0.617670 0.509117
0.563684 0.614435 0.514977
0.570825 0.618036 0.497841
0.581781 0.621241 0.477180
0.596918 0.624048 0.452949
0.616266 0.626215 0.423651
0.639429 0.627802 0.388495
0.664790 0.627985 0.349767
0.683162 0.621942 0.325383
0.702083 0.613581 0.273869
0.719173 0.600824 0.202243
0.734157 0.588037 0.155550
0.750240 0.576013 0.104128
0.763394 0.571252 0.138918
0.778439 0.570520 0.172030
0.795163 0.573327 0.204715
0.812863 0.580041 0.243198
0.829557 0.592248 0.298558
0.115846 0.674800 0.408637
0.131441 0.674647 0.410285
0.149447 0.674311 0.412329
0.181582 0.673304 0.415839
0.220829 0.671595 0.421332
0.264286 0.669184 0.428779
0.310155 0.666072 0.438178
0.357000 0.662287 0.450050
0.403845 0.658015 0.464759
0.448280 0.653407 0.481849
0.488319 0.648920 0.500908
0.505241 0.646021 0.503532
0.526909 0.641962 0.512840
0.546136 0.637781 0.522423
0.562768 0.633509 0.532250
0.576776 0.629236 0.542290
0.584833 0.628534 0.541070
0.590875 0.631403 0.526024
0.600061 0.633967 0.508110
0.612726 0.636103 0.486305
0.628931 0.637751 0.460182
0.648859 0.638758 0.427863
0.671199 0.638666 0.391211
0.686213 0.632013 0.370123
0.703944 0.624628 0.323125
0.721340 0.614191 0.260441
0.737362 0.605127 0.229099
0.756130 0.597223 0.190982
0.772122 0.595483 0.208225
0.788754 0.598077 0.238926
0.806912 0.603937 0.272282
0.826444 0.613214 0.310246
0.194400 0.682826 0.433570
0.203891 0.682643 0.435126
0.215824 0.682277 0.437140
0.238956 0.681209 0.440894
0.269688 0.679500 0.446204
0.305180 0.677119 0.453285
0.344671 0.674037 0.462409
0.385168 0.670436 0.473335
0.426123 0.666377 0.486793
0.465614 0.662074 0.502220
0.501366 0.657862 0.519371
0.522057 0.654994 0.526940
0.540002 0.651759 0.534234
0.556878 0.648341 0.542412
0.571923 0.644923 0.550805
0.584955 0.641444 0.559442
0.595941 0.638025 0.568078
0.600946 0.639124 0.562005
0.606348 0.641535 0.549218
0.614221 0.643702 0.533989
0.624964 0.645472 0.515312
0.638788 0.646815 0.492622
0.655756 0.647669 0.464698
0.675715 0.647639 0.430945
0.688197 0.640497 0.409094
0.705440 0.634607 0.366308
0.723201 0.627344 0.318822
0.740963 0.622217 0.294163
0.762325 0.618647 0.263951
0.781704 0.619532 0.269749
0.799924 0.625269 0.302129
0.819608 0.634272 0.338964
0.263706 0.689418 0.461158
0.271366 0.689143 0.462867
0.280247 0.688716 0.464668
0.297795 0.687617 0.468055
0.321782 0.685878 0.472999
0.350958 0.683497 0.479683
0.383581 0.680537 0.487984
0.417975 0.677058 0.498146
0.452705 0.673213 0.510094
0.485878 0.669215 0.523613
0.516777 0.665248 0.538384
0.543114 0.661677 0.552850
0.554040 0.659571 0.554894
0.568139 0.656733 0.561364
0.580896 0.653834 0.568017
0.592279 0.650904 0.574792
0.602228 0.648005 0.581720
0.610651 0.645197 0.588739
0.613550 0.647333 0.579370
0.618372 0.649348 0.568566
0.625238 0.651179 0.555535
0.634394 0.652705 0.539574
0.646174 0.653834 0.519615
0.660945 0.654475 0.494545
0.678767 0.654566 0.462989
0.690364 0.649012 0.446387
0.707515 0.645197 0.409766
0.725917 0.641779 0.377203
0.746090 0.640894 0.358160
0.769986 0.641627 0.335180
0.793149 0.645228 0.333104
0.812955 0.653956 0.368078
0.313451 0.693538 0.482918
0.319310 0.693294 0.484413
0.326909 0.692805 0.486183
0.341070 0.691768 0.489479
0.362036 0.690028 0.494362
0.386847 0.687770 0.500755
0.414984 0.684993 0.508751
0.444800 0.681758 0.518364
0.475013 0.678279 0.529534
0.504082 0.674678 0.542016
0.531090 0.671107 0.555261
0.555322 0.667811 0.568933
0.568261 0.665797 0.574212
0.579797 0.663569 0.579309
0.590753 0.661219 0.584924
0.600732 0.658900 0.590631
0.609644 0.656550 0.596460
0.617456 0.654322 0.602441
0.622889 0.653223 0.605005
0.625605 0.655055 0.597436
0.629755 0.656764 0.588312
0.635554 0.658320 0.577325
0.643244 0.659663 0.563836
0.653193 0.660731 0.546777
0.665888 0.661433 0.525200
0.681666 0.661707 0.497292
0.693050 0.657832 0.482002
0.710964 0.656764 0.451331
0.730678 0.658106 0.434424
0.753719 0.661952 0.421698
0.780087 0.667048 0.406622
0.807431 0.673671 0.399969
0.360876 0.697047 0.505089
0.365850 0.696742 0.506493
0.371679 0.696284 0.507927
0.383734 0.695186 0.511009
0.400427 0.693599 0.515435
0.421302 0.691463 0.521294
0.445136 0.688869 0.528740
0.470192 0.685939 0.537560
0.496315 0.682734 0.547875
0.521324 0.679500 0.559014
0.544640 0.676356 0.570733
0.565881 0.673396 0.582666
0.583185 0.670893 0.593103
0.590509 0.669490 0.594965
0.599817 0.667506 0.599603
0.608453 0.665553 0.604364
0.616266 0.663630 0.609125
0.623255 0.661707 0.614069
0.629389 0.659907 0.619135
0.632898 0.659998 0.618585
0.635401 0.661646 0.612146
0.639124 0.663233 0.604517
0.644221 0.664698 0.595239
0.650965 0.666072 0.583734
0.659693 0.667231 0.569177
0.670863 0.668147 0.550561
0.684993 0.668818 0.526574
0.696925 0.666926 0.512261
0.715755 0.669062 0.490211
0.737514 0.675135 0.483955
0.763119 0.683040 0.476417
0.791897 0.692195 0.468696
0.401587 0.700343 0.525536
0.405554 0.700038 0.526757
0.410681 0.699580 0.528222
0.420691 0.698573 0.531090
0.435157 0.697078 0.535485
0.453193 0.695186 0.541344
0.474403 0.692836 0.548852
0.496712 0.690272 0.557610
0.519432 0.687556 0.567498
0.541436 0.684810 0.578058
0.561761 0.682216 0.588739
0.579980 0.679866 0.599237
0.596002 0.677760 0.609339
0.604211 0.676539 0.612909
0.611719 0.675074 0.616541
0.618921 0.673487 0.620386
0.625544 0.671870 0.624231
0.631586 0.670283 0.628168
0.636957 0.668757 0.632197
0.641657 0.667292 0.636255
0.643885 0.668299 0.633600
0.646357 0.669978 0.628534
0.649836 0.671626 0.622339
0.654475 0.673274 0.614771
0.660609 0.674861 0.605402
0.668452 0.676356 0.593683
0.678523 0.677790 0.578698
0.691310 0.679072 0.559075
0.704494 0.679957 0.546502
0.724849 0.686610 0.537133
0.750118 0.697414 0.534539
0.778958 0.709834 0.532341
0.447547 0.705135 0.550958
0.450568 0.704829 0.552026
0.454261 0.704433 0.553216
0.462013 0.703548 0.555657
0.473762 0.702144 0.559594
0.488258 0.700343 0.564721
0.504845 0.698299 0.570977
0.522759 0.696010 0.578363
0.541009 0.693568 0.586481
0.558770 0.691218 0.595056
0.575280 0.688930 0.603632
0.590417 0.686854 0.612116
0.603906 0.685023 0.620264
0.614466 0.683589 0.626612
