data/fiter_cube/72007313/1022718/file.cube
# Created by Adobe Lightroom plugin Export LUT (1.17.0)
# www.johnrellis.com/lightroom/exportlut.htm
# Preset: 高级电影暗青色_07 云集
# Color profile: C:\Program Files (x86)\Common Files\Adobe\Color\Profiles\Recommended\AdobeRGB1998.icc
LUT_3D_SIZE 8
DOMAIN_MIN 0.000000 0.000000 0.000000
DOMAIN_MAX 0.903226 0.903226 0.903226
0.061311 0.070375 0.067231
0.061311 0.070375 0.067231
0.200351 0.000000 0.061555
0.504601 0.000000 0.000000
0.676661 0.000000 0.000000
0.739284 0.000000 0.000000
0.770138 0.000000 0.000000
0.810880 0.000000 0.089723
0.061311 0.070375 0.067231
0.061311 0.070375 0.067231
0.192935 0.079866 0.057954
0.492988 0.000000 0.000000
0.671290 0.000000 0.000000
0.736538 0.000000 0.000000
0.767453 0.000000 0.000000
0.807645 0.000000 0.083131
0.000000 0.156222 0.081544
0.028382 0.147555 0.061036
0.137453 0.149569 0.043397
0.493568 0.216495 0.000000
0.668818 0.123476 0.000000
0.735073 0.000000 0.000000
0.767086 0.000000 0.000000
0.808042 0.093263 0.095491
0.000000 0.385077 0.129580
0.000000 0.376593 0.129793
0.197848 0.339818 0.171084
0.379492 0.386511 0.056703
0.662959 0.430152 0.000000
0.729152 0.338079 0.000000
0.760800 0.277256 0.000000
0.801419 0.304601 0.095155
0.000000 0.578820 0.252720
0.000000 0.574640 0.260075
0.272526 0.560296 0.303319
0.442115 0.526055 0.365881
0.564477 0.553216 0.215000
0.702937 0.534264 0.000000
0.748531 0.459510 0.000000
0.791684 0.449317 0.096590
0.000000 0.662379 0.377142
0.159731 0.660548 0.392554
0.377447 0.646632 0.437995
0.510704 0.628138 0.486000
0.570825 0.618036 0.497841
0.639429 0.627802 0.388495
0.719173 0.600824 0.202243
0.778439 0.570520 0.172030
0.313451 0.693538 0.482918
0.362036 0.690028 0.494362
0.475013 0.678279 0.529534
0.568261 0.665797 0.574212
0.609644 0.656550 0.596460
0.629755 0.656764 0.588312
0.665888 0.661433 0.525200
0.730678 0.658106 0.434424
0.479194 0.711330 0.571313
0.501183 0.708614 0.579065
0.557733 0.701289 0.602655
0.611322 0.694453 0.630945
0.635340 0.687678 0.640772
0.654475 0.683040 0.652583
0.668330 0.690120 0.642847
0.699031 0.700587 0.612146
0.061311 0.070375 0.067231
0.061311 0.070375 0.067231
0.179202 0.017609 0.063081
0.488869 0.000000 0.000000
0.669734 0.000000 0.000000
0.735409 0.000000 0.000000
0.766720 0.000000 0.000000
0.806302 0.000000 0.077760
0.061311 0.070375 0.067231
0.061311 0.070375 0.067231
0.174868 0.069886 0.061036
0.482216 0.000000 0.000000
0.667384 0.000000 0.000000
0.733791 0.000000 0.000000
0.764767 0.000000 0.000000
0.803250 0.000000 0.069062
0.000000 0.161624 0.105837
0.018158 0.157504 0.090730
0.143862 0.155398 0.078798
0.472267 0.191165 0.000000
0.664179 0.162387 0.000000
0.731411 0.000000 0.000000
0.763149 0.000000 0.000000
0.802762 0.048890 0.078279
0.000000 0.381140 0.165988
0.000000 0.375555 0.165499
0.207523 0.352422 0.198947
0.367742 0.373632 0.128939
0.646540 0.413428 0.000000
0.723873 0.337713 0.000000
0.756893 0.271733 0.000000
0.796689 0.291386 0.072847
0.000000 0.576928 0.281254
0.000000 0.572381 0.284733
0.279271 0.557916 0.327123
0.441840 0.519646 0.381353
0.554498 0.544610 0.249332
0.697810 0.533227 0.000000
0.746609 0.457465 0.000000
0.788998 0.443580 0.080262
0.000000 0.659937 0.388373
0.128084 0.656764 0.397406
0.359625 0.643763 0.436439
0.506767 0.625940 0.487984
0.570428 0.615320 0.506981
0.636683 0.626368 0.411505
0.715572 0.602411 0.251377
0.776883 0.567285 0.162295
0.292271 0.692927 0.482185
0.339330 0.689265 0.490974
0.460212 0.677729 0.524773
0.567315 0.664485 0.575860
0.608576 0.655970 0.596765
0.629084 0.655543 0.591058
0.663935 0.659968 0.530785
0.729366 0.654841 0.424048
0.466896 0.711055 0.568078
0.491005 0.708431 0.576318
0.551415 0.700893 0.600397
0.608270 0.693812 0.629511
0.636561 0.689387 0.643214
0.655024 0.684016 0.653773
0.668055 0.689601 0.644251
0.697566 0.699306 0.614282
0.036011 0.068910 0.129183
0.070253 0.065461 0.130129
0.151461 0.013489 0.122438
0.449744 0.000000 0.109255
0.660761 0.000000 0.044648
0.734920 0.000000 0.000000
0.767788 0.000000 0.000000
0.808988 0.000000 0.086732
0.006775 0.081056 0.132174
0.029358 0.070527 0.140230
0.154849 0.071534 0.135042
0.444892 0.000000 0.120333
0.655421 0.000000 0.071595
0.732662 0.000000 0.000000
0.766140 0.000000 0.000000
0.806943 0.000000 0.083680
0.000000 0.160372 0.184054
0.000000 0.163149 0.182650
0.193912 0.209354 0.208652
0.449470 0.180301 0.162509
0.651423 0.163149 0.110719
0.727993 0.122225 0.000000
0.763516 0.000000 0.000000
0.804013 0.105226 0.083314
0.000000 0.408972 0.293919
0.000000 0.406134 0.283268
0.200626 0.404028 0.282231
0.398901 0.401984 0.275303
0.638361 0.422766 0.162783
0.716579 0.374609 0.083070
0.757321 0.297154 0.000000
0.798978 0.304387 0.085115
0.000000 0.583948 0.363073
0.000000 0.580926 0.363806
0.251194 0.569512 0.382635
0.468666 0.544884 0.437842
0.560632 0.553613 0.375677
0.690120 0.546838 0.249882
0.742000 0.478767 0.086000
0.790585 0.447578 0.089937
0.000000 0.662440 0.432959
0.000000 0.659113 0.440345
0.341772 0.646296 0.466773
0.514336 0.629358 0.516625
0.579889 0.614832 0.546075
0.631647 0.625605 0.479652
0.704860 0.610590 0.380072
0.778470 0.568566 0.168215
0.263249 0.694881 0.502464
0.318578 0.691218 0.510216
0.445991 0.679622 0.536309
0.560632 0.665644 0.580224
0.610498 0.656977 0.605524
0.631983 0.655207 0.608392
0.661494 0.660334 0.566247
0.724422 0.662165 0.491859
0.440070 0.713985 0.570397
0.464210 0.711208 0.576349
0.534325 0.702724 0.599115
0.600946 0.695033 0.629145
0.635584 0.690517 0.645838
0.655329 0.685634 0.656123
0.668849 0.690181 0.650416
0.697597 0.700404 0.626307
0.000000 0.063569 0.296452
0.000000 0.052338 0.305425
0.215671 0.000000 0.328344
0.399176 0.000000 0.296300
0.625238 0.000000 0.293034
0.717952 0.000000 0.252293
0.753872 0.086000 0.226200
0.809018 0.000000 0.086702
0.000000 0.085908 0.301518
0.000000 0.088869 0.309514
0.211978 0.087587 0.333898
0.400427 0.034119 0.310826
0.623316 0.000000 0.310277
0.713313 0.077272 0.278721
0.751492 0.158785 0.236667
0.807889 0.000000 0.086458
0.000000 0.168582 0.310552
0.000000 0.175051 0.310826
0.182315 0.214664 0.349798
0.410010 0.255589 0.358312
0.618219 0.268254 0.360693
0.700832 0.327947 0.351232
0.745144 0.306279 0.285222
0.807736 0.110567 0.095583
0.000000 0.349218 0.394446
0.000000 0.355474 0.393835
0.125277 0.386786 0.402106
0.461097 0.466438 0.456855
0.608637 0.454017 0.416449
0.687465 0.454078 0.390509
0.733028 0.424720 0.331182
0.799069 0.322667 0.147250
0.000000 0.582757 0.488930
0.000000 0.583337 0.487129
0.070802 0.585321 0.485176
0.467567 0.573205 0.499275
0.570062 0.569207 0.500572
0.671229 0.566155 0.447578
0.717952 0.534691 0.397955
0.783017 0.483711 0.265446
0.000000 0.668635 0.512169
0.000000 0.666926 0.514672
0.280552 0.654566 0.520256
0.500816 0.636866 0.547021
0.593835 0.624170 0.584039
0.629541 0.628992 0.555444
0.691188 0.623651 0.506249
0.762875 0.597528 0.396063
0.154208 0.699031 0.536156
0.241855 0.695766 0.540826
0.405646 0.684504 0.557549
0.541527 0.669886 0.588067
0.613916 0.660578 0.619837
0.637293 0.656123 0.630640
0.659022 0.660914 0.602808
0.718471 0.669947 0.559289
0.395087 0.719081 0.583368
0.425910 0.716426 0.588495
0.502525 0.708400 0.603967
0.581689 0.698634 0.628107
0.632288 0.692744 0.650172
0.654871 0.688808 0.659358
0.669764 0.691005 0.658839
0.697658 0.701686 0.640253
0.000000 0.075502 0.466316
0.000000 0.076936 0.473976
0.202396 0.062837 0.496498
0.476204 0.000000 0.521630
0.589807 0.134066 0.475532
0.680751 0.278447 0.465248
0.724300 0.336095 0.442603
0.771389 0.381994 0.435401
0.000000 0.112062 0.464454
0.000000 0.117128 0.473060
0.205692 0.126955 0.496162
0.478096 0.155398 0.525292
0.586542 0.210330 0.483253
0.677211 0.319921 0.475990
0.720699 0.368780 0.456214
0.767636 0.411475 0.452247
0.000000 0.191257 0.441749
0.000000 0.203311 0.454932
0.188815 0.242039 0.490730
0.464332 0.314153 0.528618
0.577234 0.356909 0.505821
0.666072 0.415869 0.503929
0.709712 0.447883 0.492439
0.761166 0.456641 0.472206
0.000000 0.320012 0.481941
0.000000 0.327306 0.481666
0.109255 0.356786 0.485389
0.429725 0.439979 0.530419
0.574670 0.496956 0.543725
0.655207 0.515648 0.543084
0.695766 0.534752 0.540856
0.761654 0.487526 0.468513
0.000000 0.505028 0.539117
0.000000 0.509514 0.539178
0.088563 0.523949 0.540917
0.410559 0.549065 0.553307
0.588037 0.592340 0.589014
0.648676 0.584466 0.569207
0.690150 0.579431 0.553185
0.752743 0.554253 0.498268
0.000000 0.653254 0.588495
0.000000 0.652644 0.587579
0.132631 0.648951 0.585351
0.422370 0.642878 0.588312
0.581872 0.631800 0.599481
0.628870 0.632166 0.604334
0.679957 0.632715 0.583886
0.741543 0.624537 0.546227
0.000000 0.703944 0.592645
0.000000 0.701137 0.592462
0.300481 0.690852 0.593957
0.488746 0.675288 0.602838
0.595758 0.663600 0.622583
0.639887 0.657923 0.643549
0.656977 0.661189 0.629389
0.716518 0.675166 0.603143
0.276860 0.725246 0.604242
0.323064 0.722438 0.606470
0.434119 0.713588 0.614801
0.542870 0.703670 0.631556
0.612634 0.695674 0.648585
0.650446 0.692897 0.662013
0.669886 0.691035 0.668208
0.696437 0.701564 0.652155
0.000000 0.121523 0.586694
0.000000 0.126314 0.590387
0.219425 0.140108 0.601129
0.466407 0.197208 0.618250
0.608606 0.282048 0.622278
0.657282 0.366613 0.576379
0.690608 0.477668 0.573327
0.738827 0.500175 0.570977
0.000000 0.153811 0.581079
0.000000 0.159701 0.584833
0.223728 0.179812 0.597009
0.462623 0.240604 0.614527
0.605035 0.323980 0.620752
0.653712 0.393439 0.579065
0.688289 0.490944 0.577600
0.736690 0.510613 0.575463
0.000000 0.234043 0.569299
0.000000 0.245579 0.575280
0.228275 0.279789 0.590112
0.456397 0.348669 0.609064
0.600275 0.437873 0.622034
0.645228 0.472328 0.591699
0.681819 0.532799 0.593347
0.731868 0.543175 0.591333
0.000000 0.318883 0.555840
0.000000 0.324529 0.554376
0.126345 0.357946 0.563958
0.434302 0.446723 0.600366
0.593896 0.533440 0.624689
0.637690 0.553063 0.611048
0.675288 0.579278 0.613519
0.728420 0.579980 0.609796
0.000000 0.459937 0.588312
0.000000 0.464302 0.587823
0.101381 0.479774 0.586511
0.365240 0.506096 0.587976
0.562585 0.569116 0.615503
0.632624 0.603449 0.625940
0.670710 0.610895 0.626459
0.724819 0.613214 0.624109
0.000000 0.590234 0.616388
0.000000 0.592462 0.616480
0.166903 0.597284 0.615808
0.397406 0.604486 0.616876
0.546563 0.617792 0.623896
0.636835 0.643153 0.645563
0.669490 0.640894 0.637568
0.726711 0.640955 0.625849
0.000000 0.692256 0.648890
0.000000 0.690913 0.648066
0.245823 0.685084 0.644800
0.432044 0.675898 0.641840
0.556542 0.668849 0.643671
0.633753 0.663386 0.650996
0.657832 0.663996 0.652857
0.719783 0.680140 0.639979
0.000000 0.728817 0.647059
0.145998 0.727199 0.647242
0.312108 0.721736 0.648554
0.471107 0.710780 0.651575
0.578149 0.700160 0.657771
0.635737 0.696223 0.665919
0.670863 0.694606 0.678553
0.697169 0.703548 0.666011
0.000000 0.196262 0.655329
0.088106 0.204501 0.656947
0.286992 0.232364 0.660334
0.462898 0.298833 0.664790
0.594995 0.412360 0.668086
0.658228 0.450996 0.664240
0.677668 0.507286 0.629419
0.708186 0.574914 0.641840
0.000000 0.220066 0.651362
0.102205 0.228275 0.653040
0.287968 0.256474 0.656916
0.460456 0.319738 0.661769
0.591730 0.426215 0.665705
0.655207 0.464729 0.662501
0.675441 0.513573 0.629389
0.705745 0.576074 0.640558
0.000000 0.292973 0.644953
0.125277 0.299535 0.646448
0.294316 0.329778 0.650507
0.460883 0.390326 0.656275
0.587060 0.479194 0.661585
0.649348 0.521569 0.661311
0.670436 0.551629 0.637171
0.705013 0.594171 0.648859
0.000000 0.339696 0.628046
0.000000 0.348577 0.629908
0.230411 0.387671 0.637354
0.444587 0.457435 0.647425
0.577691 0.530358 0.656184
0.644648 0.580285 0.661860
0.665126 0.592554 0.647059
0.704646 0.613825 0.657679
0.000000 0.437049 0.633051
0.000000 0.439368 0.631556
0.000000 0.448402 0.627436
0.308141 0.468299 0.624353
0.545953 0.554437 0.646357
0.638422 0.613458 0.661311
0.660212 0.621271 0.654170
0.704677 0.630396 0.663752
0.000000 0.548577 0.648096
0.000000 0.550317 0.647364
0.140017 0.555993 0.645045
0.339696 0.564538 0.641810
0.485695 0.578210 0.638697
0.617487 0.624720 0.654688
0.659297 0.647120 0.663966
0.709895 0.645808 0.667994
0.000000 0.636133 0.660609
0.000000 0.636774 0.660365
0.235294 0.637964 0.659022
0.392950 0.639582 0.657343
0.518486 0.643091 0.656153
0.607019 0.651514 0.659236
0.662562 0.670680 0.676478
0.716854 0.672267 0.669306
0.000000 0.707332 0.678370
0.134981 0.706996 0.678462
0.291966 0.706081 0.679622
0.427527 0.702846 0.680140
0.537194 0.696712 0.678889
0.608301 0.698360 0.683772
0.657679 0.702449 0.685176
0.699855 0.708125 0.686610
0.291051 0.328435 0.692714
0.319127 0.336797 0.692897
0.397101 0.362768 0.692714
0.498817 0.415198 0.692988
0.589868 0.486549 0.694087
0.657221 0.556664 0.698299
0.684291 0.553826 0.691066
0.703609 0.582513 0.675227
0.293339 0.342596 0.690791
0.320897 0.350805 0.690974
0.398108 0.376410 0.691005
0.498299 0.426246 0.691249
0.588739 0.494484 0.692500
0.655543 0.561425 0.696925
0.683009 0.559625 0.690669
0.701991 0.585687 0.674891
0.295323 0.384833 0.686213
0.321721 0.391913 0.686305
0.397345 0.414893 0.686275
0.499245 0.463172 0.687343
0.587182 0.521782 0.689113
0.651606 0.578180 0.694270
0.680110 0.581781 0.690913
0.699489 0.599573 0.677668
0.173251 0.398901 0.681178
0.231785 0.410742 0.681147
0.371038 0.453407 0.680446
0.486091 0.497871 0.681514
0.579980 0.549737 0.684260
0.645289 0.597864 0.691035
0.676692 0.609552 0.691859
0.697475 0.618158 0.682673
0.000000 0.438972 0.674739
0.000000 0.440864 0.674067
0.140688 0.449409 0.672541
0.381079 0.489906 0.674708
0.552544 0.562249 0.677241
0.632166 0.609705 0.685237
0.674006 0.632502 0.694148
0.695979 0.635767 0.688014
0.000000 0.528038 0.680079
0.000000 0.528801 0.679255
0.150454 0.531273 0.676661
0.294224 0.534813 0.672328
0.417029 0.539971 0.665736
0.605463 0.614130 0.676570
0.671473 0.650965 0.699245
0.698299 0.653071 0.696590
0.000000 0.607477 0.688014
0.101747 0.607843 0.687404
0.230198 0.609186 0.685359
0.353674 0.611933 0.682124
0.466468 0.616449 0.677546
0.557488 0.623896 0.672114
0.645075 0.653834 0.685145
0.699947 0.673487 0.706050
0.177493 0.675990 0.702052
0.211490 0.675776 0.701534
0.300908 0.675380 0.700038
0.409094 0.675227 0.697902
0.507866 0.675654 0.695186
0.583185 0.677516 0.692866
0.634058 0.683131 0.695155
0.709133 0.721584 0.733089
