data/fiter_cube/72007313/1022718/file.cube
# Created by Adobe Lightroom plugin Export LUT (1.17.0)
# www.johnrellis.com/lightroom/exportlut.htm
# Preset: 高级电影暗青色_07 云集
# Color profile: C:\Program Files (x86)\Common Files\Adobe\Color\Profiles\Recommended\AdobeRGB1998.icc
LUT_3D_SIZE 5
DOMAIN_MIN 0.000000 0.000000 0.000000
DOMAIN_MAX 0.903226 0.903226 0.903226
0.061311 0.070375 0.067231
0.140780 0.056764 0.064820
0.612757 0.000000 0.000000
0.748623 0.000000 0.000000
0.810880 0.000000 0.089723
0.034760 0.117006 0.075776
0.101839 0.112215 0.060548
0.604913 0.051728 0.000000
0.745754 0.000000 0.000000
0.809873 0.000000 0.097414
0.000000 0.497780 0.186252
0.167636 0.480110 0.216159
0.493202 0.489204 0.133486
0.730404 0.423835 0.000000
0.796475 0.379919 0.092744
0.115846 0.674800 0.408637
0.357000 0.662287 0.450050
0.562768 0.633509 0.532250
0.648859 0.638758 0.427863
0.772122 0.595483 0.208225
0.479194 0.711330 0.571313
0.542290 0.703304 0.595666
0.623926 0.689967 0.635462
0.657710 0.682979 0.653803
0.699031 0.700587 0.612146
0.055451 0.069703 0.096712
0.107820 0.058167 0.096162
0.586511 0.000000 0.000000
0.744656 0.000000 0.000000
0.806760 0.000000 0.079927
0.000000 0.125856 0.139132
0.138399 0.153109 0.152499
0.577050 0.000000 0.057527
0.742092 0.000000 0.000000
0.804532 0.000000 0.082368
0.000000 0.505516 0.291356
0.141451 0.493477 0.297978
0.486152 0.482704 0.281712
0.723049 0.438239 0.000000
0.795346 0.380774 0.088075
0.000000 0.675288 0.445808
0.341009 0.663111 0.476020
0.568536 0.635798 0.552605
0.643763 0.637873 0.491707
0.772580 0.594751 0.206760
0.454292 0.713802 0.572381
0.526482 0.705196 0.595575
0.625422 0.692470 0.641627
0.659480 0.684443 0.658625
0.699031 0.701686 0.624537
0.000000 0.062196 0.387671
0.134188 0.029938 0.413519
0.513024 0.000000 0.392920
0.714351 0.174502 0.361975
0.795193 0.208621 0.273564
0.000000 0.155947 0.372229
0.115755 0.186435 0.415747
0.511345 0.256199 0.430365
0.701625 0.337102 0.413062
0.792325 0.284459 0.287449
0.000000 0.436500 0.477668
0.000000 0.456611 0.479164
0.540734 0.544457 0.537316
0.677150 0.532708 0.495583
0.776028 0.468482 0.362921
0.000000 0.681300 0.559350
0.149111 0.670924 0.556847
0.553796 0.643610 0.584588
0.637903 0.639765 0.591760
0.744808 0.629328 0.502953
0.344213 0.721553 0.590356
0.449683 0.713039 0.603601
0.598138 0.696681 0.638666
0.658228 0.688960 0.663050
0.696254 0.700771 0.645624
0.000000 0.134920 0.605646
0.159457 0.152529 0.615259
0.550866 0.283757 0.638087
0.664485 0.406500 0.591669
0.730098 0.521721 0.592981
0.000000 0.226108 0.595422
0.178988 0.252781 0.606256
0.541283 0.382361 0.631495
0.655665 0.475135 0.601312
0.724971 0.548089 0.604089
0.000000 0.380163 0.583124
0.000000 0.396857 0.580224
0.498390 0.507378 0.614221
0.640986 0.581567 0.623926
0.719509 0.600214 0.627344
0.000000 0.605524 0.630701
0.096071 0.608515 0.628931
0.472969 0.618494 0.629725
0.643793 0.650568 0.653895
0.722286 0.650294 0.639307
0.000000 0.725521 0.657038
0.272007 0.720485 0.657191
0.514824 0.707240 0.662165
0.641077 0.697780 0.670588
0.697322 0.704036 0.669978
0.291051 0.328435 0.692714
0.373785 0.353979 0.692744
0.546929 0.449714 0.693355
0.664881 0.558465 0.697383
0.703609 0.582513 0.675227
0.298894 0.374701 0.687800
0.378576 0.398291 0.687953
0.546532 0.483284 0.689174
0.663203 0.581323 0.695979
0.700587 0.596063 0.677302
0.000000 0.409644 0.676844
0.225772 0.431556 0.677455
0.520500 0.531060 0.678798
0.652094 0.613153 0.690700
0.696284 0.627008 0.684962
0.000000 0.550378 0.682246
0.140139 0.552789 0.679835
0.374395 0.559472 0.672267
0.616571 0.625147 0.677333
0.698970 0.657496 0.698848
0.177493 0.675990 0.702052
0.275425 0.675502 0.700465
0.460822 0.675349 0.696620
0.598108 0.678340 0.692714
0.709133 0.721584 0.733089
