data/fiter_cube/35558087/1023151/file.cube
# Created by Adobe Lightroom plugin Export LUT (1.17.0)
# www.johnrellis.com/lightroom/exportlut.htm
# Preset: 明亮通透美食摄影_04 云集
# Color profile: C:\Program Files (x86)\Common Files\Adobe\Color\Profiles\Recommended\AdobeRGB1998.icc
LUT_3D_SIZE 32
DOMAIN_MIN 0.0 0.0 0.0
DOMAIN_MAX 1.0 1.0 1.0
0.000000 0.000000 0.000000
0.023713 0.000000 0.000488
0.053162 0.000244 0.000702
0.080812 0.000183 0.000000
0.108980 0.000000 0.000000
0.138064 0.000000 0.000000
0.168215 0.000000 0.000000
0.199100 0.000000 0.000000
0.231083 0.000000 0.000000
0.263767 0.000000 0.000000
0.297917 0.000000 0.000000
0.333013 0.000000 0.000000
0.369268 0.000000 0.000000
0.406836 0.000000 0.000000
0.445686 0.000000 0.000000
0.485939 0.000000 0.000000
0.527733 0.000000 0.000000
0.570794 0.000000 0.000000
0.613275 0.000000 0.000000
0.656519 0.000000 0.000000
0.700618 0.000000 0.000000
0.743954 0.000000 0.000000
0.785885 0.000000 0.000000
0.826291 0.000000 0.000000
0.865141 0.000000 0.000000
0.902434 0.000000 0.000000
0.938018 0.000000 0.000000
0.972107 0.000000 0.000000
1.000000 0.000000 0.000000
1.000000 0.000000 0.000000
1.000000 0.000000 0.000000
1.000000 0.000000 0.000000
0.000000 0.023590 0.002441
0.017121 0.020478 0.004364
0.050141 0.023072 0.003265
0.080873 0.024781 0.000061
0.109010 0.024140 0.000000
0.138064 0.023621 0.000000
0.168215 0.021942 0.000000
0.199222 0.018158 0.000000
0.231205 0.013367 0.000000
0.264042 0.007660 0.000000
0.297978 0.000427 0.000000
0.333135 0.000000 0.000000
0.369421 0.000000 0.000000
0.406958 0.000000 0.000000
0.445808 0.000000 0.000000
0.486122 0.000000 0.000000
0.527764 0.000000 0.000000
0.570855 0.000000 0.000000
0.613336 0.000000 0.000000
0.656611 0.000000 0.000000
0.700618 0.000000 0.000000
0.744045 0.000000 0.000000
0.785916 0.000000 0.000000
0.826322 0.000000 0.000000
0.865171 0.000000 0.000000
0.902434 0.000000 0.000000
0.938048 0.000000 0.000000
0.972107 0.000000 0.000000
1.000000 0.000000 0.000000
1.000000 0.000000 0.000000
1.000000 0.000000 0.000000
1.000000 0.000000 0.000000
0.000000 0.055238 0.006195
0.006439 0.057527 0.000244
0.043336 0.048280 0.010040
0.076936 0.053681 0.008698
0.109071 0.054414 0.000000
0.138247 0.055695 0.000000
0.168368 0.054414 0.000000
0.199222 0.052644 0.000000
0.231266 0.050690 0.000000
0.264073 0.047303 0.000000
0.298100 0.039979 0.000000
0.333318 0.032593 0.000000
0.369604 0.022736 0.000000
0.407141 0.010559 0.000000
0.445930 0.000000 0.000000
0.486305 0.000000 0.000000
0.527947 0.000000 0.000000
0.570977 0.000000 0.000000
0.613519 0.000000 0.000000
0.656703 0.000000 0.000000
0.700801 0.000000 0.000000
0.744167 0.000000 0.000000
0.786007 0.000000 0.000000
0.826383 0.000000 0.000000
0.865202 0.000000 0.000000
0.902495 0.000000 0.000000
0.938048 0.000000 0.000000
0.972107 0.000000 0.000000
1.000000 0.000000 0.000000
1.000000 0.000000 0.000000
1.000000 0.000000 0.000000
1.000000 0.000000 0.000000
0.000000 0.082856 0.014252
0.000000 0.084169 0.000000
0.015656 0.084718 0.000000
0.071687 0.076081 0.021912
0.097810 0.077974 0.028656
0.138308 0.083101 0.000000
0.168521 0.083589 0.000000
0.199557 0.083467 0.000000
0.231418 0.083497 0.000000
0.264317 0.082826 0.000000
0.298436 0.081605 0.000000
0.333623 0.080110 0.000000
0.369879 0.078584 0.000000
0.407477 0.075868 0.000000
0.446326 0.071931 0.000000
0.486580 0.066438 0.000000
0.528344 0.058686 0.000000
0.571252 0.040497 0.000000
0.613794 0.014405 0.000000
0.656916 0.000000 0.000000
0.701076 0.000000 0.000000
0.744289 0.000000 0.000000
0.786160 0.000000 0.000000
0.826505 0.000000 0.000000
0.865293 0.000000 0.000000
0.902556 0.000000 0.000000
0.938109 0.000000 0.000000
0.972107 0.000000 0.000000
1.000000 0.000000 0.000000
1.000000 0.000000 0.000000
1.000000 0.000000 0.000000
1.000000 0.000000 0.000000
0.000000 0.112978 0.025544
0.000000 0.114107 0.010925
0.000000 0.115419 0.000000
0.058381 0.115602 0.000000
0.094789 0.101045 0.037903
0.116060 0.098726 0.054231
0.159945 0.109438 0.018006
0.199893 0.113222 0.000000
0.231876 0.113832 0.000000
0.264805 0.114229 0.000000
0.298833 0.114321 0.000000
0.334081 0.114382 0.000000
0.370428 0.113985 0.000000
0.407904 0.113222 0.000000
0.446723 0.111757 0.000000
0.486976 0.110048 0.000000
0.528740 0.107393 0.000000
0.571618 0.104189 0.000000
0.614221 0.099092 0.000000
0.657435 0.093355 0.000000
0.701381 0.086122 0.000000
0.744686 0.076387 0.000000
0.786435 0.064179 0.000000
0.826719 0.037232 0.000000
0.865446 0.000000 0.000000
0.902647 0.000000 0.000000
0.938201 0.000000 0.000000
0.972137 0.000000 0.000000
1.000000 0.000000 0.000000
1.000000 0.000000 0.000000
1.000000 0.000000 0.000000
1.000000 0.000000 0.000000
0.000000 0.144869 0.042786
0.000000 0.146090 0.026886
0.000000 0.147463 0.004395
0.007599 0.149416 0.000000
0.088411 0.147646 0.000000
0.119265 0.127352 0.048066
0.134005 0.118166 0.068544
0.180453 0.133608 0.040223
0.227604 0.142733 0.000000
0.265324 0.145418 0.000000
0.299443 0.146456 0.000000
0.334752 0.146944 0.000000
0.371069 0.147646 0.000000
0.408606 0.147829 0.000000
0.447364 0.147921 0.000000
0.487648 0.147799 0.000000
0.529381 0.146914 0.000000
0.572168 0.145998 0.000000
0.614740 0.143984 0.000000
0.657954 0.141390 0.000000
0.701839 0.138430 0.000000
0.745052 0.133974 0.000000
0.786740 0.128847 0.000000
0.826932 0.123079 0.000000
0.865629 0.116121 0.000000
0.902739 0.108003 0.000000
0.938262 0.099001 0.000000
0.972198 0.088075 0.000000
1.000000 0.076326 0.000000
1.000000 0.061189 0.000000
1.000000 0.027100 0.000000
1.000000 0.000000 0.000000
0.000000 0.178744 0.059174
0.000000 0.179660 0.046876
0.000000 0.180850 0.023194
0.000000 0.183505 0.000000
0.052491 0.186069 0.000000
0.117769 0.177737 0.000000
0.144533 0.154818 0.057221
0.151980 0.137484 0.082307
0.201450 0.156802 0.061799
0.250797 0.169467 0.014435
0.300206 0.178042 0.000000
0.335515 0.179477 0.000000
0.371740 0.180667 0.000000
0.409308 0.181918 0.000000
0.448127 0.182864 0.000000
0.488350 0.183658 0.000000
0.530053 0.184360 0.000000
0.572961 0.184665 0.000000
0.615503 0.184146 0.000000
0.658564 0.183322 0.000000
0.702480 0.182010 0.000000
0.745541 0.179721 0.000000
0.787106 0.177066 0.000000
0.827268 0.173220 0.000000
0.865873 0.168887 0.000000
0.902892 0.163943 0.000000
0.938354 0.158846 0.000000
0.972259 0.152834 0.000000
1.000000 0.146334 0.000000
1.000000 0.139651 0.000000
1.000000 0.132326 0.000000
1.000000 0.125246 0.000000
0.000000 0.213687 0.070497
0.000000 0.214664 0.063813
0.000000 0.215854 0.048798
0.000000 0.218479 0.000000
0.000000 0.221530 0.000000
0.089784 0.222690 0.000000
0.146609 0.208591 0.000000
0.171206 0.183902 0.063813
0.174563 0.160372 0.094514
0.222568 0.180087 0.076539
0.273930 0.195590 0.042573
0.325658 0.206973 0.000000
0.372564 0.213687 0.000000
0.410040 0.215457 0.000000
0.448981 0.217288 0.000000
0.489143 0.218936 0.000000
0.530938 0.220584 0.000000
0.573846 0.221897 0.000000
0.616297 0.222629 0.000000
0.659327 0.222751 0.000000
0.703182 0.222629 0.000000
0.746090 0.221653 0.000000
0.787564 0.220127 0.000000
0.827604 0.217563 0.000000
0.866117 0.214450 0.000000
0.903105 0.211002 0.000000
0.938445 0.206851 0.000000
0.972290 0.202457 0.000000
1.000000 0.197543 0.000000
1.000000 0.192325 0.000000
1.000000 0.187106 0.000000
1.000000 0.181308 0.000000
0.000000 0.250523 0.081392
0.000000 0.251347 0.075624
0.000000 0.252476 0.066682
0.000000 0.254856 0.024048
0.000000 0.258579 0.000000
0.033204 0.261845 0.000000
0.125063 0.259434 0.000000
0.175784 0.240787 0.000000
0.199222 0.214115 0.069947
0.203098 0.188815 0.102388
0.242985 0.202823 0.092958
0.296391 0.221073 0.067201
0.350134 0.235203 0.000946
0.405463 0.246738 0.000000
0.449836 0.251621 0.000000
0.490089 0.254093 0.000000
0.532006 0.256565 0.000000
0.574884 0.258854 0.000000
0.617212 0.260136 0.000000
0.660243 0.261143 0.000000
0.703944 0.261997 0.000000
0.746761 0.261784 0.000000
0.788083 0.260929 0.000000
0.828000 0.259434 0.000000
0.866392 0.257145 0.000000
0.903288 0.254093 0.000000
0.938598 0.250919 0.000000
0.972351 0.247044 0.000000
1.000000 0.242924 0.000000
1.000000 0.238437 0.000000
1.000000 0.233646 0.000000
1.000000 0.228611 0.000000
0.000000 0.289097 0.091859
0.000000 0.289921 0.086824
0.000000 0.290959 0.078767
0.000000 0.293370 0.054475
0.000000 0.297124 0.000000
0.000000 0.300938 0.000000
0.079988 0.305089 0.000000
0.160037 0.297490 0.000000
0.206119 0.273838 0.000000
0.227817 0.245212 0.076661
0.231815 0.217868 0.110567
0.263035 0.224979 0.109895
0.318334 0.245975 0.085634
0.374212 0.262730 0.044495
0.431922 0.276890 0.000000
0.491249 0.289281 0.000000
0.533196 0.292454 0.000000
0.575952 0.295354 0.000000
0.618219 0.297307 0.000000
0.661158 0.299016 0.000000
0.704799 0.300572 0.000000
0.747433 0.301183 0.000000
0.788663 0.300786 0.000000
0.828397 0.299718 0.000000
0.866728 0.297917 0.000000
0.903502 0.295445 0.000000
0.938720 0.292607 0.000000
0.972412 0.289158 0.000000
1.000000 0.285313 0.000000
1.000000 0.281163 0.000000
1.000000 0.276768 0.000000
1.000000 0.271855 0.000000
0.000000 0.329534 0.103304
0.000000 0.330388 0.098665
0.000000 0.331548 0.091218
0.000000 0.333776 0.072206
0.000000 0.337377 0.000000
0.000000 0.342016 0.000000
0.000000 0.346319 0.000000
0.118074 0.349432 0.000000
0.195468 0.337072 0.000000
0.237247 0.307836 0.000000
0.257237 0.277043 0.084260
0.259037 0.245884 0.119539
0.282475 0.246525 0.127657
0.339696 0.270298 0.104250
0.397833 0.289952 0.074281
0.458076 0.306828 0.000000
0.520775 0.321996 0.000000
0.577020 0.331884 0.000000
0.619196 0.334386 0.000000
0.662196 0.336706 0.000000
0.705715 0.338750 0.000000
0.748135 0.339757 0.000000
0.789242 0.340002 0.000000
0.828855 0.339330 0.000000
0.867063 0.337835 0.000000
0.903746 0.335668 0.000000
0.938842 0.332952 0.000000
0.972442 0.329839 0.000000
1.000000 0.326177 0.000000
1.000000 0.322179 0.000000
1.000000 0.317784 0.000000
1.000000 0.313054 0.000000
0.000000 0.372198 0.115145
0.000000 0.372992 0.110872
0.000000 0.373999 0.104250
0.000000 0.376196 0.087678
0.000000 0.379828 0.038727
0.000000 0.384619 0.000000
0.000000 0.389532 0.000000
0.063996 0.394781 0.000000
0.162142 0.392401 0.000000
0.230961 0.375158 0.000000
0.269169 0.342809 0.000000
0.287388 0.309667 0.093080
0.288304 0.276066 0.129519
0.301610 0.267613 0.145327
0.360571 0.294102 0.123262
0.421149 0.316594 0.095735
0.483803 0.336309 0.039277
0.549004 0.354040 0.000000
0.613855 0.368627 0.000000
0.663233 0.374395 0.000000
0.706661 0.376898 0.000000
0.748867 0.378332 0.000000
0.789792 0.378820 0.000000
0.829313 0.378393 0.000000
0.867399 0.377111 0.000000
0.903929 0.375250 0.000000
0.938933 0.372625 0.000000
0.972473 0.369604 0.000000
1.000000 0.366094 0.000000
1.000000 0.362036 0.000000
1.000000 0.357671 0.000000
1.000000 0.352819 0.000000
0.000000 0.416724 0.127810
0.000000 0.417517 0.123842
0.000000 0.418524 0.117617
0.000000 0.420752 0.103059
0.000000 0.424353 0.071229
0.000000 0.429145 0.000000
0.000000 0.434821 0.000000
0.000000 0.440131 0.000000
0.108675 0.446509 0.000000
0.204440 0.437049 0.000000
0.267094 0.414160 0.000000
0.302373 0.378943 0.010986
0.318608 0.343267 0.102693
0.318608 0.307591 0.139651
0.320287 0.287999 0.162844
0.381079 0.317388 0.142061
0.444007 0.342687 0.115969
0.509087 0.365240 0.077516
0.576532 0.385351 0.000000
0.643305 0.402106 0.000000
0.707607 0.415045 0.000000
0.749691 0.416754 0.000000
0.790402 0.417487 0.000000
0.829801 0.417212 0.000000
0.867704 0.416175 0.000000
0.904143 0.414313 0.000000
0.939055 0.411872 0.000000
0.972503 0.408789 0.000000
1.000000 0.405158 0.000000
1.000000 0.401129 0.000000
1.000000 0.396643 0.000000
1.000000 0.391608 0.000000
0.000000 0.463661 0.141238
0.000000 0.464424 0.137209
0.000000 0.465492 0.131502
0.000000 0.467659 0.118318
0.000000 0.471138 0.091493
0.000000 0.476020 0.000000
0.000000 0.482246 0.000000
0.000000 0.488258 0.000000
0.000000 0.494789 0.000000
0.151400 0.501152 0.000000
0.246983 0.483558 0.000000
0.304265 0.454475 0.000000
0.336522 0.416358 0.025483
0.350744 0.377844 0.111910
0.349371 0.339666 0.149905
0.338598 0.307958 0.180148
0.401404 0.340185 0.160403
0.466499 0.368292 0.135500
0.534844 0.394171 0.101839
0.604608 0.417029 0.010895
0.673457 0.435981 0.000000
0.738369 0.449897 0.000000
0.791043 0.456062 0.000000
0.830259 0.455970 0.000000
0.868040 0.454963 0.000000
0.904326 0.453132 0.000000
0.939147 0.450629 0.000000
0.972473 0.447547 0.000000
1.000000 0.443885 0.000000
1.000000 0.439765 0.000000
1.000000 0.435065 0.000000
1.000000 0.429847 0.000000
0.000000 0.513329 0.154910
0.000000 0.514000 0.151308
0.000000 0.515038 0.146090
0.000000 0.517327 0.133608
0.000000 0.520897 0.110231
0.000000 0.525780 0.059693
0.000000 0.531884 0.000000
0.000000 0.538811 0.000000
0.000000 0.545312 0.000000
0.092927 0.552819 0.000000
0.204685 0.551324 0.000000
0.289738 0.531579 0.000000
0.342351 0.496193 0.000000
0.371862 0.455085 0.042420
0.383917 0.413611 0.121492
0.381079 0.372747 0.160128
0.367834 0.337011 0.190921
0.421485 0.362554 0.178531
0.489540 0.394018 0.154635
0.561639 0.423743 0.124117
0.633600 0.449165 0.074739
0.703700 0.469917 0.000000
0.767788 0.484230 0.000000
0.825864 0.492805 0.000000
0.868345 0.493599 0.000000
0.904509 0.491798 0.000000
0.939178 0.489235 0.000000
0.972412 0.486030 0.000000
1.000000 0.482307 0.000000
1.000000 0.478035 0.000000
1.000000 0.473152 0.000000
1.000000 0.467567 0.000000
0.000000 0.564630 0.169314
0.000000 0.565362 0.165774
0.000000 0.566308 0.160830
0.000000 0.568475 0.149172
0.000000 0.571771 0.127901
0.000000 0.576349 0.087739
0.000000 0.582025 0.000000
0.000000 0.589014 0.000000
0.000000 0.595514 0.000000
0.000000 0.602472 0.000000
0.143771 0.610132 0.000000
0.253819 0.599695 0.000000
0.331914 0.578546 0.000000
0.381018 0.538445 0.000000
0.408179 0.494942 0.058930
0.418250 0.450599 0.130831
0.413703 0.406897 0.170108
0.399725 0.368597 0.200778
0.442237 0.385290 0.196384
0.514305 0.421027 0.174014
0.589502 0.453986 0.145480
0.663813 0.482094 0.105440
0.733822 0.503807 0.000000
0.797055 0.518364 0.000000
0.854002 0.526940 0.000000
0.904662 0.530388 0.000000
0.939208 0.527672 0.000000
0.972320 0.524437 0.000000
1.000000 0.520500 0.000000
1.000000 0.516014 0.000000
1.000000 0.510826 0.000000
1.000000 0.505028 0.000000
0.000000 0.614832 0.183536
0.000000 0.615503 0.180087
0.000000 0.616388 0.175601
0.000000 0.618433 0.164767
0.000000 0.621515 0.145418
0.000000 0.625757 0.111757
0.000000 0.631037 0.000000
0.000000 0.637476 0.000000
0.000000 0.644404 0.000000
0.000000 0.650782 0.000000
0.037049 0.657923 0.000000
0.187869 0.665675 0.000000
0.300023 0.645777 0.000000
0.372595 0.620996 0.000000
0.418830 0.579339 0.000000
0.444984 0.535271 0.068360
0.453803 0.489052 0.139803
0.447791 0.442695 0.180148
0.433478 0.402197 0.210605
0.464424 0.409094 0.214389
0.541009 0.449439 0.193484
0.618799 0.485298 0.166934
0.694728 0.515557 0.132784
0.764004 0.537774 0.079286
0.826261 0.552605 0.000000
0.881926 0.561089 0.000000
0.931518 0.564294 0.000000
0.972198 0.562676 0.000000
1.000000 0.558556 0.000000
1.000000 0.553796 0.000000
1.000000 0.548394 0.000000
1.000000 0.542199 0.000000
0.000000 0.663508 0.197574
0.000000 0.664118 0.194308
0.000000 0.664973 0.190127
0.000000 0.666743 0.179873
0.000000 0.669612 0.161990
0.000000 0.673426 0.132815
0.000000 0.678248 0.076326
0.000000 0.684016 0.000000
0.000000 0.690822 0.000000
0.000000 0.696773 0.000000
0.000000 0.702937 0.000000
0.128450 0.709560 0.000000
0.245212 0.708797 0.000000
0.343938 0.688838 0.000000
0.412177 0.661341 0.000000
0.456580 0.620081 0.000000
0.482185 0.575830 0.079316
0.491279 0.529442 0.148959
0.484749 0.481270 0.189975
0.470283 0.438758 0.220951
0.488685 0.434546 0.232822
0.569390 0.479194 0.213626
0.649897 0.517998 0.188998
0.726162 0.549584 0.160372
0.794491 0.572107 0.121675
0.855497 0.587030 0.040162
0.909728 0.595422 0.000000
0.957855 0.598291 0.000000
1.000000 0.596429 0.000000
1.000000 0.591455 0.000000
1.000000 0.585748 0.000000
1.000000 0.579126 0.000000
0.000000 0.710140 0.211185
0.000000 0.710689 0.208377
0.000000 0.711391 0.204135
0.000000 0.713039 0.194766
0.000000 0.715511 0.178378
0.000000 0.718929 0.152773
0.000000 0.723201 0.108034
0.000000 0.728267 0.000000
0.000000 0.734371 0.000000
0.000000 0.740444 0.000000
0.000000 0.745754 0.000000
0.000000 0.751492 0.000000
0.180728 0.757687 0.000000
0.296147 0.748989 0.000000
0.385504 0.729549 0.000000
0.450629 0.700160 0.000000
0.494606 0.660853 0.000000
0.520317 0.617517 0.090639
0.529900 0.571130 0.158846
0.524498 0.522850 0.200473
0.510307 0.478584 0.231907
0.515709 0.462379 0.252262
0.599939 0.510735 0.235080
0.682765 0.552361 0.213535
0.758236 0.584314 0.189395
0.825437 0.607050 0.160250
0.885008 0.621942 0.119417
0.937591 0.630121 0.003632
0.984009 0.632624 0.000000
1.000000 0.630030 0.000000
1.000000 0.622919 0.000000
1.000000 0.615930 0.000000
0.000000 0.754330 0.224460
0.000000 0.754788 0.221897
0.000000 0.755459 0.217838
0.000000 0.756863 0.209171
0.000000 0.759091 0.194064
0.000000 0.762081 0.170871
0.000000 0.765774 0.133730
0.000000 0.770321 0.045106
0.000000 0.775570 0.000000
0.000000 0.781613 0.000000
0.000000 0.786465 0.000000
0.000000 0.791440 0.000000
0.102937 0.796689 0.000000
0.225223 0.802304 0.000000
0.342504 0.786618 0.000000
0.425330 0.767788 0.000000
0.487922 0.737331 0.000000
0.531670 0.700221 0.000000
0.558801 0.659236 0.104280
0.569970 0.614252 0.170016
0.565972 0.566186 0.212192
0.551843 0.520195 0.244083
0.545647 0.492714 0.273167
0.632929 0.544549 0.258640
0.716670 0.587915 0.240818
0.791135 0.620111 0.221317
0.856901 0.642878 0.199680
0.914672 0.657679 0.172152
0.965393 0.665553 0.132631
1.000000 0.667506 0.038025
1.000000 0.664088 0.000000
1.000000 0.655543 0.000000
0.000000 0.795926 0.237430
0.000000 0.796353 0.234867
0.000000 0.796933 0.231113
0.000000 0.798184 0.222873
0.000000 0.800107 0.209049
0.000000 0.802701 0.188052
0.000000 0.805997 0.156191
0.000000 0.809934 0.100557
0.000000 0.814542 0.000000
0.000000 0.819821 0.000000
0.000000 0.824918 0.000000
0.000000 0.829099 0.000000
0.000000 0.833555 0.000000
0.169345 0.838285 0.000000
0.279942 0.838041 0.000000
0.385321 0.821683 0.000000
0.463203 0.803708 0.000000
0.524010 0.772763 0.000000
0.567742 0.737972 0.000000
0.596399 0.699641 0.121675
0.610407 0.657679 0.183444
0.609247 0.611536 0.225711
0.595331 0.563958 0.258061
0.583612 0.530236 0.294347
0.669093 0.581262 0.284977
0.751888 0.625086 0.271977
0.824979 0.657343 0.257725
0.888792 0.680018 0.243198
0.944457 0.694453 0.225040
0.992798 0.701991 0.200656
1.000000 0.703334 0.164248
1.000000 0.698817 0.096742
0.000000 0.834928 0.249729
0.000000 0.835294 0.247318
0.000000 0.835752 0.243931
0.000000 0.836851 0.236240
0.000000 0.838529 0.223545
0.000000 0.840787 0.204440
0.000000 0.843656 0.176455
0.000000 0.847044 0.132265
0.000000 0.851102 0.000000
0.000000 0.855619 0.000000
0.000000 0.860807 0.000000
0.000000 0.864439 0.000000
0.000000 0.868162 0.000000
0.063752 0.872068 0.000000
0.219059 0.876127 0.000000
0.330632 0.869688 0.000000
0.425330 0.854185 0.000000
0.499550 0.835721 0.000000
0.558831 0.806455 0.000000
0.602808 0.774166 0.000000
0.633082 0.738766 0.142275
0.649836 0.699916 0.200626
0.653040 0.657374 0.242130
0.642481 0.611658 0.274723
0.636286 0.580987 0.314092
0.707149 0.620233 0.315984
0.788602 0.664179 0.308598
0.859617 0.696284 0.300755
0.920958 0.718593 0.293309
0.973816 0.732723 0.283665
1.000000 0.739834 0.269810
1.000000 0.740475 0.248875
0.000000 0.871153 0.261570
0.000000 0.871489 0.259434
0.000000 0.871916 0.256138
0.000000 0.872801 0.248997
0.000000 0.874266 0.237156
0.000000 0.876219 0.219760
0.000000 0.878691 0.194980
0.000000 0.881590 0.157870
0.000000 0.885100 0.090089
0.000000 0.889036 0.000000
0.000000 0.893462 0.000000
0.000000 0.897398 0.000000
0.000000 0.900450 0.000000
0.000000 0.903593 0.000000
0.156191 0.906920 0.000000
0.261753 0.910338 0.000000
0.375738 0.898772 0.000000
0.462867 0.884306 0.000000
0.534264 0.865263 0.000000
0.592462 0.838315 0.000000
0.636927 0.808743 0.064607
0.668818 0.776364 0.166720
0.688594 0.741054 0.221805
0.695949 0.702419 0.262852
0.691066 0.661006 0.295720
0.691127 0.634638 0.338415
0.747189 0.661738 0.353521
0.826474 0.705440 0.353063
0.894591 0.737118 0.353033
0.952697 0.758999 0.353185
1.000000 0.772854 0.352483
1.000000 0.779629 0.348760
0.000000 0.904723 0.273075
0.000000 0.904997 0.271000
0.000000 0.905333 0.267887
0.000000 0.906096 0.261234
0.000000 0.907378 0.250278
0.000000 0.909026 0.234501
0.000000 0.911131 0.212131
0.000000 0.913664 0.180240
0.000000 0.916625 0.129152
0.000000 0.919982 0.000000
0.000000 0.923766 0.000000
0.000000 0.927947 0.000000
0.000000 0.930388 0.000000
0.000000 0.932952 0.000000
0.000000 0.935576 0.000000
0.212222 0.938262 0.000000
0.311467 0.937896 0.000000
0.416815 0.925505 0.000000
0.497963 0.912200 0.000000
0.567529 0.893034 0.000000
0.624903 0.868437 0.000000
0.669886 0.841703 0.114504
0.703670 0.812619 0.195041
0.726375 0.780941 0.247745
0.738003 0.746609 0.288731
0.738491 0.709712 0.322515
0.745480 0.688685 0.369574
0.788998 0.706050 0.400305
0.864927 0.749020 0.408423
0.929076 0.780056 0.417548
0.982818 0.801633 0.427344
1.000000 0.815488 0.437263
0.000000 0.935637 0.283848
0.000000 0.935882 0.281926
0.000000 0.936187 0.279057
0.000000 0.936858 0.272953
0.000000 0.937896 0.262760
0.000000 0.939330 0.248325
0.000000 0.941100 0.228244
0.000000 0.943236 0.200259
0.000000 0.945739 0.158785
0.000000 0.948608 0.080964
0.000000 0.951843 0.000000
0.000000 0.955383 0.000000
0.000000 0.958160 0.000000
0.000000 0.960113 0.000000
0.000000 0.962127 0.000000
0.144350 0.964172 0.000000
0.257389 0.966217 0.000000
0.359930 0.961456 0.000000
0.454444 0.950134 0.000000
0.530907 0.937987 0.000000
0.599329 0.919127 0.000000
0.656306 0.896910 0.000000
0.702052 0.872984 0.156802
0.737606 0.847257 0.227512
0.763363 0.819577 0.279271
0.779171 0.789761 0.321202
0.784756 0.757687 0.356603
0.798642 0.742763 0.409979
0.831693 0.752956 0.459693
0.902922 0.794736 0.477302
0.961822 0.824918 0.495918
1.000000 0.846281 0.515831
0.000000 0.964111 0.294285
0.000000 0.964294 0.292332
0.000000 0.964538 0.289738
0.000000 0.965118 0.284001
0.000000 0.966003 0.274693
0.000000 0.967193 0.261418
0.000000 0.968688 0.243168
0.000000 0.970459 0.218235
0.000000 0.972564 0.183139
0.000000 0.974975 0.128054
0.000000 0.977661 0.000000
0.000000 0.980652 0.000000
0.000000 0.983764 0.000000
0.000000 0.985199 0.000000
0.000000 0.986633 0.000000
0.000000 0.988098 0.000000
0.206271 0.989532 0.000000
0.296391 0.990936 0.000000
0.402533 0.982910 0.000000
0.489296 0.972717 0.000000
0.561913 0.961852 0.000000
0.630182 0.943603 0.000000
0.686824 0.923888 0.086336
0.733425 0.902861 0.199008
0.770809 0.880491 0.265324
0.799405 0.856748 0.317601
0.819181 0.831632 0.361944
0.829953 0.805051 0.400824
0.849454 0.795895 0.461646
0.874113 0.801602 0.530632
0.939239 0.841672 0.557580
0.991791 0.871183 0.586633
0.000000 0.990173 0.304021
0.000000 0.990356 0.302312
0.000000 0.990539 0.299809
0.000000 0.991028 0.294469
0.000000 0.991760 0.285771
0.000000 0.992737 0.273564
0.000000 0.993957 0.256901
0.000000 0.995422 0.234653
0.000000 0.997192 0.204227
0.000000 0.999176 0.159945
0.000000 1.000000 0.075593
0.000000 1.000000 0.000000
0.000000 1.000000 0.000000
0.000000 1.000000 0.000000
0.000000 1.000000 0.000000
0.000000 1.000000 0.000000
0.136202 1.000000 0.000000
0.253391 1.000000 0.000000
0.340276 1.000000 0.000000
0.440864 1.000000 0.000000
0.521447 0.993408 0.000000
0.592493 0.982879 0.000000
0.659815 0.966552 0.000000
0.716579 0.949279 0.153017
0.764187 0.931090 0.243778
0.803403 0.912108 0.309300
0.834562 0.892271 0.364263
0.857786 0.871702 0.413001
0.872831 0.850462 0.456458
0.896605 0.846647 0.522820
0.915190 0.851102 0.612543
0.973297 0.889220 0.647089
0.000000 1.000000 0.313176
0.000000 1.000000 0.311620
0.000000 1.000000 0.309361
0.000000 1.000000 0.304387
0.000000 1.000000 0.296330
0.000000 1.000000 0.285100
0.000000 1.000000 0.269810
0.000000 1.000000 0.249668
0.000000 1.000000 0.222843
0.000000 1.000000 0.185794
0.000000 1.000000 0.127657
0.000000 1.000000 0.000000
0.000000 1.000000 0.000000
0.000000 1.000000 0.000000
