data/fiter_cube/35558087/1023151/file.cube
# Created by Adobe Lightroom plugin Export LUT (1.17.0)
# www.johnrellis.com/lightroom/exportlut.htm
# Preset: 明亮通透美食摄影_04 云集
# Color profile: C:\Program Files (x86)\Common Files\Adobe\Color\Profiles\Recommended\AdobeRGB1998.icc
LUT_3D_SIZE 5
DOMAIN_MIN 0.000000 0.000000 0.000000
DOMAIN_MAX 0.903226 0.903226 0.903226
0.000000 0.000000 0.000000
0.199100 0.000000 0.000000
0.445686 0.000000 0.000000
0.743954 0.000000 0.000000
1.000000 0.000000 0.000000
0.000000 0.213687 0.070497
0.171206 0.183902 0.063813
0.448981 0.217288 0.000000
0.746090 0.221653 0.000000
1.000000 0.197543 0.000000
0.000000 0.513329 0.154910
0.000000 0.538811 0.000000
0.383917 0.413611 0.121492
0.703700 0.469917 0.000000
1.000000 0.482307 0.000000
0.000000 0.834928 0.249729
0.000000 0.847044 0.132265
0.219059 0.876127 0.000000
0.649836 0.699916 0.200626
0.920958 0.718593 0.293309
0.000000 1.000000 0.321874
0.000000 1.000000 0.263279
0.000000 1.000000 0.000000
0.507317 1.000000 0.000000
0.901396 0.956390 0.486641
0.000000 0.000000 0.212253
0.206912 0.000000 0.216678
0.457618 0.000000 0.209567
0.756985 0.000000 0.154330
1.000000 0.000000 0.098299
0.000000 0.209720 0.217807
0.194949 0.201389 0.214817
0.460639 0.169406 0.188602
0.757565 0.112032 0.150515
1.000000 0.000000 0.086519
0.000000 0.497292 0.269902
0.000000 0.513176 0.244694
0.405402 0.434302 0.217899
0.748440 0.477638 0.154696
1.000000 0.459022 0.000885
0.000000 0.825772 0.352331
0.000000 0.835874 0.317082
0.210178 0.870909 0.000000
0.660304 0.709529 0.271611
0.936431 0.722316 0.326146
0.000000 1.000000 0.408209
0.000000 1.000000 0.376196
0.000000 1.000000 0.134310
0.504540 1.000000 0.106050
0.904326 0.957122 0.522484
0.000000 0.000000 0.482643
0.213535 0.000000 0.486519
0.471107 0.000000 0.494789
0.761624 0.000000 0.498726
1.000000 0.000000 0.446204
0.000000 0.177646 0.494179
0.123690 0.138735 0.497169
0.471962 0.000000 0.501701
0.766293 0.000000 0.487495
1.000000 0.000000 0.425727
0.000000 0.480171 0.499611
0.000000 0.479896 0.502342
0.440894 0.457984 0.493629
0.767788 0.428290 0.459083
1.000000 0.386145 0.410651
0.000000 0.793423 0.534997
0.000000 0.801572 0.531945
0.378546 0.823453 0.523827
0.695430 0.736721 0.481270
0.984222 0.727840 0.462196
0.000000 1.000000 0.561669
0.000000 1.000000 0.557000
0.356786 1.000000 0.563745
0.564141 1.000000 0.499794
0.914611 0.959411 0.629694
0.000000 0.000000 0.779690
0.200870 0.000000 0.780941
0.475227 0.000000 0.785214
0.754360 0.000000 0.790646
1.000000 0.000000 0.754818
0.000000 0.109651 0.785580
0.000000 0.064820 0.786587
0.451850 0.000000 0.789731
0.754391 0.000000 0.793759
1.000000 0.000000 0.749142
0.000000 0.456306 0.790280
0.000000 0.438239 0.792996
0.350103 0.368811 0.798459
0.752285 0.295995 0.801816
1.000000 0.318883 0.733089
0.000000 0.761532 0.790616
0.000000 0.761471 0.791867
0.312535 0.760342 0.793576
0.740902 0.754788 0.784878
0.990509 0.739864 0.755856
0.000000 1.000000 0.755795
0.000000 1.000000 0.754482
0.296635 1.000000 0.756924
0.753170 1.000000 0.815488
0.935485 0.964050 0.794522
0.000000 0.000000 1.000000
0.155886 0.000000 1.000000
0.442329 0.000000 1.000000
0.699519 0.000000 1.000000
0.965820 0.000000 1.000000
0.000000 0.000000 1.000000
0.000000 0.000000 1.000000
0.416052 0.000000 1.000000
0.690852 0.000000 1.000000
0.966461 0.000000 1.000000
0.000000 0.385046 1.000000
0.000000 0.363165 1.000000
0.319677 0.332403 1.000000
0.660761 0.268132 1.000000
0.966369 0.196872 1.000000
0.000000 0.692775 1.000000
0.000000 0.689021 1.000000
0.322881 0.684382 1.000000
0.683162 0.691005 1.000000
0.966247 0.680232 1.000000
0.000000 0.971466 0.996460
0.000000 0.971923 0.996582
0.331090 0.972473 0.994965
0.722866 0.975341 0.991699
0.977386 0.981079 0.988067
