data/fiter_cube/35558087/1023151/file.cube
# Created by Adobe Lightroom plugin Export LUT (1.17.0)
# www.johnrellis.com/lightroom/exportlut.htm
# Preset: 明亮通透美食摄影_04 云集
# Color profile: C:\Program Files (x86)\Common Files\Adobe\Color\Profiles\Recommended\AdobeRGB1998.icc
LUT_3D_SIZE 8
DOMAIN_MIN 0.000000 0.000000 0.000000
DOMAIN_MAX 0.903226 0.903226 0.903226
0.000000 0.000000 0.000000
0.108980 0.000000 0.000000
0.231083 0.000000 0.000000
0.369268 0.000000 0.000000
0.527733 0.000000 0.000000
0.700618 0.000000 0.000000
0.865141 0.000000 0.000000
1.000000 0.000000 0.000000
0.000000 0.112978 0.025544
0.094789 0.101045 0.037903
0.231876 0.113832 0.000000
0.370428 0.113985 0.000000
0.528740 0.107393 0.000000
0.701381 0.086122 0.000000
0.865446 0.000000 0.000000
1.000000 0.000000 0.000000
0.000000 0.250523 0.081392
0.000000 0.258579 0.000000
0.199222 0.214115 0.069947
0.350134 0.235203 0.000946
0.532006 0.256565 0.000000
0.703944 0.261997 0.000000
0.866392 0.257145 0.000000
1.000000 0.242924 0.000000
0.000000 0.416724 0.127810
0.000000 0.424353 0.071229
0.108675 0.446509 0.000000
0.318608 0.343267 0.102693
0.444007 0.342687 0.115969
0.707607 0.415045 0.000000
0.867704 0.416175 0.000000
1.000000 0.405158 0.000000
0.000000 0.614832 0.183536
0.000000 0.621515 0.145418
0.000000 0.644404 0.000000
0.300023 0.645777 0.000000
0.453803 0.489052 0.139803
0.541009 0.449439 0.193484
0.826261 0.552605 0.000000
1.000000 0.558556 0.000000
0.000000 0.795926 0.237430
0.000000 0.800107 0.209049
0.000000 0.814542 0.000000
0.000000 0.833555 0.000000
0.463203 0.803708 0.000000
0.610407 0.657679 0.183444
0.669093 0.581262 0.284977
0.944457 0.694453 0.225040
0.000000 0.935637 0.283848
0.000000 0.937896 0.262760
0.000000 0.945739 0.158785
0.000000 0.958160 0.000000
0.257389 0.966217 0.000000
0.599329 0.919127 0.000000
0.763363 0.819577 0.279271
0.831693 0.752956 0.459693
0.000000 1.000000 0.321874
0.000000 1.000000 0.306126
0.000000 1.000000 0.239536
0.000000 1.000000 0.000000
0.000000 1.000000 0.000000
0.423865 1.000000 0.000000
0.716487 1.000000 0.147494
0.901396 0.956390 0.486641
0.000000 0.000000 0.114778
0.111208 0.000000 0.115724
0.235599 0.000000 0.114015
0.377111 0.000000 0.091463
0.534936 0.000000 0.068971
0.706111 0.000000 0.000000
0.868437 0.000000 0.000000
1.000000 0.000000 0.000000
0.000000 0.112642 0.116304
0.108064 0.110475 0.115816
0.236393 0.098756 0.107393
0.377264 0.073884 0.090578
0.535393 0.000000 0.064546
0.706691 0.000000 0.000000
0.868650 0.000000 0.000000
1.000000 0.000000 0.000000
0.000000 0.246983 0.138552
0.050996 0.251347 0.130159
0.210544 0.224949 0.122469
0.372930 0.241123 0.095430
0.537438 0.245548 0.042634
0.708522 0.244602 0.000000
0.869261 0.235630 0.000000
1.000000 0.219211 0.000000
0.000000 0.412116 0.178561
0.000000 0.417975 0.160128
0.092653 0.441901 0.000000
0.326696 0.351019 0.140871
0.463050 0.353491 0.142153
0.711116 0.409644 0.000000
0.870085 0.407568 0.000000
1.000000 0.395178 0.000000
0.000000 0.609644 0.231113
0.000000 0.615869 0.208347
0.000000 0.639521 0.000000
0.285924 0.651453 0.000000
0.460060 0.495247 0.169070
0.555993 0.459571 0.207187
0.835355 0.553460 0.013153
1.000000 0.553765 0.000000
0.000000 0.792386 0.280735
0.000000 0.796567 0.258183
0.000000 0.811276 0.136538
0.000000 0.831846 0.000000
0.458778 0.807065 0.000000
0.614160 0.661280 0.207492
0.678981 0.588495 0.294560
0.948974 0.694697 0.237583
0.000000 0.933745 0.320134
0.000000 0.936034 0.302068
0.000000 0.943969 0.221683
0.000000 0.957488 0.000000
0.258793 0.965606 0.000000
0.597986 0.921599 0.000000
0.765103 0.820920 0.296880
0.836332 0.756497 0.466590
0.000000 1.000000 0.351873
0.000000 1.000000 0.337774
0.000000 1.000000 0.280400
0.000000 1.000000 0.085939
0.000000 1.000000 0.000000
0.421820 1.000000 0.000000
0.716243 1.000000 0.183566
0.902251 0.956603 0.497444
0.000000 0.000000 0.246555
0.111543 0.000000 0.248264
0.240696 0.000000 0.252354
0.380560 0.000000 0.252842
0.542229 0.000000 0.245487
0.716396 0.000000 0.215702
0.876921 0.000000 0.176730
1.000000 0.000000 0.149844
0.000000 0.099825 0.252110
0.080568 0.086427 0.253422
0.239994 0.024567 0.254978
0.382635 0.000000 0.248569
0.544457 0.000000 0.235904
0.718166 0.000000 0.198276
0.876890 0.000000 0.175753
1.000000 0.000000 0.148257
0.000000 0.244053 0.253758
0.000000 0.243381 0.254643
0.225559 0.233402 0.249912
0.382025 0.217136 0.234623
0.547112 0.194888 0.218448
0.718563 0.166384 0.198062
0.876799 0.132540 0.172427
1.000000 0.095735 0.142428
0.000000 0.397345 0.270176
0.000000 0.401678 0.268711
0.167819 0.412909 0.255406
0.348638 0.371008 0.240391
0.526085 0.381964 0.231785
0.719020 0.388647 0.199008
0.876371 0.376776 0.167330
1.000000 0.359472 0.132631
0.000000 0.594171 0.320958
0.000000 0.598779 0.316136
0.000000 0.613336 0.290593
0.244633 0.651820 0.176211
0.479347 0.513848 0.252903
0.608087 0.491890 0.256840
0.865568 0.553277 0.180514
1.000000 0.537346 0.120211
0.000000 0.782193 0.366308
0.000000 0.785245 0.360357
0.000000 0.796353 0.329870
0.000000 0.823209 0.143099
0.441474 0.818112 0.153292
0.626673 0.672969 0.280705
0.713008 0.612268 0.329076
0.964691 0.694362 0.281437
0.000000 0.928161 0.400000
0.000000 0.929747 0.395270
0.000000 0.936278 0.365637
0.000000 0.950683 0.239811
0.271702 0.962585 0.148623
0.593286 0.930144 0.164309
0.771389 0.825467 0.355474
0.852476 0.768551 0.490700
0.000000 1.000000 0.425330
0.000000 1.000000 0.422644
0.000000 1.000000 0.394507
0.000000 1.000000 0.304601
0.000000 1.000000 0.158236
0.419928 1.000000 0.188083
0.716030 1.000000 0.277592
0.905333 0.957366 0.534112
0.000000 0.000000 0.397620
0.106844 0.000000 0.399176
0.245274 0.000000 0.403174
0.388251 0.000000 0.407782
0.547173 0.000000 0.414008
0.718776 0.000000 0.412757
0.878782 0.000000 0.388739
1.000000 0.000000 0.342443
0.000000 0.070375 0.403906
0.021759 0.052369 0.404761
0.234073 0.000000 0.407141
0.388800 0.000000 0.410407
0.549462 0.000000 0.412512
0.720546 0.000000 0.407874
0.880003 0.000000 0.381384
1.000000 0.000000 0.333318
0.000000 0.237369 0.408331
0.000000 0.227909 0.410163
0.177005 0.188815 0.413214
0.384863 0.144594 0.414466
0.553948 0.139681 0.404700
0.725093 0.000000 0.389563
0.883421 0.000000 0.355169
1.000000 0.000000 0.316228
0.000000 0.394720 0.410864
0.000000 0.394903 0.411963
0.142092 0.392462 0.413153
0.362646 0.376471 0.405280
0.550988 0.358495 0.386511
0.726345 0.338415 0.369268
0.882933 0.315496 0.346044
1.000000 0.291508 0.318700
0.000000 0.564233 0.422248
0.000000 0.568109 0.423133
0.000000 0.580316 0.424018
0.312718 0.596094 0.415717
0.510857 0.542016 0.388708
0.695338 0.539300 0.381933
0.879423 0.537285 0.356207
1.000000 0.511162 0.324224
0.000000 0.762448 0.471717
0.000000 0.765377 0.469856
0.000000 0.774990 0.462165
0.257481 0.789364 0.445808
0.422827 0.823392 0.370336
0.648280 0.691249 0.398840
0.771481 0.648737 0.397253
0.990600 0.690455 0.366461
0.000000 0.918334 0.498573
0.000000 0.919890 0.496071
0.000000 0.925078 0.487709
0.219242 0.932952 0.477424
0.321172 0.953216 0.370520
0.595544 0.940124 0.378973
0.783017 0.832700 0.453468
0.880858 0.788144 0.533257
0.000000 1.000000 0.511650
0.000000 1.000000 0.509728
0.000000 1.000000 0.504356
0.173251 1.000000 0.496376
0.263920 1.000000 0.404791
0.474861 1.000000 0.396155
0.719326 1.000000 0.407355
0.910857 0.958587 0.593957
0.000000 0.000000 0.571466
0.088777 0.000000 0.572412
0.251621 0.000000 0.575402
0.399756 0.000000 0.579431
0.556756 0.000000 0.584558
0.721614 0.000000 0.586694
0.877623 0.000000 0.573327
1.000000 0.000000 0.540032
0.000000 0.000000 0.576104
0.000000 0.000000 0.576715
0.233982 0.000000 0.578851
0.393896 0.000000 0.582147
0.557305 0.000000 0.586603
0.723354 0.000000 0.585962
0.878691 0.000000 0.570306
1.000000 0.000000 0.535760
0.000000 0.206973 0.583398
0.000000 0.186435 0.585077
0.142275 0.160311 0.586664
0.368383 0.094911 0.589136
0.556878 0.000000 0.591821
0.727932 0.000000 0.582055
0.881926 0.000000 0.559533
1.000000 0.000000 0.521019
0.000000 0.394934 0.585657
0.000000 0.390417 0.587060
0.000000 0.370733 0.590631
0.305058 0.323095 0.593652
0.547295 0.278935 0.594598
0.730587 0.295018 0.572473
0.884611 0.254093 0.541161
1.000000 0.189731 0.498299
0.000000 0.565698 0.588586
0.000000 0.565881 0.589502
0.000000 0.565209 0.591547
0.283268 0.560021 0.591547
0.525475 0.543725 0.582238
0.722927 0.530114 0.561028
0.879759 0.513420 0.540215
1.000000 0.487800 0.509728
0.000000 0.734279 0.586542
0.000000 0.735683 0.585473
0.000000 0.740261 0.581384
0.225895 0.753384 0.585168
0.498054 0.767514 0.592370
0.681270 0.714412 0.564263
0.845457 0.696498 0.551080
1.000000 0.686275 0.528557
0.000000 0.901854 0.608789
0.000000 0.903380 0.608026
0.000000 0.908415 0.605371
0.179904 0.915953 0.602960
0.494240 0.922698 0.619806
0.633478 0.944152 0.596368
0.801205 0.842222 0.582086
0.921294 0.811704 0.596857
0.000000 1.000000 0.614740
0.000000 1.000000 0.613550
0.000000 1.000000 0.610315
0.177890 1.000000 0.610163
0.493721 1.000000 0.638636
0.569512 1.000000 0.585809
0.741939 1.000000 0.583215
0.919127 0.960418 0.670283
0.000000 0.000000 0.740993
0.000000 0.000000 0.741543
0.246036 0.000000 0.743069
0.400793 0.000000 0.745724
0.555505 0.000000 0.749264
0.717952 0.000000 0.752834
0.875731 0.000000 0.744564
1.000000 0.000000 0.713527
0.000000 0.000000 0.743465
0.000000 0.000000 0.743832
0.223941 0.000000 0.745083
0.391577 0.000000 0.747646
0.551904 0.000000 0.750820
0.718044 0.000000 0.753994
0.876707 0.000000 0.743954
1.000000 0.000000 0.711574
0.000000 0.161563 0.749660
0.000000 0.155245 0.750027
0.100069 0.128267 0.751095
0.354894 0.000000 0.752865
0.537438 0.000000 0.755306
0.717922 0.000000 0.757504
0.879637 0.000000 0.741085
1.000000 0.000000 0.704280
0.000000 0.371283 0.752255
0.000000 0.362951 0.753231
0.000000 0.328649 0.756374
0.268986 0.288548 0.758663
0.505669 0.239689 0.760220
0.714931 0.174746 0.761227
0.882628 0.179263 0.734218
1.000000 0.149325 0.691951
0.000000 0.552575 0.753384
0.000000 0.549920 0.754147
0.000000 0.539635 0.756374
0.211429 0.519097 0.759030
0.461616 0.480140 0.760830
0.706294 0.441627 0.761257
0.880247 0.475288 0.726131
1.000000 0.459541 0.686336
0.000000 0.725673 0.753933
0.000000 0.725734 0.754421
0.000000 0.725551 0.755795
0.165316 0.724422 0.757107
0.462318 0.721920 0.756191
0.700282 0.715450 0.748165
0.867063 0.708461 0.730983
0.994873 0.694240 0.711238
0.000000 0.886381 0.741756
0.000000 0.886992 0.740902
0.000000 0.888884 0.737362
0.000000 0.890623 0.729183
0.441260 0.895567 0.734066
0.700679 0.901915 0.764370
0.830411 0.856992 0.736690
0.967681 0.842283 0.722713
0.000000 1.000000 0.726864
0.000000 1.000000 0.726345
0.000000 1.000000 0.724666
0.060304 1.000000 0.724361
0.458320 1.000000 0.737148
0.709895 1.000000 0.783749
0.804471 1.000000 0.778775
0.931518 0.963104 0.767300
0.000000 0.000000 0.885618
0.000000 0.000000 0.885161
0.228458 0.000000 0.885985
0.387518 0.000000 0.887327
0.539208 0.000000 0.889036
0.693385 0.000000 0.891234
0.854032 0.000000 0.893370
1.000000 0.000000 0.877501
0.000000 0.000000 0.888975
0.000000 0.000000 0.888609
0.204501 0.000000 0.889189
0.377813 0.000000 0.890440
0.535363 0.000000 0.892363
0.693355 0.000000 0.894835
0.856931 0.000000 0.896971
1.000000 0.000000 0.879393
0.000000 0.130739 0.890532
0.000000 0.122896 0.890745
0.010101 0.087648 0.891722
0.336645 0.000000 0.892912
0.515251 0.000000 0.894896
0.684138 0.000000 0.896818
0.855589 0.000000 0.897520
1.000000 0.000000 0.874937
0.000000 0.322728 0.892241
0.000000 0.312169 0.893095
0.000000 0.284001 0.895079
0.242985 0.261479 0.895598
0.474891 0.218814 0.896971
0.665339 0.112917 0.898009
0.852873 0.000000 0.897765
1.000000 0.000000 0.867948
0.000000 0.520073 0.893767
0.000000 0.516564 0.894682
0.000000 0.503044 0.896788
0.110384 0.472877 0.899046
0.423713 0.439307 0.900633
0.643763 0.401221 0.901610
0.853605 0.379980 0.900908
1.000000 0.414160 0.861997
0.000000 0.693507 0.893584
0.000000 0.692042 0.893919
0.000000 0.686885 0.894957
0.072084 0.677852 0.895964
0.432410 0.671321 0.896391
0.650172 0.662745 0.895262
0.849912 0.641077 0.894774
0.993256 0.671290 0.861448
0.000000 0.859770 0.890532
0.000000 0.859525 0.890379
0.000000 0.859556 0.890867
0.000000 0.859617 0.891264
0.426551 0.861143 0.891691
0.666529 0.863615 0.890471
0.854002 0.863767 0.885161
0.979950 0.861234 0.874327
0.000000 1.000000 0.874266
0.000000 1.000000 0.873472
0.000000 1.000000 0.869047
0.000000 1.000000 0.863066
0.408362 1.000000 0.856962
0.659907 0.998444 0.866423
0.867308 0.991547 0.901823
0.951354 0.969268 0.883330
0.000000 0.000000 1.000000
0.000000 0.000000 1.000000
0.205295 0.000000 1.000000
0.367681 0.000000 1.000000
0.515923 0.000000 1.000000
0.662654 0.000000 1.000000
0.811795 0.000000 1.000000
0.965820 0.000000 1.000000
0.000000 0.000000 1.000000
0.000000 0.000000 1.000000
0.180667 0.000000 1.000000
0.357549 0.000000 1.000000
0.510613 0.000000 1.000000
0.659937 0.000000 1.000000
0.811124 0.000000 1.000000
0.966705 0.000000 1.000000
0.000000 0.102937 1.000000
0.000000 0.093874 1.000000
0.000000 0.033478 1.000000
0.318059 0.000000 1.000000
0.489784 0.000000 1.000000
0.648737 0.000000 1.000000
0.806180 0.000000 1.000000
0.966857 0.000000 1.000000
0.000000 0.280949 1.000000
0.000000 0.278264 1.000000
0.000000 0.269139 1.000000
0.234928 0.249577 1.000000
0.451698 0.214359 1.000000
0.627832 0.143343 1.000000
0.796017 0.000000 1.000000
0.966278 0.000000 1.000000
0.000000 0.481758 1.000000
0.000000 0.477455 1.000000
0.000000 0.463172 1.000000
0.034668 0.435157 1.000000
0.408515 0.419715 1.000000
0.606226 0.394934 1.000000
0.786099 0.352361 1.000000
0.966094 0.362219 1.000000
0.000000 0.653132 1.000000
0.000000 0.651789 1.000000
0.000000 0.647242 1.000000
0.158267 0.641840 1.000000
0.441077 0.641688 1.000000
0.627558 0.635981 1.000000
0.792569 0.613764 1.000000
0.965454 0.620539 1.000000
0.000000 0.813016 1.000000
0.000000 0.812619 1.000000
0.000000 0.811307 1.000000
0.147463 0.810605 1.000000
0.459358 0.815732 1.000000
0.673518 0.829831 0.998413
0.835843 0.841825 0.995880
0.968963 0.838468 0.994720
0.000000 0.971466 0.996460
0.000000 0.971679 0.996582
0.000000 0.971984 0.996490
0.139254 0.972198 0.995605
0.462684 0.973053 0.994202
0.675807 0.974792 0.992248
0.852537 0.977264 0.990021
0.977386 0.981079 0.988067
