data/fiter_cube/26597975/1022848/file.cube
# Created by Adobe Lightroom plugin Export LUT (1.17.0)
# www.johnrellis.com/lightroom/exportlut.htm
# Preset:  城市电影胶片_04 云集
# Color profile: C:\Program Files (x86)\Common Files\Adobe\Color\Profiles\Recommended\AdobeRGB1998.icc
LUT_3D_SIZE 5
DOMAIN_MIN 0.000000 0.000000 0.000000
DOMAIN_MAX 0.903226 0.903226 0.903226
0.064759 0.104219 0.107088
0.017762 0.099641 0.101289
0.090730 0.089509 0.089387
0.406226 0.000000 0.063172
0.904295 0.000000 0.000000
0.055451 0.086915 0.090822
0.040925 0.088716 0.088014
0.093996 0.092866 0.086702
0.373419 0.000000 0.064485
0.929564 0.000000 0.000000
0.010956 0.118349 0.095918
0.050568 0.121401 0.086030
0.065095 0.101106 0.099855
0.367712 0.126528 0.039704
0.886809 0.216526 0.000000
0.000000 0.380133 0.208652
0.000000 0.415198 0.162264
0.365942 0.446021 0.127810
0.165866 0.182010 0.187503
0.831022 0.501457 0.000000
0.000000 0.885130 0.664607
0.000000 0.889860 0.634119
0.500175 0.868864 0.494057
0.840238 0.847776 0.605921
0.639002 0.663172 0.683619
0.057435 0.095857 0.092256
0.030793 0.094667 0.087861
0.093263 0.080598 0.084260
0.324163 0.000000 0.077058
0.842741 0.000000 0.000000
0.049317 0.089601 0.085573
0.037873 0.086793 0.084749
0.097261 0.086976 0.083589
0.318975 0.000000 0.076112
0.846983 0.000000 0.000000
0.007141 0.114839 0.106355
0.037995 0.122011 0.094575
0.064454 0.102113 0.102419
0.319280 0.112673 0.068421
0.862272 0.145113 0.000000
0.000000 0.371801 0.252171
0.000000 0.408118 0.219699
0.341741 0.445350 0.166018
0.174075 0.191409 0.200656
0.834165 0.499428 0.000000
0.000000 0.879606 0.696498
0.000000 0.884398 0.669795
0.515892 0.897887 0.586236
0.857816 0.868833 0.656611
0.664942 0.689113 0.711269
0.036805 0.086793 0.086183
0.036805 0.086793 0.086183
0.112398 0.074586 0.122408
0.384649 0.000000 0.137545
0.872343 0.000000 0.158968
0.035767 0.088716 0.094545
0.043854 0.090974 0.095888
0.124727 0.079835 0.122621
0.378576 0.000000 0.130220
0.880156 0.000000 0.144564
0.015839 0.099519 0.125216
0.032959 0.109194 0.135836
0.103517 0.135561 0.143038
0.385046 0.095705 0.124239
0.881498 0.000000 0.111147
0.000000 0.342901 0.376379
0.000000 0.364233 0.356054
0.229068 0.451118 0.268070
0.223697 0.247196 0.272221
0.868956 0.500206 0.000000
0.000000 0.851560 0.773495
0.000000 0.865537 0.764340
0.427558 0.892668 0.711208
0.846464 0.883238 0.702205
0.645350 0.676570 0.706325
0.025360 0.098604 0.136324
0.031403 0.099855 0.134035
0.043641 0.098116 0.132540
0.425360 0.000000 0.349920
0.905730 0.000000 0.518883
0.044709 0.115480 0.171084
0.053315 0.115785 0.163546
0.058412 0.109071 0.142763
0.434546 0.000000 0.341833
0.892638 0.000000 0.491493
0.008301 0.134859 0.226535
0.072358 0.151675 0.242496
0.148135 0.190921 0.248600
0.446174 0.000000 0.332189
0.901701 0.000000 0.460029
0.000000 0.206760 0.403510
0.000000 0.228061 0.416907
0.153262 0.352483 0.493507
0.386084 0.417273 0.456489
0.909392 0.453834 0.397711
0.000000 0.747524 0.835416
0.000000 0.782010 0.841855
0.314519 0.881926 0.862028
0.710903 0.908446 0.789822
0.686763 0.722866 0.759823
0.000000 0.182895 0.419654
0.000000 0.179110 0.396033
0.000000 0.163638 0.316838
0.147524 0.118349 0.412055
0.885740 0.000000 0.796933
0.000000 0.220706 0.477058
0.000000 0.213199 0.450263
0.051331 0.187716 0.359136
0.148562 0.137209 0.410773
0.890196 0.000000 0.796201
0.080323 0.299901 0.619440
0.177829 0.332006 0.626490
0.222385 0.335973 0.557458
0.173068 0.223911 0.439734
0.918883 0.000000 0.806149
0.000000 0.382086 0.719051
0.114046 0.407324 0.723018
0.369207 0.519524 0.752438
0.557549 0.635584 0.752071
0.932708 0.538964 0.824643
0.000000 0.583246 0.858518
0.166079 0.601648 0.861143
0.420783 0.681941 0.879545
0.678950 0.800595 0.905058
0.855314 0.868681 0.887572
