data/fiter_cube/26597975/1022848/file.cube
# Created by Adobe Lightroom plugin Export LUT (1.17.0)
# www.johnrellis.com/lightroom/exportlut.htm
# Preset:  城市电影胶片_04 云集
# Color profile: C:\Program Files (x86)\Common Files\Adobe\Color\Profiles\Recommended\AdobeRGB1998.icc
LUT_3D_SIZE 8
DOMAIN_MIN 0.000000 0.000000 0.000000
DOMAIN_MAX 0.903226 0.903226 0.903226
0.064759 0.104219 0.107088
0.034852 0.104005 0.106661
0.018952 0.098329 0.099458
0.064942 0.092927 0.092653
0.140993 0.079438 0.085451
0.338140 0.000000 0.070954
0.619806 0.000000 0.000000
0.904295 0.000000 0.000000
0.063539 0.094759 0.100160
0.055268 0.096101 0.097169
0.021851 0.095216 0.098451
0.060761 0.093050 0.092439
0.126711 0.084993 0.085664
0.277195 0.000000 0.075502
0.546288 0.000000 0.016236
0.864988 0.000000 0.000000
0.051972 0.085939 0.089021
0.043946 0.086366 0.089326
0.039033 0.087617 0.086091
0.067750 0.093874 0.088685
0.135134 0.092012 0.083192
0.292943 0.000000 0.072236
0.623041 0.000000 0.000000
0.916991 0.000000 0.000000
0.029419 0.096681 0.087953
0.030030 0.098909 0.085176
0.063569 0.102266 0.083894
0.053193 0.092500 0.090394
0.146883 0.110262 0.080385
0.339361 0.088991 0.060182
0.624414 0.000000 0.000000
0.904326 0.000000 0.000000
0.000000 0.150637 0.109621
0.000000 0.153079 0.103853
0.062440 0.160250 0.091859
0.130831 0.156710 0.099550
0.076722 0.111513 0.111330
0.211002 0.135225 0.088808
0.560906 0.199863 0.000000
0.878843 0.329534 0.000000
0.000000 0.292546 0.168154
0.000000 0.325841 0.168490
0.000000 0.344091 0.109590
0.221592 0.359808 0.113405
0.270054 0.276555 0.143923
0.137911 0.159426 0.163668
0.398779 0.240940 0.123781
0.870634 0.501122 0.000000
0.000000 0.614008 0.371008
0.000000 0.628321 0.362799
0.000000 0.639033 0.285283
0.260685 0.646998 0.201816
0.551263 0.640345 0.221927
0.496407 0.498726 0.278691
0.287480 0.295964 0.302525
0.665187 0.494972 0.283177
0.000000 0.885130 0.664607
0.000000 0.885863 0.654902
0.142489 0.892790 0.626093
0.403479 0.906859 0.553735
0.641413 0.866484 0.519799
0.841611 0.860929 0.588952
0.798032 0.786099 0.650690
0.639002 0.663172 0.683619
0.063478 0.101747 0.101045
0.045319 0.102449 0.096223
0.027619 0.093812 0.092653
0.062989 0.089143 0.088319
0.124666 0.079988 0.084077
0.259861 0.000000 0.077302
0.516808 0.000000 0.039460
0.833951 0.000000 0.000000
0.061555 0.098146 0.095674
0.050324 0.093141 0.093080
0.030030 0.091432 0.091463
0.062470 0.089509 0.088014
0.119448 0.083040 0.084047
0.239322 0.000000 0.078187
0.468360 0.000000 0.053254
0.789181 0.000000 0.000000
0.051392 0.086061 0.086427
0.041810 0.086549 0.086763
0.038636 0.087037 0.085298
0.066621 0.091493 0.086061
0.119570 0.090547 0.082765
0.243381 0.044739 0.076570
0.498970 0.000000 0.035828
0.831327 0.000000 0.000000
0.029969 0.094972 0.088685
0.029938 0.097261 0.086763
0.059693 0.100008 0.084810
0.048798 0.091005 0.088899
0.115694 0.103426 0.081666
0.248417 0.094148 0.073243
0.492683 0.000000 0.015015
0.819028 0.000000 0.000000
0.000000 0.145510 0.112520
0.000000 0.146578 0.106905
0.056916 0.151034 0.093599
0.114321 0.143679 0.098146
0.071199 0.107057 0.106783
0.185916 0.127596 0.088746
0.497475 0.162661 0.000000
0.826535 0.271366 0.000000
0.000000 0.264042 0.165438
0.000000 0.271092 0.158022
0.000000 0.290105 0.116457
0.185306 0.312688 0.115663
0.247013 0.255436 0.141024
0.133761 0.156710 0.161654
0.380835 0.229496 0.122377
0.837400 0.469459 0.000000
0.000000 0.548425 0.332952
0.000000 0.545251 0.311681
0.000000 0.567102 0.254459
0.206302 0.597681 0.181399
0.511681 0.608972 0.207889
0.463478 0.466224 0.259495
0.256077 0.265263 0.272465
0.604273 0.435676 0.236790
0.000000 0.859190 0.646937
0.000000 0.864286 0.641627
0.000000 0.874876 0.613794
0.355810 0.894621 0.533288
0.663569 0.886412 0.573877
0.850095 0.870298 0.613062
0.790799 0.780026 0.643488
0.611139 0.637354 0.658595
0.054078 0.093904 0.089448
0.051820 0.092592 0.089296
0.034119 0.092287 0.087190
0.070802 0.084810 0.087953
0.149233 0.065064 0.084840
0.304540 0.000000 0.081605
0.579675 0.000000 0.056947
0.877836 0.000000 0.000000
0.048127 0.090517 0.086946
0.043427 0.088991 0.086244
0.037171 0.088655 0.086030
0.070100 0.084321 0.085725
0.138216 0.072694 0.084596
0.280766 0.000000 0.081849
0.542840 0.000000 0.060609
0.856260 0.000000 0.000000
0.043854 0.088075 0.084596
0.039063 0.087037 0.084718
0.038849 0.087037 0.084993
0.076295 0.089448 0.084565
0.145541 0.084047 0.084596
0.285740 0.000000 0.081117
0.542138 0.000000 0.055970
0.851835 0.000000 0.000000
0.020233 0.098329 0.097963
0.022278 0.101167 0.097963
0.055695 0.107118 0.092042
0.058991 0.097505 0.097536
0.152102 0.110109 0.083497
0.292790 0.082765 0.078218
0.552514 0.000000 0.027405
0.857176 0.000000 0.000000
0.000000 0.146242 0.132021
0.000000 0.150637 0.129274
0.038819 0.164370 0.111482
0.138338 0.167819 0.114382
0.083803 0.119265 0.122499
0.229648 0.140993 0.094728
0.531304 0.167056 0.000000
0.847745 0.268986 0.000000
0.000000 0.268223 0.201999
0.000000 0.277043 0.196841
0.000000 0.299565 0.167453
0.166873 0.318029 0.139742
0.258366 0.270603 0.158267
0.141604 0.164889 0.173556
0.403143 0.242191 0.128786
0.864469 0.487434 0.000000
0.000000 0.568505 0.410132
0.000000 0.569970 0.394079
0.000000 0.580987 0.337469
0.149996 0.604669 0.226474
0.485786 0.610163 0.250156
0.485603 0.493874 0.293034
0.285313 0.297856 0.310369
0.676875 0.500816 0.286046
0.000000 0.858854 0.686610
0.000000 0.857084 0.675044
0.000000 0.863890 0.646418
0.368963 0.892699 0.611780
0.634852 0.887541 0.599390
0.854398 0.879881 0.643915
0.805478 0.796689 0.670802
0.638422 0.665217 0.688930
0.042481 0.088136 0.084596
0.041291 0.087892 0.084627
0.038911 0.087373 0.084688
0.074708 0.083070 0.100313
0.158816 0.059449 0.107362
0.310216 0.000000 0.108370
0.566064 0.000000 0.100252
0.860960 0.000000 0.090394
0.037446 0.086793 0.085328
0.037232 0.086793 0.085603
0.037232 0.086793 0.085603
0.080598 0.082124 0.101442
0.159396 0.062074 0.105867
0.301732 0.000000 0.105592
0.549706 0.000000 0.096315
0.852018 0.000000 0.085481
0.035309 0.086763 0.088228
0.036652 0.087617 0.089265
0.044526 0.090822 0.091951
0.084504 0.088869 0.100923
0.166903 0.077394 0.104768
0.332097 0.000000 0.106569
0.617853 0.000000 0.100832
0.889494 0.000000 0.090272
0.025818 0.091463 0.102571
0.029084 0.093294 0.104982
0.044739 0.106111 0.113802
0.074830 0.111177 0.113741
0.169314 0.112032 0.105135
0.317662 0.066926 0.103700
0.578698 0.000000 0.091035
0.879210 0.000000 0.057710
0.000000 0.141207 0.164370
0.000000 0.148898 0.166354
0.000000 0.170596 0.163546
0.140108 0.195956 0.149203
0.108522 0.142855 0.154513
0.314061 0.167849 0.107393
0.588220 0.172549 0.064149
0.878050 0.248325 0.000000
0.000000 0.295109 0.292119
0.000000 0.321538 0.305028
0.000000 0.339208 0.272801
0.137209 0.379187 0.205325
0.331731 0.356878 0.223392
0.180301 0.202609 0.220401
0.488838 0.295384 0.146853
0.886809 0.486213 0.000000
0.000000 0.574792 0.510887
0.000000 0.586206 0.508782
0.000000 0.614893 0.484871
0.123262 0.657588 0.412055
0.480812 0.665858 0.370428
0.559380 0.577691 0.388678
0.324529 0.345159 0.367437
0.732967 0.543938 0.321172
0.000000 0.873991 0.760403
0.000000 0.877745 0.757168
0.000000 0.883055 0.736873
0.346227 0.894102 0.701778
0.584131 0.897551 0.649836
0.827359 0.888365 0.686610
0.825620 0.820462 0.706569
0.665461 0.693080 0.719661
0.033478 0.087037 0.092073
0.033112 0.087343 0.092317
0.034943 0.087617 0.091463
0.048493 0.086885 0.101808
0.172335 0.041138 0.157778
0.349920 0.000000 0.173495
0.604669 0.000000 0.201053
0.884520 0.000000 0.250919
0.034760 0.088624 0.097383
0.035584 0.089204 0.097597
0.037293 0.089204 0.095552
0.051453 0.088441 0.105196
0.177249 0.042420 0.157351
0.351507 0.000000 0.172152
0.606775 0.000000 0.198245
0.883970 0.000000 0.244327
0.039185 0.094057 0.110445
0.047059 0.096956 0.113832
0.053346 0.099916 0.112734
0.060121 0.097536 0.115328
0.184176 0.065949 0.153841
0.336309 0.000000 0.161929
0.592370 0.000000 0.181399
0.868711 0.000000 0.210513
0.032441 0.098695 0.123873
0.038666 0.101259 0.126101
0.062898 0.112764 0.136294
0.089052 0.129244 0.144228
0.197238 0.116701 0.162478
0.358007 0.015686 0.167086
0.607599 0.000000 0.171786
0.881346 0.000000 0.188144
0.000000 0.114443 0.164767
0.000000 0.118410 0.169924
0.026947 0.133455 0.185611
0.098695 0.198154 0.215579
0.153079 0.176242 0.191287
0.350439 0.172244 0.156619
0.596918 0.113863 0.151919
0.879240 0.085451 0.158724
0.000000 0.206394 0.290318
0.000000 0.219730 0.296422
0.000000 0.265843 0.310948
0.040650 0.325719 0.300053
0.291386 0.362158 0.262974
0.206760 0.235355 0.264805
0.578485 0.344244 0.162966
0.894774 0.450965 0.115541
0.000000 0.540887 0.584771
0.000000 0.553033 0.586145
0.000000 0.578393 0.574853
0.000000 0.620264 0.540673
0.335943 0.664790 0.437842
0.590784 0.626368 0.466865
0.347631 0.378546 0.412787
0.770779 0.556939 0.316350
0.000000 0.846189 0.803555
0.000000 0.846983 0.798795
0.000000 0.852354 0.783505
0.242985 0.883482 0.774594
0.512139 0.895445 0.728847
0.762203 0.890837 0.715755
0.837491 0.838804 0.729519
0.658839 0.691005 0.722560
0.027497 0.096010 0.127382
0.029541 0.096223 0.126619
0.034485 0.097047 0.123018
0.041260 0.096834 0.115724
0.093477 0.088716 0.166934
0.374914 0.000000 0.304356
0.662623 0.000000 0.384070
0.914763 0.000000 0.479164
0.032715 0.099367 0.132143
0.033417 0.099641 0.131441
0.038575 0.099641 0.127108
0.044343 0.098787 0.117800
0.093416 0.090913 0.165530
0.368109 0.000000 0.294255
0.652125 0.000000 0.371771
0.908659 0.000000 0.467872
0.050141 0.117586 0.173220
0.057221 0.119112 0.171603
0.063355 0.119203 0.162356
0.063691 0.114382 0.143801
0.110872 0.104005 0.186831
0.402106 0.000000 0.303716
0.661006 0.000000 0.369146
0.912505 0.000000 0.457740
0.033478 0.129152 0.207645
0.054292 0.133150 0.209812
0.094392 0.153475 0.227848
0.123140 0.169345 0.225742
0.158816 0.151003 0.246098
0.456397 0.000000 0.340703
0.697475 0.000000 0.386938
0.929503 0.000000 0.455055
0.000000 0.136782 0.227970
0.000000 0.142000 0.233585
0.072267 0.161654 0.252750
0.147402 0.206851 0.288914
0.208530 0.245579 0.291783
0.433204 0.214084 0.331395
0.672816 0.133974 0.352605
0.912902 0.000000 0.401007
0.000000 0.172183 0.320562
0.000000 0.181674 0.334874
0.000000 0.207736 0.360998
0.084260 0.260868 0.403998
0.234745 0.418219 0.449317
0.330297 0.355230 0.389563
0.666743 0.387762 0.315892
0.919890 0.415167 0.358770
0.000000 0.408148 0.618189
0.000000 0.433509 0.629175
0.000000 0.498024 0.644343
0.000000 0.604028 0.671717
0.289494 0.683558 0.660487
0.603815 0.707912 0.610590
0.426123 0.478920 0.532464
0.877623 0.621180 0.378912
0.000000 0.782620 0.834867
0.000000 0.789975 0.834928
0.000000 0.818753 0.838285
0.065064 0.868833 0.847532
0.439979 0.885008 0.817868
0.650507 0.902312 0.760555
0.863340 0.876555 0.783810
0.683345 0.718318 0.753933
0.000000 0.119722 0.209689
0.000000 0.120821 0.210513
0.012238 0.120211 0.198764
0.035187 0.117769 0.178592
0.045960 0.111391 0.178378
0.225284 0.001160 0.337011
0.627131 0.000000 0.559258
0.908476 0.000000 0.650813
0.001801 0.123323 0.213169
0.005432 0.124025 0.213016
0.021881 0.123110 0.201236
0.041810 0.119295 0.178622
0.050080 0.112215 0.173495
0.212680 0.039582 0.317937
0.598749 0.000000 0.526421
0.885740 0.000000 0.626612
0.037751 0.152956 0.281468
0.059297 0.155947 0.279881
0.065187 0.150576 0.256718
0.070283 0.141634 0.221134
0.067292 0.127321 0.188754
0.234470 0.068116 0.345525
0.635248 0.000000 0.550408
0.907012 0.000000 0.641657
0.035401 0.189609 0.377966
0.076051 0.195956 0.378790
0.122957 0.212222 0.373175
0.140444 0.210727 0.335363
0.117739 0.174563 0.252384
0.280919 0.126253 0.407355
0.694606 0.000000 0.584802
0.923247 0.000000 0.649439
0.000000 0.195895 0.401007
0.000000 0.201022 0.401770
0.092042 0.226108 0.416541
0.199252 0.286473 0.455512
0.234897 0.296452 0.410071
0.295750 0.237339 0.434668
0.688533 0.000000 0.573785
0.924071 0.000000 0.643977
0.000000 0.223148 0.456062
0.000000 0.231022 0.462348
0.000000 0.260258 0.483162
0.164889 0.321172 0.522454
0.315831 0.418402 0.570459
0.418372 0.485969 0.567010
0.712123 0.466926 0.626581
0.920989 0.479042 0.664759
0.000000 0.329168 0.622675
0.000000 0.341955 0.631617
0.000000 0.377478 0.649805
0.074311 0.442481 0.679591
0.302892 0.528618 0.710414
0.514794 0.713436 0.751888
0.591272 0.632197 0.676814
0.911009 0.639460 0.610590
0.000000 0.592615 0.834501
0.000000 0.606439 0.836332
0.000000 0.662501 0.849332
0.229313 0.738430 0.862028
0.436378 0.827695 0.876280
0.635309 0.898863 0.877531
0.835325 0.909850 0.847715
0.730587 0.766415 0.803555
0.000000 0.182895 0.419654
0.000000 0.183597 0.417548
0.000000 0.177554 0.387152
0.000000 0.170077 0.345861
0.019379 0.154696 0.280797
0.083619 0.134218 0.357336
0.513237 0.000000 0.660334
0.885740 0.000000 0.796933
0.000000 0.189029 0.426032
0.000000 0.189731 0.423682
0.000000 0.183841 0.395636
0.000000 0.173861 0.349615
0.032715 0.157412 0.284031
0.084352 0.136965 0.350103
0.500420 0.000000 0.648066
0.880064 0.000000 0.791165
0.000000 0.232792 0.492012
0.000000 0.231174 0.485969
0.003693 0.217838 0.448615
0.060060 0.209873 0.413031
0.073671 0.182498 0.331090
0.094789 0.155123 0.357763
0.504265 0.000000 0.653315
0.890349 0.000000 0.794949
0.081666 0.281559 0.584558
0.110567 0.290867 0.587091
0.163119 0.307408 0.574182
0.170901 0.297581 0.532311
0.144411 0.252049 0.440040
0.125154 0.201205 0.387060
0.526970 0.000000 0.679744
0.913390 0.000000 0.806180
0.000000 0.308751 0.637873
0.084443 0.322545 0.646387
0.187655 0.356634 0.656916
0.292973 0.414496 0.666743
0.294499 0.400244 0.606073
0.209842 0.296910 0.456092
0.534386 0.230808 0.699794
0.927276 0.000000 0.808286
0.000000 0.350225 0.689174
0.000000 0.355810 0.688960
0.126650 0.382208 0.693904
0.269993 0.441474 0.710903
0.433356 0.544091 0.741390
0.492103 0.579431 0.717983
0.561181 0.501701 0.742367
0.937652 0.471412 0.822080
0.000000 0.453132 0.772702
0.000000 0.460792 0.774166
0.166598 0.490089 0.781125
0.322942 0.551202 0.798520
0.472206 0.625666 0.813687
0.632013 0.717220 0.834409
0.703761 0.753658 0.816220
0.918212 0.726833 0.846036
0.000000 0.583246 0.858518
0.013123 0.587701 0.858732
0.201541 0.609094 0.862760
0.347021 0.653468 0.873106
0.493965 0.712764 0.886107
0.642145 0.781979 0.900938
0.795010 0.885100 0.918273
0.855314 0.868681 0.887572
