data/fiter_cube/26597975/1022848/file.cube
# Created by Adobe Lightroom plugin Export LUT (1.17.0)
# www.johnrellis.com/lightroom/exportlut.htm
# Preset:  城市电影胶片_04 云集
# Color profile: C:\Program Files (x86)\Common Files\Adobe\Color\Profiles\Recommended\AdobeRGB1998.icc
LUT_3D_SIZE 32
DOMAIN_MIN 0.0 0.0 0.0
DOMAIN_MAX 1.0 1.0 1.0
0.064759 0.104219 0.107088
0.064759 0.104219 0.107088
0.062104 0.104189 0.107118
0.050141 0.104402 0.107210
0.034852 0.104005 0.106661
0.025544 0.102602 0.105013
0.019135 0.101106 0.103090
0.017762 0.099641 0.101289
0.018952 0.098329 0.099458
0.025208 0.097078 0.097780
0.036866 0.095552 0.096071
0.051942 0.094392 0.094270
0.064942 0.092927 0.092653
0.076844 0.091218 0.091188
0.090730 0.089509 0.089387
0.107546 0.086641 0.087984
0.140993 0.079438 0.085451
0.180331 0.065797 0.082643
0.224704 0.017914 0.079713
0.277165 0.000000 0.075959
0.338140 0.000000 0.070954
0.406226 0.000000 0.063172
0.476661 0.000000 0.048310
0.548394 0.000000 0.018494
0.619806 0.000000 0.000000
0.690333 0.000000 0.000000
0.761868 0.000000 0.000000
0.833799 0.000000 0.000000
0.904295 0.000000 0.000000
0.970214 0.000000 0.000000
1.000000 0.000000 0.000000
1.000000 0.000000 0.000000
0.064759 0.104219 0.107088
0.064759 0.104219 0.107088
0.061219 0.103517 0.107210
0.049592 0.103426 0.107301
0.035737 0.102937 0.106508
0.026246 0.101808 0.104829
0.020813 0.100526 0.103120
0.017945 0.099367 0.101320
0.019135 0.098054 0.099489
0.024018 0.096834 0.097810
0.035492 0.095613 0.096101
0.050782 0.094453 0.094514
0.063233 0.093080 0.092927
0.074739 0.091493 0.091218
0.088258 0.089876 0.089693
0.104433 0.087282 0.088014
0.134981 0.081331 0.085603
0.170199 0.070558 0.083284
0.210422 0.040894 0.080720
0.258762 0.000000 0.077394
0.315709 0.000000 0.072877
0.380255 0.000000 0.066407
0.448432 0.000000 0.056031
0.519341 0.000000 0.030365
0.591333 0.000000 0.000000
0.663600 0.000000 0.000000
0.737728 0.000000 0.000000
0.812406 0.000000 0.000000
0.886107 0.000000 0.000000
0.955535 0.000000 0.000000
1.000000 0.000000 0.000000
1.000000 0.000000 0.000000
0.065034 0.103456 0.106935
0.063478 0.103059 0.107210
0.063600 0.103578 0.106477
0.049470 0.101625 0.107454
0.037171 0.101350 0.106172
0.027344 0.100740 0.104463
0.021515 0.099702 0.102937
0.018463 0.098817 0.101137
0.019654 0.097505 0.099275
0.024170 0.096559 0.097841
0.034302 0.095399 0.096101
0.049866 0.094209 0.094545
0.062715 0.093141 0.092958
0.073854 0.091615 0.091218
0.086824 0.090120 0.089693
0.103273 0.087526 0.088045
0.131716 0.082277 0.085939
0.164767 0.072969 0.083772
0.202914 0.052277 0.081025
0.248997 0.000000 0.077974
0.304112 0.000000 0.073793
0.367010 0.000000 0.067781
0.434333 0.000000 0.059297
0.504448 0.000000 0.036896
0.576379 0.000000 0.003876
0.649348 0.000000 0.000000
0.724483 0.000000 0.000000
0.800687 0.000000 0.000000
0.876249 0.000000 0.000000
0.947478 0.000000 0.000000
1.000000 0.000000 0.000000
1.000000 0.000000 0.000000
0.065248 0.098817 0.104097
0.062989 0.098482 0.104829
0.058015 0.098390 0.104677
0.059693 0.099458 0.101534
0.041718 0.098116 0.103670
0.028321 0.098360 0.103731
0.022187 0.097841 0.102144
0.019959 0.097444 0.100526
0.020600 0.096681 0.098848
0.024933 0.095979 0.097383
0.034699 0.095094 0.095888
0.049134 0.093996 0.094301
0.061707 0.093233 0.092683
0.072511 0.092073 0.090944
0.085023 0.090394 0.089723
0.102632 0.087984 0.088014
0.128786 0.083436 0.086000
0.158755 0.075898 0.083894
0.193332 0.061616 0.081666
0.235264 0.007507 0.078981
0.285863 0.000000 0.075074
0.345037 0.000000 0.069978
0.411139 0.000000 0.062043
0.483467 0.000000 0.044526
0.559747 0.000000 0.011810
0.638666 0.000000 0.000000
0.718441 0.000000 0.000000
0.797513 0.000000 0.000000
0.874083 0.000000 0.000000
0.945251 0.000000 0.000000
1.000000 0.000000 0.000000
1.000000 0.000000 0.000000
0.063539 0.094759 0.100160
0.061250 0.094697 0.100679
0.058991 0.094606 0.101198
0.051911 0.094759 0.100282
0.055268 0.096101 0.097169
0.038911 0.094820 0.098878
0.024537 0.095308 0.101350
0.021759 0.095460 0.099916
0.021851 0.095216 0.098451
0.026032 0.094850 0.096986
0.034089 0.094575 0.095399
0.047547 0.093812 0.093812
0.060761 0.093050 0.092439
0.071199 0.092256 0.090974
0.083497 0.090913 0.089448
0.102022 0.088716 0.087678
0.126711 0.084993 0.085664
0.155337 0.077913 0.083955
0.188785 0.065797 0.081758
0.229099 0.023407 0.079164
0.277195 0.000000 0.075502
0.333806 0.000000 0.070832
0.398047 0.000000 0.063478
0.469612 0.000000 0.048646
0.546288 0.000000 0.016236
0.626581 0.000000 0.000000
0.707546 0.000000 0.000000
0.787533 0.000000 0.000000
0.864988 0.000000 0.000000
0.937316 0.000000 0.000000
1.000000 0.000000 0.000000
1.000000 0.000000 0.000000
0.061830 0.091615 0.096712
0.060182 0.091493 0.096986
0.058808 0.091279 0.098024
0.051270 0.091432 0.097566
0.046815 0.092042 0.096315
0.050721 0.093355 0.093843
0.037201 0.092195 0.095064
0.024964 0.092866 0.098116
0.023713 0.093507 0.097597
0.027344 0.093690 0.096284
0.035401 0.093416 0.094697
0.048127 0.093233 0.093355
0.061006 0.092775 0.091920
0.070893 0.092317 0.090425
0.083528 0.091218 0.089143
0.102876 0.089479 0.087037
0.126192 0.086091 0.085298
0.154147 0.080140 0.083528
0.187289 0.069215 0.081331
0.227543 0.035950 0.078676
0.276097 0.000000 0.075288
0.333989 0.000000 0.070436
0.564233 0.000000 0.005524
0.639216 0.000000 0.000000
0.709804 0.000000 0.000000
0.777371 0.000000 0.000000
0.841947 0.000000 0.000000
0.903471 0.000000 0.000000
0.961028 0.000000 0.000000
1.000000 0.000000 0.000000
1.000000 0.000000 0.000000
1.000000 0.000000 0.000000
0.059022 0.088472 0.093111
0.058198 0.088533 0.093385
0.055085 0.088380 0.093660
0.050813 0.088319 0.094240
0.041688 0.088777 0.093751
0.041291 0.089448 0.092103
0.044831 0.090578 0.090059
0.035340 0.089754 0.091005
0.029023 0.090517 0.093416
0.032380 0.092103 0.094575
0.042451 0.092622 0.093172
0.055055 0.092927 0.091981
0.065644 0.092622 0.090486
0.075868 0.092592 0.089204
0.093080 0.091829 0.087404
0.114565 0.089784 0.085725
0.140078 0.085756 0.083803
0.170626 0.078614 0.082063
0.207645 0.064668 0.079774
0.255131 0.006043 0.076295
0.316686 0.000000 0.071443
0.393378 0.000000 0.063020
0.482185 0.000000 0.040558
0.576349 0.000000 0.000000
0.666743 0.000000 0.000000
0.746883 0.000000 0.000000
0.818906 0.000000 0.000000
0.884703 0.000000 0.000000
0.945830 0.000000 0.000000
0.999756 0.000000 0.000000
1.000000 0.000000 0.000000
1.000000 0.000000 0.000000
0.055451 0.086915 0.090822
0.054383 0.086671 0.091127
0.052338 0.086793 0.091127
0.049989 0.086885 0.091676
0.044617 0.086885 0.091463
0.036896 0.087221 0.090944
0.037476 0.088197 0.089479
0.040925 0.088716 0.088014
0.035615 0.088319 0.088380
0.033845 0.089265 0.089967
0.042847 0.091463 0.091920
0.055665 0.092622 0.091188
0.065248 0.092988 0.089906
0.077577 0.093263 0.088258
0.093996 0.092866 0.086702
0.113222 0.091585 0.085054
0.136385 0.088991 0.083711
0.164431 0.083467 0.081758
0.198947 0.073182 0.079561
0.243503 0.040925 0.076661
0.301122 0.000000 0.072236
0.373419 0.000000 0.064485
0.458595 0.000000 0.046937
0.549920 0.000000 0.006287
0.640406 0.000000 0.000000
0.722072 0.000000 0.000000
0.796414 0.000000 0.000000
0.865263 0.000000 0.000000
0.929564 0.000000 0.000000
0.986877 0.000000 0.000000
1.000000 0.000000 0.000000
1.000000 0.000000 0.000000
0.051972 0.085939 0.089021
0.050965 0.086000 0.089021
0.049928 0.086061 0.089021
0.047730 0.086183 0.089296
0.043946 0.086366 0.089326
0.038727 0.086610 0.089052
0.036652 0.086732 0.088197
0.037354 0.087037 0.087037
0.039033 0.087617 0.086091
0.036652 0.087098 0.086152
0.040162 0.088472 0.087465
0.053773 0.091035 0.088869
0.067750 0.093874 0.088685
0.080354 0.094636 0.087190
0.095399 0.094911 0.085908
0.113222 0.094209 0.084535
0.135134 0.092012 0.083192
0.161837 0.087892 0.081514
0.194949 0.079652 0.079347
0.237797 0.061860 0.076509
0.292943 0.000000 0.072236
0.362371 0.000000 0.065248
0.444282 0.000000 0.048737
0.533165 0.000000 0.010376
0.623041 0.000000 0.000000
0.705074 0.000000 0.000000
0.780789 0.000000 0.000000
0.851072 0.000000 0.000000
0.916991 0.000000 0.000000
0.976196 0.000000 0.000000
1.000000 0.000000 0.000000
1.000000 0.000000 0.000000
0.047669 0.086244 0.087587
0.046815 0.086305 0.087312
0.045441 0.086366 0.087312
0.044099 0.086427 0.087312
0.042573 0.086793 0.087312
0.040070 0.086915 0.087007
0.038941 0.086976 0.086732
0.036805 0.086793 0.086183
0.037232 0.086793 0.085603
0.037659 0.086793 0.085023
0.039033 0.086732 0.085023
0.049866 0.088685 0.085359
0.064668 0.092012 0.085756
0.081025 0.096254 0.086183
0.096162 0.097047 0.085115
0.114260 0.097078 0.083589
0.136507 0.095644 0.082155
0.163760 0.092073 0.080720
0.196963 0.085389 0.078370
0.238865 0.071015 0.075776
0.291051 0.015839 0.071534
0.354711 0.000000 0.064912
0.429297 0.000000 0.050385
0.511070 0.000000 0.015656
0.596246 0.000000 0.000000
0.678492 0.000000 0.000000
0.756832 0.000000 0.000000
0.831754 0.000000 0.000000
0.902312 0.000000 0.000000
0.966125 0.000000 0.000000
1.000000 0.000000 0.000000
1.000000 0.000000 0.000000
0.042664 0.087434 0.086671
0.042512 0.087770 0.086641
0.041352 0.087831 0.086366
0.040040 0.088197 0.086061
0.038911 0.088258 0.085756
0.040314 0.088533 0.085451
0.041505 0.088777 0.085420
0.043091 0.088716 0.085115
0.041077 0.087892 0.084932
0.040253 0.087312 0.084688
0.039246 0.086732 0.084749
0.042817 0.087495 0.084627
0.059236 0.089967 0.084260
0.072602 0.093751 0.083955
0.092134 0.097993 0.083650
0.113405 0.100496 0.082979
0.134890 0.099855 0.081819
0.161044 0.097719 0.080018
0.193088 0.092805 0.077974
0.233249 0.082551 0.075380
0.283543 0.059968 0.071199
0.345373 0.000000 0.064637
0.418433 0.000000 0.050752
0.499031 0.000000 0.016205
0.583246 0.000000 0.000000
0.664851 0.000000 0.000000
0.742733 0.000000 0.000000
0.817777 0.000000 0.000000
0.889128 0.000000 0.000000
0.954589 0.000000 0.000000
1.000000 0.000000 0.000000
1.000000 0.000000 0.000000
0.036896 0.090425 0.086763
0.037110 0.090425 0.086458
0.037171 0.090730 0.086152
0.035859 0.091096 0.085847
0.034974 0.091432 0.084932
0.037964 0.091646 0.084291
0.041871 0.091768 0.084260
0.048737 0.092653 0.084138
0.052796 0.092409 0.084108
0.050355 0.091066 0.084260
0.046815 0.089174 0.085054
0.042969 0.088075 0.085756
0.058137 0.092561 0.088685
0.076265 0.096895 0.085664
0.101198 0.101839 0.082948
0.135958 0.106752 0.080079
0.179294 0.110689 0.076967
0.212924 0.106600 0.074739
0.252506 0.098939 0.071534
0.300633 0.084413 0.066926
0.357855 0.048432 0.059846
0.424201 0.000000 0.039826
0.496712 0.000000 0.004852
0.573938 0.000000 0.000000
0.651392 0.000000 0.000000
0.725429 0.000000 0.000000
0.795529 0.000000 0.000000
0.861723 0.000000 0.000000
0.923705 0.000000 0.000000
0.980438 0.000000 0.000000
1.000000 0.055268 0.000000
1.000000 0.156863 0.000000
0.029419 0.096681 0.087953
0.029450 0.096986 0.087648
0.029511 0.097261 0.087343
0.029450 0.098085 0.086671
0.030030 0.098909 0.085176
0.033326 0.099641 0.083558
0.041932 0.100374 0.083742
0.053590 0.101167 0.083864
0.063569 0.102266 0.083894
0.065278 0.100526 0.084962
0.062989 0.097780 0.086397
0.059449 0.094728 0.088472
0.053193 0.092500 0.090394
0.060700 0.094789 0.091188
0.080751 0.099733 0.087861
0.108888 0.105318 0.084169
0.146883 0.110262 0.080385
0.195071 0.114168 0.075319
0.240421 0.112367 0.071168
0.285405 0.104097 0.066835
0.339361 0.088991 0.060182
0.402564 0.056947 0.042084
0.472206 0.000000 0.008942
0.547387 0.000000 0.000000
0.624414 0.000000 0.000000
0.698878 0.000000 0.000000
0.770474 0.000000 0.000000
0.839109 0.000000 0.000000
0.904326 0.000000 0.000000
0.964782 0.095888 0.000000
1.000000 0.167025 0.000000
1.000000 0.219547 0.000000
0.020050 0.106508 0.091249
0.021485 0.106691 0.090944
0.021729 0.106966 0.090394
0.022278 0.107454 0.089235
0.025544 0.108095 0.087709
0.027436 0.108827 0.084443
0.039155 0.109163 0.084321
0.053407 0.110048 0.084413
0.064942 0.111147 0.084718
0.075746 0.112428 0.085237
0.074952 0.108461 0.087404
0.071077 0.103914 0.089906
0.065736 0.099733 0.092592
0.059663 0.096468 0.094789
0.064210 0.098146 0.095613
0.086976 0.103731 0.090944
0.117952 0.109255 0.086336
0.158541 0.114321 0.081117
0.210758 0.118563 0.074708
0.271550 0.120302 0.066377
0.323400 0.112734 0.059815
0.384558 0.099245 0.041566
0.452705 0.076875 0.008728
0.526970 0.022766 0.000000
0.604059 0.000000 0.000000
0.679591 0.000000 0.000000
0.752499 0.000000 0.000000
0.822904 0.076631 0.000000
0.890349 0.134432 0.000000
0.953429 0.187228 0.000000
1.000000 0.234501 0.000000
1.000000 0.275364 0.000000
0.010956 0.118349 0.095918
0.012207 0.118746 0.095613
0.012848 0.118746 0.094820
0.014954 0.119142 0.093477
0.018677 0.119722 0.091493
0.022705 0.120119 0.087526
0.032837 0.120699 0.085664
0.050568 0.121401 0.086030
0.065400 0.122652 0.086244
0.079500 0.124697 0.086854
0.089448 0.124239 0.088380
0.087282 0.118746 0.091554
0.080842 0.111604 0.094850
0.073304 0.105653 0.097841
0.065095 0.101106 0.099855
0.067842 0.102358 0.100679
0.093996 0.108309 0.095125
0.128023 0.113985 0.089418
0.172732 0.119692 0.082948
0.230503 0.124636 0.074708
0.302434 0.129366 0.061891
0.367712 0.126528 0.039704
0.433539 0.118502 0.007294
0.506310 0.110109 0.000000
0.583490 0.107301 0.000000
0.661616 0.115755 0.000000
0.738705 0.138521 0.000000
0.814389 0.173617 0.000000
0.886809 0.216526 0.000000
0.953735 0.261936 0.000000
1.000000 0.302953 0.000000
1.000000 0.338231 0.000000
0.000000 0.133272 0.102205
0.000000 0.133852 0.101686
0.001373 0.134218 0.101167
0.004700 0.134890 0.099611
0.008362 0.135958 0.097230
0.015473 0.137331 0.093416
0.022278 0.138521 0.088289
0.045960 0.139681 0.088533
0.066194 0.141604 0.089143
0.083680 0.144015 0.089784
0.105074 0.146609 0.090761
0.110201 0.140841 0.093812
0.104341 0.131655 0.097444
0.092958 0.120607 0.100923
0.081209 0.112001 0.103639
0.070222 0.105989 0.105043
0.071626 0.106294 0.105898
0.100801 0.113039 0.099763
0.139376 0.119783 0.093202
0.190982 0.126711 0.085359
0.258000 0.133669 0.074769
0.340642 0.142031 0.054353
0.427070 0.151827 0.000000
0.500694 0.154330 0.000000
0.579248 0.163424 0.000000
0.659052 0.181430 0.000000
0.737697 0.207980 0.000000
0.814420 0.242527 0.000000
0.887205 0.281956 0.000000
0.953460 0.321660 0.000000
1.000000 0.356329 0.000000
1.000000 0.385534 0.000000
0.000000 0.150637 0.109621
0.000000 0.150973 0.108888
0.000000 0.151095 0.108217
0.000000 0.151858 0.106538
0.000000 0.153079 0.103853
0.002411 0.155184 0.100191
0.009644 0.156558 0.092866
0.033021 0.158083 0.091096
0.062440 0.160250 0.091859
0.083314 0.162905 0.092622
0.107576 0.166171 0.093568
0.136233 0.169314 0.094392
0.130831 0.156710 0.099550
0.121126 0.143862 0.103944
0.105501 0.129915 0.107759
0.090761 0.119112 0.110231
0.076722 0.111513 0.111330
0.076173 0.111086 0.112245
0.109102 0.118715 0.105379
0.152987 0.126741 0.097963
0.211002 0.135225 0.088808
0.285496 0.144472 0.075410
0.375494 0.157839 0.043915
0.478126 0.182132 0.000000
0.560906 0.199863 0.000000
0.642329 0.222416 0.000000
0.723720 0.252537 0.000000
0.803250 0.289250 0.000000
0.878843 0.329534 0.000000
0.947784 0.368780 0.000000
1.000000 0.402441 0.000000
1.000000 0.429725 0.000000
0.000000 0.174197 0.119417
0.000000 0.175418 0.119265
0.000000 0.213016 0.132906
0.000000 0.214145 0.130098
0.000000 0.215549 0.125490
0.000000 0.217746 0.119142
0.000000 0.219120 0.108156
0.000000 0.220157 0.098909
0.058595 0.222049 0.099550
0.095247 0.224949 0.100435
0.131594 0.228458 0.101228
0.171023 0.231968 0.101900
0.196109 0.225132 0.105287
0.182467 0.200076 0.113161
0.161837 0.175143 0.119081
0.136477 0.152255 0.123201
0.113039 0.135531 0.124880
0.092012 0.123873 0.125185
0.087465 0.121889 0.125978
0.130282 0.131563 0.116854
0.185306 0.141878 0.107027
0.256504 0.153933 0.094392
0.344610 0.169528 0.074495
0.445869 0.193637 0.006226
0.552483 0.232517 0.000000
0.645228 0.272496 0.000000
0.720760 0.301122 0.000000
0.796384 0.335180 0.000000
0.870909 0.373022 0.000000
0.940978 0.410712 0.000000
1.000000 0.443366 0.000000
1.000000 0.468818 0.000000
0.000000 0.215122 0.136233
0.000000 0.221378 0.137881
0.000000 0.228458 0.139162
0.000000 0.235508 0.138613
0.000000 0.242039 0.135561
0.000000 0.247074 0.129610
0.000000 0.250797 0.119478
0.000000 0.252567 0.102724
0.013581 0.254795 0.102663
0.085176 0.258030 0.103273
0.127504 0.262058 0.104158
0.170779 0.266087 0.104891
0.215488 0.268620 0.105715
0.224277 0.249943 0.112551
0.206210 0.219974 0.121035
0.179782 0.189059 0.127535
0.150790 0.162753 0.131319
0.124208 0.143984 0.132815
0.101015 0.130983 0.132876
0.093233 0.127993 0.134463
0.141238 0.139376 0.125093
0.203769 0.152651 0.114717
0.283909 0.168856 0.100526
0.381292 0.191226 0.076112
0.490120 0.225162 0.000000
0.602350 0.276280 0.000000
0.708644 0.338231 0.000000
0.786557 0.374487 0.000000
0.863218 0.413092 0.000000
0.935058 0.450568 0.000000
0.997192 0.482673 0.000000
1.000000 0.506920 0.000000
0.000000 0.249699 0.150088
0.000000 0.256809 0.151858
0.000000 0.264408 0.153506
0.000000 0.272221 0.152987
0.000000 0.279576 0.149660
0.000000 0.285130 0.143221
0.000000 0.290196 0.134096
0.000000 0.292638 0.115328
0.000000 0.295689 0.106020
0.066957 0.299260 0.106722
0.121553 0.304082 0.107698
0.170352 0.308751 0.108522
0.219394 0.311803 0.109255
0.269993 0.313573 0.109865
0.257176 0.279973 0.121492
0.234287 0.244236 0.130770
0.202304 0.207187 0.137911
0.169650 0.177005 0.141756
0.139803 0.155276 0.143313
0.113497 0.140414 0.143282
0.101320 0.136233 0.145998
0.156985 0.150515 0.136263
0.228794 0.167727 0.124941
0.319524 0.190036 0.108431
0.426032 0.221012 0.078584
0.541772 0.266972 0.000000
0.657160 0.328893 0.000000
0.764736 0.397101 0.000000
0.852171 0.447608 0.000000
0.925841 0.485084 0.000000
0.990173 0.517296 0.000000
1.000000 0.541314 0.000000
0.000000 0.292546 0.168154
0.000000 0.300542 0.170413
0.000000 0.309178 0.172244
0.000000 0.317815 0.171817
0.000000 0.325841 0.168490
0.000000 0.331792 0.161288
0.000000 0.337163 0.150973
0.000000 0.340826 0.132906
0.000000 0.344091 0.109590
0.000000 0.347448 0.110475
0.109255 0.351812 0.111604
0.167208 0.356329 0.112642
0.221592 0.359808 0.113405
0.276127 0.362463 0.114321
0.315068 0.354467 0.118563
0.294560 0.314611 0.133059
0.270054 0.276555 0.143923
0.234989 0.235203 0.153201
0.200381 0.201633 0.159091
0.168276 0.176883 0.162387
0.137911 0.159426 0.163668
0.119783 0.153719 0.169192
0.192264 0.174929 0.159121
0.285344 0.203159 0.145632
0.398779 0.240940 0.123781
0.524407 0.293736 0.080018
0.650599 0.362524 0.000000
0.766812 0.434791 0.000000
0.870634 0.501122 0.000000
0.954589 0.552453 0.000000
1.000000 0.577630 0.000000
1.000000 0.595789 0.000000
0.000000 0.380133 0.208652
0.000000 0.385138 0.209537
0.000000 0.389593 0.209689
0.000000 0.394354 0.206912
0.000000 0.399115 0.201144
0.000000 0.403571 0.192203
0.000000 0.408881 0.179751
0.000000 0.415198 0.162264
0.000000 0.420081 0.129458
0.000000 0.425971 0.118929
0.095674 0.432288 0.120821
0.174838 0.438117 0.122774
0.241032 0.442420 0.124544
0.304295 0.444953 0.126253
0.365942 0.446021 0.127810
0.384009 0.423255 0.138857
0.358556 0.377539 0.155001
0.327123 0.331029 0.167636
0.285222 0.280858 0.178195
0.243870 0.238895 0.184573
0.203738 0.206119 0.187350
0.165866 0.182010 0.187503
0.140017 0.172641 0.193454
0.221530 0.198398 0.181430
0.326848 0.234562 0.165927
0.451606 0.283696 0.141329
0.586023 0.351415 0.092866
0.714992 0.428779 0.000000
0.831022 0.501457 0.000000
0.929015 0.562860 0.000000
1.000000 0.607385 0.000000
1.000000 0.628565 0.000000
0.000000 0.444282 0.244480
0.000000 0.449683 0.245762
0.000000 0.455085 0.246281
0.000000 0.460182 0.243870
0.000000 0.464912 0.237736
0.000000 0.468818 0.227329
0.000000 0.473152 0.213291
0.000000 0.479072 0.195743
0.000000 0.483650 0.162142
0.000000 0.489113 0.129122
0.035126 0.494514 0.131472
0.165743 0.499977 0.134340
0.242924 0.503990 0.137057
0.313237 0.507012 0.139864
0.380041 0.508873 0.142702
0.444587 0.510246 0.146120
0.438819 0.475746 0.163302
0.412543 0.430213 0.179934
0.377813 0.380285 0.194308
0.333532 0.326696 0.206241
0.289006 0.280217 0.213993
0.244663 0.242039 0.217960
0.201144 0.212711 0.218692
0.171389 0.201511 0.227481
0.247654 0.221866 0.204440
0.364904 0.267033 0.188785
0.501091 0.329198 0.163973
0.642145 0.409125 0.118471
0.772274 0.489296 0.000000
0.885527 0.560052 0.000000
0.975677 0.615625 0.000000
1.000000 0.651698 0.000000
0.000000 0.549523 0.316503
0.000000 0.555871 0.319097
0.000000 0.560021 0.319707
0.000000 0.563043 0.315465
0.000000 0.565118 0.306798
0.000000 0.566674 0.293614
0.000000 0.568231 0.276585
0.000000 0.570520 0.254185
0.000000 0.572534 0.219974
0.000000 0.573754 0.166354
0.000000 0.574151 0.155947
0.160220 0.575341 0.158999
0.250980 0.575677 0.161624
0.326574 0.574731 0.164279
0.394385 0.572076 0.166720
0.457771 0.568719 0.169223
0.509483 0.561700 0.173556
0.484413 0.517754 0.190616
0.456703 0.472663 0.206363
0.420203 0.421851 0.221805
0.376287 0.368322 0.235172
0.330083 0.319554 0.244114
0.281743 0.276799 0.248264
0.231968 0.241367 0.247410
0.197421 0.226688 0.256016
0.290196 0.261387 0.242924
0.425208 0.320836 0.227848
0.572198 0.398871 0.204044
0.714015 0.483680 0.170199
0.840543 0.561425 0.126406
0.944030 0.625940 0.076539
1.000000 0.671351 0.063142
0.000000 0.614008 0.371008
0.000000 0.619837 0.374456
0.000000 0.623804 0.375158
0.000000 0.626551 0.371252
0.000000 0.628321 0.362799
0.000000 0.629938 0.349981
0.000000 0.631861 0.332769
0.000000 0.634668 0.311192
0.000000 0.639033 0.285283
0.000000 0.641474 0.233280
0.000000 0.644007 0.192264
0.152987 0.645808 0.196780
0.260685 0.646998 0.201816
0.345861 0.646815 0.206790
0.420600 0.644923 0.211154
0.487953 0.642634 0.216129
0.551263 0.640345 0.221927
0.581720 0.625666 0.232120
0.560479 0.588373 0.247471
0.535210 0.548791 0.262821
0.496407 0.498726 0.278691
0.450263 0.443671 0.291936
0.399695 0.389227 0.300542
0.344823 0.339147 0.304021
0.287480 0.295964 0.302525
0.247440 0.278508 0.314580
0.351141 0.322240 0.303563
0.507744 0.402777 0.294285
0.665187 0.494972 0.283177
0.805356 0.579583 0.276860
0.919951 0.650965 0.284794
1.000000 0.703182 0.319005
0.000000 0.687495 0.443671
0.000000 0.691310 0.445777
0.000000 0.693202 0.444923
0.000000 0.694148 0.439857
0.000000 0.694148 0.430335
0.000000 0.694057 0.416785
0.000000 0.694514 0.399420
0.000000 0.696132 0.378363
0.000000 0.699336 0.353307
0.000000 0.702754 0.310826
0.000000 0.706020 0.247135
0.139528 0.708064 0.245396
0.267155 0.709010 0.251957
0.359655 0.708675 0.258854
0.438025 0.706722 0.264500
0.508019 0.703883 0.270420
0.572534 0.700893 0.276951
0.633875 0.699062 0.285924
0.643946 0.678614 0.298589
0.625849 0.646632 0.313085
0.603296 0.612268 0.327672
0.564172 0.564996 0.342657
0.518242 0.513176 0.354833
0.466133 0.458900 0.362799
0.408820 0.405432 0.366003
0.346197 0.357000 0.364111
0.303441 0.339361 0.381628
0.413458 0.390234 0.375006
0.583520 0.485359 0.376226
0.741512 0.579034 0.386725
0.872435 0.660060 0.412268
0.967163 0.723293 0.462104
0.000000 0.746273 0.507591
0.000000 0.748592 0.508537
0.000000 0.750179 0.507988
0.000000 0.751339 0.503929
0.000000 0.752804 0.496651
0.000000 0.755367 0.487617
0.000000 0.760372 0.477882
0.000000 0.767178 0.466102
0.000000 0.775814 0.452338
0.000000 0.785489 0.431861
0.000000 0.794339 0.385229
0.198123 0.801602 0.357824
0.328252 0.805112 0.373175
0.425330 0.806699 0.387304
0.507134 0.806332 0.399390
0.578424 0.803799 0.409094
0.643397 0.800809 0.418433
0.703639 0.798245 0.429694
0.761074 0.797086 0.444129
0.755581 0.775784 0.456733
0.742794 0.751461 0.469551
0.724483 0.724208 0.482063
0.688838 0.684535 0.493782
0.647608 0.641810 0.503197
0.599420 0.596185 0.509483
0.543175 0.548272 0.512627
0.478492 0.500786 0.512993
0.436927 0.488716 0.541314
0.556878 0.547906 0.544945
0.726009 0.640040 0.566064
0.862760 0.721767 0.603876
0.955200 0.784268 0.654841
0.000000 0.837827 0.610590
0.000000 0.839048 0.610773
0.000000 0.839292 0.609125
0.000000 0.839109 0.604761
0.000000 0.838926 0.598047
0.000000 0.839139 0.589593
0.000000 0.840391 0.579400
0.000000 0.842741 0.567773
0.000000 0.846220 0.554864
0.128298 0.850553 0.540124
0.197391 0.854582 0.505272
0.242679 0.859037 0.454536
0.355718 0.858671 0.460334
0.447852 0.857176 0.470344
