data/fiter_cube/28334299/1023168/file.cube
# Created by Adobe Lightroom plugin Export LUT (1.17.0)
# www.johnrellis.com/lightroom/exportlut.htm
# Preset: 梦幻人像_07 云集
# Color profile: C:\Program Files (x86)\Common Files\Adobe\Color\Profiles\Recommended\AdobeRGB1998.icc
LUT_3D_SIZE 32
DOMAIN_MIN 0.0 0.0 0.0
DOMAIN_MAX 1.0 1.0 1.0
0.000000 0.000000 0.000000
0.000000 0.000000 0.000000
0.038819 0.000000 0.000397
0.098299 0.000000 0.000000
0.139498 0.000000 0.000732
0.184787 0.000000 0.000000
0.232792 0.000000 0.000000
0.281437 0.000000 0.000000
0.329870 0.000000 0.000000
0.376867 0.000000 0.000000
0.423377 0.000000 0.000000
0.468208 0.000000 0.000000
0.511162 0.000000 0.000000
0.552087 0.000000 0.000000
0.590661 0.000000 0.000000
0.627008 0.000000 0.000000
0.661402 0.000000 0.000000
0.694270 0.000000 0.000000
0.725368 0.000000 0.000000
0.753292 0.000000 0.000000
0.779538 0.000000 0.000000
0.805661 0.000000 0.000000
0.831449 0.000000 0.000000
0.856962 0.000000 0.000000
0.882292 0.000000 0.004425
0.907561 0.000000 0.049165
0.932921 0.000000 0.074067
0.958373 0.000000 0.093843
0.983948 0.000000 0.113161
1.000000 0.000000 0.133211
1.000000 0.012970 0.153689
1.000000 0.102022 0.176455
0.000000 0.000000 0.000000
0.000000 0.000000 0.000000
0.042878 0.000000 0.000336
0.098177 0.000000 0.000153
0.138521 0.000000 0.000000
0.183536 0.000000 0.000000
0.231785 0.000000 0.000000
0.280308 0.000000 0.000000
0.328710 0.000000 0.000000
0.375830 0.000000 0.000000
0.422217 0.000000 0.000000
0.467018 0.000000 0.000000
0.510002 0.000000 0.000000
0.550927 0.000000 0.000000
0.589532 0.000000 0.000000
0.625788 0.000000 0.000000
0.660121 0.000000 0.000000
0.693172 0.000000 0.000000
0.723934 0.000000 0.000000
0.751644 0.000000 0.000000
0.777859 0.000000 0.000000
0.803891 0.000000 0.000000
0.829648 0.000000 0.000000
0.855161 0.000000 0.000000
0.880552 0.000000 0.000580
0.905943 0.000000 0.045045
0.931395 0.000000 0.072908
0.956909 0.000000 0.092988
0.982605 0.000000 0.112459
1.000000 0.000000 0.131960
1.000000 0.042267 0.152926
1.000000 0.107637 0.175601
0.004181 0.029450 0.009369
0.005280 0.036225 0.012055
0.020172 0.043397 0.004578
0.095918 0.046937 0.000000
0.136873 0.041352 0.000000
0.182406 0.034394 0.000000
0.230259 0.022400 0.000000
0.279149 0.008606 0.000000
0.327489 0.000000 0.000000
0.374914 0.000000 0.000000
0.421332 0.000000 0.000000
0.466194 0.000000 0.000000
0.509209 0.000000 0.000000
0.550134 0.000000 0.000000
0.588739 0.000000 0.000000
0.625116 0.000000 0.000000
0.659419 0.000000 0.000000
0.692683 0.000000 0.000000
0.723232 0.000000 0.000000
0.750851 0.000000 0.000000
0.776974 0.000000 0.000000
0.802976 0.000000 0.000000
0.828733 0.000000 0.000000
0.854276 0.000000 0.000000
0.879667 0.000000 0.000488
0.905058 0.000000 0.045441
0.930541 0.000000 0.072938
0.956146 0.000000 0.093050
0.981903 0.000000 0.112490
1.000000 0.000000 0.132021
1.000000 0.068666 0.152865
1.000000 0.116243 0.175174
0.021973 0.084932 0.046296
0.023987 0.085786 0.047028
0.037995 0.085176 0.044739
0.077211 0.090791 0.007416
0.134096 0.091493 0.000000
0.179568 0.091524 0.000000
0.228183 0.092042 0.000000
0.277592 0.091798 0.000000
0.326238 0.089631 0.000000
0.373816 0.085054 0.000000
0.420478 0.077028 0.000000
0.465583 0.065156 0.000000
0.508415 0.038025 0.000000
0.549310 0.000000 0.000000
0.588006 0.000000 0.000000
0.624414 0.000000 0.000000
0.658717 0.000000 0.000000
0.692317 0.000000 0.000000
0.722316 0.000000 0.000000
0.749630 0.000000 0.000000
0.775540 0.000000 0.000000
0.801358 0.000000 0.000000
0.827207 0.000000 0.000000
0.852934 0.000000 0.000000
0.878721 0.000000 0.003723
0.904448 0.000000 0.048493
0.930175 0.000000 0.074830
0.955932 0.000000 0.094636
0.981720 0.000000 0.113588
1.000000 0.060487 0.133639
1.000000 0.101167 0.154147
1.000000 0.135775 0.176089
0.049256 0.115328 0.070192
0.049470 0.116213 0.070802
0.059022 0.115358 0.069673
0.070893 0.112367 0.067109
0.109163 0.125460 0.009644
0.175479 0.132967 0.000000
0.224613 0.134859 0.000000
0.274571 0.137331 0.000000
0.323980 0.137331 0.000000
0.371984 0.135866 0.000000
0.418769 0.132326 0.000000
0.464118 0.126284 0.000000
0.507256 0.118746 0.000000
0.548241 0.110597 0.000000
0.587060 0.099977 0.000000
0.623743 0.088716 0.000000
0.658412 0.072847 0.000000
0.692531 0.057496 0.000000
0.722225 0.025330 0.000000
0.749264 0.000000 0.000000
0.774929 0.000000 0.000000
0.800687 0.000000 0.000000
0.826413 0.000000 0.000000
0.852201 0.000000 0.000000
0.877958 0.000000 0.007782
0.903777 0.000000 0.052705
0.929534 0.016999 0.076936
0.955291 0.061982 0.096620
0.981048 0.086702 0.115633
1.000000 0.110536 0.135378
1.000000 0.134798 0.155215
1.000000 0.160922 0.177523
0.053193 0.150301 0.087434
0.053285 0.151095 0.087892
0.060609 0.150027 0.085664
0.071077 0.147494 0.081636
0.080049 0.151492 0.064332
0.144686 0.164797 0.007752
0.219883 0.176181 0.000000
0.270573 0.179446 0.000000
0.322026 0.180789 0.000000
0.370825 0.180758 0.000000
0.417853 0.178897 0.000000
0.463416 0.175204 0.000000
0.506706 0.170748 0.000000
0.547875 0.164462 0.000000
0.586877 0.157839 0.000000
0.623651 0.150240 0.000000
0.659754 0.142733 0.000000
0.693050 0.135348 0.000000
0.722469 0.127596 0.000000
0.749386 0.120455 0.000000
0.775113 0.114900 0.000000
0.800900 0.109926 0.000000
0.837644 0.114046 0.000000
0.863096 0.113344 0.002594
0.888304 0.115938 0.047272
0.913390 0.119203 0.073030
0.938354 0.126101 0.091585
0.963256 0.134951 0.109499
0.988190 0.147005 0.127657
1.000000 0.161227 0.146548
1.000000 0.178470 0.166079
1.000000 0.198398 0.187564
0.032013 0.192477 0.107607
0.045319 0.192966 0.108125
0.058930 0.192569 0.106538
0.070680 0.190890 0.102724
0.086732 0.187839 0.097841
0.108003 0.197726 0.068605
0.184176 0.210178 0.003265
0.267521 0.222568 0.000000
0.319615 0.225376 0.000000
0.371588 0.226291 0.000000
0.420783 0.225254 0.000000
0.466773 0.222904 0.000000
0.510094 0.219059 0.000000
0.551415 0.213901 0.000000
0.590143 0.208682 0.000000
0.627100 0.202152 0.000000
0.664118 0.196963 0.000000
0.696773 0.190402 0.000000
0.725826 0.183963 0.000000
0.752712 0.177768 0.000000
0.779080 0.173281 0.000000
0.805783 0.169650 0.000000
0.832670 0.167422 0.000000
0.859342 0.166476 0.006500
0.885740 0.167269 0.052644
0.911437 0.169375 0.076753
0.936767 0.173068 0.095521
0.961791 0.178866 0.113130
0.986816 0.186740 0.130465
1.000000 0.197299 0.149294
1.000000 0.210269 0.168551
1.000000 0.226627 0.189975
0.000000 0.235203 0.129458
0.025269 0.235843 0.129946
0.051881 0.235843 0.129458
0.068574 0.234501 0.125521
0.087007 0.232547 0.120668
0.106661 0.229526 0.116457
0.141390 0.243809 0.072755
0.222934 0.254765 0.000000
0.311711 0.266056 0.000000
0.363928 0.268589 0.000000
0.415412 0.268864 0.000000
0.465675 0.267216 0.000000
0.509392 0.264195 0.000000
0.550774 0.260014 0.000000
0.589746 0.254795 0.000000
0.628779 0.250065 0.000000
0.664668 0.244633 0.000000
0.696651 0.238407 0.000000
0.725216 0.232120 0.000000
0.751858 0.225956 0.000000
0.778042 0.220829 0.000000
0.804623 0.217044 0.000000
0.831357 0.214572 0.000000
0.858000 0.212894 0.018708
0.884245 0.212345 0.061707
0.909972 0.213352 0.081910
0.935302 0.215244 0.100008
0.960388 0.218936 0.116762
0.985412 0.224765 0.134615
1.000000 0.232700 0.152499
1.000000 0.243107 0.172030
1.000000 0.256565 0.193149
0.000000 0.279698 0.153231
0.006592 0.280064 0.153628
0.050446 0.280613 0.154391
0.070161 0.279789 0.151034
0.089509 0.278294 0.146212
0.110811 0.276310 0.141787
0.124147 0.277806 0.125948
0.177890 0.291112 0.078676
0.261997 0.299718 0.000000
0.355200 0.310643 0.000000
0.407538 0.311345 0.000000
0.457832 0.311040 0.000000
0.506523 0.309026 0.000000
0.551293 0.305394 0.000000
0.592370 0.301701 0.000000
0.630365 0.296635 0.000000
0.665553 0.290806 0.000000
0.696956 0.284123 0.000000
0.725185 0.277379 0.000000
0.751583 0.271122 0.000000
0.777646 0.265782 0.000000
0.804166 0.261295 0.000000
0.830716 0.258030 0.000000
0.857176 0.255863 0.038209
0.883360 0.254643 0.070588
0.908995 0.254337 0.089357
0.934295 0.255497 0.105592
0.959289 0.257908 0.122377
0.984314 0.262028 0.139528
1.000000 0.268070 0.157412
1.000000 0.276371 0.176516
1.000000 0.287541 0.197055
0.000000 0.323888 0.178225
0.001099 0.324376 0.178897
0.052888 0.324895 0.179721
0.076081 0.324559 0.177676
0.096315 0.323613 0.173770
0.117891 0.322026 0.169284
0.141421 0.320134 0.165774
0.143648 0.327001 0.128084
0.216678 0.337438 0.088380
0.300450 0.343938 0.000000
0.394995 0.354345 0.000000
0.448798 0.352514 0.000000
0.499123 0.352697 0.000000
0.547662 0.350896 0.000000
0.593622 0.347692 0.000000
0.631922 0.342382 0.000000
0.666896 0.336370 0.000000
0.697932 0.329259 0.000000
0.725887 0.321965 0.000000
0.752041 0.314794 0.000000
0.777859 0.308751 0.000000
0.803861 0.303960 0.000000
0.830014 0.299840 0.013703
0.856046 0.296880 0.058839
0.881895 0.294926 0.079042
0.907469 0.293919 0.096193
0.932799 0.293889 0.112184
0.957946 0.295445 0.128756
0.983062 0.298405 0.145266
1.000000 0.303166 0.162875
1.000000 0.310216 0.182254
1.000000 0.319554 0.202670
0.000000 0.367102 0.203708
0.011048 0.367437 0.204257
0.061982 0.368109 0.205539
0.089143 0.368170 0.205234
0.107668 0.367437 0.201724
0.129213 0.366735 0.198245
0.152285 0.365423 0.194949
0.176547 0.363867 0.193149
0.183536 0.374243 0.144198
0.256291 0.382605 0.100740
0.339544 0.388281 0.000000
0.431434 0.395148 0.000000
0.491737 0.395331 0.000000
0.540093 0.393957 0.000000
0.585809 0.391119 0.000000
0.628870 0.386908 0.000000
0.667140 0.381140 0.000000
0.697932 0.373388 0.000000
0.725734 0.365057 0.000000
0.751705 0.357458 0.000000
0.777432 0.350835 0.000000
0.803464 0.345129 0.000000
0.829557 0.340856 0.045014
0.855558 0.337285 0.071595
0.881315 0.334600 0.089540
0.906767 0.332891 0.105013
0.931914 0.332128 0.120485
0.956939 0.332647 0.136416
0.981933 0.334630 0.152285
1.000000 0.338109 0.169680
1.000000 0.343664 0.188144
1.000000 0.351781 0.208530
0.006928 0.409796 0.230137
0.051484 0.410071 0.230900
0.079072 0.410498 0.232181
0.108217 0.410925 0.233280
0.124514 0.410620 0.230564
0.144656 0.409979 0.227604
0.166140 0.409369 0.224674
0.189822 0.408240 0.222843
0.213779 0.408026 0.221744
0.226169 0.421881 0.163119
0.298161 0.429572 0.117189
0.379858 0.433387 0.000641
0.475624 0.443549 0.000000
0.541070 0.443946 0.000000
0.587457 0.440894 0.000000
0.630793 0.436408 0.000000
0.670710 0.430426 0.000000
0.705806 0.422889 0.000000
0.733608 0.413611 0.000000
0.758999 0.404547 0.000000
0.784390 0.396979 0.011627
0.809842 0.390509 0.057160
0.835264 0.385077 0.075929
0.860563 0.380560 0.092164
0.885679 0.377111 0.107393
0.910552 0.374640 0.121065
0.935210 0.372900 0.135286
0.959686 0.372442 0.149416
0.984131 0.373327 0.164736
1.000000 0.375738 0.180728
1.000000 0.380194 0.198886
1.000000 0.386725 0.218357
0.067536 0.454139 0.258915
0.083284 0.454292 0.259739
0.101442 0.454597 0.260868
0.131838 0.454932 0.263493
0.146365 0.454505 0.261021
0.164187 0.454231 0.258549
0.185183 0.454627 0.256901
0.207950 0.455146 0.255833
0.232578 0.455299 0.256138
0.241825 0.460487 0.237156
0.271580 0.471595 0.185916
0.341894 0.477852 0.138491
0.421851 0.480415 0.054780
0.504967 0.478798 0.000000
0.575067 0.479713 0.000000
0.619623 0.476081 0.000000
0.660456 0.470619 0.000000
0.696559 0.463050 0.000000
0.728664 0.454536 0.000000
0.757809 0.446235 0.013947
0.783230 0.437903 0.056275
0.808621 0.430732 0.075257
0.833951 0.424598 0.090394
0.859190 0.419532 0.104768
0.884215 0.415381 0.118166
0.909026 0.412024 0.131075
0.933593 0.409735 0.144381
0.958007 0.408484 0.158358
0.982452 0.408484 0.172702
1.000000 0.410163 0.188785
1.000000 0.413519 0.205936
1.000000 0.419074 0.225559
0.100374 0.495857 0.287083
0.112398 0.496132 0.288060
0.126375 0.496407 0.289250
0.152804 0.496986 0.292180
0.170962 0.496925 0.291752
0.186893 0.496925 0.289769
0.205417 0.496956 0.287968
0.226200 0.496986 0.286534
0.249149 0.497200 0.286503
0.273411 0.497566 0.288090
0.266819 0.506249 0.246738
0.312902 0.514275 0.206363
0.380255 0.518486 0.158328
0.456489 0.519158 0.083986
0.536217 0.515618 0.000000
0.607080 0.514061 0.000000
0.649165 0.509056 0.000000
0.686336 0.501762 0.000000
0.719661 0.493141 0.000000
0.750271 0.484810 0.000000
0.780423 0.477790 0.064942
0.807614 0.470802 0.093019
0.832975 0.464057 0.105837
0.858213 0.458381 0.118532
0.883207 0.453498 0.130495
0.907927 0.449561 0.142458
0.932403 0.446571 0.155184
0.956817 0.444556 0.168093
0.981170 0.443915 0.182284
1.000000 0.444770 0.197513
1.000000 0.447364 0.214694
1.000000 0.451942 0.233921
0.132265 0.536034 0.315312
0.141360 0.536248 0.316228
0.152926 0.536309 0.317327
0.175601 0.536614 0.319982
0.196170 0.536584 0.321141
0.209995 0.536339 0.319341
0.226505 0.536217 0.317632
0.245121 0.536095 0.316167
0.266178 0.536339 0.315801
0.288884 0.536828 0.316869
0.313268 0.537255 0.319921
0.302922 0.547936 0.265171
0.351934 0.553643 0.226932
0.416327 0.556237 0.178653
0.489387 0.555077 0.108309
0.565209 0.550103 0.000000
0.636896 0.546288 0.000000
0.675532 0.539483 0.000000
0.710048 0.530877 0.000000
0.741665 0.521965 0.000000
0.772305 0.514366 0.000000
0.802579 0.508202 0.084047
0.831968 0.503227 0.121920
0.857145 0.496834 0.132967
0.882139 0.491341 0.143954
0.906920 0.486915 0.155489
0.931518 0.483406 0.167025
0.955993 0.481025 0.180362
0.980529 0.479866 0.193851
1.000000 0.480262 0.209140
1.000000 0.482246 0.225986
1.000000 0.486213 0.245060
0.162142 0.573053 0.342138
0.169802 0.573266 0.343084
0.179110 0.573388 0.344182
0.198795 0.573754 0.346960
0.221683 0.573907 0.349767
0.234104 0.573877 0.348272
0.249058 0.573846 0.346868
0.266270 0.574121 0.345983
0.285557 0.574334 0.345556
0.306615 0.574823 0.346166
0.329259 0.575097 0.348272
0.346075 0.576928 0.343694
0.341680 0.586297 0.286320
0.389044 0.589899 0.246677
0.449958 0.590509 0.198306
0.518975 0.587823 0.131014
0.591577 0.581689 0.000000
0.663447 0.575616 0.000000
0.699672 0.567559 0.000000
0.732662 0.558740 0.000000
0.764157 0.550805 0.000000
0.795224 0.544182 0.022278
0.825559 0.538811 0.101228
0.855100 0.534478 0.137301
0.882078 0.529931 0.158938
0.906798 0.524865 0.169619
0.931334 0.520684 0.180972
0.955749 0.517723 0.193088
0.980102 0.515953 0.206394
1.000000 0.515557 0.220951
1.000000 0.516716 0.237522
1.000000 0.519738 0.256046
0.189761 0.606958 0.367559
0.195590 0.607080 0.368353
0.204257 0.607111 0.369512
0.221195 0.607263 0.372045
0.246128 0.607507 0.376135
0.257572 0.607446 0.375067
0.271031 0.607507 0.373907
0.286503 0.607660 0.372961
0.304265 0.607904 0.372717
0.323613 0.608240 0.373175
0.344762 0.608637 0.374823
0.366918 0.608881 0.377783
0.369024 0.613428 0.355413
0.378149 0.619989 0.306157
0.423346 0.622034 0.266453
0.480690 0.621118 0.218173
0.545861 0.617334 0.154665
0.615167 0.610681 0.000000
0.688411 0.606653 0.000000
0.722347 0.594537 0.000000
0.754818 0.586023 0.000000
0.786526 0.578973 0.000000
0.817624 0.573144 0.062440
0.847959 0.568322 0.115206
0.877287 0.564538 0.151431
0.905547 0.561608 0.181979
0.930358 0.557244 0.194888
0.954742 0.553735 0.206455
0.979065 0.551385 0.219364
1.000000 0.550317 0.233341
1.000000 0.550896 0.249302
1.000000 0.553185 0.267613
0.217990 0.638025 0.391974
0.223728 0.638209 0.392920
0.237308 0.644800 0.399481
0.252720 0.644770 0.402014
0.275059 0.644678 0.405982
0.288792 0.644495 0.406409
0.300755 0.644282 0.405493
0.314549 0.644068 0.404578
0.330632 0.644099 0.404334
0.348547 0.644099 0.404700
0.367590 0.644160 0.405921
0.388190 0.644160 0.408423
0.409613 0.643915 0.412177
0.397314 0.650111 0.370977
0.416999 0.653742 0.330480
0.458991 0.654261 0.290135
0.512566 0.652369 0.242222
0.574090 0.647761 0.181277
0.640070 0.640589 0.082704
0.714809 0.639338 0.000000
0.747219 0.623072 0.000000
0.779782 0.615442 0.000000
0.811582 0.608942 0.000000
0.842405 0.603571 0.085115
0.872129 0.598993 0.132540
0.900755 0.595239 0.167086
0.928222 0.592401 0.197726
0.953979 0.589868 0.220737
0.977966 0.586725 0.232822
1.000000 0.584985 0.246189
1.000000 0.584802 0.261692
1.000000 0.586236 0.279301
0.248753 0.667567 0.416876
0.254154 0.668299 0.418311
0.261784 0.669123 0.420142
0.275853 0.669795 0.423194
0.296452 0.670253 0.427558
0.313451 0.670314 0.430030
0.324315 0.670314 0.429450
0.337133 0.670192 0.428962
0.351751 0.670222 0.428901
0.368078 0.670192 0.429328
0.385779 0.670222 0.430549
0.404852 0.670283 0.432746
0.424842 0.670100 0.436072
0.445686 0.669734 0.440864
0.423438 0.677211 0.384649
0.449134 0.679194 0.349859
0.488472 0.679103 0.309880
0.538659 0.676783 0.262730
0.596979 0.672114 0.204166
0.660151 0.665248 0.119051
0.734493 0.665461 0.000000
0.769558 0.649134 0.000000
0.802487 0.642481 0.000000
0.834348 0.636805 0.000000
0.865019 0.631952 0.101869
0.894591 0.627832 0.146212
0.922972 0.624445 0.181491
0.950225 0.622248 0.213321
0.976471 0.621210 0.242832
1.000000 0.619501 0.260105
1.000000 0.618647 0.275120
1.000000 0.619471 0.292302
0.277348 0.692378 0.439124
0.282353 0.693080 0.440528
0.288975 0.693721 0.442298
0.301579 0.694240 0.445167
0.320256 0.694545 0.449409
0.339635 0.694545 0.453437
0.349310 0.694514 0.453071
0.361089 0.694484 0.453010
0.374365 0.694514 0.453162
0.389258 0.694545 0.453681
0.405890 0.694667 0.455177
0.423499 0.694728 0.457282
0.442206 0.694606 0.460365
0.461646 0.694392 0.464607
0.470619 0.695949 0.456580
0.456306 0.702205 0.405066
0.480720 0.703822 0.370489
0.517449 0.703578 0.330694
0.564813 0.701289 0.284245
0.620142 0.696925 0.227420
0.680995 0.690303 0.149966
0.752010 0.689570 0.000000
0.792721 0.675837 0.000000
0.825711 0.670069 0.000000
0.857511 0.664851 0.028565
0.887968 0.660334 0.117586
0.917205 0.656580 0.160647
0.945281 0.653681 0.196353
0.972290 0.651942 0.229282
0.998230 0.651484 0.260441
1.000000 0.652064 0.288823
1.000000 0.652216 0.305791
0.305638 0.716487 0.461463
0.310399 0.717067 0.462837
0.316381 0.717708 0.464607
0.327916 0.718196 0.467475
0.344671 0.718471 0.471656
0.365942 0.718410 0.477028
0.375128 0.718441 0.477028
0.385473 0.718410 0.476967
0.397803 0.718471 0.477455
0.411292 0.718563 0.478096
0.426490 0.718654 0.479561
0.443000 0.718746 0.481697
0.460182 0.718807 0.484535
0.478401 0.718685 0.488380
0.497322 0.718532 0.493446
0.493629 0.722408 0.470558
0.488838 0.727535 0.426459
0.512352 0.729305 0.392554
0.547448 0.729458 0.353613
0.592554 0.727718 0.307988
0.645563 0.724025 0.253361
0.704463 0.718166 0.181552
0.772854 0.716426 0.000000
0.818906 0.705165 0.000000
0.852018 0.700130 0.000000
0.883787 0.695399 0.077607
0.914000 0.691279 0.137911
0.942870 0.687984 0.180423
0.970611 0.685573 0.217136
0.997162 0.684382 0.250980
1.000000 0.684535 0.284367
1.000000 0.686366 0.317906
0.337469 0.743252 0.486854
0.341283 0.743496 0.487984
0.346227 0.743709 0.489204
0.356054 0.743801 0.491676
0.371466 0.743771 0.495583
0.390753 0.743648 0.500694
0.402472 0.743618 0.502342
0.412085 0.743618 0.502647
0.423316 0.743862 0.503258
0.436072 0.744015 0.504234
0.450202 0.744320 0.505882
0.465522 0.744533 0.508110
0.481697 0.744686 0.510948
0.498543 0.744686 0.514488
0.516228 0.744594 0.519066
0.534386 0.744442 0.524712
0.518822 0.750332 0.487098
0.522179 0.754330 0.449989
0.544671 0.755978 0.416144
0.577722 0.756039 0.377264
0.620264 0.754330 0.332341
0.670741 0.750698 0.278416
0.727230 0.745022 0.209689
0.792172 0.741848 0.096071
0.843137 0.732662 0.000000
0.875975 0.728023 0.000000
0.907439 0.723659 0.099855
0.937438 0.719936 0.154177
0.966064 0.717067 0.196933
0.993439 0.715175 0.234592
1.000000 0.714534 0.270726
1.000000 0.715358 0.306310
0.365881 0.767483 0.510216
0.369207 0.767758 0.511223
0.373724 0.768002 0.512535
0.382971 0.768063 0.515038
0.396765 0.768032 0.518822
0.414496 0.767849 0.523705
0.428687 0.767727 0.526879
0.437354 0.767758 0.527214
0.447669 0.767819 0.527886
0.459358 0.768002 0.528985
0.472328 0.768215 0.530541
0.486488 0.768460 0.532708
0.501427 0.768643 0.535332
0.517418 0.768795 0.538811
0.533928 0.768856 0.542992
0.551141 0.768887 0.548241
0.565881 0.769406 0.551202
0.542229 0.776822 0.502281
0.553613 0.779843 0.472572
0.575372 0.781643 0.439155
0.607019 0.781949 0.400977
0.647700 0.780606 0.356542
0.696010 0.777523 0.304082
0.750607 0.772427 0.238163
0.810941 0.766659 0.138003
0.866972 0.759731 0.000000
0.899657 0.755459 0.000000
0.930846 0.751583 0.118074
0.960571 0.748226 0.169619
0.988952 0.745815 0.213779
1.000000 0.744533 0.253391
1.000000 0.744594 0.292058
0.396674 0.793698 0.536126
0.399847 0.793973 0.537163
0.403998 0.794156 0.538354
0.412421 0.794064 0.540734
0.424811 0.793942 0.544182
0.441047 0.793576 0.548882
0.457160 0.793210 0.553307
0.464912 0.793057 0.553613
0.474098 0.792935 0.554131
0.484596 0.792844 0.555047
0.496162 0.792844 0.556329
0.509026 0.792874 0.558221
0.522728 0.792905 0.560601
0.537316 0.792844 0.563561
0.552148 0.792752 0.567041
0.567407 0.792599 0.571038
0.582910 0.792508 0.575799
0.586236 0.794888 0.565576
0.570947 0.801297 0.522972
0.583246 0.804288 0.494209
0.604639 0.806241 0.461738
0.634974 0.806821 0.424170
0.673732 0.805753 0.380529
0.720027 0.802914 0.328710
0.772488 0.798154 0.264469
0.831052 0.792691 0.174868
0.892241 0.789242 0.000000
0.924498 0.784085 0.064942
0.955261 0.780362 0.138796
0.984710 0.777432 0.188632
1.000000 0.775479 0.233585
1.000000 0.774655 0.275517
0.424262 0.817258 0.559686
0.427131 0.817533 0.560723
0.431067 0.817655 0.562005
0.438666 0.817655 0.564233
0.450233 0.817441 0.567620
0.465309 0.817136 0.572259
0.483558 0.816709 0.578119
0.490913 0.816617 0.578637
0.499428 0.816556 0.579339
0.509148 0.816587 0.580316
0.519921 0.816648 0.581720
0.531914 0.816739 0.583642
0.544549 0.816922 0.585870
0.557610 0.817014 0.588434
0.571252 0.817075 0.591516
0.585138 0.817105 0.594965
0.599268 0.817166 0.598932
0.613642 0.817350 0.603601
0.607904 0.821714 0.581598
0.600977 0.827268 0.545586
0.614618 0.830167 0.518761
0.635370 0.832181 0.486793
0.664302 0.832914 0.449958
0.701228 0.832242 0.406989
0.745602 0.829923 0.356146
0.796384 0.825803 0.293736
0.852445 0.819913 0.209873
0.918425 0.822080 0.040467
0.950652 0.813962 0.097475
0.981170 0.810727 0.161898
1.000000 0.808103 0.211826
1.000000 0.806546 0.258366
0.453071 0.841245 0.584466
0.455787 0.841398 0.585443
0.459205 0.841428 0.586542
0.466102 0.841306 0.588647
0.476570 0.840970 0.591821
0.490455 0.840574 0.596246
0.507286 0.840085 0.601801
0.517174 0.839841 0.603784
0.524895 0.839750 0.604486
0.533562 0.839811 0.605432
0.543328 0.839902 0.606683
0.554009 0.840055 0.608331
0.565362 0.840299 0.610315
0.577264 0.840452 0.612512
0.589410 0.840543 0.614984
0.602014 0.840665 0.617884
0.614801 0.840757 0.621118
0.627802 0.840970 0.624811
0.641199 0.841306 0.629297
0.627893 0.847440 0.596246
0.628717 0.852110 0.566766
0.643610 0.854978 0.541527
0.664668 0.857023 0.511498
0.692561 0.858030 0.475654
0.727901 0.857755 0.433692
0.770474 0.856016 0.383978
0.819699 0.852720 0.322942
0.874540 0.847807 0.243442
0.943877 0.854276 0.121736
0.976379 0.843595 0.122896
1.000000 0.840543 0.184482
1.000000 0.838224 0.235569
0.481209 0.864256 0.608942
0.483589 0.864317 0.609766
0.486641 0.864317 0.610803
0.493111 0.864195 0.612848
0.503197 0.863920 0.616144
0.516106 0.863706 0.620508
0.531884 0.863584 0.626154
0.544030 0.863645 0.629816
0.551415 0.864012 0.630884
0.559747 0.864500 0.632258
0.568933 0.865019 0.633845
0.578882 0.865568 0.635645
0.589258 0.866087 0.637537
0.600092 0.866484 0.639612
0.611170 0.866819 0.641779
0.622431 0.867033 0.644129
0.634180 0.867185 0.646845
0.646357 0.867338 0.650172
0.659174 0.867552 0.654292
0.667353 0.868986 0.652461
0.651667 0.875975 0.614893
0.659388 0.879850 0.591669
0.675410 0.882658 0.568200
0.696864 0.884764 0.540429
0.724331 0.886046 0.507134
0.758114 0.886351 0.466651
0.799008 0.885405 0.418158
0.846647 0.883055 0.359197
0.900328 0.879301 0.283452
0.972656 0.889921 0.177951
1.000000 0.876768 0.157412
1.000000 0.873564 0.216678
0.513390 0.889433 0.636866
0.515496 0.889464 0.637568
0.518212 0.889372 0.638483
0.523949 0.889158 0.640375
0.532586 0.888853 0.643214
0.543999 0.888518 0.647089
0.557794 0.888212 0.652003
0.571069 0.888029 0.656519
0.577111 0.888121 0.657069
0.584222 0.888304 0.657923
0.591943 0.888518 0.658900
0.600366 0.888792 0.659998
0.609339 0.889036 0.661341
0.618891 0.889250 0.662867
