data/fiter_cube/28334299/1023168/file.cube
# Created by Adobe Lightroom plugin Export LUT (1.17.0)
# www.johnrellis.com/lightroom/exportlut.htm
# Preset: 梦幻人像_07 云集
# Color profile: C:\Program Files (x86)\Common Files\Adobe\Color\Profiles\Recommended\AdobeRGB1998.icc
LUT_3D_SIZE 8
DOMAIN_MIN 0.000000 0.000000 0.000000
DOMAIN_MAX 0.903226 0.903226 0.903226
0.000000 0.000000 0.000000
0.139498 0.000000 0.000732
0.329870 0.000000 0.000000
0.511162 0.000000 0.000000
0.661402 0.000000 0.000000
0.779538 0.000000 0.000000
0.882292 0.000000 0.004425
0.983948 0.000000 0.113161
0.049256 0.115328 0.070192
0.109163 0.125460 0.009644
0.323980 0.137331 0.000000
0.507256 0.118746 0.000000
0.658412 0.072847 0.000000
0.774929 0.000000 0.000000
0.877958 0.000000 0.007782
0.981048 0.086702 0.115633
0.000000 0.279698 0.153231
0.089509 0.278294 0.146212
0.261997 0.299718 0.000000
0.506523 0.309026 0.000000
0.665553 0.290806 0.000000
0.777646 0.265782 0.000000
0.883360 0.254643 0.070588
0.984314 0.262028 0.139528
0.067536 0.454139 0.258915
0.146365 0.454505 0.261021
0.232578 0.455299 0.256138
0.421851 0.480415 0.054780
0.660456 0.470619 0.000000
0.783230 0.437903 0.056275
0.884215 0.415381 0.118166
0.982452 0.408484 0.172702
0.189761 0.606958 0.367559
0.246128 0.607507 0.376135
0.304265 0.607904 0.372717
0.369024 0.613428 0.355413
0.545861 0.617334 0.154665
0.754818 0.586023 0.000000
0.877287 0.564538 0.151431
0.979065 0.551385 0.219364
0.305638 0.716487 0.461463
0.344671 0.718471 0.471656
0.397803 0.718471 0.477455
0.460182 0.718807 0.484535
0.488838 0.727535 0.426459
0.645563 0.724025 0.253361
0.852018 0.700130 0.000000
0.970611 0.685573 0.217136
0.424262 0.817258 0.559686
0.450233 0.817441 0.567620
0.499428 0.816556 0.579339
0.544549 0.816922 0.585870
0.599268 0.817166 0.598932
0.614618 0.830167 0.518761
0.745602 0.829923 0.356146
0.950652 0.813962 0.097475
0.540551 0.911833 0.661463
0.557671 0.911315 0.667292
0.600214 0.910704 0.681331
0.629999 0.911772 0.685481
0.665522 0.909270 0.689601
0.713527 0.910185 0.705837
0.728481 0.929686 0.612421
0.848844 0.936553 0.481453
0.019898 0.044099 0.096071
0.131167 0.000000 0.107515
0.321141 0.000000 0.113344
0.501030 0.000000 0.094148
0.652735 0.000000 0.087770
0.769619 0.000000 0.098482
0.873411 0.000000 0.123476
0.977447 0.000000 0.162478
0.000000 0.110780 0.098085
0.124666 0.118746 0.106508
0.315679 0.105837 0.103212
0.500175 0.064393 0.093080
0.653010 0.000000 0.087831
0.767941 0.000000 0.100038
0.870512 0.000000 0.124697
0.974548 0.092775 0.163394
0.000000 0.276646 0.167483
0.136995 0.280186 0.179141
0.267552 0.295506 0.113039
0.501274 0.297856 0.095796
0.656672 0.280583 0.094606
0.769345 0.260105 0.112123
0.873167 0.252201 0.140719
0.976867 0.261967 0.180758
0.052918 0.448493 0.266423
0.168795 0.450324 0.276432
0.261204 0.452155 0.277684
0.420050 0.470741 0.138766
0.649439 0.459052 0.067689
0.771054 0.430976 0.143038
0.873777 0.411109 0.169284
0.975341 0.407050 0.207309
0.187472 0.603113 0.372534
0.242710 0.603204 0.380072
0.323369 0.603418 0.385504
0.393835 0.604700 0.382727
0.544305 0.610193 0.196658
0.749935 0.580560 0.065248
0.872435 0.562737 0.203250
0.974365 0.550683 0.249607
0.300053 0.712764 0.462470
0.336034 0.712764 0.470100
0.406683 0.712795 0.483009
0.467659 0.714168 0.490272
0.498421 0.723384 0.442725
0.647211 0.721370 0.280125
0.849882 0.697658 0.111391
0.967681 0.684596 0.251804
0.415015 0.813138 0.557092
0.439826 0.812345 0.563684
0.503136 0.811826 0.581842
0.548608 0.813413 0.589197
0.603265 0.814939 0.602655
0.618952 0.827176 0.528923
0.744991 0.826169 0.370733
0.946929 0.810086 0.153079
0.532250 0.910002 0.658839
0.550286 0.909789 0.665064
0.602838 0.909117 0.684047
0.632624 0.910460 0.688258
0.671870 0.911070 0.696010
0.718074 0.911009 0.710658
0.731075 0.928771 0.619562
0.849241 0.934874 0.490272
0.000000 0.083558 0.222843
0.125765 0.008331 0.237369
0.311833 0.000000 0.261906
0.504692 0.000000 0.267338
0.653315 0.000000 0.242100
0.766232 0.000000 0.230533
0.868345 0.000000 0.255528
0.974884 0.014069 0.274357
0.043153 0.122133 0.227359
0.129000 0.105653 0.241550
0.311559 0.000000 0.262882
0.500053 0.000000 0.257206
0.649683 0.000000 0.237919
0.760494 0.000000 0.245823
0.866361 0.064515 0.256748
0.973358 0.137942 0.275639
0.000000 0.264561 0.236790
0.099733 0.271061 0.243656
0.294835 0.280797 0.257389
0.486366 0.272801 0.256168
0.646265 0.265141 0.256535
0.761532 0.260746 0.259281
0.867033 0.263676 0.268223
0.972747 0.278325 0.286534
0.000000 0.446479 0.295476
0.091402 0.449653 0.302770
0.319036 0.453254 0.336736
0.439368 0.465187 0.273320
0.649256 0.456214 0.276249
0.763424 0.433326 0.283940
0.868833 0.420172 0.291264
0.972351 0.419226 0.308476
0.113161 0.598749 0.385748
0.200168 0.599542 0.393774
0.362310 0.600519 0.424079
0.447883 0.602747 0.435401
0.559838 0.607935 0.305791
0.750149 0.579309 0.261967
0.868956 0.570184 0.326116
0.970459 0.558923 0.341222
0.266697 0.710780 0.469825
0.311070 0.710567 0.477821
0.424842 0.709346 0.504936
0.501823 0.710384 0.520043
0.543725 0.716915 0.504723
0.656428 0.716670 0.358648
0.848173 0.695033 0.263188
0.965972 0.690120 0.355352
0.393439 0.813352 0.561334
0.421180 0.812680 0.568078
0.503136 0.811093 0.591943
0.571801 0.811673 0.610376
0.621729 0.814084 0.621088
0.640894 0.825162 0.569116
0.754543 0.825376 0.429633
0.948547 0.810941 0.278965
0.509850 0.910979 0.657984
0.527428 0.910277 0.663050
0.586450 0.908965 0.682826
0.645563 0.910338 0.702541
0.683986 0.911162 0.709377
0.729793 0.911894 0.723598
0.742672 0.928038 0.646479
0.855558 0.934630 0.526421
0.000000 0.103548 0.367987
0.120882 0.059663 0.377813
0.311894 0.000000 0.405707
0.488533 0.000000 0.417731
0.655085 0.000000 0.408484
0.766567 0.000000 0.374304
0.868193 0.000000 0.357549
0.973083 0.000000 0.355352
0.049134 0.108797 0.377844
0.144472 0.088258 0.384741
0.302586 0.000000 0.407813
0.489967 0.000000 0.419715
0.654139 0.000000 0.405432
0.763638 0.000000 0.373663
0.865202 0.000000 0.359899
0.971038 0.000000 0.359472
0.083345 0.270512 0.368872
0.162417 0.273320 0.373419
0.284062 0.256962 0.400793
0.485023 0.198703 0.420081
0.645472 0.199741 0.400641
0.756435 0.220310 0.382605
0.861540 0.241764 0.379065
0.965789 0.296452 0.400977
0.000000 0.422858 0.384894
0.000000 0.426886 0.389227
0.274693 0.436652 0.401404
0.464546 0.444160 0.414252
0.624292 0.438514 0.413184
0.743374 0.432654 0.411719
0.854520 0.428809 0.412268
0.964660 0.431006 0.418616
0.000000 0.592523 0.418341
0.000000 0.593011 0.422827
0.293614 0.594354 0.442329
0.491615 0.594415 0.486885
0.581811 0.598810 0.430457
0.745602 0.584924 0.435370
0.857847 0.576135 0.444739
0.963775 0.568231 0.447395
0.177249 0.709071 0.486824
0.239689 0.710384 0.494057
0.377752 0.708492 0.515343
0.533776 0.706508 0.558190
0.608606 0.710964 0.579217
0.674678 0.712215 0.461952
0.847562 0.695430 0.413672
0.962646 0.702144 0.483680
0.337224 0.812284 0.567193
0.369879 0.812284 0.573510
0.463691 0.811673 0.595392
0.585046 0.811582 0.634363
0.648432 0.815518 0.650874
0.674372 0.824674 0.627680
0.768429 0.822812 0.508904
0.948119 0.809384 0.408179
0.470375 0.913603 0.660853
0.491005 0.913298 0.666163
0.551446 0.912200 0.682887
0.639460 0.911498 0.712642
0.701106 0.912078 0.730983
0.746670 0.913542 0.743709
0.761257 0.926574 0.689204
0.864286 0.933684 0.575280
0.000000 0.129732 0.501091
0.114168 0.097902 0.506981
0.292241 0.000000 0.524102
0.466865 0.000000 0.549004
0.635309 0.000000 0.552361
0.764553 0.000000 0.521935
0.871702 0.000000 0.489570
0.976959 0.000000 0.468849
0.086244 0.107851 0.507408
0.161990 0.071351 0.512627
0.294926 0.000000 0.527123
0.461769 0.000000 0.551080
0.636011 0.000000 0.553857
0.763882 0.000000 0.521233
0.870268 0.000000 0.490150
0.975677 0.000000 0.470771
0.136995 0.275822 0.503075
0.180179 0.272313 0.510094
0.285374 0.243717 0.524681
0.444831 0.155154 0.549157
0.633326 0.000000 0.554833
0.757717 0.080507 0.520714
0.863066 0.124361 0.493782
0.969970 0.132265 0.478157
0.130068 0.411292 0.500786
0.192416 0.414313 0.503807
0.327428 0.425238 0.512444
0.450233 0.421546 0.538231
0.622492 0.384222 0.553429
0.743404 0.391089 0.524865
0.851225 0.387304 0.507500
0.962188 0.378210 0.496162
0.000000 0.559197 0.516197
0.000000 0.561212 0.518547
0.272282 0.566155 0.525505
0.445930 0.572564 0.535668
0.598749 0.576074 0.544335
0.722103 0.570275 0.541802
0.838621 0.563897 0.538872
0.953826 0.559533 0.538140
0.000000 0.698939 0.515892
0.000000 0.698970 0.519341
0.268193 0.697871 0.532219
0.458045 0.695827 0.559319
0.623377 0.695338 0.605371
0.690425 0.700069 0.559472
0.843534 0.700282 0.562463
0.955444 0.698482 0.573205
0.217136 0.808316 0.580346
0.263828 0.807858 0.584497
0.381842 0.806912 0.600397
0.523674 0.806516 0.631159
0.655726 0.809751 0.673976
0.723171 0.818204 0.696071
0.781003 0.816861 0.585290
0.946288 0.805356 0.532860
0.387182 0.913390 0.663050
0.412055 0.912902 0.667292
0.487251 0.911467 0.682399
0.586633 0.912444 0.708949
0.696986 0.912657 0.746517
0.762509 0.914641 0.766964
0.785946 0.923583 0.743282
0.873167 0.930571 0.629969
0.000000 0.178744 0.620813
0.125673 0.157382 0.623835
0.272435 0.000000 0.633173
0.431312 0.000000 0.648707
0.592920 0.000000 0.663203
0.748714 0.000000 0.661372
0.868681 0.000000 0.629053
0.980865 0.000000 0.598627
0.097749 0.165255 0.622065
0.158785 0.143008 0.624811
0.284764 0.000000 0.634028
0.429267 0.000000 0.648554
0.589502 0.000000 0.663630
0.747555 0.000000 0.660792
0.867430 0.000000 0.628321
0.979522 0.000000 0.598291
0.169314 0.271733 0.624140
0.201419 0.264561 0.626307
0.291539 0.236149 0.634150
0.419989 0.160616 0.648859
0.581628 0.000000 0.666865
0.745571 0.000000 0.662013
0.864988 0.000000 0.629511
0.976349 0.000000 0.600702
0.259800 0.426093 0.610559
0.286870 0.428229 0.613245
0.355322 0.429297 0.626246
0.444251 0.407874 0.644221
0.575799 0.345495 0.665034
0.740322 0.320623 0.663905
0.860227 0.318273 0.636103
0.970611 0.294224 0.608759
0.198123 0.538933 0.618738
0.240848 0.540612 0.619959
0.350439 0.546654 0.623804
0.481880 0.559289 0.629297
0.584863 0.556847 0.647486
0.724819 0.525505 0.659449
0.844511 0.521111 0.639673
0.957824 0.502983 0.620294
0.000000 0.669612 0.625971
0.113558 0.670802 0.627619
0.283604 0.672938 0.631342
0.437079 0.675624 0.637018
0.579461 0.678492 0.643824
0.704677 0.682673 0.652583
0.827329 0.676997 0.649744
0.947509 0.671321 0.647028
0.000000 0.801083 0.626184
0.000000 0.801755 0.627558
0.242191 0.802518 0.630732
0.419409 0.802731 0.644678
0.586847 0.802853 0.675898
0.733974 0.808804 0.722499
0.797055 0.810208 0.670314
0.947051 0.807828 0.668696
0.213230 0.915587 0.677424
0.256992 0.915099 0.680446
0.368139 0.913817 0.691737
0.502037 0.912810 0.713436
0.629236 0.913176 0.742489
0.765286 0.915038 0.790158
0.833005 0.920073 0.815885
0.886381 0.927306 0.701747
0.147463 0.259617 0.727108
0.181582 0.245396 0.729061
0.272801 0.184939 0.736263
0.398108 0.000000 0.748623
0.550713 0.000000 0.765469
0.708614 0.000000 0.774105
0.855436 0.000000 0.768734
0.973693 0.000000 0.735439
0.165072 0.254276 0.729213
0.195041 0.240146 0.731014
0.280247 0.179507 0.737972
0.401953 0.000000 0.749966
0.552514 0.000000 0.766751
0.707088 0.000000 0.775540
0.855985 0.000000 0.769741
0.974243 0.000000 0.735744
0.200534 0.269230 0.732113
0.225162 0.261814 0.733852
0.298558 0.231205 0.739895
0.406348 0.152041 0.751247
0.541558 0.000000 0.766781
0.700832 0.000000 0.777462
0.854551 0.000000 0.770626
0.973022 0.000000 0.735500
0.297826 0.433875 0.724575
0.315496 0.433173 0.727016
0.365545 0.425055 0.735103
0.435431 0.391150 0.746273
0.542962 0.323949 0.762112
0.692500 0.198459 0.777859
0.849699 0.163058 0.771481
0.969848 0.000000 0.737697
0.327245 0.547967 0.719081
0.351263 0.550439 0.719814
0.423835 0.559136 0.722103
0.501091 0.563622 0.732723
0.569848 0.536400 0.751980
0.684749 0.469429 0.773953
0.841703 0.447944 0.772641
0.963622 0.425147 0.745022
0.256352 0.652766 0.727443
0.286900 0.653712 0.728115
0.373297 0.657160 0.730434
0.484230 0.663203 0.733974
0.600763 0.672694 0.738888
0.690517 0.664485 0.758755
0.829129 0.633143 0.771847
0.953063 0.619226 0.750301
0.000000 0.776974 0.735897
0.134066 0.777249 0.736538
0.279118 0.778286 0.738949
0.418372 0.779995 0.742977
0.556481 0.782589 0.748989
0.681392 0.786984 0.757351
0.809934 0.791775 0.767086
0.936248 0.785031 0.762783
0.000000 0.910002 0.740261
0.000000 0.910246 0.740841
0.172580 0.910765 0.742611
0.357427 0.912169 0.746304
0.521111 0.913420 0.757229
0.682948 0.914122 0.788968
0.843381 0.918486 0.844480
0.903593 0.922576 0.791836
0.289860 0.386297 0.852354
0.300359 0.376532 0.853758
0.339696 0.339513 0.859617
0.411566 0.251560 0.869078
0.519493 0.000000 0.881712
0.665522 0.000000 0.896208
0.825345 0.000000 0.900725
0.969970 0.000000 0.890562
0.292729 0.385718 0.853422
0.302983 0.376226 0.854856
0.341497 0.339422 0.860563
0.412543 0.252171 0.869993
0.519677 0.000000 0.882506
0.665339 0.000000 0.897002
0.825345 0.000000 0.901610
0.970428 0.000000 0.891295
0.296971 0.387518 0.855924
0.306889 0.378271 0.857420
0.343938 0.342565 0.863066
0.412665 0.257237 0.871977
0.518059 0.000000 0.884489
0.662043 0.000000 0.898802
0.821286 0.000000 0.903593
0.970825 0.000000 0.892821
0.336645 0.452277 0.856168
0.345220 0.447089 0.857481
0.376410 0.427100 0.862272
0.434485 0.383612 0.870420
0.523827 0.296025 0.882017
0.648615 0.000000 0.897032
0.811368 0.000000 0.905303
0.968627 0.000000 0.894621
0.425116 0.588159 0.843900
0.433661 0.587213 0.845365
0.462135 0.582696 0.850980
0.506065 0.567498 0.861479
0.559228 0.520928 0.874205
0.652522 0.434180 0.890806
0.800168 0.293309 0.905699
0.962463 0.262791 0.896513
0.391638 0.675532 0.848051
0.409094 0.676722 0.848417
0.464424 0.680659 0.849454
0.543572 0.686488 0.851164
0.615595 0.684077 0.859403
0.676905 0.647456 0.879423
0.791196 0.572381 0.901030
0.951904 0.547448 0.897795
0.291539 0.775631 0.856443
0.315312 0.775998 0.856840
0.385840 0.777218 0.858091
0.484230 0.779324 0.860044
0.588891 0.781643 0.863249
0.700710 0.785916 0.867765
0.796353 0.775814 0.887022
0.939635 0.740505 0.899840
0.000000 0.898497 0.865354
0.000000 0.898619 0.865782
0.216678 0.898863 0.867033
0.375189 0.899077 0.869169
0.517205 0.899840 0.872679
0.647578 0.901701 0.878111
0.786252 0.904967 0.886137
0.920897 0.911192 0.898009
