data/fiter_cube/28334299/1023168/file.cube
# Created by Adobe Lightroom plugin Export LUT (1.17.0)
# www.johnrellis.com/lightroom/exportlut.htm
# Preset: 梦幻人像_07 云集
# Color profile: C:\Program Files (x86)\Common Files\Adobe\Color\Profiles\Recommended\AdobeRGB1998.icc
LUT_3D_SIZE 5
DOMAIN_MIN 0.000000 0.000000 0.000000
DOMAIN_MAX 0.903226 0.903226 0.903226
0.000000 0.000000 0.000000
0.281437 0.000000 0.000000
0.590661 0.000000 0.000000
0.805661 0.000000 0.000000
0.983948 0.000000 0.113161
0.000000 0.235203 0.129458
0.222934 0.254765 0.000000
0.589746 0.254795 0.000000
0.804623 0.217044 0.000000
0.985412 0.224765 0.134615
0.132265 0.536034 0.315312
0.245121 0.536095 0.316167
0.489387 0.555077 0.108309
0.802579 0.508202 0.084047
0.980529 0.479866 0.193851
0.337469 0.743252 0.486854
0.412085 0.743618 0.502647
0.516228 0.744594 0.519066
0.670741 0.750698 0.278416
0.966064 0.717067 0.196933
0.540551 0.911833 0.661463
0.594629 0.910552 0.680751
0.644465 0.908904 0.684779
0.707301 0.915587 0.684627
0.848844 0.936553 0.481453
0.000000 0.076814 0.186099
0.263767 0.000000 0.220432
0.580926 0.000000 0.210269
0.788968 0.000000 0.210971
0.974334 0.000000 0.242985
0.000000 0.222843 0.198642
0.250340 0.238315 0.217258
0.574151 0.219821 0.213626
0.789548 0.211978 0.221653
0.974273 0.237613 0.254490
0.008667 0.528161 0.333593
0.302190 0.530144 0.364385
0.496529 0.541863 0.253422
0.792142 0.507073 0.267216
0.973754 0.487373 0.298100
0.316197 0.740169 0.493446
0.425422 0.739803 0.520348
0.546563 0.741726 0.546105
0.679591 0.746670 0.355535
0.963378 0.718563 0.310704
0.519615 0.912291 0.660121
0.577966 0.910826 0.679469
0.660761 0.911315 0.701717
0.732021 0.914336 0.715633
0.855192 0.936217 0.518120
0.000000 0.114900 0.437354
0.257115 0.000000 0.459541
0.565637 0.000000 0.487648
0.793027 0.000000 0.440192
0.974945 0.000000 0.410254
0.098848 0.236149 0.441138
0.244236 0.204471 0.461799
0.566339 0.000000 0.491585
0.785275 0.044312 0.441444
0.970703 0.140475 0.422461
0.000000 0.495033 0.453803
0.221164 0.502434 0.463081
0.535607 0.513634 0.482307
0.760678 0.504173 0.479408
0.959258 0.498573 0.480629
0.144106 0.731899 0.515984
0.317967 0.730312 0.532341
0.592187 0.729366 0.601099
0.706203 0.735683 0.520867
0.956725 0.730068 0.530510
0.434058 0.912779 0.660365
0.504479 0.912016 0.677119
0.666957 0.911742 0.728389
0.766140 0.914153 0.758511
0.867643 0.931548 0.599878
0.030610 0.194980 0.645228
0.233188 0.115511 0.654139
0.502525 0.000000 0.680629
0.774258 0.000000 0.686671
0.980163 0.000000 0.632685
0.156069 0.223667 0.649592
0.259495 0.191379 0.656641
0.489662 0.000000 0.681483
0.771725 0.000000 0.686519
0.976471 0.000000 0.631830
0.263676 0.481025 0.636988
0.359594 0.490883 0.640284
0.510735 0.477485 0.667964
0.759182 0.408881 0.686458
0.964996 0.381903 0.641749
0.000000 0.696162 0.652766
0.247501 0.697200 0.655360
0.504570 0.701686 0.664881
0.730037 0.708614 0.679438
0.944152 0.697353 0.673060
0.095735 0.915801 0.683223
0.283970 0.914977 0.693233
0.542504 0.913481 0.730343
0.784817 0.916442 0.803616
0.889982 0.925933 0.722011
0.289860 0.386297 0.852354
0.326940 0.352178 0.857786
0.460822 0.158755 0.875029
0.706172 0.000000 0.899962
0.969970 0.000000 0.890562
0.296025 0.386358 0.855100
0.331304 0.353246 0.860410
0.461189 0.165072 0.877195
0.704524 0.000000 0.902007
0.970733 0.000000 0.892302
0.381506 0.523552 0.850919
0.414527 0.516533 0.856382
0.497993 0.454322 0.872374
0.682765 0.228916 0.899229
0.966186 0.000000 0.895628
0.372259 0.698329 0.849821
0.430823 0.701381 0.850950
0.576471 0.709651 0.854307
0.705348 0.677943 0.881132
0.949371 0.597040 0.898466
0.000000 0.898497 0.865354
0.170657 0.898833 0.866636
0.448859 0.899321 0.870726
0.681666 0.902312 0.879850
0.920897 0.911192 0.898009
