data/fiter_cube/49007420/1023425/file.cube
# Created by Adobe Lightroom plugin Export LUT (1.17.0)
# www.johnrellis.com/lightroom/exportlut.htm
# Preset: 09 - 日系情绪-秋 [云集]
# Color profile: C:\Program Files (x86)\Common Files\Adobe\Color\Profiles\Recommended\AdobeRGB1998.icc
LUT_3D_SIZE 32
DOMAIN_MIN 0.0 0.0 0.0
DOMAIN_MAX 1.0 1.0 1.0
0.113985 0.161349 0.182712
0.115816 0.161715 0.183017
0.118288 0.162173 0.183413
0.127321 0.163272 0.184115
0.149813 0.164858 0.185122
0.186038 0.166232 0.186038
0.238407 0.166629 0.186709
0.309331 0.164187 0.187045
0.396002 0.156374 0.186984
0.492103 0.143435 0.186069
0.587854 0.130983 0.184970
0.671260 0.133150 0.184329
0.740139 0.152743 0.185580
0.796414 0.184726 0.189029
0.840909 0.220951 0.195590
0.876280 0.256657 0.205692
0.904143 0.290196 0.219303
0.926360 0.321691 0.235782
0.946715 0.355047 0.257176
0.963531 0.387091 0.282261
0.977050 0.416785 0.308965
0.988098 0.444892 0.337469
0.996979 0.471565 0.366613
1.000000 0.497200 0.396338
1.000000 0.521843 0.426337
1.000000 0.546410 0.456977
1.000000 0.570764 0.487709
1.000000 0.594659 0.517998
1.000000 0.618189 0.548180
1.000000 0.641230 0.577752
1.000000 0.663447 0.606317
1.000000 0.684657 0.633631
0.114260 0.162631 0.183322
0.115663 0.163058 0.183261
0.119051 0.163424 0.183200
0.128878 0.164706 0.183871
0.151553 0.166934 0.184695
0.187716 0.169070 0.185550
0.239719 0.170138 0.186160
0.309545 0.168734 0.186374
0.395056 0.162753 0.186130
0.490181 0.151919 0.185122
0.585168 0.142611 0.183749
0.668208 0.145205 0.183047
0.737026 0.163790 0.183963
0.793576 0.193790 0.186984
0.838376 0.227451 0.193362
0.874052 0.261509 0.203433
0.902251 0.293889 0.216648
0.924712 0.324224 0.232883
0.945190 0.356390 0.253880
0.961975 0.387121 0.278416
0.975586 0.415991 0.304723
0.986786 0.443488 0.332708
0.995880 0.469673 0.361700
1.000000 0.494911 0.391333
1.000000 0.519554 0.421485
1.000000 0.544152 0.452369
1.000000 0.568475 0.483314
1.000000 0.592615 0.514183
1.000000 0.616297 0.544701
1.000000 0.639551 0.574762
1.000000 0.661982 0.603784
1.000000 0.683406 0.631403
0.114748 0.164431 0.184237
0.115969 0.164736 0.184207
0.118837 0.165438 0.183871
0.130312 0.167544 0.183658
0.153933 0.170382 0.184268
0.190311 0.173312 0.184817
0.241794 0.175143 0.185367
0.310613 0.175021 0.185367
0.395178 0.170871 0.184848
0.489265 0.162966 0.183658
0.583734 0.156588 0.182071
0.666468 0.161044 0.181033
0.735317 0.178378 0.181704
0.791867 0.205997 0.184756
0.836851 0.237522 0.191012
0.872770 0.269291 0.200748
0.901091 0.300450 0.213901
0.923705 0.329320 0.230076
0.944335 0.360235 0.251286
0.961059 0.389715 0.274968
0.974792 0.417700 0.301244
0.986114 0.444404 0.329137
0.995331 0.470222 0.358190
1.000000 0.495033 0.387976
1.000000 0.519463 0.418402
1.000000 0.543664 0.449287
1.000000 0.567926 0.480476
1.000000 0.592004 0.511650
1.000000 0.615747 0.542626
1.000000 0.639002 0.572778
1.000000 0.661463 0.602045
1.000000 0.682887 0.629877
0.115511 0.170352 0.186587
0.117372 0.171145 0.186374
0.119783 0.171603 0.186069
0.130465 0.175082 0.184939
0.158511 0.180484 0.183871
0.196780 0.183871 0.183322
0.248173 0.187137 0.183474
0.316655 0.189120 0.183261
0.399634 0.187991 0.182376
0.492134 0.184787 0.180636
0.584588 0.183566 0.178347
0.666133 0.190890 0.176852
0.734096 0.207889 0.177066
0.790311 0.231846 0.179629
0.835264 0.258885 0.185733
0.871214 0.287510 0.195224
0.899718 0.315068 0.208469
0.922728 0.341650 0.224887
0.943206 0.369787 0.245701
0.959686 0.396551 0.269352
0.973419 0.422400 0.295109
0.984863 0.447639 0.322759
0.994324 0.472511 0.352056
1.000000 0.496681 0.382116
1.000000 0.520897 0.413397
1.000000 0.545190 0.445350
1.000000 0.569574 0.477668
1.000000 0.593530 0.509361
1.000000 0.617151 0.540795
1.000000 0.640040 0.571130
1.000000 0.662013 0.600153
1.000000 0.683131 0.628107
0.115541 0.183749 0.190921
0.118196 0.185153 0.190768
0.120150 0.186130 0.189181
0.129397 0.186709 0.188998
0.155581 0.195987 0.185885
0.203494 0.205173 0.183047
0.256718 0.209018 0.181308
0.323857 0.212284 0.179660
0.405097 0.214755 0.178073
0.494667 0.216617 0.175601
0.584955 0.220371 0.172641
0.664881 0.230198 0.170230
0.732265 0.246159 0.169741
0.788113 0.266789 0.171695
0.833188 0.289891 0.177523
0.869535 0.314122 0.187045
0.898466 0.337804 0.200443
0.922454 0.361791 0.217746
0.942626 0.386114 0.238956
0.959014 0.409735 0.262486
0.972686 0.432776 0.288182
0.984161 0.455940 0.315923
0.993774 0.478859 0.345220
1.000000 0.501915 0.376135
1.000000 0.524895 0.407568
1.000000 0.548486 0.440406
1.000000 0.572137 0.472938
1.000000 0.595422 0.505211
1.000000 0.618463 0.536767
1.000000 0.641047 0.567651
1.000000 0.662837 0.597253
1.000000 0.683680 0.625422
0.114717 0.205631 0.197787
0.117525 0.207401 0.197482
0.122133 0.209415 0.196933
0.129702 0.209720 0.193606
0.149142 0.213382 0.192050
0.195468 0.229526 0.186679
0.269780 0.245335 0.180667
0.337591 0.248783 0.177646
0.415564 0.251041 0.173251
0.502464 0.256596 0.168673
0.589746 0.265293 0.163790
0.667323 0.276860 0.160433
0.732845 0.291875 0.159152
0.787930 0.309392 0.160616
0.832547 0.328344 0.166201
0.868772 0.347906 0.176028
0.897734 0.367041 0.190036
0.922515 0.387945 0.208438
0.942412 0.408057 0.229923
0.958770 0.428260 0.254276
0.972503 0.448493 0.280766
0.984100 0.469184 0.309422
1.000000 0.509392 0.362310
1.000000 0.530236 0.393744
1.000000 0.551080 0.425544
1.000000 0.572076 0.457343
1.000000 0.593133 0.488777
1.000000 0.613977 0.519585
1.000000 0.634607 0.549432
1.000000 0.654932 0.578546
1.000000 0.674464 0.606287
1.000000 0.693294 0.632746
0.111757 0.241154 0.209018
0.115633 0.243015 0.208377
0.121157 0.245365 0.207553
0.128847 0.247990 0.201938
0.150484 0.246525 0.200259
0.186282 0.257847 0.196109
0.259983 0.283360 0.186709
0.366613 0.308293 0.174899
0.446082 0.310185 0.169772
0.528740 0.313176 0.163394
0.608759 0.319219 0.155734
0.682216 0.332250 0.150332
0.744350 0.346838 0.147036
0.796292 0.362463 0.145876
0.838468 0.376837 0.151400
0.872648 0.390936 0.162448
0.901488 0.406104 0.178470
0.925933 0.422614 0.199130
0.945342 0.438849 0.222232
0.961608 0.455695 0.248508
0.975494 0.473976 0.277806
0.987366 0.493202 0.309453
0.997253 0.513573 0.343236
1.000000 0.534142 0.377722
1.000000 0.555230 0.412665
1.000000 0.575891 0.446723
1.000000 0.596460 0.479835
1.000000 0.616541 0.511467
1.000000 0.636713 0.542565
1.000000 0.656367 0.572290
1.000000 0.675624 0.600916
1.000000 0.694026 0.627863
0.106722 0.285740 0.223453
0.111513 0.287602 0.222721
0.118410 0.289982 0.221622
0.133700 0.294804 0.218692
0.148684 0.293492 0.209140
0.181827 0.290043 0.208103
0.238499 0.313115 0.200046
0.335302 0.345556 0.186191
0.465095 0.379187 0.166659
0.545739 0.380926 0.158999
0.620264 0.384039 0.151736
0.685695 0.387366 0.144076
0.744259 0.395544 0.139498
0.795071 0.407630 0.139376
0.836698 0.419257 0.143557
0.871031 0.430732 0.151186
0.901213 0.444068 0.163638
0.924865 0.455634 0.182803
0.943938 0.467109 0.207065
0.960174 0.479713 0.234043
0.974151 0.493965 0.263737
0.986145 0.509789 0.296086
0.996277 0.526787 0.329992
1.000000 0.544793 0.365087
1.000000 0.563378 0.400580
1.000000 0.582300 0.435584
1.000000 0.601434 0.469886
1.000000 0.620539 0.502647
1.000000 0.639796 0.534691
1.000000 0.658778 0.565423
1.000000 0.677516 0.594812
1.000000 0.695521 0.622614
0.098421 0.342626 0.242954
0.105165 0.344305 0.241917
0.113863 0.346654 0.240879
0.132815 0.351171 0.237949
0.147005 0.353094 0.224186
0.184695 0.348760 0.220096
0.228458 0.347539 0.217502
0.307774 0.381079 0.204685
0.423468 0.418311 0.184909
0.565515 0.461616 0.154940
0.636194 0.460365 0.145571
0.697047 0.458930 0.140719
0.750088 0.458564 0.135195
0.795377 0.457923 0.130861
0.835874 0.464973 0.136049
0.872099 0.474922 0.146914
0.900755 0.483345 0.161135
0.923766 0.491218 0.177493
0.942687 0.498970 0.196475
0.959136 0.507713 0.217746
0.973205 0.517998 0.248631
0.985321 0.530175 0.281651
0.995544 0.543816 0.316564
1.000000 0.558923 0.352422
1.000000 0.574853 0.388525
1.000000 0.591424 0.424170
1.000000 0.608820 0.459510
1.000000 0.626551 0.493507
1.000000 0.644495 0.526360
1.000000 0.662562 0.558007
1.000000 0.680507 0.588373
1.000000 0.697932 0.616938
0.087007 0.408881 0.267704
0.096956 0.410285 0.266697
0.108675 0.412116 0.265293
0.132876 0.416114 0.262119
0.162234 0.420478 0.254307
0.184665 0.416785 0.236515
0.234714 0.410163 0.234165
0.292912 0.418860 0.227573
0.390295 0.456367 0.210483
0.514061 0.495735 0.184787
0.648890 0.540673 0.146822
0.708644 0.534905 0.137697
0.758267 0.528985 0.135958
0.801602 0.524468 0.135012
0.840024 0.522087 0.134890
0.872709 0.521172 0.140841
0.900603 0.525505 0.157595
0.923156 0.529442 0.176883
0.941863 0.533806 0.197086
0.958038 0.539239 0.217899
0.972259 0.545739 0.239475
0.984527 0.553552 0.265904
0.994720 0.563256 0.300877
1.000000 0.574640 0.336858
1.000000 0.587549 0.373724
1.000000 0.601617 0.410040
1.000000 0.617060 0.446784
1.000000 0.633387 0.482368
1.000000 0.650324 0.516930
1.000000 0.667536 0.550042
1.000000 0.684810 0.581750
1.000000 0.701686 0.611536
0.078218 0.478706 0.297551
0.091463 0.480049 0.296696
0.107546 0.481697 0.295262
0.137209 0.485054 0.292424
0.176669 0.489784 0.287480
0.192752 0.489509 0.263920
0.243015 0.483131 0.256077
0.297246 0.475074 0.252628
0.371466 0.495705 0.241184
0.478431 0.533532 0.220493
0.595392 0.570062 0.192172
0.713924 0.609796 0.152773
0.769986 0.605493 0.142733
0.811002 0.596002 0.144259
0.845548 0.587304 0.148836
0.874876 0.578973 0.154086
0.899626 0.570916 0.158602
0.921172 0.568353 0.174563
0.939757 0.569146 0.196353
0.955901 0.571313 0.218479
0.970153 0.575067 0.241154
0.982727 0.579797 0.263584
0.993835 0.585534 0.285771
1.000000 0.593591 0.321294
1.000000 0.603632 0.359106
1.000000 0.615045 0.396643
1.000000 0.627924 0.433845
1.000000 0.642390 0.471107
1.000000 0.657588 0.506645
1.000000 0.673518 0.541131
1.000000 0.689601 0.573693
1.000000 0.705623 0.604517
0.086946 0.550866 0.333715
0.101930 0.551843 0.333013
0.120363 0.553033 0.331792
0.152102 0.555444 0.329046
0.194614 0.559045 0.324681
0.229831 0.561151 0.311131
0.253361 0.556847 0.285313
0.312810 0.548760 0.281041
0.368444 0.539513 0.276371
0.455756 0.570275 0.260929
0.560479 0.605859 0.240299
0.668360 0.641230 0.212924
0.790799 0.695674 0.189914
0.836515 0.686336 0.182071
0.866514 0.670314 0.184939
0.891386 0.655634 0.193484
0.912383 0.641749 0.199680
0.930388 0.629023 0.205051
0.946258 0.617884 0.210086
0.960998 0.616114 0.234226
0.974029 0.615961 0.257176
0.985504 0.617243 0.280430
0.995666 0.619501 0.302312
1.000000 0.622736 0.323125
1.000000 0.628199 0.354101
1.000000 0.636622 0.392645
1.000000 0.646754 0.430610
1.000000 0.658442 0.467781
1.000000 0.671260 0.503502
1.000000 0.685023 0.537926
1.000000 0.699275 0.570825
1.000000 0.713649 0.601617
0.130129 0.625605 0.379431
0.142733 0.626184 0.378698
0.158633 0.626398 0.377295
0.188632 0.627497 0.374792
0.229129 0.628809 0.370642
0.276951 0.630304 0.365270
0.285527 0.627649 0.332341
0.334264 0.620325 0.320012
0.392554 0.612818 0.315312
0.453895 0.613550 0.309972
0.545647 0.648493 0.296452
0.642969 0.681971 0.278935
0.737362 0.712184 0.257176
0.826017 0.739834 0.231754
0.867247 0.730220 0.224674
0.891691 0.712001 0.224460
0.911498 0.694942 0.232486
0.928618 0.679316 0.237339
0.943847 0.665370 0.242039
0.957916 0.653498 0.246525
0.970947 0.646296 0.258427
0.982635 0.645075 0.281804
0.992920 0.645136 0.304479
1.000000 0.646204 0.325383
1.000000 0.647974 0.345464
1.000000 0.652033 0.373877
1.000000 0.659663 0.413306
1.000000 0.669215 0.452308
1.000000 0.680354 0.490120
1.000000 0.692592 0.526299
1.000000 0.705531 0.560540
1.000000 0.718959 0.592981
0.182803 0.681086 0.420386
0.193149 0.681453 0.419776
0.205814 0.681605 0.418830
0.231876 0.682094 0.416846
0.268406 0.682734 0.413825
0.314244 0.684596 0.411353
0.343359 0.684993 0.394690
0.361913 0.681941 0.365881
0.416999 0.675257 0.361059
0.469612 0.668330 0.355871
0.532097 0.677668 0.348547
0.614862 0.706996 0.336675
0.698665 0.733303 0.322148
0.779141 0.756161 0.303227
0.854734 0.776761 0.281834
0.891020 0.765957 0.273808
0.910491 0.745815 0.268925
0.926757 0.727749 0.273442
0.941344 0.711574 0.277775
0.954955 0.697780 0.281498
0.967712 0.685847 0.285466
0.979644 0.675654 0.289067
0.990265 0.671901 0.307286
0.999664 0.670985 0.328923
1.000000 0.671107 0.349340
1.000000 0.671748 0.368322
1.000000 0.674891 0.396033
1.000000 0.682094 0.436622
1.000000 0.691249 0.476265
1.000000 0.701869 0.514458
1.000000 0.713405 0.550256
1.000000 0.725673 0.584283
0.248539 0.733730 0.465949
0.257115 0.734066 0.465766
0.267521 0.734096 0.465187
0.290227 0.734279 0.463996
0.322545 0.734310 0.462440
0.362280 0.734279 0.460517
0.407172 0.734127 0.458686
0.407263 0.732174 0.423651
0.444678 0.726833 0.410925
0.491554 0.720363 0.405219
0.536614 0.713649 0.399420
0.598352 0.729458 0.392035
0.670497 0.752682 0.382177
0.742184 0.772976 0.369635
0.810971 0.789944 0.353033
0.876555 0.805570 0.333013
0.908812 0.794247 0.324071
0.924987 0.773953 0.316350
0.939147 0.755886 0.316503
0.952117 0.740414 0.320531
0.964416 0.726955 0.323369
0.976043 0.715145 0.326238
0.986908 0.704799 0.328130
0.997070 0.696315 0.332677
1.000000 0.694728 0.354070
1.000000 0.693996 0.373297
1.000000 0.693904 0.390753
1.000000 0.697078 0.421088
1.000000 0.704524 0.463478
1.000000 0.713497 0.503563
1.000000 0.723751 0.541680
1.000000 0.734737 0.577356
0.316716 0.775662 0.509239
0.324376 0.775906 0.509483
0.332830 0.775814 0.509300
0.351843 0.775753 0.509056
0.379706 0.775357 0.508568
0.414588 0.774899 0.508537
0.454353 0.774258 0.509270
0.471595 0.773129 0.492653
0.481819 0.770596 0.466163
0.520134 0.764706 0.460060
0.558221 0.758297 0.453498
0.595422 0.751553 0.446387
0.653315 0.770077 0.438666
0.714473 0.787411 0.428748
0.775326 0.802274 0.416144
0.834134 0.814786 0.400641
0.890532 0.825803 0.382300
0.922118 0.817075 0.372686
0.936492 0.797848 0.364111
0.949615 0.780972 0.361578
0.961486 0.766537 0.365148
0.972747 0.753872 0.368231
0.983398 0.742550 0.370001
0.993530 0.732326 0.371038
1.000000 0.723171 0.371649
1.000000 0.717830 0.381353
1.000000 0.716457 0.399420
1.000000 0.715663 0.415320
1.000000 0.719203 0.449866
1.000000 0.726131 0.491890
1.000000 0.734432 0.531273
1.000000 0.743771 0.568139
0.379065 0.806638 0.547814
0.384619 0.806516 0.547814
0.391821 0.806302 0.547814
0.407691 0.805905 0.547997
0.431067 0.805203 0.548486
0.460273 0.804379 0.549432
0.493782 0.803342 0.550835
0.523705 0.802152 0.548547
0.522850 0.800870 0.520226
0.546227 0.796719 0.508141
0.578088 0.791226 0.501884
0.609888 0.785336 0.495033
0.645289 0.784390 0.488167
0.696345 0.799924 0.481483
0.749020 0.813443 0.472389
0.801114 0.824857 0.461097
0.852384 0.834684 0.447120
0.901915 0.843137 0.430274
0.932982 0.836728 0.421149
0.946044 0.818997 0.411872
0.958251 0.803006 0.405615
0.969024 0.789364 0.408728
0.979339 0.777310 0.410742
0.989197 0.766445 0.411902
0.998688 0.756588 0.411810
1.000000 0.747585 0.411322
1.000000 0.739223 0.409949
1.000000 0.736507 0.423651
1.000000 0.734981 0.437751
1.000000 0.739284 0.477760
1.000000 0.745937 0.519585
1.000000 0.753780 0.558343
0.436561 0.831083 0.583734
0.441840 0.831144 0.584344
0.469673 0.839353 0.598657
0.482002 0.838743 0.599176
0.500328 0.837827 0.600092
0.522972 0.836545 0.601312
0.549615 0.834989 0.603174
0.578607 0.833280 0.605676
0.585443 0.831815 0.589471
0.589715 0.829770 0.567712
0.613642 0.825101 0.561456
0.638392 0.819913 0.554528
0.663294 0.814206 0.546777
0.696010 0.817380 0.539879
0.738582 0.828946 0.532891
0.782528 0.839017 0.524407
0.826932 0.847776 0.513848
0.871061 0.855283 0.501152
0.914336 0.861845 0.486366
0.943938 0.856962 0.477394
0.955566 0.840360 0.467170
0.966644 0.825284 0.458961
0.976471 0.812284 0.459113
0.985779 0.800687 0.459236
0.994751 0.790005 0.458259
1.000000 0.780179 0.456397
1.000000 0.770932 0.452979
1.000000 0.762295 0.448951
1.000000 0.755184 0.447517
1.000000 0.753445 0.462654
1.000000 0.758267 0.506584
1.000000 0.764431 0.547265
0.492378 0.852445 0.619623
0.498573 0.853239 0.621698
0.506340 0.853941 0.623804
0.519005 0.854246 0.626184
0.536004 0.854063 0.628565
0.556451 0.853178 0.630915
0.579461 0.851865 0.633448
0.604822 0.850248 0.636469
0.622827 0.848753 0.633082
0.621149 0.847745 0.611444
0.634516 0.844633 0.600305
0.654780 0.840391 0.594079
0.675593 0.835660 0.587243
0.696529 0.830442 0.579187
0.728511 0.837064 0.573297
0.765835 0.846525 0.566735
0.804440 0.854887 0.558648
0.843626 0.862211 0.549279
0.882994 0.868711 0.538659
0.922118 0.874449 0.525933
0.950469 0.871031 0.518486
0.961913 0.856352 0.508812
0.972290 0.842557 0.500908
0.981628 0.830381 0.498695
0.990326 0.819486 0.498390
0.998810 0.809445 0.496742
1.000000 0.800107 0.494118
1.000000 0.791348 0.490211
1.000000 0.782956 0.485145
1.000000 0.774472 0.477394
1.000000 0.771542 0.492592
1.000000 0.776089 0.535485
0.533837 0.867643 0.647517
0.539391 0.868223 0.649409
0.545830 0.868742 0.651331
0.556420 0.868925 0.653651
0.571099 0.868620 0.656214
0.588373 0.867765 0.658595
0.608301 0.866545 0.661463
0.630304 0.865049 0.664820
0.653864 0.863462 0.669032
0.655299 0.862608 0.653986
0.657282 0.861295 0.636805
0.673610 0.857847 0.631434
0.690517 0.853941 0.625055
0.708125 0.849668 0.618280
0.726314 0.845304 0.610559
0.757137 0.854124 0.605707
0.789822 0.862058 0.599695
0.823911 0.869139 0.592554
0.858732 0.875486 0.584192
0.894072 0.881193 0.574945
0.929259 0.886259 0.564630
0.955901 0.883848 0.557824
0.967590 0.871092 0.549371
0.977264 0.858427 0.541405
0.986236 0.846891 0.536553
0.994385 0.836667 0.535546
1.000000 0.827207 0.533257
1.000000 0.818418 0.529992
1.000000 0.810025 0.525414
1.000000 0.801694 0.518395
1.000000 0.792782 0.507591
1.000000 0.788418 0.522423
0.571679 0.880766 0.673579
0.576257 0.881224 0.675257
0.581842 0.881590 0.677058
0.591058 0.881682 0.679316
0.603571 0.881346 0.681849
0.618616 0.880552 0.684443
0.635676 0.879423 0.687404
0.654627 0.878050 0.690822
0.675044 0.876585 0.694881
0.685847 0.875456 0.690700
0.684291 0.874815 0.674037
0.692897 0.872618 0.664973
0.706661 0.869383 0.659510
0.721218 0.865904 0.653651
0.736416 0.862150 0.647181
0.755032 0.861601 0.641199
0.782650 0.869322 0.637507
0.811887 0.876432 0.633021
0.842405 0.882902 0.627741
0.873655 0.888792 0.622065
0.905211 0.894102 0.615381
0.936950 0.898802 0.607813
0.961730 0.897246 0.602106
0.973388 0.886381 0.595056
0.982422 0.874907 0.587304
0.990997 0.864256 0.580743
0.998627 0.854917 0.579614
1.000000 0.846220 0.576776
1.000000 0.837919 0.572625
1.000000 0.829740 0.566247
1.000000 0.821073 0.556359
1.000000 0.811856 0.544701
0.613397 0.894377 0.702785
0.616358 0.894469 0.703761
0.619989 0.894469 0.704707
0.626917 0.894194 0.706172
0.636866 0.893614 0.708186
0.649378 0.892760 0.710506
0.663966 0.891752 0.713344
0.680385 0.890562 0.716884
0.698207 0.889342 0.721096
0.716335 0.888090 0.725338
0.715267 0.887724 0.712459
0.716060 0.886900 0.699214
0.727199 0.884398 0.694850
0.738949 0.881559 0.689876
0.751308 0.878477 0.684352
0.764309 0.875212 0.678401
0.782864 0.877501 0.674006
0.806973 0.884092 0.670558
0.832547 0.890135 0.666743
0.859342 0.895720 0.662135
0.886809 0.900694 0.656764
0.914855 0.905180 0.650599
0.943145 0.909117 0.643427
0.966155 0.908019 0.637263
0.977630 0.898375 0.630304
0.986084 0.887907 0.622583
0.994293 0.878019 0.615412
1.000000 0.869322 0.613062
1.000000 0.861265 0.609949
1.000000 0.853330 0.604761
1.000000 0.845090 0.596368
1.000000 0.835721 0.581964
0.643763 0.904295 0.724788
0.646448 0.904387 0.725643
0.649592 0.904417 0.726619
0.655665 0.904173 0.728084
0.664149 0.903655 0.730007
0.674830 0.902892 0.732235
0.687373 0.901946 0.734951
0.701472 0.900847 0.738216
0.717128 0.899718 0.742123
0.733516 0.898558 0.746670
0.739620 0.897917 0.742061
0.738491 0.897581 0.729824
0.744076 0.896056 0.722683
0.753841 0.893767 0.718563
0.764187 0.891325 0.714015
0.775174 0.888701 0.709194
0.786740 0.885924 0.704036
0.805417 0.890501 0.701228
0.827024 0.896330 0.698604
0.849912 0.901732 0.695521
0.873777 0.906706 0.691798
0.898375 0.911223 0.687648
0.923522 0.915282 0.682673
0.949035 0.918822 0.676631
0.969970 0.917205 0.666529
0.981292 0.908843 0.660548
0.989319 0.899290 0.653407
0.997131 0.890288 0.646509
1.000000 0.882139 0.642786
1.000000 0.874540 0.639124
1.000000 0.866789 0.632441
1.000000 0.858244 0.620935
0.675990 0.914672 0.748379
0.678340 0.914794 0.749355
0.681056 0.914733 0.750179
0.685878 0.914458 0.751339
0.692836 0.913909 0.752926
0.701656 0.913146 0.754849
0.712215 0.912261 0.757290
0.724239 0.911162 0.760128
0.737484 0.910033 0.763577
0.751522 0.908843 0.767483
0.763241 0.907774 0.769345
0.761898 0.907408 0.759182
0.761685 0.906798 0.748623
0.769375 0.904814 0.744839
0.777493 0.902617 0.740627
0.786282 0.900267 0.736019
0.795743 0.897856 0.731228
0.806455 0.896025 0.726680
0.824430 0.901518 0.724544
0.843931 0.906767 0.722377
0.864561 0.911681 0.719966
0.886046 0.916167 0.716976
0.908171 0.920165 0.713222
0.930785 0.923674 0.708461
0.953826 0.926696 0.702510
0.973938 0.926421 0.696010
0.984955 0.919066 0.690700
0.992493 0.910307 0.683711
0.999939 0.902037 0.676967
1.000000 0.894316 0.671534
1.000000 0.886900 0.666468
1.000000 0.879057 0.657343
0.699214 0.922576 0.765927
0.701320 0.922698 0.766751
0.703700 0.922667 0.767575
0.707851 0.922393 0.768673
0.714046 0.921904 0.770230
0.721920 0.921294 0.772213
0.731380 0.920470 0.774594
0.742184 0.919585 0.777523
0.754116 0.918639 0.780972
0.766903 0.917693 0.784939
0.780087 0.916716 0.789212
0.782834 0.916289 0.784268
0.781796 0.916075 0.774899
0.785397 0.915007 0.769131
0.792325 0.913298 0.765927
0.799710 0.911467 0.762234
0.807736 0.909575 0.758511
0.816373 0.907652 0.754726
0.827665 0.908110 0.751797
0.843839 0.913054 0.750210
0.861173 0.917723 0.748440
0.879454 0.922026 0.746242
0.898497 0.925933 0.743557
0.918181 0.929412 0.740017
0.938445 0.932494 0.735744
0.959136 0.935149 0.730556
0.977935 0.935241 0.724361
0.988556 0.928862 0.719753
0.995636 0.921019 0.713649
1.000000 0.913451 0.707210
1.000000 0.906035 0.699886
1.000000 0.898711 0.692866
0.721798 0.930358 0.783139
0.723507 0.930388 0.783810
0.725368 0.930327 0.784390
0.728939 0.930053 0.785397
0.734249 0.929564 0.786709
0.741024 0.928954 0.788479
0.749325 0.928222 0.790768
0.758938 0.927428 0.793576
0.769680 0.926574 0.796841
0.781186 0.925780 0.800656
0.793240 0.924956 0.804868
0.801389 0.924376 0.805783
0.800595 0.924285 0.798245
0.800473 0.924010 0.790372
0.806210 0.922667 0.787716
0.812467 0.921202 0.784817
0.819181 0.919646 0.781674
0.826505 0.918090 0.778531
0.834501 0.916564 0.775570
0.846067 0.918791 0.773648
0.860563 0.923186 0.772335
0.876097 0.927337 0.770718
0.892393 0.931121 0.768765
0.909422 0.934569 0.766201
0.927031 0.937621 0.762966
0.945281 0.940337 0.759030
0.964019 0.942687 0.754543
0.981659 0.943206 0.748714
0.991760 0.937438 0.744533
0.998413 0.930266 0.738521
1.000000 0.923156 0.731594
1.000000 0.915892 0.722805
0.740993 0.937316 0.798062
0.742367 0.937285 0.798581
0.744015 0.937224 0.799100
0.747250 0.937011 0.800076
0.752224 0.936645 0.801572
0.758755 0.936187 0.803616
0.766812 0.935729 0.806302
0.776150 0.935241 0.809598
0.786648 0.934783 0.813504
0.797757 0.934356 0.817868
0.809415 0.933928 0.822599
0.821225 0.933532 0.827665
0.822416 0.933654 0.823301
0.822141 0.933745 0.816953
0.824949 0.933227 0.812955
0.830167 0.932189 0.810819
0.835782 0.931060 0.808469
0.841886 0.929931 0.806119
0.848539 0.928801 0.803830
0.855711 0.927703 0.801633
0.866880 0.931090 0.800473
0.879484 0.934905 0.799344
0.892912 0.938415 0.797787
0.907073 0.941650 0.795804
0.921843 0.944579 0.793423
0.937285 0.947173 0.790585
0.953338 0.949493 0.787137
0.969940 0.951476 0.783047
0.986053 0.952239 0.777707
0.995239 0.946807 0.773190
1.000000 0.940215 0.766964
1.000000 0.933440 0.759030
0.763424 0.945220 0.815518
0.764553 0.945190 0.815946
0.765896 0.945098 0.816373
0.768643 0.944854 0.817197
0.772946 0.944518 0.818570
0.778561 0.944060 0.820371
0.785519 0.943572 0.822751
0.793606 0.943053 0.825589
0.802670 0.942535 0.829038
0.812467 0.942016 0.832914
0.822721 0.941527 0.837125
0.833249 0.941070 0.841672
0.838773 0.940917 0.841947
0.838315 0.940978 0.836515
