data/fiter_cube/49007420/1023425/file.cube
# Created by Adobe Lightroom plugin Export LUT (1.17.0)
# www.johnrellis.com/lightroom/exportlut.htm
# Preset: 09 - 日系情绪-秋 [云集]
# Color profile: C:\Program Files (x86)\Common Files\Adobe\Color\Profiles\Recommended\AdobeRGB1998.icc
LUT_3D_SIZE 5
DOMAIN_MIN 0.000000 0.000000 0.000000
DOMAIN_MAX 0.903226 0.903226 0.903226
0.113985 0.161349 0.182712
0.309331 0.164187 0.187045
0.840909 0.220951 0.195590
0.988098 0.444892 0.337469
1.000000 0.618189 0.548180
0.106722 0.285740 0.223453
0.335302 0.345556 0.186191
0.836698 0.419257 0.143557
0.986145 0.509789 0.296086
1.000000 0.639796 0.534691
0.248539 0.733730 0.465949
0.407263 0.732174 0.423651
0.810971 0.789944 0.353033
0.976043 0.715145 0.326238
1.000000 0.704524 0.463478
0.613397 0.894377 0.702785
0.680385 0.890562 0.716884
0.751308 0.878477 0.684352
0.914855 0.905180 0.650599
1.000000 0.861265 0.609949
0.778927 0.951415 0.827970
0.807126 0.949554 0.838193
0.848814 0.946288 0.844755
0.884855 0.944640 0.835080
0.964599 0.962036 0.821866
0.112337 0.164981 0.261448
0.316014 0.157534 0.294194
0.814237 0.305852 0.392370
0.966064 0.516106 0.477333
1.000000 0.612787 0.536065
0.075135 0.290074 0.315190
0.334630 0.333532 0.346075
0.815152 0.441871 0.395026
0.963684 0.567620 0.477455
1.000000 0.640955 0.539757
0.292760 0.735286 0.562036
0.500725 0.735256 0.568505
0.793820 0.773892 0.507408
0.955962 0.720577 0.488258
1.000000 0.731472 0.566186
0.632837 0.892882 0.736812
0.697139 0.889494 0.749538
0.773037 0.879515 0.734066
0.911254 0.903593 0.712551
0.999115 0.868711 0.683650
0.779171 0.951324 0.836271
0.807248 0.949554 0.845548
0.866484 0.947478 0.867124
0.890990 0.944701 0.851835
0.964691 0.962615 0.842924
0.107851 0.170901 0.652522
0.470344 0.157107 0.689540
0.824643 0.363684 0.710384
0.938170 0.658656 0.734798
0.976135 0.786679 0.797940
0.000000 0.335393 0.649897
0.407263 0.359930 0.695186
0.814969 0.554131 0.733730
0.925780 0.717464 0.758297
0.977386 0.791867 0.795071
0.215702 0.698512 0.720577
0.463905 0.711849 0.729030
0.775509 0.755825 0.754086
0.911864 0.797299 0.779385
0.979675 0.818143 0.789822
0.664057 0.892882 0.817380
0.718715 0.889464 0.820523
0.821134 0.885344 0.830594
0.906218 0.900908 0.820645
0.979278 0.883543 0.805112
0.785245 0.950530 0.866056
0.809049 0.949737 0.871092
0.867338 0.948577 0.886076
0.904967 0.947204 0.886900
0.964111 0.962524 0.884398
0.355535 0.255619 0.863462
0.533349 0.300267 0.868528
0.821500 0.557519 0.881407
0.927550 0.698360 0.860777
0.974517 0.811612 0.865843
0.343969 0.401892 0.859617
0.531518 0.448249 0.864378
0.816342 0.646326 0.878843
0.921965 0.751644 0.867979
0.970977 0.830930 0.873472
0.277165 0.641413 0.841886
0.433570 0.649775 0.841154
0.778714 0.755795 0.865660
0.911406 0.838437 0.882475
0.963714 0.875547 0.892515
0.597101 0.857328 0.869566
0.663172 0.860014 0.870573
0.797055 0.872526 0.876951
0.898100 0.892332 0.889372
0.962463 0.909087 0.900542
0.792966 0.951293 0.910887
0.817746 0.950988 0.913756
0.872221 0.951659 0.920409
0.923033 0.953735 0.927855
0.965362 0.963958 0.927947
0.537865 0.423957 0.943481
0.618433 0.464332 0.942412
0.792752 0.606073 0.939666
0.922484 0.766659 0.939330
0.967346 0.812924 0.919493
0.556207 0.518761 0.939391
0.631006 0.551110 0.938659
0.795743 0.664759 0.937072
0.922026 0.798001 0.938994
0.965515 0.832242 0.923003
0.489448 0.646448 0.929747
0.592523 0.672877 0.929900
0.787503 0.761257 0.931426
0.915740 0.849638 0.939239
0.963043 0.881102 0.934600
0.560113 0.811948 0.927337
0.609125 0.815763 0.926543
0.729519 0.829648 0.925139
0.893156 0.885924 0.937530
0.964843 0.932464 0.951781
0.729213 0.927733 0.939025
0.756130 0.929290 0.939757
0.830320 0.936095 0.943328
0.908537 0.948363 0.950896
0.965148 0.963500 0.962249
