data/fiter_cube/49007420/1023425/file.cube
# Created by Adobe Lightroom plugin Export LUT (1.17.0)
# www.johnrellis.com/lightroom/exportlut.htm
# Preset: 09 - 日系情绪-秋 [云集]
# Color profile: C:\Program Files (x86)\Common Files\Adobe\Color\Profiles\Recommended\AdobeRGB1998.icc
LUT_3D_SIZE 8
DOMAIN_MIN 0.000000 0.000000 0.000000
DOMAIN_MAX 0.903226 0.903226 0.903226
0.113985 0.161349 0.182712
0.149813 0.164858 0.185122
0.396002 0.156374 0.186984
0.740139 0.152743 0.185580
0.904143 0.290196 0.219303
0.977050 0.416785 0.308965
1.000000 0.521843 0.426337
1.000000 0.618189 0.548180
0.115541 0.183749 0.190921
0.155581 0.195987 0.185885
0.405097 0.214755 0.178073
0.732265 0.246159 0.169741
0.898466 0.337804 0.200443
0.972686 0.432776 0.288182
1.000000 0.524895 0.407568
1.000000 0.618463 0.536767
0.098421 0.342626 0.242954
0.147005 0.353094 0.224186
0.423468 0.418311 0.184909
0.750088 0.458564 0.135195
0.900755 0.483345 0.161135
0.973205 0.517998 0.248631
1.000000 0.574853 0.388525
1.000000 0.644495 0.526360
0.130129 0.625605 0.379431
0.229129 0.628809 0.370642
0.392554 0.612818 0.315312
0.737362 0.712184 0.257176
0.911498 0.694942 0.232486
0.970947 0.646296 0.258427
1.000000 0.647974 0.345464
1.000000 0.680354 0.490120
0.379065 0.806638 0.547814
0.431067 0.805203 0.548486
0.522850 0.800870 0.520226
0.645289 0.784390 0.488167
0.852384 0.834684 0.447120
0.958251 0.803006 0.405615
0.998688 0.756588 0.411810
1.000000 0.734981 0.437751
0.571679 0.880766 0.673579
0.603571 0.881346 0.681849
0.675044 0.876585 0.694881
0.706661 0.869383 0.659510
0.782650 0.869322 0.637507
0.905211 0.894102 0.615381
0.982422 0.874907 0.587304
1.000000 0.837919 0.572625
0.699214 0.922576 0.765927
0.714046 0.921904 0.770230
0.754116 0.918639 0.780972
0.781796 0.916075 0.774899
0.807736 0.909575 0.758511
0.861173 0.917723 0.748440
0.938445 0.932494 0.735744
0.995636 0.921019 0.713649
0.778927 0.951415 0.827970
0.787778 0.950774 0.831022
0.815610 0.949126 0.841672
0.854276 0.947814 0.859068
0.855497 0.945525 0.840421
0.877348 0.943511 0.835874
0.915679 0.953704 0.832090
0.964599 0.962036 0.821866
0.115053 0.163088 0.198093
0.147066 0.163729 0.200717
0.374731 0.164157 0.219089
0.720302 0.182498 0.229404
0.893431 0.314336 0.254276
0.969177 0.422644 0.307836
1.000000 0.514488 0.406714
1.000000 0.610590 0.536187
0.110658 0.185306 0.207553
0.155978 0.195956 0.215030
0.390997 0.213535 0.222721
0.721096 0.251865 0.225772
0.890959 0.355200 0.251011
0.966461 0.443793 0.304875
1.000000 0.520409 0.391577
1.000000 0.610895 0.524743
0.104585 0.342260 0.276188
0.182803 0.359960 0.279423
0.420264 0.412268 0.239384
0.733700 0.438178 0.211307
0.890013 0.481270 0.246159
0.963714 0.524224 0.309270
1.000000 0.568566 0.377356
1.000000 0.635767 0.512047
0.157717 0.618677 0.415198
0.256077 0.624201 0.413825
0.413764 0.619135 0.367163
0.720516 0.693721 0.315862
0.893614 0.676570 0.291447
0.958526 0.640375 0.316228
1.000000 0.649561 0.391333
1.000000 0.672724 0.475593
0.399725 0.803799 0.572992
0.446052 0.801846 0.572686
0.556573 0.796475 0.564904
0.642573 0.773800 0.512749
0.843931 0.826444 0.477333
0.950256 0.798245 0.444465
0.992432 0.756344 0.449226
1.000000 0.740230 0.477729
0.574853 0.877562 0.682765
0.599573 0.876341 0.686213
0.670253 0.872038 0.697871
0.708980 0.865965 0.670283
0.781582 0.865263 0.650965
0.902892 0.892363 0.636744
0.978363 0.874418 0.611505
1.000000 0.839109 0.595453
0.695155 0.919982 0.766873
0.707668 0.918700 0.769223
0.748836 0.915831 0.780026
0.785306 0.913603 0.781399
0.808896 0.908141 0.764065
0.860166 0.915526 0.754055
0.936339 0.930541 0.741726
0.993072 0.919554 0.720821
0.775906 0.950378 0.828061
0.785306 0.949889 0.831388
0.813565 0.948363 0.841978
0.853056 0.947173 0.859495
0.860960 0.946746 0.848112
0.880186 0.944182 0.841733
0.915984 0.953246 0.836271
0.963989 0.961486 0.825864
0.108003 0.165621 0.303593
0.184298 0.164096 0.318578
0.414069 0.144045 0.353307
0.742885 0.182376 0.406073
0.874968 0.420294 0.481025
0.947204 0.537865 0.532891
0.989258 0.603235 0.565454
1.000000 0.639094 0.581018
0.069154 0.202853 0.320592
0.165713 0.204105 0.342016
0.421546 0.218906 0.370214
0.728145 0.282353 0.417304
0.872313 0.449653 0.483131
0.945312 0.547295 0.527672
0.988067 0.607874 0.560296
1.000000 0.643885 0.578943
0.000000 0.346746 0.373968
0.152895 0.362463 0.386175
0.422339 0.402228 0.413733
0.716396 0.460792 0.444038
0.873686 0.539910 0.487770
0.943999 0.598352 0.527977
0.986175 0.642603 0.563317
1.000000 0.670161 0.583764
0.178347 0.636439 0.531945
0.288518 0.642359 0.534905
0.507805 0.651301 0.539666
0.720577 0.693385 0.501427
0.875242 0.678370 0.493111
0.941253 0.680751 0.528130
0.983215 0.700740 0.570520
1.000000 0.715236 0.594965
0.424414 0.806302 0.641810
0.479561 0.805509 0.645747
0.605859 0.801846 0.655268
0.686030 0.789273 0.624048
0.842008 0.827665 0.607721
0.935424 0.804135 0.587579
0.978180 0.773098 0.580926
1.000000 0.771511 0.609918
0.593561 0.877775 0.721920
0.621241 0.876463 0.726406
0.689387 0.872313 0.737026
0.742031 0.867613 0.729397
0.789914 0.860166 0.706111
0.898680 0.890227 0.703243
0.967834 0.876768 0.687251
0.999725 0.850126 0.677089
0.706996 0.920378 0.788968
0.720241 0.919280 0.791653
0.758236 0.916381 0.799893
0.808225 0.913207 0.813626
0.822354 0.908965 0.793088
0.864836 0.913909 0.784817
0.935760 0.931121 0.781552
0.987701 0.923186 0.769100
0.776852 0.950561 0.837339
0.784390 0.949920 0.839200
0.812345 0.948272 0.848386
0.853178 0.947478 0.865446
0.869841 0.947234 0.862699
0.886900 0.945037 0.856779
0.919005 0.953124 0.853025
0.964141 0.962066 0.846494
0.066682 0.167575 0.537987
0.225772 0.160983 0.557733
0.533989 0.151369 0.609796
0.744411 0.223606 0.619043
0.886137 0.461341 0.642329
0.930571 0.608881 0.674769
0.956664 0.714870 0.731563
0.990387 0.737179 0.734981
0.000000 0.214450 0.557397
0.191592 0.217075 0.573144
0.529442 0.245884 0.620325
0.743740 0.322942 0.630304
0.879606 0.512810 0.654780
0.925200 0.632441 0.684382
0.956085 0.718044 0.730159
0.990539 0.738491 0.732662
0.000000 0.371160 0.554406
0.000000 0.372198 0.561364
0.449928 0.409491 0.619776
0.731319 0.520623 0.655543
0.859007 0.629206 0.686397
0.910735 0.710384 0.724849
0.956939 0.743709 0.739162
0.990875 0.755276 0.736843
0.000000 0.603876 0.630579
0.203220 0.611902 0.636286
0.474556 0.636194 0.653285
0.704952 0.674861 0.676509
0.840177 0.714839 0.699275
0.910552 0.744778 0.718013
0.956298 0.766934 0.732753
0.989960 0.778927 0.738155
0.450996 0.810575 0.735073
0.508446 0.810910 0.738705
0.634882 0.809934 0.745022
0.744320 0.806638 0.747829
0.836545 0.824582 0.732113
0.912902 0.811887 0.723934
0.956390 0.809628 0.732692
0.988983 0.814206 0.743008
0.623651 0.880919 0.780728
0.652064 0.881132 0.785275
0.713741 0.877226 0.790860
0.782010 0.873350 0.798734
0.815488 0.865080 0.781399
0.896727 0.890196 0.781857
0.955016 0.881712 0.773037
0.986816 0.863859 0.762356
0.719203 0.920775 0.819852
0.732692 0.920195 0.822354
0.770474 0.918425 0.829465
0.817319 0.916472 0.839384
0.846677 0.914153 0.836698
0.873503 0.912840 0.826139
0.935271 0.931640 0.827359
0.980896 0.926146 0.818845
0.784543 0.951263 0.856626
0.792294 0.950927 0.858488
0.815030 0.949798 0.863737
0.850675 0.948608 0.874479
0.888457 0.948119 0.889220
0.896910 0.946960 0.878355
0.923125 0.952789 0.875486
0.964508 0.962829 0.873259
0.180331 0.181338 0.738918
0.301946 0.178836 0.746792
0.552392 0.207095 0.768368
0.776181 0.385077 0.795682
0.872190 0.495583 0.774594
0.931487 0.657496 0.778927
0.956054 0.736202 0.791379
0.975341 0.792844 0.816922
0.138064 0.240299 0.742641
0.284703 0.245274 0.750668
0.547662 0.286687 0.771237
0.776791 0.458503 0.798367
0.868742 0.543664 0.779660
0.927916 0.681361 0.785458
0.953704 0.748959 0.797116
0.973846 0.799802 0.820859
0.000000 0.388586 0.728237
0.150973 0.393042 0.739864
0.501488 0.439338 0.765713
0.761776 0.587335 0.798581
0.857633 0.655879 0.792508
0.916411 0.737240 0.800351
0.946166 0.781521 0.811246
0.967803 0.824033 0.835264
0.000000 0.581292 0.741360
0.172641 0.583856 0.742885
0.420325 0.595483 0.748257
0.708980 0.675715 0.784726
0.844541 0.756039 0.806973
0.902251 0.794919 0.817502
0.935637 0.823880 0.831693
0.969543 0.832792 0.832242
0.365087 0.763058 0.781003
0.424628 0.765805 0.782742
0.570581 0.774533 0.787686
0.719661 0.790890 0.796475
0.823178 0.809995 0.807034
0.891325 0.827848 0.817838
0.937621 0.841550 0.826169
0.971984 0.848661 0.828305
0.601709 0.874571 0.824918
0.630823 0.874205 0.826596
0.708125 0.873594 0.832273
0.788449 0.874723 0.840238
0.838590 0.871702 0.838437
0.891478 0.885252 0.834470
0.941711 0.882322 0.832334
0.974090 0.879271 0.832364
0.733822 0.920958 0.856901
0.744869 0.920287 0.857725
0.778347 0.918700 0.860746
0.821195 0.917540 0.865629
0.861326 0.916686 0.870420
0.881895 0.912261 0.860777
0.933867 0.930602 0.864225
0.974090 0.926909 0.858518
0.788937 0.950591 0.878355
0.795743 0.950225 0.879301
0.817136 0.949310 0.882658
0.849393 0.949462 0.889586
0.883909 0.949248 0.898039
0.907134 0.949523 0.900450
0.925872 0.951354 0.896056
0.964446 0.962951 0.897490
0.327825 0.238315 0.848051
0.399268 0.247318 0.850126
0.572351 0.299596 0.855833
0.755703 0.452338 0.865385
0.872221 0.594965 0.872892
0.920012 0.671473 0.848936
0.956664 0.765682 0.852445
0.974823 0.809354 0.857206
0.321965 0.292821 0.845457
0.394018 0.302403 0.847318
0.569970 0.354437 0.853727
0.753567 0.493812 0.863737
0.869841 0.626917 0.871946
0.917418 0.691463 0.850797
0.954742 0.775875 0.855192
0.973602 0.815366 0.859678
0.287938 0.427161 0.841093
0.367407 0.436133 0.843229
0.563409 0.490394 0.850370
0.749294 0.601282 0.861723
0.867826 0.717067 0.874052
0.912200 0.751675 0.859983
0.949981 0.808499 0.865629
0.970184 0.835966 0.869047
0.149874 0.567834 0.823667
0.238895 0.568780 0.823148
0.497200 0.601862 0.834836
0.728786 0.694636 0.854978
0.863005 0.791531 0.876432
0.907713 0.815457 0.873014
0.944457 0.847318 0.879454
0.966064 0.863218 0.882109
0.379278 0.726619 0.837430
0.424506 0.729335 0.837705
0.544274 0.739223 0.838529
0.677913 0.757321 0.839963
0.825071 0.811002 0.861418
0.899351 0.854124 0.878019
0.936370 0.872862 0.885283
0.960540 0.886137 0.891539
0.557977 0.841703 0.854734
0.586969 0.843442 0.855894
0.663264 0.847745 0.858061
0.752438 0.855680 0.862058
0.827420 0.866239 0.867765
0.886198 0.879454 0.876341
0.931365 0.892180 0.885252
0.963806 0.900145 0.890043
0.709377 0.918669 0.885832
0.724788 0.918608 0.886809
0.767514 0.918090 0.889311
0.821836 0.919249 0.894560
0.870787 0.922454 0.901518
0.900267 0.921569 0.900420
0.933745 0.930571 0.898436
0.968078 0.929198 0.896513
0.799832 0.951537 0.906798
0.805905 0.951263 0.907195
0.825406 0.950622 0.908751
0.854032 0.950591 0.911894
0.885344 0.951080 0.916136
0.915007 0.952239 0.921508
0.931640 0.951781 0.918700
0.965240 0.963836 0.922301
0.445533 0.327581 0.906188
0.489021 0.342229 0.907073
0.605768 0.396674 0.907958
0.743862 0.508263 0.909239
0.858091 0.652338 0.911406
0.920317 0.715145 0.913115
0.947448 0.763607 0.891539
0.973388 0.819150 0.892210
0.447425 0.368841 0.903288
0.490425 0.382605 0.904143
0.605921 0.433265 0.905180
0.742153 0.534264 0.906706
0.855436 0.666651 0.909422
0.917693 0.726528 0.911528
0.945281 0.769436 0.891173
0.971984 0.821592 0.892058
0.462837 0.487251 0.900328
0.503410 0.498482 0.900633
0.614679 0.540337 0.901579
0.745480 0.620630 0.903960
0.853422 0.721218 0.908293
0.915343 0.775784 0.912749
0.943175 0.805112 0.898253
0.970397 0.845853 0.901091
0.406989 0.588525 0.890990
0.458686 0.597589 0.891508
0.603113 0.641444 0.894347
0.740536 0.704738 0.899290
0.848203 0.777584 0.906920
0.914641 0.831693 0.916350
0.941405 0.847593 0.908293
0.968139 0.874601 0.912047
0.409003 0.701869 0.884764
0.439094 0.703334 0.884062
0.528435 0.710353 0.882475
0.673732 0.739651 0.885435
0.823758 0.807828 0.899687
0.909270 0.866300 0.916655
0.938201 0.879301 0.915129
0.965087 0.898894 0.920806
0.548058 0.814054 0.891386
0.569879 0.815702 0.891417
0.634424 0.821408 0.891539
0.716274 0.831235 0.892180
0.792355 0.842710 0.893065
0.885618 0.878233 0.909483
0.937102 0.908934 0.923613
0.962646 0.920836 0.929046
0.672572 0.891814 0.903044
0.687160 0.892760 0.903593
0.729000 0.895384 0.904875
0.784939 0.900389 0.907500
0.840818 0.907164 0.911131
0.889555 0.915892 0.916503
0.929900 0.926329 0.924010
0.962005 0.935821 0.931151
0.763210 0.949462 0.925261
0.771603 0.949615 0.925841
0.800900 0.949889 0.927794
0.839902 0.950317 0.930480
0.882780 0.952117 0.935241
0.920470 0.955932 0.942077
0.943114 0.957702 0.943999
0.966186 0.964752 0.944823
0.537865 0.423957 0.943481
0.564538 0.436500 0.943359
0.641199 0.478065 0.942046
0.742763 0.556207 0.940520
0.838315 0.658625 0.938842
0.911650 0.757321 0.938964
0.951293 0.779751 0.940459
0.967346 0.812924 0.919493
0.543420 0.455329 0.941741
0.569390 0.466957 0.941650
0.644404 0.505516 0.940612
0.743740 0.577447 0.939147
0.837949 0.672816 0.937896
0.910613 0.765133 0.938445
0.949981 0.786862 0.939940
0.966491 0.817472 0.919951
0.558434 0.541161 0.938048
0.582452 0.550347 0.937896
0.652644 0.580835 0.936919
0.749752 0.643214 0.936675
0.838834 0.718166 0.936370
0.908659 0.791684 0.938109
0.947509 0.813962 0.940276
0.964935 0.837400 0.923888
0.539452 0.619959 0.933257
0.576898 0.635462 0.933135
0.656550 0.666926 0.932738
0.749660 0.712215 0.933104
0.837064 0.768704 0.934661
0.905730 0.825223 0.938476
0.945373 0.850706 0.942138
0.963622 0.866300 0.930785
0.427100 0.682277 0.925414
0.466682 0.687312 0.925811
0.575372 0.705867 0.926390
0.711421 0.749233 0.928252
0.822507 0.804440 0.931579
0.897551 0.851408 0.937591
0.943786 0.885100 0.944701
0.962951 0.896452 0.939117
0.527642 0.787503 0.925872
0.544213 0.788540 0.925475
0.596490 0.792630 0.924498
0.670130 0.800320 0.923308
0.765957 0.819364 0.924071
0.880430 0.871733 0.935515
0.943877 0.915435 0.949126
0.964477 0.926360 0.949554
0.635157 0.869200 0.930297
0.646906 0.869932 0.930236
0.684352 0.872709 0.930114
0.740993 0.878599 0.930602
0.803738 0.887602 0.931792
0.859556 0.897673 0.934020
0.929137 0.925170 0.946990
0.965515 0.947845 0.957305
0.729213 0.927733 0.939025
0.737484 0.928191 0.939208
0.764553 0.929900 0.940032
0.806455 0.933501 0.941924
0.854276 0.939117 0.945068
0.898497 0.946349 0.949523
0.936065 0.954772 0.955413
0.965148 0.963500 0.962249
