data/fiter_cube/55192441/1023188/file.cube
# Created by Adobe Lightroom plugin Export LUT (1.17.0)
# www.johnrellis.com/lightroom/exportlut.htm
# Preset: 清新轻盈通透人像_06 云集
# Color profile: C:\Program Files (x86)\Common Files\Adobe\Color\Profiles\Recommended\AdobeRGB1998.icc
LUT_3D_SIZE 5
DOMAIN_MIN 0.000000 0.000000 0.000000
DOMAIN_MAX 0.903226 0.903226 0.903226
0.000000 0.000000 0.000000
0.270695 0.000000 0.000000
0.640375 0.000000 0.000000
0.838285 0.000000 0.000000
1.000000 0.000000 0.000000
0.000000 0.285283 0.000000
0.285527 0.288182 0.000000
0.628656 0.295140 0.000000
0.832029 0.248966 0.000000
1.000000 0.237980 0.000000
0.000000 0.642542 0.000000
0.243503 0.637690 0.000000
0.627680 0.633417 0.000000
0.824887 0.542321 0.000000
0.993561 0.497810 0.063569
0.000000 0.829740 0.000000
0.140017 0.828214 0.000000
0.498878 0.818936 0.000000
0.786954 0.793729 0.000000
0.982971 0.743130 0.169924
0.000000 0.991455 0.067414
0.165011 0.989258 0.060304
0.442573 0.976349 0.000000
0.702510 0.969940 0.095430
0.948028 0.955749 0.216403
0.000000 0.000000 0.270970
0.271183 0.000000 0.271122
0.625818 0.000000 0.263127
0.810636 0.104311 0.283696
0.981384 0.195438 0.302281
0.000000 0.283848 0.283757
0.272770 0.272770 0.272770
0.618097 0.269017 0.269108
0.806851 0.289006 0.289525
0.980285 0.309850 0.310582
0.000000 0.634943 0.255344
0.167544 0.631159 0.199649
0.606195 0.610712 0.239292
0.798245 0.546288 0.312963
0.977539 0.528222 0.339147
0.000000 0.822049 0.268711
0.225711 0.820737 0.265843
0.512902 0.811887 0.260044
0.782162 0.787930 0.311406
0.972869 0.749172 0.360632
0.196201 0.984649 0.340795
0.264500 0.983948 0.314031
0.484016 0.980041 0.312169
0.715633 0.971160 0.319402
0.949767 0.956786 0.367468
0.000000 0.000000 0.621210
0.279271 0.000000 0.615595
0.604791 0.000000 0.604852
0.795743 0.207431 0.547875
0.962707 0.355718 0.561089
0.000000 0.239445 0.630182
0.236393 0.236667 0.620874
0.605798 0.279820 0.605859
0.785580 0.378851 0.563775
0.959503 0.445502 0.580041
0.000000 0.620294 0.620386
0.238315 0.615381 0.615412
0.597162 0.597162 0.597162
0.771817 0.597986 0.598016
0.954833 0.595239 0.595361
0.036194 0.808835 0.544244
0.309483 0.800443 0.551537
0.560784 0.790097 0.568414
0.775265 0.778347 0.580499
0.952361 0.761196 0.591821
0.243046 0.973144 0.535821
0.359503 0.971740 0.549950
0.538262 0.969055 0.555352
0.725429 0.962341 0.542351
0.943236 0.948638 0.562524
0.000000 0.000000 0.794644
0.224582 0.000000 0.792233
0.514458 0.000000 0.782620
0.771695 0.201480 0.771756
0.953246 0.344488 0.744564
0.000000 0.239048 0.796109
0.251469 0.251896 0.792569
0.531365 0.300084 0.779080
0.765743 0.359625 0.765774
0.946349 0.423072 0.745235
0.163699 0.541466 0.796994
0.341405 0.554009 0.794339
0.573693 0.573724 0.775998
0.754910 0.575586 0.754879
0.941070 0.585260 0.752438
0.241062 0.787320 0.787381
0.364904 0.783627 0.783719
0.572290 0.777646 0.777707
0.758816 0.758785 0.758816
0.941985 0.755978 0.756008
0.299992 0.964599 0.746944
0.384009 0.962707 0.749325
0.554589 0.960296 0.752834
0.729549 0.956847 0.736721
0.939391 0.942687 0.734585
0.000000 0.000000 0.948394
0.192569 0.000000 0.946929
0.465400 0.000000 0.942382
0.707607 0.198734 0.931579
0.927642 0.300420 0.927642
0.000000 0.230808 0.946227
0.241581 0.242496 0.944488
0.488380 0.284001 0.939269
0.712123 0.334356 0.927306
0.924254 0.382361 0.924285
0.283543 0.523247 0.944671
0.374395 0.533562 0.942199
0.539117 0.539208 0.935729
0.723476 0.539940 0.923583
0.922545 0.548516 0.922576
0.302831 0.730556 0.944091
0.379522 0.732296 0.942687
0.546349 0.736049 0.942077
0.728298 0.728237 0.934997
0.930327 0.729244 0.930327
0.328618 0.942138 0.942229
0.392767 0.941497 0.941588
0.544152 0.941985 0.942046
0.730159 0.941039 0.941100
0.926635 0.926604 0.926635
