data/fiter_cube/55192441/1023188/file.cube
# Created by Adobe Lightroom plugin Export LUT (1.17.0)
# www.johnrellis.com/lightroom/exportlut.htm
# Preset: 清新轻盈通透人像_06 云集
# Color profile: C:\Program Files (x86)\Common Files\Adobe\Color\Profiles\Recommended\AdobeRGB1998.icc
LUT_3D_SIZE 8
DOMAIN_MIN 0.000000 0.000000 0.000000
DOMAIN_MAX 0.903226 0.903226 0.903226
0.000000 0.000000 0.000000
0.093721 0.000000 0.000000
0.340795 0.000000 0.000000
0.563226 0.000000 0.000000
0.702571 0.000000 0.000000
0.811185 0.000000 0.000000
0.911040 0.000000 0.000000
1.000000 0.000000 0.000000
0.000000 0.093202 0.000000
0.095521 0.096529 0.000000
0.327001 0.152132 0.000000
0.547997 0.155886 0.000000
0.690974 0.127901 0.000000
0.798245 0.094514 0.000000
0.896880 0.073030 0.000000
0.995880 0.078889 0.000000
0.000000 0.353033 0.000000
0.133608 0.353399 0.000000
0.348058 0.351263 0.000000
0.551049 0.355230 0.000000
0.694331 0.327062 0.000000
0.802152 0.297093 0.000000
0.909819 0.282689 0.000000
1.000000 0.275364 0.000000
0.000000 0.566979 0.000000
0.000000 0.563287 0.000000
0.328527 0.557916 0.000000
0.560723 0.566003 0.000000
0.715602 0.526513 0.000000
0.811032 0.475746 0.000000
0.906706 0.445777 0.000000
0.999542 0.426581 0.000000
0.000000 0.705959 0.000000
0.000000 0.703883 0.000000
0.271397 0.699916 0.000000
0.484962 0.695155 0.000000
0.672023 0.678126 0.000000
0.792752 0.628687 0.000000
0.890227 0.590936 0.000000
0.989441 0.569482 0.108278
0.000000 0.800809 0.000000
0.000000 0.806210 0.000000
0.219150 0.802182 0.000000
0.422095 0.796414 0.000000
0.599939 0.783963 0.000000
0.763149 0.769863 0.000000
0.887114 0.739651 0.068421
0.985962 0.710811 0.166567
0.000000 0.899229 0.000000
0.000000 0.899931 0.000000
0.197879 0.895262 0.000000
0.387579 0.890318 0.000000
0.545098 0.882536 0.000000
0.706996 0.872343 0.000000
0.855039 0.862211 0.109926
0.974426 0.839139 0.186221
0.000000 0.991455 0.067414
0.000000 0.990600 0.063691
0.215610 0.988922 0.063752
0.382177 0.988006 0.084077
0.516045 0.974731 0.000000
0.663844 0.971160 0.047608
0.813077 0.965423 0.164004
0.948028 0.955749 0.216403
0.000000 0.000000 0.091157
0.091554 0.000000 0.091371
0.322881 0.000000 0.121218
0.548882 0.000000 0.062959
0.690455 0.000000 0.002289
0.793149 0.000000 0.028626
0.889769 0.000000 0.081392
0.987640 0.000000 0.114137
0.000000 0.092348 0.092317
0.091890 0.091890 0.091890
0.325780 0.081636 0.081575
0.544213 0.027527 0.033570
0.685420 0.000000 0.000000
0.787106 0.000000 0.004273
0.879820 0.058778 0.065461
0.978180 0.094484 0.098970
0.000000 0.338262 0.129397
0.000000 0.345068 0.000000
0.341039 0.344182 0.000000
0.543328 0.334722 0.000000
0.683986 0.308049 0.000000
0.785977 0.284916 0.017121
0.883696 0.275669 0.093599
0.984680 0.276555 0.132357
0.000000 0.553429 0.000000
0.000000 0.554406 0.000000
0.304021 0.552361 0.000000
0.539605 0.544396 0.000000
0.687007 0.501457 0.000000
0.782467 0.458076 0.073762
0.878599 0.433692 0.121370
0.978912 0.422217 0.154574
0.000000 0.700526 0.000000
0.000000 0.698421 0.000000
0.248783 0.691951 0.000000
0.469795 0.682002 0.000000
0.656886 0.662623 0.000000
0.776791 0.616266 0.037354
0.874784 0.584161 0.157626
0.975921 0.566735 0.196902
0.000000 0.791653 0.000000
0.000000 0.790982 0.000000
0.207462 0.787594 0.000000
0.413947 0.783993 0.000000
0.593103 0.774746 0.000000
0.757687 0.764034 0.110201
0.878935 0.734920 0.191775
0.976287 0.707179 0.233524
0.000000 0.886259 0.000000
0.000000 0.883787 0.000000
0.197238 0.880949 0.000000
0.385718 0.879301 0.000000
0.542779 0.874662 0.000000
0.701534 0.864195 0.123171
0.845274 0.852171 0.186160
0.962432 0.829282 0.229374
0.000000 0.983978 0.168093
0.000000 0.984100 0.169802
0.230625 0.983062 0.171084
0.388739 0.982849 0.180117
0.530114 0.979278 0.180117
0.669459 0.972473 0.186893
0.812589 0.963043 0.226871
0.944335 0.951843 0.259129
0.000000 0.000000 0.347265
0.154910 0.000000 0.345098
0.340978 0.000000 0.340978
0.551232 0.000000 0.337621
0.689509 0.000000 0.313939
0.788754 0.181308 0.349950
0.886076 0.237064 0.361791
0.984131 0.259648 0.366308
0.000000 0.113100 0.352605
0.060334 0.060761 0.348363
0.339666 0.000000 0.339757
0.545525 0.000000 0.327398
0.683497 0.094728 0.320592
0.782528 0.226749 0.345861
0.879240 0.260716 0.354314
0.979370 0.280125 0.360815
0.000000 0.351598 0.351629
0.000000 0.350286 0.350378
0.337285 0.337285 0.337285
0.540093 0.336797 0.336950
0.683406 0.346197 0.346197
0.781003 0.353460 0.353674
0.876982 0.359594 0.359960
0.976684 0.364202 0.364752
0.000000 0.557519 0.332494
0.000000 0.558709 0.319738
0.278569 0.557549 0.290532
0.544549 0.547814 0.317082
0.683192 0.517266 0.354925
0.777829 0.494942 0.366918
0.875212 0.484413 0.373053
0.974762 0.477668 0.376043
0.000000 0.697627 0.297429
0.000000 0.696529 0.294285
0.264622 0.691493 0.287053
0.474830 0.685084 0.283177
0.662257 0.666682 0.323644
0.772213 0.626917 0.353002
0.867552 0.608057 0.380865
0.969390 0.596551 0.386908
0.000000 0.787991 0.290654
0.000000 0.786648 0.299840
0.269139 0.782467 0.298375
0.435401 0.777279 0.294102
0.597498 0.768338 0.304295
0.752255 0.757473 0.343694
0.868315 0.735470 0.374212
0.970092 0.720851 0.399298
0.040986 0.884337 0.326299
0.177401 0.881895 0.335729
0.282811 0.878294 0.318364
0.421210 0.874296 0.313909
0.558984 0.869200 0.308690
0.707759 0.861418 0.331487
0.848142 0.854215 0.365240
0.964050 0.837980 0.389868
0.203189 0.978790 0.365209
0.245335 0.976959 0.368963
0.299748 0.976623 0.341833
0.428656 0.978607 0.349859
0.552117 0.975067 0.346105
0.680201 0.970397 0.345556
0.818326 0.962341 0.369299
0.946197 0.953033 0.390448
0.000000 0.000000 0.548394
0.144472 0.000000 0.549340
0.341497 0.000000 0.541466
0.537438 0.000000 0.537469
0.680049 0.000000 0.498451
0.777096 0.167178 0.480720
0.868132 0.290471 0.492836
0.964721 0.357610 0.513878
0.000000 0.016480 0.558068
0.000000 0.000000 0.556023
0.329656 0.000000 0.545708
0.538598 0.000000 0.538628
0.678553 0.098451 0.501579
0.772122 0.248692 0.486549
0.862943 0.330694 0.498299
0.961425 0.384466 0.518639
0.000000 0.326421 0.559625
0.000000 0.313848 0.558892
0.308171 0.308141 0.545800
0.535119 0.328344 0.535088
0.672450 0.370550 0.517479
0.768734 0.418006 0.520989
0.867552 0.458686 0.539971
0.966430 0.460060 0.536553
0.000000 0.552850 0.552911
0.000000 0.551843 0.551873
0.299931 0.547082 0.547143
0.535393 0.535393 0.535393
0.661982 0.536065 0.536156
0.757900 0.536919 0.536980
0.858335 0.537621 0.537743
0.962707 0.535912 0.536095
0.000000 0.697871 0.504021
0.000000 0.694331 0.502831
0.310796 0.685420 0.505699
0.506920 0.676234 0.512352
0.662318 0.664546 0.524132
0.760403 0.645106 0.540612
0.858457 0.639216 0.544671
0.960723 0.631678 0.539879
0.000000 0.789731 0.470375
0.143465 0.792203 0.480171
0.344549 0.783444 0.493477
0.493172 0.775509 0.503319
0.618219 0.770657 0.497414
0.754818 0.758389 0.519097
0.861479 0.743435 0.530816
0.961578 0.737484 0.544366
0.142489 0.881682 0.466712
0.220890 0.881041 0.473640
0.364843 0.877592 0.493233
0.482582 0.874693 0.498207
0.595056 0.870909 0.492164
0.722164 0.863737 0.496193
0.849607 0.854398 0.513725
0.958923 0.841184 0.524224
0.244785 0.979858 0.484169
0.287633 0.979278 0.490242
0.389227 0.975921 0.505180
0.477150 0.974365 0.498817
0.581567 0.971160 0.493416
0.694789 0.967590 0.487617
0.824125 0.960784 0.500908
0.947204 0.953094 0.515984
0.000000 0.000000 0.677882
0.106355 0.000000 0.677607
0.307195 0.000000 0.672084
0.483040 0.000000 0.662226
0.663630 0.000000 0.663630
0.767697 0.165743 0.620020
0.861753 0.286656 0.606592
0.960693 0.353735 0.611566
0.000000 0.000000 0.680903
0.000000 0.000000 0.681361
0.296452 0.000000 0.675227
0.483040 0.000000 0.662562
0.662379 0.100130 0.662379
0.765621 0.249241 0.622339
0.860014 0.331456 0.611139
0.959075 0.382696 0.615473
0.000000 0.289525 0.684230
0.000000 0.295598 0.682094
0.306004 0.306157 0.674006
0.496773 0.329747 0.663508
0.656458 0.353246 0.656519
0.754391 0.397620 0.625238
0.850919 0.435126 0.620966
0.951507 0.457099 0.623377
0.000000 0.494026 0.682734
0.000000 0.495460 0.681483
0.327611 0.504265 0.678248
0.518639 0.518608 0.665126
0.653254 0.526513 0.653254
0.747616 0.541405 0.638911
0.845670 0.552392 0.639704
0.949340 0.555200 0.639582
0.000000 0.672297 0.672419
0.000000 0.671687 0.671778
0.335912 0.667842 0.667903
0.514031 0.661158 0.661189
0.647639 0.647639 0.647639
0.740719 0.646357 0.646357
0.841764 0.644984 0.645045
0.947906 0.641108 0.641199
0.000000 0.774929 0.619257
0.173709 0.772976 0.620111
0.346471 0.765042 0.621271
0.497261 0.755886 0.625025
0.617517 0.748043 0.621424
0.743374 0.745235 0.632441
0.848051 0.742672 0.645136
0.951659 0.740749 0.646113
0.197635 0.873686 0.601190
0.250797 0.871641 0.602899
0.372107 0.866850 0.609735
0.499550 0.862364 0.619196
0.605829 0.859770 0.614374
0.718837 0.856657 0.608637
0.842954 0.846433 0.620478
0.948852 0.834806 0.622614
0.256413 0.970123 0.595178
0.292210 0.968933 0.597375
0.385382 0.965759 0.604211
0.503166 0.967193 0.618891
0.593927 0.965118 0.607599
0.700587 0.961639 0.600855
0.821469 0.955901 0.603052
0.943084 0.947906 0.612573
0.000000 0.000000 0.777279
0.059388 0.000000 0.776425
0.275944 0.000000 0.770779
0.444404 0.000000 0.765255
0.602899 0.000000 0.755459
0.752865 0.174624 0.752895
0.856687 0.286778 0.727993
0.957916 0.352941 0.720699
0.000000 0.000000 0.773617
0.000000 0.000000 0.772305
0.270420 0.000000 0.767788
0.445350 0.064485 0.761837
0.601862 0.169223 0.750698
0.748959 0.243656 0.748959
0.853086 0.325261 0.726894
0.955138 0.378363 0.720882
0.000000 0.305638 0.778317
0.149355 0.308385 0.776761
0.319646 0.319890 0.772244
0.476020 0.341070 0.764248
0.614679 0.366949 0.750393
0.747005 0.394049 0.747005
0.849546 0.432380 0.731289
0.952239 0.457496 0.727169
0.134340 0.480018 0.785611
0.222873 0.484504 0.782650
0.384070 0.503777 0.775784
0.522728 0.522728 0.769650
0.639399 0.531853 0.757229
0.750210 0.539269 0.750210
0.849882 0.551965 0.741573
0.951965 0.554925 0.737118
0.162264 0.624353 0.773770
0.237186 0.626551 0.773251
0.383215 0.633204 0.771206
0.524437 0.641688 0.768124
0.641260 0.641260 0.753933
0.740536 0.639033 0.740566
0.840330 0.640497 0.736477
0.945281 0.637354 0.733120
0.195407 0.760952 0.761074
0.259007 0.761990 0.762112
0.386969 0.760281 0.760311
0.517388 0.756435 0.756497
0.628260 0.748898 0.748928
0.736873 0.736843 0.736873
0.840513 0.738674 0.738705
0.946899 0.736812 0.736843
0.265415 0.872038 0.738369
0.306828 0.871916 0.739803
0.404547 0.867674 0.740078
0.515190 0.862699 0.740444
0.616938 0.857939 0.736416
0.718166 0.852750 0.722194
0.841825 0.843809 0.723842
0.946715 0.835691 0.729641
0.293065 0.966278 0.717464
0.321386 0.965118 0.717952
0.400366 0.962188 0.719814
0.501579 0.960601 0.723415
0.600397 0.958679 0.720790
0.698116 0.957153 0.706600
0.814969 0.953765 0.701472
0.940887 0.944518 0.709529
0.000000 0.000000 0.864561
0.000000 0.000000 0.865415
0.255436 0.000000 0.862974
0.416876 0.000000 0.858854
0.567681 0.069093 0.850126
0.706447 0.194095 0.840574
0.837858 0.267887 0.837888
0.945464 0.331426 0.824918
0.000000 0.000000 0.860655
0.000000 0.000000 0.861173
0.256260 0.000000 0.858793
0.418982 0.103792 0.853391
0.567437 0.179294 0.844266
0.702144 0.243565 0.833860
0.830747 0.297246 0.830747
0.938048 0.346502 0.818387
0.113466 0.303166 0.864714
0.183566 0.306065 0.863767
0.315435 0.315740 0.859861
0.454261 0.334020 0.853819
0.586023 0.356054 0.843626
0.708858 0.381170 0.832639
0.832120 0.408515 0.832151
0.940612 0.435950 0.824918
0.257664 0.480140 0.869017
0.299565 0.484993 0.866728
0.399054 0.497566 0.861540
0.503838 0.503929 0.856229
0.613611 0.509728 0.846616
0.721004 0.516930 0.834653
0.835019 0.527245 0.835019
0.941466 0.534966 0.829862
0.261479 0.603235 0.865904
0.300389 0.605249 0.864591
0.402014 0.613245 0.862272
0.518914 0.622766 0.856687
0.623499 0.623438 0.846769
0.723354 0.620600 0.833036
0.828794 0.619837 0.828794
0.938445 0.622461 0.827543
0.276463 0.728054 0.858244
0.312688 0.729122 0.857969
0.406958 0.732326 0.857237
0.517510 0.736507 0.856992
0.621271 0.735836 0.856321
0.727962 0.727932 0.845762
0.832853 0.722225 0.832883
0.939086 0.722377 0.828367
0.299229 0.853666 0.853788
0.331182 0.854215 0.854307
0.414191 0.853758 0.853819
0.515129 0.853208 0.853269
0.612787 0.850126 0.850156
0.717861 0.844419 0.844450
0.829404 0.829374 0.829404
0.937194 0.829496 0.829526
0.311620 0.958221 0.833860
0.336919 0.957702 0.833890
0.414527 0.958587 0.836606
0.506218 0.957092 0.836362
0.600305 0.954925 0.833127
0.704921 0.952239 0.828824
0.816556 0.947784 0.820401
0.937438 0.939452 0.819059
0.000000 0.000000 0.948394
0.000000 0.000000 0.948669
0.235142 0.000000 0.946319
0.391119 0.000000 0.944121
0.537591 0.058900 0.939818
0.674739 0.178164 0.933257
0.804501 0.249943 0.929442
0.927642 0.300420 0.927642
0.000000 0.000000 0.946380
0.000000 0.000000 0.946593
0.240787 0.000000 0.944610
0.396277 0.102632 0.941680
0.540948 0.172305 0.937255
0.675410 0.232395 0.930632
0.802335 0.283207 0.926024
0.924407 0.322972 0.924407
0.100710 0.282994 0.944793
0.169528 0.286351 0.944518
0.292851 0.293492 0.941558
0.430365 0.315984 0.940734
0.560143 0.337377 0.935607
0.683436 0.359106 0.928069
0.803433 0.382147 0.923156
0.922576 0.402380 0.922576
0.273838 0.464851 0.944335
0.300847 0.466743 0.944335
0.373236 0.468757 0.941985
0.475319 0.475471 0.939513
0.585931 0.482826 0.935180
0.696681 0.488716 0.928557
0.807523 0.494392 0.922789
0.923186 0.501244 0.923186
0.286320 0.580926 0.945434
0.318608 0.584497 0.945464
0.399786 0.591241 0.943145
0.499886 0.598779 0.940063
0.597894 0.597894 0.934966
0.701411 0.596063 0.928099
0.807034 0.593896 0.920623
0.923735 0.596338 0.923735
0.292668 0.698024 0.942779
0.318822 0.698604 0.942077
0.394018 0.700862 0.940734
0.492042 0.704250 0.940185
0.593042 0.703395 0.938628
0.700984 0.700954 0.934630
0.812497 0.699672 0.928923
0.930297 0.702510 0.930297
0.307652 0.818936 0.941131
0.331121 0.818967 0.940734
0.399695 0.819242 0.939849
0.493599 0.820584 0.939971
0.592279 0.820584 0.940795
0.703578 0.821500 0.942718
0.820768 0.820706 0.938720
0.928313 0.811368 0.928344
0.328618 0.942138 0.942229
0.348791 0.941802 0.941924
0.411719 0.941466 0.941558
0.498238 0.941802 0.941894
0.593011 0.941924 0.942016
0.701167 0.941375 0.941405
0.818662 0.939117 0.939147
0.926635 0.926604 0.926635
