data/fiter_cube/55192441/1023188/file.cube
# Created by Adobe Lightroom plugin Export LUT (1.17.0)
# www.johnrellis.com/lightroom/exportlut.htm
# Preset: 清新轻盈通透人像_06 云集
# Color profile: C:\Program Files (x86)\Common Files\Adobe\Color\Profiles\Recommended\AdobeRGB1998.icc
LUT_3D_SIZE 32
DOMAIN_MIN 0.0 0.0 0.0
DOMAIN_MAX 1.0 1.0 1.0
0.000000 0.000000 0.000000
0.004059 0.000000 0.000000
0.024414 0.000000 0.000000
0.064363 0.000000 0.000000
0.093721 0.000000 0.000000
0.139681 0.000000 0.000000
0.201266 0.000000 0.000000
0.270695 0.000000 0.000000
0.340795 0.000000 0.000000
0.406073 0.000000 0.000000
0.464820 0.000000 0.000000
0.517052 0.000000 0.000000
0.563226 0.000000 0.000000
0.604181 0.000000 0.000000
0.640375 0.000000 0.000000
0.673030 0.000000 0.000000
0.702571 0.000000 0.000000
0.728878 0.000000 0.000000
0.752682 0.000000 0.000000
0.782376 0.000000 0.000000
0.811185 0.000000 0.000000
0.838285 0.000000 0.000000
0.863676 0.000000 0.000000
0.887846 0.000000 0.000000
0.911040 0.000000 0.000000
0.933928 0.000000 0.000000
0.957122 0.000000 0.000000
0.980835 0.000000 0.000000
1.000000 0.000000 0.000000
1.000000 0.000000 0.000000
1.000000 0.000000 0.000000
1.000000 0.000000 0.000000
0.000000 0.004822 0.000000
0.003235 0.005341 0.000000
0.024475 0.005371 0.000000
0.064057 0.006287 0.000000
0.093446 0.005402 0.000000
0.138308 0.007263 0.000000
0.199039 0.008515 0.000000
0.267308 0.001984 0.000000
0.336797 0.000000 0.000000
0.402075 0.000000 0.000000
0.460517 0.000000 0.000000
0.512779 0.000000 0.000000
0.559014 0.000000 0.000000
0.600031 0.000000 0.000000
0.636316 0.000000 0.000000
0.669032 0.000000 0.000000
0.698726 0.000000 0.000000
0.725338 0.000000 0.000000
0.749355 0.000000 0.000000
0.778653 0.000000 0.000000
0.806577 0.000000 0.000000
0.833188 0.000000 0.000000
0.858274 0.000000 0.000000
0.882383 0.000000 0.000000
0.905669 0.000000 0.000000
0.928740 0.000000 0.000000
0.952239 0.000000 0.000000
0.976287 0.000000 0.000000
1.000000 0.000000 0.000000
1.000000 0.000000 0.000000
1.000000 0.000000 0.000000
1.000000 0.000000 0.000000
0.000000 0.024048 0.000000
0.003143 0.025360 0.000000
0.024201 0.026581 0.000000
0.063416 0.027710 0.000000
0.092958 0.030426 0.000000
0.137392 0.042359 0.000000
0.196780 0.054414 0.000000
0.264439 0.060639 0.000000
0.333471 0.061036 0.000000
0.398535 0.054017 0.000000
0.457282 0.034730 0.000000
0.509606 0.007660 0.000000
0.556085 0.000000 0.000000
0.597345 0.000000 0.000000
0.633783 0.000000 0.000000
0.666560 0.000000 0.000000
0.696407 0.000000 0.000000
0.723140 0.000000 0.000000
0.747372 0.000000 0.000000
0.776669 0.000000 0.000000
0.804196 0.000000 0.000000
0.830533 0.000000 0.000000
0.855497 0.000000 0.000000
0.879515 0.000000 0.000000
0.902800 0.000000 0.000000
0.925933 0.000000 0.000000
0.949554 0.000000 0.000000
0.973785 0.000000 0.000000
0.998688 0.000000 0.000000
1.000000 0.000000 0.000000
1.000000 0.000000 0.000000
1.000000 0.000000 0.000000
0.000000 0.063935 0.000000
0.002655 0.064485 0.000000
0.023865 0.064515 0.000000
0.063813 0.064881 0.000000
0.092988 0.067567 0.000000
0.137545 0.078401 0.000000
0.196567 0.091218 0.000000
0.263462 0.102113 0.000000
0.331609 0.108797 0.000000
0.396307 0.111391 0.000000
0.454475 0.110231 0.000000
0.506676 0.105409 0.000000
0.552911 0.099519 0.000000
0.594171 0.090791 0.000000
0.630732 0.080140 0.000000
0.663600 0.066468 0.000000
0.693599 0.044770 0.000000
0.720363 0.011414 0.000000
0.745846 0.000000 0.000000
0.773678 0.000000 0.000000
0.800168 0.000000 0.000000
0.825834 0.000000 0.000000
0.850828 0.000000 0.000000
0.875364 0.000000 0.000000
0.899596 0.000000 0.000000
0.923796 0.000000 0.000000
0.948241 0.000000 0.000000
0.972992 0.000000 0.000000
0.998108 0.000000 0.000000
1.000000 0.000000 0.000000
1.000000 0.000000 0.000000
1.000000 0.053956 0.000000
0.000000 0.093202 0.000000
0.000000 0.093660 0.000000
0.022766 0.094423 0.000000
0.065705 0.095247 0.000000
0.095521 0.096529 0.000000
0.136568 0.106966 0.000000
0.194339 0.124910 0.000000
0.259678 0.140688 0.000000
0.327001 0.152132 0.000000
0.391089 0.159121 0.000000
0.449134 0.161013 0.000000
0.501457 0.159548 0.000000
0.547997 0.155886 0.000000
0.589624 0.150515 0.000000
0.626734 0.143557 0.000000
0.660243 0.136172 0.000000
0.690974 0.127901 0.000000
0.718288 0.119417 0.000000
0.745632 0.110780 0.000000
0.772519 0.102693 0.000000
0.798245 0.094514 0.000000
0.823392 0.087831 0.000000
0.847990 0.081483 0.000000
0.872496 0.076326 0.000000
0.896880 0.073030 0.000000
0.921294 0.070680 0.000000
0.945892 0.071015 0.000000
0.970733 0.073396 0.000000
0.995880 0.078889 0.000000
1.000000 0.086793 0.000000
1.000000 0.096071 0.000000
1.000000 0.108095 0.000000
0.000000 0.140841 0.000000
0.000000 0.141848 0.000000
0.020233 0.142336 0.000000
0.073335 0.143801 0.000000
0.109682 0.145235 0.000000
0.145907 0.147372 0.000000
0.195895 0.160830 0.000000
0.260288 0.180728 0.000000
0.326360 0.195590 0.000000
0.389654 0.204990 0.000000
0.447272 0.209201 0.000000
0.499245 0.209293 0.000000
0.545586 0.206668 0.000000
0.587304 0.201785 0.000000
0.624567 0.196170 0.000000
0.658350 0.189212 0.000000
0.689296 0.182101 0.000000
0.716884 0.174502 0.000000
0.746059 0.167971 0.000000
0.772519 0.161288 0.000000
0.798093 0.155093 0.000000
0.823392 0.149538 0.000000
0.880156 0.158633 0.000000
0.904448 0.157290 0.000000
0.927764 0.156252 0.000000
0.950500 0.155947 0.000000
0.972930 0.156832 0.000000
0.995422 0.158663 0.000000
1.000000 0.161868 0.000000
1.000000 0.166384 0.000000
1.000000 0.172427 0.000000
1.000000 0.179538 0.060090
0.000000 0.216190 0.000000
0.000000 0.216587 0.000000
0.000000 0.217166 0.000000
0.083131 0.218479 0.000000
0.129641 0.220523 0.000000
0.175692 0.221347 0.000000
0.220554 0.222721 0.000000
0.275853 0.233463 0.000000
0.341833 0.250217 0.000000
0.404089 0.260258 0.000000
0.460609 0.264317 0.000000
0.511437 0.264134 0.000000
0.556451 0.260777 0.000000
0.596674 0.255436 0.000000
0.632319 0.248539 0.000000
0.664576 0.241001 0.000000
0.694301 0.233219 0.000000
0.724453 0.226261 0.000000
0.753445 0.219760 0.000000
0.780606 0.213535 0.000000
0.808194 0.208530 0.000000
0.836393 0.204410 0.000000
0.864714 0.201999 0.000000
0.892515 0.200168 0.000000
0.919127 0.199466 0.000000
0.943969 0.198734 0.000000
0.967590 0.198856 0.000000
0.990692 0.199283 0.000000
1.000000 0.200412 0.000000
1.000000 0.202853 0.000000
1.000000 0.205997 0.000000
1.000000 0.210575 0.040467
0.000000 0.285283 0.000000
0.000000 0.285405 0.000000
0.000000 0.285710 0.000000
0.077272 0.286168 0.000000
0.135744 0.287114 0.000000
0.186587 0.287907 0.000000
0.236851 0.287755 0.000000
0.285527 0.288182 0.000000
0.340398 0.294316 0.000000
0.401678 0.305699 0.000000
0.457679 0.310643 0.000000
0.507897 0.310979 0.000000
0.552758 0.307774 0.000000
0.592859 0.302373 0.000000
0.628656 0.295140 0.000000
0.661067 0.287297 0.000000
0.692714 0.279973 0.000000
0.723964 0.273075 0.000000
0.751400 0.265965 0.000000
0.777676 0.259098 0.000000
0.804501 0.253391 0.000000
0.832029 0.248966 0.000000
0.859800 0.245792 0.000000
0.887236 0.243351 0.000000
0.913664 0.241428 0.000000
0.938567 0.240024 0.000000
0.962463 0.238651 0.000000
0.985870 0.237888 0.000000
1.000000 0.237980 0.000000
1.000000 0.238651 0.000000
1.000000 0.240726 0.000000
1.000000 0.243290 0.028260
0.000000 0.353033 0.000000
0.000000 0.353063 0.000000
0.000000 0.353094 0.000000
0.049989 0.353033 0.000000
0.133608 0.353399 0.000000
0.190127 0.353368 0.000000
0.244388 0.352789 0.000000
0.296849 0.352026 0.000000
0.348058 0.351263 0.000000
0.401556 0.353674 0.000000
0.456672 0.358618 0.000000
0.506462 0.358618 0.000000
0.551049 0.355230 0.000000
0.590875 0.349218 0.000000
0.626459 0.341650 0.000000
0.660426 0.333837 0.000000
0.694331 0.327062 0.000000
0.723842 0.319158 0.000000
0.750240 0.310735 0.000000
0.775875 0.303258 0.000000
0.802152 0.297093 0.000000
0.829221 0.291997 0.000000
0.856535 0.288090 0.000000
0.883604 0.285191 0.000000
0.909819 0.282689 0.000000
0.934691 0.280095 0.000000
0.958648 0.278111 0.000000
0.982177 0.276402 0.000000
1.000000 0.275364 0.000000
1.000000 0.275059 0.000000
1.000000 0.275608 0.000000
1.000000 0.276829 0.020935
0.000000 0.414130 0.000000
0.000000 0.413916 0.000000
0.000000 0.413611 0.000000
0.000000 0.413275 0.000000
0.121675 0.412757 0.000000
0.186557 0.412177 0.000000
0.242008 0.411597 0.000000
0.297948 0.409857 0.000000
0.351080 0.408301 0.000000
0.402869 0.406867 0.000000
0.454932 0.406317 0.000000
0.503899 0.405341 0.000000
0.548425 0.401495 0.000000
0.588312 0.395239 0.000000
0.627039 0.388891 0.000000
0.663630 0.382238 0.000000
0.696284 0.374243 0.000000
0.725002 0.365057 0.000000
0.750851 0.355871 0.000000
0.775845 0.347356 0.000000
0.801236 0.340124 0.000000
0.826932 0.334142 0.000000
0.852842 0.329046 0.000000
0.878660 0.324834 0.000000
0.904112 0.321294 0.000000
0.928862 0.318029 0.000000
0.953216 0.315282 0.000000
0.977386 0.313237 0.000000
1.000000 0.311803 0.000000
1.000000 0.311131 0.000000
1.000000 0.311315 0.000000
1.000000 0.311833 0.039033
0.000000 0.465888 0.000000
0.000000 0.465797 0.000000
0.000000 0.465644 0.000000
0.000000 0.465278 0.000000
0.099062 0.464790 0.000000
0.175479 0.464424 0.000000
0.235874 0.463935 0.000000
0.291752 0.463020 0.000000
0.347509 0.461036 0.000000
0.400885 0.459083 0.000000
0.452491 0.456794 0.000000
0.503044 0.454566 0.000000
0.547906 0.449653 0.000000
0.591058 0.445014 0.000000
0.629480 0.437781 0.000000
0.664332 0.429297 0.000000
0.695613 0.419623 0.000000
0.723384 0.409430 0.000000
0.748684 0.399023 0.000000
0.773373 0.389593 0.000000
0.798459 0.381628 0.000000
0.824002 0.374884 0.000000
0.849821 0.369329 0.000000
0.875547 0.364660 0.000000
0.900877 0.360540 0.000000
0.925475 0.356542 0.000000
0.949645 0.353094 0.000000
0.973754 0.350256 0.000000
0.997986 0.348028 0.000000
1.000000 0.346532 0.000000
1.000000 0.345769 0.000000
1.000000 0.345647 0.046021
0.000000 0.513695 0.000000
0.000000 0.513725 0.000000
0.000000 0.513481 0.000000
0.000000 0.513115 0.000000
0.058381 0.512688 0.000000
0.159121 0.512108 0.000000
0.224857 0.511620 0.000000
0.282322 0.510948 0.000000
0.338720 0.509422 0.000000
0.393683 0.507286 0.000000
0.446540 0.504967 0.000000
0.501396 0.506249 0.000000
0.580957 0.529931 0.000000
0.621637 0.519005 0.000000
0.658839 0.508202 0.000000
0.691310 0.495674 0.000000
0.719753 0.482460 0.000000
0.744930 0.468971 0.000000
0.768551 0.456397 0.000000
0.792416 0.445502 0.000000
0.816464 0.436011 0.000000
0.840726 0.427955 0.000000
0.864866 0.420844 0.000000
0.889036 0.414771 0.000000
0.912840 0.409277 0.000000
0.936217 0.404456 0.000000
0.959197 0.399939 0.000000
0.982055 0.395972 0.000000
1.000000 0.392615 0.000000
1.000000 0.390051 0.036316
1.000000 0.388159 0.075135
1.000000 0.386847 0.096773
0.000000 0.566979 0.000000
0.000000 0.566796 0.000000
0.000000 0.566064 0.000000
0.000000 0.564935 0.000000
0.000000 0.563287 0.000000
0.139040 0.561456 0.000000
0.212253 0.559899 0.000000
0.272587 0.558556 0.000000
0.328527 0.557916 0.000000
0.388220 0.560052 0.000000
0.446754 0.562341 0.000000
0.504356 0.564477 0.000000
0.560723 0.566003 0.000000
0.615351 0.566094 0.000000
0.654170 0.554101 0.000000
0.687221 0.541039 0.000000
0.715602 0.526513 0.000000
0.740566 0.511620 0.000000
0.763943 0.497902 0.000000
0.787381 0.485908 0.000000
0.811032 0.475746 0.000000
0.835050 0.466712 0.000000
0.858976 0.458869 0.000000
0.882963 0.452003 0.000000
0.906706 0.445777 0.000000
0.930083 0.440131 0.000000
0.953216 0.435004 0.000000
0.976318 0.430518 0.000000
0.999542 0.426581 0.000000
1.000000 0.423590 0.042878
1.000000 0.421118 0.075685
1.000000 0.419257 0.097780
0.000000 0.602991 0.000000
0.000000 0.602747 0.000000
0.000000 0.602167 0.000000
0.000000 0.601190 0.000000
0.000000 0.599603 0.000000
0.108614 0.598993 0.000000
0.194186 0.599329 0.000000
0.259098 0.599817 0.000000
0.317449 0.600732 0.000000
0.374304 0.601953 0.000000
0.432410 0.602625 0.000000
0.489021 0.603449 0.000000
0.544091 0.603754 0.000000
0.597314 0.602899 0.000000
0.648066 0.600458 0.000000
0.682307 0.585321 0.000000
0.710567 0.569360 0.000000
0.735531 0.553338 0.000000
0.758907 0.538384 0.000000
0.782315 0.525444 0.000000
0.805997 0.514427 0.000000
0.829862 0.504997 0.000000
0.853788 0.496651 0.000000
0.877897 0.489235 0.000000
0.901732 0.482490 0.000000
0.925261 0.476295 0.000000
0.948608 0.470649 0.000000
0.971923 0.465644 0.000000
0.995453 0.461372 0.006836
1.000000 0.457954 0.061677
1.000000 0.455177 0.085420
1.000000 0.452888 0.105074
0.000000 0.642542 0.000000
0.000000 0.642634 0.000000
0.000000 0.642206 0.000000
0.000000 0.641535 0.000000
0.000000 0.640436 0.000000
0.064759 0.639246 0.000000
0.174441 0.638300 0.000000
0.243503 0.637690 0.000000
0.303166 0.637629 0.000000
0.359045 0.638239 0.000000
0.415381 0.638514 0.000000
0.471504 0.638453 0.000000
0.525628 0.637903 0.000000
0.577813 0.636316 0.000000
0.627680 0.633417 0.000000
0.674617 0.628931 0.000000
0.705867 0.612207 0.000000
0.730831 0.594903 0.000000
0.754391 0.578759 0.000000
0.777646 0.564721 0.000000
0.801144 0.552667 0.000000
0.824887 0.542321 0.000000
0.848661 0.533379 0.000000
0.872618 0.525658 0.000000
0.896696 0.518517 0.000000
0.920684 0.512169 0.000000
0.944793 0.506523 0.000000
0.969085 0.501793 0.008331
0.993561 0.497810 0.063569
1.000000 0.494667 0.087739
1.000000 0.492073 0.108461
1.000000 0.489998 0.127871
0.000000 0.677974 0.000000
0.000000 0.678126 0.000000
0.000000 0.677882 0.000000
0.000000 0.677333 0.000000
0.000000 0.676417 0.000000
0.000000 0.675380 0.000000
0.152071 0.674556 0.000000
0.227024 0.673915 0.000000
0.289128 0.673396 0.000000
0.345068 0.673091 0.000000
0.398383 0.672724 0.000000
0.453437 0.671077 0.000000
0.506157 0.668788 0.000000
0.556756 0.665797 0.000000
0.605097 0.661921 0.000000
0.651270 0.657160 0.000000
0.695338 0.651789 0.000000
0.725612 0.635737 0.000000
0.749630 0.618647 0.000000
0.773770 0.604089 0.000000
0.797848 0.591577 0.000000
0.822019 0.580804 0.000000
0.846159 0.571435 0.000000
0.870451 0.563317 0.000000
0.894682 0.556207 0.000000
0.918975 0.549920 0.000000
0.943389 0.544030 0.023651
0.967926 0.538994 0.070314
0.992462 0.534661 0.091920
1.000000 0.530877 0.109010
1.000000 0.527550 0.125521
1.000000 0.524590 0.141299
0.000000 0.705959 0.000000
0.000000 0.705806 0.000000
0.000000 0.705409 0.000000
0.000000 0.704799 0.000000
0.000000 0.703883 0.000000
0.000000 0.702815 0.000000
0.124575 0.701778 0.000000
0.207858 0.700801 0.000000
0.271397 0.699916 0.000000
0.327916 0.699184 0.000000
0.380652 0.698543 0.000000
0.432410 0.697444 0.000000
0.484962 0.695155 0.000000
0.535027 0.692134 0.000000
0.582971 0.688258 0.000000
0.628412 0.683528 0.000000
0.672023 0.678126 0.000000
0.714015 0.672572 0.000000
0.744717 0.658442 0.000000
0.768551 0.642145 0.000000
0.792752 0.628687 0.000000
0.816983 0.617029 0.000000
0.841245 0.607019 0.000000
0.865690 0.598444 0.000000
0.890227 0.590936 0.000000
0.914794 0.584466 0.000000
0.939544 0.578851 0.063203
0.964446 0.573907 0.090150
0.989441 0.569482 0.108278
1.000000 0.565667 0.124880
1.000000 0.562158 0.139437
1.000000 0.558984 0.154940
0.000000 0.731228 0.000000
0.000000 0.731472 0.000000
0.000000 0.747860 0.000000
0.000000 0.747158 0.000000
0.000000 0.745998 0.000000
0.000000 0.744503 0.000000
0.107301 0.742794 0.000000
0.197665 0.741054 0.000000
0.263249 0.739437 0.000000
0.320165 0.738003 0.000000
0.372869 0.736568 0.000000
0.422858 0.734951 0.000000
0.473365 0.732174 0.000000
0.523369 0.728389 0.000000
0.570794 0.723995 0.000000
0.616144 0.718929 0.000000
0.659480 0.713283 0.000000
0.701015 0.707301 0.000000
0.741024 0.701228 0.000000
0.772213 0.688685 0.000000
0.795346 0.672450 0.000000
0.819333 0.659571 0.000000
0.843412 0.648310 0.000000
0.867277 0.638575 0.000000
0.890806 0.629664 0.000000
0.914305 0.621729 0.033448
0.937926 0.614679 0.080873
0.961975 0.608759 0.104341
0.986511 0.603967 0.123781
1.000000 0.599725 0.137881
1.000000 0.595911 0.151614
1.000000 0.592309 0.165621
0.000000 0.758938 0.000000
0.000000 0.761013 0.000000
0.000000 0.762997 0.000000
0.000000 0.764431 0.000000
0.000000 0.765011 0.000000
0.000000 0.764462 0.000000
0.074586 0.763241 0.000000
0.179568 0.761685 0.000000
0.246891 0.760250 0.000000
0.303777 0.758816 0.000000
0.356085 0.757412 0.000000
0.405432 0.755917 0.000000
0.452583 0.753933 0.000000
0.501793 0.750423 0.000000
0.549004 0.746151 0.000000
0.593957 0.741360 0.000000
0.637049 0.736080 0.000000
0.678492 0.730587 0.000000
0.718624 0.725032 0.000000
0.757626 0.719661 0.000000
0.789975 0.709560 0.000000
0.813687 0.694789 0.000000
0.838254 0.683192 0.000000
0.862730 0.672999 0.000000
0.886687 0.663874 0.000000
0.910643 0.655756 0.039857
0.934661 0.648554 0.086091
0.959014 0.642481 0.110933
0.983795 0.637476 0.130861
1.000000 0.633295 0.148714
1.000000 0.629572 0.164553
1.000000 0.625605 0.177310
0.000000 0.779812 0.000000
0.000000 0.781674 0.000000
0.000000 0.783566 0.000000
0.000000 0.784878 0.000000
0.000000 0.785458 0.000000
0.000000 0.785000 0.000000
0.003998 0.783902 0.000000
0.162875 0.782528 0.000000
0.232120 0.781216 0.000000
0.289403 0.779934 0.000000
0.341436 0.778683 0.000000
0.390234 0.777279 0.000000
0.436683 0.775418 0.000000
0.482521 0.772885 0.000000
0.529503 0.768948 0.000000
0.574273 0.764431 0.000000
0.617212 0.759579 0.000000
0.658625 0.754421 0.000000
0.698726 0.749294 0.000000
0.737881 0.744381 0.000000
0.775998 0.739651 0.000000
0.809598 0.732052 0.000000
0.833707 0.718257 0.000000
0.858457 0.707698 0.000000
0.882872 0.698054 0.000000
0.907012 0.689479 0.041016
0.931151 0.681849 0.088960
0.955596 0.675410 0.114199
0.980468 0.670008 0.134615
1.000000 0.665553 0.152926
1.000000 0.661524 0.169406
1.000000 0.657649 0.185000
0.000000 0.800809 0.000000
0.000000 0.802609 0.000000
0.000000 0.804379 0.000000
0.000000 0.805661 0.000000
0.000000 0.806210 0.000000
0.000000 0.805814 0.000000
0.000000 0.804837 0.000000
0.147585 0.803525 0.000000
0.219150 0.802182 0.000000
0.276555 0.800870 0.000000
0.328069 0.799588 0.000000
0.376379 0.798154 0.000000
0.422095 0.796414 0.000000
0.466072 0.794430 0.000000
0.511284 0.791470 0.000000
0.556390 0.787747 0.000000
0.599939 0.783963 0.000000
0.642206 0.780148 0.000000
0.683406 0.776547 0.000000
0.723751 0.773068 0.000000
0.763149 0.769863 0.000000
0.801755 0.766751 0.000000
0.837003 0.761654 0.000000
0.861814 0.749050 0.000000
0.887114 0.739651 0.068421
0.911955 0.731044 0.101137
0.936584 0.723262 0.125643
0.961181 0.716579 0.147951
0.985962 0.710811 0.166567
1.000000 0.705806 0.183230
1.000000 0.701167 0.199130
1.000000 0.696498 0.213840
0.000000 0.829740 0.000000
0.000000 0.830533 0.000000
0.000000 0.831083 0.000000
0.000000 0.831296 0.000000
0.000000 0.831022 0.000000
0.000000 0.830259 0.000000
0.000000 0.829252 0.000000
0.140017 0.828214 0.000000
0.211948 0.827298 0.000000
0.269413 0.826413 0.000000
0.320592 0.825559 0.000000
0.368444 0.824460 0.000000
0.413581 0.822965 0.000000
0.456977 0.821134 0.000000
0.498878 0.818936 0.000000
0.543694 0.815488 0.000000
0.587091 0.811826 0.000000
0.629236 0.808072 0.000000
0.670100 0.804410 0.000000
0.710018 0.800809 0.000000
0.748959 0.797238 0.000000
0.786954 0.793729 0.000000
0.823911 0.790219 0.000000
0.858824 0.785794 0.000000
0.882963 0.773129 0.079866
0.908019 0.764157 0.109987
0.933013 0.756130 0.131563
0.958038 0.749081 0.149783
0.982971 0.743130 0.169924
1.000000 0.737758 0.186954
1.000000 0.732662 0.202884
1.000000 0.727596 0.217594
0.000000 0.851102 0.000000
0.000000 0.851896 0.000000
0.000000 0.852537 0.000000
0.000000 0.852811 0.000000
0.000000 0.852537 0.000000
0.000000 0.851774 0.000000
0.000000 0.850736 0.000000
0.130343 0.849577 0.000000
0.203311 0.848508 0.000000
0.260258 0.847562 0.000000
0.310979 0.846647 0.000000
0.357946 0.845609 0.000000
0.402380 0.844297 0.000000
0.445350 0.842710 0.000000
0.486793 0.840940 0.000000
0.528344 0.838682 0.000000
0.571954 0.835538 0.000000
0.614221 0.832364 0.000000
0.655329 0.829221 0.000000
0.695521 0.826200 0.000000
0.734768 0.823301 0.000000
0.773220 0.820432 0.000000
0.810727 0.817655 0.000000
0.847318 0.814817 0.043214
0.878080 0.807156 0.067842
0.902159 0.795102 0.109071
0.927367 0.786770 0.131991
0.952697 0.779538 0.149691
0.978027 0.773129 0.165713
1.000000 0.767514 0.183749
1.000000 0.762417 0.200534
1.000000 0.757290 0.216648
0.000000 0.878874 0.000000
0.000000 0.879789 0.000000
0.000000 0.880247 0.000000
0.000000 0.880156 0.000000
0.000000 0.879515 0.000000
0.000000 0.878447 0.000000
0.000000 0.877043 0.000000
0.133242 0.875425 0.000000
0.201846 0.873747 0.000000
0.256474 0.872160 0.000000
0.305303 0.870451 0.000000
0.350713 0.868894 0.000000
0.394079 0.867155 0.000000
0.435676 0.865141 0.000000
0.475868 0.862699 0.000000
0.514916 0.860136 0.000000
0.555871 0.856901 0.000000
0.597559 0.853422 0.000000
0.638392 0.850431 0.000000
0.678676 0.847868 0.000000
0.718166 0.845487 0.000000
0.756741 0.843168 0.000000
0.794186 0.840513 0.000000
0.830472 0.837491 0.029511
0.865476 0.834104 0.088808
0.900542 0.831479 0.114076
0.924651 0.820096 0.139895
0.949554 0.811734 0.156832
0.974670 0.804776 0.171420
0.999786 0.798550 0.185183
1.000000 0.792996 0.201114
1.000000 0.787564 0.217624
0.000000 0.899229 0.000000
0.000000 0.900114 0.000000
0.000000 0.900572 0.000000
0.000000 0.900511 0.000000
0.000000 0.899931 0.000000
0.000000 0.899016 0.000000
0.000000 0.897887 0.000000
0.130068 0.896574 0.000000
0.197879 0.895262 0.000000
0.251804 0.894041 0.000000
0.299657 0.892790 0.000000
0.344823 0.891600 0.000000
0.387579 0.890318 0.000000
0.428626 0.888762 0.000000
0.468360 0.886839 0.000000
0.507042 0.884733 0.000000
0.545098 0.882536 0.000000
0.586511 0.879606 0.000000
0.627405 0.876921 0.000000
0.667597 0.874540 0.000000
0.706996 0.872343 0.000000
0.745602 0.870146 0.000000
0.783139 0.867765 0.000000
0.819608 0.865141 0.078096
0.855039 0.862211 0.109926
0.889403 0.859007 0.132784
0.923003 0.855802 0.152224
0.949401 0.847074 0.170687
0.974426 0.839139 0.186221
0.999542 0.832639 0.199680
1.000000 0.826596 0.213748
1.000000 0.820523 0.228489
0.000000 0.921874 0.000000
0.000000 0.922423 0.000000
0.000000 0.922576 0.000000
0.000000 0.922240 0.000000
0.000000 0.921447 0.000000
0.000000 0.920378 0.000000
0.000000 0.919127 0.000000
0.129061 0.917815 0.000000
0.194919 0.916533 0.000000
0.247318 0.915435 0.000000
0.294591 0.914336 0.000000
0.338903 0.913451 0.000000
0.381018 0.912383 0.000000
0.421576 0.911070 0.000000
0.460578 0.909392 0.000000
0.498726 0.907469 0.000000
0.536095 0.905425 0.000000
0.574121 0.903288 0.000000
0.614954 0.900755 0.000000
0.654963 0.898528 0.000000
0.694331 0.896483 0.000000
0.732845 0.894499 0.000000
0.770382 0.892363 0.029725
0.806973 0.890013 0.089204
0.842588 0.887388 0.116884
0.877226 0.884550 0.138460
0.911101 0.881651 0.156863
0.944274 0.878691 0.173404
0.971618 0.871366 0.189364
0.996490 0.863554 0.204013
1.000000 0.857115 0.217075
1.000000 0.850584 0.230503
0.000000 0.942504 0.000000
0.000000 0.942840 0.000000
0.000000 0.942931 0.000000
0.000000 0.942748 0.000000
0.000000 0.942351 0.000000
0.000000 0.941955 0.000000
0.000000 0.941802 0.000000
0.138582 0.941802 0.000000
0.201785 0.942046 0.000000
0.253574 0.942412 0.000000
0.300572 0.942809 0.000000
0.344366 0.943145 0.000000
0.386175 0.943206 0.000000
0.426246 0.942840 0.000000
0.464942 0.941924 0.000000
0.502281 0.940490 0.000000
0.539055 0.938750 0.000000
0.575311 0.937102 0.000000
0.614008 0.935149 0.000000
0.653834 0.932982 0.000000
0.692897 0.930999 0.070344
0.731197 0.928985 0.103731
0.768521 0.926818 0.128084
0.804959 0.924529 0.148165
0.840513 0.921996 0.165774
0.875151 0.919341 0.181216
0.909117 0.916594 0.195193
0.942412 0.913848 0.208865
0.975250 0.911192 0.221988
1.000000 0.904479 0.235416
1.000000 0.895659 0.249058
1.000000 0.887755 0.261021
0.000000 0.971283 0.000000
0.000000 0.971435 0.000000
0.000000 0.971313 0.000000
0.000000 0.970916 0.000000
0.000000 0.970306 0.000000
0.000000 0.969543 0.000000
0.086336 0.968872 0.000000
0.158907 0.968292 0.000000
0.212497 0.967742 0.000000
0.259434 0.967315 0.000000
0.302617 0.966827 0.000000
0.343847 0.966308 0.000000
0.383459 0.965667 0.000000
0.421851 0.964782 0.000000
