data/fiter_cube/81078425/1022770/file.cube
# Created by Adobe Lightroom plugin Export LUT (1.17.0)
# www.johnrellis.com/lightroom/exportlut.htm
# Preset: 旅拍情绪景观_04 云集视觉
# Color profile: C:\Program Files (x86)\Common Files\Adobe\Color\Profiles\Recommended\AdobeRGB1998.icc
LUT_3D_SIZE 8
DOMAIN_MIN 0.000000 0.000000 0.000000
DOMAIN_MAX 0.903226 0.903226 0.903226
0.138399 0.134249 0.130861
0.133730 0.133913 0.130831
0.182986 0.133700 0.128328
0.360327 0.138705 0.113832
0.604456 0.156405 0.059388
0.812314 0.181796 0.000000
0.935668 0.201175 0.000000
1.000000 0.218051 0.000000
0.137942 0.130220 0.129976
0.134615 0.130831 0.128756
0.180941 0.139681 0.126802
0.349889 0.157504 0.111940
0.591577 0.187015 0.054505
0.798245 0.212772 0.000000
0.926421 0.228244 0.000000
1.000000 0.239841 0.000000
0.130892 0.154452 0.128664
0.138308 0.154604 0.125521
0.159731 0.148013 0.127687
0.370977 0.228305 0.098451
0.609003 0.279057 0.000000
0.813291 0.307866 0.000000
0.939513 0.314916 0.000000
1.000000 0.314397 0.000000
0.090150 0.278630 0.137819
0.109316 0.277531 0.117159
0.234806 0.278599 0.133089
0.289097 0.251469 0.148867
0.641199 0.415412 0.000000
0.841703 0.446571 0.000000
0.943114 0.431983 0.000000
1.000000 0.416907 0.026490
0.000000 0.490700 0.172732
0.000000 0.492134 0.140505
0.271824 0.496651 0.156588
0.462226 0.509972 0.204288
0.501305 0.435889 0.225193
0.788632 0.552941 0.180423
0.938048 0.564843 0.133822
0.997284 0.539605 0.203159
0.000000 0.719326 0.240177
0.000000 0.729091 0.222965
0.275731 0.723110 0.243503
0.529473 0.724086 0.326970
0.670893 0.703792 0.372717
0.706386 0.628870 0.380743
0.888548 0.686122 0.407904
0.980987 0.681849 0.401862
0.000000 0.870085 0.334325
0.000000 0.870176 0.336095
0.311070 0.862669 0.362280
0.579644 0.848020 0.499550
0.732448 0.841581 0.573877
0.808011 0.821653 0.588403
0.833738 0.770138 0.588342
0.928038 0.791806 0.624750
0.204227 0.945739 0.452155
0.290074 0.942992 0.470222
0.479683 0.933043 0.544549
0.691646 0.914977 0.685664
0.774411 0.905486 0.715328
0.853574 0.901671 0.764340
0.888212 0.891417 0.765743
0.901854 0.864103 0.765743
0.136355 0.131899 0.127352
0.134890 0.131594 0.127779
0.176577 0.123873 0.126864
0.335332 0.115816 0.119570
0.574578 0.119661 0.086976
0.784543 0.147799 0.000000
0.918883 0.179110 0.000000
0.995972 0.207462 0.000000
0.135927 0.131197 0.127962
0.135317 0.131106 0.127993
0.178286 0.132631 0.127352
0.336065 0.139254 0.118807
0.572717 0.159213 0.084627
0.779080 0.186679 0.000000
0.912047 0.209964 0.000000
0.991791 0.230228 0.000000
0.128298 0.158877 0.136110
0.133577 0.160739 0.131655
0.165896 0.154696 0.135409
0.353826 0.213596 0.115999
0.588495 0.259892 0.072084
0.789487 0.288334 0.000000
0.919890 0.300542 0.000000
0.995758 0.308110 0.000000
0.087831 0.276738 0.160189
0.109682 0.278019 0.147005
0.226688 0.279606 0.151461
0.284916 0.251102 0.164858
0.601007 0.388617 0.098573
0.805356 0.423072 0.000000
0.923125 0.419379 0.033356
0.993927 0.412818 0.116487
0.000000 0.493751 0.212161
0.000000 0.492561 0.190005
0.251164 0.489143 0.184085
0.445716 0.495796 0.227390
0.480476 0.420661 0.238102
0.770993 0.541894 0.205264
0.927153 0.559899 0.182376
0.990967 0.540124 0.238895
0.000000 0.709102 0.275853
0.000000 0.709499 0.259464
0.221622 0.706538 0.236973
0.509209 0.708339 0.337041
0.660243 0.695552 0.388739
0.700282 0.626947 0.397894
0.883391 0.686915 0.427344
0.976928 0.684047 0.421393
0.000000 0.859861 0.353368
0.000000 0.857328 0.349523
0.283818 0.851987 0.365484
0.565332 0.839902 0.499794
0.724483 0.836515 0.577661
0.801907 0.817044 0.592706
0.825864 0.763760 0.586358
0.923980 0.787503 0.621485
0.170993 0.943053 0.457435
0.268284 0.940887 0.474983
0.465553 0.931518 0.544244
0.681666 0.913939 0.681727
0.782010 0.907408 0.732906
0.856107 0.902922 0.775265
0.887205 0.891173 0.770474
0.899931 0.862974 0.766567
0.125429 0.134005 0.174228
0.141299 0.129702 0.169223
0.181949 0.125582 0.159304
0.327092 0.080201 0.170993
0.564843 0.000000 0.162936
0.781430 0.000000 0.173465
0.918059 0.157565 0.188510
0.994232 0.230289 0.210605
0.127199 0.152132 0.180880
0.138491 0.143526 0.174502
0.181704 0.134798 0.161227
0.326421 0.102846 0.168490
0.561852 0.000000 0.167849
0.775418 0.114687 0.173770
0.913420 0.193332 0.187533
0.992035 0.252293 0.212619
0.113771 0.193149 0.190738
0.130159 0.189303 0.186709
0.183047 0.177798 0.173922
0.342504 0.195346 0.181460
0.584405 0.227604 0.186282
0.785550 0.265110 0.191653
0.915465 0.300633 0.211246
0.990661 0.332616 0.240391
0.000000 0.306676 0.238132
0.068727 0.308110 0.232395
0.194095 0.306218 0.208621
0.314305 0.288457 0.231693
0.618524 0.399817 0.221927
0.800931 0.422248 0.234775
0.919402 0.435554 0.264958
0.988251 0.446601 0.300420
0.000000 0.514549 0.314153
0.000000 0.515892 0.304448
0.189700 0.516075 0.270848
0.448432 0.523095 0.320867
0.508751 0.459785 0.324529
0.780423 0.565209 0.326726
0.917662 0.579400 0.346258
0.981140 0.575463 0.390723
0.000000 0.717525 0.380468
0.000000 0.717983 0.372320
0.197055 0.714412 0.350805
0.487251 0.705898 0.412909
0.659144 0.702144 0.473091
0.697353 0.638514 0.466865
0.877195 0.704616 0.509361
0.968719 0.714137 0.526360
0.000000 0.864469 0.443336
0.000000 0.862333 0.442756
0.296178 0.854887 0.453834
0.557702 0.838651 0.549584
0.719326 0.834714 0.622217
0.801938 0.821500 0.646998
0.826902 0.777340 0.640223
0.921965 0.807004 0.679927
0.148806 0.943725 0.509117
0.240818 0.941192 0.517418
0.446326 0.931701 0.570886
0.653315 0.917632 0.677089
0.782712 0.906523 0.754513
0.857023 0.903838 0.795651
0.887449 0.893828 0.793545
0.899748 0.868772 0.788235
0.034668 0.174044 0.367468
0.130892 0.157778 0.355810
0.237827 0.124910 0.303624
0.328038 0.115999 0.272953
0.528313 0.000000 0.297642
0.749142 0.000000 0.303197
0.892607 0.180117 0.348608
0.975677 0.321172 0.396368
0.089570 0.230747 0.389807
0.132876 0.203647 0.370336
0.237491 0.153475 0.316136
0.329839 0.139467 0.277256
0.531304 0.087251 0.300389
0.747189 0.000000 0.304143
0.890166 0.223239 0.354498
0.974914 0.335821 0.397406
0.053376 0.314275 0.402960
0.138766 0.307195 0.395575
0.237980 0.260441 0.350408
0.331670 0.211276 0.291478
0.545678 0.207736 0.315251
0.758724 0.251286 0.347417
0.899901 0.357458 0.402777
0.975586 0.419348 0.435615
0.000000 0.410346 0.414466
0.000000 0.402533 0.405798
0.211276 0.376989 0.377966
0.334691 0.329534 0.325628
0.566400 0.374060 0.358221
0.765377 0.423774 0.394659
0.896361 0.475471 0.440192
0.970153 0.518730 0.482551
0.000000 0.562005 0.466621
0.000000 0.554986 0.457313
0.116243 0.543023 0.432471
0.383154 0.535637 0.408972
0.528771 0.502068 0.436469
0.784543 0.600824 0.477150
0.897063 0.620264 0.520043
0.962219 0.635798 0.555901
0.000000 0.738064 0.522271
0.000000 0.743740 0.522484
0.167391 0.736049 0.506065
0.443275 0.724361 0.505058
0.665797 0.723598 0.585443
0.705684 0.669001 0.568017
0.873869 0.736934 0.617395
0.951873 0.752346 0.648371
0.000000 0.868132 0.558404
0.000000 0.867399 0.558984
0.296208 0.862303 0.567132
0.526787 0.851072 0.603296
0.715785 0.838560 0.685237
0.807797 0.833127 0.719448
0.826810 0.792935 0.700984
0.918730 0.826200 0.737179
0.184390 0.945312 0.601068
0.268223 0.943359 0.608179
0.435706 0.935698 0.634119
0.622370 0.921965 0.694514
0.779416 0.906279 0.781155
0.853819 0.904723 0.817014
0.887938 0.897765 0.822385
0.899260 0.875883 0.814420
0.000000 0.294865 0.641627
0.128237 0.270817 0.629847
0.301976 0.216922 0.579278
0.403449 0.105592 0.476051
0.533318 0.135561 0.449683
0.703670 0.172641 0.453101
0.865812 0.263035 0.484352
0.953460 0.420722 0.544579
0.137484 0.357061 0.653803
0.184909 0.334356 0.641413
0.305791 0.265965 0.592828
0.406744 0.151431 0.488197
0.531731 0.170779 0.451484
0.705104 0.207675 0.458259
0.865629 0.294316 0.491707
0.952361 0.439338 0.552026
0.237064 0.482551 0.681392
0.295232 0.485023 0.678065
0.338628 0.410040 0.623407
0.412451 0.278721 0.523919
0.525597 0.259709 0.458442
0.702846 0.294957 0.470771
0.862119 0.375402 0.511955
0.946899 0.497688 0.577203
0.141329 0.560327 0.676875
0.217563 0.556481 0.670893
0.366278 0.546532 0.651972
0.457343 0.484932 0.587549
0.525505 0.383978 0.484627
0.713802 0.425513 0.510887
0.862058 0.499947 0.561181
0.944976 0.579034 0.613489
0.000000 0.654200 0.668727
0.000000 0.649928 0.663691
0.271946 0.631525 0.643061
0.426917 0.594049 0.601099
0.519219 0.519646 0.520012
0.727840 0.576379 0.569024
0.865019 0.630060 0.618555
0.941253 0.670832 0.658106
0.000000 0.758419 0.667384
0.000000 0.754940 0.663233
0.105959 0.739315 0.645289
0.365606 0.716457 0.617548
0.574273 0.700191 0.603357
0.694118 0.678523 0.633570
0.870695 0.760220 0.697414
0.935485 0.774929 0.727871
0.000000 0.868772 0.682765
0.000000 0.866789 0.680385
0.231998 0.860594 0.676539
0.478035 0.850645 0.680903
0.656641 0.838468 0.701442
0.802640 0.837613 0.765835
0.821500 0.801419 0.744930
0.916442 0.840360 0.780911
0.137606 0.942901 0.693751
0.229679 0.940917 0.696010
0.402106 0.934051 0.706416
0.583734 0.924956 0.735775
0.727993 0.912352 0.774441
0.841245 0.904082 0.831022
0.887297 0.901396 0.847501
0.897063 0.880522 0.835599
0.385168 0.505638 0.821714
0.392187 0.490303 0.817136
0.430091 0.437507 0.795254
0.503319 0.328618 0.746761
0.593591 0.178439 0.661555
0.710231 0.260258 0.615686
0.828763 0.382116 0.610529
0.928222 0.518883 0.663661
0.410346 0.536004 0.818509
0.421271 0.524743 0.811887
0.441321 0.468971 0.791379
0.501427 0.360754 0.744137
0.585931 0.207584 0.656855
0.705165 0.281559 0.614008
0.826566 0.396826 0.612787
0.926879 0.528222 0.666255
0.517876 0.646693 0.833371
0.521355 0.636927 0.827481
0.527733 0.595056 0.804318
0.535576 0.492378 0.762570
0.580224 0.304295 0.665583
0.703182 0.361730 0.624750
0.826688 0.458656 0.631006
0.924559 0.570764 0.683223
0.513176 0.696315 0.834165
0.536065 0.698390 0.831327
0.606683 0.708949 0.824521
0.624659 0.664424 0.793088
0.610468 0.504112 0.714565
0.706233 0.481605 0.651698
0.831113 0.552758 0.666529
0.922850 0.637079 0.713008
0.443977 0.737362 0.824979
0.472541 0.738277 0.823178
0.550927 0.740352 0.816831
0.639521 0.740108 0.804898
0.669520 0.692164 0.760861
0.691707 0.580133 0.666133
0.829740 0.635462 0.694423
0.919860 0.698085 0.737667
0.342596 0.799405 0.814664
0.381659 0.799405 0.814267
0.470741 0.794156 0.807523
0.567315 0.782193 0.793240
0.641382 0.756252 0.764828
0.685359 0.691279 0.695735
0.840818 0.748440 0.748562
0.920287 0.785733 0.783871
0.259525 0.886351 0.817197
0.307195 0.884733 0.816556
0.411109 0.876829 0.810971
0.520226 0.863981 0.800137
0.617853 0.845640 0.780697
0.753445 0.832822 0.778866
0.820157 0.814054 0.790646
0.919402 0.860655 0.830991
0.181491 0.943359 0.799893
0.233463 0.941558 0.799161
0.380804 0.935515 0.798703
0.550042 0.926452 0.803494
0.692805 0.915740 0.813626
0.804715 0.906828 0.834073
0.888273 0.907225 0.873930
0.896544 0.887419 0.859770
0.623774 0.688563 0.890257
0.629877 0.686427 0.889311
0.628138 0.657771 0.882963
0.632593 0.594598 0.868559
0.654566 0.456123 0.834379
0.744198 0.347692 0.791531
0.826017 0.441138 0.739223
0.899077 0.576684 0.741848
0.626246 0.695949 0.887541
0.634607 0.695460 0.886137
0.631922 0.667750 0.879515
0.631281 0.604028 0.864347
0.648463 0.467567 0.828946
0.731868 0.347295 0.781674
0.815671 0.432990 0.729458
0.893126 0.563043 0.731502
0.684138 0.756069 0.894133
0.686702 0.752804 0.892088
0.689448 0.735897 0.883330
0.675807 0.682094 0.869108
0.668635 0.561730 0.836576
0.727749 0.417243 0.785061
0.816678 0.493050 0.741665
0.894621 0.610651 0.749996
0.721126 0.803769 0.899840
0.729458 0.805478 0.898680
0.747433 0.805142 0.894194
0.743496 0.776577 0.879637
0.716915 0.692775 0.852781
0.725612 0.521508 0.795529
0.818143 0.577569 0.761349
0.895903 0.665217 0.771786
0.683680 0.812345 0.894987
0.692561 0.813016 0.893706
0.724117 0.817624 0.890867
0.769894 0.826352 0.888182
0.771328 0.795804 0.868559
0.733242 0.659388 0.813107
0.805875 0.641291 0.768032
0.894591 0.715358 0.789639
0.639521 0.836271 0.891173
0.652430 0.837247 0.890654
0.691005 0.840116 0.888914
0.742123 0.844266 0.886625
0.790066 0.846250 0.882383
0.805295 0.820859 0.860716
0.807156 0.733700 0.794736
0.897917 0.781033 0.818814
0.590845 0.877806 0.889372
0.607568 0.878202 0.889433
0.649226 0.877470 0.887785
0.703212 0.876036 0.885069
0.751797 0.870481 0.878264
0.790402 0.857481 0.864073
0.802670 0.809628 0.814969
0.904997 0.851682 0.853880
0.523705 0.936828 0.890776
0.539666 0.935576 0.890227
0.599481 0.932799 0.890593
0.662562 0.927184 0.887999
0.721675 0.919615 0.882414
0.773800 0.910185 0.872496
0.857755 0.904356 0.875578
0.895506 0.893462 0.881651
0.767422 0.804959 0.923491
0.770535 0.804746 0.922911
0.763607 0.788998 0.920195
0.759457 0.761959 0.915435
0.753750 0.702693 0.905882
0.759213 0.563806 0.885557
0.846799 0.537133 0.871489
0.896025 0.619196 0.829618
0.768399 0.808042 0.922911
0.771969 0.808225 0.922301
0.767880 0.795163 0.919554
0.761654 0.767575 0.914488
0.754849 0.709987 0.904814
0.758022 0.575067 0.884306
0.842435 0.537591 0.868711
0.893614 0.618799 0.827726
0.782803 0.826871 0.924163
0.785275 0.826413 0.923461
0.787594 0.819638 0.919646
0.784604 0.800229 0.915862
0.772946 0.750088 0.906218
0.765896 0.631983 0.885985
0.836851 0.567926 0.867887
0.891508 0.642267 0.831540
0.804715 0.854734 0.927733
0.807736 0.854948 0.927306
0.812253 0.851438 0.924620
0.816709 0.842100 0.919341
0.803708 0.806271 0.910704
0.788296 0.720790 0.892912
0.831846 0.624292 0.870512
0.890501 0.685451 0.841276
0.793179 0.862150 0.927184
0.799802 0.864408 0.927337
0.816037 0.868894 0.926879
0.839597 0.875608 0.926574
0.838041 0.858305 0.917693
0.817319 0.803220 0.901884
0.822019 0.681788 0.872557
0.889067 0.735592 0.853086
0.773190 0.872374 0.926421
0.777798 0.872923 0.926055
0.794339 0.875486 0.925292
0.820920 0.880583 0.924804
0.852811 0.888151 0.925139
0.863096 0.877958 0.918181
0.839994 0.797848 0.891264
0.887053 0.787869 0.865934
0.752865 0.891875 0.926970
0.758267 0.892241 0.926726
0.776638 0.893706 0.926177
0.806332 0.896941 0.925994
0.840452 0.901244 0.926116
0.874662 0.906676 0.927001
0.886351 0.896239 0.918486
0.882231 0.834684 0.876127
0.725765 0.919646 0.927916
0.731289 0.919524 0.927672
0.751461 0.919554 0.927214
0.783780 0.920012 0.926909
0.818967 0.920287 0.926268
0.851652 0.919799 0.924926
0.877989 0.916411 0.920867
0.880766 0.886473 0.890806
