data/fiter_cube/81078425/1022770/file.cube
# Created by Adobe Lightroom plugin Export LUT (1.17.0)
# www.johnrellis.com/lightroom/exportlut.htm
# Preset: 旅拍情绪景观_04 云集视觉
# Color profile: C:\Program Files (x86)\Common Files\Adobe\Color\Profiles\Recommended\AdobeRGB1998.icc
LUT_3D_SIZE 5
DOMAIN_MIN 0.000000 0.000000 0.000000
DOMAIN_MAX 0.903226 0.903226 0.903226
0.138399 0.134249 0.130861
0.159976 0.133761 0.129519
0.481971 0.145785 0.095155
0.852293 0.187564 0.000000
1.000000 0.218051 0.000000
0.133974 0.141848 0.128542
0.146944 0.138888 0.126986
0.485481 0.230503 0.077638
0.852842 0.284947 0.000000
1.000000 0.293675 0.000000
0.000000 0.374273 0.150484
0.212436 0.370520 0.133181
0.397864 0.344244 0.181247
0.870237 0.513359 0.000000
1.000000 0.475380 0.129854
0.000000 0.771511 0.264134
0.137636 0.771939 0.224399
0.638209 0.764981 0.416663
0.746944 0.670832 0.433600
0.968200 0.715145 0.470192
0.204227 0.945739 0.452155
0.429023 0.936187 0.520043
0.725704 0.908293 0.689723
0.862455 0.899260 0.764920
0.901854 0.864103 0.765743
0.130282 0.131533 0.149752
0.160739 0.126925 0.144381
0.440894 0.000000 0.143374
0.817960 0.083162 0.129244
0.993256 0.211185 0.151919
0.123873 0.164401 0.161776
0.161807 0.157168 0.153475
0.453101 0.183413 0.154177
0.822782 0.242405 0.142947
0.993072 0.297642 0.182406
0.000000 0.390723 0.244602
0.154757 0.392554 0.209720
0.394507 0.353277 0.246342
0.840879 0.499733 0.224491
0.989380 0.500359 0.302678
0.000000 0.773220 0.376684
0.159396 0.772549 0.361028
0.626337 0.761959 0.490669
0.743404 0.681819 0.501549
0.959716 0.737606 0.552972
0.183688 0.945739 0.500359
0.417792 0.936400 0.554253
0.740963 0.909850 0.730556
0.867216 0.902342 0.793759
0.901518 0.869810 0.787411
0.000000 0.225315 0.511376
0.241062 0.169894 0.454810
0.429633 0.116884 0.358312
0.774960 0.052125 0.389685
0.961639 0.400793 0.496651
0.125124 0.378973 0.553399
0.244694 0.308812 0.495186
0.430243 0.208621 0.370397
0.775143 0.232731 0.405249
0.960967 0.455207 0.515740
0.000000 0.542687 0.552728
0.168826 0.518029 0.525536
0.425605 0.422736 0.420508
0.786862 0.519982 0.501884
0.955383 0.603082 0.581262
0.000000 0.779873 0.602899
0.000000 0.772183 0.587793
0.540337 0.754757 0.588495
0.739193 0.712245 0.637690
0.940673 0.785031 0.704585
0.149416 0.943267 0.643641
0.376043 0.937041 0.662013
0.678889 0.916533 0.736843
0.863523 0.904204 0.831632
0.897246 0.876860 0.822751
0.437781 0.544396 0.839597
0.461158 0.503746 0.826200
0.559136 0.308873 0.750423
0.742214 0.298497 0.647730
0.920317 0.531823 0.683345
0.528893 0.642756 0.846372
0.542657 0.612940 0.829862
0.570275 0.428962 0.761379
0.734920 0.366705 0.651911
0.916838 0.562585 0.692592
0.535760 0.731624 0.847593
0.601343 0.739132 0.842130
0.666560 0.698848 0.801602
0.714748 0.523522 0.668513
0.913115 0.662623 0.732235
0.427802 0.826841 0.841276
0.499947 0.821866 0.835080
0.640681 0.805478 0.815305
0.718654 0.725154 0.730129
0.915221 0.802823 0.802243
0.311223 0.942443 0.827451
0.404669 0.937316 0.826230
0.621576 0.922393 0.826505
0.822202 0.906950 0.847929
0.896117 0.888731 0.865080
0.767422 0.804959 0.923491
0.764950 0.793576 0.921050
0.756680 0.738369 0.911559
0.766995 0.505028 0.877043
0.896025 0.619196 0.829618
0.780423 0.822690 0.924102
0.785794 0.818540 0.921050
0.773587 0.770352 0.911589
0.768093 0.562249 0.877379
0.892882 0.637934 0.831571
0.801419 0.859281 0.927703
0.817441 0.864347 0.927184
0.825406 0.848508 0.917723
0.793515 0.724941 0.888090
0.889464 0.708614 0.846342
0.772824 0.878355 0.927306
0.789273 0.880552 0.926543
0.836149 0.888731 0.925902
0.869718 0.883268 0.918639
0.885557 0.798734 0.867948
0.725765 0.919646 0.927916
0.744961 0.919493 0.927337
0.801541 0.920226 0.926665
0.859068 0.919402 0.924346
0.880766 0.886473 0.890806
