data/fiter_cube/81078425/1022770/file.cube
# Created by Adobe Lightroom plugin Export LUT (1.17.0)
# www.johnrellis.com/lightroom/exportlut.htm
# Preset: 旅拍情绪景观_04 云集视觉
# Color profile: C:\Program Files (x86)\Common Files\Adobe\Color\Profiles\Recommended\AdobeRGB1998.icc
LUT_3D_SIZE 32
DOMAIN_MIN 0.0 0.0 0.0
DOMAIN_MAX 1.0 1.0 1.0
0.138399 0.134249 0.130861
0.137392 0.134218 0.130892
0.136355 0.134218 0.130922
0.134310 0.134005 0.130983
0.133730 0.133913 0.130831
0.136904 0.133761 0.130587
0.145205 0.133791 0.130190
0.159976 0.133761 0.129519
0.182986 0.133700 0.128328
0.215122 0.134157 0.126497
0.256291 0.134768 0.123568
0.305058 0.136294 0.119753
0.360327 0.138705 0.113832
0.419867 0.141238 0.106020
0.481971 0.145785 0.095155
0.544427 0.150454 0.080598
0.604456 0.156405 0.059388
0.659358 0.162264 0.003510
0.709224 0.167819 0.000000
0.763882 0.174655 0.000000
0.812314 0.181796 0.000000
0.852293 0.187564 0.000000
0.885130 0.192264 0.000000
0.912535 0.196994 0.000000
0.935668 0.201175 0.000000
0.955627 0.205264 0.000000
0.973358 0.209445 0.000000
0.989349 0.213657 0.000000
1.000000 0.218051 0.000000
1.000000 0.222568 0.000000
1.000000 0.227329 0.000000
1.000000 0.232364 0.000000
0.138338 0.133516 0.130739
0.137728 0.133639 0.130587
0.136507 0.133455 0.130800
0.134432 0.133425 0.130861
0.133822 0.133547 0.130709
0.136934 0.133761 0.130404
0.145052 0.133852 0.130007
0.159487 0.133883 0.129366
0.182071 0.134493 0.128115
0.213626 0.135134 0.126284
0.253971 0.136141 0.123598
0.302159 0.137881 0.119661
0.356268 0.140261 0.114107
0.415412 0.143893 0.106081
0.476844 0.147921 0.095521
0.538872 0.153353 0.081514
0.598840 0.159487 0.060883
0.654047 0.165011 0.007599
0.704341 0.171145 0.000000
0.758663 0.177890 0.000000
0.806729 0.184817 0.000000
0.846830 0.190311 0.000000
0.880186 0.195010 0.000000
0.908141 0.199283 0.000000
0.931914 0.204105 0.000000
0.952422 0.207797 0.000000
0.970703 0.211368 0.000000
0.987152 0.215610 0.000000
1.000000 0.219913 0.000000
1.000000 0.223941 0.000000
1.000000 0.228550 0.000000
1.000000 0.233555 0.000000
0.138247 0.132784 0.130648
0.137453 0.132937 0.130465
0.136873 0.133028 0.130312
0.134615 0.132662 0.130556
0.133913 0.133150 0.130556
0.137026 0.133394 0.130282
0.144900 0.133883 0.129824
0.159121 0.134310 0.129152
0.181308 0.135225 0.127901
0.212375 0.136049 0.126101
0.252659 0.138033 0.123507
0.300206 0.140139 0.119570
0.354131 0.142885 0.113832
0.412848 0.146883 0.106081
0.473793 0.151583 0.095552
0.536065 0.157443 0.081178
0.596033 0.164065 0.060792
0.651179 0.169680 0.007599
0.701808 0.175692 0.000000
0.756191 0.182132 0.000000
0.803922 0.188754 0.000000
0.844175 0.194461 0.000000
0.877714 0.199191 0.000000
0.905943 0.203189 0.000000
0.929961 0.207736 0.000000
0.950744 0.210910 0.000000
0.969299 0.214908 0.000000
0.985962 0.218479 0.000000
1.000000 0.222324 0.000000
1.000000 0.226749 0.000000
1.000000 0.230991 0.000000
1.000000 0.235752 0.000000
0.138308 0.131289 0.130404
0.137179 0.131289 0.130098
0.136141 0.131472 0.129915
0.135378 0.131624 0.129580
0.134218 0.131991 0.129946
0.137118 0.133211 0.129915
0.145113 0.134218 0.129427
0.159426 0.135378 0.128511
0.181338 0.136873 0.127413
0.212284 0.138796 0.125673
0.251865 0.141299 0.122866
0.299168 0.144717 0.118807
0.352544 0.149020 0.113130
0.410681 0.153933 0.105257
0.471473 0.159396 0.094820
0.533257 0.166201 0.080262
0.593042 0.172824 0.059602
0.648219 0.179355 0.003998
0.698604 0.185641 0.000000
0.752712 0.192508 0.000000
0.799496 0.198001 0.000000
0.839536 0.203281 0.000000
0.873655 0.208103 0.000000
0.902800 0.211612 0.000000
0.927916 0.215732 0.000000
0.949645 0.218967 0.000000
0.968719 0.222599 0.000000
0.985718 0.225834 0.000000
1.000000 0.229435 0.000000
1.000000 0.233371 0.000000
1.000000 0.237400 0.000000
1.000000 0.241520 0.000000
0.137942 0.130220 0.129976
0.137209 0.130159 0.129641
0.136233 0.130343 0.129305
0.135012 0.130556 0.128939
0.134615 0.130831 0.128756
0.136446 0.132235 0.128786
0.145327 0.134951 0.128634
0.159304 0.137057 0.128023
0.180941 0.139681 0.126802
0.211276 0.142763 0.124788
0.250340 0.146944 0.122011
0.297063 0.151949 0.117800
0.349889 0.157504 0.111940
0.407691 0.164096 0.104067
0.468635 0.171328 0.093172
0.530755 0.178653 0.078279
0.591577 0.187015 0.054505
0.647120 0.193698 0.000000
0.699580 0.200259 0.000000
0.752438 0.207004 0.000000
0.798245 0.212772 0.000000
0.837705 0.217411 0.000000
0.871733 0.221836 0.000000
0.901091 0.225254 0.000000
0.926421 0.228244 0.000000
0.948394 0.231266 0.000000
0.967681 0.233829 0.000000
0.984771 0.236728 0.000000
1.000000 0.239841 0.000000
1.000000 0.243320 0.000000
1.000000 0.246647 0.000000
1.000000 0.250553 0.000000
0.137179 0.130739 0.129427
0.136599 0.130861 0.129061
0.135866 0.131014 0.128542
0.135500 0.131075 0.128176
0.135317 0.131106 0.127993
0.135317 0.131319 0.127810
0.142000 0.134096 0.127565
0.158511 0.139223 0.126925
0.181888 0.144167 0.125582
0.212375 0.148867 0.123568
0.251469 0.154849 0.120516
0.298009 0.161776 0.115969
0.350591 0.169100 0.110170
0.408362 0.177676 0.101686
0.469093 0.186587 0.090303
0.531548 0.195651 0.074342
0.592309 0.204501 0.043153
0.647974 0.211917 0.000000
0.702449 0.219425 0.000000
0.754452 0.226108 0.000000
0.799771 0.231662 0.000000
0.839170 0.235752 0.000000
0.902556 0.247288 0.000000
0.927611 0.249760 0.000000
0.948669 0.251621 0.000000
0.966766 0.253269 0.000000
0.982666 0.255161 0.000000
0.996948 0.257176 0.000000
1.000000 0.259586 0.000000
1.000000 0.262394 0.000000
1.000000 0.265476 0.000000
1.000000 0.268986 0.000000
0.135866 0.134554 0.128939
0.135531 0.134615 0.128420
0.135195 0.134890 0.127871
0.135683 0.135012 0.127291
0.137148 0.134951 0.127260
0.138613 0.134707 0.127047
0.139559 0.133791 0.127108
0.153384 0.139345 0.126162
0.181216 0.148684 0.124422
0.221530 0.160281 0.121279
0.263066 0.168734 0.117708
0.311864 0.178317 0.112428
0.365789 0.188266 0.105379
0.424537 0.198886 0.095796
0.484962 0.209384 0.082307
0.545739 0.219272 0.063478
0.604608 0.228519 0.013214
0.658717 0.235966 0.000000
0.716609 0.244663 0.000000
0.768673 0.251652 0.000000
0.814694 0.257420 0.000000
0.855406 0.261906 0.000000
0.890227 0.265019 0.000000
0.919493 0.267643 0.000000
0.943725 0.269810 0.000000
0.963531 0.271122 0.000000
0.980285 0.272587 0.000000
0.994995 0.273930 0.000000
1.000000 0.275547 0.000000
1.000000 0.277501 0.000000
1.000000 0.279850 0.000000
1.000000 0.282597 0.000000
0.133974 0.141848 0.128542
0.133608 0.142092 0.127993
0.133364 0.142153 0.127077
0.134707 0.142306 0.126467
0.138003 0.142153 0.126406
0.142367 0.141939 0.126467
0.145388 0.140932 0.126467
0.146944 0.138888 0.126986
0.168612 0.147921 0.125368
0.207034 0.161837 0.121859
0.260960 0.180545 0.116304
0.312963 0.194156 0.110140
0.366918 0.206241 0.102327
0.424964 0.218418 0.092103
0.485481 0.230503 0.077638
0.545861 0.241520 0.055146
0.604486 0.251560 0.000000
0.662470 0.261082 0.000000
0.717586 0.269322 0.000000
0.767910 0.276036 0.000000
0.812863 0.281071 0.000000
0.852842 0.284947 0.000000
0.887419 0.287785 0.000000
0.916686 0.289708 0.000000
0.941039 0.291142 0.000000
0.961028 0.291752 0.000000
0.978088 0.292241 0.000000
0.993072 0.292943 0.000000
1.000000 0.293675 0.000000
1.000000 0.295048 0.000000
1.000000 0.296635 0.000000
1.000000 0.298833 0.000000
0.130892 0.154452 0.128664
0.131014 0.154635 0.127901
0.130953 0.154818 0.126802
0.132723 0.154757 0.125460
0.138308 0.154604 0.125521
0.145449 0.154635 0.125856
0.152682 0.153780 0.126253
0.157626 0.151980 0.126650
0.159731 0.148013 0.127687
0.190158 0.161318 0.125338
0.239994 0.181308 0.119570
0.303746 0.205417 0.110597
0.370977 0.228305 0.098451
0.428962 0.241978 0.087098
0.489021 0.255650 0.070710
0.549310 0.267887 0.035096
0.609003 0.279057 0.000000
0.667933 0.289464 0.000000
0.720760 0.297337 0.000000
0.769467 0.303349 0.000000
0.813291 0.307866 0.000000
0.852415 0.310979 0.000000
0.886381 0.313268 0.000000
0.915312 0.314366 0.000000
0.939513 0.314916 0.000000
0.959564 0.314763 0.000000
0.976684 0.314458 0.000000
0.991669 0.314244 0.000000
1.000000 0.314397 0.000000
1.000000 0.314794 0.000000
1.000000 0.315862 0.000000
1.000000 0.317144 0.000000
0.126741 0.173190 0.129244
0.126925 0.173312 0.128145
0.127138 0.173617 0.126833
0.128389 0.173526 0.123842
0.137118 0.173129 0.124941
0.147951 0.172946 0.125368
0.160220 0.172946 0.126070
0.169314 0.171084 0.127077
0.176120 0.168215 0.127871
0.178286 0.162020 0.129366
0.217960 0.180148 0.126436
0.277501 0.205753 0.118013
0.349584 0.234897 0.104585
0.429969 0.266239 0.083406
0.493782 0.283452 0.062226
0.555535 0.297551 0.007111
0.619196 0.311284 0.000000
0.676204 0.321294 0.000000
0.727657 0.328679 0.000000
0.774166 0.333928 0.000000
0.815915 0.337102 0.000000
0.852934 0.339239 0.000000
0.885344 0.340520 0.000000
0.913176 0.340490 0.000000
0.936919 0.339910 0.000000
0.957031 0.338811 0.000000
0.974426 0.337896 0.000000
0.989837 0.337072 0.000000
1.000000 0.336431 0.000000
1.000000 0.336553 0.000000
1.000000 0.337041 0.000000
1.000000 0.338140 0.000000
0.120424 0.198245 0.130526
0.120638 0.198489 0.129244
0.121492 0.198428 0.127596
0.123323 0.198825 0.123781
0.133822 0.198245 0.123598
0.149050 0.198276 0.125002
0.165682 0.198611 0.126040
0.183871 0.199374 0.127626
0.193759 0.195468 0.128817
0.202182 0.191257 0.130251
0.204135 0.182223 0.132876
0.251896 0.204715 0.129091
0.320653 0.235782 0.117342
0.399725 0.269444 0.098756
0.485695 0.304265 0.066529
0.565942 0.332097 0.000000
0.626825 0.345312 0.000000
0.681209 0.354498 0.000000
0.730831 0.360662 0.000000
0.776181 0.365148 0.000000
0.816861 0.367773 0.000000
0.853269 0.369116 0.000000
0.885191 0.369421 0.000000
0.912718 0.368780 0.000000
0.936126 0.367132 0.000000
0.956023 0.365637 0.000000
0.973236 0.363561 0.000000
0.988525 0.361791 0.000000
1.000000 0.360601 0.000000
1.000000 0.359838 0.000000
1.000000 0.359716 0.000000
1.000000 0.360143 0.000000
0.110384 0.230838 0.132937
0.111238 0.230991 0.131319
0.112428 0.231144 0.129335
0.115450 0.231296 0.124666
0.125643 0.231357 0.121187
0.148013 0.230777 0.124605
0.170352 0.231601 0.126101
0.193576 0.232731 0.128267
0.214542 0.232303 0.130770
0.226352 0.226993 0.132448
0.236637 0.221500 0.134310
0.237430 0.208865 0.138064
0.309422 0.247715 0.135897
0.396063 0.289799 0.118471
0.492958 0.334081 0.088472
0.588647 0.373907 0.000000
0.671778 0.403876 0.000000
0.723568 0.410651 0.000000
0.767819 0.412879 0.000000
0.807584 0.413703 0.000000
0.842924 0.412848 0.000000
0.874235 0.411231 0.000000
0.901427 0.408667 0.000000
0.925139 0.405768 0.000000
0.945586 0.402350 0.000000
0.963287 0.399084 0.000000
0.978790 0.395819 0.000000
0.992676 0.392920 0.000000
1.000000 0.390631 0.000000
1.000000 0.388983 0.004150
1.000000 0.387976 0.067201
1.000000 0.387823 0.094026
0.090150 0.278630 0.137819
0.091829 0.278599 0.135805
0.094423 0.278447 0.132876
0.099977 0.278050 0.127016
0.109316 0.277531 0.117159
0.143984 0.275364 0.123873
0.174289 0.275456 0.126497
0.204044 0.276677 0.129183
0.234806 0.278599 0.133089
0.256931 0.276371 0.136568
0.271763 0.270512 0.139315
0.284367 0.264073 0.142123
0.289097 0.251469 0.148867
0.360998 0.288579 0.146120
0.456458 0.336492 0.125460
0.553643 0.380743 0.091859
0.641199 0.415412 0.000000
0.715358 0.439826 0.000000
0.768734 0.449378 0.000000
0.807187 0.448432 0.000000
0.841703 0.446571 0.000000
0.872435 0.443885 0.000000
0.899290 0.440162 0.000000
0.922759 0.436103 0.000000
0.943114 0.431983 0.000000
0.960784 0.427588 0.000000
0.976379 0.423590 0.000000
0.990356 0.420020 0.000000
1.000000 0.416907 0.026490
1.000000 0.414649 0.075105
1.000000 0.413123 0.099733
1.000000 0.412543 0.121492
0.056947 0.323522 0.143313
0.061585 0.323552 0.141024
0.066438 0.323339 0.137911
0.076448 0.322911 0.131075
0.091890 0.322148 0.118746
0.130861 0.320378 0.120027
0.173251 0.319585 0.127321
0.209415 0.321141 0.130770
0.245487 0.323400 0.135348
0.281956 0.327031 0.141360
0.302892 0.322057 0.145418
0.322881 0.318914 0.149813
0.340154 0.314305 0.154726
0.342779 0.296757 0.163119
0.416266 0.333959 0.161807
0.513573 0.382788 0.139528
0.605097 0.423011 0.107088
0.683680 0.451911 0.055085
0.751247 0.472328 0.000000
0.806882 0.484840 0.000000
0.840940 0.481758 0.000000
0.871305 0.477913 0.000000
0.897826 0.473457 0.000000
0.921202 0.468360 0.000000
0.941405 0.463264 0.000000
0.959045 0.458137 0.000000
0.974640 0.453101 0.004639
0.988586 0.448646 0.064424
1.000000 0.444923 0.089693
1.000000 0.442145 0.111543
1.000000 0.440192 0.131106
1.000000 0.439246 0.151034
0.000000 0.374273 0.150484
0.000000 0.374273 0.148501
0.000000 0.374060 0.144961
0.000000 0.373449 0.136751
0.056703 0.372747 0.122957
0.106477 0.371466 0.114015
0.168215 0.369085 0.129061
0.212436 0.370520 0.133181
0.254673 0.373571 0.138796
0.298589 0.380285 0.146883
0.339727 0.386450 0.156313
0.362463 0.381659 0.161227
0.382727 0.375677 0.166506
0.398230 0.367041 0.172000
0.397864 0.344244 0.181247
0.469398 0.378973 0.181460
0.565454 0.426673 0.159213
0.649500 0.461616 0.131258
0.722103 0.486763 0.096223
0.783719 0.503593 0.020203
0.834836 0.513725 0.000000
0.870237 0.513359 0.000000
0.896422 0.507530 0.000000
0.919524 0.501549 0.000000
0.939727 0.495369 0.000000
0.957458 0.489601 0.059815
0.973205 0.484169 0.087678
0.987366 0.479347 0.110140
1.000000 0.475380 0.129854
1.000000 0.472450 0.149172
1.000000 0.470527 0.168795
1.000000 0.469886 0.188846
0.000000 0.429328 0.160098
0.000000 0.429603 0.157748
0.000000 0.429572 0.154116
0.000000 0.429297 0.145174
0.000000 0.429053 0.130190
0.039796 0.429603 0.106569
0.154391 0.429389 0.126894
0.215152 0.432166 0.139162
0.266636 0.437476 0.146578
0.316442 0.443885 0.156161
0.365728 0.451209 0.168154
0.403265 0.451820 0.178164
0.424811 0.442939 0.183108
0.443000 0.432593 0.187869
0.453651 0.417487 0.192782
0.449836 0.389899 0.201846
0.517906 0.421149 0.203616
0.609857 0.465980 0.183871
0.689204 0.498054 0.161715
0.757595 0.520836 0.137423
0.814267 0.534997 0.111147
0.860746 0.542748 0.078676
0.897246 0.544549 0.015839
0.919951 0.537530 0.067536
0.939788 0.530419 0.093416
0.957275 0.523644 0.113649
0.972778 0.517449 0.132753
0.986694 0.512078 0.150332
0.999237 0.507500 0.168521
1.000000 0.503899 0.185641
1.000000 0.501488 0.204013
1.000000 0.500267 0.222599
0.000000 0.490700 0.172732
0.000000 0.490913 0.169680
0.000000 0.491127 0.165591
0.000000 0.491371 0.156710
0.000000 0.492134 0.140505
0.000000 0.492988 0.117311
0.127596 0.492531 0.123110
0.212924 0.492287 0.147951
0.271824 0.496651 0.156588
0.326513 0.501915 0.167208
0.379583 0.508446 0.180484
0.431647 0.515587 0.196414
0.462226 0.509972 0.204288
0.483131 0.499123 0.208652
0.499916 0.486030 0.212497
0.507073 0.466499 0.217105
0.501305 0.435889 0.225193
0.564416 0.462898 0.230045
0.651575 0.504265 0.213809
0.726345 0.533684 0.196902
0.788632 0.552941 0.180423
0.839841 0.564233 0.164340
0.881468 0.569512 0.147280
0.915312 0.570611 0.129213
0.938048 0.564843 0.133822
0.955474 0.557397 0.151156
0.970947 0.550530 0.168704
0.984802 0.544610 0.185885
0.997284 0.539605 0.203159
1.000000 0.535729 0.220340
1.000000 0.532982 0.238529
1.000000 0.531731 0.257511
0.000000 0.555383 0.187594
0.000000 0.556146 0.185000
0.000000 0.582177 0.187900
0.000000 0.582361 0.177829
0.000000 0.582544 0.161471
0.000000 0.582574 0.137789
0.075257 0.581750 0.126772
0.213016 0.578607 0.165530
0.287175 0.580468 0.182315
0.348974 0.583978 0.195102
0.407080 0.588434 0.210300
0.462226 0.592645 0.228550
0.513451 0.596063 0.247501
0.536461 0.583673 0.250248
0.555993 0.569940 0.252567
0.571740 0.554589 0.253727
0.576379 0.531121 0.256565
0.569116 0.497536 0.263340
0.623590 0.516930 0.271153
0.703700 0.553429 0.259312
0.769955 0.576989 0.247410
0.824186 0.591424 0.237156
0.868437 0.598810 0.226810
0.904112 0.601068 0.216312
0.932830 0.599298 0.203738
0.955230 0.594110 0.195163
0.969757 0.585748 0.208774
0.982971 0.578454 0.222751
0.995056 0.572534 0.238437
1.000000 0.568200 0.255802
1.000000 0.565270 0.274022
1.000000 0.563745 0.293156
0.000000 0.621454 0.205692
0.000000 0.625086 0.204623
0.000000 0.628656 0.201266
0.000000 0.631922 0.193729
0.000000 0.634180 0.180240
0.000000 0.635126 0.160555
0.000000 0.635157 0.131350
0.194156 0.632044 0.172061
0.285863 0.630518 0.203403
0.350683 0.632990 0.216464
0.410407 0.635920 0.232334
0.466987 0.639002 0.250401
0.520775 0.642084 0.270542
0.562036 0.639399 0.285039
0.583368 0.626429 0.286290
0.601556 0.611749 0.286320
0.616419 0.595972 0.286229
0.619501 0.571374 0.287663
0.612970 0.538293 0.293523
0.661585 0.553643 0.304723
0.736477 0.586969 0.297246
0.797208 0.608148 0.290593
0.846616 0.620478 0.284977
0.886351 0.626337 0.279332
0.918212 0.627222 0.272526
0.944244 0.624628 0.263279
0.966003 0.619745 0.252415
0.980560 0.612634 0.260197
0.992432 0.606378 0.276249
1.000000 0.601587 0.293553
1.000000 0.598352 0.311650
1.000000 0.596887 0.331762
0.000000 0.672511 0.222385
0.000000 0.675624 0.220798
0.000000 0.679011 0.218692
0.000000 0.681788 0.211948
0.000000 0.683589 0.201144
0.000000 0.684291 0.184482
0.000000 0.683955 0.162814
0.171542 0.681636 0.182437
0.284703 0.677821 0.228000
0.352789 0.679225 0.242557
0.414038 0.681361 0.258946
0.471809 0.683558 0.276890
0.525780 0.685328 0.296971
0.576867 0.687037 0.319280
0.608301 0.679561 0.327184
0.628321 0.666468 0.326238
0.645594 0.652125 0.325200
0.660334 0.636866 0.323644
0.662226 0.611658 0.324407
0.656855 0.580011 0.329747
0.699825 0.591699 0.344274
0.767544 0.620996 0.341070
0.822538 0.639490 0.339300
0.866636 0.649775 0.337346
0.901823 0.653986 0.334234
0.930144 0.653925 0.330053
0.953613 0.650935 0.323980
0.973480 0.646143 0.316258
0.989197 0.640162 0.314458
0.999664 0.634882 0.331487
1.000000 0.631434 0.349920
1.000000 0.629786 0.370092
0.000000 0.719326 0.240177
0.000000 0.722194 0.238712
0.000000 0.725093 0.237217
0.000000 0.727443 0.232120
0.000000 0.729091 0.222965
0.000000 0.729366 0.210666
0.000000 0.728725 0.195132
0.145785 0.727077 0.197116
0.275731 0.723110 0.243503
0.356786 0.721279 0.273045
0.418006 0.722255 0.289158
0.475807 0.723293 0.307134
0.529473 0.724086 0.326970
0.580285 0.724788 0.349004
0.628168 0.725368 0.372869
0.650843 0.715206 0.373388
0.670893 0.703792 0.372717
0.689143 0.691920 0.371832
0.705776 0.679927 0.371466
0.709010 0.656947 0.374182
0.706386 0.628870 0.380743
0.743069 0.637171 0.400122
0.802518 0.662013 0.402045
0.850675 0.677760 0.405402
0.888548 0.686122 0.407904
0.918547 0.689204 0.409003
0.942992 0.688777 0.407965
0.963500 0.686061 0.405646
0.980987 0.681849 0.401862
0.996094 0.676326 0.396368
1.000000 0.672358 0.410132
1.000000 0.670893 0.430335
0.000000 0.771511 0.264134
0.000000 0.772610 0.263188
0.000000 0.773495 0.261601
0.000000 0.774075 0.257359
0.000000 0.774228 0.250278
0.000000 0.773770 0.241489
0.000000 0.772946 0.232181
0.137636 0.771939 0.224399
0.275853 0.768246 0.269810
0.371160 0.764401 0.316228
0.431861 0.764920 0.332921
0.488685 0.765377 0.351507
0.541680 0.765408 0.371771
0.591424 0.765255 0.393408
0.638209 0.764981 0.416663
0.676265 0.762417 0.434668
0.695979 0.752682 0.433112
0.714626 0.742245 0.431067
0.732021 0.731685 0.429877
0.747890 0.720577 0.428168
0.749599 0.697566 0.428931
0.746944 0.670832 0.433600
0.775631 0.674342 0.452796
0.826566 0.694057 0.455421
0.868254 0.707088 0.460426
0.901274 0.714046 0.464729
0.927825 0.716762 0.467475
0.949737 0.716884 0.469612
0.968200 0.715145 0.470192
0.983948 0.711971 0.469490
0.997559 0.707637 0.467140
1.000000 0.703975 0.472480
0.000000 0.807187 0.284550
0.000000 0.808194 0.284398
0.000000 0.809018 0.283421
0.000000 0.809476 0.280400
0.000000 0.809415 0.276127
0.000000 0.808713 0.270817
0.000000 0.807614 0.265629
0.163210 0.806119 0.263157
0.277470 0.802914 0.294255
0.376196 0.798184 0.344274
0.443488 0.796506 0.371984
0.497780 0.796231 0.390265
0.548913 0.795773 0.409827
0.597284 0.795102 0.431342
0.642573 0.794461 0.453986
0.685176 0.794003 0.477821
0.713710 0.789364 0.487892
0.732143 0.781003 0.486549
0.749752 0.772183 0.485206
0.766445 0.763272 0.484199
0.782071 0.754025 0.482795
0.783200 0.732540 0.484108
0.781582 0.708797 0.488716
0.804776 0.709987 0.508080
0.844938 0.721065 0.502647
0.881773 0.732479 0.509148
0.911040 0.738949 0.515465
0.934844 0.741970 0.520470
0.954528 0.742885 0.524834
0.971160 0.742245 0.528191
0.985351 0.740597 0.530663
0.997406 0.738186 0.532616
0.000000 0.844846 0.312413
0.000000 0.845731 0.312871
0.000000 0.846128 0.312902
0.000000 0.846036 0.311498
0.000000 0.845365 0.309178
0.000000 0.844144 0.307866
0.112673 0.842405 0.307805
0.207767 0.840238 0.310277
0.293370 0.836912 0.330114
0.389960 0.831418 0.378668
0.465217 0.826505 0.419867
0.514549 0.825162 0.436133
0.562219 0.823728 0.454017
0.607050 0.822141 0.472663
0.648859 0.820432 0.491798
0.688289 0.818753 0.511955
0.725277 0.817380 0.533227
0.744961 0.810849 0.534295
0.761685 0.803433 0.532891
0.778225 0.796017 0.531884
0.794064 0.788510 0.531579
0.808957 0.780697 0.530785
0.809049 0.760220 0.531548
0.807523 0.738399 0.534630
0.825467 0.736904 0.551843
0.862669 0.749233 0.554009
0.894530 0.759121 0.561791
0.920073 0.764858 0.568719
0.940948 0.768124 0.575402
0.958434 0.769680 0.581353
0.973144 0.770352 0.587182
0.985534 0.770352 0.592920
0.000000 0.870085 0.334325
0.000000 0.870787 0.335424
0.000000 0.871122 0.335821
0.000000 0.870939 0.335973
0.000000 0.870176 0.336095
0.000000 0.868986 0.337652
0.166781 0.867247 0.341375
0.243015 0.865171 0.349248
0.311070 0.862669 0.362280
0.404639 0.857450 0.410620
0.485939 0.851560 0.461402
0.535973 0.849485 0.482612
0.579644 0.848020 0.499550
0.621271 0.846464 0.517052
0.660517 0.844755 0.535454
0.697597 0.843107 0.554253
0.732448 0.841581 0.573877
0.762722 0.839811 0.591363
0.777951 0.833799 0.589837
0.793149 0.827787 0.588983
0.808011 0.821653 0.588403
0.822324 0.815244 0.587549
0.835721 0.808438 0.586450
0.834897 0.789456 0.586389
0.833738 0.770138 0.588342
0.847379 0.767330 0.604181
0.878447 0.776822 0.606500
0.905852 0.785855 0.615747
0.928038 0.791806 0.624750
0.946258 0.795743 0.633265
0.961456 0.798550 0.641657
0.974029 0.800320 0.649348
0.000000 0.893614 0.360449
0.000000 0.893919 0.361486
0.000000 0.893919 0.362249
0.000000 0.893431 0.363745
0.000000 0.892363 0.365911
0.138888 0.890898 0.369574
0.215549 0.888975 0.376471
0.282017 0.886595 0.387549
0.345251 0.883818 0.404517
0.422889 0.879301 0.443061
0.501305 0.873533 0.492317
0.559380 0.869535 0.526787
0.598962 0.868009 0.542412
0.637018 0.866331 0.558740
0.672999 0.864530 0.575402
0.707118 0.862730 0.592523
0.739315 0.861021 0.610285
0.769619 0.859678 0.629053
0.791623 0.856962 0.639185
0.805173 0.852049 0.638331
0.818631 0.847013 0.637659
0.831815 0.841825 0.637049
0.844419 0.836362 0.636164
0.856443 0.830564 0.634791
0.854887 0.813169 0.634424
0.854093 0.796445 0.635889
0.864530 0.792935 0.650141
0.890745 0.800504 0.652369
0.914488 0.808713 0.661799
0.934081 0.814847 0.671748
0.950164 0.819425 0.681483
0.963348 0.822416 0.689784
0.000000 0.912291 0.385260
0.000000 0.912383 0.386572
0.000000 0.912261 0.387945
0.000000 0.911772 0.390692
0.134829 0.910857 0.395087
0.204440 0.909636 0.402747
0.268620 0.908141 0.414710
0.330266 0.906310 0.431861
0.392767 0.903960 0.455634
0.459998 0.900633 0.490120
0.534630 0.895689 0.539391
0.601007 0.890501 0.587243
0.636622 0.889342 0.603357
0.670497 0.887907 0.619562
0.702480 0.886381 0.635340
0.732235 0.884703 0.650629
0.760250 0.883085 0.665980
0.786496 0.881682 0.681575
0.811154 0.880674 0.697688
0.825467 0.877623 0.701137
0.836606 0.873747 0.700557
0.847623 0.869718 0.699794
0.858366 0.865446 0.698848
0.868833 0.860990 0.697505
0.878386 0.855863 0.695918
0.876921 0.841306 0.695277
0.876524 0.827787 0.696437
0.883879 0.824033 0.707912
0.904997 0.829679 0.709560
0.924468 0.836606 0.718074
0.940795 0.842283 0.727474
0.954070 0.846250 0.735683
0.123537 0.932647 0.424506
0.141817 0.932525 0.426184
0.159915 0.932219 0.428107
0.192966 0.931456 0.431891
0.235447 0.930175 0.438636
0.282811 0.928466 0.448798
0.334630 0.926329 0.463294
0.388128 0.923705 0.482399
0.442054 0.920684 0.505852
0.495705 0.917296 0.532921
0.561975 0.911955 0.576867
0.622827 0.906371 0.620661
0.663386 0.903136 0.645716
0.692012 0.901518 0.658564
