data/fiter_cube/63078869/1022680/file.cube
# Created by Adobe Lightroom plugin Export LUT (1.17.0)
# www.johnrellis.com/lightroom/exportlut.htm
# Preset: 暗调胶片街拍_09 云集
# Color profile: C:\Program Files (x86)\Common Files\Adobe\Color\Profiles\Recommended\AdobeRGB1998.icc
LUT_3D_SIZE 8
DOMAIN_MIN 0.000000 0.000000 0.000000
DOMAIN_MAX 0.903226 0.903226 0.903226
0.059998 0.075257 0.075654
0.078065 0.076234 0.076814
0.115633 0.083497 0.079194
0.179263 0.098665 0.078370
0.302770 0.137606 0.073182
0.453040 0.188998 0.037293
0.586694 0.233616 0.000000
0.676143 0.264195 0.000000
0.061860 0.079927 0.079164
0.079072 0.084291 0.077424
0.114687 0.089357 0.079652
0.174655 0.104036 0.078431
0.286534 0.139040 0.075563
0.425635 0.186404 0.051270
0.568688 0.233921 0.000000
0.668849 0.266758 0.000000
0.072480 0.096803 0.094026
0.072358 0.098726 0.092836
0.116396 0.111208 0.085023
0.190768 0.130129 0.083711
0.302770 0.167269 0.076478
0.444800 0.216678 0.044495
0.595911 0.266239 0.000000
0.682185 0.292241 0.020447
0.083040 0.113649 0.109316
0.083314 0.112245 0.109438
0.097749 0.127230 0.105745
0.201938 0.173281 0.093904
0.359258 0.232334 0.071687
0.488899 0.274601 0.022522
0.607477 0.307836 0.000000
0.684413 0.325902 0.061189
0.094209 0.133883 0.126528
0.094118 0.132235 0.125948
0.094606 0.140993 0.122316
0.151949 0.177218 0.120333
0.313573 0.259281 0.091127
0.494179 0.325566 0.024872
0.608728 0.354559 0.000275
0.686519 0.369421 0.090242
0.105562 0.157717 0.145541
0.106081 0.157351 0.146059
0.104494 0.153109 0.142519
0.127077 0.190219 0.141146
0.241825 0.253422 0.139010
0.463020 0.378515 0.078676
0.620722 0.421118 0.075288
0.696925 0.427222 0.141787
0.120150 0.191409 0.171603
0.119509 0.188327 0.170108
0.115419 0.174960 0.161837
0.116518 0.199100 0.157778
0.193729 0.272129 0.164279
0.387915 0.384680 0.164004
0.598047 0.485939 0.115755
0.690974 0.489662 0.184298
0.141115 0.248631 0.214206
0.139467 0.242771 0.210666
0.134005 0.224155 0.198825
0.128481 0.213230 0.187472
0.161898 0.292851 0.192630
0.336339 0.441321 0.214023
0.575982 0.558679 0.260716
0.693202 0.574121 0.264530
0.061036 0.078157 0.081544
0.073457 0.079805 0.085969
0.109316 0.089937 0.087922
0.167391 0.104128 0.090486
0.274174 0.132540 0.087556
0.407752 0.175051 0.073121
0.555230 0.223392 0.019989
0.660945 0.258427 0.016876
0.062623 0.083772 0.081056
0.077302 0.089509 0.087160
0.110475 0.096529 0.090669
0.167849 0.108858 0.091341
0.270115 0.136843 0.087953
0.398718 0.178134 0.073884
0.542138 0.225010 0.023682
0.653162 0.260624 0.006806
0.076600 0.100954 0.098939
0.078248 0.102510 0.100496
0.113924 0.114076 0.095521
0.181186 0.129274 0.093690
0.278996 0.158816 0.088808
0.411719 0.203555 0.072816
0.559625 0.252232 0.018769
0.664118 0.284337 0.038422
0.086152 0.116732 0.112642
0.086854 0.115969 0.113344
0.098909 0.129274 0.110811
0.184878 0.162905 0.101320
0.309331 0.204257 0.088777
0.435401 0.247684 0.070039
0.571252 0.291081 0.020661
0.667018 0.317144 0.063142
0.097414 0.137942 0.130617
0.096925 0.135866 0.129732
0.096559 0.142092 0.125734
0.147585 0.173587 0.123445
0.290715 0.242374 0.100923
0.466163 0.308232 0.066743
0.591180 0.345403 0.043549
0.675868 0.363714 0.094942
0.107851 0.159976 0.148074
0.107332 0.157809 0.147066
0.105653 0.151858 0.143404
0.125490 0.187167 0.142641
0.234897 0.248051 0.142641
0.453895 0.372198 0.093385
0.613825 0.417212 0.091829
0.689296 0.423133 0.145296
0.121035 0.191318 0.171969
0.119814 0.187076 0.169436
0.116396 0.175235 0.162478
0.117159 0.195499 0.159121
0.189425 0.267033 0.166232
0.375708 0.374090 0.167208
0.585412 0.476722 0.118929
0.681117 0.481910 0.177737
0.141848 0.248478 0.214511
0.140658 0.243717 0.211643
0.135439 0.225956 0.200534
0.128725 0.209049 0.186831
0.164920 0.301946 0.200229
0.338415 0.447242 0.222629
0.571893 0.556573 0.264866
0.687861 0.570581 0.264714
0.068605 0.097139 0.103700
0.075135 0.097383 0.106783
0.104005 0.101625 0.114076
0.167697 0.109926 0.111147
0.278752 0.135683 0.112337
0.415076 0.178103 0.107637
0.564508 0.225895 0.097627
0.666133 0.262089 0.110597
0.074189 0.102785 0.105928
0.080720 0.104189 0.108827
0.108431 0.104952 0.112917
0.168276 0.115908 0.112123
0.271244 0.140658 0.112612
0.406226 0.181674 0.107118
0.555932 0.229099 0.095949
0.662562 0.265690 0.108156
0.082612 0.111940 0.106844
0.088228 0.115175 0.112764
0.114595 0.123018 0.116030
0.181857 0.137453 0.116793
0.287114 0.166415 0.115663
0.419959 0.208255 0.108248
0.563531 0.253758 0.098146
0.664515 0.286107 0.114107
0.095491 0.131746 0.124849
0.100008 0.134401 0.130678
0.105806 0.141268 0.130159
0.191165 0.174014 0.125856
0.315099 0.211978 0.119020
0.444862 0.254856 0.110780
0.579706 0.296696 0.105135
0.670588 0.322606 0.129305
0.109377 0.155612 0.146456
0.109560 0.153872 0.146304
0.109133 0.151919 0.144594
0.155612 0.188540 0.144259
0.303655 0.257328 0.130831
0.470375 0.314458 0.115145
0.592401 0.349340 0.116823
0.676081 0.369329 0.151583
0.119844 0.178927 0.165072
0.119692 0.176577 0.164187
0.117159 0.166812 0.159213
0.130434 0.195224 0.157778
0.237064 0.256992 0.162051
0.447944 0.371374 0.134218
0.609888 0.418006 0.146700
0.688167 0.431159 0.198672
0.134798 0.215335 0.192782
0.133394 0.210452 0.190036
0.128359 0.194888 0.180148
0.125460 0.199222 0.173281
0.188571 0.271946 0.181491
0.375860 0.380407 0.192844
0.589746 0.485664 0.172122
0.686061 0.496315 0.242557
0.156100 0.276646 0.237766
0.153536 0.269017 0.232700
0.146609 0.247318 0.218570
0.136477 0.216403 0.197787
0.160494 0.297154 0.209079
0.330053 0.447974 0.241459
0.569360 0.562646 0.298039
0.687953 0.581109 0.313054
0.077699 0.120119 0.132876
0.084474 0.121584 0.136416
0.101503 0.117861 0.140200
0.157931 0.126284 0.158816
0.267155 0.116365 0.145754
0.394171 0.165530 0.149081
0.544091 0.213901 0.153079
0.655421 0.258701 0.173495
0.083894 0.127321 0.137179
0.090028 0.128328 0.139986
0.105257 0.123964 0.143069
0.164584 0.130465 0.159915
0.266484 0.135836 0.148775
0.392828 0.173251 0.149660
0.541100 0.219974 0.152834
0.654505 0.263127 0.172122
0.089509 0.137942 0.139559
0.095583 0.139712 0.142550
0.114412 0.143069 0.152041
0.175784 0.147219 0.153567
0.278386 0.169009 0.155276
0.416510 0.208743 0.158694
0.568780 0.257816 0.167819
0.664820 0.292058 0.188357
0.105440 0.155245 0.141360
0.111055 0.158511 0.145541
0.127810 0.165805 0.166171
0.192508 0.187625 0.164736
0.300359 0.214054 0.164218
0.431189 0.253452 0.165255
0.571588 0.296513 0.171878
0.667659 0.328954 0.200595
0.123507 0.185580 0.166110
0.127443 0.186130 0.170932
0.134981 0.184146 0.179995
0.163333 0.210483 0.181338
0.312749 0.275639 0.182498
0.470344 0.324193 0.181643
0.592584 0.358495 0.193454
0.674281 0.381079 0.227909
0.142611 0.219638 0.197726
0.148409 0.223880 0.205295
0.145388 0.209598 0.199313
0.143343 0.214176 0.189853
0.251835 0.288487 0.204410
0.458045 0.390173 0.201846
0.611933 0.430426 0.229679
0.684077 0.447333 0.276951
0.164889 0.266331 0.237400
0.163668 0.261814 0.235142
0.156863 0.242710 0.223148
0.143221 0.209720 0.199435
0.190402 0.288396 0.213657
0.382177 0.401068 0.243351
0.590784 0.499397 0.248081
0.684352 0.514397 0.324193
0.194400 0.345708 0.298955
0.191470 0.338689 0.293919
0.179385 0.310307 0.272709
0.160464 0.262791 0.237705
0.157778 0.285008 0.225864
0.309270 0.444160 0.270481
0.560632 0.570367 0.347753
0.684352 0.596979 0.383001
0.085634 0.159976 0.186069
0.094240 0.161776 0.190188
0.110628 0.155520 0.196139
0.151034 0.151553 0.199588
0.243809 0.163546 0.234836
0.391821 0.124300 0.216953
0.532067 0.211368 0.227115
0.647028 0.280766 0.269871
0.092836 0.167391 0.190280
0.100710 0.170809 0.196445
0.118441 0.166262 0.202792
0.153811 0.157534 0.202365
0.247959 0.166934 0.234104
0.394018 0.132326 0.210422
0.534264 0.222995 0.229953
0.647547 0.286534 0.271031
0.103304 0.185153 0.198611
0.111543 0.187442 0.202670
0.133547 0.188418 0.210330
0.161807 0.176120 0.209110
0.262058 0.178012 0.226444
0.387396 0.198276 0.214969
0.536767 0.249577 0.233341
0.647150 0.301244 0.268620
0.112795 0.199008 0.196872
0.119326 0.200656 0.199954
0.141176 0.208164 0.212284
0.181186 0.213993 0.227665
0.283085 0.225620 0.224613
0.411353 0.256077 0.230900
0.553979 0.297856 0.247318
0.655421 0.334661 0.276249
0.136934 0.222324 0.193759
0.143465 0.225986 0.198398
0.162234 0.234104 0.216739
0.174868 0.229984 0.233219
0.303838 0.287633 0.243351
0.440803 0.321294 0.247959
0.572229 0.357610 0.264042
0.662318 0.387976 0.299413
0.158480 0.260563 0.220676
0.162661 0.261021 0.226047
0.174502 0.260349 0.240940
0.175174 0.241886 0.238926
0.232792 0.295262 0.246159
0.443519 0.397009 0.273350
0.597436 0.443000 0.313207
0.672633 0.464515 0.357458
0.187381 0.322454 0.274601
0.190066 0.320653 0.277409
0.199252 0.315557 0.287236
0.188968 0.282109 0.268254
0.179568 0.281315 0.243259
0.362799 0.415625 0.292454
0.579004 0.511131 0.329381
0.675257 0.532372 0.406348
0.226474 0.412543 0.351537
0.227817 0.408972 0.352178
0.231632 0.396277 0.353185
0.214633 0.356237 0.324163
0.172671 0.270542 0.252079
0.262394 0.416052 0.294438
0.534661 0.569299 0.394934
0.671260 0.610224 0.451209
0.085908 0.250645 0.309453
0.101717 0.252720 0.314946
0.136110 0.242802 0.313176
0.169131 0.212528 0.303105
0.233463 0.206088 0.301396
0.359228 0.228214 0.353155
0.532982 0.209018 0.357519
0.640436 0.297551 0.380560
0.096712 0.247074 0.297948
0.108736 0.247745 0.301213
0.139376 0.242741 0.305058
0.168246 0.214054 0.296513
0.231662 0.208927 0.297826
0.358282 0.229160 0.347936
0.530694 0.213718 0.350835
0.638361 0.307225 0.381292
0.114931 0.272068 0.311589
0.125307 0.271092 0.312444
0.158114 0.271244 0.321324
0.181765 0.241947 0.312383
0.243992 0.233921 0.311650
0.374640 0.245945 0.349187
0.536370 0.241459 0.341131
0.636072 0.352209 0.398016
0.125521 0.295293 0.313787
0.135561 0.294347 0.314611
0.168612 0.297581 0.324834
0.215702 0.301427 0.344152
0.269963 0.286046 0.344366
0.411872 0.284703 0.351629
0.545373 0.333104 0.366247
0.640253 0.403021 0.422950
0.147433 0.300694 0.292149
0.155184 0.303014 0.296056
0.180667 0.309941 0.308904
0.220981 0.322454 0.332769
0.287510 0.327001 0.347723
0.418738 0.348791 0.351080
0.552819 0.387152 0.377478
0.645228 0.429786 0.421332
0.183230 0.330785 0.281407
0.191348 0.336553 0.288396
0.213993 0.347173 0.304631
0.240696 0.352087 0.337011
0.243687 0.333227 0.336889
0.441505 0.435340 0.388464
0.576104 0.468544 0.420417
0.656184 0.494820 0.459693
0.229709 0.415808 0.339147
0.234928 0.417762 0.346685
0.246891 0.414771 0.362768
0.263066 0.406958 0.383825
0.247959 0.355901 0.355108
0.329381 0.435676 0.371374
0.568078 0.546105 0.453681
0.661250 0.576165 0.526390
0.274571 0.507469 0.427558
0.276310 0.504723 0.429267
0.281987 0.496162 0.435187
0.291173 0.482307 0.444678
0.268254 0.422187 0.403571
0.219303 0.360906 0.318242
0.496925 0.586236 0.451331
0.654139 0.637781 0.551202
0.082307 0.369482 0.470344
0.110750 0.373754 0.478096
0.166812 0.371221 0.483986
0.200626 0.335973 0.474464
0.259464 0.289708 0.443305
0.349950 0.296330 0.455848
0.477363 0.340154 0.505638
0.609766 0.387121 0.536126
0.093507 0.366552 0.459907
0.116793 0.370153 0.466957
0.170016 0.370428 0.475929
0.203128 0.336400 0.464210
0.255344 0.288792 0.433875
0.343206 0.293980 0.445380
0.471138 0.333318 0.494270
0.608362 0.382238 0.528710
0.120272 0.392554 0.473304
0.137697 0.393133 0.476265
0.187137 0.394476 0.485573
0.231693 0.374548 0.479744
0.263706 0.315312 0.446021
0.351202 0.318517 0.456397
0.484260 0.354101 0.502739
0.613153 0.404547 0.534356
0.140017 0.425208 0.483497
0.154025 0.423438 0.483528
0.196902 0.423224 0.490425
0.261479 0.428443 0.509697
0.281346 0.367895 0.475624
0.367132 0.364385 0.480995
0.504417 0.389136 0.514336
0.617121 0.437934 0.540337
0.150668 0.447303 0.473182
0.162448 0.445655 0.473213
0.199191 0.444831 0.478859
0.252903 0.447883 0.494972
0.308507 0.437690 0.504723
0.371099 0.407721 0.492927
0.519799 0.419440 0.505882
0.615808 0.488258 0.552850
0.197971 0.452155 0.440284
0.205997 0.453529 0.443488
0.231754 0.458656 0.455451
0.271733 0.468757 0.477943
0.320653 0.480873 0.508202
0.395636 0.480415 0.528954
0.533104 0.509087 0.541070
0.619409 0.553491 0.589197
0.257084 0.495796 0.434607
0.264378 0.499367 0.440436
0.285557 0.506737 0.455238
0.319158 0.519097 0.480781
0.349371 0.519188 0.512474
0.337255 0.463172 0.489296
0.542504 0.593011 0.593286
0.632288 0.614252 0.627771
0.332250 0.594110 0.505882
0.335332 0.593988 0.510277
0.349310 0.596979 0.530053
0.365301 0.594812 0.551934
0.378576 0.582910 0.569177
0.359869 0.528038 0.538537
0.406043 0.569482 0.516960
0.631312 0.674495 0.659297
0.213840 0.535943 0.666712
0.233738 0.539117 0.670314
0.283085 0.542657 0.675288
0.322057 0.530877 0.671626
0.330266 0.478126 0.656947
0.388190 0.420325 0.626947
0.492836 0.464881 0.655116
0.564446 0.529656 0.675563
0.211551 0.535119 0.662257
0.230930 0.538231 0.665919
0.281834 0.543145 0.672511
0.321355 0.531731 0.669032
0.329778 0.480201 0.654749
0.386450 0.421942 0.624475
0.491432 0.466468 0.653529
0.563958 0.528618 0.673640
0.215000 0.545251 0.660365
0.231937 0.546990 0.662898
0.278569 0.549187 0.667750
0.337499 0.553216 0.676753
0.342657 0.504448 0.662318
0.389532 0.442878 0.630426
0.491707 0.481453 0.656184
0.565667 0.536889 0.675380
0.211368 0.564874 0.660883
0.229526 0.567010 0.664149
0.277928 0.569421 0.670039
0.350378 0.579400 0.684108
0.380743 0.557122 0.678401
0.401343 0.490944 0.650965
0.493751 0.509575 0.664240
0.569818 0.554620 0.681453
0.225559 0.592889 0.660883
0.239200 0.594324 0.663874
0.274479 0.594171 0.668971
0.328374 0.595941 0.679896
0.411139 0.607111 0.697932
0.418433 0.554009 0.677241
0.492805 0.541680 0.672358
0.575402 0.576349 0.687861
0.254826 0.627527 0.663722
0.262089 0.627527 0.665187
0.290105 0.627558 0.670558
0.338354 0.627680 0.680385
0.400305 0.631159 0.696925
0.463233 0.633845 0.712642
0.494911 0.588373 0.689174
0.585290 0.609796 0.700679
0.324559 0.640558 0.645014
0.329625 0.640589 0.646662
0.347234 0.641230 0.653010
0.377752 0.644038 0.665980
0.416693 0.648249 0.683894
0.459541 0.654139 0.705257
0.492103 0.634607 0.703731
0.588922 0.652583 0.713741
0.379370 0.656703 0.628779
0.382788 0.656764 0.630488
0.396704 0.658473 0.638758
0.421729 0.662837 0.655207
0.452705 0.668360 0.675990
0.484413 0.673701 0.698360
0.492531 0.657588 0.707362
0.608515 0.712001 0.751339
