data/fiter_cube/63078869/1022680/file.cube
# Created by Adobe Lightroom plugin Export LUT (1.17.0)
# www.johnrellis.com/lightroom/exportlut.htm
# Preset: 暗调胶片街拍_09 云集
# Color profile: C:\Program Files (x86)\Common Files\Adobe\Color\Profiles\Recommended\AdobeRGB1998.icc
LUT_3D_SIZE 32
DOMAIN_MIN 0.0 0.0 0.0
DOMAIN_MAX 1.0 1.0 1.0
0.059998 0.075257 0.075654
0.059998 0.075257 0.075654
0.059998 0.075257 0.075654
0.066957 0.075807 0.076112
0.078065 0.076234 0.076814
0.086763 0.077150 0.077790
0.095399 0.078950 0.078370
0.104829 0.081392 0.078798
0.115633 0.083497 0.079194
0.127993 0.086122 0.079377
0.142763 0.089418 0.079286
0.159792 0.093385 0.078920
0.179263 0.098665 0.078370
0.201358 0.105135 0.077272
0.225711 0.112795 0.076814
0.264622 0.125124 0.076051
0.302770 0.137606 0.073182
0.340002 0.150027 0.069306
0.376532 0.162631 0.064027
0.414557 0.175753 0.055299
0.453040 0.188998 0.037293
0.490974 0.201968 0.015717
0.526238 0.213809 0.000000
0.558251 0.224338 0.000000
0.586694 0.233616 0.000000
0.612055 0.241825 0.000000
0.635035 0.249424 0.000000
0.655970 0.256779 0.000000
0.676143 0.264195 0.000000
0.696834 0.272374 0.019654
0.719905 0.281987 0.064027
0.748959 0.294102 0.090333
0.059998 0.075257 0.075654
0.059998 0.075257 0.075654
0.059998 0.075257 0.075654
0.066957 0.075807 0.076112
0.077974 0.076600 0.077119
0.086671 0.077882 0.077729
0.095308 0.079683 0.078309
0.104463 0.081788 0.079103
0.114809 0.084382 0.079133
0.127291 0.086610 0.079377
0.141573 0.089784 0.079316
0.158206 0.093874 0.078950
0.177493 0.099001 0.078126
0.199039 0.104982 0.077485
0.223453 0.112734 0.077028
0.259892 0.124178 0.076387
0.295842 0.136019 0.074098
0.331548 0.147982 0.070466
0.367193 0.159976 0.065461
0.404486 0.172915 0.058900
0.442847 0.186221 0.042298
0.480842 0.199130 0.021607
0.516686 0.211185 0.000000
0.549767 0.222049 0.000000
0.579309 0.231632 0.000000
0.605890 0.240238 0.000000
0.629938 0.248203 0.000000
0.651789 0.255680 0.000000
0.672419 0.263218 0.000000
0.693324 0.271244 0.010040
0.716182 0.280705 0.058717
0.744442 0.292515 0.085908
0.059998 0.075257 0.075654
0.059998 0.075257 0.075654
0.059998 0.075257 0.075654
0.067353 0.075746 0.076448
0.078279 0.077241 0.077058
0.086885 0.078889 0.077638
0.095155 0.080751 0.078553
0.104097 0.082551 0.079072
0.114748 0.085023 0.079072
0.126711 0.087709 0.079622
0.140902 0.090547 0.079286
0.157504 0.094392 0.078950
0.176364 0.099641 0.078462
0.197818 0.105653 0.077485
0.222599 0.113283 0.077394
0.257481 0.124758 0.076570
0.292241 0.135866 0.074281
0.326940 0.147494 0.070954
0.362097 0.159365 0.066590
0.399145 0.172183 0.059998
0.437507 0.185306 0.045594
0.475746 0.198276 0.024018
0.511955 0.210544 0.002228
0.545434 0.221622 0.000000
0.575525 0.231266 0.000000
0.602686 0.239994 0.000000
0.627283 0.248051 0.000000
0.649592 0.255680 0.000000
0.670497 0.263127 0.000000
0.691524 0.271275 0.006683
0.714290 0.280552 0.054994
0.742061 0.292058 0.083650
0.060182 0.076326 0.076234
0.060578 0.076600 0.076509
0.060975 0.076905 0.076814
0.068757 0.078370 0.076539
0.078920 0.080323 0.077424
0.087160 0.081605 0.078065
0.095460 0.083009 0.078676
0.104372 0.084779 0.079194
0.114778 0.086580 0.079255
0.126802 0.089235 0.079469
0.140749 0.092378 0.079133
0.157137 0.096468 0.079072
0.175784 0.101381 0.078309
0.196780 0.107240 0.077729
0.222538 0.115297 0.077790
0.255467 0.125917 0.076936
0.288701 0.136751 0.074952
0.322118 0.147860 0.071626
0.355810 0.159091 0.067475
0.391547 0.171572 0.061555
0.428931 0.184421 0.049134
0.466896 0.197299 0.029267
0.504021 0.209751 0.007233
0.539300 0.221439 0.000000
0.571527 0.231968 0.000000
0.600519 0.241184 0.000000
0.626337 0.249668 0.000000
0.649287 0.257206 0.000000
0.670314 0.264714 0.000000
0.691218 0.272709 0.006409
0.713588 0.281743 0.055329
0.740627 0.292943 0.083253
0.061860 0.079927 0.079164
0.062257 0.080201 0.079469
0.062715 0.080140 0.079805
0.066102 0.082429 0.078553
0.079072 0.084291 0.077424
0.087678 0.085115 0.078065
0.095644 0.085878 0.079072
0.104585 0.087556 0.079255
0.114687 0.089357 0.079652
0.126497 0.091951 0.079530
0.140261 0.095033 0.079530
0.156405 0.099092 0.078828
0.174655 0.104036 0.078431
0.195315 0.109865 0.078492
0.222324 0.118227 0.078401
0.253819 0.128511 0.077729
0.286534 0.139040 0.075563
0.319738 0.150149 0.072602
0.353491 0.161563 0.068116
0.388922 0.173678 0.062043
0.425635 0.186404 0.051270
0.463203 0.198978 0.031678
0.500237 0.211612 0.009705
0.535912 0.223453 0.000000
0.568688 0.233921 0.000000
0.598352 0.243412 0.000000
0.624537 0.251774 0.000000
0.647730 0.259342 0.000000
0.668849 0.266758 0.000000
0.689723 0.274540 0.005921
0.712032 0.283360 0.052796
0.738674 0.294347 0.082185
0.063844 0.083925 0.082246
0.064240 0.084199 0.082521
0.064607 0.084138 0.083131
0.065064 0.085695 0.082094
0.074495 0.088289 0.080415
0.087160 0.090120 0.078614
0.096681 0.089998 0.078981
0.105470 0.091279 0.079500
0.115480 0.093019 0.079927
0.127260 0.095491 0.079469
0.141085 0.098665 0.079744
0.157076 0.102815 0.079377
0.175204 0.107790 0.079255
0.195743 0.113619 0.079622
0.224094 0.122652 0.079255
0.254643 0.132784 0.078309
0.286809 0.143282 0.076143
0.320073 0.154330 0.072816
0.354070 0.165988 0.068513
0.389715 0.178042 0.062776
0.427039 0.190951 0.050324
0.465187 0.204013 0.030304
0.558068 0.236790 0.000000
0.586938 0.245945 0.000000
0.611994 0.253758 0.000000
0.633875 0.260624 0.000000
0.653376 0.266941 0.000000
0.671626 0.273167 0.000000
0.689998 0.279973 0.023804
0.709712 0.287663 0.062226
0.732662 0.297063 0.084565
0.762142 0.309209 0.108003
0.067018 0.089052 0.086549
0.066865 0.089357 0.086793
0.067353 0.088991 0.087098
0.067597 0.090150 0.087007
0.071687 0.092988 0.084962
0.083101 0.094362 0.083040
0.097078 0.096773 0.079896
0.108675 0.097719 0.080049
0.120089 0.099214 0.080049
0.132509 0.102022 0.080476
0.147189 0.105592 0.080598
0.163973 0.110201 0.080964
0.183108 0.115389 0.080964
0.208286 0.123415 0.080842
0.238865 0.133364 0.079866
0.270115 0.143526 0.078096
0.302556 0.154391 0.075380
0.335943 0.165682 0.071473
0.370886 0.177523 0.066255
0.408911 0.190921 0.058900
0.449928 0.205112 0.040375
0.492927 0.219821 0.014527
0.534447 0.233677 0.000000
0.571618 0.245640 0.000000
0.602960 0.255650 0.000000
0.628290 0.263523 0.000000
0.649470 0.270115 0.000000
0.668360 0.276493 0.000000
0.687007 0.283024 0.021332
0.706447 0.290379 0.060243
0.728817 0.299382 0.082612
0.757290 0.310918 0.105470
0.069490 0.092775 0.090120
0.069398 0.092775 0.090394
0.069825 0.092714 0.090669
0.070161 0.092958 0.090913
0.071046 0.095735 0.088746
0.078401 0.098726 0.086854
0.090822 0.100038 0.085267
0.105989 0.103395 0.081697
0.119478 0.105684 0.082185
0.133608 0.107454 0.081971
0.148074 0.111330 0.082338
0.164950 0.115602 0.082399
0.184848 0.121523 0.082521
0.211795 0.130068 0.081788
0.240177 0.139620 0.080964
0.269932 0.149447 0.078737
0.300969 0.159731 0.076265
0.333349 0.170596 0.072206
0.367620 0.182559 0.067109
0.404974 0.195377 0.059785
0.445350 0.209659 0.042878
0.487678 0.224277 0.018738
0.529046 0.238102 0.000000
0.566369 0.250126 0.000000
0.598169 0.260014 0.000000
0.624140 0.267887 0.000000
0.645869 0.274479 0.000000
0.665217 0.280674 0.000000
0.684077 0.286900 0.018738
0.703517 0.294041 0.059327
0.725582 0.302831 0.081514
0.753292 0.314031 0.104738
0.072480 0.096803 0.094026
0.072480 0.096803 0.094026
0.072389 0.096803 0.094301
0.073213 0.096407 0.094820
0.072358 0.098726 0.092836
0.076661 0.101411 0.091951
0.086610 0.104555 0.090333
0.098817 0.106844 0.088960
0.116396 0.111208 0.085023
0.132601 0.114809 0.084840
0.149935 0.117800 0.084230
0.167178 0.122499 0.084169
0.190768 0.130129 0.083711
0.216587 0.138491 0.082948
0.243931 0.147494 0.081514
0.272465 0.156985 0.079347
0.302770 0.167269 0.076478
0.334508 0.178042 0.072419
0.368200 0.189731 0.067353
0.404944 0.202548 0.059998
0.444800 0.216678 0.044495
0.486458 0.230961 0.018585
0.527153 0.244419 0.000000
0.564141 0.256443 0.000000
0.595911 0.266239 0.000000
0.621973 0.273869 0.000000
0.643946 0.280369 0.000000
0.663416 0.286168 0.000000
0.682185 0.292241 0.020447
0.701472 0.299046 0.059785
0.723171 0.307347 0.081819
0.750118 0.318090 0.104585
0.074983 0.100404 0.097780
0.075410 0.100343 0.097780
0.075349 0.100343 0.098024
0.075715 0.100313 0.098268
0.075196 0.101411 0.097688
0.076661 0.104372 0.095888
0.083253 0.107301 0.094942
0.094270 0.110231 0.093629
0.108736 0.114321 0.091707
0.128450 0.120272 0.087831
0.148135 0.125612 0.087129
0.171420 0.131380 0.085969
0.195346 0.138735 0.085145
0.220401 0.147036 0.084016
0.247684 0.156283 0.082399
0.276982 0.166232 0.079957
0.307927 0.176974 0.076692
0.340246 0.188174 0.072175
0.374060 0.199954 0.066712
0.409949 0.212558 0.059571
0.448035 0.225895 0.043275
0.487160 0.239292 0.019318
0.525444 0.251926 0.000000
0.560540 0.262974 0.000000
0.591608 0.272404 0.000000
0.617975 0.279973 0.000000
0.640620 0.286320 0.000000
0.660792 0.292210 0.000000
0.680140 0.298131 0.021485
0.699886 0.304967 0.060792
0.721859 0.313329 0.083864
0.749172 0.324071 0.107546
0.077302 0.104372 0.101076
0.077760 0.104067 0.101076
0.077699 0.104067 0.101320
0.078035 0.104005 0.101564
0.078004 0.104280 0.101534
0.077852 0.107301 0.099580
0.082033 0.110445 0.098726
0.090394 0.114046 0.097688
0.103334 0.116548 0.096864
0.120546 0.123110 0.094331
0.145235 0.132113 0.090364
0.170687 0.140749 0.088716
0.197024 0.148043 0.086793
0.224857 0.156558 0.085054
0.251713 0.165866 0.083009
0.280644 0.175937 0.080415
0.311131 0.186679 0.077028
0.342901 0.197726 0.072419
0.376104 0.209415 0.066865
0.411627 0.221927 0.059602
0.448981 0.235050 0.042206
0.487678 0.248234 0.019196
0.525658 0.260868 0.000000
0.560479 0.271733 0.000000
0.591119 0.280827 0.000000
0.617121 0.287999 0.000000
0.639521 0.293980 0.000000
0.659449 0.299443 0.000000
0.678584 0.305119 0.024567
0.698146 0.311498 0.062684
0.719875 0.319493 0.085634
0.746700 0.330022 0.108797
0.079805 0.108370 0.104677
0.079805 0.108370 0.104677
0.080201 0.108064 0.104921
0.080262 0.107820 0.104952
0.080629 0.107515 0.105196
0.080079 0.110018 0.103853
0.081941 0.113313 0.102571
0.088167 0.117281 0.101595
0.099641 0.121859 0.100374
0.115297 0.125612 0.100282
0.137667 0.135714 0.097078
0.166690 0.147433 0.092103
0.220279 0.174411 0.089448
0.257237 0.187076 0.085756
0.295872 0.199802 0.080446
0.327276 0.210880 0.076173
0.358862 0.221592 0.071290
0.390478 0.232059 0.065156
0.422675 0.242802 0.057282
0.456336 0.253635 0.041077
0.490791 0.264744 0.019837
0.524773 0.275395 0.000946
0.556451 0.284611 0.000000
0.585290 0.292576 0.000000
0.610529 0.299016 0.000000
0.632410 0.304234 0.000000
0.651606 0.308873 0.000000
0.669368 0.313207 0.027008
0.687098 0.318151 0.059754
0.705898 0.324224 0.079988
0.727504 0.332036 0.100465
0.755215 0.342870 0.122713
0.083040 0.113649 0.109316
0.083101 0.113436 0.109346
0.083131 0.113191 0.109377
0.083284 0.112734 0.109194
0.083314 0.112245 0.109438
0.083223 0.113649 0.108675
0.083345 0.117037 0.106813
0.088075 0.121645 0.106508
0.097749 0.127230 0.105745
0.113497 0.134218 0.104799
0.133608 0.140658 0.104372
0.163149 0.155154 0.100130
0.201938 0.173281 0.093904
0.242649 0.191012 0.089418
0.283635 0.206455 0.083955
0.326390 0.220859 0.077150
0.359258 0.232334 0.071687
0.390600 0.242771 0.065858
0.422278 0.253147 0.058045
0.455146 0.263798 0.042267
0.488899 0.274601 0.022522
0.522362 0.284977 0.002930
0.553674 0.294041 0.000000
0.582269 0.301610 0.000000
0.607477 0.307836 0.000000
0.629419 0.312840 0.000000
0.648798 0.317174 0.000977
0.666651 0.321233 0.029236
0.684413 0.325902 0.061189
0.703243 0.331609 0.081147
0.724697 0.339117 0.101900
0.752010 0.349706 0.124544
0.085573 0.117678 0.112795
0.085603 0.117464 0.112825
0.085603 0.117464 0.112825
0.085695 0.117006 0.112856
0.085756 0.116793 0.112886
0.086000 0.116976 0.113069
0.085512 0.120912 0.111666
0.088258 0.125368 0.110567
0.095674 0.130831 0.110079
0.108309 0.137514 0.109316
0.126619 0.145022 0.108370
0.151186 0.154818 0.106996
0.185489 0.172274 0.102266
0.228672 0.193515 0.094087
0.272099 0.212650 0.088380
0.313909 0.228550 0.081544
0.356298 0.242741 0.073335
0.391150 0.254032 0.066011
0.422522 0.264347 0.058778
0.455055 0.274907 0.043153
0.488533 0.285527 0.022126
0.521660 0.295781 0.003479
0.552667 0.304479 0.000000
0.581140 0.312108 0.000000
0.606256 0.317998 0.000000
0.628168 0.322759 0.000000
0.647547 0.326696 0.006653
0.665431 0.330449 0.036286
0.683192 0.334813 0.065400
0.701961 0.340337 0.084749
0.723354 0.347784 0.105806
0.750668 0.358221 0.128878
0.088289 0.123323 0.117403
0.088319 0.123110 0.117403
0.088350 0.122896 0.117433
0.088411 0.122683 0.117433
0.088594 0.122072 0.117281
0.088502 0.121035 0.117189
0.088380 0.124178 0.116304
0.088899 0.128542 0.114473
0.094240 0.134066 0.114229
0.104250 0.140902 0.113527
0.120485 0.149050 0.112856
0.142184 0.157168 0.112245
0.171511 0.171115 0.109926
0.210300 0.191623 0.103609
0.257633 0.215579 0.093690
0.302342 0.235508 0.086152
0.344518 0.251438 0.078096
0.386694 0.265354 0.068544
0.424842 0.277195 0.058381
0.456672 0.287480 0.042420
0.489296 0.297642 0.022950
0.521721 0.307530 0.003601
0.552178 0.315892 0.000000
0.580285 0.323064 0.000000
0.605341 0.328832 0.000000
0.627527 0.333440 0.000000
0.647364 0.337377 0.016449
0.665797 0.341314 0.049470
0.684230 0.345769 0.072877
0.703731 0.351568 0.093507
0.726223 0.359564 0.115450
0.755184 0.370947 0.140169
0.091524 0.128603 0.121981
0.091524 0.128603 0.121981
0.091554 0.128420 0.121981
0.091279 0.128054 0.122042
0.091218 0.127291 0.121706
0.091402 0.126467 0.121767
0.091249 0.127687 0.121279
0.091218 0.132540 0.119692
0.094331 0.138308 0.118685
0.102449 0.145083 0.118410
0.115969 0.153353 0.117800
0.135958 0.163149 0.116884
0.160128 0.171237 0.116640
0.193881 0.189151 0.112428
0.235813 0.211734 0.104768
0.285100 0.236790 0.092439
0.330541 0.257115 0.083650
0.373693 0.273533 0.074342
0.417395 0.288396 0.062989
0.460731 0.301701 0.042237
0.493782 0.312322 0.021851
0.526116 0.321965 0.005066
0.556298 0.330236 0.000000
0.583948 0.336919 0.000000
0.608484 0.342260 0.000000
0.630243 0.346441 0.008545
0.649683 0.350011 0.034821
0.667933 0.353582 0.064332
0.686152 0.357855 0.082918
0.705470 0.363378 0.102663
0.727749 0.371099 0.124239
0.756466 0.382330 0.148898
0.094209 0.133883 0.126528
0.093935 0.133913 0.126345
0.094026 0.133730 0.126162
0.093904 0.132998 0.126070
0.094118 0.132235 0.125948
0.093751 0.131319 0.125643
0.093660 0.130770 0.125338
0.093507 0.135317 0.124392
0.094606 0.140993 0.122316
0.100618 0.147677 0.122286
0.111696 0.155917 0.122133
0.128542 0.165591 0.121340
0.151949 0.177218 0.120333
0.179202 0.185702 0.120302
0.217258 0.208225 0.114412
0.262425 0.232975 0.105196
0.313573 0.259281 0.091127
0.359960 0.279942 0.080568
0.404425 0.297093 0.069398
0.449195 0.312200 0.054841
0.494179 0.325566 0.024872
0.527276 0.335058 0.006989
0.556939 0.342931 0.000000
0.584375 0.349493 0.000000
0.608728 0.354559 0.000275
0.630426 0.358526 0.018738
0.649866 0.361883 0.049622
0.668208 0.365270 0.071473
0.686519 0.369421 0.090242
0.705989 0.374945 0.110719
0.728756 0.382879 0.132753
0.758114 0.394598 0.158175
0.096986 0.139590 0.130831
0.096956 0.139406 0.131014
0.099153 0.143740 0.134585
0.099123 0.142916 0.134310
0.098878 0.141909 0.133883
0.098848 0.140383 0.133181
0.098512 0.138857 0.132448
0.097963 0.141909 0.131838
0.098146 0.148013 0.130220
0.102449 0.155459 0.129213
0.111757 0.164096 0.129366
0.127047 0.174777 0.129213
0.149020 0.187045 0.128176
0.177005 0.200168 0.126497
0.210452 0.213382 0.125856
0.254856 0.239902 0.117800
0.305364 0.268162 0.105501
0.359503 0.295750 0.087526
0.406897 0.316197 0.074800
0.452094 0.332616 0.061433
0.495827 0.346075 0.037140
0.537713 0.356512 0.013245
0.568994 0.363012 0.004211
0.593622 0.367742 0.008179
0.615229 0.371069 0.019593
0.634546 0.373419 0.043915
0.652186 0.375525 0.064546
0.669429 0.378027 0.080934
0.687129 0.381628 0.098665
0.706477 0.386908 0.118441
0.729274 0.394812 0.141268
0.758724 0.406561 0.166903
0.100282 0.146609 0.136660
0.100710 0.146883 0.136965
0.100740 0.147372 0.137423
0.101289 0.147311 0.137575
0.101228 0.146487 0.137484
0.100801 0.145205 0.136965
0.100557 0.143374 0.136263
0.100130 0.143801 0.135409
0.100343 0.149783 0.134707
0.101717 0.157137 0.132601
0.108919 0.165591 0.132937
0.121401 0.175845 0.133089
0.139834 0.187930 0.132753
0.165072 0.201907 0.131533
0.195560 0.215274 0.130220
0.233005 0.232425 0.127840
0.280247 0.260960 0.118563
0.332433 0.290105 0.105043
0.387488 0.318151 0.084810
0.435615 0.338720 0.070649
0.481056 0.354986 0.055940
0.524804 0.368078 0.030640
0.564111 0.376806 0.014984
0.594781 0.381598 0.018158
0.616266 0.384588 0.035401
0.635492 0.386816 0.058869
0.653101 0.388617 0.073640
0.670253 0.390906 0.089845
0.687953 0.394354 0.107881
0.707240 0.399573 0.127932
0.730251 0.407568 0.150851
0.760006 0.419593 0.177340
0.102998 0.151888 0.140902
0.103334 0.152316 0.141360
0.103487 0.152621 0.141634
0.103456 0.152438 0.141817
0.103731 0.151644 0.141573
0.103365 0.150240 0.141054
0.102937 0.148348 0.140078
0.102388 0.146151 0.138827
0.102541 0.151522 0.138827
0.102632 0.158724 0.137179
0.107271 0.167391 0.136538
0.117250 0.177493 0.136904
0.132753 0.189242 0.137026
0.154726 0.202976 0.136690
0.183841 0.218814 0.135012
0.216800 0.232670 0.134432
0.258854 0.254612 0.130220
0.308904 0.285069 0.119295
0.363195 0.315373 0.103944
0.419409 0.343755 0.081605
0.467567 0.363592 0.066560
0.512413 0.379034 0.050690
0.553765 0.390173 0.033631
0.589349 0.396582 0.034638
0.617975 0.398932 0.052552
0.636683 0.400641 0.067964
0.653864 0.402014 0.082429
0.670771 0.403998 0.098604
0.688289 0.407111 0.116579
0.707454 0.412207 0.136965
0.730495 0.420142 0.159976
0.760311 0.432349 0.186862
0.105562 0.157717 0.145541
0.105898 0.158114 0.145968
0.106020 0.158419 0.146273
0.106111 0.158083 0.146273
0.106081 0.157351 0.146059
0.105806 0.155856 0.145418
0.105501 0.153750 0.144350
0.104799 0.151308 0.143008
0.104494 0.153109 0.142519
0.104891 0.160159 0.141878
0.106264 0.168795 0.139864
0.114260 0.178744 0.140597
0.127077 0.190219 0.141146
0.146059 0.203861 0.141238
0.171664 0.219852 0.140597
0.204898 0.238163 0.138766
0.241825 0.253422 0.139010
0.290043 0.281895 0.132815
0.345220 0.316106 0.120638
0.404028 0.349310 0.103426
0.463020 0.378515 0.078676
0.511742 0.397650 0.064668
0.553765 0.410224 0.059846
0.590570 0.418067 0.063935
0.620722 0.421118 0.075288
0.645441 0.421088 0.090974
0.662806 0.421973 0.106691
0.679377 0.423865 0.122744
0.696925 0.427222 0.141787
0.716915 0.432898 0.162478
0.741695 0.442145 0.186984
0.773770 0.456275 0.216373
0.109712 0.166659 0.152499
0.109957 0.166629 0.152651
0.109743 0.166384 0.152682
0.109682 0.165805 0.152438
0.109377 0.164553 0.151827
0.109071 0.162722 0.150820
0.108400 0.160464 0.149538
0.107820 0.157870 0.148104
0.107118 0.155825 0.146639
0.107424 0.162875 0.147066
0.108156 0.171939 0.145724
0.113069 0.182376 0.145480
0.124117 0.194247 0.146548
0.140688 0.208499 0.147219
0.164096 0.224857 0.147219
0.195010 0.243931 0.146548
0.233524 0.265507 0.144411
0.275212 0.281926 0.145480
0.329137 0.316716 0.136904
0.387213 0.352300 0.123110
0.446296 0.384344 0.104433
0.502892 0.410071 0.078889
0.546075 0.424292 0.069734
0.581720 0.432136 0.072450
0.613092 0.436439 0.082612
0.639094 0.437537 0.097658
0.661738 0.437110 0.115846
0.680232 0.438117 0.134188
0.697749 0.441352 0.152865
0.717739 0.447120 0.174411
0.742641 0.456611 0.199283
0.774838 0.471290 0.229648
0.112673 0.173465 0.157870
0.112703 0.173312 0.157870
0.112734 0.173190 0.157900
0.112703 0.172641 0.157656
0.112490 0.171176 0.156954
0.111757 0.169192 0.155856
0.111208 0.166751 0.154513
0.110384 0.163699 0.152773
0.109346 0.160494 0.150851
0.109590 0.164004 0.150698
0.110109 0.172702 0.150454
0.111666 0.183291 0.148623
0.120607 0.195315 0.150149
0.134646 0.209567 0.151461
0.155123 0.226017 0.152132
0.182956 0.245274 0.152316
0.218784 0.267765 0.151369
0.261021 0.290837 0.149966
0.309178 0.311742 0.151064
0.367437 0.350805 0.140505
0.428077 0.387335 0.126406
0.487221 0.417853 0.107729
0.539910 0.439490 0.085145
0.578363 0.449592 0.083040
0.602777 0.449134 0.086854
0.630426 0.451698 0.101350
0.654231 0.452094 0.119387
0.676295 0.452277 0.139651
0.696773 0.454200 0.161227
0.716701 0.459937 0.183017
0.741695 0.469795 0.209354
0.774014 0.485176 0.240848
0.116823 0.183474 0.165621
0.117159 0.183688 0.165866
0.117037 0.183444 0.165743
0.116915 0.182437 0.165316
0.116274 0.180606 0.164157
0.115755 0.178347 0.162905
0.114839 0.175296 0.161013
0.113771 0.171939 0.158968
0.112673 0.167941 0.156527
0.111849 0.166110 0.154696
0.112337 0.174502 0.155520
0.113191 0.185031 0.154330
0.118105 0.197208 0.153964
0.129885 0.211093 0.155581
0.147402 0.227085 0.156802
0.171847 0.245792 0.157321
0.203708 0.267369 0.157076
0.244083 0.292424 0.155886
0.289708 0.316442 0.155398
0.342412 0.342168 0.155428
0.403662 0.382788 0.144686
0.464942 0.418372 0.130343
0.520775 0.445136 0.113313
0.567315 0.461128 0.094759
0.599725 0.466743 0.096864
0.624659 0.467536 0.109468
0.648951 0.468482 0.127138
0.671168 0.468940 0.147585
0.693355 0.470375 0.170199
0.717372 0.474739 0.195956
0.742367 0.484840 0.222507
0.774807 0.500816 0.255192
0.120150 0.191409 0.171603
0.120119 0.191409 0.171725
0.120211 0.191165 0.171603
0.119905 0.190219 0.171054
0.119509 0.188327 0.170108
0.118715 0.185855 0.168521
0.117861 0.182834 0.166720
0.116823 0.179110 0.164431
0.115419 0.174960 0.161837
0.114107 0.170535 0.158938
0.114168 0.175692 0.159457
0.115328 0.186191 0.159823
0.116518 0.199100 0.157778
0.126589 0.213321 0.160037
0.141817 0.230137 0.161959
0.163851 0.249577 0.163516
0.193729 0.272129 0.164279
0.231785 0.298314 0.164401
0.278965 0.328191 0.163302
0.329717 0.354101 0.164706
0.387915 0.384680 0.164004
0.450996 0.424933 0.153628
0.509728 0.456428 0.141238
0.559136 0.476448 0.128634
0.598047 0.485939 0.115755
0.624720 0.487678 0.122835
0.645594 0.486275 0.138125
0.668360 0.487373 0.159854
0.690974 0.489662 0.184298
0.715938 0.494820 0.211887
0.746639 0.504997 0.244388
0.781369 0.522148 0.280064
0.124025 0.201480 0.179019
0.124239 0.201450 0.179141
0.124025 0.200931 0.178836
0.123629 0.199710 0.178225
0.123018 0.197513 0.176852
0.122194 0.194705 0.175143
0.121187 0.191257 0.172976
0.119875 0.187411 0.170565
0.118532 0.182864 0.167758
0.117037 0.178042 0.164645
0.116060 0.176486 0.162661
0.116976 0.187015 0.164340
0.118563 0.199893 0.164248
0.123690 0.214939 0.163882
0.136812 0.232029 0.166537
0.156435 0.251865 0.168826
0.183352 0.274998 0.170718
0.218723 0.301671 0.171908
0.262974 0.332097 0.171969
0.316442 0.366064 0.171115
0.370977 0.391974 0.175418
0.432654 0.425971 0.174166
0.494392 0.463020 0.165499
0.547265 0.488106 0.156893
0.589197 0.501396 0.148440
0.621668 0.505821 0.140047
0.644526 0.505211 0.149844
0.663386 0.503319 0.167117
0.685786 0.505699 0.191897
0.710719 0.511315 0.220798
0.741207 0.521935 0.254002
0.779263 0.539147 0.293431
0.127749 0.211826 0.186831
0.127779 0.211704 0.186831
0.127749 0.211307 0.186648
0.127474 0.209934 0.185855
0.126680 0.207889 0.184543
0.126101 0.205234 0.182925
0.125124 0.201999 0.181003
0.124117 0.198154 0.178714
0.122805 0.194003 0.176059
0.121462 0.189151 0.173159
0.119875 0.183810 0.169589
0.120424 0.191623 0.171298
0.122316 0.206180 0.173526
0.124605 0.223484 0.172549
0.136172 0.243259 0.175784
0.154879 0.265995 0.179629
0.181735 0.292210 0.183017
0.217197 0.322057 0.186007
0.261753 0.355810 0.188327
0.315862 0.392828 0.189883
0.377203 0.430243 0.190921
0.437049 0.455299 0.201572
0.499397 0.488777 0.202914
0.553033 0.515953 0.200443
0.594507 0.530114 0.198550
0.626398 0.534966 0.195743
0.652674 0.534600 0.191196
0.673060 0.533013 0.203342
0.691188 0.532280 0.223819
0.716457 0.538811 0.253666
0.749416 0.551904 0.289250
0.790066 0.571649 0.331243
0.135012 0.231449 0.201511
0.135103 0.231235 0.201419
0.134829 0.230503 0.200961
0.134310 0.228641 0.199771
0.133455 0.226108 0.198215
0.132601 0.222660 0.196078
0.131411 0.218448 0.193454
0.130007 0.213748 0.190463
0.128389 0.208530 0.187015
0.126497 0.202609 0.183291
0.124605 0.196109 0.178897
0.123079 0.194217 0.176547
0.124910 0.208713 0.179995
0.127260 0.226230 0.181155
