data/fiter_cube/63078869/1022680/file.cube
# Created by Adobe Lightroom plugin Export LUT (1.17.0)
# www.johnrellis.com/lightroom/exportlut.htm
# Preset: 暗调胶片街拍_09 云集
# Color profile: C:\Program Files (x86)\Common Files\Adobe\Color\Profiles\Recommended\AdobeRGB1998.icc
LUT_3D_SIZE 5
DOMAIN_MIN 0.000000 0.000000 0.000000
DOMAIN_MAX 0.903226 0.903226 0.903226
0.059998 0.075257 0.075654
0.104829 0.081392 0.078798
0.225711 0.112795 0.076814
0.490974 0.201968 0.015717
0.676143 0.264195 0.000000
0.069490 0.092775 0.090120
0.105989 0.103395 0.081697
0.240177 0.139620 0.080964
0.487678 0.224277 0.018738
0.684077 0.286900 0.018738
0.088289 0.123323 0.117403
0.088899 0.128542 0.114473
0.257633 0.215579 0.093690
0.521721 0.307530 0.003601
0.684230 0.345769 0.072877
0.109712 0.166659 0.152499
0.107820 0.157870 0.148104
0.164096 0.224857 0.147219
0.502892 0.410071 0.078889
0.697749 0.441352 0.152865
0.141115 0.248631 0.214206
0.135622 0.229831 0.202396
0.130159 0.241886 0.184360
0.402502 0.484474 0.219699
0.693202 0.574121 0.264530
0.065187 0.091524 0.097658
0.094820 0.096529 0.106447
0.214328 0.118746 0.105531
0.440925 0.186130 0.093507
0.660304 0.258518 0.088289
0.078035 0.104768 0.101015
0.103090 0.113344 0.108248
0.223575 0.140169 0.108370
0.448676 0.210025 0.093446
0.663813 0.279118 0.095460
0.099702 0.138369 0.131746
0.099855 0.136934 0.131350
0.235966 0.203891 0.119478
0.486061 0.290105 0.095705
0.676081 0.345220 0.127138
0.121584 0.185031 0.169192
0.119295 0.175021 0.164462
0.166690 0.232792 0.163882
0.497322 0.409705 0.128389
0.692409 0.445899 0.199100
0.153719 0.273625 0.234958
0.147280 0.252262 0.221317
0.138399 0.246921 0.200626
0.402747 0.495766 0.247166
0.693324 0.584497 0.312718
0.081636 0.137514 0.155856
0.098695 0.134401 0.162234
0.196933 0.142977 0.192447
0.425513 0.173495 0.178988
0.651972 0.265782 0.217929
0.094606 0.154299 0.163333
0.115877 0.158633 0.173739
0.213931 0.154726 0.189120
0.431769 0.203616 0.183688
0.656245 0.287144 0.223697
0.118990 0.183810 0.163668
0.137026 0.192294 0.180117
0.243107 0.231662 0.198184
0.470619 0.294133 0.204318
0.665888 0.356603 0.248783
0.157015 0.252445 0.221042
0.167300 0.250126 0.232639
0.169650 0.250980 0.216678
0.491890 0.426093 0.247776
0.677607 0.467323 0.319951
0.209934 0.375097 0.323400
0.208621 0.359808 0.317967
0.165896 0.265873 0.243961
0.349889 0.475776 0.296605
0.676234 0.599054 0.407111
0.083955 0.264897 0.329015
0.128573 0.265995 0.340307
0.201083 0.218296 0.322606
0.385443 0.248356 0.384375
0.635920 0.292332 0.402899
0.108614 0.282475 0.332647
0.146120 0.284672 0.343694
0.207187 0.238499 0.327489
0.392859 0.258793 0.379034
0.631647 0.320684 0.403601
0.129397 0.320714 0.332464
0.161532 0.323217 0.340826
0.234501 0.315465 0.359564
0.423072 0.300603 0.351843
0.631250 0.419257 0.440620
0.202060 0.373571 0.318975
0.221958 0.378912 0.330419
0.269657 0.387060 0.382818
0.472511 0.474556 0.434028
0.649531 0.517449 0.492561
0.288090 0.530785 0.447181
0.296635 0.526757 0.457984
0.313939 0.503685 0.477485
0.247227 0.409094 0.352239
0.648066 0.644800 0.575769
0.213840 0.535943 0.666712
0.268864 0.541619 0.673762
0.323552 0.507073 0.666255
0.413733 0.427283 0.632624
0.564446 0.529656 0.675563
0.217533 0.544060 0.662867
0.268956 0.548821 0.669886
0.344182 0.531548 0.669398
0.413642 0.441382 0.633478
0.565545 0.535882 0.675990
0.216312 0.577661 0.660426
0.254337 0.577569 0.665339
0.378088 0.589960 0.687892
0.419471 0.498329 0.650935
0.572045 0.563867 0.683772
0.277958 0.633539 0.662379
0.301732 0.635157 0.669215
0.378668 0.642267 0.693843
0.470344 0.635187 0.711727
0.587518 0.616785 0.701839
0.379370 0.656703 0.628779
0.392035 0.657771 0.635859
0.436866 0.665583 0.665370
0.487984 0.672084 0.702632
0.608515 0.712001 0.751339
