data/fiter_cube/65184230/1022648/file.cube
# Created by Adobe Lightroom plugin Export LUT (1.17.0)
# www.johnrellis.com/lightroom/exportlut.htm
# Preset: ins网红旅拍风景人像_07 云集
# Color profile: C:\Program Files (x86)\Common Files\Adobe\Color\Profiles\Recommended\AdobeRGB1998.icc
LUT_3D_SIZE 8
DOMAIN_MIN 0.000000 0.000000 0.000000
DOMAIN_MAX 0.903226 0.903226 0.903226
0.086763 0.123873 0.124544
0.089570 0.123751 0.124514
0.225345 0.112551 0.120150
0.586175 0.000000 0.088136
0.842191 0.000000 0.000000
1.000000 0.000000 0.000000
1.000000 0.000000 0.000000
1.000000 0.207584 0.000000
0.086275 0.123507 0.124025
0.087495 0.124208 0.124117
0.152224 0.133913 0.121065
0.457557 0.030945 0.099794
0.777615 0.000000 0.000000
0.976013 0.000000 0.000000
1.000000 0.000000 0.000000
1.000000 0.235691 0.000000
0.070008 0.167666 0.133028
0.079927 0.176059 0.130892
0.130770 0.167117 0.118166
0.241733 0.177218 0.113741
0.652888 0.178317 0.012604
0.918883 0.141146 0.000000
1.000000 0.294072 0.000000
1.000000 0.447242 0.000000
0.000000 0.342779 0.169650
0.000000 0.353307 0.170535
0.162936 0.434882 0.176394
0.297917 0.341527 0.063691
0.508202 0.319310 0.000000
0.791257 0.367712 0.000000
1.000000 0.458778 0.000000
1.000000 0.586328 0.125246
0.000000 0.618219 0.272007
0.000000 0.626490 0.282261
0.295811 0.660517 0.348516
0.540154 0.728023 0.420233
0.472328 0.512413 0.000000
0.636103 0.431647 0.000000
0.841855 0.487709 0.000000
1.000000 0.656367 0.209293
0.000000 0.785000 0.415198
0.201297 0.803006 0.451759
0.452522 0.812039 0.518486
0.638209 0.840177 0.579278
0.725887 0.843503 0.537682
0.642206 0.666773 0.000000
0.797269 0.584955 0.000000
0.977783 0.686305 0.018921
0.374029 0.909087 0.595209
0.436957 0.911772 0.613764
0.579065 0.910643 0.653681
0.743618 0.918486 0.717922
0.828885 0.938048 0.740414
0.853758 0.922210 0.626581
0.796841 0.795956 0.000000
0.935271 0.746609 0.000000
0.566217 0.987274 0.745785
0.597131 0.985901 0.752377
0.691676 0.983032 0.777005
0.816892 0.981598 0.821683
0.885130 0.978180 0.837095
0.946258 0.982696 0.868528
0.953155 0.975341 0.726955
0.978180 0.928862 0.000000
0.086732 0.123690 0.123598
0.086732 0.123049 0.124056
0.184726 0.119417 0.121035
0.458442 0.000000 0.100649
0.774533 0.000000 0.000000
0.966217 0.000000 0.000000
1.000000 0.000000 0.000000
1.000000 0.123232 0.000000
0.086244 0.123507 0.124208
0.087800 0.124178 0.124300
0.151247 0.132021 0.122042
0.392035 0.114931 0.105318
0.731624 0.000000 0.001617
0.935851 0.000000 0.000000
1.000000 0.000000 0.000000
1.000000 0.157656 0.000000
0.074006 0.157626 0.135195
0.084382 0.165774 0.136416
0.130861 0.165164 0.121157
0.244602 0.176303 0.118746
0.583642 0.186404 0.061860
0.869718 0.132204 0.000000
1.000000 0.211063 0.000000
1.000000 0.380987 0.000000
0.000000 0.305455 0.172732
0.000000 0.322637 0.177462
0.165560 0.390448 0.188388
0.260746 0.298955 0.094179
0.433906 0.278538 0.081514
0.707637 0.318914 0.000000
0.953491 0.386358 0.000000
1.000000 0.522057 0.005829
0.000000 0.591577 0.276951
0.000000 0.596338 0.283391
0.262943 0.625666 0.332860
0.493477 0.683925 0.390845
0.432105 0.469551 0.000000
0.599847 0.404791 0.000000
0.809537 0.457343 0.000000
1.000000 0.617426 0.169863
0.000000 0.759579 0.402014
0.107820 0.764584 0.417609
0.388830 0.777340 0.478187
0.605921 0.810452 0.555047
0.710475 0.825956 0.535973
0.632074 0.653956 0.000000
0.784543 0.571771 0.000000
0.961456 0.659815 0.000000
0.314977 0.886778 0.563500
0.367041 0.884642 0.572168
0.528069 0.887175 0.618128
0.713710 0.901152 0.693446
0.814542 0.927672 0.727962
0.841764 0.912200 0.622705
0.771847 0.774075 0.000000
0.905852 0.712703 0.000000
0.535546 0.979980 0.729549
0.572015 0.979797 0.739162
0.672145 0.978058 0.766110
0.803098 0.978180 0.812833
0.898497 0.980316 0.852781
0.949615 0.983154 0.875242
0.951568 0.974182 0.732601
0.966827 0.920317 0.000000
0.085542 0.122530 0.135836
0.091798 0.122103 0.134737
0.134127 0.119478 0.138247
0.546258 0.000000 0.117311
0.830259 0.000000 0.062074
0.972412 0.000000 0.000000
1.000000 0.000000 0.000000
1.000000 0.221103 0.000000
0.080629 0.127230 0.141970
0.090486 0.126009 0.142214
0.138857 0.126864 0.142153
0.534600 0.000000 0.131868
0.793057 0.000000 0.081697
0.946746 0.000000 0.000000
1.000000 0.000000 0.000000
1.000000 0.258671 0.000000
0.066957 0.160128 0.156558
0.079072 0.163577 0.158114
0.149477 0.172152 0.155642
0.376593 0.195315 0.154116
0.709773 0.191348 0.122194
0.899504 0.202457 0.015442
1.000000 0.266148 0.000000
1.000000 0.400977 0.000000
0.000000 0.292882 0.200656
0.000000 0.312444 0.209842
0.202945 0.366735 0.246647
0.298253 0.315801 0.140871
0.498665 0.313054 0.148745
0.787228 0.370245 0.125154
0.968566 0.426520 0.000000
1.000000 0.546624 0.075685
0.000000 0.555413 0.302373
0.000000 0.568261 0.314733
0.263859 0.605585 0.366491
0.530968 0.671199 0.454749
0.475105 0.490669 0.076722
0.643610 0.429084 0.025483
0.841917 0.494575 0.149142
1.000000 0.627497 0.179538
0.000000 0.742031 0.422614
0.097658 0.747585 0.439246
0.379858 0.759518 0.492653
0.618921 0.783444 0.579828
0.735744 0.817929 0.600244
0.634333 0.642115 0.000000
0.789120 0.569696 0.000000
0.965972 0.675410 0.169986
0.317418 0.882231 0.583612
0.374578 0.881285 0.594110
0.523491 0.881010 0.630365
0.697627 0.890959 0.692561
0.811215 0.918090 0.735561
0.856077 0.913085 0.675807
0.788937 0.779232 0.000000
0.932647 0.736873 0.000000
0.514244 0.977203 0.733608
0.542626 0.975463 0.737545
0.644160 0.972992 0.761074
0.787320 0.975860 0.811337
0.900847 0.976898 0.861021
0.951568 0.982300 0.883696
0.956634 0.975189 0.771572
0.975128 0.924071 0.000000
0.080812 0.122194 0.182895
0.096925 0.121523 0.184512
0.149813 0.118502 0.183200
0.289250 0.097658 0.192447
0.784878 0.000000 0.200412
1.000000 0.000000 0.246494
1.000000 0.000000 0.136538
1.000000 0.161990 0.000000
0.067140 0.129702 0.201297
0.091524 0.129458 0.200565
0.158999 0.128298 0.195315
0.299962 0.117800 0.202090
0.794675 0.000000 0.215030
0.997162 0.000000 0.249516
1.000000 0.164889 0.152651
1.000000 0.218509 0.000000
0.010651 0.172183 0.219669
0.061555 0.173526 0.222446
0.162264 0.178714 0.229343
0.356817 0.191104 0.244907
0.821805 0.224735 0.316564
0.964050 0.340307 0.309545
1.000000 0.417884 0.251957
1.000000 0.405737 0.000000
0.000000 0.292180 0.274998
0.000000 0.297765 0.277226
0.155306 0.317693 0.286473
0.357733 0.335210 0.276188
0.649104 0.397406 0.306065
0.860685 0.453651 0.319066
1.000000 0.515526 0.297948
1.000000 0.561425 0.158755
0.000000 0.511223 0.351354
0.000000 0.513970 0.351781
0.191806 0.549676 0.385779
0.520562 0.613977 0.487037
0.523308 0.500450 0.236667
0.699245 0.484260 0.262028
0.905760 0.578424 0.328435
1.000000 0.675685 0.315465
0.000000 0.721767 0.462806
0.000000 0.737728 0.486458
0.355322 0.746304 0.524743
0.610254 0.768734 0.604150
0.780911 0.824155 0.684871
0.670192 0.649470 0.205112
0.818875 0.595605 0.152377
0.968231 0.711482 0.378729
0.260960 0.865019 0.595941
0.333013 0.867643 0.609522
0.502098 0.873686 0.649409
0.682582 0.887083 0.708034
0.827268 0.912963 0.770260
0.890837 0.925780 0.766567
0.806363 0.780056 0.181247
0.946746 0.747646 0.000000
0.501732 0.975219 0.753780
0.535210 0.975250 0.760525
0.623865 0.973938 0.777096
0.752163 0.973388 0.809323
0.884306 0.973877 0.859525
0.951843 0.980743 0.893187
0.964111 0.976684 0.827634
0.980163 0.925292 0.225071
0.052125 0.124514 0.274235
0.088075 0.123903 0.276524
0.172824 0.118929 0.275486
0.296178 0.092775 0.279759
0.546685 0.000000 0.306706
0.911528 0.000000 0.367498
1.000000 0.222568 0.406897
1.000000 0.490761 0.425849
0.004089 0.135256 0.291936
0.078248 0.135653 0.295323
0.177737 0.132509 0.292790
0.314458 0.110048 0.297795
0.550317 0.049622 0.317144
0.915099 0.000000 0.387732
1.000000 0.328832 0.441749
1.000000 0.507103 0.426337
0.000000 0.182650 0.319280
0.000000 0.184146 0.326726
0.173922 0.188724 0.335637
0.344488 0.189639 0.337835
0.559197 0.215457 0.351019
0.915435 0.288365 0.439490
1.000000 0.536187 0.539635
1.000000 0.548119 0.420691
0.000000 0.289464 0.370977
0.000000 0.292607 0.372686
0.138216 0.307866 0.384619
0.374029 0.338262 0.407996
0.641596 0.400549 0.449104
0.930022 0.567102 0.569207
1.000000 0.631159 0.556756
1.000000 0.634607 0.440040
0.000000 0.473884 0.442329
0.000000 0.480446 0.445594
0.106905 0.497871 0.453925
0.389044 0.522911 0.470832
0.572717 0.514061 0.437507
0.792844 0.584253 0.494759
0.958312 0.660792 0.524010
1.000000 0.720333 0.487709
0.000000 0.653620 0.491127
0.000000 0.656580 0.493629
0.163790 0.661524 0.499367
0.454566 0.686519 0.546532
0.697841 0.733669 0.635462
0.673976 0.626307 0.362921
0.833677 0.634455 0.413489
0.999176 0.760678 0.517266
0.000000 0.826383 0.597101
0.178775 0.826780 0.602777
0.381903 0.831632 0.628565
0.590967 0.846159 0.679438
0.770565 0.875395 0.746944
0.906249 0.924010 0.825071
0.804471 0.763363 0.344182
0.944030 0.745693 0.267735
0.405432 0.954772 0.743343
0.440650 0.954131 0.747402
0.542107 0.953582 0.762631
0.688472 0.962890 0.801389
0.824216 0.967010 0.839048
0.941772 0.974945 0.894072
0.972045 0.977508 0.884428
0.968170 0.913359 0.362860
0.000000 0.133425 0.421851
0.012604 0.132631 0.422919
0.191928 0.124239 0.419287
0.365606 0.082887 0.428931
0.517113 0.000000 0.415595
0.745876 0.118715 0.446082
0.993835 0.309819 0.550225
1.000000 0.435096 0.573846
0.000000 0.146212 0.422187
0.000000 0.145571 0.421881
0.188205 0.140139 0.422919
0.358801 0.113893 0.428260
0.512657 0.059022 0.417304
0.738399 0.165133 0.447852
0.991577 0.341070 0.557275
1.000000 0.460304 0.581353
0.000000 0.200839 0.467842
0.000000 0.201999 0.469917
0.185946 0.203922 0.469490
0.378332 0.201724 0.471199
0.550225 0.202060 0.465339
0.744320 0.302678 0.484382
0.995697 0.462745 0.604791
1.000000 0.564752 0.625147
0.000000 0.304112 0.497810
0.000000 0.304326 0.496132
0.127871 0.314214 0.505760
0.395178 0.349889 0.534936
0.612451 0.384894 0.547997
0.778347 0.480018 0.566064
1.000000 0.615351 0.678584
1.000000 0.732753 0.717800
0.000000 0.454383 0.540826
0.000000 0.458289 0.542687
0.092226 0.471015 0.548425
0.353399 0.492805 0.560204
0.594324 0.526543 0.579583
0.807156 0.609796 0.631922
1.000000 0.754665 0.743252
1.000000 0.798581 0.723690
0.000000 0.634882 0.593256
0.000000 0.642115 0.598444
0.109346 0.651453 0.603449
0.391424 0.663691 0.612390
0.601465 0.673487 0.624659
0.735195 0.664424 0.596460
0.923033 0.754849 0.670405
1.000000 0.825406 0.688502
0.000000 0.805051 0.660487
0.006226 0.808042 0.665095
0.306279 0.809140 0.671168
0.496407 0.812711 0.684718
0.683375 0.831968 0.724544
0.864042 0.880735 0.805814
0.816312 0.758206 0.519127
0.958190 0.793362 0.569024
0.290806 0.935760 0.754513
0.327001 0.934600 0.754879
0.443824 0.934234 0.765011
0.597070 0.940551 0.791135
0.746639 0.949859 0.824125
0.895567 0.963043 0.875517
0.984527 0.980224 0.935943
0.960143 0.904631 0.507469
0.000000 0.150301 0.565759
0.000000 0.149691 0.570245
0.216861 0.140200 0.571130
0.395758 0.103731 0.574151
0.583001 0.000000 0.577691
0.719173 0.000000 0.550317
0.866758 0.306096 0.573541
1.000000 0.472999 0.683894
0.000000 0.162478 0.559594
0.000000 0.162509 0.563317
0.205814 0.155673 0.564691
0.381445 0.129854 0.564904
0.567468 0.031495 0.567071
0.702998 0.087434 0.540642
0.852842 0.302373 0.561456
1.000000 0.463050 0.671229
0.000000 0.217014 0.590021
0.000000 0.217288 0.589837
0.194949 0.216587 0.587793
0.382971 0.211429 0.587335
0.574945 0.202090 0.583978
0.709926 0.239048 0.565087
0.858793 0.398291 0.594079
1.000000 0.545251 0.708553
0.000000 0.307927 0.608911
0.000000 0.307530 0.608667
0.131899 0.314305 0.615473
0.374090 0.331273 0.620813
0.581262 0.349340 0.619348
0.725246 0.396826 0.610559
0.868315 0.519127 0.643244
1.000000 0.641962 0.750851
0.000000 0.437263 0.632288
0.000000 0.435859 0.629725
0.000000 0.435554 0.626062
0.274235 0.438544 0.626459
0.543908 0.475166 0.643214
0.734066 0.517693 0.654170
0.869932 0.610101 0.679133
1.000000 0.740078 0.790097
0.000000 0.603388 0.673732
0.000000 0.604883 0.673854
0.000000 0.610101 0.674556
0.323613 0.618921 0.677607
0.519310 0.626123 0.680964
0.733425 0.657832 0.703151
0.916350 0.749599 0.767117
1.000000 0.876921 0.865019
0.000000 0.775296 0.727871
0.000000 0.777981 0.729976
0.190921 0.780911 0.732082
0.404700 0.785519 0.736934
0.582605 0.788388 0.742397
0.746212 0.798398 0.756710
0.854032 0.786740 0.725856
1.000000 0.878813 0.803220
0.167697 0.913542 0.794369
0.227329 0.913756 0.795621
0.370459 0.918059 0.804623
0.515953 0.920348 0.813321
0.654047 0.923644 0.823453
0.803922 0.936309 0.850614
0.960082 0.963897 0.919219
0.947082 0.890623 0.648371
0.077424 0.189670 0.704494
0.151308 0.189395 0.706325
0.278904 0.180728 0.702663
0.439887 0.163210 0.703059
0.615106 0.135378 0.701167
0.768673 0.102937 0.707546
0.866758 0.271702 0.679500
0.965972 0.465553 0.710170
0.007568 0.201205 0.700374
0.133181 0.201450 0.702205
0.268833 0.195041 0.700069
0.429084 0.180362 0.698756
0.605432 0.159609 0.697169
0.760891 0.139559 0.703059
0.859312 0.278660 0.674342
0.960784 0.465827 0.704860
0.000000 0.247349 0.706020
0.063600 0.248020 0.706447
0.239780 0.244083 0.701778
0.419348 0.246769 0.707881
0.596918 0.242863 0.704341
0.752804 0.246525 0.705379
0.853880 0.343816 0.682826
0.958679 0.505852 0.715602
0.000000 0.316106 0.716640
0.000000 0.320012 0.719295
0.179507 0.328801 0.719844
0.385443 0.337102 0.720607
0.579614 0.348821 0.719509
0.748745 0.374640 0.718837
0.852811 0.443519 0.706477
0.961578 0.574334 0.741390
0.000000 0.428870 0.727657
0.000000 0.429267 0.728634
0.000000 0.420844 0.724086
0.256809 0.421729 0.730495
0.521996 0.449104 0.732723
0.722255 0.478981 0.731289
0.843198 0.537438 0.728450
0.965301 0.654719 0.773495
0.000000 0.590509 0.763485
0.000000 0.587671 0.761074
0.000000 0.580438 0.755428
0.191867 0.570581 0.749447
0.391577 0.554894 0.742763
0.679072 0.596277 0.763485
0.865568 0.659236 0.789853
0.974060 0.754055 0.819242
0.000000 0.774868 0.815366
0.000000 0.773831 0.814359
0.021576 0.771420 0.812131
0.318029 0.770779 0.811887
0.493996 0.768215 0.812131
0.654139 0.761379 0.813870
0.840879 0.767758 0.824735
0.988098 0.861082 0.877745
0.016083 0.918059 0.864988
0.137118 0.916960 0.864225
0.279484 0.915435 0.863981
0.430701 0.914794 0.866178
0.574151 0.913024 0.868894
0.711574 0.911315 0.872831
0.854063 0.913207 0.881437
0.956573 0.905425 0.861295
