data/fiter_cube/65184230/1022648/file.cube
# Created by Adobe Lightroom plugin Export LUT (1.17.0)
# www.johnrellis.com/lightroom/exportlut.htm
# Preset: ins网红旅拍风景人像_07 云集
# Color profile: C:\Program Files (x86)\Common Files\Adobe\Color\Profiles\Recommended\AdobeRGB1998.icc
LUT_3D_SIZE 5
DOMAIN_MIN 0.000000 0.000000 0.000000
DOMAIN_MAX 0.903226 0.903226 0.903226
0.086763 0.123873 0.124544
0.168887 0.120546 0.122194
0.738094 0.000000 0.041749
1.000000 0.000000 0.000000
1.000000 0.207584 0.000000
0.077943 0.147707 0.128786
0.113649 0.149691 0.120607
0.500053 0.158175 0.085267
0.989807 0.000000 0.000000
1.000000 0.418128 0.000000
0.000000 0.495308 0.214054
0.159670 0.536522 0.247654
0.394934 0.438087 0.000000
0.737606 0.400214 0.000000
1.000000 0.627161 0.172335
0.160769 0.829557 0.472450
0.433814 0.840055 0.538872
0.741665 0.882078 0.648432
0.682612 0.701503 0.000000
0.970642 0.694026 0.000000
0.566217 0.987274 0.745785
0.663020 0.983642 0.768734
0.852842 0.974395 0.826993
0.959228 0.983459 0.878202
0.978180 0.928862 0.000000
0.085786 0.122957 0.129366
0.111635 0.120821 0.131167
0.687526 0.000000 0.081178
0.986206 0.000000 0.000000
1.000000 0.169772 0.000000
0.076143 0.143740 0.142031
0.123140 0.151278 0.141695
0.551659 0.145296 0.113954
0.933165 0.108919 0.000000
1.000000 0.358587 0.000000
0.000000 0.430610 0.236820
0.151644 0.473243 0.269047
0.364111 0.389868 0.095399
0.722774 0.393896 0.106508
1.000000 0.605127 0.149294
0.149722 0.808591 0.485664
0.421180 0.820005 0.545983
0.738643 0.863859 0.659846
0.684108 0.690547 0.000000
0.965576 0.690272 0.000000
0.542626 0.983673 0.746517
0.642603 0.980285 0.768307
0.858824 0.977600 0.841459
0.964965 0.983948 0.893339
0.985779 0.932250 0.000000
0.072755 0.122988 0.223911
0.142092 0.119783 0.223545
0.411688 0.020783 0.241154
1.000000 0.000000 0.298772
1.000000 0.273167 0.123751
0.000000 0.162356 0.259403
0.139315 0.163607 0.266392
0.447272 0.170840 0.282353
1.000000 0.380652 0.426764
1.000000 0.416510 0.185031
0.000000 0.378698 0.354192
0.023255 0.397375 0.362158
0.468696 0.425391 0.352667
0.871458 0.548363 0.426062
1.000000 0.656641 0.357214
0.000000 0.737057 0.502037
0.245701 0.744106 0.527825
0.684993 0.791714 0.654994
0.709499 0.675837 0.284886
0.956878 0.716976 0.403418
0.448890 0.963348 0.742641
0.559930 0.964935 0.764950
0.787381 0.969451 0.822599
0.959655 0.979614 0.901030
0.968750 0.915007 0.282750
0.000000 0.135348 0.445411
0.154116 0.129702 0.448951
0.459937 0.000000 0.466041
0.774441 0.160616 0.472236
1.000000 0.439216 0.608118
0.000000 0.182895 0.478584
0.140200 0.183474 0.479835
0.467903 0.164889 0.484474
0.767819 0.280858 0.493965
1.000000 0.513024 0.630579
0.000000 0.357092 0.525170
0.000000 0.363561 0.527398
0.459174 0.403571 0.552056
0.781704 0.510155 0.579309
1.000000 0.745022 0.737240
0.000000 0.679469 0.635492
0.000000 0.681178 0.633722
0.495369 0.697688 0.647547
0.765835 0.694484 0.628138
1.000000 0.834653 0.713985
0.271916 0.931365 0.765469
0.393408 0.931151 0.771450
0.653040 0.941100 0.808713
0.917021 0.964508 0.889830
0.955413 0.899870 0.539025
0.077424 0.189670 0.704494
0.243534 0.183566 0.703304
0.527489 0.149599 0.702815
0.802701 0.103944 0.710048
0.965972 0.465553 0.710170
0.000000 0.235111 0.706905
0.218204 0.233524 0.705837
0.513024 0.224002 0.705165
0.791806 0.222385 0.709651
0.961242 0.498451 0.715694
0.000000 0.364172 0.718013
0.000000 0.361700 0.719265
0.446845 0.385290 0.722042
0.766293 0.425391 0.720211
0.961913 0.610010 0.754208
0.000000 0.643977 0.781277
0.000000 0.637934 0.776120
0.333104 0.623102 0.766751
0.719753 0.636774 0.775967
0.976562 0.776883 0.830594
0.016083 0.918059 0.864988
0.242344 0.915709 0.863798
0.504204 0.914153 0.867643
0.745968 0.911406 0.874510
0.956573 0.905425 0.861295
