data/fiter_cube/65184230/1022648/file.cube
# Created by Adobe Lightroom plugin Export LUT (1.17.0)
# www.johnrellis.com/lightroom/exportlut.htm
# Preset: ins网红旅拍风景人像_07 云集
# Color profile: C:\Program Files (x86)\Common Files\Adobe\Color\Profiles\Recommended\AdobeRGB1998.icc
LUT_3D_SIZE 32
DOMAIN_MIN 0.0 0.0 0.0
DOMAIN_MAX 1.0 1.0 1.0
0.086763 0.123873 0.124544
0.086763 0.123873 0.124544
0.086030 0.123934 0.124544
0.085725 0.123781 0.124575
0.089570 0.123751 0.124514
0.102724 0.123812 0.124056
0.128603 0.123140 0.123476
0.168887 0.120546 0.122194
0.225345 0.112551 0.120150
0.300237 0.089357 0.116426
0.391943 0.000000 0.110262
0.490791 0.000000 0.101076
0.586175 0.000000 0.088136
0.669764 0.000000 0.071473
0.738094 0.000000 0.041749
0.794430 0.000000 0.000000
0.842191 0.000000 0.000000
0.888304 0.000000 0.000000
0.942596 0.000000 0.000000
0.985534 0.000000 0.000000
1.000000 0.000000 0.000000
1.000000 0.000000 0.000000
1.000000 0.000000 0.000000
1.000000 0.000000 0.000000
1.000000 0.000000 0.000000
1.000000 0.000000 0.000000
1.000000 0.000000 0.000000
1.000000 0.106874 0.000000
1.000000 0.207584 0.000000
1.000000 0.278141 0.000000
1.000000 0.339239 0.000000
1.000000 0.396460 0.000000
0.086763 0.123873 0.124544
0.086793 0.123659 0.124575
0.086427 0.123690 0.124575
0.085817 0.123568 0.124392
0.088563 0.123873 0.124331
0.099428 0.124239 0.124086
0.122591 0.124361 0.123354
0.159609 0.123171 0.122316
0.212467 0.117372 0.120272
0.283330 0.100618 0.117037
0.371435 0.031403 0.111391
0.468757 0.000000 0.102693
0.564721 0.000000 0.090669
0.649805 0.000000 0.075044
0.721279 0.000000 0.050874
0.779782 0.000000 0.001373
0.829038 0.000000 0.000000
0.877714 0.000000 0.000000
0.930816 0.000000 0.000000
0.973693 0.000000 0.000000
1.000000 0.000000 0.000000
1.000000 0.000000 0.000000
1.000000 0.000000 0.000000
1.000000 0.000000 0.000000
1.000000 0.000000 0.000000
1.000000 0.000000 0.000000
1.000000 0.000000 0.000000
1.000000 0.066255 0.000000
1.000000 0.191226 0.000000
1.000000 0.266178 0.000000
1.000000 0.329625 0.000000
1.000000 0.387945 0.000000
0.086885 0.123445 0.124392
0.086885 0.123445 0.124392
0.086519 0.123262 0.124605
0.085908 0.123354 0.124208
0.087587 0.123781 0.124147
0.096345 0.124636 0.123934
0.115877 0.125612 0.123415
0.149844 0.125460 0.122255
0.198917 0.122286 0.120546
0.265782 0.110475 0.117372
0.350744 0.075166 0.112367
0.446998 0.000000 0.104189
0.544640 0.000000 0.092714
0.631952 0.000000 0.077577
0.706264 0.000000 0.057343
0.767636 0.000000 0.008606
0.818662 0.000000 0.000000
0.869963 0.000000 0.000000
0.922423 0.000000 0.000000
0.965606 0.000000 0.000000
1.000000 0.000000 0.000000
1.000000 0.000000 0.000000
1.000000 0.000000 0.000000
1.000000 0.000000 0.000000
1.000000 0.000000 0.000000
1.000000 0.000000 0.000000
1.000000 0.000000 0.000000
1.000000 0.057771 0.000000
1.000000 0.189242 0.000000
1.000000 0.264958 0.000000
1.000000 0.328557 0.000000
1.000000 0.387121 0.000000
0.086793 0.122835 0.124056
0.086793 0.122835 0.124056
0.086427 0.122896 0.124056
0.085939 0.122927 0.124453
0.086976 0.123659 0.123995
0.091920 0.124758 0.123629
0.106905 0.126711 0.123171
0.135470 0.128786 0.122255
0.179080 0.128817 0.120668
0.240208 0.123293 0.117830
0.319402 0.104891 0.113344
0.413031 0.030945 0.106111
0.509758 0.000000 0.095521
0.601312 0.000000 0.081056
0.680995 0.000000 0.062013
0.746731 0.000000 0.017853
0.800992 0.000000 0.000000
0.857298 0.000000 0.000000
0.908385 0.000000 0.000000
0.951171 0.000000 0.000000
0.988495 0.000000 0.000000
1.000000 0.000000 0.000000
1.000000 0.000000 0.000000
1.000000 0.000000 0.000000
1.000000 0.000000 0.000000
1.000000 0.000000 0.000000
1.000000 0.000000 0.000000
1.000000 0.114656 0.000000
1.000000 0.211673 0.000000
1.000000 0.280827 0.000000
1.000000 0.340642 0.000000
1.000000 0.395361 0.000000
0.086275 0.123507 0.124025
0.086000 0.123568 0.123812
0.085939 0.123781 0.123812
0.086000 0.123781 0.123629
0.087495 0.124208 0.124117
0.090730 0.125490 0.123781
0.096742 0.126589 0.123201
0.117006 0.130373 0.122408
0.152224 0.133913 0.121065
0.203494 0.135073 0.118807
0.273442 0.129061 0.115053
0.360327 0.108431 0.108949
0.457557 0.030945 0.099794
0.554345 0.000000 0.086336
0.641474 0.000000 0.068757
0.716274 0.000000 0.029877
0.777615 0.000000 0.000000
0.841855 0.000000 0.000000
0.894102 0.000000 0.000000
0.937987 0.000000 0.000000
0.976013 0.000000 0.000000
1.000000 0.000000 0.000000
1.000000 0.000000 0.000000
1.000000 0.000000 0.000000
1.000000 0.000000 0.000000
1.000000 0.000000 0.000000
1.000000 0.000000 0.000000
1.000000 0.156008 0.000000
1.000000 0.235691 0.000000
1.000000 0.298833 0.000000
1.000000 0.355718 0.000000
1.000000 0.408850 0.000000
0.085176 0.126253 0.124361
0.085145 0.126467 0.124361
0.085115 0.126864 0.124147
0.085206 0.127291 0.123537
0.087282 0.127657 0.123262
0.091249 0.127810 0.123568
0.098146 0.129946 0.123262
0.106722 0.131197 0.122591
0.128573 0.135592 0.121645
0.170535 0.141268 0.119661
0.230442 0.143648 0.116670
0.308751 0.138521 0.111452
0.402564 0.118410 0.103426
0.502770 0.063935 0.091218
0.597436 0.000000 0.074372
0.680140 0.000000 0.044617
0.754757 0.000000 0.000000
0.822995 0.000000 0.000000
0.877836 0.000000 0.000000
0.924254 0.000000 0.000000
0.964538 0.000000 0.000000
1.000000 0.000000 0.000000
1.000000 0.000000 0.000000
1.000000 0.110231 0.000000
1.000000 0.186191 0.000000
1.000000 0.240665 0.000000
1.000000 0.287236 0.000000
1.000000 0.330602 0.000000
1.000000 0.372595 0.000000
1.000000 0.414130 0.000000
1.000000 0.454719 0.000000
1.000000 0.494514 0.091951
0.082368 0.134890 0.126101
0.082277 0.135256 0.126040
0.082582 0.135988 0.125612
0.083436 0.137545 0.125093
0.086000 0.138979 0.123781
0.092317 0.139467 0.122683
0.101198 0.137636 0.122316
0.114351 0.140108 0.121767
0.129091 0.142275 0.120974
0.149111 0.145083 0.120455
0.203738 0.153841 0.117433
0.279423 0.158053 0.112306
0.372808 0.152529 0.104280
0.475135 0.132357 0.091859
0.573571 0.088991 0.074311
0.659297 0.000000 0.042390
0.750301 0.000000 0.000000
0.820218 0.000000 0.000000
0.877379 0.000000 0.000000
0.927184 0.000000 0.000000
0.972137 0.000000 0.000000
1.000000 0.000000 0.000000
1.000000 0.000000 0.000000
1.000000 0.128115 0.000000
1.000000 0.208591 0.000000
1.000000 0.265202 0.000000
1.000000 0.311620 0.000000
1.000000 0.353674 0.000000
1.000000 0.393896 0.000000
1.000000 0.433265 0.000000
1.000000 0.471992 0.000000
1.000000 0.510521 0.098543
0.077943 0.147707 0.128786
0.077790 0.148379 0.128542
0.078370 0.149325 0.128267
0.079927 0.151339 0.127687
0.083070 0.154147 0.125704
0.090333 0.156680 0.124758
0.101289 0.155154 0.121492
0.113649 0.149691 0.120607
0.131044 0.151675 0.120150
0.149905 0.154421 0.119051
0.174624 0.157748 0.118135
0.219181 0.164187 0.116182
0.299870 0.171572 0.109926
0.396948 0.170535 0.100069
0.500053 0.158175 0.085267
0.610834 0.133639 0.058930
0.707485 0.092592 0.000000
0.781918 0.000000 0.000000
0.843381 0.000000 0.000000
0.897612 0.000000 0.000000
0.946166 0.000000 0.000000
0.989807 0.000000 0.000000
1.000000 0.123171 0.000000
1.000000 0.192721 0.000000
1.000000 0.249516 0.000000
1.000000 0.297673 0.000000
1.000000 0.339574 0.000000
1.000000 0.378943 0.000000
1.000000 0.418128 0.000000
1.000000 0.456214 0.000000
1.000000 0.494331 0.006622
1.000000 0.531823 0.112276
0.070008 0.167666 0.133028
0.070283 0.168368 0.132784
0.071199 0.169558 0.132448
0.073548 0.171939 0.131624
0.079927 0.176059 0.130892
0.084901 0.180453 0.126711
0.100008 0.185061 0.127504
0.115206 0.178103 0.119753
0.130770 0.167117 0.118166
0.150362 0.166049 0.117647
0.175967 0.170230 0.116152
0.205447 0.173800 0.114656
0.241733 0.177218 0.113741
0.320439 0.186313 0.107607
0.432837 0.192813 0.093599
0.549889 0.189700 0.070954
0.652888 0.178317 0.012604
0.737331 0.162051 0.000000
0.805783 0.144961 0.000000
0.865843 0.134676 0.000000
0.918883 0.141146 0.000000
0.966247 0.166018 0.000000
1.000000 0.204440 0.000000
1.000000 0.249210 0.000000
1.000000 0.294072 0.000000
1.000000 0.335088 0.000000
1.000000 0.373602 0.000000
1.000000 0.410529 0.000000
1.000000 0.447242 0.000000
1.000000 0.484230 0.000000
1.000000 0.520775 0.069703
1.000000 0.556878 0.129854
0.054475 0.194644 0.138643
0.055451 0.195804 0.138308
0.058564 0.196811 0.138033
0.062470 0.199680 0.137301
0.071229 0.204196 0.136782
0.081514 0.210239 0.134127
0.094575 0.217075 0.131350
0.114565 0.220310 0.127596
0.133883 0.206851 0.116823
0.151888 0.189212 0.114870
0.171481 0.182467 0.114656
0.203891 0.188144 0.112490
0.240513 0.192569 0.110262
0.288273 0.198978 0.107332
0.358007 0.207340 0.103182
0.474220 0.219486 0.085359
0.588403 0.223972 0.053193
0.686397 0.222293 0.000000
0.765408 0.218387 0.000000
0.832120 0.216068 0.000000
0.889555 0.220920 0.000000
0.939422 0.235538 0.000000
0.982666 0.259556 0.000000
1.000000 0.291081 0.000000
1.000000 0.326604 0.000000
1.000000 0.363470 0.000000
1.000000 0.400397 0.000000
1.000000 0.437598 0.000000
1.000000 0.475593 0.000000
1.000000 0.513390 0.000000
1.000000 0.551232 0.102876
1.000000 0.588006 0.155489
0.008545 0.227115 0.145266
0.012360 0.228153 0.144961
0.016114 0.229740 0.144869
0.028992 0.233158 0.144320
0.053468 0.238651 0.144198
0.077424 0.246403 0.145296
0.084993 0.256687 0.137575
0.114046 0.268162 0.139315
0.136294 0.265812 0.127352
0.158846 0.244022 0.111971
0.179324 0.217899 0.109590
0.200137 0.204990 0.109743
0.245945 0.215091 0.105470
0.291417 0.220645 0.101564
0.342657 0.226108 0.097475
0.399664 0.231388 0.094301
0.500267 0.244694 0.078889
0.610895 0.255375 0.029511
0.706172 0.261051 0.000000
0.783627 0.264744 0.000000
0.849393 0.271580 0.000000
0.906157 0.284398 0.000000
0.954833 0.304845 0.000000
0.996246 0.332189 0.000000
1.000000 0.363928 0.000000
1.000000 0.397314 0.000000
1.000000 0.431861 0.000000
1.000000 0.467231 0.000000
1.000000 0.503899 0.000000
1.000000 0.541222 0.072908
1.000000 0.578546 0.128359
1.000000 0.615015 0.176638
0.000000 0.269627 0.153841
0.000000 0.270848 0.153780
0.000000 0.272618 0.153628
0.000000 0.276616 0.153506
0.000000 0.282994 0.154055
0.057282 0.291936 0.155734
0.085389 0.304204 0.154116
0.105776 0.319249 0.148226
0.148440 0.337652 0.152407
0.171359 0.330968 0.125032
0.199557 0.302708 0.101472
0.222599 0.263798 0.098177
0.274723 0.263005 0.091737
0.345678 0.279606 0.078401
0.407721 0.285679 0.068208
0.470802 0.290990 0.055085
0.532128 0.296269 0.035004
0.601190 0.305669 0.035798
0.704158 0.323888 0.000000
0.785885 0.337499 0.000000
0.853300 0.351202 0.000000
0.909392 0.368170 0.000000
0.956695 0.389349 0.000000
0.996704 0.415198 0.000000
1.000000 0.444099 0.000000
1.000000 0.474952 0.000000
1.000000 0.506035 0.000000
1.000000 0.537316 0.059632
1.000000 0.569085 0.106081
1.000000 0.601801 0.146395
1.000000 0.634119 0.186130
1.000000 0.666194 0.228214
0.000000 0.342779 0.169650
0.000000 0.344274 0.169711
0.000000 0.345068 0.169650
0.000000 0.348119 0.169772
0.000000 0.353307 0.170535
0.000000 0.363989 0.173617
0.086641 0.381720 0.180819
0.108766 0.405737 0.171939
0.162936 0.434882 0.176394
0.232944 0.467567 0.187655
0.244022 0.442023 0.122438
0.274784 0.400702 0.071809
0.297917 0.341527 0.063691
0.299107 0.284642 0.082673
0.379248 0.306615 0.059907
0.444587 0.313909 0.026886
0.508202 0.319310 0.000000
0.567437 0.323949 0.000000
0.624628 0.330755 0.000000
0.708980 0.349126 0.000000
0.791257 0.367712 0.000000
0.859220 0.386175 0.000000
0.914855 0.406928 0.000000
0.961669 0.431159 0.000000
1.000000 0.458778 0.000000
1.000000 0.489052 0.000000
1.000000 0.520500 0.016419
1.000000 0.552941 0.086152
1.000000 0.586328 0.125246
1.000000 0.620783 0.164248
1.000000 0.654841 0.204044
1.000000 0.688380 0.247257
0.000000 0.416419 0.188632
0.000000 0.418738 0.188998
0.000000 0.420356 0.189303
0.000000 0.424781 0.190402
0.000000 0.431312 0.192721
0.000000 0.441138 0.196963
0.065736 0.455268 0.205020
0.132753 0.474861 0.208408
0.166781 0.501244 0.200443
0.244419 0.530541 0.217014
0.301213 0.547692 0.207950
0.307713 0.515679 0.119905
0.332372 0.464546 0.001801
0.347173 0.391394 0.000000
0.328344 0.310185 0.067903
0.414282 0.335210 0.003449
0.478614 0.341344 0.000000
0.540276 0.345953 0.000000
0.598444 0.350744 0.000000
0.654170 0.357977 0.000000
0.714961 0.372900 0.000000
0.798428 0.396643 0.000000
0.866392 0.419501 0.000000
0.922087 0.444587 0.000000
0.968444 0.472358 0.000000
1.000000 0.502800 0.000000
1.000000 0.535393 0.070954
1.000000 0.569574 0.110231
1.000000 0.604852 0.146822
1.000000 0.641108 0.185336
1.000000 0.676997 0.226169
1.000000 0.711788 0.270512
0.000000 0.495308 0.214054
0.000000 0.497353 0.214725
0.000000 0.498238 0.215152
0.000000 0.500786 0.216587
0.000000 0.505028 0.219028
0.000000 0.511772 0.224002
0.029755 0.522240 0.232883
0.159670 0.536522 0.247654
0.197208 0.558740 0.242222
0.258640 0.584985 0.250278
0.343542 0.612512 0.276158
0.372595 0.613825 0.234318
0.371405 0.577661 0.122530
0.388128 0.520592 0.000000
0.394934 0.438087 0.000000
0.362615 0.340764 0.026398
0.446693 0.362860 0.000000
0.510460 0.368750 0.000000
0.572107 0.373541 0.000000
0.630274 0.379065 0.000000
0.685328 0.387121 0.000000
0.737606 0.400214 0.000000
0.806332 0.423987 0.000000
0.874235 0.451240 0.000000
0.929717 0.480323 0.000000
0.976043 0.512474 0.048280
1.000000 0.548150 0.094209
1.000000 0.586786 0.132509
1.000000 0.627161 0.172335
1.000000 0.667903 0.214420
1.000000 0.707454 0.260197
1.000000 0.744106 0.308263
0.000000 0.563531 0.242679
0.000000 0.565881 0.244297
0.000000 0.567346 0.245212
0.000000 0.570153 0.247654
0.000000 0.575067 0.252140
0.000000 0.582086 0.259373
0.064057 0.591974 0.271244
0.184054 0.604791 0.289372
0.258122 0.621515 0.303960
0.294957 0.643824 0.299290
0.374823 0.663416 0.325292
0.455665 0.682673 0.355810
0.442573 0.666987 0.266575
0.429297 0.626429 0.130617
0.435065 0.563592 0.000000
0.434424 0.476387 0.000000
0.396826 0.371557 0.000000
0.472236 0.386450 0.000000
0.541192 0.395850 0.000000
0.605219 0.402899 0.000000
0.665614 0.410864 0.000000
0.720485 0.420203 0.000000
0.770474 0.433997 0.000000
0.822385 0.457313 0.000000
0.889433 0.490089 0.012543
0.944518 0.525017 0.076509
0.990234 0.563317 0.115969
1.000000 0.604852 0.155306
1.000000 0.647669 0.196506
1.000000 0.689845 0.240208
1.000000 0.729519 0.286473
1.000000 0.765835 0.335393
0.000000 0.618219 0.272007
0.000000 0.619287 0.273106
0.000000 0.620172 0.274083
0.000000 0.622339 0.277043
0.000000 0.626490 0.282261
0.000000 0.632166 0.290562
0.090608 0.639979 0.303380
0.202396 0.649561 0.321935
0.295811 0.660517 0.348516
0.341588 0.677699 0.352728
0.394965 0.696071 0.363073
0.470802 0.712673 0.392920
0.540154 0.728023 0.420233
0.497108 0.702724 0.292302
0.477577 0.662043 0.141909
0.477272 0.600061 0.000000
0.472328 0.512413 0.000000
0.432563 0.404425 0.000000
0.497963 0.410254 0.000000
0.571435 0.423316 0.000000
0.636103 0.431647 0.000000
0.696071 0.440284 0.000000
0.748653 0.449775 0.000000
0.797238 0.464210 0.000000
0.841855 0.487709 0.000000
0.901305 0.523919 0.081178
0.956481 0.564996 0.122103
1.000000 0.609644 0.164706
1.000000 0.656367 0.209293
1.000000 0.702724 0.257603
1.000000 0.745968 0.308598
1.000000 0.784543 0.360906
0.000000 0.668788 0.305669
0.000000 0.671077 0.307958
0.000000 0.720089 0.351904
0.000000 0.721340 0.356420
0.000000 0.723262 0.363745
0.135500 0.725490 0.374243
0.227512 0.728573 0.389288
0.310338 0.732631 0.409796
0.394598 0.738003 0.437385
0.462654 0.746792 0.460304
0.496132 0.761410 0.462287
0.551873 0.774044 0.482399
0.610742 0.785336 0.507439
0.636652 0.787167 0.494087
0.589014 0.759152 0.358770
0.556176 0.717586 0.188418
0.545464 0.657404 0.000000
0.536187 0.571588 0.000000
0.493477 0.458167 0.000000
0.548333 0.452735 0.000000
0.624964 0.468116 0.000000
0.688594 0.476539 0.000000
0.744137 0.484169 0.000000
0.792905 0.493568 0.000000
0.837125 0.508049 0.000000
0.876982 0.532006 0.000000
0.920531 0.567437 0.128420
0.972686 0.611933 0.171267
1.000000 0.660395 0.218082
1.000000 0.710109 0.269993
1.000000 0.756710 0.324712
1.000000 0.797665 0.380560
0.000000 0.723171 0.351415
0.000000 0.729610 0.358648
0.000000 0.736049 0.366705
0.000000 0.742550 0.376806
0.048798 0.748104 0.388556
0.174624 0.751980 0.401709
0.255497 0.755367 0.417548
0.332341 0.758724 0.437537
0.410437 0.763180 0.463172
0.487648 0.768399 0.493233
0.527153 0.780148 0.501701
0.562646 0.793149 0.508080
0.616449 0.803311 0.530632
0.666773 0.813077 0.552209
0.665278 0.805722 0.506554
0.619654 0.776852 0.369909
0.586206 0.735805 0.195834
0.572869 0.677668 0.000000
0.564508 0.597620 0.000000
0.525628 0.488685 0.000000
0.570520 0.474525 0.000000
0.652216 0.494850 0.000000
0.715846 0.504448 0.000000
0.770687 0.513268 0.000000
0.818936 0.524254 0.000000
0.863005 0.541222 0.000000
0.902800 0.568536 0.000000
0.937865 0.607172 0.166201
0.988617 0.659236 0.221988
1.000000 0.713313 0.278355
1.000000 0.764157 0.338323
1.000000 0.808377 0.398444
0.000000 0.754940 0.382483
0.000000 0.760311 0.389624
0.000000 0.765988 0.397528
0.000000 0.771267 0.407416
0.140169 0.775906 0.419257
0.217868 0.779110 0.432197
0.288090 0.781765 0.447639
0.358282 0.784482 0.466743
0.430152 0.787991 0.490547
0.501732 0.792447 0.517906
0.560174 0.799741 0.540673
0.588251 0.811978 0.543694
0.626856 0.822354 0.555505
0.672969 0.831235 0.574945
0.715877 0.839506 0.593042
0.694514 0.824125 0.520500
0.652125 0.795377 0.384802
0.618830 0.755642 0.208560
0.603723 0.700435 0.000000
0.596063 0.626032 0.000000
0.561730 0.522515 0.000000
0.597955 0.500603 0.000000
0.683223 0.524773 0.000000
0.745296 0.534905 0.000000
0.798978 0.544579 0.000000
0.846616 0.557641 0.000000
0.890043 0.577478 0.000000
0.929625 0.608972 0.000000
0.964508 0.652949 0.184848
1.000000 0.708888 0.279026
1.000000 0.764950 0.344396
1.000000 0.813626 0.409766
0.000000 0.785000 0.415198
0.000000 0.789700 0.422217
0.022278 0.794583 0.430182
0.134401 0.799161 0.440101
0.201297 0.803006 0.451759
0.262821 0.805509 0.464485
0.323949 0.807462 0.479164
0.386938 0.809293 0.496864
0.452522 0.812039 0.518486
0.517510 0.815335 0.542809
0.581689 0.819791 0.570092
0.614771 0.829313 0.578393
0.638209 0.840177 0.579278
0.679805 0.848508 0.596063
0.720638 0.856504 0.613489
0.758022 0.863920 0.628992
0.725887 0.843503 0.537682
0.691127 0.817502 0.408331
0.662257 0.782406 0.235203
0.648157 0.733547 0.000000
0.642206 0.666773 0.000000
0.617884 0.573480 0.000000
0.649042 0.545678 0.000000
0.735622 0.572564 0.000000
0.797269 0.584955 0.000000
0.850645 0.598932 0.000000
0.897429 0.617700 0.000000
0.940063 0.645533 0.000000
0.977783 0.686305 0.018921
1.000000 0.737209 0.255589
1.000000 0.791409 0.387060
1.000000 0.840543 0.456550
0.160769 0.829557 0.472450
0.179812 0.831540 0.476722
0.200229 0.833280 0.481270
0.233768 0.834897 0.488014
0.276921 0.836393 0.497169
0.324834 0.837369 0.508171
0.377356 0.838468 0.521904
0.433814 0.840055 0.538872
0.492714 0.842405 0.558984
0.553246 0.845701 0.582330
0.610986 0.850034 0.606714
0.657527 0.856474 0.626001
0.678279 0.866300 0.627222
0.704616 0.875151 0.632624
0.741665 0.882078 0.648432
0.776852 0.888823 0.664118
0.794675 0.889433 0.656397
0.768215 0.869535 0.568292
0.738674 0.844450 0.444282
0.710201 0.811368 0.270512
0.692103 0.765225 0.000000
0.682612 0.701503 0.000000
0.661433 0.614069 0.000000
0.683955 0.578363 0.000000
0.768063 0.605310 0.000000
0.828244 0.619287 0.000000
0.881010 0.636347 0.000000
0.927977 0.659968 0.000000
0.970642 0.694026 0.000000
1.000000 0.739864 0.098909
1.000000 0.791562 0.302586
1.000000 0.841581 0.452949
0.233433 0.854917 0.508019
0.248051 0.856687 0.512413
0.264225 0.858366 0.517021
0.292058 0.859770 0.523766
0.327245 0.860777 0.532158
0.368566 0.861295 0.542351
0.414435 0.861723 0.554498
0.463813 0.862516 0.569177
0.516899 0.864012 0.587030
0.570855 0.866361 0.607263
0.623285 0.869902 0.628626
0.672938 0.874357 0.650507
0.700404 0.882078 0.657923
0.719417 0.891051 0.658564
0.749660 0.898131 0.669306
0.783200 0.904417 0.684474
0.814969 0.910643 0.699794
0.819364 0.906432 0.672236
0.798428 0.888365 0.587732
0.775265 0.865171 0.470161
0.750790 0.835080 0.300816
0.732845 0.793545 0.000000
0.723140 0.735683 0.000000
0.706355 0.655665 0.000000
0.710994 0.604822 0.000000
0.793942 0.633234 0.000000
0.855161 0.650935 0.000000
0.908019 0.672114 0.000000
0.955444 0.700710 0.000000
0.997559 0.740536 0.000000
1.000000 0.789639 0.144350
1.000000 0.840787 0.349554
0.328801 0.889372 0.563348
0.340856 0.891081 0.567987
0.353155 0.892149 0.571893
0.373266 0.892607 0.577111
0.400427 0.892546 0.583581
0.433326 0.892119 0.591516
0.470527 0.891508 0.601038
0.511925 0.891020 0.612634
0.555962 0.890959 0.626307
0.600702 0.891783 0.641596
0.644678 0.893370 0.657893
0.688411 0.896025 0.675837
0.726467 0.899962 0.691493
0.741909 0.906920 0.690639
0.758297 0.913359 0.689845
0.787808 0.917601 0.701900
0.816281 0.921843 0.714382
0.843931 0.926482 0.727687
0.837156 0.918181 0.681453
0.820157 0.901793 0.598688
0.802365 0.880735 0.486397
0.781888 0.853178 0.320867
0.764248 0.814847 0.000000
0.752834 0.760494 0.000000
0.736202 0.684504 0.000000
0.748714 0.640711 0.000000
0.829648 0.670527 0.000000
0.890410 0.692348 0.000000
0.942229 0.717891 0.000000
0.988586 0.751919 0.000000
1.000000 0.795804 0.000000
1.000000 0.844785 0.203891
0.374029 0.909087 0.595209
0.384466 0.910582 0.599481
0.395453 0.911589 0.603174
0.413184 0.911894 0.607935
0.436957 0.911772 0.613764
0.466621 0.911315 0.621241
0.500969 0.910765 0.630365
0.538933 0.910460 0.641138
0.579065 0.910643 0.653681
0.620294 0.911559 0.667750
0.661494 0.913085 0.682948
0.703090 0.915496 0.699916
0.743618 0.918486 0.717922
0.766934 0.923674 0.724453
0.781247 0.929717 0.723476
0.801877 0.934478 0.728298
0.828885 0.938048 0.740414
0.854856 0.941772 0.753170
0.879789 0.945769 0.766659
0.866026 0.936004 0.705715
0.853758 0.922210 0.626581
0.841276 0.903532 0.520439
0.825254 0.878660 0.360418
0.808835 0.844266 0.084169
0.796841 0.795956 0.000000
0.782956 0.727504 0.000000
0.794766 0.684413 0.000000
0.873686 0.717494 0.000000
0.935271 0.746609 0.000000
0.986297 0.779171 0.000000
1.000000 0.818723 0.000000
1.000000 0.863249 0.000000
0.425574 0.931060 0.633265
0.434089 0.931975 0.636530
0.442115 0.932311 0.639002
0.456184 0.932097 0.642329
0.476081 0.931395 0.646845
0.501610 0.930510 0.652705
0.531334 0.929595 0.660090
0.564538 0.928923 0.669062
0.600397 0.928801 0.679774
0.637934 0.929351 0.692164
0.676600 0.930449 0.706050
0.715846 0.932311 0.721706
0.754116 0.934600 0.738277
0.788449 0.937438 0.753841
0.801572 0.942504 0.753323
0.814511 0.947326 0.751980
0.837797 0.950256 0.761166
0.862028 0.953002 0.772732
0.885374 0.955962 0.785153
0.899840 0.957000 0.784207
0.888365 0.948852 0.724086
0.879484 0.937194 0.647181
0.871092 0.921050 0.545190
0.859831 0.899229 0.391608
0.846464 0.868925 0.133547
0.835569 0.826230 0.000000
0.824613 0.766018 0.000000
0.836179 0.725032 0.000000
0.912139 0.761074 0.000000
0.973968 0.796567 0.000000
1.000000 0.833463 0.000000
1.000000 0.873899 0.000000
0.464332 0.948547 0.664332
0.470832 0.949035 0.666682
0.478035 0.949218 0.668879
0.490913 0.949065 0.672175
0.510277 0.948760 0.677028
0.535027 0.948577 0.683711
0.564874 0.948913 0.692744
0.598260 0.949615 0.703548
0.634852 0.950866 0.716335
0.673091 0.952483 0.730556
0.712001 0.954376 0.746029
0.750484 0.956451 0.762264
0.787442 0.958526 0.779019
0.822629 0.960388 0.796078
0.844541 0.963317 0.804288
0.856352 0.966705 0.804288
0.870115 0.969421 0.806149
0.890990 0.970703 0.816403
0.910643 0.972107 0.827207
0.928679 0.973602 0.838224
0.933227 0.972839 0.823850
0.925353 0.967742 0.768582
0.920867 0.959899 0.696986
0.918608 0.948577 0.602136
0.916197 0.932738 0.465217
0.911589 0.910613 0.235752
0.906401 0.878782 0.000000
0.900603 0.832822 0.000000
0.914855 0.801846 0.000000
0.984802 0.841733 0.000000
1.000000 0.880125 0.000000
1.000000 0.913603 0.000000
0.535241 0.974029 0.718257
0.539910 0.974182 0.719753
0.544823 0.974029 0.720882
0.554467 0.973541 0.722805
0.569451 0.972778 0.725887
0.588617 0.971954 0.730159
0.612329 0.971221 0.736049
0.639521 0.970672 0.743435
0.669825 0.970336 0.752468
0.702205 0.970214 0.762814
0.735134 0.970275 0.774228
0.768521 0.970520 0.786770
0.801389 0.970855 0.800229
0.833158 0.971221 0.814450
