data/fiter_cube/96471014/1022815/file.cube
# Created by Adobe Lightroom plugin Export LUT (1.17.0)
# www.johnrellis.com/lightroom/exportlut.htm
# Preset: 复古预设2
# Color profile: C:\Program Files (x86)\Common Files\Adobe\Color\Profiles\Recommended\AdobeRGB1998.icc
LUT_3D_SIZE 32
DOMAIN_MIN 0.0 0.0 0.0
DOMAIN_MAX 1.0 1.0 1.0
0.049531 0.090639 0.111910
0.054780 0.091218 0.112459
0.060945 0.091920 0.113008
0.069795 0.093782 0.114626
0.083650 0.096681 0.116670
0.103212 0.099733 0.118685
0.129885 0.102754 0.120363
0.164523 0.105348 0.121370
0.208469 0.106020 0.122103
0.262272 0.103517 0.122042
0.324681 0.095766 0.121309
0.392218 0.080995 0.119509
0.460243 0.059205 0.116335
0.524773 0.012207 0.112825
0.588678 0.000275 0.108309
0.652094 0.050782 0.103365
0.700679 0.091951 0.099916
0.740139 0.125185 0.098268
0.773434 0.155306 0.099306
0.803677 0.184604 0.102388
0.831327 0.212375 0.109377
0.856687 0.239597 0.118654
0.879484 0.265263 0.131472
0.900237 0.290074 0.146242
0.919310 0.313939 0.164157
0.937102 0.337560 0.184482
0.954009 0.361975 0.207614
0.970184 0.386999 0.233921
0.985473 0.413245 0.264530
0.999817 0.440864 0.298985
1.000000 0.469734 0.337163
1.000000 0.499641 0.378790
0.049409 0.092653 0.113466
0.052338 0.092775 0.113436
0.061036 0.094209 0.112642
0.070100 0.095735 0.113893
0.083833 0.098573 0.116152
0.103029 0.101869 0.118166
0.129305 0.105165 0.119631
0.163210 0.107912 0.120851
0.206210 0.109529 0.121370
0.259251 0.107942 0.121553
0.320653 0.101503 0.120699
0.387243 0.089937 0.118563
0.454658 0.072938 0.115724
0.519158 0.052216 0.112001
0.583490 0.039246 0.107332
0.645228 0.069245 0.102419
0.693263 0.098573 0.098695
0.732784 0.127871 0.097139
0.766537 0.156283 0.097353
0.797208 0.183780 0.099733
0.825315 0.210758 0.105928
0.851164 0.237522 0.114931
0.874479 0.262486 0.127077
0.895781 0.287083 0.141726
0.915343 0.310826 0.159396
0.933593 0.334539 0.178988
0.951019 0.358770 0.202457
0.967559 0.384100 0.228977
0.983276 0.410376 0.259403
0.997986 0.437995 0.293706
1.000000 0.466835 0.331548
1.000000 0.496986 0.373816
0.049439 0.095369 0.115572
0.051911 0.095796 0.115938
0.055909 0.096162 0.115663
0.069276 0.099367 0.113863
0.084321 0.101442 0.115114
0.103090 0.104952 0.117128
0.128817 0.108461 0.118837
0.162112 0.111788 0.120027
0.204593 0.113802 0.120546
0.256718 0.113344 0.120729
0.317540 0.108705 0.119875
0.383703 0.099580 0.117739
0.451118 0.086671 0.114839
0.515526 0.074556 0.110933
0.580682 0.071778 0.106020
0.641260 0.086152 0.100954
0.688869 0.110384 0.096864
0.728359 0.135897 0.094942
0.762295 0.161532 0.094545
0.793332 0.187350 0.096895
0.821897 0.213687 0.102724
0.848142 0.239292 0.111910
0.871763 0.263920 0.123415
0.893339 0.287907 0.138430
0.913146 0.311192 0.155734
0.931640 0.334569 0.175814
0.949279 0.358709 0.199069
0.966094 0.383764 0.225528
0.982055 0.409857 0.255955
0.996979 0.437354 0.290318
1.000000 0.466072 0.328344
1.000000 0.495979 0.370275
0.049348 0.101350 0.120546
0.052735 0.101930 0.120882
0.055360 0.102052 0.121248
0.061006 0.103243 0.120729
0.080293 0.110689 0.117159
0.104097 0.112032 0.115145
0.129244 0.116030 0.117037
0.162356 0.120180 0.118166
0.204013 0.123262 0.118837
0.255436 0.124422 0.118746
0.315312 0.122408 0.117800
0.380529 0.116884 0.115785
0.447211 0.109377 0.112581
0.511162 0.103090 0.108309
0.577966 0.103365 0.102846
0.636530 0.114900 0.097261
0.683497 0.132998 0.092775
0.722652 0.153201 0.090272
0.756466 0.175113 0.089357
0.787442 0.197787 0.091066
0.816129 0.221042 0.096742
0.842679 0.244633 0.105165
0.867063 0.268284 0.117189
0.889677 0.291783 0.132113
0.910582 0.315038 0.149844
0.929992 0.338720 0.170871
0.948333 0.362676 0.194766
0.965545 0.387427 0.222141
0.981659 0.413184 0.252964
0.996582 0.439979 0.287236
1.000000 0.467842 0.325109
1.000000 0.496834 0.366552
0.047913 0.109346 0.126436
0.051423 0.110323 0.127443
0.054017 0.110719 0.126497
0.060151 0.111086 0.126802
0.066499 0.113344 0.126009
0.093477 0.126650 0.121157
0.126772 0.129885 0.115908
0.161440 0.132998 0.115450
0.202029 0.137179 0.116060
0.252232 0.140536 0.115633
0.310857 0.141238 0.114565
0.375067 0.139651 0.112154
0.441016 0.136873 0.108492
0.505211 0.134524 0.103914
0.573632 0.137850 0.097597
0.631159 0.148043 0.091188
0.678584 0.162295 0.085939
0.718410 0.179171 0.082094
0.752804 0.197330 0.080995
0.784054 0.216617 0.082460
0.812741 0.236790 0.087678
0.839322 0.258152 0.096223
0.863981 0.279545 0.108492
0.886900 0.301457 0.124178
0.908202 0.323400 0.142794
0.928038 0.345647 0.163760
0.946624 0.368688 0.188663
0.964050 0.392401 0.215763
0.980316 0.417121 0.246799
0.995422 0.442969 0.281254
1.000000 0.470039 0.319127
1.000000 0.498390 0.360754
0.044831 0.119905 0.133181
0.047578 0.121248 0.134096
0.051911 0.122133 0.134188
0.059205 0.122072 0.133303
0.065553 0.123659 0.133120
0.075349 0.127321 0.131838
0.111940 0.148959 0.125673
0.153353 0.156374 0.117922
0.202457 0.156466 0.112032
0.251713 0.161074 0.111635
0.309636 0.164492 0.109804
0.372992 0.165957 0.107027
0.438178 0.166476 0.102907
0.506706 0.168093 0.096956
0.572137 0.174105 0.089296
0.628321 0.183536 0.081880
0.675380 0.195926 0.075105
0.715511 0.209720 0.070130
0.750393 0.224979 0.068238
0.782162 0.241703 0.069093
0.811368 0.259403 0.074647
0.838499 0.278416 0.084413
0.891203 0.328771 0.115236
0.911315 0.347539 0.134524
0.929686 0.366125 0.156558
0.946746 0.384955 0.180392
0.962646 0.404425 0.205722
0.977600 0.424933 0.234592
0.991669 0.446571 0.265385
1.000000 0.469551 0.300237
1.000000 0.493721 0.337713
1.000000 0.518914 0.377844
0.034668 0.136446 0.142580
0.039979 0.137728 0.143557
0.047059 0.139651 0.144656
0.054292 0.140383 0.141878
0.065522 0.140475 0.143191
0.075196 0.144320 0.141817
0.089631 0.150301 0.140291
0.142031 0.184451 0.131197
0.196201 0.195132 0.119570
0.258366 0.197757 0.109041
0.323278 0.196536 0.101656
0.387457 0.200412 0.097627
0.453925 0.203983 0.091707
0.528161 0.211368 0.081941
0.590753 0.219852 0.071168
0.642878 0.229282 0.060700
0.686915 0.239811 0.047272
0.725002 0.251164 0.033417
0.759152 0.264195 0.028901
0.791104 0.278996 0.033692
0.821500 0.296086 0.051392
0.850370 0.314763 0.071077
0.877165 0.334722 0.091402
0.901457 0.355016 0.114015
0.923125 0.374578 0.139284
0.942107 0.393469 0.165194
0.959136 0.412299 0.193027
0.974701 0.431617 0.221897
0.989288 0.451911 0.253910
1.000000 0.473671 0.288701
1.000000 0.496651 0.326604
1.000000 0.520836 0.367285
0.021393 0.155947 0.153079
0.026734 0.157198 0.153841
0.034699 0.159121 0.154940
0.047791 0.161410 0.153841
0.061799 0.161746 0.151827
0.074128 0.163485 0.153017
0.088411 0.169131 0.151278
0.107912 0.177768 0.149538
0.175204 0.222507 0.137819
0.240360 0.236423 0.121706
0.310918 0.240330 0.106722
0.382177 0.236484 0.091066
0.457862 0.242252 0.077302
0.526299 0.249973 0.064759
0.585565 0.257847 0.044312
0.636439 0.266117 0.013184
0.680140 0.274693 0.000000
0.718288 0.284031 0.000000
0.752743 0.294408 0.000000
0.785031 0.306645 0.000000
0.815671 0.320958 0.000000
0.844785 0.336950 0.015534
0.871885 0.354009 0.065431
0.896513 0.371618 0.093080
0.918608 0.388891 0.121035
0.938048 0.405921 0.149142
0.955566 0.422950 0.177676
0.971649 0.440528 0.208377
0.986664 0.459571 0.241093
1.000000 0.479683 0.276341
1.000000 0.501396 0.314427
1.000000 0.524468 0.355627
0.000000 0.181155 0.166232
0.006897 0.182559 0.166873
0.015167 0.184787 0.167941
0.035584 0.188388 0.169223
0.051118 0.189273 0.162875
0.072358 0.189609 0.165377
0.088075 0.194369 0.165408
0.107149 0.201999 0.163424
0.132998 0.213230 0.161318
0.218814 0.269230 0.146151
0.296117 0.287114 0.124056
0.379278 0.295903 0.101015
0.457404 0.294957 0.074739
0.525994 0.289647 0.024140
0.582788 0.298253 0.000000
0.632471 0.305180 0.000000
0.675715 0.312200 0.000000
0.713832 0.319585 0.000000
0.748226 0.328038 0.000000
0.780728 0.337987 0.000000
0.811490 0.349706 0.000000
0.840726 0.362951 0.000000
0.867887 0.377386 0.000000
0.892729 0.392370 0.062867
0.915038 0.407385 0.098604
0.934844 0.421973 0.130312
0.952728 0.437079 0.161593
0.969146 0.452705 0.192905
0.984497 0.469825 0.226780
0.998627 0.488228 0.262974
1.000000 0.508263 0.301671
1.000000 0.529839 0.343206
0.000000 0.212100 0.181888
0.000000 0.213565 0.182559
0.000000 0.215610 0.183627
0.013062 0.220127 0.186130
0.036011 0.221958 0.181186
0.066194 0.222873 0.179049
0.088685 0.223972 0.182528
0.108431 0.232029 0.180575
0.132906 0.241642 0.178134
0.168215 0.258427 0.177005
0.274693 0.325139 0.159457
0.365545 0.348882 0.127474
0.446235 0.355200 0.095155
0.517601 0.352819 0.050477
0.578546 0.345373 0.000000
0.629816 0.344640 0.000000
0.673671 0.352056 0.000000
0.712276 0.358404 0.000000
0.746792 0.364935 0.000000
0.778866 0.372442 0.000000
0.808927 0.381415 0.000000
0.837217 0.391516 0.000000
0.863554 0.402533 0.000000
0.887846 0.414282 0.000000
0.910063 0.426337 0.062043
0.930236 0.438636 0.103975
0.948730 0.451820 0.140169
0.965881 0.466011 0.174563
0.981933 0.481605 0.210544
0.996735 0.498756 0.248081
1.000000 0.517571 0.288670
1.000000 0.537713 0.331273
0.000000 0.246799 0.199771
0.000000 0.248264 0.200534
0.000000 0.250370 0.201663
0.000000 0.255039 0.204410
0.019623 0.258793 0.202457
0.051942 0.260929 0.195071
0.086427 0.262303 0.199100
0.111696 0.266697 0.201389
0.138949 0.280247 0.200839
0.173068 0.295384 0.199557
0.217746 0.314824 0.197757
0.335760 0.384070 0.177859
0.430884 0.410040 0.135775
0.506157 0.414435 0.093324
0.569879 0.411017 0.006867
0.623499 0.402533 0.000000
0.668788 0.390600 0.000000
0.707393 0.394965 0.000000
0.742000 0.400092 0.000000
0.774258 0.405737 0.000000
0.804471 0.412848 0.000000
0.833005 0.420752 0.000000
0.859678 0.429786 0.000000
0.884276 0.439216 0.000000
0.906737 0.449073 0.000000
0.927123 0.459297 0.067720
0.945769 0.470192 0.114534
0.963195 0.482185 0.153506
0.979461 0.495583 0.191897
0.994568 0.510704 0.231418
1.000000 0.527581 0.272831
1.000000 0.546014 0.316136
0.000000 0.286931 0.220859
0.000000 0.288518 0.221592
0.000000 0.290623 0.222721
0.000000 0.295171 0.225528
0.002350 0.301244 0.228000
0.040650 0.304051 0.219699
0.082399 0.308965 0.219669
0.118593 0.313664 0.226352
0.149050 0.324590 0.227848
0.183291 0.338903 0.226505
0.224094 0.354253 0.224186
0.275975 0.374823 0.222293
0.447517 0.486519 0.216922
0.541711 0.512383 0.160006
0.604486 0.511223 0.101839
0.655238 0.500999 0.000000
0.697169 0.486427 0.000000
0.732937 0.469459 0.000000
0.764340 0.457374 0.000000
0.793606 0.460822 0.000000
0.821073 0.463844 0.000000
0.846983 0.467994 0.000000
0.871061 0.472755 0.000000
0.893492 0.478584 0.000000
0.914214 0.484901 0.000000
0.933318 0.491981 0.000000
0.950927 0.499825 0.094881
0.967315 0.508873 0.141451
0.982727 0.519524 0.182040
0.997131 0.531792 0.223087
1.000000 0.545922 0.265446
1.000000 0.561669 0.309026
0.000000 0.345953 0.252354
0.000000 0.347845 0.253483
0.000000 0.349920 0.254765
0.000000 0.354925 0.257847
0.000000 0.362554 0.263371
0.048585 0.366369 0.256901
0.080568 0.370275 0.248173
0.127901 0.373816 0.254704
0.168704 0.379553 0.262669
0.204990 0.394842 0.262181
0.248753 0.412818 0.261967
0.299718 0.432258 0.261112
0.362005 0.457496 0.261112
0.489113 0.528405 0.243961
0.582422 0.558465 0.185428
0.639185 0.556634 0.128847
0.684962 0.545647 0.036316
0.722774 0.530541 0.000000
0.755917 0.513542 0.000000
0.786038 0.496925 0.000000
0.814115 0.493629 0.000000
0.840330 0.496590 0.000000
0.864775 0.499489 0.000000
0.887602 0.503349 0.000000
0.908721 0.507897 0.000000
0.928252 0.512993 0.000000
0.946349 0.519066 0.000397
0.963226 0.526299 0.105104
0.979187 0.535027 0.154940
0.994171 0.545525 0.199710
1.000000 0.557855 0.243870
1.000000 0.571862 0.289464
0.000000 0.400153 0.282750
0.000000 0.401862 0.283757
0.000000 0.403571 0.284947
0.000000 0.407202 0.287602
0.000000 0.413123 0.292302
0.068940 0.417578 0.290684
0.092378 0.420447 0.279911
0.132662 0.423835 0.279271
0.178744 0.427649 0.287236
0.219547 0.436927 0.293004
0.260533 0.453193 0.292912
0.307927 0.471138 0.292790
0.360266 0.489235 0.291936
0.421546 0.512139 0.291997
0.535210 0.575158 0.278294
0.621271 0.603113 0.217502
0.670314 0.598138 0.160800
0.710780 0.586206 0.095003
0.745876 0.570947 0.000000
0.777493 0.554955 0.000000
0.806699 0.539025 0.000000
0.834043 0.524773 0.000000
0.859007 0.527459 0.000000
0.882353 0.529747 0.000000
0.903929 0.532616 0.000000
0.923919 0.536065 0.000000
0.942443 0.540459 0.000000
0.959838 0.545953 0.033112
0.976257 0.552880 0.121675
0.991730 0.561669 0.173831
1.000000 0.572229 0.221897
1.000000 0.584222 0.269230
0.000000 0.452399 0.313481
0.000000 0.453895 0.314672
0.000000 0.454963 0.315526
0.000000 0.457954 0.317876
0.000000 0.462440 0.322210
0.096834 0.467842 0.325780
0.116701 0.469795 0.315099
0.140322 0.472999 0.305394
0.189975 0.476448 0.313024
0.236393 0.481361 0.322850
0.276799 0.493935 0.326024
0.320653 0.510094 0.326726
0.368780 0.526543 0.326818
0.419471 0.542199 0.325200
0.476112 0.561975 0.325231
0.574670 0.616083 0.315221
0.654536 0.642176 0.252995
0.697871 0.635706 0.197238
0.735012 0.623804 0.137514
0.768124 0.609430 0.042786
0.798367 0.594232 0.000000
0.826474 0.578882 0.000000
0.852567 0.563806 0.000000
0.876829 0.556481 0.000000
0.898955 0.557916 0.000000
0.919615 0.560204 0.000000
0.938964 0.563378 0.000000
0.957244 0.567712 0.000000
0.974487 0.573480 0.074739
0.990692 0.580957 0.145754
1.000000 0.589990 0.200534
1.000000 0.600488 0.251926
0.000000 0.502190 0.345068
0.000000 0.503807 0.346258
0.000000 0.505150 0.347417
0.000000 0.508110 0.350286
0.034241 0.512505 0.354681
0.126162 0.518883 0.361761
0.151522 0.522393 0.355291
0.170352 0.526207 0.344762
0.209140 0.529656 0.345098
0.256901 0.533440 0.354498
0.301854 0.538079 0.364355
0.340276 0.550713 0.364233
0.381964 0.563348 0.363287
0.426062 0.575891 0.361639
0.470741 0.587427 0.358648
0.520104 0.603143 0.357275
0.605798 0.649622 0.351751
0.682033 0.675746 0.290257
0.722438 0.669703 0.235660
0.758083 0.659327 0.180148
0.790219 0.646540 0.116121
0.819638 0.632685 0.000000
0.846799 0.617884 0.000000
0.872160 0.603235 0.000000
0.895964 0.587671 0.000000
0.917174 0.586816 0.000000
0.936950 0.588525 0.000000
0.955566 0.591455 0.000000
0.973053 0.595483 0.000000
0.989471 0.601007 0.107790
1.000000 0.607843 0.173037
1.000000 0.616114 0.228122
0.000000 0.546777 0.375769
0.000000 0.547723 0.376562
0.000000 0.548699 0.377691
0.000000 0.551110 0.380194
0.085023 0.554925 0.384802
0.148257 0.560296 0.391608
0.185580 0.564935 0.392004
0.202213 0.568017 0.381720
0.224430 0.571923 0.373175
0.272160 0.574731 0.382086
0.317998 0.578149 0.392615
0.358526 0.585077 0.399237
0.396063 0.596399 0.399420
0.435279 0.607202 0.398169
0.474983 0.617304 0.396216
0.514366 0.626368 0.392493
0.558343 0.639490 0.391424
0.633478 0.679957 0.390295
0.707149 0.706569 0.329717
0.745083 0.701167 0.275883
0.778866 0.691646 0.223026
0.809567 0.679866 0.166445
0.837766 0.666560 0.094026
0.864073 0.652644 0.000000
0.888640 0.638331 0.000000
0.911864 0.623438 0.000000
0.933165 0.612634 0.000000
0.952392 0.614252 0.000000
0.970459 0.616968 0.000000
0.987457 0.620996 0.000000
1.000000 0.626093 0.137331
1.000000 0.632776 0.201236
0.000000 0.590051 0.408545
0.000000 0.591608 0.409888
0.067445 0.618860 0.433234
0.113558 0.620630 0.436011
0.160678 0.623194 0.440314
0.208103 0.626459 0.446723
0.253696 0.630396 0.453681
0.267033 0.631830 0.443244
0.282689 0.634180 0.432105
0.316991 0.635981 0.433143
0.359991 0.637171 0.442420
0.400732 0.638636 0.452888
0.433478 0.644923 0.454780
0.465583 0.652674 0.453071
0.498695 0.660121 0.450629
0.532189 0.666987 0.446845
0.566186 0.673548 0.442542
0.604273 0.683772 0.440864
0.668330 0.717678 0.443549
0.735042 0.740383 0.383642
0.772641 0.737362 0.328893
0.804105 0.727962 0.276158
0.832914 0.716243 0.222477
0.859403 0.702907 0.163394
0.883818 0.688533 0.078737
0.906798 0.673579 0.000000
0.928557 0.658137 0.000000
0.949523 0.639185 0.000000
0.967834 0.639124 0.000000
0.985016 0.641382 0.000000
1.000000 0.644892 0.081727
1.000000 0.649744 0.166781
0.060029 0.636164 0.447150
0.087587 0.639918 0.450965
0.113191 0.643854 0.455268
0.149386 0.648188 0.460517
0.190280 0.652430 0.466896
0.234043 0.656245 0.474281
0.279789 0.660090 0.483406
0.301335 0.662226 0.479133
0.315435 0.664302 0.469398
0.333745 0.666621 0.461189
0.374914 0.667445 0.470192
0.413489 0.668452 0.479896
0.448646 0.669764 0.489357
0.476356 0.676478 0.488136
0.505119 0.682887 0.485969
0.534752 0.688930 0.482887
0.564904 0.694667 0.478798
0.595666 0.700282 0.474311
0.630701 0.709804 0.473518
0.688441 0.740475 0.481300
0.750607 0.761349 0.424445
0.790127 0.762264 0.371435
0.820676 0.754177 0.320775
0.848631 0.743648 0.269230
0.874266 0.731197 0.215152
0.898253 0.717830 0.151797
0.920989 0.703792 0.027314
0.942748 0.688899 0.000000
0.963745 0.671382 0.000000
0.982605 0.662409 0.000000
0.998840 0.664454 0.000000
1.000000 0.667750 0.122530
0.130922 0.668818 0.477668
0.146609 0.671931 0.481331
0.163729 0.675257 0.485267
0.190738 0.678737 0.490272
0.225467 0.682185 0.496498
0.264012 0.685237 0.503655
0.305760 0.688350 0.512352
0.337346 0.690913 0.515831
0.350042 0.692683 0.507439
0.364019 0.694942 0.498299
0.392981 0.696407 0.499947
0.428901 0.697047 0.509148
0.462593 0.697505 0.518975
0.491157 0.700160 0.524376
0.516136 0.705776 0.522759
0.542046 0.711147 0.520287
0.568566 0.716243 0.516808
0.596094 0.721340 0.513146
0.624384 0.726589 0.509209
0.656580 0.735348 0.509209
0.708248 0.762936 0.521599
0.766354 0.782132 0.467750
0.807065 0.786038 0.416785
0.836484 0.779019 0.367590
0.863401 0.769162 0.317357
0.888396 0.757565 0.265904
0.911894 0.745022 0.209842
0.934478 0.732082 0.142306
0.956023 0.717708 0.029084
0.976562 0.700862 0.000000
0.996338 0.684138 0.000000
1.000000 0.686000 0.004364
0.184024 0.699306 0.508873
0.195834 0.701839 0.512169
0.209812 0.704616 0.515984
0.232547 0.707607 0.521050
0.262150 0.710414 0.527001
0.296025 0.712825 0.533867
0.333562 0.715114 0.542046
0.373602 0.717800 0.552819
0.384924 0.719203 0.545312
0.397223 0.721004 0.537316
0.412329 0.722957 0.530266
0.445380 0.723262 0.538781
0.476509 0.723445 0.547814
0.506188 0.723598 0.557458
0.529778 0.727443 0.559258
0.552728 0.732662 0.557946
0.576928 0.738064 0.556390
0.602228 0.743618 0.554803
0.628504 0.749355 0.553521
0.655543 0.755337 0.552026
0.685786 0.764187 0.554345
0.732387 0.789395 0.572320
0.785977 0.806668 0.522606
0.827543 0.812833 0.474159
0.855833 0.806699 0.426612
0.881865 0.797910 0.378729
0.906310 0.787411 0.329564
0.929625 0.775937 0.277958
0.951751 0.763546 0.221225
0.972656 0.749203 0.171511
0.992615 0.733120 0.124880
1.000000 0.716396 0.044678
0.249180 0.735805 0.550713
0.256565 0.736995 0.552758
0.265476 0.738064 0.554864
0.282719 0.739376 0.558282
0.306798 0.740719 0.563073
0.335515 0.742123 0.569085
0.368475 0.743801 0.576959
0.404273 0.745876 0.587213
0.425483 0.747799 0.588312
0.436896 0.749630 0.582116
0.449287 0.751766 0.575494
0.471809 0.752804 0.577447
0.500145 0.752895 0.585748
0.527153 0.752865 0.594537
0.552117 0.752956 0.602777
0.571527 0.757473 0.601770
0.592096 0.761990 0.600336
0.613672 0.766659 0.598871
0.636347 0.771450 0.597467
0.659846 0.776303 0.595819
0.683772 0.781247 0.594263
0.710597 0.788540 0.595544
0.751369 0.810147 0.614771
0.799832 0.824735 0.567346
0.841428 0.832212 0.520500
0.868467 0.826841 0.474922
0.893919 0.819059 0.428717
0.917998 0.809689 0.381750
0.940917 0.799039 0.332708
0.962921 0.787625 0.280003
0.983307 0.774411 0.245609
1.000000 0.760861 0.216464
0.293614 0.761166 0.582086
0.300389 0.762203 0.584039
0.308263 0.763180 0.586236
0.323247 0.764218 0.589654
0.343847 0.765255 0.594171
0.368963 0.766171 0.599847
0.397894 0.767330 0.607172
0.429725 0.768673 0.616449
0.458991 0.770474 0.624720
0.468482 0.771908 0.619043
0.479194 0.773556 0.613184
0.491157 0.775357 0.607752
0.517021 0.775296 0.615381
0.541985 0.775296 0.623346
0.565759 0.775265 0.631525
0.586419 0.776761 0.636561
0.604486 0.781064 0.636042
0.623590 0.785367 0.635279
0.643702 0.789914 0.634730
0.664668 0.794522 0.633845
0.686397 0.799222 0.633204
0.708553 0.803891 0.632288
0.733150 0.810452 0.634302
0.769680 0.829648 0.655238
0.811246 0.839536 0.605249
0.852903 0.848569 0.562249
0.879179 0.844175 0.519677
0.903960 0.837339 0.475654
0.927581 0.829038 0.431220
0.950317 0.819852 0.385443
0.972076 0.810117 0.340917
0.991821 0.799802 0.320165
0.348638 0.790341 0.621729
0.354253 0.791287 0.623804
0.360967 0.791958 0.625696
0.372900 0.792416 0.628504
0.389746 0.792813 0.632258
0.410681 0.793118 0.637201
0.435340 0.793423 0.643549
0.462684 0.793942 0.651423
0.491951 0.794858 0.661128
0.503716 0.795560 0.658656
0.511803 0.796292 0.652613
0.520714 0.797360 0.646540
0.536645 0.797635 0.646387
0.558618 0.796994 0.652613
0.579583 0.796231 0.658839
0.599756 0.795499 0.665492
0.616175 0.797421 0.666590
0.632349 0.800900 0.665461
0.649866 0.804807 0.664698
0.668757 0.809171 0.664668
0.688441 0.813596 0.664637
0.708583 0.818021 0.664485
0.728908 0.822110 0.663569
0.751125 0.827573 0.664546
0.783810 0.844022 0.683619
0.823789 0.855009 0.644923
0.864988 0.864958 0.605676
0.889860 0.861112 0.566369
0.913817 0.855406 0.525780
0.936919 0.848539 0.485481
0.959136 0.841337 0.445686
0.979889 0.834287 0.416602
0.386023 0.810758 0.650690
0.391180 0.811612 0.652796
0.397131 0.812192 0.654597
0.407630 0.812528 0.657221
0.422553 0.812772 0.660822
0.441077 0.812955 0.665492
0.462928 0.813169 0.671412
0.487434 0.813687 0.678767
0.513848 0.814481 0.687709
0.533501 0.815488 0.692287
0.540826 0.816312 0.687373
0.548943 0.817411 0.682307
0.557610 0.818540 0.677180
0.577417 0.818173 0.682765
0.596887 0.817594 0.688533
0.615747 0.817014 0.694606
0.633997 0.816587 0.701137
0.648096 0.819699 0.700587
0.663294 0.823148 0.700099
0.679713 0.826932 0.700069
0.696986 0.830838 0.700160
0.714778 0.834714 0.700160
0.732967 0.838437 0.699763
0.751339 0.841855 0.698695
0.771206 0.846250 0.699031
0.800565 0.860227 0.715084
0.836271 0.869749 0.682551
0.876371 0.880308 0.648341
0.900816 0.878233 0.615137
0.923857 0.874174 0.581842
0.946136 0.869444 0.549279
0.967468 0.865110 0.519951
0.426276 0.831540 0.682063
0.430701 0.832029 0.683619
0.435004 0.832303 0.684932
0.443580 0.832334 0.686946
0.455787 0.832242 0.689845
0.471565 0.832151 0.693660
0.490364 0.832090 0.698695
0.511742 0.832212 0.705074
0.535546 0.832731 0.712947
0.560540 0.833677 0.722408
0.567834 0.834409 0.718776
0.575189 0.835447 0.714778
0.582940 0.836545 0.710384
0.595331 0.836942 0.710079
0.613123 0.836362 0.715267
0.630488 0.835813 0.720699
0.647395 0.835233 0.726253
0.662745 0.835782 0.730343
0.675959 0.838865 0.730068
0.690242 0.842130 0.730007
0.705470 0.845609 0.730312
0.721309 0.849088 0.730404
0.737362 0.852293 0.730068
0.753658 0.855314 0.729061
0.770230 0.858030 0.727535
0.788174 0.861601 0.727199
0.814939 0.873808 0.741146
0.847013 0.882444 0.714900
0.884337 0.892332 0.685359
0.910033 0.893278 0.658198
0.931914 0.891142 0.633173
0.952819 0.889311 0.612421
0.460548 0.849332 0.709346
0.463783 0.849638 0.710445
0.467750 0.849821 0.711696
0.475196 0.849851 0.713619
0.486427 0.849943 0.716548
0.501335 0.850156 0.720760
0.519371 0.850706 0.726467
0.540032 0.851560 0.733547
0.563012 0.852781 0.742153
0.587304 0.854337 0.751980
0.602808 0.855985 0.755917
0.610529 0.857542 0.753872
0.618341 0.859098 0.751431
0.626123 0.860410 0.748592
0.641382 0.860380 0.752651
0.657130 0.859922 0.757504
0.672419 0.859464 0.762417
0.687404 0.859098 0.767605
0.700160 0.860563 0.769833
0.712062 0.863249 0.769680
0.724697 0.865965 0.769558
0.737972 0.868711 0.769375
0.751614 0.871305 0.768765
0.765652 0.873808 0.767910
0.779995 0.876127 0.766659
0.794766 0.878294 0.765042
0.810788 0.881193 0.764309
0.834531 0.891325 0.775540
0.862547 0.898924 0.755795
0.896147 0.908049 0.732540
0.922515 0.911986 0.713283
0.942596 0.912322 0.699336
0.506554 0.871397 0.745052
0.509056 0.871550 0.745876
0.511894 0.871519 0.746578
0.517998 0.871397 0.748074
0.527245 0.871214 0.750332
0.539330 0.871061 0.753597
0.554162 0.871061 0.757900
0.571527 0.871244 0.763394
0.590692 0.871672 0.769986
0.611475 0.872343 0.777737
0.631586 0.873228 0.785336
0.637324 0.874083 0.782712
0.643397 0.874937 0.779965
0.649653 0.875761 0.776944
