data/fiter_cube/96471014/1022815/file.cube
# Created by Adobe Lightroom plugin Export LUT (1.17.0)
# www.johnrellis.com/lightroom/exportlut.htm
# Preset: 复古预设2
# Color profile: C:\Program Files (x86)\Common Files\Adobe\Color\Profiles\Recommended\AdobeRGB1998.icc
LUT_3D_SIZE 5
DOMAIN_MIN 0.000000 0.000000 0.000000
DOMAIN_MAX 0.903226 0.903226 0.903226
0.049531 0.090639 0.111910
0.164523 0.105348 0.121370
0.588678 0.000275 0.108309
0.856687 0.239597 0.118654
0.985473 0.413245 0.264530
0.021393 0.155947 0.153079
0.107912 0.177768 0.149538
0.585565 0.257847 0.044312
0.844785 0.336950 0.015534
0.986664 0.459571 0.241093
0.000000 0.452399 0.313481
0.140322 0.472999 0.305394
0.476112 0.561975 0.325231
0.826474 0.578882 0.000000
0.974487 0.573480 0.074739
0.249180 0.735805 0.550713
0.404273 0.745876 0.587213
0.552117 0.752956 0.602777
0.710597 0.788540 0.595544
0.940917 0.799039 0.332708
0.536767 0.886687 0.769070
0.595453 0.886503 0.785916
0.667903 0.885435 0.790341
0.754574 0.890501 0.811429
0.841459 0.906310 0.808804
0.000000 0.089937 0.187503
0.153292 0.080201 0.189914
0.550927 0.004181 0.174136
0.826688 0.239109 0.140383
0.976867 0.399298 0.246067
0.000000 0.153811 0.192111
0.134279 0.187198 0.198245
0.550683 0.226535 0.172427
0.821225 0.325505 0.127993
0.975555 0.441535 0.218326
0.000000 0.423713 0.334264
0.199008 0.462531 0.370031
0.466621 0.539910 0.377142
0.806973 0.530907 0.076844
0.970642 0.566796 0.065614
0.225162 0.726131 0.563775
0.390784 0.736721 0.597162
0.560266 0.749264 0.628138
0.713283 0.787716 0.633234
0.937987 0.789853 0.371771
0.515435 0.884611 0.769253
0.578149 0.884337 0.785092
0.683955 0.888640 0.810544
0.761196 0.892180 0.824369
0.845640 0.908354 0.822660
0.000000 0.081910 0.466926
0.000000 0.021088 0.451698
0.571862 0.000000 0.444068
0.810178 0.220432 0.417029
0.962585 0.439399 0.443885
0.000000 0.158267 0.482246
0.000000 0.143893 0.466194
0.559991 0.000000 0.436286
0.796109 0.355779 0.443336
0.962493 0.468818 0.433234
0.000000 0.414099 0.462440
0.000000 0.432807 0.461189
0.507774 0.511376 0.475227
0.785702 0.521965 0.424506
0.957305 0.567742 0.399695
0.000000 0.694148 0.601373
0.264958 0.702480 0.615625
0.564569 0.736843 0.678950
0.724727 0.789914 0.718990
0.935760 0.745296 0.436011
0.430884 0.874754 0.774533
0.505974 0.876280 0.786587
0.669581 0.882719 0.825986
0.764370 0.888151 0.844633
0.849424 0.907805 0.846098
0.000000 0.051331 0.775875
0.000000 0.000000 0.769894
0.498634 0.000000 0.744259
0.815610 0.000000 0.673487
0.950561 0.387732 0.654261
0.000000 0.096315 0.777951
0.000000 0.061982 0.770626
0.483009 0.000000 0.744076
0.806729 0.000000 0.669032
0.938933 0.471077 0.672236
0.000000 0.426581 0.769039
0.000000 0.422248 0.766903
0.423438 0.408423 0.744625
0.763394 0.447700 0.674708
0.908324 0.661830 0.743221
0.000000 0.686549 0.739010
0.000000 0.689845 0.734737
0.439399 0.704799 0.733181
0.721187 0.744198 0.740017
0.915312 0.723720 0.678706
0.178988 0.861540 0.808255
0.327245 0.862425 0.812314
0.562646 0.868559 0.830198
0.758053 0.886564 0.868132
0.861173 0.910857 0.882322
0.000000 0.023774 0.940673
0.000000 0.000000 0.938018
0.416327 0.000000 0.929778
0.772152 0.000000 0.912169
0.954925 0.000000 0.822202
0.000000 0.017823 0.940337
0.000000 0.000000 0.937743
0.395178 0.000000 0.929198
0.758938 0.000000 0.909300
0.950500 0.000000 0.821836
0.000000 0.295781 0.938964
0.000000 0.241398 0.937896
0.000000 0.166018 0.928557
0.712825 0.000000 0.906981
0.938262 0.238804 0.832822
0.000000 0.654292 0.919951
0.000000 0.647791 0.918914
0.000000 0.630915 0.918578
0.617426 0.619043 0.908568
0.902647 0.667964 0.860777
0.000000 0.860227 0.901671
0.000000 0.860746 0.900420
0.093965 0.862364 0.898009
0.618250 0.862791 0.892180
0.857298 0.884550 0.897795
