data/fiter_cube/96471014/1022815/file.cube
# Created by Adobe Lightroom plugin Export LUT (1.17.0)
# www.johnrellis.com/lightroom/exportlut.htm
# Preset: 复古预设2
# Color profile: C:\Program Files (x86)\Common Files\Adobe\Color\Profiles\Recommended\AdobeRGB1998.icc
LUT_3D_SIZE 8
DOMAIN_MIN 0.000000 0.000000 0.000000
DOMAIN_MAX 0.903226 0.903226 0.903226
0.049531 0.090639 0.111910
0.083650 0.096681 0.116670
0.208469 0.106020 0.122103
0.460243 0.059205 0.116335
0.700679 0.091951 0.099916
0.831327 0.212375 0.109377
0.919310 0.313939 0.164157
0.985473 0.413245 0.264530
0.047913 0.109346 0.126436
0.066499 0.113344 0.126009
0.202029 0.137179 0.116060
0.441016 0.136873 0.108492
0.678584 0.162295 0.085939
0.812741 0.236790 0.087678
0.908202 0.323400 0.142794
0.980316 0.417121 0.246799
0.000000 0.181155 0.166232
0.051118 0.189273 0.162875
0.132998 0.213230 0.161318
0.457404 0.294957 0.074739
0.675715 0.312200 0.000000
0.811490 0.349706 0.000000
0.915038 0.407385 0.098604
0.984497 0.469825 0.226780
0.000000 0.345953 0.252354
0.000000 0.362554 0.263371
0.168704 0.379553 0.262669
0.362005 0.457496 0.261112
0.684962 0.545647 0.036316
0.814115 0.493629 0.000000
0.908721 0.507897 0.000000
0.979187 0.535027 0.154940
0.000000 0.546777 0.375769
0.085023 0.554925 0.384802
0.224430 0.571923 0.373175
0.396063 0.596399 0.399420
0.558343 0.639490 0.391424
0.778866 0.691646 0.223026
0.888640 0.638331 0.000000
0.970459 0.616968 0.000000
0.184024 0.699306 0.508873
0.262150 0.710414 0.527001
0.384924 0.719203 0.545312
0.476509 0.723445 0.547814
0.576928 0.738064 0.556390
0.685786 0.764187 0.554345
0.855833 0.806699 0.426612
0.951751 0.763546 0.221225
0.386023 0.810758 0.650690
0.422553 0.812772 0.660822
0.513848 0.814481 0.687709
0.557610 0.818540 0.677180
0.633997 0.816587 0.701137
0.696986 0.830838 0.700160
0.771206 0.846250 0.699031
0.900816 0.878233 0.615137
0.536767 0.886687 0.769070
0.555261 0.886412 0.773861
0.613062 0.886870 0.791928
0.668482 0.889982 0.806363
0.693507 0.885161 0.796963
0.743618 0.887938 0.810880
0.789792 0.897765 0.811704
0.841459 0.906310 0.808804
0.023163 0.090486 0.136934
0.079133 0.090089 0.134859
0.184909 0.108186 0.134859
0.423743 0.101411 0.125338
0.665461 0.128450 0.093874
0.803616 0.209018 0.094331
0.902892 0.301152 0.145052
0.976806 0.398871 0.246067
0.026856 0.108827 0.137728
0.071107 0.117006 0.139712
0.185885 0.134554 0.136812
0.419898 0.144533 0.123415
0.656275 0.178866 0.083803
0.795010 0.239536 0.076478
0.894499 0.314641 0.127626
0.971221 0.402869 0.228824
0.000000 0.174899 0.174350
0.066255 0.190005 0.185122
0.139498 0.217685 0.183474
0.432807 0.263951 0.111635
0.649531 0.294774 0.053895
0.791592 0.341283 0.000000
0.895811 0.390448 0.072847
0.973907 0.453986 0.205753
0.000000 0.328496 0.256382
0.000000 0.345373 0.268650
0.170657 0.366369 0.274357
0.336797 0.427771 0.270878
0.644282 0.500206 0.109010
0.784756 0.463935 0.000000
0.888701 0.489418 0.000000
0.968688 0.521416 0.132052
0.000000 0.535241 0.380774
0.080842 0.541680 0.387701
0.230594 0.558526 0.383307
0.381781 0.575158 0.399664
0.540612 0.619287 0.392248
0.763790 0.672786 0.233341
0.878325 0.622095 0.000000
0.963958 0.609400 0.000000
0.166812 0.686610 0.504723
0.233738 0.690883 0.513725
0.374304 0.702358 0.539757
0.464820 0.710384 0.541039
0.570153 0.728756 0.556573
0.683162 0.760220 0.562371
0.851225 0.800778 0.433173
0.947387 0.756283 0.228824
0.360693 0.799649 0.638575
0.392859 0.799191 0.644038
0.491615 0.802762 0.672572
0.550347 0.810117 0.672602
0.628779 0.811246 0.697963
0.692134 0.825498 0.698054
0.765835 0.840757 0.695399
0.895964 0.872435 0.607385
0.521386 0.882292 0.762448
0.542107 0.882689 0.768368
0.602777 0.883543 0.787076
0.666102 0.887236 0.805966
0.700374 0.888396 0.805234
0.746700 0.888975 0.815824
0.789242 0.896788 0.813046
0.839628 0.904509 0.808347
0.000000 0.089570 0.217227
0.003754 0.085573 0.212619
0.198154 0.062196 0.218173
0.421790 0.000000 0.202457
0.665553 0.074342 0.200076
0.803708 0.220096 0.188998
0.906218 0.318090 0.172030
0.980682 0.405310 0.254246
0.000000 0.110201 0.222538
0.000000 0.109834 0.217777
0.190341 0.103914 0.212436
0.410864 0.119081 0.210727
0.652705 0.147860 0.198489
0.795529 0.244846 0.183566
0.899931 0.331609 0.164584
0.977600 0.412787 0.241337
0.000000 0.178622 0.220127
0.000000 0.186374 0.221134
0.172396 0.224186 0.227848
0.427070 0.244724 0.212741
0.653376 0.283055 0.195224
0.792660 0.336950 0.175387
0.896056 0.395880 0.155612
0.975189 0.453956 0.209476
0.000000 0.320653 0.289647
0.000000 0.339330 0.301610
0.196567 0.381262 0.327703
0.377722 0.449104 0.344640
0.649531 0.464240 0.203983
0.786801 0.460243 0.156252
0.890867 0.490974 0.138796
0.972259 0.523033 0.143038
0.000000 0.519158 0.401892
0.000000 0.530205 0.412146
0.291386 0.561486 0.452064
0.413397 0.581567 0.459907
0.566735 0.635279 0.467781
0.764553 0.658991 0.306065
0.878416 0.598718 0.111177
0.964202 0.608148 0.080018
0.116762 0.678706 0.521904
0.209110 0.683558 0.531548
0.377996 0.695705 0.564111
0.476143 0.706813 0.570611
0.576654 0.723232 0.590936
0.686000 0.758816 0.603510
0.846281 0.790982 0.471901
0.947295 0.745724 0.282597
0.344121 0.798001 0.651667
0.380438 0.798154 0.657740
0.480079 0.800259 0.680903
0.566003 0.806973 0.698665
0.632654 0.809567 0.713008
0.696773 0.824582 0.719753
0.772213 0.844450 0.725643
0.897978 0.872892 0.640589
0.500175 0.880949 0.764401
0.518273 0.880369 0.767605
0.582269 0.880522 0.784268
0.673030 0.885679 0.817868
0.701137 0.887816 0.811765
0.750484 0.888640 0.825315
0.792966 0.897429 0.824247
0.843931 0.906676 0.822354
0.000000 0.085908 0.370397
0.000000 0.078828 0.368414
0.153994 0.036164 0.351415
0.446937 0.000000 0.360723
0.658747 0.000000 0.328344
0.785458 0.215274 0.349310
0.889006 0.325322 0.342992
0.972076 0.405188 0.335698
0.000000 0.099702 0.380957
0.000000 0.098390 0.376776
0.154482 0.080446 0.358556
0.445533 0.000000 0.357580
0.651881 0.000000 0.334234
0.781064 0.245670 0.347356
0.885496 0.340368 0.339178
0.970611 0.413672 0.330144
0.000000 0.198825 0.384405
0.000000 0.196628 0.384802
0.131075 0.193301 0.371740
0.426612 0.189853 0.355871
0.635157 0.283970 0.366674
0.782101 0.347234 0.355383
0.890837 0.415900 0.350164
0.972564 0.462654 0.331762
0.000000 0.327550 0.376684
0.000000 0.334813 0.377050
0.137301 0.367895 0.387610
0.406836 0.420783 0.391638
0.629114 0.424781 0.356359
0.771267 0.455146 0.342473
0.880156 0.491463 0.330266
0.966583 0.526299 0.317784
0.000000 0.499763 0.447303
0.000000 0.508324 0.452796
0.225864 0.539605 0.479103
0.438514 0.579828 0.525109
0.592035 0.643214 0.540490
0.761807 0.620050 0.386450
0.873533 0.594598 0.314855
0.959899 0.608606 0.300908
0.000000 0.670558 0.557702
0.127138 0.680842 0.570336
0.341772 0.691371 0.592828
0.511070 0.710719 0.634485
0.597894 0.726894 0.652583
0.699794 0.766598 0.670405
0.844205 0.776333 0.528222
0.948302 0.719295 0.338018
0.283909 0.790860 0.667384
0.330938 0.792691 0.673823
0.449744 0.797665 0.695949
0.581292 0.807492 0.735592
0.645258 0.814725 0.744472
0.707942 0.827146 0.756222
0.780056 0.848173 0.763027
0.898253 0.867369 0.670558
0.470344 0.880400 0.775082
0.492256 0.880705 0.779049
0.554559 0.881163 0.790829
0.644648 0.883574 0.814786
0.705928 0.887602 0.826566
0.755154 0.888243 0.838773
0.797543 0.897887 0.839597
0.849485 0.908995 0.840543
0.000000 0.076112 0.563775
0.000000 0.063294 0.561730
0.068269 0.000000 0.545739
0.388281 0.000000 0.519493
0.666194 0.000000 0.521263
0.792172 0.000000 0.467536
0.874937 0.346471 0.508324
0.948943 0.491279 0.556237
0.000000 0.083436 0.568811
0.000000 0.077974 0.567620
0.000000 0.000000 0.551873
0.389380 0.000000 0.523095
0.663355 0.000000 0.517937
0.787900 0.000000 0.472663
0.869810 0.390906 0.524620
0.948699 0.496712 0.552758
0.000000 0.180850 0.577508
0.000000 0.170077 0.574182
0.000000 0.160830 0.558404
0.390784 0.114656 0.535851
0.645533 0.000000 0.508690
0.766781 0.293248 0.490700
0.859037 0.459693 0.538842
0.946899 0.510582 0.534234
0.000000 0.355261 0.568811
0.000000 0.357000 0.568414
0.000000 0.365332 0.568688
0.378485 0.367102 0.551415
0.613947 0.401068 0.523613
0.744198 0.483558 0.537346
0.857481 0.517418 0.525811
0.949584 0.544335 0.505486
0.000000 0.501366 0.548913
0.000000 0.506584 0.548943
0.000000 0.520989 0.547051
0.392370 0.549889 0.561456
0.587060 0.591760 0.559289
0.738674 0.575677 0.511894
0.853544 0.591150 0.495277
0.946471 0.608331 0.476570
0.000000 0.639704 0.592493
0.000000 0.641749 0.593988
0.207401 0.652491 0.604486
0.446235 0.676173 0.637201
0.586389 0.702480 0.677394
0.702876 0.757382 0.697139
0.839261 0.734432 0.557733
0.941650 0.696071 0.456062
0.123995 0.774960 0.688655
0.206271 0.775723 0.691157
0.362768 0.779904 0.703334
0.520348 0.790066 0.731136
0.640375 0.806821 0.765316
0.707790 0.820371 0.781308
0.783963 0.847410 0.793484
0.897612 0.851225 0.684688
0.388464 0.871244 0.780331
0.414160 0.871061 0.782498
0.489906 0.871427 0.790951
0.594324 0.877379 0.812131
0.696010 0.882994 0.838590
0.750637 0.887449 0.846921
0.798642 0.895781 0.853635
0.852689 0.908904 0.856168
0.000000 0.057527 0.747585
0.000000 0.009705 0.745388
0.000000 0.000000 0.734127
0.379614 0.000000 0.715419
0.617975 0.000000 0.693019
0.793423 0.000000 0.648920
0.887510 0.000000 0.601892
0.947997 0.446479 0.648371
0.000000 0.036713 0.742916
0.000000 0.002533 0.740047
0.000000 0.000000 0.729946
0.368963 0.000000 0.712886
0.612329 0.000000 0.688472
0.788632 0.000000 0.644709
0.882750 0.084871 0.603937
0.944121 0.468666 0.653956
0.000000 0.131228 0.748257
0.000000 0.130343 0.745174
0.000000 0.112886 0.735683
0.350469 0.000000 0.721920
0.611719 0.000000 0.695338
0.781521 0.000000 0.644678
0.871275 0.324712 0.622705
0.933806 0.543420 0.680385
0.000000 0.343206 0.752041
0.000000 0.338384 0.750698
0.000000 0.326085 0.744533
0.319707 0.322911 0.733913
0.606714 0.318303 0.710780
0.764920 0.370428 0.660273
0.852537 0.517418 0.666987
0.918975 0.643061 0.725582
0.000000 0.526207 0.727749
0.000000 0.528710 0.727474
0.000000 0.537011 0.726040
0.271183 0.548119 0.724453
0.561547 0.544701 0.707271
0.722805 0.581445 0.679408
0.824857 0.639734 0.698268
0.920958 0.656153 0.687739
0.000000 0.650385 0.701839
0.000000 0.654688 0.703304
0.000000 0.661952 0.701778
0.337407 0.670130 0.698634
0.555962 0.685634 0.708888
0.699275 0.719081 0.710109
0.824430 0.700740 0.666224
0.923827 0.705165 0.647089
0.000000 0.773831 0.742550
0.000000 0.774899 0.743832
0.215976 0.773831 0.744564
0.439002 0.776364 0.752834
0.598657 0.791836 0.777768
0.706966 0.813138 0.808591
0.793545 0.847532 0.819821
0.903014 0.821164 0.700160
0.248722 0.864317 0.801785
0.289067 0.864103 0.802670
0.394934 0.864256 0.807156
0.519829 0.867491 0.818173
0.639002 0.873442 0.835599
0.745876 0.884611 0.862150
0.800900 0.893645 0.871580
0.859678 0.910765 0.877256
0.000000 0.026032 0.865599
0.000000 0.000000 0.866331
0.000000 0.000000 0.861967
0.350896 0.000000 0.853788
0.586847 0.000000 0.837949
0.766384 0.000000 0.812406
0.881804 0.000000 0.747005
0.958434 0.000000 0.706233
0.000000 0.009400 0.860472
0.000000 0.000000 0.861021
0.000000 0.000000 0.857023
0.328374 0.000000 0.846921
0.574304 0.000000 0.830442
0.756619 0.000000 0.803861
0.873503 0.000000 0.739132
0.951720 0.018708 0.700862
0.000000 0.086213 0.867247
0.000000 0.078676 0.865812
0.000000 0.000000 0.859464
0.271397 0.000000 0.849119
0.560021 0.000000 0.832090
0.753017 0.000000 0.806332
0.871550 0.000000 0.743984
0.946838 0.313176 0.719356
0.000000 0.278325 0.870085
0.000000 0.267277 0.867857
0.000000 0.239170 0.862181
0.157931 0.224796 0.853391
0.536004 0.187137 0.837430
0.745022 0.180819 0.814878
0.863035 0.272923 0.755917
0.934264 0.491218 0.746975
0.000000 0.493874 0.853880
0.000000 0.490547 0.852445
0.000000 0.482887 0.850217
0.000000 0.470985 0.846860
0.474067 0.460639 0.833066
0.708705 0.462470 0.811765
0.834440 0.514336 0.764096
0.913909 0.632868 0.777096
0.000000 0.655329 0.834318
0.000000 0.656428 0.834012
0.000000 0.660304 0.832975
0.000000 0.666438 0.832059
0.442451 0.672267 0.830167
0.667201 0.670222 0.819364
0.805814 0.698909 0.795010
0.891386 0.752071 0.816281
0.000000 0.767086 0.819455
0.000000 0.769039 0.819974
0.000000 0.771939 0.818723
0.220310 0.775570 0.816953
0.487373 0.777615 0.812314
0.659968 0.787442 0.817105
0.783505 0.811398 0.818143
0.892546 0.787900 0.777340
0.000000 0.867948 0.843626
0.000000 0.867582 0.843503
0.053346 0.868132 0.845365
0.380957 0.864836 0.845426
0.553429 0.860777 0.847135
0.690913 0.870787 0.863035
0.795132 0.888090 0.886046
0.868284 0.912047 0.898039
0.000000 0.023774 0.940673
0.000000 0.000000 0.940551
0.000000 0.000000 0.937011
0.236515 0.000000 0.932799
0.542412 0.000000 0.925811
0.731228 0.000000 0.915190
0.873228 0.000000 0.889891
0.954925 0.000000 0.822202
0.000000 0.019623 0.938964
0.000000 0.000000 0.938872
0.000000 0.000000 0.935821
0.230930 0.000000 0.931060
0.537865 0.000000 0.924132
0.724849 0.000000 0.912963
0.868650 0.000000 0.887236
0.951843 0.000000 0.820157
0.000000 0.020600 0.939757
0.000000 0.000000 0.939269
0.000000 0.000000 0.935454
0.179202 0.000000 0.932677
0.507378 0.000000 0.924285
0.710445 0.000000 0.911925
0.862882 0.000000 0.886961
0.948455 0.000000 0.821408
0.000000 0.168063 0.941070
0.000000 0.148318 0.941100
0.000000 0.117830 0.938079
0.000000 0.000000 0.933684
0.444038 0.000000 0.925780
0.686793 0.000000 0.913787
0.854734 0.000000 0.891020
0.943511 0.000000 0.828092
0.000000 0.416632 0.935149
0.000000 0.406989 0.936034
0.000000 0.368933 0.935393
0.000000 0.312810 0.933959
0.311040 0.294865 0.924773
0.635981 0.274968 0.912016
0.833494 0.296300 0.894530
0.932372 0.398627 0.840787
0.000000 0.610742 0.921172
0.000000 0.607202 0.920653
0.000000 0.597070 0.919829
0.000000 0.581170 0.920073
0.000000 0.559350 0.920012
0.566918 0.560937 0.911833
0.800046 0.580316 0.900420
0.909941 0.626520 0.857542
0.000000 0.755398 0.908995
0.000000 0.755093 0.908568
0.000000 0.754726 0.907622
0.000000 0.756100 0.907317
0.153445 0.758022 0.906767
0.533898 0.764675 0.907225
0.745205 0.760311 0.900847
0.878843 0.778225 0.873655
0.000000 0.860227 0.901671
0.000000 0.860227 0.901183
0.000000 0.861051 0.900206
0.000000 0.862303 0.898985
0.343114 0.862181 0.896605
0.574243 0.862486 0.893126
0.736751 0.868070 0.893431
0.857298 0.884550 0.897795
