data/fiter_cube/44540723/1023236/file.cube
# Created by Adobe Lightroom plugin Export LUT (1.17.0)
# www.johnrellis.com/lightroom/exportlut.htm
# Preset: 奶油色调低饱和（弱光环境）_07 云集
# Color profile: C:\Program Files (x86)\Common Files\Adobe\Color\Profiles\Recommended\AdobeRGB1998.icc
LUT_3D_SIZE 5
DOMAIN_MIN 0.000000 0.000000 0.000000
DOMAIN_MAX 0.903226 0.903226 0.903226
0.074922 0.071351 0.069123
0.241581 0.093812 0.097963
0.650507 0.257023 0.264683
0.805020 0.516136 0.497902
0.880827 0.666377 0.650446
0.132570 0.298894 0.124758
0.254978 0.286107 0.201907
0.666835 0.414740 0.290959
0.806485 0.559777 0.508293
0.884794 0.687251 0.660517
0.473640 0.641108 0.424994
0.523125 0.624750 0.449866
0.646113 0.624384 0.539025
0.803067 0.679255 0.577508
0.887083 0.730861 0.669276
0.688014 0.760372 0.625299
0.701534 0.755978 0.632654
0.730861 0.740871 0.651301
0.776516 0.739956 0.686183
0.869200 0.791104 0.729549
0.800565 0.839628 0.738186
0.805264 0.837675 0.740444
0.815488 0.828519 0.743801
0.842252 0.826535 0.764889
0.874052 0.833555 0.795529
0.000000 0.100771 0.235813
0.269291 0.012543 0.302831
0.624109 0.345525 0.419837
0.779843 0.550469 0.563104
0.868345 0.670985 0.668482
0.093263 0.344121 0.307897
0.333623 0.356481 0.359289
0.639551 0.464973 0.458839
0.784695 0.581537 0.569268
0.871000 0.685237 0.672480
0.454871 0.656184 0.451911
0.558618 0.637568 0.518700
0.643977 0.621393 0.565301
0.798123 0.675929 0.598199
0.880430 0.731777 0.686458
0.693233 0.763394 0.641627
0.713588 0.758541 0.656092
0.738857 0.743862 0.668421
0.778103 0.741238 0.695552
0.870634 0.791867 0.735042
0.803281 0.841001 0.746059
0.807797 0.838987 0.747890
0.823423 0.834165 0.756649
0.845853 0.829587 0.772641
0.876371 0.835935 0.801114
0.000000 0.270573 0.599573
0.230014 0.228244 0.616571
0.650660 0.251377 0.620722
0.775601 0.554253 0.636133
0.861845 0.679622 0.709346
0.457740 0.533196 0.601587
0.445655 0.485359 0.617121
0.660883 0.444160 0.629114
0.773678 0.602197 0.649836
0.862669 0.696681 0.716548
0.520287 0.678584 0.631769
0.582055 0.671717 0.638270
0.684932 0.655024 0.649683
0.782864 0.690150 0.683772
0.870115 0.737545 0.730159
0.671138 0.778897 0.657313
0.695888 0.771847 0.669764
0.756161 0.756405 0.706935
0.787106 0.749111 0.723049
0.878782 0.793790 0.750393
0.787167 0.846891 0.744137
0.799893 0.845457 0.753841
0.828367 0.839963 0.774563
0.846036 0.830747 0.782986
0.876158 0.835660 0.807645
0.423102 0.505028 0.741146
0.452247 0.479133 0.745388
0.604730 0.394232 0.755123
0.786923 0.491188 0.743648
0.863188 0.670985 0.756252
0.590021 0.626001 0.736416
0.576898 0.598077 0.741115
0.638453 0.527092 0.749844
0.784146 0.553307 0.741451
0.861021 0.685389 0.757046
0.712642 0.724178 0.738277
0.729610 0.725795 0.739071
0.721523 0.699214 0.745785
0.784054 0.666957 0.742123
0.863981 0.728542 0.766781
0.715084 0.784176 0.755337
0.727657 0.781369 0.756008
0.762905 0.775723 0.760067
0.800473 0.760983 0.758663
0.875822 0.788968 0.786923
0.779538 0.859312 0.769528
0.789364 0.858000 0.774105
0.817655 0.854704 0.787961
0.856657 0.844907 0.810758
0.880674 0.840177 0.824552
0.642969 0.662531 0.829892
0.641840 0.647425 0.832120
0.678492 0.608881 0.837736
0.768734 0.493782 0.845487
0.875212 0.620325 0.834012
0.695155 0.707515 0.827054
0.688777 0.693324 0.829252
0.705043 0.657313 0.834989
0.773709 0.562646 0.841978
0.874083 0.641566 0.833219
0.780117 0.781247 0.824613
0.779660 0.777310 0.826413
0.760952 0.745266 0.832090
0.788815 0.688106 0.837644
0.874662 0.695705 0.834958
0.809384 0.822507 0.835142
0.815427 0.821958 0.835203
0.835325 0.821592 0.836393
0.828214 0.797879 0.842161
0.881163 0.770626 0.843595
0.814817 0.863615 0.845792
0.819821 0.863249 0.846769
0.837491 0.862974 0.851164
0.864500 0.862150 0.857939
0.892241 0.851926 0.857725
