data/fiter_cube/44540723/1023236/file.cube
# Created by Adobe Lightroom plugin Export LUT (1.17.0)
# www.johnrellis.com/lightroom/exportlut.htm
# Preset: 奶油色调低饱和（弱光环境）_07 云集
# Color profile: C:\Program Files (x86)\Common Files\Adobe\Color\Profiles\Recommended\AdobeRGB1998.icc
LUT_3D_SIZE 8
DOMAIN_MIN 0.000000 0.000000 0.000000
DOMAIN_MAX 0.903226 0.903226 0.903226
0.074922 0.071351 0.069123
0.114321 0.083742 0.081422
0.308263 0.092744 0.106996
0.567559 0.166934 0.195468
0.708858 0.339879 0.332952
0.790890 0.485420 0.467262
0.839902 0.587732 0.569909
0.880827 0.666377 0.650446
0.094301 0.120180 0.086458
0.117342 0.121004 0.099977
0.331853 0.173251 0.104829
0.567163 0.236149 0.196902
0.704341 0.366857 0.330724
0.785519 0.489937 0.458656
0.834745 0.584344 0.559808
0.877775 0.664332 0.644678
0.159915 0.368139 0.155520
0.206210 0.356878 0.181094
0.320287 0.349004 0.252293
0.586603 0.437598 0.273289
0.724422 0.485237 0.365820
0.793149 0.553460 0.483589
0.843778 0.627680 0.583673
0.884184 0.690303 0.659724
0.372625 0.578393 0.341222
0.397162 0.569451 0.351263
0.461067 0.546166 0.387945
0.574365 0.563287 0.468696
0.714382 0.621668 0.508995
0.807675 0.642176 0.525536
0.848936 0.674372 0.600702
0.886351 0.716030 0.666438
0.554620 0.689174 0.496742
0.564538 0.685298 0.500969
0.596155 0.674189 0.517632
0.643702 0.665095 0.549554
0.691676 0.663966 0.586572
0.758877 0.691524 0.616022
0.836240 0.721401 0.634607
0.889189 0.748867 0.674678
0.661311 0.745602 0.598901
0.672053 0.747036 0.607141
0.686030 0.740719 0.614038
0.705715 0.731044 0.626246
0.733211 0.725093 0.644923
0.761288 0.725948 0.669642
0.807553 0.750546 0.698329
0.875181 0.785885 0.718898
0.741024 0.794980 0.677577
0.744350 0.794644 0.679683
0.750484 0.790158 0.681819
0.761654 0.784085 0.687617
0.773098 0.775540 0.694636
0.796719 0.776028 0.710628
0.818387 0.779232 0.729976
0.851713 0.799130 0.759731
0.800565 0.839628 0.738186
0.801816 0.838926 0.738674
0.807065 0.837217 0.741512
0.817136 0.835447 0.748226
0.821408 0.826810 0.748135
0.836851 0.825620 0.760525
0.857572 0.829679 0.778470
0.874052 0.833555 0.795529
0.078920 0.082521 0.105898
0.119753 0.076936 0.123079
0.295750 0.119265 0.177493
0.543572 0.247807 0.293675
0.689113 0.377722 0.392065
0.774594 0.491981 0.488411
0.827085 0.582940 0.572900
0.872251 0.659937 0.648310
0.086336 0.131106 0.121279
0.135500 0.145235 0.147677
0.325933 0.203220 0.207248
0.553796 0.291966 0.296574
0.690852 0.401282 0.392615
0.773159 0.501122 0.486122
0.823697 0.582483 0.566247
0.869078 0.657313 0.641962
0.133120 0.379522 0.176333
0.237247 0.377081 0.251835
0.342870 0.367376 0.307591
0.589746 0.444221 0.325414
0.709133 0.491737 0.411994
0.779934 0.552331 0.500175
0.829618 0.616144 0.579950
0.874571 0.680415 0.653681
0.370245 0.575677 0.360906
0.413184 0.568872 0.387091
0.476722 0.550774 0.418677
0.562158 0.552270 0.473335
0.696681 0.604425 0.500389
0.789761 0.626184 0.522606
0.834806 0.660029 0.592615
0.877287 0.706203 0.660060
0.562188 0.688441 0.514244
0.570153 0.683833 0.516350
0.597711 0.671504 0.528130
0.636164 0.657435 0.550500
0.681300 0.654597 0.582300
0.752773 0.685054 0.611078
0.830869 0.715114 0.630976
0.883452 0.743404 0.672999
0.659815 0.742367 0.602289
0.664668 0.740749 0.604456
0.679103 0.734768 0.611170
0.700740 0.726253 0.624475
0.729427 0.721340 0.644282
0.759335 0.724147 0.670558
0.805814 0.748745 0.697627
0.872496 0.782467 0.716274
0.735256 0.790097 0.674342
0.736355 0.788266 0.674128
0.743740 0.784512 0.677241
0.757107 0.779934 0.684962
0.770352 0.772763 0.693507
0.793088 0.772580 0.708461
0.813443 0.774502 0.725978
0.846983 0.794217 0.754208
0.797177 0.837156 0.735988
0.799130 0.836912 0.737209
0.804776 0.835447 0.740352
0.815213 0.833860 0.747280
0.826108 0.830350 0.754635
0.838651 0.827085 0.763760
0.856748 0.828885 0.778347
0.872099 0.831601 0.793729
0.000000 0.112367 0.306676
0.000000 0.095735 0.338201
0.345953 0.000000 0.372045
0.553185 0.259434 0.403784
0.684657 0.421149 0.483925
0.765347 0.549462 0.572045
0.820737 0.621363 0.629297
0.869749 0.679774 0.680903
0.129671 0.240757 0.324620
0.128725 0.213230 0.354101
0.363043 0.179232 0.384833
0.554528 0.329381 0.420356
0.683070 0.454902 0.495979
0.763729 0.554711 0.570031
0.818784 0.621241 0.624994
0.868376 0.680171 0.678492
0.143099 0.419287 0.373907
0.239261 0.422492 0.389197
0.410437 0.421942 0.421790
0.581445 0.473487 0.469429
0.701930 0.535546 0.527123
0.771572 0.589441 0.578576
0.822812 0.641993 0.630182
0.870481 0.692866 0.680903
0.328740 0.609247 0.398169
0.390753 0.603632 0.425666
0.532097 0.585962 0.505089
0.595819 0.579187 0.538293
0.719173 0.624323 0.557580
0.783688 0.644923 0.593103
0.830961 0.678553 0.641047
0.875578 0.716884 0.687343
0.538872 0.701869 0.520226
0.567468 0.697444 0.539422
0.627771 0.684993 0.580133
0.658686 0.670527 0.594568
0.698360 0.668940 0.619562
0.763333 0.696284 0.639277
0.835660 0.721920 0.654994
0.881315 0.747829 0.694484
0.657923 0.748806 0.613092
0.670741 0.746548 0.623224
0.695308 0.739406 0.640467
0.712367 0.730251 0.647730
0.734005 0.723049 0.660517
0.761288 0.725612 0.681819
0.809567 0.751888 0.705348
0.876036 0.785458 0.725826
0.739040 0.795438 0.685267
0.743740 0.793729 0.688991
0.752285 0.788998 0.693324
0.762966 0.783017 0.697505
0.774807 0.775265 0.703578
0.795804 0.774502 0.717220
0.817899 0.778714 0.736049
0.854337 0.801297 0.764309
0.799374 0.839445 0.743252
0.801541 0.838346 0.744869
0.806332 0.836301 0.746792
0.817899 0.835599 0.754513
0.828122 0.831724 0.760494
0.840024 0.828244 0.769039
0.858640 0.830564 0.783688
0.874571 0.834104 0.799435
0.000000 0.197726 0.524224
0.000000 0.183871 0.537804
0.295598 0.113039 0.562982
0.579675 0.154818 0.561089
0.687068 0.408057 0.558556
0.762570 0.533196 0.602472
0.812863 0.619928 0.652644
0.861753 0.681239 0.699794
0.201114 0.355627 0.536461
0.188785 0.321141 0.546044
0.341924 0.248600 0.566522
0.585687 0.266697 0.565698
0.688441 0.449714 0.567254
0.760861 0.550164 0.607324
0.810941 0.627466 0.654963
0.860594 0.685878 0.701472
0.414984 0.511406 0.539269
0.455787 0.516716 0.542565
0.463294 0.485176 0.565270
0.598718 0.454566 0.575708
0.697536 0.544457 0.593774
0.764187 0.610468 0.633875
0.816709 0.667353 0.678614
0.866087 0.705867 0.712245
0.421790 0.621698 0.570642
0.457771 0.619623 0.574701
0.544640 0.613794 0.587060
0.627863 0.604944 0.599634
0.711940 0.631159 0.624689
0.769162 0.659327 0.651911
0.821042 0.690181 0.681971
0.870512 0.723903 0.715053
0.533532 0.722499 0.570001
0.555627 0.717891 0.578210
0.617212 0.705928 0.604608
0.688685 0.690517 0.646052
0.715846 0.683589 0.659297
0.779049 0.708888 0.671717
0.834379 0.728115 0.691646
0.878080 0.752285 0.721828
0.649561 0.763790 0.628534
0.665553 0.763882 0.639399
0.698116 0.755215 0.660151
0.734646 0.744411 0.684840
0.748531 0.733455 0.689693
0.771420 0.734615 0.703944
0.820645 0.760678 0.721492
0.882139 0.788602 0.738979
0.729549 0.803708 0.688258
0.736019 0.802853 0.693019
0.755062 0.799252 0.707027
0.776577 0.793454 0.721798
0.788174 0.785672 0.725795
0.803708 0.781155 0.734340
0.823209 0.783597 0.749386
0.861234 0.807095 0.773434
0.795956 0.845975 0.747341
0.799619 0.845548 0.750332
0.810178 0.843259 0.758602
0.822690 0.840024 0.767086
0.832578 0.835721 0.771511
0.843076 0.831144 0.777890
0.860868 0.832822 0.791226
0.877287 0.836820 0.806882
0.130739 0.345312 0.654536
0.165164 0.328191 0.659419
0.331487 0.294530 0.667842
0.539971 0.170413 0.677882
0.707546 0.341772 0.670192
0.765408 0.515312 0.656001
0.812711 0.614069 0.682826
0.862119 0.678065 0.720821
0.332464 0.450080 0.654627
0.329717 0.430274 0.660212
0.395636 0.383001 0.668513
0.552270 0.284154 0.676936
0.707668 0.392889 0.670405
0.764828 0.537224 0.659144
0.812589 0.624598 0.686061
0.862028 0.682765 0.722286
0.538354 0.591852 0.652461
0.546349 0.589746 0.656123
0.525353 0.547021 0.664424
0.589624 0.488746 0.675776
0.708217 0.506096 0.670893
0.760739 0.591852 0.666041
0.810880 0.651667 0.693324
0.860441 0.696132 0.725185
0.590967 0.657710 0.666804
0.606653 0.657740 0.667323
0.650874 0.659815 0.669642
0.656764 0.639521 0.677333
0.715694 0.616358 0.677699
0.764034 0.658106 0.684108
0.813901 0.689570 0.707301
0.862760 0.721889 0.735195
0.595758 0.716121 0.675654
0.609979 0.714717 0.677363
0.648219 0.709468 0.681361
0.692042 0.702266 0.686000
0.725704 0.691646 0.686763
0.773495 0.705653 0.700374
0.822110 0.724605 0.718868
0.869810 0.750057 0.743954
0.640833 0.772030 0.659998
0.652033 0.769924 0.664332
0.682063 0.762325 0.675380
0.718898 0.752834 0.690578
0.754482 0.740139 0.708888
0.775326 0.737819 0.720119
0.831632 0.765347 0.735653
0.882780 0.786130 0.755337
0.721065 0.811856 0.701289
0.725490 0.810513 0.703334
0.740658 0.806851 0.710933
0.765682 0.801450 0.725368
0.794064 0.792935 0.743557
0.805722 0.783597 0.747127
0.825284 0.785397 0.760311
0.867216 0.810117 0.779507
0.780606 0.850278 0.744961
0.783444 0.849577 0.746609
0.795254 0.847105 0.754696
0.817288 0.845823 0.771450
0.835233 0.840696 0.783444
0.845975 0.834958 0.787655
0.860899 0.833494 0.797482
0.877531 0.837064 0.812100
0.390417 0.483986 0.730556
0.389807 0.469551 0.732509
0.444129 0.445502 0.734829
0.543938 0.396643 0.740810
0.676051 0.312413 0.744808
0.775051 0.471077 0.732326
0.819394 0.596094 0.725216
0.863981 0.676051 0.750393
0.465461 0.535821 0.725612
0.460914 0.522576 0.727260
0.482551 0.491829 0.731136
0.559899 0.446448 0.737392
0.676844 0.360876 0.741787
0.772885 0.492775 0.730373
0.817807 0.606012 0.725277
0.863218 0.679652 0.750393
0.614679 0.643763 0.724514
0.610254 0.636896 0.725673
0.595239 0.607782 0.730465
0.618402 0.569879 0.735927
0.690059 0.502251 0.739742
0.772976 0.563073 0.730831
0.817350 0.641688 0.730404
0.863890 0.695705 0.754238
0.700832 0.706600 0.725643
0.701259 0.705501 0.726375
0.704707 0.701900 0.730373
0.695613 0.678889 0.737850
0.718044 0.638880 0.741695
0.778408 0.644862 0.736477
0.820890 0.686915 0.740658
0.866911 0.721920 0.762234
0.696895 0.735744 0.737148
0.703426 0.735500 0.737453
0.722530 0.734737 0.738399
0.747768 0.734127 0.739437
0.745785 0.716091 0.740291
0.778866 0.697078 0.737240
0.820859 0.722103 0.745754
0.867033 0.747768 0.767178
0.695155 0.769375 0.738888
0.702174 0.769558 0.740627
0.718868 0.767483 0.742794
0.741238 0.763943 0.745357
0.764065 0.757839 0.746395
0.787106 0.748318 0.745357
0.831693 0.763638 0.760708
0.876127 0.783291 0.780545
0.727626 0.820279 0.738949
0.732631 0.820584 0.740719
0.745785 0.819821 0.744015
0.767269 0.816312 0.751034
0.791714 0.809598 0.759823
0.818418 0.797787 0.772671
0.832883 0.792538 0.779110
0.881132 0.817807 0.794522
0.780240 0.857542 0.764096
0.782803 0.856870 0.765194
0.791867 0.855070 0.769314
0.807584 0.853178 0.777432
0.826932 0.849638 0.787900
0.850858 0.842954 0.803555
0.862577 0.836698 0.808286
0.880247 0.839780 0.822049
0.532708 0.580072 0.781399
0.532341 0.572747 0.783169
0.551110 0.556725 0.785855
0.595148 0.526940 0.789883
0.663447 0.466682 0.793454
0.757504 0.436042 0.792233
0.825467 0.552209 0.781704
0.867613 0.651911 0.783413
0.570001 0.608820 0.778470
0.568383 0.601984 0.780056
0.573877 0.581659 0.783139
0.607813 0.552117 0.786679
0.667628 0.495949 0.790311
0.755947 0.457221 0.789487
0.822751 0.561181 0.779110
0.865110 0.653956 0.781064
0.663111 0.681239 0.777462
0.660243 0.676204 0.778286
0.649409 0.655512 0.781003
0.657252 0.627863 0.784634
0.692226 0.583490 0.787716
0.761044 0.532372 0.788510
0.823392 0.606073 0.780362
0.866789 0.676265 0.785092
0.731716 0.737026 0.778286
0.731807 0.735348 0.778561
0.729946 0.727810 0.780514
0.716426 0.703151 0.784451
0.727230 0.672633 0.787167
0.770108 0.619806 0.789395
0.825772 0.659266 0.783352
0.868528 0.705653 0.789609
0.759426 0.765255 0.780819
0.762539 0.765164 0.780636
0.773648 0.765835 0.780911
0.775601 0.761746 0.784085
0.761196 0.736446 0.787442
0.777646 0.699794 0.788418
0.826352 0.702052 0.784421
0.869078 0.738491 0.793606
0.755978 0.792325 0.792508
0.759457 0.792081 0.792752
0.770565 0.791135 0.793454
0.787625 0.789853 0.794644
0.807675 0.788144 0.795224
0.804715 0.770871 0.795346
0.832944 0.751431 0.791684
0.872770 0.776272 0.802213
0.758968 0.819913 0.794980
0.762295 0.819913 0.795712
0.772061 0.819089 0.797421
0.786984 0.817899 0.800137
0.804623 0.815274 0.802518
0.823697 0.810788 0.804074
0.840452 0.799619 0.799954
0.881651 0.814511 0.815396
0.783688 0.857939 0.795010
0.786099 0.858000 0.795743
0.795590 0.859129 0.799283
0.808804 0.860136 0.803220
0.826474 0.859983 0.808804
0.847776 0.856291 0.817563
0.870970 0.847837 0.829404
0.884794 0.844327 0.836545
0.642969 0.662531 0.829892
0.641688 0.657710 0.830900
0.644831 0.644251 0.832609
0.663966 0.624628 0.835782
0.697292 0.587488 0.839750
0.751186 0.518761 0.844236
0.825010 0.528740 0.842222
0.875212 0.620325 0.834012
0.660670 0.677729 0.828305
0.659113 0.673152 0.829282
0.657465 0.657984 0.831357
0.673365 0.639002 0.834287
0.702907 0.603693 0.838224
0.752895 0.538994 0.842649
0.824063 0.539971 0.840909
0.874052 0.625299 0.832883
0.707027 0.718074 0.826169
0.705440 0.714595 0.826902
0.698207 0.699702 0.828702
0.703426 0.681483 0.832731
0.723873 0.653315 0.836149
0.761776 0.600275 0.839933
0.824765 0.581170 0.839658
0.873533 0.647303 0.832761
0.760464 0.763912 0.825284
0.759121 0.761776 0.826017
0.752834 0.752071 0.827634
0.742092 0.731380 0.831418
0.748684 0.707454 0.835050
0.775723 0.671260 0.838407
0.827054 0.635126 0.839841
0.874388 0.678584 0.834287
0.799527 0.796323 0.824277
0.799802 0.796078 0.825132
0.799069 0.793423 0.826963
0.796323 0.785794 0.830289
0.780270 0.759945 0.834257
0.788571 0.729610 0.837552
0.827573 0.682765 0.840543
0.875761 0.715297 0.836545
0.808438 0.816220 0.831540
0.810178 0.816037 0.831479
0.816495 0.815702 0.831540
0.827543 0.815793 0.832090
0.831815 0.812863 0.834897
0.818540 0.790036 0.840116
0.834104 0.754788 0.843870
0.880339 0.759792 0.842435
0.808499 0.841520 0.843320
0.810178 0.841184 0.843320
0.816129 0.840269 0.843626
0.826902 0.839200 0.844663
0.841672 0.837980 0.846189
0.859892 0.837400 0.848173
0.858457 0.823270 0.850553
0.884154 0.803799 0.847593
0.814817 0.863615 0.845792
0.816251 0.863462 0.846036
0.821592 0.863188 0.847166
0.831296 0.863035 0.849577
0.844388 0.862821 0.852903
0.860166 0.862303 0.856840
0.877806 0.860929 0.860807
0.892241 0.851926 0.857725
