data/fiter_cube/44540723/1023236/file.cube
# Created by Adobe Lightroom plugin Export LUT (1.17.0)
# www.johnrellis.com/lightroom/exportlut.htm
# Preset: 奶油色调低饱和（弱光环境）_07 云集
# Color profile: C:\Program Files (x86)\Common Files\Adobe\Color\Profiles\Recommended\AdobeRGB1998.icc
LUT_3D_SIZE 32
DOMAIN_MIN 0.0 0.0 0.0
DOMAIN_MAX 1.0 1.0 1.0
0.074922 0.071351 0.069123
0.079286 0.072816 0.070771
0.085176 0.074311 0.072602
0.095644 0.078981 0.076722
0.114321 0.083742 0.081422
0.143893 0.088258 0.086061
0.186496 0.092042 0.091005
0.241581 0.093812 0.097963
0.308263 0.092744 0.106996
0.379980 0.092439 0.120546
0.449866 0.102022 0.139956
0.513268 0.127810 0.165011
0.567559 0.166934 0.195468
0.612909 0.211734 0.229587
0.650507 0.257023 0.264683
0.682094 0.300084 0.299626
0.708858 0.339879 0.332952
0.732174 0.376532 0.364324
0.751675 0.409735 0.394324
0.773434 0.450019 0.432502
0.790890 0.485420 0.467262
0.805020 0.516136 0.497902
0.817624 0.542657 0.524437
0.829129 0.566339 0.548241
0.839902 0.587732 0.569909
0.850217 0.607965 0.590448
0.860380 0.627741 0.610681
0.870512 0.647303 0.630823
0.880827 0.666377 0.650446
0.891356 0.684749 0.669490
0.902068 0.702358 0.687800
0.912779 0.719478 0.705684
0.077516 0.076143 0.071260
0.079988 0.076387 0.072938
0.086183 0.078828 0.073579
0.097261 0.082704 0.077333
0.116579 0.087953 0.081605
0.146517 0.093141 0.086091
0.188785 0.097658 0.090913
0.242893 0.101076 0.097505
0.308263 0.101472 0.106569
0.379217 0.102876 0.119783
0.448005 0.112490 0.138857
0.510613 0.136507 0.163790
0.564569 0.172305 0.193606
0.609918 0.215244 0.227604
0.647578 0.258549 0.262333
0.679164 0.300694 0.297032
0.706264 0.339513 0.329747
0.729610 0.375525 0.361486
0.749477 0.408453 0.391241
0.771267 0.447700 0.428687
0.788602 0.482155 0.462654
0.802731 0.512200 0.492744
0.815244 0.538598 0.519493
0.826841 0.562158 0.543236
0.837736 0.583673 0.564996
0.848142 0.604181 0.586023
0.858488 0.624170 0.606470
0.868772 0.644099 0.627131
0.879210 0.663600 0.647242
0.889860 0.682307 0.666651
0.900694 0.700191 0.685267
0.911528 0.717464 0.703273
0.080781 0.082460 0.074128
0.083497 0.082307 0.075837
0.085603 0.082521 0.078035
0.097444 0.088350 0.079438
0.119966 0.094240 0.081788
0.150484 0.100557 0.085786
0.192447 0.105928 0.090730
0.245853 0.110109 0.097230
0.310338 0.112642 0.106142
0.379919 0.115633 0.119753
0.448005 0.125765 0.138796
0.510063 0.148623 0.163943
0.563714 0.182406 0.193851
0.608667 0.222965 0.227543
0.646296 0.264286 0.261570
0.678004 0.304509 0.295842
0.704982 0.342596 0.328710
0.728420 0.377508 0.359991
0.748379 0.409949 0.390326
0.770291 0.448615 0.427497
0.787564 0.481941 0.460609
0.801602 0.511498 0.490547
0.814145 0.537621 0.517174
0.825742 0.560906 0.540856
0.836606 0.582422 0.562860
0.847105 0.602716 0.583734
0.857511 0.622858 0.604517
0.867887 0.642847 0.625208
0.878386 0.662470 0.645594
0.889097 0.681361 0.665217
0.899992 0.699336 0.683986
0.910887 0.716609 0.702022
0.087007 0.095583 0.080354
0.089296 0.095186 0.081544
0.091920 0.095277 0.083619
0.097536 0.096223 0.086885
0.117006 0.107210 0.088319
0.160647 0.119844 0.085176
0.203372 0.126711 0.090181
0.256657 0.132418 0.096742
0.319677 0.136690 0.106020
0.387457 0.142123 0.119905
0.452918 0.153506 0.139742
0.513176 0.174533 0.165316
0.565240 0.204959 0.195377
0.609125 0.241154 0.228275
0.646113 0.278508 0.262364
0.677302 0.315984 0.296178
0.704158 0.351293 0.328527
0.727321 0.384466 0.359930
0.748318 0.416663 0.390692
0.769100 0.451850 0.425849
0.785824 0.483253 0.458045
0.799680 0.511284 0.487129
0.812314 0.536858 0.513573
0.824186 0.560357 0.537987
0.835508 0.582269 0.560754
0.846464 0.603326 0.582666
0.857206 0.623835 0.603998
0.867765 0.644099 0.625208
0.878386 0.663600 0.645624
0.889006 0.682216 0.665095
0.899748 0.699825 0.683619
0.910491 0.716701 0.701350
0.094301 0.120180 0.086458
0.097536 0.119936 0.087831
0.100557 0.119509 0.090028
0.107576 0.119265 0.093874
0.117342 0.121004 0.099977
0.144076 0.136477 0.102815
0.203708 0.158206 0.095949
0.270909 0.168490 0.094484
0.331853 0.173251 0.104829
0.396277 0.180514 0.119570
0.459113 0.191440 0.140139
0.516869 0.210147 0.166476
0.567163 0.236149 0.196902
0.609949 0.267460 0.229892
0.646357 0.300603 0.263981
0.677546 0.334295 0.297856
0.704341 0.366857 0.330724
0.727626 0.397436 0.361395
0.749691 0.429297 0.394263
0.769406 0.461158 0.427802
0.785519 0.489937 0.458656
0.799069 0.516045 0.486793
0.811521 0.540215 0.512718
0.823392 0.562951 0.537041
0.834745 0.584344 0.559808
0.845762 0.605066 0.581842
0.856596 0.625238 0.603143
0.867216 0.645075 0.624231
0.877775 0.664332 0.644678
0.888426 0.682765 0.664179
0.899229 0.700221 0.682673
0.909972 0.716945 0.700435
0.103365 0.162081 0.093568
0.106996 0.161837 0.095552
0.111482 0.160586 0.097658
0.119570 0.158541 0.102785
0.132723 0.158541 0.110262
0.148440 0.160861 0.120516
0.180331 0.178775 0.129000
0.254856 0.209232 0.118624
0.344213 0.225223 0.108736
0.413397 0.231693 0.119997
0.472236 0.241184 0.143008
0.526390 0.256291 0.170871
0.573663 0.277379 0.201846
0.614527 0.303197 0.235142
0.649653 0.330968 0.268650
0.680018 0.360021 0.302281
0.706203 0.388617 0.334508
0.729122 0.415686 0.365087
0.752071 0.446754 0.399878
0.770809 0.475196 0.432349
0.786526 0.501427 0.462257
0.799893 0.525902 0.490272
0.826993 0.578943 0.547723
0.838071 0.599145 0.570336
0.848508 0.617700 0.590845
0.858396 0.635431 0.610315
0.867979 0.652583 0.629114
0.877531 0.669123 0.647120
0.887144 0.685023 0.664302
0.896910 0.700435 0.680873
0.906737 0.715206 0.696803
0.916289 0.730129 0.712947
0.116182 0.230686 0.105684
0.121004 0.229496 0.108034
0.126864 0.228122 0.111177
0.138735 0.225284 0.118349
0.153689 0.220798 0.129519
0.176425 0.221866 0.141756
0.199344 0.224155 0.158602
0.234958 0.240757 0.176303
0.327703 0.279667 0.164126
0.421637 0.300237 0.155947
0.504204 0.311223 0.154086
0.552941 0.321447 0.185153
0.595178 0.336950 0.218601
0.631739 0.356054 0.251804
0.663142 0.377356 0.284611
0.690364 0.399268 0.316442
0.714412 0.421637 0.346990
0.738369 0.447913 0.380438
0.759731 0.475074 0.414862
0.777646 0.500816 0.447333
0.793057 0.525872 0.478279
0.807309 0.550622 0.508171
0.820951 0.574273 0.536034
0.833768 0.596612 0.561822
0.845640 0.617273 0.585504
0.856443 0.636011 0.606714
0.866514 0.653468 0.626337
0.876188 0.670008 0.644831
0.885954 0.685756 0.662287
0.895720 0.700862 0.678950
0.905577 0.715450 0.694850
0.915190 0.730159 0.710994
0.132570 0.298894 0.124758
0.137789 0.297612 0.127138
0.144656 0.295872 0.130709
0.158053 0.292302 0.138552
0.175967 0.286992 0.150271
0.198001 0.282963 0.164889
0.226596 0.283848 0.181674
0.254978 0.286107 0.201907
0.288273 0.297337 0.228702
0.385382 0.339727 0.218143
0.473945 0.363409 0.212253
0.549737 0.377661 0.210666
0.602625 0.387579 0.224918
0.636927 0.399847 0.258335
0.666835 0.414740 0.290959
0.692988 0.431159 0.321996
0.717678 0.450660 0.354192
0.741665 0.473396 0.388067
0.761074 0.494972 0.419776
0.777890 0.516381 0.450202
0.792599 0.537987 0.479866
0.806485 0.559777 0.508293
0.819852 0.581262 0.535210
0.832486 0.601770 0.560388
0.844266 0.621118 0.583642
0.855070 0.638880 0.604639
0.865202 0.655756 0.624323
0.874998 0.671809 0.642847
0.884794 0.687251 0.660517
0.894652 0.702144 0.677211
0.904570 0.716518 0.693324
0.914305 0.730983 0.709468
0.159915 0.368139 0.155520
0.165438 0.367041 0.158450
0.172549 0.365698 0.162142
0.186587 0.362097 0.169650
0.206210 0.356878 0.181094
0.227787 0.349676 0.195468
0.256535 0.346899 0.211765
0.289189 0.347387 0.230777
0.320287 0.349004 0.252293
0.353613 0.358099 0.280797
0.439887 0.397070 0.278325
0.520714 0.422156 0.273869
0.586603 0.437598 0.273289
0.640497 0.447486 0.274998
0.672724 0.456123 0.299809
0.698787 0.468330 0.331914
0.724422 0.485237 0.365820
0.745663 0.501579 0.397101
0.763363 0.517998 0.426551
0.779141 0.535210 0.455268
0.793149 0.553460 0.483589
0.806699 0.572259 0.510735
0.819760 0.591333 0.536767
0.832151 0.609918 0.561089
0.843778 0.627680 0.583673
0.854490 0.644282 0.604334
0.864591 0.660151 0.623835
0.874388 0.675471 0.642237
0.884184 0.690303 0.659724
0.894011 0.704646 0.676356
0.903899 0.718624 0.692378
0.913634 0.732601 0.708309
0.200626 0.431525 0.196170
0.205325 0.430579 0.198581
0.211887 0.428901 0.201511
0.225650 0.425422 0.208286
0.244511 0.420356 0.218296
0.266697 0.413825 0.231327
0.289403 0.405798 0.246525
0.322698 0.404913 0.263432
0.355261 0.404700 0.282353
0.385016 0.405798 0.303532
0.416083 0.413245 0.329870
0.487404 0.446235 0.334752
0.558160 0.471229 0.331853
0.616358 0.486549 0.331273
0.666835 0.499489 0.336309
0.708553 0.510277 0.346929
0.731655 0.521019 0.378698
0.750912 0.532280 0.408301
0.767147 0.544305 0.436439
0.781643 0.557397 0.463386
0.794736 0.571618 0.489357
0.807431 0.586816 0.514427
0.819669 0.602533 0.538506
0.831418 0.618311 0.561089
0.842649 0.633967 0.582574
0.853269 0.649195 0.602838
0.863462 0.664302 0.622339
0.873472 0.679225 0.640955
0.883482 0.693782 0.658808
0.893584 0.708034 0.675837
0.903655 0.721889 0.692226
0.913512 0.735775 0.708492
0.249149 0.484413 0.239719
0.253880 0.483619 0.242008
0.259770 0.482216 0.244388
0.271916 0.479500 0.250278
0.289281 0.474922 0.258976
0.310155 0.469398 0.270146
0.332158 0.462623 0.283482
0.357305 0.457313 0.298619
0.389197 0.456428 0.315465
0.419562 0.456519 0.334203
0.446326 0.457160 0.353887
0.472450 0.462165 0.376318
0.530297 0.490303 0.388190
0.595819 0.517082 0.388983
0.649317 0.534630 0.392157
0.693477 0.546563 0.396551
0.729976 0.554833 0.401587
0.754299 0.561181 0.417578
0.769467 0.568902 0.443519
0.783017 0.578363 0.469093
0.795651 0.589410 0.493996
0.808042 0.602014 0.518181
0.820127 0.615595 0.541466
0.831724 0.629511 0.563561
0.842741 0.643488 0.584466
0.853239 0.657252 0.603906
0.863279 0.670985 0.622858
0.873167 0.684718 0.641138
0.883116 0.698421 0.658564
0.893095 0.711879 0.675441
0.903136 0.725216 0.691615
0.913054 0.738613 0.707820
0.304997 0.530694 0.286198
0.308537 0.529931 0.287602
0.313634 0.528771 0.289891
0.323949 0.526329 0.294652
0.338750 0.522728 0.301854
0.356847 0.517937 0.311131
0.376806 0.512139 0.322240
0.396826 0.505516 0.335180
0.423011 0.502403 0.349676
0.451911 0.501732 0.365942
0.478492 0.501915 0.383429
0.506340 0.506645 0.405554
0.556542 0.534569 0.452186
0.601404 0.558007 0.469215
0.654322 0.580774 0.469764
0.697871 0.595392 0.471565
0.732662 0.604395 0.474189
0.760281 0.609613 0.477668
0.782864 0.612940 0.482002
0.796170 0.617975 0.500847
0.807462 0.625299 0.522240
0.818540 0.634150 0.543206
0.829191 0.643915 0.563104
0.839597 0.654475 0.582269
0.849607 0.665522 0.600793
0.859251 0.676875 0.618585
0.868620 0.688258 0.635554
0.877867 0.699733 0.651789
0.887175 0.711269 0.667353
0.896605 0.722927 0.682643
0.906096 0.734615 0.697536
0.915465 0.746975 0.713039
0.372625 0.578393 0.341222
0.375616 0.577752 0.342473
0.379065 0.576318 0.343786
0.386297 0.573480 0.346471
0.397162 0.569451 0.351263
0.410742 0.564141 0.357427
0.426642 0.558618 0.365911
0.443519 0.552453 0.375860
0.461067 0.546166 0.387945
0.492103 0.549157 0.406470
0.522179 0.553063 0.426276
0.549798 0.557885 0.447333
0.574365 0.563287 0.468696
0.594659 0.568353 0.488685
0.630152 0.587427 0.507866
0.676600 0.608545 0.508141
0.714382 0.621668 0.508995
0.744167 0.629236 0.510491
0.768460 0.634089 0.513481
0.789395 0.637781 0.517632
0.807675 0.642176 0.525536
0.818479 0.648585 0.545312
0.828885 0.656306 0.564446
0.839048 0.664973 0.582818
0.848936 0.674372 0.600702
0.858457 0.684352 0.618158
0.867735 0.694667 0.634821
0.877043 0.705226 0.650813
0.886351 0.716030 0.666438
0.895872 0.727169 0.681727
0.905455 0.738430 0.696620
0.914916 0.750454 0.712245
0.421210 0.609064 0.380896
0.423590 0.608423 0.381872
0.426001 0.607294 0.382788
0.431952 0.605097 0.385168
0.440345 0.601373 0.388403
0.453010 0.598108 0.394903
0.468696 0.594842 0.403723
0.485359 0.591241 0.414038
0.502617 0.587488 0.425727
0.522515 0.585473 0.439582
0.548119 0.587457 0.455634
0.572747 0.590448 0.472877
0.594934 0.593652 0.490242
0.614038 0.596826 0.506950
0.629664 0.599695 0.522881
0.654505 0.612238 0.540673
0.694789 0.631037 0.539849
0.727047 0.642451 0.539818
0.753475 0.649683 0.541375
0.775753 0.654810 0.544457
0.796078 0.659632 0.549187
0.815061 0.664485 0.554803
0.829129 0.669978 0.566827
0.839170 0.677028 0.584802
0.848936 0.684993 0.602289
0.858396 0.693690 0.619348
0.867613 0.702815 0.635676
0.876860 0.712367 0.651362
0.886198 0.722408 0.666804
0.895720 0.732815 0.681971
0.905333 0.743557 0.696834
0.914824 0.755093 0.712490
0.473640 0.641108 0.424994
0.475807 0.640772 0.426093
0.477699 0.639887 0.426673
0.482795 0.638209 0.428962
0.489967 0.635615 0.432136
0.499306 0.632227 0.436530
0.510613 0.628656 0.442573
0.523125 0.624750 0.449866
0.536919 0.620844 0.458747
0.551507 0.617243 0.469398
0.570825 0.616724 0.482002
0.592676 0.618494 0.496437
0.612940 0.620569 0.510918
0.630915 0.622705 0.525444
0.646113 0.624384 0.539025
0.658106 0.625360 0.551324
0.675074 0.633112 0.568292
0.709926 0.649866 0.567041
0.738491 0.660517 0.567254
0.762325 0.667872 0.569451
0.783352 0.673701 0.572930
0.803067 0.679255 0.577508
0.821317 0.684504 0.582727
0.838315 0.689784 0.588922
0.849058 0.696254 0.604273
0.858579 0.703853 0.621180
0.868009 0.712215 0.637568
0.877501 0.721248 0.653590
0.887083 0.730861 0.669276
0.896880 0.740871 0.684565
0.906676 0.751369 0.699855
0.916289 0.762600 0.715846
0.519005 0.668605 0.464698
0.520836 0.668360 0.465644
0.522637 0.667689 0.466377
0.526513 0.666407 0.468147
0.532280 0.664240 0.470741
0.539788 0.661524 0.474189
0.549157 0.658503 0.479072
0.559625 0.655268 0.485145
0.571160 0.651728 0.492256
0.582971 0.648157 0.500420
0.594598 0.644312 0.509117
0.612604 0.644465 0.520134
0.629694 0.644923 0.531395
0.645350 0.645289 0.542657
0.659144 0.645533 0.553521
0.670863 0.645747 0.564172
0.680629 0.645899 0.574334
0.693935 0.651484 0.589929
0.723140 0.666163 0.591394
0.749264 0.677028 0.592950
0.771603 0.684993 0.596063
0.792233 0.692073 0.600397
0.811368 0.698451 0.605280
0.829160 0.704463 0.610834
0.845701 0.710353 0.617212
0.860136 0.716457 0.625910
0.869535 0.723690 0.641932
0.878965 0.731716 0.657465
0.888487 0.740230 0.672663
0.898070 0.749233 0.687343
0.907591 0.758724 0.702113
0.916869 0.769070 0.717617
0.554620 0.689174 0.496742
0.555627 0.688869 0.497200
0.557031 0.688197 0.497719
0.559838 0.687068 0.498909
0.564538 0.685298 0.500969
0.570459 0.682918 0.503624
0.577966 0.680385 0.507500
0.586572 0.677424 0.512047
0.596155 0.674189 0.517632
0.606104 0.670954 0.524193
0.616480 0.667567 0.531609
0.628168 0.665064 0.539818
0.643702 0.665095 0.549554
0.658106 0.665003 0.559197
0.670985 0.664790 0.568688
0.682063 0.664393 0.577813
0.691676 0.663966 0.586572
0.700038 0.663874 0.595514
0.711543 0.668482 0.609216
0.735164 0.680903 0.613794
0.758877 0.691524 0.616022
0.780270 0.700221 0.619501
0.800198 0.707820 0.623804
0.818814 0.714809 0.628870
0.836240 0.721401 0.634607
0.852506 0.727810 0.641016
0.867735 0.734218 0.648127
0.879667 0.741115 0.659693
0.889189 0.748867 0.674678
0.898802 0.757168 0.689235
0.908324 0.766140 0.704067
0.917601 0.775967 0.719661
0.586084 0.706508 0.526085
0.587549 0.706447 0.526909
0.607721 0.715877 0.545708
0.609857 0.714870 0.546471
0.613001 0.713344 0.547784
0.617090 0.711238 0.549340
0.622187 0.708736 0.551537
0.628077 0.705867 0.554192
0.635065 0.702907 0.557946
0.642695 0.699763 0.562554
0.650477 0.696529 0.567681
0.658106 0.693019 0.573175
0.668482 0.691005 0.579736
0.680415 0.690089 0.587182
0.691157 0.689143 0.594598
0.700954 0.688136 0.601831
0.709560 0.687160 0.609003
0.717098 0.686275 0.616083
0.723598 0.685786 0.623438
0.732967 0.689265 0.634974
0.750942 0.698970 0.641077
0.772610 0.709499 0.643275
0.792935 0.718441 0.646357
0.811826 0.726223 0.650111
0.829282 0.733028 0.654261
0.845640 0.739376 0.659052
0.860990 0.745388 0.664393
0.875547 0.751553 0.670649
0.889494 0.758053 0.677882
0.899565 0.765347 0.691188
0.908965 0.773617 0.705867
0.918120 0.782712 0.721279
0.618341 0.723171 0.556909
0.621271 0.724056 0.559411
0.624598 0.724788 0.562127
0.628504 0.725063 0.564996
0.632776 0.724575 0.567590
0.637049 0.723232 0.569757
0.641566 0.721340 0.571832
0.646693 0.718990 0.574243
0.652644 0.716457 0.577447
0.659022 0.713771 0.581140
0.665797 0.710933 0.585382
0.672602 0.707851 0.590051
0.678798 0.704402 0.594446
0.689265 0.703304 0.600885
0.699214 0.702205 0.607202
0.708309 0.701106 0.613581
0.716609 0.700038 0.619867
0.724086 0.699123 0.626398
0.730831 0.698512 0.632990
0.736873 0.698360 0.639918
0.745480 0.701656 0.650263
0.760891 0.710567 0.658442
0.782101 0.721736 0.661128
0.801907 0.731228 0.664485
0.820310 0.739467 0.668360
0.837491 0.746822 0.672786
0.853635 0.753689 0.677821
0.868894 0.760372 0.683619
0.883513 0.767178 0.690303
0.897429 0.774166 0.698024
0.909758 0.781521 0.708003
0.918791 0.789975 0.723354
0.640436 0.734493 0.578454
0.643061 0.735286 0.580835
0.645869 0.736049 0.583154
0.649287 0.736263 0.585595
0.652857 0.735836 0.587823
0.656428 0.734768 0.589715
0.660273 0.733059 0.591547
0.664515 0.731014 0.593500
0.669581 0.728847 0.596185
0.675044 0.726467 0.599207
0.680995 0.723964 0.602899
0.686976 0.721279 0.606897
0.692561 0.718257 0.610773
0.699031 0.715633 0.615137
0.708034 0.714626 0.620813
0.716487 0.713497 0.626368
0.724300 0.712428 0.631983
0.731533 0.711513 0.637629
0.738155 0.710842 0.643549
0.744381 0.710658 0.649836
0.750088 0.710842 0.656245
0.758236 0.714260 0.665614
0.771756 0.722530 0.675044
0.792355 0.734066 0.677943
0.811551 0.743832 0.681331
0.829496 0.752346 0.685237
0.846250 0.760037 0.689784
0.862181 0.767391 0.695155
0.877287 0.774655 0.701625
0.891630 0.782040 0.709163
0.905180 0.789609 0.717769
0.917845 0.797238 0.727291
0.661311 0.745602 0.598901
0.663600 0.746395 0.600916
0.666072 0.747097 0.602991
0.669001 0.747341 0.605188
0.672053 0.747036 0.607141
0.675074 0.746059 0.608759
0.678248 0.744564 0.610193
0.681849 0.742733 0.611933
0.686030 0.740719 0.614038
0.690639 0.738552 0.616632
0.695674 0.736294 0.619654
0.700832 0.733822 0.623011
0.705715 0.731044 0.626246
0.710445 0.728145 0.629725
0.717281 0.726406 0.634211
0.725399 0.725643 0.639460
0.733211 0.725093 0.644923
0.740749 0.724788 0.650721
0.747921 0.724788 0.656764
0.754788 0.725154 0.663081
0.761288 0.725948 0.669642
0.767269 0.727077 0.676295
0.775082 0.730556 0.684657
0.787472 0.738582 0.694911
0.807553 0.750546 0.698329
0.826139 0.760708 0.702235
0.843503 0.769680 0.706905
0.859770 0.777951 0.712398
0.875181 0.785885 0.718898
0.889677 0.793698 0.726345
0.903288 0.801419 0.734707
0.915953 0.809110 0.743954
0.688014 0.760372 0.625299
0.689113 0.760616 0.626154
0.690272 0.760769 0.627070
0.691798 0.760494 0.627924
0.693721 0.759884 0.628931
0.695888 0.758846 0.629999
0.698451 0.757473 0.631098
0.701534 0.755978 0.632654
0.705257 0.754360 0.634668
0.709438 0.752621 0.637049
0.713985 0.750790 0.639826
0.718532 0.748745 0.642817
0.722957 0.746395 0.645686
0.727047 0.743740 0.648493
0.730861 0.740871 0.651301
0.737881 0.740047 0.655573
0.744930 0.739437 0.660212
0.751797 0.739040 0.665003
0.758419 0.738888 0.670039
0.764828 0.739010 0.675319
0.770809 0.739345 0.680690
0.776516 0.739956 0.686183
0.781765 0.740749 0.691646
0.788327 0.743313 0.698329
0.799008 0.750454 0.709316
0.818265 0.762417 0.713100
0.836271 0.772854 0.717678
0.853239 0.782284 0.723110
0.869200 0.791104 0.729549
0.884184 0.799527 0.736904
0.898222 0.807706 0.745052
0.911376 0.815824 0.754177
0.705745 0.771115 0.642786
0.706752 0.771389 0.643580
0.707851 0.771603 0.644495
0.709194 0.771389 0.645319
0.710811 0.770901 0.646143
0.712551 0.769955 0.646906
0.714595 0.768704 0.647669
0.717098 0.767300 0.648859
0.720150 0.765774 0.650385
0.723659 0.764157 0.652277
0.727565 0.762478 0.654566
0.731563 0.760647 0.657069
0.735439 0.758572 0.659510
0.739315 0.756344 0.662074
0.742947 0.753841 0.664637
0.747280 0.751827 0.667628
0.754086 0.751461 0.671870
0.760708 0.751247 0.676295
0.767239 0.751278 0.680964
0.773648 0.751553 0.685878
0.779812 0.752071 0.690913
0.785763 0.752834 0.696101
0.791440 0.753811 0.701472
0.796719 0.754940 0.706905
0.799741 0.754421 0.710170
0.809781 0.761379 0.721828
0.828000 0.773220 0.726833
0.845609 0.784024 0.732143
0.862211 0.793912 0.738399
0.877867 0.803189 0.745602
0.892576 0.812161 0.753811
0.906432 0.820981 0.763149
0.726955 0.784878 0.663722
0.727962 0.785214 0.664637
0.728756 0.785367 0.665248
0.729610 0.785031 0.665675
0.730678 0.784390 0.666041
0.731838 0.783413 0.666377
0.733303 0.782132 0.666773
0.735012 0.780575 0.667292
0.737118 0.778958 0.668025
0.739651 0.777218 0.669154
0.742458 0.775387 0.670466
0.745510 0.773465 0.672084
0.748684 0.771359 0.673793
0.751766 0.769070 0.675624
0.754665 0.766506 0.677302
0.757412 0.763790 0.679072
0.761959 0.762234 0.681788
0.767941 0.761776 0.685451
0.774075 0.761715 0.689479
0.780392 0.762081 0.694057
0.786679 0.762753 0.698909
0.792752 0.763577 0.704005
0.798428 0.764401 0.709071
0.803555 0.765194 0.714015
0.808194 0.765957 0.718898
0.812802 0.767178 0.724056
0.822965 0.774441 0.735805
0.839109 0.785428 0.742275
0.856107 0.796353 0.748165
0.872190 0.806485 0.755062
0.887419 0.816190 0.763119
0.901854 0.825681 0.772335
0.741024 0.794980 0.677577
0.741939 0.795315 0.678431
0.742641 0.795468 0.678920
0.743465 0.795224 0.679377
0.744350 0.794644 0.679683
0.745418 0.793820 0.679988
0.746792 0.792782 0.680446
0.748440 0.791531 0.680995
0.750484 0.790158 0.681819
0.752895 0.788785 0.682948
0.755581 0.787259 0.684199
0.758541 0.785733 0.685847
0.761654 0.784085 0.687617
0.764675 0.782223 0.689326
0.767575 0.780087 0.691005
0.770352 0.777890 0.692775
0.773098 0.775540 0.694636
0.778592 0.775113 0.697902
0.784543 0.775113 0.701686
0.790646 0.775448 0.706020
0.796719 0.776028 0.710628
0.802701 0.776822 0.715450
0.808316 0.777584 0.720333
0.813565 0.778408 0.725216
0.818387 0.779232 0.729976
0.822721 0.780026 0.734707
0.826780 0.780972 0.739498
0.837034 0.788571 0.751461
0.851713 0.799130 0.759731
0.868223 0.810361 0.766506
0.883970 0.821012 0.774533
0.898772 0.831174 0.783627
0.755764 0.806088 0.692134
0.756374 0.806302 0.692683
0.756832 0.806332 0.692958
0.757382 0.805997 0.693202
0.757961 0.805386 0.693233
0.758785 0.804532 0.693385
0.759823 0.803494 0.693568
0.761227 0.802335 0.693965
0.763027 0.801144 0.694667
0.765225 0.799924 0.695674
0.767727 0.798672 0.696895
0.770565 0.797421 0.698482
0.773587 0.796048 0.700191
0.776516 0.794491 0.701930
0.779324 0.792660 0.703548
0.782040 0.790707 0.705196
0.784726 0.788602 0.706966
0.788144 0.787076 0.709316
0.793820 0.787045 0.712886
0.799649 0.787350 0.716945
0.805539 0.787930 0.721340
0.811368 0.788602 0.725978
0.816922 0.789395 0.730648
0.822141 0.790219 0.735348
0.827054 0.791043 0.740017
0.831540 0.791806 0.744625
0.835721 0.792752 0.749294
0.839567 0.793759 0.753964
0.849485 0.801205 0.765682
0.862913 0.811429 0.775631
0.879149 0.823117 0.783413
0.894438 0.834073 0.792264
0.768765 0.816159 0.705135
0.769253 0.816281 0.705501
0.769619 0.816251 0.705776
0.770169 0.816037 0.706020
0.770932 0.815610 0.706325
0.772061 0.815152 0.706813
0.773709 0.814755 0.707759
0.775814 0.814328 0.709010
0.778347 0.813962 0.710597
0.781338 0.813596 0.712581
0.784573 0.813230 0.714748
0.787991 0.812741 0.717098
0.791470 0.812131 0.719448
0.794736 0.811246 0.721736
0.797848 0.810086 0.723781
0.800656 0.808591 0.725582
0.803372 0.806973 0.727443
0.806119 0.805356 0.729488
0.810452 0.804807 0.732479
0.815885 0.805051 0.736233
0.821378 0.805570 0.740322
0.826810 0.806210 0.744656
0.832029 0.806851 0.749020
0.837003 0.807553 0.753384
0.841672 0.808316 0.757778
0.846067 0.809079 0.762142
0.850217 0.809934 0.766537
0.854093 0.810941 0.771054
0.857877 0.812131 0.775753
0.867216 0.819425 0.787167
0.879179 0.829129 0.798398
0.894347 0.840604 0.806699
0.787564 0.829923 0.724544
0.787869 0.829984 0.724788
0.788083 0.829862 0.724849
0.788388 0.829587 0.724910
0.788907 0.829099 0.725032
0.789700 0.828550 0.725246
0.790768 0.827939 0.725673
0.792294 0.827359 0.726436
0.794156 0.826719 0.727413
0.796323 0.826078 0.728695
0.798734 0.825376 0.730129
0.801389 0.824643 0.731807
0.804135 0.823819 0.733516
