data/fiter_cube/80369196/1023067/file.cube
# Created by Adobe Lightroom plugin Export LUT (1.17.0)
# www.johnrellis.com/lightroom/exportlut.htm
# Preset: Dream Travel_05
# Color profile: C:\Program Files (x86)\Common Files\Adobe\Color\Profiles\Recommended\AdobeRGB1998.icc
LUT_3D_SIZE 5
DOMAIN_MIN 0.000000 0.000000 0.000000
DOMAIN_MAX 0.903226 0.903226 0.903226
0.033631 0.056153 0.080079
0.164340 0.103395 0.127321
0.393561 0.162722 0.182620
0.727749 0.343053 0.290532
0.948272 0.693202 0.630121
0.000000 0.193301 0.145571
0.201877 0.212802 0.172702
0.430762 0.191165 0.161868
0.733394 0.354955 0.259861
0.959899 0.713436 0.633661
0.000000 0.486275 0.276402
0.246860 0.519280 0.297978
0.686275 0.650202 0.446540
0.805051 0.516838 0.244358
0.971160 0.702296 0.500999
0.000000 0.826749 0.523857
0.313268 0.834104 0.532464
0.756252 0.834592 0.778012
0.877989 0.876677 0.789456
0.978515 0.842161 0.633997
0.573877 0.969238 0.799893
0.584039 0.969116 0.799435
0.764340 0.951232 0.842008
0.913695 0.941863 0.944884
0.960784 0.959503 0.930419
0.039033 0.110201 0.182773
0.265629 0.000000 0.199588
0.368383 0.205386 0.228672
0.661036 0.311498 0.285557
0.931640 0.640986 0.559777
0.000000 0.205020 0.236912
0.192447 0.229526 0.243656
0.417670 0.245151 0.241672
0.677577 0.336828 0.283177
0.938811 0.647517 0.541863
0.000000 0.478004 0.345800
0.173281 0.511101 0.347539
0.627253 0.603998 0.466255
0.750759 0.473732 0.284092
0.956298 0.690700 0.520043
0.000000 0.819181 0.572168
0.237583 0.828946 0.575219
0.736904 0.836118 0.768704
0.871092 0.876127 0.809445
0.971435 0.835630 0.648951
0.526848 0.971252 0.808347
0.538872 0.971069 0.807095
0.761563 0.958251 0.855131
0.918486 0.946777 0.947692
0.962158 0.962005 0.937377
0.204501 0.264927 0.421576
0.305791 0.306554 0.370062
0.706111 0.000000 0.462989
0.740719 0.223514 0.343297
0.904784 0.669032 0.654810
0.186709 0.380926 0.527001
0.338323 0.370062 0.475593
0.687098 0.000000 0.489631
0.674708 0.361639 0.391821
0.911711 0.678737 0.655024
0.000000 0.552331 0.574731
0.128176 0.563256 0.578943
0.553552 0.573053 0.568383
0.703578 0.516136 0.469490
0.928710 0.707362 0.641108
0.000000 0.802182 0.713283
0.000000 0.801205 0.706477
0.561425 0.824765 0.711818
0.856199 0.876707 0.854551
0.952605 0.799130 0.656275
0.220584 0.976501 0.851896
0.285588 0.977996 0.850797
0.645594 0.965606 0.854673
0.910887 0.951049 0.943053
0.960327 0.963500 0.947112
0.457374 0.514183 0.766445
0.532738 0.543664 0.736599
0.611566 0.587274 0.667781
0.938445 0.000000 0.739498
1.000000 0.297948 0.584070
0.480812 0.590814 0.812619
0.540124 0.591608 0.787106
0.636530 0.663020 0.677394
0.925017 0.000000 0.744259
1.000000 0.405859 0.603265
0.362890 0.720760 0.861448
0.480995 0.732692 0.864134
0.684077 0.733242 0.829007
0.881743 0.451179 0.783200
0.938018 0.663447 0.715114
0.000000 0.835294 0.869352
0.234195 0.833494 0.867338
0.558099 0.836698 0.868315
0.785946 0.829343 0.853025
0.911864 0.803738 0.795712
0.000000 0.979492 0.926024
0.000000 0.981048 0.925261
0.369360 0.977996 0.923461
0.807797 0.959869 0.917357
0.961730 0.968933 0.963775
0.741024 0.796841 0.942138
0.766293 0.807858 0.936584
0.815000 0.838865 0.912566
0.867247 0.722499 0.936187
1.000000 0.000000 0.889403
0.742458 0.813138 0.949950
0.767910 0.821256 0.944793
0.821073 0.846860 0.923400
0.860960 0.774716 0.932769
1.000000 0.000000 0.894408
0.718593 0.862242 0.965728
0.756619 0.865873 0.963500
0.825101 0.870756 0.951690
0.858885 0.883055 0.922606
1.000000 0.386847 0.912535
0.612573 0.905852 0.969970
0.654841 0.906981 0.969909
0.770382 0.913573 0.970520
0.889403 0.922179 0.963195
0.991363 0.783505 0.944488
0.535912 0.966033 0.974640
0.532799 0.966766 0.974456
0.643610 0.965087 0.974426
0.816251 0.963622 0.975006
0.948608 0.965179 0.974304
