data/fiter_cube/80369196/1023067/file.cube
# Created by Adobe Lightroom plugin Export LUT (1.17.0)
# www.johnrellis.com/lightroom/exportlut.htm
# Preset: Dream Travel_05
# Color profile: C:\Program Files (x86)\Common Files\Adobe\Color\Profiles\Recommended\AdobeRGB1998.icc
LUT_3D_SIZE 8
DOMAIN_MIN 0.000000 0.000000 0.000000
DOMAIN_MAX 0.903226 0.903226 0.903226
0.033631 0.056153 0.080079
0.086763 0.081575 0.104891
0.194095 0.110445 0.134859
0.324163 0.142672 0.165957
0.466316 0.187808 0.200626
0.680659 0.303929 0.267765
0.843931 0.472297 0.382940
0.948272 0.693202 0.630121
0.027100 0.105440 0.108156
0.084169 0.111147 0.117647
0.202823 0.115724 0.120302
0.325536 0.143740 0.154177
0.468269 0.189395 0.191470
0.649805 0.282933 0.246342
0.818448 0.438788 0.346685
0.940673 0.664271 0.584985
0.000000 0.226352 0.159640
0.076539 0.233921 0.167758
0.252384 0.252720 0.194675
0.391028 0.210788 0.150301
0.528038 0.236179 0.179629
0.689693 0.323400 0.226841
0.861112 0.496529 0.353155
0.959075 0.704616 0.612085
0.000000 0.391363 0.232059
0.000000 0.396674 0.232883
0.346075 0.406134 0.325689
0.567224 0.525963 0.346075
0.706477 0.492226 0.238407
0.758389 0.434028 0.224552
0.880644 0.541100 0.319829
0.967559 0.703822 0.551598
0.000000 0.603479 0.339605
0.000000 0.608881 0.338628
0.327306 0.635798 0.363561
0.616327 0.647211 0.599329
0.756588 0.730892 0.543572
0.848966 0.691279 0.373754
0.890257 0.616114 0.305760
0.974548 0.716182 0.478218
0.000000 0.780850 0.474617
0.000000 0.795682 0.487129
0.363317 0.802579 0.499825
0.666468 0.806027 0.673396
0.758328 0.800381 0.816037
0.860044 0.855741 0.749599
0.935576 0.844388 0.624292
0.981323 0.812863 0.577020
0.305089 0.906126 0.640040
0.317357 0.908324 0.643061
0.437842 0.904417 0.649134
0.648280 0.898741 0.715084
0.820981 0.889281 0.857298
0.857053 0.892576 0.905760
0.918547 0.920134 0.868009
0.970214 0.916594 0.803189
0.573877 0.969238 0.799893
0.576135 0.969055 0.799283
0.588891 0.969390 0.800320
0.720180 0.962493 0.834592
0.839567 0.946136 0.889860
0.907897 0.942290 0.937835
0.928069 0.948302 0.951690
0.960784 0.959503 0.930419
0.037446 0.079133 0.122652
0.113375 0.040772 0.129030
0.179446 0.128359 0.155947
0.309300 0.155337 0.176364
0.450629 0.189334 0.199832
0.627497 0.267582 0.241978
0.800504 0.417365 0.336187
0.930724 0.639277 0.559014
0.000000 0.108339 0.143099
0.080873 0.123232 0.150546
0.194644 0.144259 0.161654
0.318791 0.163973 0.176364
0.457099 0.196902 0.198764
0.619013 0.265354 0.234134
0.782773 0.398199 0.314397
0.920623 0.609339 0.515221
0.000000 0.222965 0.189670
0.045563 0.235416 0.191836
0.244785 0.254856 0.220340
0.370764 0.217350 0.179477
0.499153 0.238560 0.199283
0.646082 0.301671 0.231907
0.810971 0.434150 0.304387
0.938354 0.642573 0.526665
0.000000 0.375341 0.248753
0.000000 0.385229 0.250736
0.327306 0.407660 0.322423
0.511467 0.478035 0.339178
0.632502 0.428412 0.240330
0.694820 0.384497 0.226658
0.827756 0.480507 0.291783
0.947112 0.648463 0.471748
0.000000 0.591363 0.356085
0.000000 0.595514 0.352697
0.298192 0.616327 0.364874
0.587732 0.619776 0.560998
0.722194 0.695796 0.516075
0.819974 0.658991 0.363958
0.863859 0.582147 0.293645
0.960082 0.689357 0.449226
0.000000 0.761593 0.475227
0.000000 0.765072 0.474464
0.314824 0.775387 0.481331
0.628504 0.786496 0.632136
0.747097 0.788357 0.799222
0.852995 0.850278 0.747982
0.928557 0.837034 0.621393
0.974182 0.799008 0.556054
0.217868 0.891081 0.622004
0.220096 0.889158 0.617029
0.383581 0.888487 0.623499
0.618067 0.888396 0.691157
0.809934 0.883299 0.846738
0.848844 0.885832 0.900877
0.911498 0.913909 0.859861
0.964752 0.909209 0.788327
0.538659 0.965362 0.788357
0.544762 0.965942 0.789914
0.560632 0.966766 0.792050
0.703182 0.960327 0.826963
0.842985 0.950805 0.894926
0.910002 0.944457 0.939513
0.926818 0.947509 0.951659
0.958923 0.958160 0.929198
0.054841 0.127443 0.211978
0.106600 0.145541 0.194400
0.329992 0.000000 0.228458
0.376989 0.129152 0.208499
0.449134 0.239048 0.258335
0.626490 0.305638 0.294926
0.809842 0.447089 0.377142
0.939940 0.664912 0.590082
0.016205 0.170169 0.248692
0.121309 0.175082 0.235721
0.306065 0.000000 0.238437
0.340215 0.199741 0.235233
0.453223 0.246036 0.259434
0.618433 0.303777 0.288945
0.797360 0.434089 0.361669
0.936156 0.649592 0.563439
0.000000 0.244053 0.272740
0.000000 0.253880 0.276127
0.239261 0.269841 0.278416
0.366552 0.270909 0.269108
0.505241 0.289647 0.273320
0.647517 0.337957 0.292393
0.807797 0.455573 0.358160
0.938781 0.653223 0.548730
0.000000 0.387304 0.329961
0.000000 0.398352 0.334813
0.236484 0.433478 0.335485
0.512535 0.497078 0.410590
0.600519 0.409552 0.298863
0.699184 0.417304 0.300053
0.832242 0.507805 0.357977
0.947051 0.673854 0.537407
0.000000 0.586053 0.424262
0.000000 0.596612 0.424628
0.233524 0.624628 0.426734
0.588556 0.651087 0.571710
0.725246 0.716060 0.596338
0.805112 0.651057 0.425940
0.856291 0.584405 0.350530
0.955718 0.702907 0.510643
0.000000 0.758816 0.533288
0.000000 0.763912 0.533104
0.245914 0.774105 0.531609
0.554772 0.786801 0.590784
0.748043 0.791104 0.790158
0.843046 0.847776 0.770352
0.916167 0.829465 0.650874
0.969848 0.796017 0.584344
0.000000 0.896147 0.667750
0.000000 0.895354 0.664851
0.326482 0.892088 0.661219
0.581720 0.888731 0.699428
0.797299 0.885313 0.841459
0.848600 0.887022 0.908019
0.913329 0.919280 0.878752
0.964294 0.914733 0.821134
0.489784 0.968444 0.801907
0.491554 0.967681 0.799191
0.506279 0.967681 0.798032
0.673793 0.962554 0.829587
0.820554 0.952850 0.883970
0.909758 0.947112 0.939788
0.928466 0.949340 0.955657
0.960418 0.960754 0.936400
0.142458 0.209995 0.336645
0.193820 0.226291 0.325048
0.246647 0.250401 0.295079
0.590387 0.000000 0.371221
0.654627 0.000000 0.272313
0.602228 0.316533 0.343023
0.761471 0.443244 0.422736
0.916503 0.655604 0.616083
0.166171 0.257176 0.382788
0.209659 0.258915 0.366369
0.273686 0.297185 0.306004
0.581140 0.000000 0.379553
0.635004 0.000000 0.284947
0.574701 0.340520 0.353765
0.757412 0.440375 0.416205
0.915251 0.650172 0.605554
0.000000 0.339086 0.432288
0.146914 0.346532 0.435218
0.317327 0.344213 0.402014
0.542504 0.157473 0.404150
0.559930 0.295781 0.341009
0.619684 0.382635 0.376623
0.797848 0.494911 0.448920
0.929839 0.684352 0.633143
0.000000 0.434943 0.453437
0.000000 0.440742 0.455695
0.230381 0.462776 0.467750
0.462806 0.476112 0.467231
0.560998 0.444038 0.418158
0.666102 0.444862 0.397070
0.806149 0.519493 0.437446
0.934630 0.691859 0.612848
0.000000 0.605982 0.538689
0.000000 0.608820 0.538872
0.000000 0.623499 0.544091
0.466590 0.660060 0.553582
0.706783 0.718898 0.667567
0.758328 0.607233 0.477638
0.844846 0.606439 0.460487
0.945953 0.723079 0.602319
0.000000 0.763790 0.647272
0.000000 0.777981 0.655909
0.000000 0.785306 0.641138
0.477607 0.798734 0.646693
0.752468 0.812650 0.793881
0.840024 0.856779 0.818326
0.900237 0.820035 0.696101
0.962615 0.781643 0.608026
0.000000 0.896666 0.739284
0.000000 0.898558 0.739040
0.127138 0.900908 0.734127
0.514275 0.899657 0.744259
0.755062 0.896727 0.821073
0.862455 0.898924 0.913054
0.914336 0.924865 0.899565
0.960266 0.914397 0.843595
0.387884 0.977234 0.839109
0.398779 0.977569 0.839017
0.428382 0.977234 0.835172
0.604028 0.969024 0.840818
0.782193 0.957519 0.875120
0.905760 0.951568 0.939147
0.929931 0.951324 0.961212
0.961852 0.963867 0.945312
0.269566 0.325444 0.518364
0.311833 0.337896 0.505608
0.386603 0.374975 0.449226
0.469978 0.262791 0.496986
0.803769 0.000000 0.562310
0.865446 0.000000 0.389349
0.849821 0.320653 0.421637
0.890379 0.686671 0.696468
0.274571 0.356970 0.557183
0.322576 0.368231 0.545953
0.407752 0.397894 0.485512
0.468666 0.316899 0.498665
0.797177 0.000000 0.566339
0.855436 0.000000 0.396307
0.837919 0.360052 0.436835
0.891386 0.686763 0.694179
0.245396 0.466407 0.641627
0.309728 0.465797 0.633204
0.418616 0.450721 0.580163
0.487190 0.478920 0.504631
0.770047 0.000000 0.576837
0.806882 0.140566 0.413886
0.782681 0.453376 0.476661
0.891203 0.677363 0.674067
0.000000 0.554376 0.665278
0.158022 0.559777 0.669154
0.361212 0.577752 0.680873
0.547417 0.576654 0.642206
0.725460 0.390082 0.613916
0.719814 0.433143 0.475227
0.753536 0.537072 0.525414
0.906767 0.696223 0.675227
0.000000 0.654170 0.685939
0.000000 0.657374 0.687922
0.206882 0.662837 0.689387
0.454688 0.668910 0.688624
0.631403 0.661097 0.666987
0.692012 0.598596 0.575891
0.796597 0.602686 0.551293
0.921355 0.722438 0.668910
0.000000 0.758328 0.717037
0.000000 0.760555 0.718166
0.000000 0.762783 0.716396
0.286625 0.767666 0.714748
0.614832 0.783200 0.718746
0.812009 0.839994 0.828336
0.861326 0.764065 0.677058
0.943023 0.784848 0.692348
0.000000 0.890745 0.810575
0.000000 0.889921 0.808713
0.000000 0.889616 0.805142
0.276890 0.892271 0.794583
0.639826 0.892790 0.802121
0.852079 0.898802 0.900206
0.908415 0.924315 0.911437
0.950378 0.902190 0.846494
0.000000 0.979156 0.877256
0.000000 0.978943 0.875578
0.000000 0.978790 0.870237
0.446326 0.975891 0.868589
0.690761 0.963134 0.871244
0.868284 0.953796 0.920409
0.931182 0.952636 0.962280
0.960967 0.965179 0.951965
0.430121 0.486030 0.737758
0.459480 0.495247 0.727779
0.525383 0.521080 0.683040
0.567834 0.574853 0.601221
0.718837 0.244327 0.754086
0.921324 0.000000 0.714992
0.991089 0.000000 0.536004
1.000000 0.452766 0.605554
0.423926 0.498451 0.746120
0.452857 0.504967 0.735409
0.524895 0.529564 0.695399
0.577478 0.581933 0.620783
0.704677 0.303044 0.744564
0.914275 0.000000 0.712551
0.985595 0.000000 0.534905
0.995392 0.471168 0.609369
0.460456 0.597772 0.802609
0.478584 0.591669 0.794308
0.541375 0.589532 0.766506
0.621118 0.629541 0.706874
0.686824 0.483253 0.747189
0.903441 0.000000 0.726833
0.971618 0.000000 0.551690
0.976898 0.553399 0.645624
0.378790 0.686091 0.847227
0.418708 0.689876 0.847379
0.538598 0.698604 0.843046
0.651362 0.700191 0.812985
0.690700 0.697597 0.757900
0.886290 0.359838 0.765743
0.937987 0.387213 0.604059
0.939239 0.687465 0.731106
0.228122 0.738460 0.841642
0.287327 0.740932 0.842741
0.432136 0.749294 0.845823
0.592432 0.765011 0.850858
0.711757 0.758419 0.822446
0.833433 0.607446 0.788754
0.846983 0.594903 0.646052
0.889891 0.753689 0.769009
0.000000 0.800443 0.837919
0.000000 0.804135 0.841062
0.264988 0.806699 0.842496
0.470619 0.809476 0.843229
0.630243 0.809354 0.839567
0.760037 0.803342 0.826139
0.808682 0.743862 0.742092
0.918700 0.795926 0.781979
0.000000 0.892149 0.867155
0.000000 0.895415 0.870024
0.000000 0.899809 0.873655
0.309819 0.901549 0.875303
0.523369 0.896910 0.870054
0.768185 0.897154 0.871489
0.903502 0.925597 0.926787
0.939971 0.879911 0.844114
0.000000 0.980560 0.918700
0.000000 0.980468 0.917876
0.000000 0.980896 0.915770
0.176486 0.979492 0.914488
0.513085 0.971893 0.905577
0.780911 0.958831 0.905882
0.931243 0.957366 0.959289
0.961913 0.968414 0.961669
0.584436 0.644007 0.867002
0.601007 0.650538 0.862791
0.645869 0.670405 0.845365
0.695399 0.708095 0.812192
0.707912 0.702388 0.787655
0.864683 0.230472 0.883238
0.990173 0.000000 0.814267
1.000000 0.000000 0.671290
0.586755 0.656214 0.873747
0.603113 0.661769 0.869627
0.649348 0.680598 0.853910
0.698299 0.712856 0.820523
0.710109 0.720180 0.784970
0.859037 0.293400 0.882567
0.987732 0.000000 0.815671
1.000000 0.000000 0.672175
0.608881 0.711086 0.896300
0.617823 0.708949 0.893523
0.658442 0.715175 0.881224
0.712734 0.737728 0.852873
0.730251 0.768521 0.795346
0.844450 0.462867 0.885649
0.981781 0.000000 0.825711
1.000000 0.000000 0.682521
0.587976 0.772396 0.919890
0.608484 0.773007 0.917906
0.672389 0.779843 0.911742
0.721309 0.775265 0.893553
0.763729 0.794247 0.853086
0.818265 0.661433 0.885008
0.968627 0.278202 0.843687
1.000000 0.211307 0.700679
0.507897 0.811551 0.924224
0.531609 0.813626 0.924468
0.604730 0.821592 0.925628
0.703670 0.833494 0.926177
0.777188 0.826780 0.905058
0.798459 0.814084 0.874662
0.943908 0.559350 0.867613
1.000000 0.562707 0.759731
0.400000 0.853605 0.923705
0.429023 0.854368 0.923919
0.514794 0.857176 0.924834
0.627680 0.862669 0.926604
0.743343 0.872404 0.929564
0.828855 0.871763 0.917388
0.909972 0.768093 0.896818
0.945342 0.766293 0.826108
0.217868 0.903380 0.925383
0.266026 0.903441 0.925566
0.383154 0.903349 0.925994
0.518547 0.903410 0.926696
0.654444 0.903716 0.927428
0.775357 0.904814 0.927581
0.860990 0.897642 0.918303
0.910765 0.865537 0.877195
0.000000 0.965637 0.940673
0.000000 0.966186 0.940520
0.000000 0.967926 0.940734
0.350225 0.970459 0.943908
0.534997 0.971130 0.946349
0.689052 0.965698 0.943664
0.871244 0.959838 0.942992
0.963256 0.972229 0.972076
0.741024 0.796841 0.942138
0.749355 0.800443 0.940642
0.773404 0.811215 0.934539
0.803159 0.828458 0.922148
0.821347 0.850401 0.899596
0.842649 0.783078 0.921813
0.972534 0.309453 0.958495
1.000000 0.000000 0.889403
0.741878 0.801907 0.944488
0.750057 0.805142 0.942992
0.774166 0.815030 0.937041
0.804349 0.831052 0.924987
0.823819 0.852018 0.903227
0.841855 0.795163 0.920714
0.969207 0.359319 0.958434
1.000000 0.000000 0.890623
0.745876 0.820920 0.951904
0.750484 0.820493 0.950744
0.774716 0.827298 0.945373
0.808255 0.841062 0.934874
0.832334 0.858793 0.915831
0.841947 0.832822 0.917662
0.957977 0.498390 0.958770
1.000000 0.000000 0.896025
0.744930 0.851926 0.961212
0.756985 0.854612 0.960510
0.779812 0.855222 0.957305
0.808225 0.856504 0.949462
0.842100 0.870146 0.934234
0.849119 0.881590 0.912505
0.938170 0.659174 0.958465
1.000000 0.216373 0.905821
0.688045 0.875273 0.968841
0.700221 0.876860 0.968933
0.741085 0.879850 0.967834
0.799863 0.883818 0.963928
0.842466 0.885100 0.954467
0.869932 0.897673 0.934112
0.913451 0.805203 0.956298
1.000000 0.522850 0.920623
0.629206 0.898253 0.969512
0.641901 0.898741 0.969451
0.683497 0.900633 0.969451
0.746609 0.905119 0.969818
0.821164 0.914214 0.970794
0.879667 0.914672 0.961242
0.897185 0.908019 0.949187
0.997192 0.741329 0.939574
0.550591 0.930632 0.971252
0.564446 0.930510 0.971221
0.609705 0.930144 0.971130
0.680720 0.930297 0.971191
0.765835 0.932372 0.971649
0.852293 0.939086 0.973266
0.919249 0.944366 0.969726
0.974792 0.882383 0.959319
0.535912 0.966033 0.974640
0.534844 0.966247 0.974578
0.531914 0.967041 0.974426
0.596002 0.966003 0.974395
0.693324 0.964172 0.974456
0.792508 0.963439 0.974823
0.882719 0.965423 0.975952
0.948608 0.965179 0.974304
