data/fiter_cube/80369196/1023067/file.cube
# Created by Adobe Lightroom plugin Export LUT (1.17.0)
# www.johnrellis.com/lightroom/exportlut.htm
# Preset: Dream Travel_05
# Color profile: C:\Program Files (x86)\Common Files\Adobe\Color\Profiles\Recommended\AdobeRGB1998.icc
LUT_3D_SIZE 32
DOMAIN_MIN 0.0 0.0 0.0
DOMAIN_MAX 1.0 1.0 1.0
0.033631 0.056153 0.080079
0.043732 0.060273 0.082918
0.056062 0.064698 0.086702
0.068757 0.073152 0.096040
0.086763 0.081575 0.104891
0.109529 0.089204 0.112673
0.135683 0.096376 0.120027
0.164340 0.103395 0.127321
0.194095 0.110445 0.134859
0.225162 0.117708 0.142275
0.257298 0.125521 0.150088
0.290318 0.133822 0.157961
0.324163 0.142672 0.165957
0.358709 0.152193 0.174289
0.393561 0.162722 0.182620
0.428992 0.174472 0.191318
0.466316 0.187808 0.200626
0.524376 0.211734 0.215976
0.577844 0.237949 0.231357
0.630426 0.268711 0.248203
0.680659 0.303929 0.267765
0.727749 0.343053 0.290532
0.770321 0.384344 0.316625
0.809079 0.427405 0.347051
0.843931 0.472297 0.382940
0.875334 0.520287 0.426490
0.903624 0.573327 0.481392
0.927886 0.631861 0.550317
0.948272 0.693202 0.630121
0.965209 0.754696 0.715602
0.979828 0.812833 0.798123
0.993622 0.864439 0.866423
0.032990 0.063294 0.083436
0.041138 0.064118 0.084535
0.058625 0.066712 0.084535
0.070710 0.073030 0.092653
0.088380 0.081758 0.102510
0.110719 0.089357 0.110506
0.136416 0.096590 0.118013
0.164279 0.103243 0.125490
0.193820 0.110170 0.133028
0.224369 0.117433 0.140566
0.255863 0.125154 0.148409
0.288457 0.132998 0.156161
0.321660 0.141939 0.164309
0.355627 0.151308 0.172274
0.389837 0.161776 0.180667
0.424659 0.173007 0.189151
0.462348 0.186343 0.198672
0.516808 0.208286 0.212924
0.567529 0.232761 0.227298
0.618433 0.261295 0.243198
0.667750 0.294469 0.261448
0.714595 0.331640 0.282872
0.757565 0.371313 0.307408
0.797147 0.413428 0.336004
0.833188 0.457557 0.370001
0.866117 0.505089 0.411475
0.896239 0.558068 0.464302
0.922301 0.616846 0.531334
0.944182 0.679438 0.611261
0.962219 0.742641 0.698238
0.977386 0.802792 0.783902
0.991455 0.856443 0.856260
0.031647 0.071656 0.087617
0.044495 0.071870 0.093050
0.051820 0.072602 0.091310
0.071839 0.076661 0.091035
0.090272 0.083192 0.099245
0.112459 0.090303 0.107759
0.137545 0.097200 0.115724
0.165072 0.103609 0.123171
0.194217 0.110353 0.130892
0.224338 0.117525 0.138613
0.255802 0.125063 0.146426
0.288121 0.133028 0.154299
0.321111 0.141573 0.162478
0.354803 0.151095 0.170565
0.388678 0.161196 0.178866
0.423133 0.172580 0.187472
0.461646 0.186130 0.197147
0.513725 0.207034 0.210788
0.562799 0.230320 0.224674
0.612512 0.257939 0.239933
0.661494 0.290074 0.257725
0.708248 0.326513 0.278538
0.751400 0.365423 0.302281
0.791226 0.406775 0.330053
0.827726 0.450416 0.362982
0.861326 0.497475 0.403296
0.892271 0.550164 0.454871
0.919310 0.608911 0.520806
0.942046 0.672145 0.600763
0.960662 0.736141 0.688502
0.976165 0.797238 0.775601
0.990295 0.851865 0.850156
0.032227 0.086244 0.097322
0.039338 0.087098 0.099214
0.056519 0.086152 0.107790
0.065949 0.089113 0.104311
0.092287 0.094057 0.100862
0.117311 0.094667 0.102998
0.142641 0.099641 0.110567
0.169650 0.105715 0.118807
0.198154 0.111788 0.126864
0.228031 0.118502 0.134859
0.258671 0.125887 0.142916
0.290532 0.133822 0.151034
0.322942 0.142458 0.159274
0.355993 0.151644 0.167453
0.389349 0.161593 0.175967
0.423346 0.172580 0.184573
0.463355 0.186862 0.194797
0.511955 0.206577 0.207523
0.558038 0.228275 0.220462
0.604822 0.253605 0.234806
0.651820 0.283696 0.251316
0.697627 0.317967 0.270817
0.741451 0.356146 0.293645
0.783108 0.398016 0.321202
0.822171 0.443336 0.354620
0.858305 0.492592 0.396216
0.891020 0.547173 0.449195
0.919036 0.607080 0.516228
0.942046 0.670680 0.596735
0.960632 0.734279 0.684230
0.975891 0.794614 0.770687
0.989685 0.848508 0.845182
0.027100 0.105440 0.108156
0.029328 0.106111 0.108095
0.049012 0.107240 0.112001
0.067475 0.103670 0.126467
0.084169 0.111147 0.117647
0.119753 0.116457 0.109743
0.148226 0.110506 0.108644
0.175021 0.111513 0.113466
0.202823 0.115724 0.120302
0.232059 0.121553 0.128664
0.262364 0.128023 0.137209
0.293614 0.135531 0.145724
0.325536 0.143740 0.154177
0.358251 0.152865 0.162692
0.391424 0.162844 0.171359
0.425452 0.173892 0.180270
0.468269 0.189395 0.191470
0.514824 0.208377 0.203891
0.559350 0.229618 0.216526
0.604517 0.254368 0.230503
0.649805 0.282933 0.246342
0.694301 0.316045 0.265080
0.737362 0.352972 0.287175
0.778958 0.394049 0.313909
0.818448 0.438788 0.346685
0.855283 0.487831 0.387518
0.888609 0.541833 0.439399
0.917205 0.600946 0.505089
0.940673 0.664271 0.584985
0.959594 0.727932 0.672663
0.975067 0.788876 0.760739
0.988861 0.843717 0.837858
0.014954 0.129183 0.118959
0.016022 0.129732 0.118685
0.029694 0.130861 0.119692
0.070192 0.132662 0.134066
0.081819 0.123995 0.149599
0.112001 0.138491 0.132387
0.157107 0.145205 0.120363
0.186557 0.134829 0.117830
0.212406 0.127779 0.118624
0.241032 0.130495 0.125246
0.270970 0.134768 0.132082
0.301884 0.140383 0.139101
0.333227 0.147982 0.148013
0.365423 0.156649 0.157046
0.398169 0.166384 0.166171
0.431830 0.177432 0.175357
0.477363 0.194156 0.187411
0.521782 0.212894 0.199680
0.565209 0.233799 0.212375
0.609674 0.258518 0.226261
0.654414 0.287541 0.242344
0.698878 0.320928 0.261387
0.816892 0.437415 0.334508
0.851896 0.482551 0.371832
0.882292 0.529229 0.415991
0.908507 0.578271 0.468666
0.930419 0.630365 0.531945
0.948669 0.684108 0.603967
0.963897 0.738064 0.681178
0.976837 0.790494 0.758846
0.988617 0.838529 0.828305
0.998962 0.877134 0.878752
0.000000 0.162997 0.132906
0.000000 0.163424 0.132509
0.000000 0.164523 0.132692
0.052308 0.167453 0.137423
0.105806 0.165560 0.163363
0.115053 0.158450 0.177127
0.158206 0.177615 0.153170
0.214145 0.187564 0.135714
0.243503 0.170809 0.131563
0.268070 0.156222 0.128664
0.295750 0.153872 0.133425
0.326665 0.157748 0.140719
0.357671 0.163210 0.148104
0.389197 0.169863 0.155398
0.420844 0.177737 0.162875
0.459541 0.190341 0.172641
0.505364 0.208530 0.185397
0.549035 0.228367 0.198367
0.592981 0.251469 0.211887
0.639246 0.279789 0.227634
0.687709 0.314305 0.246952
0.737423 0.356023 0.271519
0.786069 0.403601 0.302495
0.830930 0.455116 0.341100
0.869749 0.508415 0.387854
0.900999 0.561639 0.442420
0.925872 0.615656 0.506218
0.945647 0.670649 0.579217
0.961852 0.725826 0.658350
0.975128 0.778927 0.738033
0.986938 0.828367 0.811765
0.998108 0.872160 0.871550
0.000000 0.193301 0.145571
0.000000 0.193668 0.145357
0.000000 0.194247 0.145113
0.018311 0.197299 0.147646
0.098604 0.199710 0.166323
0.141970 0.192111 0.190372
0.155123 0.192294 0.198123
0.201877 0.212802 0.172702
0.265507 0.228092 0.151400
0.294285 0.208164 0.145388
0.317754 0.190127 0.141329
0.338872 0.176516 0.139712
0.368872 0.179416 0.146883
0.399084 0.184237 0.154238
0.430762 0.191165 0.161868
0.473610 0.204166 0.171359
0.514702 0.218997 0.180819
0.555077 0.235966 0.190707
0.596185 0.257115 0.203098
0.639796 0.283391 0.218357
0.685756 0.316045 0.236790
0.733394 0.354955 0.259861
0.780514 0.399756 0.288914
0.824582 0.448402 0.324834
0.863462 0.499184 0.368780
0.895628 0.550469 0.420294
0.921782 0.602930 0.481239
0.942748 0.657710 0.553491
0.959899 0.713436 0.633661
0.973785 0.767697 0.716121
0.985718 0.818692 0.794400
0.996887 0.864164 0.859281
0.000000 0.226352 0.159640
0.000000 0.226627 0.159457
0.000000 0.227390 0.159335
0.000000 0.230289 0.161135
0.076539 0.233921 0.167758
0.154208 0.234257 0.200992
0.181674 0.222538 0.221164
0.201877 0.230564 0.221836
0.252384 0.252720 0.194675
0.325628 0.276799 0.169802
0.353338 0.253025 0.161685
0.374426 0.231052 0.155612
0.391028 0.210788 0.150301
0.414160 0.204929 0.153048
0.453590 0.213748 0.162081
0.491249 0.223972 0.170718
0.528038 0.236179 0.179629
0.565087 0.251072 0.188968
0.603723 0.269657 0.199161
0.645502 0.293309 0.211002
0.689693 0.323400 0.226841
0.735012 0.360296 0.249241
0.780179 0.402350 0.277104
0.822843 0.448249 0.311406
0.861112 0.496529 0.353155
0.893248 0.545556 0.402502
0.919860 0.596124 0.461219
0.941466 0.649500 0.531853
0.959075 0.704616 0.612085
0.973236 0.758877 0.696101
0.985138 0.810300 0.777401
0.996063 0.856687 0.846586
0.000000 0.261357 0.174838
0.000000 0.261631 0.174685
0.000000 0.262303 0.174563
0.000000 0.265019 0.175753
0.062745 0.268681 0.179995
0.139986 0.271031 0.200656
0.204471 0.266545 0.231418
0.222751 0.255467 0.255131
0.253422 0.272251 0.247013
0.307469 0.296483 0.218448
0.389593 0.330663 0.189975
0.414588 0.302831 0.178775
0.433967 0.277592 0.171145
0.457740 0.259098 0.165530
0.476905 0.242008 0.161227
0.511803 0.249546 0.169863
0.546532 0.259800 0.178500
0.581781 0.273045 0.187839
0.618372 0.290135 0.197848
0.656825 0.311528 0.209354
0.697230 0.338231 0.223239
0.739010 0.370062 0.240391
0.780392 0.406775 0.263645
0.819608 0.447547 0.295079
0.855955 0.491249 0.333227
0.888121 0.537194 0.379309
0.915892 0.586114 0.435554
0.939208 0.638941 0.504967
0.958099 0.695125 0.587427
0.973175 0.751064 0.675654
0.985443 0.804318 0.762325
0.996338 0.852415 0.837156
0.000000 0.296452 0.190219
0.000000 0.296818 0.190066
0.000000 0.297612 0.190127
0.000000 0.300481 0.190982
0.032868 0.304417 0.194156
0.118685 0.308934 0.202396
0.206882 0.310460 0.238407
0.256504 0.302373 0.265904
0.266911 0.293156 0.293919
0.311284 0.319341 0.275486
0.368170 0.345983 0.244877
0.462654 0.394324 0.214328
0.495125 0.371405 0.201144
0.515831 0.344518 0.191531
0.530816 0.318425 0.182589
0.542199 0.294163 0.174960
0.563287 0.287053 0.176089
0.595392 0.297276 0.184970
0.628748 0.311009 0.194675
0.664271 0.329595 0.205783
0.702174 0.353216 0.219211
0.741817 0.382300 0.235630
0.782040 0.416358 0.256107
0.821134 0.453986 0.281529
0.856565 0.494911 0.317662
0.887877 0.537896 0.362005
0.915251 0.583764 0.415839
0.938628 0.633539 0.482216
0.957824 0.687739 0.563256
0.973175 0.742824 0.652216
0.985504 0.796201 0.742031
0.996155 0.845121 0.822049
0.000000 0.335515 0.207431
0.000000 0.335821 0.207187
0.000000 0.336889 0.207279
0.000000 0.339666 0.208103
0.000000 0.343847 0.210452
0.111147 0.348760 0.216251
0.192081 0.352819 0.239048
0.274144 0.353002 0.278874
0.311559 0.343420 0.305974
0.318822 0.338720 0.335424
0.381140 0.378088 0.311742
0.451362 0.417182 0.282872
0.608087 0.529992 0.274083
0.640986 0.508690 0.249424
0.650935 0.469490 0.230930
0.656855 0.432258 0.215518
0.661372 0.398932 0.202701
0.666499 0.370459 0.192691
0.693721 0.379492 0.203403
0.724086 0.395178 0.216495
0.756283 0.415930 0.231785
0.789700 0.441413 0.250584
0.822843 0.470619 0.273106
0.855192 0.503593 0.300816
0.885313 0.539605 0.334630
0.911925 0.578332 0.378607
0.934295 0.620142 0.436225
0.953124 0.665675 0.505730
0.968536 0.714229 0.586419
0.981048 0.763699 0.672969
0.991302 0.811429 0.758053
1.000000 0.855894 0.832975
0.000000 0.391363 0.232059
0.000000 0.391608 0.231815
0.000000 0.392065 0.231510
0.000000 0.393835 0.231754
0.000000 0.396674 0.232883
0.106661 0.400397 0.236423
0.176638 0.405341 0.245457
0.274632 0.407721 0.285985
0.346075 0.406134 0.325689
0.387976 0.408148 0.367224
0.415259 0.425116 0.401099
0.490303 0.477302 0.377905
0.567224 0.525963 0.346075
0.657130 0.582147 0.309453
0.696071 0.572229 0.281468
0.703182 0.531395 0.257877
0.706477 0.492226 0.238407
0.708858 0.456886 0.222232
0.713130 0.427253 0.209995
0.729000 0.418158 0.209903
0.758389 0.434028 0.224552
0.789334 0.454902 0.242008
0.820432 0.479835 0.263066
0.851316 0.508782 0.288731
0.880644 0.541100 0.319829
0.907561 0.576043 0.357702
0.931518 0.614099 0.405066
0.951263 0.656672 0.471351
0.967559 0.703822 0.551598
0.980865 0.753079 0.640528
0.991455 0.801541 0.730861
1.000000 0.847349 0.813352
0.000000 0.433600 0.251408
0.000000 0.433814 0.251102
0.000000 0.434272 0.250889
0.000000 0.436042 0.250919
0.000000 0.438605 0.251438
0.094545 0.442512 0.253849
0.171817 0.451270 0.261692
0.262638 0.461830 0.290440
0.365423 0.471443 0.344854
0.427161 0.472175 0.386938
0.460487 0.474464 0.436133
0.494820 0.500969 0.459236
0.565942 0.551568 0.431525
0.633509 0.593469 0.394812
0.704982 0.635035 0.353521
0.744320 0.630793 0.320226
0.747066 0.586816 0.288609
0.748074 0.546410 0.264591
0.750179 0.511009 0.245274
0.755367 0.482521 0.230655
0.764950 0.461250 0.220523
0.791714 0.473762 0.234287
0.821042 0.494545 0.254215
0.850614 0.519799 0.278630
0.878965 0.548608 0.308141
0.905455 0.580468 0.344030
0.929564 0.615534 0.387976
0.951110 0.654231 0.442756
0.968170 0.698878 0.521263
0.981903 0.747005 0.612055
0.992676 0.795224 0.706508
1.000000 0.841520 0.795438
0.000000 0.486275 0.276402
0.000000 0.486793 0.276432
0.000000 0.487465 0.276280
0.000000 0.490730 0.276768
0.000000 0.495430 0.277806
0.086427 0.501518 0.280278
0.172061 0.509636 0.286046
0.246860 0.519280 0.297978
0.357763 0.527214 0.348730
0.449195 0.534020 0.406561
0.499733 0.534844 0.453498
0.524132 0.538903 0.510094
0.565606 0.572961 0.518669
0.628656 0.616754 0.487221
0.686275 0.650202 0.446540
0.743038 0.679133 0.399420
0.783566 0.681178 0.363195
0.784665 0.637140 0.323735
0.785611 0.597742 0.295354
0.788602 0.563928 0.272953
0.794858 0.536797 0.256168
0.805051 0.516838 0.244358
0.822904 0.513054 0.245457
0.850736 0.534051 0.268620
0.878141 0.559197 0.296818
0.904479 0.588373 0.331456
0.929168 0.621759 0.375006
0.951629 0.659602 0.430304
0.971160 0.702296 0.500999
0.985595 0.750240 0.595789
0.996399 0.798764 0.696986
1.000000 0.845090 0.791745
0.000000 0.549035 0.308751
0.000000 0.549828 0.308873
0.000000 0.550439 0.308690
0.000000 0.553246 0.308782
0.000000 0.557458 0.309361
0.077272 0.563287 0.311070
0.173617 0.571069 0.315373
0.251255 0.580499 0.324743
0.349371 0.589380 0.358648
0.457374 0.597009 0.422736
0.528496 0.599145 0.478798
0.567620 0.599054 0.531060
0.579767 0.600366 0.587701
0.623407 0.634424 0.575647
0.676020 0.668116 0.539513
0.724514 0.693294 0.494270
0.771115 0.713344 0.443000
0.814237 0.722957 0.408270
0.816648 0.682490 0.364111
0.819944 0.646876 0.332372
0.825284 0.616693 0.307805
0.833341 0.592432 0.289433
0.844541 0.574670 0.276585
0.859373 0.563989 0.269535
0.883391 0.579797 0.290990
0.908782 0.605982 0.325689
0.932708 0.636439 0.368994
0.954650 0.671412 0.423896
0.973693 0.710994 0.493721
0.989136 0.754116 0.578332
0.999634 0.799283 0.678920
1.000000 0.843351 0.776486
0.000000 0.603479 0.339605
0.000000 0.603632 0.339391
0.000000 0.603479 0.338933
0.000000 0.605493 0.338659
0.000000 0.608881 0.338628
0.058350 0.613489 0.339452
0.169986 0.619715 0.342321
0.249485 0.627161 0.349126
0.327306 0.635798 0.363561
0.441535 0.641291 0.423072
0.536706 0.648066 0.497078
0.587640 0.646967 0.546502
0.616327 0.647211 0.599329
0.620447 0.648493 0.652216
0.668879 0.683589 0.624353
0.714229 0.710750 0.588159
0.756588 0.730892 0.543572
0.796231 0.745144 0.490333
0.840604 0.760494 0.458473
0.844419 0.723995 0.409827
0.848966 0.691279 0.373754
0.855192 0.663416 0.346288
0.863706 0.640864 0.325811
0.875364 0.624964 0.312322
0.890257 0.616114 0.305760
0.909545 0.620142 0.314244
0.933227 0.647333 0.356329
0.955200 0.679377 0.409918
0.974548 0.716182 0.478218
0.990326 0.757076 0.562737
1.000000 0.799252 0.656764
1.000000 0.842252 0.759487
0.000000 0.654749 0.372534
0.000000 0.656001 0.373053
0.000000 0.696315 0.402258
0.000000 0.697322 0.401404
0.000000 0.699245 0.400549
0.102388 0.701564 0.400153
0.201816 0.704738 0.401404
0.281834 0.708705 0.406500
0.360784 0.713680 0.419135
0.458076 0.717464 0.461677
0.558495 0.720089 0.536736
0.627832 0.721584 0.603876
0.664057 0.719020 0.649805
0.681300 0.717372 0.695094
0.687495 0.721950 0.725856
0.727047 0.748165 0.697871
0.764340 0.768093 0.663264
0.799435 0.782498 0.621057
0.832700 0.792172 0.570092
0.872862 0.807126 0.539300
0.877409 0.774319 0.482582
0.882750 0.744259 0.438788
0.889342 0.718410 0.406287
0.897948 0.697505 0.382208
0.908568 0.681971 0.365942
0.921904 0.673243 0.358709
0.937926 0.672084 0.361151
0.957122 0.691768 0.399268
0.975708 0.723598 0.463416
0.991516 0.760891 0.545647
1.000000 0.800443 0.639551
1.000000 0.839933 0.736263
0.000000 0.710597 0.413611
0.000000 0.715938 0.417517
0.000000 0.721126 0.421485
0.000000 0.726192 0.424567
0.000000 0.731197 0.426673
0.104311 0.734798 0.427649
0.203037 0.737850 0.429053
0.281804 0.740932 0.433204
0.358312 0.744869 0.443580
0.434730 0.749081 0.464210
0.539147 0.750057 0.533135
0.622827 0.752560 0.609583
0.670985 0.750912 0.659236
0.698024 0.748379 0.700465
0.708400 0.746334 0.739559
0.719020 0.754604 0.754391
0.753628 0.776272 0.728115
0.786618 0.792935 0.696437
0.818357 0.805417 0.658595
0.848875 0.814267 0.613458
0.888121 0.831449 0.588464
0.894194 0.803861 0.534997
0.900999 0.777829 0.489876
0.908751 0.755276 0.456153
0.917937 0.736812 0.431006
0.929320 0.724056 0.415778
0.943053 0.718044 0.411231
0.959228 0.720089 0.419837
0.977142 0.733150 0.449317
0.993011 0.766751 0.529503
1.000000 0.803342 0.622827
1.000000 0.840818 0.721492
0.000000 0.746975 0.443488
0.000000 0.751522 0.447425
0.000000 0.756130 0.451301
0.000000 0.760189 0.454170
0.000000 0.764370 0.456245
0.115053 0.767178 0.457160
0.209049 0.769467 0.458381
0.285374 0.771786 0.461860
0.359197 0.774685 0.470802
0.432929 0.777829 0.488167
0.520989 0.779568 0.534874
0.609155 0.780209 0.606622
0.674434 0.781399 0.672969
0.708492 0.778439 0.710719
0.728206 0.775845 0.746548
0.733608 0.773709 0.779690
0.748623 0.784939 0.782193
0.779080 0.803006 0.758724
0.808530 0.817227 0.730922
0.837156 0.828183 0.698207
0.864805 0.835935 0.658839
0.902556 0.854459 0.640162
0.909392 0.830961 0.590051
0.916930 0.808652 0.546044
0.925170 0.788937 0.511955
0.934997 0.773159 0.486671
0.946715 0.762844 0.472755
0.960571 0.759609 0.472633
0.976287 0.764645 0.489204
0.992920 0.778195 0.525566
1.000000 0.805875 0.601862
1.000000 0.841184 0.702296
0.000000 0.780850 0.474617
0.000000 0.784939 0.478431
0.000000 0.788998 0.482338
0.000000 0.792630 0.485328
0.000000 0.795682 0.487129
0.134249 0.797818 0.488106
0.219364 0.799435 0.489113
0.292210 0.800839 0.492256
0.363317 0.802579 0.499825
0.433661 0.804562 0.514580
0.504173 0.806668 0.540642
0.594202 0.805814 0.606287
0.666468 0.806027 0.673396
0.713741 0.805264 0.722316
0.740322 0.802670 0.755642
0.755032 0.800961 0.786954
0.758328 0.800381 0.816037
0.778683 0.815122 0.811704
0.806821 0.831815 0.794278
0.833982 0.845274 0.773922
0.860044 0.855741 0.749599
0.885130 0.863310 0.719722
0.918212 0.879026 0.705043
0.927245 0.862303 0.663600
0.935576 0.844388 0.624292
0.944762 0.829160 0.594171
0.955383 0.817838 0.574151
0.967651 0.812009 0.567437
0.981323 0.812863 0.577020
0.995636 0.820829 0.605127
1.000000 0.835721 0.653040
1.000000 0.857939 0.723049
0.000000 0.826749 0.523857
0.000000 0.828428 0.525597
0.000000 0.829831 0.527062
0.037446 0.830991 0.527733
0.067842 0.831815 0.527672
0.170871 0.832547 0.527825
0.244694 0.833219 0.528923
0.313268 0.834104 0.532464
0.381079 0.835355 0.540429
0.449348 0.836759 0.555291
0.516625 0.838224 0.578882
0.591943 0.838163 0.624628
0.666163 0.836881 0.687404
0.724544 0.837186 0.746487
0.756252 0.834592 0.778012
0.776242 0.832303 0.805173
0.786587 0.830900 0.830045
0.787442 0.830564 0.852689
0.809842 0.845365 0.842557
0.833433 0.858488 0.827970
0.856077 0.868833 0.810636
0.877989 0.876677 0.789456
0.899199 0.882048 0.762783
0.926909 0.893339 0.746212
0.937530 0.881590 0.711330
0.945800 0.866148 0.675624
0.955261 0.853574 0.649165
0.966186 0.845212 0.634485
0.978515 0.842161 0.633997
0.991608 0.845090 0.649866
1.000000 0.854612 0.684810
1.000000 0.870665 0.739345
0.143526 0.854002 0.557488
0.148745 0.855528 0.559411
0.154452 0.856901 0.561120
0.160555 0.857969 0.561944
0.167330 0.858640 0.561975
0.200931 0.858793 0.561486
0.265873 0.858701 0.562432
0.328618 0.858671 0.565362
0.392279 0.858854 0.572412
0.456733 0.859129 0.585504
0.520226 0.859586 0.605463
0.580804 0.860044 0.632685
0.655818 0.857755 0.690242
0.717433 0.856596 0.746487
0.761563 0.856138 0.790616
0.785794 0.853788 0.815335
0.801541 0.852323 0.838102
0.809323 0.851743 0.858824
0.812100 0.853758 0.874479
0.833768 0.867430 0.864500
0.854582 0.878630 0.852964
0.874540 0.887602 0.839292
0.893797 0.894377 0.822599
0.912413 0.899016 0.801419
0.933349 0.903838 0.776028
0.945342 0.896269 0.748196
0.953674 0.883207 0.717586
0.963378 0.873045 0.695735
0.974395 0.867094 0.686336
0.986481 0.866117 0.691157
0.999207 0.871366 0.714351
1.000000 0.882536 0.755337
0.243595 0.887327 0.607233
0.248325 0.888762 0.609491
0.251652 0.889616 0.610742
0.254734 0.889982 0.610864
0.258000 0.889891 0.609918
0.261143 0.889494 0.608148
0.306798 0.888396 0.608118
0.361578 0.886931 0.610163
0.418708 0.885374 0.615534
0.476387 0.883909 0.625574
0.533196 0.882444 0.640620
0.588617 0.881315 0.661952
0.650172 0.879026 0.700404
0.711879 0.875944 0.751125
0.760952 0.874296 0.796872
0.791165 0.871855 0.824491
0.809415 0.869108 0.843748
0.821012 0.867399 0.861936
0.826383 0.867002 0.879149
0.832425 0.871550 0.888151
0.852018 0.883543 0.880003
0.870665 0.893309 0.870451
0.888212 0.900816 0.858640
0.904906 0.906188 0.843626
0.920989 0.909483 0.824186
0.941070 0.915465 0.807736
0.953765 0.911162 0.786404
0.961822 0.900084 0.760739
0.971435 0.891997 0.743557
0.982361 0.888182 0.739620
0.994232 0.889555 0.751003
1.000000 0.896208 0.778408
0.305089 0.906126 0.640040
0.309117 0.907347 0.642298
0.312139 0.908110 0.643549
0.314855 0.908385 0.643824
0.317357 0.908324 0.643061
0.320165 0.908019 0.641596
0.333959 0.907439 0.640620
0.384527 0.905974 0.643397
0.437842 0.904417 0.649134
0.491920 0.902892 0.658625
0.545403 0.901366 0.672206
0.598169 0.900023 0.691096
0.648280 0.898741 0.715084
0.709804 0.895293 0.761410
0.760494 0.892882 0.804135
0.800320 0.891997 0.840421
0.820981 0.889281 0.857298
0.835630 0.887480 0.873198
0.844907 0.886656 0.888151
0.848814 0.886778 0.902129
0.857053 0.892576 0.905760
0.873716 0.902251 0.898894
0.889433 0.910033 0.890684
0.904295 0.915953 0.880644
0.918547 0.920134 0.868009
0.932311 0.922667 0.851896
0.949218 0.926879 0.837125
0.962249 0.925200 0.821897
0.970214 0.916594 0.803189
0.980011 0.911192 0.793515
0.990784 0.909880 0.796262
1.000000 0.912993 0.812100
0.372656 0.925078 0.679316
0.375647 0.925780 0.680903
0.377264 0.926085 0.681422
0.378576 0.926024 0.681056
0.379614 0.925658 0.679744
0.380926 0.925170 0.677882
0.383062 0.924590 0.675837
0.411231 0.923278 0.676753
0.459480 0.921416 0.681819
0.508782 0.919615 0.690120
0.558679 0.917784 0.702022
0.608118 0.916197 0.718441
0.655634 0.914580 0.738949
0.707301 0.911986 0.771237
0.758419 0.908782 0.810452
0.799863 0.906950 0.844602
0.828489 0.905516 0.868162
0.845029 0.903349 0.881926
0.856779 0.902068 0.895048
0.863981 0.901640 0.907378
0.866453 0.901854 0.918761
0.876341 0.908385 0.918608
0.890654 0.916258 0.912535
0.904204 0.922606 0.905303
0.917052 0.927367 0.896483
0.929381 0.930724 0.885527
0.941527 0.932769 0.871916
0.955932 0.935729 0.858457
0.969024 0.935943 0.847562
0.977142 0.929412 0.834714
0.986725 0.925841 0.829984
0.997131 0.925963 0.836240
0.432136 0.939452 0.713954
0.433936 0.939879 0.714900
0.435401 0.940063 0.715419
0.436744 0.940124 0.715297
0.438697 0.940093 0.714961
0.441779 0.940215 0.714870
0.446967 0.940703 0.715694
0.453803 0.941436 0.717159
0.497475 0.940764 0.724849
0.545647 0.939879 0.735622
0.593927 0.938903 0.749203
0.641077 0.937774 0.765560
0.685878 0.936461 0.784329
0.727199 0.935058 0.804868
0.775631 0.931945 0.837644
0.815305 0.929564 0.866026
0.847379 0.928466 0.890257
0.865843 0.926665 0.903136
0.878386 0.925078 0.913237
0.887053 0.924041 0.922759
0.891936 0.923552 0.931609
0.892790 0.923430 0.939727
0.902800 0.929442 0.936889
0.914122 0.935241 0.931762
0.924834 0.939818 0.925689
0.935119 0.943236 0.918456
0.945129 0.945647 0.909789
0.955077 0.947051 0.899290
0.966552 0.948760 0.888426
0.978454 0.949859 0.880949
0.986236 0.945312 0.873503
0.995209 0.943389 0.873106
0.518547 0.958923 0.768124
0.519738 0.959106 0.768612
0.520165 0.959075 0.768582
0.520500 0.958923 0.767971
0.521080 0.958648 0.767117
0.522332 0.958434 0.766262
0.524712 0.958343 0.765743
0.528374 0.958404 0.765682
0.540551 0.958160 0.767269
0.580713 0.956237 0.774655
0.621454 0.954162 0.784054
0.662043 0.952056 0.795804
0.701167 0.949889 0.809506
0.738033 0.947784 0.825040
