data/fiter_cube/69180065/1023056/file.cube
# Created by Adobe Lightroom plugin Export LUT (1.17.0)
# www.johnrellis.com/lightroom/exportlut.htm
# Preset: 室内文艺胶片_09 云集
# Color profile: C:\Program Files (x86)\Common Files\Adobe\Color\Profiles\Recommended\AdobeRGB1998.icc
LUT_3D_SIZE 32
DOMAIN_MIN 0.0 0.0 0.0
DOMAIN_MAX 1.0 1.0 1.0
0.052033 0.060700 0.111299
0.057588 0.061128 0.111666
0.062470 0.062715 0.111971
0.071046 0.064881 0.112825
0.083619 0.067842 0.113954
0.100038 0.070954 0.115328
0.121584 0.073457 0.116518
0.148928 0.075837 0.117372
0.182742 0.076539 0.118013
0.223453 0.075593 0.118410
0.272557 0.070008 0.118105
0.329046 0.055085 0.117494
0.390082 0.005890 0.116182
0.452064 0.000000 0.114321
0.511528 0.000000 0.112459
0.566186 0.000000 0.110597
0.616327 0.000000 0.109163
0.671229 0.081483 0.108644
0.715419 0.138369 0.109987
0.752560 0.187533 0.113741
0.784512 0.233097 0.120577
0.812406 0.276066 0.130495
0.836881 0.315862 0.142824
0.859129 0.353185 0.158114
0.879850 0.388128 0.176089
0.899901 0.421363 0.197543
0.919890 0.453864 0.223026
0.939818 0.486122 0.253391
0.959747 0.518364 0.289311
0.979583 0.551019 0.331304
0.999145 0.584253 0.379736
1.000000 0.618219 0.434394
0.050813 0.063600 0.111818
0.056672 0.063996 0.111757
0.061402 0.065187 0.112306
0.070527 0.067445 0.113344
0.082704 0.070497 0.114687
0.099031 0.073457 0.115846
0.120546 0.076356 0.116823
0.147555 0.078798 0.117678
0.181064 0.080140 0.118288
0.221530 0.080232 0.118471
0.269718 0.076417 0.118410
0.325597 0.065949 0.117861
0.386206 0.033173 0.116609
0.447822 0.000000 0.114809
0.507103 0.000000 0.113069
0.561822 0.000000 0.111269
0.612665 0.000000 0.109834
0.666102 0.087709 0.109010
0.709865 0.139376 0.110170
0.747158 0.186160 0.113649
0.779416 0.230564 0.119753
0.807675 0.272496 0.128939
0.832578 0.311986 0.140932
0.855131 0.349248 0.155642
0.876158 0.384283 0.173068
0.896483 0.417762 0.194034
0.916777 0.450446 0.219150
0.936980 0.483009 0.249241
0.957153 0.515496 0.284794
0.977264 0.548302 0.326452
0.997070 0.581537 0.374487
1.000000 0.615534 0.428901
0.050050 0.067506 0.112520
0.054902 0.067994 0.112459
0.061280 0.069001 0.112337
0.069734 0.070863 0.114046
0.081666 0.074098 0.115358
0.098146 0.077333 0.116518
0.119600 0.080140 0.117464
0.146426 0.082887 0.118105
0.179690 0.085023 0.118685
0.219730 0.085786 0.118868
0.267918 0.083223 0.118807
0.323674 0.075502 0.118196
0.383948 0.060029 0.116945
0.445563 0.018769 0.115328
0.504814 0.000000 0.113588
0.559716 0.000000 0.111757
0.611200 0.037415 0.110353
0.663508 0.100099 0.109651
0.706996 0.145876 0.110780
0.744289 0.190219 0.114168
0.776822 0.233097 0.120150
0.805325 0.274174 0.128969
0.830381 0.313176 0.140658
0.853086 0.349828 0.155093
0.874235 0.384619 0.172488
0.894652 0.417731 0.193027
0.915038 0.450355 0.217899
0.935363 0.482826 0.247929
0.955749 0.515221 0.283330
0.975982 0.547967 0.324865
0.995880 0.581079 0.372595
1.000000 0.614954 0.426795
0.047242 0.075196 0.114046
0.053529 0.075837 0.114595
0.059571 0.076081 0.114534
0.069093 0.078096 0.113710
0.081636 0.080903 0.116030
0.096956 0.084657 0.117739
0.118349 0.088502 0.118441
0.145541 0.092103 0.118990
0.178744 0.095430 0.119509
0.218906 0.097536 0.119783
0.266911 0.097200 0.119631
0.322454 0.093294 0.118929
0.382635 0.085206 0.117739
0.443793 0.074159 0.116274
0.503044 0.064637 0.114412
0.557794 0.066987 0.112764
0.610559 0.087984 0.111421
0.661158 0.123812 0.110780
0.703548 0.161807 0.112032
0.740230 0.200961 0.115145
0.772519 0.240513 0.121004
0.801114 0.279393 0.129610
0.826688 0.317235 0.141085
0.850126 0.353735 0.155550
0.872129 0.388617 0.173129
0.893309 0.422248 0.194522
0.914214 0.455024 0.220035
0.934844 0.487404 0.250645
0.955291 0.519493 0.286137
0.975433 0.551476 0.327337
0.995148 0.583734 0.374365
1.000000 0.616693 0.427283
0.043854 0.085206 0.116213
0.050141 0.085481 0.116579
0.057618 0.085969 0.116884
0.065187 0.087068 0.116945
0.079377 0.090761 0.115511
0.098207 0.096040 0.117250
0.115846 0.100526 0.120119
0.143038 0.105501 0.120546
0.176516 0.110140 0.120943
0.216648 0.114351 0.121065
0.264530 0.116579 0.120760
0.319982 0.116213 0.120272
0.380224 0.112978 0.119142
0.441566 0.108980 0.117678
0.501244 0.106630 0.115999
0.556664 0.110964 0.114229
0.611383 0.128115 0.113191
0.660822 0.156283 0.112917
0.702785 0.188144 0.114229
0.739010 0.222599 0.117891
0.770840 0.258183 0.123720
0.799283 0.294163 0.132418
0.824765 0.329503 0.143923
0.848295 0.364294 0.158389
0.870390 0.397833 0.176303
0.891752 0.430304 0.197665
0.912718 0.462104 0.223178
0.933410 0.493385 0.253361
0.953826 0.524498 0.288670
0.973938 0.555749 0.329564
0.993683 0.587304 0.376104
1.000000 0.619654 0.428534
0.037171 0.097932 0.118898
0.044373 0.098451 0.119203
0.052216 0.099428 0.119478
0.061524 0.100710 0.118746
0.073793 0.103090 0.118624
0.092988 0.109377 0.116823
0.120516 0.118868 0.117830
0.143923 0.123445 0.121096
0.175326 0.130434 0.122988
0.216220 0.136324 0.123079
0.264927 0.141054 0.122621
0.320806 0.143465 0.122042
0.381292 0.144045 0.120943
0.442908 0.144106 0.119539
0.502647 0.145602 0.117922
0.558068 0.151888 0.116640
0.614343 0.169253 0.115877
0.662593 0.193118 0.116030
0.703914 0.221195 0.118013
0.739834 0.251652 0.121920
0.771603 0.284276 0.128511
0.799985 0.317388 0.137881
0.850278 0.391211 0.170535
0.871489 0.421118 0.189181
0.891508 0.449439 0.210300
0.910887 0.476814 0.234470
0.929870 0.503777 0.261936
0.948516 0.530663 0.293431
0.967041 0.557977 0.329351
0.985382 0.585809 0.370153
1.000000 0.614252 0.415839
1.000000 0.643610 0.465766
0.024445 0.118379 0.122530
0.030152 0.119051 0.122835
0.038636 0.120058 0.122713
0.055268 0.122438 0.122408
0.068421 0.124483 0.121157
0.086580 0.129976 0.120211
0.114168 0.139040 0.117556
0.154604 0.154482 0.117494
0.186160 0.159060 0.121584
0.225071 0.168460 0.125978
0.277195 0.175387 0.125734
0.336126 0.180117 0.124910
0.398016 0.183413 0.123598
0.459571 0.186221 0.122103
0.517784 0.190616 0.120729
0.574884 0.200870 0.119814
0.629603 0.219638 0.119814
0.675929 0.242191 0.121370
0.715724 0.268070 0.124514
0.751003 0.296971 0.130312
0.783078 0.328832 0.139528
0.812345 0.362249 0.152255
0.839048 0.395758 0.168948
0.863401 0.428016 0.189212
0.885924 0.458320 0.212467
0.906737 0.486275 0.237888
0.926421 0.512871 0.266148
0.945434 0.538933 0.297459
0.964172 0.565087 0.332921
0.982513 0.591730 0.372930
1.000000 0.619104 0.417487
1.000000 0.647517 0.466407
0.005310 0.142153 0.126711
0.009918 0.142916 0.126619
0.016724 0.144106 0.126497
0.033509 0.146426 0.125826
0.056580 0.149538 0.122957
0.077913 0.152255 0.123354
0.103029 0.161074 0.121157
0.138308 0.172335 0.117678
0.191623 0.193454 0.116060
0.231357 0.198062 0.120607
0.279301 0.207614 0.126223
0.336797 0.217075 0.129000
0.399207 0.222354 0.127810
0.460914 0.227237 0.126467
0.519127 0.232944 0.125277
0.579706 0.246098 0.124941
0.631312 0.262577 0.125673
0.675807 0.282048 0.127474
0.714473 0.304295 0.131106
0.749050 0.329473 0.137575
0.780636 0.357458 0.147097
0.809506 0.386999 0.160128
0.835935 0.416999 0.176883
0.860166 0.446113 0.196963
0.882567 0.473945 0.219883
0.903410 0.499947 0.245243
0.923156 0.524804 0.272770
0.942321 0.549340 0.303532
0.961151 0.574304 0.338628
0.979614 0.599664 0.377813
0.997742 0.626032 0.421759
1.000000 0.653376 0.469673
0.000000 0.172122 0.131807
0.000000 0.173007 0.131502
0.000000 0.174258 0.131167
0.000000 0.176669 0.130129
0.030121 0.180880 0.128573
0.064454 0.183932 0.125429
0.092134 0.187961 0.125429
0.125063 0.199832 0.121706
0.169619 0.212711 0.116579
0.238956 0.240146 0.111788
0.288121 0.244205 0.117983
0.343847 0.253056 0.124819
0.403143 0.265904 0.133486
0.465187 0.272160 0.132845
0.528923 0.282170 0.132265
0.586023 0.294682 0.132601
0.635126 0.309056 0.133730
0.678065 0.326024 0.136294
0.715389 0.345006 0.140658
0.749172 0.366613 0.147738
0.780026 0.390906 0.157809
0.808347 0.416693 0.171359
0.834318 0.442969 0.188357
0.858183 0.469001 0.208652
0.880400 0.493935 0.231479
0.901091 0.517479 0.256291
0.920806 0.540459 0.283513
0.939879 0.563165 0.313756
0.958648 0.586389 0.347753
0.977081 0.610254 0.385992
0.995178 0.635065 0.428626
1.000000 0.661128 0.475196
0.000000 0.207980 0.137301
0.000000 0.208927 0.136995
0.000000 0.210025 0.136294
0.000000 0.212497 0.135042
0.000000 0.216434 0.133333
0.017914 0.220615 0.127413
0.076204 0.224002 0.128084
0.111788 0.231052 0.126650
0.153780 0.244572 0.121157
0.208194 0.258671 0.113893
0.295537 0.291142 0.104677
0.351720 0.293950 0.112795
0.410803 0.302159 0.122255
0.474708 0.317784 0.134463
0.537957 0.333776 0.142550
0.593378 0.345769 0.143496
0.641474 0.359106 0.145510
0.683284 0.374151 0.148959
0.719387 0.390356 0.154238
0.751736 0.408301 0.162234
0.781125 0.428016 0.172732
0.807950 0.448951 0.186221
0.832670 0.470558 0.202609
0.855558 0.492378 0.221836
0.877073 0.514061 0.243626
0.897612 0.535241 0.267735
0.917449 0.556298 0.294408
0.936828 0.577722 0.324437
0.955871 0.599725 0.358495
0.974609 0.622614 0.396643
0.992950 0.646479 0.438972
1.000000 0.671656 0.485084
0.000000 0.247410 0.143465
0.000000 0.248356 0.142977
0.000000 0.249516 0.142306
0.000000 0.252079 0.140871
0.000000 0.256046 0.138949
0.000000 0.261357 0.136660
0.032380 0.265660 0.130220
0.095186 0.269932 0.131044
0.138857 0.280552 0.127352
0.190982 0.295293 0.119661
0.256474 0.309667 0.109133
0.360632 0.345892 0.092592
0.424018 0.350622 0.104402
0.487739 0.361212 0.118807
0.546715 0.376562 0.136538
0.598932 0.396277 0.157931
0.645350 0.407935 0.161074
0.685847 0.420233 0.165011
0.720790 0.433112 0.170809
0.752255 0.447639 0.179019
0.780941 0.463966 0.190188
0.807309 0.481666 0.203830
0.831632 0.500298 0.220615
0.854246 0.519402 0.239811
0.875547 0.538323 0.261204
0.895781 0.556909 0.284489
0.915282 0.575677 0.310307
0.934417 0.594934 0.339300
0.953277 0.614954 0.371954
0.971893 0.636042 0.408728
0.990173 0.658381 0.449592
1.000000 0.682185 0.494362
0.000000 0.292363 0.150607
0.000000 0.293187 0.150149
0.000000 0.294316 0.149477
0.000000 0.296849 0.147890
0.000000 0.300755 0.145632
0.000000 0.306126 0.143282
0.000000 0.311833 0.132906
0.064881 0.316228 0.133822
0.122591 0.321233 0.134768
0.175326 0.335180 0.127291
0.238437 0.350195 0.116670
0.319097 0.367681 0.101350
0.474861 0.436072 0.060456
0.538323 0.440772 0.091798
0.593469 0.450874 0.121370
0.641382 0.465400 0.151369
0.682704 0.482643 0.183078
0.717250 0.495979 0.203647
0.747005 0.503685 0.210513
0.774136 0.513146 0.219852
0.799008 0.524163 0.231449
0.822080 0.536553 0.245487
0.843626 0.549737 0.261448
0.864012 0.563806 0.279820
0.883635 0.578271 0.300114
0.902586 0.593103 0.322454
0.920958 0.608301 0.346807
0.938933 0.624262 0.374121
0.956695 0.641291 0.404669
0.974365 0.659602 0.438880
0.991760 0.679438 0.476905
1.000000 0.701137 0.519036
0.000000 0.350195 0.160769
0.000000 0.350866 0.160189
0.000000 0.351568 0.159182
0.000000 0.353185 0.157534
0.000000 0.356115 0.154910
0.000000 0.360052 0.152193
0.000000 0.365545 0.149813
0.000000 0.370031 0.137728
0.098482 0.374975 0.138827
0.162203 0.382177 0.138613
0.231144 0.403632 0.128115
0.315618 0.424689 0.112917
0.410315 0.443488 0.089815
0.538109 0.488716 0.009155
0.594385 0.492775 0.087037
0.642390 0.501305 0.126467
0.683131 0.512993 0.162875
0.717067 0.526207 0.198856
0.746242 0.541436 0.235904
0.772671 0.548699 0.245914
0.796963 0.557092 0.256565
0.819699 0.566766 0.269566
0.840818 0.577508 0.284611
0.860960 0.589075 0.301579
0.880369 0.601251 0.320439
0.899107 0.613916 0.341314
0.917388 0.627222 0.364446
0.935271 0.641505 0.390417
0.953033 0.656886 0.419471
0.970764 0.673823 0.452430
0.988312 0.692317 0.488991
1.000000 0.712856 0.529931
0.000000 0.398932 0.170718
0.000000 0.399603 0.170169
0.000000 0.400244 0.169223
0.000000 0.401831 0.167361
0.000000 0.404181 0.164828
0.000000 0.407752 0.162142
0.000000 0.412757 0.159701
0.000000 0.418311 0.145205
0.035370 0.424781 0.144686
0.144717 0.434119 0.147158
0.217899 0.447761 0.144167
0.298497 0.466468 0.130892
0.387671 0.483223 0.112551
0.479530 0.497230 0.084291
0.595666 0.538506 0.000000
0.643275 0.540398 0.089754
0.683101 0.545800 0.136934
0.716579 0.553918 0.177951
0.745632 0.564691 0.217716
0.771603 0.578271 0.257908
0.795377 0.589807 0.285527
0.817746 0.597498 0.297581
0.838682 0.606073 0.311345
0.858671 0.615625 0.327153
0.877897 0.625788 0.344884
0.896513 0.636561 0.364477
0.914611 0.648066 0.386328
0.932433 0.660670 0.410712
0.950134 0.674525 0.438361
0.967834 0.689998 0.469642
0.985351 0.707240 0.504723
1.000000 0.726558 0.544335
0.000000 0.448493 0.182834
0.000000 0.449256 0.182406
0.000000 0.449775 0.181308
0.000000 0.451057 0.179599
0.000000 0.453162 0.177005
0.000000 0.456245 0.174166
0.000000 0.462989 0.172702
0.000000 0.470863 0.171878
0.000000 0.478340 0.153689
0.117800 0.485542 0.156619
0.204532 0.493141 0.159884
0.284367 0.506615 0.153017
0.369696 0.521263 0.137972
0.457465 0.533593 0.117617
0.540612 0.543786 0.087892
0.642329 0.580835 0.000000
0.683925 0.582147 0.100984
0.716884 0.584802 0.152377
0.745632 0.590967 0.196872
0.771420 0.600580 0.239750
0.794797 0.612787 0.282933
0.816068 0.627192 0.326452
0.836606 0.634333 0.340703
0.856352 0.641962 0.355200
0.875456 0.650385 0.371649
0.894102 0.659754 0.390173
0.912383 0.670100 0.411292
0.930480 0.681666 0.435279
0.948486 0.694636 0.462379
0.966400 0.709346 0.493202
0.984100 0.725826 0.527886
1.000000 0.744350 0.566552
0.000000 0.500725 0.198642
0.000000 0.501854 0.198337
0.000000 0.502861 0.197665
0.000000 0.505058 0.196292
0.000000 0.508385 0.194339
0.000000 0.512779 0.192569
0.000000 0.518364 0.190982
0.000000 0.524956 0.190402
0.000000 0.531975 0.174014
0.076234 0.537621 0.170687
0.191104 0.542687 0.174411
0.275914 0.546990 0.178561
0.356542 0.557946 0.166415
0.439002 0.567529 0.149996
0.518303 0.575494 0.128664
0.589837 0.582727 0.099428
0.678462 0.615351 0.009247
0.716518 0.617487 0.118013
0.745754 0.619593 0.172183
0.772000 0.625666 0.220249
0.795743 0.634943 0.266392
0.817350 0.646540 0.312383
0.837034 0.659724 0.357855
0.855924 0.670466 0.389471
0.874876 0.677424 0.404639
0.893400 0.685298 0.421973
0.911559 0.694148 0.441474
0.929442 0.704311 0.463813
0.947173 0.715816 0.489143
0.964752 0.728878 0.517723
0.982055 0.743709 0.549920
0.999145 0.760403 0.585351
0.000000 0.551812 0.218753
0.000000 0.552453 0.218173
0.000000 0.553094 0.217624
0.000000 0.554589 0.216220
0.000000 0.556970 0.214511
0.000000 0.560204 0.212711
0.000000 0.564355 0.211398
0.000000 0.569268 0.210849
0.000000 0.574823 0.211612
0.000000 0.580163 0.186496
0.169802 0.583978 0.190646
0.263951 0.587152 0.195224
0.345403 0.591089 0.196262
0.424384 0.599451 0.182742
0.500908 0.606409 0.165774
0.570184 0.612268 0.144991
0.632410 0.617792 0.118471
0.709560 0.646204 0.068269
0.745235 0.649683 0.140444
0.771481 0.651606 0.195590
0.795315 0.657191 0.245396
0.817014 0.665583 0.293492
0.836881 0.676020 0.340887
0.855436 0.688045 0.387671
0.872923 0.701289 0.433387
0.891203 0.708461 0.451301
0.909331 0.716182 0.469429
0.927184 0.725185 0.490272
0.944854 0.735561 0.514061
0.962341 0.747585 0.541314
0.979706 0.761288 0.571588
0.996826 0.776791 0.604761
0.000000 0.598169 0.241886
0.000000 0.599115 0.241794
0.000000 0.619928 0.253422
0.000000 0.621088 0.252262
0.000000 0.622705 0.250767
0.000000 0.624750 0.248997
0.000000 0.627344 0.247684
0.000000 0.630457 0.246921
0.000000 0.633997 0.247837
0.000000 0.638087 0.229953
0.168856 0.640528 0.221897
0.272740 0.641413 0.226535
0.358160 0.641169 0.231174
0.433936 0.643305 0.227390
0.504540 0.647974 0.213016
0.569268 0.651911 0.195712
0.627955 0.655634 0.175814
0.680598 0.659388 0.152041
0.746059 0.683375 0.114199
0.778408 0.687343 0.177005
0.801083 0.688411 0.231785
0.822049 0.692897 0.283116
0.841459 0.699886 0.332219
0.859495 0.708675 0.380041
0.876310 0.718715 0.425879
0.892241 0.730068 0.470161
0.908293 0.739681 0.501549
0.925414 0.746731 0.519127
0.942596 0.755520 0.540307
0.959838 0.766201 0.565118
0.977081 0.778592 0.592798
0.994141 0.792630 0.623194
0.000000 0.645624 0.271244
0.000000 0.648615 0.272831
0.000000 0.651759 0.274296
0.000000 0.655024 0.275029
0.000000 0.658106 0.274937
0.000000 0.660578 0.274144
0.000000 0.662867 0.272984
0.000000 0.665126 0.272374
0.000000 0.667811 0.273014
0.026856 0.670161 0.275608
0.139498 0.673304 0.244053
0.257603 0.673396 0.248631
0.346838 0.672450 0.253300
0.423590 0.670710 0.257908
0.491188 0.672877 0.249363
0.553307 0.676020 0.234623
0.610346 0.678920 0.217777
0.662135 0.682002 0.198764
0.709438 0.685512 0.177554
0.768368 0.707546 0.143404
0.799802 0.713039 0.203067
0.821317 0.714717 0.259190
0.841184 0.719142 0.311681
0.859678 0.725673 0.362036
0.876921 0.733730 0.410376
0.893217 0.743313 0.456733
0.908690 0.754360 0.501549
0.923552 0.767147 0.545892
0.940398 0.775479 0.567163
0.957519 0.784909 0.589380
0.974640 0.796017 0.614527
0.991638 0.808774 0.642420
0.000000 0.681514 0.297368
0.000000 0.684108 0.298894
0.000000 0.686824 0.300389
0.000000 0.689570 0.301305
0.000000 0.692073 0.301457
0.000000 0.694026 0.300694
0.000000 0.695766 0.299748
0.000000 0.697444 0.299260
0.000000 0.699306 0.299962
0.000000 0.700862 0.302251
0.153902 0.703059 0.285801
0.243534 0.703853 0.273564
0.337285 0.702327 0.278050
0.416083 0.700160 0.282689
0.483375 0.697597 0.287205
0.542473 0.700130 0.274235
0.597192 0.702510 0.259648
0.647639 0.704982 0.243534
0.694087 0.707851 0.225864
0.736843 0.711482 0.206638
0.790036 0.731594 0.177554
0.820859 0.738643 0.233005
0.841215 0.740444 0.289677
0.860105 0.744564 0.342870
0.877684 0.750423 0.393622
0.894163 0.757961 0.441962
0.909789 0.767147 0.488472
0.924804 0.778195 0.534203
0.939452 0.791043 0.578912
0.954955 0.802884 0.612634
0.971923 0.812741 0.635187
0.988830 0.824308 0.660700
0.000000 0.714443 0.324254
0.000000 0.716732 0.325963
0.000000 0.719081 0.327459
0.000000 0.721462 0.328496
0.000000 0.723568 0.328710
0.000000 0.725063 0.328252
0.000000 0.726345 0.327489
0.000000 0.727474 0.327123
0.000000 0.728573 0.327855
0.000000 0.729397 0.330144
0.189456 0.729671 0.334417
0.230381 0.731807 0.300023
0.328344 0.729946 0.304356
0.408972 0.727474 0.308873
0.477485 0.724758 0.313787
0.535790 0.723659 0.314427
0.588891 0.726253 0.302586
0.638453 0.729183 0.289921
0.684504 0.732570 0.276310
0.727138 0.736599 0.261875
0.766537 0.741176 0.246281
0.815305 0.760128 0.224033
0.845823 0.768551 0.275395
0.865293 0.770535 0.333349
0.883330 0.774472 0.387762
0.900053 0.780148 0.439063
0.915770 0.787594 0.487953
0.930755 0.796933 0.535454
0.945281 0.808133 0.581323
0.959503 0.820798 0.624506
0.973480 0.834806 0.665492
0.989685 0.845457 0.689876
0.000000 0.752743 0.359655
0.000000 0.753750 0.360479
0.000000 0.754665 0.360906
0.000000 0.755642 0.360906
0.000000 0.756588 0.360601
0.000000 0.757351 0.359930
0.000000 0.758145 0.359350
0.000000 0.758938 0.359594
0.000000 0.759792 0.360906
0.000000 0.760281 0.363928
0.190677 0.760189 0.368902
0.269291 0.760891 0.354986
0.332311 0.760586 0.339452
0.413001 0.757839 0.343938
0.480720 0.754879 0.348669
0.538293 0.752071 0.353735
0.588220 0.752071 0.350439
0.634546 0.754421 0.338933
0.678096 0.757107 0.326879
0.718685 0.760189 0.313817
0.756435 0.763699 0.300145
0.791806 0.767605 0.284947
0.835966 0.784115 0.265110
0.865599 0.792416 0.310185
0.883818 0.793759 0.367285
0.900847 0.797299 0.421149
0.916899 0.802853 0.472480
0.932158 0.810452 0.522026
0.946838 0.820005 0.570062
0.961151 0.831174 0.615106
0.975128 0.843809 0.657679
0.988800 0.857816 0.698268
0.000000 0.780606 0.387335
0.000000 0.781582 0.388098
0.000000 0.782528 0.388708
0.000000 0.783352 0.388952
0.000000 0.784115 0.388769
0.000000 0.784573 0.388251
0.000000 0.784939 0.387823
0.000000 0.785245 0.388067
0.000000 0.785489 0.389593
0.000000 0.785397 0.392645
0.183597 0.784726 0.397528
0.304875 0.783261 0.404303
0.329686 0.785031 0.369512
0.411048 0.782254 0.373999
0.478706 0.779355 0.378759
0.536156 0.776730 0.383886
0.585901 0.774411 0.389685
0.629908 0.775937 0.383001
0.671412 0.778531 0.372869
0.710536 0.781521 0.362066
0.747280 0.784939 0.350652
0.781918 0.788754 0.338415
0.814878 0.792813 0.325292
0.856413 0.807950 0.308110
0.882963 0.813230 0.341039
0.900359 0.814542 0.398047
0.916838 0.818112 0.452155
0.932464 0.823819 0.503990
0.947387 0.831601 0.554376
0.961883 0.841276 0.601923
0.976135 0.852689 0.646754
0.989990 0.865629 0.689418
0.000000 0.812772 0.421546
0.000000 0.813748 0.422553
0.000000 0.814389 0.422980
0.000000 0.814817 0.422980
0.000000 0.814969 0.422553
0.000000 0.814908 0.421973
0.000000 0.814633 0.421607
0.000000 0.814145 0.421637
0.000000 0.813321 0.422675
0.000000 0.812161 0.425269
0.188632 0.810330 0.429175
0.309239 0.807980 0.435248
0.369512 0.807034 0.424231
0.413611 0.806180 0.406134
0.478676 0.802701 0.409613
0.534264 0.799405 0.413428
0.582605 0.796475 0.417853
0.625238 0.794553 0.422065
0.664240 0.796841 0.412879
0.701717 0.799741 0.403754
0.737240 0.803128 0.394385
0.770932 0.806790 0.384131
0.802945 0.810422 0.372717
0.833738 0.813931 0.359594
0.872740 0.827024 0.342779
0.901640 0.835386 0.377691
0.918181 0.836606 0.434180
0.933867 0.840024 0.487922
0.948821 0.845762 0.540032
0.963378 0.853574 0.589593
0.977661 0.863371 0.636439
0.991608 0.874937 0.680995
0.000000 0.836820 0.446937
0.000000 0.837705 0.447944
0.000000 0.838285 0.448493
0.000000 0.838651 0.448615
0.000000 0.838712 0.448402
0.000000 0.838621 0.448219
0.000000 0.838315 0.448310
0.000000 0.837766 0.448920
0.000000 0.836942 0.450690
0.000000 0.835691 0.453773
0.193942 0.833829 0.458381
0.316075 0.831357 0.465034
0.408148 0.828428 0.473976
0.425910 0.829679 0.443549
0.485786 0.826841 0.444923
0.539757 0.823819 0.448920
0.586908 0.821164 0.453376
0.628534 0.819089 0.458656
0.665583 0.818936 0.460182
0.700160 0.821653 0.452399
0.733486 0.824765 0.444312
0.765377 0.828122 0.435645
0.795987 0.831540 0.425971
0.825742 0.834867 0.415045
0.855161 0.837949 0.402594
0.892149 0.849546 0.387304
0.920806 0.858061 0.418067
0.936706 0.859403 0.474647
0.951904 0.863218 0.529290
0.966552 0.869230 0.581353
0.980804 0.877379 0.630213
0.994751 0.887388 0.676478
0.000000 0.862089 0.474098
0.000000 0.862669 0.474769
0.000000 0.862943 0.474983
0.000000 0.862943 0.474952
0.000000 0.862730 0.474678
0.000000 0.862303 0.474464
0.000000 0.861692 0.474678
0.000000 0.860838 0.475563
0.000000 0.859709 0.477516
0.000000 0.858213 0.480964
0.201602 0.856107 0.485847
0.323369 0.853544 0.492897
0.414954 0.850492 0.502068
0.464149 0.849332 0.495949
0.494270 0.849058 0.478645
0.545861 0.846159 0.482429
0.591089 0.843595 0.486641
0.631250 0.841520 0.491585
0.667323 0.840146 0.497658
0.699641 0.841428 0.496284
0.730526 0.844358 0.489265
0.760464 0.847532 0.481880
0.789517 0.850706 0.473701
0.818021 0.853849 0.464515
0.846342 0.856779 0.454078
0.874540 0.859556 0.442329
0.909758 0.869993 0.428565
0.938384 0.878752 0.455085
0.953429 0.880034 0.511711
0.968231 0.884123 0.566827
0.982574 0.890440 0.618067
0.996521 0.898772 0.666438
0.000000 0.885100 0.498085
0.000000 0.885435 0.498634
0.000000 0.885649 0.498878
0.000000 0.885710 0.499062
0.000000 0.885679 0.499306
0.000000 0.885649 0.500053
0.000000 0.885710 0.501793
0.000000 0.885649 0.504570
0.000000 0.885252 0.508721
0.000000 0.884428 0.514336
0.239078 0.882872 0.521599
0.354803 0.880735 0.530785
0.443183 0.878141 0.542168
0.516289 0.875242 0.555993
0.531640 0.876677 0.534142
0.572320 0.874907 0.533684
0.613092 0.872709 0.538109
0.649531 0.870939 0.543084
0.682582 0.869749 0.548943
0.712642 0.869078 0.555596
0.739773 0.871427 0.551537
0.766506 0.874357 0.545281
0.792966 0.877256 0.538323
0.819455 0.880034 0.530510
0.846067 0.882689 0.521752
0.872801 0.885191 0.511986
0.899657 0.887633 0.501274
0.932830 0.896727 0.489021
0.961028 0.905486 0.512047
0.974670 0.906340 0.567254
0.988708 0.910430 0.619745
1.000000 0.916625 0.668971
0.000000 0.914611 0.530358
0.000000 0.914794 0.530694
0.000000 0.914763 0.530846
0.000000 0.914519 0.530968
0.000000 0.914153 0.531304
0.000000 0.913603 0.532006
0.000000 0.912902 0.533532
0.000000 0.911955 0.535973
0.000000 0.910582 0.539605
0.057527 0.908629 0.544732
0.265995 0.906035 0.551385
0.373724 0.903014 0.559960
0.457710 0.899718 0.570825
0.527855 0.896300 0.584131
