data/fiter_cube/69180065/1023056/file.cube
# Created by Adobe Lightroom plugin Export LUT (1.17.0)
# www.johnrellis.com/lightroom/exportlut.htm
# Preset: 室内文艺胶片_09 云集
# Color profile: C:\Program Files (x86)\Common Files\Adobe\Color\Profiles\Recommended\AdobeRGB1998.icc
LUT_3D_SIZE 8
DOMAIN_MIN 0.000000 0.000000 0.000000
DOMAIN_MAX 0.903226 0.903226 0.903226
0.052033 0.060700 0.111299
0.083619 0.067842 0.113954
0.182742 0.076539 0.118013
0.390082 0.005890 0.116182
0.616327 0.000000 0.109163
0.784512 0.233097 0.120577
0.879850 0.388128 0.176089
0.959747 0.518364 0.289311
0.043854 0.085206 0.116213
0.079377 0.090761 0.115511
0.176516 0.110140 0.120943
0.380224 0.112978 0.119142
0.611383 0.128115 0.113191
0.770840 0.258183 0.123720
0.870390 0.397833 0.176303
0.953826 0.524498 0.288670
0.000000 0.172122 0.131807
0.030121 0.180880 0.128573
0.169619 0.212711 0.116579
0.403143 0.265904 0.133486
0.635126 0.309056 0.133730
0.780026 0.390906 0.157809
0.880400 0.493935 0.231479
0.958648 0.586389 0.347753
0.000000 0.350195 0.160769
0.000000 0.356115 0.154910
0.098482 0.374975 0.138827
0.410315 0.443488 0.089815
0.683131 0.512993 0.162875
0.796963 0.557092 0.256565
0.880369 0.601251 0.320439
0.953033 0.656886 0.419471
0.000000 0.551812 0.218753
0.000000 0.556970 0.214511
0.000000 0.574823 0.211612
0.345403 0.591089 0.196262
0.632410 0.617792 0.118471
0.795315 0.657191 0.245396
0.872923 0.701289 0.433387
0.944854 0.735561 0.514061
0.000000 0.714443 0.324254
0.000000 0.723568 0.328710
0.000000 0.728573 0.327855
0.328344 0.729946 0.304356
0.588891 0.726253 0.302586
0.766537 0.741176 0.246281
0.883330 0.774472 0.387762
0.945281 0.808133 0.581323
0.000000 0.836820 0.446937
0.000000 0.838712 0.448402
0.000000 0.836942 0.450690
0.408148 0.828428 0.473976
0.586908 0.821164 0.453376
0.733486 0.824765 0.444312
0.855161 0.837949 0.402594
0.951904 0.863218 0.529290
0.000000 0.936828 0.552880
0.000000 0.936217 0.554376
0.000000 0.932311 0.564996
0.475776 0.921172 0.599756
0.625055 0.908476 0.594568
0.743160 0.906767 0.619593
0.837858 0.917327 0.610163
0.934966 0.926513 0.580133
0.045747 0.065949 0.127626
0.082429 0.067903 0.128450
0.174807 0.072236 0.132082
0.368872 0.050996 0.139010
0.598901 0.000397 0.141085
0.759548 0.208865 0.154452
0.863188 0.365728 0.198001
0.948119 0.502342 0.295811
0.036774 0.087800 0.131533
0.078767 0.092256 0.133730
0.174258 0.110475 0.139101
0.370611 0.118288 0.143191
0.599084 0.133791 0.145632
0.754757 0.245945 0.158663
0.856687 0.380438 0.199741
0.942107 0.508171 0.294133
0.000000 0.173007 0.148775
0.039033 0.183719 0.150851
0.171328 0.212100 0.141817
0.390600 0.260899 0.164584
0.614466 0.297337 0.168399
0.761776 0.372320 0.187686
0.861662 0.468849 0.241062
0.945556 0.568200 0.344060
0.000000 0.343633 0.183322
0.000000 0.352392 0.182132
0.110353 0.374212 0.170535
0.388128 0.421973 0.140200
0.644678 0.480720 0.200748
0.771206 0.527123 0.262943
0.861662 0.577234 0.316899
0.940978 0.640955 0.411292
0.000000 0.550958 0.247105
0.000000 0.554192 0.243442
0.000000 0.567559 0.241245
0.337835 0.575525 0.228397
0.612512 0.600061 0.165835
0.781064 0.643549 0.273503
0.862943 0.691249 0.438911
0.937530 0.727138 0.512444
0.000000 0.706630 0.342229
0.000000 0.709133 0.340948
0.000000 0.714961 0.340520
0.321019 0.719539 0.322332
0.581872 0.718441 0.327031
0.761776 0.736721 0.280552
0.877470 0.770291 0.410864
0.939696 0.804166 0.588067
0.000000 0.826932 0.452613
0.000000 0.826139 0.450446
0.000000 0.826322 0.453407
0.391669 0.821225 0.476814
0.582422 0.816037 0.463935
0.728023 0.818997 0.456184
0.848081 0.830961 0.412909
0.944884 0.856504 0.531243
0.000000 0.931701 0.556573
0.000000 0.931975 0.558770
0.000000 0.928923 0.568902
0.463264 0.918608 0.601617
0.636835 0.912169 0.615381
0.746242 0.908293 0.633295
0.836484 0.915801 0.618830
0.931945 0.923796 0.585992
0.000000 0.078645 0.190646
0.040101 0.074037 0.197391
0.196017 0.068696 0.200443
0.393256 0.000000 0.199802
0.600610 0.000000 0.210025
0.757687 0.205020 0.243107
0.861784 0.369268 0.289891
0.947265 0.506981 0.375189
0.000000 0.111849 0.195865
0.046387 0.108736 0.203342
0.191745 0.110903 0.206729
0.383764 0.089357 0.205875
0.597864 0.103395 0.219181
0.753262 0.244297 0.247532
0.857267 0.387182 0.292363
0.943938 0.517327 0.377966
0.000000 0.195346 0.220218
0.000000 0.202640 0.223606
0.182101 0.222599 0.232273
0.396979 0.251621 0.241642
0.619165 0.296422 0.258457
0.760342 0.374029 0.281987
0.857755 0.469337 0.327642
0.941588 0.567803 0.410925
0.000000 0.362036 0.261448
0.000000 0.372168 0.264408
0.137087 0.397833 0.274723
0.414984 0.434699 0.263645
0.646937 0.497627 0.340826
0.769741 0.531029 0.358251
0.859617 0.582238 0.400916
0.939117 0.645106 0.474891
0.000000 0.558923 0.327581
0.000000 0.565118 0.330449
0.000000 0.580285 0.340764
0.381140 0.590906 0.340307
0.627466 0.610254 0.308873
0.777157 0.650385 0.402747
0.858396 0.692531 0.501610
0.934234 0.729213 0.559380
0.000000 0.710780 0.414099
0.000000 0.713558 0.416480
0.000000 0.717861 0.421607
0.388891 0.716854 0.434302
0.589136 0.714961 0.422187
0.756222 0.733455 0.387243
0.868437 0.768795 0.496345
0.935149 0.809995 0.642054
0.000000 0.831144 0.509087
0.000000 0.830869 0.508812
0.000000 0.828794 0.510216
0.395911 0.821103 0.525139
0.593469 0.814847 0.523278
0.729671 0.818173 0.524651
0.847318 0.833707 0.495003
0.943725 0.861967 0.600183
0.000000 0.932555 0.590997
0.000000 0.931640 0.590112
0.000000 0.928099 0.596674
0.446784 0.919402 0.626062
0.652949 0.909850 0.657343
0.749508 0.908568 0.664515
0.837400 0.916167 0.657099
0.931518 0.925536 0.630701
0.000000 0.100099 0.328954
0.000000 0.090791 0.338994
0.164584 0.068971 0.362615
0.440986 0.000000 0.351781
0.635889 0.000000 0.343297
0.747555 0.116640 0.336828
0.844205 0.301152 0.368444
0.935058 0.472267 0.442725
0.000000 0.148806 0.341192
0.000000 0.138796 0.349767
0.161654 0.120119 0.369574
0.441138 0.098512 0.360021
0.632044 0.117708 0.349981
0.742214 0.169467 0.340124
0.842161 0.332250 0.375189
0.933654 0.486549 0.446662
0.000000 0.242161 0.357183
0.000000 0.248447 0.360784
0.153353 0.254459 0.378302
0.437201 0.260136 0.384802
0.622156 0.274937 0.373724
0.747158 0.329381 0.379522
0.850797 0.449439 0.425208
0.937041 0.553857 0.486030
0.000000 0.391424 0.398535
0.000000 0.397070 0.400702
0.092897 0.419593 0.413001
0.433539 0.440803 0.430152
0.625422 0.465370 0.435279
0.752743 0.505943 0.448676
0.847379 0.563958 0.479011
0.932860 0.634791 0.536736
0.000000 0.572503 0.452644
0.000000 0.576684 0.454505
0.000000 0.592706 0.464851
0.424750 0.603601 0.484230
0.636194 0.617578 0.474098
0.767208 0.662287 0.550683
0.851225 0.689021 0.572869
0.929900 0.725887 0.611841
0.000000 0.723415 0.520562
0.000000 0.730129 0.527031
0.000000 0.730922 0.529900
0.411994 0.727474 0.540734
0.616602 0.724147 0.547234
0.756527 0.738582 0.526452
0.859983 0.773831 0.609308
0.930175 0.814115 0.697780
0.000000 0.834379 0.584741
0.000000 0.835477 0.586084
0.000000 0.835447 0.589990
0.398779 0.828641 0.599603
0.626703 0.820462 0.619135
0.738064 0.821530 0.619593
0.844785 0.835843 0.594049
0.938384 0.864286 0.673915
0.000000 0.937072 0.652125
0.000000 0.937224 0.652491
0.000000 0.934325 0.652461
0.389502 0.923796 0.662806
0.653162 0.910521 0.700526
0.752682 0.909545 0.707790
0.837949 0.916045 0.707576
0.930205 0.926787 0.686763
0.000000 0.141146 0.506767
0.000000 0.120760 0.513420
0.000000 0.115541 0.528832
0.440803 0.000000 0.549737
0.667597 0.094148 0.535088
0.776394 0.257450 0.516075
0.848783 0.337743 0.508659
0.925292 0.437171 0.532982
0.000000 0.196963 0.512505
0.000000 0.183719 0.520470
0.000000 0.160189 0.534752
0.442298 0.054841 0.556695
0.664698 0.175906 0.538415
0.773709 0.292180 0.520134
0.846677 0.358679 0.511711
0.923644 0.447395 0.533684
0.000000 0.309453 0.517418
0.000000 0.314275 0.521813
0.071839 0.299351 0.539239
0.427619 0.268528 0.564263
0.653925 0.322179 0.548455
0.760403 0.377111 0.527581
0.836973 0.412909 0.516533
0.919585 0.496895 0.543236
0.000000 0.438544 0.543633
0.000000 0.443549 0.545495
0.085023 0.459602 0.552728
0.424689 0.466529 0.571069
0.644770 0.479744 0.573480
0.746822 0.487770 0.548913
0.828733 0.504540 0.536706
0.922148 0.589899 0.578302
0.000000 0.590539 0.580194
0.000000 0.593957 0.581994
0.000000 0.601068 0.586297
0.413916 0.606104 0.594202
0.631769 0.612390 0.604120
0.743557 0.624567 0.600824
0.834226 0.652399 0.609674
0.921508 0.696620 0.639887
0.000000 0.712520 0.609827
0.000000 0.714626 0.611322
0.000000 0.717861 0.614405
0.374914 0.719905 0.622065
0.611475 0.717342 0.631891
0.747585 0.733059 0.633204
0.848051 0.776028 0.700160
0.924834 0.800565 0.723110
0.000000 0.834775 0.666377
0.000000 0.834806 0.666194
0.000000 0.833036 0.666438
0.359838 0.827024 0.669337
0.605798 0.819638 0.678981
0.738064 0.819059 0.691127
0.838224 0.832792 0.674983
0.929870 0.862486 0.738277
0.000000 0.933745 0.714382
0.000000 0.933257 0.713832
0.000000 0.930571 0.712520
0.308263 0.926238 0.716640
0.595117 0.914366 0.726650
0.748806 0.909178 0.750515
0.834714 0.912810 0.756161
0.925689 0.924437 0.737758
0.000000 0.210269 0.668544
0.000000 0.188052 0.671778
0.000000 0.172976 0.678279
0.416968 0.106600 0.695369
0.671290 0.061830 0.700984
0.787625 0.314611 0.671565
0.864591 0.454047 0.663233
0.932494 0.529625 0.673304
0.000000 0.266880 0.664454
0.000000 0.246555 0.667231
0.000000 0.211093 0.675715
0.409033 0.173190 0.691310
0.664912 0.158419 0.698360
0.783352 0.341894 0.670558
0.861387 0.466865 0.663355
0.930266 0.535912 0.672786
0.000000 0.386267 0.667353
0.000000 0.384558 0.670436
0.000000 0.361730 0.681819
0.408484 0.325292 0.695796
0.658808 0.321996 0.705898
0.777798 0.434791 0.678981
0.855619 0.518090 0.671717
0.926421 0.564538 0.677058
0.000000 0.510521 0.678492
0.000000 0.512200 0.678218
0.157473 0.520195 0.680598
0.440436 0.511620 0.700252
0.647272 0.496895 0.718257
0.773373 0.554711 0.699489
0.849058 0.589349 0.687617
0.922118 0.606806 0.683406
0.000000 0.623713 0.692683
0.000000 0.625360 0.693477
0.000000 0.628565 0.695766
0.433356 0.630274 0.699733
0.624781 0.631128 0.710353
0.758236 0.645350 0.711116
0.831876 0.641932 0.688258
0.910826 0.643671 0.675532
0.000000 0.729488 0.712795
0.000000 0.731563 0.714870
0.000000 0.731807 0.716793
0.402167 0.728450 0.719692
0.608118 0.726406 0.723629
0.748043 0.736202 0.734768
0.832059 0.744778 0.730983
0.918853 0.768429 0.742000
0.000000 0.832670 0.746426
0.000000 0.833829 0.747982
0.000000 0.832792 0.749355
0.366247 0.828855 0.751797
0.590692 0.825681 0.756039
0.737758 0.824979 0.763027
0.837430 0.835080 0.759854
0.926329 0.869688 0.812863
0.000000 0.934264 0.785428
0.000000 0.933837 0.784939
0.000000 0.931914 0.783932
0.243748 0.927031 0.783871
0.552270 0.917266 0.784543
0.722560 0.911284 0.792874
0.834287 0.911986 0.809537
0.923278 0.923949 0.797055
0.000000 0.300267 0.785763
0.000000 0.280644 0.788968
0.000000 0.250187 0.793820
0.406226 0.226169 0.800931
0.648920 0.196567 0.809567
0.792172 0.312627 0.804410
0.866453 0.478065 0.772641
0.936919 0.605676 0.778592
0.000000 0.349432 0.781033
0.000000 0.331121 0.784024
0.000000 0.281773 0.789853
0.397833 0.263188 0.796109
0.640772 0.240757 0.804685
0.786069 0.332830 0.800046
0.861173 0.484230 0.768612
0.932525 0.604181 0.774197
0.000000 0.457679 0.781949
0.000000 0.455451 0.783383
0.094057 0.427100 0.788602
0.398932 0.381842 0.796231
0.631373 0.373205 0.803830
0.780026 0.425238 0.803037
0.858915 0.541772 0.776089
0.932372 0.635035 0.782650
0.000000 0.570886 0.781918
0.000000 0.570306 0.780941
0.206882 0.564233 0.784390
0.444282 0.544976 0.794369
0.618616 0.520165 0.804166
0.771420 0.540887 0.810758
0.855985 0.616541 0.788540
0.930083 0.673243 0.791257
0.000000 0.659846 0.788144
0.000000 0.658900 0.787350
0.137240 0.656458 0.786465
0.434577 0.653346 0.786740
0.612238 0.645777 0.797482
0.748836 0.637934 0.811948
0.846647 0.681025 0.796445
0.923400 0.710658 0.795499
0.000000 0.749905 0.800656
0.000000 0.749569 0.800809
0.000000 0.747280 0.801266
0.406897 0.742641 0.802579
0.600275 0.739956 0.803891
0.734401 0.743862 0.813809
0.842924 0.758572 0.816403
0.915190 0.753323 0.799161
0.000000 0.836210 0.819699
0.000000 0.836271 0.820493
0.000000 0.833829 0.821195
0.373724 0.828824 0.822690
0.581689 0.823423 0.823758
0.721309 0.824155 0.827207
0.834714 0.833494 0.836179
0.914458 0.838163 0.830320
0.000000 0.925383 0.846036
0.000000 0.925231 0.846189
0.000000 0.926146 0.849210
0.257847 0.921935 0.850309
0.538140 0.915770 0.851286
0.699763 0.914885 0.854582
0.826352 0.914946 0.860563
0.921904 0.923674 0.859495
0.000000 0.420081 0.882994
0.000000 0.402991 0.884703
0.000000 0.356207 0.887205
0.435492 0.347051 0.890257
0.639094 0.345098 0.894438
0.781674 0.364172 0.900359
0.885863 0.494148 0.891569
0.940551 0.617334 0.860136
0.000000 0.457832 0.879881
0.000000 0.442481 0.881621
0.000000 0.382483 0.885313
0.431403 0.373480 0.887968
0.634760 0.371283 0.892271
0.777676 0.387274 0.898283
0.882567 0.503624 0.889799
0.938506 0.621485 0.859220
0.000000 0.535485 0.876066
0.000000 0.534386 0.876890
0.252018 0.505882 0.879179
0.429664 0.460731 0.886229
0.626673 0.457191 0.890196
0.768154 0.465064 0.895720
0.876677 0.547234 0.889738
0.936339 0.646265 0.861997
0.000000 0.616236 0.873014
0.000000 0.615503 0.874083
0.286351 0.610132 0.875700
0.476265 0.593347 0.881071
0.614252 0.563745 0.887785
0.754574 0.567407 0.894285
0.868894 0.610956 0.892821
0.934813 0.686671 0.868986
0.000000 0.697383 0.874693
0.000000 0.696925 0.875090
0.194247 0.691951 0.874083
0.428870 0.680995 0.875273
0.613733 0.673274 0.881987
0.731563 0.656977 0.890684
0.855467 0.675166 0.896269
0.932738 0.735683 0.878569
0.000000 0.774655 0.882322
0.000000 0.773068 0.881712
0.000000 0.767605 0.880339
0.381109 0.759213 0.879179
0.575463 0.753109 0.878416
0.719417 0.752590 0.888518
0.839506 0.753414 0.904570
0.931334 0.793790 0.892454
0.000000 0.852079 0.894377
0.000000 0.850858 0.894011
0.000000 0.846433 0.893217
0.324895 0.839445 0.893004
0.550103 0.832822 0.893065
0.698726 0.831724 0.894438
0.821256 0.838743 0.904356
0.925566 0.852476 0.905364
0.000000 0.929229 0.909728
0.000000 0.928466 0.909575
0.000000 0.926085 0.910063
0.249363 0.921538 0.911894
0.528374 0.916167 0.913848
0.685542 0.913329 0.915007
0.808774 0.914733 0.917601
0.920317 0.921843 0.924285
