data/fiter_cube/69180065/1023056/file.cube
# Created by Adobe Lightroom plugin Export LUT (1.17.0)
# www.johnrellis.com/lightroom/exportlut.htm
# Preset: 室内文艺胶片_09 云集
# Color profile: C:\Program Files (x86)\Common Files\Adobe\Color\Profiles\Recommended\AdobeRGB1998.icc
LUT_3D_SIZE 5
DOMAIN_MIN 0.000000 0.000000 0.000000
DOMAIN_MAX 0.903226 0.903226 0.903226
0.052033 0.060700 0.111299
0.148928 0.075837 0.117372
0.511528 0.000000 0.112459
0.812406 0.276066 0.130495
0.959747 0.518364 0.289311
0.005310 0.142153 0.126711
0.138308 0.172335 0.117678
0.519127 0.232944 0.125277
0.809506 0.386999 0.160128
0.961151 0.574304 0.338628
0.000000 0.448493 0.182834
0.000000 0.470863 0.171878
0.540612 0.543786 0.087892
0.816068 0.627192 0.326452
0.948486 0.694636 0.462379
0.000000 0.752743 0.359655
0.000000 0.758938 0.359594
0.480720 0.754879 0.348669
0.791806 0.767605 0.284947
0.946838 0.820005 0.570062
0.000000 0.936828 0.552880
0.000000 0.933867 0.560632
0.581994 0.907744 0.612818
0.767269 0.908354 0.623041
0.934966 0.926513 0.580133
0.007752 0.074861 0.166110
0.154726 0.071290 0.173861
0.485359 0.000000 0.180545
0.783169 0.243748 0.223270
0.944701 0.501030 0.346319
0.000000 0.158419 0.188571
0.144350 0.178622 0.197299
0.508385 0.226596 0.213870
0.786099 0.363256 0.251957
0.943511 0.553368 0.381140
0.000000 0.454932 0.263096
0.000000 0.479164 0.270939
0.522179 0.523033 0.239536
0.795743 0.608789 0.392401
0.939605 0.689479 0.504479
0.000000 0.753017 0.429908
0.000000 0.758511 0.435676
0.500175 0.753323 0.433967
0.786374 0.764828 0.391485
0.939910 0.821439 0.620874
0.000000 0.936553 0.585290
0.000000 0.933715 0.591089
0.587427 0.913542 0.645380
0.773434 0.910124 0.663813
0.934417 0.928130 0.625513
0.000000 0.117983 0.419409
0.000000 0.100435 0.440558
0.569879 0.000000 0.446143
0.783688 0.213077 0.423163
0.929320 0.450507 0.484596
0.000000 0.248447 0.433356
0.000000 0.239689 0.454231
0.565484 0.243107 0.466621
0.772427 0.312718 0.435492
0.929656 0.511894 0.507256
0.000000 0.497353 0.495247
0.000000 0.511376 0.501518
0.545556 0.533227 0.522667
0.772061 0.575677 0.531060
0.927001 0.667079 0.592157
0.000000 0.755123 0.585687
0.000000 0.755612 0.586053
0.528130 0.750057 0.602869
0.776944 0.763394 0.597406
0.925872 0.826902 0.727077
0.000000 0.933593 0.680385
0.000000 0.933349 0.681361
0.506371 0.918151 0.693690
0.772183 0.908232 0.729854
0.926604 0.924163 0.708614
0.000000 0.226932 0.695644
0.000000 0.189731 0.704341
0.555200 0.063355 0.728664
0.807370 0.355138 0.696986
0.932311 0.546166 0.699916
0.000000 0.367071 0.695186
0.000000 0.341253 0.704921
0.542260 0.283604 0.726314
0.799252 0.433814 0.700069
0.926329 0.568048 0.700069
0.000000 0.571954 0.704921
0.000000 0.575982 0.705989
0.529046 0.568994 0.720089
0.780240 0.597986 0.716579
0.915465 0.633326 0.704707
0.000000 0.761349 0.744411
0.000000 0.759121 0.743832
0.509361 0.752438 0.748013
0.770077 0.761532 0.761532
0.915709 0.782620 0.761288
0.000000 0.932769 0.801785
0.000000 0.932006 0.801785
0.424598 0.924071 0.802976
0.751461 0.913024 0.811734
0.922271 0.923278 0.811521
0.000000 0.420081 0.882994
0.000000 0.357610 0.886839
0.548028 0.344182 0.892241
0.810849 0.393805 0.899107
0.940551 0.617334 0.860136
0.000000 0.518364 0.877775
0.179049 0.489662 0.880919
0.540215 0.433417 0.888975
0.802182 0.455085 0.897398
0.937591 0.640070 0.861845
0.000000 0.659144 0.871977
0.132937 0.652247 0.872251
0.549767 0.632837 0.880095
0.773526 0.610681 0.892943
0.933410 0.709316 0.872892
0.000000 0.796048 0.886839
0.000000 0.791073 0.885527
0.483955 0.777432 0.883665
0.744015 0.773068 0.891234
0.929778 0.807462 0.895140
0.000000 0.929229 0.909728
0.000000 0.926879 0.909819
0.415625 0.918914 0.913176
0.717922 0.913359 0.915496
0.920317 0.921843 0.924285
