data/fiter_cube/55192441/1023187/file.cube
# Created by Adobe Lightroom plugin Export LUT (1.17.0)
# www.johnrellis.com/lightroom/exportlut.htm
# Preset: 清新轻盈通透人像_05 云集
# Color profile: C:\Program Files (x86)\Common Files\Adobe\Color\Profiles\Recommended\AdobeRGB1998.icc
LUT_3D_SIZE 8
DOMAIN_MIN 0.000000 0.000000 0.000000
DOMAIN_MAX 0.903226 0.903226 0.903226
0.000000 0.000000 0.000000
0.080659 0.000000 0.000000
0.268528 0.000000 0.000000
0.492805 0.000000 0.000000
0.640986 0.000000 0.000000
0.760769 0.000000 0.000000
0.858274 0.000000 0.000000
0.954833 0.000000 0.000000
0.000000 0.079500 0.000000
0.078981 0.079896 0.000000
0.256260 0.120272 0.000000
0.477180 0.138003 0.000000
0.628870 0.120668 0.000000
0.747311 0.093050 0.000000
0.844114 0.054475 0.000000
0.945098 0.000000 0.000000
0.000000 0.282475 0.000000
0.107454 0.283726 0.000000
0.281865 0.285924 0.000000
0.482033 0.312596 0.000000
0.635004 0.301122 0.000000
0.751522 0.278477 0.000000
0.857603 0.260349 0.000000
0.956481 0.246189 0.000000
0.000000 0.502007 0.000000
0.000000 0.498878 0.000000
0.291600 0.498116 0.000000
0.503655 0.511040 0.000000
0.660792 0.487434 0.000000
0.761044 0.444465 0.000000
0.855497 0.414191 0.000000
0.951232 0.393683 0.000000
0.000000 0.652644 0.000000
0.000000 0.650782 0.000000
0.245823 0.648096 0.000000
0.446662 0.646326 0.000000
0.623438 0.632441 0.000000
0.743771 0.589715 0.000000
0.840146 0.552972 0.000000
0.942229 0.532097 0.000000
0.000000 0.752590 0.000000
0.000000 0.758083 0.000000
0.180941 0.754421 0.000000
0.386297 0.749264 0.000000
0.557671 0.737972 0.000000
0.715023 0.725063 0.000000
0.838254 0.697261 0.000000
0.940612 0.671046 0.000000
0.000000 0.852201 0.000000
0.000000 0.853056 0.000000
0.115511 0.848478 0.000000
0.342962 0.843992 0.000000
0.502708 0.836728 0.000000
0.661463 0.827512 0.000000
0.807309 0.818173 0.000000
0.929931 0.799161 0.000000
0.000000 0.951537 0.000000
0.000000 0.950683 0.000000
0.075044 0.949310 0.000000
0.323003 0.949371 0.000000
0.470466 0.935332 0.000000
0.621485 0.933532 0.000000
0.773800 0.929931 0.000000
0.914122 0.921782 0.000000
0.000000 0.000000 0.075380
0.076417 0.000000 0.075624
0.251926 0.000000 0.093751
0.477485 0.000000 0.021515
0.628382 0.000000 0.000000
0.742763 0.000000 0.000000
0.838071 0.000000 0.000000
0.937621 0.000000 0.000000
0.000000 0.076509 0.075166
0.076356 0.076936 0.074769
0.254337 0.074952 0.065888
0.473121 0.035431 0.000000
0.623438 0.000000 0.000000
0.736385 0.000000 0.000000
0.828214 0.000000 0.000000
0.927672 0.000000 0.000000
0.000000 0.268406 0.101625
0.000000 0.275120 0.000000
0.274662 0.279088 0.000000
0.474556 0.293095 0.000000
0.623835 0.278752 0.000000
0.736049 0.258152 0.000000
0.832639 0.242496 0.000000
0.935302 0.234714 0.000000
0.000000 0.487709 0.000000
0.000000 0.489204 0.000000
0.267430 0.490913 0.000000
0.480262 0.487465 0.000000
0.629419 0.458778 0.000000
0.733822 0.423438 0.000000
0.828489 0.397253 0.000000
0.930388 0.383093 0.000000
0.000000 0.646967 0.000000
0.000000 0.644709 0.000000
0.216587 0.639216 0.000000
0.428626 0.631556 0.000000
0.606378 0.615076 0.000000
0.729091 0.576379 0.000000
0.825834 0.543359 0.000000
0.928893 0.525597 0.016175
0.000000 0.744289 0.000000
0.000000 0.743618 0.000000
0.152224 0.740505 0.000000
0.373663 0.737423 0.000000
0.548913 0.729244 0.000000
0.709743 0.719478 0.000000
0.830900 0.691707 0.000000
0.931029 0.665553 0.096712
0.000000 0.839506 0.000000
0.000000 0.837064 0.000000
0.088746 0.834379 0.000000
0.334936 0.833188 0.000000
0.497200 0.829038 0.000000
0.654749 0.819394 0.000000
0.797330 0.807919 0.000000
0.917388 0.788327 0.059358
0.000000 0.943572 0.000000
0.000000 0.943847 0.000000
0.086976 0.943175 0.000000
0.324407 0.943908 0.000000
0.480385 0.941283 0.000000
0.625269 0.935546 0.000000
0.772488 0.927337 0.000000
0.909514 0.917021 0.109682
0.000000 0.000000 0.268589
0.122316 0.000000 0.267277
0.269352 0.000000 0.264866
0.483650 0.000000 0.285649
0.632288 0.000000 0.256413
0.744808 0.000000 0.274693
0.839811 0.098634 0.283726
0.939117 0.137331 0.286656
0.000000 0.096284 0.273381
0.051392 0.057893 0.269993
0.269444 0.000000 0.263890
0.479286 0.000000 0.269932
0.628534 0.000000 0.254124
0.738521 0.092164 0.268681
0.832914 0.152651 0.275547
0.934051 0.176486 0.280674
0.000000 0.281193 0.274601
0.000000 0.281834 0.273716
0.271244 0.275059 0.261234
0.478676 0.273625 0.261875
0.630884 0.280735 0.269780
0.737179 0.284764 0.275181
0.830747 0.288609 0.280552
0.931548 0.290898 0.284123
0.000000 0.492561 0.283421
0.000000 0.495979 0.267155
0.206821 0.499855 0.208804
0.485695 0.492500 0.234989
0.632380 0.464851 0.273960
0.734035 0.442512 0.286809
0.829191 0.428534 0.292973
0.930083 0.419959 0.295109
0.000000 0.644404 0.250034
0.000000 0.644556 0.235599
0.172305 0.642359 0.193942
0.419684 0.637537 0.187167
0.612787 0.620783 0.233463
0.728023 0.581872 0.266758
0.821653 0.558953 0.298772
0.925078 0.546654 0.305455
0.000000 0.741848 0.223850
0.000000 0.741207 0.222660
0.160342 0.738186 0.199130
0.374456 0.732937 0.192813
0.546441 0.724178 0.204471
0.704616 0.713466 0.252171
0.822110 0.690425 0.288975
0.926787 0.675868 0.316472
0.000000 0.839048 0.244022
0.000000 0.836942 0.250126
0.167117 0.833646 0.219333
0.352880 0.829740 0.213413
0.504143 0.824765 0.205570
0.657862 0.817319 0.233860
0.800595 0.810269 0.274876
0.920989 0.796780 0.303593
0.000000 0.939391 0.280461
0.000000 0.937804 0.280491
0.179049 0.937530 0.244511
0.354925 0.940642 0.253483
0.495277 0.937743 0.247868
0.632074 0.934173 0.245182
0.777035 0.927245 0.274205
0.912078 0.918975 0.299443
0.000000 0.000000 0.475685
0.127901 0.000000 0.477119
0.300755 0.000000 0.470222
0.475807 0.000000 0.467933
0.625452 0.000000 0.442176
0.732845 0.000000 0.422309
0.822538 0.188785 0.429358
0.920439 0.272587 0.450111
0.000000 0.007233 0.486122
0.000000 0.000000 0.484382
0.288029 0.000000 0.475044
0.478340 0.000000 0.469886
0.625208 0.000000 0.442359
0.728450 0.131685 0.426062
0.817594 0.243351 0.434211
0.917144 0.305882 0.454994
0.000000 0.288182 0.487953
0.000000 0.271550 0.487678
0.240055 0.243687 0.476936
0.477638 0.261234 0.468544
0.621637 0.300603 0.453498
0.726131 0.347997 0.457496
0.822416 0.393439 0.477089
0.923491 0.388098 0.469703
0.000000 0.496101 0.484932
0.000000 0.495827 0.483955
0.216739 0.492897 0.479438
0.476570 0.480354 0.466529
0.612451 0.478828 0.469825
0.715877 0.478157 0.470344
0.813748 0.477821 0.471107
0.919738 0.474769 0.469093
0.000000 0.646571 0.446937
0.000000 0.643885 0.442756
0.215549 0.637385 0.438636
0.440894 0.630732 0.438880
0.613550 0.619318 0.453254
0.717617 0.596521 0.472236
0.813413 0.587671 0.478645
0.917906 0.579095 0.473243
0.000000 0.744594 0.410529
0.000000 0.747555 0.416938
0.250034 0.739864 0.424323
0.422644 0.732692 0.428412
0.562585 0.727169 0.422065
0.707515 0.714473 0.447730
0.816159 0.697169 0.462226
0.919432 0.690913 0.477211
0.000000 0.836912 0.400732
0.000000 0.836545 0.406043
0.271916 0.833677 0.422583
0.409369 0.831266 0.423316
0.535424 0.827420 0.416510
0.670497 0.820157 0.421637
0.802365 0.810605 0.442420
0.916960 0.799710 0.454658
0.000000 0.941344 0.416266
0.142580 0.941009 0.421668
0.295903 0.938140 0.435340
0.400519 0.937316 0.424201
0.520470 0.934600 0.417884
0.643885 0.931945 0.410895
0.781979 0.926146 0.426001
0.913603 0.919585 0.443214
0.000000 0.000000 0.616846
0.097200 0.000000 0.616754
0.281498 0.000000 0.611139
0.442390 0.000000 0.601678
0.615503 0.000000 0.605859
0.723537 0.000000 0.565728
0.816220 0.183017 0.548882
0.916808 0.267216 0.553552
0.000000 0.000000 0.620508
0.000000 0.000000 0.621241
0.265232 0.000000 0.615167
0.439704 0.000000 0.602625
0.614710 0.000000 0.605066
0.721859 0.131716 0.567315
0.814664 0.243961 0.553094
0.915282 0.303441 0.557519
0.000000 0.243198 0.625727
0.000000 0.236637 0.624048
0.234440 0.237858 0.616419
0.443671 0.258366 0.605951
0.609064 0.279149 0.599725
0.711391 0.325200 0.568963
0.805875 0.367193 0.562585
0.907591 0.390997 0.565820
0.000000 0.450202 0.625360
0.000000 0.448371 0.624231
0.231205 0.449348 0.621454
0.456703 0.459419 0.608759
0.605188 0.469276 0.596704
0.704402 0.484260 0.582422
0.800320 0.496742 0.582574
0.905486 0.500511 0.584283
0.000000 0.628687 0.615900
0.000000 0.628199 0.615351
0.235325 0.624262 0.611292
0.447791 0.616815 0.604120
0.597833 0.601160 0.589288
0.696895 0.597559 0.590173
0.796017 0.595453 0.588952
0.904631 0.590387 0.584710
0.000000 0.730739 0.561151
0.000000 0.729152 0.561273
0.246983 0.721950 0.560723
0.427039 0.713130 0.563073
0.559960 0.705470 0.557641
0.696681 0.701534 0.572412
0.802243 0.696742 0.588586
0.908965 0.695766 0.591272
0.000000 0.829313 0.540459
0.053132 0.827420 0.541558
0.278050 0.822965 0.546990
0.429633 0.818601 0.556176
0.546380 0.816068 0.550652
0.666835 0.812863 0.544671
0.795804 0.802426 0.560479
0.906706 0.793179 0.563958
0.000000 0.930968 0.534783
0.146426 0.929870 0.536614
0.289555 0.927031 0.542626
0.430640 0.929717 0.557397
0.532067 0.928283 0.544244
0.648341 0.925658 0.536309
0.778500 0.920745 0.539483
0.908598 0.913512 0.551812
0.000000 0.000000 0.722469
0.027314 0.000000 0.721675
0.254307 0.000000 0.716365
0.411475 0.000000 0.711879
0.562951 0.000000 0.703822
0.711818 0.000000 0.701747
0.811215 0.182498 0.672358
0.914794 0.265690 0.666072
0.000000 0.000000 0.718959
0.000000 0.000000 0.717769
0.238743 0.000000 0.713741
0.407080 0.000000 0.708766
0.560266 0.000000 0.699428
0.708003 0.115328 0.698054
0.807706 0.235904 0.671168
0.911986 0.297612 0.666224
0.000000 0.238804 0.725277
0.000000 0.240330 0.723781
0.245243 0.248325 0.719509
0.421820 0.267063 0.712062
0.568261 0.293523 0.698970
0.705776 0.319554 0.696315
0.804318 0.364294 0.675685
0.909239 0.391089 0.672908
0.000000 0.425757 0.732265
0.000000 0.427955 0.729641
0.293980 0.442329 0.723201
0.459998 0.462165 0.717281
0.589593 0.473640 0.705440
0.707698 0.481514 0.699275
0.804379 0.496620 0.686824
0.909209 0.500328 0.684474
0.000000 0.578210 0.719875
0.000000 0.579461 0.719417
0.288670 0.583734 0.717403
0.455390 0.589929 0.714168
0.589136 0.591302 0.701106
0.695979 0.592370 0.688808
0.793423 0.596307 0.684657
0.901518 0.592706 0.683742
0.000000 0.719783 0.707149
0.032349 0.720699 0.708156
0.290776 0.718593 0.706325
0.446906 0.714015 0.702358
0.575433 0.705501 0.694697
0.690883 0.693629 0.683772
0.793759 0.693874 0.687007
0.904997 0.690761 0.684779
0.083192 0.827848 0.679622
0.177462 0.827787 0.681056
0.315618 0.823819 0.681544
0.445838 0.818967 0.682460
0.563622 0.813352 0.680812
0.668513 0.808438 0.666804
0.794919 0.799741 0.669978
0.905974 0.793973 0.675532
0.136873 0.927489 0.661433
0.191714 0.926329 0.661860
0.306249 0.923613 0.663600
0.428077 0.922637 0.667414
0.543908 0.920836 0.667597
0.644923 0.920745 0.650141
0.771054 0.918547 0.644648
0.906035 0.909819 0.653651
0.000000 0.000000 0.810819
0.000000 0.000000 0.811704
0.230900 0.000000 0.809293
0.383764 0.000000 0.805295
0.527367 0.000000 0.796719
0.663996 0.000000 0.788022
0.795956 0.147219 0.785641
0.902617 0.237278 0.771511
0.000000 0.000000 0.807004
0.000000 0.000000 0.807614
0.219303 0.000000 0.805325
0.379736 0.000000 0.800076
0.524559 0.000000 0.791073
0.659052 0.122316 0.781399
0.788724 0.194522 0.778500
0.894774 0.257969 0.764645
0.000000 0.233707 0.812711
0.000000 0.235477 0.811734
0.239841 0.242344 0.807767
0.398199 0.258427 0.801602
0.537102 0.279942 0.791104
0.663996 0.306493 0.780514
0.789761 0.335027 0.780056
0.897887 0.366308 0.771878
0.068879 0.418738 0.818204
0.169741 0.422370 0.815854
0.315282 0.435157 0.810330
0.440253 0.441993 0.804715
0.560967 0.448859 0.794553
0.674464 0.458076 0.782376
0.791897 0.468635 0.783017
0.899168 0.477516 0.777890
0.047791 0.552605 0.814481
0.160555 0.553735 0.813138
0.309087 0.559655 0.810666
0.448768 0.567864 0.805478
0.569055 0.570764 0.794614
0.676204 0.570794 0.780209
0.784390 0.572839 0.776455
0.895628 0.577081 0.777554
0.093446 0.684077 0.806455
0.176150 0.684779 0.806210
0.313390 0.686946 0.805356
0.445502 0.689845 0.804868
0.566949 0.689967 0.803403
0.680171 0.682094 0.792752
0.787320 0.678309 0.780179
0.897581 0.676539 0.778653
0.141054 0.814237 0.801755
0.202121 0.814664 0.802304
0.320897 0.813748 0.801663
0.443122 0.812375 0.800839
0.558923 0.807889 0.797055
0.666651 0.800870 0.790402
0.782986 0.785641 0.776028
0.897520 0.783902 0.777066
0.168551 0.919188 0.779995
0.212985 0.918761 0.780117
0.321477 0.920043 0.783291
0.433814 0.918853 0.783841
0.544305 0.916930 0.782773
0.650080 0.915770 0.777523
0.763821 0.913268 0.762936
0.901701 0.904417 0.763180
0.000000 0.000000 0.900969
0.000000 0.000000 0.901305
0.208255 0.000000 0.898680
0.359899 0.000000 0.896422
0.500999 0.000000 0.891783
0.635462 0.000000 0.884489
0.765774 0.105959 0.881041
0.890593 0.185336 0.879759
0.000000 0.000000 0.899046
0.000000 0.000000 0.899321
0.199863 0.000000 0.897154
0.358282 0.000000 0.894041
0.501183 0.000000 0.889281
0.634913 0.089754 0.881804
0.763027 0.169863 0.877440
0.886992 0.220340 0.876280
0.000000 0.211093 0.898833
0.000000 0.213474 0.898558
0.214908 0.217411 0.895201
0.375067 0.237125 0.894377
0.513115 0.257023 0.888487
0.640253 0.278416 0.879728
0.763119 0.302434 0.874723
0.884947 0.323613 0.874632
0.120638 0.402594 0.900114
0.177066 0.404425 0.900114
0.286503 0.406043 0.897368
0.410895 0.412329 0.894408
0.533776 0.419471 0.889220
0.651362 0.425422 0.881193
0.766415 0.431708 0.874846
0.885527 0.438025 0.875822
0.110201 0.528771 0.902739
0.181247 0.531731 0.902831
0.302953 0.536858 0.900175
0.426795 0.542657 0.896513
0.542260 0.543664 0.890135
0.654780 0.542382 0.881682
0.765499 0.542321 0.872953
0.885832 0.547387 0.876951
0.113222 0.655421 0.899931
0.173648 0.655512 0.899168
0.291112 0.656550 0.897765
0.413519 0.658137 0.897307
0.535241 0.658289 0.895781
0.654505 0.656001 0.890349
0.771206 0.654444 0.882933
0.893797 0.656336 0.885679
0.139284 0.783963 0.899077
0.188602 0.783780 0.898650
0.295323 0.783444 0.897826
0.414679 0.784024 0.898131
0.533654 0.784115 0.899199
0.648371 0.781277 0.901976
0.773068 0.774777 0.896941
0.890410 0.765194 0.883391
0.167117 0.913756 0.901091
0.206394 0.913268 0.900725
0.303014 0.912627 0.900389
0.418067 0.912596 0.900847
0.530236 0.912169 0.901061
0.640558 0.910826 0.900389
0.764218 0.906371 0.897124
0.887816 0.889799 0.882567
