data/fiter_cube/55192441/1023187/file.cube
# Created by Adobe Lightroom plugin Export LUT (1.17.0)
# www.johnrellis.com/lightroom/exportlut.htm
# Preset: 清新轻盈通透人像_05 云集
# Color profile: C:\Program Files (x86)\Common Files\Adobe\Color\Profiles\Recommended\AdobeRGB1998.icc
LUT_3D_SIZE 5
DOMAIN_MIN 0.000000 0.000000 0.000000
DOMAIN_MAX 0.903226 0.903226 0.903226
0.000000 0.000000 0.000000
0.207675 0.000000 0.000000
0.574914 0.000000 0.000000
0.787045 0.000000 0.000000
0.954833 0.000000 0.000000
0.000000 0.221408 0.000000
0.223545 0.226810 0.000000
0.563622 0.266789 0.000000
0.780758 0.232731 0.000000
0.960113 0.207797 0.000000
0.000000 0.584314 0.000000
0.218662 0.580041 0.000000
0.573846 0.582208 0.000000
0.774960 0.507286 0.000000
0.945647 0.462715 0.000000
0.000000 0.781491 0.000000
0.052827 0.780270 0.000000
0.459693 0.772000 0.000000
0.738552 0.748775 0.000000
0.937835 0.703120 0.000000
0.000000 0.951537 0.000000
0.000000 0.949493 0.000000
0.393072 0.936370 0.000000
0.660639 0.932891 0.000000
0.914122 0.921782 0.000000
0.000000 0.000000 0.201389
0.206027 0.000000 0.202762
0.562615 0.000000 0.213138
0.764523 0.000000 0.206638
0.934813 0.000000 0.218906
0.000000 0.217655 0.212802
0.211826 0.215061 0.203433
0.559380 0.210575 0.197574
0.761013 0.219883 0.209262
0.934142 0.233555 0.225834
0.000000 0.576013 0.215030
0.053712 0.575067 0.102541
0.550530 0.558373 0.143984
0.753079 0.499153 0.224979
0.932586 0.477272 0.252903
0.000000 0.775875 0.186007
0.071687 0.775509 0.155367
0.459266 0.766812 0.143709
0.734035 0.743404 0.212100
0.929442 0.705867 0.271153
0.000000 0.946014 0.247379
0.113161 0.945373 0.208713
0.422248 0.942473 0.204715
0.670161 0.935515 0.210788
0.916503 0.923613 0.271153
0.000000 0.000000 0.553948
0.251896 0.000000 0.548913
0.549950 0.000000 0.541131
0.751247 0.000000 0.490883
0.918608 0.270024 0.500603
0.000000 0.204044 0.564202
0.170108 0.174563 0.555962
0.553368 0.200046 0.543969
0.742123 0.303044 0.504112
0.915679 0.377600 0.520470
0.000000 0.569055 0.556817
0.103761 0.565026 0.551934
0.542168 0.545739 0.532982
0.728725 0.543359 0.536126
0.912047 0.538811 0.533135
0.000000 0.763943 0.484016
0.198795 0.756435 0.487404
0.496681 0.746883 0.499336
0.727810 0.734127 0.514580
0.910124 0.715297 0.528618
0.000000 0.933989 0.472236
0.255894 0.933288 0.485023
0.468971 0.932097 0.486000
0.675319 0.926635 0.471168
0.908751 0.914183 0.494575
0.000000 0.000000 0.739712
0.205295 0.000000 0.737514
0.477058 0.000000 0.729152
0.730312 0.000000 0.720180
0.910033 0.254795 0.690242
0.000000 0.174014 0.742336
0.175662 0.179324 0.739132
0.482918 0.218204 0.726619
0.724208 0.278813 0.714565
0.903075 0.351476 0.690944
0.000000 0.490211 0.743099
0.234897 0.498360 0.740597
0.514824 0.516899 0.723323
0.711757 0.520867 0.703700
0.897520 0.535424 0.700923
0.000000 0.745998 0.733394
0.260014 0.741909 0.729641
0.509941 0.734401 0.723201
0.712367 0.715145 0.705257
0.900298 0.709651 0.703517
0.149691 0.925811 0.691676
0.283696 0.924193 0.694118
0.490700 0.922606 0.699275
0.675502 0.921355 0.679164
0.904265 0.907774 0.678004
0.000000 0.000000 0.900969
0.164767 0.000000 0.899351
0.431342 0.000000 0.894560
0.667994 0.000000 0.882597
0.890593 0.185336 0.879759
0.000000 0.155917 0.899962
0.158572 0.162112 0.898070
0.440558 0.195590 0.892363
0.670069 0.247074 0.878538
0.886839 0.298802 0.876371
0.113344 0.464668 0.901274
0.271824 0.473060 0.898466
0.479530 0.480903 0.890562
0.678431 0.481575 0.875914
0.884733 0.491829 0.875395
0.135317 0.690150 0.901732
0.269413 0.690822 0.900267
0.478767 0.692683 0.899779
0.681331 0.682826 0.891234
0.892973 0.681514 0.885069
0.167117 0.913756 0.901091
0.276005 0.912718 0.900389
0.475441 0.912505 0.901091
0.670192 0.910216 0.899992
0.887816 0.889799 0.882567
