data/fiter_cube/55192441/1023187/file.cube
# Created by Adobe Lightroom plugin Export LUT (1.17.0)
# www.johnrellis.com/lightroom/exportlut.htm
# Preset: 清新轻盈通透人像_05 云集
# Color profile: C:\Program Files (x86)\Common Files\Adobe\Color\Profiles\Recommended\AdobeRGB1998.icc
LUT_3D_SIZE 32
DOMAIN_MIN 0.0 0.0 0.0
DOMAIN_MAX 1.0 1.0 1.0
0.000000 0.000000 0.000000
0.001343 0.000000 0.000000
0.017639 0.000000 0.000000
0.056397 0.000000 0.000000
0.080659 0.000000 0.000000
0.109804 0.000000 0.000000
0.153597 0.000000 0.000000
0.207675 0.000000 0.000000
0.268528 0.000000 0.000000
0.330510 0.000000 0.000000
0.390112 0.000000 0.000000
0.444251 0.000000 0.000000
0.492805 0.000000 0.000000
0.536248 0.000000 0.000000
0.574914 0.000000 0.000000
0.609613 0.000000 0.000000
0.640986 0.000000 0.000000
0.670100 0.000000 0.000000
0.698268 0.000000 0.000000
0.731899 0.000000 0.000000
0.760769 0.000000 0.000000
0.787045 0.000000 0.000000
0.811673 0.000000 0.000000
0.835294 0.000000 0.000000
0.858274 0.000000 0.000000
0.881193 0.000000 0.000000
0.904753 0.000000 0.000000
0.929198 0.000000 0.000000
0.954833 0.000000 0.000000
0.981720 0.000000 0.000000
1.000000 0.000000 0.000000
1.000000 0.000000 0.000000
0.000000 0.002411 0.000000
0.002228 0.003174 0.000000
0.016815 0.003113 0.000000
0.056184 0.003174 0.000000
0.080110 0.003052 0.000000
0.109071 0.003174 0.000000
0.151766 0.002441 0.000000
0.204868 0.002045 0.000000
0.264866 0.000000 0.000000
0.326635 0.000000 0.000000
0.385748 0.000000 0.000000
0.439857 0.000000 0.000000
0.488350 0.000000 0.000000
0.531823 0.000000 0.000000
0.570581 0.000000 0.000000
0.605432 0.000000 0.000000
0.636927 0.000000 0.000000
0.666072 0.000000 0.000000
0.694942 0.000000 0.000000
0.727626 0.000000 0.000000
0.756100 0.000000 0.000000
0.781888 0.000000 0.000000
0.806302 0.000000 0.000000
0.829862 0.000000 0.000000
0.852873 0.000000 0.000000
0.875944 0.000000 0.000000
0.899748 0.000000 0.000000
0.924468 0.000000 0.000000
0.950347 0.000000 0.000000
0.977508 0.000000 0.000000
1.000000 0.000000 0.000000
1.000000 0.000000 0.000000
0.000000 0.018036 0.000000
0.001251 0.019776 0.000000
0.017212 0.019501 0.000000
0.055329 0.020996 0.000000
0.079377 0.021088 0.000000
0.108248 0.023835 0.000000
0.150118 0.031464 0.000000
0.202457 0.039094 0.000000
0.261845 0.042939 0.000000
0.323156 0.038819 0.000000
0.382513 0.030701 0.000000
0.436652 0.015290 0.000000
0.485328 0.000000 0.000000
0.528985 0.000000 0.000000
0.567864 0.000000 0.000000
0.602838 0.000000 0.000000
0.634516 0.000000 0.000000
0.663630 0.000000 0.000000
0.693324 0.000000 0.000000
0.725307 0.000000 0.000000
0.753597 0.000000 0.000000
0.779263 0.000000 0.000000
0.803555 0.000000 0.000000
0.827024 0.000000 0.000000
0.850004 0.000000 0.000000
0.873106 0.000000 0.000000
0.897002 0.000000 0.000000
0.921874 0.000000 0.000000
0.947967 0.000000 0.000000
0.975280 0.000000 0.000000
1.000000 0.000000 0.000000
1.000000 0.000000 0.000000
0.000000 0.055940 0.000000
0.000000 0.056733 0.000000
0.016999 0.056367 0.000000
0.054292 0.056764 0.000000
0.079347 0.056672 0.000000
0.108248 0.061494 0.000000
0.149660 0.069825 0.000000
0.201633 0.078584 0.000000
0.260258 0.086336 0.000000
0.321050 0.091707 0.000000
0.379858 0.093721 0.000000
0.433692 0.092988 0.000000
0.482185 0.089876 0.000000
0.525750 0.084901 0.000000
0.564752 0.077424 0.000000
0.599786 0.068208 0.000000
0.631525 0.055970 0.000000
0.660700 0.032502 0.000000
0.691279 0.004608 0.000000
0.721889 0.000000 0.000000
0.749386 0.000000 0.000000
0.774533 0.000000 0.000000
0.798856 0.000000 0.000000
0.822873 0.000000 0.000000
0.846830 0.000000 0.000000
0.870970 0.000000 0.000000
0.895689 0.000000 0.000000
0.921111 0.000000 0.000000
0.947356 0.000000 0.000000
0.974548 0.000000 0.000000
1.000000 0.000000 0.000000
1.000000 0.000000 0.000000
0.000000 0.079500 0.000000
0.000000 0.079622 0.000000
0.014649 0.079835 0.000000
0.051484 0.080079 0.000000
0.078981 0.079896 0.000000
0.106996 0.084230 0.000000
0.147799 0.095613 0.000000
0.198611 0.108431 0.000000
0.256260 0.120272 0.000000
0.316258 0.129763 0.000000
0.374670 0.135775 0.000000
0.428443 0.138552 0.000000
0.477180 0.138003 0.000000
0.521111 0.135744 0.000000
0.560662 0.131868 0.000000
0.596399 0.127047 0.000000
0.628870 0.120668 0.000000
0.658534 0.113954 0.000000
0.690852 0.107637 0.000000
0.720546 0.100343 0.000000
0.747311 0.093050 0.000000
0.772061 0.084901 0.000000
0.796109 0.075807 0.000000
0.820066 0.066407 0.000000
0.844114 0.054475 0.000000
0.868498 0.033204 0.000000
0.893339 0.012879 0.000000
0.918822 0.000000 0.000000
0.945098 0.000000 0.000000
0.972259 0.000000 0.000000
1.000000 0.000000 0.000000
1.000000 0.000000 0.000000
0.000000 0.110231 0.000000
0.000000 0.110933 0.000000
0.011749 0.111177 0.000000
0.055787 0.111971 0.000000
0.084962 0.112978 0.000000
0.112490 0.114351 0.000000
0.148806 0.122683 0.000000
0.199008 0.139162 0.000000
0.255863 0.154482 0.000000
0.315251 0.167147 0.000000
0.373053 0.176059 0.000000
0.426520 0.180575 0.000000
0.474952 0.181888 0.000000
0.518944 0.180758 0.000000
0.558526 0.178134 0.000000
0.594568 0.173587 0.000000
0.627253 0.168673 0.000000
0.658686 0.163516 0.000000
0.691341 0.158724 0.000000
0.720546 0.153323 0.000000
0.747219 0.147341 0.000000
0.772091 0.140902 0.000000
0.828153 0.144564 0.000000
0.852140 0.139773 0.000000
0.875395 0.135378 0.000000
0.898405 0.131014 0.000000
0.921477 0.127504 0.000000
0.945006 0.124147 0.000000
0.969329 0.122103 0.000000
0.994629 0.120699 0.000000
1.000000 0.120424 0.000000
1.000000 0.121187 0.000000
0.000000 0.165042 0.000000
0.000000 0.165408 0.000000
0.000000 0.165896 0.000000
0.063569 0.166964 0.000000
0.098878 0.168643 0.000000
0.134279 0.169680 0.000000
0.168612 0.171023 0.000000
0.212131 0.180484 0.000000
0.270268 0.198947 0.000000
0.329961 0.213779 0.000000
0.387274 0.223789 0.000000
0.439673 0.228824 0.000000
0.486732 0.230137 0.000000
0.529168 0.228672 0.000000
0.567132 0.225193 0.000000
0.601373 0.220493 0.000000
0.632868 0.215183 0.000000
0.667903 0.211093 0.000000
0.700038 0.206455 0.000000
0.729580 0.201144 0.000000
0.757565 0.196201 0.000000
0.785092 0.191135 0.000000
0.812772 0.187167 0.000000
0.840208 0.183108 0.000000
0.866758 0.179812 0.000000
0.891814 0.176272 0.000000
0.916045 0.173037 0.000000
0.940124 0.169986 0.000000
0.964813 0.167453 0.000000
0.990082 0.165743 0.000000
1.000000 0.164431 0.000000
1.000000 0.164248 0.000000
0.000000 0.221408 0.000000
0.000000 0.221653 0.000000
0.000000 0.221927 0.000000
0.060304 0.222629 0.000000
0.105867 0.223667 0.000000
0.145144 0.224826 0.000000
0.184817 0.225528 0.000000
0.223545 0.226810 0.000000
0.269169 0.234012 0.000000
0.327977 0.251072 0.000000
0.384710 0.262791 0.000000
0.436561 0.268925 0.000000
0.483284 0.271061 0.000000
0.525597 0.269932 0.000000
0.563622 0.266789 0.000000
0.597986 0.262028 0.000000
0.633387 0.258213 0.000000
0.667109 0.253788 0.000000
0.697780 0.248661 0.000000
0.726467 0.243229 0.000000
0.753841 0.237736 0.000000
0.780758 0.232731 0.000000
0.807950 0.228550 0.000000
0.834989 0.224521 0.000000
0.861357 0.220859 0.000000
0.886473 0.217380 0.000000
0.910826 0.213748 0.000000
0.935180 0.210513 0.000000
0.960113 0.207797 0.000000
0.985687 0.205661 0.000000
1.000000 0.204349 0.000000
1.000000 0.203342 0.000000
0.000000 0.282475 0.000000
0.000000 0.282536 0.000000
0.000000 0.282780 0.000000
0.033173 0.283024 0.000000
0.107454 0.283726 0.000000
0.152621 0.284367 0.000000
0.196475 0.284855 0.000000
0.239414 0.285222 0.000000
0.281865 0.285924 0.000000
0.328679 0.291020 0.000000
0.384375 0.303441 0.000000
0.435645 0.310277 0.000000
0.482033 0.312596 0.000000
0.523980 0.311589 0.000000
0.561700 0.308263 0.000000
0.599603 0.305241 0.000000
0.635004 0.301122 0.000000
0.667079 0.295903 0.000000
0.696620 0.289982 0.000000
0.724636 0.284031 0.000000
0.751522 0.278477 0.000000
0.778073 0.272892 0.000000
0.804837 0.268223 0.000000
0.831479 0.264195 0.000000
0.857603 0.260349 0.000000
0.882658 0.256260 0.000000
0.907103 0.252628 0.000000
0.931487 0.249149 0.000000
0.956481 0.246189 0.000000
0.982055 0.243656 0.000000
1.000000 0.241855 0.000000
1.000000 0.240574 0.000000
0.000000 0.342687 0.000000
0.000000 0.342626 0.000000
0.000000 0.342412 0.000000
0.000000 0.342412 0.000000
0.100679 0.342504 0.000000
0.154604 0.342473 0.000000
0.200748 0.342718 0.000000
0.247562 0.342229 0.000000
0.292699 0.342138 0.000000
0.337194 0.342138 0.000000
0.383337 0.344244 0.000000
0.433631 0.350622 0.000000
0.479896 0.353338 0.000000
0.521843 0.352483 0.000000
0.564691 0.352270 0.000000
0.602869 0.349126 0.000000
0.637171 0.344305 0.000000
0.668757 0.338201 0.000000
0.697627 0.331762 0.000000
0.724819 0.324865 0.000000
0.750698 0.318364 0.000000
0.775875 0.312230 0.000000
0.801297 0.306737 0.000000
0.826719 0.301762 0.000000
0.852018 0.297276 0.000000
0.876890 0.292943 0.000000
0.901671 0.289097 0.000000
0.926726 0.285527 0.000000
0.952361 0.282658 0.000000
0.978698 0.280339 0.000000
1.000000 0.278691 0.000000
1.000000 0.277379 0.000000
0.000000 0.395758 0.000000
0.000000 0.395789 0.000000
0.000000 0.395727 0.000000
0.000000 0.395697 0.000000
0.084016 0.395666 0.000000
0.149020 0.395758 0.000000
0.200565 0.396094 0.000000
0.248417 0.396185 0.000000
0.296544 0.395392 0.000000
0.343053 0.394781 0.000000
0.388312 0.394018 0.000000
0.433600 0.393835 0.000000
0.482185 0.397742 0.000000
0.526970 0.398810 0.000000
0.567346 0.396521 0.000000
0.603632 0.391913 0.000000
0.636744 0.385718 0.000000
0.667353 0.378973 0.000000
0.695705 0.371466 0.000000
0.722438 0.364141 0.000000
0.748074 0.357031 0.000000
0.773098 0.350225 0.000000
0.798459 0.344457 0.000000
0.823789 0.339239 0.000000
0.848966 0.334386 0.000000
0.873686 0.329625 0.000000
0.898253 0.325383 0.000000
0.923156 0.321538 0.000000
0.948699 0.318334 0.000000
0.974975 0.315709 0.000000
1.000000 0.313664 0.000000
1.000000 0.312413 0.000000
0.000000 0.445747 0.000000
0.000000 0.445808 0.000000
0.000000 0.445655 0.000000
0.000000 0.445563 0.000000
0.040986 0.445472 0.000000
0.137423 0.445411 0.000000
0.194888 0.445502 0.000000
0.245060 0.445655 0.000000
0.294377 0.445167 0.000000
0.342931 0.444221 0.000000
0.391608 0.445197 0.000000
0.441077 0.447578 0.000000
0.518303 0.475196 0.000000
0.561089 0.470558 0.000000
0.599542 0.464393 0.000000
0.633722 0.456031 0.000000
0.664973 0.446876 0.000000
0.692927 0.436744 0.000000
0.718349 0.426398 0.000000
0.742672 0.416541 0.000000
0.766232 0.407294 0.000000
0.789975 0.399145 0.000000
0.813687 0.391791 0.000000
0.837613 0.385321 0.000000
0.861418 0.379400 0.000000
0.885069 0.373938 0.000000
0.908598 0.368811 0.000000
0.932341 0.364202 0.000000
0.956695 0.360296 0.000000
0.981933 0.357061 0.000000
1.000000 0.354467 0.000000
1.000000 0.352575 0.000000
0.000000 0.502007 0.000000
0.000000 0.501854 0.000000
0.000000 0.501152 0.000000
0.000000 0.500175 0.000000
0.000000 0.498878 0.000000
0.121431 0.497414 0.000000
0.186587 0.496284 0.000000
0.240269 0.495583 0.000000
0.291600 0.498116 0.000000
0.345464 0.501213 0.000000
0.398749 0.504723 0.000000
0.451575 0.508141 0.000000
0.503655 0.511040 0.000000
0.554437 0.512505 0.000000
0.594690 0.505791 0.000000
0.629541 0.497444 0.000000
0.660792 0.487434 0.000000
0.688441 0.476387 0.000000
0.713802 0.465095 0.000000
0.737789 0.454414 0.000000
0.761044 0.444465 0.000000
0.784604 0.435645 0.000000
0.808072 0.427771 0.000000
0.831785 0.420600 0.000000
0.855497 0.414191 0.000000
0.879088 0.408270 0.000000
0.902678 0.402808 0.000000
0.926604 0.397925 0.000000
0.951232 0.393683 0.000000
0.976776 0.390265 0.000000
1.000000 0.387671 0.000000
1.000000 0.385687 0.000000
0.000000 0.540398 0.000000
0.000000 0.540276 0.000000
0.000000 0.539696 0.000000
0.000000 0.539178 0.000000
0.000000 0.539269 0.000000
0.094636 0.539391 0.000000
0.173007 0.539940 0.000000
0.231662 0.540887 0.000000
0.284642 0.542351 0.000000
0.336095 0.544335 0.000000
0.389319 0.545953 0.000000
0.441382 0.547906 0.000000
0.492195 0.549310 0.000000
0.541619 0.549523 0.000000
0.588891 0.548272 0.000000
0.624811 0.537987 0.000000
0.655787 0.527001 0.000000
0.683467 0.515160 0.000000
0.708827 0.503075 0.000000
0.732906 0.491676 0.000000
0.756222 0.481056 0.000000
0.779721 0.471778 0.000000
0.803189 0.463416 0.000000
0.826993 0.455909 0.000000
0.850797 0.449134 0.000000
0.874510 0.442786 0.000000
0.898253 0.437049 0.000000
0.922362 0.431922 0.000000
0.947173 0.427558 0.000000
0.973022 0.424018 0.000000
0.999664 0.421332 0.000000
1.000000 0.419318 0.000000
0.000000 0.584314 0.000000
0.000000 0.584436 0.000000
0.000000 0.583948 0.000000
0.000000 0.583307 0.000000
0.000000 0.582208 0.000000
0.039216 0.581109 0.000000
0.154879 0.580377 0.000000
0.218662 0.580041 0.000000
0.273350 0.580468 0.000000
0.324681 0.581689 0.000000
0.376318 0.582879 0.000000
0.428199 0.583825 0.000000
0.478523 0.584344 0.000000
0.527184 0.583978 0.000000
0.573846 0.582208 0.000000
0.617975 0.578759 0.000000
0.651423 0.566918 0.000000
0.678981 0.554009 0.000000
0.704463 0.541070 0.000000
0.728450 0.528710 0.000000
0.751675 0.517327 0.000000
0.774960 0.507286 0.000000
0.798367 0.498360 0.000000
0.822049 0.490547 0.000000
0.846036 0.483436 0.000000
0.870176 0.477119 0.000000
0.894713 0.471504 0.000000
0.919768 0.466712 0.000000
0.945647 0.462715 0.000000
0.972442 0.459663 0.000000
1.000000 0.457435 0.000000
1.000000 0.455879 0.000000
0.000000 0.621546 0.000000
0.000000 0.621759 0.000000
0.000000 0.621546 0.000000
0.000000 0.621057 0.000000
0.000000 0.620233 0.000000
0.000000 0.619409 0.000000
0.132815 0.618860 0.000000
0.203830 0.618585 0.000000
0.261784 0.618616 0.000000
0.313878 0.618952 0.000000
0.363378 0.619440 0.000000
0.414588 0.618799 0.000000
0.463752 0.617487 0.000000
0.511192 0.615503 0.000000
0.556603 0.612634 0.000000
0.600183 0.608789 0.000000
0.641901 0.604303 0.000000
0.674098 0.592554 0.000000
0.699977 0.578729 0.000000
0.724819 0.566125 0.000000
0.748562 0.554345 0.000000
0.772366 0.543877 0.000000
0.796139 0.534691 0.000000
0.820157 0.526574 0.000000
0.844388 0.519402 0.000000
0.868864 0.513115 0.000000
0.893675 0.507317 0.000000
0.919005 0.502403 0.000000
0.944976 0.498329 0.000000
0.971649 0.494942 0.000000
0.998932 0.492287 0.000000
1.000000 0.490303 0.000000
0.000000 0.652644 0.000000
0.000000 0.652491 0.000000
0.000000 0.652125 0.000000
0.000000 0.651545 0.000000
0.000000 0.650782 0.000000
0.000000 0.649836 0.000000
0.102754 0.649104 0.000000
0.185336 0.648463 0.000000
0.245823 0.648096 0.000000
0.299046 0.647944 0.000000
0.348730 0.648005 0.000000
0.397223 0.647791 0.000000
0.446662 0.646326 0.000000
0.493843 0.644190 0.000000
0.539025 0.641108 0.000000
0.582025 0.637079 0.000000
0.623438 0.632441 0.000000
0.663447 0.627527 0.000000
0.695430 0.616663 0.000000
0.719875 0.602228 0.000000
0.743771 0.589715 0.000000
0.767636 0.578546 0.000000
0.791501 0.568780 0.000000
0.815702 0.560327 0.000000
0.840146 0.552972 0.000000
0.864897 0.546471 0.000000
0.890105 0.540887 0.000000
0.915801 0.536187 0.000000
0.942229 0.532097 0.000000
0.969299 0.528832 0.000000
0.997070 0.526299 0.000000
1.000000 0.524437 0.000000
0.000000 0.681117 0.000000
0.000000 0.681514 0.000000
0.000000 0.699611 0.000000
0.000000 0.698939 0.000000
0.000000 0.697841 0.000000
0.000000 0.696407 0.000000
0.066651 0.694820 0.000000
0.170993 0.693202 0.000000
0.236240 0.691829 0.000000
0.291691 0.690639 0.000000
0.342168 0.689540 0.000000
0.389899 0.688258 0.000000
0.437659 0.685908 0.000000
0.485084 0.682582 0.000000
0.530022 0.678645 0.000000
0.573114 0.674037 0.000000
0.614374 0.668879 0.000000
0.654047 0.663355 0.000000
0.692409 0.657771 0.000000
0.724025 0.647181 0.000000
0.746670 0.631647 0.000000
0.770199 0.619287 0.000000
0.793912 0.608453 0.000000
0.817533 0.598932 0.000000
0.841062 0.590173 0.000000
0.864775 0.582483 0.000000
0.888823 0.575677 0.000000
0.913664 0.570031 0.000000
0.939574 0.565667 0.000000
0.966674 0.562249 0.000000
0.994629 0.559655 0.000000
1.000000 0.557641 0.000000
0.000000 0.710903 0.000000
0.000000 0.713069 0.000000
0.000000 0.715145 0.000000
0.000000 0.716640 0.000000
0.000000 0.717281 0.000000
0.000000 0.716854 0.000000
0.000000 0.715724 0.000000
0.147677 0.714321 0.000000
0.217746 0.713008 0.000000
0.274113 0.711727 0.000000
0.325139 0.710506 0.000000
0.372625 0.709194 0.000000
0.417792 0.707424 0.000000
0.464454 0.704311 0.000000
0.509331 0.700465 0.000000
0.552148 0.696071 0.000000
0.593286 0.691188 0.000000
0.632929 0.686091 0.000000
0.671412 0.680934 0.000000
0.708980 0.675959 0.000000
0.741634 0.667567 0.000000
0.764889 0.653223 0.000000
0.788998 0.642084 0.000000
0.813230 0.632258 0.000000
0.837156 0.623438 0.000000
0.861326 0.615595 0.000000
0.885771 0.608698 0.000000
0.910948 0.603052 0.000000
0.937133 0.598627 0.000000
0.964324 0.595300 0.000000
0.992370 0.592889 0.000000
1.000000 0.590936 0.000000
0.000000 0.731777 0.000000
0.000000 0.733700 0.000000
0.000000 0.735561 0.000000
0.000000 0.736904 0.000000
0.000000 0.737514 0.000000
0.000000 0.737179 0.000000
0.000000 0.736110 0.000000
0.122133 0.734859 0.000000
0.199069 0.733700 0.000000
0.257725 0.732509 0.000000
0.309056 0.731411 0.000000
0.356695 0.730220 0.000000
0.401617 0.728542 0.000000
0.445472 0.726314 0.000000
0.490394 0.722713 0.000000
0.533288 0.718593 0.000000
0.574365 0.714046 0.000000
0.614008 0.709316 0.000000
0.652522 0.704524 0.000000
0.690242 0.699977 0.000000
0.727138 0.695552 0.000000
0.761135 0.689509 0.000000
0.784756 0.676020 0.000000
0.809232 0.665888 0.000000
0.833555 0.656703 0.000000
0.857908 0.648463 0.000000
0.882444 0.641291 0.000000
0.907713 0.635340 0.000000
0.933959 0.630701 0.000000
0.961242 0.627222 0.000000
0.989410 0.624720 0.000000
1.000000 0.622980 0.000000
0.000000 0.752590 0.000000
0.000000 0.754421 0.000000
0.000000 0.756191 0.000000
0.000000 0.757504 0.000000
0.000000 0.758083 0.000000
0.000000 0.757748 0.000000
0.000000 0.756832 0.000000
0.092012 0.755642 0.000000
0.180941 0.754421 0.000000
0.241611 0.753231 0.000000
0.293767 0.752102 0.000000
0.341588 0.750820 0.000000
0.386297 0.749264 0.000000
0.429145 0.747433 0.000000
0.472511 0.744778 0.000000
0.515770 0.741451 0.000000
0.557671 0.737972 0.000000
0.598230 0.734493 0.000000
0.637903 0.731197 0.000000
0.676875 0.728023 0.000000
0.715023 0.725063 0.000000
0.752560 0.722194 0.000000
0.788418 0.718502 0.000000
0.812924 0.706172 0.000000
0.838254 0.697261 0.000000
0.863401 0.689143 0.000000
0.888579 0.681880 0.000000
0.914183 0.675868 0.000000
0.940612 0.671046 0.000000
0.967834 0.667384 0.000000
0.995727 0.664668 0.000000
1.000000 0.662989 0.000000
0.000000 0.781491 0.000000
0.000000 0.782284 0.000000
0.000000 0.782864 0.000000
0.000000 0.783078 0.000000
0.000000 0.782895 0.000000
0.000000 0.782193 0.000000
0.000000 0.781247 0.000000
0.052827 0.780270 0.000000
0.165072 0.779446 0.000000
0.229099 0.778683 0.000000
0.282567 0.777951 0.000000
0.330968 0.777005 0.000000
0.375891 0.775692 0.000000
0.418616 0.774014 0.000000
0.459693 0.772000 0.000000
0.502831 0.768887 0.000000
0.544793 0.765499 0.000000
0.585443 0.762051 0.000000
0.625055 0.758694 0.000000
0.663691 0.755337 0.000000
0.701503 0.752010 0.000000
0.738552 0.748775 0.000000
0.774655 0.745418 0.000000
0.810330 0.742428 0.000000
0.834409 0.730098 0.000000
0.859648 0.721645 0.000000
0.885191 0.714290 0.000000
0.911223 0.708034 0.000000
0.937835 0.703120 0.000000
0.965148 0.699275 0.000000
0.993103 0.696651 0.000000
1.000000 0.695399 0.000000
0.000000 0.802976 0.000000
0.000000 0.803769 0.000000
0.000000 0.804471 0.000000
0.000000 0.804746 0.000000
0.000000 0.804562 0.000000
0.000000 0.803830 0.000000
0.000000 0.802823 0.000000
0.000000 0.801755 0.000000
0.147036 0.800778 0.000000
0.214878 0.799893 0.000000
0.269444 0.799130 0.000000
0.317937 0.798276 0.000000
0.362982 0.797086 0.000000
0.405829 0.795682 0.000000
0.446754 0.794064 0.000000
0.487373 0.792050 0.000000
0.529717 0.789151 0.000000
0.570764 0.786252 0.000000
0.610681 0.783383 0.000000
0.649775 0.780636 0.000000
0.687984 0.777951 0.000000
0.725582 0.775296 0.000000
0.762325 0.772732 0.000000
0.798245 0.770077 0.000000
0.829221 0.763302 0.000000
0.854032 0.752316 0.000000
0.879667 0.744381 0.000000
0.905913 0.738094 0.000000
0.932799 0.732967 0.000000
0.960388 0.729244 0.000000
0.988769 0.727077 0.000000
1.000000 0.726528 0.000000
0.000000 0.831296 0.000000
0.000000 0.832242 0.000000
0.000000 0.832731 0.000000
0.000000 0.832639 0.000000
0.000000 0.832059 0.000000
0.000000 0.831022 0.000000
0.000000 0.829648 0.000000
0.000000 0.828061 0.000000
0.133394 0.826444 0.000000
0.203952 0.824887 0.000000
0.258946 0.823301 0.000000
0.307500 0.821866 0.000000
0.352270 0.820249 0.000000
0.394537 0.818357 0.000000
0.434882 0.816068 0.000000
0.473793 0.813596 0.000000
0.513725 0.810605 0.000000
0.554437 0.807401 0.000000
0.594263 0.804654 0.000000
0.633478 0.802304 0.000000
0.672053 0.800229 0.000000
0.709804 0.798093 0.000000
0.746548 0.795651 0.000000
0.782223 0.792813 0.000000
0.816678 0.789609 0.000000
0.850431 0.786282 0.000000
0.877287 0.777707 0.000000
0.902953 0.770047 0.000000
0.929656 0.764553 0.000000
0.957183 0.760647 0.000000
0.985626 0.758511 0.000000
1.000000 0.758389 0.000000
0.000000 0.852201 0.000000
0.000000 0.853117 0.000000
0.000000 0.853635 0.000000
0.000000 0.853574 0.000000
0.000000 0.853056 0.000000
0.000000 0.852140 0.000000
0.000000 0.851041 0.000000
0.000000 0.849760 0.000000
0.115511 0.848478 0.000000
0.191928 0.847349 0.000000
0.248295 0.846220 0.000000
0.297734 0.845151 0.000000
0.342962 0.843992 0.000000
0.385321 0.842527 0.000000
0.425757 0.840757 0.000000
0.464729 0.838773 0.000000
0.502708 0.836728 0.000000
0.543175 0.834073 0.000000
0.583337 0.831571 0.000000
0.622766 0.829465 0.000000
0.661463 0.827512 0.000000
0.699397 0.825528 0.000000
0.736324 0.823392 0.000000
0.772335 0.820951 0.000000
0.807309 0.818173 0.000000
0.841337 0.815091 0.000000
0.874662 0.812009 0.000000
0.903410 0.805661 0.000000
0.929931 0.799161 0.000000
0.957671 0.795315 0.000000
0.986175 0.793332 0.000000
1.000000 0.793454 0.000000
0.000000 0.875761 0.000000
0.000000 0.876371 0.000000
0.000000 0.876555 0.000000
0.000000 0.876219 0.000000
0.000000 0.875425 0.000000
0.000000 0.874357 0.000000
0.000000 0.873106 0.000000
0.000000 0.871794 0.000000
0.096162 0.870573 0.000000
0.179599 0.869535 0.000000
0.238041 0.868528 0.000000
0.287999 0.867735 0.000000
0.333410 0.866819 0.000000
0.376043 0.865629 0.000000
0.416358 0.864103 0.000000
0.455146 0.862272 0.000000
0.492958 0.860349 0.000000
0.530724 0.858457 0.000000
0.571038 0.856138 0.000000
0.610559 0.854154 0.000000
0.649317 0.852384 0.000000
0.687343 0.850645 0.000000
0.724544 0.848722 0.000000
0.760739 0.846616 0.000000
0.796048 0.844236 0.000000
0.830503 0.841520 0.000000
0.864286 0.838773 0.000000
0.897276 0.835966 0.000000
0.927489 0.831724 0.000000
0.954803 0.826474 0.000000
0.983307 0.824491 0.000000
1.000000 0.824826 0.000000
0.000000 0.897520 0.000000
0.000000 0.897887 0.000000
0.000000 0.898009 0.000000
0.000000 0.897826 0.000000
0.000000 0.897459 0.000000
0.000000 0.897063 0.000000
0.000000 0.897032 0.000000
0.000000 0.897154 0.000000
0.087861 0.897520 0.000000
0.176883 0.898100 0.000000
0.236790 0.898711 0.000000
0.287633 0.899260 0.000000
0.333684 0.899565 0.000000
0.376623 0.899382 0.000000
0.417334 0.898680 0.000000
0.456214 0.897368 0.000000
0.493935 0.895872 0.000000
0.530907 0.894347 0.000000
0.569574 0.892668 0.000000
0.609400 0.890806 0.000000
0.648432 0.889067 0.000000
0.686702 0.887388 0.000000
0.724025 0.885496 0.000000
0.760494 0.883482 0.000000
0.796170 0.881224 0.000000
0.831083 0.878782 0.000000
0.865415 0.876249 0.000000
0.898985 0.873716 0.000000
0.931792 0.871427 0.000000
0.963165 0.869017 0.021302
0.990692 0.864927 0.082765
1.000000 0.864683 0.102663
0.000000 0.928832 0.000000
0.000000 0.929015 0.000000
0.000000 0.928923 0.000000
0.000000 0.928527 0.000000
0.000000 0.927855 0.000000
0.000000 0.927123 0.000000
0.000000 0.926452 0.000000
0.000000 0.925933 0.000000
0.087648 0.925475 0.000000
0.174533 0.925170 0.000000
0.232944 0.924834 0.000000
0.282597 0.924529 0.000000
0.327703 0.924071 0.000000
0.369848 0.923369 0.000000
