data/fiter_cube/25649002/1023277/file.cube
# Created by Adobe Lightroom plugin Export LUT (1.17.0)
# www.johnrellis.com/lightroom/exportlut.htm
# Preset: 高级电影质感情绪胶片_07 云集
# Color profile: C:\Program Files (x86)\Common Files\Adobe\Color\Profiles\Recommended\AdobeRGB1998.icc
LUT_3D_SIZE 5
DOMAIN_MIN 0.000000 0.000000 0.000000
DOMAIN_MAX 0.903226 0.903226 0.903226
0.068147 0.076265 0.088075
0.171817 0.090700 0.091432
0.497505 0.078431 0.073274
0.693202 0.227024 0.079774
0.814572 0.421363 0.179782
0.093172 0.133028 0.115602
0.149660 0.156954 0.129458
0.585901 0.244388 0.000000
0.721920 0.302678 0.000000
0.830655 0.448798 0.131716
0.287114 0.439185 0.280858
0.418433 0.506920 0.391363
0.465705 0.453956 0.311467
0.748836 0.529656 0.000000
0.864500 0.562249 0.000000
0.535973 0.656794 0.511070
0.581140 0.674800 0.563500
0.666102 0.728389 0.652094
0.638087 0.641230 0.513085
0.835477 0.686244 0.308385
0.669429 0.778988 0.667018
0.688930 0.788693 0.690761
0.748867 0.819699 0.762539
0.802304 0.853849 0.807889
0.764675 0.779171 0.683192
0.066896 0.092378 0.146975
0.211337 0.080507 0.176364
0.421546 0.189975 0.209476
0.657771 0.285344 0.221317
0.792081 0.451972 0.294194
0.096437 0.157443 0.157839
0.196872 0.220768 0.224704
0.537987 0.261906 0.193912
0.692683 0.339422 0.199771
0.808499 0.472816 0.268345
0.281224 0.431312 0.295995
0.409430 0.498177 0.402777
0.483253 0.482582 0.381506
0.746181 0.548363 0.192569
0.855497 0.566949 0.168704
0.531426 0.652155 0.514763
0.576989 0.670527 0.565850
0.664698 0.725185 0.659571
0.640925 0.649714 0.542565
0.838071 0.695125 0.361151
0.664240 0.775662 0.663966
0.683680 0.785367 0.687190
0.745693 0.818235 0.760769
0.804868 0.855680 0.814298
0.766720 0.782620 0.692653
0.000000 0.170565 0.373938
0.205570 0.156863 0.439063
0.584802 0.218021 0.442084
0.551232 0.404456 0.418769
0.717891 0.521508 0.488594
0.192020 0.291997 0.358648
0.258091 0.314641 0.433875
0.572595 0.362402 0.468360
0.557275 0.441871 0.439582
0.737850 0.533318 0.484840
0.269780 0.445167 0.388128
0.361395 0.477241 0.429114
0.536675 0.560906 0.532036
0.693660 0.565057 0.474891
0.802396 0.591852 0.462684
0.492805 0.627405 0.498024
0.540490 0.646479 0.544121
0.643641 0.702815 0.654292
0.651575 0.673884 0.612238
0.839475 0.721859 0.514946
0.646815 0.763302 0.654597
0.664179 0.772610 0.673945
0.721248 0.804074 0.738460
0.801785 0.852689 0.819455
0.769711 0.789548 0.715846
0.230198 0.335180 0.579370
0.314061 0.334173 0.604761
0.584619 0.298680 0.670436
0.717159 0.482307 0.619379
0.727535 0.589319 0.609308
0.342229 0.442390 0.567224
0.365026 0.430457 0.595422
0.570947 0.417884 0.663600
0.710109 0.529473 0.628595
0.717159 0.598230 0.610071
0.402564 0.544945 0.554559
0.447272 0.555657 0.567620
0.551934 0.592859 0.632929
0.684840 0.619776 0.645930
0.675685 0.622492 0.612696
0.482002 0.635859 0.573632
0.513634 0.642939 0.587427
0.593164 0.667079 0.630152
0.675013 0.711574 0.690822
0.807462 0.709712 0.639521
0.612390 0.744045 0.640406
0.627375 0.749996 0.652277
0.679622 0.776883 0.704189
0.773037 0.832395 0.801541
0.778866 0.805295 0.758389
0.463050 0.533959 0.717922
0.487098 0.530632 0.727749
0.586450 0.517266 0.762753
0.743404 0.529290 0.791562
0.826230 0.630030 0.753780
0.494575 0.575586 0.707515
0.499550 0.564050 0.718502
0.582513 0.555383 0.754604
0.736141 0.556664 0.789792
0.824125 0.643000 0.756374
0.522515 0.620386 0.666712
0.534478 0.625269 0.678889
0.576928 0.632074 0.727718
0.716304 0.625269 0.792416
0.821225 0.686122 0.769375
0.557000 0.700618 0.693660
0.566461 0.699641 0.694972
0.598749 0.699031 0.703273
0.664759 0.715389 0.760830
0.814206 0.752590 0.791592
0.610468 0.762356 0.712856
0.617945 0.763912 0.716121
0.647852 0.773007 0.732174
0.705409 0.792355 0.765469
0.801968 0.838529 0.832151
