data/fiter_cube/25649002/1023277/file.cube
# Created by Adobe Lightroom plugin Export LUT (1.17.0)
# www.johnrellis.com/lightroom/exportlut.htm
# Preset: 高级电影质感情绪胶片_07 云集
# Color profile: C:\Program Files (x86)\Common Files\Adobe\Color\Profiles\Recommended\AdobeRGB1998.icc
LUT_3D_SIZE 32
DOMAIN_MIN 0.0 0.0 0.0
DOMAIN_MAX 1.0 1.0 1.0
0.068147 0.076265 0.088075
0.070375 0.076631 0.088289
0.073671 0.077546 0.088441
0.080537 0.079255 0.089296
0.093568 0.081971 0.090425
0.113283 0.085267 0.091218
0.139590 0.088106 0.091615
0.171817 0.090700 0.091432
0.210239 0.092409 0.091035
0.255039 0.092378 0.089326
0.304875 0.089387 0.087160
0.357427 0.084016 0.084199
0.407599 0.077974 0.080690
0.455024 0.075441 0.076844
0.497505 0.078431 0.073274
0.535210 0.089204 0.070436
0.569940 0.107271 0.068116
0.600549 0.129335 0.067567
0.627436 0.152499 0.067475
0.651637 0.176883 0.069825
0.673457 0.201846 0.073518
0.693202 0.227024 0.079774
0.711147 0.251865 0.087678
0.727657 0.276890 0.097810
0.744045 0.302464 0.109010
0.760922 0.329961 0.122255
0.778164 0.358923 0.138308
0.796139 0.389532 0.156649
0.814572 0.421363 0.179782
0.833463 0.454292 0.208164
0.852811 0.487770 0.241764
0.872190 0.521447 0.280888
0.068696 0.077211 0.088869
0.069825 0.078096 0.089326
0.074250 0.078889 0.088624
0.082795 0.080659 0.088289
0.097108 0.083314 0.089143
0.117464 0.086824 0.090394
0.144198 0.090120 0.090700
0.177401 0.092866 0.090394
0.215610 0.094331 0.089631
0.260472 0.094240 0.088075
0.310338 0.091768 0.085756
0.361639 0.086549 0.082704
0.411627 0.081300 0.079011
0.457893 0.079042 0.075257
0.499886 0.082521 0.071565
0.536950 0.093324 0.068635
0.571191 0.110811 0.066407
0.601068 0.131716 0.065400
0.627527 0.154482 0.065461
0.651514 0.178470 0.067506
0.673304 0.202548 0.070924
0.692866 0.227329 0.077180
0.710842 0.251987 0.084871
0.727352 0.276524 0.094697
0.743740 0.302190 0.106294
0.760433 0.329381 0.119814
0.777768 0.358221 0.135592
0.795682 0.388647 0.154360
0.814084 0.420478 0.177493
0.833127 0.453285 0.205173
0.852384 0.486763 0.239200
0.871855 0.520287 0.277867
0.069978 0.079133 0.089815
0.070863 0.080018 0.091096
0.072450 0.080446 0.091310
0.082551 0.083314 0.089235
0.099763 0.086641 0.088808
0.123995 0.090211 0.088502
0.151308 0.093385 0.089265
0.184268 0.096071 0.089143
0.223148 0.097688 0.088197
0.267521 0.097566 0.086488
0.317601 0.094972 0.083955
0.368505 0.090486 0.080690
0.417456 0.085908 0.076814
0.463020 0.084840 0.072786
0.503990 0.088991 0.069001
0.540551 0.099184 0.065614
0.573785 0.116030 0.063447
0.603418 0.136660 0.061311
0.629023 0.158450 0.062165
0.652613 0.181552 0.064240
0.674098 0.205386 0.068208
0.693629 0.229526 0.073457
0.711360 0.253696 0.082002
0.727626 0.277928 0.092622
0.743984 0.303319 0.104067
0.760647 0.330144 0.117586
0.778073 0.358679 0.132479
0.795834 0.389044 0.151888
0.814359 0.420539 0.174380
0.833188 0.453285 0.203006
0.852506 0.486458 0.236301
0.871916 0.519951 0.275273
0.071962 0.083101 0.093019
0.073487 0.084138 0.094728
0.074830 0.085237 0.095399
0.077607 0.085786 0.095308
0.097963 0.092317 0.091127
0.127687 0.099733 0.088655
0.161898 0.103304 0.087221
0.201694 0.105562 0.085328
0.241001 0.106844 0.084321
0.285954 0.106416 0.082094
0.335027 0.103853 0.079042
0.384100 0.100435 0.075319
0.431159 0.097597 0.070954
0.474617 0.097780 0.066468
0.513664 0.102571 0.061830
0.548394 0.112703 0.058625
0.580346 0.128450 0.053773
0.608270 0.147066 0.050782
0.633021 0.167361 0.050385
0.655879 0.189120 0.053162
0.676326 0.211704 0.060578
0.695338 0.234775 0.066865
0.712734 0.258091 0.075837
0.728969 0.281743 0.086519
0.745357 0.306676 0.098299
0.762081 0.333257 0.112642
0.779294 0.361517 0.128969
0.797208 0.391394 0.147433
0.815549 0.422431 0.170413
0.834318 0.454566 0.198856
0.853452 0.487190 0.231998
0.872709 0.520195 0.270848
0.075105 0.089204 0.096407
0.076509 0.090425 0.098024
0.079042 0.092622 0.100526
0.081727 0.095033 0.101717
0.086885 0.094942 0.100191
0.114961 0.104707 0.094301
0.162905 0.118166 0.087831
0.209415 0.125032 0.083925
0.258000 0.126284 0.079896
0.313054 0.125307 0.074067
0.362127 0.122255 0.069612
0.408148 0.119326 0.065064
0.451637 0.117128 0.059907
0.492103 0.118532 0.050843
0.528191 0.123476 0.041871
0.561334 0.133761 0.031189
0.590997 0.147829 0.024506
0.617090 0.164614 0.020294
0.640406 0.182895 0.021790
0.661677 0.202670 0.025879
0.681178 0.223301 0.035889
0.699245 0.244755 0.051087
0.715969 0.266423 0.064454
0.731777 0.288945 0.076326
0.747829 0.312902 0.089631
0.764279 0.338506 0.105318
0.781399 0.366033 0.121187
0.799008 0.394903 0.140597
0.817197 0.425086 0.163668
0.835843 0.456306 0.191470
0.854765 0.488472 0.225528
0.873869 0.520867 0.264378
0.079133 0.098177 0.100587
0.080964 0.100038 0.102541
0.083406 0.102693 0.105531
0.088350 0.107393 0.109071
0.094606 0.111269 0.110170
0.100954 0.108827 0.106935
0.134951 0.119844 0.098970
0.203494 0.141054 0.085969
0.268864 0.155398 0.076143
0.326665 0.156405 0.069123
0.382452 0.154269 0.059998
0.434821 0.150637 0.040589
0.479316 0.148226 0.019715
0.515557 0.149020 0.007691
0.548211 0.153750 0.000000
0.578058 0.162234 0.000000
0.605005 0.174350 0.000000
0.629023 0.188632 0.000000
0.650202 0.204227 0.000000
0.669825 0.221439 0.000000
0.688045 0.239933 0.000000
0.705135 0.259190 0.009979
0.727230 0.288914 0.047883
0.742550 0.310063 0.066773
0.758022 0.332799 0.082460
0.773861 0.356909 0.099550
0.790188 0.382818 0.118105
0.807187 0.410071 0.138674
0.824643 0.438483 0.162997
0.842710 0.467933 0.191714
0.860960 0.498207 0.225620
0.879362 0.528893 0.264408
0.085023 0.112581 0.106966
0.087068 0.115206 0.109102
0.090303 0.118654 0.112398
0.098421 0.126497 0.120272
0.106477 0.133852 0.123690
0.115877 0.136690 0.122438
0.122286 0.129976 0.116609
0.159335 0.139834 0.106661
0.248844 0.169162 0.085115
0.330663 0.187442 0.066865
0.403418 0.197848 0.034028
0.454505 0.195071 0.008698
0.499947 0.193210 0.000000
0.539727 0.192935 0.000000
0.574151 0.195407 0.000000
0.600946 0.202090 0.000000
0.624323 0.210636 0.000000
0.645380 0.221500 0.000000
0.664271 0.234012 0.000000
0.682124 0.248386 0.000000
0.698970 0.264286 0.000000
0.714931 0.281651 0.000000
0.730282 0.300267 0.000000
0.745571 0.320226 0.021576
0.761288 0.342107 0.060029
0.777157 0.365454 0.081605
0.793362 0.390051 0.102235
0.810086 0.415839 0.124056
0.827359 0.442756 0.148989
0.845090 0.470863 0.178134
0.863035 0.500053 0.212802
0.881346 0.529717 0.251316
0.093172 0.133028 0.115602
0.095735 0.135836 0.117891
0.099489 0.139620 0.121370
0.108583 0.148562 0.130129
0.120699 0.159579 0.138857
0.134615 0.171572 0.144564
0.144808 0.169284 0.138613
0.149660 0.156954 0.129458
0.184939 0.162387 0.117525
0.287999 0.197238 0.089326
0.386236 0.221317 0.053010
0.462470 0.239048 0.000000
0.514366 0.243565 0.000000
0.552239 0.242741 0.000000
0.585901 0.244388 0.000000
0.615076 0.247501 0.000000
0.640528 0.252171 0.000000
0.660060 0.258244 0.000000
0.676326 0.266148 0.000000
0.692226 0.276493 0.000000
0.707362 0.288762 0.000000
0.721920 0.302678 0.000000
0.736416 0.318578 0.000000
0.751217 0.336248 0.000000
0.766201 0.355810 0.000000
0.781582 0.377050 0.044617
0.797391 0.399664 0.078645
0.813718 0.423529 0.104524
0.830655 0.448798 0.131716
0.848081 0.475135 0.161471
0.865934 0.502770 0.195712
0.883879 0.531456 0.235904
0.105623 0.161105 0.127840
0.108614 0.163973 0.130495
0.112581 0.168338 0.134463
0.122621 0.177432 0.143465
0.140230 0.192691 0.159091
0.155215 0.205905 0.165530
0.175448 0.222080 0.173220
0.182712 0.209751 0.159030
0.184085 0.190249 0.145937
0.212985 0.188113 0.132448
0.327459 0.228214 0.098238
0.437385 0.258732 0.030213
0.507530 0.278294 0.000000
0.566888 0.300145 0.000000
0.598322 0.298619 0.000000
0.625360 0.298802 0.000000
0.649012 0.299992 0.000000
0.669551 0.302251 0.000000
0.687678 0.305364 0.000000
0.703487 0.310246 0.000000
0.717006 0.318303 0.000000
0.730282 0.328496 0.000000
0.743984 0.341314 0.000000
0.757992 0.356298 0.000000
0.772396 0.373144 0.000000
0.787259 0.391821 0.000000
0.802579 0.412085 0.015351
0.818357 0.433753 0.074952
0.834928 0.456764 0.107332
0.851926 0.481270 0.140078
0.869383 0.507042 0.176181
0.887083 0.534173 0.216678
0.122621 0.196231 0.143862
0.125856 0.199344 0.147005
0.130556 0.203677 0.151064
0.141421 0.213382 0.160708
0.160098 0.228916 0.176822
0.181277 0.246281 0.190677
0.203616 0.264958 0.200198
0.224735 0.275700 0.202335
0.229343 0.257145 0.183536
0.225193 0.229038 0.165530
0.244053 0.216403 0.150271
0.365087 0.260410 0.112093
0.475959 0.295689 0.037964
0.546715 0.319829 0.000000
0.599390 0.342107 0.000000
0.636378 0.354559 0.000000
0.658350 0.352392 0.000000
0.677363 0.350713 0.000000
0.694331 0.350652 0.000000
0.709987 0.351537 0.000000
0.725032 0.354498 0.000000
0.739834 0.359106 0.000000
0.752560 0.368109 0.000000
0.765560 0.379522 0.000000
0.779232 0.393194 0.000000
0.793423 0.409064 0.000000
0.808194 0.426520 0.000000
0.823606 0.445716 0.000000
0.839658 0.466621 0.069551
0.856382 0.488930 0.111391
0.873625 0.512779 0.150454
0.891081 0.538201 0.193332
0.144259 0.237491 0.163546
0.147768 0.240635 0.166690
0.153262 0.245457 0.171145
0.164767 0.255283 0.181003
0.184482 0.271061 0.197299
0.212894 0.292760 0.219638
0.236423 0.311986 0.230411
0.266606 0.334997 0.243687
0.282628 0.333959 0.236240
0.283818 0.309148 0.211093
0.273411 0.273136 0.188327
0.277470 0.246830 0.170871
0.401038 0.294713 0.131014
0.506523 0.332006 0.069398
0.578546 0.360052 0.000000
0.625544 0.381231 0.000000
0.663752 0.400641 0.000000
0.684627 0.400702 0.000000
0.700343 0.396796 0.000000
0.715175 0.394903 0.000000
0.729519 0.394934 0.000000
0.744106 0.397192 0.000000
0.758846 0.401465 0.000000
0.773770 0.407538 0.000000
0.787411 0.417365 0.000000
0.800839 0.429664 0.000000
0.814878 0.444099 0.000000
0.829679 0.460365 0.000000
0.845151 0.478431 0.000000
0.861418 0.498207 0.061189
0.878172 0.519829 0.115633
0.895293 0.543084 0.163394
0.171572 0.285801 0.186954
0.175631 0.289006 0.190158
0.181064 0.293675 0.194736
0.193515 0.303380 0.204807
0.213993 0.318608 0.221317
0.243931 0.339055 0.245304
0.273777 0.359930 0.264744
0.303563 0.381567 0.279301
0.338445 0.406012 0.296818
0.342901 0.390509 0.274968
0.341131 0.362615 0.243778
0.326116 0.320531 0.214664
0.319646 0.284886 0.197299
0.442878 0.336339 0.155978
0.540948 0.375433 0.098634
0.613123 0.406348 0.000000
0.654139 0.425055 0.000000
0.686732 0.440467 0.000000
0.711696 0.450507 0.000000
0.725185 0.445075 0.000000
0.738796 0.442329 0.000000
0.752590 0.441871 0.000000
0.766506 0.443336 0.000000
0.780728 0.446754 0.000000
0.795377 0.451911 0.000000
0.810483 0.458473 0.000000
0.824857 0.467903 0.000000
0.838743 0.480781 0.000000
0.853452 0.495705 0.000000
0.868864 0.512383 0.000000
0.884977 0.530907 0.059693
0.901488 0.551476 0.125551
0.206302 0.340826 0.215457
0.210544 0.343877 0.218875
0.216434 0.347936 0.223697
0.229282 0.356268 0.233860
0.250492 0.369879 0.250858
0.280156 0.387549 0.274784
0.316228 0.408667 0.303593
0.343359 0.427832 0.317937
0.376104 0.450416 0.335576
0.408850 0.471168 0.351446
0.405158 0.447395 0.319585
0.399908 0.417273 0.283299
0.381567 0.371984 0.247623
0.361303 0.322576 0.219333
0.468025 0.366644 0.180758
0.560174 0.406653 0.128878
0.628534 0.437018 0.006500
0.670192 0.454963 0.000000
0.699794 0.468055 0.000000
0.725338 0.479835 0.000000
0.743771 0.483528 0.000000
0.757046 0.480751 0.000000
0.770504 0.479957 0.000000
0.784268 0.481178 0.000000
0.798428 0.484199 0.000000
0.813046 0.488685 0.000000
0.828183 0.494636 0.000000
0.843839 0.501732 0.000000
0.859648 0.511101 0.000000
0.874571 0.525017 0.000000
0.890196 0.540856 0.000000
0.906371 0.558801 0.037629
0.244236 0.391089 0.245914
0.248631 0.393774 0.249607
0.254551 0.397162 0.254276
0.267491 0.404547 0.264836
0.288182 0.416083 0.281773
0.316228 0.431342 0.304631
0.351141 0.450446 0.333715
0.381933 0.469612 0.355322
0.410895 0.489204 0.372045
0.442573 0.510491 0.391241
0.461860 0.517449 0.393927
0.455634 0.492927 0.359014
0.448127 0.462440 0.320287
0.426276 0.414984 0.279545
0.401770 0.361242 0.244236
0.490944 0.395941 0.207004
0.576806 0.435248 0.159152
0.640497 0.464057 0.093416
0.683955 0.481605 0.000000
0.711727 0.493385 0.000000
0.737148 0.505272 0.000000
0.761227 0.518181 0.000000
0.775113 0.516869 0.000000
0.788388 0.516045 0.000000
0.802090 0.517113 0.000000
0.816220 0.519646 0.000000
0.830900 0.523735 0.000000
0.846128 0.529015 0.000000
0.862058 0.535729 0.000000
0.878721 0.543694 0.000000
0.895964 0.553124 0.000000
0.911742 0.568261 0.000000
0.287114 0.439185 0.280858
0.291630 0.441566 0.284398
0.297002 0.444373 0.288823
0.309636 0.450874 0.299260
0.328801 0.460731 0.315190
0.354070 0.473579 0.336461
0.385046 0.489418 0.362921
0.418433 0.506920 0.391363
0.443275 0.523369 0.406683
0.470161 0.541405 0.424262
0.498177 0.560479 0.443458
0.505303 0.555871 0.432197
0.497902 0.531548 0.396399
0.488746 0.501213 0.355261
0.465705 0.453956 0.311467
0.438575 0.398138 0.271092
0.510521 0.422950 0.234684
0.590936 0.461402 0.190402
0.651392 0.488746 0.136385
0.696376 0.506096 0.013458
0.723445 0.517479 0.000000
0.748836 0.529656 0.000000
0.772946 0.542412 0.000000
0.792905 0.550744 0.000000
0.806119 0.549981 0.000000
0.819760 0.550805 0.000000
0.833982 0.553155 0.000000
0.848905 0.557061 0.000000
0.864500 0.562249 0.000000
0.880827 0.568902 0.000000
0.897856 0.576684 0.000000
0.915465 0.585687 0.000000
0.331060 0.483345 0.317021
0.335302 0.485451 0.320562
0.340459 0.487892 0.324865
0.351965 0.493324 0.334539
0.369085 0.501335 0.349004
0.391852 0.512169 0.368872
0.418647 0.524956 0.392645
0.448737 0.539910 0.420386
0.474159 0.555047 0.440742
0.496803 0.570367 0.456519
0.520439 0.586664 0.473487
0.544366 0.603296 0.491676
0.541283 0.588617 0.467140
0.532647 0.564080 0.430121
0.522271 0.534081 0.387701
0.498848 0.487861 0.341833
0.470954 0.432258 0.297765
0.527001 0.447547 0.262730
0.603815 0.485786 0.222660
0.661433 0.512047 0.175692
0.704707 0.528679 0.112795
0.735561 0.541161 0.048249
0.760983 0.553674 0.000000
0.785245 0.566400 0.000000
0.808347 0.579217 0.000000
0.824155 0.582452 0.000000
0.837919 0.583276 0.000000
0.852262 0.585504 0.000000
0.867277 0.589166 0.000000
0.883024 0.594141 0.000000
0.899382 0.600397 0.000000
0.916411 0.607904 0.000000
0.372992 0.521416 0.352331
0.376226 0.522820 0.355138
0.380713 0.524743 0.359045
0.390784 0.529107 0.367742
0.405524 0.535607 0.380896
0.425238 0.544427 0.398657
0.448157 0.554986 0.420050
0.473793 0.567529 0.444739
0.500053 0.581567 0.470375
0.519310 0.594720 0.484291
0.539513 0.608545 0.499702
0.559991 0.622583 0.516014
0.577142 0.633021 0.527855
0.569787 0.614679 0.496559
0.561334 0.591455 0.460060
0.550713 0.562554 0.417914
0.527703 0.518242 0.371283
0.500175 0.464424 0.325048
0.542199 0.470558 0.290349
0.616022 0.508629 0.255253
0.670802 0.533928 0.214115
0.712642 0.550134 0.163516
0.747219 0.563378 0.103609
0.772702 0.576287 0.081697
0.797147 0.589136 0.037995
0.820401 0.601678 0.000000
0.841642 0.612207 0.000000
0.855436 0.613123 0.000000
0.869871 0.615351 0.000000
0.885069 0.619043 0.000000
0.900938 0.623987 0.010132
0.917388 0.630304 0.060121
0.411566 0.554467 0.386297
0.414771 0.555840 0.389136
0.425727 0.563287 0.399207
0.434211 0.566796 0.406897
0.446754 0.572107 0.418769
0.462715 0.579095 0.434058
0.481758 0.587793 0.452949
0.503075 0.598077 0.474617
0.526207 0.609705 0.498939
0.545159 0.621088 0.516289
0.561944 0.632319 0.529931
0.579065 0.643793 0.544488
0.596002 0.655238 0.559594
0.603845 0.656825 0.558953
0.596643 0.639704 0.527947
0.588586 0.618280 0.491859
0.578729 0.591455 0.450202
0.556390 0.549157 0.403326
0.529320 0.497383 0.354803
0.559380 0.495155 0.320043
0.629145 0.532250 0.290074
0.680842 0.556420 0.254704
0.721798 0.572747 0.211398
0.759274 0.586603 0.149844
0.785702 0.599512 0.130770
0.810025 0.612116 0.114931
0.833219 0.624140 0.099001
0.855375 0.635523 0.080629
0.872770 0.641230 0.080751
0.887266 0.643610 0.095308
0.902434 0.647333 0.109865
0.917998 0.652277 0.125978
0.448981 0.585443 0.420691
0.452125 0.587060 0.423804
0.456397 0.589197 0.427863
0.464149 0.592767 0.435462
0.475410 0.597864 0.446632
0.489174 0.603998 0.460639
0.505425 0.611292 0.477424
0.523644 0.619684 0.496712
0.543633 0.629297 0.518547
0.563348 0.639429 0.540215
0.577874 0.649042 0.552605
0.592645 0.658869 0.565759
0.607385 0.668818 0.579187
0.621973 0.678981 0.592615
0.623041 0.673976 0.581842
0.616052 0.657862 0.552209
0.608637 0.638148 0.516930
0.599756 0.613458 0.476387
0.579400 0.574273 0.430640
0.553491 0.525078 0.381781
0.573053 0.515435 0.346502
0.639551 0.551904 0.321080
0.688808 0.575463 0.290898
0.729732 0.592920 0.254246
0.767758 0.607813 0.203708
0.797910 0.620783 0.169039
0.822538 0.633509 0.160037
0.845884 0.645502 0.152743
0.868223 0.656703 0.145480
0.889311 0.667414 0.141817
0.904082 0.670527 0.156954
0.918700 0.674006 0.172213
0.479988 0.611414 0.451179
0.482612 0.612848 0.453956
0.486366 0.614618 0.457710
0.492744 0.617517 0.464363
0.502190 0.621546 0.474128
0.513878 0.626581 0.486549
0.527855 0.632563 0.501579
0.543389 0.639490 0.518791
0.560693 0.647425 0.538384
0.578790 0.656092 0.559533
0.593439 0.664698 0.574640
0.606134 0.673243 0.586175
0.619074 0.682307 0.597925
0.632288 0.691859 0.609796
0.645563 0.701808 0.621485
0.640772 0.690425 0.602564
0.633570 0.674617 0.575219
0.626612 0.656275 0.541466
0.618738 0.633722 0.501976
0.600336 0.597589 0.457588
0.576318 0.551598 0.408881
0.586725 0.535393 0.372747
0.649775 0.570855 0.352117
0.696803 0.594018 0.326787
0.738155 0.612818 0.295232
0.776761 0.628717 0.252384
0.810636 0.641749 0.205783
0.835386 0.654536 0.202090
0.858976 0.666499 0.199191
0.881315 0.677760 0.198947
0.902281 0.688380 0.201816
0.919371 0.695186 0.210758
0.507988 0.634455 0.480354
0.510430 0.635706 0.482948
0.513390 0.637110 0.486152
0.518853 0.639490 0.492103
0.526848 0.642786 0.500786
0.536889 0.646906 0.511894
0.548760 0.651789 0.525200
0.562402 0.657588 0.540826
0.577234 0.664118 0.558343
0.592828 0.671382 0.577081
0.608087 0.679438 0.595117
0.619379 0.687434 0.605188
0.630976 0.695949 0.615503
0.642878 0.705013 0.625971
0.655146 0.714412 0.636408
0.665064 0.721096 0.642847
0.658076 0.707118 0.622034
0.650721 0.691402 0.596887
0.643458 0.673671 0.566003
0.636652 0.653346 0.528649
0.620447 0.620661 0.486061
0.599115 0.578485 0.438209
0.602045 0.556847 0.400916
0.661097 0.590875 0.384771
0.706905 0.614466 0.364416
0.748898 0.634607 0.337957
0.787991 0.651606 0.302739
0.824430 0.664820 0.253513
0.850614 0.677363 0.246586
0.874205 0.689387 0.249454
0.896025 0.700221 0.254185
0.915618 0.709865 0.260807
0.535973 0.656794 0.511070
0.537743 0.657588 0.513024
0.539818 0.658412 0.515343
0.544213 0.660182 0.520409
0.550774 0.662745 0.527855
0.559380 0.665980 0.537682
0.569482 0.669978 0.549584
0.581140 0.674800 0.563500
0.594049 0.680568 0.578943
0.607752 0.687312 0.595422
0.621942 0.695125 0.612543
0.633692 0.703090 0.624537
0.644099 0.711116 0.633600
0.654932 0.719631 0.642756
0.666102 0.728389 0.652094
0.677760 0.737423 0.661921
0.682551 0.738155 0.660822
0.675532 0.724300 0.640772
0.668055 0.708766 0.617639
0.660182 0.691066 0.589136
0.652705 0.671260 0.554314
0.638087 0.641230 0.513085
0.618860 0.602289 0.466041
0.615137 0.575799 0.427161
0.670832 0.608637 0.415106
0.716487 0.633173 0.398901
0.758999 0.654536 0.377111
0.798489 0.672419 0.348608
0.835477 0.686244 0.308385
0.865049 0.698238 0.287724
0.887877 0.709743 0.294285
0.908537 0.720211 0.303502
0.559014 0.674830 0.537621
0.560540 0.675471 0.539361
0.562463 0.676234 0.541588
0.566278 0.677668 0.546136
0.571893 0.679805 0.552758
0.579217 0.682643 0.561456
0.587976 0.686213 0.571893
0.598047 0.690669 0.583917
0.609216 0.696040 0.597345
0.621210 0.702388 0.611688
0.633783 0.709621 0.626642
0.646479 0.717678 0.641138
0.655909 0.725154 0.649195
0.665919 0.733089 0.657740
0.676478 0.741299 0.666743
0.687373 0.749752 0.676204
0.698634 0.758297 0.685939
0.698695 0.753780 0.677790
0.691859 0.740383 0.657740
0.684504 0.725216 0.635889
0.676570 0.708064 0.610101
0.668482 0.688777 0.578302
0.653986 0.660243 0.539605
0.637110 0.624933 0.494087
0.627710 0.593835 0.452583
0.680476 0.625849 0.444404
0.726741 0.652003 0.432593
0.769741 0.674434 0.415686
0.809781 0.693111 0.393378
0.846738 0.707424 0.362402
0.878813 0.718074 0.328222
0.900725 0.729671 0.340276
0.582055 0.693019 0.564935
0.583520 0.693660 0.566644
0.585077 0.694392 0.568505
0.588220 0.695705 0.572290
0.592950 0.697566 0.577813
0.599084 0.700191 0.585199
0.606439 0.703517 0.593988
0.615015 0.707576 0.604211
0.624659 0.712520 0.615717
0.635096 0.718257 0.628138
0.646143 0.724849 0.641047
0.658015 0.732296 0.654932
0.668269 0.739590 0.665309
0.677516 0.746761 0.673274
0.687129 0.754208 0.681697
0.697169 0.761776 0.690425
0.707576 0.769589 0.699580
0.718288 0.777462 0.709010
0.713985 0.768338 0.694118
0.707393 0.755520 0.674311
0.700374 0.741024 0.652796
0.692531 0.724514 0.628779
0.684199 0.705837 0.599847
0.669215 0.678309 0.564385
0.653040 0.645075 0.520653
0.644953 0.616938 0.481636
0.691951 0.644709 0.475196
0.738796 0.672206 0.467414
0.782284 0.695796 0.455940
0.821775 0.714351 0.439673
0.857755 0.728695 0.417243
0.890074 0.739620 0.388464
0.601312 0.709651 0.587701
0.602441 0.710262 0.589014
0.603845 0.710933 0.590692
0.606561 0.712154 0.593927
0.610681 0.714015 0.598871
0.615991 0.716457 0.605219
0.622492 0.719631 0.612909
0.629938 0.723476 0.621851
0.638514 0.728084 0.631922
0.647883 0.733577 0.642939
0.658076 0.739742 0.654902
0.669368 0.746670 0.668238
0.680995 0.754055 0.681849
0.689693 0.760739 0.689540
0.698787 0.767605 0.697627
0.708248 0.774655 0.706020
0.718044 0.781857 0.714748
0.728115 0.789120 0.723690
0.736294 0.794247 0.729549
0.730282 0.783627 0.712062
0.724025 0.771603 0.692683
0.717311 0.757870 0.671290
0.709834 0.742184 0.647852
0.701381 0.724178 0.621515
0.686397 0.698024 0.589746
0.670375 0.666865 0.549676
0.662959 0.640986 0.512779
0.705562 0.665431 0.507622
0.752834 0.694270 0.504479
0.795804 0.717647 0.497292
0.834653 0.736538 0.488075
0.869230 0.751675 0.476844
0.619654 0.726864 0.609186
0.620600 0.727413 0.610315
0.621729 0.727962 0.611688
0.624079 0.729061 0.614405
0.627466 0.730709 0.618524
0.632013 0.732998 0.623987
0.637720 0.735897 0.630701
0.644343 0.739528 0.638544
0.651942 0.743801 0.647456
0.660639 0.748806 0.657710
0.670283 0.754513 0.669184
0.680873 0.760861 0.681849
0.692256 0.767758 0.695460
0.702083 0.774441 0.705898
0.710567 0.780697 0.713497
0.719448 0.787167 0.721431
0.728573 0.793698 0.729610
0.738033 0.800412 0.738003
0.747707 0.807187 0.746639
0.751736 0.807980 0.746242
0.745998 0.798123 0.729488
0.740139 0.786862 0.710780
0.733822 0.774044 0.689876
0.727016 0.759457 0.666926
0.718959 0.742428 0.641779
0.704402 0.717922 0.613519
0.688777 0.689143 0.578149
0.681880 0.665736 0.545129
0.719936 0.686549 0.539879
0.767025 0.715724 0.540490
0.809567 0.739498 0.539239
0.847166 0.759060 0.538231
0.636255 0.743740 0.628504
0.637018 0.744167 0.629450
0.638087 0.744717 0.630701
0.640070 0.745754 0.633051
0.643244 0.747402 0.636744
0.647364 0.749660 0.641627
0.652644 0.752560 0.647852
0.659052 0.756130 0.655451
0.666499 0.760372 0.664332
0.674891 0.765225 0.674464
0.684291 0.770687 0.685786
0.694514 0.776699 0.698177
0.705531 0.783200 0.711421
0.716915 0.789975 0.725002
0.725002 0.795804 0.732326
0.733303 0.801663 0.739803
0.741939 0.807675 0.747402
0.750729 0.813718 0.755215
0.759792 0.819852 0.763149
0.768978 0.826017 0.771176
0.769192 0.823239 0.765347
0.763882 0.814237 0.749691
0.758419 0.803983 0.731960
0.752773 0.792325 0.712093
0.746731 0.779019 0.689906
0.739559 0.763363 0.665431
0.725734 0.740475 0.638880
0.710689 0.714046 0.608179
0.704189 0.693416 0.580133
0.738552 0.711574 0.576501
0.785367 0.740841 0.581537
0.826749 0.764797 0.586633
0.653864 0.762417 0.648798
0.654475 0.762814 0.649592
0.655390 0.763272 0.650660
0.657191 0.764157 0.652796
0.659937 0.765560 0.656092
0.663752 0.767544 0.660731
0.668574 0.770016 0.666499
0.674434 0.773129 0.673548
0.681270 0.776761 0.681788
0.689052 0.781003 0.691279
0.697719 0.785733 0.701778
0.707210 0.790982 0.713283
0.717433 0.796689 0.725643
0.728359 0.802823 0.738705
