data/fiter_cube/25649002/1023277/file.cube
# Created by Adobe Lightroom plugin Export LUT (1.17.0)
# www.johnrellis.com/lightroom/exportlut.htm
# Preset: 高级电影质感情绪胶片_07 云集
# Color profile: C:\Program Files (x86)\Common Files\Adobe\Color\Profiles\Recommended\AdobeRGB1998.icc
LUT_3D_SIZE 8
DOMAIN_MIN 0.000000 0.000000 0.000000
DOMAIN_MAX 0.903226 0.903226 0.903226
0.068147 0.076265 0.088075
0.093568 0.081971 0.090425
0.210239 0.092409 0.091035
0.407599 0.077974 0.080690
0.569940 0.107271 0.068116
0.673457 0.201846 0.073518
0.744045 0.302464 0.109010
0.814572 0.421363 0.179782
0.075105 0.089204 0.096407
0.086885 0.094942 0.100191
0.258000 0.126284 0.079896
0.451637 0.117128 0.059907
0.590997 0.147829 0.024506
0.681178 0.223301 0.035889
0.747829 0.312902 0.089631
0.817197 0.425086 0.163668
0.105623 0.161105 0.127840
0.140230 0.192691 0.159091
0.184085 0.190249 0.145937
0.507530 0.278294 0.000000
0.649012 0.299992 0.000000
0.717006 0.318303 0.000000
0.772396 0.373144 0.000000
0.834928 0.456764 0.107332
0.206302 0.340826 0.215457
0.250492 0.369879 0.250858
0.376104 0.450416 0.335576
0.381567 0.371984 0.247623
0.628534 0.437018 0.006500
0.743771 0.483528 0.000000
0.798428 0.484199 0.000000
0.859648 0.511101 0.000000
0.372992 0.521416 0.352331
0.405524 0.535607 0.380896
0.500053 0.581567 0.470375
0.577142 0.633021 0.527855
0.527703 0.518242 0.371283
0.670802 0.533928 0.214115
0.797147 0.589136 0.037995
0.869871 0.615351 0.000000
0.507988 0.634455 0.480354
0.526848 0.642786 0.500786
0.577234 0.664118 0.558343
0.630976 0.695949 0.615503
0.658076 0.707118 0.622034
0.620447 0.620661 0.486061
0.706905 0.614466 0.364416
0.850614 0.677363 0.246586
0.601312 0.709651 0.587701
0.610681 0.714015 0.598871
0.638514 0.728084 0.631922
0.680995 0.754055 0.681849
0.718044 0.781857 0.714748
0.724025 0.771603 0.692683
0.686397 0.698024 0.589746
0.752834 0.694270 0.504479
0.669429 0.778988 0.667018
0.675257 0.781827 0.674067
0.695430 0.791989 0.698665
0.729854 0.810178 0.740322
0.763790 0.829648 0.775570
0.795712 0.850156 0.803098
0.789639 0.831846 0.767391
0.764675 0.779171 0.683192
0.070680 0.082155 0.104219
0.098878 0.081361 0.109987
0.181430 0.109895 0.125307
0.383001 0.118074 0.126650
0.552422 0.145083 0.124117
0.658747 0.220523 0.129885
0.733669 0.313603 0.155123
0.805692 0.427619 0.216770
0.074952 0.094392 0.105165
0.095369 0.109041 0.122499
0.234653 0.129397 0.118624
0.427527 0.138705 0.113985
0.575250 0.171695 0.110658
0.669490 0.240116 0.116609
0.738338 0.323644 0.142580
0.808499 0.430610 0.202518
0.108156 0.166140 0.137484
0.147127 0.200717 0.175082
0.202579 0.213474 0.179263
0.510460 0.287510 0.068635
0.639063 0.298283 0.000000
0.706355 0.322911 0.017029
0.761868 0.376318 0.091279
0.826017 0.459449 0.160891
0.209659 0.340795 0.226383
0.255711 0.370672 0.264134
0.382025 0.450568 0.355932
0.387030 0.381689 0.274205
0.627008 0.441505 0.103243
0.734432 0.477272 0.000000
0.790402 0.479835 0.000000
0.852049 0.511315 0.000000
0.375952 0.520195 0.361181
0.406287 0.533532 0.387518
0.496773 0.577356 0.472450
0.576928 0.631952 0.536736
0.527672 0.521050 0.386297
0.670710 0.538598 0.239384
0.794675 0.591608 0.125734
0.865690 0.614343 0.107851
0.505913 0.631495 0.481666
0.522423 0.638209 0.499214
0.572351 0.659754 0.555016
0.628412 0.692439 0.615747
0.658717 0.707912 0.627863
0.620844 0.622889 0.495644
0.707668 0.617792 0.377447
0.848783 0.679103 0.272984
0.597803 0.706386 0.585199
0.606378 0.709957 0.595361
0.634577 0.724300 0.628717
0.677852 0.750881 0.679438
0.716579 0.780087 0.714961
0.724086 0.771969 0.695979
0.685267 0.697627 0.592432
0.752224 0.694118 0.506981
0.666743 0.776761 0.664729
0.672694 0.779812 0.671901
0.692927 0.790127 0.696498
0.727596 0.808499 0.738277
0.764920 0.830411 0.777951
0.796323 0.850492 0.804746
0.790249 0.832609 0.769986
0.764096 0.778988 0.684474
0.062837 0.097688 0.170657
0.091890 0.092592 0.195651
0.269963 0.076875 0.210025
0.307622 0.203983 0.233402
0.489052 0.230686 0.244755
0.622492 0.289006 0.254429
0.710048 0.366339 0.274968
0.786709 0.464210 0.326665
0.094057 0.134676 0.171756
0.105470 0.139406 0.202243
0.267033 0.141360 0.223209
0.325841 0.226535 0.246616
0.516838 0.245548 0.243931
0.635187 0.301732 0.249454
0.715724 0.373816 0.268498
0.790585 0.467811 0.318944
0.109590 0.190738 0.184237
0.141390 0.210056 0.204593
0.250492 0.274846 0.272435
0.482765 0.300603 0.238041
0.600092 0.324193 0.231601
0.677974 0.361608 0.232517
0.739712 0.412909 0.249149
0.807675 0.488655 0.294072
0.198245 0.332982 0.236179
0.242039 0.362402 0.272679
0.384222 0.447059 0.388037
0.424292 0.429725 0.360113
0.637415 0.479957 0.246433
0.720851 0.487129 0.219699
0.779782 0.492195 0.200168
0.837034 0.532586 0.237949
0.359869 0.509270 0.362341
0.394476 0.524773 0.391669
0.487404 0.570245 0.475990
0.577356 0.629053 0.557458
0.544457 0.547387 0.446021
0.681086 0.566033 0.324620
0.794736 0.610803 0.263005
0.857786 0.619959 0.251926
0.497749 0.625513 0.482551
0.516045 0.632929 0.501549
0.566735 0.654841 0.556268
0.626551 0.687770 0.623438
0.666285 0.716640 0.651484
0.624994 0.633173 0.528618
0.713802 0.632868 0.422736
0.847929 0.690547 0.357153
0.593561 0.703029 0.585534
0.602564 0.706874 0.596033
0.630121 0.720577 0.627924
0.671901 0.746151 0.676051
0.715206 0.777707 0.719570
0.729519 0.778408 0.713069
0.688533 0.704250 0.610895
0.759609 0.705165 0.531579
0.661494 0.773495 0.661738
0.666651 0.776028 0.667781
0.686732 0.786221 0.691768
0.721981 0.805142 0.733822
0.763699 0.828794 0.780026
0.796536 0.850309 0.808164
0.794003 0.836759 0.780789
0.766171 0.782467 0.693996
0.000000 0.137942 0.299290
0.071992 0.136995 0.324987
0.293004 0.068330 0.402594
0.508263 0.128267 0.366766
0.503014 0.293217 0.348119
0.524987 0.364050 0.373388
0.654658 0.417578 0.393317
0.746151 0.500145 0.438666
0.110933 0.198947 0.307408
0.113710 0.189517 0.332280
0.287205 0.155093 0.405280
0.505730 0.202640 0.379126
0.493141 0.321294 0.359564
0.544976 0.373236 0.377386
0.663111 0.425086 0.393591
0.751217 0.503014 0.435218
0.154086 0.276707 0.307927
0.188937 0.291447 0.324132
0.286412 0.327489 0.392554
0.477455 0.354559 0.407843
0.481819 0.397589 0.399329
0.607752 0.417792 0.392401
0.693599 0.460670 0.399298
0.771908 0.522271 0.428626
0.200473 0.364324 0.320134
0.235477 0.378454 0.336492
0.344152 0.425208 0.390784
0.467567 0.488716 0.462867
0.615534 0.504936 0.419440
0.679805 0.504845 0.401099
0.736812 0.518547 0.392676
0.804105 0.557916 0.407691
0.326696 0.492012 0.361547
0.360937 0.502586 0.384100
0.454810 0.547753 0.461524
0.563653 0.612238 0.564965
0.566400 0.582086 0.519799
0.692683 0.603723 0.442115
0.778042 0.620386 0.411597
0.842557 0.623529 0.383856
0.478065 0.613062 0.477638
0.497658 0.621607 0.496376
0.550011 0.644160 0.548791
0.614771 0.677668 0.619257
0.671778 0.722560 0.675135
0.633570 0.650965 0.577050
0.727810 0.659236 0.490242
0.848478 0.706996 0.455604
0.580957 0.694667 0.579614
0.590539 0.698695 0.590265
0.619135 0.712703 0.622248
0.660517 0.737972 0.668482
0.711452 0.772885 0.724483
0.740902 0.791104 0.742061
0.693904 0.714137 0.636378
0.771908 0.720882 0.564660
0.654078 0.768734 0.659083
0.659358 0.771511 0.665095
0.676967 0.780728 0.685145
0.709529 0.798093 0.722805
0.756161 0.823636 0.775814
0.795285 0.848905 0.811673
0.800687 0.843992 0.798245
0.769131 0.787625 0.708644
0.025666 0.209384 0.440925
0.105989 0.209842 0.456916
0.269780 0.194156 0.506737
0.519158 0.150607 0.546868
0.636835 0.305638 0.504112
0.625208 0.409796 0.467231
0.608637 0.468818 0.475990
0.682368 0.542504 0.528069
0.152346 0.268132 0.443549
0.159396 0.258549 0.459113
0.282902 0.248020 0.506157
0.517418 0.219364 0.550195
0.633112 0.342901 0.510063
0.619287 0.426246 0.472297
0.602472 0.477150 0.480079
0.688716 0.545190 0.528466
0.245640 0.351171 0.416846
0.271458 0.366278 0.435798
0.327520 0.380346 0.495460
0.507042 0.366400 0.558556
0.621546 0.439277 0.527489
0.597101 0.470954 0.486915
0.604059 0.499092 0.491707
0.709957 0.554314 0.527703
0.275120 0.446509 0.444465
0.302892 0.454658 0.453346
0.386267 0.480812 0.482368
0.485939 0.519341 0.541314
0.585595 0.536645 0.544671
0.582849 0.530724 0.517815
0.666773 0.539605 0.509789
0.749203 0.575189 0.522301
0.339544 0.512444 0.448890
0.362646 0.519341 0.458686
0.431861 0.541314 0.490120
0.521477 0.581811 0.542687
0.587060 0.615351 0.587579
0.679957 0.620203 0.550652
0.735897 0.611810 0.524041
0.801450 0.624445 0.514000
0.444923 0.596887 0.479866
0.460945 0.602502 0.490272
0.509850 0.619684 0.524407
0.582238 0.653376 0.592584
0.649165 0.697780 0.663966
0.642329 0.668635 0.622095
0.748684 0.690303 0.564263
0.841764 0.712184 0.542657
0.558160 0.680079 0.565972
0.567498 0.683497 0.575586
0.596765 0.696132 0.606195
0.637934 0.720058 0.650446
0.690059 0.755184 0.707790
0.748745 0.799832 0.766354
0.700099 0.725246 0.663935
0.791135 0.739651 0.600732
0.639124 0.757778 0.650202
0.644038 0.760342 0.655543
0.660975 0.769406 0.674098
0.691188 0.786709 0.707546
0.734340 0.811063 0.755306
0.788449 0.843259 0.810819
0.810788 0.854246 0.821042
0.771756 0.793149 0.725856
0.195590 0.308690 0.555749
0.224216 0.309545 0.564752
0.324315 0.305028 0.593988
0.500389 0.277653 0.637995
0.641444 0.328893 0.639734
0.702632 0.453681 0.598718
0.703273 0.522576 0.574029
0.708492 0.579889 0.590387
0.245853 0.351843 0.552941
0.255802 0.345708 0.561791
0.337469 0.342199 0.590356
0.496956 0.321874 0.634058
0.639643 0.360266 0.641596
0.699825 0.471015 0.601343
0.699519 0.529992 0.575616
0.704921 0.582208 0.590448
0.334234 0.438697 0.535637
0.350408 0.445136 0.547234
0.381323 0.439857 0.581353
0.492287 0.436439 0.625238
0.631434 0.451514 0.646418
0.692775 0.525261 0.613031
0.687617 0.555047 0.582513
0.693324 0.591730 0.592584
0.370031 0.498695 0.527428
0.386999 0.503166 0.532036
0.440223 0.518975 0.548760
0.503868 0.546563 0.608881
0.618189 0.553155 0.653254
0.680964 0.591516 0.630091
0.666865 0.587213 0.591943
0.669001 0.608087 0.597864
0.402472 0.574304 0.551049
0.417853 0.577569 0.555688
0.464942 0.588708 0.571160
0.529595 0.606714 0.596094
0.594598 0.631891 0.638422
0.651820 0.638575 0.636316
0.641077 0.616358 0.601953
0.725887 0.632288 0.607080
0.456580 0.614282 0.550469
0.469062 0.617700 0.556085
0.506706 0.627741 0.573541
0.559533 0.644038 0.601495
0.614862 0.670130 0.639246
0.658473 0.693690 0.671412
0.743862 0.699367 0.640803
0.805905 0.693965 0.617212
0.538781 0.673854 0.579614
0.547448 0.676448 0.585504
0.572900 0.684718 0.603326
0.608270 0.699855 0.630335
0.657923 0.729397 0.679561
0.724269 0.776699 0.751492
0.711208 0.742824 0.702327
0.820615 0.764889 0.651759
0.618952 0.744167 0.638788
0.623835 0.745754 0.642908
0.639765 0.754452 0.659541
0.667811 0.770626 0.689479
0.708370 0.794369 0.733181
0.764309 0.827420 0.791562
0.822629 0.865263 0.844938
0.777157 0.802426 0.750912
0.339086 0.422980 0.645472
0.356786 0.425055 0.651331
0.411444 0.422919 0.666621
0.508385 0.415320 0.692744
0.639918 0.399664 0.727260
0.707301 0.476875 0.699275
0.762875 0.557733 0.681209
0.782406 0.613153 0.672328
0.354498 0.443122 0.638911
0.365423 0.441962 0.644892
0.414343 0.440284 0.660670
0.504509 0.433204 0.686641
0.633600 0.415747 0.722652
0.701747 0.483101 0.695460
0.757443 0.559014 0.677180
0.776181 0.610834 0.667170
0.423804 0.516930 0.630030
0.435248 0.520104 0.636530
0.443519 0.504387 0.653162
0.510735 0.502586 0.679347
0.620783 0.493111 0.715450
0.698634 0.530663 0.702541
0.755367 0.590539 0.686183
0.773220 0.627436 0.673396
0.451545 0.552789 0.602075
0.459571 0.555962 0.606958
0.488991 0.570214 0.629847
0.527764 0.577722 0.666072
0.605585 0.579492 0.704555
0.699458 0.593378 0.719600
0.753201 0.631861 0.699458
0.763943 0.647120 0.677485
0.469459 0.606165 0.614496
0.476661 0.606470 0.615564
0.502434 0.609644 0.621241
0.543450 0.616938 0.632837
0.592615 0.637232 0.679774
0.683223 0.643885 0.723140
0.742184 0.666957 0.705501
0.742641 0.664851 0.675685
0.496437 0.661128 0.632837
0.503899 0.661952 0.634699
0.528527 0.664851 0.641199
0.565179 0.670466 0.652827
0.606744 0.679500 0.669520
0.658198 0.701228 0.711482
0.719448 0.707973 0.712490
0.700771 0.683864 0.673823
0.543755 0.686732 0.631373
0.550347 0.688472 0.634577
0.569055 0.692775 0.643366
0.597253 0.701320 0.658595
0.631281 0.714443 0.679347
0.678340 0.739773 0.714260
0.727169 0.766567 0.751583
0.814572 0.765438 0.716884
0.602380 0.737575 0.656977
0.606256 0.739284 0.659632
0.621576 0.747860 0.671382
0.644343 0.759365 0.688075
0.676020 0.775296 0.711910
0.726406 0.801724 0.758999
0.798978 0.846738 0.830167
0.786069 0.816526 0.785489
0.463050 0.533959 0.717922
0.470954 0.534081 0.721553
0.495644 0.529290 0.731014
0.548638 0.522881 0.750240
0.631464 0.509422 0.776669
0.725948 0.515587 0.793362
0.776974 0.574853 0.768276
0.826230 0.630030 0.753780
0.467140 0.542840 0.713436
0.473976 0.542687 0.717128
0.497414 0.538811 0.727199
0.546899 0.532158 0.746120
0.627466 0.520134 0.772976
0.722652 0.523247 0.791714
0.774136 0.578271 0.766934
0.824521 0.632288 0.753201
0.503746 0.586603 0.703365
0.504173 0.583429 0.706905
0.507225 0.570214 0.717311
0.550530 0.569757 0.739254
0.620752 0.560845 0.766476
0.716243 0.555230 0.791318
0.770321 0.598535 0.769345
0.823239 0.646723 0.756985
0.514824 0.611139 0.681605
0.521233 0.614038 0.686244
0.540490 0.620569 0.700587
0.556634 0.614008 0.725368
0.610956 0.611658 0.755581
0.704952 0.603449 0.792081
0.766598 0.630213 0.776791
0.823026 0.672511 0.765682
0.530083 0.641688 0.672023
0.534874 0.642298 0.673304
0.546929 0.641077 0.674769
0.567651 0.646754 0.692317
0.599329 0.652918 0.734096
0.673640 0.652918 0.777005
0.765560 0.664912 0.791836
0.819608 0.702419 0.774350
0.548486 0.686458 0.686366
0.551171 0.685878 0.686427
0.561364 0.684657 0.687739
0.579706 0.683772 0.691737
0.605493 0.683101 0.699275
0.649042 0.700282 0.753445
0.757137 0.717159 0.806973
0.816648 0.742916 0.788907
0.573327 0.734035 0.707820
0.575830 0.734218 0.708583
0.584802 0.735348 0.711818
0.602075 0.737514 0.718135
0.627680 0.741604 0.728634
0.664668 0.748959 0.745724
0.719051 0.766293 0.786770
0.796506 0.779416 0.794858
0.610468 0.762356 0.712856
0.612543 0.762631 0.713619
0.620691 0.764675 0.717556
0.636835 0.769558 0.726131
0.660914 0.777096 0.739345
0.694789 0.788449 0.758999
0.745266 0.809689 0.791836
0.801968 0.838529 0.832151
