data/fiter_cube/10491141/1023210/file.cube
# Created by Adobe Lightroom plugin Export LUT (1.17.0)
# www.johnrellis.com/lightroom/exportlut.htm
# Preset: 莫兰迪丛林_09 云集
# Color profile: C:\Program Files (x86)\Common Files\Adobe\Color\Profiles\Recommended\AdobeRGB1998.icc
LUT_3D_SIZE 8
DOMAIN_MIN 0.000000 0.000000 0.000000
DOMAIN_MAX 0.903226 0.903226 0.903226
0.069123 0.076112 0.088075
0.095033 0.079774 0.087465
0.222843 0.083162 0.081514
0.460670 0.000000 0.036072
0.642145 0.000000 0.000000
0.740047 0.112245 0.000000
0.808225 0.216770 0.000000
0.874937 0.315282 0.000000
0.074678 0.086519 0.095064
0.083589 0.090303 0.097658
0.228458 0.115938 0.081331
0.466346 0.081575 0.023560
0.642542 0.071992 0.000000
0.738674 0.155642 0.000000
0.807065 0.237858 0.000000
0.874083 0.328557 0.000000
0.097017 0.138552 0.119020
0.118715 0.160159 0.137697
0.156802 0.158907 0.128511
0.490089 0.237034 0.000000
0.654505 0.247745 0.000000
0.743496 0.273442 0.000000
0.811978 0.321630 0.000000
0.877501 0.385870 0.000000
0.172702 0.283238 0.187259
0.209323 0.310399 0.215610
0.318761 0.384344 0.270817
0.344091 0.312505 0.204318
0.647456 0.397955 0.000000
0.751064 0.423651 0.000000
0.814908 0.435187 0.000000
0.877958 0.468818 0.000000
0.330205 0.465583 0.304540
0.366491 0.481392 0.332097
0.465492 0.528191 0.403784
0.541222 0.561944 0.428595
0.520745 0.463416 0.314031
0.712062 0.515404 0.149050
0.812680 0.545556 0.000000
0.878538 0.565972 0.000000
0.490669 0.593042 0.433234
0.513817 0.603113 0.455116
0.574365 0.628656 0.516747
0.629541 0.661616 0.565240
0.652247 0.658717 0.546105
0.635309 0.582025 0.436713
0.760586 0.614038 0.325872
0.871397 0.645808 0.103944
0.603693 0.679988 0.551080
0.614618 0.684321 0.564019
0.646509 0.698726 0.602472
0.685481 0.724117 0.645258
0.722133 0.753567 0.677424
0.724758 0.732418 0.638331
0.707759 0.670985 0.555261
0.807523 0.702052 0.486763
0.680110 0.752956 0.642084
0.685939 0.756161 0.649317
0.706020 0.767758 0.674861
0.739773 0.788510 0.719112
0.766781 0.808042 0.745968
0.794522 0.827054 0.769406
0.792020 0.803738 0.722530
0.780362 0.756680 0.658442
0.070497 0.079988 0.100343
0.093233 0.080507 0.102480
0.210391 0.085023 0.098817
0.446967 0.000000 0.075685
0.630976 0.000000 0.000000
0.732113 0.107912 0.000000
0.802579 0.211612 0.000000
0.870909 0.310460 0.000000
0.074250 0.089174 0.099397
0.090486 0.099458 0.110292
0.223880 0.116030 0.099763
0.460151 0.084016 0.069581
0.636164 0.071565 0.000000
0.733486 0.153109 0.000000
0.802304 0.233677 0.000000
0.870054 0.323522 0.000000
0.099458 0.143313 0.126314
0.128725 0.170687 0.156130
0.168826 0.173434 0.149294
0.485451 0.238987 0.039368
0.646723 0.243473 0.000000
0.738277 0.270329 0.000000
0.806241 0.315435 0.000000
0.873320 0.380133 0.000000
0.176577 0.285008 0.196414
0.216129 0.314061 0.227726
0.325475 0.385168 0.288640
0.346593 0.317327 0.221164
0.641230 0.395911 0.000000
0.743771 0.417426 0.000000
0.808927 0.429725 0.000000
0.873899 0.465003 0.000000
0.335149 0.465644 0.313573
0.369024 0.480262 0.339208
0.466804 0.525841 0.412024
0.540734 0.560784 0.438575
0.519036 0.464179 0.325475
0.710079 0.516503 0.171786
0.809903 0.545830 0.000000
0.875792 0.564599 0.000000
0.489265 0.590265 0.435248
0.509331 0.598291 0.453986
0.569360 0.624079 0.513787
0.627314 0.658503 0.565942
0.651698 0.658381 0.551659
0.635187 0.583490 0.445014
0.760098 0.615717 0.337591
0.869474 0.646754 0.144717
0.600000 0.676875 0.548394
0.610040 0.680476 0.560143
0.642542 0.695003 0.598932
0.683436 0.721370 0.644617
0.720882 0.751919 0.677760
0.724056 0.732021 0.640620
0.706294 0.670161 0.557397
0.806332 0.701167 0.488563
0.677485 0.750637 0.639734
0.683497 0.754055 0.647150
0.703761 0.765805 0.672694
0.737697 0.786770 0.717006
0.767910 0.808988 0.748653
0.795895 0.828428 0.772793
0.792111 0.804166 0.724758
0.779721 0.756344 0.659480
0.063874 0.088075 0.145205
0.090028 0.084901 0.159579
0.223178 0.076661 0.160464
0.418219 0.023407 0.152743
0.616266 0.000000 0.126589
0.724392 0.145113 0.096712
0.797696 0.232090 0.002411
0.868132 0.320775 0.000000
0.076570 0.114046 0.149386
0.093263 0.114168 0.166445
0.220005 0.117830 0.168032
0.434821 0.101930 0.155581
0.621180 0.101656 0.127291
0.725887 0.179629 0.092988
0.798032 0.251896 0.000000
0.868162 0.333959 0.000000
0.096040 0.156252 0.148135
0.122499 0.175631 0.167544
0.210941 0.217563 0.204776
0.478767 0.240574 0.161532
0.641291 0.252750 0.128664
0.734218 0.283146 0.085420
0.803098 0.324315 0.000000
0.871214 0.383062 0.000000
0.171237 0.284337 0.206790
0.209903 0.312963 0.238132
0.344518 0.392737 0.333684
0.380346 0.353582 0.284520
0.648432 0.419989 0.159915
0.739528 0.426276 0.108339
0.806058 0.439277 0.027832
0.872435 0.470558 0.000000
0.323156 0.457832 0.317357
0.361791 0.475074 0.346593
0.472358 0.524926 0.433845
0.558160 0.575921 0.485298
0.534905 0.486854 0.376806
0.714870 0.534691 0.249241
0.808957 0.558801 0.132235
0.873167 0.569604 0.077852
0.482704 0.585534 0.438239
0.505150 0.594537 0.458778
0.565942 0.620722 0.517845
0.628077 0.656184 0.578027
0.655573 0.663386 0.576562
0.637873 0.591791 0.474250
0.761715 0.625025 0.378210
0.867643 0.655756 0.245396
0.596643 0.674586 0.549798
0.607324 0.678431 0.562036
0.639185 0.692317 0.599115
0.682551 0.718929 0.649592
0.720302 0.750484 0.683558
0.726680 0.736446 0.654475
0.708156 0.675837 0.575250
0.809934 0.708583 0.510582
0.672694 0.747494 0.636835
0.677943 0.750332 0.643091
0.698116 0.761868 0.668025
0.732815 0.783444 0.712642
0.766964 0.807614 0.751217
0.798306 0.830838 0.780606
0.793973 0.807431 0.734554
0.781155 0.759396 0.667933
0.000000 0.105318 0.242405
0.061952 0.104280 0.260136
0.246799 0.064332 0.299229
0.465309 0.000000 0.267735
0.588556 0.100587 0.246555
0.700618 0.198032 0.236790
0.780758 0.276066 0.218387
0.855985 0.351080 0.191226
0.058076 0.148165 0.252323
0.076234 0.139284 0.269139
0.253513 0.115846 0.309697
0.462470 0.116945 0.276371
0.582513 0.181674 0.265476
0.703456 0.227970 0.240238
0.781796 0.294499 0.219425
0.856809 0.361181 0.187961
0.084627 0.228519 0.255680
0.120089 0.237919 0.269108
0.239200 0.250919 0.322911
0.445777 0.260899 0.303441
0.610040 0.285405 0.282506
0.715541 0.321752 0.255406
0.789700 0.361639 0.227665
0.861997 0.406012 0.185214
0.152041 0.296818 0.244083
0.185367 0.315068 0.262058
0.313664 0.372992 0.336126
0.439124 0.410681 0.366857
0.636774 0.439582 0.308415
0.724941 0.444312 0.280461
0.795438 0.454932 0.243015
0.866728 0.478157 0.190036
0.300908 0.443244 0.320104
0.335790 0.459022 0.345159
0.443977 0.508537 0.425849
0.563073 0.577722 0.520165
0.552819 0.514824 0.441779
0.720729 0.559808 0.349584
0.799252 0.568292 0.298283
0.866941 0.576867 0.257939
0.465888 0.576013 0.437446
0.489815 0.586053 0.457832
0.552056 0.612512 0.514580
0.626490 0.651057 0.591302
0.664881 0.674922 0.613977
0.644343 0.606836 0.517784
0.767208 0.641230 0.436805
0.865232 0.667659 0.350317
0.584924 0.667964 0.545220
0.596277 0.672084 0.557488
0.629694 0.686244 0.594720
0.674647 0.712673 0.646357
0.718929 0.748135 0.691737
0.732570 0.745785 0.678584
0.710719 0.683772 0.599603
0.815427 0.718013 0.538933
0.666224 0.743130 0.634516
0.671626 0.746242 0.640803
0.689357 0.756619 0.661707
0.721584 0.776272 0.701564
0.763546 0.803983 0.753231
0.797269 0.829740 0.785061
0.797238 0.813077 0.750637
0.782986 0.763821 0.680751
0.000000 0.141146 0.373877
0.000000 0.141146 0.387884
0.235294 0.114443 0.432898
0.475074 0.027344 0.423651
0.628046 0.175265 0.392065
0.694301 0.236118 0.355566
0.750698 0.354772 0.376226
0.832242 0.422553 0.376196
0.000000 0.184573 0.379797
0.000000 0.177340 0.393225
0.239780 0.161379 0.435431
0.477760 0.135622 0.430396
0.623804 0.221347 0.398169
0.691035 0.266209 0.362493
0.752529 0.368505 0.379126
0.833494 0.430335 0.376226
0.110933 0.276646 0.368139
0.150851 0.284489 0.381933
0.251774 0.285954 0.432807
0.479377 0.286320 0.449836
0.609308 0.328496 0.416052
0.674647 0.374273 0.401831
0.758358 0.411505 0.387427
0.837644 0.454871 0.373327
0.143313 0.396460 0.386145
0.186496 0.403601 0.394965
0.309026 0.424628 0.424537
0.478004 0.444587 0.478431
0.594079 0.455177 0.451148
0.695277 0.466072 0.426093
0.770474 0.479042 0.399603
0.847898 0.495888 0.362554
0.268498 0.448646 0.360906
0.300877 0.459205 0.374914
0.399054 0.491127 0.421088
0.529442 0.548180 0.510277
0.585809 0.553368 0.503502
0.710842 0.571374 0.455360
0.782284 0.568170 0.423163
0.856443 0.573510 0.378912
0.429236 0.553094 0.424628
0.451362 0.561547 0.441505
0.515770 0.588830 0.494240
0.598108 0.629938 0.571069
0.666011 0.677882 0.638422
0.648219 0.620020 0.559319
0.776638 0.657862 0.494270
0.858701 0.669856 0.446052
0.563500 0.655726 0.534203
0.574548 0.659571 0.545068
0.608972 0.672755 0.580438
0.655268 0.697261 0.630976
0.706538 0.734463 0.688685
0.739284 0.757229 0.708125
0.712673 0.691310 0.624079
0.824277 0.727718 0.566918
0.652522 0.732967 0.626093
0.657801 0.735744 0.631983
0.675166 0.745785 0.651575
0.705226 0.765011 0.686793
0.746792 0.791867 0.737545
0.791775 0.824796 0.785885
0.801907 0.821164 0.771817
0.784115 0.768154 0.695460
0.000000 0.197757 0.497871
0.000000 0.198123 0.506676
0.242679 0.187655 0.535668
0.508354 0.098085 0.577325
0.637415 0.226139 0.534569
0.712123 0.340948 0.501640
0.758907 0.389471 0.477577
0.810910 0.474678 0.500816
0.000000 0.233463 0.497566
0.048615 0.230411 0.505943
0.251316 0.223728 0.533593
0.507134 0.166537 0.577417
0.634913 0.265232 0.536767
0.708858 0.361273 0.504417
0.756405 0.402289 0.480476
0.808591 0.484657 0.504936
0.173739 0.338354 0.486946
0.207370 0.343267 0.498299
0.284947 0.330724 0.529747
0.494301 0.319188 0.573632
0.630457 0.371405 0.548791
0.700038 0.424048 0.516533
0.749325 0.444038 0.491981
0.805203 0.514458 0.517235
0.221225 0.437903 0.483223
0.252842 0.441108 0.488228
0.347753 0.450996 0.506371
0.476539 0.467048 0.561517
0.623407 0.489693 0.568444
0.687068 0.500969 0.535546
0.734707 0.518273 0.523583
0.815976 0.546532 0.522179
0.287694 0.535088 0.493965
0.314519 0.538872 0.499977
0.395270 0.550988 0.520165
0.500267 0.566613 0.549981
0.607019 0.581750 0.587945
0.677333 0.577905 0.562036
0.751461 0.579431 0.542046
0.831052 0.588128 0.520348
0.400397 0.564477 0.469215
0.421332 0.569726 0.478248
0.481880 0.585687 0.506462
0.559258 0.610590 0.551110
0.639063 0.651545 0.622583
0.668452 0.648707 0.609277
0.772000 0.665980 0.572808
0.846159 0.661433 0.537591
0.528893 0.645075 0.522148
0.540459 0.647761 0.530266
0.579767 0.655818 0.561303
0.629297 0.678248 0.610895
0.681758 0.713039 0.667964
0.742367 0.764004 0.734066
0.716945 0.702113 0.653620
0.839780 0.740627 0.603418
0.634119 0.720272 0.614740
0.639399 0.722805 0.620325
0.656733 0.732235 0.638972
0.684962 0.749813 0.670314
0.724208 0.775448 0.716091
0.777066 0.811521 0.778470
0.811276 0.834501 0.801907
0.786557 0.775174 0.716609
0.103914 0.278599 0.603082
0.166201 0.280095 0.609400
0.307195 0.275975 0.626368
0.497780 0.254917 0.653834
0.657862 0.273960 0.666407
0.723171 0.396002 0.620142
0.771389 0.471687 0.595911
0.821927 0.513634 0.591089
0.134646 0.302220 0.597864
0.183322 0.303532 0.603998
0.310094 0.300969 0.621241
0.491951 0.284825 0.648707
0.652522 0.298253 0.663111
0.718441 0.406592 0.617670
0.766751 0.474678 0.592828
0.818479 0.514275 0.588220
0.264897 0.405554 0.590448
0.290379 0.407050 0.597589
0.336187 0.384802 0.615595
0.488411 0.382452 0.643214
0.645411 0.389044 0.664637
0.713619 0.464485 0.625696
0.762448 0.511376 0.602564
0.816678 0.539513 0.597498
0.296300 0.476509 0.568780
0.316320 0.475898 0.570733
0.389441 0.488808 0.593652
0.483833 0.490181 0.631708
0.631983 0.495857 0.668360
0.707118 0.540093 0.641077
0.755703 0.560662 0.617365
0.812406 0.570794 0.606836
0.341039 0.568658 0.577386
0.358007 0.568322 0.579034
0.413214 0.568414 0.586664
0.491157 0.568139 0.601648
0.590539 0.581048 0.647608
0.693050 0.602319 0.653498
0.742489 0.602502 0.626246
0.801450 0.610559 0.618769
0.411383 0.630396 0.579767
0.425238 0.631586 0.583001
0.469123 0.635828 0.594110
0.531395 0.644007 0.613703
0.600488 0.653254 0.638087
0.680812 0.666255 0.676295
0.735134 0.659632 0.648829
0.813474 0.662837 0.636347
0.500877 0.650446 0.560510
0.512322 0.652827 0.565698
0.546227 0.659419 0.581598
0.594354 0.670741 0.608026
0.645045 0.688319 0.642359
0.705867 0.726741 0.702815
0.733974 0.725368 0.693507
0.837156 0.738735 0.660395
0.604883 0.713161 0.609552
0.610040 0.714565 0.613214
0.628260 0.721218 0.627131
0.655207 0.731380 0.648615
0.694728 0.752438 0.689296
0.745998 0.787564 0.748684
0.810513 0.836332 0.817685
0.789303 0.784390 0.744564
0.296666 0.384802 0.686305
0.322332 0.385290 0.689570
0.399573 0.381292 0.698665
0.519493 0.375586 0.717037
0.655604 0.367224 0.743465
0.746883 0.425605 0.740261
0.791592 0.521538 0.703273
0.834287 0.577447 0.689235
0.302068 0.400366 0.682673
0.326390 0.400946 0.685908
0.400458 0.398077 0.695460
0.515892 0.392798 0.713558
0.650446 0.386145 0.740261
0.743832 0.437079 0.738979
0.789425 0.527459 0.702907
0.832761 0.580560 0.689082
0.368841 0.474891 0.672969
0.372961 0.467964 0.676509
0.404883 0.449348 0.686824
0.511345 0.451667 0.707301
0.637507 0.449378 0.734340
0.736782 0.480201 0.739376
0.785824 0.554101 0.707576
0.829984 0.595209 0.692378
0.364019 0.521080 0.652003
0.383246 0.523949 0.656489
0.442420 0.531456 0.670649
0.501183 0.520531 0.694575
0.614801 0.525383 0.724117
0.726253 0.541802 0.743526
0.781643 0.593805 0.717617
0.826535 0.618250 0.698512
0.391852 0.590936 0.646845
0.403326 0.590082 0.648188
0.435340 0.583581 0.650660
0.491432 0.578515 0.663661
0.582238 0.588251 0.704219
0.706874 0.600336 0.748501
0.775021 0.635309 0.729946
0.821073 0.646174 0.705531
0.442512 0.663569 0.656947
0.450019 0.662440 0.657374
0.475959 0.659052 0.659632
0.518090 0.653498 0.665064
0.572900 0.645319 0.674800
0.658350 0.659327 0.727077
0.763882 0.682307 0.745815
0.814054 0.682551 0.716274
0.513451 0.708461 0.660060
0.519371 0.708675 0.661555
0.539635 0.709804 0.667262
0.573327 0.713558 0.679042
0.613489 0.719478 0.695827
0.659449 0.723873 0.715084
0.738094 0.736538 0.761318
0.798154 0.725032 0.728389
0.581628 0.725948 0.647333
0.585565 0.726192 0.648768
0.599878 0.727901 0.654871
0.624598 0.732601 0.667079
0.658595 0.744533 0.688197
0.702358 0.762325 0.719295
0.761227 0.792721 0.772763
0.801511 0.804990 0.787228
