data/fiter_cube/10491141/1023210/file.cube
# Created by Adobe Lightroom plugin Export LUT (1.17.0)
# www.johnrellis.com/lightroom/exportlut.htm
# Preset: 莫兰迪丛林_09 云集
# Color profile: C:\Program Files (x86)\Common Files\Adobe\Color\Profiles\Recommended\AdobeRGB1998.icc
LUT_3D_SIZE 5
DOMAIN_MIN 0.000000 0.000000 0.000000
DOMAIN_MAX 0.903226 0.903226 0.903226
0.069123 0.076112 0.088075
0.178897 0.084932 0.084077
0.563226 0.000000 0.000000
0.757900 0.140810 0.000000
0.874937 0.315282 0.000000
0.088380 0.117891 0.109957
0.129854 0.133883 0.117250
0.583154 0.197360 0.000000
0.760616 0.253300 0.000000
0.877867 0.369757 0.000000
0.243229 0.380011 0.240635
0.365972 0.445411 0.324498
0.443214 0.393133 0.256413
0.764279 0.483131 0.000000
0.877958 0.516228 0.000000
0.525292 0.619959 0.466163
0.579400 0.641657 0.522606
0.668605 0.694697 0.609583
0.656397 0.606500 0.467201
0.860197 0.663111 0.233005
0.680110 0.752956 0.642084
0.699611 0.763973 0.666621
0.752346 0.797055 0.731991
0.793484 0.822110 0.759426
0.780362 0.756680 0.658442
0.067323 0.085542 0.128786
0.177035 0.080140 0.140566
0.538354 0.000000 0.113832
0.745357 0.152804 0.000000
0.868315 0.314458 0.000000
0.088350 0.131899 0.131106
0.167300 0.177462 0.173342
0.568719 0.196384 0.112459
0.752163 0.255558 0.000000
0.871519 0.364752 0.000000
0.241306 0.376104 0.255131
0.378943 0.445869 0.358343
0.457252 0.414099 0.311559
0.759426 0.492775 0.059571
0.874174 0.518853 0.000000
0.522698 0.616449 0.471962
0.577020 0.638514 0.527214
0.668940 0.693111 0.619532
0.658076 0.613397 0.493355
0.860716 0.669062 0.283848
0.675319 0.749691 0.639063
0.694820 0.760678 0.663111
0.753079 0.797238 0.736904
0.797055 0.826078 0.769833
0.781735 0.759640 0.666773
0.000000 0.120760 0.307988
0.180117 0.102235 0.361669
0.561059 0.079164 0.330144
0.706325 0.264042 0.309941
0.845640 0.386053 0.288334
0.089784 0.228092 0.308659
0.188815 0.231571 0.366674
0.546502 0.255070 0.354742
0.715328 0.333501 0.322881
0.850187 0.417090 0.284062
0.201511 0.376165 0.301579
0.317723 0.420508 0.356939
0.524224 0.490394 0.440681
0.735348 0.512993 0.366430
0.861845 0.528313 0.291386
0.487251 0.594873 0.461524
0.543511 0.617243 0.511589
0.658686 0.678981 0.630152
0.663691 0.632715 0.557153
0.858030 0.685817 0.424353
0.659571 0.738033 0.630182
0.677302 0.748348 0.650629
0.733700 0.783658 0.719020
0.803891 0.834287 0.793881
0.782986 0.765225 0.686824
0.000000 0.214359 0.524346
0.197848 0.210819 0.549889
0.592981 0.156954 0.598077
0.726711 0.376226 0.525139
0.815457 0.470253 0.514122
0.174777 0.331334 0.518395
0.245335 0.313359 0.545434
0.587640 0.302556 0.601434
0.718074 0.431006 0.534722
0.808316 0.503593 0.527977
0.263462 0.498756 0.509758
0.348638 0.506340 0.524163
0.543450 0.526390 0.591150
0.692866 0.539208 0.557702
0.812100 0.572747 0.549584
0.430884 0.589715 0.495094
0.483864 0.602106 0.518578
0.602258 0.638819 0.589197
0.684535 0.667994 0.631159
0.842954 0.681056 0.570947
0.627985 0.716091 0.610590
0.645686 0.725124 0.629236
0.697353 0.757229 0.686458
0.785245 0.817594 0.788388
0.787106 0.777096 0.722683
0.296666 0.384802 0.686305
0.375341 0.382513 0.695552
0.586786 0.371710 0.729366
0.751186 0.449378 0.721126
0.834287 0.577447 0.689235
0.350622 0.454200 0.676844
0.385412 0.436835 0.687495
0.576104 0.433753 0.722103
0.747982 0.485603 0.725948
0.831174 0.591363 0.691859
0.370886 0.549950 0.643427
0.409430 0.546593 0.650019
0.541558 0.553033 0.697597
0.736049 0.576349 0.742184
0.823880 0.631067 0.701503
0.460700 0.681453 0.662470
0.484779 0.678767 0.664729
0.557427 0.671412 0.675654
0.678279 0.678981 0.736416
0.810880 0.691493 0.718105
0.581628 0.725948 0.647333
0.595209 0.727260 0.652796
0.640620 0.738003 0.676753
0.715114 0.768063 0.729335
0.801511 0.804990 0.787228
