data/fiter_cube/10491141/1023210/file.cube
# Created by Adobe Lightroom plugin Export LUT (1.17.0)
# www.johnrellis.com/lightroom/exportlut.htm
# Preset: 莫兰迪丛林_09 云集
# Color profile: C:\Program Files (x86)\Common Files\Adobe\Color\Profiles\Recommended\AdobeRGB1998.icc
LUT_3D_SIZE 32
DOMAIN_MIN 0.0 0.0 0.0
DOMAIN_MAX 1.0 1.0 1.0
0.069123 0.076112 0.088075
0.071351 0.076509 0.087984
0.074800 0.076692 0.087892
0.081849 0.077668 0.087678
0.095033 0.079774 0.087465
0.115267 0.082002 0.086915
0.143313 0.084047 0.085878
0.178897 0.084932 0.084077
0.222843 0.083162 0.081514
0.276127 0.076448 0.077180
0.337926 0.057099 0.070344
0.400824 0.000000 0.060609
0.460670 0.000000 0.036072
0.514946 0.000000 0.003967
0.563226 0.000000 0.000000
0.606317 0.000000 0.000000
0.642145 0.000000 0.000000
0.672511 0.000000 0.000000
0.697871 0.000000 0.000000
0.720211 0.077089 0.000000
0.740047 0.112245 0.000000
0.757900 0.140810 0.000000
0.774960 0.166812 0.000000
0.791684 0.192081 0.000000
0.808225 0.216770 0.000000
0.824704 0.241276 0.000000
0.841245 0.266178 0.000000
0.857969 0.290745 0.000000
0.874937 0.315282 0.000000
0.892363 0.339727 0.000000
0.910338 0.363806 0.000000
0.928832 0.387457 0.000000
0.069764 0.077058 0.088563
0.070527 0.077302 0.089082
0.074464 0.078523 0.088075
0.081880 0.079408 0.088136
0.095430 0.081361 0.087617
0.116060 0.083772 0.087037
0.144320 0.086305 0.085634
0.180209 0.087526 0.083772
0.224063 0.086397 0.081117
0.277501 0.080018 0.076722
0.338994 0.063508 0.069734
0.401404 0.004211 0.059937
0.461006 0.000000 0.035401
0.515007 0.000000 0.002014
0.563134 0.000000 0.000000
0.605615 0.000000 0.000000
0.641047 0.000000 0.000000
0.671321 0.000000 0.000000
0.696712 0.009949 0.000000
0.719051 0.082826 0.000000
0.738949 0.115969 0.000000
0.756893 0.143282 0.000000
0.773983 0.168521 0.000000
0.790738 0.193271 0.000000
0.807340 0.217685 0.000000
0.823850 0.242161 0.000000
0.840452 0.266545 0.000000
0.857176 0.291356 0.000000
0.874235 0.315679 0.000000
0.891691 0.340093 0.000000
0.909667 0.364019 0.000000
0.928222 0.387671 0.000000
0.070588 0.078676 0.089540
0.071534 0.079225 0.090578
0.072816 0.079377 0.090547
0.081422 0.081849 0.088533
0.095338 0.084047 0.087984
0.116182 0.086915 0.087343
0.144564 0.089601 0.085939
0.180392 0.091371 0.084047
0.224857 0.090883 0.080964
0.278630 0.085512 0.076448
0.340612 0.071015 0.069215
0.403296 0.027466 0.058717
0.462440 0.000000 0.032197
0.516136 0.000000 0.000000
0.564050 0.000000 0.000000
0.606012 0.000000 0.000000
0.641077 0.000000 0.000000
0.671046 0.000000 0.000000
0.696407 0.044953 0.000000
0.718715 0.092195 0.000000
0.738643 0.122011 0.000000
0.756588 0.148013 0.000000
0.773678 0.172305 0.000000
0.790402 0.196414 0.000000
0.806973 0.220310 0.000000
0.823484 0.244419 0.000000
0.840085 0.268711 0.000000
0.856870 0.293065 0.000000
0.873930 0.317266 0.000000
0.891417 0.341405 0.000000
0.909392 0.365209 0.000000
0.927916 0.388739 0.000000
0.072328 0.082094 0.092287
0.073548 0.082856 0.093782
0.074678 0.083345 0.093996
0.076722 0.083711 0.093904
0.093935 0.088930 0.090150
0.116487 0.093965 0.088167
0.145296 0.097353 0.086641
0.181765 0.100069 0.084627
0.226322 0.100740 0.081422
0.280583 0.097475 0.076326
0.342443 0.087404 0.068452
0.405188 0.068025 0.057496
0.464271 0.017945 0.028748
0.517937 0.000000 0.000000
0.566003 0.000000 0.000000
0.607202 0.000000 0.000000
0.641901 0.000000 0.000000
0.671534 0.031586 0.000000
0.696529 0.081453 0.000000
0.718532 0.109743 0.000000
0.738308 0.135348 0.000000
0.756130 0.158358 0.000000
0.773251 0.181003 0.000000
0.790097 0.203799 0.000000
0.806851 0.226871 0.000000
0.823484 0.250370 0.000000
0.840208 0.274144 0.000000
0.857053 0.298070 0.000000
0.874083 0.321813 0.000000
0.891508 0.345373 0.000000
0.909392 0.368658 0.000000
0.927825 0.391669 0.000000
0.074678 0.086519 0.095064
0.076173 0.087800 0.096498
0.077638 0.088777 0.097871
0.079683 0.090272 0.098238
0.083589 0.090303 0.097658
0.109224 0.099367 0.092622
0.145510 0.108949 0.087770
0.183078 0.113954 0.084810
0.228458 0.115938 0.081331
0.283177 0.115206 0.075868
0.344976 0.108980 0.067567
0.407477 0.097292 0.054108
0.466346 0.081575 0.023560
0.519615 0.064179 0.000000
0.567559 0.048219 0.000000
0.608087 0.055085 0.000000
0.642542 0.071992 0.000000
0.672053 0.093263 0.000000
0.697047 0.114351 0.000000
0.719020 0.135012 0.000000
0.738674 0.155642 0.000000
0.756497 0.175143 0.000000
0.773587 0.195315 0.000000
0.790402 0.216159 0.000000
0.807065 0.237858 0.000000
0.823697 0.260044 0.000000
0.840360 0.282719 0.000000
0.857115 0.305638 0.000000
0.874083 0.328557 0.000000
0.891447 0.351385 0.000000
0.909300 0.373907 0.000000
0.927703 0.396368 0.000000
0.077852 0.093141 0.098543
0.079164 0.094606 0.100130
0.081331 0.096498 0.102327
0.084169 0.099001 0.103975
0.088716 0.101289 0.103944
0.093629 0.099825 0.102296
0.128878 0.113222 0.095338
0.182193 0.128389 0.086000
0.231968 0.137026 0.080293
0.287724 0.138064 0.074159
0.350042 0.135134 0.065003
0.412177 0.128145 0.047028
0.470497 0.119020 0.013275
0.523735 0.110719 0.000000
0.570733 0.107393 0.000000
0.610346 0.110780 0.000000
0.644221 0.119936 0.000000
0.673365 0.133211 0.000000
0.698054 0.148165 0.000000
0.719814 0.164248 0.000000
0.739315 0.181033 0.000000
0.757076 0.197299 0.000000
0.780880 0.224369 0.000000
0.797421 0.243107 0.000000
0.813718 0.262394 0.000000
0.829953 0.282383 0.000000
0.846189 0.302922 0.000000
0.862486 0.323735 0.000000
0.878965 0.344762 0.000000
0.895903 0.365850 0.000000
0.913329 0.386816 0.000000
0.931243 0.407660 0.000000
0.082307 0.103426 0.103426
0.083772 0.105196 0.105104
0.086213 0.107729 0.107546
0.090517 0.112215 0.111452
0.096193 0.117006 0.113497
0.103487 0.118471 0.111482
0.109163 0.114443 0.108675
0.154391 0.132418 0.099489
0.224521 0.152285 0.084627
0.294530 0.164645 0.071565
0.361303 0.167391 0.058778
0.423194 0.163241 0.029664
0.480415 0.157900 0.000000
0.534203 0.154330 0.000000
0.579492 0.153964 0.000000
0.617456 0.157198 0.000000
0.650019 0.164553 0.000000
0.678035 0.174228 0.000000
0.701991 0.185550 0.000000
0.723354 0.198306 0.000000
0.742763 0.212039 0.000000
0.760708 0.226505 0.000000
0.778317 0.242679 0.000000
0.795560 0.260136 0.000000
0.812528 0.278599 0.000000
0.829129 0.297459 0.000000
0.845518 0.316869 0.000000
0.861875 0.336339 0.000000
0.878538 0.355962 0.000000
0.895537 0.375708 0.000000
0.912993 0.395331 0.000000
0.930938 0.415198 0.000000
0.088380 0.117891 0.109957
0.090211 0.119966 0.111666
0.092561 0.122957 0.114290
0.099184 0.129519 0.120790
0.105531 0.135622 0.123720
0.114626 0.142733 0.126223
0.123995 0.141634 0.121370
0.129854 0.133883 0.117250
0.184237 0.154635 0.105501
0.268223 0.178012 0.084749
0.357763 0.193515 0.059205
0.429145 0.201816 0.009827
0.487831 0.199283 0.000000
0.539635 0.197208 0.000000
0.583154 0.197360 0.000000
0.619959 0.199863 0.000000
0.651789 0.205295 0.000000
0.679164 0.212528 0.000000
0.702663 0.220798 0.000000
0.723720 0.230625 0.000000
0.742855 0.241367 0.000000
0.760616 0.253300 0.000000
0.778042 0.266850 0.000000
0.795224 0.282109 0.000000
0.812039 0.298436 0.000000
0.828580 0.315709 0.000000
0.844907 0.333288 0.000000
0.861265 0.351354 0.000000
0.877867 0.369757 0.000000
0.894865 0.388220 0.000000
0.912352 0.406744 0.000000
0.930388 0.425422 0.000000
0.097017 0.138552 0.119020
0.098970 0.140902 0.121065
0.102174 0.144106 0.124117
0.109377 0.151186 0.131106
0.118715 0.160159 0.137697
0.129061 0.169528 0.141726
0.141115 0.175326 0.141634
0.152468 0.171939 0.134432
0.156802 0.158907 0.128511
0.219547 0.181643 0.114260
0.317784 0.207858 0.086061
0.421180 0.226841 0.022675
0.490089 0.237034 0.000000
0.545922 0.243473 0.000000
0.587823 0.242924 0.000000
0.623529 0.244480 0.000000
0.654505 0.247745 0.000000
0.681178 0.252567 0.000000
0.704128 0.258091 0.000000
0.724727 0.265202 0.000000
0.743496 0.273442 0.000000
0.761013 0.282841 0.000000
0.778256 0.294163 0.000000
0.795285 0.307286 0.000000
0.811978 0.321630 0.000000
0.828397 0.336706 0.000000
0.844663 0.352758 0.000000
0.860960 0.369146 0.000000
0.877501 0.385870 0.000000
0.894408 0.402869 0.000000
0.911803 0.420142 0.000000
0.929808 0.437720 0.000000
0.109071 0.165621 0.131197
0.111604 0.168032 0.133486
0.114870 0.171389 0.136629
0.122988 0.179080 0.144045
0.135805 0.190524 0.155032
0.147463 0.200870 0.159731
0.163577 0.214725 0.166079
0.176577 0.214603 0.160464
0.189120 0.208286 0.150515
0.190372 0.189090 0.142397
0.262272 0.213138 0.125948
0.370672 0.241184 0.090150
0.470649 0.261082 0.003784
0.540673 0.275151 0.000000
0.591058 0.288304 0.000000
0.627680 0.291173 0.000000
0.658137 0.292729 0.000000
0.684047 0.294926 0.000000
0.706355 0.298161 0.000000
0.726375 0.302434 0.000000
0.744594 0.307958 0.000000
0.761685 0.314672 0.000000
0.778561 0.323552 0.000000
0.795193 0.334203 0.000000
0.811643 0.346319 0.000000
0.827939 0.359564 0.000000
0.844175 0.373632 0.000000
0.860472 0.388373 0.000000
0.877043 0.403693 0.000000
0.894041 0.419318 0.000000
0.911498 0.435492 0.000000
0.929534 0.451972 0.000000
0.124819 0.197940 0.146273
0.127596 0.200504 0.148653
0.131472 0.204105 0.152163
0.140322 0.212131 0.160037
0.155703 0.224949 0.173129
0.170443 0.237613 0.181277
0.188449 0.252659 0.188296
0.211002 0.269047 0.195224
0.222263 0.260685 0.182498
0.235935 0.251316 0.169894
0.233188 0.225498 0.159670
0.310918 0.248020 0.140841
0.420203 0.276585 0.099763
0.513512 0.297551 0.002502
0.582696 0.315099 0.000000
0.625879 0.328099 0.000000
0.661189 0.338903 0.000000
0.686275 0.338506 0.000000
0.707973 0.338964 0.000000
0.727535 0.340642 0.000000
0.745357 0.343542 0.000000
0.762295 0.348180 0.000000
0.779080 0.355108 0.000000
0.795590 0.363561 0.000000
0.811887 0.373541 0.000000
0.828031 0.384741 0.000000
0.844114 0.396857 0.000000
0.860288 0.409735 0.000000
0.876738 0.423285 0.000000
0.893645 0.437354 0.000000
0.911040 0.452125 0.000000
0.928923 0.467262 0.000000
0.145296 0.236362 0.164492
0.148287 0.238987 0.167147
0.152773 0.242802 0.170840
0.162448 0.250858 0.178836
0.179141 0.264042 0.192355
0.199435 0.279881 0.206058
0.218936 0.295598 0.213962
0.244907 0.314946 0.223819
0.268498 0.324804 0.224979
0.280583 0.313542 0.208835
0.293248 0.299443 0.192294
0.283970 0.265812 0.179324
0.372564 0.292943 0.162570
0.478492 0.322545 0.115846
0.561913 0.344518 0.025147
0.625086 0.363073 0.000000
0.663966 0.375647 0.000000
0.693751 0.386419 0.000000
0.715694 0.388312 0.000000
0.733913 0.386664 0.000000
0.750698 0.386572 0.000000
0.767086 0.388678 0.000000
0.783200 0.392889 0.000000
0.799222 0.398901 0.000000
0.815061 0.406439 0.000000
0.830808 0.415259 0.000000
0.846525 0.425086 0.000000
0.862364 0.435767 0.000000
0.878477 0.447181 0.000000
0.895109 0.459388 0.000000
0.912200 0.472389 0.000000
0.929778 0.485847 0.000000
0.172702 0.283238 0.187259
0.176089 0.285954 0.189883
0.180789 0.289647 0.193637
0.191409 0.297734 0.201968
0.209323 0.310399 0.215610
0.236088 0.328099 0.235630
0.258061 0.344152 0.245304
0.285222 0.362768 0.256687
0.318761 0.384344 0.270817
0.335851 0.382849 0.261570
0.346777 0.369085 0.241245
0.356695 0.351080 0.220584
0.344091 0.312505 0.204318
0.414923 0.327489 0.183536
0.514885 0.357702 0.135775
0.590112 0.380224 0.070710
0.647456 0.397955 0.000000
0.686183 0.409949 0.000000
0.712184 0.418372 0.000000
0.734493 0.426001 0.000000
0.751064 0.423651 0.000000
0.767361 0.423682 0.000000
0.783352 0.425696 0.000000
0.799191 0.429664 0.000000
0.814908 0.435187 0.000000
0.830533 0.442054 0.000000
0.846128 0.450050 0.000000
0.861875 0.459022 0.000000
0.877958 0.468818 0.000000
0.894499 0.479744 0.000000
0.911620 0.491371 0.000000
0.929015 0.503502 0.000000
0.204685 0.331579 0.212100
0.208652 0.334447 0.215030
0.213840 0.337865 0.218967
0.225376 0.345434 0.227573
0.244602 0.356970 0.241794
0.271916 0.372503 0.261967
0.299474 0.388830 0.278813
0.325536 0.405554 0.290440
0.356451 0.424598 0.304295
0.391333 0.445380 0.319890
0.397894 0.432380 0.298131
0.406073 0.416724 0.274601
0.411017 0.394995 0.250065
0.395605 0.353613 0.228946
0.455756 0.362982 0.207858
0.547265 0.392981 0.160159
0.614832 0.414435 0.101503
0.666468 0.430365 0.000000
0.705074 0.441016 0.000000
0.728664 0.448096 0.000000
0.749691 0.455390 0.000000
0.767819 0.458961 0.000000
0.783719 0.459083 0.000000
0.799466 0.461219 0.000000
0.815061 0.464912 0.000000
0.830564 0.470008 0.000000
0.846098 0.476204 0.000000
0.861723 0.483528 0.000000
0.877714 0.491920 0.000000
0.894194 0.501305 0.000000
0.911254 0.511742 0.000000
0.928466 0.522454 0.000000
0.243229 0.380011 0.240635
0.247410 0.382361 0.243565
0.252720 0.385260 0.247501
0.264805 0.391821 0.256535
0.284123 0.401770 0.270878
0.310552 0.414923 0.290471
0.342046 0.430732 0.313359
0.365972 0.445411 0.324498
0.393988 0.462318 0.337896
0.425849 0.481086 0.353704
0.449622 0.490394 0.358068
0.454170 0.476661 0.334752
0.459693 0.459846 0.308965
0.460060 0.435706 0.281865
0.443214 0.393133 0.256413
0.492409 0.397375 0.234714
0.575067 0.426490 0.187625
0.636347 0.446540 0.133394
0.683162 0.460517 0.033753
0.719509 0.469642 0.000000
0.743771 0.475776 0.000000
0.764279 0.483131 0.000000
0.783993 0.491981 0.000000
0.799832 0.492836 0.000000
0.815335 0.494881 0.000000
0.830777 0.498390 0.000000
0.846250 0.503136 0.000000
0.861936 0.509117 0.000000
0.877958 0.516228 0.000000
0.894499 0.524468 0.000000
0.911559 0.533715 0.000000
0.928649 0.543053 0.000000
0.286259 0.425025 0.272160
0.290654 0.427222 0.275303
0.295872 0.429694 0.279179
0.307713 0.435431 0.288029
0.326085 0.444038 0.301854
0.350958 0.455543 0.320623
0.381353 0.469581 0.343847
0.407263 0.483589 0.359655
0.432349 0.498177 0.372534
0.459907 0.514122 0.387243
0.488991 0.531121 0.403632
0.500725 0.529595 0.395453
0.502861 0.515068 0.370459
0.505486 0.497597 0.342657
0.502007 0.471656 0.313207
0.484627 0.429572 0.285069
0.523613 0.429389 0.263401
0.598596 0.457343 0.217655
0.655360 0.476326 0.166751
0.698451 0.488960 0.104189
0.732265 0.496712 0.000000
0.758816 0.503014 0.000000
0.779110 0.510582 0.000000
0.798642 0.519432 0.000000
0.816251 0.525658 0.000000
0.831540 0.527733 0.000000
0.846921 0.530999 0.000000
0.862486 0.535576 0.000000
0.878386 0.541253 0.000000
0.894743 0.548089 0.000000
0.911498 0.555718 0.000000
0.928313 0.563836 0.000000
0.330205 0.465583 0.304540
0.333776 0.467231 0.307195
0.338872 0.469306 0.310979
0.349645 0.474098 0.319249
0.366491 0.481392 0.332097
0.388739 0.491005 0.349340
0.415869 0.502770 0.370825
0.443763 0.515679 0.391852
0.465492 0.528191 0.403784
0.489113 0.541955 0.417456
0.514061 0.556817 0.432593
0.539422 0.572503 0.448981
0.541222 0.561944 0.428595
0.542260 0.547326 0.403021
0.543420 0.529961 0.374334
0.537560 0.503624 0.344060
0.520745 0.463416 0.314031
0.550866 0.459541 0.293004
0.619989 0.486641 0.250278
0.672267 0.504173 0.202457
0.712062 0.515404 0.149050
0.744045 0.522362 0.067048
0.772915 0.528985 0.000000
0.793301 0.536736 0.000000
0.812680 0.545556 0.000000
0.831479 0.555016 0.000000
0.847227 0.558282 0.000000
0.862699 0.561547 0.000000
0.878538 0.565972 0.000000
0.894835 0.571679 0.000000
0.911315 0.577996 0.000000
0.928008 0.584985 0.000000
0.373541 0.502281 0.337072
0.377081 0.503807 0.339849
0.390417 0.512627 0.350256
0.400214 0.516411 0.357916
0.415045 0.522301 0.369757
0.434119 0.529931 0.385321
0.457374 0.539330 0.404761
0.483406 0.550500 0.427405
0.503105 0.561547 0.440620
0.522789 0.573358 0.452979
0.543481 0.586145 0.466590
0.564782 0.599329 0.481209
0.580468 0.606653 0.487556
0.579919 0.594537 0.464576
0.579828 0.579980 0.438575
0.579767 0.562768 0.409400
0.572381 0.536400 0.378332
0.556481 0.498512 0.346715
0.578882 0.491157 0.326024
0.641962 0.516838 0.286809
0.689082 0.532586 0.242985
0.725612 0.542199 0.195102
0.757015 0.549371 0.133883
0.785733 0.556237 0.000000
0.808347 0.563470 0.000000
0.827390 0.571832 0.000000
0.845853 0.580652 0.000000
0.863157 0.587701 0.000000
0.878752 0.590845 0.000000
0.894896 0.595300 0.000000
0.911040 0.600305 0.000000
0.927550 0.606195 0.000000
0.417456 0.536797 0.371313
0.421393 0.538720 0.374548
0.426551 0.541100 0.378759
0.436042 0.545037 0.386511
0.449592 0.550561 0.397833
0.466621 0.557366 0.412512
0.486580 0.565667 0.430182
0.508934 0.575341 0.450752
0.529656 0.585870 0.468574
0.546410 0.596124 0.479744
0.564141 0.607111 0.492164
0.582391 0.618402 0.505547
0.600519 0.629877 0.519677
0.608118 0.629603 0.515099
0.607477 0.618189 0.492470
0.607233 0.604517 0.466865
0.607111 0.588373 0.438087
0.599115 0.562554 0.407446
0.584497 0.527031 0.375586
0.601282 0.517510 0.355688
0.658808 0.541588 0.320195
0.702144 0.556390 0.281010
0.736782 0.565972 0.238437
0.768185 0.573968 0.185672
0.797055 0.581140 0.110231
0.822263 0.588037 0.000000
0.841306 0.596277 0.000000
0.859983 0.605005 0.000000
0.878508 0.614221 0.000000
0.894865 0.618738 0.000000
0.910765 0.622675 0.000000
0.927092 0.627558 0.000000
0.455512 0.565911 0.402533
0.459083 0.567590 0.405554
0.463447 0.569604 0.409369
0.471443 0.572930 0.416358
0.483070 0.577691 0.426703
0.497414 0.583581 0.439918
0.514458 0.590692 0.455879
0.533440 0.599054 0.474372
0.554223 0.608515 0.495186
0.568811 0.617334 0.506004
0.584039 0.626673 0.517540
0.599634 0.636469 0.529808
0.615320 0.646296 0.542748
0.630701 0.656184 0.556298
0.632044 0.650080 0.541772
0.631312 0.639399 0.519524
0.631098 0.626764 0.494575
0.631220 0.611902 0.466682
0.623590 0.587396 0.436744
0.610620 0.554589 0.405035
0.622522 0.543114 0.385931
0.674189 0.564996 0.354192
0.714046 0.578912 0.319463
0.747982 0.589288 0.281193
0.779232 0.598291 0.235080
0.808347 0.605890 0.174166
0.835447 0.612207 0.068879
0.855436 0.620264 0.000000
0.874449 0.628962 0.000000
0.892882 0.637507 0.000000
0.910369 0.644739 0.000000
0.926452 0.648737 0.000000
0.490669 0.593042 0.433234
0.493568 0.594476 0.435920
0.497353 0.596185 0.439429
0.504051 0.599115 0.445808
0.513817 0.603113 0.455116
0.526024 0.608026 0.466987
0.540398 0.613947 0.481300
0.556573 0.620813 0.497841
0.574365 0.628656 0.516747
0.589807 0.636744 0.531640
0.602716 0.644709 0.542138
0.616114 0.653071 0.553460
0.629541 0.661616 0.565240
0.642939 0.670375 0.577295
0.654292 0.677180 0.585595
0.652857 0.668513 0.567285
0.652247 0.658717 0.546105
0.652399 0.647364 0.522271
0.652949 0.634119 0.495735
0.646082 0.611505 0.467292
0.635309 0.582025 0.436713
0.643336 0.569055 0.418555
0.689570 0.588800 0.390478
0.726864 0.602441 0.360113
0.760586 0.614038 0.325872
0.791806 0.624140 0.285893
0.821073 0.632502 0.235264
0.848631 0.639094 0.165469
0.871397 0.645808 0.103944
0.890135 0.653803 0.076478
0.908568 0.662013 0.019257
0.926543 0.670527 0.000000
0.525292 0.619959 0.466163
0.527428 0.620874 0.468299
0.529992 0.621942 0.470832
0.535363 0.624018 0.476234
0.543297 0.627100 0.484291
0.553399 0.631067 0.494789
0.565545 0.635920 0.507622
0.579400 0.641657 0.522606
0.594751 0.648310 0.539757
0.610712 0.655604 0.558251
0.621759 0.662531 0.567834
0.633173 0.669856 0.577996
0.644862 0.677638 0.588403
0.656672 0.685939 0.598962
0.668605 0.694697 0.609583
0.674800 0.696468 0.609277
0.673091 0.687587 0.592432
0.671931 0.677729 0.572900
0.671595 0.666865 0.550347
0.672175 0.654688 0.524651
0.665675 0.633509 0.497169
0.656397 0.606500 0.467201
0.661036 0.592187 0.449592
0.702235 0.609613 0.424262
0.738460 0.623896 0.397436
0.771908 0.636439 0.367193
0.803067 0.647425 0.332525
0.832486 0.656519 0.289830
0.860197 0.663111 0.233005
0.885435 0.668299 0.163851
0.904234 0.676356 0.151797
0.922606 0.684901 0.143465
0.553521 0.641749 0.494911
0.555291 0.642481 0.496803
0.557549 0.643458 0.499184
0.562127 0.645136 0.504051
0.568750 0.647700 0.511254
0.577386 0.650935 0.520684
0.587701 0.654932 0.532219
0.599512 0.659693 0.545708
0.612696 0.665248 0.561212
0.626551 0.671565 0.577905
0.638148 0.678279 0.590265
0.648127 0.685176 0.599115
0.658442 0.692622 0.608240
0.669062 0.700557 0.617639
0.679927 0.708919 0.627070
0.691035 0.717617 0.636530
0.693050 0.714473 0.629603
0.691371 0.705653 0.614160
0.689998 0.695949 0.596399
0.689143 0.685267 0.575921
0.689082 0.673457 0.552178
0.682643 0.653407 0.525933
0.674891 0.629084 0.497230
0.677729 0.614679 0.480446
0.714168 0.629328 0.456214
0.749966 0.644648 0.433234
0.783291 0.658198 0.407080
0.814237 0.669825 0.377569
0.843320 0.678859 0.340734
0.871122 0.685878 0.294072
0.897704 0.691188 0.231937
0.917967 0.699001 0.213230
0.580987 0.662684 0.524926
0.582513 0.663355 0.526635
0.584375 0.664088 0.528801
0.588190 0.665400 0.533013
0.593713 0.667414 0.539361
0.600855 0.670069 0.547662
0.609522 0.673304 0.557916
0.619471 0.677363 0.569757
0.630579 0.682307 0.583093
0.642390 0.688167 0.597436
0.654444 0.694850 0.611902
0.663081 0.701259 0.619409
0.672114 0.708217 0.627283
0.681544 0.715572 0.635340
0.691218 0.723293 0.643488
0.701259 0.731289 0.651972
0.711543 0.739559 0.660853
0.709895 0.731716 0.647761
0.708370 0.723049 0.633478
0.706966 0.713558 0.617304
0.705867 0.703151 0.598779
0.705287 0.691707 0.577264
0.698329 0.672206 0.553063
0.690822 0.649287 0.525444
0.693294 0.635920 0.509056
0.727138 0.649958 0.488563
0.762509 0.666316 0.469429
0.795193 0.680049 0.446723
0.825528 0.691707 0.422065
0.854398 0.701320 0.392493
0.881926 0.709255 0.357031
0.908141 0.715999 0.314794
0.603693 0.679988 0.551080
0.604974 0.680568 0.552636
0.606653 0.681300 0.554589
0.609827 0.682490 0.558404
0.614618 0.684321 0.564019
0.620752 0.686824 0.571374
0.628290 0.690028 0.580346
0.636866 0.693965 0.590753
0.646509 0.698726 0.602472
0.656977 0.704372 0.615229
0.668025 0.710903 0.628626
0.677272 0.717494 0.638239
0.685481 0.724117 0.645258
0.694118 0.731075 0.652705
0.703151 0.738369 0.660548
0.712459 0.745907 0.668788
0.722133 0.753567 0.677424
0.728908 0.757473 0.680598
0.727352 0.749874 0.667475
0.726009 0.741543 0.653376
0.724758 0.732418 0.638331
0.723598 0.722347 0.621576
0.722225 0.710903 0.602258
0.715206 0.692409 0.580529
0.707759 0.670985 0.555261
0.710109 0.658839 0.539727
0.740810 0.671168 0.520958
0.775387 0.687770 0.504723
0.807523 0.702052 0.486763
0.837522 0.714229 0.467994
0.865934 0.724758 0.447303
0.892760 0.734279 0.425605
0.625147 0.697719 0.576501
0.626276 0.698268 0.577783
0.627558 0.698848 0.579400
0.630213 0.699977 0.582544
0.634119 0.701686 0.587335
0.639368 0.704036 0.593652
0.645747 0.707027 0.601343
0.653223 0.710780 0.610407
0.661646 0.715297 0.620722
0.670802 0.720668 0.631891
0.680690 0.726833 0.643854
0.690944 0.733639 0.656092
0.698543 0.739803 0.662867
0.706600 0.746334 0.670039
0.714961 0.753079 0.677668
0.723629 0.760037 0.685573
0.732601 0.767147 0.693812
0.741787 0.774380 0.702419
0.745266 0.774228 0.699916
0.743954 0.767147 0.687007
0.742855 0.759304 0.673152
0.741878 0.750698 0.658320
0.740932 0.741176 0.642420
0.739162 0.730007 0.625238
0.732113 0.712337 0.605646
0.724605 0.692073 0.582727
0.726528 0.680781 0.568414
0.754574 0.691829 0.551812
0.788174 0.708583 0.538872
0.819791 0.723415 0.525902
0.849332 0.736416 0.513573
0.876860 0.748440 0.503227
0.644282 0.715297 0.599237
0.645136 0.715755 0.600275
0.646296 0.716335 0.601678
0.648554 0.717403 0.604456
0.652064 0.719112 0.608698
0.656733 0.721492 0.614374
0.662501 0.724575 0.621424
0.669215 0.728450 0.629664
0.676967 0.733059 0.639094
0.685451 0.738430 0.649500
0.694850 0.744472 0.661097
0.705043 0.751186 0.673945
0.713680 0.757565 0.683467
0.721279 0.763699 0.690639
0.729152 0.770016 0.698085
0.737209 0.776394 0.705715
0.745571 0.782925 0.713649
0.754116 0.789578 0.721859
0.762936 0.796353 0.730312
0.763485 0.792813 0.722621
0.762356 0.786313 0.710231
0.761563 0.779141 0.696773
0.760647 0.770962 0.681971
0.759854 0.761898 0.666011
0.757839 0.750820 0.649012
0.751095 0.734188 0.631342
0.743862 0.715389 0.611231
0.745846 0.705379 0.598932
0.771237 0.715297 0.585229
0.803525 0.731899 0.576135
0.834409 0.747341 0.569268
0.863035 0.761624 0.565240
0.663905 0.735042 0.622705
0.664607 0.735439 0.623560
0.665522 0.735897 0.624689
0.667414 0.736904 0.626978
0.670375 0.738460 0.630640
0.674311 0.740597 0.635462
0.679164 0.743404 0.641444
0.685054 0.746822 0.648676
0.691890 0.750942 0.657160
0.699672 0.755703 0.666987
0.708248 0.761074 0.677943
0.717617 0.766995 0.690028
0.727321 0.773342 0.702449
0.734218 0.778805 0.709133
