data/fiter_cube/96143635/1022808/file.cube
# Created by Adobe Lightroom plugin Export LUT (1.17.0)
# www.johnrellis.com/lightroom/exportlut.htm
# Preset: 高雅通透灰色调人像_01 云集
# Color profile: C:\Program Files (x86)\Common Files\Adobe\Color\Profiles\Recommended\AdobeRGB1998.icc
LUT_3D_SIZE 5
DOMAIN_MIN 0.000000 0.000000 0.000000
DOMAIN_MAX 0.903226 0.903226 0.903226
0.000000 0.000000 0.000000
0.212985 0.087831 0.091463
0.385199 0.136385 0.144320
0.546746 0.197024 0.208133
0.730007 0.272282 0.286229
0.181247 0.181247 0.181247
0.201877 0.201877 0.201877
0.419074 0.253300 0.194003
0.567590 0.278508 0.242557
0.746792 0.337285 0.315984
0.349584 0.349584 0.349584
0.358892 0.358892 0.358892
0.393652 0.393652 0.393652
0.610803 0.459113 0.382452
0.790646 0.510369 0.418036
0.513054 0.513054 0.513054
0.518120 0.518120 0.518120
0.534813 0.534813 0.534813
0.564324 0.564324 0.564324
0.773556 0.655329 0.605768
0.695827 0.695827 0.695827
0.699702 0.699702 0.699702
0.711574 0.711574 0.711574
0.741329 0.741329 0.741329
0.785519 0.785519 0.785519
0.146670 0.146670 0.146670
0.178317 0.178317 0.178317
0.372656 0.194980 0.247318
0.518853 0.204227 0.255222
0.707027 0.266789 0.313298
0.200839 0.200839 0.200839
0.254856 0.254856 0.254856
0.393133 0.254063 0.256809
0.542473 0.279515 0.285649
0.723232 0.329961 0.340215
0.358129 0.358129 0.358129
0.381323 0.381323 0.381323
0.409216 0.409216 0.409216
0.611658 0.472786 0.403143
0.776242 0.505791 0.439490
0.519615 0.519615 0.519615
0.528405 0.528405 0.528405
0.544274 0.544274 0.544274
0.572503 0.572503 0.572503
0.782101 0.662684 0.612085
0.701534 0.701534 0.701534
0.705348 0.705348 0.705348
0.720424 0.720424 0.720424
0.748348 0.748348 0.748348
0.791653 0.791653 0.791653
0.282200 0.282200 0.282200
0.298741 0.298741 0.298741
0.339422 0.339422 0.339422
0.499794 0.417517 0.453407
0.700221 0.341375 0.450446
0.326970 0.326970 0.326970
0.341497 0.341497 0.341497
0.374548 0.374548 0.374548
0.518761 0.413306 0.453803
0.695857 0.339300 0.430640
0.381842 0.381842 0.381842
0.403388 0.403388 0.403388
0.476356 0.476356 0.476356
0.567742 0.447791 0.449928
0.733577 0.461280 0.466865
0.522332 0.522332 0.522332
0.534112 0.534112 0.534112
0.573114 0.573114 0.573114
0.600031 0.600031 0.600031
0.814420 0.683986 0.625635
0.702235 0.702235 0.702235
0.711147 0.711147 0.711147
0.736294 0.736294 0.736294
0.762661 0.762661 0.762661
0.804562 0.804562 0.804562
0.430396 0.430396 0.430396
0.438941 0.438941 0.438941
0.465339 0.465339 0.465339
0.499702 0.499702 0.499702
0.647791 0.647791 0.647791
0.459541 0.459541 0.459541
0.465858 0.465858 0.465858
0.485512 0.485512 0.485512
0.514763 0.514763 0.514763
0.657923 0.656062 0.657008
0.499702 0.499702 0.499702
0.511192 0.511192 0.511192
0.539940 0.539940 0.539940
0.565484 0.565484 0.565484
0.707088 0.622797 0.658106
0.548608 0.548608 0.548608
0.557610 0.557610 0.557610
0.589593 0.589593 0.589593
0.657954 0.657954 0.657954
0.775753 0.618463 0.621180
0.707546 0.707546 0.707546
0.715511 0.715511 0.715511
0.743343 0.743343 0.743343
0.792020 0.792020 0.792020
0.832578 0.832578 0.832578
0.613886 0.613886 0.613886
0.618555 0.618555 0.618555
0.633173 0.633173 0.633173
0.657801 0.657801 0.657801
0.691920 0.691920 0.691920
0.630793 0.630793 0.630793
0.634638 0.634638 0.634638
0.647517 0.647517 0.647517
0.670802 0.670802 0.670802
0.703212 0.703212 0.703212
0.668086 0.668086 0.668086
0.674708 0.674708 0.674708
0.686824 0.686824 0.686824
0.707179 0.707179 0.707179
0.736538 0.736538 0.736538
0.708278 0.708278 0.708278
0.714534 0.714534 0.714534
0.733700 0.733700 0.733700
0.764858 0.764858 0.764858
0.796780 0.796780 0.796780
0.770687 0.770687 0.770687
0.776486 0.776486 0.776486
0.794675 0.794675 0.794675
0.832914 0.832914 0.832914
0.905974 0.905974 0.905974
