data/fiter_cube/96143635/1022808/file.cube
# Created by Adobe Lightroom plugin Export LUT (1.17.0)
# www.johnrellis.com/lightroom/exportlut.htm
# Preset: 高雅通透灰色调人像_01 云集
# Color profile: C:\Program Files (x86)\Common Files\Adobe\Color\Profiles\Recommended\AdobeRGB1998.icc
LUT_3D_SIZE 32
DOMAIN_MIN 0.0 0.0 0.0
DOMAIN_MAX 1.0 1.0 1.0
0.000000 0.000000 0.000000
0.049134 0.015839 0.015808
0.074189 0.035340 0.035492
0.099031 0.063081 0.063783
0.129763 0.072572 0.073732
0.159365 0.078645 0.080598
0.186862 0.083436 0.086336
0.212985 0.087831 0.091463
0.238315 0.092378 0.096559
0.263310 0.097169 0.102296
0.288457 0.103182 0.109071
0.313329 0.110780 0.117311
0.337804 0.118929 0.125765
0.361791 0.127321 0.134951
0.385199 0.136385 0.144320
0.408209 0.144747 0.153048
0.430793 0.153079 0.161929
0.453040 0.161501 0.170657
0.475044 0.169558 0.179263
0.499458 0.178683 0.188785
0.523522 0.187747 0.198306
0.546746 0.197024 0.208133
0.569482 0.206668 0.217868
0.592432 0.216190 0.227909
0.616419 0.226017 0.238071
0.641871 0.236240 0.248753
0.669032 0.247227 0.260227
0.698390 0.259159 0.272618
0.730007 0.272282 0.286229
0.764187 0.286931 0.301335
0.800870 0.303410 0.318334
0.839872 0.322118 0.337530
0.039063 0.039063 0.039063
0.049073 0.049073 0.049073
0.074952 0.061860 0.053986
0.101656 0.074311 0.067506
0.132326 0.082429 0.076539
0.161196 0.088075 0.083070
0.188540 0.091920 0.088380
0.214328 0.095613 0.093172
0.239414 0.099550 0.098146
0.264378 0.103883 0.103792
0.289220 0.109560 0.110689
0.314061 0.116243 0.118624
0.338323 0.123995 0.127352
0.362310 0.132357 0.136355
0.385595 0.140566 0.145205
0.408453 0.148562 0.154330
0.430915 0.156710 0.162997
0.453193 0.164614 0.171542
0.475044 0.172580 0.179965
0.499428 0.181399 0.189364
0.523095 0.190311 0.198886
0.546197 0.199313 0.208408
0.568627 0.208560 0.218173
0.591577 0.217929 0.228031
0.615534 0.227756 0.238163
0.640864 0.237827 0.248875
0.668055 0.248631 0.260197
0.697322 0.260594 0.272679
0.729000 0.273594 0.286198
0.763058 0.288121 0.301396
0.799710 0.304448 0.318273
0.838773 0.323125 0.337438
0.066987 0.066987 0.066987
0.069795 0.069795 0.069795
0.072419 0.072419 0.072419
0.101839 0.083803 0.075746
0.135409 0.094301 0.080507
0.163821 0.099092 0.086366
0.190616 0.102510 0.091432
0.216129 0.105287 0.096071
0.241032 0.108522 0.100710
0.265599 0.112551 0.106386
0.290501 0.117647 0.112886
0.315282 0.123964 0.120821
0.339483 0.131167 0.129549
0.363287 0.138735 0.138430
0.386603 0.146456 0.147280
0.409369 0.153933 0.155978
0.431830 0.161746 0.164675
0.453956 0.169284 0.173007
0.475746 0.176852 0.181491
0.500008 0.185336 0.190829
0.523522 0.194003 0.200046
0.546410 0.202701 0.209415
0.568841 0.211765 0.219150
0.591608 0.220859 0.228977
0.615503 0.230472 0.239078
0.640772 0.240360 0.249668
0.667872 0.251072 0.261021
0.697200 0.262943 0.273381
0.728756 0.275731 0.286900
0.762844 0.290349 0.302098
0.799435 0.306645 0.318914
0.838376 0.325109 0.338048
0.089174 0.089174 0.089174
0.090883 0.090883 0.090883
0.093324 0.093324 0.093324
0.098177 0.098177 0.098177
0.129976 0.108431 0.099519
0.170108 0.120912 0.093690
0.195956 0.122805 0.097902
0.220706 0.124666 0.101991
0.244968 0.126741 0.106600
0.269444 0.129427 0.111757
0.293980 0.133913 0.118288
0.318547 0.138949 0.125856
0.342473 0.145296 0.134188
0.366094 0.151827 0.142885
0.389227 0.158633 0.151431
0.411810 0.165469 0.160037
0.434089 0.172274 0.168399
0.456062 0.179019 0.176516
0.478157 0.186038 0.184787
0.501671 0.193759 0.193790
0.524743 0.201968 0.202792
0.547295 0.210086 0.211948
0.569451 0.218692 0.221561
0.592187 0.227451 0.231266
0.616266 0.236759 0.241337
0.641718 0.246647 0.251987
0.669001 0.257206 0.263279
0.698329 0.268864 0.275700
0.729854 0.281651 0.289281
0.763790 0.295933 0.304265
0.800107 0.311986 0.321111
0.838743 0.330205 0.339910
0.113008 0.113008 0.113008
0.114321 0.114321 0.114321
0.115999 0.115999 0.115999
0.119753 0.119753 0.119753
0.125277 0.125277 0.125277
0.152193 0.133577 0.126192
0.197208 0.143679 0.115206
0.227481 0.150759 0.111696
0.251072 0.151278 0.115572
0.274907 0.153292 0.120668
0.299229 0.156252 0.126558
0.323400 0.160586 0.134035
0.347234 0.165377 0.142000
0.370520 0.170565 0.150210
0.393378 0.176120 0.158175
0.415991 0.181949 0.166110
0.438178 0.187961 0.174105
0.460029 0.193790 0.181827
0.482490 0.200137 0.190127
0.505272 0.206943 0.198764
0.527642 0.214145 0.207492
0.549828 0.221836 0.216342
0.571679 0.229831 0.225650
0.594354 0.238193 0.235233
0.618128 0.246830 0.245212
0.643549 0.256321 0.255772
0.670649 0.266514 0.267063
0.699733 0.277653 0.279271
0.731167 0.290349 0.292790
0.764889 0.304417 0.307652
0.800992 0.320043 0.324315
0.839445 0.338109 0.343206
0.135958 0.135958 0.135958
0.136873 0.136873 0.136873
0.138216 0.138216 0.138216
0.140993 0.140993 0.140993
0.145418 0.145418 0.145418
0.150912 0.150912 0.150912
0.172244 0.158785 0.153902
0.218112 0.166781 0.142245
0.258610 0.178317 0.131411
0.283116 0.181827 0.133150
0.306981 0.183780 0.138735
0.330632 0.186557 0.145418
0.353979 0.190066 0.152743
0.377050 0.194034 0.159884
0.399634 0.198062 0.167269
0.421912 0.202762 0.174838
0.444007 0.207431 0.182071
0.465400 0.212222 0.189578
0.488289 0.218051 0.197635
0.510582 0.224186 0.205722
0.532433 0.230503 0.214145
0.553948 0.237278 0.222904
0.583886 0.248753 0.236118
0.606622 0.256687 0.245792
0.630488 0.265202 0.255650
0.655726 0.274113 0.266026
0.682612 0.283909 0.277165
0.711330 0.294896 0.289311
0.742184 0.306981 0.302678
0.775387 0.320745 0.317601
0.810819 0.336248 0.334142
0.848356 0.353765 0.352819
0.159213 0.159213 0.159213
0.159976 0.159976 0.159976
0.160952 0.160952 0.160952
0.163424 0.163424 0.163424
0.166903 0.166903 0.166903
0.171450 0.171450 0.171450
0.177096 0.177096 0.177096
0.192691 0.185245 0.182742
0.239963 0.192752 0.171695
0.284001 0.204349 0.161410
0.318853 0.216373 0.155703
0.342138 0.217685 0.161074
0.364935 0.219791 0.167239
0.387579 0.222232 0.173404
0.409674 0.224796 0.179843
0.431434 0.227848 0.186343
0.452766 0.231327 0.193027
0.475105 0.235569 0.200137
0.497414 0.240391 0.207736
0.519066 0.245548 0.215732
0.540795 0.251286 0.224033
0.562585 0.257633 0.232822
0.584771 0.264744 0.242130
0.608148 0.272313 0.251804
0.632563 0.280339 0.261784
0.658045 0.289067 0.272282
0.684901 0.298680 0.283421
0.713466 0.309087 0.295384
0.744167 0.320897 0.308629
0.776944 0.334234 0.323369
0.811978 0.349279 0.339757
0.849149 0.366522 0.358343
0.181247 0.181247 0.181247
0.181888 0.181888 0.181888
0.182864 0.182864 0.182864
0.184756 0.184756 0.184756
0.187564 0.187564 0.187564
0.191440 0.191440 0.191440
0.196201 0.196201 0.196201
0.201877 0.201877 0.201877
0.212345 0.211093 0.210758
0.260594 0.218601 0.201144
0.305913 0.229984 0.192416
0.349126 0.243748 0.183597
0.375433 0.250858 0.183413
0.397559 0.252049 0.188479
0.419074 0.253300 0.194003
0.440345 0.255100 0.199496
0.462074 0.257664 0.205447
0.484230 0.261051 0.212192
0.505150 0.264469 0.218997
0.525811 0.268467 0.226322
0.546624 0.273198 0.234104
0.567590 0.278508 0.242557
0.589532 0.284642 0.251225
0.612482 0.291447 0.260502
0.636530 0.298802 0.270146
0.661677 0.307042 0.280400
0.688228 0.315923 0.291173
0.716426 0.325872 0.302983
0.746792 0.337285 0.315984
0.779232 0.350103 0.330541
0.813931 0.364965 0.346868
0.850706 0.381842 0.365332
0.204044 0.204044 0.204044
0.204685 0.204685 0.204685
0.205447 0.205447 0.205447
0.206912 0.206912 0.206912
0.209476 0.209476 0.209476
0.212680 0.212680 0.212680
0.216831 0.216831 0.216831
0.221866 0.221866 0.221866
0.227695 0.227695 0.227695
0.237034 0.237034 0.237034
0.281926 0.245640 0.231296
0.327825 0.256260 0.223056
0.371344 0.268956 0.214725
0.407874 0.281956 0.208133
0.430640 0.284794 0.210636
0.451972 0.285710 0.215274
0.473915 0.287480 0.221012
0.494667 0.289464 0.226627
0.514214 0.291325 0.232761
0.533989 0.294102 0.239200
0.553796 0.297734 0.246525
0.574182 0.302007 0.254063
0.595666 0.307225 0.262425
0.618250 0.313268 0.271183
0.641840 0.320043 0.280552
0.666621 0.327428 0.290318
0.692775 0.335821 0.300877
0.720607 0.345281 0.312352
0.750484 0.356115 0.325170
0.782498 0.368627 0.339483
0.816617 0.382971 0.355718
0.852934 0.399390 0.373907
0.227512 0.227512 0.227512
0.228092 0.228092 0.228092
0.228672 0.228672 0.228672
0.230045 0.230045 0.230045
0.232212 0.232212 0.232212
0.235080 0.235080 0.235080
0.238834 0.238834 0.238834
0.243168 0.243168 0.243168
0.248417 0.248417 0.248417
0.254154 0.254154 0.254154
0.262791 0.262791 0.262791
0.303105 0.272435 0.260838
0.349187 0.282414 0.252995
0.392981 0.294255 0.244846
0.435706 0.308171 0.237186
0.466499 0.319738 0.234440
0.487007 0.319982 0.238956
0.506279 0.320165 0.243748
0.524865 0.320928 0.248844
0.543328 0.322301 0.254582
0.562219 0.324590 0.260990
0.581811 0.327825 0.267918
0.602716 0.332067 0.275395
0.624475 0.336950 0.283513
0.647608 0.342931 0.292302
0.671870 0.349676 0.301732
0.697658 0.357458 0.311894
0.725246 0.366552 0.323186
0.754849 0.377050 0.335851
0.786465 0.389258 0.350072
0.820340 0.403357 0.366186
0.856229 0.419471 0.384405
0.251408 0.251408 0.251408
0.251774 0.251774 0.251774
0.252354 0.252354 0.252354
0.253574 0.253574 0.253574
0.255497 0.255497 0.255497
0.258061 0.258061 0.258061
0.261357 0.261357 0.261357
0.265202 0.265202 0.265202
0.269718 0.269718 0.269718
0.275059 0.275059 0.275059
0.280797 0.280797 0.280797
0.288487 0.288487 0.288487
0.324681 0.299565 0.290379
0.371954 0.309819 0.283574
0.416938 0.321721 0.276371
0.459693 0.334874 0.269047
0.496223 0.347478 0.262394
0.518181 0.352789 0.262669
0.535485 0.351812 0.266819
0.553002 0.351904 0.271580
0.571130 0.353094 0.277226
0.590509 0.355474 0.283452
0.610834 0.358740 0.290532
0.632319 0.363073 0.297978
0.654932 0.368261 0.306310
0.678767 0.374426 0.315251
0.703975 0.381537 0.324987
0.731014 0.390051 0.335943
0.759915 0.399969 0.348241
0.790951 0.411627 0.362249
0.824216 0.425299 0.378119
0.859495 0.441169 0.396216
0.275395 0.275395 0.275395
0.275792 0.275792 0.275792
0.276310 0.276310 0.276310
0.277348 0.277348 0.277348
0.279088 0.279088 0.279088
0.281376 0.281376 0.281376
0.284215 0.284215 0.284215
0.287755 0.287755 0.287755
0.291814 0.291814 0.291814
0.296513 0.296513 0.296513
0.301762 0.301762 0.301762
0.308537 0.308537 0.308537
0.320714 0.320714 0.320714
0.353063 0.333440 0.326452
0.400885 0.342992 0.319463
0.446204 0.353948 0.311986
0.487709 0.365637 0.304387
0.524712 0.377020 0.296696
0.551537 0.387091 0.292668
0.569482 0.388067 0.295354
0.587091 0.388037 0.299779
0.605676 0.389197 0.305150
0.625238 0.391272 0.311131
0.645991 0.394598 0.317876
0.667781 0.398810 0.325383
0.690883 0.404089 0.333684
0.715389 0.410529 0.342992
0.741573 0.418250 0.353429
0.769650 0.427619 0.365270
0.799802 0.438605 0.378820
0.832059 0.451667 0.394293
0.866392 0.466743 0.411780
0.300877 0.300877 0.300877
0.301213 0.301213 0.301213
0.301640 0.301640 0.301640
0.302464 0.302464 0.302464
0.303716 0.303716 0.303716
0.305577 0.305577 0.305577
0.308080 0.308080 0.308080
0.311162 0.311162 0.311162
0.314824 0.314824 0.314824
0.320287 0.320287 0.320287
0.326177 0.326177 0.326177
0.332708 0.332708 0.332708
0.339666 0.339666 0.339666
0.347021 0.347021 0.347021
0.374456 0.360632 0.355779
0.422156 0.369574 0.348974
0.466346 0.379614 0.341650
0.505730 0.389715 0.334173
0.541253 0.399939 0.326848
0.574212 0.410742 0.320500
0.597436 0.419684 0.320317
0.615595 0.419928 0.324651
0.634607 0.421210 0.329931
0.654719 0.423621 0.335882
0.676020 0.427100 0.342779
0.698512 0.431708 0.350500
0.722408 0.437476 0.359319
0.747982 0.444709 0.369299
0.775418 0.453407 0.380804
0.805020 0.464118 0.394079
0.836606 0.476600 0.409125
0.870359 0.490852 0.425879
0.324437 0.324437 0.324437
0.324681 0.324681 0.324681
0.325078 0.325078 0.325078
0.325750 0.325750 0.325750
0.326970 0.326970 0.326970
0.328954 0.328954 0.328954
0.331670 0.331670 0.331670
0.334966 0.334966 0.334966
0.338933 0.338933 0.338933
0.343450 0.343450 0.343450
0.348608 0.348608 0.348608
0.354406 0.354406 0.354406
0.360632 0.360632 0.360632
0.367132 0.367132 0.367132
0.373785 0.373785 0.373785
0.395209 0.387182 0.384497
0.442115 0.395331 0.377447
0.484230 0.404181 0.370336
0.522271 0.413336 0.363287
0.557549 0.423316 0.357000
0.592615 0.434516 0.351049
0.622675 0.446174 0.348363
0.644984 0.452583 0.350713
0.664637 0.454292 0.356085
0.685359 0.457038 0.362341
0.707301 0.460945 0.369451
0.730587 0.466163 0.377783
0.755520 0.472786 0.387274
0.782345 0.481117 0.398383
0.811215 0.491127 0.411109
0.842191 0.502831 0.425391
0.875334 0.516320 0.441321
0.349584 0.349584 0.349584
0.349981 0.349981 0.349981
0.350286 0.350286 0.350286
0.351019 0.351019 0.351019
0.352270 0.352270 0.352270
0.353918 0.353918 0.353918
0.356176 0.356176 0.356176
0.358892 0.358892 0.358892
0.362280 0.362280 0.362280
0.366339 0.366339 0.366339
0.370886 0.370886 0.370886
0.376043 0.376043 0.376043
0.381689 0.381689 0.381689
0.387579 0.387579 0.387579
0.393652 0.393652 0.393652
0.399756 0.399756 0.399756
0.415229 0.413031 0.412299
0.460670 0.420356 0.405310
0.501335 0.428504 0.398718
0.538506 0.437476 0.392798
0.574640 0.447730 0.387488
0.610803 0.459113 0.382452
0.646845 0.471595 0.377661
0.674006 0.484199 0.378668
0.695369 0.488136 0.383703
0.716854 0.491585 0.390295
0.739681 0.496345 0.398199
0.764248 0.502617 0.407416
0.790646 0.510369 0.418036
0.819150 0.519860 0.430030
0.849668 0.530968 0.443702
0.882261 0.543755 0.458930
0.374701 0.374701 0.374701
0.375006 0.375006 0.375006
0.375311 0.375311 0.375311
0.375982 0.375982 0.375982
0.377050 0.377050 0.377050
0.378637 0.378637 0.378637
0.380621 0.380621 0.380621
0.383185 0.383185 0.383185
0.386175 0.386175 0.386175
0.389715 0.389715 0.389715
0.393622 0.393622 0.393622
0.398169 0.398169 0.398169
0.402930 0.402930 0.402930
0.408026 0.408026 0.408026
0.413306 0.413306 0.413306
0.418921 0.418921 0.418921
0.424445 0.424445 0.424445
0.436957 0.436957 0.436957
0.478279 0.444923 0.432776
0.518151 0.453285 0.427649
0.555627 0.462745 0.423011
0.593042 0.473518 0.418799
0.630335 0.485420 0.414923
0.667536 0.498299 0.411200
0.701137 0.511864 0.409949
0.727932 0.523827 0.413581
0.750240 0.527886 0.420600
0.774166 0.533471 0.428962
0.799893 0.540490 0.438636
0.827573 0.549065 0.449683
0.857145 0.559228 0.462257
0.888731 0.571069 0.476509
0.398627 0.398627 0.398627
0.398779 0.398779 0.398779
0.399084 0.399084 0.399084
0.399725 0.399725 0.399725
0.400580 0.400580 0.400580
0.401953 0.401953 0.401953
0.403784 0.403784 0.403784
0.405859 0.405859 0.405859
0.408606 0.408606 0.408606
0.411810 0.411810 0.411810
0.415381 0.415381 0.415381
0.419471 0.419471 0.419471
0.423774 0.423774 0.423774
0.428443 0.428443 0.428443
0.433143 0.433143 0.433143
0.437934 0.437934 0.437934
0.443000 0.443000 0.443000
0.448249 0.448249 0.448249
0.459663 0.459663 0.459663
0.495766 0.469001 0.459541
0.534966 0.477638 0.455543
0.573480 0.487648 0.452033
0.611963 0.498970 0.448890
0.650202 0.511406 0.446082
0.688411 0.524743 0.443458
0.726497 0.539055 0.441138
0.757504 0.553948 0.444038
0.783993 0.564019 0.450477
0.809079 0.570367 0.459266
0.836027 0.578241 0.469490
0.864866 0.587732 0.481239
0.895598 0.598993 0.494881
0.422156 0.422156 0.422156
0.422431 0.422431 0.422431
0.427283 0.427283 0.427283
0.427741 0.427741 0.427741
0.428534 0.428534 0.428534
0.429633 0.429633 0.429633
0.431006 0.431006 0.431006
0.432746 0.432746 0.432746
0.435004 0.435004 0.435004
0.437659 0.437659 0.437659
0.440772 0.440772 0.440772
0.444129 0.444129 0.444129
0.447700 0.447700 0.447700
0.451637 0.451637 0.451637
0.455726 0.455726 0.455726
0.459937 0.459937 0.459937
0.464363 0.464363 0.464363
0.468940 0.468940 0.468940
0.473762 0.473762 0.473762
0.484138 0.484138 0.484138
0.515312 0.494636 0.487434
0.555261 0.503807 0.484382
0.594812 0.514336 0.481758
0.634150 0.526116 0.479469
0.673091 0.538842 0.477394
0.711910 0.552514 0.475624
0.750637 0.567132 0.474159
0.787503 0.582635 0.474556
0.818112 0.599115 0.480476
0.844907 0.607599 0.489693
0.872801 0.616480 0.500908
0.902373 0.627253 0.514305
0.446235 0.446235 0.446235
0.446998 0.446998 0.446998
0.447852 0.447852 0.447852
0.448859 0.448859 0.448859
0.449958 0.449958 0.449958
0.451148 0.451148 0.451148
0.452552 0.452552 0.452552
0.454078 0.454078 0.454078
0.456153 0.456153 0.456153
0.458534 0.458534 0.458534
0.461219 0.461219 0.461219
0.464210 0.464210 0.464210
0.467506 0.467506 0.467506
0.470954 0.470954 0.470954
0.474617 0.474617 0.474617
0.478431 0.478431 0.478431
0.482460 0.482460 0.482460
0.486671 0.486671 0.486671
0.491188 0.491188 0.491188
0.495979 0.495979 0.495979
0.505608 0.505608 0.505608
0.533684 0.517693 0.512200
0.574609 0.527672 0.510246
0.615198 0.539025 0.508721
0.655482 0.551415 0.507439
0.695491 0.564843 0.506462
0.735409 0.579370 0.505913
0.775326 0.594903 0.505974
0.815366 0.611505 0.506615
0.850004 0.629236 0.512230
0.881010 0.645930 0.522057
0.909514 0.656245 0.535180
0.468055 0.468055 0.468055
0.468849 0.468849 0.468849
0.469581 0.469581 0.469581
0.470466 0.470466 0.470466
0.471473 0.471473 0.471473
0.472572 0.472572 0.472572
0.473762 0.473762 0.473762
0.475227 0.475227 0.475227
0.477028 0.477028 0.477028
0.479164 0.479164 0.479164
0.481666 0.481666 0.481666
0.484413 0.484413 0.484413
0.487343 0.487343 0.487343
0.490547 0.490547 0.490547
0.493874 0.493874 0.493874
0.497322 0.497322 0.497322
0.500999 0.500999 0.500999
0.504875 0.504875 0.504875
0.509087 0.509087 0.509087
0.513634 0.513634 0.513634
0.518547 0.518547 0.518547
0.527916 0.527916 0.527916
0.553338 0.541833 0.537926
0.595331 0.552667 0.537041
0.636866 0.564721 0.536522
0.678126 0.577874 0.536370
0.719112 0.592218 0.536706
0.760128 0.607721 0.537713
0.801175 0.624414 0.539452
0.842161 0.642115 0.542046
0.882414 0.660700 0.545830
0.914733 0.681056 0.557641
0.489693 0.489693 0.489693
0.490364 0.490364 0.490364
0.491066 0.491066 0.491066
0.491890 0.491890 0.491890
0.492866 0.492866 0.492866
0.493812 0.493812 0.493812
0.494942 0.494942 0.494942
0.496223 0.496223 0.496223
0.497780 0.497780 0.497780
0.499702 0.499702 0.499702
0.501884 0.501884 0.501884
0.504387 0.504387 0.504387
0.507042 0.507042 0.507042
0.510002 0.510002 0.510002
0.513146 0.513146 0.513146
0.516564 0.516564 0.516564
0.520287 0.520287 0.520287
0.524346 0.524346 0.524346
0.528771 0.528771 0.528771
0.533501 0.533501 0.533501
0.538659 0.538659 0.538659
0.544182 0.544182 0.544182
0.553368 0.553368 0.553368
0.576318 0.569360 0.566979
0.619654 0.581231 0.567376
0.662409 0.594324 0.568200
0.704860 0.608637 0.569543
0.747189 0.624201 0.571557
0.789334 0.640986 0.574426
0.831388 0.658900 0.578149
0.873014 0.677760 0.582788
0.913970 0.697414 0.588556
0.513054 0.513054 0.513054
0.513451 0.513451 0.513451
0.513787 0.513787 0.513787
0.514336 0.514336 0.514336
0.515038 0.515038 0.515038
0.515831 0.515831 0.515831
0.516838 0.516838 0.516838
0.518120 0.518120 0.518120
0.519677 0.519677 0.519677
0.521538 0.521538 0.521538
0.523796 0.523796 0.523796
0.526238 0.526238 0.526238
0.528893 0.528893 0.528893
0.531731 0.531731 0.531731
0.534813 0.534813 0.534813
0.538079 0.538079 0.538079
0.541680 0.541680 0.541680
0.545525 0.545525 0.545525
0.549798 0.549798 0.549798
0.554284 0.554284 0.554284
0.559228 0.559228 0.559228
0.564324 0.564324 0.564324
0.569818 0.569818 0.569818
0.578271 0.578271 0.578271
0.598474 0.595972 0.595148
0.642664 0.608789 0.596704
0.686580 0.622950 0.598901
0.730159 0.638514 0.601892
0.773556 0.655329 0.605768
0.816678 0.673396 0.610529
0.859464 0.692531 0.616297
0.901518 0.712581 0.623224
0.535180 0.535180 0.535180
0.535515 0.535515 0.535515
0.535912 0.535912 0.535912
0.536431 0.536431 0.536431
0.537133 0.537133 0.537133
0.537865 0.537865 0.537865
0.538811 0.538811 0.538811
0.539971 0.539971 0.539971
0.541466 0.541466 0.541466
0.543267 0.543267 0.543267
0.545373 0.545373 0.545373
0.547723 0.547723 0.547723
0.550317 0.550317 0.550317
0.553094 0.553094 0.553094
0.556146 0.556146 0.556146
0.559442 0.559442 0.559442
0.563012 0.563012 0.563012
0.566857 0.566857 0.566857
0.571099 0.571099 0.571099
0.575647 0.575647 0.575647
0.580499 0.580499 0.580499
0.585779 0.585779 0.585779
0.591302 0.591302 0.591302
0.597070 0.597070 0.597070
0.603388 0.603388 0.603388
0.622675 0.622675 0.622675
0.666438 0.637110 0.626764
0.711391 0.652552 0.630610
0.756130 0.669398 0.635340
0.800595 0.687648 0.641108
0.844663 0.707149 0.648066
0.888029 0.727657 0.656214
0.560113 0.560113 0.560113
0.560479 0.560479 0.560479
0.560784 0.560784 0.560784
0.561242 0.561242 0.561242
0.561730 0.561730 0.561730
0.562402 0.562402 0.562402
0.563195 0.563195 0.563195
0.564172 0.564172 0.564172
0.565423 0.565423 0.565423
0.566949 0.566949 0.566949
0.568719 0.568719 0.568719
0.570886 0.570886 0.570886
0.573236 0.573236 0.573236
0.575769 0.575769 0.575769
0.578515 0.578515 0.578515
0.581476 0.581476 0.581476
0.584741 0.584741 0.584741
0.588373 0.588373 0.588373
0.592523 0.592523 0.592523
0.597009 0.597009 0.597009
0.601923 0.601923 0.601923
0.607172 0.607172 0.607172
0.612604 0.612604 0.612604
0.618189 0.618189 0.618189
0.623987 0.623987 0.623987
0.630793 0.630793 0.630793
0.651179 0.651179 0.651179
0.692470 0.667720 0.659113
0.738460 0.684443 0.664607
0.784237 0.702693 0.671229
0.829618 0.722347 0.679011
0.874296 0.743313 0.688258
0.583978 0.583978 0.583978
0.584375 0.584375 0.584375
0.584680 0.584680 0.584680
0.585138 0.585138 0.585138
0.585626 0.585626 0.585626
0.586297 0.586297 0.586297
0.587091 0.587091 0.587091
0.588128 0.588128 0.588128
0.589410 0.589410 0.589410
0.590997 0.590997 0.590997
0.592889 0.592889 0.592889
0.594995 0.594995 0.594995
0.597436 0.597436 0.597436
0.600031 0.600031 0.600031
0.602838 0.602838 0.602838
0.605859 0.605859 0.605859
0.609125 0.609125 0.609125
0.612818 0.612818 0.612818
0.616876 0.616876 0.616876
0.621363 0.621363 0.621363
0.626154 0.626154 0.626154
0.631312 0.631312 0.631312
0.636774 0.636774 0.636774
0.642420 0.642420 0.642420
0.648249 0.648249 0.648249
0.654292 0.654292 0.654292
0.660609 0.660609 0.660609
0.682002 0.682002 0.682002
0.721157 0.700984 0.694026
0.768399 0.719326 0.701503
0.815244 0.739193 0.710262
0.861326 0.760433 0.720394
0.609735 0.609735 0.609735
0.610040 0.610040 0.610040
0.610254 0.610254 0.610254
0.610590 0.610590 0.610590
0.610986 0.610986 0.610986
0.611536 0.611536 0.611536
0.612299 0.612299 0.612299
0.613245 0.613245 0.613245
0.614496 0.614496 0.614496
0.616083 0.616083 0.616083
0.617914 0.617914 0.617914
0.620111 0.620111 0.620111
0.622522 0.622522 0.622522
0.625177 0.625177 0.625177
0.627924 0.627924 0.627924
0.630945 0.630945 0.630945
0.634150 0.634150 0.634150
0.637751 0.637751 0.637751
0.641779 0.641779 0.641779
0.646204 0.646204 0.646204
0.651026 0.651026 0.651026
0.656092 0.656092 0.656092
0.661524 0.661524 0.661524
0.667170 0.667170 0.667170
0.673030 0.673030 0.673030
0.679072 0.679072 0.679072
0.685451 0.685451 0.685451
0.692073 0.692073 0.692073
0.713588 0.713588 0.713588
0.750637 0.734981 0.729671
0.798947 0.754940 0.739162
0.846555 0.776425 0.750149
0.636011 0.636011 0.636011
0.636316 0.636316 0.636316
0.636530 0.636530 0.636530
0.636866 0.636866 0.636866
0.637385 0.637385 0.637385
0.638117 0.638117 0.638117
0.639216 0.639216 0.639216
0.640650 0.640650 0.640650
0.642329 0.642329 0.642329
0.644404 0.644404 0.644404
0.646693 0.646693 0.646693
0.649348 0.649348 0.649348
0.652094 0.652094 0.652094
0.655024 0.655024 0.655024
0.658045 0.658045 0.658045
0.661097 0.661097 0.661097
0.664424 0.664424 0.664424
0.668086 0.668086 0.668086
0.672084 0.672084 0.672084
0.676478 0.676478 0.676478
0.681209 0.681209 0.681209
0.686366 0.686366 0.686366
0.691707 0.691707 0.691707
0.697322 0.697322 0.697322
0.703151 0.703151 0.703151
0.709255 0.709255 0.709255
0.715633 0.715633 0.715633
0.722347 0.722347 0.722347
0.729397 0.729397 0.729397
0.750881 0.750881 0.750881
0.785824 0.774685 0.770901
0.834806 0.796201 0.782528
0.666712 0.666712 0.666712
0.666926 0.666926 0.666926
0.667079 0.667079 0.667079
0.667353 0.667353 0.667353
0.667720 0.667720 0.667720
0.668391 0.668391 0.668391
0.669245 0.669245 0.669245
0.670375 0.670375 0.670375
0.671839 0.671839 0.671839
0.673579 0.673579 0.673579
0.675563 0.675563 0.675563
0.677852 0.677852 0.677852
0.680293 0.680293 0.680293
0.683009 0.683009 0.683009
