data/fiter_cube/96143635/1022808/file.cube
# Created by Adobe Lightroom plugin Export LUT (1.17.0)
# www.johnrellis.com/lightroom/exportlut.htm
# Preset: 高雅通透灰色调人像_01 云集
# Color profile: C:\Program Files (x86)\Common Files\Adobe\Color\Profiles\Recommended\AdobeRGB1998.icc
LUT_3D_SIZE 8
DOMAIN_MIN 0.000000 0.000000 0.000000
DOMAIN_MAX 0.903226 0.903226 0.903226
0.000000 0.000000 0.000000
0.129763 0.072572 0.073732
0.238315 0.092378 0.096559
0.337804 0.118929 0.125765
0.430793 0.153079 0.161929
0.523522 0.187747 0.198306
0.616419 0.226017 0.238071
0.730007 0.272282 0.286229
0.113008 0.113008 0.113008
0.125277 0.125277 0.125277
0.251072 0.151278 0.115572
0.347234 0.165377 0.142000
0.438178 0.187961 0.174105
0.527642 0.214145 0.207492
0.618128 0.246830 0.245212
0.731167 0.290349 0.292790
0.204044 0.204044 0.204044
0.209476 0.209476 0.209476
0.227695 0.227695 0.227695
0.371344 0.268956 0.214725
0.473915 0.287480 0.221012
0.553796 0.297734 0.246525
0.641840 0.320043 0.280552
0.750484 0.356115 0.325170
0.300877 0.300877 0.300877
0.303716 0.303716 0.303716
0.314824 0.314824 0.314824
0.339666 0.339666 0.339666
0.466346 0.379614 0.341650
0.597436 0.419684 0.320317
0.676020 0.427100 0.342779
0.775418 0.453407 0.380804
0.398627 0.398627 0.398627
0.400580 0.400580 0.400580
0.408606 0.408606 0.408606
0.423774 0.423774 0.423774
0.443000 0.443000 0.443000
0.534966 0.477638 0.455543
0.688411 0.524743 0.443458
0.809079 0.570367 0.459266
0.489693 0.489693 0.489693
0.492866 0.492866 0.492866
0.497780 0.497780 0.497780
0.507042 0.507042 0.507042
0.520287 0.520287 0.520287
0.538659 0.538659 0.538659
0.619654 0.581231 0.567376
0.789334 0.640986 0.574426
0.583978 0.583978 0.583978
0.585626 0.585626 0.585626
0.589410 0.589410 0.589410
0.597436 0.597436 0.597436
0.609125 0.609125 0.609125
0.626154 0.626154 0.626154
0.648249 0.648249 0.648249
0.721157 0.700984 0.694026
0.695827 0.695827 0.695827
0.696895 0.696895 0.696895
0.701228 0.701228 0.701228
0.710109 0.710109 0.710109
0.718379 0.718379 0.718379
0.735988 0.735988 0.735988
0.758938 0.758938 0.758938
0.785519 0.785519 0.785519
0.096132 0.096132 0.096132
0.109529 0.109529 0.109529
0.230320 0.123720 0.154818
0.324926 0.138430 0.167391
0.418341 0.166354 0.192081
0.510979 0.194644 0.218997
0.604181 0.228061 0.251408
0.718898 0.270573 0.294530
0.121859 0.121859 0.121859
0.152377 0.152377 0.152377
0.240970 0.161074 0.162600
0.335790 0.177005 0.180758
0.427222 0.196811 0.202487
0.517235 0.219699 0.227726
0.607172 0.248417 0.258518
0.720211 0.288212 0.300664
0.210178 0.210178 0.210178
0.225559 0.225559 0.225559
0.241733 0.241733 0.241733
0.374060 0.281285 0.233188
0.462684 0.288701 0.243778
0.542809 0.298131 0.262821
0.628656 0.317693 0.290501
0.738735 0.352270 0.331121
0.305791 0.305791 0.305791
0.312230 0.312230 0.312230
0.323461 0.323461 0.323461
0.343999 0.343999 0.343999
0.465431 0.381323 0.344366
0.583459 0.413764 0.329534
0.662684 0.421668 0.349187
0.764736 0.448493 0.384894
0.404059 0.404059 0.404059
0.405646 0.405646 0.405646
0.412787 0.412787 0.412787
0.425971 0.425971 0.425971
0.443671 0.443671 0.443671
0.535882 0.478279 0.455940
0.686641 0.525719 0.445747
0.801999 0.566522 0.463050
0.491371 0.491371 0.491371
0.492866 0.492866 0.492866
0.497780 0.497780 0.497780
0.507439 0.507439 0.507439
0.521263 0.521263 0.521263
0.540246 0.540246 0.540246
0.622095 0.582330 0.567926
0.789181 0.641199 0.574640
0.583093 0.583093 0.583093
0.583764 0.583764 0.583764
0.588006 0.588006 0.588006
0.596857 0.596857 0.596857
0.609339 0.609339 0.609339
0.626001 0.626001 0.626001
0.647059 0.647059 0.647059
0.720821 0.699123 0.691646
0.695186 0.695186 0.695186
0.696620 0.696620 0.696620
0.701137 0.701137 0.701137
0.710201 0.710201 0.710201
0.722469 0.722469 0.722469
0.738552 0.738552 0.738552
0.759670 0.759670 0.759670
0.785275 0.785275 0.785275
0.164523 0.164523 0.164523
0.173404 0.173404 0.173404
0.201419 0.201419 0.201419
0.299840 0.248264 0.270848
0.417334 0.215640 0.275395
0.491402 0.198093 0.261967
0.585901 0.226230 0.285252
0.703853 0.263951 0.321324
0.193057 0.193057 0.193057
0.203006 0.203006 0.203006
0.222782 0.222782 0.222782
0.317021 0.249790 0.275669
0.417365 0.222141 0.270085
0.496956 0.219699 0.268345
0.590051 0.247044 0.292363
0.707027 0.282872 0.327977
0.226200 0.226200 0.226200
0.240208 0.240208 0.240208
0.287694 0.287694 0.287694
0.359747 0.278386 0.279759
0.443397 0.285527 0.288731
0.524437 0.297002 0.301976
0.610956 0.315557 0.322423
0.723537 0.346563 0.355962
0.311315 0.311315 0.311315
0.321263 0.321263 0.321263
0.352453 0.352453 0.352453
0.370703 0.370703 0.370703
0.489204 0.405890 0.368139
0.567437 0.412268 0.366308
0.648157 0.420630 0.380285
0.753048 0.445716 0.409522
0.407019 0.407019 0.407019
0.413916 0.413916 0.413916
0.432715 0.432715 0.432715
0.445136 0.445136 0.445136
0.461494 0.461494 0.461494
0.553735 0.493751 0.469978
0.693019 0.539879 0.463844
0.792538 0.562829 0.482460
0.495430 0.495430 0.495430
0.499794 0.499794 0.499794
0.509636 0.509636 0.509636
0.518181 0.518181 0.518181
0.531090 0.531090 0.531090
0.549126 0.549126 0.549126
0.635737 0.590967 0.574456
0.799008 0.650721 0.583368
0.588830 0.588830 0.588830
0.591760 0.591760 0.591760
0.597345 0.597345 0.597345
0.605066 0.605066 0.605066
0.616876 0.616876 0.616876
0.633661 0.633661 0.633661
0.655695 0.655695 0.655695
0.736080 0.708888 0.699367
0.700282 0.700282 0.700282
0.702235 0.702235 0.702235
0.706264 0.706264 0.706264
0.716030 0.716030 0.716030
0.727871 0.727871 0.727871
0.744228 0.744228 0.744228
0.765560 0.765560 0.765560
0.791562 0.791562 0.791562
0.241367 0.241367 0.241367
0.248478 0.248478 0.248478
0.267643 0.267643 0.267643
0.293980 0.293980 0.293980
0.372412 0.372412 0.372412
0.491737 0.337987 0.396002
0.590356 0.298039 0.385565
0.685176 0.265721 0.371618
0.265934 0.265934 0.265934
0.270390 0.270390 0.270390
0.284337 0.284337 0.284337
0.306950 0.306950 0.306950
0.382574 0.381567 0.382055
0.496834 0.338018 0.394690
0.589227 0.298863 0.380163
0.682124 0.264866 0.363348
0.294896 0.294896 0.294896
0.304082 0.304082 0.304082
0.327398 0.327398 0.327398
0.347265 0.347265 0.347265
0.425299 0.377966 0.397742
0.516533 0.338567 0.386633
0.585229 0.302525 0.359503
0.696132 0.314794 0.376104
0.330297 0.330297 0.330297
0.338476 0.338476 0.338476
0.366705 0.366705 0.366705
0.419501 0.419501 0.419501
0.476112 0.399756 0.400977
0.539391 0.395514 0.398199
0.618952 0.401892 0.406195
0.728695 0.422766 0.429358
0.413062 0.413062 0.413062
0.419196 0.419196 0.419196
0.440650 0.440650 0.440650
0.474556 0.474556 0.474556
0.488502 0.488502 0.488502
0.583520 0.517540 0.489845
0.676814 0.533654 0.488350
0.775021 0.546960 0.501854
0.499702 0.499702 0.499702
0.504967 0.504967 0.504967
0.518273 0.518273 0.518273
0.539147 0.539147 0.539147
0.551232 0.551232 0.551232
0.567529 0.567529 0.567529
0.661646 0.607538 0.586877
0.817014 0.664973 0.594079
0.590845 0.590845 0.590845
0.594263 0.594263 0.594263
0.605554 0.605554 0.605554
0.621180 0.621180 0.621180
0.632654 0.632654 0.632654
0.648280 0.648280 0.648280
0.668666 0.668666 0.668666
0.758145 0.721065 0.707820
0.703334 0.703334 0.703334
0.705989 0.705989 0.705989
0.714504 0.714504 0.714504
0.726040 0.726040 0.726040
0.737514 0.737514 0.737514
0.753597 0.753597 0.753597
0.774777 0.774777 0.774777
0.800961 0.800961 0.800961
0.322332 0.322332 0.322332
0.326970 0.326970 0.326970
0.340032 0.340032 0.340032
0.359686 0.359686 0.359686
0.386603 0.386603 0.386603
0.463142 0.463142 0.463142
0.564050 0.476112 0.514336
0.689479 0.439216 0.527398
0.339117 0.339117 0.339117
0.342657 0.342657 0.342657
0.352941 0.352941 0.352941
0.369818 0.369818 0.369818
0.395361 0.395361 0.395361
0.469398 0.469398 0.469398
0.568933 0.474556 0.514611
0.692256 0.436072 0.523888
0.370367 0.370367 0.370367
0.377234 0.377234 0.377234
0.386603 0.386603 0.386603
0.402502 0.402502 0.402502
0.423407 0.423407 0.423407
0.488350 0.488350 0.488350
0.583368 0.466865 0.511528
0.700435 0.422187 0.507469
0.396643 0.396643 0.396643
0.402747 0.402747 0.402747
0.423774 0.423774 0.423774
0.452125 0.452125 0.452125
0.468666 0.468666 0.468666
0.524895 0.494606 0.507713
0.606744 0.448981 0.493446
0.701015 0.397925 0.463844
0.431647 0.431647 0.431647
0.436927 0.436927 0.436927
0.454383 0.454383 0.454383
0.483955 0.483955 0.483955
0.525566 0.525566 0.525566
0.569268 0.501488 0.502586
0.637568 0.491707 0.494270
0.740841 0.498482 0.503105
0.501213 0.501213 0.501213
0.505089 0.505089 0.505089
0.517967 0.517967 0.517967
0.541131 0.541131 0.541131
0.572656 0.572656 0.572656
0.589227 0.589227 0.589227
0.695460 0.626703 0.598474
0.809171 0.655604 0.603937
0.592584 0.592584 0.592584
0.595453 0.595453 0.595453
0.605829 0.605829 0.605829
0.624567 0.624567 0.624567
0.648524 0.648524 0.648524
0.663905 0.663905 0.663905
0.683436 0.683436 0.683436
0.786252 0.734035 0.714534
0.703059 0.703059 0.703059
0.705348 0.705348 0.705348
0.713558 0.713558 0.713558
0.730404 0.730404 0.730404
0.748836 0.748836 0.748836
0.764492 0.764492 0.764492
0.785275 0.785275 0.785275
0.811124 0.811124 0.811124
0.408728 0.408728 0.408728
0.411749 0.411749 0.411749
0.420600 0.420600 0.420600
0.436683 0.436683 0.436683
0.456733 0.456733 0.456733
0.478462 0.478462 0.478462
0.551965 0.551965 0.551965
0.655482 0.620264 0.637354
0.419013 0.419013 0.419013
0.421393 0.421393 0.421393
0.429114 0.429114 0.429114
0.443885 0.443885 0.443885
0.462196 0.462196 0.462196
0.483162 0.483162 0.483162
0.555596 0.555596 0.555596
0.659632 0.617517 0.637690
0.449470 0.449470 0.449470
0.451270 0.451270 0.451270
0.457832 0.457832 0.457832
0.468910 0.468910 0.468910
0.483467 0.483467 0.483467
0.501335 0.501335 0.501335
0.570397 0.570397 0.570397
0.675349 0.608972 0.639307
0.472847 0.472847 0.472847
0.476753 0.476753 0.476753
0.490517 0.490517 0.490517
0.504540 0.504540 0.504540
0.516930 0.516930 0.516930
0.532372 0.532372 0.532372
0.596612 0.596612 0.596612
0.700923 0.590356 0.635218
0.495613 0.495613 0.495613
0.499153 0.499153 0.499153
0.511192 0.511192 0.511192
0.531823 0.531823 0.531823
0.555749 0.555749 0.555749
0.570397 0.570397 0.570397
0.630213 0.601678 0.614435
0.729030 0.547753 0.601587
0.523735 0.523735 0.523735
0.527306 0.527306 0.527306
0.538201 0.538201 0.538201
0.557153 0.557153 0.557153
0.584771 0.584771 0.584771
0.629877 0.629877 0.629877
0.678187 0.598932 0.600214
0.768490 0.591974 0.595056
0.597711 0.597711 0.597711
0.601038 0.601038 0.601038
0.611261 0.611261 0.611261
0.629114 0.629114 0.629114
0.655055 0.655055 0.655055
0.690272 0.690272 0.690272
0.708888 0.708888 0.708888
0.828275 0.756100 0.726925
0.706722 0.706722 0.706722
0.708858 0.708858 0.708858
0.716793 0.716793 0.716793
0.731777 0.731777 0.731777
0.753475 0.753475 0.753475
0.781064 0.781064 0.781064
0.801968 0.801968 0.801968
0.827695 0.827695 0.827695
0.500847 0.500847 0.500847
0.502495 0.502495 0.502495
0.508995 0.508995 0.508995
0.519493 0.519493 0.519493
0.533013 0.533013 0.533013
0.549798 0.549798 0.549798
0.569818 0.569818 0.569818
0.655879 0.655879 0.655879
0.509789 0.509789 0.509789
0.511040 0.511040 0.511040
0.516686 0.516686 0.516686
0.526238 0.526238 0.526238
0.539452 0.539452 0.539452
0.556237 0.556237 0.556237
0.576104 0.576104 0.576104
0.662043 0.662043 0.662043
0.528985 0.528985 0.528985
0.530297 0.530297 0.530297
0.535149 0.535149 0.535149
0.543389 0.543389 0.543389
0.555505 0.555505 0.555505
0.570703 0.570703 0.570703
0.588678 0.588678 0.588678
0.671504 0.671504 0.671504
0.551415 0.551415 0.551415
0.554314 0.554314 0.554314
0.562554 0.562554 0.562554
0.569390 0.569390 0.569390
0.579858 0.579858 0.579858
0.593225 0.593225 0.593225
0.609430 0.609430 0.609430
0.689479 0.689479 0.689479
0.572229 0.572229 0.572229
0.575250 0.575250 0.575250
0.584802 0.584802 0.584802
0.599786 0.599786 0.599786
0.613703 0.613703 0.613703
0.626551 0.626551 0.626551
0.642725 0.642725 0.642725
0.718654 0.718654 0.718654
0.598474 0.598474 0.598474
0.600885 0.600885 0.600885
0.609247 0.609247 0.609247
0.623072 0.623072 0.623072
0.643488 0.643488 0.643488
0.668788 0.668788 0.668788
0.685756 0.685756 0.685756
0.758755 0.731044 0.743648
0.629114 0.629114 0.629114
0.631067 0.631067 0.631067
0.638697 0.638697 0.638697
0.651911 0.651911 0.651911
0.673091 0.673091 0.673091
0.704433 0.704433 0.704433
0.752438 0.752438 0.752438
0.813687 0.721279 0.722774
0.713771 0.713771 0.713771
0.716152 0.716152 0.716152
0.722683 0.722683 0.722683
0.736965 0.736965 0.736965
0.759396 0.759396 0.759396
0.789944 0.789944 0.789944
0.828977 0.828977 0.828977
0.854520 0.854520 0.854520
0.613886 0.613886 0.613886
0.614984 0.614984 0.614984
0.620050 0.620050 0.620050
0.627985 0.627985 0.627985
0.639277 0.639277 0.639277
0.653803 0.653803 0.653803
0.670985 0.670985 0.670985
0.691920 0.691920 0.691920
0.619928 0.619928 0.619928
0.620905 0.620905 0.620905
0.625513 0.625513 0.625513
0.633265 0.633265 0.633265
0.644160 0.644160 0.644160
0.658350 0.658350 0.658350
0.675532 0.675532 0.675532
0.696315 0.696315 0.696315
0.636011 0.636011 0.636011
0.636988 0.636988 0.636988
0.641352 0.641352 0.641352
0.647272 0.647272 0.647272
0.657465 0.657465 0.657465
0.671046 0.671046 0.671046
0.687343 0.687343 0.687343
0.707210 0.707210 0.707210
0.658869 0.658869 0.658869
0.659663 0.659663 0.659663
0.663294 0.663294 0.663294
0.669093 0.669093 0.669093
0.677943 0.677943 0.677943
0.690211 0.690211 0.690211
0.705348 0.705348 0.705348
0.724300 0.724300 0.724300
0.677974 0.677974 0.677974
0.679561 0.679561 0.679561
0.686122 0.686122 0.686122
0.696315 0.696315 0.696315
0.704982 0.704982 0.704982
0.716793 0.716793 0.716793
0.731685 0.731685 0.731685
0.750515 0.750515 0.750515
0.702358 0.702358 0.702358
0.704402 0.704402 0.704402
0.710933 0.710933 0.710933
0.721279 0.721279 0.721279
0.736110 0.736110 0.736110
0.750881 0.750881 0.750881
0.765133 0.765133 0.765133
0.784939 0.784939 0.784939
0.732570 0.732570 0.732570
0.734401 0.734401 0.734401
0.740597 0.740597 0.740597
0.750759 0.750759 0.750759
0.766262 0.766262 0.766262
0.788174 0.788174 0.788174
0.815427 0.815427 0.815427
0.837186 0.837186 0.837186
0.770687 0.770687 0.770687
0.772580 0.772580 0.772580
0.778225 0.778225 0.778225
0.787839 0.787839 0.787839
0.803159 0.803159 0.803159
0.825864 0.825864 0.825864
0.858549 0.858549 0.858549
0.905974 0.905974 0.905974
