data/fiter_cube/60169440/1023146/file.cube
# Created by Adobe Lightroom plugin Export LUT (1.17.0)
# www.johnrellis.com/lightroom/exportlut.htm
# Preset: 海滩旅拍低饱和胶片_04 云集
# Color profile: C:\Program Files (x86)\Common Files\Adobe\Color\Profiles\Recommended\AdobeRGB1998.icc
LUT_3D_SIZE 8
DOMAIN_MIN 0.000000 0.000000 0.000000
DOMAIN_MAX 0.903226 0.903226 0.903226
0.039918 0.046296 0.071168
0.084565 0.058717 0.080140
0.217502 0.000000 0.090944
0.414466 0.000000 0.097810
0.626001 0.000000 0.108644
0.794400 0.000000 0.144900
0.915831 0.129519 0.231449
0.993835 0.415259 0.410712
0.005432 0.100374 0.093538
0.074159 0.079530 0.090242
0.197879 0.077790 0.089693
0.390234 0.000000 0.096010
0.600305 0.000000 0.104524
0.769345 0.000000 0.134432
0.901305 0.141939 0.215396
0.988739 0.409644 0.392889
0.000000 0.266148 0.153964
0.000000 0.244450 0.131930
0.203220 0.169162 0.137606
0.367102 0.169406 0.087343
0.578088 0.143252 0.093050
0.758633 0.159243 0.124208
0.905516 0.289006 0.222324
0.989502 0.479957 0.414405
0.000000 0.506126 0.250309
0.000000 0.488991 0.221530
0.177249 0.392096 0.203952
0.472328 0.358160 0.240726
0.598047 0.324712 0.102541
0.748013 0.343206 0.102998
0.891752 0.410315 0.210239
0.980957 0.543359 0.407477
0.000000 0.693141 0.363592
0.000000 0.683406 0.340429
0.000000 0.646754 0.300908
0.386755 0.540673 0.304387
0.664973 0.524773 0.365667
0.751888 0.475257 0.197940
0.862425 0.513970 0.180880
0.968872 0.617670 0.398993
0.000000 0.821225 0.475410
0.000000 0.822599 0.467262
0.000000 0.802029 0.432105
0.371832 0.740017 0.406439
0.607782 0.692531 0.440192
0.794827 0.668482 0.531121
0.877958 0.640681 0.388861
0.959594 0.706111 0.424720
0.000000 0.922301 0.593988
0.000000 0.920775 0.587640
0.000000 0.907256 0.566949
0.393225 0.874052 0.575158
0.586908 0.811978 0.563470
0.774228 0.808896 0.622614
0.876982 0.787045 0.703700
0.941436 0.784543 0.640711
0.000000 0.997467 0.706935
0.000000 0.995575 0.704341
0.000000 0.986206 0.704005
0.447486 0.961364 0.731014
0.663081 0.926177 0.737148
0.774319 0.891081 0.762081
0.889158 0.899626 0.806851
0.932219 0.876249 0.841978
0.029145 0.055390 0.101167
0.091310 0.056001 0.094087
0.199344 0.050660 0.089845
0.385992 0.000000 0.096162
0.592767 0.000000 0.104463
0.760708 0.000000 0.132113
0.895964 0.090333 0.209873
0.986328 0.384436 0.380224
0.000000 0.099611 0.123445
0.080049 0.095888 0.114137
0.197116 0.093843 0.100496
0.374151 0.002289 0.094423
0.578729 0.000000 0.101625
0.747860 0.000000 0.126711
0.884581 0.123507 0.199222
0.980560 0.379095 0.363012
0.000000 0.271061 0.185061
0.000000 0.251194 0.161929
0.216617 0.189334 0.166812
0.363439 0.177035 0.102846
0.553033 0.152743 0.091005
0.734432 0.159609 0.116182
0.881987 0.258427 0.197055
0.980438 0.444953 0.376318
0.000000 0.494453 0.269627
0.000000 0.480446 0.244724
0.190066 0.395880 0.225132
0.452857 0.350896 0.256901
0.559930 0.308507 0.123415
0.711330 0.318700 0.091768
0.866545 0.379492 0.182345
0.971740 0.513024 0.369604
0.000000 0.690578 0.381537
0.000000 0.679927 0.358709
0.000000 0.641962 0.317327
0.381231 0.531334 0.314092
0.650202 0.515923 0.373846
0.734340 0.465278 0.205844
0.849119 0.499702 0.165560
0.963043 0.601740 0.375006
0.000000 0.815122 0.483680
0.000000 0.810880 0.470130
0.000000 0.791196 0.435065
0.366949 0.733089 0.410407
0.601221 0.686427 0.445350
0.791592 0.669184 0.542596
0.872404 0.637781 0.392950
0.955779 0.696620 0.406928
0.000000 0.915007 0.594079
0.000000 0.911315 0.584283
0.000000 0.899229 0.563531
0.375982 0.868833 0.570489
0.581720 0.808347 0.563043
0.767605 0.803769 0.620111
0.871885 0.781796 0.699886
0.936858 0.775875 0.626947
0.000000 0.994598 0.707607
0.000000 0.993347 0.705562
0.000000 0.984741 0.704036
0.428351 0.960601 0.728695
0.673518 0.929778 0.750820
0.777768 0.893462 0.768673
0.887510 0.898680 0.807126
0.930694 0.874723 0.840909
0.000000 0.069245 0.188479
0.070283 0.065980 0.181735
0.307042 0.000000 0.164858
0.417182 0.000000 0.127474
0.598169 0.000000 0.102968
0.764004 0.000000 0.131014
0.901396 0.176364 0.215854
0.989776 0.411139 0.396521
0.000000 0.121614 0.205081
0.075502 0.114961 0.203891
0.269932 0.096773 0.173404
0.409888 0.040558 0.138399
0.584375 0.000000 0.110414
0.751736 0.000000 0.125612
0.892912 0.195712 0.207340
0.986419 0.414160 0.386877
0.000000 0.278508 0.280827
0.000000 0.287297 0.271855
0.251743 0.246586 0.235996
0.413214 0.214237 0.175082
0.579767 0.189029 0.135683
0.740261 0.203525 0.115145
0.885161 0.287297 0.200351
0.981872 0.456611 0.383398
0.000000 0.533898 0.383581
0.000000 0.529717 0.357458
0.235874 0.462684 0.307286
0.483040 0.405859 0.332006
0.573480 0.343175 0.182895
0.726070 0.343236 0.141054
0.874083 0.400488 0.190188
0.975402 0.527947 0.384741
0.000000 0.709010 0.462593
0.000000 0.701045 0.441505
0.000000 0.667109 0.395270
0.415412 0.559777 0.384039
0.667659 0.556359 0.447974
0.738216 0.489601 0.263584
0.853788 0.510491 0.199924
0.965393 0.608392 0.384527
0.000000 0.824521 0.540795
0.000000 0.820218 0.528008
0.000000 0.799954 0.493751
0.394324 0.747799 0.466499
0.607538 0.692134 0.492195
0.790097 0.684413 0.590448
0.866819 0.646021 0.428595
0.957702 0.700374 0.413367
0.000000 0.921172 0.636133
0.000000 0.917937 0.627649
0.000000 0.904814 0.605371
0.372808 0.873503 0.601678
0.592676 0.815305 0.595300
0.767544 0.806485 0.648646
0.873533 0.794369 0.733639
0.937682 0.789822 0.662440
0.000000 0.996796 0.731716
0.000000 0.995026 0.727321
0.000000 0.986816 0.721431
0.392523 0.964263 0.741573
0.684932 0.930694 0.775204
0.779751 0.896880 0.779263
0.886687 0.900206 0.817807
0.931212 0.879728 0.852628
0.000000 0.085725 0.336217
0.000000 0.083772 0.336309
0.325628 0.000000 0.341131
0.602228 0.000000 0.283177
0.631434 0.000000 0.197452
0.764614 0.000000 0.169192
0.894774 0.180911 0.209140
0.988067 0.400793 0.388891
0.000000 0.153292 0.358373
0.000000 0.137911 0.356909
0.333562 0.108980 0.357916
0.578882 0.000000 0.290196
0.627558 0.000000 0.207279
0.758328 0.000000 0.175967
0.889433 0.208316 0.203983
0.986206 0.408515 0.384894
0.000000 0.290837 0.396979
0.000000 0.295933 0.392370
0.315984 0.304753 0.393042
0.484291 0.264225 0.308110
0.620172 0.224063 0.241642
0.756893 0.234836 0.207492
0.893919 0.315129 0.209903
0.986297 0.468177 0.400397
0.000000 0.528618 0.503899
0.000000 0.535454 0.499977
0.185855 0.540917 0.466499
0.501457 0.461707 0.420417
0.607996 0.389715 0.298924
0.739040 0.370855 0.248295
0.875731 0.410437 0.236667
0.978546 0.531426 0.395605
0.000000 0.732601 0.599237
0.000000 0.728511 0.581384
0.000000 0.706905 0.524590
0.475471 0.616510 0.493141
0.677058 0.600580 0.532738
0.737819 0.518090 0.337011
0.862730 0.530602 0.300450
0.969818 0.614069 0.400366
0.000000 0.844633 0.642390
0.000000 0.846189 0.635401
0.000000 0.825620 0.596826
0.451606 0.780179 0.579980
0.628351 0.713680 0.577630
0.792752 0.713619 0.653010
0.864042 0.664942 0.486336
0.957031 0.710689 0.476692
0.000000 0.929381 0.702358
0.000000 0.927642 0.695888
0.000000 0.917601 0.676356
0.353338 0.889586 0.663264
0.619471 0.837919 0.660609
0.770748 0.815427 0.697017
0.874266 0.809537 0.770657
0.936248 0.800443 0.693416
0.000000 1.000000 0.776761
0.000000 1.000000 0.773556
0.000000 0.995331 0.764034
0.262242 0.974334 0.764828
0.664088 0.938445 0.791867
0.781277 0.904204 0.796628
0.883696 0.901976 0.832059
0.931518 0.886137 0.867735
0.000000 0.116091 0.516930
0.000000 0.113161 0.518090
0.305791 0.000000 0.516075
0.693782 0.000000 0.565118
0.800168 0.000000 0.430152
0.800504 0.000000 0.300237
0.899351 0.210483 0.295995
0.990448 0.415381 0.399725
0.000000 0.170504 0.528557
0.000000 0.168917 0.531182
0.314427 0.141360 0.529351
0.689204 0.142824 0.575006
0.784482 0.131502 0.433478
0.785641 0.111513 0.310063
0.897337 0.241642 0.302220
0.989441 0.426001 0.398962
0.000000 0.344518 0.539330
0.000000 0.349096 0.545434
0.304967 0.325414 0.557183
0.660822 0.395514 0.596460
0.724941 0.302098 0.432593
0.769100 0.261845 0.332799
0.887205 0.318212 0.317906
0.984619 0.454231 0.391211
0.000000 0.510704 0.603784
0.000000 0.512993 0.600061
0.238407 0.523430 0.591913
0.597894 0.566064 0.610376
0.655665 0.455299 0.461463
0.758206 0.408911 0.380774
0.878325 0.423560 0.351446
0.981567 0.514916 0.399512
0.000000 0.709255 0.682002
0.000000 0.716182 0.683650
0.000000 0.718868 0.670405
0.513787 0.690974 0.628626
0.669123 0.627619 0.596277
0.741665 0.541039 0.440040
0.863462 0.534203 0.396674
0.970306 0.605676 0.449409
0.000000 0.841428 0.735317
0.000000 0.841672 0.731533
0.000000 0.833951 0.706233
0.401373 0.800565 0.663508
0.619898 0.719112 0.639887
0.784604 0.729305 0.695003
0.854368 0.669825 0.521386
0.955566 0.713802 0.545678
0.000000 0.932891 0.781186
0.000000 0.931365 0.775204
0.000000 0.925475 0.756191
0.256901 0.902129 0.731502
0.622766 0.860929 0.728420
0.757534 0.816373 0.732692
0.870298 0.819242 0.795285
0.933196 0.803464 0.709102
0.000000 1.000000 0.826871
0.000000 1.000000 0.823270
0.000000 0.998169 0.811856
0.000000 0.985077 0.804562
0.576257 0.953338 0.806973
0.773007 0.915190 0.815763
0.874174 0.901366 0.843229
0.929900 0.890654 0.879210
0.000000 0.165438 0.696010
0.000000 0.162570 0.696437
0.299474 0.125216 0.696162
0.634394 0.000000 0.719356
0.872374 0.326299 0.720790
0.900938 0.307530 0.574487
0.930236 0.278416 0.461158
0.985657 0.474281 0.527214
0.000000 0.212558 0.693660
0.000000 0.211582 0.693812
0.298863 0.194186 0.695277
0.624231 0.149020 0.714870
0.863828 0.386969 0.724483
0.891661 0.340063 0.576074
0.923491 0.295933 0.460487
0.983825 0.480446 0.527123
0.000000 0.403510 0.701350
0.000000 0.400427 0.705257
0.294743 0.358343 0.709102
0.609094 0.373907 0.722560
0.845365 0.545769 0.751431
0.865690 0.433356 0.589410
0.900938 0.386145 0.484596
0.980163 0.515740 0.540093
0.000000 0.542351 0.720089
0.000000 0.543175 0.716396
0.285710 0.552880 0.708888
0.576257 0.563226 0.733364
0.811215 0.667750 0.772305
0.819516 0.517784 0.593622
0.887175 0.487770 0.521721
0.975952 0.574701 0.566369
0.000000 0.686793 0.758785
0.000000 0.688045 0.757382
0.000000 0.691157 0.752529
0.509972 0.696834 0.747372
0.722866 0.703609 0.740108
0.769711 0.608453 0.615381
0.869749 0.574426 0.550195
0.967590 0.628717 0.578485
0.000000 0.828275 0.802243
0.000000 0.832975 0.804501
0.000000 0.835538 0.801968
0.385260 0.826658 0.790951
0.676753 0.793698 0.764157
0.780453 0.750973 0.743099
0.854185 0.685328 0.611414
0.956115 0.719234 0.632837
0.000000 0.934051 0.847501
0.000000 0.934295 0.846616
0.000000 0.931212 0.841184
0.182589 0.918669 0.827359
0.598535 0.887419 0.803922
0.750393 0.829221 0.782559
0.869535 0.834745 0.826932
0.934722 0.812497 0.734524
0.000000 1.000000 0.883268
0.000000 1.000000 0.881193
0.000000 1.000000 0.873228
0.000000 0.991913 0.861357
0.482155 0.967071 0.850156
0.750454 0.933165 0.849027
0.859831 0.901610 0.858213
0.929259 0.898314 0.893492
0.000000 0.231113 0.821408
0.000000 0.231296 0.823911
0.306798 0.214359 0.823331
0.596277 0.172061 0.824002
0.831296 0.266545 0.834836
0.939483 0.545281 0.816403
0.954467 0.491768 0.703944
0.987762 0.527398 0.664332
0.000000 0.265293 0.812741
0.000000 0.266331 0.815091
0.293614 0.256107 0.815488
0.581506 0.229923 0.815702
0.817990 0.306706 0.827268
0.932341 0.557122 0.813199
0.947112 0.487617 0.694026
0.983093 0.510460 0.647303
0.000000 0.447913 0.817350
0.000000 0.423499 0.818509
0.286137 0.391699 0.819059
0.569970 0.394446 0.820005
0.800534 0.456214 0.831083
0.919036 0.640406 0.829435
0.936248 0.555840 0.716518
0.978271 0.564111 0.674067
0.000000 0.581506 0.815763
0.000000 0.580591 0.812070
0.317540 0.578454 0.816434
0.542962 0.562219 0.825528
0.775387 0.608148 0.840482
0.902098 0.728817 0.850675
0.919615 0.629877 0.741176
0.968109 0.622766 0.700435
0.000000 0.688777 0.833371
0.000000 0.686488 0.830167
0.056672 0.682887 0.822660
0.471626 0.685145 0.813565
0.703792 0.694087 0.828428
0.872892 0.777035 0.855619
0.886625 0.657649 0.728206
0.954498 0.677577 0.720241
0.000000 0.808072 0.857877
0.000000 0.807858 0.856931
0.000000 0.806149 0.853635
0.367620 0.802029 0.849149
0.643488 0.796963 0.843839
0.828763 0.817960 0.856504
0.857877 0.731716 0.754208
0.946654 0.741970 0.747890
0.000000 0.918334 0.887449
0.000000 0.919249 0.887602
0.000000 0.920256 0.887480
0.175051 0.916228 0.886473
0.572961 0.899840 0.878782
0.779934 0.875486 0.862852
0.861479 0.842710 0.848875
0.933471 0.813169 0.781735
0.000000 0.998657 0.916930
0.000000 0.998383 0.916228
0.000000 0.998230 0.915587
0.000000 0.991211 0.912200
0.433356 0.974273 0.906828
0.713771 0.949096 0.893462
0.847654 0.912932 0.882170
0.928222 0.907286 0.909392
0.000000 0.312291 0.901640
0.000000 0.311864 0.902190
0.334874 0.298436 0.899565
0.577142 0.280583 0.898619
0.789273 0.292546 0.902586
0.922972 0.468299 0.891234
0.970275 0.636957 0.861723
0.985199 0.620386 0.799741
0.000000 0.338903 0.897887
0.000000 0.339117 0.898528
0.323888 0.329320 0.896757
0.566491 0.314458 0.895201
0.780026 0.328008 0.899016
0.917815 0.489448 0.890288
0.967163 0.646876 0.862455
0.982910 0.625055 0.799741
0.000000 0.471351 0.892821
0.000000 0.450752 0.893889
0.286687 0.422858 0.892180
0.548821 0.428626 0.894438
0.760189 0.443610 0.895567
0.905364 0.566979 0.893309
0.959258 0.696254 0.872892
0.976959 0.662623 0.813107
0.000000 0.597284 0.887053
0.000000 0.597955 0.888182
0.342412 0.598230 0.888731
0.503868 0.556207 0.892332
0.724941 0.571801 0.892973
0.886748 0.657191 0.900175
0.949706 0.763149 0.890684
0.969451 0.719509 0.836179
0.000000 0.696345 0.892943
0.000000 0.696742 0.892699
0.000000 0.691341 0.887572
0.422736 0.683406 0.884794
0.655268 0.671748 0.890745
0.851804 0.720729 0.902831
0.939757 0.822538 0.908965
0.958984 0.763180 0.851102
0.000000 0.803616 0.909850
0.000000 0.801480 0.908446
0.000000 0.795285 0.904509
0.261448 0.785794 0.898619
0.567437 0.777401 0.890105
0.792325 0.789822 0.902525
0.930632 0.875181 0.927825
0.947112 0.803464 0.864195
0.000000 0.913970 0.933837
0.000000 0.912993 0.933135
0.000000 0.909056 0.930877
0.000000 0.900694 0.927214
0.507317 0.886442 0.921202
0.732509 0.871489 0.913542
0.895140 0.889494 0.924773
0.924559 0.832090 0.865507
0.000000 0.987457 0.945769
0.000000 0.987213 0.945281
0.000000 0.986542 0.944305
0.000000 0.982818 0.942931
0.356085 0.971740 0.941405
0.674006 0.952636 0.936095
0.844724 0.935302 0.929473
0.920775 0.912535 0.922698
