data/fiter_cube/60169440/1023146/file.cube
# Created by Adobe Lightroom plugin Export LUT (1.17.0)
# www.johnrellis.com/lightroom/exportlut.htm
# Preset: 海滩旅拍低饱和胶片_04 云集
# Color profile: C:\Program Files (x86)\Common Files\Adobe\Color\Profiles\Recommended\AdobeRGB1998.icc
LUT_3D_SIZE 32
DOMAIN_MIN 0.0 0.0 0.0
DOMAIN_MAX 1.0 1.0 1.0
0.039918 0.046296 0.071168
0.048219 0.047059 0.071778
0.056245 0.049165 0.073030
0.067903 0.054322 0.076448
0.084565 0.058717 0.080140
0.107912 0.059052 0.083375
0.138735 0.051362 0.086213
0.175540 0.029480 0.088502
0.217502 0.000000 0.090944
0.263157 0.000000 0.092958
0.312200 0.000000 0.094606
0.362890 0.000000 0.096437
0.414466 0.000000 0.097810
0.465614 0.000000 0.099550
0.515343 0.000000 0.101625
0.570245 0.000000 0.104402
0.626001 0.000000 0.108644
0.674342 0.000000 0.114504
0.716823 0.000000 0.122072
0.756802 0.000000 0.132052
0.794400 0.000000 0.144900
0.829404 0.000000 0.161166
0.861112 0.000000 0.180575
0.889891 0.000000 0.203861
0.915831 0.129519 0.231449
0.939208 0.209567 0.264256
0.960174 0.278782 0.304112
0.978515 0.346227 0.352361
0.993835 0.415259 0.410712
1.000000 0.487556 0.480201
1.000000 0.563684 0.560815
1.000000 0.639948 0.646632
0.038117 0.055299 0.073335
0.045594 0.051759 0.073060
0.055329 0.054597 0.073182
0.067048 0.059297 0.076265
0.083467 0.062287 0.079927
0.106020 0.062470 0.083253
0.136507 0.058473 0.086091
0.172732 0.041718 0.088411
0.214145 0.003571 0.090608
0.259525 0.000000 0.092683
0.307988 0.000000 0.094392
0.358404 0.000000 0.096284
0.409461 0.000000 0.097749
0.460334 0.000000 0.099306
0.510063 0.000000 0.101259
0.564691 0.000000 0.103914
0.618677 0.000000 0.107942
0.666468 0.000000 0.113069
0.708827 0.000000 0.120211
0.748959 0.000000 0.129702
0.786923 0.000000 0.141970
0.822446 0.000000 0.157534
0.854856 0.000000 0.176333
0.884337 0.000000 0.198825
0.910979 0.116396 0.225772
0.935119 0.199863 0.257908
0.956878 0.269780 0.297154
0.975952 0.337865 0.344732
0.991943 0.407294 0.402502
1.000000 0.479713 0.471504
1.000000 0.556023 0.551843
1.000000 0.633204 0.638392
0.033265 0.064057 0.076722
0.046174 0.061830 0.076417
0.052247 0.058961 0.076204
0.065949 0.063264 0.076722
0.081880 0.066255 0.080049
0.104311 0.066590 0.083040
0.133944 0.063874 0.085939
0.169680 0.054139 0.088258
0.210666 0.021637 0.090517
0.255772 0.000000 0.092592
0.304051 0.000000 0.094331
0.354253 0.000000 0.095979
0.405402 0.000000 0.097475
0.456336 0.000000 0.099062
0.505943 0.000000 0.100801
0.561151 0.000000 0.103487
0.613947 0.000000 0.107271
0.661250 0.000000 0.112215
0.703792 0.000000 0.118929
0.744076 0.000000 0.128054
0.782467 0.000000 0.140078
0.818448 0.000000 0.155306
0.851255 0.000000 0.173922
0.881132 0.000000 0.196139
0.908202 0.114992 0.222599
0.932738 0.197452 0.254398
0.954894 0.267094 0.293217
0.974395 0.334874 0.340551
0.990784 0.404273 0.398199
1.000000 0.476570 0.466926
1.000000 0.552667 0.547021
1.000000 0.630030 0.633906
0.023285 0.078553 0.083680
0.037995 0.076783 0.082795
0.051850 0.073701 0.083528
0.063081 0.068238 0.082826
0.079347 0.073213 0.080598
0.100862 0.075074 0.083192
0.130068 0.073915 0.085756
0.165438 0.068482 0.088106
0.205844 0.055482 0.090364
0.250645 0.010559 0.092164
0.298466 0.000000 0.093965
0.348669 0.000000 0.095338
0.399420 0.000000 0.096864
0.450233 0.000000 0.098238
0.500084 0.000000 0.100008
0.556023 0.000000 0.102541
0.607416 0.000000 0.105989
0.654108 0.000000 0.110780
0.696254 0.000000 0.117006
0.736294 0.000000 0.125612
0.774746 0.000000 0.136934
0.811154 0.000000 0.151492
0.844968 0.000000 0.169680
0.876188 0.000000 0.191958
0.904723 0.123293 0.218906
0.930510 0.202762 0.251560
0.953582 0.271702 0.291142
0.973571 0.339025 0.339208
0.990204 0.407477 0.397070
1.000000 0.478584 0.465583
1.000000 0.553216 0.544915
1.000000 0.629175 0.630915
0.005432 0.100374 0.093538
0.021515 0.098207 0.091768
0.039796 0.095644 0.090761
0.061402 0.086702 0.091859
0.074159 0.079530 0.090242
0.096529 0.083589 0.085115
0.123629 0.086732 0.085359
0.158175 0.084565 0.087373
0.197879 0.077790 0.089693
0.241917 0.065095 0.091524
0.289555 0.021790 0.093080
0.339300 0.000000 0.094728
0.390234 0.000000 0.096010
0.441352 0.000000 0.097383
0.493935 0.000000 0.099031
0.549096 0.000000 0.101228
0.600305 0.000000 0.104524
0.647517 0.000000 0.108888
0.690364 0.000000 0.114900
0.730831 0.000000 0.123293
0.769345 0.000000 0.134432
0.806027 0.000000 0.148714
0.840269 0.000000 0.166537
0.872099 0.000000 0.188540
0.901305 0.141939 0.215396
0.927733 0.212924 0.247990
0.951293 0.278202 0.287572
0.971740 0.343023 0.335332
0.988739 0.409644 0.392889
1.000000 0.479286 0.461036
1.000000 0.552941 0.540368
1.000000 0.628382 0.626764
0.000000 0.129702 0.105318
0.000000 0.127596 0.103151
0.009461 0.124727 0.100465
0.049714 0.116426 0.097627
0.072786 0.105379 0.099855
0.091798 0.093935 0.098665
0.121920 0.097414 0.091279
0.151156 0.101625 0.087098
0.189944 0.099184 0.089082
0.233707 0.092927 0.090547
0.281071 0.080934 0.092073
0.330816 0.059907 0.093446
0.381628 0.000000 0.094697
0.433265 0.000000 0.096040
0.488838 0.000000 0.097658
0.542962 0.000000 0.099702
0.593927 0.000000 0.102571
0.641535 0.000000 0.106691
0.685206 0.000000 0.112703
0.726558 0.000000 0.121248
0.765988 0.000000 0.132143
0.803555 0.000000 0.146761
0.872923 0.126741 0.189181
0.901122 0.186709 0.215671
0.926207 0.241245 0.246921
0.948363 0.295140 0.283726
0.967681 0.350164 0.327001
0.984070 0.407416 0.378332
0.997284 0.468025 0.438758
1.000000 0.532738 0.508995
1.000000 0.600610 0.587457
1.000000 0.667109 0.667109
0.000000 0.172763 0.121157
0.000000 0.170321 0.118044
0.000000 0.167178 0.114290
0.000885 0.160189 0.109651
0.064637 0.141207 0.109529
0.094759 0.133394 0.110079
0.122011 0.115389 0.109987
0.160861 0.117891 0.099794
0.192966 0.119448 0.090913
0.232029 0.120668 0.089296
0.280552 0.114778 0.090730
0.331365 0.104402 0.092103
0.382971 0.088777 0.093050
0.439643 0.064149 0.094270
0.496895 0.000000 0.095705
0.550225 0.000000 0.097688
0.600519 0.000000 0.101045
0.647852 0.000000 0.105287
0.691768 0.000000 0.111940
0.734463 0.000000 0.121340
0.776181 0.000000 0.134493
0.816587 0.065126 0.151888
0.854154 0.136019 0.174624
0.888029 0.193637 0.202579
0.917510 0.248203 0.235813
0.942412 0.301366 0.274052
0.963348 0.355047 0.318181
0.980774 0.410376 0.369635
0.994873 0.469184 0.429969
1.000000 0.531792 0.499641
1.000000 0.598260 0.578058
1.000000 0.664363 0.658778
0.000000 0.216831 0.136568
0.000000 0.214572 0.133425
0.000000 0.211337 0.129244
0.000000 0.204593 0.122286
0.013581 0.190707 0.115450
0.082307 0.162783 0.122499
0.125582 0.163821 0.120302
0.158114 0.139437 0.122438
0.201907 0.141115 0.109560
0.235874 0.140627 0.096864
0.269169 0.143343 0.088838
0.319097 0.138949 0.089845
0.374395 0.132174 0.090639
0.431556 0.122377 0.091371
0.486519 0.109010 0.092622
0.538781 0.092348 0.094636
0.588647 0.075074 0.097200
0.636255 0.059052 0.101472
0.680934 0.049531 0.107668
0.724269 0.068086 0.116579
0.766629 0.096590 0.129244
0.807675 0.133059 0.146181
0.845945 0.174502 0.168338
0.880613 0.219028 0.195712
0.911070 0.265660 0.228336
0.936889 0.313725 0.266056
0.958801 0.363439 0.309697
0.977173 0.415900 0.360937
0.992096 0.472480 0.421118
1.000000 0.533104 0.490669
1.000000 0.598169 0.569604
1.000000 0.663630 0.651637
0.000000 0.266148 0.153964
0.000000 0.263981 0.150576
0.000000 0.261051 0.146273
0.000000 0.254551 0.138399
0.000000 0.244450 0.131930
0.063935 0.218906 0.130129
0.110323 0.195254 0.135775
0.166323 0.200473 0.132570
0.203220 0.169162 0.137606
0.250828 0.169192 0.121035
0.286381 0.167453 0.104738
0.322026 0.168154 0.090730
0.367102 0.169406 0.087343
0.422705 0.164584 0.087922
0.476387 0.157870 0.088777
0.528130 0.150332 0.090608
0.578088 0.143252 0.093050
0.626123 0.138613 0.096895
0.671595 0.137850 0.102815
0.715663 0.144472 0.111604
0.758633 0.159243 0.124208
0.800290 0.182223 0.140993
0.839170 0.212711 0.162905
0.874388 0.248722 0.190005
0.905516 0.289006 0.222324
0.932158 0.331670 0.259861
0.954833 0.377386 0.303471
0.973907 0.426459 0.354406
0.989502 0.479957 0.414405
1.000000 0.537926 0.483772
1.000000 0.600732 0.562585
1.000000 0.664851 0.645411
0.000000 0.318975 0.172763
0.000000 0.316960 0.169497
0.000000 0.314153 0.165042
0.000000 0.308049 0.156588
0.000000 0.298558 0.147707
0.000000 0.281010 0.138064
0.098512 0.246708 0.146792
0.148989 0.234257 0.149966
0.211795 0.238163 0.147341
0.258091 0.205783 0.156130
0.310430 0.205264 0.135988
0.346502 0.201297 0.114870
0.379187 0.199069 0.096498
0.410224 0.200626 0.083375
0.464668 0.197818 0.084230
0.517723 0.194247 0.085451
0.569177 0.191409 0.088045
0.618524 0.190005 0.091371
0.664973 0.191684 0.097475
0.709468 0.197208 0.106416
0.752285 0.208133 0.119142
0.793210 0.225437 0.135714
0.831510 0.248447 0.156924
0.866575 0.277134 0.183078
0.898039 0.310826 0.214206
0.925566 0.348638 0.251225
0.949462 0.390570 0.294804
0.969787 0.437110 0.346136
0.986481 0.488624 0.406958
0.999084 0.545068 0.477668
1.000000 0.606714 0.558160
1.000000 0.670100 0.643030
0.000000 0.372381 0.192844
0.000000 0.370581 0.189761
0.000000 0.368139 0.185336
0.000000 0.362707 0.176883
0.000000 0.354070 0.166690
0.000000 0.342199 0.160647
0.065644 0.313298 0.156222
0.134707 0.277379 0.166079
0.199283 0.281498 0.167330
0.267460 0.282933 0.167056
0.321324 0.248753 0.178561
0.372045 0.244450 0.153536
0.404883 0.237339 0.127474
0.434821 0.232700 0.104341
0.463294 0.230900 0.083955
0.504753 0.231998 0.079438
0.556786 0.231174 0.081453
0.606653 0.231815 0.084840
0.654170 0.234226 0.090608
0.699611 0.239658 0.099519
0.743221 0.249302 0.112337
0.785061 0.263676 0.129274
0.824308 0.283665 0.150881
0.860197 0.308476 0.177035
0.892424 0.337865 0.208682
0.920653 0.371374 0.245579
0.945129 0.409125 0.288823
0.966064 0.451850 0.340002
0.983368 0.499947 0.400488
0.996674 0.553277 0.471015
1.000000 0.612360 0.551812
1.000000 0.674098 0.637873
0.000000 0.429480 0.215793
0.000000 0.428199 0.212772
0.000000 0.426184 0.208804
0.000000 0.422065 0.200717
0.000000 0.415473 0.189883
0.000000 0.405768 0.181033
0.000000 0.388037 0.168734
0.123293 0.351263 0.178195
0.178958 0.317815 0.187045
0.257420 0.332403 0.187106
0.325963 0.328466 0.188907
0.386847 0.294499 0.203494
0.473213 0.313207 0.185519
0.502159 0.301244 0.150179
0.528099 0.292790 0.119142
0.553246 0.288304 0.089296
0.580591 0.290074 0.070283
0.629816 0.292271 0.076112
0.675563 0.295537 0.084749
0.719203 0.301488 0.097108
0.760861 0.310582 0.113344
0.800229 0.323644 0.133333
0.836728 0.340551 0.157290
0.870146 0.361883 0.185885
0.900206 0.387213 0.219486
0.926696 0.416846 0.258396
0.949615 0.450721 0.303471
0.969055 0.489082 0.355871
0.984985 0.532708 0.417243
0.997162 0.581994 0.488228
1.000000 0.636622 0.568353
1.000000 0.693629 0.652369
0.000000 0.506126 0.250309
0.000000 0.504814 0.247349
0.000000 0.502068 0.242741
0.000000 0.496986 0.233707
0.000000 0.488991 0.221530
0.000000 0.478004 0.209506
0.000000 0.464271 0.203708
0.083406 0.433082 0.193576
0.177249 0.392096 0.203952
0.239475 0.375097 0.211307
0.329656 0.394263 0.213535
0.401282 0.387854 0.219944
0.472328 0.358160 0.240726
0.520195 0.350011 0.206394
0.548974 0.338354 0.168521
0.574182 0.329778 0.134859
0.598047 0.324712 0.102541
0.621820 0.324987 0.073426
0.660487 0.329137 0.073274
0.705318 0.334844 0.086275
0.748013 0.343206 0.102998
0.788602 0.354711 0.123568
0.826047 0.369482 0.147951
0.860594 0.387976 0.176699
0.891752 0.410315 0.210239
0.919310 0.436591 0.248966
0.943389 0.467201 0.293858
0.963928 0.502647 0.346288
0.980957 0.543359 0.407477
0.994141 0.590173 0.478920
1.000000 0.642725 0.560296
1.000000 0.698024 0.645869
0.000000 0.560113 0.278386
0.000000 0.558679 0.275151
0.000000 0.556268 0.270878
0.000000 0.551354 0.261997
0.000000 0.543542 0.249424
0.000000 0.533227 0.236088
0.000000 0.520562 0.226291
0.000000 0.500999 0.212650
0.157412 0.463386 0.216831
0.222843 0.421332 0.227085
0.297887 0.423346 0.233433
0.392828 0.443915 0.237217
0.458778 0.431891 0.246616
0.529931 0.404120 0.270146
0.571771 0.392889 0.232547
0.596429 0.378698 0.190799
0.618280 0.367926 0.153872
0.639765 0.361761 0.119783
0.662593 0.360357 0.084474
0.691157 0.366461 0.072724
0.735256 0.374548 0.091218
0.777127 0.385321 0.113100
0.815915 0.398657 0.138521
0.851713 0.415320 0.168063
0.884031 0.435279 0.202182
0.912718 0.459083 0.241367
0.937835 0.487068 0.286564
0.959380 0.519799 0.339330
0.977295 0.557946 0.401099
0.991302 0.602167 0.473335
1.000000 0.652461 0.555840
1.000000 0.705043 0.641840
0.000000 0.609583 0.306981
0.000000 0.608576 0.304265
0.000000 0.606256 0.300053
0.000000 0.601709 0.291356
0.000000 0.594507 0.278965
0.000000 0.585016 0.265019
0.000000 0.573571 0.252995
0.000000 0.559442 0.247684
0.112673 0.530938 0.231998
0.215885 0.492287 0.241520
0.266514 0.449866 0.251469
0.358953 0.471595 0.258061
0.455573 0.492195 0.263798
0.513909 0.474617 0.275731
0.582818 0.448920 0.301732
0.618585 0.434485 0.261051
0.639765 0.418341 0.216098
0.658869 0.406012 0.176730
0.679072 0.399207 0.141482
0.701808 0.398108 0.106600
0.725826 0.404669 0.084535
0.765377 0.414832 0.101534
0.805325 0.427039 0.128481
0.842313 0.442115 0.159121
0.876005 0.460304 0.194034
0.906096 0.482429 0.234012
0.932677 0.508934 0.280827
0.955596 0.540368 0.335576
0.974609 0.577417 0.400092
0.989349 0.620447 0.475380
0.999207 0.669673 0.561547
1.000000 0.719539 0.648280
0.000000 0.654719 0.336248
0.000000 0.654047 0.333715
0.000000 0.652552 0.330175
0.000000 0.649073 0.322332
0.000000 0.643580 0.311009
0.000000 0.636133 0.297765
0.000000 0.626886 0.284947
0.000000 0.615229 0.276341
0.027436 0.597498 0.264195
0.198245 0.563439 0.260960
0.271244 0.523552 0.269535
0.328069 0.498421 0.278111
0.421332 0.518730 0.285740
0.514977 0.537133 0.292058
0.562737 0.513024 0.305425
0.626642 0.488106 0.332860
0.657588 0.471809 0.290440
0.677180 0.455207 0.243687
0.696010 0.443244 0.203037
0.717006 0.437598 0.167636
0.740505 0.437812 0.134615
0.765530 0.445289 0.112093
0.797513 0.457557 0.119326
0.835782 0.471901 0.152255
0.870573 0.489052 0.189029
0.901762 0.509758 0.230900
0.929198 0.534600 0.279271
0.952758 0.564141 0.335515
0.972259 0.598810 0.401404
0.987274 0.639094 0.477729
0.997284 0.684840 0.563989
1.000000 0.730434 0.648920
0.000000 0.693141 0.363592
0.000000 0.692287 0.361273
0.000000 0.690883 0.357916
0.000000 0.687984 0.350683
0.000000 0.683406 0.340429
0.000000 0.677272 0.327947
0.000000 0.669459 0.315251
0.000000 0.659419 0.304570
0.000000 0.646754 0.300908
0.160098 0.622431 0.279911
0.261784 0.587152 0.287419
0.318547 0.547509 0.295293
0.386755 0.540673 0.304387
0.479072 0.560082 0.313573
0.568322 0.577447 0.321294
0.606592 0.548211 0.336278
0.664973 0.524773 0.365667
0.692805 0.507530 0.322728
0.711788 0.491371 0.274693
0.730800 0.480201 0.233463
0.751888 0.475257 0.197940
0.775357 0.476295 0.166415
0.800290 0.483772 0.144289
0.826200 0.497841 0.142489
0.862425 0.513970 0.180880
0.894987 0.533471 0.224033
0.923735 0.556909 0.273808
0.948425 0.584833 0.331579
0.968872 0.617670 0.398993
0.984649 0.656031 0.477394
0.995087 0.698695 0.563989
1.000000 0.742000 0.650233
0.000000 0.729213 0.391821
0.000000 0.729000 0.389929
0.000000 0.747707 0.403479
0.000000 0.745174 0.397009
0.000000 0.741054 0.387274
0.000000 0.735286 0.375341
0.000000 0.727779 0.362402
0.000000 0.718349 0.350835
0.000000 0.706600 0.343999
0.165133 0.690639 0.335271
0.260349 0.661707 0.322545
0.333867 0.626551 0.327977
0.378119 0.586175 0.333654
0.460426 0.595514 0.344488
0.547997 0.612177 0.355322
0.627253 0.624323 0.365118
0.658625 0.592828 0.381506
0.710628 0.571099 0.412818
0.735134 0.552697 0.368292
0.753201 0.536492 0.318242
0.771664 0.525505 0.275578
0.792325 0.520897 0.239780
0.815000 0.522362 0.210147
0.839017 0.529900 0.188998
0.862119 0.544396 0.190036
0.891356 0.561669 0.222629
0.919829 0.582086 0.272129
0.944610 0.607050 0.329686
0.965484 0.637201 0.397559
0.981903 0.673182 0.477119
0.992706 0.712184 0.563073
0.999023 0.752682 0.649866
0.000000 0.766690 0.423590
0.000000 0.768490 0.423804
0.000000 0.769986 0.423285
0.000000 0.770108 0.419684
0.000000 0.768368 0.412543
0.000000 0.764370 0.402716
0.000000 0.758419 0.391058
0.000000 0.750454 0.379919
0.000000 0.740505 0.371893
0.126253 0.728023 0.370550
0.232212 0.708064 0.345861
0.323278 0.678309 0.349920
0.381445 0.644038 0.354376
0.424323 0.612085 0.360021
0.511559 0.628962 0.372900
0.593317 0.643641 0.384802
0.661555 0.650080 0.396582
0.690394 0.620111 0.413275
0.738552 0.601160 0.446296
0.762112 0.583886 0.403723
0.780331 0.569146 0.354528
0.799802 0.560143 0.313359
0.820890 0.557092 0.279576
0.843534 0.559960 0.252689
0.867155 0.568231 0.233463
0.889647 0.584680 0.240208
0.914488 0.604913 0.268162
0.940368 0.628565 0.327398
0.962127 0.657099 0.396948
0.978943 0.690059 0.476600
0.990265 0.726314 0.563195
0.997070 0.764248 0.650721
0.000000 0.794644 0.449256
0.000000 0.796139 0.449531
0.000000 0.797452 0.449226
0.000000 0.797543 0.445899
0.000000 0.796109 0.439704
0.000000 0.792782 0.430823
0.000000 0.787655 0.420386
0.000000 0.780911 0.409857
0.000000 0.772427 0.401526
0.000000 0.761624 0.397986
0.239597 0.747829 0.396338
0.308537 0.724483 0.375830
0.378943 0.695308 0.378973
0.425971 0.662287 0.382544
0.478798 0.646265 0.390570
0.560601 0.661097 0.404517
0.636347 0.674098 0.417548
0.694606 0.675929 0.431342
0.721340 0.648066 0.448554
0.765530 0.631983 0.483436
0.788083 0.615961 0.443153
0.806638 0.603052 0.395941
0.826566 0.595850 0.356786
0.847745 0.594324 0.325292
0.869871 0.598322 0.301335
0.892821 0.607813 0.285679
0.914244 0.626215 0.298833
0.935821 0.649470 0.324620
0.958434 0.676265 0.395636
0.975555 0.705928 0.474311
0.987549 0.739590 0.561639
0.994934 0.774990 0.650019
0.000000 0.821225 0.475410
0.000000 0.822538 0.475776
0.000000 0.823697 0.475532
0.000000 0.823819 0.472724
0.000000 0.822599 0.467262
0.000000 0.819760 0.459388
0.000000 0.815366 0.449989
0.000000 0.809537 0.440406
0.000000 0.802029 0.432105
0.000000 0.792569 0.427436
0.213535 0.780880 0.428870
0.290074 0.765011 0.404089
0.371832 0.740017 0.406439
0.428870 0.711910 0.409033
0.467475 0.680446 0.412024
0.530602 0.678645 0.423987
0.607782 0.692531 0.440192
0.678767 0.705196 0.455940
0.729152 0.704524 0.473274
0.754574 0.680385 0.493111
0.794827 0.668482 0.531121
0.817288 0.655146 0.495430
0.836179 0.644282 0.451179
0.856718 0.639704 0.415869
0.877958 0.640681 0.388861
0.899626 0.647150 0.370916
0.921538 0.659205 0.363470
0.941253 0.680629 0.387457
0.959594 0.706111 0.424720
0.975616 0.733913 0.496956
0.986816 0.764584 0.585077
0.993713 0.796384 0.671473
0.000000 0.852934 0.509056
0.000000 0.853300 0.508568
0.000000 0.853330 0.507530
0.000000 0.852628 0.504143
0.000000 0.850919 0.498756
0.000000 0.848081 0.491463
0.000000 0.844236 0.483192
0.000000 0.839231 0.474800
0.000000 0.832975 0.467597
0.000000 0.824949 0.463233
0.184268 0.814969 0.463661
0.325353 0.802457 0.471321
0.371466 0.784329 0.443915
0.435615 0.760678 0.445716
0.481849 0.734188 0.447791
0.513695 0.704677 0.450202
0.586145 0.714321 0.467170
0.656825 0.726467 0.484840
0.721035 0.737575 0.502007
0.762264 0.733608 0.520409
0.784421 0.711482 0.539849
0.819394 0.701442 0.577050
0.840024 0.688960 0.544244
0.857786 0.678553 0.501457
0.877714 0.675319 0.469184
0.898314 0.677943 0.446723
0.919280 0.686427 0.435096
0.939910 0.700557 0.435828
0.957000 0.722805 0.467597
0.972168 0.749081 0.514153
0.984131 0.778073 0.585626
0.991516 0.807584 0.672480
0.000000 0.876127 0.535485
0.000000 0.876493 0.535210
0.000000 0.876677 0.534447
0.000000 0.876097 0.531609
0.000000 0.874601 0.526879
0.000000 0.872129 0.520500
0.000000 0.868650 0.513085
0.000000 0.864164 0.505577
0.000000 0.858427 0.499031
0.000000 0.851286 0.494697
0.139101 0.842344 0.494270
0.303593 0.831357 0.499397
0.374914 0.818173 0.485756
0.435004 0.799008 0.479225
0.487617 0.776852 0.480995
0.526574 0.752285 0.483284
0.563012 0.732387 0.489204
0.634333 0.744442 0.509056
0.698970 0.755398 0.528405
0.756924 0.765530 0.546960
0.790555 0.759640 0.566735
0.810422 0.740322 0.586328
0.841276 0.732692 0.622431
0.860716 0.722805 0.595697
0.875059 0.709224 0.549523
0.894682 0.708217 0.522606
0.914824 0.713161 0.506401
0.934295 0.722652 0.500267
0.952941 0.737453 0.507683
0.967529 0.761349 0.549371
0.979828 0.788571 0.604608
0.989075 0.817594 0.670588
0.000000 0.902678 0.568292
0.000000 0.903105 0.568292
0.000000 0.903136 0.567498
0.000000 0.902403 0.564904
0.000000 0.900816 0.560510
0.000000 0.898375 0.554711
0.000000 0.895048 0.548089
0.000000 0.890654 0.541283
0.000000 0.885069 0.534936
0.000000 0.878172 0.530602
0.092958 0.869596 0.529259
0.288090 0.859373 0.532464
0.399512 0.847196 0.542168
0.437263 0.833310 0.516838
0.492836 0.814084 0.517266
0.535851 0.792813 0.518090
0.568109 0.769619 0.519646
0.611963 0.760128 0.529778
0.676722 0.770504 0.550225
0.735286 0.780362 0.570459
0.787259 0.789700 0.589502
0.814450 0.782406 0.609094
0.831846 0.765194 0.627283
0.858701 0.758572 0.660487
0.876402 0.749966 0.638025
0.892088 0.742458 0.604089
0.910491 0.742885 0.582513
0.928893 0.748470 0.571221
0.946746 0.759487 0.572534
0.963226 0.775509 0.588556
0.975189 0.799893 0.636927
0.984558 0.826535 0.695125
0.000000 0.922301 0.593988
0.000000 0.922698 0.594079
0.000000 0.922759 0.593530
0.000000 0.922148 0.591333
0.000000 0.920775 0.587640
0.000000 0.918700 0.582818
0.000000 0.915831 0.577325
0.000000 0.912047 0.571801
0.000000 0.907256 0.566949
0.000000 0.901244 0.563836
0.000000 0.893767 0.563195
0.276341 0.884703 0.566613
0.393225 0.874052 0.575158
0.463813 0.862486 0.573846
0.503990 0.848234 0.560204
0.550347 0.830838 0.561456
0.586908 0.811978 0.563470
0.614893 0.791775 0.566491
0.665126 0.791318 0.582330
0.722988 0.800381 0.603082
0.774228 0.808896 0.622614
0.819181 0.816892 0.640497
0.839872 0.808316 0.658534
0.854520 0.793118 0.674556
0.876982 0.787045 0.703700
0.892790 0.779843 0.685725
0.907073 0.773648 0.656855
0.924376 0.776577 0.643305
0.941436 0.784543 0.640711
0.957397 0.797269 0.651057
0.971313 0.814481 0.675959
0.980499 0.838468 0.727077
0.000000 0.942382 0.621942
0.000000 0.942565 0.621881
0.000000 0.942443 0.621180
0.000000 0.941711 0.619165
0.000000 0.940337 0.615778
0.000000 0.938384 0.611658
0.000000 0.935698 0.606958
0.000000 0.932250 0.602411
0.000000 0.927886 0.598749
0.000000 0.922423 0.596612
0.000000 0.915648 0.596887
0.267094 0.907561 0.600671
0.389624 0.898009 0.608820
0.482734 0.887053 0.621515
0.516014 0.877165 0.602472
0.563958 0.862699 0.604089
0.603143 0.847166 0.606256
0.634668 0.830655 0.609491
0.659358 0.813291 0.614221
0.713283 0.819333 0.633783
0.763821 0.826993 0.653468
0.807584 0.833768 0.670771
0.845457 0.840024 0.686030
0.860624 0.830228 0.701289
0.872679 0.816129 0.714443
0.891752 0.810666 0.740047
0.906188 0.805142 0.726955
0.919341 0.800748 0.704005
0.935271 0.805325 0.696986
0.950805 0.815030 0.701930
0.964721 0.829038 0.719265
0.976074 0.846830 0.749752
0.000000 0.960143 0.647883
0.000000 0.960204 0.647730
0.000000 0.960052 0.647150
0.000000 0.959503 0.645594
0.000000 0.958465 0.643214
0.000000 0.957092 0.640497
0.000000 0.955291 0.638025
0.000000 0.952880 0.636164
0.000000 0.949645 0.635554
0.000000 0.945312 0.636835
0.000000 0.939696 0.640528
0.291936 0.932769 0.647425
0.414038 0.924468 0.657923
0.505821 0.915190 0.670710
0.572900 0.905547 0.680537
0.597955 0.896696 0.665003
0.637446 0.884611 0.668147
0.670008 0.871855 0.671809
0.696529 0.858396 0.676478
0.722377 0.847623 0.684169
0.768948 0.853178 0.701625
0.809415 0.858488 0.717586
0.844297 0.863340 0.731563
0.874632 0.867796 0.743587
0.884794 0.857450 0.755520
0.894255 0.844968 0.765560
0.909606 0.839994 0.786282
0.922087 0.836088 0.777951
0.933715 0.833890 0.762600
0.947509 0.839841 0.762295
0.960693 0.850736 0.773922
0.971740 0.865080 0.795712
0.000000 0.981781 0.681819
0.000000 0.981781 0.681666
0.000000 0.981537 0.681117
0.000000 0.980865 0.679835
0.000000 0.979797 0.677974
0.000000 0.978271 0.675929
0.000000 0.976257 0.674128
0.000000 0.973571 0.672999
0.000000 0.970001 0.673060
0.000000 0.965301 0.674983
0.087739 0.959442 0.678950
0.310430 0.952392 0.685908
0.428534 0.944213 0.695521
0.517205 0.935393 0.706264
