data/fiter_cube/60169440/1023146/file.cube
# Created by Adobe Lightroom plugin Export LUT (1.17.0)
# www.johnrellis.com/lightroom/exportlut.htm
# Preset: 海滩旅拍低饱和胶片_04 云集
# Color profile: C:\Program Files (x86)\Common Files\Adobe\Color\Profiles\Recommended\AdobeRGB1998.icc
LUT_3D_SIZE 5
DOMAIN_MIN 0.000000 0.000000 0.000000
DOMAIN_MAX 0.903226 0.903226 0.903226
0.039918 0.046296 0.071168
0.175540 0.029480 0.088502
0.515343 0.000000 0.101625
0.829404 0.000000 0.161166
0.993835 0.415259 0.410712
0.000000 0.216831 0.136568
0.158114 0.139437 0.122438
0.486519 0.109010 0.092622
0.807675 0.133059 0.146181
0.992096 0.472480 0.421118
0.000000 0.609583 0.306981
0.000000 0.559442 0.247684
0.582818 0.448920 0.301732
0.765377 0.414832 0.101534
0.974609 0.577417 0.400092
0.000000 0.852934 0.509056
0.000000 0.839231 0.474800
0.481849 0.734188 0.447791
0.819394 0.701442 0.577050
0.957000 0.722805 0.467597
0.000000 0.997467 0.706935
0.000000 0.989715 0.702571
0.582452 0.940520 0.736873
0.803891 0.889982 0.773892
0.932219 0.876249 0.841978
0.000000 0.065797 0.158145
0.235477 0.000000 0.142000
0.489296 0.000000 0.099031
0.793606 0.000000 0.142580
0.986419 0.393347 0.382330
0.000000 0.222141 0.233158
0.195346 0.199527 0.198642
0.483650 0.151125 0.124849
0.780392 0.166445 0.132448
0.982788 0.440223 0.382147
0.000000 0.621668 0.390631
0.000000 0.577020 0.325536
0.573388 0.466011 0.360906
0.747433 0.407843 0.138064
0.971618 0.570336 0.388220
0.000000 0.856657 0.556847
0.000000 0.842802 0.525444
0.503197 0.745113 0.494240
0.818357 0.715145 0.623804
0.955444 0.722347 0.471443
0.000000 0.998840 0.728511
0.000000 0.991821 0.721645
0.584436 0.946929 0.758511
0.805570 0.892729 0.787869
0.932708 0.881071 0.853361
0.000000 0.099275 0.426612
0.229068 0.034852 0.422766
0.719783 0.000000 0.357397
0.806302 0.000000 0.225406
0.989105 0.407111 0.393408
0.000000 0.281102 0.452613
0.232639 0.262028 0.464668
0.647395 0.224125 0.363348
0.794369 0.215030 0.248539
0.986786 0.447974 0.396246
0.000000 0.626825 0.599420
0.000000 0.638972 0.586664
0.595819 0.550896 0.509819
0.771450 0.453040 0.326421
0.975982 0.565606 0.399756
0.000000 0.870756 0.705867
0.000000 0.861479 0.673945
0.554009 0.791318 0.633234
0.813840 0.748074 0.704707
0.949401 0.729824 0.524132
0.000000 1.000000 0.798886
0.000000 0.998474 0.788998
0.450721 0.963684 0.785367
0.795773 0.897978 0.806119
0.929992 0.886992 0.872190
0.000000 0.177584 0.726406
0.194095 0.158206 0.728206
0.754879 0.100893 0.750637
0.916594 0.354437 0.606134
0.981353 0.486122 0.560967
0.000000 0.364752 0.729793
0.193790 0.319646 0.733394
0.734188 0.367498 0.755306
0.893675 0.440253 0.618036
0.976226 0.509758 0.564111
0.000000 0.609461 0.754543
0.000000 0.612055 0.747372
0.652369 0.632624 0.756222
0.805844 0.545190 0.601282
0.966339 0.599603 0.595331
0.000000 0.855528 0.828855
0.000000 0.860929 0.829435
0.516960 0.843748 0.813352
0.802640 0.776150 0.772885
0.949737 0.739803 0.666896
0.000000 1.000000 0.892302
0.000000 1.000000 0.889128
0.163882 0.984131 0.871153
0.785855 0.929381 0.861570
0.928801 0.900053 0.896880
0.000000 0.312291 0.901640
0.267582 0.302586 0.900145
0.686671 0.273503 0.898100
0.939879 0.526787 0.884031
0.985199 0.620386 0.799741
0.000000 0.427314 0.896117
0.235752 0.402441 0.895964
0.665736 0.398322 0.894621
0.928313 0.594293 0.887663
0.978943 0.654170 0.810636
0.000000 0.648127 0.886442
0.000000 0.640864 0.883421
0.579767 0.611688 0.889006
0.896483 0.718959 0.899779
0.964385 0.741268 0.843565
0.000000 0.835843 0.917693
0.000000 0.830777 0.914458
0.429053 0.815000 0.905180
0.824918 0.820096 0.909056
0.942596 0.808652 0.863737
0.000000 0.987457 0.945769
0.000000 0.986786 0.944549
0.000000 0.977844 0.941833
0.725582 0.947906 0.934508
0.920775 0.912535 0.922698
