data/fiter_cube/52608991/1023026/file.cube
# Created by Adobe Lightroom plugin Export LUT (1.17.0)
# www.johnrellis.com/lightroom/exportlut.htm
# Preset: 大神蓝橙街拍_06 云集
# Color profile: C:\Program Files (x86)\Common Files\Adobe\Color\Profiles\Recommended\AdobeRGB1998.icc
LUT_3D_SIZE 8
DOMAIN_MIN 0.000000 0.000000 0.000000
DOMAIN_MAX 0.903226 0.903226 0.903226
0.091493 0.104860 0.113100
0.142611 0.101411 0.112367
0.251652 0.100587 0.108858
0.428504 0.100832 0.092775
0.648066 0.104097 0.003662
0.863157 0.103059 0.000000
0.965698 0.082734 0.000000
1.000000 0.000000 0.000000
0.080995 0.135439 0.129671
0.132143 0.132479 0.114046
0.238163 0.138552 0.110048
0.404242 0.151736 0.094514
0.621210 0.165225 0.011292
0.834470 0.168765 0.000000
0.950591 0.149844 0.000000
1.000000 0.102480 0.000000
0.039094 0.205692 0.177890
0.121340 0.202457 0.115450
0.219730 0.200443 0.112001
0.411994 0.252689 0.087831
0.640681 0.285008 0.000000
0.849210 0.295262 0.000000
0.966278 0.274113 0.000000
1.000000 0.232944 0.000000
0.000000 0.317388 0.255253
0.000000 0.312871 0.186252
0.233616 0.292638 0.105959
0.389136 0.331334 0.079530
0.722164 0.451484 0.000000
0.879820 0.439887 0.000000
0.966339 0.400305 0.000000
1.000000 0.351751 0.000000
0.000000 0.471839 0.357183
0.000000 0.468910 0.307469
0.229953 0.459846 0.087831
0.407935 0.442329 0.000000
0.614130 0.496620 0.000000
0.852323 0.553613 0.000000
0.954620 0.519402 0.000000
1.000000 0.466285 0.000000
0.000000 0.672541 0.479713
0.000000 0.686244 0.448035
0.000000 0.678279 0.133333
0.469703 0.640375 0.000000
0.612787 0.603174 0.000000
0.810086 0.639612 0.000000
0.947539 0.633021 0.000000
1.000000 0.581353 0.000000
0.000000 0.840055 0.580926
0.000000 0.840513 0.549279
0.000000 0.831907 0.376135
0.400671 0.806455 0.000000
0.650324 0.770108 0.000000
0.796689 0.743618 0.000000
0.923583 0.724880 0.000000
0.993835 0.679225 0.000000
0.000000 0.932067 0.641566
0.000000 0.930205 0.616388
0.000000 0.927306 0.505394
0.000000 0.927245 0.000000
0.615930 0.882567 0.000000
0.789792 0.863615 0.000000
0.932280 0.846525 0.000000
0.989227 0.778347 0.000000
0.086488 0.122347 0.152590
0.124086 0.115267 0.147616
0.226780 0.129793 0.114992
0.388769 0.160586 0.096223
0.606073 0.178103 0.021118
0.817075 0.179538 0.000000
0.941436 0.152377 0.000000
1.000000 0.083925 0.000000
0.080659 0.124819 0.160769
0.123934 0.141299 0.151858
0.222477 0.154391 0.125643
0.383368 0.185824 0.095857
0.597253 0.208743 0.016175
0.804105 0.214359 0.000000
0.929229 0.190066 0.000000
1.000000 0.137545 0.000000
0.039033 0.182925 0.213413
0.107362 0.207401 0.191714
0.212589 0.202884 0.140169
0.388312 0.257572 0.092103
0.607019 0.295567 0.000000
0.811856 0.308721 0.000000
0.937835 0.287083 0.000000
1.000000 0.243473 0.000000
0.000000 0.312108 0.297154
0.000000 0.309819 0.257542
0.225284 0.296300 0.142000
0.357610 0.312230 0.107118
0.632898 0.411810 0.000000
0.823270 0.426184 0.000000
0.937377 0.399145 0.000000
1.000000 0.353826 0.000000
0.000000 0.476326 0.400671
0.000000 0.470192 0.360601
0.165682 0.457740 0.139315
0.383978 0.425971 0.099702
0.560784 0.461982 0.000000
0.817044 0.538140 0.000000
0.940032 0.517723 0.000000
1.000000 0.466377 0.000000
0.000000 0.657404 0.506126
0.000000 0.654841 0.472236
0.000000 0.646479 0.268681
0.438209 0.617639 0.000000
0.591119 0.588586 0.000000
0.794858 0.631617 0.000000
0.940093 0.631586 0.000000
1.000000 0.580652 0.000000
0.000000 0.820798 0.600275
0.000000 0.815091 0.567834
0.000000 0.807645 0.425177
0.343755 0.792477 0.000000
0.632380 0.759762 0.000000
0.779477 0.730526 0.000000
0.910124 0.716426 0.000000
0.986542 0.674708 0.000000
0.000000 0.925872 0.662837
0.000000 0.925261 0.639551
0.000000 0.921111 0.543664
0.000000 0.925231 0.100710
0.612360 0.891752 0.000000
0.789364 0.867521 0.000000
0.928313 0.844999 0.000000
0.986084 0.776547 0.000000
0.053498 0.160372 0.228824
0.093324 0.159915 0.232609
0.200351 0.145876 0.226566
0.382696 0.124605 0.171939
0.611994 0.219394 0.081514
0.830198 0.274357 0.000000
0.949248 0.242771 0.000000
1.000000 0.172244 0.000000
0.069093 0.167605 0.235538
0.106477 0.175692 0.230716
0.198978 0.166781 0.227756
0.372564 0.163882 0.178378
0.603174 0.241825 0.093446
0.817350 0.294133 0.000000
0.941100 0.264591 0.000000
1.000000 0.200351 0.000000
0.039185 0.181765 0.261265
0.100496 0.190005 0.256382
0.201541 0.224918 0.238651
0.375616 0.250217 0.200076
0.624475 0.318608 0.109438
0.825193 0.364691 0.000000
0.941588 0.334905 0.000000
1.000000 0.277867 0.000000
0.000000 0.224094 0.336309
0.000000 0.237278 0.344366
0.173983 0.337224 0.301488
0.369970 0.337743 0.218326
0.647059 0.427832 0.136141
0.837186 0.465919 0.000000
0.944915 0.432166 0.000000
1.000000 0.375952 0.000000
0.000000 0.426856 0.479377
0.000000 0.459480 0.476478
0.052247 0.498482 0.396826
0.392676 0.472328 0.215091
0.582483 0.487495 0.162600
0.818235 0.554040 0.000000
0.941863 0.538170 0.000000
1.000000 0.480262 0.000000
0.000000 0.660334 0.611902
0.000000 0.681575 0.605463
0.000000 0.667475 0.493935
0.362432 0.641047 0.202152
0.584924 0.603723 0.145785
0.779263 0.628687 0.000000
0.932555 0.638270 0.000000
1.000000 0.590112 0.000000
0.000000 0.838376 0.714809
0.000000 0.834501 0.688289
0.000000 0.821714 0.585443
0.000000 0.812345 0.220493
0.606653 0.769253 0.073335
0.776699 0.741421 0.000000
0.911528 0.725826 0.000000
0.990417 0.684382 0.000000
0.000000 0.930144 0.754147
0.000000 0.927794 0.731624
0.000000 0.921477 0.651453
0.000000 0.922545 0.444373
0.560357 0.898192 0.081605
0.772915 0.873045 0.000000
0.924498 0.849546 0.000000
0.986877 0.782437 0.000000
0.000000 0.210910 0.319341
0.000000 0.215183 0.322301
0.139559 0.193332 0.345830
0.324315 0.177127 0.341100
0.576135 0.000000 0.287388
0.804166 0.178042 0.173831
0.935943 0.291234 0.000000
1.000000 0.227024 0.000000
0.000000 0.222812 0.333379
0.000000 0.227207 0.330266
0.142061 0.212741 0.348150
0.327214 0.197635 0.344976
0.577874 0.066011 0.281621
0.798398 0.214755 0.180087
0.931762 0.307469 0.000000
1.000000 0.244907 0.000000
0.000000 0.237369 0.355230
0.000000 0.242313 0.351965
0.162417 0.262882 0.339666
0.333135 0.260868 0.354986
0.588006 0.241276 0.293217
0.816403 0.318425 0.211215
0.947875 0.368719 0.000000
1.000000 0.307866 0.000000
0.000000 0.270451 0.408484
0.000000 0.275242 0.405463
0.158145 0.299199 0.395819
0.346593 0.368109 0.377020
0.599145 0.401923 0.334264
0.813535 0.434791 0.245182
0.940063 0.447547 0.000000
1.000000 0.395422 0.000000
0.000000 0.325353 0.489509
0.000000 0.333867 0.492805
0.096498 0.374975 0.513237
0.331640 0.534478 0.462440
0.583795 0.517540 0.353765
0.824674 0.568200 0.297856
0.942962 0.550744 0.097108
1.000000 0.494881 0.000000
0.000000 0.451850 0.676600
0.000000 0.497200 0.683436
0.000000 0.612726 0.663691
0.290227 0.701808 0.552056
0.590539 0.660670 0.343328
0.784146 0.651972 0.295750
0.931762 0.649653 0.167819
1.000000 0.601068 0.000000
0.000000 0.707637 0.774289
0.000000 0.732357 0.772885
0.000000 0.814542 0.764065
0.247501 0.834623 0.629999
0.559564 0.805783 0.336034
0.774868 0.771328 0.266941
0.909422 0.737789 0.174105
0.990478 0.692897 0.000000
0.000000 0.875486 0.848417
0.000000 0.893370 0.846983
0.000000 0.934600 0.820890
0.265263 0.920531 0.690425
0.409796 0.914824 0.389685
0.741085 0.882170 0.251804
0.911315 0.857176 0.000000
0.986481 0.790433 0.000000
0.000000 0.279057 0.428351
0.000000 0.282231 0.426734
0.000000 0.276341 0.449744
0.271824 0.244907 0.491768
0.516777 0.216159 0.493477
0.755428 0.074556 0.437293
0.919951 0.112856 0.306004
1.000000 0.235660 0.124758
0.000000 0.287480 0.437781
0.000000 0.291569 0.437568
0.020172 0.291020 0.450050
0.269810 0.262547 0.492531
0.515679 0.238285 0.493538
0.756405 0.133059 0.436194
0.919982 0.173434 0.311711
1.000000 0.254429 0.124788
0.000000 0.307317 0.463508
0.000000 0.311833 0.462928
0.076112 0.322301 0.451331
0.258732 0.312657 0.487831
0.510277 0.303014 0.492653
0.747372 0.232181 0.424262
0.914794 0.284733 0.323644
0.999817 0.307897 0.113008
0.000000 0.336431 0.506737
0.000000 0.338567 0.502800
0.044953 0.352972 0.493660
0.277806 0.392920 0.477913
0.521233 0.407874 0.507256
0.758755 0.384314 0.435492
0.917784 0.412757 0.350378
1.000000 0.384222 0.052308
0.000000 0.378790 0.568383
0.000000 0.382727 0.566766
0.000000 0.398291 0.557855
0.296117 0.443397 0.544671
0.526146 0.531029 0.521324
0.769284 0.556359 0.481209
0.917693 0.539696 0.381567
1.000000 0.484230 0.091737
0.000000 0.420874 0.628840
0.000000 0.425086 0.627588
0.000000 0.441993 0.620935
0.280980 0.507622 0.646326
0.495735 0.675837 0.584863
0.745144 0.661952 0.486946
0.914916 0.678187 0.454994
0.997803 0.601740 0.205081
0.000000 0.516869 0.781491
0.000000 0.522362 0.782437
0.000000 0.547784 0.788754
0.218235 0.699367 0.780087
0.507042 0.820737 0.672297
0.734401 0.786404 0.472084
0.888853 0.752438 0.422370
0.982574 0.699977 0.252110
0.000000 0.639704 0.866819
0.000000 0.662043 0.864897
0.000000 0.738674 0.858244
0.000000 0.867796 0.850980
0.532158 0.906126 0.733791
0.698604 0.888487 0.476173
0.878141 0.863188 0.386969
0.976867 0.799191 0.254520
0.000000 0.379339 0.576593
0.000000 0.381445 0.574914
0.000000 0.375250 0.581048
0.154604 0.342870 0.620478
0.461555 0.320562 0.655726
0.708186 0.290867 0.639979
0.879911 0.295445 0.572442
0.983398 0.280369 0.463020
0.000000 0.376074 0.569696
0.000000 0.376562 0.565820
0.000000 0.375677 0.566155
0.171695 0.355505 0.606561
0.450019 0.329686 0.644862
0.699825 0.305486 0.634089
0.876555 0.308507 0.569818
0.981933 0.292760 0.461158
0.000000 0.399268 0.599329
0.000000 0.398535 0.593591
0.000000 0.401587 0.578485
0.197513 0.403296 0.601099
0.445197 0.383459 0.644587
0.702907 0.373632 0.639521
0.877226 0.376532 0.574823
0.977264 0.393378 0.487709
0.000000 0.421485 0.631128
0.000000 0.421271 0.625299
0.000000 0.428870 0.614008
0.208865 0.456580 0.602716
0.452369 0.474495 0.653101
0.721248 0.490944 0.661189
0.883665 0.485786 0.592462
0.977966 0.477821 0.504265
0.000000 0.443214 0.663722
0.000000 0.445777 0.661769
0.000000 0.456672 0.654292
0.208652 0.484291 0.641382
0.428443 0.536187 0.616602
0.705623 0.580926 0.656245
0.876036 0.573297 0.591547
0.977111 0.534844 0.486580
0.000000 0.474037 0.709621
0.000000 0.479530 0.711391
0.000000 0.493507 0.706691
0.221195 0.526177 0.697475
0.464759 0.589075 0.682063
0.708400 0.695674 0.669764
0.880583 0.718349 0.648737
0.974884 0.646662 0.515221
0.000000 0.521721 0.783047
0.000000 0.527245 0.784176
0.000000 0.544244 0.781277
0.249180 0.585046 0.776913
0.528130 0.673304 0.788418
0.712398 0.816678 0.737728
0.863096 0.790616 0.647883
0.959228 0.766537 0.588556
0.000000 0.562463 0.860929
0.000000 0.566888 0.861204
0.000000 0.585962 0.863188
0.190555 0.634791 0.868650
0.514488 0.779751 0.862211
0.714809 0.891447 0.784543
0.843839 0.872618 0.627070
0.951049 0.831510 0.560815
0.000000 0.467445 0.705867
0.000000 0.470985 0.706661
0.000000 0.469306 0.703670
0.069673 0.454902 0.723842
0.349493 0.414954 0.748714
0.629145 0.428779 0.772702
0.830655 0.420966 0.748135
0.933928 0.500298 0.686824
0.000000 0.462257 0.697261
0.000000 0.465309 0.697505
0.000000 0.467475 0.690272
0.007874 0.452644 0.709224
0.333562 0.412421 0.736324
0.614466 0.423529 0.761105
0.818448 0.411810 0.736873
0.928954 0.481239 0.675257
0.000000 0.477882 0.718013
0.000000 0.478737 0.714992
0.000000 0.481605 0.702663
0.049561 0.479683 0.704128
0.336645 0.449012 0.732876
0.613886 0.468513 0.760006
0.822812 0.472663 0.744533
0.930999 0.537835 0.689540
0.000000 0.495857 0.743954
0.000000 0.495369 0.739071
0.000000 0.498787 0.727230
0.032227 0.513390 0.710414
0.378546 0.525963 0.727047
0.619776 0.542321 0.762417
0.828824 0.562371 0.756832
0.931273 0.602594 0.703914
0.000000 0.504753 0.759121
0.000000 0.504997 0.755062
0.000000 0.509667 0.745357
0.000000 0.524590 0.732174
0.322057 0.554406 0.707057
0.593561 0.593713 0.745632
0.818936 0.630030 0.754360
0.929107 0.656336 0.709010
0.000000 0.522179 0.786313
0.000000 0.524559 0.785122
0.000000 0.533928 0.780667
0.000000 0.555474 0.773495
0.348669 0.594202 0.758480
0.579706 0.662898 0.732448
0.825193 0.731319 0.771023
0.928527 0.731868 0.726680
0.000000 0.545953 0.821683
0.000000 0.550042 0.822080
0.000000 0.562615 0.819730
0.115389 0.590478 0.815640
0.412207 0.641138 0.805173
0.644068 0.721218 0.790372
0.825132 0.807980 0.780880
0.927581 0.816861 0.761501
0.000000 0.567041 0.863310
0.000000 0.570367 0.863035
0.000000 0.587610 0.865446
0.083650 0.620508 0.863828
0.454475 0.684840 0.857969
0.707790 0.784543 0.860166
0.830167 0.884306 0.829129
0.919402 0.866331 0.764218
0.000000 0.553155 0.821164
0.000000 0.556512 0.820951
0.000000 0.561669 0.813504
0.161105 0.554345 0.818692
0.419776 0.562219 0.826596
0.569299 0.548699 0.836301
0.766171 0.586572 0.848264
0.899779 0.593194 0.826108
0.000000 0.549981 0.817838
0.000000 0.553307 0.817624
0.000000 0.560143 0.810697
0.135622 0.553735 0.813413
0.410285 0.561700 0.822110
0.562005 0.547692 0.832731
0.760739 0.583795 0.844938
0.897307 0.591394 0.823514
0.000000 0.550835 0.820340
0.000000 0.553246 0.819303
0.000000 0.558404 0.811002
0.118685 0.570642 0.810880
0.395666 0.573907 0.818235
0.558648 0.565423 0.828733
0.758236 0.604791 0.842191
0.895567 0.617334 0.824369
0.000000 0.554345 0.830411
0.000000 0.557427 0.830106
0.000000 0.564446 0.823789
0.000000 0.583215 0.814817
0.366613 0.597131 0.813931
0.563470 0.603906 0.827085
0.760250 0.647547 0.841520
0.895293 0.666438 0.829313
0.000000 0.559075 0.840482
0.000000 0.561944 0.840635
0.000000 0.567803 0.836149
0.000000 0.581201 0.829221
0.297429 0.613123 0.812558
0.566400 0.651362 0.817563
0.754757 0.688228 0.837766
0.894896 0.723659 0.835721
0.000000 0.567163 0.855100
0.000000 0.568231 0.853391
0.000000 0.573816 0.848905
0.000000 0.587884 0.842771
0.243229 0.615869 0.833677
0.502770 0.676417 0.817624
0.760006 0.746242 0.838865
0.894804 0.781521 0.843259
0.000000 0.580407 0.876066
0.000000 0.582361 0.875151
0.000000 0.590448 0.872526
0.000000 0.610315 0.869230
0.315679 0.648615 0.863249
0.545098 0.711055 0.852781
0.728237 0.777798 0.828061
0.891936 0.828397 0.847166
0.000000 0.592981 0.897398
0.000000 0.595361 0.896696
0.000000 0.605829 0.895171
0.000000 0.630976 0.892882
0.378607 0.678309 0.887572
0.606989 0.748501 0.877928
0.780453 0.821073 0.865141
0.892943 0.877928 0.855894
