data/fiter_cube/52608991/1023026/file.cube
# Created by Adobe Lightroom plugin Export LUT (1.17.0)
# www.johnrellis.com/lightroom/exportlut.htm
# Preset: 大神蓝橙街拍_06 云集
# Color profile: C:\Program Files (x86)\Common Files\Adobe\Color\Profiles\Recommended\AdobeRGB1998.icc
LUT_3D_SIZE 32
DOMAIN_MIN 0.0 0.0 0.0
DOMAIN_MAX 1.0 1.0 1.0
0.091493 0.104860 0.113100
0.094820 0.104372 0.113039
0.103120 0.103365 0.112947
0.120790 0.101656 0.112612
0.142611 0.101411 0.112367
0.166140 0.100954 0.111910
0.191623 0.100679 0.111177
0.219699 0.100526 0.110292
0.251652 0.100587 0.108858
0.288640 0.100618 0.106600
0.330694 0.100649 0.103487
0.377630 0.100557 0.098939
0.428504 0.100832 0.092775
0.482460 0.102083 0.083955
0.538170 0.103517 0.071870
0.594354 0.103975 0.050721
0.648066 0.104097 0.003662
0.698878 0.104891 0.000000
0.758633 0.104555 0.000000
0.817197 0.104250 0.000000
0.863157 0.103059 0.000000
0.898924 0.101137 0.000000
0.926238 0.097566 0.000000
0.947906 0.092226 0.000000
0.965698 0.082734 0.000000
0.981048 0.069947 0.000000
0.995087 0.043122 0.000000
1.000000 0.000000 0.000000
1.000000 0.000000 0.000000
1.000000 0.000000 0.000000
1.000000 0.000000 0.000000
1.000000 0.000000 0.000000
0.091218 0.105867 0.113436
0.094209 0.105959 0.113161
0.102388 0.106203 0.112947
0.119661 0.106142 0.112947
0.141512 0.105959 0.112490
0.164584 0.105715 0.112032
0.189639 0.105440 0.111360
0.217288 0.105562 0.110506
0.248508 0.105653 0.108888
0.284764 0.106050 0.106722
0.325902 0.106325 0.103761
0.371679 0.107118 0.099397
0.421485 0.108309 0.093446
0.474372 0.109957 0.085115
0.529107 0.111055 0.073823
0.584771 0.112642 0.055970
0.638422 0.113436 0.010376
0.689448 0.113680 0.000000
0.749172 0.113954 0.000000
0.806851 0.113497 0.000000
0.853117 0.112093 0.000000
0.889921 0.109773 0.000000
0.918456 0.106233 0.000000
0.941253 0.100343 0.000000
0.960021 0.092195 0.000000
0.976257 0.080446 0.000000
0.991058 0.062928 0.000000
1.000000 0.017914 0.000000
1.000000 0.000000 0.000000
1.000000 0.000000 0.000000
1.000000 0.000000 0.000000
1.000000 0.000000 0.000000
0.089845 0.110780 0.115145
0.094057 0.110780 0.112795
0.101289 0.110658 0.113252
0.117891 0.111696 0.113191
0.139620 0.111818 0.112917
0.162844 0.111635 0.112276
0.187472 0.111391 0.111635
0.214755 0.111543 0.110597
0.245731 0.111879 0.109010
0.281346 0.112551 0.107149
0.322026 0.113588 0.104005
0.367498 0.114687 0.099702
0.416846 0.116365 0.093874
0.469398 0.118685 0.085695
0.523674 0.120974 0.074281
0.579126 0.122225 0.057679
0.632776 0.123629 0.014038
0.683955 0.124086 0.000000
0.744198 0.124544 0.000000
0.801114 0.124514 0.000000
0.847715 0.122927 0.000000
0.885130 0.120424 0.000000
0.914366 0.116976 0.000000
0.937713 0.111055 0.000000
0.956939 0.103273 0.000000
0.973602 0.092195 0.000000
0.988800 0.077852 0.000000
1.000000 0.054963 0.000000
1.000000 0.000000 0.000000
1.000000 0.000000 0.000000
1.000000 0.000000 0.000000
1.000000 0.000000 0.000000
0.085817 0.122042 0.120882
0.090333 0.122469 0.111635
0.101717 0.121035 0.112154
0.115908 0.120790 0.113710
0.137362 0.122499 0.113558
0.160616 0.122408 0.112947
0.185336 0.122255 0.112062
0.212558 0.122713 0.111025
0.243137 0.123507 0.109255
0.278508 0.125002 0.107118
0.318608 0.126833 0.104219
0.363317 0.129305 0.099916
0.411902 0.132418 0.093874
0.463783 0.135378 0.085786
0.517571 0.137881 0.074983
0.572808 0.140169 0.058625
0.626398 0.141878 0.014679
0.677485 0.142794 0.000000
0.737972 0.144167 0.000000
0.792691 0.144350 0.000000
0.838590 0.142916 0.000000
0.876493 0.140627 0.000000
0.907256 0.136751 0.000000
0.932433 0.131563 0.000000
0.953491 0.123995 0.000000
0.971588 0.114382 0.000000
0.987701 0.102510 0.000000
1.000000 0.087251 0.000000
1.000000 0.064759 0.000000
1.000000 0.000000 0.000000
1.000000 0.000000 0.000000
1.000000 0.000000 0.000000
0.080995 0.135439 0.129671
0.085756 0.135744 0.117891
0.099275 0.134920 0.110445
0.114534 0.132204 0.112062
0.132143 0.132479 0.114046
0.156344 0.135531 0.114137
0.180972 0.136141 0.113069
0.207858 0.136995 0.111818
0.238163 0.138552 0.110048
0.272709 0.140963 0.107698
0.312200 0.143862 0.104555
0.356146 0.147646 0.100282
0.404242 0.151736 0.094514
0.455818 0.155856 0.086244
0.510002 0.159457 0.075013
0.566094 0.162875 0.058045
0.621210 0.165225 0.011292
0.673701 0.167056 0.000000
0.736294 0.169039 0.000000
0.789609 0.169711 0.000000
0.834470 0.168765 0.000000
0.872160 0.166293 0.000000
0.903166 0.162448 0.000000
0.928923 0.157046 0.000000
0.950591 0.149844 0.000000
0.969268 0.141146 0.000000
0.985779 0.130922 0.000000
1.000000 0.118349 0.000000
1.000000 0.102480 0.000000
1.000000 0.081514 0.000000
1.000000 0.039704 0.000000
1.000000 0.000000 0.000000
0.075776 0.149691 0.139071
0.082734 0.149752 0.129763
0.085969 0.150118 0.112917
0.113405 0.147066 0.109407
0.128908 0.143587 0.112154
0.149752 0.145663 0.114351
0.177096 0.150637 0.113954
0.204898 0.153231 0.112917
0.234989 0.155856 0.110842
0.269688 0.159121 0.108400
0.308965 0.163363 0.105104
0.352911 0.168368 0.100404
0.400763 0.173587 0.093965
0.452399 0.178897 0.085634
0.506798 0.183658 0.073213
0.563287 0.188022 0.053010
0.619013 0.191501 0.003113
0.676936 0.194583 0.000000
0.737636 0.197604 0.000000
0.790219 0.198337 0.000000
0.835050 0.197787 0.000000
0.872953 0.195254 0.000000
0.948119 0.199527 0.000000
0.966766 0.193210 0.000000
0.982208 0.185489 0.000000
0.995544 0.176516 0.000000
1.000000 0.166567 0.000000
1.000000 0.154971 0.000000
1.000000 0.141970 0.000000
1.000000 0.126802 0.000000
1.000000 0.108614 0.000000
1.000000 0.085206 0.000000
0.068208 0.169192 0.151980
0.078492 0.168795 0.143984
0.081483 0.169162 0.128450
0.107576 0.167544 0.111971
0.132052 0.163424 0.108553
0.148257 0.159152 0.112428
0.174136 0.164462 0.114290
0.207370 0.172488 0.113283
0.242252 0.179263 0.111299
0.279759 0.184695 0.107912
0.322271 0.190860 0.103487
0.369207 0.197482 0.097353
0.419226 0.204044 0.089448
0.472145 0.210025 0.078676
0.526482 0.215335 0.063844
0.581445 0.219944 0.025788
0.635157 0.223392 0.000000
0.699611 0.228428 0.000000
0.759854 0.232120 0.000000
0.812314 0.233463 0.000000
0.858213 0.233066 0.000000
0.897337 0.230747 0.000000
0.929107 0.226810 0.000000
0.954406 0.221042 0.000000
0.974487 0.214054 0.000000
0.990356 0.205386 0.000000
1.000000 0.195834 0.000000
1.000000 0.185000 0.000000
1.000000 0.172854 0.000000
1.000000 0.159548 0.000000
1.000000 0.144167 0.000000
1.000000 0.126894 0.000000
0.060365 0.186252 0.164065
0.070527 0.185977 0.157107
0.077150 0.185946 0.144717
0.089784 0.185824 0.116274
0.130739 0.181735 0.111025
0.149722 0.176974 0.108431
0.165438 0.172580 0.112337
0.195193 0.180972 0.113588
0.232731 0.192264 0.111666
0.273777 0.203006 0.108705
0.317235 0.211765 0.103944
0.363958 0.219883 0.097475
0.413977 0.227756 0.088930
0.466560 0.234989 0.077333
0.520806 0.241672 0.061067
0.575860 0.247105 0.017884
0.634546 0.252720 0.000000
0.698726 0.259037 0.000000
0.755764 0.262547 0.000000
0.806699 0.264073 0.000000
0.851987 0.263584 0.000000
0.891051 0.261265 0.000000
0.923186 0.257115 0.000000
0.948974 0.251133 0.000000
0.969604 0.243656 0.000000
0.986053 0.235080 0.000000
0.999817 0.225254 0.000000
1.000000 0.214572 0.000000
1.000000 0.203067 0.000000
1.000000 0.190524 0.000000
1.000000 0.176883 0.000000
1.000000 0.161990 0.000000
0.039094 0.205692 0.177890
0.059632 0.205478 0.171450
0.070771 0.205173 0.161624
0.078584 0.205356 0.132601
0.121340 0.202457 0.115450
0.150759 0.197757 0.111696
0.169223 0.192569 0.108522
0.185763 0.189029 0.112428
0.219730 0.200443 0.112001
0.263157 0.215671 0.108583
0.310307 0.229831 0.103975
0.361578 0.243198 0.097169
0.411994 0.252689 0.087831
0.464851 0.261387 0.075257
0.519066 0.268986 0.055970
0.574212 0.275700 0.004913
0.640681 0.285008 0.000000
0.701045 0.291051 0.000000
0.755489 0.294469 0.000000
0.804929 0.295811 0.000000
0.849210 0.295262 0.000000
0.887785 0.292546 0.000000
0.919677 0.288121 0.000000
0.945495 0.281834 0.000000
0.966278 0.274113 0.000000
0.983001 0.265019 0.000000
0.997070 0.255161 0.000000
1.000000 0.244388 0.000000
1.000000 0.232944 0.000000
1.000000 0.220829 0.000000
1.000000 0.208011 0.000000
1.000000 0.194369 0.000000
0.001740 0.227390 0.192905
0.029084 0.226993 0.187228
0.059266 0.226535 0.178561
0.069917 0.226474 0.153170
0.100740 0.225040 0.120180
0.150576 0.220279 0.114168
0.171969 0.215030 0.111513
0.190066 0.209537 0.108370
0.208438 0.207248 0.111482
0.247501 0.222385 0.109560
0.296941 0.241306 0.104372
0.349279 0.258366 0.097353
0.408209 0.276249 0.087190
0.462135 0.287022 0.073121
0.518059 0.296574 0.048280
0.584802 0.309178 0.000000
0.649714 0.319097 0.000000
0.708583 0.325261 0.000000
0.761318 0.328710 0.000000
0.808377 0.329381 0.000000
0.850004 0.327977 0.000000
0.885893 0.324468 0.000000
0.915892 0.319066 0.000000
0.940612 0.312016 0.000000
0.961151 0.303716 0.000000
0.978241 0.294469 0.000000
0.992981 0.284306 0.000000
1.000000 0.273533 0.000000
1.000000 0.262364 0.000000
1.000000 0.250462 0.000000
1.000000 0.238285 0.000000
1.000000 0.225345 0.000000
0.000000 0.249851 0.208896
0.000000 0.249577 0.203525
0.016785 0.249088 0.195529
0.054536 0.248875 0.173892
0.072206 0.248844 0.129671
0.138186 0.244724 0.118105
0.174044 0.239658 0.113283
0.195254 0.234409 0.109926
0.213443 0.228794 0.106508
0.234653 0.228458 0.109682
0.280217 0.247990 0.105470
0.335790 0.270420 0.097688
0.392889 0.289860 0.087434
0.456458 0.309636 0.071229
0.525628 0.328435 0.025055
0.591760 0.342229 0.000000
0.653529 0.351720 0.000000
0.709865 0.357733 0.000000
0.760769 0.360754 0.000000
0.806668 0.361212 0.000000
0.847593 0.359655 0.000000
0.883177 0.355840 0.000000
0.913207 0.350286 0.000000
0.938079 0.342840 0.000000
0.958618 0.334203 0.000000
0.975677 0.324437 0.000000
0.990448 0.313848 0.000000
1.000000 0.302831 0.000000
1.000000 0.291478 0.000000
1.000000 0.279606 0.000000
1.000000 0.267552 0.000000
1.000000 0.255100 0.000000
0.000000 0.276432 0.227237
0.000000 0.276158 0.222232
0.000000 0.275731 0.214755
0.004883 0.275181 0.195682
0.049500 0.275120 0.156741
0.114076 0.272831 0.121828
0.175448 0.267643 0.114321
0.200381 0.262425 0.111147
0.221897 0.256840 0.107485
0.240574 0.251102 0.102998
0.266087 0.254063 0.106386
0.318853 0.277867 0.098695
0.415259 0.327398 0.075441
0.500450 0.361303 0.018006
0.589227 0.392187 0.000000
0.667933 0.413245 0.000000
0.726528 0.419959 0.000000
0.775753 0.421393 0.000000
0.817350 0.419196 0.000000
0.853971 0.414893 0.000000
0.885649 0.408698 0.000000
0.912627 0.400855 0.000000
0.935271 0.391608 0.000000
0.954650 0.381598 0.000000
0.971252 0.370764 0.000000
0.985626 0.359503 0.000000
0.998260 0.347692 0.000000
1.000000 0.335729 0.000000
1.000000 0.323552 0.000000
1.000000 0.311223 0.000000
1.000000 0.298894 0.000000
1.000000 0.286351 0.000000
0.000000 0.317388 0.255253
0.000000 0.316991 0.250187
0.000000 0.315892 0.242405
0.000000 0.314214 0.223819
0.000000 0.312871 0.186252
0.062898 0.310918 0.124575
0.162356 0.304540 0.116365
0.207706 0.298253 0.110231
0.233616 0.292638 0.105959
0.256596 0.287297 0.101320
0.277409 0.282231 0.096071
0.313359 0.292271 0.097810
0.389136 0.331334 0.079530
0.479927 0.373663 0.020233
0.567712 0.407507 0.000000
0.649928 0.433722 0.000000
0.722164 0.451484 0.000000
0.771633 0.453742 0.000000
0.812528 0.451240 0.000000
0.848386 0.446387 0.000000
0.879820 0.439887 0.000000
0.906950 0.431617 0.000000
0.929747 0.422065 0.000000
0.949462 0.411505 0.000000
0.966339 0.400305 0.000000
0.981018 0.388556 0.000000
0.994018 0.376440 0.000000
1.000000 0.364172 0.000000
1.000000 0.351751 0.000000
1.000000 0.339300 0.000000
1.000000 0.326909 0.000000
1.000000 0.314427 0.000000
0.000000 0.348760 0.276768
0.000000 0.348302 0.271550
0.000000 0.347295 0.264439
0.000000 0.345525 0.247684
0.000000 0.343725 0.213687
0.000000 0.342138 0.154910
0.132540 0.337255 0.118685
0.208804 0.330327 0.108492
0.238926 0.324743 0.104280
0.265385 0.319463 0.099428
0.292088 0.317144 0.092897
0.319219 0.316930 0.084504
0.370306 0.337652 0.081697
0.452369 0.378546 0.037263
0.544488 0.419501 0.000000
0.626276 0.448371 0.000000
0.698573 0.468330 0.000000
0.760678 0.480751 0.000000
0.807004 0.482460 0.000000
0.842924 0.477546 0.000000
0.874662 0.470863 0.000000
0.902098 0.462440 0.000000
0.925322 0.452522 0.000000
0.945342 0.441657 0.000000
0.962554 0.430030 0.000000
0.977539 0.417853 0.000000
0.990845 0.405341 0.000000
1.000000 0.392706 0.000000
1.000000 0.380072 0.000000
1.000000 0.367468 0.000000
1.000000 0.354925 0.000000
1.000000 0.342504 0.000000
0.000000 0.383734 0.299840
0.000000 0.383459 0.295415
0.000000 0.382422 0.288487
0.000000 0.380468 0.272435
0.000000 0.378271 0.241581
0.000000 0.376287 0.189548
0.072480 0.373236 0.120119
0.188418 0.366155 0.109651
0.245121 0.362493 0.100099
0.278538 0.360693 0.093629
0.309941 0.359289 0.085267
0.339879 0.358160 0.075288
0.367895 0.356725 0.065095
0.427710 0.382300 0.051331
0.513359 0.423377 0.000000
0.601373 0.459968 0.000000
0.675624 0.483528 0.000000
0.739803 0.498665 0.000000
0.794400 0.507073 0.000000
0.838560 0.508690 0.000000
0.870024 0.501640 0.000000
0.897429 0.492897 0.000000
0.920806 0.482612 0.000000
0.941100 0.471412 0.000000
0.958770 0.459419 0.000000
0.974334 0.447028 0.000000
0.988342 0.434394 0.000000
1.000000 0.421668 0.000000
1.000000 0.408972 0.000000
1.000000 0.396368 0.000000
1.000000 0.383856 0.000000
1.000000 0.371527 0.000000
0.000000 0.421607 0.324895
0.000000 0.421576 0.320623
0.000000 0.420874 0.314305
0.000000 0.420111 0.299870
0.000000 0.420050 0.272923
0.000000 0.420783 0.226108
0.000000 0.421912 0.139284
0.158114 0.418433 0.107637
0.252445 0.413428 0.091554
0.294072 0.410407 0.082521
0.329046 0.407324 0.072236
0.361181 0.403998 0.058839
0.390082 0.399756 0.026703
0.419318 0.397772 0.006867
0.481727 0.423285 0.000000
0.565576 0.461372 0.000000
0.646937 0.492744 0.000000
0.716060 0.513024 0.000000
0.775204 0.525383 0.000000
0.825681 0.531853 0.000000
0.867735 0.533165 0.000000
0.896208 0.524865 0.000000
0.919829 0.514305 0.000000
0.940246 0.502647 0.000000
0.957977 0.490242 0.000000
0.973693 0.477363 0.000000
0.987732 0.464271 0.000000
1.000000 0.451179 0.000000
1.000000 0.438025 0.000000
1.000000 0.425025 0.000000
1.000000 0.412177 0.000000
1.000000 0.399542 0.000000
0.000000 0.471839 0.357183
0.000000 0.471656 0.352880
0.000000 0.471168 0.346929
0.000000 0.470192 0.332708
0.000000 0.468910 0.307469
0.000000 0.468482 0.263859
0.000000 0.468513 0.190463
0.086793 0.466011 0.105776
0.229953 0.459846 0.087831
0.301488 0.454322 0.068788
0.340154 0.450660 0.052277
0.375708 0.446784 0.016449
0.407935 0.442329 0.000000
0.436378 0.436500 0.000000
0.468482 0.435859 0.000000
0.533684 0.462196 0.000000
0.614130 0.496620 0.000000
0.689540 0.523583 0.000000
0.753567 0.540703 0.000000
0.807126 0.549950 0.000000
0.852323 0.553613 0.000000
0.889311 0.552361 0.000000
0.915648 0.543908 0.000000
0.936492 0.532036 0.000000
0.954620 0.519402 0.000000
0.970703 0.506279 0.000000
0.985168 0.492958 0.000000
0.998322 0.479591 0.000000
1.000000 0.466285 0.000000
1.000000 0.453071 0.000000
1.000000 0.440009 0.000000
1.000000 0.427283 0.000000
0.000000 0.524254 0.390143
0.000000 0.525017 0.386450
0.000000 0.564233 0.404456
0.000000 0.562829 0.389532
0.000000 0.560449 0.363867
0.000000 0.558587 0.319738
0.000000 0.556603 0.248783
0.000000 0.554437 0.094392
0.203189 0.545800 0.067689
0.321172 0.536614 0.000000
0.375036 0.530449 0.000000
0.416266 0.524376 0.000000
0.452796 0.516930 0.000000
0.484993 0.508476 0.000000
0.512322 0.498604 0.000000
0.547478 0.497902 0.000000
0.614588 0.522911 0.000000
0.688838 0.550896 0.000000
0.754574 0.570184 0.000000
0.808103 0.579950 0.000000
0.851865 0.582910 0.000000
0.888212 0.581231 0.000000
0.917632 0.575677 0.000000
0.939879 0.565698 0.000000
0.956298 0.551446 0.000000
0.970916 0.537041 0.000000
0.984222 0.522545 0.000000
0.996674 0.508263 0.000000
1.000000 0.494331 0.000000
1.000000 0.480751 0.000000
1.000000 0.467506 0.000000
1.000000 0.454566 0.000000
0.000000 0.586603 0.428138
0.000000 0.591943 0.427558
0.000000 0.597040 0.424811
0.000000 0.600702 0.414191
0.000000 0.602197 0.392737
0.000000 0.601709 0.354070
0.000000 0.600061 0.292119
0.000000 0.597864 0.179171
0.117678 0.591455 0.060609
0.287633 0.581659 0.000000
0.376989 0.572473 0.000000
0.421607 0.566064 0.000000
0.461189 0.558312 0.000000
0.496284 0.549462 0.000000
0.526482 0.539178 0.000000
0.551995 0.527733 0.000000
0.588983 0.528283 0.000000
0.655146 0.552392 0.000000
0.724788 0.576989 0.000000
0.784573 0.592523 0.000000
0.833463 0.599664 0.000000
0.873777 0.600946 0.000000
0.906371 0.597375 0.000000
0.932555 0.590478 0.000000
0.953307 0.580529 0.000000
0.968322 0.565820 0.000000
0.981964 0.551049 0.000000
0.994629 0.536492 0.000000
1.000000 0.522271 0.000000
1.000000 0.508354 0.000000
1.000000 0.494881 0.000000
1.000000 0.481758 0.000000
0.000000 0.630426 0.454505
0.000000 0.635370 0.453773
0.000000 0.640223 0.451240
0.000000 0.643671 0.441108
0.000000 0.644953 0.420996
0.000000 0.644007 0.386328
0.000000 0.642206 0.331243
0.000000 0.639887 0.241459
0.000000 0.636316 0.049714
0.238437 0.626429 0.000000
0.363378 0.615930 0.000000
0.424506 0.608179 0.000000
0.467567 0.600397 0.000000
0.505943 0.591577 0.000000
0.539544 0.581445 0.000000
0.568414 0.570123 0.000000
0.593469 0.558495 0.000000
0.632197 0.560052 0.000000
0.698116 0.583703 0.000000
0.762203 0.604150 0.000000
0.815549 0.615534 0.000000
0.859525 0.619867 0.000000
0.895201 0.618555 0.000000
0.923705 0.612970 0.000000
0.946624 0.604395 0.000000
0.965545 0.594141 0.000000
0.979461 0.579248 0.000000
0.992157 0.564324 0.000000
1.000000 0.549737 0.000000
1.000000 0.535515 0.000000
1.000000 0.521721 0.000000
1.000000 0.508415 0.000000
0.000000 0.672541 0.479713
0.000000 0.677302 0.478981
0.000000 0.681941 0.476509
0.000000 0.685145 0.466865
0.000000 0.686244 0.448035
0.000000 0.684993 0.416785
0.000000 0.683101 0.367254
0.000000 0.680690 0.291661
0.000000 0.678279 0.133333
0.155093 0.669673 0.000000
0.325536 0.658900 0.000000
0.423438 0.648127 0.000000
0.469703 0.640375 0.000000
0.511437 0.631952 0.000000
0.548821 0.622705 0.000000
0.582361 0.612940 0.000000
0.612787 0.603174 0.000000
0.641505 0.594720 0.000000
0.685115 0.599634 0.000000
0.751949 0.623651 0.000000
0.810086 0.639612 0.000000
0.856992 0.646479 0.000000
0.893919 0.646174 0.000000
0.923796 0.641352 0.000000
0.947539 0.633021 0.000000
0.966827 0.622614 0.000000
0.982940 0.611170 0.000000
0.995697 0.596612 0.000000
1.000000 0.581353 0.000000
1.000000 0.566552 0.000000
1.000000 0.552331 0.000000
1.000000 0.538659 0.044221
0.000000 0.732601 0.515526
0.000000 0.734401 0.513115
0.000000 0.735714 0.508995
0.000000 0.735958 0.498054
0.000000 0.734920 0.478950
0.000000 0.732387 0.450080
0.000000 0.730526 0.404303
0.000000 0.728695 0.338079
0.000000 0.727169 0.224155
0.000000 0.722805 0.000000
0.278019 0.713222 0.000000
0.410376 0.702022 0.000000
0.479194 0.693050 0.000000
0.525048 0.684932 0.000000
0.566461 0.675959 0.000000
0.603967 0.666316 0.000000
0.637842 0.656458 0.000000
0.668910 0.646754 0.000000
0.698817 0.638880 0.000000
0.740444 0.641199 0.000000
0.799588 0.659113 0.000000
0.847440 0.667353 0.000000
0.884916 0.667750 0.000000
0.914580 0.662867 0.000000
0.939757 0.655299 0.000000
0.960418 0.645441 0.000000
0.977722 0.634302 0.000000
0.992493 0.622583 0.000000
1.000000 0.608789 0.000000
1.000000 0.593683 0.000000
1.000000 0.579156 0.000000
1.000000 0.565270 0.083436
0.000000 0.768521 0.537041
0.000000 0.770260 0.534752
0.000000 0.771695 0.530999
0.000000 0.772000 0.520562
0.000000 0.771023 0.502708
0.000000 0.768551 0.475990
0.000000 0.766354 0.434760
0.000000 0.764248 0.375952
0.000000 0.762478 0.284428
0.000000 0.761044 0.000000
0.196170 0.751675 0.000000
0.367010 0.741024 0.000000
0.473976 0.729549 0.000000
0.523308 0.722194 0.000000
0.568017 0.714199 0.000000
0.609003 0.705776 0.000000
0.646693 0.697169 0.000000
0.681514 0.688685 0.000000
0.714107 0.681209 0.000000
0.747311 0.675624 0.000000
0.787350 0.676509 0.000000
0.838590 0.688197 0.000000
0.878843 0.691005 0.000000
0.910094 0.687251 0.000000
0.929320 0.675166 0.000000
0.951751 0.666316 0.000000
0.970611 0.655818 0.000000
0.986572 0.644373 0.000000
1.000000 0.632624 0.000000
1.000000 0.619654 0.000000
1.000000 0.605005 0.058015
1.000000 0.591058 0.105135
0.000000 0.814206 0.565026
0.000000 0.815946 0.562951
0.000000 0.816739 0.558923
0.000000 0.816312 0.548577
0.000000 0.814633 0.531090
0.000000 0.811795 0.505882
0.000000 0.808774 0.468299
0.000000 0.805997 0.414099
0.000000 0.803128 0.335454
0.000000 0.800473 0.191073
0.000000 0.792966 0.000000
0.312444 0.781643 0.000000
0.445228 0.769070 0.000000
0.519036 0.758602 0.000000
0.565301 0.749508 0.000000
0.607446 0.739925 0.000000
0.646113 0.730190 0.000000
0.682155 0.721035 0.000000
0.716518 0.713008 0.000000
0.749996 0.707332 0.000000
0.784512 0.702968 0.000000
0.822507 0.702510 0.000000
0.866026 0.708461 0.000000
0.899413 0.706325 0.000000
0.925139 0.699092 0.000000
0.945769 0.688869 0.000000
0.965332 0.678553 0.000000
0.981872 0.667048 0.000000
0.996155 0.655177 0.000000
1.000000 0.643336 0.000000
1.000000 0.631220 0.090883
1.000000 0.617121 0.127657
0.000000 0.840055 0.580926
0.000000 0.841581 0.578943
0.000000 0.842313 0.575097
0.000000 0.841947 0.565515
0.000000 0.840513 0.549279
0.000000 0.838193 0.526116
0.000000 0.835599 0.492958
0.000000 0.833738 0.444007
0.000000 0.831907 0.376135
0.000000 0.830259 0.268040
0.000000 0.827298 0.000000
0.234989 0.817472 0.000000
0.400671 0.806455 0.000000
0.513085 0.794400 0.000000
0.562737 0.786709 0.000000
0.608270 0.778531 0.000000
0.650324 0.770108 0.000000
0.689631 0.761990 0.000000
0.726925 0.754574 0.000000
0.762173 0.748684 0.000000
0.796689 0.743618 0.000000
0.829648 0.737514 0.000000
0.862272 0.732815 0.000000
0.896880 0.731716 0.000000
0.923583 0.724880 0.000000
0.944671 0.714626 0.000000
0.961852 0.702510 0.000000
0.979034 0.691127 0.000000
0.993835 0.679225 0.000000
1.000000 0.667323 0.000000
1.000000 0.655848 0.107088
1.000000 0.644739 0.158846
0.000000 0.866819 0.597864
0.000000 0.867674 0.595514
0.000000 0.867765 0.591638
0.000000 0.867002 0.582361
0.000000 0.865354 0.567041
0.000000 0.863005 0.545525
0.000000 0.860136 0.516289
0.000000 0.858518 0.471321
0.000000 0.857053 0.410925
0.000000 0.855924 0.323186
0.000000 0.854826 0.135744
0.074891 0.847990 0.000000
0.342748 0.838163 0.000000
0.475074 0.826993 0.000000
0.553979 0.817441 0.000000
0.601831 0.809995 0.000000
0.646204 0.802182 0.000000
0.687617 0.794614 0.000000
0.726894 0.787594 0.000000
0.764004 0.781491 0.000000
0.799191 0.776638 0.000000
0.833982 0.771695 0.000000
0.863462 0.762783 0.000000
0.891539 0.754726 0.000000
0.919646 0.748806 0.000000
0.941741 0.738888 0.000000
0.959594 0.726772 0.000000
0.974273 0.713436 0.000000
0.989532 0.701503 0.000000
1.000000 0.689509 0.000000
1.000000 0.677790 0.105440
1.000000 0.666804 0.161929
0.000000 0.887419 0.611017
0.000000 0.887816 0.608606
0.000000 0.887877 0.604852
0.000000 0.887358 0.596338
0.000000 0.886351 0.582422
0.000000 0.885191 0.563165
0.000000 0.884123 0.537957
0.000000 0.884489 0.499001
0.000000 0.885588 0.445991
0.000000 0.886961 0.372259
0.000000 0.888457 0.249088
0.000000 0.887175 0.000000
0.275395 0.879850 0.000000
0.435370 0.870939 0.000000
0.551781 0.860563 0.000000
0.604425 0.854185 0.000000
0.651942 0.847501 0.000000
0.696315 0.840787 0.000000
0.738308 0.834348 0.000000
0.778103 0.828244 0.000000
0.814450 0.823209 0.000000
0.850065 0.818143 0.000000
0.884703 0.812711 0.000000
0.908232 0.798337 0.000000
0.929625 0.784970 0.000000
0.950225 0.773281 0.000000
0.966888 0.759609 0.000000
0.980652 0.744991 0.000000
0.992187 0.730129 0.000000
1.000000 0.717189 0.066896
1.000000 0.704982 0.140017
1.000000 0.693538 0.190799
0.000000 0.916350 0.630823
0.000000 0.916472 0.628473
0.000000 0.916228 0.624903
0.000000 0.915465 0.616724
0.000000 0.914275 0.603662
0.000000 0.912749 0.585748
0.000000 0.910979 0.562524
0.000000 0.910246 0.527794
0.000000 0.910460 0.478889
0.000000 0.910887 0.413611
0.000000 0.911345 0.316289
0.000000 0.911925 0.042786
0.163668 0.904692 0.000000
0.376593 0.895872 0.000000
