data/fiter_cube/52608991/1023026/file.cube
# Created by Adobe Lightroom plugin Export LUT (1.17.0)
# www.johnrellis.com/lightroom/exportlut.htm
# Preset: 大神蓝橙街拍_06 云集
# Color profile: C:\Program Files (x86)\Common Files\Adobe\Color\Profiles\Recommended\AdobeRGB1998.icc
LUT_3D_SIZE 5
DOMAIN_MIN 0.000000 0.000000 0.000000
DOMAIN_MAX 0.903226 0.903226 0.903226
0.091493 0.104860 0.113100
0.219699 0.100526 0.110292
0.538170 0.103517 0.071870
0.898924 0.101137 0.000000
1.000000 0.000000 0.000000
0.060365 0.186252 0.164065
0.195193 0.180972 0.113588
0.520806 0.241672 0.061067
0.891051 0.261265 0.000000
1.000000 0.203067 0.000000
0.000000 0.383734 0.299840
0.188418 0.366155 0.109651
0.513359 0.423377 0.000000
0.897429 0.492897 0.000000
1.000000 0.408972 0.000000
0.000000 0.732601 0.515526
0.000000 0.728695 0.338079
0.566461 0.675959 0.000000
0.847440 0.667353 0.000000
1.000000 0.608789 0.000000
0.000000 0.932067 0.641566
0.000000 0.926665 0.549889
0.446815 0.897642 0.000000
0.826627 0.859800 0.000000
0.989227 0.778347 0.000000
0.069093 0.148165 0.205631
0.176516 0.137026 0.202396
0.488472 0.191958 0.103792
0.853849 0.245487 0.000000
1.000000 0.152865 0.000000
0.066499 0.165225 0.232181
0.178073 0.200107 0.213413
0.486275 0.262852 0.123140
0.854551 0.322789 0.000000
1.000000 0.245792 0.000000
0.000000 0.341741 0.392706
0.085512 0.398413 0.329046
0.460365 0.396124 0.158968
0.865080 0.503655 0.000000
1.000000 0.424140 0.000000
0.000000 0.746181 0.638361
0.000000 0.739498 0.533013
0.540978 0.689540 0.115663
0.832792 0.666682 0.000000
1.000000 0.615595 0.000000
0.000000 0.934478 0.730434
0.000000 0.928466 0.653223
0.323400 0.917357 0.168734
0.821805 0.868193 0.000000
0.989899 0.784054 0.000000
0.000000 0.243442 0.372992
0.050111 0.242405 0.390021
0.415564 0.194888 0.415991
0.832273 0.000000 0.261570
1.000000 0.261387 0.000000
0.000000 0.266178 0.400855
0.091096 0.278111 0.389105
0.420935 0.263096 0.423804
0.827695 0.241642 0.281071
1.000000 0.309514 0.000000
0.000000 0.323278 0.487922
0.000000 0.337621 0.477211
0.431037 0.445777 0.446784
0.836576 0.490120 0.346990
1.000000 0.447059 0.000000
0.000000 0.463416 0.696223
0.000000 0.488167 0.703182
0.406256 0.733974 0.594507
0.811521 0.686519 0.383276
0.997406 0.626612 0.000000
0.000000 0.773648 0.854673
0.000000 0.839322 0.850217
0.412604 0.913359 0.709834
0.764797 0.877592 0.339239
0.982391 0.791440 0.000000
0.000000 0.392462 0.595850
0.000000 0.394141 0.595758
0.265324 0.340642 0.657435
0.739986 0.312779 0.666194
0.970855 0.338048 0.527184
0.000000 0.405585 0.610498
0.000000 0.408453 0.598627
0.257969 0.378454 0.646204
0.731563 0.367651 0.661860
0.967193 0.373144 0.523888
0.000000 0.438148 0.657130
0.000000 0.443641 0.647028
0.275669 0.480385 0.612573
0.717525 0.513390 0.659876
0.962524 0.524834 0.549432
0.000000 0.499367 0.747860
0.000000 0.508293 0.739681
0.327245 0.568475 0.724422
0.742702 0.727840 0.700526
0.961395 0.694209 0.586633
0.000000 0.560143 0.855711
0.000000 0.577508 0.858732
0.381506 0.670863 0.868101
0.755337 0.890166 0.799924
0.942168 0.840696 0.621790
0.000000 0.553155 0.821164
0.000000 0.560266 0.815274
0.301244 0.554955 0.822446
0.619623 0.556115 0.839078
0.899779 0.593194 0.826108
0.000000 0.552300 0.821195
0.000000 0.559350 0.815702
0.279088 0.564904 0.815915
0.611719 0.568353 0.833371
0.896880 0.613092 0.825254
0.000000 0.556237 0.834989
0.000000 0.561212 0.830259
0.191348 0.592798 0.810666
0.597833 0.620539 0.823636
0.894499 0.692103 0.831510
0.000000 0.573358 0.863096
0.000000 0.579217 0.859098
0.118624 0.610132 0.848631
0.560235 0.699458 0.820035
0.893736 0.792538 0.843748
0.000000 0.592981 0.897398
0.000000 0.602136 0.895567
0.239414 0.651453 0.890776
0.656641 0.767666 0.874937
0.892943 0.877928 0.855894
