data/fiter_cube/93231427/1022693/file.cube
# Created by Adobe Lightroom plugin Export LUT (1.17.0)
# www.johnrellis.com/lightroom/exportlut.htm
# Preset: 工业风黑金_05 云集后期
# Color profile: C:\Program Files (x86)\Common Files\Adobe\Color\Profiles\Recommended\AdobeRGB1998.icc
LUT_3D_SIZE 5
DOMAIN_MIN 0.000000 0.000000 0.000000
DOMAIN_MAX 0.903226 0.903226 0.903226
0.107576 0.073793 0.060212
0.143709 0.063050 0.060700
0.355779 0.000000 0.038300
0.645655 0.139956 0.000000
0.957397 0.274266 0.116915
0.109987 0.078492 0.065949
0.134157 0.087678 0.065278
0.322423 0.125124 0.048096
0.620386 0.214755 0.000000
0.960510 0.336645 0.145693
0.128206 0.141146 0.144472
0.158999 0.170962 0.166903
0.330144 0.246036 0.160861
0.561425 0.325872 0.060182
0.915984 0.448035 0.173342
0.192782 0.311192 0.341344
0.239597 0.347509 0.369421
0.384344 0.486854 0.385931
0.640986 0.508721 0.363592
0.874937 0.566522 0.256870
0.326329 0.582422 0.642878
0.376532 0.606744 0.657069
0.518364 0.676204 0.688899
0.833188 0.834897 0.762814
0.921386 0.790402 0.663813
0.124086 0.100587 0.102083
0.172335 0.109651 0.115785
0.340002 0.162661 0.079286
0.587518 0.264836 0.000000
0.919677 0.351781 0.123384
0.137758 0.130098 0.139345
0.180545 0.153353 0.148775
0.339666 0.192081 0.117159
0.571130 0.285527 0.010651
0.913787 0.385931 0.137209
0.167636 0.206790 0.228275
0.213352 0.232425 0.242252
0.372656 0.317449 0.270420
0.564935 0.347662 0.168643
0.894774 0.480690 0.181888
0.253300 0.378759 0.420691
0.300084 0.402686 0.434119
0.432654 0.526177 0.498421
0.662989 0.554620 0.444770
0.877073 0.581598 0.313573
0.376226 0.612329 0.678096
0.418677 0.626947 0.681880
0.575921 0.711452 0.731136
0.826780 0.843809 0.764431
0.927916 0.814359 0.707912
0.267918 0.314122 0.369329
0.319249 0.343511 0.384497
0.487587 0.370886 0.419532
0.688197 0.392645 0.322576
0.919432 0.481056 0.268101
0.303807 0.359319 0.414557
0.343999 0.377966 0.420325
0.479225 0.407568 0.446357
0.680293 0.417823 0.351049
0.920104 0.495399 0.284337
0.336614 0.428840 0.491493
0.374670 0.442969 0.493233
0.495369 0.502831 0.513237
0.671778 0.499458 0.434791
0.912810 0.546166 0.348669
0.403815 0.541894 0.610864
0.435554 0.550774 0.609186
0.548821 0.603906 0.627955
0.731044 0.695705 0.663630
0.892546 0.642542 0.476936
0.546593 0.713283 0.782620
0.569879 0.721859 0.783810
0.635340 0.742855 0.778256
0.782223 0.844572 0.807736
0.926238 0.850340 0.782559
0.526452 0.609003 0.690394
0.559686 0.625788 0.696345
0.651209 0.672511 0.708797
0.784298 0.669459 0.717678
0.949065 0.704005 0.680262
0.544091 0.625696 0.702907
0.569268 0.636408 0.704311
0.651575 0.676448 0.713283
0.774929 0.679103 0.723079
0.941894 0.704097 0.677882
0.571099 0.660395 0.733852
0.594690 0.670161 0.735012
0.665126 0.702205 0.740993
0.767208 0.727718 0.758816
0.937987 0.727474 0.692195
0.636378 0.731991 0.798062
0.649256 0.734859 0.794949
0.702876 0.757321 0.797757
0.791470 0.800717 0.809262
0.928191 0.768826 0.714992
0.743099 0.838682 0.894713
0.751980 0.842039 0.894591
0.782376 0.854490 0.895201
0.830961 0.870146 0.886442
0.945068 0.918669 0.895598
0.837369 0.882078 0.928740
0.846067 0.886168 0.929198
0.874540 0.899962 0.931212
0.914244 0.920378 0.938628
0.977508 0.914855 0.938354
0.841550 0.886656 0.932525
0.849821 0.890440 0.932921
0.877073 0.903441 0.934630
0.918059 0.924834 0.940063
0.977600 0.919432 0.941802
0.851560 0.899382 0.944274
0.857176 0.901610 0.944152
0.882139 0.912932 0.945159
0.923369 0.933532 0.948943
0.978210 0.933867 0.952789
0.874571 0.923369 0.963989
0.879179 0.925261 0.964019
0.894652 0.931518 0.964019
0.927550 0.945800 0.964813
0.979492 0.958251 0.971313
0.895537 0.944396 0.979797
0.899718 0.946380 0.980316
0.914855 0.953704 0.982208
0.943816 0.968231 0.986511
0.987915 0.990600 0.992889
