data/fiter_cube/93231427/1022693/file.cube
# Created by Adobe Lightroom plugin Export LUT (1.17.0)
# www.johnrellis.com/lightroom/exportlut.htm
# Preset: 工业风黑金_05 云集后期
# Color profile: C:\Program Files (x86)\Common Files\Adobe\Color\Profiles\Recommended\AdobeRGB1998.icc
LUT_3D_SIZE 32
DOMAIN_MIN 0.0 0.0 0.0
DOMAIN_MAX 1.0 1.0 1.0
0.107576 0.073793 0.060212
0.107576 0.073793 0.060212
0.107576 0.073793 0.060212
0.107576 0.073793 0.060212
0.107576 0.073793 0.060212
0.116030 0.071839 0.060395
0.128206 0.068299 0.060426
0.143709 0.063050 0.060700
0.164340 0.049561 0.060273
0.190219 0.015076 0.059480
0.220859 0.000000 0.059022
0.253696 0.000000 0.056977
0.287022 0.000000 0.053254
0.321294 0.000000 0.047730
0.355779 0.000000 0.038300
0.390265 0.000000 0.027588
0.425116 0.000000 0.015778
0.460731 0.028260 0.001282
0.497230 0.068788 0.000000
0.536492 0.090944 0.000000
0.583734 0.112581 0.000000
0.645655 0.139956 0.000000
0.701961 0.162966 0.000000
0.752682 0.183841 0.000000
0.797726 0.202121 0.000000
0.839414 0.219150 0.000000
0.879515 0.236301 0.003937
0.918761 0.254276 0.076600
0.957397 0.274266 0.116915
0.995209 0.297704 0.158877
1.000000 0.326024 0.205753
1.000000 0.360723 0.259312
0.107576 0.073793 0.060212
0.107576 0.073793 0.060212
0.107576 0.073793 0.060212
0.107576 0.073793 0.060212
0.107576 0.073793 0.060212
0.115511 0.071992 0.060395
0.127535 0.068544 0.060456
0.142550 0.063569 0.060334
0.162661 0.051240 0.060365
0.187961 0.018677 0.059602
0.218112 0.000000 0.059174
0.249943 0.000000 0.057313
0.282841 0.000000 0.053712
0.316503 0.000000 0.049348
0.350591 0.000000 0.040101
0.384619 0.000000 0.030091
0.419104 0.000000 0.017762
0.454353 0.037293 0.004059
0.490364 0.072084 0.000000
0.529290 0.092836 0.000000
0.576287 0.113832 0.000000
0.636164 0.138888 0.000000
0.691005 0.161410 0.000000
0.741573 0.181338 0.000000
0.787015 0.198734 0.000000
0.829160 0.215824 0.000000
0.870146 0.232547 0.000000
0.910277 0.250584 0.067079
0.949889 0.270176 0.109071
0.988586 0.293309 0.151186
1.000000 0.320836 0.197696
1.000000 0.354803 0.250675
0.107576 0.073793 0.060212
0.107576 0.073793 0.060212
0.107576 0.073793 0.060212
0.107576 0.073793 0.060212
0.107576 0.073793 0.060212
0.114992 0.072114 0.060395
0.126833 0.068788 0.060456
0.141726 0.063935 0.060792
0.161288 0.052583 0.060426
0.186069 0.021576 0.059693
0.215824 0.000000 0.059327
0.246983 0.000000 0.058076
0.279484 0.000000 0.054597
0.312963 0.000000 0.049531
0.346624 0.000000 0.041505
0.380682 0.000000 0.030701
0.414923 0.010834 0.018891
0.449989 0.054292 0.005585
0.486122 0.077180 0.000000
0.524926 0.096498 0.000000
0.572229 0.117067 0.000000
0.631006 0.140902 0.000000
0.685145 0.162753 0.000000
0.735470 0.181735 0.000000
0.780880 0.199496 0.000000
0.823362 0.215824 0.000000
0.864744 0.232517 0.000000
0.905455 0.250156 0.062013
0.945647 0.269535 0.105135
0.984894 0.292241 0.147646
1.000000 0.319432 0.193942
1.000000 0.352758 0.246433
0.107576 0.073793 0.060212
0.107576 0.073793 0.060212
0.107576 0.073793 0.060212
0.107576 0.073793 0.060212
0.107576 0.073793 0.060212
0.114992 0.072114 0.060395
0.126619 0.068879 0.060487
0.141146 0.064210 0.060365
0.160433 0.053437 0.060456
0.184909 0.023346 0.059724
0.212802 0.000000 0.059449
0.243198 0.000000 0.058137
0.274937 0.000000 0.055451
0.307897 0.000000 0.049653
0.341527 0.000000 0.042145
0.375128 0.016785 0.032685
0.409033 0.052461 0.020142
0.443946 0.072114 0.007477
0.479500 0.088899 0.000000
0.517815 0.105165 0.000000
0.565057 0.123995 0.000000
0.621454 0.146365 0.000000
0.674830 0.166415 0.000000
0.725978 0.185611 0.000000
0.773587 0.203037 0.000000
0.818479 0.219669 0.000000
0.861631 0.236759 0.000000
0.903441 0.254795 0.063447
0.944060 0.274266 0.105653
0.983398 0.296208 0.147616
1.000000 0.322271 0.193210
1.000000 0.354162 0.244511
0.107576 0.073793 0.060212
0.107576 0.073793 0.060212
0.107576 0.073793 0.060212
0.107576 0.073793 0.060212
0.107576 0.073793 0.060212
0.114473 0.072267 0.060426
0.125673 0.069184 0.060517
0.139925 0.064729 0.060395
0.158328 0.055451 0.060517
0.181186 0.040742 0.059968
0.207431 0.028443 0.059815
0.236728 0.021729 0.059083
0.267979 0.022614 0.055207
0.300755 0.031128 0.050355
0.334173 0.048798 0.043122
0.368231 0.065095 0.033661
0.402991 0.077852 0.022065
0.438025 0.091249 0.009339
0.473854 0.105745 0.000000
0.512200 0.119387 0.000000
0.560174 0.137240 0.000000
0.615106 0.156832 0.000000
0.667384 0.175784 0.000000
0.718349 0.193912 0.000000
0.766629 0.210697 0.000000
0.812161 0.226902 0.000000
0.855894 0.243595 0.000000
0.898314 0.260563 0.061585
0.939391 0.279423 0.104189
0.979156 0.300633 0.145846
1.000000 0.325841 0.190829
1.000000 0.356847 0.242039
0.107576 0.073793 0.060212
0.107576 0.073793 0.060212
0.107576 0.073793 0.060212
0.107576 0.073793 0.060212
0.107576 0.073793 0.060212
0.113436 0.072572 0.060456
0.125093 0.070619 0.060853
0.138827 0.068513 0.061006
0.155947 0.066407 0.060792
0.177707 0.064149 0.060853
0.203250 0.063386 0.060517
0.231754 0.064179 0.059663
0.262516 0.066835 0.056245
0.294804 0.072541 0.051301
0.328252 0.080018 0.045350
0.362402 0.089815 0.035645
0.397009 0.100465 0.023987
0.432380 0.111604 0.009949
0.468666 0.123171 0.000000
0.507225 0.135897 0.000000
0.557549 0.153536 0.000000
0.612268 0.172702 0.000000
0.726802 0.220249 0.000000
0.778622 0.239017 0.000000
0.824430 0.256229 0.000000
0.866331 0.271885 0.024964
0.905241 0.287633 0.081300
0.942412 0.303899 0.117006
0.978088 0.322210 0.153689
1.000000 0.343572 0.193759
1.000000 0.369207 0.238621
1.000000 0.400336 0.289555
0.108125 0.074739 0.061830
0.108156 0.074739 0.061372
0.108095 0.075135 0.061769
0.107973 0.076265 0.061677
0.107912 0.077363 0.061128
0.111299 0.076844 0.062287
0.123995 0.079805 0.062135
0.139284 0.080415 0.062379
0.157168 0.080720 0.062715
0.179660 0.081971 0.062348
0.205875 0.084596 0.061524
0.235416 0.088136 0.059724
0.266423 0.093355 0.056916
0.298711 0.099672 0.051148
0.331792 0.107271 0.044160
0.365179 0.115114 0.034394
0.399268 0.124422 0.022309
0.434485 0.134493 0.009766
0.471351 0.145418 0.000000
0.511376 0.157931 0.000000
0.570214 0.178775 0.000000
0.632227 0.200504 0.000000
0.693782 0.222049 0.000000
0.752560 0.243137 0.000000
0.805356 0.262211 0.000000
0.851896 0.279057 0.013428
0.893767 0.295079 0.077180
0.932555 0.311040 0.112734
0.969665 0.328527 0.149447
1.000000 0.348669 0.188693
1.000000 0.372656 0.232670
1.000000 0.402258 0.282872
0.109987 0.078492 0.065949
0.109743 0.078187 0.066011
0.109712 0.078553 0.065980
0.109560 0.079286 0.066682
0.109133 0.082429 0.067536
0.111666 0.085237 0.063050
0.118837 0.082399 0.067079
0.134157 0.087678 0.065278
0.152377 0.091432 0.064851
0.173953 0.094209 0.063966
0.199374 0.098726 0.062989
0.227909 0.103853 0.061097
0.258091 0.110506 0.058991
0.289860 0.117372 0.054322
0.322423 0.125124 0.048096
0.355688 0.133120 0.037537
0.389532 0.141909 0.025727
0.424781 0.151125 0.013458
0.461311 0.161624 0.000031
0.504143 0.175174 0.000000
0.560723 0.194614 0.000000
0.620386 0.214755 0.000000
0.680232 0.235294 0.000000
0.738521 0.254978 0.000000
0.791562 0.273381 0.000000
0.838926 0.289525 0.010956
0.881956 0.304753 0.073854
0.922148 0.319860 0.109407
0.960510 0.336645 0.145693
0.996826 0.355871 0.184604
1.000000 0.378882 0.228428
1.000000 0.407050 0.278294
0.112276 0.082887 0.071870
0.112062 0.082612 0.071565
0.112032 0.082948 0.071534
0.112123 0.083925 0.072145
0.112123 0.085176 0.073091
0.114931 0.090639 0.074525
0.124086 0.093690 0.068635
0.130861 0.091615 0.074006
0.148531 0.097749 0.069764
0.168795 0.104585 0.066224
0.193545 0.110506 0.064820
0.221317 0.117342 0.063172
0.250828 0.125154 0.060914
0.282200 0.133028 0.057618
0.314092 0.141512 0.051179
0.347021 0.150027 0.042512
0.380835 0.158602 0.030671
0.415656 0.167941 0.018433
0.452003 0.178195 0.005066
0.498299 0.193088 0.000000
0.552789 0.211185 0.000000
0.610620 0.230869 0.000000
0.669032 0.250370 0.000000
0.726802 0.269627 0.000000
0.780331 0.287022 0.000000
0.828336 0.302739 0.018738
0.872221 0.317327 0.075135
0.913268 0.332006 0.109133
0.952575 0.347906 0.144472
0.989807 0.366003 0.183200
1.000000 0.387732 0.226139
1.000000 0.414374 0.275303
0.114687 0.088502 0.078431
0.114504 0.088228 0.078126
0.114504 0.088228 0.078126
0.114321 0.089174 0.078706
0.114565 0.090578 0.079561
0.118318 0.095155 0.082704
0.124483 0.103456 0.081910
0.137942 0.103639 0.078065
0.147036 0.104585 0.083162
0.168154 0.111940 0.077241
0.189700 0.120211 0.070649
0.213718 0.128054 0.065858
0.242771 0.136751 0.063600
0.273594 0.145785 0.060578
0.305760 0.155184 0.055360
0.338933 0.164584 0.047974
0.372961 0.174594 0.037415
0.408209 0.184176 0.025605
0.445258 0.195071 0.011994
0.493782 0.211643 0.000000
0.545892 0.228977 0.000000
0.601007 0.247257 0.000000
0.656641 0.265080 0.000000
0.711849 0.282780 0.000000
0.764523 0.299290 0.000000
0.812985 0.314611 0.020020
0.858640 0.328985 0.074250
0.901884 0.343755 0.107851
0.943420 0.359655 0.143618
0.982788 0.377966 0.182620
1.000000 0.399695 0.226993
1.000000 0.426246 0.277043
0.116915 0.094484 0.086397
0.116793 0.094240 0.085847
0.116793 0.094240 0.085847
0.116548 0.095399 0.086610
0.117372 0.097414 0.087831
0.121798 0.101930 0.091402
0.127230 0.112581 0.096742
0.135012 0.121004 0.085725
0.154360 0.117250 0.092256
0.168887 0.122225 0.094911
0.192416 0.130800 0.086458
0.215122 0.139162 0.077241
0.238529 0.147127 0.070680
0.265873 0.156649 0.064363
0.296941 0.166720 0.059785
0.329931 0.176913 0.053071
0.363745 0.187198 0.045106
0.398138 0.197787 0.034058
0.438666 0.211551 0.020935
0.485176 0.227329 0.005829
0.535332 0.244236 0.000000
0.589380 0.262211 0.000000
0.644373 0.280369 0.000000
0.699519 0.298100 0.000000
0.752773 0.314672 0.000000
0.802060 0.329534 0.034028
0.848142 0.343542 0.077882
0.892119 0.357763 0.109499
0.934447 0.373114 0.144045
0.974853 0.390570 0.182498
1.000000 0.411383 0.226078
1.000000 0.436896 0.276097
0.119173 0.102327 0.096193
0.118990 0.102113 0.095979
0.118990 0.102358 0.095674
0.118776 0.103151 0.096407
0.121096 0.106355 0.098787
0.125826 0.111269 0.102754
0.132204 0.119020 0.108461
0.140291 0.133059 0.110964
0.158236 0.142245 0.094057
0.173220 0.134981 0.112673
0.195895 0.145296 0.110689
0.221012 0.153689 0.098939
0.259220 0.173068 0.091890
0.281987 0.179751 0.081025
0.310430 0.189639 0.072236
0.339940 0.199924 0.062531
0.372015 0.210666 0.051850
0.411353 0.224430 0.041077
0.457832 0.242130 0.029664
0.506401 0.260533 0.016571
0.559075 0.279423 0.003571
0.613733 0.298161 0.000000
0.667903 0.315862 0.000000
0.721767 0.333043 0.009796
0.772427 0.348486 0.047211
0.819760 0.362707 0.077760
0.864012 0.375921 0.104982
0.905852 0.389075 0.134279
0.945861 0.403418 0.167514
0.984131 0.419959 0.205020
1.000000 0.439765 0.247898
1.000000 0.464576 0.298070
0.121920 0.114870 0.112184
0.121736 0.114900 0.111971
0.122011 0.114870 0.111727
0.123323 0.116793 0.113252
0.126497 0.120027 0.115755
0.131380 0.125246 0.119783
0.138399 0.132753 0.125399
0.146365 0.148653 0.133700
0.160128 0.161990 0.127169
0.189334 0.167636 0.116884
0.204044 0.167697 0.148318
0.233402 0.178561 0.134493
0.260838 0.186862 0.119448
0.284794 0.193851 0.103487
0.306462 0.199588 0.090120
0.335790 0.209689 0.081086
0.368780 0.222171 0.071809
0.406958 0.238224 0.060822
0.448096 0.254612 0.044739
0.494240 0.271763 0.034730
0.543328 0.290074 0.024750
0.595453 0.309300 0.016907
0.648737 0.326879 0.016968
0.702205 0.344182 0.028168
0.753719 0.360082 0.057984
0.802152 0.374426 0.080201
0.847776 0.387915 0.104952
0.891356 0.401343 0.133150
0.933196 0.415503 0.165408
0.973297 0.431983 0.202762
1.000000 0.451179 0.245609
1.000000 0.475624 0.296208
0.124300 0.126589 0.126864
0.124727 0.126925 0.126802
0.125521 0.127382 0.126955
0.127382 0.129152 0.128542
0.130648 0.132723 0.131380
0.135714 0.138186 0.135439
0.143313 0.145907 0.141176
0.153079 0.156741 0.149020
0.163516 0.176913 0.154971
0.177920 0.191440 0.131930
0.219791 0.193210 0.144076
0.237095 0.199496 0.174685
0.266728 0.208591 0.156954
0.292973 0.214237 0.137972
0.315068 0.218601 0.118715
0.336339 0.223667 0.102602
0.371832 0.237644 0.095155
0.407233 0.251438 0.086122
0.443549 0.265751 0.074678
0.482307 0.281407 0.060761
0.527764 0.299168 0.045655
0.578698 0.318273 0.039826
0.630182 0.337469 0.041230
0.683742 0.355474 0.050874
0.736690 0.372259 0.067109
0.786465 0.387427 0.085512
0.833768 0.401495 0.108034
0.878965 0.415320 0.134981
0.922454 0.429999 0.166629
0.964324 0.446387 0.203922
1.000000 0.465736 0.246952
1.000000 0.489784 0.298161
0.128206 0.141146 0.144472
0.128847 0.141726 0.145052
0.129671 0.142123 0.144991
0.131930 0.144289 0.146639
0.135653 0.147982 0.149569
0.141115 0.153323 0.153597
0.148867 0.160830 0.159335
0.158999 0.170962 0.166903
0.169314 0.190616 0.177249
0.185702 0.207919 0.174685
0.212589 0.221836 0.146700
0.252567 0.223423 0.177584
0.273411 0.233921 0.202304
0.302190 0.239933 0.180667
0.330144 0.246036 0.160861
0.356237 0.252354 0.141176
0.373693 0.253849 0.120089
0.406867 0.265354 0.111025
0.441230 0.277867 0.101564
0.477821 0.291814 0.090028
0.517449 0.307805 0.076661
0.561425 0.325872 0.060182
0.612299 0.345129 0.059205
0.664637 0.364569 0.064912
0.718227 0.383307 0.074556
0.770565 0.399969 0.091218
0.820706 0.415900 0.112886
0.869230 0.431678 0.140322
0.915984 0.448035 0.173342
0.960601 0.466102 0.212222
1.000000 0.487129 0.258274
1.000000 0.512902 0.312902
0.132937 0.157931 0.164828
0.133852 0.158419 0.165042
0.135012 0.159304 0.165621
0.137362 0.161593 0.167483
0.141421 0.165591 0.170596
0.147463 0.171389 0.175051
0.155764 0.179141 0.181064
0.166415 0.189425 0.188632
0.179568 0.203403 0.198184
0.191806 0.228244 0.207279
0.213748 0.243900 0.192752
0.254063 0.253758 0.176425
0.285985 0.256138 0.217441
0.315557 0.273228 0.234501
0.347692 0.280735 0.213230
0.373632 0.283452 0.189120
0.394018 0.283726 0.164004
0.406836 0.280797 0.137728
0.438514 0.290837 0.127321
0.474739 0.303960 0.117708
0.513664 0.319066 0.106630
0.556298 0.336522 0.093843
0.601770 0.355535 0.079591
0.652247 0.375738 0.075227
0.706508 0.396521 0.084962
0.760159 0.415961 0.100893
0.812436 0.433234 0.121920
0.862730 0.450172 0.148959
0.910857 0.467475 0.181827
0.956268 0.485725 0.220890
0.998383 0.506340 0.266575
1.000000 0.531426 0.320897
0.138857 0.175509 0.185824
0.139406 0.175845 0.185763
0.140719 0.176974 0.186587
0.143404 0.179355 0.188540
0.147768 0.183444 0.191745
0.154177 0.189090 0.196109
0.162387 0.197024 0.201938
0.173251 0.206668 0.209140
0.186709 0.219120 0.218296
0.199405 0.241367 0.230014
0.217227 0.261997 0.230503
0.235843 0.278691 0.198245
0.298894 0.290745 0.216770
0.330602 0.302403 0.271702
0.365637 0.319829 0.273686
0.392432 0.320348 0.245243
0.413428 0.317662 0.215824
0.429419 0.313268 0.186038
0.439887 0.307408 0.156466
0.469154 0.315435 0.142977
0.506859 0.329107 0.133089
0.547997 0.345220 0.122469
0.591974 0.363226 0.110567
0.638514 0.382818 0.098787
0.688685 0.403906 0.091341
0.743923 0.425635 0.106111
0.797848 0.446174 0.126894
0.850767 0.464790 0.153780
0.901335 0.483467 0.186801
0.948974 0.502953 0.226383
0.993042 0.524590 0.273381
1.000000 0.550439 0.329778
0.145449 0.195224 0.208865
0.146395 0.196017 0.209476
0.151583 0.207004 0.221805
0.154696 0.209659 0.223697
0.159731 0.213779 0.226810
0.166629 0.219181 0.230777
0.175601 0.226749 0.236271
0.186862 0.236393 0.243076
0.201022 0.248234 0.251530
0.216770 0.264012 0.261875
0.233188 0.297063 0.277348
0.261509 0.318700 0.270146
0.298222 0.338354 0.237064
0.366613 0.353643 0.282719
0.402533 0.378088 0.353735
0.431434 0.380438 0.325444
0.452949 0.373968 0.289250
0.468605 0.364782 0.252689
0.480201 0.355047 0.216892
0.487861 0.345525 0.182620
0.514031 0.350469 0.164431
0.554467 0.365332 0.154330
0.597589 0.382025 0.144106
0.642573 0.400122 0.134035
0.688899 0.419409 0.124300
0.736629 0.439826 0.117617
0.788510 0.460151 0.134707
0.840116 0.480232 0.160067
0.891508 0.499275 0.192081
0.940764 0.519493 0.231662
0.986572 0.541833 0.279423
1.000000 0.567926 0.336431
0.154147 0.218936 0.236454
0.155795 0.221042 0.238437
0.157809 0.223667 0.241001
0.161410 0.227512 0.244358
0.166995 0.232364 0.248447
0.174289 0.238529 0.253117
0.183444 0.245945 0.258457
0.195804 0.256840 0.267002
0.211826 0.271855 0.278813
0.230533 0.289036 0.292027
0.248203 0.317357 0.308080
0.270573 0.344640 0.313634
0.298985 0.365301 0.292699
0.353918 0.380652 0.274266
0.416907 0.398749 0.334081
0.451820 0.425177 0.396765
0.474372 0.417914 0.355291
0.491127 0.406439 0.314305
0.503593 0.393896 0.274571
0.513085 0.382055 0.236790
0.520562 0.371649 0.200778
0.545068 0.375067 0.179355
0.587884 0.391150 0.169894
0.632868 0.408972 0.161135
0.679286 0.428168 0.152560
0.727535 0.448646 0.146212
0.776181 0.470039 0.144106
0.828672 0.492287 0.164797
0.881224 0.514641 0.197421
0.932555 0.536095 0.237613
0.980133 0.559411 0.285985
1.000000 0.586236 0.344549
0.163119 0.242466 0.263493
0.164981 0.245151 0.266148
0.167300 0.248020 0.269047
0.171511 0.252598 0.273198
0.178073 0.258824 0.278477
0.186313 0.266392 0.284733
0.196841 0.275395 0.291936
0.209781 0.286320 0.300359
0.225437 0.299596 0.310521
0.243900 0.315465 0.322362
0.263920 0.336034 0.336217
0.280217 0.370703 0.351995
0.308019 0.389502 0.343633
0.332158 0.409125 0.303136
0.410315 0.423926 0.322057
0.465248 0.443977 0.387366
0.499702 0.467842 0.430945
0.517784 0.455299 0.384558
0.531395 0.440223 0.340063
0.541741 0.425299 0.297734
0.549981 0.411963 0.258183
0.557794 0.401190 0.221012
0.579370 0.401984 0.195377
0.624079 0.419287 0.187442
0.670588 0.437964 0.179934
0.718837 0.458198 0.173800
0.767483 0.479438 0.170809
0.817105 0.502190 0.174807
0.869871 0.526482 0.200900
0.922301 0.550927 0.241611
0.971923 0.575189 0.290715
1.000000 0.602716 0.350317
0.175509 0.272465 0.297612
0.177554 0.275364 0.300572
0.180362 0.278691 0.303777
0.184909 0.283421 0.308141
0.191409 0.289372 0.313207
0.199985 0.296269 0.318700
0.210483 0.304387 0.324804
0.223178 0.314427 0.332189
0.238560 0.326665 0.341283
0.256352 0.340978 0.351720
0.276555 0.357671 0.363684
0.293980 0.386145 0.378454
0.315129 0.413581 0.383612
0.345251 0.432258 0.366522
0.382238 0.448402 0.323888
0.466682 0.469306 0.372473
0.514733 0.492256 0.446204
0.552209 0.514946 0.470008
0.569268 0.500206 0.421424
0.582849 0.484291 0.375219
0.593622 0.468757 0.331395
0.602686 0.454871 0.289921
0.611688 0.443671 0.250767
0.632166 0.442817 0.221134
0.681209 0.462928 0.215549
0.731319 0.484138 0.212192
0.781186 0.506065 0.212314
0.831357 0.529564 0.218082
0.881865 0.554833 0.232578
0.932586 0.581750 0.268986
0.980835 0.609216 0.322850
1.000000 0.638605 0.387488
0.192782 0.311192 0.341344
0.194797 0.313268 0.343328
0.196902 0.315465 0.345251
0.201205 0.318975 0.348150
0.207584 0.323980 0.352087
0.216190 0.330083 0.356573
0.226719 0.337804 0.362341
0.239597 0.347509 0.369421
0.255131 0.359319 0.378027
0.273228 0.373571 0.388434
0.293645 0.390265 0.400549
0.314519 0.412238 0.414343
0.330724 0.448493 0.430274
0.358984 0.467292 0.421912
0.384344 0.486854 0.385931
0.449928 0.501335 0.364660
0.536278 0.530297 0.438911
0.582238 0.561059 0.526268
0.610956 0.569055 0.518151
0.623590 0.549157 0.464393
0.633417 0.528222 0.412268
0.640986 0.508721 0.363592
0.647486 0.491585 0.318059
0.654627 0.477852 0.275608
0.671351 0.473671 0.240574
0.721736 0.494728 0.237461
0.772519 0.516930 0.237797
0.823606 0.540826 0.243351
0.874937 0.566522 0.256870
0.925078 0.594141 0.280552
0.973541 0.624201 0.328588
1.000000 0.655695 0.395422
0.206485 0.341894 0.375891
0.208347 0.344121 0.377966
0.210697 0.346502 0.380194
0.215396 0.350011 0.383124
0.221744 0.354833 0.386694
0.230014 0.360388 0.390723
0.240482 0.367346 0.395575
0.252842 0.376043 0.401648
0.267948 0.387060 0.409552
0.285313 0.400214 0.418921
0.305211 0.415778 0.430030
0.327459 0.433356 0.442390
0.344976 0.464088 0.457404
0.366796 0.493721 0.463630
0.398169 0.512535 0.447578
0.424262 0.531365 0.397589
0.517357 0.551110 0.420111
0.596460 0.583520 0.503807
0.645045 0.626551 0.601068
0.660883 0.614496 0.558251
0.671351 0.592706 0.503929
0.680110 0.569970 0.449317
0.687800 0.549157 0.397894
0.694911 0.531182 0.349950
0.692256 0.508202 0.298344
0.707393 0.502159 0.259281
0.758419 0.524193 0.258946
0.810422 0.548211 0.264012
0.862699 0.574243 0.276432
0.914214 0.602533 0.298466
0.963714 0.633570 0.333776
1.000000 0.668788 0.398138
0.226444 0.383764 0.422766
0.228641 0.386511 0.425422
0.231083 0.388769 0.427466
0.235294 0.391791 0.429725
0.241489 0.395575 0.432288
0.249363 0.400397 0.435370
0.259434 0.406317 0.439155
0.271244 0.413825 0.443885
0.285557 0.423072 0.449958
0.302037 0.434668 0.457618
0.320745 0.447761 0.466407
0.341772 0.463600 0.477028
0.362371 0.485695 0.489296
0.378088 0.521965 0.503777
0.405829 0.539666 0.494209
0.439277 0.556115 0.467018
0.477974 0.569177 0.417121
0.578607 0.596307 0.476661
0.646784 0.629786 0.563104
0.689204 0.669093 0.642512
0.700008 0.650233 0.590753
0.709071 0.627466 0.536278
0.716579 0.603418 0.480629
0.722866 0.580133 0.425483
0.729030 0.560296 0.374792
0.736233 0.544549 0.328130
0.754726 0.540124 0.289464
0.802365 0.560388 0.288670
0.854704 0.586145 0.300420
0.906706 0.614466 0.321599
0.956909 0.645808 0.355566
1.000000 0.681422 0.406378
0.239475 0.414954 0.457740
0.241886 0.417639 0.460395
0.244297 0.419928 0.462501
0.248508 0.422950 0.464729
0.254673 0.426581 0.467231
0.262608 0.431250 0.470192
0.272618 0.437201 0.473976
0.284611 0.444556 0.478645
0.299046 0.453986 0.484962
0.315984 0.465614 0.492775
0.334936 0.479042 0.501854
0.356725 0.494850 0.512535
0.380560 0.512383 0.524163
0.398566 0.544396 0.537987
0.421118 0.573571 0.543084
0.453529 0.589654 0.526329
0.474556 0.607477 0.477302
0.549798 0.620050 0.460029
0.651362 0.656458 0.551843
0.705226 0.688136 0.640467
0.740902 0.718044 0.688014
0.747799 0.696925 0.637293
0.754543 0.672175 0.581842
0.760647 0.646357 0.524559
0.767025 0.622004 0.467567
0.774380 0.601099 0.413672
0.784115 0.585992 0.366247
0.807431 0.584527 0.329992
0.854368 0.605585 0.332494
0.907073 0.634730 0.355352
0.957488 0.667170 0.391150
1.000000 0.703975 0.443671
0.255497 0.452216 0.499519
0.257633 0.454566 0.501732
0.259739 0.456214 0.503136
0.263767 0.458442 0.504570
0.269200 0.461311 0.506218
0.276951 0.465248 0.508324
0.286595 0.470344 0.511254
0.298619 0.477150 0.515343
0.312993 0.485969 0.520958
0.329961 0.496864 0.528130
0.349554 0.509850 0.536736
0.371893 0.525109 0.546960
0.396307 0.542168 0.558160
0.419135 0.566461 0.570581
0.437598 0.602533 0.584283
0.467903 0.620478 0.575952
0.502678 0.636255 0.553307
0.529168 0.652155 0.500389
0.627008 0.673396 0.530114
0.713405 0.709285 0.624231
0.755825 0.740322 0.707637
0.782071 0.756649 0.723842
0.786374 0.734432 0.674708
0.791226 0.709041 0.620600
0.797147 0.682887 0.563165
0.804379 0.658869 0.506767
0.813840 0.638849 0.453223
0.826230 0.624598 0.405707
0.853666 0.626215 0.373632
0.899718 0.648371 0.379889
0.950927 0.681270 0.415930
0.997711 0.718410 0.467628
0.269902 0.486580 0.537987
0.272007 0.488228 0.539513
0.274205 0.489876 0.540795
0.278172 0.492195 0.542321
0.284489 0.495613 0.544579
0.293278 0.500786 0.548089
0.304814 0.508171 0.553429
0.319249 0.517723 0.560418
0.337041 0.529625 0.569207
0.357580 0.543877 0.579675
0.381170 0.560082 0.591485
0.407660 0.577996 0.604273
0.436378 0.597162 0.617548
0.466651 0.616907 0.630610
0.488533 0.651606 0.645045
0.513634 0.680079 0.649928
0.547295 0.694301 0.635065
0.578759 0.709407 0.602930
0.621149 0.721096 0.561364
0.726802 0.751919 0.638300
0.794827 0.786191 0.724453
0.831357 0.819669 0.799619
0.840391 0.814939 0.782956
0.841459 0.791989 0.736690
0.844633 0.767208 0.686091
0.850675 0.742489 0.632746
0.860197 0.720089 0.579004
0.873106 0.702327 0.528985
0.889799 0.690700 0.485512
0.921355 0.696468 0.462593
0.964508 0.721401 0.479805
1.000000 0.758328 0.533349
0.303258 0.544060 0.601068
0.305180 0.545373 0.602136
0.307134 0.546441 0.602747
0.311131 0.548028 0.603571
0.316991 0.550744 0.604852
0.325505 0.554772 0.607019
0.336584 0.560418 0.610407
0.350561 0.568017 0.615167
0.367437 0.577661 0.621424
0.387427 0.589258 0.629114
0.410040 0.602380 0.637568
0.435554 0.617273 0.647120
0.462989 0.633326 0.657191
0.491646 0.650111 0.667445
