data/fiter_cube/93231427/1022693/file.cube
# Created by Adobe Lightroom plugin Export LUT (1.17.0)
# www.johnrellis.com/lightroom/exportlut.htm
# Preset: 工业风黑金_05 云集后期
# Color profile: C:\Program Files (x86)\Common Files\Adobe\Color\Profiles\Recommended\AdobeRGB1998.icc
LUT_3D_SIZE 8
DOMAIN_MIN 0.000000 0.000000 0.000000
DOMAIN_MAX 0.903226 0.903226 0.903226
0.107576 0.073793 0.060212
0.107576 0.073793 0.060212
0.164340 0.049561 0.060273
0.287022 0.000000 0.053254
0.425116 0.000000 0.015778
0.583734 0.112581 0.000000
0.797726 0.202121 0.000000
0.957397 0.274266 0.116915
0.107576 0.073793 0.060212
0.107576 0.073793 0.060212
0.158328 0.055451 0.060517
0.267979 0.022614 0.055207
0.402991 0.077852 0.022065
0.560174 0.137240 0.000000
0.766629 0.210697 0.000000
0.939391 0.279423 0.104189
0.112276 0.082887 0.071870
0.112123 0.085176 0.073091
0.148531 0.097749 0.069764
0.250828 0.125154 0.060914
0.380835 0.158602 0.030671
0.552789 0.211185 0.000000
0.780331 0.287022 0.000000
0.952575 0.347906 0.144472
0.121920 0.114870 0.112184
0.126497 0.120027 0.115755
0.160128 0.161990 0.127169
0.260838 0.186862 0.119448
0.368780 0.222171 0.071809
0.543328 0.290074 0.024750
0.753719 0.360082 0.057984
0.933196 0.415503 0.165408
0.138857 0.175509 0.185824
0.147768 0.183444 0.191745
0.186709 0.219120 0.218296
0.298894 0.290745 0.216770
0.413428 0.317662 0.215824
0.506859 0.329107 0.133089
0.688685 0.403906 0.091341
0.901335 0.483467 0.186801
0.175509 0.272465 0.297612
0.191409 0.289372 0.313207
0.238560 0.326665 0.341283
0.315129 0.413581 0.383612
0.514733 0.492256 0.446204
0.593622 0.468757 0.331395
0.681209 0.462928 0.215549
0.881865 0.554833 0.232578
0.239475 0.414954 0.457740
0.254673 0.426581 0.467231
0.299046 0.453986 0.484962
0.380560 0.512383 0.524163
0.474556 0.607477 0.477302
0.740902 0.718044 0.688014
0.767025 0.622004 0.467567
0.854368 0.605585 0.332494
0.326329 0.582422 0.642878
0.340703 0.588952 0.646448
0.394690 0.616266 0.663142
0.495003 0.671168 0.697932
0.567620 0.736172 0.707271
0.755398 0.801236 0.675074
0.894438 0.866484 0.833188
0.921386 0.790402 0.663813
0.109224 0.075471 0.065888
0.112520 0.073487 0.063874
0.161563 0.076570 0.061952
0.263676 0.100862 0.057343
0.393439 0.134463 0.025208
0.550774 0.179934 0.000000
0.749477 0.237583 0.000000
0.925139 0.291020 0.098054
0.112886 0.080446 0.071015
0.115389 0.081849 0.070039
0.159182 0.089815 0.066499
0.256016 0.112795 0.059358
0.382818 0.146670 0.029145
0.536309 0.190341 0.000000
0.725277 0.242222 0.000000
0.905638 0.293034 0.084657
0.117769 0.093996 0.087831
0.125185 0.099916 0.092012
0.164004 0.119173 0.097047
0.250309 0.143435 0.074678
0.363226 0.181186 0.042359
0.520897 0.232395 0.000000
0.722347 0.291691 0.000000
0.913329 0.347478 0.116976
0.130068 0.130648 0.133639
0.139895 0.137575 0.138216
0.175357 0.177859 0.163485
0.265507 0.201602 0.148745
0.365911 0.227390 0.101503
0.496742 0.276921 0.051057
0.690639 0.344671 0.031434
0.893095 0.405890 0.136568
0.154513 0.198154 0.213718
0.163729 0.201694 0.214084
0.202029 0.232761 0.235538
0.295781 0.306523 0.227481
0.405402 0.320012 0.234165
0.492927 0.325200 0.153445
0.663539 0.393317 0.110872
0.874449 0.476387 0.169924
0.191714 0.288457 0.316838
0.203128 0.293980 0.319371
0.246036 0.326482 0.342870
0.317510 0.409400 0.392462
0.510124 0.490730 0.435737
0.592828 0.475898 0.350958
0.674250 0.462562 0.232120
0.866117 0.545922 0.234775
0.244450 0.408179 0.451362
0.254337 0.410773 0.450843
0.296727 0.439063 0.470344
0.377081 0.500511 0.514366
0.484138 0.598993 0.506249
0.732021 0.713344 0.688594
0.751064 0.612268 0.465705
0.830411 0.588006 0.322789
0.325078 0.572320 0.633356
0.341100 0.581415 0.639826
0.394232 0.609705 0.657832
0.493080 0.665309 0.693843
0.595758 0.755337 0.734646
0.750759 0.805997 0.677546
0.894438 0.869169 0.838712
0.914946 0.786404 0.662379
0.135286 0.119814 0.129976
0.148531 0.127291 0.134432
0.206882 0.135286 0.148959
0.307988 0.156466 0.119387
0.420844 0.205417 0.097353
0.563165 0.272435 0.065095
0.747250 0.339757 0.024292
0.930480 0.382849 0.146242
0.143648 0.132296 0.143832
0.156649 0.139223 0.147158
0.202579 0.151034 0.160342
0.302892 0.167819 0.132204
0.415442 0.211856 0.111025
0.549950 0.271397 0.076265
0.728603 0.338231 0.017029
0.919432 0.385260 0.140566
0.154940 0.161105 0.179110
0.169680 0.168734 0.182162
0.214878 0.193454 0.191409
0.305760 0.211795 0.176883
0.423529 0.246342 0.153414
0.551415 0.293004 0.116701
0.716030 0.359380 0.053437
0.909880 0.413977 0.150301
0.171237 0.202609 0.226139
0.187106 0.212070 0.232090
0.234562 0.238560 0.244938
0.329351 0.296941 0.275273
0.429084 0.300969 0.217014
0.553094 0.333135 0.178225
0.712490 0.392950 0.132174
0.898497 0.462379 0.172549
0.200900 0.267582 0.298955
0.217746 0.277806 0.306065
0.268925 0.308019 0.324193
0.343633 0.378332 0.364660
0.466316 0.405554 0.350439
0.541588 0.383062 0.251286
0.697017 0.431708 0.211154
0.878752 0.509209 0.201205
0.244846 0.353918 0.394568
0.260288 0.362249 0.400000
0.303746 0.383246 0.409735
0.373510 0.434577 0.443030
0.515526 0.525597 0.449928
0.617884 0.525048 0.433539
0.691676 0.492988 0.303166
0.879881 0.570703 0.305150
0.301732 0.472694 0.527245
0.312840 0.475532 0.526787
0.348730 0.485969 0.525902
0.420844 0.533928 0.556390
0.516167 0.624262 0.589349
0.744045 0.731624 0.708492
0.773373 0.658778 0.545434
0.858427 0.627253 0.397589
0.380529 0.611200 0.678340
0.386633 0.610590 0.674769
0.428870 0.625147 0.678096
0.527123 0.682368 0.716182
0.628901 0.747311 0.750942
0.729152 0.813809 0.700557
0.907683 0.891844 0.871855
0.922057 0.811032 0.707118
0.207309 0.232517 0.273808
0.225376 0.243900 0.281132
0.280766 0.277623 0.298314
0.386603 0.286503 0.324437
0.509331 0.298253 0.273930
0.617975 0.330785 0.232212
0.753597 0.384070 0.195773
0.908659 0.451514 0.171054
0.226078 0.254704 0.295781
0.239933 0.261936 0.298924
0.291722 0.292943 0.314733
0.387793 0.303868 0.338293
0.507103 0.310155 0.285435
0.612024 0.336614 0.241184
0.745937 0.385657 0.201480
0.903502 0.452613 0.169223
0.243229 0.284916 0.328374
0.259037 0.293523 0.332708
0.305608 0.318517 0.343297
0.377661 0.342260 0.366735
0.507622 0.352850 0.327123
0.625757 0.377783 0.288243
0.771237 0.424689 0.249699
0.917510 0.480690 0.210147
0.272068 0.340063 0.389960
0.285039 0.344762 0.390326
0.329168 0.364294 0.395666
0.402747 0.403784 0.411109
0.504204 0.413886 0.386328
0.614221 0.417975 0.334539
0.750546 0.447547 0.284459
0.908721 0.506493 0.254673
0.299016 0.393927 0.448005
0.310918 0.397436 0.447547
0.354894 0.417487 0.455146
0.433265 0.462531 0.479042
0.550317 0.534966 0.522240
0.614954 0.483436 0.403998
0.747494 0.500175 0.350103
0.902678 0.550347 0.322271
0.336675 0.465614 0.525689
0.357336 0.481056 0.538994
0.397101 0.496010 0.542229
0.465461 0.528191 0.553948
0.554009 0.600916 0.591028
0.679500 0.629084 0.582879
0.735958 0.562463 0.427649
0.898772 0.613245 0.411566
0.392554 0.560357 0.627893
0.405493 0.566247 0.631006
0.444800 0.582269 0.636439
0.506737 0.607721 0.642573
0.597559 0.664820 0.674434
0.752224 0.755459 0.708156
0.800076 0.723690 0.653193
0.876768 0.671962 0.494697
0.501854 0.688869 0.758450
0.509789 0.691615 0.758755
0.529564 0.695674 0.754482
0.577295 0.710780 0.752193
0.667445 0.761410 0.779385
0.755306 0.831266 0.791928
0.928374 0.923430 0.916320
0.929564 0.842771 0.764370
0.332738 0.397589 0.465614
0.349218 0.408209 0.472908
0.392645 0.429725 0.480659
0.465522 0.470985 0.500633
0.587488 0.457465 0.513787
0.705196 0.458381 0.452491
0.805478 0.477241 0.402380
0.931731 0.524407 0.378729
0.348821 0.415259 0.482734
0.366522 0.428107 0.492958
0.406439 0.446723 0.498451
0.471565 0.478767 0.505486
0.583368 0.465888 0.519066
0.703914 0.468299 0.461433
0.804685 0.484321 0.409827
0.930510 0.527672 0.382025
0.370550 0.444892 0.512657
0.384222 0.452155 0.516258
0.416815 0.464027 0.515709
0.477119 0.492378 0.521538
0.569360 0.492409 0.536217
0.689570 0.490455 0.480568
0.794430 0.499886 0.426154
0.920989 0.531731 0.383124
0.384649 0.474159 0.544030
0.394812 0.477333 0.543511
0.433234 0.494331 0.548211
0.496834 0.525628 0.558221
0.567132 0.552819 0.577020
0.688502 0.544823 0.530144
0.791104 0.535576 0.460609
0.921477 0.551843 0.396033
0.412421 0.521416 0.593622
0.424018 0.526146 0.595026
0.459571 0.539696 0.596704
0.519127 0.566308 0.603326
0.589990 0.600397 0.611780
0.676844 0.596948 0.575372
0.778286 0.575158 0.497200
0.913817 0.592065 0.440803
0.438392 0.565118 0.637537
0.448280 0.568688 0.638056
0.477729 0.577508 0.636530
0.530449 0.599817 0.641566
0.597681 0.630976 0.649165
0.722347 0.714473 0.706966
0.772061 0.644892 0.571984
0.910979 0.663050 0.527977
0.511620 0.652369 0.723903
0.517632 0.653468 0.722621
0.542260 0.661250 0.721828
0.586389 0.678401 0.723995
0.642023 0.700404 0.724514
0.724422 0.763638 0.752773
0.820645 0.781186 0.745815
0.883879 0.714107 0.590143
0.606378 0.749538 0.816220
0.609674 0.749935 0.814969
0.622156 0.752346 0.811551
0.658228 0.768856 0.816281
0.692988 0.777768 0.807340
0.776211 0.828824 0.834897
0.912352 0.910307 0.888029
0.930755 0.868681 0.814054
0.510063 0.593347 0.675227
0.520928 0.598566 0.676967
0.545861 0.605768 0.672511
0.598657 0.630793 0.677119
0.648585 0.649653 0.693568
0.755550 0.635950 0.686793
0.857115 0.651514 0.657588
0.950713 0.672389 0.632349
0.497902 0.580865 0.661372
0.506035 0.583917 0.661280
0.535454 0.596094 0.662379
0.587732 0.621332 0.668086
0.643824 0.647425 0.686244
0.748287 0.634791 0.684413
0.852720 0.651789 0.657160
0.947662 0.671351 0.630549
0.528344 0.611170 0.687770
0.533227 0.611536 0.685481
0.557397 0.620081 0.683986
0.604639 0.641779 0.687617
0.662440 0.670619 0.694362
0.746273 0.657282 0.700954
0.850584 0.670558 0.673121
0.945892 0.682155 0.639368
0.545922 0.634058 0.708827
0.550958 0.634546 0.706538
0.578149 0.645869 0.707820
0.631769 0.674739 0.719600
0.689845 0.704829 0.728176
0.754971 0.704158 0.738308
0.853880 0.707118 0.705043
0.947662 0.703120 0.655970
0.558038 0.654261 0.727443
0.566003 0.657649 0.728145
0.592340 0.668696 0.730007
0.635218 0.688380 0.734646
0.685603 0.711604 0.738827
0.739071 0.732326 0.750790
0.836088 0.720943 0.711391
0.935882 0.703700 0.644343
0.584314 0.687221 0.757382
0.594842 0.693050 0.760555
0.617426 0.702113 0.761715
0.652888 0.716915 0.763699
0.696315 0.735470 0.765774
0.758022 0.767788 0.776974
0.827024 0.759213 0.741360
0.931487 0.740993 0.673213
0.649348 0.753109 0.817258
0.656855 0.757046 0.819181
0.672419 0.762631 0.818936
0.698573 0.772854 0.819303
0.732692 0.786130 0.818967
0.778683 0.805173 0.818997
0.867521 0.860990 0.854276
0.913970 0.794736 0.728817
0.720027 0.823301 0.881498
0.721553 0.823270 0.880491
0.728847 0.824796 0.878355
0.746761 0.831785 0.878233
0.768154 0.838285 0.874205
0.800900 0.848295 0.867216
0.872038 0.901518 0.886656
0.941955 0.908568 0.879545
0.661799 0.730404 0.799832
0.667659 0.733120 0.800351
0.687129 0.742153 0.801846
0.721004 0.759274 0.806119
0.761227 0.779538 0.809751
0.791073 0.780636 0.826535
0.874571 0.778408 0.817105
0.959808 0.810361 0.819364
0.666255 0.734371 0.802670
0.671626 0.736812 0.803037
0.690181 0.745296 0.804318
0.721279 0.760128 0.806882
0.762020 0.780972 0.811307
0.792813 0.785153 0.827878
0.874327 0.781643 0.819547
0.959594 0.812558 0.821073
0.677180 0.745296 0.811368
0.682063 0.747433 0.811612
0.699123 0.755123 0.812650
0.728267 0.768826 0.814878
0.766964 0.788144 0.818753
0.799893 0.799802 0.832334
0.873594 0.792660 0.827756
0.959014 0.819913 0.826841
0.691890 0.761807 0.825681
0.695094 0.762661 0.824979
0.710475 0.769375 0.825772
0.737514 0.781704 0.827512
0.773983 0.799344 0.830838
0.813779 0.819913 0.838376
0.872892 0.810422 0.841154
0.958190 0.830686 0.834592
0.708156 0.781125 0.842802
0.712123 0.782773 0.842954
0.725704 0.788540 0.843503
0.747921 0.798032 0.844358
0.780636 0.812833 0.846342
0.822660 0.833921 0.850950
0.872496 0.833646 0.858946
0.956756 0.843992 0.843168
0.730129 0.805844 0.864500
0.733577 0.807279 0.864622
0.745388 0.812192 0.865080
0.764981 0.820462 0.865873
0.792264 0.832303 0.867216
0.829770 0.849668 0.870024
0.872038 0.864591 0.880491
0.953674 0.859495 0.851499
0.755673 0.833463 0.888457
0.758602 0.834653 0.888609
0.768582 0.838834 0.889067
0.785550 0.846098 0.890013
0.810208 0.857084 0.891814
0.843565 0.872618 0.894957
0.887175 0.894347 0.900664
0.945251 0.880064 0.862089
0.807797 0.882994 0.931853
0.809995 0.883970 0.932067
0.817380 0.887327 0.932799
0.829953 0.893004 0.933898
0.848081 0.901091 0.935058
0.871794 0.911101 0.935363
0.903227 0.923247 0.933074
0.964843 0.957977 0.951446
0.837369 0.882078 0.928740
0.839963 0.883299 0.928862
0.848966 0.887541 0.929381
0.864530 0.895048 0.930419
0.885710 0.905608 0.932219
0.910826 0.919097 0.935241
0.928679 0.911192 0.947723
0.977508 0.914855 0.938354
0.838804 0.883574 0.929900
0.841337 0.884733 0.930022
0.850156 0.888853 0.930510
0.865507 0.896178 0.931487
0.886442 0.906615 0.933227
0.911376 0.919951 0.936156
0.928923 0.913237 0.948272
0.977539 0.916228 0.939391
0.842710 0.887999 0.933715
0.845090 0.889097 0.933806
0.853513 0.892943 0.934203
0.868254 0.899931 0.935088
0.888548 0.909850 0.936614
0.913115 0.922789 0.939391
0.930144 0.920134 0.950225
0.977630 0.920897 0.942931
0.847135 0.894347 0.939940
0.849393 0.895384 0.940002
0.857420 0.898955 0.940307
0.871641 0.905486 0.940978
0.891447 0.914977 0.942321
0.915648 0.927367 0.944793
0.933684 0.931243 0.953552
0.977966 0.928771 0.948913
0.857145 0.905394 0.949279
0.858732 0.906035 0.949248
0.864225 0.908202 0.949157
0.873625 0.911833 0.948852
0.893614 0.921141 0.950011
0.918059 0.933165 0.952056
0.941772 0.945006 0.957794
0.978546 0.939788 0.957305
0.870726 0.919493 0.960845
0.872129 0.920073 0.960845
0.877043 0.922087 0.960876
0.885557 0.925475 0.960815
0.898344 0.930602 0.960662
0.920134 0.940368 0.961517
0.948302 0.954711 0.964446
0.979278 0.954162 0.968200
0.887114 0.935576 0.973663
0.888334 0.936065 0.973693
0.892546 0.937835 0.973785
0.900145 0.941009 0.973968
0.911742 0.945922 0.974212
0.928099 0.952911 0.974609
0.951934 0.963714 0.975738
0.979797 0.972076 0.981537
0.895537 0.944396 0.979797
0.896757 0.945006 0.979980
0.901183 0.947082 0.980468
0.909300 0.950988 0.981476
0.921569 0.957000 0.983124
0.938689 0.965606 0.985687
0.961913 0.977722 0.989807
0.987915 0.990600 0.992889
