data/fiter_cube/89100697/1022671/file.cube
# Created by Adobe Lightroom plugin Export LUT (1.17.0)
# www.johnrellis.com/lightroom/exportlut.htm
# Preset: VSCO胶片_05 云集
# Color profile: C:\Program Files (x86)\Common Files\Adobe\Color\Profiles\Recommended\AdobeRGB1998.icc
LUT_3D_SIZE 5
DOMAIN_MIN 0.000000 0.000000 0.000000
DOMAIN_MAX 0.903226 0.903226 0.903226
0.043824 0.054078 0.052857
0.220890 0.059541 0.031556
0.644526 0.000000 0.000000
0.913329 0.064881 0.000000
1.000000 0.245518 0.000000
0.029541 0.177646 0.075990
0.182437 0.207004 0.018372
0.621942 0.249851 0.000000
0.903532 0.311833 0.000000
1.000000 0.363653 0.000000
0.000000 0.439002 0.098299
0.118196 0.426032 0.081025
0.522362 0.537194 0.000000
0.871275 0.598749 0.000000
1.000000 0.588495 0.000000
0.000000 0.721462 0.159945
0.000000 0.714412 0.116457
0.395666 0.700038 0.061280
0.780484 0.794156 0.000000
1.000000 0.805692 0.000000
0.268132 0.937774 0.379858
0.291295 0.937163 0.337743
0.483253 0.924285 0.321691
0.706081 0.933196 0.269383
0.955200 0.954772 0.000000
0.036835 0.060700 0.190463
0.220188 0.000000 0.198520
0.641871 0.000000 0.153017
0.906462 0.000000 0.145266
1.000000 0.236698 0.080598
0.053315 0.192996 0.181308
0.212345 0.216953 0.187564
0.627741 0.223148 0.167575
0.898497 0.291020 0.125429
1.000000 0.357031 0.020447
0.042817 0.464027 0.232212
0.176455 0.461158 0.201022
0.535698 0.537774 0.125704
0.867918 0.587518 0.070283
1.000000 0.586328 0.000000
0.128542 0.733303 0.308354
0.154879 0.728756 0.241917
0.411841 0.699794 0.209171
0.785153 0.794858 0.000000
1.000000 0.803067 0.000000
0.363378 0.935790 0.473915
0.367407 0.935821 0.433234
0.504204 0.927459 0.395422
0.709346 0.932555 0.354620
0.955871 0.955016 0.130556
0.000000 0.050538 0.498482
0.264836 0.000000 0.515557
0.639338 0.000000 0.535607
0.901823 0.000000 0.485298
1.000000 0.196841 0.451148
0.000000 0.213809 0.478401
0.239689 0.217807 0.497566
0.633692 0.144198 0.524987
0.894285 0.199588 0.481483
1.000000 0.433448 0.513268
0.000000 0.507439 0.464790
0.266972 0.522515 0.475776
0.593744 0.563409 0.485451
0.864256 0.595575 0.501915
1.000000 0.612482 0.499977
0.242039 0.759701 0.519890
0.357641 0.757046 0.522210
0.508446 0.740841 0.474281
0.797269 0.799710 0.459266
1.000000 0.802029 0.491798
0.472908 0.934966 0.638697
0.524590 0.932738 0.644617
0.561334 0.931853 0.576989
0.711513 0.924498 0.540459
0.952422 0.953399 0.474342
0.090425 0.000000 0.785733
0.334539 0.000000 0.792599
0.661646 0.000000 0.816770
0.879637 0.000000 0.791897
1.000000 0.214786 0.733028
0.000000 0.225742 0.775601
0.314061 0.219028 0.783108
0.651209 0.230777 0.808133
0.873136 0.241337 0.787594
1.000000 0.383307 0.739681
0.000000 0.520958 0.741634
0.215000 0.520409 0.743709
0.606744 0.564019 0.773922
0.849729 0.597162 0.779385
1.000000 0.644709 0.766934
0.278294 0.787198 0.740627
0.400061 0.789548 0.744839
0.628046 0.793240 0.756283
0.815488 0.811978 0.765530
0.982422 0.822568 0.785000
0.542962 0.942077 0.790555
0.583124 0.940368 0.793271
0.682124 0.936278 0.799130
0.751553 0.929808 0.754910
0.947723 0.952148 0.749599
0.341619 0.067384 0.963256
0.444587 0.004364 0.964019
0.662654 0.089906 0.966796
0.875792 0.263828 0.970245
1.000000 0.289311 0.931029
0.334081 0.268894 0.959625
0.439155 0.271275 0.960418
0.659113 0.307958 0.963165
0.872587 0.418311 0.966766
1.000000 0.424811 0.930632
0.201785 0.525750 0.946349
0.362097 0.531975 0.947692
0.640833 0.585809 0.950439
0.859281 0.657435 0.957122
0.988159 0.656214 0.931884
0.319921 0.787259 0.930846
0.403357 0.786191 0.930694
0.578454 0.780819 0.930968
0.818509 0.811826 0.942260
0.972198 0.839292 0.938262
0.539086 0.956603 0.923888
0.579980 0.955383 0.924193
0.694850 0.954406 0.928099
0.835203 0.950561 0.932433
0.954437 0.956390 0.942657
