data/fiter_cube/89100697/1022671/file.cube
# Created by Adobe Lightroom plugin Export LUT (1.17.0)
# www.johnrellis.com/lightroom/exportlut.htm
# Preset: VSCO胶片_05 云集
# Color profile: C:\Program Files (x86)\Common Files\Adobe\Color\Profiles\Recommended\AdobeRGB1998.icc
LUT_3D_SIZE 8
DOMAIN_MIN 0.000000 0.000000 0.000000
DOMAIN_MAX 0.903226 0.903226 0.903226
0.043824 0.054078 0.052857
0.111360 0.061952 0.049409
0.270817 0.033509 0.020294
0.521416 0.000000 0.000000
0.742916 0.000000 0.000000
0.885435 0.000000 0.000000
0.983398 0.172030 0.000000
1.000000 0.245518 0.000000
0.048646 0.104128 0.065614
0.100465 0.114107 0.050385
0.262181 0.125093 0.013306
0.511559 0.079713 0.000000
0.735866 0.070100 0.000000
0.878477 0.160739 0.000000
0.978851 0.232364 0.000000
1.000000 0.284855 0.000000
0.015595 0.207279 0.080079
0.079316 0.205112 0.074464
0.219242 0.245609 0.000000
0.487373 0.285954 0.000000
0.722194 0.318029 0.000000
0.869963 0.347143 0.000000
0.975586 0.374304 0.000000
1.000000 0.393225 0.000000
0.000000 0.353918 0.092897
0.000000 0.350622 0.082399
0.165957 0.351202 0.073121
0.419196 0.439582 0.000000
0.702144 0.515496 0.000000
0.852781 0.518181 0.000000
0.963043 0.524681 0.000000
1.000000 0.523033 0.000000
0.000000 0.522759 0.105379
0.000000 0.519310 0.082826
0.143709 0.506096 0.079683
0.329931 0.536980 0.000000
0.609949 0.622766 0.000000
0.826474 0.676387 0.000000
0.944030 0.665675 0.000000
1.000000 0.651698 0.000000
0.000000 0.682551 0.143130
0.000000 0.683101 0.106416
0.125093 0.672541 0.098939
0.300420 0.653346 0.084199
0.522271 0.705409 0.000000
0.750271 0.764340 0.000000
0.928130 0.798489 0.000000
1.000000 0.776669 0.000000
0.000000 0.823239 0.229618
0.000000 0.822934 0.205020
0.164614 0.816617 0.180148
0.335698 0.804623 0.166964
0.488991 0.800656 0.133364
0.681910 0.839902 0.000000
0.862547 0.872129 0.000000
1.000000 0.886992 0.000000
0.268132 0.937774 0.379858
0.270634 0.937713 0.365270
0.317662 0.936095 0.336706
0.431495 0.930694 0.332158
0.540032 0.920348 0.317998
0.669978 0.928466 0.286046
0.814328 0.945190 0.187167
0.955200 0.954772 0.000000
0.052461 0.057618 0.107698
0.109712 0.049195 0.109712
0.267887 0.000000 0.092531
0.512200 0.000000 0.081392
0.736965 0.000000 0.000000
0.878599 0.000000 0.000000
0.979156 0.155917 0.000000
1.000000 0.237339 0.000000
0.048707 0.106844 0.103151
0.107698 0.117372 0.106905
0.262394 0.119875 0.101076
0.507042 0.054475 0.075593
0.732784 0.000000 0.000000
0.874235 0.141878 0.000000
0.975555 0.221347 0.000000
1.000000 0.277409 0.000000
0.064118 0.214908 0.125460
0.099428 0.218143 0.118624
0.228763 0.248722 0.094575
0.486427 0.278325 0.041505
0.718410 0.308354 0.000000
0.865660 0.337407 0.000000
0.970672 0.365881 0.000000
1.000000 0.387732 0.000000
0.002167 0.363104 0.147494
0.055573 0.362127 0.125612
0.178805 0.354650 0.119600
0.420233 0.435462 0.000000
0.692988 0.502434 0.000000
0.845609 0.509087 0.000000
0.958038 0.517876 0.000000
1.000000 0.518700 0.000000
0.000000 0.530419 0.165133
0.000000 0.527001 0.137697
0.161227 0.512840 0.125551
0.334630 0.534783 0.081117
0.608667 0.618677 0.000000
0.822904 0.670558 0.000000
0.941436 0.661524 0.000000
1.000000 0.649653 0.000000
0.000000 0.684474 0.196139
0.000000 0.682795 0.170199
0.143191 0.673060 0.143557
0.308629 0.654383 0.130434
0.523156 0.703243 0.000000
0.750973 0.763516 0.000000
0.927031 0.796323 0.000000
1.000000 0.774716 0.000000
0.000000 0.821134 0.269108
0.000000 0.819791 0.247349
0.176883 0.814694 0.210086
0.340887 0.803616 0.197574
0.489418 0.797940 0.171176
0.680964 0.837797 0.000000
0.861143 0.870146 0.000000
1.000000 0.884794 0.000000
0.294438 0.935698 0.406348
0.296971 0.935912 0.393011
0.325505 0.935180 0.356115
0.435828 0.929931 0.351232
0.546410 0.922271 0.342626
0.671595 0.928496 0.312352
0.814176 0.944579 0.224735
0.954650 0.954131 0.000000
0.013031 0.060548 0.226474
0.112978 0.052552 0.230900
0.272190 0.000000 0.236912
0.522789 0.000000 0.226993
0.745480 0.000000 0.183597
0.880186 0.000000 0.205142
0.979797 0.149630 0.189944
1.000000 0.243839 0.165103
0.000000 0.117525 0.221653
0.110475 0.120668 0.226139
0.270451 0.097444 0.232273
0.517540 0.000000 0.216495
0.737789 0.000000 0.208957
0.875853 0.093904 0.201083
0.976776 0.216922 0.184695
1.000000 0.282780 0.159854
0.044434 0.229313 0.213993
0.118929 0.237491 0.219028
0.260929 0.259190 0.221225
0.505364 0.267491 0.216159
0.726558 0.289403 0.202457
0.867552 0.326604 0.187594
0.970733 0.363073 0.171237
1.000000 0.389685 0.144991
0.056580 0.386358 0.243107
0.130800 0.391699 0.246006
0.231815 0.392035 0.228855
0.450172 0.447456 0.198672
0.700587 0.494514 0.181979
0.850004 0.507408 0.172274
0.959991 0.517418 0.152132
1.000000 0.519127 0.115908
0.066194 0.552300 0.277256
0.146273 0.554376 0.278508
0.218082 0.546960 0.237034
0.362463 0.544701 0.217899
0.626581 0.627405 0.156863
0.825834 0.667048 0.121309
0.941711 0.658747 0.149233
1.000000 0.650721 0.127169
0.143893 0.699916 0.325170
0.178866 0.699214 0.317540
0.207614 0.692409 0.256382
0.346899 0.672114 0.239628
0.533715 0.704402 0.206180
0.756558 0.764645 0.120821
0.926085 0.792935 0.000000
1.000000 0.773129 0.107576
0.241367 0.827024 0.391852
0.244327 0.825925 0.376684
0.249912 0.822690 0.316411
0.371496 0.810819 0.292607
0.497108 0.795285 0.269993
0.684291 0.837247 0.227573
0.864622 0.871458 0.121523
1.000000 0.884001 0.000000
0.388678 0.933928 0.500237
0.386389 0.933898 0.487709
0.389624 0.933989 0.446448
0.459174 0.931029 0.420935
0.559075 0.923369 0.408576
0.674372 0.926574 0.387121
0.815061 0.943969 0.329412
0.955169 0.954376 0.189364
0.000000 0.059052 0.400610
0.094423 0.042206 0.406348
0.309392 0.000000 0.424201
0.522698 0.000000 0.429023
0.740108 0.000000 0.423499
0.878843 0.000000 0.382025
0.979034 0.000000 0.352789
1.000000 0.310735 0.409888
0.000000 0.124361 0.396185
0.091829 0.122591 0.401343
0.305455 0.092836 0.419348
0.521843 0.000000 0.425879
0.737972 0.000000 0.417029
0.876219 0.000000 0.378027
0.974395 0.131868 0.372381
1.000000 0.335393 0.405280
0.000000 0.248356 0.377539
0.028412 0.250401 0.380835
0.279118 0.258915 0.400366
0.514641 0.235538 0.413123
0.730007 0.211551 0.397345
0.866545 0.300816 0.397314
0.965698 0.388434 0.411780
1.000000 0.423011 0.400092
0.000000 0.410071 0.375769
0.118135 0.416327 0.379858
0.297032 0.434211 0.393103
0.492103 0.462226 0.392432
0.704646 0.485451 0.397070
0.848081 0.507805 0.398810
0.954620 0.527092 0.398993
1.000000 0.537377 0.389990
0.105257 0.583490 0.410559
0.176181 0.584405 0.411414
0.318517 0.587915 0.414588
0.427924 0.574792 0.383856
0.650385 0.639185 0.372015
0.825376 0.663050 0.385382
0.938933 0.664179 0.396612
1.000000 0.658991 0.385992
0.187930 0.719783 0.444068
0.238193 0.721157 0.446448
0.355566 0.718929 0.448585
0.419898 0.706294 0.395941
0.555138 0.709407 0.372747
0.767605 0.770230 0.359380
0.922881 0.790280 0.368353
1.000000 0.773800 0.391638
0.302495 0.835477 0.500420
0.333257 0.834836 0.502068
0.419135 0.831693 0.506523
0.431159 0.826383 0.432868
0.530968 0.808438 0.403937
0.690028 0.837156 0.387457
0.867979 0.872862 0.358618
1.000000 0.881498 0.345922
0.461799 0.934600 0.600549
0.479042 0.933837 0.602838
0.518425 0.931762 0.600031
0.508049 0.933074 0.532830
0.583886 0.926146 0.510857
0.678340 0.922454 0.491035
0.815610 0.942321 0.460639
0.954253 0.954284 0.388067
0.000000 0.021302 0.593622
0.097292 0.000000 0.598230
0.338476 0.000000 0.612726
0.561883 0.000000 0.634180
0.728054 0.000000 0.626032
0.867094 0.000000 0.596155
0.968048 0.000000 0.560998
1.000000 0.201205 0.540490
0.000000 0.122377 0.588495
0.088380 0.115389 0.593652
0.333623 0.054566 0.608698
0.560204 0.000000 0.632166
0.726253 0.000000 0.623407
0.865263 0.000000 0.594018
0.966217 0.007355 0.562371
1.000000 0.269200 0.545769
0.000000 0.253147 0.567742
0.000000 0.251682 0.574395
0.304906 0.259586 0.592065
0.548669 0.260807 0.620813
0.717739 0.224552 0.612329
0.856687 0.255955 0.586847
0.958343 0.337469 0.569146
1.000000 0.420935 0.566644
0.000000 0.428351 0.551415
0.000000 0.430976 0.553429
0.265324 0.437781 0.561456
0.509087 0.461402 0.590417
0.701076 0.466407 0.595514
0.841642 0.495888 0.587152
0.943511 0.546807 0.598993
1.000000 0.594873 0.617060
0.004730 0.601099 0.552972
0.162753 0.604852 0.555932
0.339818 0.614923 0.564691
0.521782 0.627619 0.579644
0.671443 0.649592 0.576715
0.818967 0.664973 0.591089
0.929870 0.677272 0.598169
1.000000 0.680903 0.596307
0.249516 0.740566 0.579553
0.291356 0.740291 0.580346
0.399756 0.738247 0.582452
0.526818 0.734768 0.588190
0.590326 0.716213 0.544427
0.776181 0.774472 0.558129
0.913512 0.788907 0.583581
0.998627 0.781857 0.595270
0.353948 0.846036 0.613581
0.380468 0.845060 0.614557
0.457771 0.841794 0.618311
0.554314 0.836851 0.623987
0.584222 0.827054 0.563470
0.692805 0.831418 0.540887
0.868894 0.873136 0.548180
0.989044 0.878630 0.562799
0.489601 0.936461 0.681300
0.504570 0.935668 0.682551
0.550805 0.933196 0.686397
0.615839 0.930724 0.692134
0.617212 0.930755 0.627008
0.689693 0.921630 0.601526
0.813993 0.938384 0.590204
0.950927 0.953094 0.560937
0.000000 0.000000 0.753841
0.176883 0.000000 0.756222
0.372930 0.000000 0.763729
0.571832 0.000000 0.779751
0.736812 0.000000 0.791257
0.854887 0.000000 0.764401
0.955596 0.000000 0.730770
1.000000 0.215763 0.698665
0.000000 0.112551 0.748714
0.168185 0.101289 0.751095
0.367437 0.000000 0.759701
0.567346 0.000000 0.775814
0.733944 0.000000 0.788083
0.852476 0.000000 0.762203
0.953521 0.091005 0.730373
1.000000 0.277684 0.700832
0.000000 0.264927 0.738460
0.107759 0.264683 0.740993
0.346197 0.263310 0.750301
0.554620 0.269566 0.766629
0.727138 0.287053 0.781827
0.846342 0.285130 0.758175
0.947112 0.345464 0.732387
1.000000 0.427466 0.711818
0.000000 0.431983 0.712978
0.000000 0.430793 0.713313
0.280003 0.435889 0.726192
0.527214 0.467506 0.747463
0.715358 0.510460 0.771206
0.834073 0.510399 0.754299
0.935943 0.542962 0.741238
1.000000 0.581598 0.731472
0.000000 0.608545 0.705165
0.113588 0.609857 0.706142
0.313634 0.613916 0.709621
0.492317 0.621546 0.715938
0.677394 0.652522 0.742184
0.815244 0.663935 0.745937
0.921843 0.686091 0.748348
0.996368 0.709041 0.753506
0.233585 0.754452 0.706172
0.283543 0.757076 0.709194
0.411933 0.759243 0.713161
0.558007 0.762387 0.720546
0.679774 0.767697 0.731655
0.790372 0.784756 0.732570
0.906981 0.795834 0.749691
0.987732 0.798703 0.754452
0.427771 0.860777 0.732876
0.451179 0.860288 0.734218
0.516777 0.857939 0.737057
0.598932 0.854673 0.740719
0.679591 0.850187 0.742000
0.717678 0.834134 0.696284
0.873594 0.876707 0.717281
0.977111 0.880339 0.740108
0.531518 0.940917 0.769314
0.544305 0.940246 0.770077
0.584649 0.938201 0.772641
0.642054 0.935790 0.776181
0.705379 0.932372 0.777676
0.724392 0.929473 0.728695
0.812650 0.932311 0.711177
0.948180 0.952392 0.715480
0.215518 0.000000 0.874144
0.275059 0.000000 0.875425
0.417914 0.000000 0.879088
0.579004 0.000000 0.885801
0.734218 0.000000 0.894926
0.859525 0.000000 0.897948
0.944335 0.000000 0.863096
1.000000 0.234592 0.827207
0.209842 0.110750 0.871519
0.270481 0.100618 0.872831
0.414038 0.051331 0.876646
0.575830 0.000000 0.883391
0.731441 0.109407 0.892638
0.857206 0.128786 0.896025
0.942077 0.175143 0.861814
1.000000 0.288212 0.827298
0.173709 0.275517 0.865202
0.244663 0.275212 0.866331
0.399634 0.275395 0.870237
0.566857 0.288334 0.877409
0.724453 0.333013 0.887114
0.851499 0.356909 0.892027
0.936553 0.373571 0.860960
1.000000 0.432074 0.831937
0.000000 0.432288 0.850492
0.112703 0.432563 0.851896
0.363165 0.452399 0.856779
0.547356 0.474220 0.865171
0.711086 0.517998 0.876524
0.841581 0.549950 0.885252
0.927001 0.552636 0.860960
0.999145 0.579217 0.839597
0.000000 0.605341 0.834653
0.108522 0.604578 0.834623
0.300298 0.602533 0.835080
0.488869 0.609827 0.841825
0.679713 0.650660 0.858793
0.826719 0.691768 0.876341
0.914824 0.689906 0.860533
0.988556 0.707698 0.849638
0.233494 0.754635 0.828946
0.278141 0.754788 0.829221
0.392218 0.755764 0.830198
0.522911 0.757870 0.832212
0.644739 0.759792 0.835843
0.793332 0.786191 0.857816
0.902800 0.799344 0.861509
0.978119 0.814084 0.863462
0.396002 0.868620 0.828916
0.422675 0.869139 0.830076
0.498512 0.870481 0.833585
0.596612 0.870298 0.836973
0.699855 0.870146 0.841642
0.797971 0.873136 0.851011
0.883726 0.883574 0.852659
0.969177 0.889220 0.866026
0.580041 0.945983 0.851102
0.591211 0.945556 0.851652
0.627100 0.944488 0.853788
0.679164 0.942840 0.856718
0.739712 0.940642 0.860044
0.800870 0.937743 0.861967
0.829740 0.930205 0.829068
0.948394 0.952514 0.844236
0.341619 0.067384 0.963256
0.376043 0.054047 0.963561
0.472755 0.000000 0.964263
0.597772 0.023835 0.965789
0.727016 0.142702 0.967895
0.851225 0.261723 0.970214
0.948547 0.256870 0.970336
1.000000 0.289311 0.931029
0.340154 0.157259 0.962036
0.374578 0.155276 0.962341
0.471534 0.151125 0.963104
0.596551 0.164309 0.964599
0.725826 0.218509 0.966705
0.849760 0.313420 0.968994
0.946777 0.310765 0.969207
1.000000 0.334966 0.930724
0.330144 0.308232 0.958282
0.365423 0.309392 0.958526
0.464881 0.314153 0.959228
0.592432 0.332952 0.960967
0.722194 0.374762 0.962982
0.845335 0.445624 0.965240
0.941222 0.449134 0.965972
1.000000 0.458228 0.930510
0.278233 0.460212 0.951507
0.339483 0.471992 0.951385
0.448585 0.479896 0.952239
0.582452 0.499763 0.953979
0.715450 0.536156 0.956390
0.837736 0.587152 0.959503
0.932616 0.595575 0.961456
0.992737 0.593225 0.931182
0.130129 0.601953 0.939483
0.210758 0.602228 0.940032
0.367041 0.605158 0.941588
0.539666 0.625452 0.944366
0.694179 0.659693 0.947570
0.822568 0.697780 0.952453
0.922087 0.718502 0.956573
0.983551 0.715267 0.933227
0.282078 0.754055 0.932128
0.313481 0.753597 0.932036
0.400946 0.752010 0.931853
0.508202 0.748226 0.931914
0.634150 0.748165 0.934173
0.794644 0.784726 0.942962
0.912200 0.821103 0.952422
0.974487 0.817411 0.937163
0.421088 0.871702 0.926879
0.440131 0.871427 0.926909
0.497963 0.870603 0.926970
0.579889 0.869352 0.927428
0.671839 0.868040 0.928283
0.765103 0.865995 0.929778
0.885832 0.884733 0.941711
0.965667 0.898039 0.941955
0.539086 0.956603 0.923888
0.551751 0.956207 0.923949
0.593011 0.955230 0.924559
0.657496 0.954620 0.926604
0.733944 0.954345 0.929870
0.815183 0.951049 0.931579
0.893462 0.950622 0.937194
0.954437 0.956390 0.942657
