data/fiter_cube/89100697/1022671/file.cube
# Created by Adobe Lightroom plugin Export LUT (1.17.0)
# www.johnrellis.com/lightroom/exportlut.htm
# Preset: VSCO胶片_05 云集
# Color profile: C:\Program Files (x86)\Common Files\Adobe\Color\Profiles\Recommended\AdobeRGB1998.icc
LUT_3D_SIZE 32
DOMAIN_MIN 0.0 0.0 0.0
DOMAIN_MAX 1.0 1.0 1.0
0.043824 0.054078 0.052857
0.057465 0.054627 0.052461
0.066773 0.055390 0.051972
0.084810 0.059205 0.051301
0.111360 0.061952 0.049409
0.141939 0.064607 0.046082
0.178195 0.064240 0.039826
0.220890 0.059541 0.031556
0.270817 0.033509 0.020294
0.327611 0.000000 0.004791
0.390051 0.000000 0.000000
0.455604 0.000000 0.000000
0.521416 0.000000 0.000000
0.585138 0.000000 0.000000
0.644526 0.000000 0.000000
0.697200 0.000000 0.000000
0.742916 0.000000 0.000000
0.784451 0.000000 0.000000
0.821622 0.000000 0.000000
0.855009 0.000000 0.000000
0.885435 0.000000 0.000000
0.913329 0.064881 0.000000
0.938750 0.113069 0.000000
0.961944 0.146456 0.000000
0.983398 0.172030 0.000000
1.000000 0.193545 0.000000
1.000000 0.213382 0.000000
1.000000 0.230411 0.000000
1.000000 0.245518 0.000000
1.000000 0.258396 0.000000
1.000000 0.269505 0.000000
1.000000 0.278233 0.000000
0.045045 0.061707 0.055238
0.055543 0.062745 0.053193
0.066285 0.063539 0.052613
0.084382 0.066651 0.050965
0.110750 0.070466 0.048066
0.141451 0.072633 0.044282
0.177615 0.073213 0.038941
0.219944 0.070008 0.030671
0.269627 0.058381 0.019471
0.326452 0.007782 0.002686
0.388495 0.000000 0.000000
0.453712 0.000000 0.000000
0.519585 0.000000 0.000000
0.583307 0.000000 0.000000
0.642725 0.000000 0.000000
0.695399 0.000000 0.000000
0.741238 0.000000 0.000000
0.782864 0.000000 0.000000
0.819852 0.000000 0.000000
0.853178 0.000000 0.000000
0.883665 0.000000 0.000000
0.911650 0.083345 0.000000
0.937194 0.124300 0.000000
0.960571 0.153414 0.000000
0.982116 0.178256 0.000000
1.000000 0.199344 0.000000
1.000000 0.217655 0.000000
1.000000 0.234318 0.000000
1.000000 0.249302 0.000000
1.000000 0.261906 0.000000
1.000000 0.272709 0.000000
1.000000 0.281224 0.000000
0.046601 0.069062 0.058076
0.053712 0.069368 0.057008
0.064607 0.071046 0.053040
0.083650 0.075166 0.051118
0.109865 0.079225 0.048920
0.140749 0.082216 0.044038
0.176913 0.083436 0.037415
0.219028 0.081239 0.030182
0.268498 0.073335 0.017700
0.324926 0.050019 0.002014
0.386938 0.000000 0.000000
0.452155 0.000000 0.000000
0.517998 0.000000 0.000000
0.581750 0.000000 0.000000
0.640955 0.000000 0.000000
0.694087 0.000000 0.000000
0.740017 0.000000 0.000000
0.781643 0.000000 0.000000
0.818692 0.000000 0.000000
0.851865 0.000000 0.000000
0.882506 0.055818 0.000000
0.910582 0.105776 0.000000
0.936217 0.138430 0.000000
0.959716 0.164645 0.000000
0.981384 0.186893 0.000000
1.000000 0.206577 0.000000
1.000000 0.224643 0.000000
1.000000 0.240452 0.000000
1.000000 0.254429 0.000000
1.000000 0.267002 0.000000
1.000000 0.277317 0.000000
1.000000 0.285496 0.000000
0.048981 0.083742 0.061524
0.056306 0.083650 0.060548
0.063050 0.084657 0.060304
0.080232 0.089662 0.052277
0.108370 0.096773 0.047395
0.138186 0.099489 0.044282
0.174258 0.101717 0.037385
0.216800 0.101381 0.027527
0.266880 0.097383 0.014343
0.323156 0.086732 0.000000
0.384833 0.066682 0.000000
0.449836 0.000000 0.000000
0.515496 0.000000 0.000000
0.579004 0.000000 0.000000
0.638697 0.000000 0.000000
0.691829 0.000000 0.000000
0.737881 0.000000 0.000000
0.779995 0.000000 0.000000
0.816709 0.000000 0.000000
0.849821 0.073030 0.000000
0.880369 0.110872 0.000000
0.908537 0.139651 0.000000
0.934417 0.164492 0.000000
0.958221 0.186313 0.000000
0.980224 0.205753 0.000000
1.000000 0.223484 0.000000
1.000000 0.239200 0.000000
1.000000 0.253941 0.000000
1.000000 0.267124 0.000000
1.000000 0.277989 0.000000
1.000000 0.287388 0.000000
1.000000 0.295018 0.000000
0.048646 0.104128 0.065614
0.055177 0.104372 0.063844
0.063172 0.104311 0.063691
0.075868 0.106783 0.061189
0.100465 0.114107 0.050385
0.135866 0.123384 0.039124
0.170626 0.124971 0.034852
0.212314 0.126009 0.027039
0.262181 0.125093 0.013306
0.318456 0.120974 0.000000
0.380682 0.111910 0.000000
0.446082 0.097749 0.000000
0.511559 0.079713 0.000000
0.575341 0.057465 0.000000
0.635126 0.032654 0.000000
0.688777 0.044831 0.000000
0.735866 0.070100 0.000000
0.778073 0.095491 0.000000
0.814725 0.117891 0.000000
0.847868 0.140597 0.000000
0.878477 0.160739 0.000000
0.906767 0.180148 0.000000
0.932738 0.199435 0.000000
0.956725 0.216526 0.000000
0.978851 0.232364 0.000000
0.999451 0.247196 0.000000
1.000000 0.260899 0.000000
1.000000 0.273289 0.000000
1.000000 0.284855 0.000000
1.000000 0.294469 0.000000
1.000000 0.302647 0.000000
1.000000 0.309178 0.000000
0.045686 0.126223 0.068452
0.050050 0.126314 0.065675
0.060365 0.126253 0.065919
0.072236 0.125765 0.065705
0.092348 0.131868 0.060822
0.123537 0.141146 0.046113
0.168307 0.153811 0.025147
0.208835 0.155489 0.019440
0.256443 0.154574 0.011261
0.312566 0.154482 0.000000
0.374517 0.152468 0.000000
0.440192 0.147494 0.000000
0.506340 0.142184 0.000000
0.571252 0.137057 0.000000
0.631556 0.137392 0.000000
0.685512 0.142763 0.000000
0.733852 0.153292 0.000000
0.775967 0.166140 0.000000
0.812589 0.179690 0.000000
0.845945 0.194278 0.000000
0.876738 0.208865 0.000000
0.905272 0.223301 0.000000
0.939239 0.244724 0.000000
0.962524 0.257725 0.000000
0.983978 0.270024 0.000000
1.000000 0.281559 0.000000
1.000000 0.292119 0.000000
1.000000 0.302037 0.000000
1.000000 0.310704 0.000000
1.000000 0.318517 0.000000
1.000000 0.324651 0.000000
1.000000 0.329564 0.000000
0.038514 0.151095 0.071748
0.041871 0.151217 0.067933
0.055238 0.151034 0.067811
0.069703 0.150423 0.068025
0.086580 0.151736 0.066835
0.113527 0.161105 0.058686
0.151400 0.172732 0.035706
0.207279 0.189944 0.002228
0.255344 0.191989 0.000000
0.310216 0.192569 0.000000
0.371130 0.191958 0.000000
0.436866 0.192813 0.000000
0.503532 0.193057 0.000000
0.568414 0.194369 0.000000
0.629206 0.198123 0.000000
0.684840 0.205997 0.000000
0.734127 0.215579 0.000000
0.776089 0.225071 0.000000
0.812802 0.235447 0.000000
0.846433 0.246220 0.000000
0.877775 0.258000 0.000000
0.906950 0.269444 0.000000
0.933806 0.281376 0.000000
0.958434 0.292088 0.000000
0.980926 0.302586 0.000000
1.000000 0.312047 0.000000
1.000000 0.320806 0.000000
1.000000 0.328649 0.000000
1.000000 0.335912 0.000000
1.000000 0.342046 0.000000
1.000000 0.346807 0.000000
1.000000 0.350469 0.000000
0.029541 0.177646 0.075990
0.030762 0.177676 0.071748
0.046113 0.177401 0.070954
0.065980 0.176730 0.071168
0.083162 0.175998 0.071229
0.105318 0.181308 0.066346
0.137514 0.193271 0.052369
0.182437 0.207004 0.018372
0.250706 0.229343 0.000000
0.304997 0.233005 0.000000
0.365179 0.234958 0.000000
0.428717 0.235721 0.000000
0.494728 0.238346 0.000000
0.559869 0.243046 0.000000
0.621942 0.249851 0.000000
0.679377 0.259403 0.000000
0.728450 0.268406 0.000000
0.770962 0.276829 0.000000
0.808316 0.285191 0.000000
0.842557 0.293736 0.000000
0.874113 0.302403 0.000000
0.903532 0.311833 0.000000
0.930632 0.320836 0.000000
0.955474 0.329412 0.000000
0.978241 0.337591 0.000000
0.999054 0.345190 0.000000
1.000000 0.351934 0.000000
1.000000 0.357977 0.000000
1.000000 0.363653 0.000000
1.000000 0.368078 0.000000
1.000000 0.371801 0.000000
1.000000 0.374090 0.000000
0.015595 0.207279 0.080079
0.018128 0.207156 0.076478
0.030060 0.207004 0.074739
0.059815 0.206332 0.074617
0.079316 0.205112 0.074464
0.099458 0.203891 0.074861
0.127657 0.215396 0.065187
0.166354 0.229709 0.042054
0.219242 0.245609 0.000000
0.299809 0.274022 0.000000
0.359319 0.279149 0.000000
0.422614 0.282933 0.000000
0.487373 0.285954 0.000000
0.552087 0.289281 0.000000
0.615717 0.298894 0.000000
0.672908 0.309209 0.000000
0.722194 0.318029 0.000000
0.765103 0.325963 0.000000
0.802914 0.332891 0.000000
0.837736 0.339818 0.000000
0.869963 0.347143 0.000000
0.900023 0.354345 0.000000
0.927520 0.361486 0.000000
0.952605 0.368078 0.000000
0.975586 0.374304 0.000000
0.996674 0.379553 0.000000
1.000000 0.384894 0.000000
1.000000 0.389258 0.000000
1.000000 0.393225 0.000000
1.000000 0.396368 0.000000
1.000000 0.398596 0.000000
1.000000 0.399756 0.000000
0.000000 0.239963 0.083680
0.000000 0.239872 0.080629
0.006012 0.239475 0.077394
0.043153 0.238712 0.077333
0.073243 0.237491 0.077607
0.095583 0.235843 0.077455
0.119631 0.239292 0.074037
0.154391 0.253544 0.060487
0.200443 0.270054 0.020142
0.261295 0.287846 0.000000
0.352819 0.322026 0.000000
0.415869 0.328588 0.000000
0.482094 0.335454 0.000000
0.547082 0.341619 0.000000
0.608728 0.348180 0.000000
0.665522 0.356268 0.000000
0.715755 0.365576 0.000000
0.759152 0.373022 0.000000
0.797635 0.379431 0.000000
0.832700 0.385412 0.000000
0.865354 0.391302 0.000000
0.895598 0.396674 0.000000
0.923369 0.401953 0.000000
0.948852 0.406592 0.000000
0.972351 0.410803 0.000000
0.993713 0.414618 0.000000
1.000000 0.418372 0.000000
1.000000 0.421424 0.000000
1.000000 0.424109 0.000000
1.000000 0.425971 0.000000
1.000000 0.427161 0.000000
1.000000 0.427253 0.000000
0.000000 0.274937 0.087251
0.000000 0.274846 0.083742
0.000000 0.274662 0.080049
0.012451 0.273777 0.080079
0.063111 0.272465 0.079744
0.089479 0.270542 0.079774
0.113771 0.268498 0.079652
0.144472 0.278721 0.070771
0.186313 0.295293 0.045960
0.240299 0.313725 0.000000
0.308537 0.334417 0.000000
0.410254 0.374456 0.000000
0.476387 0.383673 0.000000
0.540948 0.391516 0.000000
0.602136 0.399512 0.000000
0.658503 0.406714 0.000000
0.707820 0.411292 0.000000
0.751675 0.417456 0.000000
0.790799 0.423285 0.000000
0.826658 0.428473 0.000000
0.859800 0.433448 0.000000
0.890501 0.437812 0.000000
0.918822 0.441993 0.000000
0.944793 0.445319 0.000000
0.968688 0.448524 0.000000
0.990570 0.450965 0.000000
1.000000 0.452979 0.000000
1.000000 0.454627 0.000000
1.000000 0.455970 0.000000
1.000000 0.456519 0.000000
1.000000 0.456550 0.000000
1.000000 0.455604 0.000000
0.000000 0.312596 0.090578
0.000000 0.312322 0.087007
0.000000 0.312047 0.082033
0.000000 0.311223 0.081758
0.035035 0.309789 0.081544
0.080262 0.307836 0.081361
0.108766 0.305394 0.081147
0.135988 0.304936 0.079194
0.174868 0.321874 0.063264
0.224826 0.341222 0.010590
0.286900 0.362188 0.000000
0.360693 0.384375 0.000000
0.477302 0.436439 0.000000
0.545342 0.448890 0.000000
0.606470 0.457984 0.000000
0.662013 0.465431 0.000000
0.710567 0.469764 0.000000
0.753201 0.471473 0.000000
0.791196 0.472114 0.000000
0.826871 0.476204 0.000000
0.859892 0.479683 0.000000
0.890288 0.482734 0.000000
0.918303 0.485267 0.000000
0.944091 0.487098 0.000000
0.967803 0.488685 0.000000
0.989624 0.489754 0.000000
1.000000 0.490333 0.000000
1.000000 0.490455 0.000000
1.000000 0.490120 0.000000
1.000000 0.489204 0.000000
1.000000 0.487739 0.000000
1.000000 0.485542 0.000000
0.000000 0.353918 0.092897
0.000000 0.353796 0.089906
0.000000 0.353338 0.084657
0.000000 0.352361 0.082399
0.000000 0.350622 0.082399
0.065278 0.348821 0.082216
0.101198 0.346563 0.081971
0.131685 0.343786 0.081758
0.165957 0.351202 0.073121
0.212589 0.370520 0.037873
0.270268 0.392035 0.000000
0.339605 0.415229 0.000000
0.419196 0.439582 0.000000
0.525719 0.483803 0.000000
0.596368 0.501915 0.000000
0.652888 0.510613 0.000000
0.702144 0.515496 0.000000
0.745235 0.517388 0.000000
0.783810 0.517510 0.000000
0.819455 0.517021 0.000000
0.852781 0.518181 0.000000
0.883909 0.520653 0.000000
0.912444 0.522545 0.000000
0.938811 0.523735 0.000000
0.963043 0.524681 0.000000
0.985351 0.524895 0.000000
1.000000 0.524743 0.000000
1.000000 0.524193 0.000000
1.000000 0.523033 0.000000
1.000000 0.521233 0.000000
1.000000 0.518761 0.000000
1.000000 0.515343 0.000000
0.000000 0.396216 0.095766
0.000000 0.396063 0.092164
0.000000 0.395727 0.087312
0.000000 0.394751 0.082551
0.000000 0.392950 0.082338
0.024414 0.390661 0.082155
0.090333 0.388006 0.081941
0.125673 0.384710 0.081453
0.157870 0.380957 0.081178
0.200839 0.397131 0.061402
0.254246 0.418036 0.000000
0.317662 0.440894 0.000000
0.390631 0.464637 0.000000
0.471504 0.489174 0.000000
0.572168 0.530480 0.000000
0.643610 0.552758 0.000000
0.693263 0.558221 0.000000
0.736995 0.560540 0.000000
0.776272 0.560845 0.000000
0.812436 0.560479 0.000000
0.846036 0.559319 0.000000
0.877256 0.557763 0.000000
0.906462 0.558892 0.000000
0.933410 0.559686 0.000000
0.958221 0.559960 0.000000
0.981048 0.559686 0.000000
1.000000 0.558862 0.000000
1.000000 0.557641 0.000000
1.000000 0.555779 0.000000
1.000000 0.553429 0.000000
1.000000 0.550225 0.000000
1.000000 0.546227 0.000000
0.000000 0.439002 0.098299
0.000000 0.438911 0.094759
0.000000 0.438392 0.089906
0.000000 0.437201 0.082551
0.000000 0.435309 0.082185
0.000000 0.432776 0.082277
0.074556 0.429694 0.081483
0.118196 0.426032 0.081025
0.153841 0.422065 0.080415
0.190311 0.423926 0.073701
0.240146 0.443915 0.027314
0.299443 0.466041 0.000000
0.367102 0.489235 0.000000
0.442573 0.513024 0.000000
0.522362 0.537194 0.000000
0.615167 0.574975 0.000000
0.684535 0.598413 0.000000
0.728756 0.601068 0.000000
0.768612 0.601740 0.000000
0.805386 0.601495 0.000000
0.839536 0.600397 0.000000
0.871275 0.598749 0.000000
0.900603 0.596368 0.000000
0.927764 0.594324 0.000000
0.953185 0.594232 0.000000
0.976593 0.593652 0.000000
0.998108 0.592493 0.000000
1.000000 0.590784 0.000000
1.000000 0.588495 0.000000
1.000000 0.585595 0.000000
1.000000 0.581933 0.000000
1.000000 0.577356 0.000000
0.000000 0.481544 0.101869
0.000000 0.481392 0.098268
0.000000 0.481086 0.093324
0.000000 0.479988 0.082521
0.000000 0.478157 0.082490
0.000000 0.475654 0.081758
0.041382 0.472694 0.081331
0.108125 0.469276 0.080598
0.149386 0.464973 0.079683
0.185153 0.460090 0.078431
0.228824 0.470680 0.059998
0.284276 0.491676 0.000000
0.347234 0.513451 0.000000
0.417456 0.536095 0.000000
0.492592 0.558984 0.000000
0.568811 0.582025 0.000000
0.652338 0.614527 0.000000
0.720150 0.638972 0.000000
0.760952 0.640284 0.000000
0.798520 0.640436 0.000000
0.833310 0.639673 0.000000
0.865660 0.637934 0.000000
0.895567 0.635584 0.000000
0.923156 0.632593 0.000000
0.948699 0.629053 0.000000
0.972503 0.627008 0.000000
0.994507 0.625452 0.000000
1.000000 0.623438 0.000000
1.000000 0.620691 0.000000
1.000000 0.617243 0.000000
1.000000 0.613031 0.000000
1.000000 0.607935 0.000000
0.000000 0.522759 0.105379
0.000000 0.522484 0.101991
0.000000 0.522087 0.097597
0.000000 0.521202 0.085084
0.000000 0.519310 0.082826
0.000000 0.517021 0.082338
0.000000 0.513878 0.081544
0.096193 0.510307 0.080476
0.143709 0.506096 0.079683
0.182437 0.501366 0.078218
0.218204 0.496132 0.076356
0.270787 0.515984 0.019623
0.329931 0.536980 0.000000
0.395850 0.558618 0.000000
0.466957 0.580529 0.000000
0.539239 0.601953 0.000000
0.609949 0.622766 0.000000
0.685481 0.650355 0.000000
0.752926 0.676387 0.000000
0.791073 0.676875 0.000000
0.826474 0.676387 0.000000
0.859312 0.674800 0.000000
0.889799 0.672328 0.000000
0.917937 0.669306 0.000000
0.944030 0.665675 0.000000
0.968048 0.661585 0.000000
0.990265 0.657038 0.000000
1.000000 0.654749 0.000000
1.000000 0.651698 0.000000
1.000000 0.648005 0.000000
1.000000 0.643488 0.000000
1.000000 0.637964 0.000000
0.000000 0.563653 0.112276
0.000000 0.563439 0.107820
0.000000 0.570001 0.104311
0.000000 0.569085 0.091646
0.000000 0.567224 0.085756
0.000000 0.564660 0.085023
0.000000 0.561303 0.083650
0.084443 0.557366 0.082368
0.140291 0.553033 0.081300
0.182895 0.548089 0.079622
0.220645 0.542443 0.077363
0.262943 0.545953 0.063172
0.319707 0.565667 0.000000
0.382238 0.586114 0.000000
0.449226 0.606500 0.000000
0.517845 0.626154 0.000000
0.585473 0.645472 0.000000
0.651087 0.664149 0.000000
0.719539 0.687129 0.000000
0.786282 0.713832 0.000000
0.821897 0.713161 0.000000
0.855039 0.711482 0.000000
0.885679 0.708949 0.000000
0.914122 0.705684 0.000000
0.940307 0.701686 0.000000
0.964477 0.697108 0.000000
0.986816 0.692042 0.000000
1.000000 0.686641 0.000000
1.000000 0.681910 0.000000
1.000000 0.677882 0.000000
1.000000 0.673030 0.000000
1.000000 0.667231 0.000000
0.000000 0.605982 0.119936
0.000000 0.606561 0.116396
0.000000 0.607172 0.111635
0.000000 0.607233 0.099947
0.000000 0.606256 0.089357
0.000000 0.604273 0.088869
0.000000 0.601221 0.086885
0.066957 0.597681 0.085817
0.134035 0.593439 0.084291
0.180301 0.588739 0.082368
0.220279 0.583276 0.079377
0.257298 0.577264 0.076844
0.307713 0.589868 0.029084
0.367132 0.609033 0.000000
0.430243 0.627832 0.000000
0.495521 0.646235 0.000000
0.560266 0.664149 0.000000
0.623499 0.681666 0.000000
0.685267 0.698726 0.000000
0.748074 0.718196 0.000000
0.814786 0.745510 0.000000
0.848539 0.744259 0.000000
0.879820 0.741970 0.000000
0.908843 0.738857 0.000000
0.935607 0.734920 0.000000
0.960296 0.730404 0.000000
0.983062 0.725307 0.000000
1.000000 0.719692 0.000000
1.000000 0.713741 0.000000
1.000000 0.707149 0.000000
1.000000 0.701778 0.000000
1.000000 0.695827 0.000000
0.000000 0.645014 0.129702
0.000000 0.645502 0.126711
0.000000 0.645991 0.121706
0.000000 0.646052 0.110628
0.000000 0.645380 0.096132
0.000000 0.643488 0.095125
0.000000 0.640864 0.093629
0.032746 0.637507 0.091554
0.127871 0.633845 0.089540
0.178744 0.629389 0.086549
0.221195 0.624445 0.083772
0.260075 0.618982 0.080842
0.298344 0.615503 0.072541
0.355200 0.633143 0.000000
0.415290 0.650507 0.000000
0.477272 0.667536 0.000000
0.539239 0.684199 0.000000
0.600214 0.700435 0.000000
0.659846 0.716274 0.000000
0.717769 0.731746 0.000000
0.775937 0.747982 0.000000
0.842161 0.775326 0.000000
0.874113 0.773312 0.000000
0.903624 0.770413 0.000000
0.930938 0.766598 0.000000
0.956054 0.762142 0.000000
0.979248 0.756954 0.000000
1.000000 0.751339 0.000000
1.000000 0.745144 0.000000
1.000000 0.738369 0.000000
1.000000 0.730983 0.000000
1.000000 0.723445 0.000000
0.000000 0.682551 0.143130
0.000000 0.683101 0.140230
0.000000 0.683497 0.134859
0.000000 0.683619 0.124758
0.000000 0.683101 0.106416
0.000000 0.681483 0.105379
0.000000 0.679042 0.103761
0.000000 0.676112 0.101656
0.125093 0.672541 0.098939
0.178164 0.668727 0.096223
0.222843 0.664179 0.092775
0.263188 0.659113 0.088930
0.300420 0.653346 0.084199
0.345769 0.657893 0.063752
0.403174 0.673976 0.000000
0.462562 0.689754 0.000000
0.522271 0.705409 0.000000
0.581140 0.720760 0.000000
0.638819 0.735775 0.000000
0.695369 0.750332 0.000000
0.750271 0.764340 0.000000
0.804196 0.777676 0.000000
0.869261 0.803891 0.000000
0.900359 0.802029 0.000000
0.928130 0.798489 0.000000
0.953643 0.794064 0.000000
0.977111 0.788846 0.000000
0.998657 0.783078 0.000000
1.000000 0.776669 0.000000
1.000000 0.769650 0.000000
1.000000 0.761929 0.000000
1.000000 0.753902 0.000000
0.000000 0.721462 0.159945
0.000000 0.721645 0.157321
0.000000 0.721706 0.153414
0.000000 0.721431 0.143679
0.000000 0.720729 0.126375
0.000000 0.719112 0.119783
0.000000 0.717037 0.118196
0.000000 0.714412 0.116457
0.125826 0.711452 0.113588
0.181949 0.707942 0.110262
0.227481 0.704128 0.107118
0.269078 0.699641 0.103548
0.307408 0.694484 0.098512
0.343572 0.688777 0.093263
0.395666 0.700038 0.061280
0.452644 0.714473 0.000000
0.509667 0.728634 0.000000
0.566125 0.742641 0.000000
0.621485 0.756252 0.000000
0.675685 0.769497 0.000000
0.728695 0.782193 0.000000
0.780484 0.794156 0.000000
0.831235 0.805356 0.000000
0.893523 0.829282 0.000000
0.923491 0.827176 0.000000
0.949493 0.822904 0.000000
0.973358 0.817868 0.000000
0.995300 0.812100 0.000000
1.000000 0.805692 0.000000
1.000000 0.798550 0.000000
1.000000 0.791012 0.000000
1.000000 0.783291 0.000000
0.000000 0.756161 0.179324
0.000000 0.756344 0.177157
0.000000 0.756405 0.173373
0.000000 0.756161 0.164645
0.000000 0.755642 0.149264
0.000000 0.754421 0.138247
0.000000 0.752529 0.136477
0.003449 0.750149 0.134066
0.131472 0.747372 0.131563
0.187259 0.744198 0.128450
0.233249 0.740780 0.125460
0.275120 0.736721 0.121523
0.313909 0.732174 0.116701
0.351019 0.727108 0.111849
0.389960 0.725460 0.101717
0.444373 0.738521 0.067079
0.499153 0.751492 0.000000
0.553277 0.764340 0.000000
0.606622 0.776822 0.000000
0.658839 0.788968 0.000000
0.710079 0.800656 0.000000
0.760220 0.811704 0.000000
0.809354 0.822110 0.000000
0.857603 0.831693 0.000000
0.916045 0.852415 0.000000
0.944884 0.850187 0.000000
0.969238 0.845274 0.000000
0.991608 0.839658 0.000000
1.000000 0.833310 0.000000
1.000000 0.826413 0.000000
1.000000 0.819089 0.000000
1.000000 0.811734 0.000000
0.000000 0.791562 0.203983
0.000000 0.791806 0.201785
0.000000 0.791775 0.197757
0.000000 0.791531 0.189792
0.000000 0.791012 0.176577
0.000000 0.790036 0.161166
0.000000 0.788235 0.159548
0.065278 0.785885 0.156985
0.145449 0.783291 0.154696
0.198123 0.780270 0.151217
0.243259 0.776974 0.148287
0.284489 0.773220 0.144045
0.323186 0.769100 0.139773
0.360327 0.764462 0.134707
0.395331 0.759396 0.128908
0.439399 0.763424 0.113741
0.491463 0.774807 0.081239
0.543114 0.786160 0.000000
0.594110 0.797421 0.000000
0.644312 0.808438 0.000000
0.693660 0.819120 0.000000
0.742000 0.829252 0.000000
0.789425 0.838682 0.000000
0.835966 0.847349 0.000000
0.881407 0.855192 0.000000
0.936095 0.873075 0.000000
0.965728 0.872099 0.000000
0.988342 0.866575 0.000000
1.000000 0.860380 0.000000
1.000000 0.853605 0.000000
1.000000 0.846525 0.000000
1.000000 0.839475 0.000000
0.000000 0.823239 0.229618
0.000000 0.823453 0.227359
0.000000 0.823514 0.224216
0.000000 0.823331 0.217472
0.000000 0.822934 0.205020
0.000000 0.822385 0.188357
0.000000 0.820798 0.184878
0.101350 0.818845 0.182650
0.164614 0.816617 0.180148
0.213474 0.814084 0.177493
0.256779 0.811246 0.174258
0.297276 0.808103 0.170871
0.335698 0.804623 0.166964
0.372259 0.800687 0.162142
0.407416 0.796475 0.157687
0.440925 0.791867 0.151827
0.488991 0.800656 0.133364
0.538109 0.810727 0.106386
0.586755 0.820676 0.062715
0.634730 0.830472 0.000000
0.681910 0.839902 0.000000
0.728328 0.848905 0.000000
0.773892 0.857328 0.000000
0.818601 0.865110 0.000000
0.862547 0.872129 0.000000
0.905364 0.878477 0.000000
0.955383 0.892729 0.000000
0.985626 0.893034 0.000000
1.000000 0.886992 0.000000
1.000000 0.880400 0.000000
1.000000 0.873442 0.000000
1.000000 0.866667 0.000000
0.000000 0.854246 0.259739
0.000000 0.854398 0.258030
0.000000 0.854398 0.255100
0.000000 0.854215 0.248875
0.000000 0.853819 0.238041
0.000000 0.853330 0.223087
0.067720 0.852171 0.214603
0.140719 0.850431 0.212680
0.190860 0.848447 0.210391
0.234470 0.846311 0.207645
0.275242 0.843839 0.204807
0.314000 0.841215 0.202121
0.350927 0.838285 0.198642
0.386938 0.834989 0.194705
0.421332 0.831357 0.190219
0.454444 0.827451 0.185489
0.490120 0.826719 0.177462
0.536492 0.835447 0.160128
0.582483 0.844114 0.137240
0.628016 0.852659 0.105043
0.672969 0.860960 0.028260
0.717189 0.868833 0.000000
0.760678 0.876249 0.000000
0.803525 0.883085 0.000000
0.845701 0.889250 0.000000
0.887083 0.894835 0.000000
0.927550 0.899779 0.000000
0.973419 0.911131 0.000000
1.000000 0.912230 0.000000
1.000000 0.905791 0.000000
1.000000 0.899046 0.000000
1.000000 0.892515 0.000000
0.109682 0.883177 0.293675
0.110750 0.883268 0.291783
0.112184 0.883268 0.289067
0.114626 0.883177 0.283970
0.117708 0.882994 0.274693
0.121309 0.882841 0.261448
0.140658 0.882414 0.249607
0.185580 0.881285 0.248356
0.226841 0.880003 0.247227
0.265476 0.878569 0.245762
0.302953 0.876860 0.243656
0.339544 0.874998 0.241947
0.374975 0.872831 0.239506
0.409339 0.870329 0.236606
0.442451 0.867521 0.233310
0.474495 0.864378 0.229465
0.505333 0.861112 0.225223
0.543267 0.864225 0.215244
0.586175 0.871519 0.199680
0.628595 0.878691 0.180636
0.670771 0.885618 0.155398
0.712337 0.892241 0.121126
0.753384 0.898405 0.053285
0.793973 0.904082 0.000000
0.834134 0.909239 0.000000
0.873808 0.913878 0.000000
0.912749 0.917998 0.000000
0.950591 0.921599 0.000000
0.992187 0.930053 0.000000
1.000000 0.931487 0.000000
1.000000 0.924681 0.000000
1.000000 0.918120 0.000000
0.198459 0.912657 0.336095
0.199008 0.912749 0.334417
0.199771 0.912718 0.332464
0.200504 0.912596 0.327123
0.201938 0.912444 0.318975
0.203922 0.912291 0.307805
0.206729 0.912169 0.293187
0.237613 0.911040 0.291142
0.270085 0.909728 0.289830
0.302800 0.908293 0.288426
0.335576 0.906645 0.286625
0.368139 0.904875 0.284794
0.400397 0.902861 0.282567
0.432074 0.900664 0.280125
