data/fiter_cube/81078425/1022767/file.cube
# Created by Adobe Lightroom plugin Export LUT (1.17.0)
# www.johnrellis.com/lightroom/exportlut.htm
# Preset: 旅拍情绪景观_01 云集视觉
# Color profile: C:\Program Files (x86)\Common Files\Adobe\Color\Profiles\Recommended\AdobeRGB1998.icc
LUT_3D_SIZE 8
DOMAIN_MIN 0.000000 0.000000 0.000000
DOMAIN_MAX 0.903226 0.903226 0.903226
0.106569 0.122438 0.129946
0.130983 0.125887 0.131563
0.226627 0.138216 0.131655
0.479194 0.180880 0.112306
0.699245 0.226383 0.075807
0.865721 0.265110 0.059754
0.953399 0.300816 0.134279
1.000000 0.368170 0.265599
0.112764 0.131533 0.138827
0.126131 0.138216 0.136019
0.222202 0.157717 0.137087
0.474617 0.211307 0.117311
0.695491 0.255406 0.085023
0.857084 0.287999 0.078401
0.947814 0.319982 0.149447
1.000000 0.385931 0.281559
0.126558 0.154757 0.160861
0.137606 0.162234 0.169253
0.204379 0.201450 0.149111
0.505303 0.320714 0.145327
0.727413 0.359197 0.133608
0.870298 0.379278 0.169223
0.952514 0.414862 0.268437
1.000000 0.478126 0.389899
0.154665 0.211643 0.213474
0.169131 0.223087 0.224155
0.210391 0.246006 0.254704
0.470069 0.423804 0.166934
0.767056 0.541436 0.324773
0.880369 0.554986 0.394507
0.942840 0.564569 0.448859
0.987060 0.598077 0.521416
0.224552 0.348547 0.340520
0.248600 0.362768 0.354864
0.336187 0.414771 0.414984
0.386786 0.454627 0.449470
0.688808 0.617914 0.316442
0.863249 0.674220 0.507805
0.921721 0.717250 0.629297
0.964202 0.728359 0.667109
0.362554 0.511070 0.503166
0.387945 0.526665 0.519585
0.450416 0.558190 0.555352
0.517967 0.589807 0.597894
0.571923 0.672724 0.606348
0.827970 0.755673 0.519280
0.911803 0.783017 0.679561
0.943206 0.835782 0.791653
0.522545 0.673701 0.665309
0.537621 0.680598 0.672786
0.580255 0.697292 0.692409
0.650660 0.729213 0.732570
0.684169 0.738338 0.752132
0.740200 0.819638 0.748379
0.892638 0.841093 0.696773
0.940429 0.856260 0.790799
0.695888 0.808957 0.804105
0.702937 0.810819 0.806546
0.727810 0.818418 0.816403
0.767819 0.833127 0.835599
0.790555 0.838682 0.845579
0.813169 0.847257 0.861265
0.850828 0.898650 0.850919
0.935576 0.903288 0.820890
0.111543 0.129091 0.142275
0.125338 0.129000 0.146242
0.204227 0.132601 0.146365
0.437446 0.156893 0.141360
0.668757 0.203250 0.122286
0.840299 0.249149 0.119326
0.940520 0.296300 0.173709
1.000000 0.370611 0.288884
0.113619 0.133883 0.143771
0.124514 0.142611 0.151278
0.204685 0.153597 0.154421
0.444007 0.190524 0.146242
0.674006 0.236484 0.129458
0.838651 0.275975 0.132876
0.936645 0.317693 0.188785
0.998138 0.387274 0.301793
0.127077 0.158358 0.166232
0.139925 0.167910 0.175601
0.199741 0.203403 0.169009
0.476814 0.303014 0.179690
0.699733 0.344671 0.178439
0.850462 0.373083 0.211002
0.938628 0.411078 0.288396
0.994202 0.475135 0.397559
0.154940 0.215335 0.219242
0.170840 0.228946 0.231968
0.222934 0.263218 0.270603
0.444251 0.407446 0.202121
0.729732 0.526879 0.351781
0.858091 0.541314 0.397284
0.930724 0.555627 0.448646
0.980560 0.592798 0.521508
0.227420 0.355383 0.350469
0.250126 0.368078 0.362799
0.332860 0.415167 0.415686
0.389075 0.441627 0.456977
0.665553 0.604211 0.341955
0.850584 0.672755 0.523919
0.915099 0.714748 0.632776
0.960235 0.726833 0.669306
0.357519 0.507866 0.501976
0.376593 0.516869 0.511589
0.438209 0.547906 0.546044
0.513603 0.586572 0.594415
0.567254 0.663172 0.610742
0.821195 0.755093 0.538415
0.907012 0.786496 0.692622
0.940703 0.836240 0.794705
0.509545 0.663874 0.656489
0.520897 0.667384 0.660517
0.565545 0.686152 0.681697
0.640467 0.721859 0.724880
0.681117 0.736416 0.749599
0.735470 0.814755 0.748714
0.887724 0.838743 0.699489
0.937469 0.855192 0.791714
0.687007 0.804410 0.799527
0.695460 0.807126 0.802823
0.721706 0.815366 0.813260
0.763333 0.830716 0.832975
0.796231 0.843503 0.850340
0.815763 0.849790 0.863340
0.849943 0.897795 0.852384
0.934051 0.902953 0.822721
0.119478 0.142519 0.174289
0.130251 0.142611 0.184360
0.197086 0.142672 0.207492
0.424079 0.000000 0.221012
0.631006 0.069734 0.188449
0.818540 0.210758 0.227817
0.930480 0.312627 0.297398
0.994903 0.411475 0.393591
0.125521 0.152712 0.176364
0.135531 0.159396 0.187839
0.195071 0.159487 0.211215
0.417365 0.078676 0.207797
0.633906 0.155428 0.203616
0.817014 0.251102 0.244083
0.927367 0.338933 0.313115
0.991913 0.430701 0.407965
0.132143 0.167971 0.185092
0.142947 0.177859 0.194675
0.194217 0.221775 0.234989
0.430854 0.261418 0.250217
0.665614 0.322606 0.283299
0.829068 0.380407 0.329808
0.925292 0.440314 0.395453
0.985199 0.506889 0.474617
0.152255 0.226413 0.241489
0.168368 0.245792 0.259037
0.249393 0.311070 0.319860
0.434852 0.425727 0.327550
0.703609 0.543175 0.462257
0.839567 0.560418 0.486427
0.918822 0.584710 0.528527
0.972259 0.622950 0.584405
0.219608 0.371801 0.377600
0.248844 0.388251 0.393103
0.340703 0.438666 0.443641
0.432441 0.487892 0.505333
0.656031 0.622126 0.462379
0.836790 0.706020 0.621515
0.904448 0.732784 0.680018
0.953033 0.745602 0.707637
0.355871 0.519219 0.520348
0.377661 0.529625 0.530724
0.441108 0.560967 0.562799
0.535729 0.612360 0.621180
0.581018 0.655787 0.646937
0.806851 0.761410 0.604791
0.896666 0.804807 0.741695
0.937072 0.844480 0.812985
0.511315 0.673732 0.670405
0.524163 0.678218 0.675044
0.566827 0.694392 0.692287
0.637812 0.725551 0.728328
0.691279 0.748196 0.759670
0.739345 0.812406 0.770016
0.882322 0.847501 0.742061
0.934295 0.868162 0.820645
0.683467 0.806668 0.803250
0.689387 0.807767 0.804593
0.714961 0.815000 0.813382
0.759884 0.831449 0.833555
0.799435 0.847288 0.853941
0.819577 0.854185 0.866423
0.851011 0.897795 0.861112
0.932311 0.906828 0.838163
0.126406 0.167422 0.256687
0.143526 0.170565 0.280156
0.242313 0.156100 0.355444
0.416754 0.139528 0.395911
0.636652 0.080537 0.400946
0.796872 0.000000 0.332219
0.902007 0.269383 0.370214
0.980865 0.418128 0.464088
0.133486 0.184878 0.262242
0.147219 0.191745 0.287602
0.237278 0.186557 0.359472
0.415625 0.181094 0.401465
0.632929 0.154421 0.402289
0.790646 0.099763 0.339544
0.900420 0.310002 0.389410
0.979065 0.438239 0.476326
0.144533 0.213809 0.272618
0.158999 0.226017 0.287602
0.228428 0.274876 0.353948
0.407874 0.296208 0.421942
0.622950 0.285222 0.410315
0.778408 0.333806 0.401526
0.905303 0.443915 0.476722
0.975341 0.525017 0.542229
0.158968 0.259220 0.302159
0.177157 0.274571 0.317174
0.254704 0.334295 0.371588
0.398810 0.445869 0.468605
0.626215 0.490669 0.498207
0.796323 0.539055 0.536217
0.898344 0.588586 0.583093
0.962036 0.639063 0.635096
0.222232 0.379797 0.411322
0.247501 0.395392 0.425360
0.332921 0.450233 0.474495
0.462257 0.535424 0.551995
0.631617 0.637446 0.578851
0.815610 0.733333 0.704219
0.890349 0.744167 0.722103
0.945190 0.759915 0.743740
0.354284 0.534264 0.552026
0.378912 0.550561 0.566796
0.441108 0.583337 0.595361
0.539971 0.633051 0.643275
0.622858 0.675929 0.695735
0.792721 0.776638 0.691341
0.886839 0.830961 0.800992
0.933043 0.851316 0.831601
0.503838 0.683833 0.689265
0.518883 0.689754 0.694759
0.565637 0.707851 0.711666
0.637446 0.737179 0.741543
0.714961 0.773342 0.783474
0.751125 0.809751 0.801266
0.874968 0.857511 0.789334
0.930205 0.881071 0.849699
0.684077 0.814298 0.814817
0.691554 0.816342 0.816861
0.713832 0.821805 0.822568
0.752224 0.833005 0.835294
0.798215 0.850278 0.856199
0.825162 0.861112 0.871244
0.851926 0.896635 0.873198
0.929870 0.911650 0.857328
0.132662 0.223636 0.429236
0.170352 0.234134 0.451545
0.272282 0.235813 0.508751
0.466804 0.217411 0.592981
0.628840 0.293675 0.593286
0.785733 0.353643 0.593347
0.893400 0.366308 0.559014
0.968505 0.438666 0.564385
0.137453 0.243412 0.429389
0.178683 0.260624 0.453681
0.276890 0.274083 0.511070
0.467536 0.265263 0.599512
0.624781 0.328374 0.596643
0.783017 0.377050 0.597040
0.891630 0.384985 0.562676
0.966644 0.456214 0.570977
0.179843 0.296788 0.426673
0.204898 0.310582 0.438544
0.291264 0.358556 0.500572
0.446723 0.384924 0.592126
0.611414 0.417487 0.607202
0.770352 0.436469 0.602502
0.884245 0.433204 0.568078
0.959655 0.504906 0.586999
0.209140 0.350835 0.450172
0.233616 0.364141 0.460456
0.313420 0.411902 0.496193
0.435401 0.493965 0.571496
0.598535 0.528496 0.630610
0.758145 0.519677 0.614191
0.871397 0.529686 0.595361
0.953185 0.607202 0.646174
0.258030 0.417304 0.483375
0.281224 0.429816 0.492897
0.352117 0.470680 0.524041
0.454932 0.539330 0.578851
0.581048 0.631769 0.655940
0.760342 0.668910 0.683284
0.869505 0.708034 0.717372
0.938964 0.742855 0.749813
0.347845 0.520653 0.561822
0.366033 0.530999 0.570550
0.421790 0.563958 0.598230
0.510674 0.620294 0.646754
0.623438 0.691005 0.707729
0.766232 0.778103 0.747189
0.877165 0.844633 0.836728
0.929015 0.847959 0.840085
0.493690 0.675471 0.701381
0.505455 0.681300 0.705531
0.546654 0.702693 0.721645
0.614221 0.737362 0.749416
0.697963 0.772519 0.782193
0.761898 0.802914 0.819181
0.865080 0.863127 0.824186
0.926177 0.891722 0.874327
0.668818 0.812955 0.821408
0.675013 0.815152 0.823026
0.696986 0.821897 0.828183
0.738796 0.834348 0.839475
0.783017 0.847929 0.853300
0.829160 0.867643 0.876036
0.851225 0.890990 0.884855
0.926146 0.915343 0.874754
0.247990 0.350225 0.601892
0.285924 0.368078 0.616297
0.355901 0.377508 0.652247
0.494911 0.393317 0.716793
0.667384 0.402289 0.760433
0.778592 0.478950 0.738247
0.871061 0.570825 0.743435
0.942901 0.608118 0.739620
0.249485 0.361395 0.593927
0.284306 0.378088 0.607446
0.362310 0.401312 0.647791
0.490028 0.415717 0.710079
0.662074 0.424994 0.758450
0.774044 0.494423 0.738582
0.868711 0.579156 0.744472
0.941619 0.613214 0.740230
0.287297 0.411475 0.580011
0.305394 0.420691 0.593194
0.381872 0.461494 0.640589
0.493263 0.491157 0.704738
0.659998 0.507744 0.766018
0.767880 0.554223 0.748867
0.864164 0.615015 0.753719
0.939147 0.636835 0.746883
0.320317 0.460975 0.596765
0.337072 0.469306 0.601556
0.393347 0.500908 0.621973
0.500969 0.568353 0.688045
0.650111 0.612085 0.769345
0.763027 0.639094 0.768856
0.859312 0.666896 0.768154
0.937438 0.670954 0.755245
0.354162 0.511650 0.614252
0.369940 0.520073 0.619745
0.420966 0.548394 0.638758
0.501061 0.596429 0.671870
0.612024 0.667781 0.732662
0.746212 0.705592 0.779019
0.849210 0.701198 0.766445
0.932158 0.705226 0.755764
0.398901 0.568475 0.639399
0.414252 0.577081 0.645808
0.459815 0.601404 0.662715
0.531365 0.642176 0.691554
0.620325 0.696986 0.731838
0.730373 0.772793 0.792386
0.849577 0.803006 0.816617
0.925048 0.825528 0.835508
0.499397 0.674495 0.718563
0.512291 0.681392 0.723934
0.550042 0.700404 0.738003
0.610010 0.731685 0.761624
0.683101 0.771450 0.792782
0.767239 0.817075 0.830289
0.855985 0.868956 0.856352
0.924559 0.904204 0.899901
0.666468 0.806149 0.828946
0.671931 0.808103 0.830259
0.691493 0.815396 0.835386
0.726253 0.830533 0.845670
0.768643 0.849729 0.859220
0.817594 0.867308 0.874815
0.857939 0.885618 0.896635
0.922850 0.920592 0.895476
0.408820 0.504906 0.749844
0.434913 0.519158 0.758785
0.482826 0.531182 0.779446
0.565759 0.545190 0.811795
0.686641 0.560693 0.847684
0.802182 0.576043 0.857206
0.859586 0.646693 0.829252
0.917693 0.734798 0.845853
0.401831 0.505516 0.741360
0.426551 0.518791 0.750271
0.482704 0.539879 0.772824
0.561395 0.552880 0.805325
0.679866 0.568536 0.842527
0.795956 0.581537 0.853788
0.855070 0.646662 0.826596
0.914824 0.731106 0.842405
0.416632 0.536278 0.733303
0.430243 0.542412 0.740688
0.492073 0.573754 0.765164
0.571344 0.599298 0.799985
0.677546 0.617548 0.837858
0.791897 0.632410 0.855802
0.852781 0.683680 0.834806
0.915190 0.751919 0.850095
0.443000 0.576318 0.732662
0.452216 0.580011 0.733822
0.487098 0.596399 0.740841
0.577264 0.646479 0.786343
0.675929 0.679561 0.830228
0.789456 0.703639 0.861173
0.849973 0.734005 0.847044
0.915068 0.775937 0.857786
0.466896 0.614282 0.740963
0.475135 0.617456 0.741939
0.506310 0.631556 0.748257
0.559442 0.658167 0.762142
0.655970 0.713436 0.804990
0.773526 0.755917 0.857511
0.841917 0.774350 0.854246
0.913512 0.796689 0.861479
0.504936 0.662074 0.756985
0.513787 0.666041 0.758999
0.543572 0.679927 0.766049
0.592737 0.704128 0.779080
0.655543 0.736721 0.797299
0.747066 0.791104 0.836728
0.839231 0.822538 0.867430
0.914244 0.819699 0.863310
0.558190 0.716182 0.780728
0.567163 0.720394 0.783291
0.593072 0.731746 0.789303
0.635309 0.751308 0.800198
0.688899 0.777035 0.814878
0.754360 0.812039 0.837308
0.828305 0.859434 0.873472
0.915892 0.878843 0.888579
0.656580 0.795499 0.832029
0.662531 0.797971 0.833555
0.688045 0.809751 0.841581
0.721340 0.824491 0.851102
0.761532 0.842832 0.863371
0.806058 0.865446 0.879973
0.857511 0.892454 0.900938
0.918944 0.926085 0.917082
0.601373 0.676295 0.857237
0.615442 0.684199 0.859983
0.640040 0.691188 0.866453
0.678828 0.697597 0.878538
0.736782 0.705257 0.893675
0.815122 0.714443 0.910704
0.881529 0.726589 0.910704
0.913146 0.772366 0.892699
0.595850 0.675227 0.854246
0.609674 0.682887 0.857053
0.641138 0.696010 0.864256
0.678126 0.701717 0.876280
0.735286 0.709804 0.891783
0.812741 0.719356 0.909148
0.879057 0.729702 0.909667
0.911711 0.773709 0.892271
0.591424 0.682887 0.848264
0.600427 0.686946 0.850980
0.637629 0.705501 0.858274
0.686305 0.724697 0.872953
0.737758 0.732662 0.888762
0.809323 0.741939 0.906401
0.875151 0.750210 0.909697
0.910277 0.786526 0.895018
0.596612 0.701869 0.840055
0.604547 0.705928 0.841245
0.629358 0.716487 0.849332
0.686702 0.745815 0.865385
0.740902 0.763363 0.883635
0.805783 0.775265 0.903197
0.871580 0.782986 0.911711
0.909667 0.808011 0.900633
0.617334 0.729549 0.844999
0.623438 0.732448 0.846128
0.638025 0.737942 0.847501
0.664118 0.748318 0.850919
0.731991 0.782864 0.872007
0.795743 0.802853 0.896025
0.866819 0.815763 0.914153
0.909331 0.833280 0.907591
0.647089 0.762905 0.852506
0.649714 0.763546 0.852415
0.660975 0.767269 0.853086
0.683192 0.775784 0.855802
0.716823 0.789944 0.861295
0.783444 0.825040 0.883940
0.862699 0.852293 0.917876
0.910338 0.862974 0.916686
0.687556 0.800290 0.863981
0.690089 0.801053 0.864103
0.699733 0.804471 0.864958
0.719783 0.812589 0.868070
0.748653 0.825040 0.873320
0.785519 0.842344 0.882139
0.841581 0.872770 0.905028
0.908415 0.891844 0.924285
0.734035 0.837095 0.878599
0.736233 0.837888 0.878874
0.745937 0.841917 0.880766
0.764736 0.850431 0.885252
0.786465 0.859892 0.889982
0.814115 0.872770 0.897032
0.850065 0.891142 0.908415
0.903441 0.922728 0.931212
