data/fiter_cube/81078425/1022767/file.cube
# Created by Adobe Lightroom plugin Export LUT (1.17.0)
# www.johnrellis.com/lightroom/exportlut.htm
# Preset: 旅拍情绪景观_01 云集视觉
# Color profile: C:\Program Files (x86)\Common Files\Adobe\Color\Profiles\Recommended\AdobeRGB1998.icc
LUT_3D_SIZE 5
DOMAIN_MIN 0.000000 0.000000 0.000000
DOMAIN_MAX 0.903226 0.903226 0.903226
0.106569 0.122438 0.129946
0.189425 0.133303 0.132357
0.597009 0.205051 0.095552
0.893614 0.273381 0.072236
1.000000 0.368170 0.265599
0.122103 0.147250 0.153780
0.173495 0.176303 0.145632
0.614801 0.309270 0.120089
0.895995 0.357549 0.157809
1.000000 0.455116 0.365515
0.178744 0.267521 0.264042
0.254795 0.320836 0.320165
0.594446 0.532097 0.226810
0.890135 0.641108 0.510369
0.976135 0.663020 0.593164
0.404883 0.556512 0.548577
0.463905 0.585870 0.580774
0.575494 0.635981 0.650996
0.849302 0.780880 0.568383
0.942473 0.840543 0.791806
0.695888 0.808957 0.804105
0.719814 0.815793 0.813046
0.780270 0.835386 0.840452
0.816800 0.858885 0.861814
0.935576 0.903288 0.820890
0.117128 0.138247 0.163180
0.168399 0.139406 0.183200
0.524804 0.092287 0.169924
0.855924 0.240940 0.207401
0.995789 0.395727 0.360204
0.126467 0.156710 0.171176
0.166323 0.190311 0.201755
0.557092 0.259037 0.217777
0.862852 0.355291 0.283818
0.989990 0.475410 0.432624
0.175143 0.287144 0.293248
0.260502 0.346044 0.349371
0.552911 0.521080 0.353185
0.865599 0.645808 0.560906
0.965881 0.681941 0.636561
0.404700 0.565789 0.563806
0.465126 0.595300 0.594141
0.593256 0.657038 0.669581
0.836973 0.788113 0.631159
0.936919 0.853086 0.817319
0.691035 0.809995 0.806302
0.715236 0.816587 0.814450
0.784329 0.841001 0.845640
0.824216 0.858518 0.869749
0.933776 0.907164 0.836515
0.124422 0.189548 0.338415
0.217624 0.191409 0.412024
0.529808 0.198123 0.499275
0.824460 0.222141 0.466041
0.973358 0.413519 0.496986
0.151125 0.241642 0.342596
0.223758 0.283421 0.411902
0.520378 0.326116 0.516564
0.813565 0.317784 0.474464
0.969543 0.491707 0.545098
0.194705 0.336858 0.395087
0.273564 0.385962 0.436469
0.493751 0.544457 0.568902
0.810422 0.619715 0.626062
0.949767 0.695888 0.698878
0.386816 0.567346 0.595026
0.440436 0.598230 0.619409
0.603723 0.686824 0.698756
0.809812 0.804807 0.747555
0.928893 0.865995 0.850736
0.673610 0.813107 0.816648
0.698665 0.819791 0.822843
0.766842 0.839689 0.843626
0.831418 0.865324 0.876036
0.927550 0.912749 0.864714
0.281621 0.383307 0.636072
0.360693 0.409186 0.672663
0.589044 0.433692 0.771023
0.803128 0.520317 0.763638
0.935363 0.642176 0.770718
0.303532 0.425238 0.621515
0.378698 0.463325 0.662287
0.579767 0.504753 0.762020
0.794797 0.568841 0.769833
0.931945 0.658503 0.773678
0.355810 0.504326 0.631312
0.403693 0.529595 0.646662
0.559594 0.622736 0.723537
0.774380 0.679896 0.787655
0.927733 0.706294 0.781827
0.439582 0.609796 0.680568
0.477119 0.627466 0.691463
0.591516 0.690517 0.734401
0.759182 0.798764 0.816892
0.921569 0.838804 0.848905
0.665644 0.804776 0.830381
0.685908 0.812741 0.835904
0.746639 0.838560 0.854246
0.828367 0.874083 0.881895
0.921752 0.921752 0.900572
0.601373 0.676295 0.857237
0.633753 0.690394 0.864317
0.705501 0.701472 0.885893
0.834073 0.717586 0.912474
0.913146 0.772366 0.892699
0.592584 0.680568 0.851133
0.631891 0.700984 0.858854
0.708705 0.722438 0.881834
0.831632 0.738643 0.911528
0.911131 0.783627 0.894682
0.605463 0.714595 0.842191
0.620691 0.720302 0.843534
0.707057 0.762387 0.867399
0.817899 0.790494 0.904448
0.909117 0.819638 0.903593
0.661250 0.775265 0.856992
0.671321 0.778531 0.857481
0.710414 0.793881 0.862608
0.796994 0.836149 0.888060
0.909728 0.869627 0.918364
0.734035 0.837095 0.878599
0.742580 0.840482 0.880034
0.774960 0.854856 0.887449
0.822171 0.876738 0.899382
0.903441 0.922728 0.931212
