data/fiter_cube/81078425/1022767/file.cube
# Created by Adobe Lightroom plugin Export LUT (1.17.0)
# www.johnrellis.com/lightroom/exportlut.htm
# Preset: 旅拍情绪景观_01 云集视觉
# Color profile: C:\Program Files (x86)\Common Files\Adobe\Color\Profiles\Recommended\AdobeRGB1998.icc
LUT_3D_SIZE 32
DOMAIN_MIN 0.0 0.0 0.0
DOMAIN_MAX 1.0 1.0 1.0
0.106569 0.122438 0.129946
0.109163 0.122896 0.130007
0.112734 0.123201 0.130282
0.120058 0.124300 0.130892
0.130983 0.125887 0.131563
0.145327 0.127810 0.132082
0.163790 0.130220 0.132509
0.189425 0.133303 0.132357
0.226627 0.138216 0.131655
0.279911 0.145937 0.129458
0.344945 0.156374 0.125429
0.413855 0.168643 0.119509
0.479194 0.180880 0.112306
0.539818 0.193362 0.104402
0.597009 0.205051 0.095552
0.650477 0.216373 0.085695
0.699245 0.226383 0.075807
0.748348 0.237034 0.065309
0.793881 0.247257 0.055238
0.832670 0.256565 0.050385
0.865721 0.265110 0.059754
0.893614 0.273381 0.072236
0.916716 0.281743 0.089937
0.936278 0.290959 0.110719
0.953399 0.300816 0.134279
0.968933 0.312810 0.161013
0.983429 0.327520 0.191684
0.997131 0.345830 0.226658
1.000000 0.368170 0.265599
1.000000 0.395544 0.310033
1.000000 0.427680 0.358404
1.000000 0.463996 0.409735
0.107301 0.123354 0.130739
0.108797 0.124178 0.130648
0.111757 0.124727 0.131044
0.119356 0.126192 0.131655
0.130404 0.127565 0.132143
0.144625 0.129488 0.132662
0.163180 0.131838 0.133089
0.188174 0.135073 0.133120
0.225376 0.140169 0.132235
0.278019 0.147921 0.129946
0.342626 0.158846 0.125917
0.411353 0.171206 0.120058
0.476387 0.183871 0.113130
0.537041 0.196078 0.105348
0.593988 0.207584 0.096498
0.647333 0.218814 0.087160
0.696254 0.229038 0.077089
0.745235 0.239475 0.066987
0.790036 0.249180 0.058991
0.828641 0.258335 0.054994
0.861967 0.266697 0.060487
0.890257 0.274784 0.072389
0.913695 0.282872 0.089204
0.933684 0.291600 0.109468
0.951141 0.301488 0.132540
0.966918 0.313054 0.158633
0.981689 0.327428 0.188876
0.995575 0.345495 0.224186
1.000000 0.367712 0.263340
1.000000 0.394629 0.307347
1.000000 0.426368 0.355444
1.000000 0.462318 0.406683
0.108064 0.124605 0.132204
0.109133 0.125246 0.132815
0.111635 0.126345 0.131472
0.118318 0.128084 0.132753
0.129366 0.130007 0.133364
0.143709 0.131716 0.133883
0.162264 0.134249 0.133791
0.187259 0.137606 0.133791
0.224063 0.142763 0.132937
0.276677 0.150973 0.130770
0.341070 0.162173 0.126619
0.409949 0.175387 0.120668
0.474952 0.187839 0.113802
0.535760 0.200259 0.106020
0.592767 0.212161 0.097353
0.646052 0.222812 0.088258
0.694942 0.232731 0.078767
0.744076 0.243442 0.068391
0.788266 0.252659 0.061494
0.826780 0.261570 0.058320
0.860136 0.269657 0.063233
0.888640 0.277653 0.074189
0.912322 0.285588 0.091096
0.932433 0.294224 0.110933
0.949981 0.303746 0.133730
0.965820 0.315190 0.160037
0.980682 0.329534 0.190188
0.994659 0.347448 0.225193
1.000000 0.369238 0.263920
1.000000 0.395941 0.307744
1.000000 0.427527 0.356054
1.000000 0.463172 0.406928
0.110201 0.127779 0.135164
0.111635 0.128725 0.136080
0.112276 0.128817 0.136568
0.118044 0.131563 0.133516
0.128115 0.133913 0.135317
0.142336 0.136324 0.135744
0.161196 0.139132 0.135805
0.186587 0.142794 0.135592
0.223697 0.148867 0.134463
0.276616 0.158297 0.132174
0.341222 0.170535 0.127840
0.410163 0.184390 0.121767
0.474983 0.197543 0.114809
0.535363 0.209689 0.107546
0.592401 0.221103 0.099275
0.645502 0.231785 0.090333
0.694392 0.241642 0.081361
0.743679 0.251896 0.072114
0.786557 0.260594 0.066468
0.824308 0.268528 0.064881
0.857359 0.276341 0.069001
0.885954 0.284123 0.079377
0.910063 0.291691 0.095888
0.930632 0.300114 0.116060
0.948760 0.309880 0.138918
0.965057 0.321630 0.166049
0.980102 0.336187 0.196963
0.994141 0.354253 0.232517
1.000000 0.376226 0.271733
1.000000 0.402625 0.314977
1.000000 0.433326 0.361761
1.000000 0.467964 0.411292
0.112764 0.131533 0.138827
0.113954 0.132296 0.139559
0.115236 0.133394 0.140749
0.116091 0.133822 0.141024
0.126131 0.138216 0.136019
0.140780 0.141512 0.137697
0.158877 0.145998 0.139101
0.184756 0.150454 0.138338
0.222202 0.157717 0.137087
0.275486 0.168673 0.134585
0.340581 0.182681 0.129854
0.409491 0.197818 0.123964
0.474617 0.211307 0.117311
0.535210 0.223911 0.109773
0.592554 0.235203 0.101717
0.646235 0.246098 0.093202
0.695491 0.255406 0.085023
0.745327 0.265232 0.077302
0.787594 0.273503 0.072724
0.824582 0.280766 0.073091
0.857084 0.287999 0.078401
0.885283 0.295262 0.089662
0.909178 0.302434 0.105989
0.929747 0.310643 0.126101
0.947814 0.319982 0.149447
0.964080 0.331670 0.176974
0.979034 0.346441 0.208316
0.993011 0.364141 0.242985
1.000000 0.385931 0.281559
1.000000 0.411810 0.324041
1.000000 0.441840 0.370031
1.000000 0.475624 0.418494
0.115206 0.135897 0.142947
0.116426 0.136416 0.143679
0.117922 0.137453 0.144686
0.119875 0.138216 0.145968
0.120790 0.141115 0.144961
0.137118 0.146975 0.138643
0.157961 0.152316 0.140200
0.183413 0.160678 0.142763
0.222293 0.169833 0.141115
0.276860 0.183169 0.138094
0.343084 0.199588 0.133272
0.412482 0.216037 0.127047
0.477668 0.230442 0.120333
0.538384 0.243107 0.113100
0.595880 0.254368 0.105226
0.649439 0.264561 0.097749
0.700343 0.273960 0.090852
0.748928 0.283146 0.084718
0.790341 0.290471 0.082521
0.826871 0.297429 0.085054
0.858915 0.303929 0.092439
0.886748 0.310704 0.105043
0.927520 0.328527 0.145968
0.945068 0.337957 0.170138
0.960540 0.349126 0.196750
0.974548 0.362493 0.226322
0.987549 0.378698 0.258061
0.999695 0.397681 0.292180
1.000000 0.420142 0.329686
1.000000 0.446174 0.370397
1.000000 0.474891 0.412512
1.000000 0.506188 0.456153
0.118532 0.141299 0.148074
0.119478 0.141848 0.148623
0.121157 0.142794 0.149691
0.124300 0.144991 0.152285
0.125826 0.145083 0.153292
0.129000 0.151827 0.149722
0.153353 0.159823 0.142061
0.185550 0.170047 0.143038
0.228092 0.186130 0.145296
0.289281 0.206577 0.143404
0.358923 0.226139 0.137850
0.429633 0.244511 0.131106
0.494270 0.259007 0.124361
0.554131 0.270939 0.117403
0.610437 0.281407 0.110536
0.662135 0.290471 0.104097
0.715053 0.300114 0.098482
0.761898 0.308263 0.096010
0.802029 0.314794 0.097688
0.837705 0.321141 0.104097
0.869474 0.327733 0.116091
0.897124 0.334936 0.133486
0.920409 0.343481 0.156283
0.940124 0.353460 0.183139
0.957031 0.365606 0.212741
0.971740 0.379492 0.243198
0.984985 0.395636 0.275273
0.997131 0.414405 0.309575
1.000000 0.436042 0.345953
1.000000 0.460517 0.384344
1.000000 0.487739 0.424598
1.000000 0.517601 0.466560
0.122103 0.147250 0.153780
0.122957 0.147951 0.154421
0.124392 0.148867 0.155337
0.127810 0.151064 0.157931
0.130892 0.152651 0.159976
0.133150 0.152895 0.161837
0.140078 0.165194 0.154940
0.173495 0.176303 0.145632
0.222934 0.194949 0.145602
0.285039 0.221378 0.146853
0.362005 0.252018 0.146273
0.433509 0.271946 0.139040
0.498421 0.286961 0.132570
0.558679 0.299046 0.126040
0.614801 0.309270 0.120089
0.668879 0.318608 0.114992
0.720455 0.327276 0.112154
0.765072 0.333898 0.112703
0.803677 0.339513 0.116396
0.838254 0.344884 0.125063
0.869139 0.350805 0.138949
0.895995 0.357549 0.157809
0.918730 0.365881 0.181247
0.938018 0.375952 0.208011
0.954650 0.387518 0.236484
0.969116 0.401129 0.266941
0.982147 0.416632 0.297978
0.994232 0.434485 0.330541
1.000000 0.455116 0.365515
1.000000 0.478096 0.401801
1.000000 0.503899 0.440314
1.000000 0.532403 0.480842
0.126558 0.154757 0.160861
0.127352 0.155428 0.161624
0.128817 0.156405 0.162753
0.132113 0.158633 0.165072
0.137606 0.162234 0.169253
0.139681 0.162661 0.170352
0.141482 0.165438 0.171237
0.156191 0.183627 0.161410
0.204379 0.201450 0.149111
0.278233 0.233463 0.146822
0.355261 0.267582 0.147189
0.437049 0.301732 0.149020
0.505303 0.320714 0.145327
0.565637 0.332341 0.139986
0.622675 0.342565 0.135714
0.678431 0.352239 0.133303
0.727413 0.359197 0.133608
0.770169 0.364843 0.136446
0.807218 0.369299 0.142885
0.840482 0.373877 0.154055
0.870298 0.379278 0.169223
0.896025 0.385718 0.189334
0.917876 0.393805 0.213596
0.936461 0.403449 0.240116
0.952514 0.414862 0.268437
0.966674 0.427619 0.296910
0.979461 0.442237 0.326421
0.991272 0.459022 0.357366
1.000000 0.478126 0.389899
1.000000 0.499275 0.423743
1.000000 0.523125 0.459541
1.000000 0.549981 0.498054
0.131777 0.164004 0.169619
0.132723 0.164736 0.170321
0.134157 0.165682 0.171389
0.137575 0.168002 0.173770
0.142855 0.171908 0.177951
0.147921 0.174502 0.181369
0.150973 0.174960 0.183536
0.153292 0.184634 0.181277
0.181369 0.211215 0.168612
0.250126 0.239139 0.151980
0.345190 0.281651 0.146578
0.426520 0.317052 0.148196
0.503807 0.348241 0.155306
0.573205 0.371160 0.163241
0.634577 0.383032 0.161654
0.688563 0.391424 0.162570
0.736355 0.397406 0.165713
0.777401 0.401465 0.171664
0.812924 0.405097 0.180514
0.844388 0.408698 0.193576
0.872190 0.413458 0.209903
0.896117 0.419013 0.229282
0.916472 0.425788 0.252201
0.934020 0.434363 0.276555
0.949432 0.444556 0.302617
0.963195 0.456214 0.329229
0.975830 0.469886 0.357092
0.987640 0.485389 0.385901
0.998535 0.503136 0.416510
1.000000 0.522972 0.448280
1.000000 0.545678 0.482826
1.000000 0.571283 0.519677
0.137758 0.175051 0.179965
0.138766 0.175845 0.180850
0.140230 0.176944 0.181918
0.143709 0.179599 0.184360
0.149416 0.183719 0.188754
0.157595 0.190005 0.195651
0.161563 0.190738 0.197574
0.166293 0.191531 0.201663
0.172091 0.213291 0.193790
0.220768 0.253056 0.176150
0.310185 0.289342 0.153689
0.416144 0.334295 0.146700
0.495155 0.367102 0.153872
0.572717 0.398505 0.171389
0.644160 0.428473 0.202487
0.696681 0.436194 0.206973
0.742580 0.440528 0.211673
0.781857 0.443214 0.218601
0.815824 0.445289 0.228031
0.846006 0.448005 0.240604
0.872496 0.451667 0.256992
0.895293 0.456336 0.275975
0.914855 0.462654 0.297581
0.931762 0.470375 0.320439
0.946654 0.479469 0.344091
0.960021 0.489754 0.368200
0.972351 0.501427 0.392737
0.983886 0.515068 0.418677
0.994598 0.530632 0.445960
1.000000 0.548547 0.475074
1.000000 0.569360 0.507042
1.000000 0.593317 0.541955
0.144778 0.189517 0.193301
0.145998 0.190402 0.194308
0.147646 0.191745 0.195499
0.151217 0.194705 0.198306
0.157534 0.199588 0.203067
0.166781 0.206699 0.210483
0.175265 0.211795 0.216648
0.180972 0.213046 0.220157
0.187778 0.214481 0.227207
0.202853 0.256779 0.209964
0.275517 0.309819 0.185428
0.381720 0.349187 0.155398
0.516136 0.409979 0.155734
0.595880 0.442084 0.181186
0.666896 0.471504 0.222477
0.727718 0.499428 0.274632
0.772732 0.511711 0.302342
0.807095 0.510735 0.307652
0.836179 0.509514 0.315312
0.861692 0.509300 0.325994
0.883757 0.510399 0.339269
0.902800 0.512932 0.354742
0.919463 0.516594 0.371008
0.934264 0.521721 0.388952
0.947662 0.528161 0.407416
0.959960 0.536034 0.426612
0.971496 0.545098 0.446387
0.982300 0.556054 0.467659
0.992218 0.569177 0.490822
1.000000 0.584771 0.516503
1.000000 0.603296 0.545129
1.000000 0.624994 0.576898
0.154665 0.211643 0.213474
0.156069 0.212741 0.214420
0.157809 0.214176 0.215732
0.162051 0.217563 0.218936
0.169131 0.223087 0.224155
0.179629 0.231205 0.232334
0.194491 0.242313 0.244358
0.201755 0.243900 0.247898
0.210391 0.246006 0.254704
0.216861 0.261234 0.257908
0.253483 0.322271 0.236118
0.354314 0.389593 0.204349
0.470069 0.423804 0.166934
0.578759 0.459846 0.174594
0.652766 0.489418 0.215640
0.715846 0.516289 0.268009
0.767056 0.541436 0.324773
0.806271 0.561364 0.373327
0.834440 0.558190 0.377691
0.859068 0.555932 0.384833
0.880369 0.554986 0.394507
0.898924 0.555383 0.406134
0.915129 0.557061 0.419287
0.929625 0.560113 0.433661
0.942840 0.564569 0.448859
0.955077 0.570367 0.464790
0.966461 0.577630 0.482002
0.977173 0.586755 0.500664
0.987060 0.598077 0.521416
0.995880 0.612207 0.545281
1.000000 0.629084 0.571801
1.000000 0.648890 0.601190
0.165164 0.236332 0.235782
0.166720 0.237736 0.237034
0.168826 0.239322 0.238407
0.173556 0.243168 0.242008
0.181491 0.249302 0.247837
0.193545 0.258152 0.256596
0.210483 0.270359 0.269749
0.224949 0.278355 0.279606
0.235416 0.281865 0.286442
0.248814 0.287175 0.299290
0.259342 0.325444 0.297154
0.314855 0.393927 0.271366
0.423713 0.457221 0.233310
0.535363 0.480140 0.190433
0.637354 0.508293 0.207492
0.702785 0.534081 0.259739
0.755886 0.557031 0.316533
0.797879 0.578882 0.373510
0.831052 0.600000 0.426886
0.855894 0.602564 0.442969
0.876677 0.599939 0.449714
0.894774 0.598474 0.458320
0.910613 0.598413 0.468605
0.924926 0.599817 0.480171
0.938018 0.602380 0.492317
0.950042 0.606561 0.505974
0.961334 0.612116 0.520500
0.971923 0.619562 0.536767
0.981598 0.629480 0.555749
0.990326 0.641810 0.576989
0.997711 0.656855 0.601190
1.000000 0.674678 0.628016
0.178744 0.267521 0.264042
0.180545 0.269139 0.265446
0.182986 0.270756 0.267002
0.188571 0.274784 0.270878
0.197818 0.281254 0.277165
0.211398 0.290623 0.286656
0.230533 0.304173 0.301091
0.254795 0.320836 0.320165
0.266575 0.325170 0.326909
0.280308 0.330510 0.337530
0.295750 0.336736 0.353491
0.310735 0.394354 0.341161
0.376715 0.459937 0.313176
0.487526 0.517571 0.272190
0.594446 0.532097 0.226810
0.687739 0.552270 0.249760
0.744442 0.574426 0.307988
0.788632 0.593927 0.365606
0.823667 0.613123 0.420020
0.851438 0.632380 0.471015
0.872587 0.644038 0.504326
0.890135 0.641108 0.510369
0.905699 0.639399 0.517662
0.919768 0.639307 0.526696
0.932677 0.640497 0.536797
0.944671 0.643336 0.548180
0.955901 0.647883 0.561303
0.966400 0.654475 0.576287
0.976135 0.663020 0.593164
0.984741 0.674250 0.612970
0.992065 0.687800 0.635004
0.997528 0.704158 0.659968
0.198611 0.306157 0.299931
0.200931 0.307988 0.301671
0.203861 0.310094 0.303655
0.210758 0.314733 0.308232
0.221836 0.322026 0.315465
0.237278 0.332250 0.326177
0.257389 0.345342 0.340276
0.282506 0.361761 0.358984
0.302770 0.372778 0.372961
0.316167 0.377630 0.381689
0.330785 0.382879 0.394141
0.344823 0.393164 0.408148
0.365423 0.459297 0.387610
0.435523 0.518669 0.357641
0.545525 0.571099 0.314916
0.644587 0.576928 0.269352
0.729244 0.590448 0.294377
0.777859 0.609674 0.355077
0.815763 0.627283 0.412146
0.845731 0.645106 0.465064
0.868559 0.663386 0.514855
0.885832 0.683009 0.562585
0.901061 0.681849 0.570581
0.914885 0.680507 0.577173
0.927581 0.680598 0.585199
0.939391 0.682155 0.594415
0.950500 0.685237 0.604974
0.960845 0.690089 0.617334
0.970336 0.696986 0.631678
0.978820 0.705898 0.648127
0.985992 0.717189 0.667079
0.991455 0.731044 0.688685
0.224552 0.348547 0.340520
0.226871 0.349981 0.341802
0.230106 0.351812 0.343725
0.237186 0.356176 0.347997
0.248600 0.362768 0.354864
0.264073 0.372015 0.364569
0.284062 0.383825 0.377600
0.308446 0.398230 0.394385
0.336187 0.414771 0.414984
0.348638 0.418860 0.421607
0.362005 0.423468 0.431159
0.376654 0.428595 0.444526
0.386786 0.454627 0.449470
0.416907 0.516045 0.429389
0.490608 0.571557 0.400305
0.598047 0.618830 0.359045
0.688808 0.617914 0.316442
0.764675 0.625360 0.341650
0.806607 0.642237 0.401892
0.838743 0.657862 0.456306
0.863249 0.674220 0.507805
0.881834 0.691737 0.556451
0.896239 0.710353 0.601312
0.909117 0.718318 0.623651
0.921721 0.717250 0.629297
0.933501 0.717647 0.636347
0.944549 0.719448 0.644739
0.954803 0.723018 0.655055
0.964202 0.728359 0.667109
0.972595 0.735714 0.681270
0.979736 0.745174 0.697719
0.985290 0.756863 0.716457
0.254978 0.391394 0.382177
0.257969 0.393164 0.384009
0.274723 0.411078 0.402014
0.282048 0.414862 0.405951
0.293706 0.420478 0.412116
0.308965 0.428168 0.420661
0.328222 0.437812 0.431891
0.350561 0.449561 0.446021
0.376196 0.463844 0.463661
0.395117 0.473365 0.476173
0.407111 0.477058 0.483253
0.419837 0.481270 0.492927
0.433173 0.485298 0.505455
0.441901 0.524712 0.501396
0.479561 0.582055 0.481209
0.554376 0.631922 0.453590
0.658076 0.673457 0.415320
0.738430 0.664729 0.378180
0.802731 0.665003 0.401495
0.836423 0.678553 0.458320
0.861326 0.691798 0.509911
0.880186 0.706783 0.559075
0.894896 0.723232 0.604334
0.906767 0.740383 0.644862
0.916930 0.755184 0.676936
0.928191 0.753811 0.680690
0.938842 0.753506 0.685481
0.948821 0.754910 0.692256
0.958038 0.758328 0.701320
0.966369 0.763790 0.712642
0.973571 0.771145 0.726162
0.979248 0.780514 0.741756
0.293187 0.436744 0.427680
0.297551 0.440070 0.431098
0.302800 0.443702 0.434943
0.311650 0.448951 0.440528
0.323827 0.455329 0.447517
0.338659 0.462745 0.455848
0.356176 0.471473 0.466011
0.376410 0.481971 0.478309
0.399634 0.494636 0.493538
0.424933 0.509026 0.511528
0.435981 0.512444 0.517144
0.447852 0.516167 0.524743
0.460243 0.520012 0.534752
0.472572 0.523766 0.546960
0.483284 0.576104 0.535637
0.526146 0.628595 0.515770
0.600916 0.673548 0.489326
0.699611 0.709804 0.454200
0.770565 0.695888 0.422034
0.826841 0.692042 0.444038
0.854734 0.703883 0.498909
0.875395 0.716945 0.550561
0.891325 0.731624 0.597772
0.904021 0.747555 0.640436
0.914458 0.763912 0.678187
0.923461 0.779995 0.710994
0.933288 0.783658 0.721584
0.943084 0.784085 0.726467
0.952209 0.786069 0.733181
0.960449 0.789761 0.741939
0.967651 0.795285 0.752712
0.973419 0.802640 0.765652
0.327733 0.474067 0.465644
0.331884 0.477119 0.468910
0.336858 0.480568 0.472511
0.344823 0.485176 0.477424
0.355749 0.490944 0.483711
0.369055 0.497536 0.491035
0.384771 0.505303 0.499855
0.403174 0.514641 0.510704
0.424384 0.525994 0.524071
0.448035 0.539300 0.540215
0.465827 0.548119 0.551598
0.477089 0.551781 0.557977
0.488716 0.555322 0.565972
0.501122 0.558923 0.576562
0.510765 0.570886 0.584680
0.526696 0.625422 0.570397
0.572900 0.672969 0.551263
0.646113 0.712795 0.526360
0.738705 0.743709 0.494484
0.799741 0.725307 0.466896
0.847868 0.717708 0.487312
0.870420 0.728481 0.541192
0.887663 0.741268 0.590875
0.901213 0.755581 0.635492
0.912322 0.770657 0.674769
0.921782 0.785824 0.708797
0.929961 0.800443 0.738186
0.937865 0.809934 0.756985
0.946777 0.810666 0.761624
0.954925 0.812955 0.768124
0.962036 0.816892 0.776608
0.967895 0.822385 0.786984
0.362554 0.511070 0.503166
0.366247 0.513939 0.506065
0.370886 0.517113 0.509422
0.378058 0.521416 0.513909
0.387945 0.526665 0.519585
0.399969 0.532586 0.526146
0.414313 0.539544 0.533959
0.431006 0.547997 0.543603
0.450416 0.558190 0.555352
0.472358 0.570092 0.569543
0.496529 0.583490 0.586175
0.507042 0.586572 0.591302
0.517967 0.589807 0.597894
0.529351 0.593286 0.606256
0.541405 0.596796 0.616938
0.549371 0.622278 0.619043
0.571923 0.672724 0.606348
0.620600 0.715969 0.589715
0.690852 0.750851 0.568536
0.776699 0.777188 0.541405
0.827970 0.755673 0.519280
0.867948 0.745846 0.539757
0.885832 0.756161 0.591547
0.900145 0.769039 0.638544
0.911803 0.783017 0.679561
0.921599 0.797208 0.714595
0.929992 0.810941 0.744503
0.937163 0.823789 0.769833
0.943206 0.835782 0.791653
0.950622 0.837766 0.797482
0.957397 0.840116 0.803525
0.962951 0.843778 0.811215
0.404883 0.556512 0.548577
0.407507 0.558251 0.550439
0.410529 0.560052 0.552239
0.416236 0.563012 0.555413
0.424414 0.567071 0.559777
0.435157 0.572015 0.565179
0.448096 0.578210 0.572076
0.463905 0.585870 0.580774
0.482368 0.595117 0.591577
0.503410 0.606012 0.604547
0.526513 0.618463 0.619745
0.543420 0.626368 0.630091
0.553735 0.629541 0.635584
0.564477 0.632746 0.642481
0.575494 0.635981 0.650996
0.586786 0.639399 0.661372
0.594751 0.675654 0.658045
0.620905 0.720089 0.646387
0.667964 0.756527 0.631556
0.732082 0.785000 0.612512
0.807218 0.804623 0.588586
0.849302 0.780880 0.568383
0.882719 0.769284 0.585107
0.897002 0.778439 0.631830
0.909331 0.790585 0.674525
0.919768 0.803647 0.711360
0.928649 0.816587 0.742611
0.936187 0.828977 0.769162
0.942473 0.840543 0.791806
0.947631 0.851072 0.811093
0.952941 0.856657 0.821958
0.958434 0.858915 0.827634
0.440406 0.594293 0.586053
0.442878 0.595911 0.587732
0.445991 0.597711 0.589593
0.451270 0.600427 0.592432
0.458930 0.603937 0.596216
0.468635 0.608179 0.600977
0.480690 0.613428 0.606958
0.495125 0.619928 0.614435
0.512047 0.627893 0.623835
0.531304 0.637324 0.635065
0.552483 0.648219 0.648249
0.574762 0.659998 0.662959
0.584405 0.662959 0.667536
0.594537 0.666072 0.673396
0.604974 0.669276 0.680476
0.616022 0.672572 0.689357
0.626795 0.676265 0.699367
0.636194 0.720638 0.692103
0.664149 0.758724 0.682063
0.708675 0.789242 0.669337
0.766110 0.812314 0.653010
0.830411 0.826017 0.632502
0.866423 0.803281 0.615320
0.895537 0.791775 0.629358
0.906249 0.797696 0.666163
0.917388 0.809384 0.705165
0.926818 0.821622 0.738582
0.934844 0.833433 0.766567
0.941527 0.844541 0.790219
0.946960 0.854826 0.810422
0.951171 0.864164 0.827726
0.954345 0.871794 0.841581
0.484962 0.638300 0.629969
0.487556 0.639948 0.631647
0.490272 0.641413 0.633204
0.494789 0.643366 0.635401
0.501366 0.645991 0.638331
0.509819 0.649287 0.642023
0.520348 0.653376 0.646784
0.532830 0.658442 0.652766
0.547570 0.664668 0.660212
0.564294 0.672206 0.669184
0.582727 0.680903 0.679866
0.602838 0.690700 0.692195
0.617304 0.696834 0.700496
0.626032 0.699092 0.704738
0.634852 0.701198 0.709865
0.643977 0.703548 0.716152
0.653681 0.706020 0.724086
0.661311 0.718746 0.729305
0.673732 0.757839 0.722133
0.701717 0.789944 0.713436
0.742519 0.815000 0.702846
0.793210 0.833402 0.688808
0.848020 0.842863 0.670710
0.879545 0.821622 0.654627
0.905455 0.810056 0.664668
0.915465 0.817502 0.701320
0.925444 0.828336 0.735927
0.933806 0.839200 0.765011
0.940764 0.849607 0.789548
0.946441 0.859373 0.810422
0.950835 0.868223 0.828153
0.953826 0.876219 0.843381
0.522545 0.673701 0.665309
0.524956 0.675257 0.666926
0.527550 0.676600 0.668330
0.531731 0.678340 0.670253
0.537621 0.680598 0.672786
0.545403 0.683528 0.676143
0.555047 0.687221 0.680415
0.566613 0.691707 0.685756
0.580255 0.697292 0.692409
0.595789 0.703944 0.700496
0.612909 0.711482 0.709865
0.631617 0.720089 0.720729
0.650660 0.729213 0.732570
0.658717 0.731411 0.736172
0.666957 0.733547 0.740475
0.675349 0.735836 0.745724
0.684169 0.738338 0.752132
0.693385 0.741176 0.759884
0.699977 0.761868 0.761379
0.714290 0.794095 0.755612
0.740200 0.819638 0.748379
0.775540 0.839017 0.739071
0.818845 0.853391 0.726925
0.864958 0.859739 0.711177
0.892638 0.841093 0.696773
0.915984 0.830259 0.703578
0.924407 0.836728 0.734829
0.933165 0.846586 0.765255
0.940429 0.856260 0.790799
0.946258 0.865354 0.812222
0.950713 0.873625 0.830228
0.953735 0.881163 0.845701
0.564050 0.710658 0.702327
0.566094 0.711727 0.703456
0.568048 0.712581 0.704433
0.571527 0.713771 0.705776
0.576440 0.715358 0.707668
0.583185 0.717525 0.710292
0.591669 0.720333 0.713680
0.601923 0.723934 0.718105
0.614160 0.728420 0.723690
0.628016 0.733974 0.730556
0.643488 0.740352 0.738552
0.660090 0.747677 0.747829
0.677455 0.755612 0.758053
0.689601 0.760555 0.764797
0.696925 0.762509 0.768307
0.704372 0.764492 0.772488
0.712062 0.766659 0.777462
0.720241 0.769039 0.783658
0.728573 0.772030 0.790768
0.734524 0.797116 0.789120
0.748959 0.822721 0.784176
0.772000 0.842649 0.777890
0.802518 0.858091 0.769711
0.840208 0.869932 0.758938
0.879515 0.874296 0.745174
0.904204 0.858122 0.732265
0.925231 0.847929 0.736507
0.932250 0.853300 0.762966
0.939696 0.861875 0.789395
0.945800 0.870329 0.811734
0.950408 0.878080 0.830381
0.953582 0.885161 0.846372
0.604608 0.743496 0.735805
0.606226 0.744259 0.736660
0.607996 0.744930 0.737453
0.611078 0.745968 0.738674
0.615930 0.747555 0.740566
0.622553 0.749813 0.743282
0.631159 0.753017 0.747127
0.641566 0.757015 0.751888
0.653712 0.761929 0.757809
0.667384 0.767605 0.764706
0.682033 0.773892 0.772396
0.697536 0.780697 0.780911
0.713313 0.787778 0.789914
0.728725 0.794797 0.799100
0.735500 0.796933 0.802304
0.742031 0.798764 0.805661
0.748592 0.800656 0.809537
0.755276 0.802701 0.814084
0.762570 0.805051 0.819669
0.769162 0.808988 0.825101
0.774502 0.832578 0.821714
0.787167 0.851499 0.817472
0.806363 0.866728 0.812009
0.831968 0.879026 0.804868
0.863890 0.888762 0.795499
0.896422 0.891722 0.784115
0.917632 0.878141 0.773220
0.935393 0.868559 0.774990
0.940734 0.872496 0.795956
0.946380 0.879057 0.817075
0.950835 0.885710 0.835416
0.953735 0.891905 0.851194
0.656092 0.781613 0.775357
0.657343 0.782101 0.775906
0.658503 0.782376 0.776303
0.660822 0.783017 0.777096
0.664515 0.784024 0.778347
0.669551 0.785428 0.780148
0.676112 0.787442 0.782742
0.684138 0.790036 0.786038
0.693568 0.793301 0.790127
0.704280 0.797147 0.795041
0.715785 0.801450 0.800565
0.728084 0.806241 0.806790
0.740780 0.811337 0.813504
0.753567 0.816709 0.820615
