data/fiter_cube/87192323/1023450/file.cube
# Created by Adobe Lightroom plugin Export LUT (1.17.0)
# www.johnrellis.com/lightroom/exportlut.htm
# Preset: 日系清新自然_01 云集
# Color profile: C:\Program Files (x86)\Common Files\Adobe\Color\Profiles\Recommended\AdobeRGB1998.icc
LUT_3D_SIZE 8
DOMAIN_MIN 0.000000 0.000000 0.000000
DOMAIN_MAX 0.903226 0.903226 0.903226
0.000000 0.000000 0.000000
0.162020 0.008270 0.000000
0.346715 0.050599 0.000000
0.536187 0.084108 0.000000
0.714137 0.107515 0.000000
0.855406 0.123293 0.000000
0.965820 0.130770 0.000000
1.000000 0.123445 0.000000
0.000000 0.158328 0.074769
0.152529 0.172335 0.000000
0.355993 0.176638 0.000000
0.542962 0.187900 0.000000
0.717403 0.195468 0.000000
0.854490 0.196170 0.000000
0.963226 0.192447 0.000000
1.000000 0.180240 0.000000
0.000000 0.343542 0.152255
0.000000 0.346441 0.104036
0.324285 0.365789 0.000000
0.564446 0.374762 0.000000
0.751186 0.367742 0.000000
0.875761 0.347112 0.000000
0.978515 0.326635 0.000000
1.000000 0.301427 0.000000
0.000000 0.534874 0.245762
0.000000 0.539300 0.222080
0.244511 0.551568 0.222721
0.517906 0.579278 0.000000
0.741939 0.556542 0.000000
0.909911 0.524681 0.000000
0.993744 0.478676 0.000000
1.000000 0.436530 0.000000
0.000000 0.716152 0.339300
0.000000 0.719875 0.324926
0.157595 0.733242 0.276310
0.419593 0.746914 0.277623
0.670863 0.739895 0.000000
0.848600 0.676631 0.000000
0.987762 0.635615 0.000000
1.000000 0.576623 0.000000
0.000000 0.843259 0.418952
0.000000 0.848356 0.413550
0.195163 0.855131 0.389471
0.392767 0.861723 0.413153
0.560082 0.866545 0.329717
0.785092 0.853696 0.000000
0.945220 0.778134 0.000000
1.000000 0.722896 0.000000
0.130404 0.940246 0.495521
0.172946 0.941527 0.492592
0.268132 0.943420 0.481727
0.386755 0.946532 0.476814
0.572564 0.942046 0.558282
0.670192 0.949401 0.377417
0.873075 0.937255 0.000000
1.000000 0.857725 0.000000
0.269566 1.000000 0.566064
0.289311 1.000000 0.564599
0.351446 1.000000 0.561852
0.441047 1.000000 0.563745
0.557092 1.000000 0.591821
0.667201 1.000000 0.605463
0.752163 1.000000 0.400000
0.938872 0.998230 0.000000
0.000000 0.000000 0.166415
0.153994 0.000000 0.164309
0.323827 0.000000 0.142184
0.502739 0.003418 0.129549
0.688991 0.071931 0.110903
0.835813 0.109499 0.092103
0.952087 0.128359 0.064515
1.000000 0.125734 0.000000
0.000000 0.156741 0.160433
0.146731 0.160769 0.157992
0.326909 0.158602 0.144289
0.514397 0.167514 0.129885
0.696651 0.179019 0.109377
0.838743 0.188357 0.091585
0.951232 0.190494 0.062226
1.000000 0.180941 0.000000
0.000000 0.336522 0.210025
0.134615 0.335882 0.210025
0.315312 0.353826 0.138857
0.554559 0.362524 0.129488
0.730159 0.356695 0.111208
0.858793 0.341588 0.097017
0.963928 0.324529 0.073884
1.000000 0.302495 0.000000
0.000000 0.520104 0.288762
0.097871 0.523919 0.282444
0.259220 0.542351 0.268345
0.502464 0.561089 0.095094
0.724666 0.541619 0.016724
0.889158 0.516716 0.118563
0.979736 0.476265 0.099428
1.000000 0.437568 0.000000
0.000000 0.705806 0.378241
0.000000 0.709163 0.366308
0.211185 0.722377 0.328069
0.424414 0.735195 0.331731
0.660273 0.728084 0.000000
0.840940 0.670192 0.000000
0.982422 0.634241 0.093965
1.000000 0.578973 0.088197
0.000000 0.834836 0.446662
0.108858 0.837278 0.440162
0.235233 0.844999 0.419501
0.403357 0.854398 0.435065
0.565118 0.861021 0.376989
0.782559 0.850248 0.000000
0.942626 0.776242 0.000000
1.000000 0.722683 0.000000
0.184756 0.933654 0.515526
0.212802 0.933989 0.511498
0.295598 0.936767 0.502678
0.407630 0.941436 0.500511
0.581628 0.939117 0.574243
0.675380 0.946014 0.418769
0.870573 0.933928 0.000000
1.000000 0.854978 0.000000
0.297398 1.000000 0.582635
0.316320 1.000000 0.581811
0.374029 1.000000 0.579614
0.459632 1.000000 0.582177
0.572839 1.000000 0.610864
0.681117 0.999176 0.630518
0.757961 1.000000 0.439490
0.938598 0.997101 0.000000
0.000000 0.000000 0.338323
0.135805 0.000000 0.336858
0.312078 0.000000 0.331060
0.477333 0.000000 0.320958
0.654994 0.000000 0.289372
0.802518 0.057343 0.278325
0.933898 0.146059 0.277073
1.000000 0.164187 0.261906
0.000000 0.170626 0.333867
0.115206 0.153140 0.332586
0.307744 0.147250 0.326940
0.474891 0.130434 0.313634
0.654078 0.016419 0.276951
0.805081 0.174655 0.283268
0.934386 0.203128 0.278508
1.000000 0.209659 0.262608
0.000000 0.314214 0.319921
0.088869 0.316320 0.319768
0.293889 0.321477 0.314641
0.487404 0.322393 0.306737
0.681575 0.332006 0.304387
0.828397 0.337438 0.300389
0.945830 0.335912 0.291875
1.000000 0.322881 0.271916
0.000000 0.500999 0.365576
0.000000 0.504417 0.366003
0.299657 0.514519 0.374640
0.487098 0.539330 0.313695
0.722621 0.538354 0.326177
0.863340 0.518700 0.335180
0.964569 0.490578 0.319890
1.000000 0.457740 0.292546
0.000000 0.688380 0.433967
0.000000 0.690303 0.436774
0.305699 0.698573 0.445747
0.465492 0.722377 0.471168
0.655756 0.718837 0.309789
0.841154 0.670893 0.289494
0.979095 0.648615 0.353033
1.000000 0.598352 0.325170
0.000000 0.824125 0.495705
0.161257 0.824857 0.502159
0.334173 0.829465 0.512902
0.445838 0.843473 0.508232
0.595941 0.851621 0.510887
0.779477 0.843015 0.313146
0.940032 0.776028 0.257511
1.000000 0.731624 0.307103
0.222751 0.928557 0.564141
0.289677 0.927611 0.573327
0.386358 0.928740 0.579400
0.477852 0.933806 0.578943
0.613977 0.935241 0.626398
0.702358 0.941375 0.540978
0.873686 0.932860 0.305364
1.000000 0.856992 0.185306
0.357031 1.000000 0.632013
0.394385 1.000000 0.639582
0.441596 1.000000 0.637415
0.518242 1.000000 0.641505
0.605280 1.000000 0.654505
0.720485 0.994354 0.699031
0.780056 1.000000 0.551446
0.941527 0.996246 0.232364
0.000000 0.000000 0.500725
0.083131 0.000000 0.500542
0.298619 0.000000 0.495857
0.465126 0.000000 0.488808
0.624201 0.000000 0.478920
0.778836 0.000000 0.452613
0.909667 0.000000 0.414923
1.000000 0.000000 0.382544
0.000000 0.152132 0.500145
0.004425 0.149630 0.499062
0.292271 0.139742 0.494453
0.463661 0.121981 0.487678
0.623377 0.107637 0.476844
0.777768 0.056153 0.448676
0.908263 0.034577 0.411872
1.000000 0.185367 0.398688
0.000000 0.334051 0.488838
0.000000 0.333501 0.488808
0.264866 0.308446 0.486061
0.456550 0.301610 0.481056
0.625971 0.297368 0.469154
0.781491 0.288792 0.441749
0.910643 0.326421 0.432380
1.000000 0.354528 0.431525
0.000000 0.464271 0.471107
0.000000 0.466072 0.471443
0.240757 0.471839 0.471839
0.442847 0.480751 0.469062
0.641840 0.492042 0.473793
0.799405 0.502373 0.478859
0.926543 0.505150 0.477821
1.000000 0.491524 0.461341
0.000000 0.641627 0.508263
0.000000 0.645716 0.509300
0.202976 0.661524 0.515892
0.475807 0.675441 0.544518
0.637263 0.691249 0.493202
0.831998 0.684535 0.522118
0.952514 0.675898 0.543816
1.000000 0.635889 0.509117
0.000000 0.807004 0.558556
0.000000 0.810300 0.562280
0.281712 0.811887 0.573877
0.511070 0.818326 0.611902
0.650965 0.839506 0.656794
0.777676 0.833036 0.510826
0.935729 0.784665 0.482002
1.000000 0.763485 0.539849
0.000000 0.921263 0.604211
0.155062 0.921386 0.609583
0.375067 0.920500 0.633814
0.548577 0.922087 0.669886
0.647395 0.931121 0.686519
0.744717 0.935821 0.678279
0.878294 0.929107 0.511376
1.000000 0.861051 0.426246
0.269810 1.000000 0.657282
0.324010 1.000000 0.664576
0.460792 0.999786 0.690700
0.580255 0.996338 0.714748
0.657343 0.995819 0.721981
0.761410 0.990295 0.765652
0.812009 0.997681 0.678309
0.946929 0.993744 0.468330
0.000000 0.000000 0.652857
0.000000 0.000000 0.652277
0.271092 0.000000 0.648646
0.450538 0.000000 0.643580
0.615808 0.000000 0.640375
0.754238 0.000000 0.615076
0.886229 0.000000 0.586084
1.000000 0.000000 0.550011
0.000000 0.149905 0.651301
0.000000 0.147982 0.651392
0.263218 0.137697 0.648096
0.446784 0.114870 0.642237
0.614343 0.077150 0.639033
0.753109 0.089418 0.613703
0.886168 0.090700 0.585229
1.000000 0.089174 0.549828
0.000000 0.335882 0.644556
0.000000 0.329412 0.644099
0.231296 0.300481 0.641901
0.435035 0.293706 0.639124
0.608179 0.283726 0.633173
0.745998 0.289647 0.607538
0.884062 0.288121 0.582208
1.000000 0.284916 0.549493
0.000000 0.479286 0.632746
0.000000 0.479347 0.632715
0.223239 0.481239 0.633173
0.415045 0.465644 0.631098
0.599054 0.460578 0.624872
0.743221 0.463905 0.604974
0.884123 0.461311 0.584497
1.000000 0.454322 0.557305
0.000000 0.604456 0.612512
0.000000 0.605646 0.612696
0.170413 0.608911 0.612421
0.392584 0.615717 0.611902
0.582177 0.624018 0.609094
0.760128 0.642817 0.624231
0.899870 0.654139 0.633387
1.000000 0.647059 0.624964
0.000000 0.744137 0.619959
0.000000 0.747280 0.621149
0.000000 0.756863 0.625086
0.379675 0.774014 0.639521
0.625269 0.790646 0.682063
0.760037 0.806516 0.646418
0.924956 0.805264 0.680659
1.000000 0.794339 0.695552
0.000000 0.903014 0.665614
0.000000 0.903929 0.666377
0.172122 0.904601 0.672633
0.463081 0.905333 0.697627
0.667323 0.910948 0.744564
0.785092 0.926024 0.786557
0.879301 0.920745 0.663233
1.000000 0.870237 0.622095
0.000000 1.000000 0.696223
0.000000 1.000000 0.699367
0.326574 0.998566 0.713436
0.535027 0.994079 0.747005
0.692561 0.989014 0.784512
0.777737 0.988922 0.803372
0.844999 0.990936 0.787045
0.952667 0.989319 0.641779
0.000000 0.027832 0.779019
0.000000 0.015442 0.778408
0.229831 0.000000 0.775326
0.417273 0.000000 0.773220
0.585657 0.000000 0.769894
0.742153 0.000000 0.764065
0.871244 0.000000 0.735164
0.989471 0.000000 0.704067
0.000000 0.151369 0.775387
0.000000 0.149691 0.774685
0.221439 0.142580 0.772519
0.412970 0.128298 0.770748
0.582605 0.097963 0.766995
0.739681 0.031220 0.761685
0.869383 0.075074 0.733608
0.988495 0.087068 0.703212
0.000000 0.311223 0.773434
0.000000 0.300359 0.773281
0.195682 0.297765 0.771908
0.402960 0.292760 0.769284
0.577111 0.283574 0.764706
0.736843 0.274357 0.759121
0.866636 0.282414 0.731746
0.987488 0.283421 0.702968
0.000000 0.487953 0.767758
0.000000 0.485145 0.766934
0.217288 0.477913 0.765652
0.392248 0.457954 0.765896
0.571832 0.455024 0.762356
0.734249 0.451179 0.756588
0.862852 0.455726 0.732174
0.986786 0.449928 0.706020
0.000000 0.604730 0.751736
0.000000 0.605341 0.751797
0.172061 0.608179 0.751858
0.393652 0.617853 0.752132
0.559503 0.610956 0.750332
0.721981 0.605035 0.744930
0.855772 0.605097 0.728206
0.983215 0.600275 0.708492
0.000000 0.722133 0.732296
0.000000 0.723476 0.733059
0.000000 0.725978 0.732937
0.344976 0.730495 0.732357
0.533165 0.736934 0.731167
0.708766 0.747219 0.732296
0.875151 0.773739 0.757900
0.988495 0.778927 0.762936
0.000000 0.863828 0.745144
0.000000 0.864286 0.744564
0.000000 0.863645 0.740414
0.248356 0.870359 0.742550
0.531975 0.883635 0.760891
0.767666 0.898772 0.811337
0.875731 0.908049 0.780850
0.996185 0.895720 0.802335
0.000000 0.993042 0.767300
0.000000 0.993194 0.767269
0.000000 0.993835 0.768490
0.348333 0.993744 0.777646
0.604364 0.987243 0.805112
0.794736 0.982330 0.851957
0.886412 0.984253 0.883543
0.959442 0.984955 0.781643
0.000000 0.065339 0.885801
0.000000 0.062470 0.885588
0.175998 0.040894 0.884642
0.377996 0.000000 0.882902
0.544457 0.000000 0.879667
0.702083 0.000000 0.875700
0.854459 0.000000 0.871305
0.978363 0.000000 0.841825
0.000000 0.154910 0.885252
0.000000 0.153964 0.884977
0.168643 0.149203 0.883940
0.375006 0.138521 0.881895
0.542657 0.119020 0.878874
0.701259 0.082063 0.875120
0.853819 0.000000 0.870756
0.977752 0.000000 0.841367
0.000000 0.295262 0.883268
0.000000 0.294560 0.882963
0.143771 0.292576 0.881865
0.366552 0.288792 0.879881
0.537835 0.282109 0.876951
0.699092 0.272374 0.873320
0.852171 0.262089 0.869139
0.976043 0.262821 0.840360
0.000000 0.474861 0.877897
0.000000 0.473640 0.877470
0.171023 0.457191 0.877409
0.359503 0.443091 0.876158
0.533379 0.440284 0.873411
0.696681 0.435920 0.869993
0.849058 0.431067 0.865965
0.972595 0.428779 0.839170
0.000000 0.604883 0.870420
0.000000 0.606012 0.870359
0.182620 0.611200 0.870329
0.388128 0.612146 0.869383
0.532433 0.594995 0.868345
0.692226 0.590417 0.865171
0.844419 0.585016 0.861326
0.967346 0.582757 0.838407
0.000000 0.716518 0.859739
0.000000 0.717098 0.859678
0.069215 0.719570 0.859617
0.350347 0.725826 0.859556
0.533776 0.737423 0.859739
0.687861 0.734371 0.858885
0.838224 0.728725 0.855039
0.962737 0.726833 0.839384
0.000000 0.832395 0.846860
0.000000 0.832822 0.846860
0.000000 0.834409 0.846494
0.280308 0.837430 0.845853
0.485451 0.841917 0.844755
0.663996 0.847929 0.843687
0.828824 0.856931 0.845426
0.971130 0.881956 0.871977
0.000000 0.976287 0.864805
0.000000 0.976257 0.864042
0.000000 0.976135 0.861143
0.000000 0.975250 0.855619
0.388251 0.974640 0.852171
0.663478 0.976593 0.867155
0.886137 0.976532 0.914305
0.964874 0.980041 0.889860
0.000000 0.085786 0.985962
0.000000 0.083955 0.985748
0.090181 0.076539 0.984985
0.337133 0.052033 0.983703
0.505272 0.000000 0.981872
0.662806 0.000000 0.979614
0.814298 0.000000 0.976928
0.964569 0.000000 0.973907
0.000000 0.159976 0.985473
0.000000 0.158877 0.985290
0.079469 0.155612 0.984558
0.335088 0.148257 0.983307
0.504173 0.134524 0.981506
0.662104 0.107546 0.979217
0.813931 0.047791 0.976593
0.964294 0.000000 0.973571
0.000000 0.291997 0.984039
0.000000 0.291691 0.983856
0.022583 0.290105 0.983154
0.330144 0.287266 0.981994
0.501396 0.282139 0.980255
0.660212 0.273533 0.978027
0.813107 0.261662 0.975433
0.963287 0.245365 0.972473
0.000000 0.466743 0.980194
0.000000 0.456123 0.980499
0.033112 0.436255 0.980652
0.330327 0.435065 0.979553
0.501061 0.432837 0.977905
0.659266 0.428870 0.975769
0.812711 0.422370 0.973266
0.961456 0.412634 0.970428
0.000000 0.602930 0.975738
0.000000 0.602930 0.975677
0.204837 0.604120 0.975280
0.388006 0.606165 0.974731
0.507927 0.583001 0.974487
0.660945 0.579370 0.972503
0.813046 0.573663 0.970092
0.958740 0.567590 0.967315
0.000000 0.712428 0.970703
0.000000 0.713466 0.970611
0.127382 0.717891 0.970336
0.361089 0.727138 0.969787
0.533837 0.734737 0.968963
0.667140 0.722438 0.968353
0.812833 0.717617 0.966094
0.955474 0.711879 0.963409
0.000000 0.821164 0.964935
0.000000 0.821622 0.964904
0.000000 0.823484 0.964660
0.298589 0.827909 0.964141
0.497292 0.836210 0.963256
0.669856 0.848966 0.962280
0.813931 0.848417 0.961395
0.951781 0.843168 0.958801
0.000000 0.937133 0.958495
0.000000 0.937438 0.958434
0.000000 0.938628 0.958129
0.178225 0.940887 0.957488
0.436439 0.944091 0.956390
0.624964 0.947967 0.954681
0.794400 0.951812 0.952605
0.946899 0.957336 0.952911
