data/fiter_cube/87192323/1023450/file.cube
# Created by Adobe Lightroom plugin Export LUT (1.17.0)
# www.johnrellis.com/lightroom/exportlut.htm
# Preset: 日系清新自然_01 云集
# Color profile: C:\Program Files (x86)\Common Files\Adobe\Color\Profiles\Recommended\AdobeRGB1998.icc
LUT_3D_SIZE 5
DOMAIN_MIN 0.000000 0.000000 0.000000
DOMAIN_MAX 0.903226 0.903226 0.903226
0.000000 0.000000 0.000000
0.301396 0.036347 0.000000
0.630823 0.097658 0.000000
0.886534 0.126162 0.000000
1.000000 0.123445 0.000000
0.000000 0.298589 0.131624
0.282170 0.318425 0.000000
0.663416 0.326452 0.000000
0.899779 0.303258 0.000000
1.000000 0.269535 0.000000
0.000000 0.631159 0.293675
0.108888 0.647730 0.230137
0.603876 0.670619 0.000000
0.918547 0.595453 0.000000
1.000000 0.505974 0.000000
0.000000 0.872160 0.440131
0.175570 0.878599 0.420264
0.497383 0.886076 0.479866
0.809659 0.877409 0.000000
1.000000 0.757778 0.000000
0.269566 1.000000 0.566064
0.332525 1.000000 0.562371
0.482673 1.000000 0.562097
0.679988 1.000000 0.568261
0.938872 0.998230 0.000000
0.000000 0.000000 0.295506
0.273686 0.000000 0.290745
0.574304 0.000000 0.253788
0.845487 0.107057 0.239200
1.000000 0.148928 0.214633
0.000000 0.276677 0.282078
0.258396 0.282841 0.277073
0.593683 0.286229 0.261082
0.863127 0.297185 0.251011
1.000000 0.284459 0.223056
0.000000 0.606409 0.380987
0.253391 0.615076 0.385016
0.580652 0.641871 0.259495
0.907012 0.596155 0.295598
1.000000 0.521752 0.258854
0.123903 0.860197 0.506432
0.305943 0.864836 0.514275
0.537133 0.878965 0.550256
0.808194 0.872160 0.262730
1.000000 0.760983 0.221775
0.363806 1.000000 0.626551
0.412451 1.000000 0.623865
0.545830 1.000000 0.629328
0.718349 0.999115 0.650782
0.941588 0.997406 0.157229
0.000000 0.000000 0.581384
0.239353 0.000000 0.577386
0.542138 0.000000 0.566735
0.799344 0.000000 0.530175
1.000000 0.000000 0.466468
0.000000 0.297704 0.574273
0.201450 0.264591 0.571832
0.539269 0.247776 0.564416
0.798093 0.243809 0.523919
1.000000 0.246372 0.468605
0.000000 0.538231 0.545556
0.139834 0.542016 0.545556
0.515129 0.555932 0.542290
0.816251 0.581262 0.559716
1.000000 0.574578 0.549157
0.000000 0.823728 0.604547
0.089937 0.826535 0.608484
0.585840 0.838224 0.667811
0.802976 0.852873 0.591913
1.000000 0.801663 0.615503
0.157656 1.000000 0.672755
0.362982 1.000000 0.692531
0.637964 0.992462 0.749813
0.797574 0.987579 0.799313
0.949126 0.991241 0.558068
0.000000 0.038605 0.804685
0.155184 0.000000 0.803128
0.492256 0.000000 0.799863
0.769955 0.000000 0.790890
0.984527 0.000000 0.738643
0.000000 0.260868 0.801266
0.111971 0.257939 0.800259
0.483589 0.246525 0.795895
0.765652 0.224399 0.786648
0.980865 0.230594 0.736629
0.000000 0.544793 0.787503
0.123079 0.548150 0.787442
0.468269 0.529137 0.784634
0.755367 0.520714 0.777005
0.978241 0.517266 0.737697
0.000000 0.751644 0.762692
0.000000 0.752651 0.761471
0.428107 0.760098 0.760372
0.738674 0.775235 0.760861
0.983185 0.805203 0.790585
0.000000 0.986877 0.788022
0.000000 0.988434 0.788083
0.429786 0.990906 0.800351
0.819974 0.981231 0.869169
0.960784 0.983642 0.810971
0.000000 0.085786 0.985962
0.000000 0.079011 0.985229
0.423560 0.013611 0.982849
0.701808 0.000000 0.978943
0.964569 0.000000 0.973907
0.000000 0.257267 0.984527
0.000000 0.255741 0.983825
0.419471 0.248783 0.981598
0.699916 0.230930 0.977813
0.963653 0.198337 0.972869
0.000000 0.537774 0.977966
0.166995 0.539422 0.977600
0.423499 0.510582 0.977081
0.698299 0.503563 0.973632
0.960204 0.490913 0.968994
0.000000 0.738949 0.969360
0.000000 0.742184 0.969116
0.441688 0.757626 0.968109
0.704952 0.755306 0.966705
0.954620 0.745907 0.962310
0.000000 0.937133 0.958495
0.000000 0.938231 0.958251
0.325719 0.942382 0.957000
0.668696 0.948913 0.954223
0.946899 0.957336 0.952911
