data/fiter_cube/87192323/1023450/file.cube
# Created by Adobe Lightroom plugin Export LUT (1.17.0)
# www.johnrellis.com/lightroom/exportlut.htm
# Preset: 日系清新自然_01 云集
# Color profile: C:\Program Files (x86)\Common Files\Adobe\Color\Profiles\Recommended\AdobeRGB1998.icc
LUT_3D_SIZE 32
DOMAIN_MIN 0.0 0.0 0.0
DOMAIN_MAX 1.0 1.0 1.0
0.000000 0.000000 0.000000
0.048402 0.001343 0.000000
0.076081 0.001678 0.000000
0.113741 0.003967 0.000000
0.162020 0.008270 0.000000
0.209995 0.016510 0.000000
0.256474 0.024598 0.000000
0.301396 0.036347 0.000000
0.346715 0.050599 0.000000
0.392218 0.061311 0.000000
0.439216 0.068421 0.000000
0.487251 0.076417 0.000000
0.536187 0.084108 0.000000
0.584863 0.090883 0.000000
0.630823 0.097658 0.000000
0.674037 0.102480 0.000000
0.714137 0.107515 0.000000
0.750973 0.111574 0.000000
0.784817 0.116182 0.000000
0.821408 0.119997 0.000000
0.855406 0.123293 0.000000
0.886534 0.126162 0.000000
0.914946 0.128115 0.000000
0.941283 0.130404 0.000000
0.965820 0.130770 0.000000
0.989014 0.130526 0.000000
1.000000 0.129458 0.000000
1.000000 0.127382 0.000000
1.000000 0.123445 0.000000
1.000000 0.118074 0.000000
1.000000 0.110475 0.000000
1.000000 0.098756 0.000000
0.000000 0.047669 0.010193
0.039826 0.052613 0.000000
0.075380 0.045502 0.000000
0.114290 0.048707 0.000000
0.162905 0.058503 0.000000
0.210697 0.062745 0.000000
0.257389 0.066835 0.000000
0.302098 0.071473 0.000000
0.346807 0.076204 0.000000
0.392493 0.081910 0.000000
0.439246 0.087617 0.000000
0.486915 0.093812 0.000000
0.535668 0.099702 0.000000
0.584222 0.106020 0.000000
0.629999 0.111147 0.000000
0.672938 0.115053 0.000000
0.713069 0.119326 0.000000
0.749874 0.122866 0.000000
0.783719 0.126436 0.000000
0.820096 0.129976 0.000000
0.853696 0.132723 0.000000
0.884581 0.134737 0.000000
0.912963 0.136690 0.000000
0.939330 0.137606 0.000000
0.963989 0.138369 0.000000
0.987335 0.137697 0.000000
1.000000 0.136110 0.000000
1.000000 0.134310 0.000000
1.000000 0.130159 0.000000
1.000000 0.124910 0.000000
1.000000 0.117372 0.000000
1.000000 0.106355 0.000000
0.000000 0.075441 0.023682
0.021576 0.072938 0.019287
0.070008 0.079500 0.000000
0.113558 0.078920 0.000000
0.163821 0.083864 0.000000
0.212161 0.088502 0.000000
0.258427 0.091615 0.000000
0.302953 0.094820 0.000000
0.347875 0.098573 0.000000
0.393439 0.103059 0.000000
0.440040 0.107942 0.000000
0.487678 0.112551 0.000000
0.536156 0.117556 0.000000
0.584619 0.122621 0.000000
0.630182 0.127382 0.000000
0.673274 0.130678 0.000000
0.713161 0.134646 0.000000
0.749813 0.136843 0.000000
0.783719 0.139590 0.000000
0.819883 0.142245 0.000000
0.853239 0.144442 0.000000
0.884031 0.146426 0.000000
0.912322 0.147402 0.000000
0.938598 0.147738 0.000000
0.963256 0.147799 0.000000
0.986633 0.146975 0.000000
1.000000 0.145510 0.000000
1.000000 0.142947 0.000000
1.000000 0.139193 0.000000
1.000000 0.133944 0.000000
1.000000 0.126375 0.000000
1.000000 0.116152 0.000000
0.000000 0.112734 0.052552
0.008484 0.111818 0.037049
0.052735 0.110292 0.042969
0.108766 0.122652 0.000000
0.161044 0.123110 0.000000
0.215824 0.127138 0.000000
0.262058 0.129885 0.000000
0.306462 0.132143 0.000000
0.351232 0.134676 0.000000
0.396521 0.137484 0.000000
0.442939 0.141054 0.000000
0.490547 0.145418 0.000000
0.538994 0.149722 0.000000
0.586816 0.153567 0.000000
0.632288 0.156649 0.000000
0.674891 0.158968 0.000000
0.714382 0.160739 0.000000
0.750820 0.162814 0.000000
0.785153 0.163943 0.000000
0.820279 0.165805 0.000000
0.852873 0.167056 0.000000
0.883207 0.167453 0.000000
0.911498 0.167910 0.000000
0.937957 0.167758 0.000000
0.962890 0.166598 0.000000
0.986572 0.165713 0.000000
1.000000 0.163424 0.000000
1.000000 0.160616 0.000000
1.000000 0.156771 0.000000
1.000000 0.151034 0.000000
1.000000 0.144411 0.000000
1.000000 0.134829 0.000000
0.000000 0.158328 0.074769
0.000000 0.157565 0.066255
0.013336 0.156893 0.050294
0.085084 0.159182 0.048310
0.152529 0.172335 0.000000
0.205570 0.168948 0.000000
0.260472 0.173434 0.000000
0.311254 0.175082 0.000000
0.355993 0.176638 0.000000
0.401068 0.179049 0.000000
0.447364 0.181430 0.000000
0.494759 0.184787 0.000000
0.542962 0.187900 0.000000
0.590539 0.190860 0.000000
0.635645 0.193545 0.000000
0.678126 0.194919 0.000000
0.717403 0.195468 0.000000
0.753536 0.196048 0.000000
0.788602 0.196048 0.000000
0.822751 0.196567 0.000000
0.854490 0.196170 0.000000
0.884367 0.196414 0.000000
0.912169 0.195346 0.000000
0.938445 0.194186 0.000000
0.963226 0.192447 0.000000
0.986816 0.190219 0.000000
1.000000 0.187930 0.000000
1.000000 0.184329 0.000000
1.000000 0.180240 0.000000
1.000000 0.175021 0.000000
1.000000 0.167636 0.000000
1.000000 0.159121 0.000000
0.000000 0.204898 0.092805
0.000000 0.204807 0.085451
0.000000 0.204471 0.073457
0.061372 0.202670 0.066773
0.124025 0.210666 0.034089
0.196139 0.221622 0.000000
0.247959 0.213474 0.000000
0.302831 0.218875 0.000000
0.359716 0.222507 0.000000
0.408545 0.224094 0.000000
0.454963 0.226261 0.000000
0.502068 0.228275 0.000000
0.550286 0.230869 0.000000
0.597284 0.232639 0.000000
0.641779 0.234012 0.000000
0.683589 0.234379 0.000000
0.722347 0.233982 0.000000
0.757992 0.233433 0.000000
0.793668 0.232731 0.000000
0.826902 0.231724 0.000000
0.858061 0.230564 0.000000
0.887388 0.228580 0.000000
0.928893 0.230716 0.000000
0.953796 0.228519 0.000000
0.977111 0.225742 0.000000
0.999145 0.222568 0.000000
1.000000 0.218967 0.000000
1.000000 0.214542 0.000000
1.000000 0.209720 0.000000
1.000000 0.203677 0.000000
1.000000 0.196536 0.000000
1.000000 0.187900 0.000000
0.000000 0.254002 0.112093
0.000000 0.254002 0.105867
0.000000 0.254093 0.095827
0.000000 0.254154 0.072328
0.100038 0.251713 0.086152
0.167697 0.264073 0.010254
0.240879 0.272190 0.000000
0.291417 0.259098 0.000000
0.348608 0.266392 0.000000
0.408515 0.272526 0.000000
0.470039 0.277104 0.000000
0.517937 0.278630 0.000000
0.565881 0.280064 0.000000
0.611597 0.280430 0.000000
0.654749 0.280095 0.000000
0.694942 0.278630 0.000000
0.732265 0.276829 0.000000
0.768856 0.274846 0.000000
0.803708 0.273136 0.000000
0.836393 0.270909 0.000000
0.867613 0.268650 0.000000
0.897307 0.266056 0.000000
0.925414 0.263615 0.000000
0.951690 0.260624 0.000000
0.976074 0.257328 0.000000
0.998657 0.253422 0.000000
1.000000 0.249210 0.000000
1.000000 0.244327 0.000000
1.000000 0.238804 0.000000
1.000000 0.232517 0.000000
1.000000 0.225132 0.000000
1.000000 0.216495 0.000000
0.000000 0.298589 0.131624
0.000000 0.298894 0.125887
0.000000 0.299229 0.118624
0.000000 0.299565 0.099855
0.066133 0.299290 0.089296
0.140352 0.301701 0.091096
0.209934 0.312535 0.000000
0.282170 0.318425 0.000000
0.330632 0.300816 0.000000
0.390265 0.310491 0.000000
0.452674 0.319036 0.000000
0.517754 0.326268 0.000000
0.576196 0.329320 0.000000
0.621149 0.328374 0.000000
0.663416 0.326452 0.000000
0.702663 0.323522 0.000000
0.740139 0.320714 0.000000
0.776455 0.317571 0.000000
0.809537 0.314244 0.000000
0.840909 0.310552 0.000000
0.870939 0.307042 0.000000
0.899779 0.303258 0.000000
0.927092 0.299626 0.000000
0.952789 0.295537 0.000000
0.976745 0.291112 0.000000
0.998993 0.286412 0.000000
1.000000 0.281285 0.000000
1.000000 0.275669 0.000000
1.000000 0.269535 0.000000
1.000000 0.262791 0.000000
1.000000 0.255100 0.000000
1.000000 0.246250 0.000000
0.000000 0.343542 0.152255
0.000000 0.343847 0.147616
0.000000 0.344335 0.141787
0.000000 0.345129 0.127932
0.000000 0.346441 0.104036
0.119387 0.345769 0.117769
0.183139 0.352300 0.097475
0.252659 0.361700 0.000000
0.324285 0.365789 0.000000
0.373297 0.347723 0.000000
0.432685 0.355261 0.000000
0.497719 0.365942 0.000000
0.564446 0.374762 0.000000
0.628473 0.378668 0.000000
0.674189 0.375830 0.000000
0.713161 0.371740 0.000000
0.751186 0.367742 0.000000
0.785428 0.362768 0.000000
0.816739 0.357397 0.000000
0.846830 0.352148 0.000000
0.875761 0.347112 0.000000
0.903655 0.341833 0.000000
0.930114 0.337072 0.000000
0.955108 0.331823 0.000000
0.978515 0.326635 0.000000
1.000000 0.320684 0.000000
1.000000 0.314672 0.000000
1.000000 0.308293 0.000000
1.000000 0.301427 0.000000
1.000000 0.293950 0.000000
1.000000 0.285863 0.000000
1.000000 0.276738 0.000000
0.000000 0.389014 0.174136
0.000000 0.389441 0.170565
0.000000 0.389929 0.165408
0.000000 0.391058 0.153964
0.000000 0.392706 0.134829
0.086549 0.393957 0.126375
0.166445 0.393744 0.148898
0.226963 0.403174 0.103456
0.296513 0.411536 0.000000
0.367315 0.414069 0.000000
0.417090 0.395972 0.000000
0.475441 0.399481 0.000000
0.542565 0.412207 0.000000
0.607965 0.420356 0.000000
0.671199 0.424537 0.000000
0.727443 0.423713 0.000000
0.763333 0.417121 0.000000
0.795865 0.409918 0.000000
0.825834 0.402686 0.000000
0.854459 0.395605 0.000000
0.881987 0.388800 0.000000
0.908415 0.382238 0.000000
0.933562 0.375677 0.000000
0.957427 0.369116 0.000000
0.979950 0.362524 0.000000
1.000000 0.355749 0.000000
1.000000 0.348730 0.000000
1.000000 0.341650 0.000000
1.000000 0.334051 0.000000
1.000000 0.325994 0.000000
1.000000 0.317388 0.000000
1.000000 0.307866 0.000000
0.000000 0.434668 0.196719
0.000000 0.435126 0.193729
0.000000 0.435767 0.189395
0.000000 0.437140 0.179904
0.000000 0.439155 0.164920
0.009094 0.441810 0.143679
0.145480 0.443061 0.157748
0.209842 0.446693 0.162020
0.271794 0.455543 0.110109
0.341833 0.462806 0.000000
0.412268 0.463844 0.000000
0.462654 0.445258 0.000000
0.519677 0.444953 0.000000
0.588861 0.459083 0.000000
0.653651 0.467048 0.000000
0.712886 0.469093 0.000000
0.765682 0.466011 0.000000
0.805570 0.458473 0.000000
0.834012 0.448829 0.000000
0.861418 0.439796 0.000000
0.887938 0.431312 0.000000
0.913329 0.423133 0.000000
0.937743 0.415290 0.000000
0.960906 0.407599 0.000000
0.982727 0.399725 0.000000
1.000000 0.391821 0.000000
1.000000 0.383856 0.000000
1.000000 0.375677 0.000000
1.000000 0.367285 0.000000
1.000000 0.358556 0.000000
1.000000 0.349248 0.000000
1.000000 0.339330 0.000000
0.000000 0.481880 0.219913
0.000000 0.482368 0.217594
0.000000 0.483070 0.213596
0.000000 0.484565 0.205783
0.000000 0.486854 0.193271
0.000000 0.490028 0.175540
0.112520 0.493141 0.167330
0.195712 0.494972 0.189883
0.254398 0.501549 0.172213
0.318212 0.509636 0.113436
0.388983 0.515984 0.000000
0.461311 0.517876 0.000000
0.526543 0.511772 0.000000
0.581445 0.504479 0.000000
0.648280 0.515679 0.000000
0.708919 0.519768 0.000000
0.762753 0.518090 0.000000
0.810178 0.511925 0.000000
0.852171 0.502739 0.000000
0.880095 0.491463 0.000000
0.904356 0.480232 0.000000
0.927672 0.469795 0.000000
0.949889 0.459571 0.000000
0.971160 0.449958 0.000000
0.991394 0.440375 0.000000
1.000000 0.431006 0.000000
1.000000 0.421637 0.000000
1.000000 0.412207 0.000000
1.000000 0.402594 0.000000
1.000000 0.392767 0.000000
1.000000 0.382605 0.000000
1.000000 0.371740 0.000000
0.000000 0.534874 0.245762
0.000000 0.535515 0.243412
0.000000 0.535943 0.240146
0.000000 0.537194 0.233127
0.000000 0.539300 0.222080
0.000000 0.542290 0.206241
0.070314 0.545953 0.186465
0.172702 0.548669 0.198886
0.244511 0.551568 0.222721
0.302647 0.562341 0.182223
0.370550 0.571954 0.118654
0.444770 0.579156 0.000000
0.517906 0.579278 0.000000
0.574578 0.562982 0.000000
0.622309 0.546166 0.000000
0.685664 0.554925 0.000000
0.741939 0.556542 0.000000
0.791531 0.552667 0.000000
0.835569 0.545312 0.000000
0.875486 0.535790 0.000000
0.909911 0.524681 0.000000
0.932341 0.512413 0.000000
0.953704 0.500755 0.000000
0.974151 0.489540 0.000000
0.993744 0.478676 0.000000
1.000000 0.468025 0.000000
1.000000 0.457465 0.000000
1.000000 0.447089 0.000000
1.000000 0.436530 0.000000
1.000000 0.425849 0.000000
1.000000 0.414954 0.000000
1.000000 0.403418 0.000000
0.000000 0.582238 0.269352
0.000000 0.582818 0.267094
0.000000 0.583368 0.264378
0.000000 0.584680 0.258030
0.000000 0.586603 0.247959
0.000000 0.590082 0.234714
0.027131 0.595056 0.217777
0.139345 0.600153 0.209354
0.226596 0.604334 0.232517
0.290867 0.610407 0.238926
0.350530 0.618799 0.192538
0.418647 0.625788 0.123934
0.491646 0.630488 0.000000
0.563195 0.627741 0.000000
0.619287 0.610285 0.000000
0.659998 0.584680 0.000000
0.718837 0.590143 0.000000
0.770779 0.589410 0.000000
0.817319 0.584161 0.000000
0.859342 0.576410 0.000000
0.897520 0.566522 0.000000
0.931914 0.555169 0.000000
0.958038 0.542504 0.000000
0.977844 0.529870 0.000000
0.996735 0.517571 0.000000
1.000000 0.505669 0.000000
1.000000 0.493965 0.000000
1.000000 0.482399 0.000000
1.000000 0.470985 0.000000
1.000000 0.459419 0.000000
1.000000 0.447761 0.000000
1.000000 0.435523 0.000000
0.000000 0.631159 0.293675
0.000000 0.631800 0.291875
0.000000 0.632349 0.289403
0.000000 0.633906 0.284031
0.000000 0.635981 0.274998
0.000000 0.639033 0.263462
0.000000 0.642908 0.248386
0.108888 0.647730 0.230137
0.203189 0.651667 0.242802
0.278508 0.655848 0.267369
0.335637 0.662257 0.251682
0.396033 0.668788 0.202274
0.463172 0.673548 0.129488
0.534539 0.675776 0.000000
0.603876 0.670619 0.000000
0.659174 0.652552 0.000000
0.693874 0.619409 0.000000
0.748592 0.622248 0.000000
0.797726 0.619898 0.000000
0.842039 0.614160 0.000000
0.882292 0.605768 0.000000
0.918547 0.595453 0.000000
0.951080 0.583520 0.000000
0.980194 0.570611 0.000000
0.999908 0.556878 0.000000
1.000000 0.543786 0.000000
1.000000 0.530877 0.000000
1.000000 0.518364 0.000000
1.000000 0.505974 0.000000
1.000000 0.493599 0.000000
1.000000 0.481086 0.000000
1.000000 0.467994 0.000000
0.000000 0.676783 0.317418
0.000000 0.677333 0.316167
0.000000 0.677943 0.313787
0.000000 0.679286 0.308843
0.000000 0.681209 0.301091
0.000000 0.684108 0.290898
0.000000 0.687617 0.277958
0.102419 0.692042 0.262852
0.174929 0.696559 0.254917
0.260319 0.699825 0.278141
0.328862 0.703273 0.304204
0.379706 0.708736 0.265019
0.438392 0.712703 0.212802
0.503593 0.714656 0.136263
0.572320 0.714290 0.000000
0.639094 0.707271 0.000000
0.693690 0.689082 0.000000
0.726589 0.654475 0.000000
0.776394 0.652003 0.000000
0.823850 0.649073 0.000000
0.866545 0.642847 0.000000
0.904997 0.633997 0.000000
0.939452 0.623072 0.000000
0.970275 0.610803 0.000000
0.997803 0.597162 0.000000
1.000000 0.582696 0.000000
1.000000 0.568566 0.000000
1.000000 0.554955 0.000000
1.000000 0.541375 0.000000
1.000000 0.527855 0.000000
1.000000 0.514244 0.000000
1.000000 0.500328 0.000000
0.000000 0.716152 0.339300
0.000000 0.716640 0.337713
0.000000 0.717006 0.336004
0.000000 0.718166 0.331487
0.000000 0.719875 0.324926
0.000000 0.722164 0.315862
0.000000 0.725307 0.304936
0.099916 0.728969 0.291295
0.157595 0.733242 0.276310
0.239078 0.736446 0.288670
0.312627 0.739254 0.313573
0.370672 0.742763 0.321050
0.419593 0.746914 0.277623
0.476844 0.749386 0.222904
0.539727 0.749813 0.144564
0.606226 0.748013 0.000000
0.670863 0.739895 0.000000
0.724941 0.722347 0.000000
0.758877 0.689418 0.000000
0.803281 0.680385 0.000000
0.848600 0.676631 0.000000
0.889311 0.669520 0.000000
0.925902 0.659937 0.000000
0.958556 0.648585 0.000000
0.987762 0.635615 0.000000
1.000000 0.621485 0.000000
1.000000 0.606439 0.000000
1.000000 0.591211 0.000000
1.000000 0.576623 0.000000
1.000000 0.562127 0.000000
1.000000 0.547509 0.000000
1.000000 0.532647 0.000000
0.000000 0.751919 0.360052
0.000000 0.752499 0.359014
0.000000 0.762264 0.363409
0.000000 0.763210 0.359319
0.000000 0.764492 0.353643
0.000000 0.766262 0.345708
0.000000 0.768429 0.336339
0.114778 0.771206 0.324743
0.168276 0.774594 0.312383
0.224369 0.777951 0.307347
0.302556 0.779812 0.330663
0.368414 0.781643 0.356451
0.415442 0.784451 0.341772
0.462409 0.786862 0.294987
0.517235 0.787655 0.237888
0.577813 0.786557 0.158785
0.642237 0.783658 0.000000
0.705226 0.774899 0.000000
0.759243 0.757717 0.000000
0.794430 0.726467 0.000000
0.833219 0.710689 0.000000
0.876005 0.705348 0.000000
0.914336 0.696925 0.000000
0.948455 0.686244 0.000000
0.978698 0.673793 0.000000
1.000000 0.659815 0.000000
1.000000 0.644770 0.000000
1.000000 0.628901 0.000000
1.000000 0.612116 0.000000
1.000000 0.596277 0.000000
1.000000 0.580682 0.000000
1.000000 0.564782 0.000000
0.000000 0.786770 0.381628
0.000000 0.788235 0.381323
0.000000 0.789822 0.380621
0.000000 0.791684 0.378119
0.000000 0.793698 0.373754
0.000000 0.795590 0.367590
0.037110 0.797696 0.359350
0.124514 0.800137 0.349706
0.174075 0.803067 0.339239
0.217166 0.806394 0.328679
0.285985 0.808408 0.341436
0.354131 0.809873 0.365881
0.414649 0.811002 0.392767
0.451301 0.813840 0.354864
0.496345 0.815427 0.306493
0.549218 0.815366 0.247196
0.607843 0.813687 0.166812
0.670222 0.810361 0.000000
0.731991 0.801602 0.000000
0.785855 0.785641 0.000000
0.823056 0.757076 0.000000
0.857603 0.735958 0.000000
0.898466 0.729763 0.000000
0.934966 0.720607 0.000000
0.967285 0.709224 0.000000
0.996033 0.696101 0.000000
1.000000 0.681575 0.000000
1.000000 0.666011 0.000000
1.000000 0.649470 0.000000
1.000000 0.631891 0.000000
1.000000 0.613855 0.000000
1.000000 0.596948 0.000000
0.000000 0.815915 0.400488
0.000000 0.817136 0.400427
0.000000 0.818540 0.399664
0.000000 0.820127 0.397620
0.000000 0.821805 0.393866
0.000000 0.823545 0.388434
0.078676 0.825345 0.381659
0.137728 0.827420 0.373510
0.183230 0.829953 0.365026
0.223941 0.832761 0.356176
0.270909 0.835477 0.353826
0.341436 0.836576 0.377050
0.403113 0.837308 0.402319
0.451881 0.838590 0.411353
0.485664 0.840909 0.367987
0.528893 0.841794 0.317540
0.579858 0.841276 0.256870
0.636561 0.839322 0.174868
0.697597 0.835813 0.000000
0.757992 0.827359 0.000000
0.811887 0.812406 0.000000
0.851133 0.786709 0.000000
0.881743 0.760494 0.000000
0.920592 0.753323 0.000000
0.955108 0.743252 0.000000
0.985657 0.731014 0.000000
1.000000 0.717189 0.000000
1.000000 0.702083 0.000000
1.000000 0.685817 0.000000
1.000000 0.668482 0.000000
1.000000 0.649958 0.000000
1.000000 0.630152 0.000000
0.000000 0.843259 0.418952
0.000000 0.844358 0.418891
0.000000 0.845548 0.418616
0.000000 0.846891 0.416938
0.000000 0.848356 0.413550
0.002106 0.849790 0.409247
0.106447 0.851316 0.403204
0.154116 0.853086 0.396735
0.195163 0.855131 0.389471
0.233646 0.857450 0.382422
0.270878 0.860014 0.375708
0.330266 0.861265 0.388830
0.392767 0.861723 0.413153
0.449897 0.861906 0.439460
0.485786 0.863706 0.425940
0.518181 0.865690 0.380987
0.560082 0.866545 0.329717
0.609644 0.866209 0.267765
0.665156 0.864561 0.184756
0.725154 0.861509 0.000000
0.785092 0.853696 0.000000
0.839475 0.840177 0.000000
0.881285 0.817136 0.000000
0.908446 0.786557 0.000000
0.945220 0.778134 0.000000
0.977661 0.766995 0.000000
1.000000 0.753750 0.000000
1.000000 0.739040 0.000000
1.000000 0.722896 0.000000
1.000000 0.705592 0.000000
1.000000 0.687129 0.000000
1.000000 0.667170 0.000000
0.000000 0.872160 0.440131
0.000000 0.872740 0.439734
0.000000 0.873228 0.439094
0.000000 0.873960 0.437415
0.000000 0.874907 0.434424
0.091035 0.875883 0.430518
0.136843 0.877073 0.425818
0.175570 0.878599 0.420264
0.212100 0.880400 0.414588
0.248234 0.882383 0.409064
0.283665 0.884581 0.404211
0.324346 0.886534 0.404700
0.387610 0.886625 0.428107
0.444770 0.886473 0.453468
0.497383 0.886076 0.479866
0.520653 0.888579 0.443427
0.551354 0.890318 0.397375
0.591272 0.890959 0.343633
0.638880 0.890379 0.280095
0.692622 0.888548 0.195438
0.751034 0.885313 0.000000
0.809659 0.877409 0.000000
0.863645 0.864439 0.000000
0.907225 0.843778 0.000000
0.931151 0.808927 0.000000
0.965759 0.799344 0.000000
0.996399 0.787289 0.000000
1.000000 0.773342 0.000000
1.000000 0.757778 0.000000
1.000000 0.740780 0.000000
1.000000 0.722469 0.000000
1.000000 0.702724 0.000000
0.000000 0.895811 0.458137
0.000000 0.896269 0.457923
0.000000 0.896818 0.457527
0.026062 0.897429 0.456062
0.091005 0.898161 0.453590
0.128359 0.898955 0.450294
0.162661 0.899870 0.446326
0.195621 0.900999 0.441871
0.228489 0.902373 0.437079
0.261997 0.903929 0.432837
0.295598 0.905638 0.429236
0.329534 0.907378 0.426734
0.381323 0.907805 0.440894
0.438392 0.907408 0.464881
0.490547 0.906828 0.489784
0.530571 0.907134 0.498756
0.551415 0.909697 0.458015
0.580926 0.911406 0.410742
0.619318 0.912108 0.356023
0.665461 0.911620 0.290776
0.717678 0.909911 0.204349
0.774929 0.906828 0.000000
0.832639 0.899321 0.000000
0.886595 0.887266 0.000000
0.930694 0.867857 0.000000
0.952972 0.831327 0.000000
0.984985 0.819089 0.000000
1.000000 0.806180 0.000000
1.000000 0.791379 0.000000
1.000000 0.774960 0.000000
1.000000 0.756985 0.000000
1.000000 0.737575 0.000000
0.079164 0.920195 0.478492
0.088075 0.920684 0.478340
0.099458 0.921019 0.478096
0.117220 0.921416 0.476753
0.140414 0.921843 0.474678
0.165469 0.922301 0.471839
0.192111 0.922820 0.468299
0.220035 0.923461 0.464546
0.249149 0.924254 0.460517
0.279179 0.925231 0.456947
0.310399 0.926207 0.454047
0.342260 0.927337 0.452308
0.377996 0.928130 0.454932
0.433631 0.927245 0.477028
0.484688 0.926177 0.500145
0.532250 0.924926 0.524041
0.558923 0.926055 0.511772
0.579217 0.928313 0.470405
0.607660 0.929931 0.421942
0.644587 0.930663 0.365301
0.689326 0.930297 0.298192
0.740230 0.928679 0.208865
0.795956 0.925689 0.000000
0.852750 0.918242 0.000000
0.906126 0.906676 0.000000
0.954223 0.891356 0.000000
0.976013 0.855344 0.000000
1.000000 0.838560 0.000000
1.000000 0.824582 0.000000
1.000000 0.808713 0.000000
1.000000 0.791226 0.000000
1.000000 0.772061 0.000000
0.130404 0.940246 0.495521
0.136446 0.940612 0.495613
0.143313 0.940948 0.495369
0.155825 0.941222 0.494362
0.172946 0.941527 0.492592
0.193423 0.941894 0.490303
0.216129 0.942321 0.487343
0.241276 0.942809 0.484535
0.268132 0.943420 0.481727
0.296300 0.944152 0.479225
0.325628 0.944915 0.477302
0.356176 0.945739 0.476570
0.386755 0.946532 0.476814
0.431159 0.946166 0.490059
0.481483 0.944945 0.512108
0.528374 0.943511 0.534783
0.572564 0.942046 0.558282
0.587488 0.944549 0.526299
0.607385 0.946899 0.484688
0.634943 0.948608 0.435859
0.670192 0.949401 0.377417
0.713313 0.949035 0.307408
0.762722 0.947387 0.214786
0.817105 0.944427 0.000000
0.873075 0.937255 0.000000
0.926329 0.926452 0.000000
0.977539 0.914366 0.000000
0.998627 0.878569 0.000000
1.000000 0.857725 0.000000
1.000000 0.842496 0.000000
1.000000 0.825498 0.000000
1.000000 0.806607 0.000000
0.171145 0.959655 0.513359
0.175601 0.959930 0.513329
0.180301 0.960082 0.512932
0.189731 0.960204 0.512016
0.203555 0.960327 0.510582
0.220645 0.960449 0.508721
0.240360 0.960662 0.506432
0.262608 0.960906 0.503960
0.287022 0.961273 0.501701
0.313359 0.961700 0.500084
0.340795 0.962188 0.498848
0.369238 0.962768 0.498482
0.398108 0.963256 0.499123
0.429419 0.963470 0.502495
0.478340 0.962036 0.523064
0.524285 0.960418 0.544549
0.567620 0.958648 0.566552
0.600305 0.958129 0.574578
0.613031 0.960998 0.538293
0.632593 0.963348 0.496407
0.659205 0.965057 0.446448
0.693141 0.965881 0.386053
0.734676 0.965545 0.313146
0.782773 0.963958 0.214542
0.835966 0.961059 0.000000
0.891203 0.954131 0.000000
0.944457 0.944121 0.000000
0.996704 0.933471 0.000000
1.000000 0.899565 0.000000
1.000000 0.875181 0.000000
1.000000 0.858793 0.000000
1.000000 0.840360 0.000000
0.203738 0.977203 0.529808
0.207126 0.977356 0.529808
0.211337 0.977447 0.529747
0.219089 0.977569 0.528862
0.231113 0.977661 0.527794
0.246616 0.977874 0.526574
0.265324 0.978180 0.525292
0.286412 0.978637 0.524163
0.310155 0.979126 0.523400
0.335119 0.979675 0.522881
0.361547 0.980224 0.522972
0.388495 0.980774 0.523522
0.416144 0.981170 0.524987
0.444068 0.981415 0.527367
0.482795 0.980499 0.540093
0.527337 0.978668 0.560327
0.569268 0.976654 0.580896
0.608911 0.974578 0.601862
0.629358 0.975586 0.591760
0.641749 0.978485 0.555535
0.660304 0.980835 0.512932
0.685542 0.982544 0.461891
0.717739 0.983368 0.399512
0.757412 0.983093 0.322240
0.803952 0.981567 0.218784
0.856077 0.978698 0.000000
0.910765 0.972137 0.000000
0.964141 0.962829 0.000000
1.000000 0.953094 0.000000
1.000000 0.921538 0.000000
1.000000 0.893553 0.000000
1.000000 0.875181 0.000000
0.242435 0.995819 0.550042
0.244877 0.995911 0.549920
0.248203 0.995911 0.549706
0.254734 0.995880 0.549065
0.264744 0.995819 0.548150
0.278050 0.995758 0.547204
0.294072 0.995727 0.546166
0.312505 0.995789 0.545098
0.332891 0.995819 0.544213
0.355108 0.995911 0.543572
0.378729 0.995941 0.543481
0.403204 0.995941 0.543755
0.428595 0.995850 0.545037
0.454231 0.995666 0.546777
