data/fiter_cube/27130762/1023406/file.cube
# Created by Adobe Lightroom plugin Export LUT (1.17.0)
# www.johnrellis.com/lightroom/exportlut.htm
# Preset: 森系文艺人像美食静物_10 云集
# Color profile: C:\Program Files (x86)\Common Files\Adobe\Color\Profiles\Recommended\AdobeRGB1998.icc
LUT_3D_SIZE 32
DOMAIN_MIN 0.0 0.0 0.0
DOMAIN_MAX 1.0 1.0 1.0
0.142153 0.148409 0.146975
0.143679 0.148653 0.146914
0.146120 0.148745 0.146975
0.151064 0.149233 0.146822
0.159548 0.149905 0.146670
0.172244 0.150607 0.146548
0.190494 0.151522 0.146151
0.215244 0.152468 0.145571
0.247623 0.153079 0.144503
0.287236 0.153170 0.142947
0.333410 0.151705 0.140780
0.383612 0.149477 0.137881
0.436408 0.146212 0.133822
0.489082 0.142397 0.129183
0.539696 0.140658 0.123323
0.587121 0.140597 0.116976
0.630793 0.144442 0.109865
0.670985 0.151247 0.101808
0.711421 0.162570 0.092012
0.750851 0.178012 0.079805
0.784360 0.194644 0.066590
0.813443 0.211978 0.044526
0.839780 0.229465 0.007935
0.863920 0.247074 0.000000
0.886320 0.264652 0.000000
0.907530 0.282383 0.000000
0.928008 0.300999 0.000000
0.948058 0.319829 0.000000
0.967803 0.339513 0.000000
0.987366 0.359808 0.000000
1.000000 0.381140 0.000000
1.000000 0.402991 0.000000
0.142061 0.149691 0.147311
0.143374 0.149996 0.147250
0.145815 0.150240 0.147341
0.150729 0.150729 0.147311
0.159091 0.151400 0.147189
0.171664 0.152316 0.146883
0.189670 0.153445 0.146487
0.214054 0.154482 0.145754
0.245884 0.155276 0.144717
0.285161 0.155734 0.143160
0.330358 0.155032 0.141024
0.380407 0.153017 0.138033
0.432380 0.150240 0.134249
0.484810 0.147250 0.129458
0.535302 0.145388 0.123903
0.582666 0.145754 0.117617
0.626520 0.148989 0.110475
0.666835 0.155703 0.102480
0.707485 0.166293 0.092897
0.746365 0.180636 0.081239
0.779751 0.196872 0.067811
0.808865 0.213046 0.048493
0.835264 0.229740 0.014374
0.859678 0.247288 0.000000
0.882383 0.264469 0.000000
0.903899 0.281956 0.000000
0.924804 0.300359 0.000000
0.945159 0.319158 0.000000
0.965209 0.338933 0.000000
0.985016 0.359350 0.000000
1.000000 0.380438 0.000000
1.000000 0.402228 0.000000
0.142000 0.151797 0.147921
0.143160 0.151766 0.147890
0.145418 0.152071 0.147799
0.150301 0.152712 0.147921
0.158480 0.153567 0.147768
0.170779 0.154665 0.147463
0.188357 0.155886 0.146914
0.212375 0.157198 0.146365
0.243931 0.158419 0.145144
0.282933 0.159091 0.143618
0.328191 0.158816 0.141329
0.377844 0.157656 0.138308
0.429694 0.155276 0.134371
0.482063 0.152987 0.129793
0.532464 0.151492 0.124086
0.580011 0.151614 0.117861
0.623835 0.155673 0.110872
0.664302 0.162112 0.102693
0.705318 0.172213 0.093324
0.743740 0.186160 0.081636
0.777188 0.201358 0.068879
0.806394 0.217258 0.049897
0.832883 0.233219 0.016632
0.857389 0.249729 0.000000
0.880217 0.266850 0.000000
0.901915 0.283879 0.000000
0.922942 0.302068 0.000000
0.943511 0.320928 0.000000
0.963745 0.340276 0.000000
0.983734 0.360601 0.000000
1.000000 0.381506 0.000000
1.000000 0.403204 0.000000
0.141756 0.156161 0.149203
0.143282 0.156252 0.149294
0.145083 0.155825 0.149294
0.149508 0.156405 0.148989
0.157809 0.157809 0.148928
0.169253 0.159487 0.148898
0.186648 0.161196 0.148348
0.210269 0.163210 0.147433
0.241276 0.164889 0.146059
0.279789 0.166506 0.144350
0.324651 0.167178 0.142061
0.374151 0.166964 0.138674
0.425849 0.165835 0.134920
0.478157 0.164645 0.130129
0.528923 0.164187 0.124361
0.576715 0.165103 0.118074
0.620661 0.169070 0.110872
0.661128 0.174685 0.103243
0.702388 0.184970 0.093233
0.739803 0.197391 0.082399
0.772854 0.211032 0.070314
0.802029 0.225620 0.054322
0.828763 0.241184 0.019898
0.853971 0.256992 0.000000
0.877714 0.273747 0.000000
0.900267 0.290837 0.000000
0.921935 0.308782 0.000000
0.942901 0.327398 0.000000
0.963226 0.346593 0.000000
0.983154 0.366247 0.000000
1.000000 0.386603 0.000000
1.000000 0.407477 0.000000
0.141176 0.162814 0.151034
0.142916 0.162722 0.151125
0.144320 0.162966 0.150637
0.148379 0.161776 0.151095
0.155886 0.162875 0.150332
0.168490 0.165774 0.149874
0.184054 0.168307 0.149722
0.206546 0.171206 0.148806
0.236851 0.174228 0.147372
0.274510 0.177005 0.145480
0.318639 0.179171 0.142977
0.367651 0.180484 0.139773
0.419318 0.180789 0.135958
0.471565 0.181643 0.130922
0.522972 0.181827 0.125338
0.571435 0.184115 0.118715
0.616632 0.188266 0.111482
0.658106 0.194522 0.103304
0.700679 0.204410 0.093324
0.737728 0.215549 0.082368
0.770413 0.228031 0.070069
0.799496 0.241093 0.054261
0.826139 0.255070 0.021698
0.851469 0.269963 0.000000
0.875456 0.285496 0.000000
0.898283 0.301946 0.000000
0.920165 0.319249 0.000000
0.941222 0.336858 0.000000
0.961639 0.355322 0.000000
0.981659 0.374212 0.000000
1.000000 0.393835 0.000000
1.000000 0.414374 0.000000
0.140291 0.172763 0.153658
0.141848 0.172976 0.153597
0.143648 0.173037 0.153262
0.146578 0.172274 0.151797
0.153750 0.171115 0.152468
0.165072 0.172732 0.151247
0.183627 0.177646 0.150332
0.204593 0.181308 0.149966
0.232914 0.185855 0.149081
0.270329 0.190249 0.146914
0.314122 0.194400 0.144259
0.362890 0.197543 0.140902
0.414160 0.199863 0.136995
0.466743 0.201938 0.132052
0.518395 0.204074 0.126284
0.567407 0.207340 0.119692
0.613001 0.211673 0.112428
0.657008 0.218967 0.103883
0.699062 0.228061 0.094057
0.736080 0.239017 0.083223
0.768978 0.250645 0.071229
0.798489 0.262272 0.057313
0.851255 0.295018 0.001404
0.875059 0.308904 0.000000
0.897093 0.323369 0.000000
0.917754 0.337774 0.000000
0.937316 0.353002 0.000000
0.956298 0.368353 0.000000
0.974823 0.384833 0.000000
0.993225 0.401801 0.000000
1.000000 0.419532 0.000000
1.000000 0.437903 0.000000
0.137514 0.189883 0.157900
0.139010 0.189975 0.157443
0.140749 0.190036 0.156680
0.144076 0.190463 0.154421
0.151736 0.186923 0.154147
0.163302 0.186740 0.153994
0.180301 0.188846 0.152255
0.207492 0.196841 0.150576
0.236667 0.202548 0.149752
0.273503 0.209445 0.148592
0.318212 0.215915 0.145968
0.368170 0.221134 0.142214
0.420172 0.225437 0.137850
0.472877 0.229038 0.132570
0.523674 0.232670 0.126528
0.571649 0.236576 0.120027
0.616297 0.241855 0.112581
0.663539 0.250645 0.103334
0.705501 0.260410 0.093568
0.743038 0.271000 0.082856
0.777096 0.282811 0.071504
0.808316 0.295628 0.057954
0.837675 0.309453 0.029145
0.864958 0.324437 0.000000
0.889921 0.339544 0.000000
0.912383 0.353735 0.000000
0.933104 0.368139 0.000000
0.952636 0.382910 0.000000
0.971649 0.398047 0.000000
0.990234 0.414008 0.000000
1.000000 0.430793 0.000000
1.000000 0.448432 0.000000
0.133211 0.211032 0.162783
0.134646 0.211032 0.162081
0.136538 0.211093 0.161074
0.141238 0.210880 0.159182
0.146304 0.209384 0.154269
0.159762 0.203769 0.157290
0.176089 0.205600 0.155764
0.198367 0.208347 0.153414
0.233799 0.219211 0.150668
0.269657 0.226993 0.149538
0.312352 0.235782 0.147951
0.360601 0.244266 0.145571
0.412634 0.250462 0.141085
0.465278 0.255619 0.135714
0.516442 0.260533 0.129610
0.564630 0.265385 0.122896
0.613397 0.272465 0.115267
0.659113 0.280919 0.106477
0.700313 0.289738 0.097322
0.737453 0.299413 0.087861
0.771633 0.310033 0.077790
0.802853 0.321172 0.067506
0.832151 0.333623 0.053529
0.859525 0.346899 0.026001
0.884703 0.360388 0.000000
0.907530 0.373449 0.000000
0.928618 0.386847 0.000000
0.948577 0.400275 0.000000
0.967926 0.414649 0.000000
0.986786 0.429664 0.000000
1.000000 0.445686 0.000000
1.000000 0.462440 0.000000
0.125582 0.239567 0.169345
0.127230 0.239475 0.168429
0.129519 0.239414 0.167361
0.134798 0.238956 0.164797
0.141390 0.239139 0.159731
0.154086 0.233463 0.157778
0.171817 0.228092 0.160647
0.194095 0.230991 0.157900
0.222385 0.233799 0.154665
0.266423 0.247959 0.150484
0.308385 0.257420 0.148867
0.355688 0.267308 0.147036
0.406195 0.276982 0.144594
0.458656 0.285069 0.140291
0.509972 0.290898 0.134218
0.561028 0.297826 0.127443
0.610620 0.305913 0.119753
0.655299 0.314031 0.111482
0.695888 0.322026 0.103243
0.732998 0.330785 0.095033
0.767178 0.340124 0.086702
0.798367 0.350225 0.078584
0.827634 0.361120 0.070436
0.855039 0.372869 0.062135
0.880400 0.384802 0.047974
0.903410 0.396674 0.026093
0.924773 0.408667 0.005432
0.944976 0.421180 0.000000
0.964508 0.434424 0.000000
0.983551 0.448371 0.000000
1.000000 0.463294 0.000000
1.000000 0.479133 0.000000
0.113222 0.275059 0.177584
0.115145 0.274907 0.176608
0.118074 0.274449 0.175021
0.124300 0.273869 0.172366
0.135500 0.272892 0.168429
0.142824 0.270695 0.158480
0.166232 0.262425 0.162600
0.189120 0.259098 0.164034
0.217594 0.261936 0.160189
0.251438 0.264744 0.155947
0.303105 0.281010 0.149966
0.349340 0.291569 0.148135
0.399451 0.302190 0.145937
0.451331 0.312749 0.143374
0.505486 0.324468 0.140841
0.559075 0.333715 0.133913
0.608240 0.342016 0.126680
0.652888 0.349737 0.119265
0.693477 0.357427 0.112154
0.730251 0.365026 0.104982
0.763760 0.373205 0.098207
0.794095 0.381201 0.093263
0.822507 0.390051 0.087617
0.849363 0.399786 0.082338
0.874479 0.409888 0.077607
0.897734 0.420417 0.072206
0.919615 0.431312 0.066529
0.940490 0.443122 0.060304
0.960601 0.455756 0.052064
0.980163 0.469245 0.042359
0.999359 0.483742 0.031647
1.000000 0.499153 0.022309
0.093111 0.314977 0.187076
0.095918 0.314763 0.186038
0.099580 0.314458 0.184421
0.108003 0.313787 0.181216
0.121584 0.312749 0.176822
0.134035 0.312779 0.167849
0.153841 0.305516 0.163088
0.182834 0.295964 0.169589
0.211887 0.295628 0.168093
0.246647 0.298436 0.163088
0.285588 0.300511 0.157412
0.343572 0.318151 0.149172
0.392889 0.329107 0.147433
0.447364 0.342382 0.144991
0.501854 0.355077 0.142947
0.554040 0.367437 0.141238
0.602716 0.377600 0.137575
0.647028 0.384985 0.130892
0.687556 0.391852 0.124514
0.724575 0.398810 0.118593
0.758297 0.405768 0.114046
0.789059 0.412726 0.110201
0.817685 0.420661 0.107301
0.844755 0.429084 0.104799
0.870024 0.438025 0.102663
0.893462 0.447272 0.100587
0.915404 0.457038 0.098573
0.936370 0.467567 0.097169
0.956634 0.479042 0.095857
0.976379 0.491463 0.095338
0.995727 0.505058 0.095674
1.000000 0.519860 0.097688
0.048005 0.360601 0.198703
0.056855 0.360388 0.197726
0.065461 0.359930 0.195926
0.079774 0.359075 0.192660
0.099245 0.358038 0.187808
0.123934 0.356146 0.182467
0.136049 0.353918 0.166567
0.171847 0.344549 0.170687
0.205203 0.333928 0.179110
0.240818 0.336919 0.173159
0.280858 0.339147 0.166751
0.325322 0.341650 0.159609
0.412390 0.380652 0.148318
0.470069 0.395239 0.146670
0.525963 0.408331 0.146120
0.578027 0.420478 0.146151
0.625544 0.431617 0.147646
0.668574 0.441932 0.150851
0.706386 0.446967 0.147341
0.740749 0.451301 0.143862
0.771786 0.455634 0.141543
0.800137 0.460334 0.140108
0.826871 0.465492 0.138888
0.852262 0.471839 0.138460
0.876066 0.478523 0.138705
0.898375 0.485939 0.138643
0.919310 0.493935 0.138674
0.939391 0.502556 0.138979
0.958770 0.512230 0.140322
0.977783 0.522972 0.141939
0.996490 0.534936 0.145083
1.000000 0.548333 0.148775
0.000000 0.418830 0.215335
0.000000 0.418402 0.213993
0.000000 0.417639 0.212222
0.000000 0.415961 0.208438
0.041779 0.413550 0.202914
0.096498 0.410224 0.196506
0.121279 0.409491 0.183017
0.151583 0.400885 0.172732
0.197635 0.390112 0.182528
0.236332 0.382971 0.188266
0.280797 0.389471 0.181643
0.330480 0.395727 0.173678
0.383886 0.400855 0.164157
0.457527 0.423041 0.148928
0.514275 0.436866 0.149203
0.566857 0.448920 0.150271
0.614740 0.459266 0.152529
0.657832 0.468421 0.156558
0.696925 0.477028 0.162356
0.731930 0.483711 0.166720
0.763516 0.487312 0.164706
0.792233 0.490883 0.164157
0.819211 0.495216 0.164248
0.844846 0.500328 0.164431
0.868956 0.506035 0.165042
0.891630 0.512413 0.165927
0.913024 0.519432 0.166995
0.933440 0.527367 0.168307
0.953216 0.536126 0.170474
0.972625 0.546288 0.174228
0.991669 0.557763 0.178225
1.000000 0.570550 0.184451
0.000000 0.467048 0.231174
0.000000 0.466804 0.230045
0.000000 0.465919 0.228092
0.000000 0.464302 0.224063
0.000000 0.461921 0.218570
0.030274 0.458534 0.212222
0.108034 0.455390 0.204288
0.129824 0.452186 0.183139
0.180850 0.444953 0.186313
0.230686 0.436225 0.199435
0.275700 0.435126 0.201297
0.324681 0.440375 0.192538
0.376898 0.444312 0.182803
0.430365 0.446418 0.170901
0.501793 0.464790 0.152346
0.554742 0.476204 0.154330
0.602686 0.485573 0.157748
0.646265 0.493904 0.162722
0.686183 0.501701 0.169009
0.722286 0.509392 0.177401
0.754971 0.517113 0.188235
0.784421 0.521141 0.190799
0.811795 0.524804 0.190951
0.837888 0.529290 0.192050
0.862455 0.534356 0.193362
0.885496 0.539971 0.194949
0.907256 0.546288 0.196628
0.928038 0.553368 0.199283
0.948180 0.561700 0.202487
0.967834 0.571221 0.207370
0.987182 0.582086 0.213382
1.000000 0.594476 0.221378
0.000000 0.515312 0.249424
0.000000 0.514916 0.248234
0.000000 0.514305 0.246250
0.000000 0.513237 0.242588
0.000000 0.511864 0.237797
0.000000 0.509789 0.231510
0.073030 0.507073 0.225925
0.115846 0.507530 0.208530
0.154879 0.501396 0.192752
0.219760 0.492042 0.206607
0.270756 0.482460 0.222049
0.319036 0.484260 0.216861
0.370153 0.487343 0.206760
0.422431 0.488716 0.194797
0.474342 0.487984 0.180972
0.542016 0.503014 0.159701
0.590814 0.511711 0.163058
0.634791 0.519158 0.168460
0.675593 0.526390 0.175357
0.712520 0.533288 0.184207
0.746029 0.540124 0.195224
0.776150 0.547143 0.208347
0.804013 0.553582 0.219547
0.830503 0.557488 0.220981
0.855558 0.562097 0.222934
0.879240 0.567437 0.225162
0.901732 0.573541 0.228428
0.923278 0.580713 0.232761
0.944121 0.589044 0.237919
0.964416 0.598688 0.244755
0.984253 0.609613 0.253178
1.000000 0.622095 0.264134
0.000000 0.567773 0.272831
0.000000 0.567926 0.271977
0.000000 0.567559 0.270451
0.000000 0.566552 0.267155
0.000000 0.564996 0.262119
0.000000 0.562829 0.256229
0.000000 0.560204 0.251072
0.111849 0.558038 0.242832
0.143313 0.556146 0.217838
0.204074 0.548150 0.217472
0.266026 0.537896 0.233127
0.316442 0.528344 0.246860
0.365179 0.529137 0.235996
0.414893 0.528801 0.223026
0.464546 0.526879 0.208927
0.512810 0.523369 0.193240
0.576287 0.535698 0.170474
0.622339 0.543114 0.174258
0.664546 0.550286 0.182071
0.703120 0.557305 0.191714
0.737972 0.563989 0.203555
0.769284 0.570550 0.217624
0.797910 0.577478 0.232761
0.825010 0.585595 0.248753
0.850462 0.591394 0.256565
0.874571 0.596460 0.259953
0.897490 0.602197 0.263676
0.919249 0.609094 0.269169
0.940215 0.616907 0.275547
0.960510 0.625696 0.283085
0.980255 0.635859 0.292485
0.999756 0.647425 0.303868
0.000000 0.612818 0.296910
0.000000 0.612604 0.295842
0.000000 0.611933 0.294316
0.000000 0.610864 0.290929
0.000000 0.609094 0.286625
0.000000 0.606867 0.281437
0.000000 0.603937 0.276127
0.098054 0.600366 0.272587
0.142031 0.600336 0.251530
0.180575 0.594232 0.229648
0.254429 0.584802 0.245029
0.312291 0.574182 0.261997
0.360876 0.567224 0.268070
0.408759 0.566400 0.255192
0.456611 0.564202 0.241245
0.503288 0.560601 0.224979
0.548363 0.555840 0.208225
0.607202 0.565362 0.185214
0.652491 0.573022 0.187869
0.692012 0.579644 0.198154
0.727901 0.585779 0.210483
0.760220 0.591760 0.224613
0.789487 0.597925 0.240421
0.817350 0.605341 0.257237
0.843412 0.613672 0.275059
0.867918 0.622400 0.292607
0.891295 0.628168 0.297704
0.913603 0.634791 0.303624
0.934966 0.642420 0.311162
0.955505 0.651179 0.320470
0.975616 0.661128 0.330938
0.995331 0.672602 0.344182
0.000000 0.653590 0.321935
0.000000 0.653895 0.321538
0.000000 0.672023 0.333379
0.000000 0.670832 0.330694
0.000000 0.668910 0.326818
0.000000 0.666163 0.321935
0.000000 0.662562 0.317418
0.085634 0.658228 0.313664
0.168734 0.654841 0.304112
0.198276 0.652003 0.277775
0.254124 0.643763 0.272648
0.320073 0.632929 0.288701
0.373236 0.620630 0.305455
0.418769 0.614893 0.301640
0.463661 0.611658 0.286473
0.508202 0.607324 0.269474
0.551476 0.602136 0.251652
0.593164 0.596216 0.232059
0.646906 0.602594 0.208591
0.689448 0.608972 0.210666
0.724880 0.613642 0.223941
0.757107 0.618372 0.238590
0.786465 0.623377 0.254856
0.814084 0.629572 0.271855
0.839841 0.636408 0.289555
0.863859 0.644129 0.308293
0.886412 0.652827 0.327825
0.908202 0.660365 0.339879
0.929473 0.667292 0.347723
0.950195 0.675624 0.357061
0.970397 0.685328 0.369055
0.990204 0.696437 0.383215
0.000000 0.693904 0.350683
0.000000 0.695888 0.351751
0.000000 0.697810 0.352728
0.000000 0.698878 0.352148
0.000000 0.698665 0.350225
0.000000 0.696986 0.347082
0.000000 0.694148 0.343511
0.056489 0.690120 0.340642
0.180362 0.685359 0.339330
0.210056 0.684688 0.316625
0.241581 0.678981 0.293065
0.310277 0.669459 0.305119
0.368719 0.658320 0.320684
0.416541 0.646235 0.337255
0.458595 0.642481 0.323552
0.500633 0.638361 0.307256
0.542046 0.633478 0.289555
0.582635 0.628077 0.270573
0.622339 0.622278 0.250919
0.672389 0.627161 0.227665
0.713375 0.633326 0.229221
0.747036 0.637964 0.244816
0.777432 0.642664 0.262028
0.806027 0.648402 0.279728
0.832639 0.654902 0.298558
0.857542 0.662287 0.317754
0.880888 0.670680 0.337957
0.902861 0.680323 0.360204
0.923766 0.691218 0.383856
0.944701 0.699336 0.394385
0.965087 0.708797 0.406806
0.985046 0.719722 0.422156
0.000000 0.723140 0.374304
0.000000 0.724758 0.375372
0.000000 0.726284 0.376440
0.000000 0.727077 0.376074
0.000000 0.726864 0.374792
0.000000 0.725399 0.372564
0.000000 0.722683 0.369696
0.021668 0.719142 0.367620
0.177005 0.714748 0.367071
0.232456 0.711757 0.357702
0.257420 0.709285 0.333623
0.301854 0.702480 0.324712
0.364477 0.692470 0.339666
0.415839 0.681575 0.354894
0.458259 0.671626 0.363836
0.497108 0.667842 0.347692
0.536065 0.663355 0.330449
0.574884 0.658442 0.312047
0.613306 0.653223 0.292943
0.651270 0.647944 0.272770
0.697505 0.651514 0.250492
0.737179 0.657496 0.251347
0.768673 0.661921 0.268956
0.798001 0.667109 0.288029
0.825437 0.673213 0.307195
0.851072 0.680110 0.327214
0.874968 0.687984 0.347875
0.897551 0.697047 0.370336
0.918944 0.707454 0.394690
0.939300 0.719234 0.421180
0.959289 0.730678 0.442573
0.979431 0.741451 0.458473
0.000000 0.749538 0.397894
0.000000 0.750942 0.398871
0.000000 0.752255 0.400061
0.000000 0.752956 0.400244
0.000000 0.752621 0.399359
0.000000 0.751186 0.397833
0.000000 0.748714 0.395941
0.027558 0.745388 0.394751
0.179660 0.741268 0.394842
0.257237 0.736324 0.396765
0.277012 0.735836 0.374304
0.303868 0.730892 0.353063
0.360266 0.722499 0.360204
0.414466 0.712734 0.374731
0.460090 0.702174 0.389654
0.497810 0.695186 0.390051
0.534539 0.691859 0.374426
0.571801 0.688258 0.357733
0.609308 0.684474 0.340826
0.646693 0.680629 0.322606
0.683528 0.676661 0.303685
0.727260 0.679805 0.282689
0.765103 0.685603 0.282902
0.795560 0.690913 0.304082
0.824002 0.697047 0.325261
0.850248 0.703883 0.346807
0.874632 0.711635 0.369665
0.897520 0.720424 0.393439
0.919097 0.730404 0.418524
0.939483 0.741726 0.445716
0.958923 0.754299 0.474434
0.977630 0.768368 0.505547
0.000000 0.780362 0.427955
0.000000 0.780880 0.428504
0.000000 0.781125 0.428931
0.000000 0.780850 0.428565
0.000000 0.779843 0.427802
0.000000 0.778042 0.426612
0.000000 0.775570 0.425544
0.082734 0.772519 0.425544
0.195254 0.768887 0.426856
0.271153 0.764401 0.430121
0.312322 0.761898 0.421820
0.332799 0.759670 0.400916
0.366552 0.753689 0.390143
0.421820 0.744686 0.403784
0.468330 0.735134 0.417945
0.507897 0.725124 0.432349
0.540856 0.720485 0.423926
0.574212 0.717098 0.408240
0.608484 0.713527 0.391272
0.643061 0.709682 0.373419
0.677485 0.705684 0.354772
0.711574 0.701442 0.335180
0.751186 0.703151 0.313848
0.787259 0.708492 0.310948
0.816220 0.713985 0.332433
0.843320 0.720455 0.354925
0.868559 0.727901 0.378485
0.892180 0.736416 0.402960
0.914336 0.746120 0.429114
0.935302 0.757015 0.456703
0.955169 0.769223 0.486244
0.974273 0.782803 0.517357
0.000000 0.803708 0.452247
0.000000 0.804135 0.452705
0.000000 0.804501 0.453193
0.000000 0.804196 0.453285
0.000000 0.803159 0.453040
0.000000 0.801419 0.452308
0.000000 0.798978 0.452033
0.109590 0.795865 0.452491
0.208621 0.792233 0.454322
0.281468 0.787900 0.457832
0.342596 0.783169 0.461769
0.357519 0.782834 0.441871
0.380041 0.778286 0.424598
0.424628 0.770962 0.428382
0.472053 0.762203 0.441688
0.512902 0.753079 0.455360
0.547906 0.744076 0.468116
0.577691 0.741390 0.453956
0.608850 0.738430 0.438575
0.640864 0.735439 0.422553
0.673335 0.732174 0.405768
0.705959 0.728786 0.387640
0.738186 0.725277 0.368627
0.775418 0.726802 0.347845
0.806821 0.729061 0.336584
0.834745 0.735012 0.359625
0.860899 0.742245 0.383917
0.885405 0.750454 0.409277
0.908324 0.759884 0.436164
0.930022 0.770565 0.464454
0.950713 0.782681 0.494850
0.970306 0.795865 0.526390
0.000000 0.830716 0.482429
0.000000 0.831205 0.483406
0.000000 0.831296 0.483742
0.000000 0.830716 0.483894
0.000000 0.829435 0.483742
0.000000 0.827420 0.483284
0.000000 0.824735 0.483497
0.152255 0.821378 0.484169
0.234409 0.817350 0.485969
0.301427 0.812741 0.489418
0.362066 0.807279 0.494575
0.391363 0.804654 0.485603
0.407141 0.802060 0.467536
0.431128 0.796475 0.455116
0.477577 0.787839 0.466407
0.517967 0.778775 0.478248
0.553063 0.769558 0.490517
0.582788 0.762509 0.494759
0.610315 0.760006 0.480690
0.639521 0.757534 0.466407
0.669795 0.755032 0.451331
0.700374 0.752346 0.434943
0.730892 0.749264 0.417365
0.760922 0.745724 0.397742
0.794919 0.746304 0.376532
0.828214 0.751522 0.367864
0.854948 0.758083 0.392279
0.879881 0.765774 0.418158
0.903349 0.774655 0.445106
0.925566 0.784939 0.473854
0.946715 0.796658 0.504814
0.966735 0.809323 0.536431
0.000000 0.851011 0.505608
0.000000 0.851438 0.506584
0.000000 0.851530 0.507225
0.000000 0.850919 0.507408
0.000000 0.849729 0.507805
0.000000 0.847837 0.508202
0.066255 0.845365 0.508873
0.182223 0.842283 0.510369
0.256321 0.838621 0.513085
0.319829 0.834440 0.517449
0.378393 0.829618 0.523247
0.426001 0.825040 0.526940
0.437201 0.824491 0.509789
0.455512 0.820218 0.495674
0.488991 0.813657 0.495857
0.529229 0.805509 0.507134
0.564813 0.797147 0.518791
0.596155 0.788846 0.530999
0.622156 0.784390 0.528832
0.647883 0.782406 0.515892
0.674830 0.780331 0.502098
0.702693 0.778134 0.487617
0.730922 0.775601 0.471717
0.759121 0.772702 0.454047
0.787015 0.769528 0.435096
0.818418 0.769863 0.414527
0.850401 0.775204 0.403479
0.876097 0.782650 0.429969
0.900237 0.791379 0.458198
0.923064 0.801511 0.488045
0.944457 0.812680 0.519249
0.964874 0.825193 0.551659
0.000000 0.871977 0.531212
0.000000 0.872160 0.531945
0.000000 0.872038 0.532311
0.000000 0.871244 0.532647
0.000000 0.869841 0.532982
0.000000 0.867948 0.533501
0.130587 0.865385 0.534691
0.213504 0.862364 0.536614
0.280156 0.858854 0.539849
0.340032 0.854917 0.544518
0.395850 0.850431 0.550835
0.448676 0.845426 0.558892
0.470039 0.843626 0.550561
0.483497 0.841550 0.536187
0.500816 0.837125 0.524315
0.540459 0.829648 0.534569
0.575616 0.821927 0.545251
0.607019 0.814237 0.556695
0.635157 0.806760 0.568963
0.657984 0.804440 0.560479
0.681788 0.802853 0.548150
0.706783 0.801083 0.535393
0.732448 0.799130 0.521141
0.758511 0.796902 0.505913
0.784726 0.794339 0.488991
0.810788 0.791623 0.470466
0.840024 0.791989 0.450874
0.870909 0.797574 0.437690
0.895293 0.805570 0.465980
0.918700 0.815305 0.496498
0.940551 0.826047 0.527855
0.961517 0.838254 0.560662
0.000000 0.890745 0.554681
0.000000 0.890776 0.555261
0.000000 0.890562 0.555718
0.000000 0.889891 0.556298
0.000000 0.888762 0.557366
0.085756 0.887266 0.559045
0.183780 0.885466 0.561791
0.253422 0.883330 0.565911
0.316014 0.880797 0.571405
0.374365 0.877836 0.578454
0.429023 0.874449 0.587121
0.480537 0.870542 0.597009
0.518883 0.867369 0.601953
0.528771 0.867430 0.589075
0.544610 0.864134 0.579065
0.569482 0.858976 0.578058
0.602960 0.852140 0.587945
0.632959 0.845335 0.598047
0.660060 0.838651 0.608850
0.683711 0.832975 0.616907
0.703914 0.831754 0.606775
0.725399 0.830442 0.596002
0.747707 0.828916 0.583917
0.770657 0.827237 0.570520
0.794095 0.825345 0.555932
0.817868 0.823301 0.540063
0.841825 0.821256 0.523003
0.868528 0.821805 0.504692
0.897917 0.827848 0.490455
0.920043 0.835782 0.519432
0.941955 0.846098 0.551141
0.962982 0.857847 0.583886
0.000000 0.913939 0.587243
0.000000 0.913817 0.587823
0.000000 0.913512 0.588128
0.000000 0.912657 0.588830
0.117464 0.911315 0.589960
0.186770 0.909545 0.591730
0.245975 0.907408 0.594446
0.301457 0.904906 0.598383
0.355016 0.901976 0.603571
0.407141 0.898619 0.610071
0.456641 0.894865 0.617792
0.504173 0.890745 0.626703
0.548333 0.886259 0.636469
0.562402 0.885191 0.628504
