data/fiter_cube/27130762/1023406/file.cube
# Created by Adobe Lightroom plugin Export LUT (1.17.0)
# www.johnrellis.com/lightroom/exportlut.htm
# Preset: 森系文艺人像美食静物_10 云集
# Color profile: C:\Program Files (x86)\Common Files\Adobe\Color\Profiles\Recommended\AdobeRGB1998.icc
LUT_3D_SIZE 8
DOMAIN_MIN 0.000000 0.000000 0.000000
DOMAIN_MAX 0.903226 0.903226 0.903226
0.142153 0.148409 0.146975
0.159548 0.149905 0.146670
0.247623 0.153079 0.144503
0.436408 0.146212 0.133822
0.630793 0.144442 0.109865
0.784360 0.194644 0.066590
0.886320 0.264652 0.000000
0.967803 0.339513 0.000000
0.141176 0.162814 0.151034
0.155886 0.162875 0.150332
0.236851 0.174228 0.147372
0.419318 0.180789 0.135958
0.616632 0.188266 0.111482
0.770413 0.228031 0.070069
0.875456 0.285496 0.000000
0.961639 0.355322 0.000000
0.125582 0.239567 0.169345
0.141390 0.239139 0.159731
0.222385 0.233799 0.154665
0.406195 0.276982 0.144594
0.610620 0.305913 0.119753
0.767178 0.340124 0.086702
0.880400 0.384802 0.047974
0.964508 0.434424 0.000000
0.000000 0.418830 0.215335
0.041779 0.413550 0.202914
0.197635 0.390112 0.182528
0.383886 0.400855 0.164157
0.614740 0.459266 0.152529
0.763516 0.487312 0.164706
0.868956 0.506035 0.165042
0.953216 0.536126 0.170474
0.000000 0.612818 0.296910
0.000000 0.609094 0.286625
0.142031 0.600336 0.251530
0.360876 0.567224 0.268070
0.548363 0.555840 0.208225
0.727901 0.585779 0.210483
0.843412 0.613672 0.275059
0.934966 0.642420 0.311162
0.000000 0.749538 0.397894
0.000000 0.752621 0.399359
0.179660 0.741268 0.394842
0.360266 0.722499 0.360204
0.534539 0.691859 0.374426
0.683528 0.676661 0.303685
0.824002 0.697047 0.325261
0.919097 0.730404 0.418524
0.000000 0.851011 0.505608
0.000000 0.849729 0.507805
0.256321 0.838621 0.513085
0.437201 0.824491 0.509789
0.564813 0.797147 0.518791
0.674830 0.780331 0.502098
0.787015 0.769528 0.435096
0.900237 0.791379 0.458198
0.000000 0.931212 0.611048
0.185611 0.928679 0.614496
0.386267 0.919951 0.630457
0.570031 0.905943 0.664912
0.620661 0.890745 0.631128
0.724727 0.870603 0.670466
0.802365 0.867948 0.644709
0.884428 0.864012 0.595087
0.144106 0.151461 0.157259
0.157229 0.151186 0.158083
0.237003 0.145144 0.157229
0.414038 0.133242 0.152956
0.610742 0.121126 0.136416
0.763210 0.169619 0.112306
0.870207 0.243839 0.081666
0.957549 0.324285 0.000000
0.141360 0.164401 0.163729
0.157839 0.164645 0.162661
0.236088 0.169406 0.161715
0.410925 0.169650 0.154360
0.605646 0.171298 0.137789
0.756466 0.209995 0.114168
0.862150 0.269108 0.084504
0.951171 0.340154 0.000000
0.124910 0.238407 0.184939
0.147250 0.238285 0.181491
0.224552 0.234745 0.173281
0.398749 0.271275 0.169345
0.596704 0.294011 0.151003
0.751003 0.324865 0.130922
0.861814 0.366003 0.113344
0.952544 0.419135 0.091798
0.000000 0.409583 0.235294
0.062867 0.406775 0.226963
0.202304 0.390814 0.204105
0.370184 0.385168 0.189853
0.582177 0.433875 0.184543
0.737118 0.464729 0.189731
0.849302 0.487098 0.188327
0.941466 0.522606 0.192966
0.000000 0.609125 0.320043
0.000000 0.604059 0.310002
0.181521 0.588678 0.291722
0.356176 0.552361 0.288426
0.531579 0.539635 0.229831
0.713375 0.574029 0.235416
0.832944 0.605798 0.296361
0.927520 0.634730 0.324437
0.000000 0.742458 0.411322
0.000000 0.740322 0.407538
0.165591 0.729915 0.401251
0.354192 0.713588 0.368200
0.529931 0.684321 0.389227
0.679042 0.672419 0.324743
0.818570 0.693263 0.346014
0.913603 0.726192 0.431128
0.000000 0.842771 0.508537
0.000000 0.839322 0.506981
0.233646 0.829923 0.511620
0.441810 0.815946 0.520317
0.561608 0.792844 0.522576
0.669886 0.774899 0.508629
0.779263 0.762600 0.439796
0.892943 0.784207 0.460060
0.000000 0.927703 0.611994
0.158145 0.925811 0.616083
0.373297 0.917601 0.631525
0.562127 0.903990 0.664973
0.631495 0.894713 0.646387
0.728817 0.872618 0.678584
0.801297 0.866636 0.650233
0.881285 0.861021 0.597955
0.144289 0.157748 0.203433
0.158663 0.154513 0.209689
0.231632 0.152285 0.210178
0.413703 0.103273 0.215000
0.612665 0.000000 0.207187
0.764584 0.131380 0.215396
0.872160 0.239200 0.212833
0.959472 0.326055 0.200931
0.154604 0.178286 0.207797
0.163668 0.176120 0.215000
0.232517 0.171023 0.216007
0.409766 0.138949 0.218204
0.606317 0.108278 0.214694
0.757595 0.186374 0.217838
0.866087 0.267887 0.214542
0.955657 0.346471 0.204746
0.110079 0.254490 0.260166
0.141939 0.251957 0.255406
0.236667 0.244480 0.240970
0.410651 0.258427 0.241215
0.608209 0.281834 0.241428
0.754971 0.319799 0.239414
0.862058 0.367468 0.237583
0.951354 0.421759 0.231998
0.000000 0.430030 0.314427
0.000000 0.427985 0.307317
0.218112 0.414435 0.293156
0.387304 0.397833 0.277440
0.592187 0.446265 0.294774
0.741665 0.470405 0.295964
0.851865 0.496071 0.299992
0.942321 0.530724 0.302586
0.000000 0.617700 0.393622
0.000000 0.614588 0.387854
0.183444 0.600336 0.375586
0.385626 0.569909 0.365484
0.545647 0.549889 0.325353
0.715908 0.581842 0.341924
0.831266 0.613642 0.390234
0.925566 0.640589 0.405646
0.000000 0.746426 0.470497
0.000000 0.744015 0.468696
0.179171 0.732479 0.463966
0.401099 0.713161 0.453162
0.541314 0.680995 0.458686
0.676051 0.669337 0.397711
0.812894 0.693599 0.423865
0.910674 0.732998 0.502617
0.000000 0.846738 0.554925
0.000000 0.843656 0.554528
0.247166 0.832944 0.555810
0.470893 0.813657 0.571618
0.574578 0.793790 0.559625
0.677516 0.774289 0.558709
0.781521 0.765499 0.499672
0.894682 0.791531 0.525658
0.000000 0.929381 0.639399
0.109071 0.926787 0.640101
0.354284 0.918212 0.651087
0.554406 0.905913 0.682063
0.650141 0.894469 0.679530
0.734096 0.875059 0.695918
0.804410 0.867857 0.676997
0.882383 0.863340 0.630365
0.130129 0.171664 0.320500
0.153323 0.168124 0.326604
0.235813 0.148043 0.330236
0.384527 0.140414 0.322667
0.582300 0.110018 0.331518
0.748745 0.046357 0.335393
0.857725 0.209537 0.349187
0.948425 0.321172 0.353216
0.147127 0.204593 0.334234
0.164157 0.198856 0.338170
0.238529 0.171389 0.343847
0.387366 0.170230 0.330236
0.584253 0.157168 0.339086
0.745235 0.140902 0.341222
0.853910 0.249393 0.353613
0.946502 0.342168 0.355077
0.147402 0.280339 0.368505
0.189029 0.283391 0.363653
0.258274 0.277623 0.361303
0.391455 0.262730 0.354070
0.593072 0.269169 0.366369
0.746548 0.298222 0.374914
0.857420 0.376867 0.391455
0.946929 0.429297 0.385565
0.000000 0.442573 0.458717
0.000000 0.439582 0.453254
0.228519 0.428717 0.434913
0.399878 0.405585 0.401343
0.586542 0.430274 0.408820
0.733211 0.459876 0.416144
0.844511 0.494362 0.424598
0.938018 0.532311 0.427100
0.000000 0.632166 0.517052
0.000000 0.629297 0.509728
0.000000 0.619867 0.487709
0.407874 0.588037 0.475288
0.556420 0.557519 0.448798
0.715511 0.594354 0.478370
0.829038 0.619043 0.495583
0.923095 0.645045 0.503044
0.000000 0.759304 0.562890
0.000000 0.760616 0.564569
0.140139 0.747494 0.555322
0.429450 0.723079 0.552575
0.572595 0.691341 0.550591
0.681666 0.674189 0.504082
0.810422 0.701350 0.532799
0.906889 0.743130 0.593164
0.000000 0.851530 0.620142
0.000000 0.849821 0.620630
0.242039 0.841672 0.622034
0.470100 0.824704 0.629389
0.608179 0.803128 0.629358
0.695247 0.778470 0.631342
0.782986 0.767849 0.575799
0.892699 0.796414 0.601068
0.000000 0.933837 0.691249
0.139864 0.932219 0.692683
0.340063 0.925353 0.695888
0.528527 0.912108 0.709346
0.677333 0.894285 0.730434
0.739834 0.880278 0.721736
0.807919 0.869444 0.714107
0.882902 0.865385 0.671656
0.103944 0.204776 0.480751
0.141573 0.199893 0.482918
0.237919 0.174624 0.483040
0.368811 0.117220 0.461311
0.554345 0.147768 0.463172
0.707973 0.230991 0.467903
0.839353 0.264652 0.481819
0.934203 0.361700 0.511162
0.143557 0.244511 0.489631
0.168215 0.238682 0.492287
0.246403 0.209018 0.491554
0.368414 0.145205 0.467414
0.553796 0.187442 0.467750
0.708217 0.261479 0.474556
0.838804 0.293919 0.488380
0.933074 0.381781 0.516716
0.237186 0.351568 0.502647
0.252750 0.350286 0.505303
0.289464 0.325200 0.507652
0.381506 0.256382 0.497841
0.550927 0.289586 0.482246
0.704616 0.340917 0.491310
0.832334 0.374426 0.506523
0.928222 0.436164 0.529839
0.146059 0.455207 0.566705
0.206271 0.455268 0.562219
0.338018 0.458228 0.547143
0.430884 0.444800 0.530571
0.552819 0.423987 0.514183
0.709987 0.452247 0.527153
0.828824 0.479683 0.540032
0.926726 0.520256 0.542077
0.000000 0.618280 0.635401
0.000000 0.616205 0.632319
0.240391 0.606348 0.619440
0.424872 0.586999 0.595422
0.554284 0.552880 0.553552
0.704524 0.575097 0.563684
0.820279 0.600824 0.574365
0.918547 0.628687 0.579339
0.000000 0.748287 0.661646
0.000000 0.746761 0.659022
0.000000 0.739742 0.647395
0.341863 0.728481 0.626337
0.565148 0.692378 0.612451
0.676265 0.668544 0.590661
0.805447 0.706355 0.628290
0.905150 0.736721 0.648219
0.000000 0.856168 0.696040
0.000000 0.853635 0.694240
0.154604 0.845243 0.689937
0.425116 0.830259 0.686580
0.602655 0.807401 0.686305
0.702235 0.779385 0.683742
0.779110 0.764889 0.641138
0.888914 0.796811 0.666102
0.000000 0.933837 0.744594
0.000000 0.931975 0.744289
0.302159 0.925628 0.744228
0.491920 0.917876 0.750790
0.639857 0.902892 0.754849
0.739101 0.886839 0.751492
0.808530 0.869078 0.753231
0.879576 0.863371 0.709865
0.160616 0.270085 0.636011
0.190219 0.263859 0.635645
0.271031 0.234928 0.631006
0.391882 0.164462 0.625605
0.540276 0.079835 0.602564
0.688960 0.225315 0.589105
0.799832 0.378759 0.594354
0.913329 0.433326 0.625696
0.199283 0.307683 0.634363
0.218662 0.299870 0.633600
0.283848 0.270512 0.631006
0.391394 0.202945 0.623865
0.534691 0.131807 0.600580
0.685359 0.253574 0.589288
0.797910 0.393378 0.596643
0.912047 0.444312 0.627466
0.304021 0.421515 0.647242
0.313420 0.415503 0.646784
0.346532 0.389502 0.644678
0.414099 0.326574 0.637751
0.530877 0.242069 0.609827
0.684138 0.343572 0.601129
0.797910 0.448341 0.612177
0.911681 0.487831 0.639643
0.352544 0.522179 0.671656
0.380346 0.524315 0.667689
0.455604 0.533501 0.658503
0.484382 0.502983 0.659358
0.545068 0.409766 0.641291
0.687160 0.464454 0.626764
0.802487 0.528893 0.641230
0.913176 0.554650 0.661463
0.264378 0.613672 0.711879
0.305425 0.613672 0.709926
0.410437 0.613336 0.702083
0.527550 0.613001 0.686885
0.588312 0.591272 0.664912
0.678553 0.566613 0.645533
0.802914 0.599115 0.662409
0.909758 0.619867 0.676783
0.050507 0.732265 0.749935
0.177920 0.732021 0.749691
0.334447 0.726650 0.744015
0.477119 0.716396 0.733028
0.591394 0.699519 0.713710
0.679988 0.670253 0.678737
0.804685 0.694148 0.693782
0.907805 0.717952 0.702541
0.000000 0.846799 0.784756
0.087617 0.846189 0.784543
0.291905 0.841367 0.780423
0.442451 0.834348 0.772976
0.565270 0.826261 0.758206
0.705837 0.794705 0.741238
0.781399 0.767269 0.711452
0.893309 0.805325 0.742824
0.000000 0.937011 0.811398
0.000000 0.935912 0.810330
0.262974 0.932708 0.807156
0.457221 0.924010 0.806302
0.609583 0.911681 0.803708
0.732845 0.895659 0.799863
0.814023 0.873625 0.798184
0.878538 0.863798 0.759030
0.289220 0.362554 0.744381
0.306218 0.358038 0.745846
0.352148 0.330205 0.743679
0.431342 0.269810 0.739040
0.536034 0.155337 0.721553
0.680659 0.139071 0.712917
0.784909 0.332647 0.687160
0.875303 0.508721 0.704921
0.308934 0.389563 0.739193
0.322210 0.384436 0.740383
0.360357 0.356603 0.738705
0.430060 0.297124 0.733577
0.529595 0.189242 0.717128
0.670619 0.166171 0.705440
0.776120 0.337560 0.679988
0.868345 0.502464 0.696712
0.394507 0.488319 0.747158
0.402197 0.483986 0.746914
0.421576 0.460121 0.743984
0.461036 0.405097 0.739162
0.536950 0.302281 0.727077
0.665797 0.265965 0.709194
0.777249 0.406714 0.690761
0.873289 0.544274 0.713191
0.497475 0.595727 0.754788
0.500389 0.592340 0.753689
0.512779 0.581018 0.751919
0.531884 0.551019 0.749569
0.562951 0.470985 0.739864
0.659113 0.386969 0.718715
0.779263 0.499794 0.708949
0.878050 0.594293 0.731685
0.459388 0.646509 0.777554
0.476600 0.646357 0.774716
0.532067 0.649226 0.767300
0.607416 0.657740 0.755947
0.615808 0.621454 0.748959
0.646509 0.517998 0.727352
0.769833 0.579034 0.718502
0.880369 0.641871 0.745785
0.387671 0.725551 0.809140
0.412451 0.725246 0.808042
0.484474 0.724208 0.804044
0.575738 0.722927 0.797299
0.658961 0.718593 0.784115
0.702296 0.696223 0.763943
0.774533 0.674372 0.747097
0.890745 0.704189 0.768551
0.310033 0.824735 0.841337
0.344823 0.824613 0.841489
0.432166 0.821775 0.839414
0.537163 0.817319 0.835996
0.630732 0.808652 0.827817
0.711940 0.794766 0.813107
0.778042 0.762936 0.777157
0.894621 0.789944 0.794186
0.275547 0.919341 0.870207
0.308659 0.918517 0.869810
0.410437 0.918425 0.871550
0.517937 0.915373 0.870176
0.617670 0.911803 0.866056
0.710292 0.909300 0.857877
0.814786 0.887968 0.844602
0.877653 0.863828 0.814206
0.430274 0.474067 0.828305
0.437537 0.469062 0.828946
0.455818 0.442237 0.826871
0.499031 0.391608 0.825528
0.567193 0.293950 0.820768
0.656031 0.149660 0.798337
0.794583 0.242222 0.804105
0.869108 0.438239 0.777981
0.442603 0.493599 0.825620
0.448829 0.488655 0.826230
0.464790 0.463355 0.824857
0.501732 0.412818 0.822812
0.565606 0.319280 0.818265
0.652399 0.182284 0.796658
0.789120 0.255314 0.800351
0.865446 0.442725 0.775143
0.493843 0.560204 0.825071
0.498726 0.556909 0.825132
0.502892 0.532433 0.822782
0.530236 0.493507 0.824125
0.575219 0.410254 0.819272
0.650690 0.281712 0.800320
0.781888 0.316747 0.799222
0.863005 0.479011 0.778256
0.548119 0.632807 0.826871
0.554253 0.632410 0.827634
0.567651 0.624353 0.827024
0.583215 0.599512 0.826474
0.602350 0.535637 0.823239
0.656184 0.419501 0.812070
0.773556 0.404273 0.802457
0.862882 0.539666 0.788022
0.581811 0.693690 0.835447
0.594018 0.696101 0.835142
0.626246 0.699855 0.830594
0.635645 0.686397 0.830503
0.648585 0.654994 0.827817
0.667720 0.570397 0.819821
0.755367 0.490394 0.803525
0.862608 0.608453 0.800809
0.534508 0.742672 0.859220
0.545586 0.742092 0.857786
0.582391 0.741207 0.853605
0.637385 0.741268 0.847593
0.701228 0.744015 0.838560
0.716976 0.714199 0.836484
0.751369 0.621149 0.821775
0.868223 0.687709 0.822660
0.471107 0.816709 0.887266
0.486061 0.815946 0.886442
0.533135 0.813779 0.884062
0.602319 0.811734 0.881285
0.677729 0.808835 0.877012
0.755459 0.806760 0.869780
0.799374 0.788510 0.857084
0.865446 0.762325 0.839170
0.418616 0.903441 0.915251
0.436133 0.902647 0.914794
0.492775 0.900786 0.914000
0.573114 0.898833 0.913542
0.656825 0.896300 0.912352
0.739864 0.892821 0.909697
0.815396 0.886595 0.902922
0.871092 0.856260 0.870634
