data/fiter_cube/27130762/1023406/file.cube
# Created by Adobe Lightroom plugin Export LUT (1.17.0)
# www.johnrellis.com/lightroom/exportlut.htm
# Preset: 森系文艺人像美食静物_10 云集
# Color profile: C:\Program Files (x86)\Common Files\Adobe\Color\Profiles\Recommended\AdobeRGB1998.icc
LUT_3D_SIZE 5
DOMAIN_MIN 0.000000 0.000000 0.000000
DOMAIN_MAX 0.903226 0.903226 0.903226
0.142153 0.148409 0.146975
0.215244 0.152468 0.145571
0.539696 0.140658 0.123323
0.813443 0.211978 0.044526
0.967803 0.339513 0.000000
0.133211 0.211032 0.162783
0.198367 0.208347 0.153414
0.516442 0.260533 0.129610
0.802853 0.321172 0.067506
0.967926 0.414649 0.000000
0.000000 0.515312 0.249424
0.115846 0.507530 0.208530
0.474342 0.487984 0.180972
0.776150 0.547143 0.208347
0.944121 0.589044 0.237919
0.000000 0.780362 0.427955
0.082734 0.772519 0.425544
0.468330 0.735134 0.417945
0.711574 0.701442 0.335180
0.914336 0.746120 0.429114
0.000000 0.931212 0.611048
0.336339 0.922667 0.624689
0.587762 0.897124 0.641627
0.743862 0.869108 0.669001
0.884428 0.864012 0.595087
0.145052 0.155703 0.185031
0.203830 0.152804 0.190555
0.514916 0.000000 0.186374
0.789212 0.162173 0.180392
0.956329 0.319554 0.157321
0.126864 0.220890 0.224186
0.207797 0.215518 0.212497
0.510796 0.234257 0.207614
0.784604 0.296117 0.197269
0.953491 0.397925 0.184970
0.000000 0.522454 0.326329
0.143404 0.508415 0.307012
0.461036 0.471473 0.268254
0.758694 0.538109 0.305913
0.936919 0.588098 0.328740
0.000000 0.780179 0.483742
0.123384 0.771756 0.483131
0.486946 0.735500 0.472084
0.708644 0.698909 0.407141
0.908934 0.748287 0.492988
0.000000 0.931945 0.636042
0.324102 0.923583 0.646876
0.629847 0.898344 0.691615
0.753292 0.871824 0.697475
0.885374 0.866209 0.627619
0.115175 0.185245 0.400397
0.208438 0.166384 0.406714
0.472084 0.136141 0.392340
0.768368 0.158297 0.406806
0.941802 0.338689 0.441138
0.198581 0.294163 0.421424
0.240909 0.274327 0.428840
0.476295 0.245121 0.413977
0.762509 0.284398 0.429145
0.939727 0.409247 0.453864
0.000000 0.538140 0.554955
0.161196 0.526879 0.538415
0.480629 0.483284 0.480781
0.748806 0.528099 0.498207
0.928283 0.583612 0.510246
0.000000 0.787564 0.621912
0.000000 0.776425 0.611933
0.516320 0.738338 0.605249
0.706874 0.697292 0.564538
0.899657 0.756435 0.630152
0.000000 0.932403 0.714809
0.275242 0.927214 0.717922
0.587610 0.906859 0.732143
0.758145 0.876677 0.738552
0.879637 0.862699 0.687160
0.184085 0.287266 0.662348
0.261967 0.263035 0.661158
0.458808 0.132784 0.640742
0.713741 0.248203 0.613733
0.903227 0.451026 0.647456
0.289586 0.401526 0.669368
0.327245 0.378241 0.667781
0.466163 0.256474 0.654139
0.708400 0.331304 0.619806
0.900420 0.485023 0.654078
0.353674 0.568292 0.704799
0.438483 0.573663 0.696132
0.536431 0.548455 0.676783
0.695125 0.504509 0.641993
0.902770 0.583307 0.681636
0.174350 0.759823 0.777554
0.325475 0.753506 0.771420
0.550042 0.737026 0.754360
0.705074 0.693812 0.703883
0.903136 0.733822 0.723995
0.027802 0.933501 0.828733
0.272831 0.930938 0.826932
0.534203 0.921599 0.821988
0.757046 0.895232 0.813260
0.877714 0.863310 0.771511
0.430274 0.474067 0.828305
0.449287 0.450782 0.827359
0.529992 0.350927 0.823880
0.685969 0.129061 0.794888
0.869108 0.438239 0.777981
0.482368 0.543847 0.826200
0.490974 0.522820 0.825437
0.543542 0.433936 0.822446
0.673030 0.213565 0.791012
0.865019 0.470710 0.778775
0.586145 0.672175 0.827115
0.590600 0.663783 0.827146
0.613977 0.625452 0.825010
0.671351 0.454505 0.806546
0.861723 0.571649 0.792905
0.527092 0.762325 0.868376
0.565789 0.760891 0.864744
0.665919 0.759274 0.854887
0.735805 0.730861 0.840024
0.867033 0.704707 0.825711
0.418616 0.903441 0.915251
0.475471 0.901274 0.914183
0.614893 0.897734 0.913115
0.759731 0.891783 0.908598
0.871092 0.856260 0.870634
