data/fiter_cube/21023058/1023005/file.cube
# Created by Adobe Lightroom plugin Export LUT (1.17.0)
# www.johnrellis.com/lightroom/exportlut.htm
# Preset: 温暖焦糖婚礼婚纱_01 云集
# Color profile: C:\Program Files (x86)\Common Files\Adobe\Color\Profiles\Recommended\AdobeRGB1998.icc
LUT_3D_SIZE 5
DOMAIN_MIN 0.000000 0.000000 0.000000
DOMAIN_MAX 0.903226 0.903226 0.903226
0.023255 0.026093 0.015656
0.127413 0.059022 0.043153
0.452857 0.010712 0.087587
0.719997 0.306310 0.225284
0.877348 0.579858 0.513756
0.055970 0.081605 0.041962
0.092470 0.083253 0.052857
0.408972 0.169406 0.100496
0.701991 0.354528 0.235843
0.868589 0.590753 0.513298
0.088899 0.206455 0.074861
0.111543 0.160250 0.072267
0.282383 0.230167 0.115877
0.636194 0.436194 0.266789
0.845457 0.635248 0.531243
0.154818 0.420356 0.141604
0.176852 0.366766 0.126497
0.215122 0.266148 0.112886
0.548669 0.469001 0.277623
0.811551 0.679347 0.558068
0.448005 0.699092 0.436225
0.433906 0.680964 0.397498
0.450904 0.602350 0.333440
0.575830 0.599481 0.378271
0.791592 0.728389 0.600336
0.087648 0.081666 0.175937
0.187564 0.071138 0.139895
0.544305 0.117342 0.181949
0.730282 0.348241 0.270451
0.879820 0.591730 0.524529
0.058930 0.123751 0.132662
0.209934 0.192874 0.175265
0.494057 0.239689 0.187564
0.709438 0.383917 0.269566
0.872770 0.604303 0.527062
0.113680 0.304387 0.148470
0.176303 0.271672 0.135439
0.337530 0.280125 0.159335
0.640864 0.446174 0.275792
0.847776 0.640894 0.537774
0.175662 0.438300 0.161990
0.190249 0.375677 0.136599
0.224094 0.273777 0.115816
0.552056 0.472206 0.280980
0.814054 0.682765 0.562737
0.450660 0.700710 0.438575
0.437873 0.684108 0.402777
0.447150 0.600885 0.330694
0.572595 0.597345 0.375097
0.791379 0.728145 0.600000
0.407843 0.325322 0.622217
0.499153 0.320439 0.604852
0.631952 0.322911 0.532677
0.793942 0.493294 0.541741
0.891478 0.617853 0.605737
0.299626 0.352117 0.594507
0.486824 0.427649 0.602167
0.633204 0.419348 0.544518
0.785489 0.512291 0.539025
0.885771 0.628199 0.601434
0.167849 0.474067 0.517266
0.345617 0.511925 0.535058
0.636408 0.603723 0.578302
0.736019 0.576928 0.524407
0.863706 0.661921 0.592859
0.294743 0.648676 0.505852
0.394018 0.644312 0.501823
0.479866 0.560723 0.414282
0.640162 0.577722 0.464637
0.825589 0.697719 0.589105
0.493385 0.746578 0.536919
0.513085 0.737514 0.525933
0.489570 0.660578 0.409064
0.563287 0.596216 0.371649
0.796445 0.733913 0.608576
0.676692 0.623224 0.802701
0.696651 0.620752 0.797177
0.757259 0.612238 0.779690
0.810819 0.609705 0.732692
0.901030 0.743343 0.773953
0.654963 0.627283 0.795193
0.697475 0.650660 0.794522
0.755062 0.641566 0.779263
0.810239 0.637079 0.737087
0.900420 0.747311 0.773831
0.587030 0.642634 0.772824
0.628351 0.658015 0.773861
0.744564 0.709133 0.778714
0.804807 0.697414 0.743984
0.895293 0.745785 0.758328
0.498085 0.694331 0.727504
0.552941 0.704799 0.731777
0.679255 0.735378 0.743771
0.806424 0.779995 0.765316
0.868650 0.755825 0.718959
0.570611 0.835386 0.760433
0.598688 0.832853 0.756039
0.674342 0.818906 0.733394
0.669032 0.734981 0.602564
0.817319 0.766506 0.680476
0.821378 0.786007 0.893095
0.826352 0.784146 0.891447
0.845029 0.779416 0.886534
0.876951 0.771511 0.877806
0.900023 0.767910 0.853147
0.811460 0.782925 0.890654
0.823606 0.789181 0.889860
0.842191 0.784329 0.885191
0.873777 0.775296 0.876219
0.899077 0.772732 0.853147
0.768826 0.770748 0.885222
0.783322 0.776577 0.885130
0.834195 0.802670 0.883909
0.866545 0.793362 0.875425
0.899199 0.794308 0.857969
0.735409 0.784726 0.872374
0.743557 0.786496 0.872129
0.781979 0.798276 0.874571
0.857908 0.831266 0.880919
0.900969 0.832425 0.868437
0.702113 0.820981 0.856107
0.700252 0.821134 0.855222
0.741176 0.832395 0.859983
0.816617 0.851896 0.867094
0.901549 0.883970 0.881773
