data/fiter_cube/21023058/1023005/file.cube
# Created by Adobe Lightroom plugin Export LUT (1.17.0)
# www.johnrellis.com/lightroom/exportlut.htm
# Preset: 温暖焦糖婚礼婚纱_01 云集
# Color profile: C:\Program Files (x86)\Common Files\Adobe\Color\Profiles\Recommended\AdobeRGB1998.icc
LUT_3D_SIZE 8
DOMAIN_MIN 0.000000 0.000000 0.000000
DOMAIN_MAX 0.903226 0.903226 0.903226
0.023255 0.026093 0.015656
0.064729 0.044862 0.025666
0.160372 0.058320 0.049439
0.346227 0.003265 0.070497
0.548577 0.104372 0.113039
0.689998 0.264836 0.195651
0.798337 0.428290 0.339239
0.877348 0.579858 0.513756
0.037385 0.054749 0.026795
0.057099 0.055329 0.029358
0.149325 0.079591 0.054688
0.339208 0.088716 0.075410
0.546197 0.152102 0.119173
0.690455 0.291966 0.204868
0.798581 0.443885 0.348638
0.877073 0.588403 0.519463
0.061372 0.093172 0.048432
0.069612 0.085634 0.047364
0.110719 0.097261 0.060670
0.281712 0.156893 0.087404
0.502159 0.227848 0.129580
0.663600 0.336645 0.211276
0.780240 0.462989 0.346197
0.866819 0.596735 0.516136
0.077699 0.160037 0.065278
0.087953 0.147921 0.065248
0.109316 0.127779 0.066285
0.213321 0.175204 0.091737
0.436316 0.277226 0.144839
0.613672 0.383246 0.224002
0.754849 0.499458 0.358068
0.853666 0.620478 0.524254
0.101381 0.259434 0.086397
0.112551 0.242527 0.085481
0.128359 0.190249 0.080690
0.186282 0.203922 0.092226
0.358068 0.293492 0.146822
0.581201 0.428443 0.254185
0.725887 0.538750 0.383001
0.835111 0.649287 0.538262
0.138888 0.385565 0.125246
0.146731 0.366247 0.119783
0.167544 0.309880 0.110506
0.167056 0.222782 0.095735
0.309117 0.320073 0.139223
0.511498 0.432837 0.243687
0.696895 0.564782 0.405615
0.815152 0.672816 0.552514
0.241245 0.540337 0.230747
0.235904 0.528862 0.214389
0.251591 0.487343 0.191714
0.257023 0.404669 0.158999
0.286168 0.354803 0.150759
0.491005 0.482185 0.253513
0.657527 0.579706 0.404211
0.800565 0.698604 0.578393
0.448005 0.699092 0.436225
0.444099 0.693996 0.425116
0.434699 0.673518 0.388922
0.442786 0.627710 0.350469
0.444282 0.563348 0.303014
0.531701 0.574304 0.342412
0.690578 0.667597 0.478645
0.791592 0.728389 0.600336
0.054932 0.051881 0.063294
0.074189 0.050690 0.058442
0.203616 0.057435 0.072053
0.369879 0.070375 0.087984
0.548425 0.144778 0.118410
0.694087 0.289586 0.205692
0.801907 0.443030 0.351141
0.880156 0.589319 0.523125
0.040436 0.062959 0.055940
0.080171 0.077638 0.066041
0.182559 0.095674 0.076143
0.352361 0.111818 0.089754
0.541070 0.175174 0.122530
0.690364 0.308507 0.210697
0.800961 0.455787 0.358251
0.879942 0.597681 0.528923
0.066468 0.112123 0.066102
0.086671 0.114748 0.068574
0.129305 0.112337 0.072267
0.289311 0.165713 0.093690
0.502800 0.239506 0.133700
0.666438 0.350103 0.218570
0.785916 0.477241 0.360662
0.870817 0.607141 0.527428
0.088411 0.182376 0.076875
0.099245 0.165835 0.074403
0.117037 0.135012 0.070039
0.221683 0.181674 0.094728
0.449256 0.289952 0.151797
0.623590 0.398474 0.236271
0.762142 0.512474 0.373144
0.858000 0.629877 0.535210
0.107454 0.252781 0.086458
0.116793 0.237156 0.085664
0.129854 0.187625 0.080903
0.192996 0.209628 0.094301
0.366827 0.300877 0.150820
0.587366 0.435676 0.260960
0.730190 0.545006 0.390631
0.838163 0.654871 0.545190
0.143862 0.383124 0.124178
0.153201 0.366705 0.121370
0.171237 0.310796 0.111604
0.168582 0.222873 0.096162
0.315099 0.325170 0.141756
0.514733 0.435798 0.246159
0.699336 0.567956 0.409491
0.817685 0.676570 0.557488
0.246525 0.543816 0.232731
0.242527 0.534020 0.217685
0.258305 0.491981 0.196048
0.261234 0.408270 0.161105
0.291264 0.359655 0.153628
0.496162 0.486793 0.257939
0.662043 0.584405 0.410071
0.804196 0.703426 0.585016
0.453773 0.702571 0.441382
0.449226 0.697230 0.430030
0.439216 0.676692 0.393591
0.446876 0.631037 0.354925
0.439887 0.559869 0.298802
0.529870 0.573022 0.340642
0.691798 0.669001 0.480507
0.793393 0.730465 0.603388
0.102785 0.096040 0.237583
0.152529 0.090852 0.227451
0.248264 0.079347 0.185733
0.486580 0.104402 0.215305
0.622889 0.194553 0.234714
0.713252 0.325200 0.281224
0.800320 0.450813 0.369879
0.878599 0.589410 0.521660
0.069215 0.110964 0.222416
0.152773 0.134524 0.236515
0.260441 0.125612 0.200961
0.490486 0.155886 0.224674
0.615900 0.237583 0.241611
0.709041 0.343297 0.284031
0.798459 0.461311 0.373175
0.877562 0.595636 0.525139
0.056916 0.158663 0.177005
0.106233 0.180301 0.192416
0.278294 0.255772 0.236301
0.440314 0.273259 0.232303
0.574212 0.309239 0.241093
0.683986 0.381445 0.281132
0.784482 0.483406 0.372076
0.870634 0.609277 0.528954
0.066102 0.291508 0.189944
0.125521 0.302953 0.194247
0.231479 0.291722 0.186709
0.335637 0.287480 0.199619
0.505760 0.353552 0.234440
0.637201 0.421424 0.278874
0.757748 0.512322 0.370855
0.857420 0.629938 0.534905
0.137789 0.379431 0.188327
0.172549 0.382452 0.192325
0.211063 0.328130 0.162692
0.238071 0.261295 0.138521
0.410651 0.344121 0.200198
0.592309 0.445197 0.277836
0.729213 0.545708 0.390967
0.838865 0.656214 0.546838
0.200290 0.462135 0.209293
0.210819 0.452766 0.200839
0.214054 0.383246 0.159030
0.195499 0.260105 0.116304
0.329320 0.337774 0.152438
0.518639 0.439521 0.249729
0.701686 0.571130 0.413367
0.818997 0.678279 0.559869
0.246281 0.540887 0.229404
0.244114 0.528130 0.214206
0.259190 0.486152 0.193179
0.261967 0.405310 0.160555
0.296666 0.364172 0.156039
0.499275 0.489021 0.260380
0.661616 0.583948 0.409522
0.804074 0.702937 0.584375
0.455299 0.703487 0.442695
0.454170 0.700984 0.436805
0.443030 0.681819 0.399756
0.449561 0.635340 0.359533
0.444007 0.565301 0.304112
0.528283 0.572839 0.340185
0.691096 0.668849 0.480201
0.793179 0.730190 0.603052
0.283635 0.224002 0.529961
0.327764 0.219303 0.520317
0.448920 0.205844 0.497688
0.535241 0.208988 0.437201
0.688838 0.376410 0.463081
0.764492 0.396887 0.446204
0.823636 0.487221 0.482124
0.886839 0.605066 0.567651
0.247013 0.242741 0.511772
0.325261 0.268040 0.515496
0.444160 0.255528 0.497475
0.536614 0.253880 0.442847
0.686183 0.393774 0.465400
0.761593 0.407019 0.445930
0.820798 0.497078 0.483314
0.885496 0.609522 0.567864
0.155581 0.292210 0.480781
0.223423 0.310307 0.487587
0.430304 0.383062 0.506737
0.544244 0.377081 0.464820
0.673548 0.436347 0.465339
0.740505 0.453071 0.448493
0.805447 0.516167 0.475502
0.877012 0.617884 0.561700
0.049226 0.366430 0.417914
0.151125 0.385321 0.427985
0.339178 0.441779 0.456458
0.547601 0.515282 0.491341
0.628840 0.500694 0.458503
0.704860 0.508537 0.446265
0.784756 0.551904 0.474006
0.864256 0.639002 0.560998
0.062135 0.537163 0.440986
0.175967 0.541100 0.441596
0.348516 0.542809 0.436713
0.455268 0.498360 0.395392
0.551537 0.498512 0.415473
0.654963 0.533684 0.433600
0.748806 0.579950 0.467689
0.844083 0.661433 0.559411
0.236912 0.577234 0.396979
0.269291 0.574273 0.394354
0.360876 0.567651 0.392035
0.385565 0.497383 0.320897
0.406775 0.422797 0.267613
0.586114 0.518029 0.382452
0.717403 0.594720 0.460060
0.822843 0.681880 0.565209
0.335180 0.635615 0.408392
0.351507 0.632013 0.405463
0.396094 0.617060 0.392828
0.365393 0.535912 0.293065
0.302190 0.378698 0.184237
0.507897 0.500450 0.287510
0.662654 0.584833 0.410773
0.807767 0.706691 0.589715
0.467231 0.718563 0.476081
0.471901 0.715908 0.472694
0.467597 0.698238 0.438453
0.453376 0.648219 0.372137
0.450965 0.578576 0.316014
0.520531 0.569940 0.335424
0.689082 0.668544 0.479286
0.793912 0.730922 0.604181
0.505211 0.426520 0.689082
0.523156 0.424689 0.684657
0.581445 0.422858 0.673304
0.659113 0.417578 0.653925
0.700740 0.422126 0.603540
0.786221 0.551751 0.615381
0.844175 0.588647 0.621576
0.896818 0.637537 0.647761
0.490303 0.436774 0.681697
0.521660 0.450935 0.680262
0.577752 0.446662 0.670253
0.656306 0.441321 0.653620
0.700679 0.443915 0.606165
0.786221 0.565423 0.619837
0.842435 0.590997 0.620417
0.895445 0.639643 0.647059
0.408972 0.444190 0.665003
0.452247 0.460609 0.665553
0.571649 0.516533 0.669642
0.648188 0.508904 0.654475
0.701076 0.508141 0.615229
0.785641 0.602167 0.631952
0.836820 0.598444 0.615564
0.890929 0.649256 0.644709
0.358618 0.498299 0.636103
0.395758 0.507744 0.638483
0.496651 0.537865 0.645594
0.634546 0.593439 0.655970
0.699794 0.589075 0.627710
0.772244 0.618860 0.624170
0.821073 0.608057 0.600580
0.881559 0.663783 0.634119
0.279240 0.554833 0.590661
0.322942 0.562158 0.593957
0.442908 0.586419 0.605585
0.581292 0.624720 0.623590
0.699428 0.668513 0.643977
0.737819 0.641108 0.603265
0.792721 0.638666 0.586023
0.864378 0.687037 0.626856
0.284977 0.673030 0.600031
0.333654 0.678157 0.604730
0.460822 0.694118 0.619745
0.573358 0.688289 0.608881
0.609674 0.631952 0.546777
0.683680 0.635340 0.564996
0.756558 0.656123 0.571984
0.837613 0.707820 0.621332
0.408240 0.725765 0.586633
0.428809 0.724422 0.585412
0.485206 0.717525 0.578027
0.545342 0.698390 0.556695
0.523278 0.615351 0.454536
0.542565 0.548211 0.394568
0.708431 0.645289 0.525719
0.820035 0.723629 0.621118
0.517174 0.772824 0.598352
0.523400 0.771664 0.596674
0.548974 0.764401 0.587976
0.572442 0.744350 0.560357
0.532982 0.678126 0.455726
0.491524 0.560754 0.336095
0.685725 0.669947 0.482124
0.797543 0.735103 0.610468
0.641779 0.582971 0.780087
0.649531 0.582330 0.778134
0.677089 0.582147 0.772946
0.718166 0.577935 0.762325
0.769589 0.573327 0.748135
0.792142 0.575647 0.709102
0.848081 0.665370 0.720333
0.899809 0.722530 0.750729
0.640345 0.592187 0.779507
0.654688 0.599573 0.779049
0.679774 0.597375 0.773648
0.719203 0.592004 0.763302
0.769375 0.586328 0.749203
0.792416 0.587152 0.711269
0.848569 0.672541 0.723171
0.899626 0.723873 0.750668
0.605280 0.590234 0.769253
0.623682 0.600092 0.769650
0.677363 0.629419 0.769833
0.715206 0.624262 0.760830
0.764248 0.618830 0.748440
0.790707 0.618280 0.715023
0.848875 0.692531 0.730129
0.898009 0.725551 0.747524
0.558648 0.602289 0.754910
0.574670 0.608820 0.755673
0.623102 0.626825 0.757534
0.708461 0.668635 0.758511
0.755001 0.662348 0.746914
0.787442 0.659968 0.719936
0.849454 0.720912 0.740017
0.894469 0.723110 0.736202
0.520562 0.631830 0.734371
0.537804 0.636500 0.735103
0.591241 0.652522 0.738064
0.663783 0.678614 0.743465
0.747463 0.714809 0.752010
0.788632 0.710475 0.731838
0.841337 0.725978 0.729244
0.887144 0.717586 0.713558
0.463447 0.672114 0.705104
0.482948 0.675013 0.705928
0.544823 0.686854 0.710536
0.628840 0.706844 0.718379
0.712276 0.732601 0.729915
0.787961 0.760800 0.743526
0.810025 0.729488 0.698543
0.866270 0.739590 0.697505
0.431067 0.753841 0.703578
0.454292 0.757351 0.706783
0.525963 0.769009 0.717861
0.622553 0.778958 0.727169
0.694606 0.774197 0.715541
0.696864 0.713222 0.637324
0.766842 0.724361 0.664637
0.840818 0.758114 0.691493
0.560418 0.823301 0.727199
0.565423 0.822934 0.726162
0.599115 0.819272 0.721340
0.640253 0.810452 0.708095
0.674830 0.791562 0.679286
0.639033 0.722286 0.569482
0.676539 0.678767 0.529595
0.810941 0.756588 0.659174
0.751858 0.708827 0.851560
0.756344 0.709560 0.851347
0.767514 0.707179 0.847959
0.786923 0.702998 0.842008
0.814328 0.698116 0.834104
0.847166 0.692348 0.823728
0.856992 0.690333 0.793332
0.896147 0.752621 0.804990
0.745022 0.705928 0.847623
0.752132 0.709743 0.847807
0.763516 0.707515 0.844724
0.783169 0.703304 0.839048
0.810178 0.697444 0.830655
0.842863 0.690425 0.819669
0.853178 0.687617 0.788907
0.893645 0.749569 0.801022
0.730861 0.706905 0.845335
0.738857 0.711208 0.845060
0.763119 0.723568 0.843809
0.781827 0.719112 0.838376
0.807645 0.712367 0.830014
0.840269 0.705806 0.819913
0.853758 0.704494 0.792935
0.895842 0.763729 0.807858
0.697292 0.703578 0.839933
0.704524 0.706203 0.839689
0.733639 0.719905 0.838682
0.779507 0.743679 0.838773
0.805020 0.737667 0.831449
0.837797 0.732082 0.822843
0.855100 0.730190 0.799619
0.898009 0.782315 0.815763
0.668940 0.711391 0.825589
0.674891 0.713100 0.825162
0.697108 0.720760 0.825193
0.733394 0.734493 0.827695
0.794644 0.762295 0.830137
0.828275 0.756039 0.821439
0.851499 0.752895 0.801144
0.899290 0.802579 0.822690
0.632685 0.726009 0.808286
0.641016 0.728267 0.808621
0.668147 0.736080 0.810147
0.709377 0.749355 0.813718
0.757900 0.766384 0.819242
0.821897 0.793698 0.827329
0.853574 0.790402 0.812100
0.896361 0.806607 0.814969
0.587243 0.753872 0.788663
0.598291 0.756252 0.789822
0.629969 0.762448 0.791806
0.676875 0.773068 0.795804
0.731197 0.786740 0.800626
0.791836 0.805417 0.808927
0.853025 0.829282 0.821653
0.874113 0.802518 0.781399
0.549981 0.811521 0.784024
0.551476 0.813169 0.784756
0.595605 0.822904 0.793820
0.655482 0.836393 0.805539
0.724453 0.847440 0.814267
0.781460 0.846036 0.805631
0.765133 0.783597 0.713252
0.840787 0.801999 0.752804
0.821378 0.786007 0.893095
0.823362 0.786069 0.892912
0.828000 0.783505 0.890898
0.838193 0.781064 0.888304
0.852750 0.777218 0.884367
0.871489 0.772427 0.879149
0.894499 0.768612 0.873472
0.900023 0.767910 0.853147
0.818265 0.784848 0.891752
0.821378 0.786191 0.891691
0.826383 0.784024 0.889921
0.836271 0.781064 0.887114
0.850919 0.777249 0.883207
0.869841 0.772396 0.878019
0.892943 0.768032 0.872129
0.898985 0.767544 0.851987
0.806882 0.780758 0.889647
0.811246 0.783291 0.889555
0.823239 0.788998 0.888304
0.834806 0.788052 0.886687
0.848936 0.783658 0.882689
0.867369 0.777920 0.877195
0.890806 0.773587 0.871550
0.898558 0.773831 0.852873
0.784634 0.774166 0.887602
0.789944 0.777096 0.887663
0.805814 0.785092 0.886809
0.831540 0.799191 0.886351
0.846036 0.795346 0.882811
0.864897 0.790249 0.877928
0.888731 0.786099 0.872709
0.899107 0.786740 0.856229
0.759396 0.773953 0.881651
0.763394 0.775784 0.882078
0.774502 0.778836 0.882414
0.799680 0.788388 0.883543
0.839506 0.809140 0.882902
0.859098 0.804105 0.878141
0.884611 0.800900 0.873533
0.899962 0.804379 0.860960
0.737118 0.779599 0.873259
0.739284 0.779934 0.873014
0.750301 0.782742 0.872984
0.770932 0.789212 0.874205
0.800839 0.800229 0.877226
0.853269 0.825711 0.881010
0.881987 0.825498 0.878325
0.901305 0.827268 0.867552
0.718959 0.795315 0.864530
0.718196 0.794919 0.864134
0.724178 0.796048 0.863828
0.747555 0.802182 0.865507
0.780636 0.812070 0.868620
0.822232 0.827115 0.874174
0.876982 0.853941 0.883543
0.900572 0.851286 0.872587
0.702113 0.820981 0.856107
0.701289 0.820859 0.855711
0.700069 0.821469 0.855161
0.722072 0.827420 0.857633
0.761288 0.837461 0.862058
0.804715 0.848508 0.865812
0.853635 0.863828 0.871977
0.901549 0.883970 0.881773
