data/fiter_cube/21023058/1023005/file.cube
# Created by Adobe Lightroom plugin Export LUT (1.17.0)
# www.johnrellis.com/lightroom/exportlut.htm
# Preset: 温暖焦糖婚礼婚纱_01 云集
# Color profile: C:\Program Files (x86)\Common Files\Adobe\Color\Profiles\Recommended\AdobeRGB1998.icc
LUT_3D_SIZE 32
DOMAIN_MIN 0.0 0.0 0.0
DOMAIN_MAX 1.0 1.0 1.0
0.023255 0.026093 0.015656
0.028138 0.027588 0.016480
0.033997 0.030091 0.018280
0.047791 0.037018 0.021698
0.064729 0.044862 0.025666
0.080934 0.050568 0.031403
0.100984 0.056397 0.036255
0.127413 0.059022 0.043153
0.160372 0.058320 0.049439
0.198947 0.053895 0.055207
0.243870 0.042908 0.060456
0.293675 0.023590 0.064790
0.346227 0.003265 0.070497
0.399969 0.000000 0.078035
0.452857 0.010712 0.087587
0.502800 0.064790 0.098939
0.548577 0.104372 0.113039
0.589105 0.144167 0.129183
0.625147 0.183841 0.148104
0.658595 0.223880 0.170230
0.689998 0.264836 0.195651
0.719997 0.306310 0.225284
0.748318 0.348150 0.259312
0.774350 0.388739 0.297612
0.798337 0.428290 0.339239
0.820401 0.467018 0.383307
0.840665 0.504875 0.427405
0.859648 0.542290 0.470771
0.877348 0.579858 0.513756
0.893492 0.617578 0.556542
0.907958 0.655451 0.599847
0.920928 0.692287 0.642573
0.025269 0.029236 0.016419
0.026398 0.029023 0.017487
0.032105 0.032715 0.019196
0.047395 0.039429 0.022583
0.063966 0.047333 0.026581
0.079927 0.053590 0.032227
0.100221 0.059052 0.037079
0.126833 0.060639 0.043977
0.160067 0.060945 0.049928
0.199191 0.059693 0.055421
0.244266 0.052094 0.060487
0.294530 0.035340 0.065492
0.347784 0.016907 0.071290
0.402075 0.009003 0.078859
0.454963 0.032685 0.088441
0.505241 0.075715 0.100343
0.550835 0.112215 0.114504
0.591333 0.150912 0.131014
0.627314 0.189975 0.150149
0.660517 0.229770 0.172488
0.691829 0.270054 0.198245
0.721767 0.311284 0.228244
0.749935 0.352483 0.262333
0.775784 0.392859 0.300694
0.799588 0.432074 0.342596
0.821408 0.470405 0.386419
0.841642 0.507805 0.430335
0.860441 0.545068 0.473426
0.878050 0.582330 0.516136
0.894072 0.619898 0.558770
0.908446 0.657557 0.601984
0.921324 0.694148 0.644526
0.026886 0.033600 0.018189
0.029389 0.033143 0.019257
0.031922 0.033906 0.019104
0.045808 0.040833 0.023590
0.062684 0.049470 0.027527
0.078553 0.056825 0.032013
0.098787 0.061341 0.037873
0.125734 0.063416 0.044678
0.158877 0.064393 0.050416
0.198215 0.063600 0.056641
0.243565 0.060395 0.061036
0.294011 0.051545 0.065827
0.347387 0.038025 0.071870
0.401770 0.034699 0.079591
0.454902 0.058930 0.089479
0.505669 0.085908 0.101289
0.551324 0.120241 0.115633
0.591638 0.157534 0.132235
0.627771 0.195621 0.151522
0.661158 0.234653 0.173983
0.692348 0.274510 0.199893
0.722286 0.315099 0.229801
0.750240 0.355871 0.264134
0.776150 0.395727 0.302464
0.799893 0.434638 0.344274
0.821714 0.472602 0.388067
0.841794 0.509972 0.431861
0.860685 0.546929 0.474861
0.878202 0.584039 0.517540
0.894194 0.621393 0.560021
0.908568 0.658900 0.603143
0.921447 0.695430 0.645655
0.032685 0.043091 0.021576
0.033814 0.042847 0.022675
0.036530 0.042420 0.022614
0.043915 0.043458 0.024506
0.060121 0.052857 0.029480
0.075685 0.060609 0.033814
0.095277 0.065095 0.039643
0.121614 0.068727 0.046265
0.154818 0.070832 0.052338
0.194125 0.072267 0.057588
0.239658 0.071687 0.062287
0.290257 0.069093 0.067231
0.344121 0.066896 0.073304
0.398779 0.069398 0.081025
0.452979 0.080568 0.090974
0.503929 0.103700 0.102907
0.549828 0.134249 0.117037
0.590875 0.169039 0.134096
0.627314 0.205478 0.153567
0.660975 0.243503 0.176181
0.692683 0.282780 0.202670
0.722530 0.322454 0.232883
0.750484 0.362341 0.267185
0.776120 0.401007 0.305272
0.799619 0.438819 0.346441
0.821256 0.475746 0.389563
0.841276 0.512322 0.432929
0.860044 0.548699 0.475593
0.877653 0.585443 0.517998
0.893767 0.622736 0.560632
0.908263 0.660212 0.603845
0.921294 0.696742 0.646571
0.037385 0.054749 0.026795
0.038941 0.054597 0.025696
0.042969 0.053193 0.026825
0.048768 0.053254 0.027710
0.057099 0.055329 0.029358
0.072541 0.063539 0.036713
0.090822 0.069520 0.042390
0.116152 0.075074 0.049104
0.149325 0.079591 0.054688
0.188296 0.083284 0.059632
0.234073 0.085664 0.064088
0.284947 0.087068 0.069001
0.339208 0.088716 0.075410
0.394537 0.093843 0.083162
0.448737 0.104982 0.092958
0.500053 0.125124 0.105074
0.546197 0.152102 0.119173
0.587274 0.183902 0.135836
0.624170 0.217868 0.155276
0.658320 0.254063 0.178164
0.690455 0.291966 0.204868
0.720882 0.330755 0.235203
0.749142 0.369421 0.269688
0.774868 0.407172 0.307591
0.798581 0.443885 0.348638
0.820310 0.480171 0.391699
0.840391 0.516045 0.434699
0.859373 0.551934 0.477119
0.877073 0.588403 0.519463
0.893339 0.625299 0.562036
0.907897 0.662501 0.605249
0.921019 0.698695 0.647852
0.044129 0.064027 0.031586
0.044495 0.063539 0.030579
0.048280 0.062806 0.030640
0.052461 0.061463 0.031830
0.060822 0.062898 0.033356
0.067872 0.064454 0.036896
0.086549 0.072389 0.045350
0.109560 0.080323 0.051972
0.139956 0.087739 0.058228
0.178561 0.094636 0.061738
0.223758 0.100130 0.066346
0.274754 0.104982 0.071626
0.329229 0.109804 0.077882
0.385473 0.116793 0.085786
0.440345 0.128847 0.095216
0.492439 0.147036 0.107118
0.539483 0.171298 0.121340
0.581476 0.200259 0.137881
0.618860 0.231662 0.157259
0.653559 0.265873 0.180026
0.686122 0.301946 0.206363
0.716884 0.339055 0.236576
0.733059 0.357549 0.253788
0.761044 0.395575 0.291112
0.786526 0.432959 0.331853
0.810025 0.469734 0.375280
0.831571 0.506126 0.419623
0.851774 0.542626 0.463508
0.870634 0.579492 0.507073
0.887999 0.617029 0.550713
0.903624 0.654963 0.595026
0.917693 0.692531 0.639338
0.049622 0.071565 0.036194
0.050935 0.071107 0.035187
0.053101 0.070558 0.035248
0.057557 0.068971 0.035462
0.061921 0.067536 0.036591
0.069642 0.070039 0.039826
0.078401 0.072419 0.043946
0.101137 0.082490 0.053895
0.129335 0.091768 0.059480
0.163455 0.101350 0.063416
0.204654 0.110933 0.067994
0.253483 0.118715 0.073060
0.307439 0.126314 0.079744
0.364172 0.135164 0.087221
0.421149 0.147463 0.096437
0.475044 0.164675 0.108064
0.524468 0.186862 0.121614
0.568414 0.213352 0.137881
0.607294 0.242344 0.156649
0.642634 0.273777 0.178500
0.675502 0.306889 0.203464
0.706081 0.340887 0.231693
0.734859 0.375189 0.263493
0.761440 0.409339 0.298894
0.785977 0.443519 0.337987
0.809049 0.478157 0.379980
0.830503 0.513146 0.423438
0.850797 0.548669 0.466926
0.869780 0.584863 0.510094
0.887297 0.621851 0.553704
0.903105 0.659327 0.597925
0.917327 0.696315 0.641993
0.055970 0.081605 0.041962
0.056367 0.080934 0.041077
0.058625 0.080110 0.041230
0.061677 0.077943 0.041627
0.065309 0.075319 0.042084
0.071168 0.075929 0.043641
0.080934 0.080354 0.047822
0.092470 0.083253 0.052857
0.122774 0.096681 0.061372
0.156558 0.108431 0.065827
0.196139 0.120455 0.071138
0.241154 0.132448 0.077150
0.294133 0.143740 0.083742
0.351537 0.155215 0.091310
0.408972 0.169406 0.100496
0.464057 0.186587 0.111757
0.515038 0.207858 0.125460
0.560479 0.233066 0.141695
0.600244 0.260410 0.160189
0.636988 0.290349 0.182376
0.670558 0.321721 0.207340
0.701991 0.354528 0.235843
0.731533 0.387457 0.267887
0.758694 0.420203 0.303502
0.783780 0.453223 0.342473
0.807126 0.486915 0.384497
0.828824 0.520745 0.427283
0.849424 0.555352 0.470344
0.868589 0.590753 0.513298
0.886351 0.627039 0.556542
0.902281 0.663935 0.600763
0.916655 0.700282 0.644617
0.061372 0.093172 0.048432
0.061128 0.092653 0.046937
0.062959 0.091585 0.047120
0.066011 0.089174 0.047547
0.069612 0.085634 0.047364
0.072847 0.082246 0.047913
0.081880 0.086976 0.051148
0.095430 0.092836 0.055238
0.110719 0.097261 0.060670
0.148257 0.113863 0.068696
0.187076 0.127993 0.074281
0.231937 0.142336 0.080385
0.281712 0.156893 0.087404
0.335241 0.172580 0.096101
0.393164 0.188510 0.105226
0.449622 0.206760 0.116213
0.502159 0.227848 0.129580
0.549340 0.251957 0.145602
0.590997 0.278111 0.164401
0.628779 0.306523 0.186099
0.663600 0.336645 0.211276
0.696071 0.367864 0.239872
0.726497 0.399451 0.271733
0.754421 0.431189 0.307225
0.780240 0.462989 0.346197
0.804166 0.495338 0.388006
0.826352 0.528374 0.430671
0.847257 0.562066 0.473335
0.866819 0.596735 0.516136
0.884855 0.632349 0.559380
0.901122 0.668605 0.603388
0.915801 0.704402 0.647150
0.064851 0.107515 0.053285
0.065675 0.106722 0.051850
0.066957 0.105348 0.052155
0.069978 0.102541 0.052796
0.073518 0.098451 0.052888
0.077089 0.093599 0.052308
0.083070 0.093904 0.054292
0.095583 0.100465 0.058778
0.113954 0.108583 0.061830
0.133059 0.113741 0.066957
0.178225 0.134463 0.078279
0.222477 0.151217 0.084382
0.272099 0.168063 0.091524
0.324712 0.185336 0.099886
0.378424 0.204349 0.110140
0.432654 0.224613 0.121309
0.486702 0.245670 0.134188
0.535454 0.268803 0.149660
0.578607 0.293858 0.168154
0.618036 0.321263 0.189639
0.654658 0.350774 0.214939
0.688685 0.381140 0.243778
0.720546 0.412238 0.276158
0.749874 0.443000 0.312383
0.776608 0.474006 0.351690
0.801114 0.505425 0.392981
0.823697 0.537224 0.435004
0.844907 0.569757 0.477180
0.864714 0.603388 0.519310
0.882994 0.637964 0.562066
0.899504 0.673213 0.605646
0.914458 0.708278 0.649073
0.068971 0.124331 0.058137
0.070314 0.123201 0.057649
0.071534 0.121859 0.058045
0.074586 0.118624 0.058137
0.078340 0.113619 0.057923
0.081575 0.107881 0.057832
0.084504 0.100771 0.058076
0.096101 0.107393 0.060304
0.112917 0.115846 0.063691
0.135805 0.126741 0.067781
0.158938 0.133516 0.074739
0.211643 0.158053 0.089296
0.260624 0.177340 0.096529
0.313390 0.196811 0.104738
0.367407 0.217350 0.114565
0.420447 0.238834 0.125917
0.471015 0.261814 0.139925
0.520562 0.285527 0.155184
0.565789 0.310277 0.173190
0.607233 0.336980 0.194858
0.645197 0.365545 0.220096
0.680476 0.394934 0.248753
0.713375 0.424598 0.280919
0.743801 0.454231 0.316655
0.771420 0.484321 0.355627
0.796780 0.514641 0.396704
0.820066 0.545495 0.438483
0.841825 0.577325 0.480507
0.862181 0.610193 0.522545
0.880888 0.644007 0.565057
0.897826 0.678614 0.608576
0.913146 0.713008 0.651881
0.073487 0.142916 0.061769
0.074372 0.141634 0.061585
0.076173 0.139925 0.061891
0.079347 0.136080 0.061738
0.083101 0.130709 0.061860
0.086946 0.123995 0.061707
0.090150 0.116030 0.061280
0.096040 0.113680 0.061860
0.111666 0.122652 0.065126
0.132540 0.133791 0.069429
0.160555 0.147066 0.074678
0.187381 0.155032 0.083711
0.236484 0.176120 0.097902
0.286961 0.197147 0.105715
0.340368 0.218601 0.115023
0.393927 0.240726 0.125643
0.445869 0.263890 0.138552
0.494301 0.288029 0.153872
0.539086 0.313481 0.171817
0.583581 0.340185 0.192325
0.624628 0.368566 0.216587
0.662562 0.397925 0.244846
0.697963 0.427680 0.276829
0.730861 0.457740 0.312657
0.760555 0.487678 0.351720
0.787594 0.517693 0.392798
0.812314 0.548241 0.434882
0.835203 0.579644 0.477241
0.856596 0.612207 0.519646
0.876341 0.645869 0.562768
0.894163 0.680354 0.606836
0.910307 0.714656 0.650690
0.077699 0.160037 0.065278
0.078981 0.158724 0.065156
0.080385 0.157107 0.065064
0.083742 0.153597 0.065370
0.087953 0.147921 0.065248
0.091981 0.140566 0.065034
0.095644 0.132021 0.064973
0.097810 0.122286 0.064179
0.109316 0.127779 0.066285
0.128206 0.138827 0.070283
0.152895 0.151675 0.075349
0.184604 0.166629 0.081788
0.213321 0.175204 0.091737
0.277867 0.207065 0.113069
0.330602 0.230289 0.121798
0.384009 0.253483 0.132235
0.436316 0.277226 0.144839
0.485664 0.301793 0.160006
0.530907 0.327520 0.178103
0.572869 0.354803 0.199435
0.613672 0.383246 0.224002
0.653223 0.412085 0.251896
0.689845 0.441169 0.283879
0.723995 0.470344 0.319280
0.754849 0.499458 0.358068
0.782803 0.528649 0.398840
0.808255 0.558373 0.440436
0.831724 0.588922 0.482155
0.853666 0.620478 0.524254
0.873838 0.653285 0.566979
0.892149 0.686885 0.610742
0.908721 0.720363 0.654261
0.083497 0.182528 0.069581
0.084352 0.181186 0.069917
0.086183 0.179232 0.069581
0.089601 0.175265 0.070100
0.093690 0.169070 0.069581
0.098207 0.161166 0.069337
0.102022 0.151400 0.068635
0.104646 0.140383 0.068055
0.108125 0.133089 0.067720
0.125765 0.144381 0.071565
0.148562 0.157656 0.076814
0.177462 0.173312 0.083101
0.214206 0.191470 0.090486
0.246891 0.201633 0.103334
0.318090 0.238529 0.129183
0.372717 0.264469 0.139712
0.425727 0.289525 0.151980
0.476081 0.314702 0.166903
0.522484 0.340368 0.184787
0.565454 0.367651 0.206149
0.605219 0.396033 0.231083
0.642390 0.424964 0.259831
0.680476 0.453559 0.291264
0.715908 0.482155 0.326238
0.747921 0.510521 0.364446
0.776883 0.538903 0.404395
0.803281 0.567864 0.445289
0.827420 0.597467 0.486549
0.850034 0.628321 0.528191
0.870787 0.660304 0.570733
0.889647 0.693019 0.614160
0.906767 0.725856 0.657527
0.088899 0.206455 0.074861
0.090272 0.204715 0.074952
0.092042 0.202914 0.074678
0.095277 0.198581 0.074708
0.099733 0.192142 0.074464
0.104646 0.183200 0.074067
0.108858 0.172519 0.073243
0.111543 0.160250 0.072267
0.112764 0.147219 0.071260
0.122927 0.149050 0.072938
0.143709 0.162387 0.077790
0.170504 0.178317 0.083742
0.204349 0.196811 0.091463
0.246281 0.218235 0.100618
0.282383 0.230167 0.115877
0.358831 0.271946 0.147402
0.413825 0.299626 0.160098
0.465095 0.325841 0.174746
0.513024 0.352209 0.192264
0.557336 0.379614 0.213382
0.598199 0.407813 0.238376
0.636194 0.436194 0.266789
0.671809 0.464790 0.298711
0.706874 0.493324 0.333623
0.740291 0.521080 0.371099
0.770291 0.548882 0.410101
0.797482 0.576837 0.449989
0.822293 0.605554 0.490333
0.845457 0.635248 0.531243
0.866728 0.666133 0.573114
0.886168 0.697810 0.615869
0.903899 0.729885 0.658930
0.094942 0.232059 0.080293
0.096071 0.230167 0.080476
0.097902 0.228092 0.080385
0.101350 0.223423 0.079988
0.105959 0.215824 0.079683
0.110964 0.206088 0.079164
0.115053 0.194675 0.078279
0.118471 0.181765 0.076905
0.120241 0.167300 0.075319
0.120027 0.152468 0.073823
0.139132 0.165805 0.078340
0.163638 0.181827 0.084352
0.194797 0.200595 0.091859
0.233616 0.222690 0.100862
0.281132 0.247715 0.112062
0.320195 0.261326 0.130282
0.399847 0.306950 0.168368
0.453376 0.335668 0.183352
0.502434 0.362737 0.200473
0.547784 0.390234 0.221164
0.589532 0.417975 0.245396
0.628443 0.445777 0.273259
0.664820 0.473854 0.304692
0.699123 0.501854 0.339422
0.730922 0.529961 0.376562
0.762203 0.557336 0.414832
0.790524 0.584771 0.453803
0.816281 0.612787 0.493599
0.840208 0.641871 0.534051
0.862394 0.672175 0.575738
0.882719 0.703517 0.618677
0.901335 0.735225 0.661952
0.101381 0.259434 0.086397
0.102754 0.257755 0.086275
0.104646 0.255436 0.086336
0.108064 0.250217 0.086030
0.112551 0.242527 0.085481
0.117830 0.232364 0.084901
0.122499 0.220035 0.083803
0.126406 0.205631 0.082399
0.128359 0.190249 0.080690
0.128634 0.173922 0.078828
0.135317 0.169253 0.079133
0.157778 0.185183 0.084901
0.186282 0.203922 0.092226
0.221958 0.225742 0.101015
0.265812 0.250828 0.111940
0.317601 0.278721 0.125368
0.358068 0.293492 0.146822
0.439277 0.342229 0.192081
0.491341 0.372076 0.210025
0.538201 0.400458 0.230411
0.581201 0.428443 0.254185
0.621271 0.456184 0.281682
0.658412 0.483650 0.312474
0.693385 0.511223 0.346593
0.725887 0.538750 0.383001
0.755489 0.566155 0.420966
0.783658 0.593439 0.459297
0.810361 0.620935 0.498299
0.835111 0.649287 0.538262
0.858061 0.678950 0.579614
0.879149 0.709499 0.622126
0.898558 0.740688 0.665278
0.108248 0.287541 0.093233
0.109499 0.285100 0.092897
0.109438 0.276341 0.091035
0.112734 0.271427 0.090791
0.117342 0.263615 0.090242
0.122866 0.253819 0.089570
0.127687 0.241581 0.088594
0.131868 0.227420 0.087068
0.135012 0.211551 0.085389
0.135927 0.194705 0.083314
0.135134 0.177432 0.080659
0.150362 0.185183 0.084718
0.176242 0.203464 0.091585
0.208682 0.225071 0.099855
0.248508 0.249760 0.110201
0.296239 0.277256 0.122805
0.350072 0.306645 0.139132
0.392157 0.323217 0.163424
0.473610 0.374212 0.216129
0.523766 0.405097 0.236759
0.568627 0.433997 0.260105
0.610101 0.462165 0.287053
0.648554 0.489693 0.317357
0.684810 0.517449 0.351110
0.718654 0.545098 0.387152
0.749569 0.572656 0.424872
0.777737 0.600336 0.463416
0.803769 0.628412 0.502831
0.829618 0.656641 0.542687
0.853544 0.685847 0.583978
0.875578 0.715846 0.626276
0.895781 0.746487 0.669184
0.115755 0.315526 0.100740
0.116762 0.312718 0.100160
0.117891 0.309575 0.099641
0.121065 0.303624 0.098970
0.125704 0.295537 0.098116
0.130983 0.284642 0.096956
0.136172 0.272099 0.095827
0.140902 0.257237 0.094331
0.144442 0.240330 0.092348
0.146090 0.222385 0.089937
0.145907 0.203250 0.087098
0.146456 0.188632 0.085359
0.170596 0.207126 0.092195
0.200839 0.228763 0.100496
0.238163 0.253666 0.110475
0.283024 0.281376 0.123079
0.335302 0.311681 0.138552
0.390631 0.342046 0.158785
0.433631 0.359960 0.187198
0.511833 0.411627 0.246006
0.559625 0.442878 0.271031
0.601984 0.471077 0.297307
0.641413 0.498604 0.326665
0.678309 0.526024 0.359319
0.712886 0.553338 0.394324
0.744442 0.580438 0.431006
0.773312 0.607660 0.468818
0.799832 0.635248 0.507469
0.824430 0.663508 0.547356
0.848692 0.692592 0.588586
0.871733 0.722225 0.630671
0.892454 0.751705 0.672511
0.125490 0.349279 0.110903
0.126284 0.346624 0.110445
0.127626 0.343359 0.109743
0.130434 0.337835 0.109010
0.135470 0.329595 0.107881
0.140627 0.318883 0.106538
0.146151 0.305852 0.104768
0.151278 0.290501 0.102724
0.155032 0.273350 0.100649
0.157107 0.253819 0.097841
0.157900 0.233494 0.094728
0.155947 0.212284 0.091279
0.165988 0.210971 0.092683
0.194186 0.232578 0.101015
0.229099 0.257481 0.111055
0.271580 0.285161 0.123384
0.321233 0.315648 0.138705
0.376440 0.347997 0.157900
0.431922 0.378790 0.182162
0.474495 0.397528 0.214359
0.547539 0.448035 0.278386
0.592981 0.478553 0.307622
0.633448 0.506462 0.336309
0.671107 0.533806 0.367926
0.706630 0.561120 0.402014
0.739010 0.587945 0.437507
0.768704 0.614923 0.474495
0.795865 0.642145 0.512627
0.821134 0.669978 0.552178
0.844968 0.699062 0.593530
0.867887 0.728908 0.635920
0.889128 0.757137 0.676478
0.138888 0.385565 0.125246
0.138918 0.383368 0.123690
0.139559 0.380133 0.122621
0.142367 0.374578 0.121218
0.146731 0.366247 0.119783
0.152041 0.355688 0.117739
0.157809 0.343114 0.115694
0.162966 0.327794 0.113222
0.167544 0.309880 0.110506
0.170169 0.290105 0.107301
0.171328 0.268559 0.103761
0.170413 0.245884 0.099947
0.167056 0.222782 0.095735
0.188846 0.237217 0.101930
0.221897 0.262150 0.111910
0.262058 0.289952 0.124086
0.309117 0.320073 0.139223
0.361761 0.351934 0.157839
0.418128 0.384894 0.180880
0.471626 0.414679 0.208835
0.511498 0.432837 0.243687
0.578882 0.480446 0.310552
0.622065 0.510338 0.343084
0.660609 0.537743 0.373236
0.696895 0.564782 0.405615
0.730434 0.591699 0.440131
0.760983 0.618372 0.475990
0.789059 0.645289 0.513359
0.815152 0.672816 0.552514
0.839872 0.701656 0.593744
0.863340 0.731350 0.636194
0.883909 0.759365 0.676326
0.154818 0.420356 0.141604
0.154543 0.418647 0.140200
0.154055 0.416114 0.138033
0.156344 0.411353 0.136446
0.160586 0.404150 0.134615
0.165957 0.394049 0.132357
0.171695 0.381842 0.129824
0.176852 0.366766 0.126497
0.181460 0.349126 0.122835
0.184634 0.329046 0.118868
0.186160 0.307042 0.114687
0.185794 0.283299 0.110323
0.183230 0.258427 0.105470
0.183963 0.241337 0.102937
0.215122 0.266148 0.112886
0.253239 0.294041 0.124849
0.297978 0.324163 0.139864
0.348791 0.356023 0.158145
0.403571 0.389075 0.180911
0.459998 0.422248 0.207706
0.510857 0.450965 0.239994
0.548669 0.469001 0.277623
0.611139 0.514458 0.347417
0.652705 0.544182 0.383093
0.690089 0.571832 0.414557
0.724575 0.598810 0.447852
0.756008 0.625452 0.482856
0.784787 0.652125 0.519524
0.811551 0.679347 0.558068
0.837003 0.707881 0.599207
0.860624 0.736385 0.640223
0.881773 0.763943 0.680018
0.177646 0.460883 0.165438
0.177096 0.458961 0.163699
0.176486 0.456947 0.161593
0.175448 0.452277 0.156985
0.179416 0.445563 0.154665
0.184390 0.436103 0.151705
0.190005 0.424750 0.148531
0.195254 0.410590 0.144381
0.200015 0.393530 0.139803
0.203403 0.373968 0.135012
0.205447 0.351965 0.129641
0.205386 0.327611 0.124086
0.203586 0.302129 0.118532
0.199252 0.275181 0.112703
0.211276 0.273655 0.114717
0.247898 0.301549 0.126925
0.291081 0.331609 0.141878
0.340185 0.363592 0.160555
0.393408 0.396490 0.183169
0.448798 0.429175 0.210025
0.503380 0.461250 0.241123
0.550011 0.487953 0.276524
0.584863 0.505058 0.315770
0.642451 0.547967 0.385809
0.683894 0.579034 0.425086
0.719295 0.606348 0.457252
0.751522 0.632959 0.491249
0.781064 0.659632 0.527214
0.808530 0.686732 0.565454
0.834714 0.715053 0.606287
0.858244 0.742092 0.645441
0.879911 0.769100 0.684657
0.204471 0.498726 0.193118
0.203891 0.497078 0.191470
0.203006 0.495155 0.189273
0.201663 0.491249 0.184360
0.202060 0.485603 0.178836
0.206729 0.477363 0.175662
0.211978 0.467170 0.171878
0.217319 0.454170 0.167056
0.221897 0.438697 0.161563
0.225711 0.420539 0.155550
0.228367 0.399878 0.149233
0.228946 0.376623 0.142367
0.227665 0.351141 0.135592
0.223880 0.323522 0.128420
0.218112 0.295109 0.121645
0.245487 0.311711 0.130282
0.287968 0.342596 0.145998
0.336034 0.374823 0.165133
0.388220 0.407568 0.188388
0.442695 0.440253 0.215763
0.496468 0.471473 0.246830
0.547387 0.501732 0.281163
0.590021 0.526574 0.319341
0.622400 0.543206 0.359869
0.675868 0.584161 0.428595
0.712734 0.612055 0.465583
0.746029 0.639155 0.498695
0.776638 0.666072 0.534264
0.805020 0.693324 0.572442
0.831571 0.720912 0.612116
0.855558 0.747311 0.650324
0.877806 0.773983 0.689235
0.241245 0.540337 0.230747
0.240238 0.538750 0.228519
0.239261 0.537072 0.226291
0.237827 0.533776 0.221378
0.235904 0.528862 0.214389
0.237675 0.521904 0.208499
0.242222 0.512474 0.203616
0.246983 0.501183 0.198367
0.251591 0.487343 0.191714
0.255070 0.470680 0.184360
0.257298 0.451606 0.176364
0.258274 0.429541 0.167941
0.257023 0.404669 0.158999
0.253849 0.377844 0.150118
0.248600 0.349187 0.141451
0.244846 0.323919 0.134768
0.286168 0.354803 0.150759
0.333257 0.386908 0.170626
0.384405 0.419409 0.194217
0.437934 0.451514 0.222049
0.491005 0.482185 0.253513
0.541375 0.511925 0.288243
0.588647 0.540642 0.325261
0.627436 0.563714 0.364416
0.657527 0.579706 0.404211
0.706600 0.618189 0.469276
0.739834 0.644251 0.506004
0.771298 0.671290 0.540612
0.800565 0.698604 0.578393
0.827176 0.724971 0.616114
0.851865 0.751186 0.653803
0.874907 0.777615 0.692378
0.284276 0.580865 0.274479
0.283238 0.579492 0.272251
0.282261 0.577935 0.269932
0.281132 0.575494 0.265629
0.278935 0.571313 0.258427
0.276158 0.565789 0.249027
0.279789 0.557794 0.243412
0.284245 0.547814 0.237675
0.288273 0.535546 0.230198
0.291630 0.521263 0.222049
0.293797 0.504448 0.212802
0.294621 0.484779 0.202640
0.293950 0.462715 0.191989
0.291325 0.437720 0.180941
0.286687 0.410468 0.169833
0.279454 0.380652 0.158968
0.289677 0.372412 0.159060
0.336248 0.404425 0.179934
0.386969 0.436530 0.204715
0.439490 0.467872 0.233433
0.491646 0.497780 0.265537
0.541192 0.526757 0.300664
0.587640 0.554650 0.337835
0.631067 0.581872 0.375952
0.666377 0.603174 0.414099
0.694026 0.618341 0.451728
0.737392 0.653468 0.513054
0.767666 0.678279 0.550347
0.796567 0.704372 0.585779
0.823606 0.730190 0.622126
0.849058 0.756222 0.659358
0.872862 0.782528 0.697658
0.335210 0.622004 0.325841
0.334630 0.621027 0.324163
0.333623 0.619806 0.321965
0.332341 0.617609 0.317754
0.329839 0.613886 0.310704
0.326513 0.608789 0.301122
0.323949 0.601984 0.290501
0.327214 0.592828 0.283757
0.330144 0.581415 0.275456
0.332341 0.568261 0.266026
0.333715 0.552819 0.255344
0.334325 0.535515 0.243900
0.333440 0.515679 0.231601
0.330877 0.493477 0.218662
0.326726 0.469001 0.205631
0.320897 0.441779 0.192416
0.312352 0.411902 0.179202
0.338293 0.420844 0.189029
0.388067 0.452094 0.214633
0.439857 0.482521 0.243992
0.491188 0.511620 0.276646
0.540002 0.539910 0.312016
0.585870 0.567315 0.349248
0.628870 0.593866 0.386908
0.669184 0.619684 0.423835
0.701228 0.639429 0.460212
0.725826 0.653285 0.496040
0.763668 0.684627 0.553674
0.790463 0.707118 0.589899
0.817044 0.731380 0.623346
0.843565 0.757595 0.660212
0.868467 0.784146 0.698573
0.386511 0.659083 0.377234
0.385809 0.658167 0.375555
0.385260 0.657404 0.374121
0.384070 0.655573 0.370214
0.382055 0.652552 0.364050
0.379309 0.648463 0.355749
0.375463 0.643030 0.344793
0.374640 0.635950 0.335210
0.377966 0.626673 0.327916
0.380865 0.615686 0.318914
0.383429 0.603113 0.309209
0.384741 0.588525 0.298039
0.385016 0.572259 0.285893
0.383978 0.553735 0.272618
