data/fiter_cube/37639453/1023440/file.cube
# Created by Adobe Lightroom plugin Export LUT (1.17.0)
# www.johnrellis.com/lightroom/exportlut.htm
# Preset: 油管牛人_06 云集
# Color profile: C:\Program Files (x86)\Common Files\Adobe\Color\Profiles\Recommended\AdobeRGB1998.icc
LUT_3D_SIZE 8
DOMAIN_MIN 0.000000 0.000000 0.000000
DOMAIN_MAX 0.903226 0.903226 0.903226
0.013916 0.015595 0.024323
0.076661 0.031586 0.038819
0.183719 0.020813 0.054597
0.404852 0.000000 0.024933
0.629084 0.000000 0.000000
0.798337 0.000000 0.000000
0.899229 0.117464 0.025910
0.970581 0.275029 0.143923
0.017456 0.072938 0.063020
0.069886 0.076204 0.061036
0.179416 0.086091 0.054994
0.391547 0.000000 0.024842
0.615900 0.000000 0.000000
0.783597 0.000000 0.000000
0.889036 0.161379 0.000000
0.965209 0.291142 0.136782
0.000000 0.166506 0.096773
0.014069 0.172488 0.079835
0.155093 0.191226 0.074708
0.401434 0.229252 0.000000
0.630884 0.225589 0.000000
0.789395 0.252262 0.000000
0.897490 0.314672 0.059693
0.969055 0.387671 0.165286
0.000000 0.334722 0.151003
0.000000 0.336797 0.136049
0.111971 0.327550 0.097292
0.359930 0.394720 0.090822
0.649470 0.455116 0.000000
0.801419 0.452796 0.000000
0.894377 0.463111 0.089143
0.963348 0.495277 0.188998
0.000000 0.520226 0.228824
0.000000 0.520897 0.216556
0.000000 0.522087 0.159396
0.285496 0.489815 0.133639
0.556756 0.563684 0.150515
0.764034 0.606897 0.158816
0.878416 0.603723 0.154055
0.954772 0.611749 0.225620
0.000000 0.678523 0.328740
0.000000 0.685908 0.325841
0.000000 0.682856 0.293797
0.255161 0.661341 0.220005
0.475471 0.629877 0.197543
0.701320 0.697993 0.264927
0.852903 0.735409 0.338323
0.938964 0.735439 0.360571
0.000000 0.804288 0.440040
0.000000 0.804623 0.436591
0.000000 0.798489 0.417029
0.282383 0.787594 0.364202
0.466102 0.755947 0.310033
0.637903 0.751125 0.314305
0.801236 0.796750 0.412879
0.909758 0.826108 0.517052
0.000000 0.896880 0.552331
0.000000 0.895354 0.550622
0.237797 0.890410 0.547723
0.438300 0.882109 0.549187
0.517052 0.863706 0.481117
0.646021 0.845365 0.452674
0.778500 0.856535 0.504906
0.883909 0.881254 0.599420
0.025940 0.029969 0.080507
0.075227 0.033692 0.082887
0.174380 0.016114 0.087129
0.382422 0.000000 0.094118
0.608331 0.000000 0.085267
0.774838 0.000000 0.086061
0.882780 0.109590 0.117250
0.960174 0.269841 0.179171
0.023835 0.071778 0.085664
0.070863 0.080018 0.091096
0.174075 0.087922 0.095735
0.381506 0.007263 0.094606
0.604578 0.000000 0.084047
0.768551 0.000000 0.083192
0.875334 0.157443 0.111482
0.954650 0.284306 0.171420
0.000000 0.169009 0.126711
0.027314 0.178164 0.122835
0.160250 0.195743 0.111635
0.394354 0.223423 0.090608
0.612757 0.218082 0.078431
0.770748 0.242527 0.082795
0.878508 0.298497 0.121706
0.957092 0.375830 0.191562
0.000000 0.332189 0.181277
0.000000 0.337072 0.173037
0.115358 0.336461 0.134035
0.344732 0.379004 0.134615
0.612848 0.424018 0.103853
0.772732 0.426856 0.081300
0.874937 0.443336 0.134798
0.951904 0.482643 0.210117
0.000000 0.521782 0.260929
0.000000 0.520928 0.249577
0.000000 0.521050 0.210910
0.282292 0.485145 0.164218
0.538842 0.546563 0.181949
0.749722 0.592767 0.190799
0.869047 0.593927 0.186740
0.947326 0.605005 0.250584
0.000000 0.672267 0.348882
0.000000 0.672450 0.341009
0.000000 0.670375 0.312078
0.250767 0.654383 0.242679
0.469001 0.621851 0.219211
0.697475 0.694087 0.290013
0.848234 0.731350 0.357824
0.934234 0.730648 0.373144
0.000000 0.794980 0.447730
0.000000 0.792538 0.440894
0.000000 0.788266 0.423438
0.297032 0.780392 0.388952
0.462348 0.752346 0.325231
0.631006 0.744381 0.323980
0.794217 0.789914 0.417060
0.903960 0.819455 0.513970
0.000000 0.892638 0.555993
0.000000 0.891875 0.555627
0.224369 0.887449 0.552850
0.431647 0.879728 0.554162
0.533318 0.868589 0.508354
0.650599 0.847990 0.472053
0.776394 0.854643 0.511437
0.881041 0.878569 0.601129
0.002777 0.048951 0.164828
0.074281 0.043488 0.175875
0.203220 0.000000 0.189761
0.423865 0.000000 0.195254
0.621729 0.000000 0.200656
0.776394 0.000000 0.240970
0.882048 0.207553 0.270298
0.957305 0.330510 0.316655
0.000000 0.088411 0.170901
0.064057 0.088380 0.182101
0.197147 0.081117 0.194400
0.408453 0.000000 0.198886
0.609308 0.000000 0.217502
0.770199 0.106386 0.238193
0.876921 0.232486 0.265293
0.954376 0.344152 0.312840
0.000000 0.170779 0.194736
0.000122 0.182223 0.201083
0.179568 0.216220 0.216312
0.397498 0.226658 0.222263
0.621454 0.238163 0.233371
0.772244 0.274693 0.247349
0.875364 0.334997 0.273930
0.951690 0.410132 0.321172
0.000000 0.363195 0.290288
0.000000 0.369146 0.286534
0.147799 0.382208 0.266117
0.380102 0.402930 0.254337
0.631800 0.436286 0.252964
0.774197 0.442939 0.264103
0.873777 0.467689 0.294041
0.948241 0.509392 0.342596
0.000000 0.541650 0.359014
0.000000 0.544060 0.354528
0.065736 0.547539 0.333745
0.323247 0.527703 0.279240
0.564446 0.566033 0.303014
0.755215 0.601770 0.319646
0.867369 0.602411 0.319677
0.941985 0.618555 0.371221
0.000000 0.685328 0.431464
0.000000 0.685878 0.428016
0.000000 0.683101 0.408759
0.294957 0.672755 0.351934
0.480293 0.626246 0.303105
0.697810 0.694087 0.376928
0.843534 0.731167 0.435645
0.931151 0.736141 0.453223
0.000000 0.803616 0.512749
0.000000 0.801755 0.508415
0.000000 0.795560 0.493050
0.340032 0.785061 0.468818
0.478309 0.760647 0.401801
0.633539 0.744137 0.385138
0.797238 0.794034 0.484779
0.904723 0.826047 0.575708
0.000000 0.894743 0.596124
0.000000 0.892882 0.592737
0.225834 0.887663 0.588342
0.439460 0.881346 0.592004
0.549187 0.870298 0.557397
0.656550 0.851102 0.520989
0.777005 0.854551 0.547875
0.882017 0.880674 0.635889
0.000000 0.059022 0.310246
0.000000 0.048951 0.325505
0.251682 0.000000 0.368811
0.457862 0.000000 0.368200
0.668299 0.000000 0.369970
0.785611 0.000000 0.370764
0.870848 0.229740 0.400763
0.940215 0.390387 0.462989
0.000000 0.098878 0.322332
0.000000 0.099306 0.334081
0.241611 0.068452 0.372381
0.455421 0.000000 0.374273
0.662379 0.000000 0.375280
0.778622 0.096529 0.375647
0.864836 0.271824 0.408270
0.939147 0.400458 0.460395
0.000000 0.201114 0.319127
0.000000 0.209232 0.324773
0.187503 0.222812 0.366247
0.439918 0.226322 0.389990
0.642481 0.247684 0.395575
0.768032 0.307591 0.409979
0.865537 0.401617 0.451728
0.941070 0.464668 0.477424
0.000000 0.339666 0.371862
0.000000 0.349340 0.377478
0.168582 0.380621 0.394751
0.413306 0.424750 0.420447
0.615106 0.437903 0.427222
0.756466 0.460426 0.438148
0.858915 0.495491 0.457038
0.936584 0.542290 0.488685
0.000000 0.578546 0.514519
0.000000 0.582055 0.515709
0.121614 0.581842 0.498268
0.398444 0.579034 0.469917
0.589776 0.586999 0.458839
0.757137 0.611536 0.471839
0.857115 0.618494 0.483955
0.931853 0.639490 0.511986
0.000000 0.712947 0.560571
0.000000 0.717586 0.562249
0.118502 0.711635 0.546807
0.385168 0.701381 0.520256
0.529290 0.670924 0.460273
0.709194 0.705989 0.505425
0.841093 0.737636 0.546929
0.926299 0.743374 0.554009
0.000000 0.813901 0.605493
0.000000 0.813413 0.603601
0.160708 0.809628 0.594659
0.390143 0.800626 0.576623
0.525170 0.783932 0.530480
0.641962 0.748409 0.477577
0.799741 0.798428 0.574182
0.902953 0.829343 0.639643
0.000000 0.900267 0.667781
0.000000 0.899382 0.666377
0.269688 0.894987 0.658747
0.442786 0.886534 0.650294
0.593957 0.873106 0.647120
0.667781 0.857389 0.595758
0.775387 0.853239 0.595972
0.882475 0.882628 0.680812
0.000000 0.066957 0.486854
0.000000 0.058259 0.498146
0.260472 0.000000 0.530571
0.513237 0.000000 0.570733
0.680537 0.000000 0.559503
0.808316 0.000000 0.543786
0.880980 0.265751 0.540368
0.940612 0.414313 0.571252
0.000000 0.114473 0.490669
0.000000 0.113405 0.502556
0.253330 0.083589 0.533227
0.512016 0.000000 0.574609
0.676234 0.000000 0.561608
0.804288 0.149508 0.547936
0.877867 0.305486 0.545861
0.938109 0.434943 0.576287
0.000000 0.230320 0.480415
0.000000 0.233921 0.494026
0.207218 0.235996 0.524834
0.493843 0.237919 0.578668
0.659876 0.253025 0.567010
0.785580 0.319493 0.556176
0.864744 0.401129 0.559442
0.928496 0.490669 0.588220
0.000000 0.356664 0.494911
0.000000 0.362921 0.497902
0.165499 0.385473 0.509361
0.424201 0.420478 0.560357
0.637934 0.447883 0.583001
0.761746 0.480720 0.578576
0.846525 0.521019 0.587152
0.918059 0.577264 0.614740
0.000000 0.513085 0.549462
0.000000 0.519158 0.552728
0.180819 0.536706 0.561578
0.418280 0.563867 0.577356
0.602228 0.596948 0.596063
0.735195 0.606653 0.598871
0.836454 0.624781 0.607141
0.916686 0.651209 0.622309
0.000000 0.710719 0.657252
0.000000 0.712367 0.658289
0.184085 0.715023 0.659815
0.421027 0.712367 0.649592
0.572076 0.698238 0.614405
0.711055 0.708431 0.615351
0.835416 0.736751 0.639551
0.915496 0.745785 0.649958
0.000000 0.823484 0.709743
0.000000 0.821653 0.706630
0.248081 0.816312 0.697292
0.428138 0.808347 0.681453
0.566796 0.795834 0.655116
0.660700 0.767391 0.600702
0.798276 0.798672 0.652247
0.899657 0.826963 0.692500
0.100893 0.899779 0.741817
0.179477 0.898405 0.739834
0.315373 0.894102 0.733028
0.460975 0.890410 0.726009
0.583032 0.880125 0.707942
0.678981 0.865843 0.676295
0.764920 0.846860 0.638453
0.879576 0.881132 0.721889
0.000000 0.086519 0.652705
0.000000 0.076967 0.658717
0.302861 0.000000 0.676112
0.537438 0.000000 0.710811
0.708797 0.000000 0.727321
0.804746 0.119722 0.691188
0.891295 0.316075 0.678859
0.944579 0.454353 0.683253
0.000000 0.136599 0.646235
0.000000 0.133394 0.651667
0.291478 0.109194 0.670710
0.525322 0.000000 0.704494
0.701656 0.000000 0.723354
0.799496 0.192416 0.690028
0.887785 0.346899 0.680354
0.941833 0.470985 0.685237
0.000000 0.250187 0.644251
0.000000 0.252506 0.649561
0.264714 0.258610 0.668666
0.503349 0.267613 0.700710
0.692897 0.292210 0.726009
0.790799 0.348913 0.697230
0.878660 0.445899 0.691554
0.934966 0.531212 0.697292
0.000000 0.389288 0.616052
0.000000 0.392493 0.617975
0.216709 0.408881 0.646662
0.460060 0.434882 0.689662
0.680690 0.485023 0.732937
0.780240 0.513054 0.714168
0.865873 0.567315 0.712398
0.925811 0.609827 0.715267
0.000000 0.518029 0.647669
0.000000 0.521904 0.649104
0.204013 0.534081 0.653529
0.404211 0.553429 0.661097
0.606592 0.591943 0.700435
0.754421 0.626947 0.718044
0.842863 0.650843 0.717525
0.910216 0.673487 0.721920
0.000000 0.650538 0.684627
0.000000 0.654871 0.687526
0.253422 0.663355 0.691585
0.439124 0.676692 0.698238
0.595880 0.695247 0.707088
0.726772 0.724819 0.724727
0.824369 0.734981 0.729335
0.904753 0.749508 0.736660
0.000000 0.811643 0.769619
0.160525 0.813870 0.771969
0.329473 0.818204 0.776761
0.492287 0.819791 0.780240
0.620356 0.817136 0.774166
0.708492 0.802884 0.741665
0.804746 0.806729 0.738521
0.901701 0.829618 0.758785
0.289952 0.904448 0.824125
0.320867 0.903105 0.822477
0.407416 0.899016 0.816861
0.514153 0.893950 0.808499
0.611048 0.887083 0.793179
0.698848 0.877226 0.768460
0.768917 0.856291 0.723140
0.879454 0.882292 0.773190
0.136202 0.129641 0.769619
0.211673 0.126345 0.774044
0.367651 0.105318 0.783780
0.546563 0.076356 0.800809
0.717220 0.133547 0.821653
0.822568 0.206699 0.821988
0.879789 0.336950 0.780850
0.943297 0.475563 0.775326
0.114839 0.171237 0.763088
0.196628 0.169986 0.767391
0.355596 0.160952 0.777584
0.535210 0.152102 0.794186
0.707210 0.189822 0.815427
0.815091 0.241215 0.816587
0.873747 0.350439 0.776486
0.938964 0.477943 0.771084
0.047303 0.280278 0.760861
0.166018 0.281621 0.763638
0.336187 0.285313 0.772854
0.519158 0.298344 0.789517
0.691524 0.335668 0.810513
0.807279 0.374090 0.816587
0.869261 0.448249 0.783841
0.936217 0.548150 0.783291
0.000000 0.417731 0.744686
0.112367 0.418494 0.747677
0.280705 0.414923 0.760250
0.483925 0.438422 0.779324
0.664302 0.479011 0.802701
0.796658 0.524651 0.818784
0.861906 0.567010 0.795651
0.930907 0.628168 0.797024
0.000000 0.527703 0.732753
0.000000 0.527916 0.731655
0.210788 0.531273 0.730373
0.405005 0.544335 0.746304
0.605341 0.578302 0.780667
0.775174 0.635645 0.814572
0.846921 0.655573 0.800076
0.919921 0.696773 0.805142
0.000000 0.644862 0.757259
0.093141 0.646326 0.757504
0.267430 0.650965 0.758328
0.416938 0.659358 0.760250
0.556970 0.671382 0.761715
0.720577 0.711757 0.795224
0.835996 0.747524 0.813077
0.907927 0.764096 0.814664
0.182162 0.757137 0.787106
0.232303 0.758877 0.788174
0.345251 0.762448 0.789639
0.476387 0.769284 0.792569
0.601648 0.778317 0.795743
0.714321 0.792935 0.802426
0.814023 0.816342 0.816617
0.894499 0.823453 0.819577
0.308171 0.876127 0.843412
0.337255 0.876768 0.844205
0.431495 0.881132 0.849454
0.537560 0.886381 0.855467
0.644373 0.890806 0.860838
0.737270 0.891112 0.858427
0.799313 0.880674 0.830381
0.881682 0.885222 0.829618
0.319554 0.212406 0.858061
0.353857 0.213230 0.859892
0.447852 0.212009 0.863279
0.576654 0.224704 0.871214
0.710597 0.266117 0.881559
0.826200 0.336400 0.890929
0.901732 0.389929 0.889586
0.936004 0.487984 0.850034
0.311559 0.241947 0.854795
0.346197 0.243229 0.856657
0.441779 0.243931 0.860594
0.570428 0.255924 0.868223
0.705165 0.294469 0.878904
0.822904 0.360540 0.889036
0.898070 0.406378 0.887388
0.933471 0.497383 0.848875
0.287358 0.326909 0.849210
0.323186 0.328466 0.850736
0.421180 0.331304 0.854093
0.557733 0.351812 0.864103
0.693233 0.385870 0.874662
0.816526 0.444678 0.886778
0.890623 0.477424 0.885435
0.929229 0.547021 0.851499
0.235080 0.437018 0.839689
0.260990 0.432471 0.842039
0.378424 0.439033 0.846372
0.524926 0.457923 0.855619
0.670039 0.492134 0.867765
0.799344 0.546319 0.881987
0.880797 0.574243 0.885008
0.924407 0.619135 0.858061
0.105989 0.548241 0.817441
0.174838 0.549310 0.820005
0.304692 0.548760 0.826505
0.459358 0.554101 0.839780
0.619928 0.577691 0.854520
0.765957 0.624689 0.872068
0.866850 0.662165 0.883787
0.918425 0.694575 0.866209
0.156863 0.651881 0.827634
0.191806 0.651026 0.826749
0.280339 0.649165 0.824613
0.388708 0.646967 0.822171
0.532403 0.652827 0.828305
0.713527 0.693599 0.858244
0.855650 0.753658 0.887785
0.914885 0.773251 0.879637
0.258244 0.754055 0.846830
0.281437 0.753964 0.846403
0.351080 0.754147 0.845396
0.451667 0.756710 0.845060
0.560876 0.761227 0.844663
0.666041 0.767636 0.844480
0.806607 0.803006 0.872465
0.905516 0.834409 0.887633
0.368872 0.845548 0.870054
0.387152 0.845792 0.870054
0.445716 0.847013 0.870390
0.530846 0.849973 0.871550
0.623865 0.854582 0.873259
0.715480 0.861570 0.875853
0.803159 0.872770 0.880888
0.889769 0.892851 0.893217
