data/fiter_cube/37639453/1023440/file.cube
# Created by Adobe Lightroom plugin Export LUT (1.17.0)
# www.johnrellis.com/lightroom/exportlut.htm
# Preset: 油管牛人_06 云集
# Color profile: C:\Program Files (x86)\Common Files\Adobe\Color\Profiles\Recommended\AdobeRGB1998.icc
LUT_3D_SIZE 32
DOMAIN_MIN 0.0 0.0 0.0
DOMAIN_MAX 1.0 1.0 1.0
0.013916 0.015595 0.024323
0.028107 0.016754 0.024933
0.044282 0.019837 0.027527
0.062867 0.024323 0.031800
0.076661 0.031586 0.038819
0.093599 0.038636 0.046357
0.116732 0.041505 0.050660
0.146395 0.036896 0.053040
0.183719 0.020813 0.054597
0.228763 0.000000 0.052857
0.282475 0.000000 0.049195
0.342290 0.000000 0.039368
0.404852 0.000000 0.024933
0.467018 0.000000 0.008087
0.525750 0.000000 0.000000
0.579736 0.000000 0.000000
0.629084 0.000000 0.000000
0.674006 0.000000 0.000000
0.720485 0.000000 0.000000
0.762692 0.000000 0.000000
0.798337 0.000000 0.000000
0.828977 0.000000 0.000000
0.855375 0.000000 0.000000
0.878477 0.019715 0.000000
0.899229 0.117464 0.025910
0.918303 0.163607 0.069337
0.936431 0.202792 0.093507
0.953735 0.239322 0.117983
0.970581 0.275029 0.143923
0.987060 0.311315 0.172976
1.000000 0.348577 0.205264
1.000000 0.388128 0.243107
0.013458 0.027161 0.030976
0.025391 0.028779 0.029450
0.043336 0.031647 0.029816
0.062074 0.033936 0.034302
0.076539 0.040986 0.040223
0.093263 0.047028 0.046784
0.115908 0.049500 0.051850
0.145235 0.045228 0.053498
0.182101 0.031464 0.054231
0.226596 0.002533 0.053346
0.279362 0.000000 0.048920
0.338384 0.000000 0.040467
0.400427 0.000000 0.026368
0.462165 0.000000 0.008850
0.520867 0.000000 0.000000
0.574762 0.000000 0.000000
0.624079 0.000000 0.000000
0.669459 0.000000 0.000000
0.715908 0.000000 0.000000
0.757595 0.000000 0.000000
0.793149 0.000000 0.000000
0.824002 0.000000 0.000000
0.850706 0.000000 0.000000
0.874266 0.008240 0.000000
0.895415 0.114534 0.012818
0.914946 0.160891 0.063264
0.933440 0.199802 0.088319
0.951141 0.236454 0.113680
0.968292 0.272190 0.139773
0.985046 0.308324 0.168124
1.000000 0.345647 0.200626
1.000000 0.384771 0.237797
0.013489 0.043305 0.038300
0.025605 0.043702 0.036866
0.039582 0.044862 0.038575
0.061402 0.047822 0.038605
0.076173 0.051301 0.043641
0.093050 0.055879 0.048554
0.115602 0.057649 0.052033
0.144564 0.054994 0.054444
0.180697 0.046479 0.054353
0.224796 0.021302 0.053407
0.277165 0.000000 0.049042
0.335943 0.000000 0.040406
0.397650 0.000000 0.026368
0.459449 0.000000 0.009857
0.517937 0.000000 0.000000
0.571862 0.000000 0.000000
0.621302 0.000000 0.000000
0.666773 0.000000 0.000000
0.713588 0.000000 0.000000
0.754849 0.000000 0.000000
0.790463 0.000000 0.000000
0.821408 0.000000 0.000000
0.848264 0.000000 0.000000
0.872038 0.041962 0.000000
0.893370 0.119509 0.006348
0.913054 0.163821 0.059846
0.931792 0.201785 0.085756
0.949676 0.237644 0.110964
0.967041 0.273014 0.137484
0.983917 0.308904 0.165774
1.000000 0.345647 0.198367
1.000000 0.384497 0.235569
0.015686 0.060883 0.052674
0.027161 0.061036 0.054078
0.039460 0.061219 0.052186
0.057588 0.062562 0.053162
0.073732 0.065339 0.052705
0.093172 0.067567 0.050965
0.115724 0.068421 0.053620
0.144808 0.068360 0.054994
0.180636 0.066163 0.055451
0.224247 0.058381 0.053468
0.276036 0.023194 0.048768
0.334112 0.000000 0.039887
0.395270 0.000000 0.025422
0.456458 0.000000 0.009766
0.514824 0.000000 0.000000
0.568780 0.000000 0.000000
0.618250 0.000000 0.000000
0.663630 0.000000 0.000000
0.710658 0.000000 0.000000
0.750698 0.000000 0.000000
0.785794 0.000000 0.000000
0.816739 0.000000 0.000000
0.844144 0.000000 0.000000
0.868742 0.082643 0.000000
0.891051 0.136080 0.000916
0.911589 0.176394 0.057069
0.930907 0.212375 0.085420
0.949126 0.247135 0.111330
0.966583 0.281102 0.137881
0.983429 0.315343 0.166354
0.999786 0.350744 0.198215
1.000000 0.387976 0.234409
0.017456 0.072938 0.063020
0.026459 0.073610 0.062867
0.035340 0.073945 0.060578
0.055879 0.073823 0.061219
0.069886 0.076204 0.061036
0.087892 0.080659 0.059937
0.113863 0.084230 0.056397
0.143923 0.085969 0.055665
0.179416 0.086091 0.054994
0.222385 0.083497 0.053407
0.273411 0.075227 0.048371
0.330907 0.054719 0.038666
0.391547 0.000000 0.024842
0.452491 0.000000 0.007630
0.511192 0.000000 0.000000
0.565850 0.000000 0.000000
0.615900 0.000000 0.000000
0.663783 0.000000 0.000000
0.709773 0.000000 0.000000
0.749142 0.000000 0.000000
0.783597 0.000000 0.000000
0.814359 0.000000 0.000000
0.841733 0.071901 0.000000
0.866453 0.123384 0.000000
0.889036 0.161379 0.000000
0.909850 0.195377 0.055634
0.929320 0.227573 0.084932
0.947692 0.259373 0.110842
0.965209 0.291142 0.136782
0.982086 0.323796 0.165530
0.998535 0.357733 0.197513
1.000000 0.393683 0.233280
0.016449 0.087556 0.070314
0.022980 0.088197 0.069795
0.032441 0.089082 0.068452
0.049928 0.089540 0.065492
0.067414 0.089601 0.065553
0.082795 0.094606 0.065278
0.106874 0.101595 0.063722
0.139620 0.107576 0.060395
0.179934 0.111116 0.054688
0.222995 0.111238 0.051606
0.274022 0.108400 0.046387
0.330999 0.100832 0.035126
0.391089 0.087160 0.020111
0.452125 0.062898 0.002716
0.510460 0.000000 0.000000
0.565118 0.000000 0.000000
0.615290 0.000000 0.000000
0.665553 0.000000 0.000000
0.710475 0.000000 0.000000
0.749264 0.000000 0.000000
0.783688 0.053162 0.000000
0.814511 0.099947 0.000000
0.868528 0.181369 0.000000
0.890471 0.208225 0.027161
0.910185 0.233860 0.070710
0.928252 0.258732 0.095430
0.945190 0.284184 0.118166
0.961242 0.309819 0.142641
0.976837 0.336889 0.168063
0.992096 0.365545 0.196170
1.000000 0.395911 0.227665
1.000000 0.428412 0.263340
0.008118 0.110109 0.078492
0.013519 0.110903 0.077363
0.021515 0.112062 0.075868
0.036255 0.113954 0.070893
0.063355 0.113222 0.069886
0.080873 0.115145 0.069886
0.103212 0.123354 0.068879
0.135500 0.133913 0.066529
0.178500 0.142000 0.060670
0.230350 0.147402 0.049470
0.287541 0.147921 0.035676
0.346075 0.144442 0.022431
0.406622 0.137728 0.006744
0.466560 0.128298 0.000000
0.523308 0.116854 0.000000
0.575616 0.106416 0.000000
0.625666 0.100160 0.000000
0.677516 0.104768 0.000000
0.721096 0.116030 0.000000
0.759792 0.132601 0.000000
0.794980 0.153994 0.000000
0.827115 0.178195 0.000000
0.855985 0.204135 0.000000
0.881682 0.229679 0.000000
0.904234 0.254795 0.063355
0.923980 0.278660 0.091157
0.941802 0.301946 0.116091
0.958312 0.325750 0.140780
0.974212 0.350652 0.166079
0.989532 0.377020 0.194400
1.000000 0.405432 0.225223
1.000000 0.436164 0.260563
0.000000 0.135500 0.086885
0.000000 0.136355 0.085603
0.004089 0.137270 0.084230
0.020630 0.139406 0.080079
0.047822 0.139895 0.073396
0.075044 0.138430 0.073518
0.097475 0.143343 0.072969
0.126101 0.154421 0.071717
0.166293 0.167727 0.069612
0.217716 0.178134 0.060273
0.278264 0.184451 0.042023
0.344854 0.186435 0.012421
0.405859 0.183658 0.000000
0.465126 0.178714 0.000000
0.521508 0.172671 0.000000
0.573571 0.167941 0.000000
0.627863 0.168582 0.000000
0.676783 0.172335 0.000000
0.718837 0.179385 0.000000
0.756649 0.189975 0.000000
0.791348 0.204318 0.000000
0.823209 0.221683 0.000000
0.851987 0.241459 0.000000
0.877592 0.262089 0.000000
0.900359 0.282689 0.058656
0.920348 0.303105 0.088685
0.938445 0.323491 0.114626
0.955322 0.344518 0.138643
0.971435 0.367254 0.164858
0.987030 0.391394 0.192508
1.000000 0.418036 0.224094
1.000000 0.447089 0.259098
0.000000 0.166506 0.096773
0.000000 0.167147 0.095613
0.000000 0.168185 0.093599
0.000000 0.170199 0.089631
0.014069 0.172488 0.079835
0.062989 0.170687 0.077455
0.091493 0.168002 0.077607
0.118868 0.177554 0.076509
0.155093 0.191226 0.074708
0.204257 0.207706 0.071412
0.265232 0.219944 0.058595
0.332219 0.226596 0.028260
0.401434 0.229252 0.000000
0.466316 0.227848 0.000000
0.521904 0.224369 0.000000
0.578515 0.223636 0.000000
0.630884 0.225589 0.000000
0.677607 0.229221 0.000000
0.718257 0.234012 0.000000
0.755245 0.241825 0.000000
0.789395 0.252262 0.000000
0.820829 0.265599 0.000000
0.849332 0.280919 0.000000
0.874846 0.297429 0.000000
0.897490 0.314672 0.059693
0.917632 0.331395 0.089326
0.935851 0.349218 0.114229
0.952819 0.367590 0.139864
0.969055 0.387671 0.165286
0.984741 0.409522 0.193454
1.000000 0.433692 0.224002
1.000000 0.460670 0.259007
0.000000 0.202029 0.107729
0.000000 0.202792 0.106447
0.000000 0.203372 0.104707
0.000000 0.205203 0.100252
0.000000 0.207950 0.093446
0.020935 0.207279 0.081880
0.078645 0.204288 0.081880
0.111788 0.201633 0.081514
0.145693 0.215946 0.080079
0.190036 0.232120 0.077394
0.248051 0.250217 0.073121
0.317021 0.263981 0.055543
0.386908 0.270970 0.013367
0.456001 0.273991 0.000000
0.526055 0.277409 0.000000
0.584405 0.278813 0.000000
0.635279 0.280797 0.000000
0.680964 0.283543 0.000000
0.720485 0.287175 0.000000
0.756252 0.292424 0.000000
0.789090 0.299809 0.000000
0.819089 0.309239 0.000000
0.846372 0.320226 0.000000
0.871092 0.332616 0.000000
0.893431 0.345739 0.055207
0.913634 0.359899 0.087251
0.932250 0.374823 0.113466
0.949706 0.391333 0.139284
0.966400 0.409735 0.166384
0.982513 0.429908 0.194614
0.998138 0.452766 0.226932
1.000000 0.478065 0.261906
0.000000 0.239872 0.119722
0.000000 0.240391 0.118227
0.000000 0.241154 0.116426
0.000000 0.242924 0.112490
0.000000 0.245335 0.105409
0.000000 0.247135 0.091341
0.052277 0.244175 0.086183
0.100191 0.240269 0.085939
0.137270 0.241306 0.085389
0.178988 0.258366 0.083314
0.231998 0.276707 0.079713
0.298009 0.295842 0.074525
0.373663 0.311955 0.054536
0.448585 0.321721 0.000000
0.518578 0.327398 0.000000
0.581506 0.330938 0.000000
0.636866 0.333593 0.000000
0.680842 0.334813 0.000000
0.719356 0.336675 0.000000
0.754635 0.339696 0.000000
0.787015 0.344915 0.000000
0.816800 0.351720 0.000000
0.844022 0.360327 0.000000
0.868681 0.370153 0.000000
0.890990 0.380743 0.058686
0.911162 0.391882 0.089845
0.929686 0.404242 0.115633
0.947143 0.418128 0.141878
0.963867 0.433814 0.168185
0.980011 0.451698 0.196750
0.995789 0.472236 0.228305
1.000000 0.495674 0.263981
0.000000 0.281834 0.133059
0.000000 0.282383 0.131868
0.000000 0.282933 0.129946
0.000000 0.284306 0.125582
0.000000 0.286656 0.118776
0.000000 0.289403 0.109529
0.000000 0.287877 0.091707
0.079896 0.283726 0.091432
0.127047 0.278386 0.090578
0.168978 0.284733 0.089326
0.219150 0.303777 0.086671
0.283787 0.326696 0.082948
0.390600 0.373693 0.078767
0.475563 0.393866 0.059907
0.546685 0.402289 0.000000
0.609003 0.407568 0.000000
0.663569 0.410895 0.000000
0.709285 0.411170 0.000000
0.745632 0.409735 0.000000
0.776974 0.409400 0.000000
0.805722 0.410651 0.000000
0.832212 0.413672 0.000000
0.856291 0.418036 0.000000
0.878416 0.423621 0.053864
0.898741 0.430335 0.087373
0.917388 0.438239 0.114168
0.934722 0.447333 0.137758
0.951110 0.458015 0.161898
0.966857 0.470680 0.187167
0.982238 0.485756 0.214817
0.997314 0.503441 0.245701
1.000000 0.524193 0.280766
0.000000 0.334722 0.151003
0.000000 0.335058 0.149569
0.000000 0.335241 0.147372
0.000000 0.335760 0.142977
0.000000 0.336797 0.136049
0.000000 0.337957 0.126162
0.000000 0.338140 0.106477
0.015747 0.333165 0.098054
0.111971 0.327550 0.097292
0.161868 0.322393 0.096376
0.214817 0.340307 0.095460
0.281437 0.367010 0.093599
0.359930 0.394720 0.090822
0.445655 0.421485 0.087007
0.528466 0.442756 0.075196
0.593469 0.450660 0.021271
0.649470 0.455116 0.000000
0.696620 0.456062 0.000000
0.736934 0.455055 0.000000
0.772824 0.453742 0.000000
0.801419 0.452796 0.000000
0.827756 0.453346 0.000000
0.851804 0.455238 0.000000
0.874022 0.458595 0.056031
0.894377 0.463111 0.089143
0.913207 0.468849 0.114870
0.930755 0.475990 0.139559
0.947326 0.484627 0.163729
0.963348 0.495277 0.188998
0.978943 0.508507 0.217136
0.994293 0.524254 0.247532
1.000000 0.543420 0.282597
0.000000 0.378302 0.166781
0.000000 0.378576 0.165347
0.000000 0.378729 0.163546
0.000000 0.379126 0.159274
0.000000 0.379553 0.152438
0.000000 0.380377 0.142977
0.000000 0.382116 0.131075
0.000000 0.380255 0.106477
0.084230 0.376684 0.105715
0.150179 0.372351 0.104433
0.203403 0.367193 0.103273
0.265415 0.391913 0.102907
0.337530 0.418219 0.102327
0.417823 0.444434 0.101503
0.500847 0.469795 0.100252
0.575952 0.489113 0.097200
0.633722 0.495155 0.070680
0.682551 0.497230 0.028229
0.724544 0.496712 0.000000
0.761654 0.495613 0.000000
0.795102 0.494453 0.000000
0.823789 0.493446 0.000000
0.847990 0.493446 0.000000
0.870329 0.494881 0.061585
0.890837 0.497444 0.093629
0.909819 0.501274 0.119661
0.927520 0.506371 0.144076
0.944274 0.513298 0.167788
0.960449 0.522179 0.193698
0.976226 0.533623 0.221530
0.991699 0.547784 0.252964
1.000000 0.565118 0.287999
0.000000 0.424018 0.184390
0.000000 0.424537 0.183322
0.000000 0.424842 0.181430
0.000000 0.425788 0.177768
0.000000 0.426856 0.171511
0.000000 0.428382 0.163027
0.000000 0.430549 0.151888
0.000000 0.430823 0.127779
0.000000 0.426581 0.116396
0.130800 0.421424 0.115114
0.193240 0.415351 0.113130
0.249699 0.414923 0.111849
0.317632 0.440040 0.112764
0.392218 0.465064 0.114199
0.470802 0.489387 0.115633
0.547753 0.512444 0.117678
0.617456 0.531701 0.122744
0.668635 0.535515 0.102327
0.712093 0.536004 0.085389
0.750423 0.535119 0.072206
0.784787 0.534020 0.059052
0.815732 0.532799 0.031891
0.843595 0.531487 0.010712
0.866514 0.530846 0.069123
0.887266 0.531792 0.099428
0.906523 0.534142 0.126406
0.924712 0.538140 0.150912
0.942016 0.543938 0.176394
0.958648 0.551965 0.203494
0.974823 0.562402 0.232364
0.990723 0.575586 0.265049
1.000000 0.592004 0.301823
0.000000 0.475319 0.206943
0.000000 0.475837 0.205661
0.000000 0.476143 0.204227
0.000000 0.476783 0.200565
0.000000 0.477455 0.194308
0.000000 0.478523 0.186160
0.000000 0.480079 0.175967
0.000000 0.482063 0.163394
0.000000 0.478645 0.130953
0.103578 0.472694 0.128847
0.181033 0.465217 0.126345
0.240940 0.456428 0.123323
0.299321 0.460822 0.122774
0.368719 0.483650 0.125399
0.441932 0.505974 0.128115
0.515801 0.527794 0.131716
0.586877 0.549401 0.137057
0.652705 0.569390 0.149386
0.699001 0.572076 0.134920
0.739559 0.572839 0.123171
0.775418 0.572686 0.116884
0.807645 0.571954 0.112886
0.836423 0.570794 0.109316
0.862516 0.569665 0.106111
0.885618 0.568750 0.112886
0.905028 0.569665 0.138491
0.923247 0.572076 0.163516
0.940581 0.576471 0.188785
0.957214 0.582727 0.215366
0.973297 0.591333 0.244388
0.988983 0.602441 0.276646
1.000000 0.616602 0.312261
0.000000 0.520226 0.228824
0.000000 0.520348 0.227512
0.000000 0.520378 0.225925
0.000000 0.520623 0.222446
0.000000 0.520897 0.216556
0.000000 0.521416 0.209018
0.000000 0.522301 0.199374
0.000000 0.523156 0.187381
0.000000 0.522087 0.159396
0.035706 0.516289 0.143893
0.161257 0.508995 0.141238
0.228794 0.500267 0.137697
0.285496 0.489815 0.133639
0.347326 0.500755 0.134585
0.416876 0.522362 0.139315
0.487495 0.543023 0.144259
0.556756 0.563684 0.150515
0.623102 0.584436 0.159060
0.683467 0.603082 0.176242
0.726528 0.606409 0.167880
0.764034 0.606897 0.158816
0.797147 0.606653 0.156100
0.826932 0.605676 0.154726
0.853880 0.604730 0.154086
0.878416 0.603723 0.154055
0.900999 0.603052 0.155001
0.920378 0.603845 0.172793
0.937926 0.606806 0.198611
0.954772 0.611749 0.225620
0.971008 0.619043 0.255100
0.986908 0.628809 0.287388
1.000000 0.641657 0.323857
0.000000 0.563043 0.252323
0.000000 0.563714 0.251499
0.000000 0.586053 0.263676
0.000000 0.585931 0.259953
0.000000 0.585626 0.254368
0.000000 0.584985 0.246159
0.000000 0.584436 0.236545
0.000000 0.583795 0.224582
0.000000 0.583154 0.210697
0.000000 0.577813 0.171847
0.152132 0.569390 0.167605
0.229252 0.559442 0.162905
0.290471 0.547692 0.157107
0.343572 0.534081 0.150546
0.408759 0.551141 0.155673
0.477119 0.570977 0.162814
0.544060 0.590661 0.170809
0.607355 0.609491 0.180728
0.666987 0.627527 0.193362
0.720302 0.643275 0.214359
0.759579 0.646693 0.212863
0.792935 0.646052 0.206485
0.822690 0.644800 0.204715
0.849363 0.643275 0.204318
0.873472 0.641321 0.204196
0.895598 0.639551 0.205112
0.916289 0.638178 0.206546
0.935698 0.637903 0.211460
0.952300 0.640986 0.237644
0.968566 0.646571 0.266697
0.984558 0.654749 0.298894
1.000000 0.665888 0.334661
0.000000 0.609308 0.280766
0.000000 0.612268 0.281468
0.000000 0.615259 0.282017
0.000000 0.617731 0.280369
0.000000 0.619440 0.276677
0.000000 0.619806 0.270024
0.000000 0.619471 0.261082
0.000000 0.618677 0.250217
0.000000 0.617945 0.237888
0.000000 0.614862 0.206546
0.120974 0.607416 0.186709
0.212222 0.597986 0.181582
0.278721 0.586908 0.176059
0.334600 0.573968 0.168948
0.385687 0.563958 0.163180
0.451820 0.583185 0.170687
0.516808 0.602045 0.179873
0.578973 0.620172 0.190249
0.637934 0.637720 0.203342
0.693446 0.654841 0.218540
0.742794 0.669673 0.241672
0.780972 0.675105 0.248417
0.812222 0.674861 0.243992
0.840085 0.673976 0.243534
0.865080 0.672511 0.244755
0.887968 0.671260 0.246311
0.909270 0.670130 0.249180
0.929351 0.669886 0.253513
0.948669 0.670710 0.260319
0.966186 0.674098 0.279728
0.982269 0.680842 0.311040
0.998199 0.690517 0.347265
0.000000 0.645075 0.304387
0.000000 0.647608 0.305455
0.000000 0.650233 0.305913
0.000000 0.652338 0.304448
0.000000 0.653742 0.301061
0.000000 0.654017 0.295354
0.000000 0.653376 0.286900
0.000000 0.652491 0.277043
0.000000 0.651423 0.265263
0.000000 0.649989 0.251682
0.078462 0.644678 0.208865
0.195071 0.635889 0.202945
0.267552 0.625483 0.196750
0.326970 0.613581 0.189670
0.378027 0.599908 0.181338
0.430671 0.597070 0.178683
0.494118 0.615137 0.188144
0.554864 0.632502 0.199893
0.612879 0.649287 0.213321
0.667842 0.665827 0.229282
0.719234 0.681910 0.247410
0.765133 0.696071 0.273014
0.801663 0.702876 0.286595
0.830655 0.702785 0.284428
0.856596 0.701839 0.284123
0.880064 0.700740 0.286687
0.901762 0.699794 0.290318
0.922210 0.699611 0.295323
0.941802 0.700435 0.302739
0.960784 0.702602 0.312535
0.979400 0.706203 0.324834
0.995636 0.714229 0.359289
0.000000 0.678523 0.328740
0.000000 0.680812 0.329595
0.000000 0.683009 0.329900
0.000000 0.684932 0.329107
0.000000 0.685908 0.325841
0.000000 0.685878 0.320195
0.000000 0.685328 0.313207
0.000000 0.684138 0.304112
0.000000 0.682856 0.293797
0.000000 0.681117 0.281559
0.088106 0.677790 0.248447
0.176425 0.670710 0.226688
0.255161 0.661341 0.220005
0.318334 0.650446 0.212284
0.372412 0.638392 0.203708
0.420233 0.624994 0.194705
0.475471 0.629877 0.197543
0.536309 0.647517 0.210727
0.594354 0.664729 0.226230
0.649531 0.681605 0.244450
0.701320 0.697993 0.264927
0.749599 0.713893 0.287541
0.791989 0.727382 0.316045
0.826230 0.735256 0.338140
0.852903 0.735409 0.338323
0.877043 0.734859 0.339483
0.898894 0.734432 0.345068
0.919371 0.734493 0.351965
0.938964 0.735439 0.360571
0.957824 0.737575 0.371649
0.976318 0.741115 0.385382
0.994751 0.746517 0.402380
0.000000 0.718441 0.360571
0.000000 0.719387 0.360540
0.000000 0.720089 0.360113
0.000000 0.720394 0.358282
0.000000 0.720424 0.354772
0.000000 0.719814 0.349554
0.000000 0.718929 0.343053
0.000000 0.717800 0.335210
0.000000 0.716640 0.326085
0.000000 0.715114 0.315984
0.145327 0.713161 0.302403
0.169253 0.708736 0.259068
0.252628 0.700252 0.251530
0.317449 0.690578 0.243565
0.373297 0.679500 0.234470
0.422766 0.667292 0.224369
0.466712 0.654200 0.214023
0.522606 0.665217 0.224063
0.579156 0.681178 0.240116
0.632776 0.696681 0.258274
0.683253 0.711666 0.278508
0.730190 0.726070 0.300511
0.773587 0.739834 0.324163
0.811765 0.751369 0.352026
0.843473 0.759457 0.379553
0.868193 0.759609 0.380804
0.890959 0.759518 0.383948
0.911925 0.759945 0.391119
0.931823 0.761074 0.400610
0.950896 0.763210 0.412299
0.969482 0.766751 0.426947
0.988006 0.771969 0.444526
0.000000 0.747158 0.385107
0.000000 0.748043 0.385412
0.000000 0.748745 0.385077
0.000000 0.749081 0.383642
0.000000 0.748898 0.380560
0.000000 0.748135 0.375708
0.000000 0.747066 0.369970
0.000000 0.745754 0.363073
0.000000 0.744198 0.354833
0.000000 0.742458 0.346105
0.155886 0.740383 0.336339
0.192538 0.737240 0.303471
0.245853 0.730983 0.280400
0.312535 0.722347 0.272343
0.369482 0.712612 0.263157
0.419837 0.701961 0.253361
0.465217 0.690578 0.243076
0.507225 0.679805 0.233646
0.563134 0.695247 0.250736
0.616144 0.710201 0.269810
0.666346 0.724758 0.291051
0.713161 0.738705 0.313756
0.756527 0.752102 0.338293
0.796475 0.764797 0.363714
0.828031 0.771542 0.383978
0.858091 0.780301 0.417456
0.881498 0.781003 0.420813
0.903258 0.781735 0.426154
0.923644 0.783017 0.434943
0.942992 0.785428 0.447822
0.961944 0.789212 0.463539
0.980621 0.794583 0.482094
0.000000 0.780270 0.416236
0.000000 0.781155 0.416754
0.000000 0.781613 0.416602
0.000000 0.781491 0.415015
0.000000 0.780850 0.412085
0.000000 0.779690 0.407721
0.000000 0.778103 0.402136
0.000000 0.776150 0.395697
0.000000 0.773892 0.388037
0.000000 0.771420 0.379858
0.172305 0.768460 0.370764
0.236851 0.765194 0.356603
0.247257 0.760891 0.312932
0.312169 0.752682 0.304173
0.367590 0.743404 0.294438
0.417060 0.733181 0.283574
0.462013 0.722194 0.272343
0.502922 0.710872 0.260807
0.545617 0.706752 0.257450
0.598444 0.721157 0.277256
0.648219 0.735256 0.298741
0.694942 0.748775 0.321965
0.738003 0.761379 0.346227
0.777676 0.773159 0.371069
0.813809 0.783963 0.395514
0.845426 0.792874 0.421485
0.873411 0.802060 0.460975
0.895354 0.803098 0.465553
0.916045 0.804532 0.473091
0.935760 0.806821 0.484291
0.954742 0.810636 0.500359
0.973541 0.816098 0.520043
0.000000 0.804288 0.440040
0.000000 0.805051 0.440803
0.000000 0.805447 0.440589
0.000000 0.805356 0.439307
0.000000 0.804623 0.436591
0.000000 0.803555 0.432990
0.000000 0.802182 0.428656
0.000000 0.800473 0.423285
0.000000 0.798489 0.417029
0.084810 0.796262 0.410864
0.191714 0.793668 0.403693
0.261540 0.790707 0.395941
0.282383 0.787594 0.364202
0.319219 0.782010 0.340429
0.373297 0.774044 0.331029
0.421729 0.765286 0.320745
0.466102 0.755947 0.310033
0.507073 0.746029 0.298436
0.545129 0.736141 0.287358
0.588983 0.738033 0.292332
0.637903 0.751125 0.314305
0.683772 0.763668 0.338018
0.726314 0.775448 0.362615
0.765377 0.786496 0.387549
0.801236 0.796750 0.412879
0.834043 0.806302 0.437842
0.863096 0.814542 0.463294
0.888579 0.823239 0.504997
0.909758 0.826108 0.517052
0.929686 0.828885 0.528344
0.949035 0.832639 0.542321
0.967956 0.838254 0.562158
0.000000 0.828946 0.466529
0.000000 0.829404 0.466682
0.000000 0.829465 0.466438
0.000000 0.829068 0.465034
0.000000 0.828153 0.462562
0.000000 0.826902 0.459541
0.000000 0.825376 0.455512
0.000000 0.823575 0.451057
0.000000 0.821500 0.446082
0.128267 0.819333 0.440803
0.215366 0.816831 0.435157
0.280339 0.814084 0.429664
0.325536 0.811063 0.416754
0.330510 0.808194 0.377081
0.381598 0.801297 0.368200
0.427863 0.793637 0.358129
0.470680 0.785428 0.347509
0.510552 0.776852 0.336645
0.548180 0.768124 0.325475
0.583734 0.759274 0.314183
0.628046 0.765988 0.328099
0.673152 0.777646 0.352270
0.715084 0.788632 0.376989
0.753780 0.798947 0.402045
0.789334 0.808530 0.427375
0.821866 0.817502 0.452735
0.851652 0.826017 0.478340
0.878904 0.834104 0.503624
0.901793 0.841978 0.545678
0.922332 0.846586 0.564050
0.941894 0.850523 0.577325
0.961303 0.855985 0.594202
0.000000 0.850584 0.490852
0.000000 0.850797 0.490852
0.000000 0.850797 0.490639
0.000000 0.850462 0.489876
0.000000 0.849821 0.488136
0.000000 0.849119 0.486275
0.000000 0.848417 0.484352
0.000000 0.847562 0.482216
0.078737 0.846677 0.480415
0.191592 0.845579 0.478676
0.263157 0.844144 0.476631
0.322881 0.842283 0.474556
0.376043 0.839902 0.472450
0.390082 0.838224 0.445777
0.415625 0.834409 0.424292
0.456977 0.828305 0.415534
0.495888 0.821592 0.405798
0.532738 0.814633 0.395697
0.568322 0.807431 0.385321
0.602350 0.800168 0.374792
0.634852 0.792782 0.363928
0.677668 0.802335 0.387427
0.717769 0.811795 0.412604
0.754788 0.820737 0.438056
0.788785 0.829099 0.463630
0.819883 0.837003 0.489021
0.848386 0.844572 0.514549
0.874479 0.851835 0.539971
0.898497 0.858854 0.564233
0.919432 0.866361 0.602655
0.939208 0.872526 0.625452
0.958648 0.878141 0.640955
0.000000 0.877562 0.525963
0.000000 0.877623 0.526024
0.000000 0.877440 0.525750
0.000000 0.876921 0.524926
0.000000 0.876036 0.523400
0.000000 0.874937 0.521813
0.000000 0.873655 0.519890
0.065797 0.872251 0.518151
0.178256 0.870665 0.516197
0.246769 0.868833 0.514672
0.304662 0.866697 0.512993
0.356725 0.864256 0.511620
0.404334 0.861387 0.509911
0.437476 0.858671 0.500969
