data/fiter_cube/37639453/1023440/file.cube
# Created by Adobe Lightroom plugin Export LUT (1.17.0)
# www.johnrellis.com/lightroom/exportlut.htm
# Preset: 油管牛人_06 云集
# Color profile: C:\Program Files (x86)\Common Files\Adobe\Color\Profiles\Recommended\AdobeRGB1998.icc
LUT_3D_SIZE 5
DOMAIN_MIN 0.000000 0.000000 0.000000
DOMAIN_MAX 0.903226 0.903226 0.903226
0.013916 0.015595 0.024323
0.146395 0.036896 0.053040
0.525750 0.000000 0.000000
0.828977 0.000000 0.000000
0.970581 0.275029 0.143923
0.000000 0.135500 0.086885
0.126101 0.154421 0.071717
0.521508 0.172671 0.000000
0.823209 0.221683 0.000000
0.971435 0.367254 0.164858
0.000000 0.424018 0.184390
0.000000 0.430823 0.127779
0.470802 0.489387 0.115633
0.815732 0.532799 0.031891
0.958648 0.551965 0.203494
0.000000 0.718441 0.360571
0.000000 0.717800 0.335210
0.373297 0.679500 0.234470
0.730190 0.726070 0.300511
0.931823 0.761074 0.400610
0.000000 0.896880 0.552331
0.172335 0.891905 0.548089
0.464271 0.870634 0.506950
0.676387 0.840848 0.445533
0.883909 0.881254 0.599420
0.020874 0.044831 0.135225
0.156039 0.013428 0.154116
0.509850 0.000000 0.162387
0.801846 0.000000 0.200839
0.956115 0.304417 0.271366
0.000000 0.137545 0.160037
0.140169 0.172305 0.176730
0.509178 0.176486 0.184787
0.800778 0.234562 0.205966
0.954437 0.378515 0.281712
0.000000 0.445045 0.288762
0.000000 0.453559 0.266331
0.464912 0.478584 0.236698
0.799191 0.520439 0.232700
0.948699 0.561028 0.325292
0.000000 0.725704 0.439429
0.000000 0.724849 0.423713
0.397498 0.693416 0.331701
0.729763 0.725856 0.384436
0.926696 0.762325 0.467445
0.000000 0.897795 0.589715
0.186313 0.892729 0.585504
0.521691 0.875547 0.583917
0.684779 0.846860 0.500542
0.884794 0.883268 0.633997
0.000000 0.061830 0.400214
0.190249 0.000000 0.439124
0.580529 0.000000 0.467262
0.819089 0.070863 0.457099
0.938933 0.399268 0.516106
0.000000 0.188785 0.401373
0.143374 0.190646 0.439673
0.570397 0.174258 0.482094
0.803006 0.288518 0.475074
0.929534 0.483345 0.548974
0.000000 0.429450 0.465370
0.065003 0.452552 0.477058
0.516411 0.515343 0.513237
0.773373 0.543175 0.526085
0.926421 0.601251 0.561730
0.000000 0.749874 0.634363
0.000000 0.743465 0.620691
0.488319 0.727565 0.581384
0.735348 0.733242 0.575860
0.916350 0.765164 0.610712
0.000000 0.898528 0.701472
0.249760 0.895598 0.696834
0.516320 0.882719 0.678187
0.691798 0.854337 0.620874
0.879545 0.880308 0.697230
0.000000 0.092836 0.680018
0.258366 0.027436 0.697353
0.639185 0.000000 0.749783
0.824857 0.184176 0.714504
0.944182 0.456428 0.705928
0.000000 0.222904 0.674403
0.229038 0.225010 0.690852
0.615198 0.237888 0.740993
0.814054 0.331823 0.716976
0.936126 0.510796 0.712551
0.000000 0.448890 0.647974
0.110292 0.459205 0.650416
0.526360 0.502342 0.708614
0.783474 0.564111 0.727291
0.918029 0.639155 0.734585
0.000000 0.683253 0.716182
0.227359 0.687617 0.717067
0.523796 0.708248 0.726711
0.750393 0.749813 0.749813
0.900389 0.766445 0.756283
0.309453 0.903532 0.837797
0.411139 0.901823 0.838529
0.581903 0.893553 0.823850
0.727657 0.878599 0.785855
0.879118 0.882231 0.785946
0.319554 0.212406 0.858061
0.419867 0.211612 0.862028
0.644343 0.241123 0.876219
0.845670 0.349615 0.890593
0.936004 0.487984 0.850034
0.299107 0.304509 0.851865
0.402747 0.308202 0.856046
0.630884 0.340520 0.870848
0.837827 0.429633 0.887297
0.931060 0.534966 0.851530
0.199130 0.496345 0.829465
0.320073 0.496407 0.835630
0.570245 0.515587 0.853788
0.812619 0.596887 0.880217
0.921111 0.655329 0.861326
0.196597 0.681209 0.834318
0.283268 0.679957 0.832395
0.466224 0.678920 0.828580
0.736446 0.721340 0.860319
0.912535 0.788571 0.881376
0.368872 0.845548 0.870054
0.427802 0.846586 0.870268
0.577295 0.852110 0.872374
0.737789 0.863920 0.876799
0.889769 0.892851 0.893217
