data/fiter_cube/80369196/1023063/file.cube
# Created by Adobe Lightroom plugin Export LUT (1.17.0)
# www.johnrellis.com/lightroom/exportlut.htm
# Preset: Dream Travel_01
# Color profile: C:\Program Files (x86)\Common Files\Adobe\Color\Profiles\Recommended\AdobeRGB1998.icc
LUT_3D_SIZE 5
DOMAIN_MIN 0.000000 0.000000 0.000000
DOMAIN_MAX 0.903226 0.903226 0.903226
0.062562 0.100832 0.125795
0.320348 0.000000 0.118349
0.710170 0.000000 0.174624
0.931548 0.296361 0.299382
1.000000 0.569909 0.517571
0.000000 0.250248 0.171695
0.292546 0.310491 0.184451
0.660090 0.217441 0.153597
0.911955 0.367010 0.270939
1.000000 0.602991 0.512383
0.000000 0.582300 0.355322
0.310491 0.590875 0.410285
0.750637 0.723781 0.478614
0.858305 0.545098 0.273930
1.000000 0.676020 0.457588
0.212314 0.829709 0.585779
0.387488 0.828885 0.611536
0.703975 0.815244 0.716487
0.905394 0.897124 0.770657
0.991394 0.831632 0.618433
0.591852 0.956146 0.807828
0.600031 0.956542 0.809598
0.774807 0.941711 0.853758
0.884794 0.933288 0.900511
0.972930 0.969604 0.914214
0.000000 0.114656 0.211154
0.200961 0.221561 0.235904
0.704311 0.127504 0.266423
0.912993 0.323552 0.322606
1.000000 0.558740 0.499458
0.000000 0.311131 0.287083
0.294865 0.304082 0.286381
0.675715 0.301579 0.286290
0.899565 0.392523 0.328405
1.000000 0.586114 0.488808
0.000000 0.592035 0.384863
0.306615 0.600427 0.434363
0.731075 0.702846 0.524102
0.851255 0.553063 0.345800
1.000000 0.680995 0.501244
0.110292 0.832883 0.595941
0.386908 0.830961 0.626551
0.714656 0.819913 0.732418
0.903410 0.896452 0.791989
0.986847 0.827970 0.632380
0.570764 0.958312 0.808988
0.579797 0.958618 0.810636
0.772854 0.946197 0.858824
0.889403 0.936919 0.905699
0.973693 0.970703 0.921111
0.232761 0.330724 0.489540
0.356268 0.346777 0.383398
0.550774 0.505852 0.490517
0.903380 0.506828 0.582971
1.000000 0.617548 0.631525
0.254032 0.533349 0.620081
0.427497 0.448249 0.519860
0.594598 0.537041 0.526970
0.902464 0.533135 0.579370
1.000000 0.639887 0.634180
0.000000 0.702144 0.633417
0.330724 0.687312 0.625849
0.673823 0.644251 0.601404
0.864805 0.628717 0.571740
1.000000 0.712215 0.645228
0.000000 0.844358 0.659297
0.279240 0.838346 0.661280
0.679011 0.828489 0.738705
0.899077 0.894316 0.837125
0.977234 0.811215 0.662409
0.471992 0.966094 0.814908
0.491188 0.966796 0.817380
0.714260 0.953857 0.852995
0.893126 0.942443 0.913085
0.974182 0.971801 0.934661
0.498695 0.568292 0.765133
0.566400 0.561059 0.710750
0.591241 0.578332 0.547356
0.766629 0.739162 0.740444
0.967620 0.785122 0.844022
0.573144 0.681544 0.814939
0.603204 0.640101 0.776761
0.629053 0.616754 0.588464
0.776333 0.746639 0.750546
0.969085 0.788266 0.843046
0.501488 0.814450 0.859922
0.609400 0.814572 0.861601
0.744778 0.752560 0.799496
0.815274 0.783749 0.793820
0.980163 0.807706 0.844694
0.353521 0.904509 0.859342
0.481300 0.896880 0.858061
0.693599 0.874357 0.851499
0.852232 0.846494 0.835782
0.975555 0.838895 0.819425
0.406043 0.976379 0.870054
0.410742 0.977325 0.868345
0.625910 0.967742 0.873625
0.857664 0.952697 0.910155
0.976318 0.974792 0.954925
0.764889 0.810697 0.932586
0.785428 0.808072 0.922881
0.830381 0.819608 0.869688
0.824552 0.828733 0.826352
0.922332 0.919097 0.926482
0.789364 0.848051 0.944427
0.801968 0.838743 0.936767
0.844083 0.837827 0.893126
0.839353 0.844450 0.843442
0.927733 0.923919 0.931518
0.758816 0.909117 0.967926
0.803250 0.906767 0.965148
0.867918 0.889708 0.946319
0.872190 0.878569 0.879911
0.939208 0.933776 0.941772
0.679377 0.951904 0.967132
0.731197 0.950530 0.968048
0.844388 0.948791 0.970581
0.924498 0.934417 0.958434
0.954925 0.946929 0.955047
0.658961 1.000000 0.972351
0.660456 1.000000 0.972625
0.760006 0.995392 0.972290
0.890959 0.983764 0.973938
0.977905 0.977417 0.976593
