data/fiter_cube/80369196/1023063/file.cube
# Created by Adobe Lightroom plugin Export LUT (1.17.0)
# www.johnrellis.com/lightroom/exportlut.htm
# Preset: Dream Travel_01
# Color profile: C:\Program Files (x86)\Common Files\Adobe\Color\Profiles\Recommended\AdobeRGB1998.icc
LUT_3D_SIZE 32
DOMAIN_MIN 0.0 0.0 0.0
DOMAIN_MAX 1.0 1.0 1.0
0.062562 0.100832 0.125795
0.062562 0.100832 0.125795
0.062562 0.100832 0.125795
0.062562 0.100832 0.125795
0.112764 0.098482 0.125093
0.181827 0.085786 0.123598
0.252476 0.046052 0.121340
0.320348 0.000000 0.118349
0.386175 0.000000 0.114473
0.448829 0.000000 0.120455
0.508995 0.000000 0.129641
0.565332 0.000000 0.139681
0.617639 0.000000 0.150607
0.666255 0.000000 0.162509
0.710170 0.000000 0.174624
0.748959 0.000000 0.187381
0.792844 0.000000 0.205234
0.828580 0.088502 0.222721
0.858549 0.157931 0.240116
0.885435 0.209415 0.258518
0.909728 0.254459 0.278050
0.931548 0.296361 0.299382
0.950866 0.335576 0.321996
0.968078 0.373419 0.346258
0.983490 0.410193 0.372747
0.997375 0.447395 0.402136
1.000000 0.486061 0.435370
1.000000 0.526726 0.473579
1.000000 0.569909 0.517571
1.000000 0.615625 0.567590
1.000000 0.661555 0.620966
1.000000 0.707210 0.676753
0.062562 0.100832 0.125795
0.062562 0.100832 0.125795
0.062562 0.100832 0.125795
0.062562 0.100832 0.125795
0.109407 0.102266 0.124910
0.176913 0.093660 0.123354
0.247227 0.067231 0.121096
0.314763 0.000000 0.118105
0.380682 0.000000 0.114321
0.443580 0.000000 0.118898
0.503502 0.000000 0.128115
0.560143 0.000000 0.138003
0.612573 0.000000 0.148806
0.661189 0.000000 0.160555
0.705623 0.000000 0.172732
0.744900 0.000000 0.185550
0.788510 0.000000 0.202701
0.824063 0.091646 0.220035
0.854093 0.157473 0.237064
0.881193 0.207095 0.255070
0.905821 0.251438 0.274510
0.928008 0.292638 0.295232
0.947753 0.331792 0.317723
0.965393 0.369360 0.342016
0.981170 0.406378 0.368383
0.995392 0.443519 0.397436
1.000000 0.482216 0.430732
1.000000 0.522850 0.468605
1.000000 0.566094 0.512566
1.000000 0.611902 0.562463
1.000000 0.658167 0.616236
1.000000 0.704036 0.672236
0.062562 0.100832 0.125795
0.062562 0.100832 0.125795
0.062562 0.100832 0.125795
0.062562 0.100832 0.125795
0.104616 0.107088 0.124697
0.171359 0.103029 0.122988
0.240726 0.083833 0.120699
0.308263 0.012268 0.117769
0.374304 0.000000 0.114046
0.437476 0.000000 0.117189
0.497963 0.000000 0.126375
0.554833 0.000000 0.136110
0.607752 0.000000 0.147250
0.656733 0.000000 0.158572
0.701503 0.000000 0.170565
0.742000 0.000000 0.183780
0.785336 0.000000 0.200687
0.820676 0.101900 0.217472
0.850858 0.161563 0.234379
0.878233 0.209415 0.252384
0.903258 0.252567 0.271885
0.925811 0.293217 0.292760
0.945830 0.331762 0.315038
0.963714 0.369055 0.339330
0.979736 0.405554 0.365576
0.994202 0.442451 0.394720
1.000000 0.481025 0.427802
1.000000 0.521630 0.465827
1.000000 0.564691 0.509575
1.000000 0.610529 0.559625
1.000000 0.656703 0.613397
1.000000 0.702602 0.669551
0.062562 0.100832 0.125795
0.062562 0.100832 0.125795
0.062562 0.100832 0.125795
0.062562 0.100832 0.125795
0.102419 0.115999 0.124117
0.161349 0.119631 0.122164
0.229526 0.110018 0.119722
0.297642 0.083406 0.116762
0.363775 0.000000 0.113069
0.428016 0.000000 0.114046
0.488441 0.000000 0.122621
0.546075 0.000000 0.132723
0.599359 0.000000 0.143374
0.648920 0.000000 0.154940
0.694759 0.000000 0.167086
0.737514 0.000000 0.180545
0.780301 0.030457 0.197116
0.815549 0.124269 0.213626
0.845731 0.173434 0.230014
0.873228 0.216464 0.247807
0.898528 0.256901 0.267033
0.921508 0.295415 0.287663
0.942290 0.333196 0.310246
0.960937 0.370245 0.334783
0.977752 0.407111 0.361700
0.992889 0.444404 0.391577
1.000000 0.483131 0.425452
1.000000 0.523735 0.463935
1.000000 0.566552 0.507897
1.000000 0.611902 0.558099
1.000000 0.657465 0.611627
1.000000 0.702663 0.667475
0.058289 0.109957 0.128878
0.057496 0.111147 0.128969
0.055146 0.114656 0.129305
0.058717 0.113283 0.126101
0.095491 0.135714 0.122591
0.166140 0.143008 0.119875
0.216098 0.136507 0.118196
0.281621 0.123598 0.115145
0.346929 0.098238 0.111360
0.411658 0.027863 0.108339
0.473365 0.000000 0.117342
0.531762 0.000000 0.126741
0.586267 0.000000 0.137484
0.637171 0.000000 0.149142
0.684291 0.000000 0.161196
0.730922 0.014984 0.175814
0.773831 0.108583 0.191989
0.809628 0.155367 0.208499
0.840604 0.194980 0.225223
0.868650 0.232181 0.242985
0.894347 0.268437 0.262028
0.917815 0.304662 0.282902
0.939025 0.340368 0.305516
0.958251 0.376135 0.330297
0.975525 0.411872 0.357427
0.991150 0.448280 0.387488
1.000000 0.486244 0.421424
1.000000 0.526055 0.460121
1.000000 0.568109 0.504021
1.000000 0.612848 0.554223
1.000000 0.658045 0.608240
1.000000 0.702968 0.664454
0.006073 0.151278 0.142428
0.005249 0.152102 0.142336
0.003113 0.155032 0.141451
0.032685 0.160830 0.144747
0.074189 0.151400 0.149020
0.151308 0.189822 0.129702
0.238224 0.179049 0.116182
0.278935 0.159304 0.111543
0.333562 0.141421 0.108797
0.396612 0.121340 0.107973
0.457252 0.103700 0.112245
0.516136 0.086183 0.119631
0.571954 0.075868 0.130434
0.624201 0.076265 0.142000
0.672847 0.091371 0.154391
0.723232 0.123079 0.169497
0.766506 0.156619 0.185672
0.803159 0.189425 0.202396
0.834928 0.221286 0.219394
0.863981 0.253574 0.237613
0.890532 0.286564 0.257053
0.914885 0.320012 0.278599
0.953002 0.385779 0.321691
0.970581 0.418647 0.347906
0.986175 0.451759 0.376593
1.000000 0.485695 0.408087
1.000000 0.521111 0.443183
1.000000 0.558465 0.483009
1.000000 0.598413 0.528252
1.000000 0.640253 0.578424
1.000000 0.682063 0.631037
1.000000 0.723354 0.685054
0.000000 0.202518 0.157534
0.000000 0.203098 0.157473
0.000000 0.205264 0.156527
0.000000 0.210361 0.163149
0.084413 0.210269 0.178103
0.113832 0.209506 0.177920
0.223514 0.253330 0.156039
0.318578 0.237766 0.139193
0.354376 0.206027 0.124208
0.389502 0.180056 0.116182
0.451545 0.169314 0.120699
0.510857 0.160128 0.125551
0.566094 0.154513 0.131594
0.617639 0.153780 0.138155
0.669673 0.162722 0.148226
0.721553 0.183536 0.164096
0.765011 0.206699 0.180667
0.801999 0.231540 0.197818
0.834562 0.258213 0.215946
0.864775 0.286931 0.235080
0.892973 0.318181 0.256535
0.918975 0.351385 0.280278
0.942412 0.385534 0.306432
0.963104 0.420081 0.335027
0.981079 0.454810 0.365789
0.996460 0.489204 0.398871
1.000000 0.524437 0.434974
1.000000 0.560998 0.475227
1.000000 0.600061 0.520592
1.000000 0.641016 0.571130
1.000000 0.682216 0.624262
1.000000 0.723049 0.678950
0.000000 0.250248 0.171695
0.000000 0.250706 0.171511
0.000000 0.252110 0.172335
0.000000 0.256046 0.181552
0.074617 0.260288 0.199100
0.133272 0.251682 0.208652
0.166720 0.265354 0.205814
0.292546 0.310491 0.184451
0.391058 0.295628 0.166842
0.421820 0.260624 0.147799
0.444221 0.227604 0.132815
0.493568 0.214237 0.133120
0.550286 0.209323 0.138460
0.603388 0.208499 0.144564
0.660090 0.217441 0.153597
0.709865 0.229557 0.162509
0.752682 0.244694 0.172946
0.790372 0.263340 0.187564
0.824216 0.285039 0.205844
0.855558 0.309667 0.225315
0.884855 0.337224 0.246921
0.911955 0.367010 0.270939
0.936339 0.398413 0.297246
0.957916 0.430671 0.325841
0.976715 0.463172 0.356756
0.992828 0.496040 0.389837
1.000000 0.529747 0.426093
1.000000 0.565087 0.466590
1.000000 0.602991 0.512383
1.000000 0.643183 0.563653
1.000000 0.683772 0.617578
1.000000 0.724056 0.673182
0.000000 0.298161 0.192721
0.000000 0.298436 0.192905
0.000000 0.299718 0.195010
0.000000 0.303014 0.202976
0.029267 0.306706 0.217594
0.153964 0.307958 0.238132
0.188022 0.293523 0.241978
0.228489 0.322332 0.235996
0.363561 0.368597 0.215457
0.465034 0.358526 0.199527
0.490761 0.321141 0.176059
0.508171 0.284459 0.156710
0.533135 0.258640 0.146120
0.593805 0.261326 0.153506
0.649012 0.266850 0.161013
0.698756 0.275334 0.169253
0.742153 0.286290 0.178317
0.780270 0.299840 0.188876
0.814267 0.315648 0.200412
0.846250 0.335393 0.214908
0.876799 0.359655 0.236973
0.905028 0.386481 0.261265
0.930419 0.414923 0.287694
0.952880 0.444739 0.316625
0.972442 0.475196 0.347906
0.989349 0.506096 0.381353
1.000000 0.538201 0.418036
1.000000 0.572045 0.458747
1.000000 0.608392 0.504723
1.000000 0.647272 0.556359
1.000000 0.686885 0.611231
1.000000 0.726253 0.667536
0.000000 0.345647 0.215946
0.000000 0.345983 0.216190
0.000000 0.347082 0.218448
0.000000 0.349737 0.225803
0.000000 0.352819 0.238163
0.146273 0.355077 0.256260
0.210727 0.349493 0.269505
0.243503 0.334844 0.276371
0.294682 0.379339 0.267124
0.432990 0.426673 0.248753
0.535698 0.421790 0.233860
0.557214 0.383642 0.206638
0.575647 0.349248 0.185702
0.588220 0.315099 0.166476
0.634974 0.312200 0.168826
0.685969 0.318669 0.176211
0.731197 0.327459 0.184848
0.770932 0.338231 0.194644
0.806119 0.351263 0.205905
0.838773 0.367224 0.218570
0.869261 0.386084 0.232944
0.897520 0.407813 0.250523
0.923552 0.432868 0.277226
0.946624 0.459449 0.305760
0.966979 0.487160 0.336614
0.984741 0.516167 0.370489
1.000000 0.546654 0.407385
1.000000 0.579339 0.449042
1.000000 0.614649 0.496071
1.000000 0.652796 0.549035
1.000000 0.691890 0.605463
1.000000 0.730831 0.663600
0.000000 0.391547 0.239597
0.000000 0.392035 0.239780
0.000000 0.392981 0.242588
0.000000 0.395148 0.249210
0.000000 0.397986 0.260197
0.137942 0.400275 0.275639
0.228183 0.401434 0.296910
0.267704 0.390997 0.302556
0.295811 0.383642 0.308110
0.362860 0.436805 0.300175
0.504662 0.487617 0.284947
0.612604 0.494606 0.275517
0.630640 0.456397 0.243931
0.641718 0.417609 0.217563
0.648890 0.379950 0.194064
0.669795 0.358801 0.183200
0.716823 0.365301 0.190921
0.758022 0.373877 0.200137
0.794736 0.384100 0.210300
0.828702 0.397314 0.222538
0.860380 0.413519 0.236545
0.889677 0.432319 0.252262
0.916411 0.453651 0.270359
0.940551 0.477241 0.294865
0.961944 0.503044 0.326482
0.980591 0.530022 0.360662
0.996826 0.558434 0.397955
1.000000 0.589197 0.439765
1.000000 0.622705 0.487160
1.000000 0.659113 0.540581
1.000000 0.697017 0.598199
1.000000 0.734920 0.657527
0.000000 0.437720 0.264775
0.000000 0.438087 0.265385
0.000000 0.439155 0.268193
0.000000 0.440864 0.274174
0.000000 0.443153 0.283848
0.133303 0.445228 0.297246
0.223087 0.446845 0.315312
0.293462 0.444465 0.333104
0.323949 0.432197 0.337316
0.355993 0.443397 0.343572
0.440284 0.502220 0.340398
0.581048 0.556176 0.328985
0.707668 0.589471 0.339025
0.717861 0.546838 0.297704
0.722683 0.504387 0.263981
0.724941 0.463478 0.234073
0.726345 0.425391 0.208652
0.762905 0.427008 0.213840
0.799649 0.434852 0.224582
0.833463 0.445563 0.236759
0.864775 0.458930 0.250553
0.893339 0.474739 0.266545
0.919188 0.492470 0.284215
0.942473 0.512108 0.303960
0.963317 0.533196 0.326299
0.981720 0.557610 0.361303
0.997742 0.583642 0.399817
1.000000 0.611872 0.442512
1.000000 0.642725 0.490578
1.000000 0.676600 0.544762
1.000000 0.711788 0.602502
1.000000 0.747341 0.662043
0.000000 0.489754 0.295079
0.000000 0.490089 0.295872
0.000000 0.490547 0.298253
0.000000 0.491463 0.303441
0.000000 0.492622 0.311681
0.134218 0.493812 0.323247
0.223545 0.494759 0.338659
0.305577 0.496651 0.360204
0.357763 0.493965 0.373754
0.392523 0.486122 0.383825
0.431342 0.515221 0.390814
0.524681 0.576043 0.390936
0.659815 0.631434 0.384405
0.753506 0.641688 0.384192
0.761776 0.600366 0.338079
0.765225 0.558923 0.300633
0.766415 0.518456 0.267185
0.767147 0.481086 0.238529
0.783719 0.463905 0.228428
0.819425 0.472694 0.240146
0.852323 0.484138 0.253452
0.882506 0.497932 0.268711
0.909697 0.513787 0.285985
0.934264 0.531579 0.305638
0.956176 0.550927 0.327245
0.975708 0.571801 0.351720
0.992920 0.595514 0.386389
1.000000 0.621973 0.429603
1.000000 0.651148 0.478309
1.000000 0.683558 0.533471
1.000000 0.717647 0.592859
1.000000 0.752255 0.654475
0.000000 0.532525 0.321843
0.000000 0.532738 0.322667
0.000000 0.533013 0.324651
0.000000 0.533837 0.329412
0.000000 0.536248 0.337835
0.137270 0.539574 0.349767
0.227481 0.542809 0.365209
0.308202 0.545647 0.384924
0.386816 0.547936 0.410346
0.418311 0.540551 0.415290
0.451240 0.531762 0.427039
0.494972 0.575525 0.432654
0.588525 0.633448 0.434668
0.709957 0.681636 0.430884
0.793668 0.690608 0.435431
0.799435 0.649348 0.382086
0.801053 0.607965 0.339513
0.801480 0.568536 0.302678
0.802365 0.532219 0.271061
0.805417 0.500786 0.244907
0.838895 0.509209 0.256321
0.870939 0.521721 0.271489
0.899809 0.536065 0.288334
0.925841 0.552361 0.307683
0.949035 0.570336 0.329534
0.969574 0.589776 0.353887
0.987915 0.610712 0.381292
1.000000 0.634424 0.417304
1.000000 0.662043 0.466804
1.000000 0.692744 0.523156
1.000000 0.725582 0.584497
1.000000 0.759030 0.648035
0.000000 0.582300 0.355322
0.000000 0.582818 0.356207
0.000000 0.583246 0.358312
0.000000 0.584344 0.362951
0.000000 0.585718 0.370184
0.146365 0.587396 0.380224
0.232914 0.589197 0.393378
0.310491 0.590875 0.410285
0.385840 0.592615 0.432166
0.443061 0.590845 0.449897
0.473335 0.583307 0.456764
0.504540 0.574578 0.470741
0.553399 0.631250 0.475990
0.643091 0.682399 0.479988
0.750637 0.723781 0.478614
0.825956 0.732570 0.487556
0.830503 0.693019 0.428870
0.831693 0.652949 0.380957
0.832578 0.615320 0.340764
0.834623 0.581292 0.306798
0.838865 0.552087 0.278630
0.858305 0.545098 0.273930
0.888945 0.558221 0.290715
0.916533 0.573266 0.309972
0.941192 0.589929 0.331456
0.963073 0.608331 0.356115
0.982605 0.628595 0.384344
0.999939 0.650965 0.416938
1.000000 0.676020 0.457588
1.000000 0.705776 0.516442
1.000000 0.737697 0.580835
1.000000 0.770047 0.647211
0.000000 0.629206 0.389593
0.000000 0.629694 0.390204
0.000000 0.630152 0.392065
0.000000 0.630976 0.396338
0.000000 0.632074 0.402960
0.158633 0.633448 0.412207
0.240940 0.635004 0.424140
0.315618 0.636530 0.439460
0.388800 0.637659 0.458869
0.460456 0.638453 0.483497
0.497444 0.633173 0.492622
0.525597 0.625025 0.500999
0.551110 0.626123 0.511223
0.606104 0.678950 0.519829
0.687861 0.722438 0.524651
0.782467 0.758083 0.524620
0.850736 0.767391 0.538903
0.855406 0.730831 0.476387
0.857755 0.693812 0.424781
0.860319 0.659449 0.382300
0.864103 0.628595 0.346410
0.869810 0.602136 0.316960
0.878630 0.581994 0.294316
0.908049 0.596216 0.313817
0.934203 0.612116 0.335973
0.957366 0.629664 0.361089
0.977905 0.648829 0.389868
0.996033 0.670069 0.423072
1.000000 0.693385 0.462074
1.000000 0.719265 0.508904
1.000000 0.749081 0.574670
1.000000 0.779446 0.642451
0.000000 0.670253 0.422095
0.000000 0.670375 0.422126
0.000000 0.670527 0.423682
0.000000 0.670893 0.427283
0.046876 0.671534 0.433234
0.170108 0.672267 0.441291
0.247898 0.673030 0.451911
0.319402 0.673701 0.465461
0.389197 0.674311 0.482551
0.457649 0.674586 0.504112
0.518151 0.673671 0.527276
0.544274 0.666865 0.532189
0.570611 0.658900 0.542473
0.596857 0.672358 0.552697
0.651545 0.718502 0.562463
0.725704 0.756558 0.568261
0.808988 0.787625 0.569512
0.871275 0.797513 0.587945
0.876341 0.764920 0.526299
0.880095 0.731472 0.471778
0.884001 0.700160 0.426917
0.889006 0.671992 0.388952
0.895720 0.647913 0.357855
0.904875 0.629328 0.333501
0.925170 0.631891 0.337896
0.949920 0.648676 0.363470
0.971771 0.667079 0.392889
0.990997 0.687404 0.426947
1.000000 0.709712 0.466682
1.000000 0.734188 0.513207
1.000000 0.760525 0.567132
1.000000 0.789334 0.637415
0.000000 0.707118 0.454078
0.000000 0.707637 0.454536
0.000000 0.722133 0.468696
0.000000 0.722255 0.472084
0.124086 0.722194 0.477211
0.204257 0.721981 0.484321
0.274296 0.721614 0.493568
0.340826 0.721065 0.505486
0.407141 0.720455 0.520745
0.472267 0.719692 0.540063
0.535698 0.718685 0.564416
0.576989 0.714656 0.579278
0.600305 0.707393 0.585321
0.623072 0.699062 0.595697
0.648981 0.721645 0.604974
0.699977 0.761318 0.614527
0.766110 0.793912 0.620722
0.837705 0.819852 0.623041
0.892638 0.828977 0.644526
0.897581 0.800534 0.585626
0.902190 0.770871 0.529931
0.907225 0.742611 0.482002
0.913268 0.717006 0.441382
0.920897 0.695369 0.408240
0.930449 0.678645 0.382544
0.943603 0.670497 0.368902
0.966094 0.687068 0.397955
0.985992 0.705531 0.431800
1.000000 0.726253 0.471534
1.000000 0.749294 0.518547
1.000000 0.773892 0.572015
1.000000 0.798978 0.630610
0.000000 0.743862 0.489021
0.000000 0.745724 0.490822
0.000000 0.747646 0.492653
0.019287 0.749233 0.497383
0.149172 0.750271 0.503288
0.219821 0.750546 0.510430
0.284428 0.750240 0.519188
0.347936 0.749477 0.530175
0.410620 0.748684 0.544030
0.472297 0.747677 0.561364
0.533410 0.746426 0.583001
0.592370 0.744991 0.609552
0.616266 0.739284 0.615015
0.637018 0.732387 0.621790
0.657099 0.724483 0.632319
0.684138 0.754940 0.640955
0.732692 0.789944 0.650172
0.792538 0.818204 0.656641
0.856229 0.840848 0.660182
0.904448 0.848631 0.680262
0.911650 0.825376 0.630671
0.917144 0.800046 0.578607
0.923125 0.775570 0.532372
0.930388 0.753262 0.491249
0.938964 0.734279 0.457435
0.949371 0.720394 0.432227
0.961975 0.712520 0.415900
0.980346 0.723140 0.435676
0.998779 0.742855 0.476539
1.000000 0.764614 0.524407
1.000000 0.787686 0.578363
1.000000 0.810941 0.635645
0.000000 0.772396 0.518547
0.021942 0.774075 0.520317
0.053254 0.775753 0.522057
0.107668 0.777127 0.525200
0.177005 0.777920 0.530785
0.238834 0.777981 0.537407
0.298466 0.777432 0.545556
0.357488 0.776577 0.555657
0.416602 0.775631 0.568383
0.475685 0.774441 0.584314
0.534386 0.773098 0.603998
0.591119 0.771542 0.627497
0.633295 0.768887 0.646113
0.652461 0.763210 0.650446
0.670924 0.756619 0.657557
0.688655 0.749111 0.667933
0.717220 0.785855 0.676204
0.762875 0.816312 0.685389
0.816953 0.840757 0.692195
0.873442 0.860410 0.696834
0.915557 0.866819 0.715114
0.924315 0.848020 0.674464
0.930266 0.826139 0.626154
0.936828 0.805386 0.583429
0.944671 0.786343 0.544366
0.954101 0.770382 0.511284
0.965240 0.759182 0.487251
0.978302 0.754055 0.473823
0.993683 0.758816 0.480415
1.000000 0.779294 0.529198
1.000000 0.800687 0.583062
1.000000 0.822507 0.640833
0.138247 0.799344 0.548638
0.142641 0.800809 0.550317
0.148135 0.802274 0.552026
0.153567 0.803647 0.553643
0.205661 0.804227 0.558740
0.259770 0.804074 0.564904
0.314305 0.803372 0.572381
0.369207 0.802304 0.581750
0.425360 0.801053 0.593530
0.481392 0.799649 0.608026
0.537652 0.798032 0.625879
0.591730 0.796323 0.646876
0.641382 0.794736 0.669886
0.668025 0.791012 0.679500
0.685176 0.785733 0.684352
0.702052 0.779934 0.692134
0.717586 0.782162 0.700465
0.749416 0.815000 0.712093
0.792355 0.841672 0.722286
0.841062 0.863157 0.730465
0.890745 0.880430 0.736568
0.927520 0.885893 0.753231
0.937133 0.870817 0.721187
0.943420 0.852384 0.678218
0.950530 0.835203 0.639704
0.959014 0.820005 0.605310
0.969116 0.807889 0.577142
0.980896 0.800504 0.558221
0.994232 0.798886 0.550805
1.000000 0.803677 0.557458
1.000000 0.820279 0.602045
1.000000 0.840299 0.659907
0.212314 0.829709 0.585779
0.214542 0.830320 0.586572
0.216281 0.830869 0.587243
0.219272 0.831388 0.587823
0.239872 0.831540 0.590112
0.286839 0.830900 0.595605
0.336126 0.829984 0.602625
0.387488 0.828885 0.611536
0.440528 0.827604 0.622766
0.494331 0.826139 0.636652
0.548302 0.824521 0.653437
0.599542 0.822812 0.672358
0.646815 0.821164 0.692805
0.688380 0.819638 0.713527
0.703975 0.815244 0.716487
0.719417 0.810422 0.721798
0.734646 0.805203 0.729671
0.750210 0.814786 0.737636
0.781033 0.842466 0.748775
0.819669 0.864805 0.758022
0.862181 0.882689 0.765377
0.905394 0.897124 0.770657
0.937163 0.901122 0.783810
0.946746 0.888243 0.757961
0.952880 0.872160 0.719448
0.960204 0.857542 0.684657
0.968994 0.845090 0.654780
0.979431 0.836149 0.631861
0.991394 0.831632 0.618433
1.000000 0.832395 0.616999
1.000000 0.838804 0.629999
1.000000 0.852201 0.665583
0.266484 0.852628 0.616541
0.268254 0.853178 0.617395
0.270298 0.853758 0.618158
0.272374 0.854215 0.618769
0.275395 0.854612 0.619348
0.311528 0.853941 0.623774
0.356695 0.852750 0.630243
0.404273 0.851377 0.638331
0.454078 0.849821 0.648768
0.505058 0.848081 0.661585
0.556207 0.846220 0.676753
0.604669 0.844388 0.693629
0.649744 0.842618 0.711879
0.691554 0.841154 0.731533
0.719875 0.838865 0.744228
0.734249 0.835019 0.747951
0.748531 0.830838 0.753811
0.762509 0.826413 0.761959
0.779019 0.841459 0.769986
0.808072 0.865019 0.780209
0.842832 0.884031 0.788785
0.880430 0.899413 0.795499
0.918334 0.911833 0.800473
0.946136 0.914824 0.811215
0.954650 0.902556 0.788113
0.960662 0.888731 0.754726
0.968200 0.876341 0.724300
0.977203 0.866514 0.699397
0.987793 0.860105 0.681788
0.999634 0.857969 0.673945
1.000000 0.860990 0.679225
1.000000 0.869505 0.700221
0.326665 0.877043 0.652979
0.328405 0.877623 0.653895
0.329870 0.877989 0.654475
0.331640 0.878202 0.654810
0.333471 0.878325 0.655024
0.344579 0.877989 0.656214
0.384955 0.876463 0.661982
0.428565 0.874601 0.669276
0.474647 0.872465 0.678401
0.522179 0.870176 0.689784
0.568872 0.867735 0.702663
0.613794 0.865507 0.717189
0.656184 0.863340 0.732967
0.695552 0.861387 0.749752
0.731960 0.859617 0.767605
0.748959 0.856352 0.772793
0.761593 0.852506 0.776364
0.774197 0.848569 0.781949
0.786893 0.844663 0.789853
0.804013 0.863523 0.797452
0.831083 0.883635 0.806668
0.862272 0.899962 0.814176
0.895415 0.913024 0.819913
0.928832 0.923522 0.823850
0.953185 0.925414 0.831998
0.962341 0.916045 0.816312
0.968200 0.904234 0.787961
0.975677 0.894011 0.762570
0.984649 0.886442 0.742977
0.995056 0.882322 0.730831
1.000000 0.882597 0.729732
1.000000 0.887816 0.742153
0.376287 0.895232 0.683101
0.377783 0.895689 0.683955
0.379370 0.896025 0.684565
0.380682 0.896269 0.684932
0.382452 0.896300 0.685054
0.384588 0.896330 0.685206
0.409033 0.895354 0.688838
0.449897 0.893523 0.695857
0.493446 0.891386 0.704616
0.538201 0.889158 0.715145
0.581994 0.886900 0.727047
0.624598 0.884703 0.740230
0.664820 0.882628 0.754482
0.702602 0.880705 0.769528
0.737850 0.878935 0.785367
0.766751 0.877226 0.799344
0.778378 0.874174 0.801877
0.790005 0.871000 0.805966
0.801633 0.867796 0.811795
0.813169 0.864652 0.819455
0.830198 0.885405 0.826139
0.854368 0.902159 0.833677
0.881651 0.915679 0.839719
0.910399 0.926604 0.844266
0.939513 0.935302 0.847257
0.960693 0.936370 0.853361
0.969512 0.928283 0.841520
0.975219 0.918517 0.818448
0.982635 0.910521 0.798489
0.991516 0.905394 0.785061
1.000000 0.903838 0.779965
1.000000 0.906554 0.785763
0.429267 0.912657 0.714992
0.430488 0.912963 0.715663
0.431250 0.913115 0.715969
0.432288 0.913146 0.716060
0.433326 0.913085 0.715999
0.434913 0.912993 0.715938
0.437079 0.912902 0.715908
0.473732 0.910979 0.722225
0.514305 0.908751 0.730282
0.555291 0.906554 0.739681
0.596368 0.904265 0.750393
0.636255 0.902098 0.762203
0.674434 0.900053 0.774899
0.710658 0.898070 0.788357
0.744350 0.896178 0.802335
0.775387 0.894652 0.816953
0.794339 0.892638 0.824796
0.804807 0.890013 0.827634
0.815366 0.887388 0.831937
0.825895 0.884733 0.837675
0.835752 0.886564 0.843442
0.852781 0.903716 0.850126
0.874174 0.917632 0.856107
0.898009 0.928862 0.860899
0.923095 0.937926 0.864317
0.948669 0.945159 0.866575
0.967132 0.945495 0.871061
0.975463 0.938445 0.862150
0.980987 0.930358 0.843229
0.988342 0.924376 0.828305
0.996857 0.921508 0.820645
1.000000 0.922210 0.821530
0.480659 0.927459 0.744991
0.481544 0.927642 0.745388
0.482307 0.927764 0.745632
0.483284 0.927825 0.745846
0.484688 0.927886 0.746090
0.486976 0.928038 0.746578
0.489998 0.928344 0.747433
0.503380 0.928222 0.750393
0.541894 0.926604 0.758724
0.581079 0.924926 0.768215
0.620020 0.923186 0.778653
0.657923 0.921477 0.789853
0.694392 0.919707 0.801694
0.728725 0.917967 0.813931
0.760647 0.916320 0.826505
0.789731 0.914794 0.839200
0.816190 0.913664 0.852201
0.826841 0.911650 0.855253
0.836118 0.909545 0.858274
0.845365 0.907408 0.862425
0.854490 0.905272 0.867582
0.863096 0.910246 0.871824
0.878172 0.923644 0.877043
0.896208 0.934569 0.881315
0.916197 0.943389 0.884520
0.937285 0.950439 0.886687
0.958984 0.956023 0.887999
0.974365 0.955413 0.890837
0.981811 0.949310 0.884520
0.987121 0.943023 0.870024
0.994171 0.939300 0.860655
1.000000 0.938537 0.858396
0.542657 0.943999 0.780667
0.543328 0.944121 0.780941
0.543572 0.944152 0.780972
0.544274 0.944091 0.781003
0.545068 0.944060 0.780972
0.546380 0.944030 0.781125
0.548425 0.944091 0.781460
0.551263 0.944244 0.782101
0.571954 0.943267 0.786404
0.606561 0.941192 0.794064
0.641352 0.939086 0.802548
0.675654 0.936980 0.811826
0.709071 0.934905 0.821775
0.740871 0.932860 0.832242
