data/fiter_cube/80369196/1023063/file.cube
# Created by Adobe Lightroom plugin Export LUT (1.17.0)
# www.johnrellis.com/lightroom/exportlut.htm
# Preset: Dream Travel_01
# Color profile: C:\Program Files (x86)\Common Files\Adobe\Color\Profiles\Recommended\AdobeRGB1998.icc
LUT_3D_SIZE 8
DOMAIN_MIN 0.000000 0.000000 0.000000
DOMAIN_MAX 0.903226 0.903226 0.903226
0.062562 0.100832 0.125795
0.112764 0.098482 0.125093
0.386175 0.000000 0.114473
0.617639 0.000000 0.150607
0.792844 0.000000 0.205234
0.909728 0.254459 0.278050
0.983490 0.410193 0.372747
1.000000 0.569909 0.517571
0.058289 0.109957 0.128878
0.095491 0.135714 0.122591
0.346929 0.098238 0.111360
0.586267 0.000000 0.137484
0.773831 0.108583 0.191989
0.894347 0.268437 0.262028
0.975525 0.411872 0.357427
1.000000 0.568109 0.504021
0.000000 0.298161 0.192721
0.029267 0.306706 0.217594
0.363561 0.368597 0.215457
0.533135 0.258640 0.146120
0.742153 0.286290 0.178317
0.876799 0.359655 0.236973
0.972442 0.475196 0.347906
1.000000 0.608392 0.504723
0.000000 0.489754 0.295079
0.000000 0.492622 0.311681
0.357763 0.493965 0.373754
0.659815 0.631434 0.384405
0.766415 0.518456 0.267185
0.852323 0.484138 0.253452
0.956176 0.550927 0.327245
1.000000 0.651148 0.478309
0.000000 0.670253 0.422095
0.046876 0.671534 0.433234
0.389197 0.674311 0.482551
0.570611 0.658900 0.542473
0.808988 0.787625 0.569512
0.884001 0.700160 0.426917
0.925170 0.631891 0.337896
1.000000 0.709712 0.466682
0.138247 0.799344 0.548638
0.205661 0.804227 0.558740
0.425360 0.801053 0.593530
0.641382 0.794736 0.669886
0.717586 0.782162 0.700465
0.890745 0.880430 0.736568
0.950530 0.835203 0.639704
0.994232 0.798886 0.550805
0.376287 0.895232 0.683101
0.382452 0.896300 0.685054
0.493446 0.891386 0.704616
0.664820 0.882628 0.754482
0.778378 0.874174 0.801877
0.830198 0.885405 0.826139
0.939513 0.935302 0.847257
0.982635 0.910521 0.798489
0.591852 0.956146 0.807828
0.593988 0.956176 0.808133
0.603357 0.956817 0.810513
0.726192 0.949187 0.841672
0.826200 0.939055 0.874662
0.877134 0.934661 0.896574
0.911650 0.949035 0.910155
0.972930 0.969604 0.914214
0.062562 0.100832 0.125795
0.069551 0.104952 0.131930
0.375097 0.000000 0.150973
0.595544 0.000000 0.174380
0.772457 0.077913 0.202243
0.890867 0.250187 0.260349
0.973785 0.397253 0.354986
1.000000 0.554681 0.498970
0.009613 0.133181 0.153262
0.104768 0.145876 0.161654
0.354070 0.137881 0.167483
0.580377 0.104372 0.179812
0.761990 0.160189 0.205203
0.881285 0.272038 0.250065
0.967224 0.402869 0.343114
1.000000 0.552972 0.485817
0.000000 0.304234 0.207828
0.071626 0.316381 0.237186
0.366247 0.366430 0.256077
0.537774 0.283330 0.198062
0.733791 0.302312 0.217990
0.865171 0.360906 0.255131
0.960693 0.457374 0.328130
1.000000 0.590082 0.482155
0.000000 0.487678 0.304356
0.000000 0.492470 0.323247
0.373693 0.499275 0.387304
0.639185 0.609674 0.395636
0.733761 0.493233 0.278172
0.834714 0.471626 0.269780
0.943389 0.535363 0.331762
1.000000 0.634455 0.456214
0.000000 0.669490 0.429480
0.084047 0.669764 0.440070
0.384833 0.670375 0.483680
0.567773 0.653223 0.540307
0.797604 0.775326 0.569757
0.871275 0.687312 0.429816
0.918242 0.625299 0.348730
1.000000 0.702663 0.468544
0.005524 0.795193 0.545373
0.195132 0.795224 0.553735
0.413184 0.792935 0.586816
0.630335 0.788418 0.661341
0.716060 0.774685 0.699825
0.888365 0.878294 0.741543
0.946715 0.832029 0.642969
0.990661 0.792630 0.546563
0.346136 0.890562 0.674891
0.348333 0.890074 0.674159
0.476875 0.885832 0.696193
0.654719 0.878782 0.748013
0.776150 0.872038 0.800107
0.827390 0.881743 0.824125
0.937224 0.933013 0.846220
0.980194 0.907317 0.794797
0.577417 0.954650 0.803403
0.580987 0.955047 0.804501
0.591455 0.955901 0.807340
0.719020 0.948333 0.839017
0.828641 0.941558 0.878050
0.879179 0.936126 0.898802
0.911376 0.948425 0.910582
0.972442 0.969146 0.914580
0.000000 0.139315 0.250034
0.119783 0.159182 0.206607
0.256870 0.264256 0.272160
0.616968 0.195834 0.313848
0.792111 0.211521 0.313390
0.895293 0.322454 0.344854
0.974609 0.431250 0.392889
1.000000 0.567498 0.507713
0.000000 0.241703 0.312352
0.158389 0.218204 0.276799
0.291081 0.283787 0.291173
0.613489 0.224491 0.310155
0.779141 0.256931 0.316716
0.887236 0.340276 0.343450
0.969574 0.439490 0.389776
1.000000 0.570001 0.499062
0.000000 0.370703 0.332311
0.020539 0.367712 0.330663
0.358190 0.354864 0.327184
0.576776 0.347234 0.321019
0.755581 0.366766 0.329503
0.872923 0.411658 0.350469
0.961120 0.488228 0.396612
1.000000 0.596735 0.488869
0.000000 0.509392 0.351019
0.000000 0.514458 0.358984
0.369879 0.526452 0.414710
0.640467 0.607477 0.465858
0.708370 0.483986 0.338201
0.845243 0.506798 0.360266
0.946319 0.562860 0.409155
1.000000 0.651453 0.505974
0.000000 0.678492 0.453498
0.000000 0.680873 0.466743
0.382086 0.683253 0.508995
0.599084 0.676143 0.578424
0.798947 0.778470 0.627070
0.855253 0.679072 0.471962
0.920348 0.641657 0.417914
1.000000 0.714870 0.524804
0.000000 0.800473 0.563134
0.175967 0.800534 0.573053
0.411048 0.797757 0.604395
0.621515 0.791928 0.666712
0.726253 0.778805 0.714595
0.885344 0.876616 0.765347
0.938262 0.827695 0.664057
0.987182 0.789334 0.564569
0.297124 0.896330 0.684627
0.306340 0.896056 0.685054
0.468299 0.889799 0.707485
0.645716 0.881254 0.752377
0.782101 0.875151 0.809384
0.830777 0.879606 0.832425
0.938445 0.935058 0.861753
0.979034 0.910094 0.812070
0.556420 0.957458 0.805905
0.558434 0.957214 0.805661
0.568505 0.957610 0.807523
0.705440 0.950500 0.839261
0.821073 0.942901 0.876890
0.882017 0.938415 0.902617
0.913420 0.948547 0.915251
0.973266 0.970306 0.921538
0.148623 0.261295 0.404334
0.229740 0.267033 0.371893
0.278660 0.303227 0.295079
0.458473 0.424506 0.412238
0.757992 0.397436 0.484657
0.897826 0.404211 0.480812
0.968597 0.478065 0.501915
1.000000 0.587427 0.569848
0.223209 0.353826 0.458076
0.265049 0.325017 0.424292
0.319524 0.336706 0.322759
0.477516 0.436103 0.424994
0.762417 0.412757 0.488502
0.893370 0.410163 0.473945
0.964996 0.488655 0.501671
1.000000 0.592706 0.568475
0.094759 0.485878 0.515496
0.236698 0.483986 0.514061
0.419287 0.425055 0.447120
0.535241 0.475746 0.466163
0.778042 0.461433 0.495521
0.881071 0.480781 0.488655
0.961089 0.544762 0.520867
1.000000 0.629847 0.583612
0.000000 0.600671 0.529412
0.000000 0.598901 0.529503
0.373877 0.577691 0.517662
0.593103 0.560815 0.512261
0.735500 0.540795 0.486519
0.852323 0.555627 0.491890
0.944213 0.598810 0.521477
1.000000 0.675074 0.593530
0.000000 0.704402 0.540948
0.000000 0.703456 0.542504
0.329900 0.699641 0.546563
0.601373 0.697414 0.609308
0.789578 0.769680 0.683284
0.817288 0.642817 0.499214
0.923003 0.671290 0.529747
0.998169 0.733394 0.609308
0.000000 0.813504 0.599329
0.000000 0.816434 0.610895
0.378729 0.812039 0.635584
0.607630 0.805386 0.686580
0.747250 0.798581 0.745083
0.884733 0.877867 0.802029
0.925811 0.817960 0.687037
0.984222 0.795804 0.627161
0.159915 0.903655 0.699794
0.241276 0.903136 0.704952
0.435645 0.898466 0.726253
0.626398 0.890318 0.764797
0.777707 0.883543 0.817533
0.839048 0.875944 0.847105
0.939696 0.937224 0.880919
0.976013 0.909483 0.826413
0.516869 0.964202 0.814450
0.521691 0.964416 0.815213
0.536492 0.964446 0.816526
0.669734 0.956023 0.839017
0.803799 0.946593 0.875120
0.885863 0.942412 0.908812
0.915679 0.947784 0.921386
0.974273 0.971740 0.931029
0.309972 0.398657 0.576165
0.352850 0.392096 0.548058
0.431403 0.407813 0.444495
0.429908 0.429084 0.402319
0.629480 0.583185 0.570703
0.836637 0.576379 0.646876
0.946624 0.609674 0.677913
1.000000 0.654841 0.697108
0.356359 0.462501 0.614740
0.383825 0.442481 0.589227
0.460975 0.436103 0.483619
0.456092 0.451850 0.422858
0.638300 0.589654 0.578882
0.838804 0.584314 0.650324
0.947387 0.616205 0.679103
1.000000 0.659022 0.696498
0.341375 0.613703 0.709590
0.412696 0.595331 0.691127
0.506584 0.523003 0.606348
0.525536 0.514794 0.482612
0.664637 0.610071 0.603967
0.843900 0.605615 0.656367
0.947295 0.628626 0.672602
1.000000 0.672419 0.692744
0.254551 0.694026 0.711269
0.333623 0.692287 0.711391
0.506645 0.685023 0.709804
0.631159 0.621149 0.631678
0.706386 0.647089 0.644831
0.858946 0.646418 0.666987
0.939605 0.655451 0.661128
1.000000 0.699886 0.689387
0.000000 0.777371 0.716457
0.209873 0.774746 0.716060
0.419257 0.760678 0.709194
0.597498 0.727047 0.686213
0.735744 0.713191 0.680201
0.827451 0.685420 0.642206
0.921996 0.702541 0.652155
0.993774 0.746609 0.693751
0.000000 0.825559 0.694057
0.151675 0.824582 0.695552
0.370184 0.818875 0.697536
0.548028 0.808164 0.699001
0.731624 0.802976 0.749630
0.873716 0.867124 0.823178
0.899779 0.775326 0.666804
0.981384 0.805417 0.707485
0.000000 0.910246 0.742397
0.158022 0.908598 0.742794
0.353948 0.903655 0.745083
0.571099 0.895476 0.772427
0.738735 0.888090 0.812039
0.844022 0.883543 0.856107
0.938811 0.936919 0.896361
0.970825 0.900664 0.827756
0.419593 0.970184 0.820096
0.424598 0.970123 0.820157
0.443946 0.970031 0.820798
0.611017 0.962890 0.841642
0.757626 0.952514 0.868376
0.875944 0.945830 0.908293
0.915770 0.943145 0.925902
0.974823 0.972656 0.940185
0.466529 0.539208 0.737209
0.484382 0.528252 0.720424
0.557763 0.531945 0.647456
0.552300 0.540185 0.507988
0.606928 0.594110 0.564111
0.744778 0.713191 0.711757
0.894224 0.725063 0.785672
0.977264 0.767147 0.827359
0.492195 0.576989 0.753170
0.506096 0.563012 0.737057
0.567468 0.551415 0.670283
0.569421 0.553185 0.527977
0.612055 0.599329 0.569635
0.746944 0.714290 0.713710
0.894591 0.726650 0.785855
0.977539 0.767788 0.826505
0.536187 0.686702 0.809506
0.568750 0.679927 0.799710
0.607385 0.635737 0.753994
0.640436 0.613550 0.631464
0.640253 0.628351 0.601099
0.761898 0.726955 0.729946
0.899290 0.738857 0.792264
0.980133 0.774899 0.827268
0.497047 0.778531 0.844022
0.536522 0.778408 0.843870
0.641382 0.780301 0.844968
0.701869 0.711666 0.773953
0.693141 0.684565 0.663722
0.788113 0.752132 0.759640
0.909606 0.761288 0.803983
0.986236 0.787961 0.828092
0.416663 0.830320 0.838437
0.461646 0.828977 0.838621
0.578363 0.824399 0.838895
0.699641 0.816739 0.837552
0.760739 0.759945 0.774746
0.810391 0.772427 0.781430
0.920714 0.778683 0.803098
0.986633 0.788907 0.805600
0.307530 0.882963 0.835355
0.363195 0.881621 0.836240
0.495674 0.873960 0.835447
0.631281 0.859037 0.830228
0.735012 0.833585 0.813443
0.832609 0.824369 0.810330
0.903746 0.801266 0.778622
0.980041 0.823819 0.799649
0.249454 0.920775 0.823575
0.309117 0.920043 0.825101
0.446082 0.915435 0.827726
0.586786 0.908293 0.830961
0.700191 0.899138 0.830381
0.835569 0.893431 0.863798
0.937102 0.935729 0.913970
0.965087 0.879423 0.814969
0.397070 0.975799 0.858183
0.397223 0.975891 0.857359
0.417426 0.975708 0.855436
0.552087 0.969940 0.858762
0.702541 0.960662 0.872679
0.837705 0.951629 0.900755
0.920104 0.947814 0.932677
0.976135 0.974487 0.951995
0.612696 0.671809 0.848173
0.619135 0.662837 0.838621
0.666773 0.665187 0.806119
0.699428 0.670008 0.726833
0.681697 0.672206 0.649805
0.739162 0.734981 0.721096
0.832517 0.818051 0.824979
0.942046 0.842069 0.885863
0.637324 0.703456 0.861753
0.643519 0.694850 0.853849
0.680995 0.687953 0.824887
0.714565 0.688502 0.750820
0.696834 0.688594 0.668299
0.750881 0.747951 0.735897
0.841245 0.827604 0.835264
0.947112 0.851621 0.893431
0.679133 0.773556 0.886656
0.685389 0.765530 0.881529
0.702937 0.739437 0.860472
0.738796 0.725582 0.802060
0.720333 0.714199 0.697383
0.761532 0.759762 0.749325
0.845731 0.830686 0.839414
0.947326 0.850736 0.891783
0.649287 0.841520 0.916808
0.672663 0.838834 0.914611
0.733944 0.827085 0.903258
0.764004 0.787350 0.867491
0.766323 0.756741 0.768460
0.773739 0.773251 0.764645
0.853269 0.836179 0.846403
0.951171 0.854490 0.893126
0.608759 0.877897 0.916594
0.634699 0.878660 0.917693
0.706081 0.880125 0.920165
0.789120 0.882170 0.922850
0.821592 0.835660 0.880980
0.804044 0.806577 0.801938
0.873533 0.856107 0.867826
0.961303 0.867643 0.900572
0.547601 0.916747 0.915740
0.573510 0.915648 0.916014
0.648005 0.912474 0.917052
0.738094 0.907836 0.918273
0.822080 0.904021 0.920134
0.858183 0.864927 0.882017
0.889067 0.869841 0.881682
0.972717 0.879637 0.902190
0.456336 0.954833 0.914092
0.483772 0.952880 0.913725
0.567193 0.947845 0.914031
0.667292 0.940307 0.914244
0.766567 0.931304 0.914336
0.844511 0.917449 0.908812
0.909941 0.908812 0.905058
0.969116 0.895476 0.887999
0.459480 0.981476 0.909178
0.461158 0.981811 0.908995
0.487404 0.979126 0.906279
0.602411 0.973205 0.908324
0.717128 0.967498 0.912535
0.809903 0.961944 0.915587
0.911498 0.956725 0.937133
0.977905 0.976989 0.966308
0.764889 0.810697 0.932586
0.769131 0.807767 0.929595
0.794125 0.810086 0.919036
0.823880 0.816953 0.892576
0.824826 0.821469 0.835233
0.823056 0.827085 0.824521
0.869047 0.875334 0.876524
0.922332 0.919097 0.926482
0.775051 0.824460 0.937224
0.778866 0.821347 0.934447
0.798459 0.818753 0.924529
0.829374 0.825223 0.900145
0.832792 0.828733 0.846769
0.829282 0.833768 0.831876
0.873442 0.879850 0.881285
0.925780 0.922423 0.929839
0.797024 0.859464 0.948150
0.800412 0.856260 0.946044
0.813321 0.847684 0.938842
0.836820 0.842313 0.917449
0.848997 0.843503 0.873564
0.842039 0.847318 0.846555
0.879332 0.885832 0.887541
0.929992 0.926085 0.933654
0.779995 0.890227 0.961364
0.793576 0.890074 0.959960
0.833280 0.891386 0.955566
0.847929 0.873899 0.942260
0.868101 0.866758 0.910155
0.857267 0.863218 0.863645
0.884825 0.891386 0.893339
0.934813 0.929900 0.937804
0.741573 0.919677 0.967773
0.754910 0.919768 0.967712
0.798245 0.921935 0.968658
0.852018 0.918578 0.965148
0.884154 0.902434 0.949187
0.886320 0.888670 0.900084
0.894591 0.901152 0.903471
0.943236 0.937163 0.945251
0.697353 0.945586 0.967895
0.713924 0.945373 0.968261
0.762142 0.944793 0.969207
0.824338 0.944610 0.970611
0.887175 0.947234 0.972869
0.916655 0.928191 0.956451
0.904936 0.911376 0.913939
0.950896 0.943267 0.951537
0.639399 0.976043 0.968719
0.654047 0.975402 0.968963
0.707362 0.972595 0.969696
0.777920 0.968383 0.970520
0.850645 0.965087 0.972107
0.915038 0.964874 0.974884
0.947509 0.952880 0.964538
0.966369 0.957427 0.964721
0.658961 1.000000 0.972351
0.660090 1.000000 0.972564
0.660060 1.000000 0.972564
0.718715 0.999176 0.972259
0.800778 0.991760 0.972564
0.874510 0.985382 0.973754
0.934813 0.979431 0.974578
0.977905 0.977417 0.976593
