data/fiter_cube/26597975/1022849/file.cube
# Created by Adobe Lightroom plugin Export LUT (1.17.0)
# www.johnrellis.com/lightroom/exportlut.htm
# Preset:  城市电影胶片_05 云集
# Color profile: C:\Program Files (x86)\Common Files\Adobe\Color\Profiles\Recommended\AdobeRGB1998.icc
LUT_3D_SIZE 32
DOMAIN_MIN 0.0 0.0 0.0
DOMAIN_MAX 1.0 1.0 1.0
0.025879 0.089357 0.110842
0.044251 0.090913 0.111269
0.061036 0.094209 0.112642
0.087770 0.101472 0.115480
0.131472 0.112184 0.118257
0.195956 0.126223 0.119387
0.287144 0.147982 0.117189
0.412268 0.186801 0.105959
0.577874 0.248661 0.066041
0.749783 0.326513 0.000000
0.881010 0.409033 0.000000
0.961395 0.482673 0.000000
1.000000 0.538537 0.000000
1.000000 0.578790 0.000000
1.000000 0.607996 0.000000
1.000000 0.629938 0.000000
1.000000 0.647333 0.000000
1.000000 0.663111 0.000000
1.000000 0.681727 0.042267
1.000000 0.696925 0.159304
1.000000 0.710018 0.223178
1.000000 0.721492 0.275212
1.000000 0.731350 0.318486
1.000000 0.739986 0.355596
1.000000 0.747341 0.386847
1.000000 0.753964 0.414313
1.000000 0.760250 0.439887
1.000000 0.766079 0.463233
1.000000 0.771542 0.484871
1.000000 0.776547 0.504417
1.000000 0.780667 0.520989
1.000000 0.783902 0.534508
0.036805 0.092409 0.111208
0.049409 0.094118 0.112520
0.063203 0.097536 0.114260
0.090303 0.105623 0.117159
0.134676 0.116640 0.119600
0.198672 0.131075 0.120394
0.288304 0.153506 0.117708
0.409827 0.192477 0.106508
0.570855 0.252995 0.068666
0.740810 0.329412 0.000000
0.872862 0.409735 0.000000
0.955200 0.482185 0.000000
1.000000 0.538293 0.000000
1.000000 0.578668 0.000000
1.000000 0.607721 0.000000
1.000000 0.629877 0.000000
1.000000 0.647242 0.000000
1.000000 0.663050 0.000000
1.000000 0.680781 0.000000
1.000000 0.695399 0.145357
1.000000 0.708003 0.210208
1.000000 0.719203 0.262486
1.000000 0.728969 0.306249
1.000000 0.737636 0.344152
1.000000 0.745083 0.376410
1.000000 0.751980 0.405280
1.000000 0.758389 0.432013
1.000000 0.764614 0.457252
1.000000 0.770321 0.479805
1.000000 0.775540 0.500359
1.000000 0.779904 0.517845
1.000000 0.783352 0.532128
0.051698 0.096529 0.111940
0.059571 0.096864 0.113344
0.069978 0.100557 0.114992
0.096101 0.109590 0.118135
0.139101 0.122744 0.121309
0.203525 0.138064 0.121645
0.291630 0.161379 0.118746
0.411078 0.201114 0.106905
0.569451 0.261814 0.069062
0.736538 0.336980 0.000000
0.868772 0.415625 0.000000
0.951995 0.486976 0.000000
1.000000 0.542199 0.000000
1.000000 0.582116 0.000000
1.000000 0.610803 0.000000
1.000000 0.632105 0.000000
1.000000 0.649378 0.000000
1.000000 0.665064 0.000000
1.000000 0.681941 0.000000
1.000000 0.696040 0.141573
1.000000 0.708370 0.206424
1.000000 0.719295 0.258671
1.000000 0.729030 0.302708
1.000000 0.737423 0.340429
1.000000 0.744930 0.373419
1.000000 0.751675 0.402289
1.000000 0.758236 0.429694
1.000000 0.764523 0.455177
1.000000 0.770291 0.478431
1.000000 0.775601 0.499489
1.000000 0.780056 0.517205
1.000000 0.783566 0.531853
0.073304 0.106569 0.113893
0.077211 0.106081 0.115114
0.087221 0.107729 0.116854
0.115389 0.117067 0.119326
0.162173 0.131868 0.121859
0.225589 0.151949 0.122744
0.310002 0.182010 0.119600
0.430915 0.225986 0.105135
0.586084 0.288151 0.060243
0.746944 0.361944 0.000000
0.872343 0.436713 0.000000
0.952178 0.503410 0.000000
1.000000 0.555322 0.000000
1.000000 0.592676 0.000000
1.000000 0.619104 0.000000
1.000000 0.639368 0.000000
1.000000 0.655390 0.000000
1.000000 0.670710 0.000000
1.000000 0.685847 0.000000
1.000000 0.698695 0.141268
1.000000 0.710048 0.202823
1.000000 0.720394 0.254002
1.000000 0.729824 0.298619
1.000000 0.738552 0.338323
1.000000 0.746365 0.373297
1.000000 0.753658 0.404913
1.000000 0.760433 0.433661
1.000000 0.766873 0.459876
1.000000 0.772580 0.483101
1.000000 0.777615 0.503349
1.000000 0.781796 0.520439
1.000000 0.785031 0.534356
0.100130 0.120699 0.115572
0.104280 0.120546 0.116487
0.110048 0.120089 0.118013
0.138155 0.126802 0.120027
0.194003 0.144778 0.121614
0.265568 0.169223 0.120851
0.350713 0.203006 0.115419
0.464637 0.253941 0.098787
0.606592 0.321447 0.035920
0.755886 0.394842 0.000000
0.874571 0.464332 0.000000
0.951232 0.526299 0.000000
0.998291 0.573785 0.000000
1.000000 0.607965 0.000000
1.000000 0.632471 0.000000
1.000000 0.650965 0.000000
1.000000 0.665705 0.000000
1.000000 0.680720 0.000000
1.000000 0.694270 0.072755
1.000000 0.705745 0.157443
1.000000 0.715999 0.213931
1.000000 0.725490 0.262181
1.000000 0.734340 0.305638
1.000000 0.742580 0.344579
1.000000 0.750149 0.379522
1.000000 0.757168 0.410834
1.000000 0.763790 0.439338
1.000000 0.769833 0.464820
1.000000 0.775357 0.487648
1.000000 0.780209 0.507744
1.000000 0.784268 0.524773
1.000000 0.787381 0.538476
0.137606 0.140414 0.116152
0.142580 0.140627 0.116976
0.148867 0.140383 0.117983
0.169711 0.142275 0.120180
0.228977 0.160372 0.120455
0.320317 0.196231 0.116060
0.427008 0.243626 0.103029
0.542473 0.297642 0.073182
0.674708 0.362951 0.000000
0.799985 0.433936 0.000000
0.895384 0.502098 0.000000
0.958953 0.561151 0.000000
1.000000 0.602533 0.000000
1.000000 0.631281 0.000000
1.000000 0.651911 0.000000
1.000000 0.667720 0.000000
1.000000 0.680354 0.000000
1.000000 0.694545 0.000000
1.000000 0.706264 0.119020
1.000000 0.716426 0.185306
1.000000 0.725887 0.237827
1.000000 0.734676 0.284733
1.000000 0.765225 0.416114
1.000000 0.771572 0.444465
1.000000 0.776822 0.467933
1.000000 0.781308 0.488075
1.000000 0.785183 0.505455
1.000000 0.788602 0.520867
1.000000 0.791623 0.534630
1.000000 0.794095 0.546349
1.000000 0.795926 0.556085
1.000000 0.796933 0.563256
0.209598 0.179934 0.113619
0.215976 0.180331 0.114015
0.224704 0.180941 0.114870
0.244846 0.182437 0.116518
0.311559 0.200412 0.114534
0.417243 0.249058 0.101015
0.567407 0.322332 0.045624
0.706447 0.392645 0.000000
0.810422 0.451850 0.000000
0.895354 0.511772 0.000000
0.955505 0.565942 0.000000
0.995819 0.609125 0.000000
1.000000 0.641505 0.000000
1.000000 0.665583 0.000000
1.000000 0.684108 0.000000
1.000000 0.694636 0.000000
1.000000 0.704891 0.000000
1.000000 0.716732 0.126650
1.000000 0.726680 0.194614
1.000000 0.736172 0.250645
1.000000 0.745937 0.304082
1.000000 0.755764 0.354681
1.000000 0.765133 0.400092
1.000000 0.773556 0.438819
1.000000 0.780423 0.469734
1.000000 0.785702 0.493477
1.000000 0.789853 0.512444
1.000000 0.793179 0.528161
1.000000 0.795956 0.541741
1.000000 0.798276 0.553368
1.000000 0.799832 0.562585
1.000000 0.800717 0.569696
0.292119 0.230777 0.103883
0.298833 0.231876 0.104158
0.308080 0.233127 0.104433
0.329534 0.236240 0.104829
0.372778 0.245243 0.103304
0.492012 0.294896 0.078096
0.628992 0.363317 0.000000
0.770993 0.440192 0.000000
0.870665 0.504082 0.000000
0.930999 0.552087 0.000000
0.975799 0.595056 0.000000
1.000000 0.629480 0.000000
1.000000 0.655818 0.000000
1.000000 0.676020 0.000000
1.000000 0.692134 0.000000
1.000000 0.705501 0.000000
1.000000 0.721065 0.086793
1.000000 0.733455 0.175051
1.000000 0.741085 0.228428
1.000000 0.748836 0.278416
1.000000 0.757198 0.327550
1.000000 0.765682 0.374121
1.000000 0.773953 0.416663
1.000000 0.781308 0.452491
1.000000 0.787442 0.481941
1.000000 0.792294 0.504936
1.000000 0.795895 0.522881
1.000000 0.798886 0.538109
1.000000 0.801419 0.551354
1.000000 0.803372 0.562493
1.000000 0.804776 0.571496
1.000000 0.805509 0.578363
0.407874 0.311070 0.070619
0.415625 0.312840 0.069520
0.427070 0.315770 0.068055
0.451026 0.320836 0.064515
0.490333 0.328069 0.057435
0.587701 0.361517 0.000000
0.715236 0.420966 0.000000
0.825559 0.485267 0.000000
0.910979 0.546960 0.000000
0.965270 0.595300 0.000000
0.996735 0.626734 0.000000
1.000000 0.652613 0.000000
1.000000 0.673060 0.000000
1.000000 0.689113 0.000000
1.000000 0.702419 0.000000
1.000000 0.715602 0.000000
1.000000 0.729274 0.121279
1.000000 0.741024 0.196139
1.000000 0.752163 0.256931
1.000000 0.763668 0.315312
1.000000 0.771145 0.361059
1.000000 0.778225 0.403082
1.000000 0.785245 0.441321
1.000000 0.791501 0.474067
1.000000 0.796811 0.500969
1.000000 0.800717 0.521782
1.000000 0.803830 0.538598
1.000000 0.806241 0.552392
1.000000 0.808255 0.564416
1.000000 0.809781 0.574517
1.000000 0.810849 0.582971
1.000000 0.811154 0.588861
0.558434 0.417853 0.000000
0.566033 0.419257 0.000000
0.575830 0.420813 0.000000
0.599023 0.424811 0.000000
0.634852 0.430426 0.000000
0.684840 0.437873 0.000000
0.800198 0.483864 0.000000
0.879179 0.534264 0.000000
0.939788 0.582574 0.000000
0.983703 0.623651 0.000000
1.000000 0.654139 0.000000
1.000000 0.673121 0.000000
1.000000 0.688777 0.000000
1.000000 0.701869 0.000000
1.000000 0.713680 0.000000
1.000000 0.727291 0.040986
1.000000 0.738827 0.158083
1.000000 0.749264 0.222965
1.000000 0.759304 0.278996
1.000000 0.769650 0.333165
1.000000 0.780270 0.385199
1.000000 0.791104 0.434394
1.000000 0.797391 0.468696
1.000000 0.802029 0.495766
1.000000 0.805936 0.518639
1.000000 0.809140 0.537530
1.000000 0.811734 0.553399
1.000000 0.813931 0.567010
1.000000 0.815763 0.578973
1.000000 0.817105 0.588861
1.000000 0.817929 0.596857
1.000000 0.818112 0.602564
0.704433 0.520012 0.000000
0.710872 0.521080 0.000000
0.719539 0.522179 0.000000
0.738399 0.524987 0.000000
0.766201 0.528161 0.000000
0.801175 0.531243 0.000000
0.862638 0.550805 0.000000
0.927489 0.585016 0.000000
0.968841 0.620539 0.000000
1.000000 0.650721 0.000000
1.000000 0.675105 0.000000
1.000000 0.693507 0.000000
1.000000 0.704860 0.000000
1.000000 0.715114 0.000000
1.000000 0.727443 0.000000
1.000000 0.737881 0.111666
1.000000 0.747219 0.184970
1.000000 0.756100 0.241978
1.000000 0.764981 0.293950
1.000000 0.774319 0.344549
1.000000 0.784115 0.393530
1.000000 0.794217 0.440558
1.000000 0.804257 0.483864
1.000000 0.813626 0.522026
1.000000 0.817502 0.544244
1.000000 0.819760 0.560418
1.000000 0.821500 0.573754
1.000000 0.822965 0.585473
1.000000 0.824125 0.595636
1.000000 0.825010 0.604486
1.000000 0.825406 0.611383
1.000000 0.825254 0.616449
0.830442 0.614740 0.000000
0.834714 0.615167 0.000000
0.840543 0.615473 0.000000
0.852415 0.616144 0.000000
0.870146 0.616846 0.000000
0.891814 0.616754 0.000000
0.916136 0.615473 0.000000
0.962585 0.635737 0.000000
0.994446 0.656428 0.000000
1.000000 0.677699 0.000000
1.000000 0.695583 0.000000
1.000000 0.710018 0.000000
1.000000 0.737423 0.000000
1.000000 0.748531 0.108797
1.000000 0.757839 0.193576
1.000000 0.766140 0.254643
1.000000 0.773861 0.305638
1.000000 0.781216 0.350896
1.000000 0.788510 0.392065
1.000000 0.796139 0.431556
1.000000 0.804074 0.469306
1.000000 0.811887 0.504112
1.000000 0.819455 0.535912
1.000000 0.826596 0.564385
1.000000 0.833280 0.589960
1.000000 0.838712 0.610834
1.000000 0.838651 0.617853
1.000000 0.838346 0.623651
1.000000 0.837949 0.628779
1.000000 0.837400 0.633143
1.000000 0.836515 0.636255
1.000000 0.835264 0.638087
0.937896 0.713252 0.000000
0.939818 0.712703 0.000000
0.941650 0.710872 0.000000
0.946258 0.707820 0.000000
0.953491 0.703212 0.000000
0.963043 0.697353 0.000000
0.975128 0.690486 0.000000
0.994598 0.689265 0.000000
1.000000 0.694697 0.000000
1.000000 0.708003 0.000000
1.000000 0.720638 0.000000
1.000000 0.731960 0.000000
1.000000 0.746639 0.000000
1.000000 0.758724 0.151003
1.000000 0.766812 0.222324
1.000000 0.773953 0.277073
1.000000 0.780514 0.323766
1.000000 0.786770 0.364569
1.000000 0.793118 0.402258
1.000000 0.799832 0.438270
1.000000 0.806851 0.473243
1.000000 0.814023 0.506157
1.000000 0.821012 0.536492
1.000000 0.827726 0.563958
1.000000 0.834012 0.588708
1.000000 0.839780 0.610468
1.000000 0.845212 0.630152
1.000000 0.847288 0.641230
1.000000 0.846494 0.645380
1.000000 0.845609 0.648951
1.000000 0.844480 0.651545
1.000000 0.842985 0.652918
0.979248 0.756954 0.000000
0.980529 0.756191 0.000000
0.981659 0.754513 0.000000
0.984527 0.751339 0.000000
0.988952 0.746334 0.000000
0.995026 0.739925 0.000000
1.000000 0.732540 0.000000
1.000000 0.723873 0.000000
1.000000 0.723659 0.000000
1.000000 0.725643 0.000000
1.000000 0.735470 0.000000
1.000000 0.747524 0.000000
1.000000 0.757992 0.062501
1.000000 0.767269 0.179873
1.000000 0.775784 0.251774
1.000000 0.781643 0.300603
1.000000 0.787076 0.341802
1.000000 0.792294 0.378210
1.000000 0.797787 0.412573
1.000000 0.803738 0.445991
1.000000 0.810208 0.479194
1.000000 0.816892 0.510796
1.000000 0.823331 0.539635
1.000000 0.829709 0.566522
1.000000 0.835721 0.590509
1.000000 0.841245 0.611810
1.000000 0.846372 0.630915
1.000000 0.851255 0.648402
1.000000 0.855772 0.664179
1.000000 0.854520 0.666804
1.000000 0.853117 0.668696
1.000000 0.851377 0.669398
1.000000 0.788876 0.000000
1.000000 0.788205 0.000000
1.000000 0.786618 0.000000
1.000000 0.783474 0.000000
1.000000 0.778531 0.000000
1.000000 0.772213 0.000000
1.000000 0.764858 0.000000
1.000000 0.756161 0.000000
1.000000 0.749142 0.000000
1.000000 0.748287 0.000000
1.000000 0.752712 0.000000
1.000000 0.760983 0.000000
1.000000 0.768734 0.129641
1.000000 0.776120 0.210666
1.000000 0.783108 0.273442
1.000000 0.789456 0.325200
1.000000 0.794125 0.362951
1.000000 0.798428 0.395300
1.000000 0.803159 0.426215
1.000000 0.808316 0.456703
1.000000 0.814023 0.487068
1.000000 0.820005 0.516381
1.000000 0.825986 0.543938
1.000000 0.831876 0.569512
1.000000 0.837583 0.592859
1.000000 0.843046 0.614343
1.000000 0.848295 0.633997
1.000000 0.853269 0.651972
1.000000 0.857969 0.668330
1.000000 0.862455 0.683436
1.000000 0.863005 0.689326
1.000000 0.860929 0.689143
1.000000 0.812314 0.000000
1.000000 0.811673 0.000000
1.000000 0.810483 0.000000
1.000000 0.807797 0.000000
1.000000 0.803616 0.000000
1.000000 0.798093 0.000000
1.000000 0.791409 0.000000
1.000000 0.785428 0.000000
1.000000 0.778256 0.000000
1.000000 0.773800 0.000000
1.000000 0.769863 0.000000
1.000000 0.774075 0.100038
1.000000 0.779232 0.180026
1.000000 0.784512 0.240513
1.000000 0.789731 0.292393
1.000000 0.794980 0.338476
1.000000 0.800107 0.379278
1.000000 0.804318 0.411322
1.000000 0.808682 0.440894
1.000000 0.813687 0.470954
1.000000 0.819089 0.500237
1.000000 0.824796 0.528618
1.000000 0.830442 0.555016
1.000000 0.835996 0.579400
1.000000 0.841428 0.602045
1.000000 0.846616 0.622644
1.000000 0.851530 0.641291
1.000000 0.856168 0.658289
1.000000 0.860533 0.673671
1.000000 0.864561 0.687495
1.000000 0.868162 0.699641
1.000000 0.869749 0.706844
1.000000 0.829129 0.000000
1.000000 0.828611 0.000000
1.000000 0.827695 0.000000
1.000000 0.825742 0.000000
1.000000 0.822690 0.000000
1.000000 0.818509 0.000000
1.000000 0.813230 0.000000
1.000000 0.806821 0.000000
1.000000 0.799405 0.000000
1.000000 0.791989 0.000000
1.000000 0.787045 0.000000
1.000000 0.784329 0.160708
1.000000 0.788418 0.219883
1.000000 0.792691 0.271122
1.000000 0.797116 0.317144
1.000000 0.801297 0.357031
1.000000 0.805570 0.393317
1.000000 0.810056 0.427131
1.000000 0.814115 0.455543
1.000000 0.818387 0.482490
1.000000 0.823178 0.509514
1.000000 0.828305 0.535882
1.000000 0.833555 0.561028
1.000000 0.838773 0.584558
1.000000 0.843961 0.606531
1.000000 0.848936 0.626642
1.000000 0.853666 0.644953
1.000000 0.858213 0.661799
1.000000 0.862486 0.677180
1.000000 0.866392 0.690730
1.000000 0.869902 0.702663
1.000000 0.872862 0.712703
1.000000 0.845945 0.000000
1.000000 0.845518 0.000000
1.000000 0.852750 0.000000
1.000000 0.850736 0.000000
1.000000 0.847532 0.000000
1.000000 0.843290 0.000000
1.000000 0.837949 0.000000
1.000000 0.831662 0.000000
1.000000 0.824704 0.000000
1.000000 0.817319 0.109316
1.000000 0.811185 0.196231
1.000000 0.806424 0.263249
1.000000 0.806088 0.313237
1.000000 0.809293 0.352117
1.000000 0.812497 0.387121
1.000000 0.815732 0.418463
1.000000 0.818997 0.447181
1.000000 0.822263 0.473152
1.000000 0.825681 0.497444
1.000000 0.829099 0.519768
1.000000 0.832700 0.540948
1.000000 0.836759 0.562493
1.000000 0.841062 0.583581
1.000000 0.845243 0.602930
1.000000 0.849271 0.620783
1.000000 0.853178 0.637110
1.000000 0.856962 0.652277
1.000000 0.860746 0.666896
1.000000 0.864561 0.680842
1.000000 0.868223 0.693874
1.000000 0.871458 0.705165
1.000000 0.874327 0.714961
1.000000 0.859495 0.000000
1.000000 0.859953 0.000000
1.000000 0.860044 0.000000
1.000000 0.859037 0.000000
1.000000 0.856748 0.000000
1.000000 0.853147 0.000000
1.000000 0.848356 0.000000
1.000000 0.842649 0.000000
1.000000 0.836332 0.067567
1.000000 0.829679 0.161410
1.000000 0.823056 0.228061
1.000000 0.818143 0.286595
1.000000 0.814145 0.340581
1.000000 0.815793 0.375280
1.000000 0.818387 0.406043
1.000000 0.821012 0.433906
1.000000 0.823697 0.459327
1.000000 0.826535 0.483284
1.000000 0.829557 0.505852
1.000000 0.832944 0.528130
1.000000 0.836362 0.549035
1.000000 0.840238 0.570031
1.000000 0.844327 0.590448
1.000000 0.848386 0.609522
1.000000 0.852201 0.626642
1.000000 0.855924 0.642664
1.000000 0.859556 0.657465
1.000000 0.863188 0.671656
1.000000 0.866728 0.684962
1.000000 0.870146 0.697292
1.000000 0.873259 0.708278
1.000000 0.875883 0.717556
1.000000 0.867399 0.000000
1.000000 0.867704 0.000000
1.000000 0.867735 0.000000
1.000000 0.866789 0.000000
1.000000 0.864683 0.000000
1.000000 0.861387 0.000000
1.000000 0.857115 0.000000
1.000000 0.852079 0.064179
1.000000 0.846403 0.147433
1.000000 0.840482 0.206271
1.000000 0.834562 0.261479
1.000000 0.829343 0.313695
1.000000 0.825223 0.361944
1.000000 0.823026 0.403632
1.000000 0.825040 0.429786
1.000000 0.827207 0.454353
1.000000 0.829435 0.477089
1.000000 0.831815 0.498512
1.000000 0.834501 0.519402
1.000000 0.837430 0.539757
1.000000 0.840726 0.559960
1.000000 0.844266 0.579614
1.000000 0.848051 0.599084
1.000000 0.851865 0.617212
1.000000 0.855375 0.633478
1.000000 0.858793 0.648493
1.000000 0.862089 0.662348
1.000000 0.865446 0.675776
1.000000 0.868742 0.688441
1.000000 0.871977 0.700374
1.000000 0.874876 0.710872
1.000000 0.877379 0.719814
1.000000 0.874022 0.000000
1.000000 0.874266 0.000000
1.000000 0.874327 0.000000
1.000000 0.873442 0.000000
1.000000 0.871550 0.000000
1.000000 0.868620 0.000000
1.000000 0.864805 0.097230
1.000000 0.860288 0.151644
1.000000 0.855314 0.198856
1.000000 0.850004 0.244938
1.000000 0.844694 0.292149
1.000000 0.839536 0.340459
1.000000 0.835447 0.383673
1.000000 0.832029 0.424384
1.000000 0.831815 0.454932
1.000000 0.833890 0.478126
1.000000 0.836271 0.500603
1.000000 0.838895 0.522271
1.000000 0.841917 0.543999
1.000000 0.845212 0.565026
1.000000 0.848661 0.585168
1.000000 0.852110 0.604089
1.000000 0.855619 0.621820
1.000000 0.859129 0.638605
1.000000 0.862425 0.653590
1.000000 0.865537 0.667262
1.000000 0.868376 0.679408
1.000000 0.871214 0.690913
1.000000 0.873869 0.701472
1.000000 0.876463 0.711330
1.000000 0.878691 0.719814
1.000000 0.880583 0.726955
1.000000 0.882689 0.000000
1.000000 0.882567 0.019043
1.000000 0.882231 0.066743
1.000000 0.881102 0.098970
1.000000 0.879179 0.129549
1.000000 0.876432 0.159304
1.000000 0.873075 0.190982
1.000000 0.869261 0.224857
1.000000 0.865110 0.262089
1.000000 0.860746 0.302068
1.000000 0.856504 0.344579
1.000000 0.852293 0.387671
1.000000 0.848447 0.428077
1.000000 0.845274 0.464027
1.000000 0.842649 0.497078
1.000000 0.843839 0.517510
1.000000 0.845609 0.535668
1.000000 0.847745 0.553948
1.000000 0.850034 0.571466
1.000000 0.852445 0.588403
1.000000 0.855070 0.604730
1.000000 0.857633 0.619806
1.000000 0.860197 0.633845
1.000000 0.862638 0.646723
1.000000 0.865537 0.660365
1.000000 0.868345 0.673091
1.000000 0.870970 0.684504
1.000000 0.873594 0.695583
1.000000 0.876097 0.705623
1.000000 0.878386 0.714748
1.000000 0.880491 0.722835
1.000000 0.882200 0.729610
1.000000 0.887938 0.147402
1.000000 0.887846 0.157259
1.000000 0.887633 0.167849
1.000000 0.886625 0.181979
1.000000 0.884947 0.200076
1.000000 0.882506 0.220279
1.000000 0.879515 0.243748
1.000000 0.876097 0.270970
1.000000 0.872404 0.302129
1.000000 0.868589 0.336919
1.000000 0.864714 0.373846
1.000000 0.861051 0.412909
1.000000 0.857603 0.451728
1.000000 0.854520 0.485267
1.000000 0.851957 0.516045
1.000000 0.850797 0.542809
1.000000 0.852384 0.559167
1.000000 0.854307 0.575799
1.000000 0.856321 0.591608
1.000000 0.858579 0.607263
1.000000 0.860960 0.622248
1.000000 0.863340 0.636255
1.000000 0.865690 0.649317
1.000000 0.867857 0.660883
1.000000 0.867796 0.664363
1.000000 0.870359 0.676295
1.000000 0.872862 0.687556
1.000000 0.875334 0.698177
1.000000 0.877714 0.708003
1.000000 0.879881 0.716793
1.000000 0.881895 0.724819
1.000000 0.883696 0.731807
1.000000 0.895048 0.244755
1.000000 0.895018 0.251804
1.000000 0.894774 0.258549
1.000000 0.893858 0.267491
1.000000 0.892271 0.279210
1.000000 0.890105 0.294011
1.000000 0.887449 0.311681
1.000000 0.884276 0.332097
1.000000 0.880858 0.356390
1.000000 0.877317 0.383764
1.000000 0.873655 0.413489
1.000000 0.870176 0.445594
1.000000 0.866941 0.478889
1.000000 0.863859 0.510185
1.000000 0.860807 0.535790
1.000000 0.858274 0.560052
1.000000 0.857908 0.577295
1.000000 0.859098 0.590356
1.000000 0.860777 0.604364
1.000000 0.862791 0.618708
1.000000 0.864958 0.632776
1.000000 0.867155 0.645991
1.000000 0.869139 0.657618
1.000000 0.870848 0.667628
1.000000 0.872282 0.676143
1.000000 0.873655 0.683986
1.000000 0.875792 0.693904
1.000000 0.877806 0.703120
1.000000 0.879911 0.712154
1.000000 0.881865 0.720363
1.000000 0.883726 0.727962
1.000000 0.885344 0.734463
1.000000 0.899413 0.291264
1.000000 0.899443 0.297856
1.000000 0.899260 0.303655
1.000000 0.898466 0.311437
1.000000 0.897063 0.321691
1.000000 0.895140 0.334569
1.000000 0.892851 0.350713
1.000000 0.890227 0.370001
1.000000 0.887266 0.392096
1.000000 0.884306 0.417670
1.000000 0.881285 0.445716
1.000000 0.878416 0.475715
1.000000 0.875792 0.507012
1.000000 0.873350 0.538018
1.000000 0.870787 0.563684
1.000000 0.868406 0.585901
1.000000 0.866545 0.607111
1.000000 0.867216 0.618738
1.000000 0.868498 0.630304
1.000000 0.870085 0.642237
1.000000 0.871794 0.653956
1.000000 0.873503 0.664912
1.000000 0.875029 0.674556
1.000000 0.876371 0.683040
1.000000 0.877531 0.690425
1.000000 0.878569 0.697047
1.000000 0.879454 0.702724
1.000000 0.881285 0.711238
1.000000 0.883024 0.719142
1.000000 0.884703 0.726497
1.000000 0.886259 0.733120
1.000000 0.887602 0.738827
1.000000 0.904448 0.342687
1.000000 0.904387 0.347173
1.000000 0.904112 0.351080
1.000000 0.903349 0.356878
1.000000 0.902037 0.365057
1.000000 0.900328 0.375769
1.000000 0.898283 0.389227
1.000000 0.895872 0.405463
1.000000 0.893339 0.425849
1.000000 0.890715 0.448554
1.000000 0.888121 0.474281
1.000000 0.885679 0.501946
1.000000 0.883391 0.530724
1.000000 0.881346 0.559655
1.000000 0.879393 0.586633
1.000000 0.877012 0.606744
1.000000 0.874937 0.625422
1.000000 0.873960 0.641199
1.000000 0.874846 0.650599
1.000000 0.876005 0.660456
1.000000 0.877287 0.670192
1.000000 0.878630 0.679561
1.000000 0.879820 0.687709
1.000000 0.880919 0.695155
1.000000 0.881773 0.701442
1.000000 0.882567 0.707118
1.000000 0.883207 0.712062
1.000000 0.883787 0.716396
1.000000 0.885252 0.723415
1.000000 0.886717 0.730159
1.000000 0.888121 0.736324
1.000000 0.889250 0.741543
1.000000 0.908751 0.382422
1.000000 0.908690 0.385840
1.000000 0.908385 0.388983
1.000000 0.907744 0.394385
1.000000 0.906737 0.402838
1.000000 0.905425 0.414832
1.000000 0.903960 0.430304
1.000000 0.902312 0.449104
1.000000 0.900694 0.471687
1.000000 0.899046 0.496712
1.000000 0.897490 0.523552
1.000000 0.896086 0.551720
1.000000 0.894835 0.580041
1.000000 0.893614 0.607233
1.000000 0.892668 0.633570
1.000000 0.890929 0.653010
1.000000 0.888853 0.667872
1.000000 0.887144 0.682277
1.000000 0.886809 0.691310
1.000000 0.887266 0.697536
1.000000 0.887846 0.703975
1.000000 0.888426 0.709865
1.000000 0.888914 0.715206
1.000000 0.889311 0.719814
1.000000 0.889586 0.723812
1.000000 0.889738 0.727260
1.000000 0.889860 0.730343
1.000000 0.889952 0.733028
1.000000 0.890013 0.735561
1.000000 0.890806 0.740078
1.000000 0.891569 0.744320
1.000000 0.892241 0.748074
1.000000 0.915618 0.447944
1.000000 0.915496 0.450233
1.000000 0.915251 0.452338
1.000000 0.914611 0.456489
1.000000 0.913664 0.462959
1.000000 0.912474 0.471901
1.000000 0.911040 0.483558
1.000000 0.909483 0.498390
1.000000 0.907897 0.515923
1.000000 0.906188 0.535363
1.000000 0.904570 0.556847
1.000000 0.903044 0.579828
1.000000 0.901640 0.603143
1.000000 0.900328 0.626307
