data/fiter_cube/26597975/1022849/file.cube
# Created by Adobe Lightroom plugin Export LUT (1.17.0)
# www.johnrellis.com/lightroom/exportlut.htm
# Preset:  城市电影胶片_05 云集
# Color profile: C:\Program Files (x86)\Common Files\Adobe\Color\Profiles\Recommended\AdobeRGB1998.icc
LUT_3D_SIZE 8
DOMAIN_MIN 0.000000 0.000000 0.000000
DOMAIN_MAX 0.903226 0.903226 0.903226
0.025879 0.089357 0.110842
0.131472 0.112184 0.118257
0.577874 0.248661 0.066041
1.000000 0.538537 0.000000
1.000000 0.647333 0.000000
1.000000 0.710018 0.223178
1.000000 0.747341 0.386847
1.000000 0.771542 0.484871
0.100130 0.120699 0.115572
0.194003 0.144778 0.121614
0.606592 0.321447 0.035920
0.998291 0.573785 0.000000
1.000000 0.665705 0.000000
1.000000 0.715999 0.213931
1.000000 0.750149 0.379522
1.000000 0.775357 0.487648
0.407874 0.311070 0.070619
0.490333 0.328069 0.057435
0.910979 0.546960 0.000000
1.000000 0.673060 0.000000
1.000000 0.729274 0.121279
1.000000 0.771145 0.361059
1.000000 0.796811 0.500969
1.000000 0.808255 0.564416
0.937896 0.713252 0.000000
0.953491 0.703212 0.000000
1.000000 0.694697 0.000000
1.000000 0.746639 0.000000
1.000000 0.780514 0.323766
1.000000 0.806851 0.473243
1.000000 0.834012 0.588708
1.000000 0.846494 0.645380
1.000000 0.829129 0.000000
1.000000 0.822690 0.000000
1.000000 0.799405 0.000000
1.000000 0.788418 0.219883
1.000000 0.805570 0.393317
1.000000 0.823178 0.509514
1.000000 0.843961 0.606531
1.000000 0.862486 0.677180
1.000000 0.874022 0.000000
1.000000 0.871550 0.000000
1.000000 0.855314 0.198856
1.000000 0.835447 0.383673
1.000000 0.836271 0.500603
1.000000 0.848661 0.585168
1.000000 0.862425 0.653590
1.000000 0.873869 0.701472
1.000000 0.899413 0.291264
1.000000 0.897063 0.321691
1.000000 0.887266 0.392096
1.000000 0.875792 0.507012
1.000000 0.866545 0.607111
1.000000 0.871794 0.653956
1.000000 0.877531 0.690425
1.000000 0.883024 0.719142
1.000000 0.919738 0.480201
1.000000 0.918029 0.494240
1.000000 0.913146 0.543969
1.000000 0.908141 0.625757
1.000000 0.899443 0.685420
1.000000 0.895842 0.725429
1.000000 0.896483 0.740902
1.000000 0.895232 0.747372
0.107607 0.154788 0.192050
0.129519 0.164126 0.192020
0.517937 0.286320 0.108248
0.984619 0.591577 0.000000
1.000000 0.683925 0.000000
1.000000 0.724269 0.217716
1.000000 0.752590 0.375525
1.000000 0.773739 0.478737
0.076356 0.168307 0.221469
0.182376 0.194186 0.211307
0.638911 0.356817 0.056855
0.995056 0.609125 0.000000
1.000000 0.701320 0.000000
1.000000 0.733242 0.230350
1.000000 0.756313 0.373877
1.000000 0.776364 0.478218
0.453681 0.383001 0.120577
0.572900 0.414893 0.102998
0.910124 0.555901 0.000000
1.000000 0.674342 0.000000
1.000000 0.727047 0.058289
1.000000 0.767086 0.323186
1.000000 0.794156 0.472023
1.000000 0.806668 0.550225
0.935637 0.715572 0.000000
0.957824 0.713649 0.000000
1.000000 0.702663 0.000000
1.000000 0.738949 0.000000
1.000000 0.764279 0.225254
1.000000 0.789334 0.390997
1.000000 0.819699 0.534539
1.000000 0.843656 0.630823
1.000000 0.835080 0.000000
1.000000 0.827665 0.000000
1.000000 0.802945 0.000000
1.000000 0.782559 0.166293
1.000000 0.795987 0.336065
1.000000 0.814572 0.468879
1.000000 0.837613 0.581842
1.000000 0.858549 0.663966
1.000000 0.873228 0.000000
1.000000 0.868437 0.000000
1.000000 0.852171 0.121096
1.000000 0.831449 0.336309
1.000000 0.831785 0.475563
1.000000 0.846403 0.573999
1.000000 0.860380 0.645228
1.000000 0.871855 0.694575
1.000000 0.897063 0.240604
1.000000 0.893523 0.259312
1.000000 0.883635 0.340063
1.000000 0.872221 0.471260
1.000000 0.863737 0.587793
1.000000 0.868528 0.640436
1.000000 0.874052 0.677913
1.000000 0.880217 0.709926
1.000000 0.918730 0.455940
1.000000 0.917327 0.473701
1.000000 0.912383 0.526726
1.000000 0.907134 0.612177
1.000000 0.903105 0.696162
1.000000 0.897246 0.729305
1.000000 0.896208 0.739467
1.000000 0.894652 0.745205
0.545617 0.605066 0.696529
0.607050 0.639368 0.708858
0.626490 0.625452 0.650843
0.974182 0.665003 0.572686
1.000000 0.754025 0.371527
1.000000 0.771542 0.338964
1.000000 0.799985 0.490761
1.000000 0.803616 0.545922
0.579675 0.639521 0.726528
0.656794 0.674739 0.723079
0.658381 0.652369 0.668330
0.972045 0.720821 0.592706
1.000000 0.755276 0.361212
1.000000 0.770108 0.326574
1.000000 0.803372 0.492958
1.000000 0.807645 0.552056
0.495277 0.696407 0.801968
0.620508 0.725917 0.794980
0.843473 0.786007 0.763943
0.996612 0.800107 0.629084
1.000000 0.766506 0.321111
1.000000 0.782712 0.366247
1.000000 0.815732 0.523796
1.000000 0.828794 0.598352
0.791135 0.885893 0.671870
0.924651 0.882414 0.708461
0.973907 0.854917 0.703792
1.000000 0.820859 0.563226
1.000000 0.780026 0.272557
1.000000 0.802731 0.430579
1.000000 0.829374 0.560479
1.000000 0.852506 0.651148
1.000000 0.905730 0.581964
1.000000 0.899565 0.591547
1.000000 0.874876 0.572137
1.000000 0.811978 0.341100
1.000000 0.808225 0.377539
1.000000 0.823270 0.492805
1.000000 0.843046 0.594415
1.000000 0.861509 0.670039
1.000000 0.893858 0.264683
1.000000 0.887785 0.261387
1.000000 0.863127 0.137484
1.000000 0.842069 0.328771
1.000000 0.834440 0.475380
1.000000 0.847227 0.569268
1.000000 0.861326 0.643946
1.000000 0.873899 0.698512
1.000000 0.903929 0.253056
1.000000 0.900694 0.274968
1.000000 0.890654 0.345861
1.000000 0.877989 0.461921
1.000000 0.868132 0.580560
1.000000 0.870817 0.644343
1.000000 0.877501 0.686397
1.000000 0.883726 0.718898
1.000000 0.922606 0.443763
1.000000 0.920684 0.455024
1.000000 0.915038 0.505303
1.000000 0.909789 0.598810
1.000000 0.905058 0.686671
1.000000 0.898833 0.732082
1.000000 0.897795 0.742672
1.000000 0.896086 0.748226
0.881132 0.873960 0.899107
0.895964 0.886168 0.905730
0.919799 0.905882 0.915007
0.920867 0.901946 0.902586
0.979339 0.926116 0.931304
1.000000 0.913909 0.868528
1.000000 0.849546 0.657069
1.000000 0.830472 0.598077
0.903532 0.894438 0.911711
0.911131 0.900572 0.914641
0.926452 0.912932 0.920012
0.927276 0.909300 0.908995
0.980652 0.905119 0.906065
1.000000 0.916747 0.868864
1.000000 0.843809 0.634943
1.000000 0.833860 0.604639
0.901946 0.901122 0.926299
0.914427 0.908965 0.926726
0.937591 0.925139 0.928496
0.938079 0.922026 0.919646
0.984192 0.934722 0.919646
1.000000 0.932464 0.885313
1.000000 0.837095 0.592767
1.000000 0.849973 0.644617
0.902586 0.920348 0.947387
0.913603 0.925414 0.947082
0.940063 0.938506 0.946685
0.966827 0.950469 0.944091
0.990906 0.949187 0.924346
1.000000 0.925689 0.862181
1.000000 0.834592 0.567102
1.000000 0.855955 0.656764
0.862791 0.970489 0.943236
0.870787 0.970947 0.928801
0.969818 0.963928 0.937377
0.986908 0.961669 0.939849
1.000000 0.951507 0.914855
1.000000 0.908354 0.804288
1.000000 0.850584 0.611780
1.000000 0.865293 0.677546
0.990631 0.975097 0.926055
0.992370 0.975402 0.929870
0.996124 0.970581 0.925170
1.000000 0.961242 0.912566
1.000000 0.935790 0.862364
1.000000 0.855924 0.592004
1.000000 0.866728 0.655512
1.000000 0.876707 0.703578
1.000000 0.971221 0.879789
1.000000 0.969329 0.876219
1.000000 0.960296 0.853147
1.000000 0.930358 0.753567
1.000000 0.881804 0.595850
1.000000 0.877989 0.663416
1.000000 0.881621 0.695125
1.000000 0.886259 0.723842
1.000000 0.929870 0.438849
1.000000 0.928405 0.453285
1.000000 0.923217 0.496895
1.000000 0.915618 0.573297
1.000000 0.908934 0.666804
1.000000 0.902922 0.732052
1.000000 0.900084 0.746609
1.000000 0.898009 0.751858
0.941100 0.934051 0.945739
0.945647 0.938354 0.948394
0.956939 0.949371 0.955383
0.968627 0.961273 0.963500
0.969635 0.961089 0.960815
0.988678 0.985382 0.984619
0.999573 0.966094 0.957946
1.000000 0.951385 0.918517
0.947723 0.940764 0.950134
0.952026 0.945037 0.953063
0.960937 0.953796 0.958770
0.969848 0.962707 0.964630
0.970092 0.961669 0.961242
0.989715 0.986358 0.985809
0.999603 0.967163 0.958251
1.000000 0.950225 0.914916
0.954864 0.949950 0.959228
0.959136 0.953552 0.960540
0.966247 0.959777 0.963073
0.972473 0.965820 0.966979
0.971496 0.963409 0.962493
0.988830 0.973541 0.974792
0.999756 0.968658 0.956786
1.000000 0.942718 0.894255
0.956481 0.955535 0.967376
0.959625 0.957733 0.967712
0.968963 0.964752 0.969543
0.977203 0.971588 0.971862
0.976013 0.969146 0.967742
0.990997 0.972808 0.967895
1.000000 0.971618 0.955047
1.000000 0.897063 0.781125
0.958770 0.964141 0.975769
0.961700 0.965881 0.976013
0.969055 0.970031 0.976349
0.977356 0.974823 0.976684
0.985229 0.977844 0.975006
0.994537 0.977081 0.967132
1.000000 0.964111 0.936431
1.000000 0.865415 0.673701
0.955596 0.976898 0.978851
0.957977 0.977783 0.978241
0.961578 0.981231 0.975555
0.984131 0.981598 0.971618
0.992370 0.979828 0.969757
1.000000 0.976410 0.960082
1.000000 0.949828 0.899260
1.000000 0.877989 0.703975
0.983062 0.989105 0.972503
0.985412 0.988891 0.972503
0.992523 0.988647 0.971405
0.996918 0.986572 0.968200
1.000000 0.980072 0.955566
1.000000 0.961669 0.919646
1.000000 0.883574 0.695033
1.000000 0.887236 0.723476
1.000000 0.992615 0.967498
1.000000 0.992096 0.965972
1.000000 0.989868 0.959228
1.000000 0.983154 0.937591
1.000000 0.936217 0.758724
1.000000 0.908782 0.719936
1.000000 0.902037 0.747890
1.000000 0.899351 0.752926
0.963775 0.958892 0.966003
0.966125 0.961273 0.967590
0.971801 0.967041 0.971466
0.979309 0.975006 0.977295
0.984802 0.980987 0.981781
0.984894 0.980560 0.980407
0.991577 0.989105 0.988525
0.999359 0.986175 0.985473
0.964965 0.960021 0.966522
0.966705 0.961791 0.967681
0.971984 0.967193 0.971405
0.978943 0.974548 0.976776
0.984436 0.980499 0.981262
0.984588 0.980163 0.979950
0.991974 0.989654 0.989105
0.999420 0.985992 0.984955
0.970916 0.966949 0.972320
0.972473 0.968292 0.972778
0.976532 0.972320 0.975372
0.981750 0.977874 0.979553
0.985809 0.982208 0.982757
0.985718 0.981598 0.981262
0.993957 0.992218 0.991791
0.999756 0.986603 0.984497
0.973571 0.971374 0.977691
0.975036 0.972534 0.978058
0.979980 0.976867 0.979950
0.985473 0.982330 0.983368
0.988556 0.985626 0.985901
0.988312 0.984924 0.984466
0.995514 0.991577 0.991943
1.000000 0.987732 0.983825
0.975341 0.975311 0.982452
0.976776 0.976410 0.982818
0.980865 0.979614 0.983948
0.985840 0.983642 0.985504
0.989349 0.986603 0.986694
0.988983 0.985779 0.985077
0.996216 0.987579 0.985534
1.000000 0.985779 0.977356
0.977142 0.980285 0.987030
0.978607 0.981262 0.987427
0.981659 0.983215 0.987884
0.985504 0.985657 0.988403
0.989014 0.987732 0.988617
0.993225 0.989685 0.988281
0.998199 0.989349 0.984283
1.000000 0.976776 0.957519
0.980285 0.988800 0.992035
0.981170 0.989319 0.992157
0.983093 0.990448 0.992004
0.986206 0.992004 0.990936
0.993103 0.992798 0.988708
0.997375 0.991424 0.986389
1.000000 0.987762 0.978332
1.000000 0.941772 0.875761
0.986481 0.996368 0.989502
0.987335 0.996277 0.989075
0.990082 0.996155 0.988128
0.995666 0.995911 0.989105
0.999329 0.994751 0.985504
1.000000 0.988525 0.971069
1.000000 0.956603 0.901762
1.000000 0.902251 0.757229
0.970550 0.966491 0.972381
0.972320 0.968353 0.973693
0.977020 0.973297 0.977234
0.983307 0.980133 0.982422
0.988495 0.985931 0.987060
0.991516 0.989319 0.989776
0.992004 0.989715 0.989654
0.994873 0.993378 0.993011
0.971527 0.967529 0.973022
0.973083 0.969146 0.974182
0.977325 0.973663 0.977417
0.983093 0.979889 0.982147
0.988067 0.985443 0.986572
0.991028 0.988708 0.989166
0.991394 0.988922 0.988861
0.994537 0.992920 0.992554
0.975708 0.972229 0.976654
0.976928 0.973449 0.977386
0.980255 0.976959 0.979950
0.984955 0.982055 0.983917
0.989014 0.986542 0.987518
0.991730 0.989593 0.989990
0.992187 0.989960 0.989868
0.995575 0.994263 0.993988
0.978882 0.976593 0.981353
0.979828 0.977447 0.981720
0.983154 0.980560 0.983276
0.987304 0.984863 0.986267
0.990539 0.988464 0.989197
0.993042 0.991272 0.991516
0.993378 0.991485 0.991333
0.996887 0.995972 0.995758
0.981140 0.980163 0.985382
0.981872 0.980774 0.985595
0.984436 0.982971 0.986511
0.988037 0.986206 0.988067
0.991333 0.989471 0.990082
0.993469 0.991791 0.991974
0.993805 0.992004 0.991791
0.997894 0.996704 0.996765
0.983856 0.984375 0.989532
0.984527 0.984924 0.989715
0.986572 0.986511 0.990356
0.989410 0.988830 0.991363
0.992340 0.991272 0.992432
0.994842 0.993530 0.993622
0.995239 0.993866 0.993591
0.998871 0.994812 0.994018
0.986786 0.988983 0.993286
0.987335 0.989380 0.993469
0.988769 0.990356 0.993805
0.990784 0.991791 0.994293
0.992889 0.993194 0.994751
0.994995 0.994568 0.995117
0.997162 0.995575 0.994934
0.999878 0.994690 0.991608
0.989166 0.993774 0.996399
0.989410 0.993957 0.996460
0.990723 0.994812 0.996765
0.992065 0.995758 0.997009
0.993835 0.996765 0.996674
0.996887 0.997406 0.995453
0.999481 0.996246 0.993225
1.000000 0.991760 0.984192
0.975219 0.971771 0.976776
0.976562 0.973205 0.977813
0.980377 0.977295 0.980804
0.985870 0.983337 0.985473
0.990692 0.988769 0.989929
0.994079 0.992737 0.993256
0.995941 0.994873 0.995117
0.996704 0.995758 0.995758
0.975799 0.972442 0.977203
0.977050 0.973785 0.978180
0.980743 0.977691 0.981079
0.985901 0.983398 0.985504
0.990631 0.988739 0.989837
0.994018 0.992645 0.993164
0.995880 0.994781 0.995026
0.996674 0.995697 0.995727
0.977752 0.974609 0.978820
0.978820 0.975738 0.979644
0.981933 0.979095 0.982147
0.986908 0.984558 0.986450
0.991089 0.989288 0.990356
0.994202 0.992859 0.993347
0.996033 0.995026 0.995239
0.996796 0.995880 0.995880
0.978882 0.976501 0.981231
0.980102 0.977661 0.981903
0.983612 0.981109 0.983948
0.987945 0.985840 0.987518
0.991821 0.990143 0.991119
0.994690 0.993469 0.993927
0.996551 0.995636 0.995819
0.997131 0.996277 0.996277
0.982025 0.980713 0.985534
0.982818 0.981445 0.985901
0.984894 0.983368 0.986847
0.987945 0.986206 0.988312
0.992157 0.990631 0.991516
0.994995 0.993896 0.994324
0.997040 0.996277 0.996399
0.997467 0.996704 0.996674
0.985779 0.985565 0.989990
0.986175 0.985901 0.990112
0.987579 0.987060 0.990631
0.989807 0.989044 0.991547
0.992554 0.991516 0.992828
0.995636 0.994690 0.995056
0.997528 0.996948 0.997040
0.998016 0.997406 0.997375
0.989563 0.990295 0.993896
0.989868 0.990509 0.993988
0.990814 0.991272 0.994324
0.992462 0.992615 0.994934
0.994446 0.994293 0.995758
0.996307 0.995880 0.996582
0.997864 0.997375 0.997436
0.998413 0.997925 0.997864
0.992432 0.993957 0.996643
0.992584 0.994049 0.996704
0.993194 0.994507 0.996857
0.994324 0.995300 0.997192
0.995605 0.996277 0.997620
0.996948 0.997223 0.998047
0.998138 0.998108 0.998444
0.999145 0.998657 0.998413
