data/fiter_cube/26597975/1022849/file.cube
# Created by Adobe Lightroom plugin Export LUT (1.17.0)
# www.johnrellis.com/lightroom/exportlut.htm
# Preset:  城市电影胶片_05 云集
# Color profile: C:\Program Files (x86)\Common Files\Adobe\Color\Profiles\Recommended\AdobeRGB1998.icc
LUT_3D_SIZE 5
DOMAIN_MIN 0.000000 0.000000 0.000000
DOMAIN_MAX 0.903226 0.903226 0.903226
0.025879 0.089357 0.110842
0.412268 0.186801 0.105959
1.000000 0.607996 0.000000
1.000000 0.721492 0.275212
1.000000 0.771542 0.484871
0.292119 0.230777 0.103883
0.770993 0.440192 0.000000
1.000000 0.692134 0.000000
1.000000 0.765682 0.374121
1.000000 0.801419 0.551354
1.000000 0.788876 0.000000
1.000000 0.756161 0.000000
1.000000 0.783108 0.273442
1.000000 0.820005 0.516381
1.000000 0.857969 0.668330
1.000000 0.882689 0.000000
1.000000 0.869261 0.224857
1.000000 0.842649 0.497078
1.000000 0.857633 0.619806
1.000000 0.876097 0.705623
1.000000 0.919738 0.480201
1.000000 0.914519 0.527825
1.000000 0.901305 0.644312
1.000000 0.896147 0.730129
1.000000 0.895232 0.747372
0.351507 0.428016 0.531304
0.445258 0.465797 0.502342
1.000000 0.695338 0.194217
1.000000 0.771389 0.355200
1.000000 0.792721 0.518761
0.281529 0.550439 0.686610
0.718593 0.658106 0.637171
1.000000 0.722652 0.147066
1.000000 0.782620 0.385168
1.000000 0.815702 0.569757
1.000000 0.861082 0.376043
1.000000 0.827451 0.366308
1.000000 0.779171 0.209384
1.000000 0.814145 0.478798
1.000000 0.857298 0.662715
1.000000 0.889586 0.000000
1.000000 0.876707 0.223911
1.000000 0.849485 0.487160
1.000000 0.858457 0.616907
1.000000 0.876585 0.704891
1.000000 0.922881 0.464332
1.000000 0.917449 0.512322
1.000000 0.907042 0.651484
1.000000 0.899016 0.737209
1.000000 0.896635 0.750210
0.921324 0.913359 0.929320
0.939025 0.929198 0.938109
0.954131 0.941741 0.941527
0.997925 0.947356 0.934661
1.000000 0.844816 0.627955
0.936522 0.930510 0.943664
0.951843 0.943084 0.948028
0.958831 0.947509 0.946349
0.997711 0.953735 0.936614
1.000000 0.848875 0.638117
0.939086 0.948058 0.965179
0.953613 0.955596 0.965118
0.978241 0.967529 0.963348
1.000000 0.958373 0.929595
1.000000 0.860838 0.665675
0.974395 0.982177 0.957794
0.988128 0.981415 0.957031
0.998352 0.974365 0.949096
1.000000 0.927672 0.841306
1.000000 0.878630 0.705501
1.000000 0.981018 0.906035
1.000000 0.972473 0.871733
1.000000 0.914641 0.594873
1.000000 0.902678 0.735042
1.000000 0.898161 0.750881
0.964385 0.959564 0.966613
0.970764 0.966125 0.971099
0.983124 0.979339 0.980926
0.986725 0.982940 0.982818
0.997925 0.990967 0.991760
0.970367 0.966064 0.971221
0.974670 0.970428 0.974212
0.984161 0.980591 0.981903
0.986938 0.983154 0.982940
0.998535 0.987823 0.988190
0.974823 0.973358 0.979950
0.979156 0.976989 0.981384
0.987121 0.984222 0.984894
0.988312 0.984894 0.984375
0.999451 0.988800 0.985840
0.980835 0.983581 0.989380
0.982971 0.984833 0.989532
0.988556 0.988434 0.990417
0.994415 0.991455 0.990295
1.000000 0.984070 0.971923
0.985931 0.996490 0.993896
0.987121 0.996551 0.992889
0.995697 0.996429 0.991608
1.000000 0.991791 0.980774
1.000000 0.903044 0.758145
0.975219 0.971771 0.976776
0.979217 0.976043 0.979828
0.988434 0.986236 0.987823
0.994781 0.993530 0.993927
0.996704 0.995758 0.995758
0.977325 0.974151 0.978485
0.980774 0.977783 0.981170
0.988983 0.986877 0.988312
0.994812 0.993561 0.993988
0.996796 0.995880 0.995880
0.980255 0.978393 0.983276
0.982666 0.980652 0.984375
0.990082 0.988251 0.989502
0.995270 0.994171 0.994537
0.997253 0.996460 0.996460
0.987060 0.987091 0.991211
0.988281 0.988128 0.991669
0.991913 0.991241 0.993164
0.996368 0.995575 0.995850
0.998077 0.997528 0.997467
0.992432 0.993957 0.996643
0.993011 0.994354 0.996796
0.994965 0.995789 0.997406
0.997253 0.997467 0.998138
0.999145 0.998657 0.998413
