data/fiter_cube/95423152/1023242/file.cube
# Created by Adobe Lightroom plugin Export LUT (1.17.0)
# www.johnrellis.com/lightroom/exportlut.htm
# Preset: 黑暗巧克力情绪人像_01 云集
# Color profile: C:\Program Files (x86)\Common Files\Adobe\Color\Profiles\Recommended\AdobeRGB1998.icc
LUT_3D_SIZE 32
DOMAIN_MIN 0.0 0.0 0.0
DOMAIN_MAX 1.0 1.0 1.0
0.000000 0.000000 0.000000
0.000000 0.000000 0.000000
0.003693 0.000519 0.000946
0.050019 0.001862 0.007172
0.078248 0.002258 0.015137
0.099825 0.000000 0.021790
0.122072 0.000000 0.024537
0.144808 0.000000 0.026703
0.169009 0.000000 0.026978
0.193637 0.000000 0.025177
0.219486 0.000000 0.022370
0.246159 0.000000 0.020264
0.274174 0.000000 0.016602
0.303655 0.000000 0.014038
0.334569 0.000000 0.010529
0.367102 0.000000 0.005829
0.401343 0.000000 0.000000
0.437201 0.000000 0.000000
0.474098 0.000000 0.000000
0.513634 0.000000 0.000000
0.555596 0.000000 0.000000
0.599451 0.000000 0.000000
0.645106 0.000000 0.000000
0.691585 0.000000 0.000000
0.736049 0.000000 0.000000
0.777646 0.000000 0.000000
0.816068 0.000000 0.000000
0.851194 0.000000 0.000000
0.882933 0.000000 0.000000
0.911589 0.000000 0.000000
0.937560 0.000000 0.000000
0.961089 0.000000 0.049653
0.000000 0.000000 0.000000
0.000000 0.000000 0.000000
0.007385 0.001068 0.001892
0.052064 0.001404 0.007141
0.078859 0.006622 0.014710
0.100435 0.008911 0.020966
0.123018 0.005097 0.023713
0.145937 0.000946 0.025635
0.170108 0.000000 0.025879
0.194827 0.000000 0.024079
0.220737 0.000000 0.021027
0.247654 0.000000 0.018769
0.275822 0.000000 0.014923
0.305516 0.000000 0.012207
0.336553 0.000000 0.009613
0.369299 0.000000 0.003479
0.403662 0.000000 0.000000
0.439704 0.000000 0.000000
0.476631 0.000000 0.000000
0.516320 0.000000 0.000000
0.558251 0.000000 0.000000
0.602167 0.000000 0.000000
0.647700 0.000000 0.000000
0.694026 0.000000 0.000000
0.738186 0.000000 0.000000
0.779477 0.000000 0.000000
0.817655 0.000000 0.000000
0.852476 0.000000 0.000000
0.883970 0.000000 0.000000
0.912444 0.000000 0.000000
0.938231 0.000000 0.000000
0.961639 0.000000 0.049653
0.002808 0.005341 0.001648
0.003845 0.007507 0.001434
0.011444 0.008576 0.002258
0.052735 0.014191 0.006073
0.079530 0.019165 0.013642
0.101625 0.019806 0.018860
0.123873 0.018402 0.022492
0.147189 0.013581 0.024384
0.171328 0.004913 0.023438
0.196231 0.000000 0.022461
0.222263 0.000000 0.019348
0.249271 0.000000 0.016968
0.277592 0.000000 0.013947
0.307225 0.000000 0.011078
0.338445 0.000000 0.007050
0.371252 0.000000 0.000946
0.405921 0.000000 0.000000
0.441840 0.000000 0.000000
0.478889 0.000000 0.000000
0.518669 0.000000 0.000000
0.560510 0.000000 0.000000
0.604395 0.000000 0.000000
0.649866 0.000000 0.000000
0.695918 0.000000 0.000000
0.739895 0.000000 0.000000
0.780880 0.000000 0.000000
0.818784 0.000000 0.000000
0.853391 0.000000 0.000000
0.884703 0.000000 0.000000
0.913054 0.000000 0.000000
0.938720 0.000000 0.000000
0.962036 0.000000 0.047822
0.018616 0.038788 0.009339
0.019409 0.040986 0.010193
0.028748 0.040620 0.009979
0.052583 0.035157 0.010834
0.078462 0.043244 0.012848
0.103120 0.048707 0.015198
0.125948 0.047883 0.018647
0.149447 0.043915 0.020417
0.173739 0.037964 0.020203
0.198825 0.029694 0.017945
0.224918 0.020111 0.015595
0.252293 0.008911 0.011810
0.280644 0.000000 0.008423
0.310582 0.000000 0.006134
0.341985 0.000000 0.001862
0.375067 0.000000 0.000000
0.409644 0.000000 0.000000
0.445838 0.000000 0.000000
0.483101 0.000000 0.000000
0.523003 0.000000 0.000000
0.564965 0.000000 0.000000
0.608698 0.000000 0.000000
0.654017 0.000000 0.000000
0.699428 0.000000 0.000000
0.742611 0.000000 0.000000
0.782925 0.000000 0.000000
0.820279 0.000000 0.000000
0.854520 0.000000 0.000000
0.885527 0.000000 0.000000
0.913664 0.000000 0.000000
0.939208 0.000000 0.000000
0.962463 0.000000 0.043702
0.037690 0.066346 0.019348
0.038666 0.066682 0.020325
0.048768 0.066926 0.018921
0.067109 0.066987 0.015808
0.075959 0.061677 0.020600
0.096315 0.063233 0.021546
0.128756 0.072786 0.013916
0.152926 0.072419 0.015167
0.177707 0.070771 0.014649
0.203067 0.068971 0.011933
0.229465 0.065766 0.008148
0.256901 0.062684 0.004944
0.285771 0.059968 0.000885
0.315831 0.055482 0.000000
0.347295 0.047639 0.000000
0.380468 0.036622 0.000000
0.415167 0.018372 0.000000
0.450996 0.000000 0.000000
0.488350 0.000000 0.000000
0.528313 0.000000 0.000000
0.570214 0.000000 0.000000
0.613886 0.000000 0.000000
0.658869 0.000000 0.000000
0.703822 0.000000 0.000000
0.746273 0.000000 0.000000
0.785946 0.000000 0.000000
0.822721 0.000000 0.000000
0.856382 0.000000 0.000000
0.886992 0.000000 0.000000
0.914794 0.000000 0.000000
0.940093 0.000000 0.000000
0.963104 0.000000 0.036225
0.053773 0.082887 0.026520
0.053651 0.083223 0.026429
0.060822 0.083345 0.024994
0.072999 0.083131 0.023102
0.087160 0.082216 0.022126
0.094209 0.075196 0.026551
0.113130 0.075410 0.028534
0.147707 0.086427 0.016632
0.182315 0.094972 0.005463
0.207858 0.093965 0.002411
0.234745 0.092958 0.000000
0.262547 0.091554 0.000000
0.291478 0.090547 0.000000
0.321965 0.089326 0.000000
0.353613 0.087709 0.000000
0.386999 0.085420 0.000000
0.421881 0.082033 0.000000
0.457527 0.076234 0.000000
0.494911 0.069764 0.000000
0.534661 0.058900 0.000000
0.576379 0.028412 0.000000
0.619532 0.000000 0.000000
0.653742 0.000000 0.000000
0.698787 0.000000 0.000000
0.741634 0.000000 0.000000
0.781674 0.000000 0.000000
0.818967 0.000000 0.000000
0.853147 0.000000 0.000000
0.884184 0.000000 0.000000
0.912352 0.000000 0.000000
0.938018 0.000000 0.000000
0.961364 0.000000 0.014496
0.062562 0.098207 0.030915
0.064210 0.098329 0.029664
0.069520 0.098329 0.029297
0.079377 0.098512 0.026246
0.093690 0.098116 0.023896
0.106386 0.096529 0.024079
0.111208 0.087922 0.030610
0.128023 0.086305 0.034119
0.164370 0.098634 0.020111
0.203708 0.111604 0.000183
0.238621 0.118685 0.000000
0.266545 0.118044 0.000000
0.295720 0.118044 0.000000
0.326421 0.117830 0.000000
0.358618 0.117830 0.000000
0.392187 0.116854 0.000000
0.426978 0.115297 0.000000
0.462989 0.113130 0.000000
0.500389 0.109865 0.000000
0.539605 0.105531 0.000000
0.580346 0.099702 0.000000
0.622339 0.090852 0.000000
0.665370 0.079042 0.000000
0.708095 0.062013 0.000000
0.748836 0.013886 0.000000
0.787259 0.000000 0.000000
0.823362 0.000000 0.000000
0.856565 0.000000 0.000000
0.886839 0.000000 0.000000
0.914458 0.000000 0.000000
0.939605 0.000000 0.000000
0.962585 0.000000 0.000122
0.071168 0.114290 0.032654
0.074159 0.114443 0.032349
0.078706 0.114443 0.031983
0.087404 0.114382 0.029023
0.100404 0.114290 0.025513
0.114778 0.113680 0.021759
0.126558 0.111543 0.025269
0.129519 0.101320 0.034241
0.143618 0.097322 0.039765
0.181979 0.111208 0.022126
0.223789 0.125734 0.000000
0.269657 0.141726 0.000000
0.304631 0.146609 0.000000
0.335882 0.147127 0.000000
0.368414 0.147585 0.000000
0.402258 0.147982 0.000000
0.437201 0.147494 0.000000
0.473518 0.146578 0.000000
0.511009 0.144961 0.000000
0.550164 0.143099 0.000000
0.590570 0.140047 0.000000
0.632288 0.135622 0.000000
0.674922 0.130190 0.000000
0.716518 0.122530 0.000000
0.755978 0.113405 0.000000
0.793362 0.101869 0.000000
0.828244 0.088258 0.000000
0.860441 0.070680 0.000000
0.889860 0.036591 0.000000
0.916777 0.000000 0.000000
0.941344 0.000000 0.000000
0.963867 0.000000 0.000000
0.082551 0.130770 0.033783
0.085512 0.130678 0.033539
0.089418 0.130678 0.032074
0.097292 0.130770 0.029023
0.108888 0.130678 0.025513
0.122744 0.130465 0.021546
0.135439 0.128939 0.021363
0.146822 0.126802 0.024720
0.147982 0.114748 0.035431
0.158877 0.107851 0.045899
0.199100 0.123110 0.025574
0.243137 0.139376 0.000000
0.291722 0.157259 0.000000
0.346044 0.177218 0.000000
0.379187 0.178408 0.000000
0.413214 0.179080 0.000000
0.448524 0.179446 0.000000
0.484932 0.179294 0.000000
0.522240 0.178470 0.000000
0.561151 0.177371 0.000000
0.601221 0.175967 0.000000
0.642878 0.173953 0.000000
0.684962 0.171420 0.000000
0.725277 0.166903 0.000000
0.763516 0.161288 0.000000
0.799557 0.154360 0.000000
0.833310 0.146365 0.000000
0.864469 0.137179 0.000000
0.893004 0.127779 0.000000
0.919188 0.118349 0.000000
0.943175 0.110719 0.000000
0.965209 0.107149 0.000000
0.094362 0.147555 0.032197
0.096895 0.147463 0.031952
0.100282 0.147463 0.030488
0.107729 0.147494 0.028473
0.117647 0.147311 0.025086
0.130465 0.147097 0.020020
0.144656 0.146456 0.015808
0.155978 0.144320 0.019226
0.165743 0.140719 0.023529
0.166751 0.128450 0.035096
0.175204 0.119173 0.048035
0.215702 0.134768 0.029236
0.262119 0.153048 0.001465
0.313542 0.172641 0.000000
0.370703 0.194247 0.000000
0.424964 0.211002 0.000000
0.460334 0.211582 0.000000
0.496803 0.211887 0.000000
0.534173 0.212039 0.000000
0.572778 0.211734 0.000000
0.612970 0.211368 0.000000
0.654261 0.210513 0.000000
0.695918 0.209354 0.000000
0.735256 0.206668 0.000000
0.772152 0.202640 0.000000
0.806851 0.197360 0.000000
0.839200 0.191348 0.000000
0.869017 0.184665 0.000000
0.896513 0.177493 0.000000
0.921782 0.170596 0.000000
0.945037 0.164767 0.000000
0.966461 0.161410 0.000000
0.105562 0.164553 0.034424
0.107790 0.164614 0.032990
0.111055 0.164584 0.031525
0.117220 0.164523 0.029633
0.126772 0.164157 0.026307
0.138399 0.163851 0.021363
0.152285 0.163333 0.015930
0.164981 0.162051 0.014191
0.176181 0.159762 0.017517
0.184360 0.154452 0.023224
0.185245 0.142061 0.036744
0.192782 0.131807 0.049256
0.232090 0.146487 0.035157
0.280400 0.166232 0.007660
0.334722 0.187655 0.000000
0.395026 0.211063 0.000000
0.462593 0.236851 0.000000
0.511009 0.246342 0.000000
0.548302 0.246952 0.000000
0.586694 0.246921 0.000000
0.626429 0.247166 0.000000
0.667201 0.247166 0.000000
0.707210 0.246525 0.000000
0.745266 0.244877 0.000000
0.780728 0.241459 0.000000
0.813993 0.237003 0.000000
0.844999 0.231724 0.000000
0.873686 0.225986 0.000000
0.900175 0.219638 0.000000
0.924590 0.213352 0.000000
0.947143 0.208133 0.000000
0.968017 0.204685 0.000000
0.115969 0.181552 0.037354
0.117922 0.181613 0.037018
0.120851 0.181582 0.035523
0.126497 0.181399 0.033753
0.135439 0.181186 0.030304
0.146304 0.180789 0.025452
0.159030 0.180240 0.020142
0.173526 0.179538 0.012146
0.184817 0.177523 0.015320
0.196201 0.175174 0.017365
0.202609 0.168368 0.025818
0.203464 0.155550 0.039277
0.207492 0.143099 0.052338
0.244388 0.155917 0.044923
0.294316 0.176699 0.016297
0.350225 0.199405 0.000000
0.412757 0.224216 0.000000
0.482063 0.251377 0.000000
0.556207 0.279637 0.000000
0.594568 0.280461 0.000000
0.634272 0.281254 0.000000
0.674556 0.281590 0.000000
0.713924 0.281437 0.000000
0.751278 0.280339 0.000000
0.786099 0.277775 0.000000
0.818418 0.273808 0.000000
0.848447 0.268681 0.000000
0.876371 0.263279 0.000000
0.902190 0.257298 0.000000
0.926085 0.251621 0.000000
0.948211 0.246281 0.000000
0.968688 0.242405 0.000000
0.125795 0.197482 0.041840
0.127565 0.197543 0.041505
0.130251 0.197513 0.040040
0.135592 0.197421 0.038117
0.143496 0.197299 0.034730
0.154025 0.196994 0.029755
0.165927 0.196536 0.023346
0.179324 0.195712 0.016693
0.192874 0.194461 0.012238
0.203983 0.192081 0.014466
0.215030 0.189395 0.018860
0.219638 0.181033 0.029267
0.220310 0.168124 0.044739
0.225437 0.156466 0.057099
0.260136 0.167147 0.053681
0.312139 0.189548 0.024781
0.370611 0.213809 0.000000
0.435981 0.240299 0.000000
0.509514 0.269596 0.000000
0.588006 0.300755 0.000000
0.650965 0.319799 0.000000
0.689967 0.320012 0.000000
0.727535 0.319585 0.000000
0.763027 0.318059 0.000000
0.796262 0.315526 0.000000
0.826841 0.311192 0.000000
0.855406 0.306188 0.000000
0.881926 0.300572 0.000000
0.906584 0.294530 0.000000
0.929442 0.288365 0.000000
0.950744 0.282902 0.000000
0.970520 0.278630 0.000000
0.136416 0.215030 0.047456
0.138277 0.214939 0.047272
0.140536 0.214847 0.046021
0.145449 0.214755 0.043030
0.152743 0.214511 0.040803
0.162448 0.214176 0.034852
0.173678 0.213657 0.028565
0.186435 0.212802 0.022004
0.200412 0.211612 0.012970
0.212650 0.209659 0.012421
0.223667 0.207187 0.015656
0.234714 0.204410 0.019959
0.237827 0.194766 0.032410
0.238468 0.181613 0.048402
0.242374 0.169162 0.060548
0.274815 0.177676 0.060365
0.329442 0.201755 0.034821
0.390509 0.227756 0.000000
0.459510 0.256321 0.000000
0.537346 0.288182 0.000000
0.618494 0.321141 0.000000
0.697261 0.352789 0.000000
0.741146 0.358465 0.000000
0.774838 0.356298 0.000000
0.806332 0.353185 0.000000
0.835172 0.348333 0.000000
0.862150 0.342809 0.000000
0.887327 0.336767 0.000000
0.910857 0.330480 0.000000
0.932738 0.324132 0.000000
0.953155 0.318242 0.000000
0.972259 0.313329 0.000000
0.146975 0.232059 0.051728
0.148684 0.231998 0.051545
0.150759 0.231907 0.050507
0.155276 0.231846 0.049073
0.162264 0.231510 0.045472
0.170993 0.231205 0.040650
0.181643 0.230533 0.033448
0.193790 0.229770 0.026886
0.207065 0.228611 0.017975
0.221378 0.227237 0.007599
0.232120 0.224857 0.011994
0.243076 0.222080 0.015351
0.254124 0.219242 0.019593
0.255924 0.208347 0.035279
0.256535 0.194980 0.051362
0.259434 0.182010 0.062257
0.289128 0.187991 0.064912
0.345892 0.213352 0.043549
0.410224 0.241459 0.000000
0.484230 0.273014 0.000000
0.565911 0.307256 0.000000
0.649378 0.341863 0.000000
0.726650 0.373419 0.000000
0.786740 0.395087 0.000000
0.816434 0.391180 0.000000
0.843473 0.385565 0.000000
0.868803 0.379187 0.000000
0.892576 0.372534 0.000000
0.914824 0.365637 0.000000
0.935668 0.358801 0.000000
0.955230 0.352270 0.000000
0.973632 0.346654 0.000000
0.157534 0.249241 0.054627
0.158968 0.249119 0.054505
0.160861 0.249027 0.054292
0.164950 0.248814 0.052216
0.171420 0.248569 0.049714
0.179843 0.248020 0.044984
0.189670 0.247257 0.038025
0.201144 0.246403 0.030579
0.213748 0.245335 0.021668
0.227390 0.243931 0.011505
0.240635 0.242039 0.006012
0.251499 0.239628 0.010193
0.262547 0.236790 0.014557
0.273655 0.234043 0.019593
0.274266 0.221897 0.037720
0.274846 0.208591 0.053834
0.276555 0.194675 0.064393
0.303014 0.197757 0.069306
0.362402 0.225101 0.052308
0.430915 0.255558 0.000000
0.509789 0.289982 0.000000
0.594965 0.326452 0.000000
0.679713 0.362432 0.000000
0.753658 0.393042 0.000000
0.813901 0.417029 0.000000
0.851225 0.422705 0.000000
0.875120 0.415412 0.000000
0.897551 0.408057 0.000000
0.918761 0.400519 0.000000
0.938720 0.393011 0.000000
0.957549 0.385840 0.000000
0.975372 0.379675 0.000000
0.168002 0.266606 0.059022
0.169314 0.266545 0.058350
0.171237 0.266545 0.057252
0.175204 0.266239 0.055207
0.181003 0.265904 0.052888
0.188907 0.265385 0.048615
0.198459 0.264744 0.042115
0.209262 0.263767 0.034852
0.221225 0.262669 0.026184
0.234379 0.261265 0.015015
0.248325 0.259525 0.004791
0.260319 0.257328 0.002991
0.271214 0.254673 0.007294
0.282383 0.251926 0.012451
0.292027 0.247807 0.019440
0.292546 0.235477 0.038605
0.293248 0.222202 0.056764
0.293950 0.207645 0.065766
0.316930 0.207675 0.073091
0.380011 0.237125 0.057862
0.453101 0.270451 0.000000
0.536889 0.307805 0.000000
0.624994 0.346410 0.000000
0.709468 0.382910 0.000000
0.780087 0.412543 0.000000
0.836790 0.435340 0.000000
0.881743 0.452247 0.000000
0.902953 0.443915 0.000000
0.923003 0.435370 0.000000
0.941985 0.427100 0.000000
0.959960 0.419287 0.000000
0.977142 0.412299 0.000000
0.178317 0.284062 0.060334
0.179721 0.283879 0.059876
0.180026 0.281712 0.059205
0.183749 0.281529 0.057618
0.189364 0.281254 0.055207
0.196750 0.280735 0.051026
0.205722 0.280125 0.045319
0.215976 0.279332 0.037995
0.227573 0.278202 0.028321
0.240269 0.276890 0.018250
0.253819 0.275517 0.006653
0.267735 0.273716 0.000000
0.278782 0.271305 0.000000
0.289921 0.268772 0.004089
0.301305 0.266239 0.008728
0.309850 0.261082 0.017426
0.310613 0.248936 0.039307
0.311437 0.235569 0.057984
0.312261 0.220890 0.066712
0.330388 0.217105 0.076326
0.397040 0.248814 0.060945
0.475319 0.285191 0.000000
0.563500 0.325322 0.000000
0.654261 0.366033 0.000000
0.737148 0.402472 0.000000
0.804837 0.431464 0.000000
0.858335 0.453223 0.000000
0.900298 0.469062 0.000000
0.927184 0.470436 0.000000
0.945281 0.461219 0.000000
0.962524 0.452522 0.000000
0.979034 0.444831 0.000000
0.188815 0.301823 0.061219
0.189792 0.301457 0.060456
0.191287 0.301030 0.060121
0.194553 0.300572 0.059144
0.199893 0.300053 0.056672
0.206821 0.299474 0.053376
0.215335 0.298863 0.047303
0.225345 0.297948 0.039185
0.236667 0.297002 0.030365
0.248753 0.295750 0.020417
0.261906 0.294316 0.007874
0.275975 0.292515 0.000000
0.289006 0.290532 0.000000
0.300359 0.288243 0.000000
0.311803 0.285740 0.000000
0.323400 0.283116 0.001862
0.330694 0.276951 0.013611
0.331670 0.264469 0.036774
0.332464 0.250950 0.057008
0.333349 0.236088 0.067475
0.351415 0.231937 0.076631
0.417304 0.262364 0.062806
0.501274 0.302068 0.000000
0.593683 0.345037 0.000000
0.686122 0.387274 0.000000
0.766323 0.423377 0.000000
0.830076 0.450996 0.000000
0.879576 0.471199 0.000000
0.918181 0.485786 0.000000
0.948547 0.495308 0.000000
0.965026 0.485847 0.000000
0.980926 0.477333 0.000000
0.200381 0.321813 0.061189
0.201389 0.321477 0.060853
0.202792 0.321080 0.060517
0.205997 0.320653 0.059113
0.210880 0.320104 0.056672
0.217655 0.319554 0.052552
0.226017 0.318883 0.047333
0.235691 0.318059 0.040192
0.246494 0.317082 0.029358
0.258549 0.315831 0.017151
0.271427 0.314397 0.005737
0.285191 0.312657 0.000000
0.299687 0.311009 0.000000
0.311803 0.308782 0.000000
0.323461 0.306493 0.000000
0.335271 0.303990 0.000000
0.347204 0.301366 0.000000
0.353216 0.293858 0.005463
0.354162 0.281193 0.029938
0.355138 0.267399 0.053712
0.355993 0.252384 0.066438
0.374060 0.247868 0.076417
0.439002 0.276585 0.064088
0.528832 0.319921 0.000000
0.625483 0.365637 0.000000
0.718837 0.409583 0.000000
0.795285 0.444617 0.000000
0.854398 0.470497 0.000000
0.899901 0.489143 0.000000
0.935485 0.502617 0.000000
0.963989 0.512352 0.000000
0.982696 0.509667 0.000000
0.212680 0.343572 0.060334
0.213504 0.343236 0.059998
0.214939 0.342870 0.059205
0.218051 0.342412 0.057954
0.222995 0.341802 0.054292
0.229557 0.341283 0.050141
0.237552 0.340642 0.044251
0.246983 0.339910 0.035737
0.257725 0.338872 0.024933
0.269444 0.337713 0.013733
0.282261 0.336370 0.001038
0.295933 0.334813 0.000000
0.310338 0.332982 0.000000
0.324895 0.331029 0.000000
0.336645 0.328771 0.000000
0.348577 0.326421 0.000000
0.360662 0.323827 0.000000
0.372778 0.321141 0.000000
0.377386 0.312047 0.000000
0.378210 0.298955 0.021637
0.379065 0.284794 0.048859
0.379950 0.269352 0.064302
0.397925 0.264286 0.075074
0.461677 0.291325 0.063569
0.557336 0.338262 0.000000
0.658412 0.387488 0.000000
0.749660 0.431250 0.000000
0.821469 0.464759 0.000000
0.876310 0.489021 0.000000
0.918334 0.506462 0.000000
0.951446 0.519188 0.000000
0.977111 0.528099 0.000000
0.225132 0.366369 0.056580
0.226200 0.366094 0.055848
0.227634 0.365850 0.054200
0.230747 0.365515 0.052308
0.235508 0.365179 0.049958
0.242008 0.364691 0.044221
0.250034 0.364050 0.036103
0.259312 0.363287 0.028687
0.269963 0.362341 0.016602
0.281529 0.361089 0.005524
0.294072 0.359686 0.000000
0.307683 0.358190 0.000000
0.321965 0.356481 0.000000
0.337011 0.354589 0.000000
0.350866 0.352453 0.000000
0.363073 0.350195 0.000000
0.375463 0.347845 0.000000
0.388037 0.345251 0.000000
0.400519 0.342626 0.000000
0.404028 0.332067 0.000000
0.405127 0.318853 0.005707
0.406226 0.304295 0.035431
0.407477 0.288853 0.060517
0.425696 0.283452 0.072267
0.489082 0.308934 0.062196
0.592096 0.360815 0.000000
0.696162 0.412665 0.000000
0.782803 0.455085 0.000000
0.849241 0.486488 0.000000
0.899290 0.509056 0.000000
0.937469 0.525322 0.000000
0.966369 0.536767 0.000000
0.239780 0.392920 0.047211
0.240818 0.392676 0.046357
0.242130 0.392462 0.045228
0.245212 0.392065 0.042756
0.249973 0.391730 0.038514
0.256443 0.391211 0.031769
0.264408 0.390723 0.023285
0.273655 0.389960 0.014679
0.284154 0.389014 0.003571
0.295842 0.387823 0.000000
0.308537 0.386603 0.000000
0.322026 0.385046 0.000000
0.336461 0.383398 0.000000
0.351659 0.381598 0.000000
0.367468 0.379614 0.000000
0.380621 0.377356 0.000000
0.393439 0.375067 0.000000
0.406348 0.372625 0.000000
0.419379 0.370123 0.000000
0.432410 0.367437 0.000000
0.434638 0.355383 0.000000
0.435859 0.341558 0.000000
0.437263 0.326726 0.016358
0.438788 0.310796 0.049561
0.458503 0.305760 0.068055
0.522423 0.330510 0.064668
0.632074 0.386847 0.000000
0.735348 0.439429 0.000000
0.816342 0.479988 0.000000
0.876768 0.509300 0.000000
0.920684 0.529534 0.000000
0.953948 0.544396 0.000000
0.255253 0.421698 0.028840
0.256321 0.421424 0.027955
0.257542 0.421241 0.026856
0.260716 0.420935 0.023041
0.265599 0.420569 0.018708
0.271946 0.420264 0.011536
0.279973 0.419837 0.003815
0.289281 0.419287 0.000000
0.299992 0.418555 0.000000
0.311833 0.417609 0.000000
0.324834 0.416510 0.000000
0.338720 0.415167 0.000000
0.353521 0.413703 0.000000
0.369055 0.412085 0.000000
0.385290 0.410376 0.000000
0.401526 0.408515 0.000000
0.415045 0.406470 0.000000
0.428748 0.404303 0.000000
0.442451 0.402014 0.000000
0.456214 0.399451 0.000000
0.469490 0.396399 0.000000
0.471046 0.383185 0.000000
0.472877 0.368994 0.000000
0.474952 0.353887 0.000000
0.477363 0.338018 0.035065
0.496925 0.332067 0.065522
0.560388 0.355138 0.066957
0.676143 0.415961 0.000000
0.774777 0.467536 0.000000
0.848112 0.505119 0.000000
0.900389 0.531121 0.000000
0.939239 0.550256 0.000000
0.273686 0.456275 0.000000
0.274662 0.455970 0.000000
0.275975 0.455756 0.000000
0.279057 0.455543 0.000000
0.284001 0.455146 0.000000
0.290501 0.454932 0.000000
0.298619 0.454505 0.000000
0.308141 0.453895 0.000000
0.319066 0.453223 0.000000
0.331060 0.452247 0.000000
0.344274 0.451240 0.000000
0.358526 0.449958 0.000000
0.373632 0.448554 0.000000
0.389593 0.447028 0.000000
0.406378 0.445380 0.000000
0.423804 0.443641 0.000000
0.439734 0.441810 0.000000
0.454200 0.439857 0.000000
0.468696 0.437781 0.000000
0.483375 0.435523 0.000000
0.498116 0.433204 0.000000
0.510948 0.429175 0.000000
0.513359 0.415869 0.000000
0.516045 0.401678 0.000000
0.519066 0.386389 0.000000
0.522454 0.370153 0.017060
0.541772 0.362860 0.060883
0.604822 0.384100 0.069947
0.721889 0.447242 0.000000
0.811124 0.494972 0.000000
0.875181 0.528923 0.000000
0.921447 0.553552 0.000000
0.294163 0.494972 0.000000
0.295232 0.494728 0.000000
0.296666 0.494514 0.000000
0.299779 0.494453 0.000000
0.304784 0.494270 0.000000
0.311620 0.494087 0.000000
0.319799 0.493812 0.000000
0.329503 0.493294 0.000000
0.340795 0.492683 0.000000
0.353216 0.491859 0.000000
0.366888 0.490913 0.000000
0.381476 0.489693 0.000000
0.397192 0.488472 0.000000
0.413733 0.487098 0.000000
0.431128 0.485695 0.000000
0.449439 0.484260 0.000000
0.468238 0.482582 0.000000
0.484169 0.480964 0.000000
0.499702 0.479194 0.000000
0.515343 0.477516 0.000000
0.531243 0.475715 0.000000
0.547417 0.473884 0.000000
0.560571 0.469368 0.000000
0.563989 0.455756 0.000000
0.567834 0.441260 0.000000
0.572168 0.425696 0.000000
0.576959 0.409003 0.000000
0.596765 0.400855 0.051270
0.655787 0.417945 0.075349
0.765316 0.478584 0.027588
0.844968 0.522789 0.024292
0.901061 0.554589 0.078462
0.317693 0.539513 0.000000
0.318669 0.539269 0.000000
0.320256 0.539178 0.000000
0.323461 0.539086 0.000000
0.328649 0.538781 0.000000
0.335363 0.538476 0.000000
0.343694 0.537957 0.000000
0.353643 0.537224 0.000000
0.364935 0.536309 0.000000
0.377417 0.535302 0.000000
0.391119 0.534081 0.000000
0.406195 0.532708 0.000000
0.422278 0.531334 0.000000
0.439246 0.530022 0.000000
0.457313 0.528649 0.000000
0.476173 0.527337 0.000000
0.495613 0.526238 0.000000
0.515129 0.525017 0.000000
0.531518 0.523796 0.000000
0.548333 0.522637 0.000000
0.565515 0.521263 0.000000
0.583154 0.520134 0.000000
0.601251 0.519066 0.000000
0.615259 0.514244 0.000000
0.620172 0.500603 0.000000
0.625269 0.485725 0.000000
0.629877 0.468940 0.000000
0.634852 0.450996 0.000000
0.652796 0.440467 0.037873
0.708522 0.455024 0.082216
0.804990 0.509239 0.080476
0.875059 0.550683 0.104829
0.342657 0.586969 0.000000
0.343633 0.586908 0.000000
0.345220 0.586847 0.000000
0.348669 0.586816 0.000000
0.354040 0.586755 0.000000
0.361120 0.586603 0.000000
0.369696 0.586358 0.000000
0.380133 0.586023 0.000000
0.391974 0.585565 0.000000
0.405341 0.584894 0.000000
0.419654 0.584192 0.000000
0.435126 0.583459 0.000000
0.451759 0.582727 0.000000
0.469612 0.581933 0.000000
