data/fiter_cube/95423152/1023242/file.cube
# Created by Adobe Lightroom plugin Export LUT (1.17.0)
# www.johnrellis.com/lightroom/exportlut.htm
# Preset: 黑暗巧克力情绪人像_01 云集
# Color profile: C:\Program Files (x86)\Common Files\Adobe\Color\Profiles\Recommended\AdobeRGB1998.icc
LUT_3D_SIZE 5
DOMAIN_MIN 0.000000 0.000000 0.000000
DOMAIN_MAX 0.903226 0.903226 0.903226
0.000000 0.000000 0.000000
0.144808 0.000000 0.026703
0.334569 0.000000 0.010529
0.599451 0.000000 0.000000
0.882933 0.000000 0.000000
0.071168 0.114290 0.032654
0.129519 0.101320 0.034241
0.368414 0.147585 0.000000
0.632288 0.135622 0.000000
0.889860 0.036591 0.000000
0.146975 0.232059 0.051728
0.193790 0.229770 0.026886
0.256535 0.194980 0.051362
0.649378 0.341863 0.000000
0.914824 0.365637 0.000000
0.225132 0.366369 0.056580
0.259312 0.363287 0.028687
0.350866 0.352453 0.000000
0.406226 0.304295 0.035431
0.849241 0.486488 0.000000
0.369360 0.640925 0.000000
0.407050 0.640223 0.000000
0.522057 0.640040 0.000000
0.669123 0.633936 0.000000
0.760830 0.570367 0.000000
0.043854 0.034760 0.126284
0.159548 0.000000 0.132082
0.324437 0.000000 0.129824
0.570428 0.000000 0.126955
0.877104 0.000000 0.111666
0.076020 0.118410 0.108156
0.152010 0.133883 0.123537
0.336889 0.138186 0.128786
0.601648 0.103822 0.120027
0.885832 0.000000 0.097505
0.120974 0.241001 0.104677
0.195438 0.243076 0.124727
0.269261 0.212131 0.121309
0.683070 0.365972 0.064149
0.910948 0.355322 0.000000
0.217807 0.376196 0.125002
0.255589 0.373114 0.119966
0.352148 0.361089 0.088167
0.413214 0.313176 0.108797
0.859159 0.494759 0.000000
0.348211 0.645106 0.057282
0.389624 0.644007 0.000000
0.510643 0.639673 0.000000
0.666651 0.633143 0.000000
0.760311 0.567987 0.000000
0.102815 0.062348 0.284062
0.194125 0.002167 0.296880
0.380285 0.000000 0.308995
0.633997 0.000000 0.323430
0.868223 0.000000 0.306218
0.121065 0.158389 0.258427
0.185977 0.154574 0.274113
0.369848 0.111788 0.297093
0.609033 0.000000 0.301274
0.857267 0.000000 0.284916
0.142428 0.251011 0.227329
0.197177 0.261967 0.237613
0.352056 0.304967 0.279515
0.616907 0.311376 0.281315
0.883970 0.293065 0.279606
0.174044 0.389349 0.226413
0.214298 0.399023 0.226017
0.360357 0.412177 0.237156
0.452613 0.356817 0.225071
0.900298 0.548089 0.277623
0.165682 0.662776 0.165042
0.267063 0.663081 0.187747
0.453010 0.660487 0.196689
0.648737 0.646052 0.114839
0.764187 0.576410 0.160372
0.174594 0.087465 0.515618
0.257725 0.029023 0.528344
0.467262 0.000000 0.573907
0.696345 0.000000 0.569818
0.919463 0.000000 0.555413
0.157504 0.183078 0.489662
0.237308 0.171420 0.503624
0.445686 0.072480 0.553918
0.689326 0.000000 0.560815
0.914580 0.000000 0.546838
0.166049 0.316197 0.421973
0.219669 0.316197 0.428382
0.385290 0.321141 0.492195
0.663569 0.273838 0.529107
0.892027 0.234714 0.514092
0.188876 0.419776 0.377874
0.234043 0.428382 0.385718
0.370428 0.467231 0.421485
0.627924 0.543938 0.500755
0.879637 0.558679 0.517754
0.206821 0.668299 0.431403
0.246647 0.673213 0.427893
0.357946 0.689815 0.408209
0.588403 0.693355 0.380560
0.776059 0.609644 0.349340
0.252628 0.146487 0.773129
0.317540 0.119661 0.775998
0.483772 0.000000 0.788388
0.701167 0.000000 0.808713
0.906126 0.000000 0.782589
0.229343 0.220462 0.760678
0.297642 0.205295 0.764187
0.469032 0.126833 0.778531
0.691157 0.000000 0.801419
0.902342 0.000000 0.777768
0.152255 0.371923 0.721614
0.222507 0.360815 0.728054
0.416114 0.334081 0.747616
0.658289 0.263798 0.779751
0.895445 0.165713 0.769986
0.121675 0.539361 0.675013
0.190555 0.533623 0.674617
0.345953 0.517723 0.682399
0.617212 0.536400 0.738491
0.881285 0.562676 0.764950
0.114260 0.704555 0.644282
0.186038 0.704311 0.644190
0.351476 0.709804 0.651057
0.591485 0.723690 0.671992
0.847196 0.782284 0.750607
