data/fiter_cube/95423152/1023242/file.cube
# Created by Adobe Lightroom plugin Export LUT (1.17.0)
# www.johnrellis.com/lightroom/exportlut.htm
# Preset: 黑暗巧克力情绪人像_01 云集
# Color profile: C:\Program Files (x86)\Common Files\Adobe\Color\Profiles\Recommended\AdobeRGB1998.icc
LUT_3D_SIZE 8
DOMAIN_MIN 0.000000 0.000000 0.000000
DOMAIN_MAX 0.903226 0.903226 0.903226
0.000000 0.000000 0.000000
0.078248 0.002258 0.015137
0.169009 0.000000 0.026978
0.274174 0.000000 0.016602
0.401343 0.000000 0.000000
0.555596 0.000000 0.000000
0.736049 0.000000 0.000000
0.882933 0.000000 0.000000
0.037690 0.066346 0.019348
0.075959 0.061677 0.020600
0.177707 0.070771 0.014649
0.285771 0.059968 0.000885
0.415167 0.018372 0.000000
0.570214 0.000000 0.000000
0.746273 0.000000 0.000000
0.886992 0.000000 0.000000
0.082551 0.130770 0.033783
0.108888 0.130678 0.025513
0.147982 0.114748 0.035431
0.291722 0.157259 0.000000
0.448524 0.179446 0.000000
0.601221 0.175967 0.000000
0.763516 0.161288 0.000000
0.893004 0.127779 0.000000
0.125795 0.197482 0.041840
0.143496 0.197299 0.034730
0.192874 0.194461 0.012238
0.220310 0.168124 0.044739
0.370611 0.213809 0.000000
0.650965 0.319799 0.000000
0.796262 0.315526 0.000000
0.906584 0.294530 0.000000
0.168002 0.266606 0.059022
0.181003 0.265904 0.052888
0.221225 0.262669 0.026184
0.271214 0.254673 0.007294
0.293248 0.222202 0.056764
0.453101 0.270451 0.000000
0.780087 0.412543 0.000000
0.923003 0.435370 0.000000
0.212680 0.343572 0.060334
0.222995 0.341802 0.054292
0.257725 0.338872 0.024933
0.310338 0.332982 0.000000
0.360662 0.323827 0.000000
0.379065 0.284794 0.048859
0.557336 0.338262 0.000000
0.876310 0.489021 0.000000
0.273686 0.456275 0.000000
0.284001 0.455146 0.000000
0.319066 0.453223 0.000000
0.373632 0.448554 0.000000
0.439734 0.441810 0.000000
0.498116 0.433204 0.000000
0.519066 0.386389 0.000000
0.721889 0.447242 0.000000
0.369360 0.640925 0.000000
0.380774 0.640742 0.000000
0.419074 0.639826 0.000000
0.480842 0.637476 0.000000
0.564538 0.638911 0.000000
0.649866 0.635187 0.000000
0.729610 0.630579 0.000000
0.760830 0.570367 0.000000
0.016022 0.023590 0.068238
0.086702 0.000000 0.072419
0.169741 0.005463 0.073793
0.269078 0.000000 0.075349
0.396155 0.000000 0.072724
0.551263 0.000000 0.058656
0.735103 0.000000 0.000000
0.885405 0.000000 0.000000
0.027070 0.067597 0.061707
0.082277 0.073487 0.068299
0.171115 0.079072 0.073426
0.277287 0.072236 0.072908
0.406226 0.036072 0.069306
0.562371 0.000000 0.045747
0.744015 0.000000 0.000000
0.889433 0.000000 0.000000
0.073915 0.133913 0.064118
0.112306 0.135195 0.075929
0.151858 0.121798 0.075959
0.298314 0.166537 0.060029
0.438148 0.173800 0.034089
0.593896 0.169100 0.000000
0.763363 0.154482 0.000000
0.895995 0.130953 0.000000
0.126497 0.202396 0.081331
0.145388 0.201816 0.080568
0.194766 0.198795 0.069306
0.225132 0.174319 0.078859
0.383551 0.224735 0.062776
0.648859 0.315496 0.000000
0.796597 0.311528 0.000000
0.909422 0.296147 0.000000
0.168612 0.270207 0.087251
0.181552 0.269596 0.084932
0.221897 0.266392 0.074495
0.274144 0.259007 0.064027
0.297612 0.227176 0.081209
0.464485 0.279423 0.064546
0.788174 0.418402 0.000000
0.924834 0.436469 0.000000
0.212406 0.347478 0.087068
0.223301 0.346654 0.084230
0.258427 0.343420 0.073152
0.311406 0.336950 0.038483
0.363012 0.327245 0.029786
0.381781 0.287907 0.075441
0.566186 0.344976 0.035645
0.878874 0.490486 0.000000
0.271885 0.461036 0.065003
0.282902 0.460700 0.059693
0.318334 0.458167 0.023011
0.373480 0.452430 0.000000
0.440681 0.444709 0.000000
0.500114 0.436042 0.000000
0.522148 0.388708 0.000000
0.728420 0.451087 0.000000
0.366003 0.643854 0.000000
0.377783 0.643305 0.000000
0.417456 0.641932 0.000000
0.481331 0.639033 0.000000
0.563409 0.636805 0.000000
0.649500 0.634333 0.000000
0.730739 0.631189 0.000000
0.762478 0.571099 0.000000
0.054017 0.033936 0.146517
0.098573 0.010925 0.150942
0.185458 0.000000 0.152987
0.286198 0.000000 0.153414
0.383825 0.000000 0.150118
0.511742 0.000000 0.147280
0.703792 0.000000 0.141634
0.871885 0.000000 0.137850
0.072786 0.088075 0.137240
0.101564 0.086458 0.141604
0.181888 0.071778 0.148409
0.279179 0.061738 0.149081
0.377386 0.024842 0.147036
0.522881 0.000000 0.147555
0.713039 0.000000 0.140261
0.875578 0.000000 0.136019
0.085512 0.136294 0.124239
0.111513 0.140627 0.128298
0.177218 0.155764 0.143587
0.279149 0.160952 0.146609
0.402136 0.158877 0.148104
0.555749 0.144198 0.144381
0.737392 0.104982 0.132845
0.885191 0.035065 0.126192
0.109773 0.204807 0.126955
0.129824 0.208438 0.128664
0.196811 0.214572 0.140108
0.238468 0.194217 0.138735
0.417182 0.255283 0.145083
0.613519 0.289311 0.131228
0.775082 0.286473 0.112612
0.900053 0.274144 0.101717
0.135348 0.277623 0.117220
0.164096 0.279240 0.128817
0.223087 0.279637 0.139986
0.280217 0.271580 0.127565
0.308110 0.241520 0.135317
0.497200 0.306737 0.137545
0.806973 0.435004 0.062562
0.918151 0.423682 0.000000
0.193088 0.356023 0.128176
0.214542 0.357183 0.138155
0.256443 0.354894 0.136812
0.311467 0.347997 0.121950
0.368750 0.337530 0.113710
0.390814 0.298924 0.126986
0.595972 0.368048 0.120729
0.888945 0.501183 0.000000
0.255680 0.468971 0.129702
0.269596 0.468666 0.130404
0.307988 0.466133 0.121675
0.366674 0.460487 0.101839
0.438392 0.451698 0.063447
0.501488 0.441657 0.063416
0.524987 0.393469 0.099458
0.742306 0.462043 0.088197
0.341253 0.648402 0.094728
0.353826 0.648463 0.087587
0.397070 0.647181 0.063966
0.464698 0.643153 0.000000
0.551995 0.640192 0.000000
0.645045 0.635798 0.000000
0.729610 0.631373 0.000000
0.761959 0.568658 0.000000
0.085145 0.050446 0.235325
0.120455 0.036378 0.238285
0.207401 0.000000 0.251530
0.307408 0.000000 0.250950
0.445472 0.000000 0.264012
0.560540 0.000000 0.254978
0.705684 0.000000 0.247105
0.852476 0.000000 0.233280
0.095369 0.100435 0.224704
0.122835 0.097078 0.228519
0.201236 0.076051 0.242771
0.303380 0.000000 0.246586
0.436469 0.000000 0.256687
0.552880 0.000000 0.248783
0.699763 0.000000 0.240269
0.853452 0.000000 0.229709
0.110780 0.162142 0.206149
0.133425 0.164370 0.208652
0.194614 0.167727 0.226261
0.297551 0.154726 0.237888
0.409339 0.141543 0.236362
0.523491 0.107362 0.228763
0.688624 0.000000 0.223148
0.864164 0.000000 0.227817
0.123201 0.211215 0.191592
0.142947 0.214298 0.194522
0.201663 0.228977 0.208591
0.288487 0.251347 0.230930
0.415106 0.259983 0.234043
0.563775 0.255009 0.232700
0.739132 0.241489 0.228153
0.883604 0.227665 0.227665
0.150271 0.279759 0.195132
0.165316 0.283146 0.196780
0.211154 0.296117 0.201877
0.295232 0.305119 0.212558
0.337285 0.276158 0.209384
0.570855 0.364508 0.231022
0.793057 0.418524 0.230900
0.905516 0.401617 0.224796
0.161288 0.362036 0.183230
0.174289 0.363836 0.182589
0.227970 0.373022 0.189395
0.314061 0.374029 0.202304
0.381964 0.360815 0.185885
0.411444 0.322698 0.192050
0.654994 0.413886 0.203983
0.907897 0.527428 0.210391
0.172641 0.478706 0.154604
0.199374 0.479438 0.162234
0.275212 0.482765 0.186862
0.352422 0.478981 0.185794
0.431037 0.467720 0.161440
0.505577 0.454902 0.150423
0.535363 0.406348 0.165835
0.775631 0.490333 0.175662
0.256931 0.655390 0.145327
0.279973 0.655329 0.152895
0.350988 0.656001 0.177371
0.429633 0.653407 0.157137
0.526543 0.648920 0.117861
0.632898 0.641566 0.000000
0.723995 0.635157 0.000000
0.761715 0.571771 0.114107
0.121767 0.071168 0.337438
0.151247 0.064576 0.340795
0.231937 0.000000 0.355413
0.351263 0.000000 0.381292
0.460334 0.000000 0.372778
0.640192 0.000000 0.403418
0.769192 0.000000 0.391913
0.884092 0.000000 0.376745
0.125246 0.113588 0.327855
0.151156 0.109468 0.331304
0.226627 0.089174 0.346532
0.345312 0.000000 0.375463
0.456611 0.000000 0.368719
0.636774 0.000000 0.398444
0.764126 0.000000 0.385992
0.881590 0.000000 0.372015
0.135500 0.183169 0.304356
0.155550 0.183352 0.309758
0.216709 0.178531 0.325597
0.324956 0.157015 0.354101
0.447517 0.119753 0.357855
0.615900 0.000000 0.377234
0.747311 0.000000 0.365942
0.872831 0.000000 0.355077
0.146090 0.242344 0.281926
0.164004 0.244419 0.284428
0.218204 0.251804 0.294530
0.307469 0.264012 0.327703
0.439826 0.252232 0.344976
0.573846 0.227237 0.340398
0.712703 0.173495 0.328954
0.853330 0.091157 0.319219
0.160159 0.291630 0.263645
0.175998 0.294347 0.266178
0.226383 0.305760 0.276616
0.311681 0.334295 0.303166
0.420203 0.362188 0.331090
0.590845 0.377935 0.337682
0.750179 0.366644 0.333379
0.884794 0.359197 0.335546
0.188724 0.368750 0.271733
0.201114 0.371771 0.273289
0.240909 0.383581 0.278508
0.305425 0.407172 0.285557
0.409644 0.417060 0.289616
0.459083 0.372930 0.281621
0.747311 0.494697 0.330327
0.910979 0.544854 0.363836
0.183139 0.485115 0.270359
0.195254 0.487526 0.269444
0.233433 0.495949 0.264561
0.300389 0.510674 0.255131
0.422644 0.507683 0.261418
0.518975 0.486671 0.234043
0.560998 0.434607 0.241398
0.825040 0.539574 0.285161
0.167575 0.664454 0.256596
0.181582 0.665858 0.251621
0.224521 0.670619 0.230503
0.353887 0.672145 0.247288
0.481422 0.669093 0.238987
0.605097 0.657343 0.192569
0.717159 0.645991 0.173861
0.765805 0.581353 0.205020
0.162203 0.084077 0.470649
0.189700 0.075715 0.474556
0.269169 0.000000 0.490089
0.385748 0.000000 0.516777
0.524498 0.000000 0.538048
0.648280 0.000000 0.527550
0.809628 0.000000 0.542962
0.912749 0.000000 0.518639
0.159976 0.124605 0.464118
0.186801 0.119356 0.468482
0.264103 0.093477 0.483925
0.379522 0.000000 0.510857
0.520684 0.000000 0.534539
0.646235 0.000000 0.524895
0.808621 0.000000 0.540337
0.911284 0.000000 0.515679
0.148684 0.198337 0.438148
0.172854 0.196445 0.442512
0.244663 0.187442 0.458320
0.356481 0.160555 0.487037
0.504936 0.065339 0.520836
0.637079 0.000000 0.513939
0.803769 0.000000 0.529992
0.904875 0.000000 0.504814
0.161868 0.269596 0.393347
0.178866 0.270329 0.397101
0.232578 0.273960 0.418372
0.327153 0.270085 0.451698
0.478004 0.247990 0.497780
0.624018 0.209354 0.497261
0.789914 0.147311 0.508080
0.891966 0.090089 0.484291
0.171084 0.337011 0.374548
0.186984 0.338506 0.376654
0.236667 0.344579 0.385412
0.315557 0.357031 0.405737
0.443091 0.377478 0.461982
0.618463 0.366125 0.485176
0.755673 0.337255 0.469703
0.869718 0.314458 0.454383
0.186709 0.389960 0.351171
0.200839 0.392096 0.353155
0.246067 0.401526 0.361791
0.320989 0.423468 0.381903
0.436591 0.465583 0.421637
0.583978 0.503593 0.462013
0.762325 0.523980 0.476173
0.881041 0.513603 0.474952
0.215396 0.491615 0.372473
0.226352 0.493904 0.373266
0.262730 0.503349 0.376684
0.320958 0.521080 0.381170
0.403998 0.549432 0.382971
0.541772 0.556817 0.378882
0.614160 0.495521 0.363134
0.874723 0.633478 0.478401
0.196445 0.667201 0.399023
0.209445 0.668818 0.397711
0.250065 0.674128 0.391821
0.310643 0.683009 0.376959
0.391363 0.695430 0.345525
0.561822 0.688319 0.346349
0.704677 0.666896 0.295933
0.773007 0.600977 0.313512
0.208621 0.101045 0.644068
0.235660 0.091737 0.648554
0.311986 0.006348 0.656611
0.420722 0.000000 0.671626
0.554162 0.000000 0.693599
0.690486 0.000000 0.697536
0.811368 0.000000 0.679011
0.918853 0.000000 0.655207
0.199222 0.135958 0.630457
0.225864 0.130220 0.634974
0.302159 0.099733 0.644343
0.411200 0.000000 0.660517
0.544213 0.000000 0.682856
0.681025 0.000000 0.687495
0.801877 0.000000 0.669032
0.912963 0.000000 0.648463
0.170382 0.215366 0.615869
0.199069 0.211887 0.618677
0.279088 0.197787 0.627497
0.391272 0.164706 0.645411
0.527306 0.051637 0.669398
0.672816 0.000000 0.681056
0.800351 0.000000 0.665736
0.914549 0.000000 0.646937
0.146975 0.307225 0.581018
0.169619 0.304112 0.584405
0.240085 0.293797 0.597009
0.357641 0.282017 0.619715
0.500298 0.253758 0.649439
0.662379 0.196933 0.675502
0.798123 0.121492 0.660853
0.913115 0.087709 0.641871
0.155520 0.385840 0.530999
0.174472 0.383673 0.530419
0.229618 0.378424 0.533440
0.314183 0.376806 0.560052
0.450233 0.374243 0.606470
0.633509 0.361913 0.654780
0.781979 0.334813 0.642329
0.904051 0.351568 0.632654
0.161349 0.460395 0.501244
0.178622 0.460914 0.502617
0.230655 0.462989 0.507958
0.308476 0.468757 0.521538
0.417792 0.479194 0.546746
0.597986 0.517418 0.616205
0.774655 0.525566 0.636652
0.879179 0.517632 0.617334
0.176425 0.525994 0.473976
0.191989 0.528527 0.476326
0.239689 0.534386 0.481819
0.313146 0.547356 0.494026
0.420111 0.569787 0.516136
0.580438 0.613153 0.562432
0.740261 0.657527 0.615869
0.871458 0.679255 0.636408
0.228183 0.666560 0.516808
0.242405 0.667811 0.517632
0.292241 0.676539 0.524285
0.356268 0.686519 0.526452
0.440497 0.698085 0.525444
0.548211 0.713466 0.523583
0.690974 0.712978 0.513237
0.786557 0.650538 0.490059
0.252628 0.146487 0.773129
0.273777 0.140169 0.774838
0.336522 0.108248 0.776883
0.429603 0.000000 0.783810
0.541650 0.000000 0.793393
0.667842 0.000000 0.805814
0.794247 0.000000 0.803098
0.906126 0.000000 0.782589
0.245121 0.171298 0.767330
0.266697 0.166018 0.769100
0.330358 0.141512 0.772061
0.423774 0.068147 0.778714
0.536431 0.000000 0.788968
0.663539 0.000000 0.801999
0.790677 0.000000 0.799496
0.903349 0.000000 0.779263
0.219486 0.238529 0.755856
0.242679 0.234989 0.757259
0.309209 0.218936 0.759731
0.408453 0.189700 0.770443
0.523461 0.114199 0.781094
0.652918 0.000000 0.794614
0.784665 0.000000 0.795132
0.900633 0.000000 0.775601
0.165743 0.323308 0.738216
0.195987 0.321691 0.740383
0.273289 0.312261 0.744442
0.379095 0.295506 0.754513
0.500786 0.263798 0.768246
0.636561 0.201450 0.785183
0.776944 0.058869 0.791592
0.898222 0.000000 0.772702
0.143221 0.417517 0.700435
0.167697 0.416236 0.703548
0.231327 0.408087 0.710780
0.328588 0.394720 0.727535
0.462074 0.380804 0.744503
0.608423 0.356756 0.766415
0.763790 0.322728 0.784421
0.892882 0.304356 0.768490
0.119783 0.512230 0.675990
0.143587 0.509911 0.675349
0.206638 0.502800 0.675319
0.291539 0.491371 0.679316
0.409491 0.483772 0.697780
0.580346 0.499153 0.738766
0.757839 0.519921 0.778744
0.885313 0.521935 0.767483
0.107546 0.609247 0.659449
0.133974 0.608362 0.659327
0.200198 0.605951 0.660090
0.289860 0.604303 0.664881
0.403906 0.603998 0.674311
0.549859 0.611994 0.692500
0.734218 0.658137 0.744076
0.869566 0.675868 0.759335
0.114260 0.704555 0.644282
0.138766 0.704189 0.643885
0.205325 0.704707 0.644617
0.297307 0.707668 0.648188
0.410834 0.712276 0.654505
0.551476 0.720333 0.666804
0.717861 0.741543 0.697780
0.847196 0.782284 0.750607
