data/fiter_cube/28334299/1023167/file.cube
# Created by Adobe Lightroom plugin Export LUT (1.17.0)
# www.johnrellis.com/lightroom/exportlut.htm
# Preset: 梦幻人像_06 云集
# Color profile: C:\Program Files (x86)\Common Files\Adobe\Color\Profiles\Recommended\AdobeRGB1998.icc
LUT_3D_SIZE 5
DOMAIN_MIN 0.000000 0.000000 0.000000
DOMAIN_MAX 0.903226 0.903226 0.903226
0.000000 0.000000 0.000000
0.294102 0.000000 0.007294
0.589136 0.000000 0.000000
0.806607 0.000000 0.007599
0.986816 0.000000 0.145144
0.000000 0.248539 0.121279
0.228244 0.247776 0.072969
0.579644 0.256870 0.000000
0.801907 0.227756 0.080385
0.986236 0.244999 0.175631
0.079286 0.534234 0.272709
0.186069 0.552209 0.246433
0.485420 0.524529 0.189487
0.785031 0.512718 0.200839
0.973938 0.496986 0.261540
0.264042 0.746578 0.424323
0.349310 0.754543 0.436622
0.410986 0.780117 0.378637
0.676783 0.725032 0.347173
0.934203 0.731594 0.389593
0.465126 0.919829 0.590509
0.519615 0.921538 0.606775
0.572625 0.930297 0.594202
0.658991 0.945373 0.580072
0.862943 0.915038 0.561364
0.059510 0.078340 0.193179
0.262425 0.000000 0.216434
0.577020 0.000000 0.215244
0.794858 0.000000 0.199008
0.980743 0.000000 0.232609
0.027985 0.223972 0.199435
0.259098 0.246738 0.225132
0.574273 0.220096 0.215427
0.791836 0.202518 0.218112
0.978576 0.227787 0.252476
0.089509 0.512779 0.309941
0.265721 0.530938 0.327184
0.491981 0.518212 0.274754
0.781247 0.508232 0.294041
0.970367 0.495766 0.324071
0.266270 0.737423 0.445411
0.358923 0.744869 0.461616
0.458381 0.770962 0.436713
0.683162 0.723842 0.395453
0.936431 0.731746 0.431342
0.454749 0.917021 0.597833
0.510155 0.918730 0.613306
0.599237 0.929320 0.624659
0.670924 0.946777 0.606683
0.866880 0.915923 0.581842
0.095552 0.125185 0.423438
0.273960 0.000000 0.435767
0.541344 0.000000 0.459174
0.777554 0.000000 0.445747
0.975280 0.000000 0.418463
0.122713 0.241093 0.433722
0.258244 0.219120 0.448402
0.547265 0.135744 0.468757
0.775845 0.167239 0.444862
0.975586 0.096712 0.415991
0.000000 0.472786 0.432258
0.236881 0.485054 0.445991
0.529290 0.507378 0.476173
0.764858 0.491218 0.468269
0.966491 0.476326 0.462562
0.224277 0.707027 0.498360
0.323064 0.712856 0.510430
0.551263 0.734585 0.563134
0.704585 0.721035 0.523888
0.947173 0.733577 0.553735
0.422217 0.904875 0.626825
0.474281 0.908049 0.637812
0.615656 0.918975 0.674739
0.702907 0.940490 0.665705
0.874784 0.914183 0.636439
0.187503 0.221714 0.629969
0.292180 0.179782 0.635309
0.509392 0.000000 0.651789
0.752895 0.000000 0.657252
0.954894 0.018921 0.649561
0.221530 0.258366 0.634974
0.303532 0.242191 0.639612
0.504601 0.154391 0.656886
0.752285 0.000000 0.659876
0.953857 0.216831 0.649042
0.244480 0.475502 0.630579
0.328008 0.478950 0.636713
0.502831 0.467262 0.659388
0.747860 0.428656 0.669429
0.954681 0.440284 0.651362
0.178744 0.675898 0.631891
0.280949 0.679347 0.636622
0.494026 0.690303 0.652461
0.727413 0.705928 0.676631
0.949798 0.688624 0.665431
0.353735 0.882963 0.681880
0.407294 0.886107 0.688930
0.552514 0.898100 0.714229
0.755184 0.921599 0.770352
0.892332 0.914000 0.735195
0.360937 0.415808 0.842802
0.402319 0.397620 0.846220
0.529870 0.317601 0.856382
0.728634 0.000000 0.871519
0.950286 0.000000 0.860472
0.365759 0.417700 0.845304
0.405249 0.400183 0.848661
0.529656 0.322271 0.858579
0.726833 0.000000 0.873869
0.950195 0.000000 0.862913
0.391608 0.528618 0.846464
0.427039 0.522850 0.850919
0.532708 0.487831 0.860777
0.713802 0.393408 0.877134
0.947936 0.348730 0.870237
0.383215 0.700038 0.843076
0.427283 0.700710 0.845487
0.550744 0.700587 0.853330
0.704829 0.675532 0.874998
0.939788 0.631128 0.882292
0.315373 0.880278 0.846616
0.350835 0.881590 0.848203
0.491707 0.885222 0.855009
0.683619 0.893339 0.869322
0.920958 0.911254 0.898039
