data/fiter_cube/28334299/1023167/file.cube
# Created by Adobe Lightroom plugin Export LUT (1.17.0)
# www.johnrellis.com/lightroom/exportlut.htm
# Preset: 梦幻人像_06 云集
# Color profile: C:\Program Files (x86)\Common Files\Adobe\Color\Profiles\Recommended\AdobeRGB1998.icc
LUT_3D_SIZE 8
DOMAIN_MIN 0.000000 0.000000 0.000000
DOMAIN_MAX 0.903226 0.903226 0.903226
0.000000 0.000000 0.000000
0.155306 0.000000 0.008820
0.339666 0.000000 0.003388
0.511559 0.000000 0.000000
0.659907 0.000000 0.000000
0.779690 0.000000 0.000000
0.884825 0.000000 0.081056
0.986816 0.000000 0.145144
0.048127 0.129793 0.071565
0.123293 0.131289 0.058350
0.327794 0.146395 0.006622
0.504326 0.126589 0.000000
0.655512 0.089204 0.000000
0.773648 0.044129 0.001984
0.879637 0.059297 0.088746
0.983337 0.124086 0.151064
0.000000 0.289982 0.140475
0.071901 0.300725 0.118898
0.264591 0.287724 0.081819
0.488960 0.304936 0.038148
0.654841 0.293767 0.035431
0.772366 0.274205 0.082734
0.882139 0.268284 0.129152
0.984436 0.281132 0.183749
0.000000 0.454414 0.225589
0.119783 0.461921 0.224002
0.169284 0.484504 0.156161
0.417945 0.452583 0.149477
0.624689 0.460578 0.140475
0.770352 0.442390 0.158541
0.877531 0.426642 0.186862
0.978576 0.426215 0.231479
0.131106 0.605707 0.317937
0.183536 0.610315 0.320409
0.235019 0.624598 0.292882
0.337072 0.642481 0.255222
0.544427 0.587457 0.229191
0.713191 0.575219 0.223301
0.860563 0.573144 0.256931
0.969207 0.567315 0.296239
0.235569 0.718532 0.401221
0.269993 0.723171 0.406989
0.329259 0.731502 0.404242
0.362036 0.746822 0.364965
0.490974 0.744686 0.351720
0.650477 0.697871 0.321630
0.803586 0.687800 0.322698
0.945312 0.702785 0.372625
0.345220 0.823453 0.491493
0.368414 0.825376 0.496590
0.433570 0.829740 0.509850
0.457801 0.839994 0.488533
0.496132 0.853666 0.459602
0.624659 0.841032 0.457557
0.755428 0.805753 0.430030
0.897154 0.802792 0.441657
0.465126 0.919829 0.590509
0.481971 0.920256 0.595239
0.536461 0.922271 0.612360
0.566766 0.928954 0.607721
0.584985 0.935485 0.583398
0.635035 0.945464 0.577111
0.747616 0.933318 0.572717
0.862943 0.915038 0.561364
0.045686 0.056275 0.105959
0.139742 0.000000 0.114229
0.329992 0.000000 0.122103
0.506065 0.000000 0.099825
0.654078 0.000000 0.095705
0.770932 0.000000 0.107301
0.877104 0.000000 0.132692
0.981384 0.000000 0.174624
0.042786 0.119265 0.105287
0.139132 0.132448 0.119081
0.326787 0.117861 0.114534
0.501732 0.078798 0.104555
0.652522 0.000000 0.101534
0.768002 0.000000 0.113405
0.873350 0.000000 0.137881
0.977874 0.108949 0.178958
0.014099 0.278660 0.162966
0.133425 0.291234 0.170108
0.272984 0.288762 0.138399
0.489754 0.298863 0.132692
0.648493 0.284855 0.128573
0.765438 0.266636 0.141054
0.873075 0.260716 0.165560
0.977996 0.274144 0.206302
0.050111 0.444129 0.241123
0.142092 0.451942 0.244938
0.208286 0.475654 0.203708
0.416541 0.446174 0.184573
0.618372 0.452125 0.179080
0.759518 0.434821 0.193179
0.868162 0.420111 0.212253
0.972473 0.421118 0.248905
0.144533 0.598840 0.329290
0.191440 0.602991 0.331701
0.264469 0.616815 0.318090
0.341436 0.636957 0.278172
0.542260 0.581750 0.249912
0.710994 0.571313 0.243778
0.857816 0.570001 0.278325
0.965454 0.564660 0.311284
0.237888 0.712734 0.407294
0.268711 0.715297 0.410986
0.344823 0.723659 0.417304
0.377142 0.739895 0.381750
0.493965 0.742031 0.367773
0.651209 0.696101 0.336797
0.803281 0.686519 0.335790
0.943847 0.700740 0.384100
0.341131 0.817868 0.492866
0.362646 0.818784 0.496681
0.435248 0.823636 0.513756
0.466896 0.834989 0.498177
0.502373 0.850248 0.468940
0.626276 0.838926 0.467597
0.753933 0.802579 0.437324
0.894621 0.799435 0.445930
0.459327 0.917082 0.590356
0.476783 0.917815 0.595392
0.531975 0.920073 0.612573
0.572290 0.926696 0.614221
0.594659 0.936217 0.594415
0.640375 0.945525 0.584955
0.748745 0.932921 0.578973
0.862516 0.913725 0.565240
0.059480 0.083436 0.226993
0.150301 0.030884 0.234958
0.305638 0.000000 0.253330
0.490669 0.000000 0.265904
0.649683 0.000000 0.247166
0.769924 0.000000 0.223911
0.876890 0.000000 0.237369
0.982574 0.000000 0.256992
0.072694 0.133059 0.233951
0.145174 0.121981 0.243900
0.309148 0.069306 0.257969
0.490822 0.000000 0.260044
0.649073 0.000000 0.239872
0.766232 0.000000 0.232181
0.873991 0.000000 0.241001
0.980407 0.051789 0.260838
0.001160 0.261295 0.233555
0.127108 0.270390 0.243076
0.300053 0.285863 0.262119
0.487373 0.274144 0.258274
0.646784 0.259770 0.253941
0.763333 0.249973 0.253361
0.871641 0.248661 0.260258
0.977508 0.264073 0.280186
0.005982 0.424537 0.282261
0.135134 0.432593 0.289250
0.295140 0.454963 0.311986
0.435035 0.448585 0.281193
0.635126 0.454139 0.294865
0.757656 0.433021 0.292729
0.867765 0.419837 0.297673
0.972930 0.420417 0.316777
0.131563 0.582849 0.358190
0.188663 0.587732 0.363378
0.316930 0.601953 0.380743
0.382635 0.626673 0.347997
0.556298 0.584680 0.324010
0.721492 0.574548 0.321355
0.859403 0.572717 0.353155
0.964752 0.566705 0.369970
0.232578 0.703792 0.429145
0.267979 0.706142 0.434058
0.364019 0.713497 0.450263
0.433387 0.728603 0.443122
0.512932 0.741695 0.425849
0.658076 0.694575 0.388495
0.808499 0.687465 0.382940
0.947448 0.702846 0.433173
0.337835 0.813046 0.509148
0.360967 0.814145 0.513451
0.432593 0.818387 0.529046
0.507927 0.827939 0.540459
0.539666 0.843809 0.514641
0.640253 0.839811 0.509514
0.761166 0.803799 0.476234
0.900816 0.803342 0.480873
0.448768 0.914519 0.598566
0.464210 0.914855 0.602014
0.520531 0.916838 0.618067
0.595239 0.923064 0.640833
0.616571 0.932891 0.622004
0.654505 0.943877 0.607416
0.755184 0.933959 0.603052
0.866606 0.914641 0.586053
0.073793 0.108644 0.359106
0.163455 0.078462 0.364630
0.307836 0.000000 0.380713
0.467842 0.000000 0.393591
0.629175 0.000000 0.399847
0.756344 0.000000 0.380652
0.868406 0.000000 0.361852
0.979248 0.000000 0.346593
0.108461 0.132418 0.368353
0.168887 0.121706 0.372808
0.303899 0.028138 0.387488
0.471046 0.000000 0.397681
0.630823 0.000000 0.399603
0.755337 0.000000 0.379065
0.867033 0.000000 0.360357
0.978607 0.000000 0.344579
0.096651 0.272709 0.365972
0.158633 0.273228 0.372351
0.286564 0.258732 0.393194
0.472450 0.225803 0.404852
0.632593 0.235172 0.399512
0.755489 0.217288 0.379431
0.869566 0.194705 0.362646
0.977173 0.228611 0.371038
0.000000 0.404791 0.367742
0.115969 0.410437 0.373571
0.276921 0.425452 0.390417
0.459663 0.439399 0.409613
0.624079 0.430640 0.406439
0.746517 0.419043 0.400549
0.860960 0.409125 0.396674
0.971344 0.408301 0.401282
0.101442 0.555688 0.401068
0.164584 0.559930 0.405951
0.297765 0.574182 0.423835
0.460548 0.595026 0.457435
0.575860 0.583490 0.427131
0.734890 0.582666 0.444709
0.855131 0.573266 0.446265
0.963561 0.565179 0.448371
0.212772 0.689265 0.464088
0.251194 0.693111 0.469642
0.351202 0.699672 0.484138
0.485847 0.711391 0.514488
0.553491 0.734737 0.504753
0.673243 0.695216 0.469184
0.820615 0.692378 0.464027
0.953674 0.706935 0.511223
0.320684 0.802579 0.533196
0.344884 0.804349 0.537407
0.419104 0.809781 0.552331
0.529198 0.818936 0.581872
0.593469 0.835203 0.582574
0.661738 0.844450 0.572107
0.771664 0.804593 0.532494
0.908995 0.805661 0.529229
0.436255 0.910460 0.617395
0.452277 0.911315 0.620935
0.502556 0.913909 0.632349
0.584161 0.918914 0.655451
0.649744 0.927581 0.666316
0.677058 0.940764 0.644251
0.765103 0.935882 0.642267
0.872679 0.915404 0.618921
0.118929 0.145815 0.484657
0.182132 0.126162 0.488075
0.310857 0.000000 0.497749
0.454444 0.000000 0.513939
0.610681 0.000000 0.522271
0.740383 0.000000 0.513695
0.856809 0.000000 0.500145
0.970672 0.000000 0.487251
0.159396 0.143496 0.489143
0.201999 0.134707 0.492805
0.309728 0.085908 0.502617
0.453315 0.000000 0.518303
0.612543 0.000000 0.524956
0.740322 0.000000 0.514519
0.856779 0.000000 0.500267
0.970550 0.000000 0.486671
0.152804 0.278355 0.494209
0.191257 0.274327 0.500206
0.297734 0.255894 0.509850
0.445624 0.208804 0.525719
0.614008 0.175662 0.530999
0.737179 0.235813 0.516899
0.854765 0.216312 0.500114
0.969299 0.182834 0.483864
0.143496 0.407111 0.489509
0.190036 0.409369 0.493904
0.305821 0.415625 0.506981
0.440589 0.410712 0.529198
0.610620 0.388556 0.537926
0.733913 0.404273 0.521965
0.852659 0.380468 0.502800
0.969818 0.345953 0.480751
0.075380 0.535546 0.492866
0.148379 0.538750 0.496590
0.281132 0.548058 0.507408
0.434638 0.560632 0.523369
0.592554 0.569879 0.538170
0.723873 0.561700 0.534020
0.845121 0.549767 0.526635
0.961151 0.539971 0.521538
0.168399 0.660334 0.503777
0.208988 0.662318 0.506157
0.313176 0.669429 0.518242
0.448615 0.680903 0.541650
0.596826 0.697932 0.580194
0.686763 0.689265 0.555444
0.834897 0.699275 0.571374
0.952941 0.696712 0.575860
0.289067 0.784421 0.564355
0.313146 0.785672 0.567346
0.387427 0.790707 0.578729
0.496223 0.800320 0.601587
0.617853 0.815885 0.635798
0.680903 0.841154 0.631830
0.781521 0.802731 0.592615
0.920287 0.804471 0.586328
0.407446 0.899748 0.639826
0.423133 0.900450 0.642451
0.474525 0.903136 0.651972
0.553094 0.910674 0.670375
0.650416 0.919585 0.697169
0.713588 0.932860 0.700862
0.776577 0.938415 0.693385
0.878996 0.914397 0.659663
0.172396 0.204379 0.604700
0.214084 0.191531 0.606470
0.316808 0.134554 0.611749
0.445869 0.000000 0.621393
0.585657 0.000000 0.632197
0.727047 0.000000 0.632105
0.845121 0.000000 0.622095
0.959472 0.000000 0.619165
0.197879 0.196628 0.605097
0.232151 0.183871 0.606622
0.324956 0.128481 0.612055
0.443122 0.000000 0.622278
0.584436 0.000000 0.633417
0.726375 0.000000 0.632349
0.844236 0.000000 0.622095
0.958984 0.090761 0.618769
0.208682 0.286870 0.611688
0.237278 0.282780 0.612909
0.320378 0.266392 0.617914
0.438361 0.230594 0.628321
0.581903 0.158297 0.640131
0.726986 0.135500 0.636805
0.843687 0.223575 0.625635
0.959197 0.238651 0.619287
0.234531 0.418158 0.606104
0.262242 0.418799 0.608698
0.336706 0.417365 0.620050
0.441749 0.403113 0.633570
0.576715 0.365728 0.647028
0.726802 0.355077 0.644404
0.842771 0.394903 0.634668
0.960418 0.372778 0.620874
0.206821 0.533043 0.606012
0.239506 0.534386 0.608270
0.330480 0.538689 0.614893
0.452674 0.546166 0.625147
0.573480 0.544091 0.641321
0.716884 0.525902 0.647517
0.837186 0.533837 0.638361
0.958556 0.502770 0.618372
0.157198 0.648859 0.604608
0.199252 0.650874 0.607111
0.301640 0.655604 0.613306
0.429114 0.662379 0.622827
0.567224 0.669978 0.634577
0.701228 0.679133 0.648920
0.831540 0.671199 0.644556
0.953613 0.660517 0.637629
0.243015 0.764950 0.614832
0.269749 0.766415 0.616632
0.346654 0.769741 0.621302
0.453986 0.776577 0.633417
0.579736 0.790188 0.660670
0.713375 0.812955 0.700740
0.796567 0.801663 0.671168
0.937591 0.809567 0.684230
0.367559 0.887205 0.672755
0.383551 0.887907 0.674739
0.436103 0.890745 0.682185
0.516411 0.897124 0.696498
0.611353 0.907042 0.716548
0.731594 0.920684 0.752987
0.797665 0.939757 0.757351
0.889403 0.914305 0.717983
0.244480 0.288365 0.714412
0.268406 0.280095 0.715511
0.340581 0.248478 0.719722
0.444068 0.172610 0.727138
0.568933 0.000000 0.738125
0.704677 0.000000 0.743679
0.834867 0.000000 0.738979
0.949157 0.000000 0.732021
0.255375 0.286076 0.716121
0.277623 0.278141 0.717159
0.346166 0.246921 0.721187
0.446937 0.171176 0.728298
0.569299 0.000000 0.739376
0.704768 0.000000 0.745541
0.835569 0.000000 0.740536
0.949676 0.000000 0.733242
0.272038 0.310399 0.719203
0.291600 0.306645 0.720333
0.353429 0.292180 0.724208
0.447791 0.261265 0.731960
0.565515 0.195193 0.742367
0.702449 0.084657 0.749355
0.835447 0.014313 0.743435
0.949065 0.208560 0.735286
0.296757 0.432654 0.718990
0.314183 0.431434 0.721157
0.369055 0.425055 0.727749
0.451545 0.405310 0.734615
0.561089 0.368811 0.744564
0.696803 0.316747 0.754025
0.833860 0.309972 0.748135
0.947997 0.362310 0.739620
0.304997 0.542687 0.715023
0.325353 0.543633 0.716396
0.389075 0.546654 0.720974
0.473579 0.547295 0.731075
0.565118 0.529198 0.744442
0.687800 0.488716 0.758114
0.830594 0.481514 0.755001
0.945983 0.511833 0.748043
0.275517 0.648371 0.715450
0.297368 0.649165 0.716762
0.364508 0.651728 0.720974
0.461311 0.655818 0.727810
0.574823 0.661982 0.737453
0.683223 0.655848 0.755001
0.823453 0.637110 0.761837
0.945098 0.639796 0.752163
0.227298 0.757595 0.715602
0.252689 0.758389 0.716670
0.327428 0.761196 0.720668
0.429786 0.765560 0.727199
0.550347 0.771817 0.736843
0.674434 0.780789 0.750271
0.809110 0.790890 0.766171
0.940063 0.781796 0.760037
0.306401 0.874571 0.731838
0.324376 0.875273 0.732753
0.380285 0.877409 0.735592
0.465095 0.881437 0.741115
0.565240 0.888212 0.750271
0.684230 0.901762 0.776791
0.826963 0.921904 0.824735
0.904417 0.914611 0.797787
0.360937 0.415808 0.842802
0.373297 0.410498 0.843717
0.415656 0.391028 0.847318
0.485695 0.350103 0.852873
0.579858 0.271946 0.860472
0.695918 0.000000 0.869963
0.829252 0.000000 0.872404
0.950286 0.000000 0.860472
0.363470 0.416144 0.843778
0.375586 0.410895 0.844694
0.417121 0.391638 0.848173
0.486397 0.351202 0.853788
0.580011 0.273686 0.861234
0.695735 0.000000 0.870756
0.829191 0.000000 0.873289
0.950469 0.000000 0.861448
0.365942 0.418982 0.846159
0.377691 0.414160 0.847135
0.418097 0.395483 0.850584
0.485725 0.355718 0.855802
0.578241 0.280247 0.863279
0.693263 0.126619 0.872526
0.826902 0.000000 0.875486
0.950195 0.000000 0.863767
0.376562 0.473152 0.848753
0.387366 0.470405 0.849577
0.424872 0.459907 0.852476
0.488289 0.438209 0.857359
0.575738 0.399542 0.864378
0.686549 0.330755 0.873716
0.821225 0.264286 0.878630
0.949004 0.256748 0.867582
0.407874 0.582788 0.842954
0.417853 0.581781 0.844144
0.451698 0.577752 0.848569
0.505760 0.566003 0.856626
0.579370 0.539117 0.864164
0.679957 0.493935 0.874083
0.812070 0.437812 0.882628
0.946166 0.435401 0.873167
0.391089 0.676265 0.843046
0.404608 0.676539 0.843809
0.448585 0.677180 0.846281
0.516594 0.677180 0.850523
0.593744 0.671595 0.859068
0.678035 0.646479 0.872526
0.798947 0.601862 0.885588
0.941222 0.591943 0.880064
0.355566 0.774990 0.844358
0.369665 0.775235 0.845029
0.415564 0.775845 0.847379
0.487373 0.776608 0.851377
0.575616 0.777066 0.857603
0.681666 0.778408 0.866514
0.794186 0.772457 0.883299
0.933745 0.753506 0.889494
0.315373 0.880278 0.846616
0.315740 0.880766 0.846830
0.366674 0.881926 0.848875
0.445747 0.883818 0.852445
0.540490 0.887022 0.858183
0.652064 0.891844 0.866636
0.785092 0.899229 0.879362
0.920958 0.911254 0.898039
