data/fiter_cube/28334299/1023167/file.cube
# Created by Adobe Lightroom plugin Export LUT (1.17.0)
# www.johnrellis.com/lightroom/exportlut.htm
# Preset: 梦幻人像_06 云集
# Color profile: C:\Program Files (x86)\Common Files\Adobe\Color\Profiles\Recommended\AdobeRGB1998.icc
LUT_3D_SIZE 32
DOMAIN_MIN 0.0 0.0 0.0
DOMAIN_MAX 1.0 1.0 1.0
0.000000 0.000000 0.000000
0.055055 0.000000 0.001740
0.082185 0.000488 0.001923
0.113527 0.002502 0.006867
0.155306 0.000000 0.008820
0.200931 0.000000 0.010620
0.247745 0.000000 0.009522
0.294102 0.000000 0.007294
0.339666 0.000000 0.003388
0.384070 0.000000 0.000000
0.427741 0.000000 0.000000
0.470375 0.000000 0.000000
0.511559 0.000000 0.000000
0.551263 0.000000 0.000000
0.589136 0.000000 0.000000
0.625513 0.000000 0.000000
0.659907 0.000000 0.000000
0.693233 0.000000 0.000000
0.724239 0.000000 0.000000
0.752407 0.000000 0.000000
0.779690 0.000000 0.000000
0.806607 0.000000 0.007599
0.833066 0.000000 0.039948
0.859098 0.000000 0.065187
0.884825 0.000000 0.081056
0.910369 0.000000 0.096468
0.935882 0.000000 0.111971
0.961303 0.000000 0.127901
0.986816 0.000000 0.145144
1.000000 0.042908 0.163790
1.000000 0.105135 0.184604
1.000000 0.146609 0.207370
0.004822 0.041047 0.010590
0.036835 0.042878 0.007446
0.077424 0.047364 0.007172
0.110750 0.047791 0.010010
0.152407 0.049226 0.012848
0.198550 0.045563 0.013489
0.245731 0.033814 0.012055
0.292149 0.016052 0.008789
0.337896 0.000000 0.003937
0.382544 0.000000 0.000000
0.426307 0.000000 0.000000
0.468940 0.000000 0.000000
0.510063 0.000000 0.000000
0.549706 0.000000 0.000000
0.587823 0.000000 0.000000
0.624109 0.000000 0.000000
0.658350 0.000000 0.000000
0.691920 0.000000 0.000000
0.722591 0.000000 0.000000
0.750607 0.000000 0.000000
0.777707 0.000000 0.000000
0.804654 0.000000 0.007935
0.831083 0.000000 0.040253
0.857206 0.000000 0.065064
0.882994 0.000000 0.080629
0.908629 0.000000 0.095796
0.934234 0.000000 0.111269
0.959808 0.000000 0.127626
0.985412 0.000000 0.144808
1.000000 0.063813 0.163455
1.000000 0.111696 0.183963
1.000000 0.150698 0.206760
0.009674 0.070832 0.024445
0.023590 0.072877 0.016022
0.067262 0.071473 0.016938
0.106264 0.073518 0.019074
0.149142 0.076143 0.019287
0.195682 0.076814 0.019532
0.243198 0.074495 0.016754
0.290074 0.069795 0.012146
0.336034 0.060029 0.004059
0.380774 0.034058 0.000000
0.424750 0.000000 0.000000
0.467506 0.000000 0.000000
0.508873 0.000000 0.000000
0.548669 0.000000 0.000000
0.586633 0.000000 0.000000
0.623072 0.000000 0.000000
0.657496 0.000000 0.000000
0.691066 0.000000 0.000000
0.721614 0.000000 0.000000
0.749569 0.000000 0.000000
0.776669 0.000000 0.000000
0.803586 0.000000 0.009491
0.830014 0.000000 0.041901
0.856168 0.000000 0.066224
0.881987 0.000000 0.081178
0.907622 0.000000 0.096345
0.933318 0.000000 0.111727
0.958923 0.000000 0.128054
0.984649 0.000000 0.145266
1.000000 0.081636 0.164034
1.000000 0.121126 0.184237
1.000000 0.157290 0.207095
0.029664 0.098024 0.052033
0.049256 0.099397 0.051240
0.056245 0.100740 0.041138
0.093599 0.099062 0.043061
0.139406 0.105867 0.040589
0.189639 0.109957 0.031586
0.238163 0.111482 0.023407
0.286381 0.109194 0.015167
0.332860 0.104891 0.004547
0.378363 0.098116 0.000000
0.422644 0.090120 0.000000
0.465705 0.079164 0.000000
0.507103 0.065339 0.000000
0.546929 0.035004 0.000000
0.585290 0.000000 0.000000
0.621607 0.000000 0.000000
0.656214 0.000000 0.000000
0.690211 0.000000 0.000000
0.720272 0.000000 0.000000
0.747890 0.000000 0.000000
0.774807 0.000000 0.000000
0.801602 0.000000 0.016907
0.828153 0.000000 0.049073
0.854551 0.000000 0.068879
0.880797 0.000000 0.083894
0.906828 0.000000 0.099184
0.932769 0.000000 0.114260
0.958556 0.020630 0.130526
0.984283 0.080018 0.147677
1.000000 0.111666 0.166018
1.000000 0.141756 0.186374
1.000000 0.172732 0.208682
0.048127 0.129793 0.071565
0.062715 0.131807 0.072084
0.064485 0.133303 0.066499
0.078004 0.135317 0.058930
0.123293 0.131289 0.058350
0.173129 0.139193 0.050690
0.229099 0.145998 0.034211
0.279973 0.147433 0.019562
0.327794 0.146395 0.006622
0.373938 0.143526 0.000000
0.418891 0.138918 0.000000
0.462470 0.133028 0.000000
0.504326 0.126589 0.000000
0.544579 0.119234 0.000000
0.583093 0.109865 0.000000
0.619928 0.100069 0.000000
0.655512 0.089204 0.000000
0.689448 0.079408 0.000000
0.719387 0.068299 0.000000
0.746883 0.059113 0.000000
0.773648 0.044129 0.001984
0.800381 0.037537 0.029480
0.826902 0.038300 0.059144
0.853361 0.045289 0.074495
0.879637 0.059297 0.088746
0.905791 0.071962 0.103212
0.931762 0.087251 0.118318
0.957610 0.104891 0.134005
0.983337 0.124086 0.151064
1.000000 0.144869 0.169375
1.000000 0.167910 0.189303
1.000000 0.193973 0.211673
0.043702 0.166049 0.086885
0.060304 0.168582 0.087129
0.065278 0.170352 0.083162
0.068818 0.173220 0.070130
0.105257 0.173800 0.063478
0.155673 0.167636 0.063264
0.208133 0.173983 0.057862
0.266239 0.183474 0.035523
0.321721 0.185489 0.014801
0.369177 0.184970 0.000000
0.415015 0.182895 0.000000
0.459327 0.179477 0.000000
0.501579 0.174990 0.000000
0.542382 0.169589 0.000000
0.581323 0.163699 0.000000
0.618402 0.157443 0.000000
0.655360 0.151278 0.000000
0.688869 0.145266 0.000000
0.718654 0.139376 0.000000
0.746242 0.134340 0.000000
0.773129 0.129763 0.019196
0.799954 0.127352 0.048737
0.837858 0.132448 0.076417
0.863920 0.134249 0.090211
0.889616 0.137148 0.103456
0.915007 0.142153 0.117342
0.940154 0.150088 0.131838
0.965148 0.159976 0.147066
0.990082 0.172702 0.163424
1.000000 0.188083 0.181277
1.000000 0.206271 0.201022
1.000000 0.227848 0.222843
0.024994 0.207675 0.103853
0.046601 0.209964 0.103517
0.061891 0.212314 0.101747
0.066682 0.215152 0.090608
0.075959 0.219333 0.068421
0.138674 0.216464 0.068086
0.192416 0.208164 0.067048
0.246036 0.211429 0.062745
0.305882 0.222904 0.039796
0.363745 0.226535 0.014130
0.413794 0.226200 0.000000
0.459083 0.224033 0.000000
0.502068 0.220920 0.000000
0.543297 0.216739 0.000000
0.582361 0.211978 0.000000
0.620447 0.207279 0.000000
0.658076 0.202701 0.000000
0.691157 0.197787 0.000000
0.720882 0.192416 0.000000
0.748684 0.187625 0.022553
0.776303 0.184665 0.049042
0.804166 0.182071 0.068696
0.831968 0.181430 0.082734
0.859403 0.181796 0.095979
0.886320 0.183902 0.109773
0.912444 0.187259 0.123629
0.938018 0.192447 0.137850
0.963195 0.199496 0.152956
0.988251 0.209049 0.168673
1.000000 0.220981 0.186343
1.000000 0.236027 0.205631
1.000000 0.254368 0.227390
0.000000 0.248539 0.121279
0.021210 0.250462 0.121004
0.052064 0.253056 0.120150
0.063081 0.255680 0.111116
0.071260 0.259770 0.092622
0.100832 0.264134 0.075105
0.173587 0.257298 0.074311
0.228244 0.247776 0.072969
0.281529 0.247196 0.070466
0.341711 0.259892 0.052522
0.399420 0.265171 0.027893
0.453803 0.265537 0.006561
0.497810 0.263645 0.000000
0.539483 0.260533 0.000000
0.579644 0.256870 0.000000
0.619654 0.253117 0.000000
0.656428 0.249088 0.000000
0.689265 0.243931 0.007813
0.718837 0.238834 0.026154
0.746578 0.234226 0.050690
0.774136 0.230198 0.067903
0.801907 0.227756 0.080385
0.829648 0.226291 0.092927
0.857084 0.225864 0.105745
0.884001 0.226963 0.118502
0.910216 0.229191 0.131685
0.935821 0.232456 0.145113
0.961120 0.237675 0.159731
0.986236 0.244999 0.175631
1.000000 0.254582 0.192599
1.000000 0.267277 0.211643
1.000000 0.283116 0.233188
0.000000 0.289982 0.140475
0.000000 0.291569 0.139742
0.030488 0.293736 0.139345
0.063691 0.297002 0.134157
0.071901 0.300725 0.118898
0.082094 0.305486 0.093355
0.135225 0.308171 0.085328
0.209964 0.298680 0.083406
0.264591 0.287724 0.081819
0.318151 0.284825 0.079835
0.376867 0.296910 0.066072
0.434211 0.303441 0.053132
0.488960 0.304936 0.038148
0.536522 0.303532 0.027832
0.578882 0.301457 0.025513
0.618280 0.298070 0.026642
0.654841 0.293767 0.035431
0.687556 0.288518 0.048737
0.717006 0.283085 0.061433
0.744808 0.278050 0.071901
0.772366 0.274205 0.082734
0.800168 0.271061 0.093538
0.827848 0.269047 0.105135
0.855253 0.268040 0.117006
0.882139 0.268284 0.129152
0.908354 0.269230 0.141329
0.934020 0.271519 0.154543
0.959319 0.275395 0.168429
0.984436 0.281132 0.183749
1.000000 0.289036 0.200656
1.000000 0.299565 0.219333
1.000000 0.313390 0.240421
0.000000 0.331365 0.160067
0.000000 0.332830 0.159548
0.015412 0.334447 0.159243
0.067781 0.338048 0.157015
0.076295 0.341283 0.144656
0.086824 0.345586 0.125246
0.104921 0.350927 0.097261
0.177523 0.349737 0.097993
0.247318 0.339300 0.095705
0.301061 0.327306 0.093538
0.352911 0.321508 0.090822
0.410529 0.332738 0.081392
0.468635 0.341344 0.074708
0.524163 0.344945 0.070039
0.576776 0.344610 0.067231
0.616510 0.341711 0.067201
0.653315 0.337407 0.069886
0.686122 0.332250 0.074495
0.715816 0.326452 0.082063
0.743526 0.320958 0.090547
0.770993 0.316472 0.099001
0.798459 0.312840 0.108522
0.825803 0.310155 0.118624
0.852811 0.308446 0.129335
0.879515 0.307713 0.140322
0.905730 0.308019 0.152010
0.931548 0.309392 0.164431
0.957061 0.312200 0.177951
0.982391 0.316869 0.192935
1.000000 0.323644 0.209567
1.000000 0.332860 0.228367
1.000000 0.345037 0.249332
0.000000 0.371801 0.180606
0.000000 0.372900 0.180423
0.009583 0.374517 0.179995
0.072328 0.377996 0.179416
0.086275 0.381109 0.170535
0.095552 0.385351 0.154788
0.107240 0.390723 0.131289
0.143160 0.395850 0.114595
0.219211 0.390875 0.113954
0.285039 0.379339 0.111238
0.338109 0.367193 0.108522
0.388067 0.359075 0.105745
0.446509 0.370459 0.100374
0.503410 0.379278 0.094301
0.557275 0.383337 0.092561
0.607904 0.383490 0.092226
0.650446 0.379950 0.092866
0.683436 0.374548 0.096864
0.713222 0.368505 0.101717
0.741176 0.362524 0.108370
0.768734 0.357641 0.116243
0.796384 0.353491 0.124514
0.823850 0.350439 0.133364
0.850950 0.348333 0.143069
0.877653 0.346929 0.153689
0.903838 0.346502 0.164523
0.929564 0.347082 0.176425
0.955016 0.349004 0.189242
0.980316 0.352667 0.203769
1.000000 0.358190 0.219699
1.000000 0.366217 0.238010
1.000000 0.376959 0.258885
0.000000 0.412055 0.201968
0.000000 0.413092 0.201999
0.023407 0.414466 0.201846
0.077638 0.417273 0.201694
0.100649 0.420813 0.196597
0.109865 0.424659 0.183963
0.120516 0.429694 0.166079
0.132387 0.435615 0.139406
0.182467 0.440803 0.135317
0.262028 0.432807 0.133700
0.324987 0.421332 0.130800
0.376623 0.408667 0.126925
0.430732 0.403937 0.126864
0.489143 0.414191 0.123903
0.545495 0.423255 0.119020
0.598016 0.427375 0.119295
0.646448 0.427131 0.120821
0.688746 0.422492 0.124361
0.718837 0.415351 0.128359
0.746487 0.408728 0.133944
0.773861 0.402869 0.139956
0.800992 0.398169 0.146853
0.827848 0.394171 0.154330
0.854429 0.391272 0.162783
0.880613 0.388983 0.172244
0.906371 0.387915 0.182376
0.931640 0.387579 0.193179
0.956634 0.388647 0.205478
0.981445 0.391272 0.219242
1.000000 0.395758 0.234775
1.000000 0.402625 0.252598
1.000000 0.412055 0.272953
0.000000 0.454414 0.225589
0.014893 0.455329 0.225620
0.057008 0.456458 0.225589
0.089906 0.458717 0.225650
0.119783 0.461921 0.224002
0.127687 0.465278 0.213321
0.137697 0.470619 0.198917
0.149111 0.477211 0.179171
0.169284 0.484504 0.156161
0.230747 0.488441 0.159823
0.306645 0.477821 0.156863
0.367163 0.465766 0.153414
0.417945 0.452583 0.149477
0.461219 0.437598 0.144717
0.518608 0.446571 0.143709
0.573632 0.456123 0.138735
0.624689 0.460578 0.140475
0.669734 0.459785 0.143069
0.709377 0.454994 0.148318
0.742763 0.448493 0.153323
0.770352 0.442390 0.158541
0.797696 0.437110 0.164401
0.824643 0.432868 0.171145
0.851286 0.429297 0.178408
0.877531 0.426642 0.186862
0.903288 0.424750 0.196414
0.928679 0.423987 0.206851
0.953704 0.424414 0.218418
0.978576 0.426215 0.231479
1.000000 0.429999 0.246860
1.000000 0.435889 0.264317
1.000000 0.444373 0.284367
0.037018 0.494484 0.248692
0.063020 0.495277 0.248966
0.079194 0.496254 0.249180
0.105287 0.498573 0.249668
0.138094 0.502037 0.250431
0.148592 0.505577 0.242710
0.157534 0.510124 0.230625
0.167330 0.515648 0.214420
0.179141 0.522393 0.192660
0.213046 0.529076 0.180850
0.278172 0.528191 0.182223
0.347478 0.516716 0.178866
0.404150 0.503777 0.174411
0.452491 0.489448 0.169345
0.493904 0.473518 0.163760
0.547082 0.477760 0.162997
0.600305 0.487373 0.159304
0.648554 0.491310 0.160891
0.690913 0.490181 0.165347
0.728908 0.486091 0.171145
0.765042 0.480995 0.177523
0.794308 0.475593 0.183017
0.821500 0.470863 0.188876
0.848325 0.467048 0.195804
0.874693 0.463966 0.203128
0.900511 0.461616 0.211734
0.925963 0.460304 0.221744
0.951080 0.460090 0.232883
0.975982 0.461402 0.245518
1.000000 0.464424 0.260319
1.000000 0.469581 0.277501
1.000000 0.477241 0.297398
0.079286 0.534234 0.272709
0.089357 0.534966 0.272953
0.101198 0.535698 0.273167
0.123415 0.537530 0.273594
0.151858 0.540368 0.274540
0.169589 0.543572 0.270420
0.177157 0.547387 0.260044
0.186069 0.552209 0.246433
0.196353 0.558160 0.228702
0.208225 0.565270 0.205570
0.254124 0.571252 0.205722
0.322118 0.565759 0.205081
0.385748 0.553521 0.200412
0.439338 0.539879 0.195438
0.485420 0.524529 0.189487
0.524987 0.507774 0.182986
0.574121 0.507591 0.182467
0.625330 0.516930 0.179416
0.670832 0.520226 0.181216
0.711391 0.519402 0.187045
0.748745 0.516381 0.193729
0.785031 0.512718 0.200839
0.818173 0.508385 0.207462
0.845151 0.504173 0.213443
0.871641 0.500755 0.220615
0.897704 0.498116 0.228611
0.923400 0.496498 0.238102
0.948760 0.496101 0.248875
0.973938 0.496986 0.261540
0.998932 0.499702 0.276158
1.000000 0.504417 0.293187
1.000000 0.511498 0.313176
0.106233 0.571405 0.295811
0.113924 0.572137 0.296147
0.123323 0.572930 0.296452
0.142184 0.574578 0.297215
0.167422 0.577081 0.298314
0.191012 0.580377 0.297429
0.198093 0.583886 0.288762
0.206363 0.588434 0.277409
0.215763 0.593774 0.262486
0.226780 0.600061 0.244388
0.245701 0.606592 0.226108
0.294133 0.611566 0.231815
0.363226 0.600824 0.227543
0.422004 0.587671 0.221897
0.472297 0.573053 0.216007
0.515953 0.557061 0.209201
0.554009 0.539727 0.201755
0.599268 0.535729 0.200839
0.648707 0.544945 0.199649
0.692561 0.548272 0.202304
0.731899 0.548150 0.209262
0.769589 0.546715 0.216739
0.805844 0.544396 0.224613
0.840513 0.541375 0.232547
0.869444 0.537835 0.239872
0.895628 0.534905 0.247318
0.921416 0.532921 0.256229
0.946807 0.532097 0.266392
0.971954 0.532586 0.278752
0.996826 0.534691 0.292912
1.000000 0.538659 0.309483
1.000000 0.544945 0.328954
0.131106 0.605707 0.317937
0.137240 0.606165 0.318181
0.145022 0.606775 0.318334
0.160830 0.608209 0.319066
0.183536 0.610315 0.320409
0.210758 0.613184 0.322210
0.218967 0.616236 0.315038
0.226352 0.620081 0.305119
0.235019 0.624598 0.292882
0.245182 0.629877 0.277714
0.256229 0.635859 0.258793
0.286900 0.641138 0.251499
0.337072 0.642481 0.255222
0.400793 0.630732 0.249577
0.455024 0.617609 0.243320
0.502495 0.603235 0.236667
0.544427 0.587457 0.229191
0.581598 0.570520 0.220920
0.626917 0.566552 0.218601
0.671229 0.571923 0.220188
0.713191 0.575219 0.223301
0.752255 0.576257 0.231144
0.789914 0.576135 0.239719
0.826108 0.575097 0.248234
0.860563 0.573144 0.256931
0.892576 0.570459 0.266270
0.918486 0.568322 0.274601
0.943999 0.567163 0.284520
0.969207 0.567315 0.296239
0.994141 0.568963 0.310033
1.000000 0.572412 0.326207
1.000000 0.578180 0.345678
0.156497 0.637049 0.339178
0.161654 0.637568 0.339605
0.174380 0.644709 0.344671
0.188357 0.645808 0.345525
0.208072 0.647333 0.346746
0.232670 0.649470 0.348638
0.247105 0.651881 0.345403
0.253483 0.654810 0.336492
0.261418 0.658473 0.325994
0.270695 0.662715 0.313390
0.280705 0.667567 0.297948
0.291905 0.672908 0.279332
0.330877 0.676509 0.281834
0.382574 0.673274 0.282292
0.439399 0.661524 0.275883
0.489570 0.648524 0.268772
0.534386 0.634394 0.260990
0.574670 0.619165 0.252689
0.610834 0.602838 0.243626
0.655482 0.598474 0.239994
0.695552 0.600549 0.243748
0.736324 0.604150 0.248051
0.775357 0.606348 0.255833
0.812680 0.607324 0.264866
0.848234 0.606958 0.274266
0.881895 0.605737 0.283818
0.913725 0.603815 0.293828
0.941283 0.602014 0.303807
0.966339 0.601587 0.314672
0.991241 0.602747 0.328008
1.000000 0.605737 0.343908
1.000000 0.610803 0.362676
0.184207 0.667201 0.360998
0.189303 0.668330 0.361944
0.195834 0.669581 0.363012
0.208591 0.671199 0.364599
0.226963 0.673091 0.366430
0.249607 0.675135 0.368750
0.269688 0.677394 0.369024
0.275883 0.679957 0.361517
0.283146 0.683162 0.352514
0.291386 0.686854 0.341924
0.300786 0.691127 0.329290
0.310887 0.695949 0.314092
0.328374 0.700649 0.301793
0.367773 0.703792 0.307408
0.419928 0.696864 0.304631
0.471656 0.685237 0.297917
0.518151 0.672602 0.290257
0.560449 0.659174 0.282414
0.599298 0.644862 0.273808
0.634821 0.629633 0.264469
0.677028 0.623957 0.260197
0.716213 0.625635 0.265599
0.757168 0.630793 0.270878
0.796262 0.634211 0.278935
0.833371 0.636255 0.289036
0.868620 0.637110 0.299260
0.901946 0.636927 0.310216
0.933440 0.636255 0.321721
0.963317 0.635401 0.334295
0.988159 0.636133 0.347082
1.000000 0.638697 0.362493
1.000000 0.643275 0.381048
0.209964 0.693050 0.380957
0.214267 0.693996 0.381933
0.220401 0.695155 0.382971
0.231540 0.696498 0.384527
0.248112 0.698177 0.386419
0.268681 0.700008 0.389044
0.293004 0.701961 0.392157
0.298985 0.704372 0.385992
0.305669 0.707332 0.378332
0.313329 0.710780 0.369421
0.321904 0.714778 0.358831
0.331548 0.719203 0.346654
0.341711 0.723964 0.332097
0.367376 0.727932 0.328222
0.403784 0.731044 0.333989
0.455909 0.720668 0.327825
0.503258 0.709163 0.320562
0.546563 0.696956 0.313146
0.586603 0.683894 0.304845
0.623743 0.670192 0.296086
0.658228 0.655848 0.286992
0.698146 0.649104 0.282261
0.737881 0.651362 0.288182
0.778714 0.657832 0.294865
0.817716 0.662348 0.303227
0.854520 0.665400 0.314397
0.889311 0.667262 0.326024
0.922148 0.668299 0.338293
0.953246 0.668818 0.351690
0.982727 0.669276 0.365942
1.000000 0.670802 0.381445
1.000000 0.674952 0.399542
0.235569 0.718532 0.401221
0.239628 0.719417 0.402167
0.244846 0.720394 0.403265
0.254948 0.721706 0.404852
0.269993 0.723171 0.406989
0.288792 0.724819 0.409644
0.311070 0.726650 0.413001
0.323156 0.728847 0.410681
0.329259 0.731502 0.404242
0.336004 0.734676 0.396277
0.343877 0.738338 0.387396
0.352605 0.742428 0.376898
0.362036 0.746822 0.364965
0.372381 0.751614 0.351171
0.404700 0.754818 0.354986
0.443122 0.754788 0.358190
0.490974 0.744686 0.351720
0.535027 0.734035 0.345006
0.576013 0.722560 0.337530
0.614435 0.710567 0.329961
0.650477 0.697871 0.321630
0.684169 0.684413 0.312779
0.722072 0.676875 0.307469
0.762631 0.680049 0.314519
0.803586 0.687800 0.322698
0.842313 0.693477 0.332097
0.878721 0.697658 0.344732
0.912993 0.700587 0.358251
0.945312 0.702785 0.372625
0.975738 0.704646 0.388067
1.000000 0.706569 0.404761
1.000000 0.709071 0.423285
0.264042 0.746578 0.424323
0.267552 0.747127 0.425055
0.271824 0.747677 0.425727
0.280674 0.748531 0.427100
0.293950 0.749630 0.429145
0.311223 0.750912 0.431769
0.331884 0.752529 0.435309
0.349310 0.754543 0.436622
0.354772 0.757107 0.431037
0.361395 0.760098 0.424414
0.368780 0.763638 0.416999
0.377081 0.767453 0.408270
0.385779 0.771572 0.398169
0.395361 0.775937 0.386725
0.410986 0.780117 0.378637
0.443366 0.783047 0.384588
0.482643 0.779843 0.384619
0.526360 0.770138 0.377935
0.567346 0.759823 0.371069
0.605921 0.748867 0.363592
0.642420 0.737270 0.355657
0.676783 0.725032 0.347173
0.709255 0.712062 0.338231
0.744564 0.703243 0.331823
0.785550 0.706813 0.339452
0.826078 0.715663 0.349157
0.864469 0.722286 0.360113
0.900450 0.727474 0.374060
0.934203 0.731594 0.389593
0.965881 0.735042 0.406104
0.995758 0.738369 0.423896
1.000000 0.741970 0.443519
0.290013 0.771939 0.445716
0.293156 0.772427 0.446357
0.297032 0.772946 0.447150
0.305211 0.773709 0.448585
0.317510 0.774685 0.450721
0.333288 0.775814 0.453407
0.352483 0.777218 0.457099
0.374578 0.778866 0.461616
0.379736 0.781155 0.456672
0.385718 0.783841 0.450965
0.392554 0.787076 0.444526
0.400275 0.790524 0.437018
0.408209 0.794308 0.428351
0.417212 0.798367 0.418799
0.426612 0.802701 0.407965
0.448981 0.806180 0.406867
0.479530 0.809110 0.413153
0.519280 0.803189 0.410071
0.559869 0.794156 0.403784
0.598291 0.784573 0.396918
0.634974 0.774411 0.389776
0.669947 0.763668 0.382177
0.703273 0.752316 0.374090
0.735012 0.740383 0.365332
0.766537 0.729061 0.356268
0.808194 0.733333 0.365057
0.848478 0.743252 0.376623
0.886351 0.750973 0.389441
0.921782 0.757137 0.404974
0.954986 0.762478 0.422736
0.986236 0.767422 0.441901
1.000000 0.772519 0.463020
0.318914 0.799130 0.469520
0.321813 0.799619 0.470253
0.325536 0.800046 0.471046
0.332738 0.800595 0.472419
0.343877 0.801297 0.474464
0.358373 0.802182 0.477241
0.376196 0.803220 0.480781
0.397070 0.804532 0.485389
0.406958 0.806271 0.483680
0.412390 0.808469 0.478645
0.418280 0.811063 0.472694
0.424994 0.814023 0.466041
0.432441 0.817288 0.458564
0.440497 0.820768 0.450233
0.448951 0.824491 0.440742
0.457923 0.828458 0.430121
0.485359 0.830930 0.435065
0.514366 0.833158 0.440925
0.553704 0.825223 0.435065
0.591516 0.816892 0.429145
0.627863 0.808133 0.422705
0.662867 0.798825 0.415747
0.696407 0.788846 0.408392
0.728481 0.778256 0.400336
0.759182 0.766934 0.391638
0.789944 0.756283 0.383307
0.832670 0.761746 0.393561
0.872160 0.772213 0.407019
0.909270 0.780789 0.422187
0.944091 0.788022 0.439734
0.976593 0.794736 0.460273
1.000000 0.801205 0.482429
0.345220 0.823453 0.491493
0.347875 0.823880 0.492256
0.351415 0.824308 0.493080
0.358099 0.824765 0.494423
0.368414 0.825376 0.496590
0.382025 0.826139 0.499397
0.398688 0.827054 0.503136
0.418463 0.828214 0.507866
0.433570 0.829740 0.509850
0.438605 0.831815 0.505425
0.444282 0.834226 0.500420
0.450752 0.836942 0.494820
0.457801 0.839994 0.488533
0.465278 0.843229 0.481361
0.473304 0.846677 0.473335
0.481941 0.850278 0.464668
0.496132 0.853666 0.459602
0.523003 0.856046 0.465888
0.553033 0.855772 0.468849
0.589380 0.848600 0.463416
0.624659 0.841032 0.457557
0.658991 0.833005 0.451484
0.692164 0.824491 0.444953
0.724331 0.815396 0.437629
0.755428 0.805753 0.430030
0.785519 0.795590 0.421790
0.814694 0.784878 0.413092
0.860563 0.794247 0.424903
0.897154 0.802792 0.441657
0.933593 0.812467 0.459754
0.967681 0.820920 0.479896
0.999420 0.828885 0.502678
0.373388 0.848081 0.514855
0.375799 0.848417 0.515526
0.378882 0.848661 0.516258
0.385016 0.848997 0.517601
0.394415 0.849363 0.519615
0.406958 0.849943 0.522454
0.422583 0.850614 0.526146
0.440986 0.851499 0.530968
0.461036 0.852659 0.536217
0.465492 0.854551 0.532280
0.471015 0.856687 0.528069
0.476844 0.859190 0.523125
0.483436 0.861967 0.517723
0.490608 0.864866 0.511681
0.498146 0.867948 0.504967
0.506126 0.871214 0.497505
0.514397 0.874693 0.489204
0.533471 0.877317 0.489723
0.558587 0.879637 0.495949
0.589136 0.877226 0.496162
0.623163 0.870787 0.491310
0.656397 0.863920 0.485908
0.688777 0.856718 0.480323
0.720516 0.849088 0.474220
0.751369 0.841001 0.467689
0.781613 0.832486 0.460639
0.811215 0.823484 0.453132
0.840177 0.814267 0.445411
0.886961 0.825498 0.458167
0.921660 0.833158 0.478187
0.957366 0.843809 0.498573
0.990661 0.853361 0.520623
0.401495 0.871611 0.538140
0.403479 0.871824 0.538720
0.406470 0.872038 0.539483
0.412268 0.872313 0.540856
0.421210 0.872740 0.543084
0.433265 0.873320 0.546197
0.448249 0.874144 0.550286
0.466255 0.875242 0.555688
0.486976 0.876524 0.562249
0.496345 0.878477 0.561975
0.501793 0.880827 0.558770
0.507774 0.883421 0.554986
0.514214 0.886137 0.550591
0.520867 0.889006 0.545556
0.527947 0.891936 0.539910
0.535119 0.894896 0.533318
0.542718 0.898039 0.526299
0.550713 0.901366 0.518608
0.573388 0.903410 0.523827
0.596582 0.905577 0.529717
0.627405 0.901427 0.527428
0.659358 0.895750 0.523278
0.690791 0.889708 0.518791
0.721645 0.883360 0.513939
0.752010 0.876677 0.508721
0.781949 0.869749 0.503349
0.811460 0.862516 0.497658
0.840604 0.855009 0.491585
0.869413 0.847410 0.485512
0.914519 0.858427 0.499123
0.949828 0.867582 0.521386
0.984466 0.878965 0.543542
0.434882 0.897276 0.565454
0.436713 0.897429 0.566003
0.439216 0.897490 0.566674
0.444556 0.897642 0.568017
0.452918 0.897856 0.570153
0.463966 0.898192 0.573205
0.477882 0.898680 0.577234
0.494057 0.899321 0.582116
0.512627 0.900175 0.588098
0.525902 0.901488 0.590692
0.530236 0.903319 0.587304
0.535180 0.905394 0.583551
0.540551 0.907622 0.579309
0.546410 0.909972 0.574670
