data/filter_cube/10491141/1023207/file.cube
# Created by Adobe Lightroom plugin Export LUT (1.17.0)
# www.johnrellis.com/lightroom/exportlut.htm
# Preset: 莫兰迪丛林_06 云集
# Color profile: C:\Program Files (x86)\Common Files\Adobe\Color\Profiles\Recommended\AdobeRGB1998.icc
LUT_3D_SIZE 8
DOMAIN_MIN 0.000000 0.000000 0.000000
DOMAIN_MAX 0.903226 0.903226 0.903226
0.069123 0.076112 0.088075
0.130098 0.083040 0.086244
0.421912 0.000000 0.053773
0.661677 0.000000 0.000000
0.770199 0.158267 0.000000
0.837400 0.268040 0.000000
0.892638 0.353338 0.000000
0.941619 0.418982 0.000000
0.079896 0.098360 0.100557
0.100679 0.107240 0.105226
0.437659 0.146914 0.022461
0.666377 0.147738 0.000000
0.770169 0.221317 0.000000
0.835843 0.298589 0.000000
0.891295 0.371008 0.000000
0.940703 0.430549 0.000000
0.146212 0.247868 0.164584
0.220462 0.306126 0.219486
0.265171 0.254978 0.172061
0.672480 0.377111 0.000000
0.774166 0.387274 0.000000
0.837278 0.409583 0.000000
0.892882 0.447242 0.000000
0.941161 0.482643 0.000000
0.358434 0.493782 0.326268
0.425513 0.521019 0.379187
0.557214 0.591699 0.474128
0.502129 0.452277 0.304051
0.742672 0.521233 0.084504
0.840085 0.553368 0.000000
0.891142 0.552148 0.000000
0.937438 0.562371 0.000000
0.544732 0.634394 0.487831
0.571893 0.644526 0.516472
0.638666 0.675715 0.590021
0.681849 0.700343 0.615259
0.623682 0.574823 0.428656
0.769741 0.607965 0.293980
0.879637 0.647211 0.161196
0.931273 0.653010 0.156802
0.639582 0.707668 0.596094
0.653407 0.714961 0.612726
0.690181 0.736416 0.657282
0.730770 0.767208 0.698390
0.740841 0.758816 0.678248
0.691615 0.655390 0.534325
0.799069 0.681331 0.446815
0.911528 0.716609 0.338689
0.698817 0.769589 0.667781
0.706355 0.773800 0.677455
0.730587 0.787228 0.709041
0.765499 0.808988 0.751980
0.795499 0.830472 0.779629
0.787991 0.805875 0.734768
0.748928 0.725734 0.624323
0.833585 0.748348 0.575952
0.744503 0.818723 0.726833
0.749844 0.821134 0.733974
0.768246 0.829862 0.758053
0.798764 0.845212 0.796384
0.822049 0.858946 0.819425
0.844022 0.872679 0.839017
0.832395 0.848722 0.792477
0.813169 0.798428 0.713527
0.071504 0.084260 0.112703
0.130739 0.079103 0.122683
0.393683 0.000000 0.108705
0.647517 0.000000 0.061280
0.761440 0.176669 0.000000
0.829191 0.276982 0.000000
0.886717 0.360204 0.000000
0.937621 0.424720 0.000000
0.078828 0.104982 0.113313
0.121370 0.135012 0.143221
0.425269 0.149508 0.111177
0.658534 0.159915 0.030823
0.764187 0.233005 0.000000
0.829770 0.307500 0.000000
0.886107 0.377600 0.000000
0.936797 0.435492 0.000000
0.151522 0.253300 0.181430
0.240208 0.317540 0.254093
0.295445 0.285924 0.219547
0.672267 0.392920 0.011109
0.767239 0.392859 0.000000
0.831235 0.414954 0.000000
0.887083 0.450019 0.000000
0.937316 0.485145 0.000000
0.362676 0.491249 0.339818
0.430701 0.519463 0.393347
0.559258 0.589380 0.490547
0.505974 0.460700 0.333471
0.739834 0.526787 0.157687
0.832242 0.552667 0.050263
0.885100 0.553185 0.000000
0.933501 0.564599 0.000000
0.546807 0.632959 0.495155
0.572015 0.642512 0.521324
0.638331 0.673091 0.594903
0.682643 0.700923 0.623987
0.622797 0.576806 0.442756
0.768490 0.611841 0.320195
0.876371 0.651240 0.219669
0.927825 0.655177 0.210544
0.638422 0.705440 0.597162
0.650568 0.711330 0.611597
0.686793 0.732570 0.654994
0.729091 0.764614 0.699123
0.741329 0.759670 0.683833
0.691371 0.657008 0.542596
0.799069 0.683986 0.459205
0.909209 0.719020 0.365911
0.696498 0.766964 0.666285
0.703456 0.770626 0.675105
0.727749 0.784329 0.706477
0.764126 0.807156 0.751858
0.794919 0.829587 0.780484
0.788113 0.806363 0.738125
0.747768 0.725154 0.626459
0.832883 0.748196 0.578454
0.742550 0.817136 0.725063
0.747982 0.819730 0.732296
0.766506 0.828550 0.756466
0.797177 0.844083 0.794858
0.823087 0.859586 0.821530
0.844633 0.873045 0.840604
0.832822 0.849393 0.794949
0.812619 0.798245 0.714778
0.032685 0.109926 0.221378
0.117189 0.096071 0.266484
0.433051 0.000000 0.266880
0.606744 0.158053 0.250340
0.741604 0.255924 0.226658
0.813657 0.349371 0.213504
0.875486 0.413916 0.188235
0.929747 0.464851 0.160433
0.112093 0.175479 0.221805
0.141360 0.183810 0.274266
0.421576 0.181704 0.285191
0.620294 0.229618 0.261753
0.743435 0.302678 0.234348
0.814389 0.372107 0.213962
0.875456 0.427588 0.186313
0.929534 0.474281 0.158083
0.147677 0.266575 0.235660
0.215000 0.309606 0.276341
0.382788 0.373053 0.346044
0.653590 0.417762 0.296361
0.752468 0.431495 0.261906
0.819638 0.453529 0.228153
0.878355 0.481361 0.192050
0.930541 0.511009 0.158755
0.339330 0.476539 0.345281
0.407538 0.506126 0.395972
0.559075 0.581720 0.521324
0.537499 0.503410 0.423163
0.743923 0.566979 0.331609
0.819883 0.573999 0.298833
0.875700 0.576196 0.268223
0.926635 0.584985 0.238163
0.531060 0.623102 0.492226
0.560967 0.634546 0.521538
0.633600 0.667262 0.600183
0.694911 0.714351 0.658869
0.633539 0.597223 0.497963
0.773678 0.635920 0.409552
0.871427 0.671534 0.363806
0.919890 0.667414 0.344854
0.632441 0.700343 0.596857
0.645960 0.706752 0.612665
0.682429 0.727962 0.655512
0.728115 0.761410 0.706844
0.747341 0.767422 0.706691
0.693111 0.664851 0.571191
0.802121 0.696223 0.502342
0.904662 0.730922 0.451423
0.693233 0.764157 0.666651
0.700526 0.768063 0.675776
0.724239 0.781369 0.705837
0.762631 0.804623 0.754696
0.795102 0.828794 0.785855
0.792325 0.811856 0.754086
0.750088 0.730526 0.641566
0.837308 0.756313 0.600092
0.738491 0.814755 0.722530
0.743282 0.816953 0.728725
0.761685 0.825650 0.752499
0.792966 0.841642 0.791409
0.823239 0.859098 0.824430
0.845609 0.873503 0.844327
0.835477 0.852842 0.804807
0.813962 0.801450 0.724208
0.000000 0.174960 0.392920
0.111788 0.171786 0.426154
0.455116 0.000000 0.499672
0.651148 0.242008 0.444984
0.717037 0.315190 0.394965
0.778256 0.420142 0.404120
0.847471 0.479561 0.397864
0.908202 0.523705 0.387915
0.163058 0.268833 0.399695
0.182254 0.255680 0.431189
0.459998 0.200565 0.507652
0.644007 0.313329 0.456733
0.708766 0.370886 0.416449
0.779690 0.440253 0.410315
0.847959 0.491432 0.400671
0.908751 0.529839 0.386328
0.236881 0.379339 0.397955
0.294865 0.397314 0.417151
0.438636 0.436164 0.495552
0.619379 0.452430 0.483162
0.710475 0.478035 0.456764
0.787167 0.507073 0.435248
0.852934 0.536522 0.416999
0.911467 0.558862 0.392157
0.324102 0.474098 0.404639
0.373388 0.490425 0.426337
0.505638 0.546075 0.497658
0.587518 0.565545 0.527733
0.727199 0.596399 0.500847
0.795071 0.596124 0.471931
0.856504 0.600702 0.440620
0.913085 0.607996 0.408118
0.498329 0.602869 0.481361
0.528191 0.614282 0.507012
0.607263 0.648981 0.582727
0.684382 0.700465 0.664271
0.647608 0.624414 0.565454
0.783322 0.671412 0.520714
0.856107 0.684810 0.501396
0.907591 0.681056 0.475654
0.617975 0.690089 0.590692
0.632502 0.696925 0.606683
0.669764 0.717464 0.648524
0.721340 0.752621 0.709621
0.760067 0.782895 0.743465
0.698726 0.679072 0.611444
0.810361 0.717494 0.565454
0.899596 0.747829 0.548211
0.683711 0.756649 0.662013
0.691157 0.760769 0.670985
0.715175 0.774533 0.700343
0.753048 0.797696 0.747341
0.793973 0.826566 0.792050
0.801022 0.822568 0.780240
0.753445 0.738460 0.663905
0.844633 0.767575 0.629053
0.733089 0.811337 0.720760
0.737911 0.813657 0.726833
0.753933 0.821469 0.746731
0.782986 0.836149 0.782132
0.821683 0.857084 0.827024
0.846098 0.873442 0.848783
0.840238 0.858885 0.820615
0.815854 0.806271 0.738613
0.160372 0.278080 0.532250
0.220432 0.277470 0.549340
0.428840 0.248325 0.600977
0.650904 0.274113 0.614557
0.731777 0.431861 0.564935
0.772152 0.464973 0.525231
0.809018 0.539757 0.542870
0.877440 0.588312 0.554955
0.261723 0.353918 0.532006
0.281163 0.343908 0.548852
0.440986 0.325933 0.598291
0.650080 0.340337 0.619409
0.726925 0.460426 0.570062
0.768338 0.483040 0.530999
0.810452 0.548760 0.546075
0.878264 0.593103 0.555535
0.363439 0.448981 0.501701
0.397803 0.464088 0.519768
0.471382 0.479469 0.582818
0.640223 0.481575 0.627375
0.711757 0.531701 0.584466
0.753506 0.539208 0.552758
0.815244 0.577295 0.555566
0.881254 0.608179 0.555169
0.408637 0.546502 0.530388
0.439094 0.552941 0.539208
0.522789 0.574914 0.568444
0.618189 0.607172 0.626215
0.690364 0.605982 0.603998
0.757870 0.612634 0.586816
0.825589 0.623804 0.570733
0.888914 0.633875 0.551263
0.482979 0.598291 0.529168
0.505364 0.604059 0.539452
0.572686 0.628412 0.577630
0.648859 0.665827 0.636439
0.671260 0.660090 0.630732
0.777646 0.691279 0.618799
0.836728 0.686915 0.594415
0.894072 0.685786 0.569238
0.585962 0.672633 0.573968
0.600824 0.675990 0.586053
0.641566 0.693416 0.626276
0.693721 0.727901 0.684108
0.752865 0.775509 0.750790
0.706081 0.694484 0.649409
0.825528 0.741634 0.628412
0.892729 0.754879 0.621454
0.667262 0.743130 0.651820
0.674098 0.746822 0.659571
0.697169 0.759976 0.686152
0.733974 0.782742 0.730007
0.781094 0.814115 0.785397
0.813413 0.836942 0.811246
0.756863 0.747524 0.690150
0.855558 0.781277 0.663172
0.721981 0.803586 0.713893
0.726528 0.805722 0.719387
0.742031 0.813382 0.738094
0.768795 0.827665 0.769741
0.805875 0.847776 0.811978
0.843320 0.870848 0.850431
0.847410 0.867399 0.840696
0.817441 0.811337 0.755001
0.334112 0.397314 0.630549
0.364233 0.396826 0.638819
0.468574 0.389593 0.664912
0.635645 0.364202 0.706233
0.727901 0.459571 0.675715
0.784970 0.550652 0.652735
0.821714 0.572747 0.629267
0.863523 0.615351 0.637079
0.377996 0.441230 0.626581
0.394110 0.436500 0.634852
0.479438 0.431006 0.660731
0.631006 0.412451 0.701839
0.724971 0.485481 0.676997
0.781827 0.562799 0.654719
0.819364 0.580285 0.631250
0.861601 0.621729 0.640070
0.462074 0.526055 0.607477
0.479377 0.532067 0.618738
0.514458 0.527855 0.649775
0.621637 0.525628 0.691524
0.718441 0.558099 0.684962
0.773495 0.599756 0.662776
0.812802 0.604791 0.638422
0.855772 0.643641 0.650965
0.495491 0.581567 0.601129
0.511223 0.584833 0.605127
0.560052 0.597162 0.619471
0.621118 0.622095 0.673671
0.711421 0.633387 0.698482
0.762112 0.643793 0.673060
0.802243 0.640558 0.650233
0.858152 0.669520 0.660395
0.530388 0.648005 0.622950
0.544305 0.650019 0.626886
0.586023 0.657313 0.640040
0.638544 0.671077 0.661891
0.695766 0.692958 0.706630
0.744015 0.685176 0.681819
0.805844 0.688472 0.669978
0.869841 0.698054 0.662837
0.582513 0.673030 0.616297
0.593011 0.675563 0.621759
0.623926 0.684962 0.639582
0.665553 0.706477 0.670161
0.716518 0.739406 0.717647
0.729213 0.727169 0.703639
0.826841 0.756161 0.700404
0.881376 0.749905 0.680385
0.647456 0.732174 0.650233
0.653376 0.734981 0.654994
0.672236 0.743801 0.670375
0.708003 0.761715 0.706691
0.754513 0.792844 0.760586
0.810330 0.834592 0.820157
0.764309 0.762417 0.725948
0.871336 0.802060 0.715480
0.706966 0.793271 0.704372
0.711269 0.795315 0.709316
0.726131 0.802731 0.726528
0.751522 0.816220 0.755856
0.786709 0.835660 0.795224
0.831113 0.861601 0.842618
0.859739 0.880125 0.866423
0.820920 0.819516 0.777676
0.474220 0.509850 0.701930
0.488869 0.510521 0.707546
0.536614 0.506340 0.723995
0.626795 0.495613 0.752834
0.737392 0.501976 0.775479
0.790372 0.574334 0.742061
0.832334 0.626978 0.721553
0.868345 0.649897 0.711177
0.486305 0.527642 0.696162
0.497810 0.527398 0.701717
0.540215 0.524071 0.718471
0.623804 0.514885 0.747341
0.733089 0.516960 0.772457
0.786435 0.580804 0.739956
0.828702 0.628687 0.719295
0.865751 0.649836 0.708858
0.544244 0.591180 0.685176
0.553521 0.593530 0.691585
0.564019 0.581415 0.709194
0.625910 0.578851 0.738857
0.727565 0.574334 0.772946
0.782406 0.615808 0.745327
0.825345 0.650599 0.725490
0.863951 0.667140 0.716121
0.565454 0.621118 0.660395
0.572534 0.621942 0.661707
0.598383 0.635523 0.684260
0.631434 0.641718 0.723354
0.710750 0.642237 0.766598
0.777676 0.661677 0.755642
0.819913 0.682612 0.735439
0.860105 0.689967 0.724453
0.583642 0.667109 0.672297
0.589685 0.667445 0.673365
0.610468 0.669825 0.678645
0.641566 0.675105 0.689509
0.685237 0.693111 0.741115
0.766201 0.704982 0.764645
0.808865 0.712337 0.741573
0.853178 0.713985 0.730648
0.607233 0.710933 0.686763
0.612818 0.712154 0.689082
0.630610 0.716670 0.697078
0.657923 0.724788 0.711086
0.695247 0.734829 0.729763
0.750393 0.757870 0.774685
0.796841 0.750179 0.753597
0.852415 0.756008 0.750301
0.641413 0.734157 0.684291
0.646265 0.735958 0.687282
0.661463 0.741115 0.696407
0.686854 0.751003 0.713130
0.723140 0.769894 0.741329
0.770230 0.798337 0.783597
0.784115 0.790829 0.776303
0.870146 0.813809 0.778286
0.690486 0.787106 0.712184
0.694179 0.788602 0.715023
0.708064 0.795163 0.726589
0.729213 0.804623 0.744106
0.761410 0.818326 0.773404
0.806058 0.844541 0.820737
0.856291 0.877592 0.870359
0.827329 0.831907 0.807401
0.575891 0.605463 0.770230
0.582330 0.604883 0.773526
0.604181 0.599420 0.782956
0.651789 0.590845 0.800900
0.728389 0.576928 0.825010
0.805081 0.597223 0.829252
0.843473 0.647883 0.797513
0.874479 0.696773 0.783841
0.579309 0.613458 0.766445
0.585168 0.612970 0.769802
0.605707 0.608423 0.779721
0.650507 0.600214 0.797665
0.725063 0.587549 0.822293
0.802609 0.603845 0.828275
0.841733 0.651606 0.797299
0.873472 0.699519 0.784298
0.607111 0.650141 0.756374
0.607111 0.646784 0.759854
0.611902 0.635523 0.770504
0.650538 0.632380 0.790951
0.717067 0.623224 0.816434
0.796780 0.628656 0.828244
0.838804 0.669551 0.800534
0.871275 0.711757 0.788113
0.615320 0.670344 0.733639
0.619776 0.672389 0.738277
0.634241 0.676967 0.753323
0.649378 0.669429 0.777584
0.703334 0.666590 0.806241
0.787747 0.666621 0.830533
0.835019 0.699184 0.808072
0.868101 0.731289 0.794858
0.626123 0.698085 0.727199
0.629572 0.698238 0.728267
0.639216 0.696498 0.729854
0.655848 0.699306 0.744991
0.688197 0.705959 0.786404
0.765591 0.709804 0.826139
0.829160 0.733333 0.818051
0.863554 0.755337 0.803311
0.638025 0.738399 0.740597
0.640528 0.737972 0.740932
0.649744 0.737087 0.742794
0.666407 0.736233 0.747219
0.691402 0.735683 0.755032
0.738277 0.755184 0.804715
0.822812 0.773983 0.833310
0.858640 0.785153 0.815091
0.658595 0.776852 0.754238
0.661219 0.777249 0.755306
0.670466 0.779080 0.759548
0.687861 0.783566 0.768460
0.714473 0.790463 0.782071
0.748287 0.795621 0.796017
0.799710 0.814237 0.833646
0.850248 0.815457 0.825956
0.689021 0.798093 0.752193
0.691402 0.798520 0.753323
0.700465 0.800748 0.758236
0.717678 0.805814 0.768338
0.743008 0.813931 0.784024
0.777340 0.828122 0.807614
0.820584 0.850584 0.840635
0.844358 0.856168 0.851102
