data/filter_cube/10491141/1023207/file.cube
# Created by Adobe Lightroom plugin Export LUT (1.17.0)
# www.johnrellis.com/lightroom/exportlut.htm
# Preset: 莫兰迪丛林_06 云集
# Color profile: C:\Program Files (x86)\Common Files\Adobe\Color\Profiles\Recommended\AdobeRGB1998.icc
LUT_3D_SIZE 32
DOMAIN_MIN 0.0 0.0 0.0
DOMAIN_MAX 1.0 1.0 1.0
0.069123 0.076112 0.088075
0.073518 0.076539 0.087953
0.078401 0.077180 0.087800
0.094087 0.079591 0.087495
0.130098 0.083040 0.086244
0.184176 0.084352 0.083772
0.253544 0.079042 0.078889
0.337072 0.053834 0.070253
0.421912 0.000000 0.053773
0.499001 0.000000 0.012268
0.564599 0.000000 0.000000
0.617975 0.000000 0.000000
0.661677 0.000000 0.000000
0.697078 0.000000 0.000000
0.725277 0.077455 0.000000
0.749477 0.123659 0.000000
0.770199 0.158267 0.000000
0.788846 0.188998 0.000000
0.805814 0.216861 0.000000
0.821988 0.243137 0.000000
0.837400 0.268040 0.000000
0.852140 0.291722 0.000000
0.866178 0.313664 0.000000
0.879637 0.334325 0.000000
0.892638 0.353338 0.000000
0.905303 0.371221 0.000000
0.917662 0.388128 0.000000
0.929778 0.403998 0.000000
0.941619 0.418982 0.000000
0.953155 0.433051 0.000000
0.964294 0.446174 0.000000
0.974975 0.458381 0.000000
0.070466 0.077668 0.089082
0.071870 0.078492 0.089815
0.078218 0.080018 0.088441
0.094484 0.083192 0.088075
0.131594 0.087739 0.086397
0.186374 0.090578 0.083406
0.257023 0.086763 0.077821
0.340917 0.068238 0.068635
0.424842 0.000000 0.050111
0.501213 0.000000 0.006989
0.565850 0.000000 0.000000
0.618677 0.000000 0.000000
0.662043 0.000000 0.000000
0.697139 0.003204 0.000000
0.725185 0.092470 0.000000
0.749203 0.132326 0.000000
0.769619 0.164706 0.000000
0.788083 0.193332 0.000000
0.804959 0.220005 0.000000
0.821103 0.245762 0.000000
0.836515 0.269963 0.000000
0.851286 0.293126 0.000000
0.865354 0.314855 0.000000
0.878843 0.335210 0.000000
0.891905 0.354192 0.000000
0.904601 0.372076 0.000000
0.917052 0.388739 0.000000
0.929198 0.404608 0.000000
0.941100 0.419471 0.000000
0.952697 0.433570 0.000000
0.963867 0.446662 0.000000
0.974609 0.458747 0.000000
0.071626 0.080598 0.091035
0.073213 0.081636 0.092561
0.074891 0.082063 0.092500
0.093996 0.087709 0.089143
0.132052 0.094942 0.087190
0.187686 0.099611 0.083650
0.258518 0.098360 0.077790
0.342535 0.084840 0.067933
0.427070 0.045350 0.047028
0.503288 0.000000 0.002380
0.567956 0.000000 0.000000
0.620356 0.000000 0.000000
0.663142 0.000000 0.000000
0.697902 0.067140 0.000000
0.725612 0.110658 0.000000
0.749447 0.144503 0.000000
0.769619 0.173861 0.000000
0.787869 0.200656 0.000000
0.804685 0.225803 0.000000
0.820768 0.250370 0.000000
0.836179 0.274083 0.000000
0.850950 0.296544 0.000000
0.865019 0.317906 0.000000
0.878508 0.337682 0.000000
0.891569 0.356420 0.000000
0.904265 0.373968 0.000000
0.916747 0.390478 0.000000
0.928923 0.406165 0.000000
0.940856 0.420905 0.000000
0.952453 0.434852 0.000000
0.963653 0.447761 0.000000
0.974395 0.459754 0.000000
0.074678 0.086519 0.095064
0.077211 0.088838 0.097871
0.079133 0.090333 0.098726
0.083528 0.090608 0.097627
0.126497 0.106050 0.090272
0.190890 0.120027 0.083833
0.263005 0.122103 0.076997
0.347723 0.115084 0.065736
0.431464 0.097719 0.039704
0.506950 0.074922 0.000000
0.570489 0.055573 0.000000
0.622278 0.062318 0.000000
0.664759 0.086793 0.000000
0.699031 0.115999 0.000000
0.726589 0.142580 0.000000
0.750179 0.169009 0.000000
0.770077 0.192721 0.000000
0.788083 0.216159 0.000000
0.804593 0.238834 0.000000
0.820462 0.261173 0.000000
0.835752 0.283177 0.000000
0.850431 0.304326 0.000000
0.864530 0.324620 0.000000
0.878141 0.343755 0.000000
0.891356 0.361913 0.000000
0.904173 0.379004 0.000000
0.916686 0.395087 0.000000
0.928954 0.410346 0.000000
0.940856 0.424781 0.000000
0.952422 0.438239 0.000000
0.963592 0.450782 0.000000
0.974273 0.462470 0.000000
0.079896 0.098360 0.100557
0.082856 0.101808 0.104005
0.087160 0.106142 0.107881
0.093874 0.111147 0.109316
0.100679 0.107240 0.105226
0.162905 0.130037 0.093019
0.262852 0.154025 0.075746
0.354559 0.156222 0.060090
0.437659 0.146914 0.022461
0.511803 0.136599 0.000000
0.573999 0.130861 0.000000
0.624750 0.135012 0.000000
0.666377 0.147738 0.000000
0.700069 0.164858 0.000000
0.727443 0.183413 0.000000
0.750454 0.202884 0.000000
0.770169 0.221317 0.000000
0.788113 0.240635 0.000000
0.804715 0.259678 0.000000
0.820615 0.279210 0.000000
0.835843 0.298589 0.000000
0.850523 0.317754 0.000000
0.864622 0.336156 0.000000
0.878141 0.354040 0.000000
0.891295 0.371008 0.000000
0.904143 0.387060 0.000000
0.916625 0.402319 0.000000
0.928832 0.416754 0.000000
0.940703 0.430549 0.000000
0.952270 0.443427 0.000000
0.963409 0.455482 0.000000
0.974090 0.466773 0.000000
0.087465 0.118685 0.108797
0.091524 0.123323 0.112825
0.097658 0.130159 0.118990
0.108125 0.140108 0.125124
0.120851 0.145388 0.124331
0.127138 0.132296 0.115450
0.203464 0.158999 0.097597
0.340459 0.191165 0.061402
0.446784 0.203708 0.000000
0.519280 0.196841 0.000000
0.579675 0.194156 0.000000
0.628870 0.196994 0.000000
0.669306 0.205173 0.000000
0.702022 0.216068 0.000000
0.729000 0.229099 0.000000
0.751278 0.242313 0.000000
0.770657 0.256382 0.000000
0.788449 0.271366 0.000000
0.804929 0.287053 0.000000
0.820737 0.303502 0.000000
0.835935 0.320470 0.000000
0.850614 0.337255 0.000000
0.870085 0.362066 0.000000
0.883299 0.377234 0.000000
0.896086 0.391547 0.000000
0.908537 0.405158 0.000000
0.920653 0.418158 0.000000
0.932341 0.430884 0.000000
0.943786 0.442969 0.000000
0.954864 0.454627 0.000000
0.965576 0.465522 0.000000
0.975830 0.475715 0.000000
0.100221 0.151308 0.121523
0.105135 0.156802 0.126314
0.112703 0.164614 0.133486
0.129335 0.180392 0.147341
0.148836 0.197604 0.154818
0.163607 0.193515 0.145480
0.164279 0.167453 0.130373
0.251438 0.193820 0.106630
0.406165 0.230747 0.046815
0.520073 0.253056 0.000000
0.590295 0.263310 0.000000
0.637263 0.263554 0.000000
0.675746 0.267552 0.000000
0.707027 0.273564 0.000000
0.733211 0.281376 0.000000
0.754421 0.289220 0.000000
0.773312 0.298711 0.000000
0.790738 0.309483 0.000000
0.807004 0.321691 0.000000
0.822751 0.335180 0.000000
0.838102 0.349523 0.000000
0.853025 0.364385 0.000000
0.867430 0.379217 0.000000
0.881315 0.393347 0.000000
0.894652 0.406806 0.000000
0.907408 0.419379 0.000000
0.919646 0.431403 0.000000
0.931548 0.442664 0.000000
0.943114 0.453437 0.000000
0.954314 0.463722 0.000000
0.965179 0.473243 0.000000
0.975433 0.482734 0.000000
0.118379 0.193759 0.139620
0.124453 0.199741 0.144808
0.132937 0.207950 0.152560
0.154299 0.226261 0.170993
0.178927 0.247013 0.183536
0.212406 0.273106 0.195438
0.218418 0.248173 0.170565
0.209445 0.208194 0.149172
0.301579 0.230808 0.121218
0.457527 0.271244 0.055818
0.571984 0.302098 0.000000
0.639704 0.327703 0.000000
0.678889 0.330022 0.000000
0.709834 0.331518 0.000000
0.734554 0.333623 0.000000
0.755032 0.336309 0.000000
0.773556 0.341283 0.000000
0.790677 0.348028 0.000000
0.806729 0.356420 0.000000
0.822354 0.366491 0.000000
0.837491 0.377935 0.000000
0.852293 0.389929 0.000000
0.866606 0.402106 0.000000
0.880400 0.414038 0.000000
0.893645 0.425513 0.000000
0.906340 0.436622 0.000000
0.918608 0.447089 0.000000
0.930510 0.457221 0.000000
0.942107 0.466926 0.000000
0.953338 0.476234 0.000000
0.964233 0.485115 0.000000
0.974640 0.493324 0.000000
0.146212 0.247868 0.164584
0.152926 0.253788 0.170321
0.162844 0.262242 0.178347
0.186130 0.280735 0.196933
0.220462 0.306126 0.219486
0.255863 0.331975 0.233219
0.288487 0.344060 0.234775
0.288212 0.309606 0.200931
0.265171 0.254978 0.172061
0.352026 0.269627 0.141451
0.502190 0.314458 0.077272
0.610620 0.350164 0.000000
0.672480 0.377111 0.000000
0.712642 0.392248 0.000000
0.736110 0.388769 0.000000
0.755978 0.386755 0.000000
0.774166 0.387274 0.000000
0.791012 0.390112 0.000000
0.806821 0.394781 0.000000
0.822263 0.401404 0.000000
0.837278 0.409583 0.000000
0.851896 0.418524 0.000000
0.866026 0.428107 0.000000
0.879698 0.437720 0.000000
0.892882 0.447242 0.000000
0.905516 0.456397 0.000000
0.917723 0.465431 0.000000
0.929595 0.474098 0.000000
0.941161 0.482643 0.000000
0.952392 0.490852 0.000000
0.963226 0.498787 0.000000
0.973663 0.506279 0.000000
0.184665 0.311620 0.196078
0.192203 0.317388 0.202029
0.202945 0.325048 0.210178
0.228305 0.341802 0.229129
0.271214 0.366949 0.260899
0.307897 0.390417 0.277592
0.352911 0.418067 0.297154
0.368505 0.409308 0.279973
0.361639 0.369512 0.236027
0.328099 0.304845 0.198459
0.399603 0.308904 0.165438
0.540887 0.357610 0.105379
0.638178 0.395117 0.000000
0.697658 0.420508 0.000000
0.734218 0.437354 0.000000
0.757107 0.438270 0.000000
0.775204 0.435035 0.000000
0.791867 0.434150 0.000000
0.807462 0.435462 0.000000
0.822629 0.438666 0.000000
0.837339 0.443549 0.000000
0.851591 0.449439 0.000000
0.865415 0.456062 0.000000
0.878813 0.463142 0.000000
0.891783 0.470436 0.000000
0.904356 0.477821 0.000000
0.916564 0.485237 0.000000
0.928466 0.492622 0.000000
0.940063 0.500023 0.000000
0.951354 0.507256 0.000000
0.962249 0.514366 0.000000
0.972717 0.521111 0.000000
0.233524 0.376318 0.233219
0.241855 0.381079 0.239322
0.253544 0.387823 0.247929
0.279393 0.401556 0.267185
0.320775 0.422156 0.298070
0.362921 0.444923 0.324651
0.402777 0.468605 0.343725
0.447578 0.494453 0.366186
0.442084 0.466499 0.326482
0.429969 0.424720 0.276219
0.390814 0.355566 0.229374
0.444556 0.348852 0.193057
0.572717 0.398596 0.138430
0.659815 0.434882 0.021424
0.717037 0.457099 0.000000
0.748989 0.470649 0.000000
0.775906 0.482216 0.000000
0.792294 0.478065 0.000000
0.807675 0.476020 0.000000
0.822660 0.476204 0.000000
0.837156 0.478248 0.000000
0.851255 0.481422 0.000000
0.864927 0.485756 0.000000
0.878172 0.490608 0.000000
0.891051 0.495857 0.000000
0.903502 0.501305 0.000000
0.915587 0.507073 0.000000
0.927367 0.512993 0.000000
0.938933 0.519036 0.000000
0.950164 0.525170 0.000000
0.961059 0.531212 0.000000
0.971527 0.537224 0.000000
0.292912 0.437110 0.277379
0.301152 0.441016 0.283452
0.312474 0.446326 0.291905
0.336187 0.457160 0.309606
0.372534 0.473701 0.337438
0.416876 0.493904 0.371313
0.450385 0.513176 0.389075
0.487373 0.534508 0.409613
0.515526 0.546929 0.419104
0.504723 0.515831 0.372564
0.490852 0.475105 0.318761
0.448035 0.403845 0.264134
0.492866 0.394446 0.228367
0.607263 0.444556 0.179080
0.683650 0.477516 0.114168
0.734463 0.495064 0.000000
0.767269 0.507225 0.000000
0.793179 0.519310 0.000000
0.812375 0.522820 0.000000
0.826719 0.519890 0.000000
0.840635 0.518761 0.000000
0.854093 0.519097 0.000000
0.867185 0.520409 0.000000
0.879942 0.522637 0.000000
0.892393 0.525536 0.000000
0.904448 0.529015 0.000000
0.916228 0.532830 0.000000
0.927733 0.537011 0.000000
0.938994 0.541466 0.000000
0.949981 0.546166 0.000000
0.960632 0.551049 0.000000
0.970916 0.556054 0.000000
0.358434 0.493782 0.326268
0.365454 0.496681 0.331701
0.374975 0.500542 0.339055
0.395148 0.508659 0.354925
0.425513 0.521019 0.379187
0.462989 0.536675 0.410407
0.495277 0.553491 0.433478
0.525505 0.571893 0.452735
0.557214 0.591699 0.474128
0.568017 0.589441 0.465003
0.557122 0.559655 0.418402
0.543084 0.520928 0.362951
0.502129 0.452277 0.304051
0.521508 0.425879 0.259037
0.626123 0.475135 0.215457
0.695552 0.505333 0.163210
0.742672 0.521233 0.084504
0.778103 0.532860 0.000000
0.803128 0.544274 0.000000
0.825772 0.555505 0.000000
0.840085 0.553368 0.000000
0.853391 0.551446 0.000000
0.866270 0.550805 0.000000
0.878843 0.551049 0.000000
0.891142 0.552148 0.000000
0.903105 0.553948 0.000000
0.914794 0.556268 0.000000
0.926238 0.559167 0.000000
0.937438 0.562371 0.000000
0.948425 0.566094 0.000000
0.959045 0.570062 0.000000
0.969329 0.574365 0.000000
0.415137 0.537804 0.370550
0.421393 0.540215 0.375616
0.429389 0.543175 0.382147
0.446296 0.549767 0.396185
0.470985 0.559594 0.417426
0.501427 0.572534 0.444800
0.532677 0.587640 0.472999
0.556512 0.602319 0.489296
0.581567 0.617945 0.507713
0.606867 0.634119 0.527825
0.604822 0.620172 0.501152
0.594720 0.592462 0.455177
0.580743 0.555535 0.399664
0.541253 0.489693 0.338201
0.546960 0.455665 0.290135
0.642603 0.502831 0.252842
0.705501 0.529931 0.207980
0.749813 0.544976 0.150790
0.787320 0.556481 0.005188
0.812711 0.567681 0.000000
0.834867 0.578363 0.000000
0.852781 0.583856 0.000000
0.865476 0.581292 0.000000
0.877928 0.579919 0.000000
0.890074 0.579400 0.000000
0.901915 0.579644 0.000000
0.913481 0.580591 0.000000
0.924804 0.582177 0.000000
0.935943 0.584314 0.000000
0.946868 0.586999 0.000000
0.957427 0.590173 0.000000
0.967651 0.593652 0.000000
0.467659 0.576654 0.414374
0.472450 0.578424 0.418555
0.478523 0.580682 0.423957
0.491676 0.585779 0.435920
0.510948 0.593530 0.453925
0.534752 0.603540 0.476967
0.561608 0.615503 0.504234
0.582696 0.627497 0.521965
0.602777 0.640009 0.537987
0.623468 0.653162 0.555688
0.641138 0.663783 0.569482
0.633051 0.644556 0.532586
0.623865 0.619074 0.487648
0.610773 0.584497 0.433082
0.573785 0.522148 0.370733
0.569116 0.482307 0.319524
0.656428 0.526909 0.288304
0.713680 0.551781 0.250278
0.756527 0.567224 0.203372
0.793790 0.579248 0.134890
0.822141 0.589654 0.067781
0.843717 0.599725 0.011353
0.863279 0.608728 0.000000
0.876982 0.608576 0.000000
0.888945 0.606561 0.000000
0.900664 0.605524 0.000000
0.912200 0.605280 0.000000
0.923491 0.605859 0.000000
0.934569 0.607111 0.000000
0.945434 0.608972 0.000000
0.955993 0.611414 0.000000
0.966033 0.614191 0.000000
0.510338 0.608728 0.453376
0.514183 0.610193 0.457130
0.518914 0.612024 0.461707
0.529259 0.615900 0.471870
0.544579 0.621881 0.487190
0.563684 0.629755 0.507103
0.585473 0.639124 0.530602
0.606317 0.649470 0.552636
0.622614 0.659693 0.566644
0.639277 0.670466 0.581537
0.656214 0.682216 0.596826
0.663630 0.683436 0.595209
0.655238 0.664332 0.560235
0.646540 0.640497 0.515953
0.633783 0.607630 0.462470
0.600702 0.550103 0.400549
0.587915 0.505516 0.347051
0.667811 0.547662 0.321202
0.721035 0.571527 0.289342
0.763241 0.588342 0.250950
0.800137 0.601190 0.197787
0.831510 0.610742 0.127535
0.852567 0.620294 0.116915
0.871763 0.628687 0.104982
0.888151 0.634119 0.094850
0.899718 0.631861 0.091310
0.911070 0.630457 0.088624
0.922179 0.629969 0.087617
0.933135 0.630243 0.089082
0.943816 0.631159 0.093507
0.954192 0.632807 0.101839
0.963989 0.634760 0.112398
0.544732 0.634394 0.487831
0.547601 0.635462 0.490730
0.551446 0.636835 0.494697
0.559625 0.639887 0.503288
0.571893 0.644526 0.516472
0.587396 0.650660 0.533471
0.605219 0.658106 0.553918
0.624475 0.666835 0.576776
0.638666 0.675715 0.590021
0.652705 0.685512 0.602502
0.667323 0.696284 0.615503
0.682277 0.707759 0.628565
0.681849 0.700343 0.615259
0.673152 0.680903 0.582727
0.664454 0.658015 0.540581
0.652430 0.627192 0.489052
0.623682 0.574823 0.428656
0.604913 0.526757 0.373327
0.678340 0.566857 0.352667
0.728298 0.590173 0.325994
0.769741 0.607965 0.293980
0.806088 0.621576 0.250858
0.838163 0.630884 0.190311
0.860899 0.639307 0.166659
0.879637 0.647211 0.161196
0.896605 0.654139 0.156283
0.909483 0.654994 0.154116
0.920470 0.653590 0.154635
0.931273 0.653010 0.156802
0.941833 0.653193 0.161257
0.952056 0.654231 0.168887
0.961608 0.655451 0.177676
0.573663 0.655726 0.518822
0.576196 0.656703 0.521630
0.584497 0.661616 0.530999
0.591058 0.663996 0.538354
0.600824 0.667567 0.549554
0.612970 0.672267 0.563867
0.627222 0.678401 0.580804
0.642725 0.686000 0.599542
0.656977 0.694606 0.615167
0.668757 0.703517 0.625422
0.681209 0.713191 0.636133
0.694118 0.723568 0.647089
0.707485 0.734218 0.658534
0.700374 0.718471 0.635431
0.691341 0.698848 0.605280
0.681819 0.675959 0.566400
0.670100 0.646632 0.516960
0.645472 0.599420 0.458747
0.624689 0.550958 0.402075
0.689570 0.586725 0.385443
0.736751 0.609796 0.363806
0.777371 0.628229 0.336797
0.813016 0.642176 0.300999
0.844511 0.651575 0.252903
0.869749 0.658320 0.211917
0.887785 0.665583 0.209751
0.904143 0.671901 0.207919
0.918700 0.676905 0.207126
0.929259 0.675410 0.209323
0.939635 0.674830 0.214023
0.949615 0.675074 0.221256
0.958953 0.675685 0.230045
0.599756 0.674830 0.548791
0.602228 0.675959 0.551629
0.605432 0.677363 0.555413
0.611383 0.679774 0.562402
0.619745 0.683314 0.572290
0.630121 0.687831 0.584649
0.642115 0.693538 0.599054
0.655390 0.700557 0.615045
0.669642 0.709010 0.632319
0.679988 0.717159 0.641352
0.691005 0.726040 0.650782
0.702663 0.735439 0.660914
0.714809 0.745174 0.671656
0.722377 0.749020 0.674403
0.714504 0.732418 0.649836
0.705562 0.712978 0.621515
0.695796 0.690486 0.585595
0.683436 0.661707 0.539483
0.662074 0.618860 0.483803
0.644251 0.574731 0.429084
0.698238 0.603082 0.413855
0.744045 0.626764 0.396582
0.783902 0.645747 0.374060
0.818845 0.660121 0.344732
0.849851 0.669764 0.305150
0.877745 0.675349 0.251316
0.895415 0.682399 0.251591
0.911315 0.688655 0.253452
0.925719 0.694179 0.256443
0.937316 0.696040 0.261692
0.947021 0.695491 0.268528
0.956146 0.695583 0.277714
0.620844 0.691371 0.573785
0.622950 0.692378 0.576226
0.625544 0.693721 0.579339
0.630426 0.695949 0.585138
0.637415 0.699214 0.593500
0.646021 0.703426 0.603906
0.656184 0.708705 0.616144
0.667506 0.715114 0.629847
0.679927 0.722805 0.644709
0.691157 0.730892 0.656794
0.701106 0.738918 0.665614
0.711696 0.747463 0.675074
0.722713 0.756313 0.685023
0.734066 0.765316 0.695430
0.735683 0.762081 0.688624
0.727932 0.745876 0.664057
0.719234 0.726925 0.636652
0.709529 0.705043 0.603601
0.696407 0.676722 0.561364
0.677058 0.637079 0.508446
0.661860 0.596979 0.456214
0.706813 0.619074 0.441810
0.751705 0.643519 0.428382
0.790707 0.662898 0.409918
0.824918 0.677394 0.385931
0.855436 0.687221 0.353429
0.882902 0.693172 0.310094
0.902983 0.698848 0.292576
0.918425 0.704982 0.297826
0.932189 0.710567 0.304692
0.944182 0.715236 0.312108
0.953094 0.714839 0.321813
0.639582 0.707668 0.596094
0.641291 0.708644 0.598169
0.643519 0.709834 0.600793
0.647547 0.711940 0.605676
0.653407 0.714961 0.612726
0.660700 0.718837 0.621607
0.669337 0.723629 0.631983
0.679103 0.729519 0.643763
0.690181 0.736416 0.657282
0.702296 0.744320 0.672236
0.711238 0.751553 0.680385
0.720790 0.759243 0.689143
0.730770 0.767208 0.698390
0.741115 0.775326 0.708034
0.751675 0.783536 0.717952
0.748226 0.774319 0.702449
0.740841 0.758816 0.678248
0.732692 0.740780 0.651392
0.723384 0.719875 0.620996
0.710048 0.692500 0.582940
0.691615 0.655390 0.534325
0.678767 0.619257 0.485084
0.716976 0.636683 0.471107
0.760891 0.661738 0.461372
0.799069 0.681331 0.446815
0.832456 0.695857 0.428046
0.862333 0.705898 0.402441
0.889158 0.712306 0.368841
0.911528 0.716609 0.338689
0.925994 0.722621 0.347204
0.938598 0.727749 0.356756
0.949432 0.732540 0.368811
0.657771 0.725093 0.617884
0.659022 0.725826 0.619379
0.660578 0.726680 0.621302
0.663783 0.728420 0.625177
0.668574 0.731044 0.631006
0.674708 0.734493 0.638453
0.682124 0.738857 0.647456
0.690944 0.744167 0.658228
0.701015 0.750393 0.670832
0.712245 0.757565 0.685054
0.722164 0.764706 0.696162
0.730831 0.771633 0.704341
0.739925 0.778775 0.712917
0.749325 0.786099 0.721798
0.758968 0.793423 0.730922
0.767453 0.799283 0.737758
0.760769 0.786618 0.716915
0.753719 0.771847 0.693202
0.746029 0.754696 0.666773
0.737148 0.734646 0.637446
0.723659 0.708125 0.602930
0.705653 0.673091 0.558679
0.693446 0.639399 0.512352
0.726589 0.653101 0.497932
0.769406 0.678340 0.490944
0.806699 0.697871 0.479652
0.839414 0.712459 0.465400
0.868650 0.722805 0.445899
0.894804 0.729671 0.420447
0.917906 0.732967 0.385992
0.932158 0.738308 0.391760
0.943542 0.743832 0.405890
0.672328 0.740352 0.635340
0.673396 0.741024 0.636622
0.674739 0.741817 0.638300
0.677516 0.743435 0.641627
0.681636 0.745815 0.646723
0.687068 0.748928 0.653407
0.693782 0.752804 0.661769
0.701686 0.757473 0.671687
0.710903 0.763058 0.683406
0.721126 0.769375 0.696559
0.732052 0.776394 0.710567
0.739895 0.782559 0.718074
0.748165 0.788968 0.725948
0.756802 0.795590 0.734188
0.765713 0.802304 0.742550
0.774838 0.809049 0.751095
0.778531 0.809506 0.750088
0.772152 0.797513 0.730037
0.765469 0.783627 0.707118
0.758328 0.767514 0.681422
0.750271 0.748745 0.652888
0.737057 0.723354 0.621332
0.719814 0.690730 0.581903
0.708278 0.659632 0.539788
0.736263 0.669154 0.523522
0.778164 0.694545 0.519249
0.814725 0.714107 0.511315
0.846799 0.728817 0.501152
0.875090 0.739254 0.486763
0.899931 0.746090 0.467567
0.921630 0.750149 0.444160
0.937438 0.754391 0.437903
0.686580 0.756069 0.652644
0.687587 0.756680 0.653864
0.688777 0.757412 0.655329
0.691188 0.758755 0.658350
0.694881 0.760800 0.663020
0.699733 0.763455 0.669154
0.705745 0.766873 0.676783
0.712886 0.770932 0.686000
0.721187 0.775753 0.696712
0.730465 0.781277 0.708827
0.740658 0.787472 0.722133
0.749264 0.793454 0.731960
0.756741 0.799130 0.739071
0.764553 0.804959 0.746456
0.772641 0.810880 0.753933
0.780911 0.816861 0.761563
0.789303 0.822873 0.769253
0.788724 0.818784 0.761379
0.782681 0.807492 0.742245
0.776455 0.794461 0.720302
0.769894 0.779446 0.695644
0.762631 0.762081 0.668055
0.750118 0.738033 0.638117
0.733700 0.707576 0.602838
0.722652 0.678981 0.565362
0.747158 0.686458 0.550317
0.788144 0.711849 0.548730
0.823819 0.731197 0.544030
0.854704 0.745418 0.536797
0.881621 0.755795 0.527184
0.904845 0.763149 0.515557
0.924529 0.768399 0.503746
0.698817 0.769589 0.667781
0.699672 0.770138 0.668910
0.700801 0.770779 0.670344
0.702998 0.771969 0.673152
0.706355 0.773800 0.677455
0.710811 0.776181 0.683223
0.716396 0.779202 0.690455
0.722927 0.782895 0.699001
0.730587 0.787228 0.709041
0.739193 0.792233 0.720363
0.748653 0.797818 0.732723
0.758602 0.803891 0.745510
0.765499 0.808988 0.751980
0.772641 0.814267 0.758724
0.780117 0.819638 0.765621
0.787747 0.825040 0.772580
0.795499 0.830472 0.779629
0.803342 0.835874 0.786740
0.799252 0.828275 0.773342
0.793698 0.817868 0.755398
0.787991 0.805875 0.734768
0.782040 0.792020 0.711238
0.775601 0.776059 0.684810
0.764004 0.753628 0.656001
0.748928 0.725734 0.624323
0.738796 0.699977 0.591882
0.759548 0.704921 0.577630
0.799252 0.729671 0.578058
0.833585 0.748348 0.575952
0.863188 0.762509 0.572625
0.888426 0.773251 0.568902
0.909483 0.781521 0.565850
0.710811 0.782712 0.683040
0.711574 0.783200 0.684047
0.712520 0.783688 0.685298
0.714504 0.784726 0.687892
0.717556 0.786252 0.691829
0.721584 0.788357 0.697139
0.726650 0.791043 0.703822
0.732723 0.794308 0.711788
0.739773 0.798184 0.721126
0.747738 0.802640 0.731594
0.756588 0.807675 0.743130
0.766171 0.813230 0.755550
0.774105 0.818418 0.764370
0.780728 0.823148 0.770504
0.787533 0.827939 0.776730
0.794522 0.832792 0.783078
0.801663 0.837675 0.789487
0.808835 0.842557 0.795956
0.814115 0.845396 0.799222
0.809171 0.837125 0.784665
0.804166 0.827634 0.767941
0.799039 0.816678 0.748714
0.793820 0.804135 0.726741
0.788327 0.789700 0.701869
0.777798 0.769039 0.674617
0.764492 0.743679 0.644800
0.755306 0.720577 0.616785
0.772519 0.723140 0.603357
0.810636 0.746700 0.605127
0.843717 0.765042 0.605921
0.871763 0.779141 0.606317
0.894865 0.790341 0.608362
0.721981 0.794858 0.697444
0.722652 0.795193 0.698329
0.723537 0.795682 0.699519
0.725338 0.796597 0.701900
0.728206 0.798062 0.705684
0.732052 0.800015 0.710780
0.736904 0.802548 0.717220
0.742702 0.805661 0.724910
0.749508 0.809323 0.733883
0.757168 0.813504 0.743923
0.765652 0.818173 0.754849
0.774777 0.823331 0.766537
0.784176 0.828763 0.778195
0.790311 0.833036 0.783841
0.796597 0.837369 0.789609
0.803006 0.841703 0.795346
0.809506 0.846036 0.801175
0.816037 0.850370 0.807034
0.822629 0.854704 0.812894
0.824582 0.854337 0.811185
0.820249 0.846983 0.797910
0.815885 0.838590 0.782681
0.811582 0.828916 0.765225
0.807187 0.817868 0.745174
0.802609 0.805051 0.722072
0.793179 0.786130 0.696468
0.781704 0.763394 0.668269
0.774441 0.743282 0.643244
0.788907 0.744289 0.631586
0.824979 0.766232 0.634668
0.856107 0.783963 0.638453
0.881712 0.797879 0.643153
0.734066 0.807675 0.713222
0.734646 0.807980 0.714015
0.735439 0.808347 0.715084
0.737118 0.809140 0.717281
0.739712 0.810391 0.720790
0.743221 0.812070 0.725460
0.747646 0.814237 0.731319
0.752987 0.816892 0.738338
0.759182 0.820066 0.746487
0.766262 0.823697 0.755642
0.774044 0.827756 0.765591
0.782498 0.832242 0.776272
0.791501 0.837125 0.787442
0.798703 0.841459 0.795315
