data/filter_cube/10491141/1023207/file.cube
# Created by Adobe Lightroom plugin Export LUT (1.17.0)
# www.johnrellis.com/lightroom/exportlut.htm
# Preset: 莫兰迪丛林_06 云集
# Color profile: C:\Program Files (x86)\Common Files\Adobe\Color\Profiles\Recommended\AdobeRGB1998.icc
LUT_3D_SIZE 5
DOMAIN_MIN 0.000000 0.000000 0.000000
DOMAIN_MAX 0.903226 0.903226 0.903226
0.069123 0.076112 0.088075
0.337072 0.053834 0.070253
0.725277 0.077455 0.000000
0.852140 0.291722 0.000000
0.941619 0.418982 0.000000
0.118379 0.193759 0.139620
0.209445 0.208194 0.149172
0.734554 0.333623 0.000000
0.852293 0.389929 0.000000
0.942107 0.466926 0.000000
0.467659 0.576654 0.414374
0.582696 0.627497 0.521965
0.573785 0.522148 0.370733
0.843717 0.599725 0.011353
0.934569 0.607111 0.000000
0.657771 0.725093 0.617884
0.690944 0.744167 0.658228
0.758968 0.793423 0.730922
0.705653 0.673091 0.558679
0.894804 0.729671 0.420447
0.744503 0.818723 0.726833
0.762387 0.826993 0.750423
0.811154 0.851926 0.809659
0.841367 0.868223 0.830350
0.813169 0.798428 0.713527
0.058350 0.100313 0.184878
0.346563 0.000000 0.222934
0.698421 0.174685 0.185855
0.834318 0.342779 0.143893
0.932128 0.450050 0.069398
0.121126 0.214542 0.196811
0.306981 0.307958 0.289067
0.715694 0.365362 0.208255
0.838895 0.420630 0.144869
0.933288 0.488319 0.060395
0.456153 0.565789 0.424384
0.579095 0.619318 0.537926
0.585687 0.545403 0.440162
0.836423 0.623316 0.288457
0.926299 0.622217 0.249393
0.654719 0.721157 0.620478
0.687739 0.740230 0.659968
0.759121 0.791989 0.739345
0.707027 0.679805 0.583398
0.894163 0.737728 0.469764
0.740536 0.816312 0.724300
0.758389 0.824582 0.747555
0.812375 0.852201 0.813962
0.845579 0.871885 0.839750
0.814481 0.801541 0.722835
0.056764 0.223484 0.470008
0.345434 0.190585 0.542687
0.700160 0.348028 0.512566
0.774380 0.470710 0.478767
0.893462 0.557275 0.481147
0.293095 0.388464 0.447028
0.399054 0.415351 0.529290
0.681331 0.466926 0.533959
0.780789 0.518669 0.495796
0.896513 0.576226 0.480720
0.411597 0.544427 0.472541
0.513909 0.579919 0.523735
0.637568 0.620783 0.586786
0.799924 0.648432 0.549279
0.903014 0.649744 0.498390
0.627192 0.699702 0.605280
0.661036 0.717159 0.642329
0.745968 0.775265 0.742092
0.714626 0.699672 0.640742
0.891173 0.761715 0.596796
0.727718 0.807523 0.717311
0.743526 0.815335 0.736751
0.794003 0.841581 0.796719
0.851164 0.876524 0.855253
0.816098 0.808042 0.745541
0.370825 0.425177 0.648951
0.454841 0.421332 0.671199
0.694362 0.417304 0.723262
0.796872 0.572290 0.671138
0.865629 0.618341 0.651820
0.471504 0.528313 0.634882
0.498390 0.517784 0.660212
0.687709 0.513359 0.723171
0.789151 0.604059 0.677302
0.861021 0.633478 0.656672
0.526299 0.620417 0.624201
0.566644 0.627985 0.634913
0.656764 0.658167 0.696651
0.767453 0.666651 0.687709
0.854276 0.686580 0.679438
0.601526 0.688991 0.635218
0.626429 0.695644 0.648859
0.691524 0.729519 0.697322
0.742824 0.743160 0.721706
0.878080 0.764950 0.704738
0.702022 0.789944 0.701015
0.716548 0.797024 0.717464
0.762905 0.821927 0.770413
0.837980 0.865660 0.850523
0.822110 0.822019 0.784207
0.575891 0.605463 0.770230
0.596612 0.601068 0.779812
0.686427 0.584680 0.812345
0.820859 0.607019 0.827329
0.874479 0.696773 0.783841
0.599695 0.640497 0.760250
0.605371 0.630091 0.771023
0.681422 0.619104 0.805264
0.814694 0.628901 0.826566
0.872160 0.708583 0.787350
0.621241 0.679561 0.722072
0.630274 0.681544 0.731014
0.667292 0.685878 0.780514
0.796445 0.689509 0.829068
0.865873 0.742428 0.798611
0.643427 0.750729 0.746548
0.652399 0.750179 0.748470
0.683803 0.750088 0.757687
0.753445 0.770199 0.811734
0.856718 0.792172 0.817502
0.689021 0.798093 0.752193
0.697444 0.799954 0.756558
0.729335 0.809476 0.775479
0.787442 0.833036 0.815061
0.844358 0.856168 0.851102
