data/fiter_cube/80369196/1023069/file.cube
# Created by Adobe Lightroom plugin Export LUT (1.17.0)
# www.johnrellis.com/lightroom/exportlut.htm
# Preset: Have Fun_01
# Color profile: C:\Program Files (x86)\Common Files\Adobe\Color\Profiles\Recommended\AdobeRGB1998.icc
LUT_3D_SIZE 5
DOMAIN_MIN 0.000000 0.000000 0.000000
DOMAIN_MAX 0.903226 0.903226 0.903226
0.000000 0.000000 0.000000
0.366583 0.000000 0.000000
0.705013 0.000000 0.000000
0.926574 0.000000 0.000000
1.000000 0.000000 0.000000
0.000000 0.318578 0.000000
0.364202 0.261784 0.000000
0.665675 0.229343 0.000000
0.912932 0.172061 0.000000
1.000000 0.022095 0.000000
0.000000 0.662409 0.030732
0.355138 0.650813 0.110689
0.694392 0.499214 0.000000
0.865019 0.414527 0.000000
1.000000 0.362463 0.000000
0.032990 0.881559 0.170962
0.324224 0.875578 0.209537
0.679988 0.840482 0.147616
0.920134 0.663874 0.000000
1.000000 0.571893 0.000000
0.169680 1.000000 0.269718
0.326207 1.000000 0.297581
0.587304 0.998352 0.371099
0.898802 0.969360 0.247745
1.000000 0.782803 0.084199
0.000000 0.268589 0.412146
0.334539 0.000000 0.309056
0.722164 0.000000 0.259098
0.928466 0.000000 0.219425
1.000000 0.000000 0.178561
0.000000 0.346136 0.323095
0.341344 0.302464 0.281468
0.682002 0.256016 0.237522
0.915343 0.202579 0.201541
1.000000 0.125185 0.163607
0.181155 0.659846 0.361975
0.349737 0.656214 0.314061
0.688441 0.514672 0.223178
0.869261 0.422400 0.126864
1.000000 0.370550 0.090211
0.229465 0.879301 0.365209
0.356329 0.875731 0.352392
0.672267 0.845335 0.331975
0.915038 0.673182 0.188571
1.000000 0.575891 0.000000
0.294285 1.000000 0.409766
0.373724 1.000000 0.406043
0.606165 0.996765 0.477424
0.891600 0.970459 0.337591
1.000000 0.784451 0.108400
0.000000 0.548730 0.836027
0.000000 0.290837 0.774105
0.659815 0.070069 0.607538
0.917388 0.204440 0.532311
1.000000 0.407080 0.549187
0.000000 0.670314 0.817502
0.263584 0.566339 0.766629
0.662684 0.310735 0.594232
0.912108 0.366735 0.540551
1.000000 0.414557 0.528435
0.000000 0.718502 0.671565
0.282170 0.686519 0.641749
0.647150 0.578943 0.542260
0.878569 0.514763 0.489509
1.000000 0.467689 0.460548
0.228061 0.880278 0.622065
0.443519 0.870390 0.632013
0.675624 0.857206 0.639429
0.891203 0.714809 0.490181
1.000000 0.598260 0.356695
0.539269 0.999664 0.691066
0.608576 0.994751 0.704891
0.661494 0.994446 0.656611
0.868254 0.974426 0.619501
1.000000 0.819303 0.448463
0.000000 0.647333 0.978058
0.000000 0.593835 0.965789
0.485512 0.332891 0.903136
0.871305 0.250004 0.811002
1.000000 0.434607 0.741909
0.000000 0.741787 0.976226
0.208194 0.713191 0.963317
0.533562 0.486519 0.902708
0.869718 0.387640 0.805325
1.000000 0.512078 0.751888
0.000000 0.851743 0.950469
0.430457 0.858488 0.946502
0.731655 0.808682 0.908812
0.856016 0.618891 0.785855
1.000000 0.674617 0.777859
0.000000 0.929931 0.877256
0.370977 0.918425 0.870298
0.658595 0.875212 0.839567
0.843473 0.790799 0.763851
1.000000 0.751553 0.738949
0.297642 1.000000 0.807462
0.449866 1.000000 0.814115
0.714748 0.992065 0.841062
0.863798 0.980041 0.848569
1.000000 0.888975 0.739925
0.000000 0.672267 1.000000
0.000000 0.666896 1.000000
0.253971 0.544366 1.000000
0.705287 0.398657 0.980285
0.994903 0.417700 0.943450
0.000000 0.719173 1.000000
0.000000 0.716579 1.000000
0.453986 0.659907 1.000000
0.713619 0.483040 0.976562
0.991150 0.481514 0.939879
0.000000 0.820035 1.000000
0.000000 0.825681 1.000000
0.685878 0.858213 0.999908
0.756649 0.694240 0.974670
0.986938 0.651911 0.938872
0.000000 0.919707 1.000000
0.000000 0.920867 0.999145
0.646662 0.935058 0.995270
0.901152 0.939483 0.987060
0.980346 0.826993 0.940276
0.000000 1.000000 0.979553
0.133944 1.000000 0.978271
0.617212 1.000000 0.975677
0.853574 0.987488 0.967864
0.969940 0.947662 0.936614
