data/fiter_cube/80369196/1023069/file.cube
# Created by Adobe Lightroom plugin Export LUT (1.17.0)
# www.johnrellis.com/lightroom/exportlut.htm
# Preset: Have Fun_01
# Color profile: C:\Program Files (x86)\Common Files\Adobe\Color\Profiles\Recommended\AdobeRGB1998.icc
LUT_3D_SIZE 32
DOMAIN_MIN 0.0 0.0 0.0
DOMAIN_MAX 1.0 1.0 1.0
0.000000 0.000000 0.000000
0.057771 0.000000 0.000000
0.085878 0.000000 0.000000
0.139528 0.000000 0.000000
0.205020 0.000000 0.000000
0.263706 0.000000 0.000000
0.316716 0.000000 0.000000
0.366583 0.000000 0.000000
0.415686 0.000000 0.000000
0.464668 0.000000 0.000000
0.514641 0.000000 0.000000
0.564965 0.000000 0.000000
0.613794 0.000000 0.000000
0.660700 0.000000 0.000000
0.705013 0.000000 0.000000
0.745693 0.000000 0.000000
0.781827 0.000000 0.000000
0.814908 0.000000 0.000000
0.845151 0.000000 0.000000
0.873625 0.000000 0.000000
0.900694 0.000000 0.000000
0.926574 0.000000 0.000000
0.951385 0.000000 0.000000
0.975006 0.000000 0.000000
0.997559 0.000000 0.000000
1.000000 0.000000 0.000000
1.000000 0.000000 0.000000
1.000000 0.000000 0.000000
1.000000 0.000000 0.000000
1.000000 0.000000 0.000000
1.000000 0.000000 0.000000
1.000000 0.000000 0.000000
0.000000 0.044800 0.005066
0.059937 0.034821 0.000855
0.087556 0.031342 0.000000
0.140505 0.030335 0.000000
0.204623 0.019623 0.000000
0.262699 0.000000 0.000000
0.315618 0.000000 0.000000
0.365332 0.000000 0.000000
0.414374 0.000000 0.000000
0.463600 0.000000 0.000000
0.513634 0.000000 0.000000
0.564141 0.000000 0.000000
0.613214 0.000000 0.000000
0.660334 0.000000 0.000000
0.704829 0.000000 0.000000
0.745418 0.000000 0.000000
0.781643 0.000000 0.000000
0.814817 0.000000 0.000000
0.845151 0.000000 0.000000
0.873716 0.000000 0.000000
0.900816 0.000000 0.000000
0.926787 0.000000 0.000000
0.951568 0.000000 0.000000
0.975250 0.000000 0.000000
0.997772 0.000000 0.000000
1.000000 0.000000 0.000000
1.000000 0.000000 0.000000
1.000000 0.000000 0.000000
1.000000 0.000000 0.000000
1.000000 0.000000 0.000000
1.000000 0.000000 0.000000
1.000000 0.000000 0.000000
0.000000 0.074830 0.008667
0.056184 0.074128 0.006104
0.089754 0.066468 0.003143
0.141482 0.070527 0.000000
0.204105 0.070741 0.000000
0.261448 0.064088 0.000000
0.313695 0.048798 0.000000
0.363378 0.017884 0.000000
0.412482 0.000000 0.000000
0.461585 0.000000 0.000000
0.511681 0.000000 0.000000
0.562402 0.000000 0.000000
0.611597 0.000000 0.000000
0.658900 0.000000 0.000000
0.703487 0.000000 0.000000
0.744411 0.000000 0.000000
0.780789 0.000000 0.000000
0.814176 0.000000 0.000000
0.844694 0.000000 0.000000
0.873289 0.000000 0.000000
0.900511 0.000000 0.000000
0.926513 0.000000 0.000000
0.951354 0.000000 0.000000
0.975067 0.000000 0.000000
0.997681 0.000000 0.000000
1.000000 0.000000 0.000000
1.000000 0.000000 0.000000
1.000000 0.000000 0.000000
1.000000 0.000000 0.000000
1.000000 0.000000 0.000000
1.000000 0.000000 0.000000
1.000000 0.000000 0.000000
0.000000 0.118502 0.015137
0.051240 0.117281 0.018433
0.095216 0.117708 0.011597
0.147585 0.107424 0.000000
0.204898 0.110658 0.000000
0.257969 0.107912 0.000000
0.309514 0.102846 0.000000
0.358892 0.095918 0.000000
0.407691 0.087587 0.000000
0.456947 0.077638 0.000000
0.506981 0.065949 0.000000
0.558221 0.034272 0.000000
0.607721 0.000000 0.000000
0.655329 0.000000 0.000000
0.700649 0.000000 0.000000
0.741634 0.000000 0.000000
0.778592 0.000000 0.000000
0.812284 0.000000 0.000000
0.843168 0.000000 0.000000
0.872099 0.000000 0.000000
0.899596 0.000000 0.000000
0.925780 0.000000 0.000000
0.950805 0.000000 0.000000
0.974578 0.000000 0.000000
0.997192 0.000000 0.000000
1.000000 0.000000 0.000000
1.000000 0.000000 0.000000
1.000000 0.000000 0.000000
1.000000 0.000000 0.000000
1.000000 0.000000 0.000000
1.000000 0.000000 0.000000
1.000000 0.000000 0.000000
0.000000 0.172091 0.011231
0.040742 0.170932 0.012268
0.088838 0.169619 0.018830
0.154543 0.169528 0.000000
0.210056 0.151766 0.000000
0.260990 0.150546 0.000000
0.303349 0.143832 0.000000
0.352270 0.140047 0.000000
0.400977 0.135348 0.000000
0.449866 0.130800 0.000000
0.500267 0.124331 0.000000
0.551751 0.116884 0.000000
0.601831 0.107790 0.000000
0.649989 0.095552 0.000000
0.695796 0.080720 0.000000
0.737087 0.059998 0.000000
0.774594 0.003784 0.000000
0.808804 0.000000 0.000000
0.840116 0.000000 0.000000
0.869596 0.000000 0.000000
0.897520 0.000000 0.000000
0.924102 0.000000 0.000000
0.949401 0.000000 0.000000
0.973419 0.000000 0.000000
0.996246 0.000000 0.000000
1.000000 0.000000 0.000000
1.000000 0.000000 0.000000
1.000000 0.000000 0.000000
1.000000 0.000000 0.000000
1.000000 0.000000 0.000000
1.000000 0.000000 0.000000
1.000000 0.000000 0.000000
0.000000 0.223758 0.000000
0.012238 0.222782 0.000000
0.081575 0.221164 0.003601
0.146334 0.219486 0.000000
0.216342 0.216739 0.000000
0.265354 0.191196 0.000000
0.311681 0.187564 0.000000
0.348486 0.179141 0.000000
0.391150 0.173983 0.000000
0.440406 0.171115 0.000000
0.490669 0.167819 0.000000
0.542412 0.163729 0.000000
0.593011 0.158907 0.000000
0.641962 0.151858 0.000000
0.688472 0.143648 0.000000
0.730465 0.134066 0.000000
0.768856 0.122377 0.000000
0.803769 0.109651 0.000000
0.835782 0.094057 0.000000
0.865873 0.075410 0.000000
0.894316 0.042817 0.000000
0.921416 0.000000 0.000000
0.943847 0.000000 0.000000
0.968536 0.000000 0.000000
0.991974 0.000000 0.000000
1.000000 0.000000 0.000000
1.000000 0.000000 0.000000
1.000000 0.000000 0.000000
1.000000 0.000000 0.000000
1.000000 0.000000 0.000000
1.000000 0.000000 0.000000
1.000000 0.000000 0.000000
0.000000 0.271000 0.000000
0.000000 0.270024 0.000000
0.073060 0.268894 0.000000
0.133394 0.266636 0.000000
0.207095 0.263401 0.000000
0.273625 0.258213 0.000000
0.314977 0.226352 0.000000
0.358007 0.221836 0.000000
0.392523 0.212772 0.000000
0.427192 0.204776 0.000000
0.476967 0.203555 0.000000
0.528344 0.201938 0.000000
0.579828 0.199344 0.000000
0.629572 0.195407 0.000000
0.676875 0.189731 0.000000
0.720394 0.182773 0.000000
0.760037 0.174594 0.000000
0.796262 0.165408 0.000000
0.829191 0.155215 0.000000
0.860014 0.143832 0.000000
0.889067 0.131472 0.000000
0.916533 0.118135 0.000000
0.942535 0.102266 0.000000
0.967254 0.082429 0.000000
0.990753 0.055238 0.000000
1.000000 0.000000 0.000000
1.000000 0.000000 0.000000
1.000000 0.000000 0.000000
1.000000 0.000000 0.000000
1.000000 0.000000 0.000000
1.000000 0.000000 0.000000
1.000000 0.000000 0.000000
0.000000 0.318578 0.000000
0.000000 0.317967 0.000000
0.062501 0.316991 0.000000
0.125978 0.314946 0.000000
0.197635 0.311681 0.000000
0.266575 0.306554 0.000000
0.327062 0.296696 0.000000
0.364202 0.261784 0.000000
0.405524 0.256504 0.000000
0.438941 0.247166 0.000000
0.471870 0.238560 0.000000
0.515312 0.235294 0.000000
0.567468 0.234836 0.000000
0.617639 0.232792 0.000000
0.665675 0.229343 0.000000
0.710719 0.224094 0.000000
0.751644 0.217685 0.000000
0.789029 0.210025 0.000000
0.823026 0.201633 0.000000
0.854765 0.192508 0.000000
0.884703 0.182650 0.000000
0.912932 0.172061 0.000000
0.939574 0.161196 0.000000
0.964843 0.148928 0.000000
0.988830 0.135378 0.000000
1.000000 0.120394 0.000000
1.000000 0.102235 0.000000
1.000000 0.078553 0.000000
1.000000 0.022095 0.000000
1.000000 0.000000 0.000000
1.000000 0.000000 0.000000
1.000000 0.000000 0.000000
0.000000 0.366735 0.000000
0.000000 0.366094 0.000000
0.051362 0.365423 0.000000
0.124178 0.363622 0.000000
0.187655 0.360937 0.008026
0.259403 0.355901 0.000000
0.324804 0.349126 0.000000
0.374487 0.330022 0.000000
0.413306 0.297032 0.000000
0.453712 0.291539 0.000000
0.486488 0.282109 0.000000
0.518975 0.273167 0.000000
0.552667 0.265568 0.000000
0.603479 0.265507 0.000000
0.652399 0.263890 0.000000
0.698939 0.260716 0.000000
0.741543 0.255650 0.000000
0.780270 0.249424 0.000000
0.815457 0.242039 0.000000
0.848386 0.233890 0.000000
0.879271 0.225620 0.000000
0.908415 0.216251 0.000000
0.935821 0.206821 0.000000
0.961791 0.196597 0.000000
0.986297 0.185794 0.000000
1.000000 0.174014 0.000000
1.000000 0.161196 0.000000
1.000000 0.146792 0.000000
1.000000 0.129946 0.000000
1.000000 0.108217 0.000000
1.000000 0.077028 0.000000
1.000000 0.000000 0.000000
0.000000 0.415839 0.000000
0.000000 0.415381 0.000000
0.042359 0.414862 0.000000
0.123568 0.413428 0.000000
0.181155 0.411475 0.041108
0.252903 0.406867 0.005249
0.320378 0.400153 0.000000
0.382849 0.391760 0.000000
0.422309 0.363165 0.000000
0.463111 0.332952 0.000000
0.502922 0.327092 0.000000
0.534844 0.316960 0.000000
0.565911 0.307286 0.000000
0.596246 0.298131 0.000000
0.637659 0.294347 0.000000
0.685664 0.293126 0.000000
0.729732 0.289708 0.000000
0.769894 0.284794 0.000000
0.806424 0.278508 0.000000
0.840635 0.271366 0.000000
0.872862 0.263706 0.000000
0.903075 0.255558 0.000000
0.931548 0.246860 0.000000
0.958343 0.237675 0.000000
0.983551 0.227939 0.000000
1.000000 0.217624 0.000000
1.000000 0.206699 0.000000
1.000000 0.194797 0.000000
1.000000 0.181338 0.000000
1.000000 0.165560 0.000000
1.000000 0.146975 0.000000
1.000000 0.125917 0.000000
0.000000 0.466835 0.000000
0.000000 0.466651 0.000000
0.030762 0.466072 0.000000
0.122835 0.464851 0.009613
0.182742 0.463081 0.051453
0.245792 0.459663 0.058808
0.316442 0.453010 0.000000
0.380652 0.444892 0.000000
0.440833 0.434852 0.000000
0.470344 0.396338 0.000000
0.513146 0.368963 0.000000
0.551598 0.362310 0.000000
0.581781 0.351141 0.000000
0.611200 0.340490 0.000000
0.640253 0.330541 0.000000
0.670893 0.322118 0.000000
0.716701 0.320623 0.000000
0.758450 0.317113 0.000000
0.796628 0.312047 0.000000
0.832334 0.305913 0.000000
0.865782 0.299138 0.000000
0.897154 0.291691 0.000000
0.926604 0.283696 0.000000
0.954223 0.275181 0.000000
0.980163 0.266117 0.000000
1.000000 0.256443 0.000000
1.000000 0.246403 0.000000
1.000000 0.235599 0.000000
1.000000 0.223667 0.000000
1.000000 0.210269 0.000000
1.000000 0.194858 0.000000
1.000000 0.178714 0.000000
0.000000 0.519280 0.000000
0.000000 0.519036 0.000000
0.017639 0.518486 0.000000
0.121736 0.517510 0.019135
0.183566 0.515923 0.060212
0.238712 0.513909 0.081941
0.311467 0.507683 0.058106
0.378454 0.499580 0.000000
0.440436 0.489326 0.000000
0.498054 0.477333 0.000000
0.517479 0.428687 0.000000
0.562188 0.404181 0.000000
0.594598 0.393530 0.000000
0.623224 0.381781 0.000000
0.651240 0.370642 0.000000
0.679011 0.360174 0.000000
0.706111 0.350195 0.000000
0.742489 0.345068 0.000000
0.782589 0.341558 0.000000
0.820096 0.336797 0.000000
0.855314 0.331029 0.000000
0.888243 0.324559 0.000000
0.919097 0.317235 0.000000
0.947967 0.309483 0.000000
0.974975 0.301152 0.000000
1.000000 0.292088 0.000000
1.000000 0.282628 0.000000
1.000000 0.272465 0.000000
1.000000 0.261448 0.000000
1.000000 0.249088 0.000000
1.000000 0.235508 0.000000
1.000000 0.221225 0.000000
0.000000 0.568536 0.000000
0.000000 0.568322 0.000000
0.000000 0.567987 0.004639
0.118898 0.567193 0.033753
0.182528 0.566155 0.065095
0.238865 0.564385 0.085542
0.303166 0.559899 0.084413
0.372442 0.551690 0.048524
0.436530 0.541741 0.000000
0.496132 0.530144 0.000000
0.551904 0.516777 0.000000
0.566125 0.462226 0.000000
0.607111 0.436439 0.000000
0.640986 0.427131 0.000000
0.667689 0.414191 0.000000
0.693751 0.401984 0.000000
0.719295 0.390356 0.000000
0.744442 0.379461 0.000000
0.770962 0.369848 0.000000
0.810178 0.366522 0.000000
0.846891 0.361944 0.000000
0.881254 0.356268 0.000000
0.913237 0.349767 0.000000
0.943145 0.342565 0.000000
0.971099 0.334661 0.000000
0.997192 0.326116 0.000000
1.000000 0.317082 0.000000
1.000000 0.307286 0.000000
1.000000 0.296818 0.000000
1.000000 0.285100 0.000000
1.000000 0.272313 0.000000
1.000000 0.259129 0.000000
0.000000 0.617456 0.002197
0.000000 0.617121 0.012543
0.000000 0.616785 0.024048
0.115785 0.616022 0.053346
0.180819 0.614649 0.072786
0.238468 0.612909 0.090761
0.293004 0.610468 0.108003
0.365057 0.602716 0.084688
0.431312 0.593347 0.030579
0.492866 0.582361 0.000000
0.550622 0.569696 0.000000
0.604242 0.555108 0.000000
0.614099 0.495369 0.000000
0.652277 0.468940 0.000000
0.683650 0.458228 0.000000
0.708858 0.444495 0.000000
0.732906 0.431342 0.000000
0.756619 0.418891 0.000000
0.780301 0.407233 0.000000
0.804776 0.396826 0.000000
0.837705 0.390784 0.000000
0.873442 0.386236 0.000000
0.906767 0.380499 0.000000
0.937774 0.373999 0.000000
0.966735 0.366613 0.000000
0.993683 0.358556 0.000000
1.000000 0.349828 0.000000
1.000000 0.340459 0.000000
1.000000 0.330419 0.000000
1.000000 0.319036 0.000000
1.000000 0.306920 0.000000
1.000000 0.294316 0.000000
0.000000 0.662409 0.030732
0.000000 0.662135 0.038727
0.000000 0.661707 0.051484
0.113069 0.661097 0.066255
0.179294 0.659876 0.081819
0.236973 0.658289 0.097658
0.290837 0.656184 0.115297
0.355138 0.650813 0.110689
0.423041 0.642054 0.083558
0.486671 0.631861 0.007080
0.546136 0.620050 0.000000
0.602289 0.606836 0.000000
0.646937 0.584833 0.000000
0.659663 0.526604 0.000000
0.694392 0.499214 0.000000
0.722957 0.487068 0.000000
0.746548 0.472572 0.000000
0.768856 0.458717 0.000000
0.791409 0.445869 0.000000
0.814725 0.434211 0.000000
0.838804 0.423590 0.000000
0.865019 0.414527 0.000000
0.899779 0.409796 0.000000
0.932067 0.403906 0.000000
0.962036 0.397131 0.000000
0.989899 0.389685 0.000000
1.000000 0.381353 0.000000
1.000000 0.372320 0.000000
1.000000 0.362463 0.000000
1.000000 0.351446 0.000000
1.000000 0.339666 0.000000
1.000000 0.327428 0.000000
0.000000 0.702907 0.062257
0.000000 0.702541 0.067140
0.000000 0.702205 0.070985
0.110689 0.701442 0.080049
0.177005 0.700191 0.092592
0.234806 0.698604 0.107362
0.288212 0.696559 0.123140
0.342229 0.693568 0.135164
0.411872 0.685512 0.113985
0.476387 0.676265 0.082612
0.537407 0.665583 0.000000
0.595178 0.653681 0.000000
0.649928 0.640406 0.000000
0.686427 0.611505 0.000000
0.701411 0.555016 0.000000
0.732967 0.527153 0.000000
0.759121 0.513756 0.000000
0.781308 0.498939 0.000000
0.802640 0.484627 0.000000
0.824735 0.471748 0.000000
0.847654 0.460060 0.000000
0.871244 0.449256 0.000000
0.895506 0.439307 0.000000
0.925566 0.432593 0.000000
0.956725 0.426551 0.000000
0.985626 0.419501 0.000000
1.000000 0.411688 0.000000
1.000000 0.403021 0.000000
1.000000 0.393500 0.000000
1.000000 0.382757 0.000000
1.000000 0.371344 0.000000
1.000000 0.359228 0.000000
0.000000 0.739284 0.082643
0.000000 0.739071 0.085481
0.000000 0.738643 0.088777
0.112062 0.738064 0.096071
0.176059 0.736873 0.106081
0.232609 0.735348 0.119203
0.285710 0.733394 0.133761
0.336492 0.731014 0.148928
0.399268 0.725216 0.141451
0.464454 0.716732 0.117739
0.526116 0.707088 0.084352
0.584771 0.696315 0.000000
0.640742 0.684230 0.000000
0.694118 0.671015 0.000000
0.722438 0.635340 0.000000
0.739437 0.580591 0.000000
0.768154 0.552728 0.000000
0.792416 0.538659 0.000000
0.813993 0.523766 0.000000
0.834989 0.509575 0.000000
0.856809 0.496773 0.000000
0.879301 0.484962 0.000000
0.902434 0.474128 0.000000
0.926207 0.463966 0.000000
0.951415 0.454963 0.000000
0.981384 0.448554 0.000000
1.000000 0.441199 0.000000
1.000000 0.432898 0.000000
1.000000 0.423743 0.000000
1.000000 0.413245 0.000000
1.000000 0.402075 0.000000
1.000000 0.389899 0.000000
0.000000 0.771786 0.101381
0.000000 0.771481 0.103975
0.000000 0.768978 0.104829
0.113771 0.768276 0.111299
0.175814 0.767239 0.119814
0.230076 0.765927 0.131197
0.282200 0.764157 0.143740
0.331884 0.762051 0.157809
0.384375 0.758755 0.166842
0.449866 0.751308 0.147646
0.511681 0.742763 0.121889
0.570672 0.733150 0.086305
0.627436 0.722499 0.000000
0.681941 0.710780 0.000000
0.734127 0.698177 0.000000
0.755062 0.656275 0.000000
0.773953 0.603723 0.000000
0.800504 0.576349 0.000000
0.823056 0.561608 0.000000
0.844114 0.546868 0.000000
0.864958 0.532952 0.000000
0.886503 0.520165 0.000000
0.908751 0.508446 0.000000
0.931579 0.497627 0.000000
0.954925 0.487373 0.000000
0.978546 0.477577 0.000000
1.000000 0.469856 0.000000
1.000000 0.462043 0.000000
1.000000 0.453193 0.000000
1.000000 0.443061 0.000000
1.000000 0.432105 0.000000
1.000000 0.419745 0.000000
0.000000 0.801419 0.119631
0.000000 0.800992 0.120943
0.041260 0.800412 0.122957
0.120485 0.799527 0.128328
0.176974 0.798428 0.135775
0.229801 0.797055 0.145663
0.280491 0.795438 0.157046
0.329320 0.793423 0.169863
0.376867 0.791165 0.184176
0.436683 0.785580 0.175753
0.498390 0.778012 0.154543
0.557580 0.769436 0.127779
0.614679 0.759976 0.090700
0.669734 0.749569 0.000000
0.722957 0.738247 0.000000
0.774380 0.726009 0.000000
0.788388 0.677943 0.000000
0.808530 0.627192 0.000000
0.832853 0.600000 0.000000
0.853849 0.584619 0.000000
0.874144 0.569757 0.000000
0.894621 0.555962 0.000000
0.915862 0.543236 0.000000
0.937713 0.531548 0.000000
0.960113 0.520531 0.000000
0.982879 0.510124 0.000000
1.000000 0.499977 0.000000
1.000000 0.490517 0.000000
1.000000 0.482033 0.000000
1.000000 0.472175 0.000000
1.000000 0.461250 0.000000
1.000000 0.448890 0.000000
0.000000 0.830228 0.137392
0.000000 0.829801 0.138674
0.070100 0.829313 0.140505
0.127138 0.828519 0.144839
0.180270 0.827512 0.151614
0.230594 0.826261 0.160128
0.279789 0.824704 0.170809
0.327184 0.822904 0.182650
0.373663 0.820798 0.196017
0.423926 0.817380 0.202487
0.485206 0.810697 0.184451
0.544030 0.803189 0.161898
0.601038 0.794766 0.134157
0.656336 0.785519 0.095247
0.710048 0.775418 0.000000
0.762234 0.764431 0.000000
0.812802 0.752621 0.000000
0.820218 0.698848 0.000000
0.841276 0.649226 0.000000
0.863645 0.622492 0.000000
0.883146 0.606653 0.000000
0.902586 0.591669 0.000000
0.922820 0.577996 0.000000
0.943755 0.565393 0.000000
0.965270 0.553643 0.000000
0.987243 0.542504 0.000000
1.000000 0.531792 0.000000
1.000000 0.521386 0.000000
1.000000 0.510765 0.000000
1.000000 0.500969 0.000000
1.000000 0.489815 0.000000
1.000000 0.477485 0.000000
0.000000 0.857176 0.154879
0.040131 0.856809 0.156283
0.087984 0.856382 0.157748
0.135500 0.855711 0.161349
0.184482 0.854704 0.167544
0.232547 0.853513 0.175296
0.279088 0.852110 0.185000
0.325414 0.850401 0.195956
0.371038 0.848356 0.208713
0.415717 0.846098 0.222354
0.472175 0.840909 0.212314
0.530388 0.834257 0.193179
0.586786 0.826841 0.169955
0.641962 0.818570 0.140780
0.695644 0.809567 0.101167
0.748196 0.799741 0.000000
0.799344 0.789151 0.000000
0.846006 0.774838 0.000000
0.850278 0.718379 0.000000
0.871824 0.669917 0.000000
0.892363 0.643549 0.000000
0.910521 0.627253 0.000000
0.929046 0.612024 0.000000
0.949035 0.598535 0.000000
0.969665 0.585992 0.000000
0.990814 0.574304 0.000000
1.000000 0.563012 0.000000
1.000000 0.552148 0.000000
1.000000 0.541161 0.000000
1.000000 0.529717 0.000000
1.000000 0.517693 0.000000
1.000000 0.505730 0.000000
0.032990 0.881559 0.170962
0.076081 0.881346 0.172122
0.103212 0.881010 0.173770
0.143923 0.880491 0.177188
0.189181 0.879637 0.182712
0.234409 0.878569 0.190097
0.279515 0.877226 0.199161
0.324224 0.875578 0.209537
0.368505 0.873686 0.221042
0.412177 0.871458 0.234195
0.459724 0.868162 0.239200
0.516777 0.862272 0.221714
0.572351 0.855680 0.201358
0.626673 0.848417 0.177615
0.679988 0.840482 0.147616
0.732540 0.831754 0.106294
0.783841 0.822385 0.000000
0.834348 0.812222 0.000000
0.874083 0.792721 0.000000
0.878904 0.736721 0.000000
0.900999 0.689601 0.000000
0.920134 0.663874 0.000000
0.937346 0.647425 0.000000
0.954955 0.632074 0.000000
0.974823 0.618769 0.000000
0.995239 0.606348 0.000000
1.000000 0.594537 0.000000
1.000000 0.583154 0.000000
1.000000 0.571893 0.000000
1.000000 0.559686 0.000000
1.000000 0.546960 0.000000
1.000000 0.534112 0.000000
0.079774 0.904997 0.187747
0.099001 0.904784 0.189151
0.119387 0.904509 0.190249
0.154604 0.903899 0.193606
0.195346 0.903136 0.198703
0.237552 0.902129 0.205142
0.280674 0.900877 0.213596
0.323705 0.899351 0.223209
0.366735 0.897551 0.234379
0.409247 0.895415 0.246738
0.451423 0.893095 0.260502
0.504173 0.888396 0.250217
0.558373 0.882658 0.231754
0.611994 0.876249 0.210575
0.664607 0.869261 0.185519
0.716579 0.861601 0.154726
0.767819 0.853269 0.112917
0.818296 0.844297 0.000000
0.868040 0.834684 0.000000
0.901274 0.809995 0.000000
0.906737 0.754665 0.000000
0.928923 0.708675 0.000000
0.946838 0.683497 0.000000
0.963104 0.666865 0.000000
0.980102 0.651484 0.000000
0.999817 0.638392 0.000000
1.000000 0.625971 0.000000
1.000000 0.614099 0.000000
1.000000 0.602258 0.000000
1.000000 0.589685 0.000000
1.000000 0.577050 0.000000
1.000000 0.564385 0.000000
0.102266 0.926268 0.203220
0.116091 0.926055 0.204288
0.133242 0.925780 0.205417
0.163607 0.925322 0.208560
0.200931 0.924620 0.213260
0.240726 0.923674 0.219760
0.281895 0.922515 0.227329
0.323400 0.921111 0.236881
0.365240 0.919402 0.247349
0.406806 0.917479 0.259525
0.447913 0.915312 0.272648
0.492622 0.912200 0.276829
0.545312 0.907256 0.260380
0.597528 0.901732 0.241276
0.649195 0.895689 0.219699
0.700465 0.889067 0.193881
0.751339 0.881804 0.162051
0.801663 0.873991 0.120119
0.851408 0.865537 0.016602
0.900572 0.856504 0.000000
0.927764 0.826871 0.000000
0.934630 0.773007 0.000000
0.956115 0.727321 0.000000
0.972992 0.702785 0.000000
0.988464 0.685969 0.000000
1.000000 0.669978 0.000000
1.000000 0.657069 0.000000
1.000000 0.644862 0.000000
1.000000 0.632166 0.000000
1.000000 0.619501 0.000000
1.000000 0.606897 0.000000
1.000000 0.594446 0.000000
0.121920 0.946746 0.218814
0.132784 0.946532 0.219791
0.147219 0.946288 0.220920
0.174014 0.945830 0.223728
0.208042 0.945159 0.228275
0.245274 0.944244 0.234195
0.284398 0.943114 0.241764
0.324163 0.941741 0.250492
0.364508 0.940124 0.260838
0.404913 0.938262 0.272343
0.444862 0.936156 0.284794
0.484749 0.933806 0.298711
0.533562 0.929778 0.288182
0.584100 0.924987 0.270542
0.634302 0.919738 0.250919
0.684382 0.913939 0.228214
0.734401 0.907652 0.201450
0.784115 0.900786 0.169253
0.833524 0.893462 0.126406
0.882597 0.885557 0.030243
0.931365 0.877165 0.000000
0.953002 0.842863 0.000000
0.961669 0.790738 0.000000
0.982055 0.744991 0.000000
0.998016 0.721187 0.000000
1.000000 0.704219 0.000000
1.000000 0.687922 0.000000
1.000000 0.674678 0.000000
1.000000 0.661646 0.000000
1.000000 0.648829 0.000000
1.000000 0.636225 0.000000
1.000000 0.624048 0.000000
0.138064 0.965728 0.233707
0.148104 0.965545 0.234501
0.160067 0.965332 0.235538
0.183993 0.964904 0.238499
0.214878 0.964294 0.242557
0.249851 0.963470 0.248325
0.286931 0.962371 0.255589
0.325200 0.961089 0.264012
0.364294 0.959533 0.273930
0.403265 0.957733 0.284703
0.442481 0.955688 0.297124
0.481239 0.953429 0.310369
0.523095 0.950561 0.314885
0.571771 0.946441 0.298894
0.620356 0.941924 0.280552
0.669123 0.936950 0.260136
0.717952 0.931548 0.236790
0.766751 0.925628 0.209445
0.815610 0.919280 0.176242
0.864378 0.912444 0.131685
0.912993 0.905180 0.043458
0.961547 0.897490 0.000000
0.977996 0.858854 0.000000
0.988220 0.808316 0.000000
1.000000 0.762570 0.000000
1.000000 0.739223 0.000000
1.000000 0.721553 0.000000
1.000000 0.704524 0.000000
1.000000 0.690822 0.000000
1.000000 0.677821 0.000000
1.000000 0.665126 0.000000
1.000000 0.653132 0.000000
0.152438 0.983673 0.247379
0.160647 0.983520 0.248295
0.171847 0.983307 0.249424
0.192782 0.982910 0.251957
0.221683 0.982300 0.256168
0.254398 0.981445 0.261631
0.289433 0.980346 0.268070
0.326116 0.979034 0.276402
0.363622 0.977447 0.285588
0.401495 0.975647 0.296208
0.439521 0.973602 0.307927
0.477394 0.971374 0.320684
0.515038 0.968963 0.334691
0.559930 0.965576 0.324559
0.606744 0.961669 0.307866
0.653834 0.957427 0.289006
0.701411 0.952789 0.267613
0.749081 0.947784 0.243442
0.797055 0.942321 0.215061
0.845182 0.936461 0.180758
0.893339 0.930297 0.135775
0.941741 0.923735 0.044221
0.990021 0.916960 0.000000
1.000000 0.873899 0.000000
1.000000 0.824277 0.000000
1.000000 0.777676 0.000000
1.000000 0.754788 0.000000
1.000000 0.736751 0.000000
1.000000 0.719478 0.000000
1.000000 0.705592 0.000000
1.000000 0.692866 0.000000
1.000000 0.680995 0.000000
0.161837 1.000000 0.258885
0.169497 0.999878 0.259770
0.179446 0.999695 0.261204
0.199069 0.999329 0.263462
0.225834 0.998749 0.267247
0.257237 0.997955 0.272953
0.290898 0.996979 0.279454
0.326177 0.995758 0.287449
0.362646 0.994293 0.296574
0.399695 0.992645 0.306920
0.437018 0.990723 0.318547
0.474128 0.988678 0.331151
0.511223 0.986389 0.345220
0.550530 0.983795 0.350774
