data/fiter_cube/80369196/1023069/file.cube
# Created by Adobe Lightroom plugin Export LUT (1.17.0)
# www.johnrellis.com/lightroom/exportlut.htm
# Preset: Have Fun_01
# Color profile: C:\Program Files (x86)\Common Files\Adobe\Color\Profiles\Recommended\AdobeRGB1998.icc
LUT_3D_SIZE 8
DOMAIN_MIN 0.000000 0.000000 0.000000
DOMAIN_MAX 0.903226 0.903226 0.903226
0.000000 0.000000 0.000000
0.205020 0.000000 0.000000
0.415686 0.000000 0.000000
0.613794 0.000000 0.000000
0.781827 0.000000 0.000000
0.900694 0.000000 0.000000
0.997559 0.000000 0.000000
1.000000 0.000000 0.000000
0.000000 0.172091 0.011231
0.210056 0.151766 0.000000
0.400977 0.135348 0.000000
0.601831 0.107790 0.000000
0.774594 0.003784 0.000000
0.897520 0.000000 0.000000
0.996246 0.000000 0.000000
1.000000 0.000000 0.000000
0.000000 0.366735 0.000000
0.187655 0.360937 0.008026
0.413306 0.297032 0.000000
0.552667 0.265568 0.000000
0.741543 0.255650 0.000000
0.879271 0.225620 0.000000
0.986297 0.185794 0.000000
1.000000 0.129946 0.000000
0.000000 0.568536 0.000000
0.182528 0.566155 0.065095
0.436530 0.541741 0.000000
0.607111 0.436439 0.000000
0.719295 0.390356 0.000000
0.846891 0.361944 0.000000
0.971099 0.334661 0.000000
1.000000 0.296818 0.000000
0.000000 0.739284 0.082643
0.176059 0.736873 0.106081
0.399268 0.725216 0.141451
0.640742 0.684230 0.000000
0.768154 0.552728 0.000000
0.856809 0.496773 0.000000
0.951415 0.454963 0.000000
1.000000 0.423743 0.000000
0.000000 0.857176 0.154879
0.184482 0.854704 0.167544
0.371038 0.848356 0.208713
0.586786 0.826841 0.169955
0.799344 0.789151 0.000000
0.892363 0.643549 0.000000
0.969665 0.585992 0.000000
1.000000 0.541161 0.000000
0.121920 0.946746 0.218814
0.208042 0.945159 0.228275
0.364508 0.940124 0.260838
0.533562 0.929778 0.288182
0.734401 0.907652 0.201450
0.931365 0.877165 0.000000
0.998016 0.721187 0.000000
1.000000 0.661646 0.000000
0.169680 1.000000 0.269718
0.230014 1.000000 0.278202
0.361700 1.000000 0.306798
0.507774 1.000000 0.356146
0.674586 0.992218 0.345647
0.853178 0.974731 0.272313
1.000000 0.944823 0.145754
1.000000 0.782803 0.084199
0.000000 0.126040 0.201236
0.186587 0.000000 0.175723
0.421912 0.000000 0.145510
0.618799 0.000000 0.125704
0.784390 0.000000 0.089601
0.902586 0.000000 0.031525
0.998566 0.000000 0.000000
1.000000 0.000000 0.000000
0.000000 0.191012 0.179324
0.197665 0.175387 0.163272
0.404364 0.155398 0.144503
0.605982 0.121218 0.117098
0.776242 0.053162 0.079774
0.898436 0.000000 0.003449
0.997009 0.000000 0.000000
1.000000 0.000000 0.000000
0.084352 0.370214 0.199802
0.197604 0.366583 0.176608
0.409766 0.307195 0.137728
0.560174 0.273533 0.085939
0.745327 0.259373 0.005982
0.881315 0.229465 0.000000
0.988098 0.191531 0.000000
1.000000 0.138369 0.000000
0.025299 0.571283 0.194522
0.193454 0.569360 0.181888
0.432166 0.547326 0.169863
0.607446 0.443336 0.096162
0.718776 0.392432 0.000000
0.850950 0.364752 0.000000
0.973510 0.336919 0.000000
1.000000 0.299290 0.000000
0.000000 0.739956 0.190707
0.185519 0.738003 0.194644
0.396033 0.728939 0.226444
0.638422 0.688319 0.139284
0.768124 0.557397 0.000000
0.855802 0.498482 0.000000
0.952941 0.456245 0.000000
1.000000 0.424720 0.000000
0.075319 0.858152 0.221286
0.201175 0.856291 0.230716
0.380285 0.849943 0.262699
0.585748 0.829587 0.239017
0.797086 0.791531 0.119539
0.891325 0.646479 0.000000
0.968841 0.587762 0.000000
1.000000 0.542138 0.000000
0.156130 0.947509 0.268589
0.229313 0.946136 0.277073
0.376928 0.940978 0.304753
0.537957 0.930938 0.336797
0.733089 0.909026 0.258335
0.929015 0.878691 0.108400
0.997559 0.724239 0.000000
1.000000 0.663020 0.000000
0.198917 1.000000 0.309361
0.251194 1.000000 0.316625
0.375280 1.000000 0.342565
0.517357 1.000000 0.387671
0.674800 0.991974 0.368231
0.851804 0.974914 0.273198
1.000000 0.946105 0.147219
1.000000 0.783352 0.086061
0.000000 0.320836 0.488655
0.000000 0.149233 0.436774
0.380896 0.004913 0.351019
0.617121 0.000000 0.333532
0.795499 0.000000 0.293858
0.903288 0.000000 0.273228
0.996460 0.000000 0.250431
1.000000 0.000000 0.226688
0.000000 0.378698 0.466102
0.081392 0.300359 0.421363
0.385687 0.184665 0.344671
0.618067 0.158541 0.324773
0.786374 0.134737 0.290593
0.899351 0.120974 0.268528
0.994812 0.073182 0.246433
1.000000 0.000000 0.223239
0.000000 0.398505 0.372015
0.158511 0.384070 0.358190
0.387213 0.342870 0.318669
0.582940 0.314519 0.290776
0.755001 0.286503 0.267063
0.883055 0.258457 0.247807
0.986908 0.227848 0.230259
1.000000 0.188418 0.209201
0.000000 0.574670 0.388006
0.212985 0.568414 0.378149
0.399176 0.559564 0.352361
0.595392 0.461738 0.282017
0.702541 0.396460 0.219577
0.853574 0.378119 0.209751
0.972656 0.351110 0.198398
1.000000 0.316594 0.180636
0.221317 0.734615 0.410925
0.264927 0.733822 0.391058
0.400702 0.729641 0.364813
0.620020 0.696101 0.326329
0.758907 0.569177 0.254795
0.845609 0.502831 0.190127
0.953002 0.463111 0.142855
1.000000 0.432624 0.127535
0.261875 0.853758 0.412421
0.287907 0.853513 0.396521
0.406470 0.849607 0.389288
0.582605 0.834653 0.396216
0.785061 0.797086 0.309941
0.885435 0.657069 0.237369
0.963928 0.594171 0.162570
1.000000 0.545434 0.000000
0.306035 0.943206 0.431312
0.323766 0.943053 0.420600
0.415412 0.939849 0.418799
0.560601 0.931090 0.457099
0.728756 0.911833 0.400610
0.917784 0.882017 0.298650
0.992401 0.733455 0.225589
1.000000 0.670008 0.128298
0.339147 1.000000 0.454719
0.347204 1.000000 0.444190
0.419287 1.000000 0.443030
0.548302 1.000000 0.479103
0.684840 0.991333 0.485298
0.845243 0.975921 0.403449
1.000000 0.952819 0.275914
1.000000 0.787503 0.173404
0.000000 0.495674 0.755520
0.000000 0.410163 0.723934
0.297337 0.146365 0.612207
0.573907 0.051057 0.527886
0.771817 0.000000 0.493874
0.900908 0.162783 0.456153
0.993256 0.273136 0.452918
1.000000 0.258976 0.428138
0.000000 0.553185 0.745663
0.000000 0.486976 0.716213
0.302190 0.243198 0.608881
0.576104 0.180301 0.523552
0.770871 0.175509 0.489662
0.899443 0.234836 0.457923
0.991333 0.291234 0.449012
1.000000 0.268711 0.422126
0.000000 0.615930 0.697902
0.000000 0.602594 0.687984
0.367681 0.475166 0.610925
0.580865 0.354345 0.507347
0.767025 0.356634 0.479500
0.888884 0.362646 0.456275
0.983337 0.338537 0.429419
1.000000 0.307805 0.403357
0.000000 0.623316 0.581994
0.000000 0.610254 0.569421
0.354406 0.568200 0.529534
0.568658 0.503655 0.468269
0.726864 0.462654 0.431281
0.861265 0.435645 0.411566
0.971649 0.408301 0.394049
1.000000 0.378485 0.375952
0.000000 0.737575 0.555535
0.151553 0.736202 0.550896
0.419654 0.723873 0.541588
0.594659 0.708675 0.524376
0.740719 0.597009 0.431220
0.826230 0.516228 0.351934
0.953002 0.490913 0.340673
1.000000 0.463874 0.334630
0.262211 0.853025 0.559380
0.335607 0.849393 0.562249
0.486458 0.840970 0.568902
0.597314 0.836851 0.560937
0.761746 0.805325 0.500023
0.871458 0.679042 0.408423
0.953216 0.608331 0.331212
1.000000 0.558618 0.276646
0.436316 0.936004 0.602960
0.479744 0.933227 0.612329
0.513817 0.932921 0.587671
0.596277 0.929137 0.578943
0.728603 0.915221 0.571862
0.895293 0.887602 0.482246
0.981842 0.753475 0.395789
1.000000 0.685969 0.315251
0.517876 1.000000 0.638972
0.522087 1.000000 0.632288
0.533745 1.000000 0.606622
0.588647 0.999054 0.590143
0.707057 0.989776 0.628412
0.837064 0.977203 0.562737
1.000000 0.956603 0.459724
1.000000 0.805325 0.360449
0.000000 0.586938 0.892424
0.000000 0.547997 0.880644
0.000000 0.333471 0.840238
0.507683 0.171603 0.724605
0.730617 0.114076 0.674037
0.877317 0.191745 0.622126
0.978851 0.299962 0.593591
1.000000 0.413458 0.601556
0.000000 0.630640 0.889372
0.000000 0.597192 0.877928
0.000000 0.422797 0.836728
0.511040 0.244297 0.723812
0.731044 0.201907 0.670680
0.876188 0.253513 0.621363
0.977203 0.340703 0.597162
1.000000 0.440467 0.607813
0.000000 0.723812 0.878019
0.000000 0.721798 0.875059
0.370977 0.637507 0.833860
0.526207 0.411810 0.725429
0.731838 0.365423 0.659815
0.872221 0.398535 0.622614
0.971862 0.450904 0.611566
1.000000 0.520012 0.629328
0.000000 0.769100 0.830655
0.000000 0.764797 0.826688
0.422370 0.749172 0.810239
0.586908 0.628382 0.732540
0.729976 0.539971 0.645472
0.864195 0.554620 0.631952
0.963134 0.562768 0.625330
1.000000 0.532921 0.598322
0.000000 0.792569 0.742275
0.000000 0.785153 0.735592
0.359075 0.758480 0.712428
0.555810 0.704463 0.664851
0.711116 0.645106 0.610101
0.834104 0.600061 0.570672
0.951263 0.575952 0.555932
1.000000 0.553094 0.543297
0.000000 0.853696 0.688960
0.160708 0.852232 0.687221
0.408972 0.845975 0.685206
0.621942 0.830747 0.693202
0.739651 0.820798 0.677699
0.849790 0.716945 0.578668
0.934966 0.633173 0.485298
1.000000 0.607568 0.480293
0.311345 0.944396 0.684718
0.371313 0.941955 0.688319
0.521538 0.933196 0.703731
0.669215 0.921752 0.726040
0.736995 0.920653 0.710811
0.866026 0.897215 0.653498
0.964630 0.787015 0.563378
1.000000 0.715419 0.478584
0.492073 1.000000 0.714137
0.525841 1.000000 0.721004
0.621332 0.994995 0.743771
0.688228 0.990570 0.744442
0.726894 0.990051 0.717556
0.831174 0.979370 0.710048
0.974640 0.961975 0.630213
1.000000 0.836362 0.535790
0.000000 0.637812 0.964782
0.000000 0.619745 0.960479
0.000000 0.528099 0.944945
0.314977 0.342718 0.906188
0.648554 0.199222 0.808469
0.846067 0.220584 0.785672
0.959197 0.319524 0.733577
1.000000 0.429053 0.712612
0.000000 0.670802 0.964141
0.000000 0.655512 0.960021
0.000000 0.584558 0.943450
0.343725 0.397894 0.906065
0.651179 0.254002 0.807034
0.846036 0.274052 0.783749
0.958129 0.357244 0.734585
1.000000 0.454932 0.716365
0.000000 0.769223 0.963012
0.000000 0.758114 0.959045
0.375372 0.721065 0.940795
0.445563 0.552148 0.904814
0.661433 0.396857 0.806332
0.844175 0.407263 0.777066
0.953948 0.460426 0.738399
1.000000 0.529320 0.728084
0.000000 0.819638 0.943847
0.000000 0.822080 0.942657
0.494636 0.833188 0.937987
0.660304 0.777676 0.904234
0.688624 0.579370 0.811337
0.839963 0.556786 0.768246
0.947234 0.584039 0.746578
1.000000 0.624262 0.745663
0.000000 0.869047 0.911192
0.179294 0.868009 0.909728
0.476143 0.864714 0.904021
0.675990 0.856596 0.893156
0.739559 0.759640 0.835172
0.837125 0.688350 0.764218
0.941711 0.700099 0.759640
1.000000 0.724666 0.770321
0.000000 0.907439 0.854643
0.169039 0.903380 0.851926
0.409247 0.887785 0.841001
0.586450 0.860533 0.821012
0.707942 0.818204 0.784787
0.819181 0.763088 0.734218
0.926177 0.725765 0.703548
1.000000 0.715297 0.703029
0.000000 0.943725 0.797330
0.181094 0.942168 0.796811
0.399847 0.936767 0.796506
0.593439 0.927916 0.800351
0.754360 0.916503 0.811795
0.844968 0.910887 0.803372
0.940368 0.828733 0.718654
1.000000 0.758785 0.640375
0.345281 1.000000 0.784176
0.392248 1.000000 0.786893
0.517235 1.000000 0.797055
0.664546 0.995331 0.816281
0.798764 0.982940 0.845426
0.839597 0.981781 0.824979
0.941497 0.968353 0.781399
1.000000 0.877836 0.701869
0.000000 0.665858 1.000000
0.000000 0.659022 1.000000
0.000000 0.636194 0.997375
0.132021 0.498177 0.987579
0.538628 0.404669 0.956451
0.768338 0.288640 0.903288
0.935485 0.337591 0.877775
1.000000 0.442176 0.827848
0.000000 0.687251 1.000000
0.000000 0.681270 1.000000
0.085664 0.672541 0.993194
0.256992 0.543511 0.983062
0.543389 0.434760 0.951232
0.761349 0.310124 0.893919
0.926513 0.349157 0.867765
1.000000 0.440742 0.820401
0.000000 0.761105 1.000000
0.000000 0.757229 1.000000
0.326909 0.753262 0.992126
0.501335 0.691524 0.978698
0.593347 0.557855 0.950317
0.768002 0.420233 0.890745
0.927337 0.455238 0.867552
1.000000 0.528985 0.830503
0.000000 0.830991 0.997192
0.000000 0.835904 0.996124
0.467781 0.856504 0.992218
0.677974 0.838193 0.977996
0.680110 0.714809 0.953826
0.783291 0.564019 0.889586
0.928161 0.587152 0.868742
1.000000 0.630335 0.841581
0.000000 0.879301 0.982147
0.039185 0.881010 0.980957
0.467323 0.889586 0.978119
0.694789 0.904784 0.975952
0.801724 0.872923 0.957397
0.794858 0.703395 0.890074
0.917967 0.688167 0.858610
1.000000 0.724147 0.850370
0.000000 0.931121 0.960815
0.217868 0.930877 0.960266
0.468482 0.930266 0.958495
0.664759 0.930236 0.956756
0.807858 0.929870 0.954681
0.855833 0.872038 0.923308
0.919982 0.804501 0.865629
0.998932 0.821469 0.868223
0.114534 0.983337 0.930907
0.242466 0.981781 0.930785
0.433906 0.974151 0.927947
0.601740 0.960693 0.921935
0.730709 0.940124 0.909514
0.817044 0.906981 0.882872
0.909270 0.867979 0.847227
0.998199 0.843198 0.829526
0.000000 1.000000 0.881468
0.113802 1.000000 0.881498
0.350805 1.000000 0.884337
0.555322 1.000000 0.887114
0.723262 0.991058 0.892760
0.856321 0.980224 0.905730
0.924681 0.975341 0.904936
1.000000 0.919585 0.839261
0.000000 0.672267 1.000000
0.000000 0.667079 1.000000
0.000000 0.671565 1.000000
0.172793 0.607904 1.000000
0.384497 0.493904 1.000000
0.651759 0.428229 0.987732
0.847990 0.351904 0.964416
0.994903 0.417700 0.943450
0.000000 0.686275 1.000000
0.000000 0.682033 1.000000
0.000000 0.686366 1.000000
0.275669 0.639002 1.000000
0.406622 0.520836 1.000000
0.654108 0.451545 0.985595
0.845212 0.367803 0.960723
0.992096 0.429633 0.940337
0.000000 0.733608 1.000000
0.000000 0.730556 1.000000
0.000000 0.733547 1.000000
0.491371 0.741390 1.000000
0.500847 0.620203 1.000000
0.674006 0.539361 0.983215
0.846159 0.443030 0.957000
0.989563 0.497963 0.938262
0.000000 0.798245 1.000000
0.000000 0.800748 1.000000
0.000000 0.803647 1.000000
0.578759 0.825681 1.000000
0.662654 0.772396 0.998016
0.716762 0.667445 0.983062
0.852079 0.554620 0.954955
0.988220 0.598932 0.938720
0.000000 0.845548 1.000000
0.000000 0.846677 1.000000
0.000000 0.854215 1.000000
0.508232 0.880278 1.000000
0.767697 0.886992 0.995911
0.767422 0.789334 0.984009
0.855131 0.663020 0.950744
0.986023 0.707485 0.940063
0.000000 0.903105 1.000000
0.000000 0.903258 1.000000
0.000000 0.906035 1.000000
0.502190 0.916289 0.997894
0.747799 0.933928 0.995880
0.880308 0.930816 0.988678
0.881773 0.816922 0.962188
0.982147 0.806424 0.941009
0.000000 0.967254 0.991394
0.000000 0.966644 0.991028
0.135409 0.965087 0.989868
0.522393 0.964294 0.988586
0.738582 0.965637 0.987793
0.887205 0.971527 0.988861
0.938964 0.952148 0.980041
0.976165 0.889189 0.940673
0.000000 1.000000 0.979553
0.000000 1.000000 0.979095
0.249393 1.000000 0.977996
0.518090 1.000000 0.976623
0.701198 1.000000 0.974395
0.829435 0.991272 0.969451
0.907683 0.973938 0.959258
0.969940 0.947662 0.936614
