data/fiter_cube/10491141/1023205/file.cube
# Created by Adobe Lightroom plugin Export LUT (1.17.0)
# www.johnrellis.com/lightroom/exportlut.htm
# Preset: 莫兰迪丛林_04 云集
# Color profile: C:\Program Files (x86)\Common Files\Adobe\Color\Profiles\Recommended\AdobeRGB1998.icc
LUT_3D_SIZE 32
DOMAIN_MIN 0.0 0.0 0.0
DOMAIN_MAX 1.0 1.0 1.0
0.069123 0.076112 0.088075
0.073518 0.076539 0.087953
0.078767 0.077485 0.087770
0.095338 0.079683 0.087465
0.133913 0.083284 0.086061
0.190921 0.084382 0.083314
0.264347 0.077241 0.077821
0.350988 0.040620 0.068147
0.436744 0.000000 0.047639
0.513207 0.000000 0.003326
0.577295 0.000000 0.000000
0.629236 0.000000 0.000000
0.671687 0.000000 0.000000
0.705623 0.000000 0.000000
0.732692 0.091707 0.000000
0.755978 0.134249 0.000000
0.776516 0.168429 0.000000
0.795010 0.198672 0.000000
0.811795 0.226444 0.000000
0.827695 0.252415 0.000000
0.842832 0.276951 0.000000
0.857298 0.300206 0.000000
0.871031 0.321630 0.000000
0.884184 0.341680 0.000000
0.896849 0.360113 0.000000
0.909178 0.377417 0.000000
0.921172 0.393774 0.000000
0.932891 0.409033 0.000000
0.944335 0.423529 0.000000
0.955444 0.437018 0.000000
0.966155 0.449622 0.000000
0.976410 0.461219 0.000000
0.070405 0.078035 0.089052
0.071870 0.078492 0.089815
0.078187 0.080385 0.088441
0.095735 0.083284 0.088045
0.135348 0.088258 0.086183
0.193393 0.091035 0.082856
0.268132 0.085512 0.077028
0.355108 0.062745 0.066407
0.439643 0.000000 0.042817
0.515465 0.000000 0.000000
0.578668 0.000000 0.000000
0.629938 0.000000 0.000000
0.672023 0.000000 0.000000
0.705653 0.045624 0.000000
0.732601 0.105074 0.000000
0.755642 0.142702 0.000000
0.775937 0.174136 0.000000
0.794247 0.203006 0.000000
0.810941 0.229526 0.000000
0.826841 0.254826 0.000000
0.841978 0.278904 0.000000
0.856443 0.301549 0.000000
0.870207 0.322789 0.000000
0.883421 0.342626 0.000000
0.896147 0.361028 0.000000
0.908507 0.378210 0.000000
0.920562 0.394415 0.000000
0.932341 0.409674 0.000000
0.943816 0.424018 0.000000
0.954986 0.437507 0.000000
0.965759 0.450050 0.000000
0.976074 0.461646 0.000000
0.071565 0.080598 0.091310
0.073152 0.081636 0.092836
0.075257 0.082002 0.092775
0.095155 0.088441 0.089082
0.135958 0.095918 0.086915
0.194888 0.100465 0.083345
0.269749 0.098238 0.076875
0.356695 0.082338 0.065919
0.441901 0.031525 0.039246
0.517510 0.000000 0.000000
0.580621 0.000000 0.000000
0.631617 0.000000 0.000000
0.673091 0.000000 0.000000
0.706386 0.082277 0.000000
0.732967 0.121523 0.000000
0.755917 0.153933 0.000000
0.775906 0.183261 0.000000
0.794034 0.210056 0.000000
0.810666 0.235203 0.000000
0.826505 0.259648 0.000000
0.841642 0.282841 0.000000
0.856138 0.304936 0.000000
0.869871 0.325811 0.000000
0.883085 0.345006 0.000000
0.895811 0.363256 0.000000
0.908202 0.380163 0.000000
0.920256 0.396124 0.000000
0.932067 0.411261 0.000000
0.943603 0.425391 0.000000
0.954772 0.438819 0.000000
0.965545 0.451148 0.000000
0.975860 0.462745 0.000000
0.074952 0.087098 0.095277
0.077394 0.089387 0.098329
0.079683 0.091127 0.099153
0.084443 0.091371 0.098054
0.130068 0.107515 0.090272
0.198459 0.122438 0.083284
0.274723 0.123964 0.075685
0.362127 0.115511 0.063142
0.446448 0.097444 0.029541
0.521202 0.074403 0.000000
0.583154 0.061982 0.000000
0.633478 0.072053 0.000000
0.674617 0.097841 0.000000
0.707454 0.125978 0.000000
0.733913 0.152102 0.000000
0.756588 0.177981 0.000000
0.776364 0.201877 0.000000
0.794217 0.225284 0.000000
0.810605 0.248020 0.000000
0.826200 0.270176 0.000000
0.841245 0.291752 0.000000
0.855589 0.312688 0.000000
0.869413 0.332494 0.000000
0.882689 0.351080 0.000000
0.895567 0.368627 0.000000
0.908080 0.385138 0.000000
0.920226 0.400702 0.000000
0.932067 0.415503 0.000000
0.943603 0.429267 0.000000
0.954742 0.442237 0.000000
0.965454 0.454231 0.000000
0.975738 0.465400 0.000000
0.080293 0.099641 0.101167
0.083497 0.103243 0.104799
0.088319 0.107881 0.108827
0.095399 0.113436 0.110414
0.102602 0.108827 0.105959
0.168368 0.133211 0.092866
0.274754 0.157839 0.073854
0.369268 0.159579 0.054597
0.452918 0.149538 0.011353
0.526024 0.140017 0.000000
0.586481 0.136416 0.000000
0.635798 0.142550 0.000000
0.676143 0.156130 0.000000
0.708400 0.173709 0.000000
0.734646 0.192264 0.000000
0.756863 0.211154 0.000000
0.776425 0.230045 0.000000
0.794217 0.249516 0.000000
0.810666 0.268620 0.000000
0.826322 0.288090 0.000000
0.841276 0.307256 0.000000
0.855680 0.326024 0.000000
0.869474 0.343877 0.000000
0.882719 0.361212 0.000000
0.895537 0.377630 0.000000
0.908019 0.393072 0.000000
0.920134 0.407874 0.000000
0.931975 0.421759 0.000000
0.943450 0.435004 0.000000
0.954559 0.447425 0.000000
0.965270 0.458930 0.000000
0.975555 0.469703 0.000000
0.088655 0.121462 0.109834
0.092775 0.126558 0.114168
0.099489 0.133669 0.120790
0.110903 0.144533 0.127413
0.124605 0.150118 0.126528
0.130556 0.135622 0.116640
0.211276 0.163333 0.097719
0.354681 0.196353 0.056764
0.462165 0.209262 0.000000
0.533501 0.202823 0.000000
0.592096 0.201114 0.000000
0.639796 0.204959 0.000000
0.678828 0.213596 0.000000
0.710170 0.224674 0.000000
0.736080 0.237522 0.000000
0.757656 0.250492 0.000000
0.776852 0.264836 0.000000
0.794491 0.280125 0.000000
0.810788 0.295964 0.000000
0.826413 0.312261 0.000000
0.841337 0.328954 0.000000
0.855711 0.345342 0.000000
0.874754 0.369512 0.000000
0.887663 0.384192 0.000000
0.900175 0.397986 0.000000
0.912261 0.411017 0.000000
0.924010 0.423529 0.000000
0.935363 0.435584 0.000000
0.946349 0.447333 0.000000
0.957061 0.458442 0.000000
0.967346 0.468849 0.000000
0.977173 0.478614 0.000000
0.101961 0.156435 0.123415
0.107362 0.162234 0.128573
0.115663 0.170626 0.136202
0.133700 0.187442 0.151034
0.154604 0.206027 0.159121
0.170108 0.201175 0.148836
0.169894 0.172488 0.132601
0.261387 0.199649 0.107149
0.420569 0.237308 0.036469
0.533989 0.260899 0.000000
0.602441 0.271946 0.000000
0.647944 0.272709 0.000000
0.684901 0.276463 0.000000
0.714870 0.282200 0.000000
0.740047 0.289647 0.000000
0.760708 0.297520 0.000000
0.779446 0.307195 0.000000
0.796719 0.318212 0.000000
0.812802 0.330358 0.000000
0.828336 0.343664 0.000000
0.843412 0.357916 0.000000
0.858030 0.372290 0.000000
0.872129 0.386603 0.000000
0.885710 0.400122 0.000000
0.898741 0.413092 0.000000
0.911101 0.425208 0.000000
0.923003 0.436652 0.000000
0.934508 0.447486 0.000000
0.945708 0.457801 0.000000
0.956481 0.467567 0.000000
0.966918 0.476600 0.000000
0.976776 0.485664 0.000000
0.121981 0.201389 0.142611
0.128206 0.207614 0.148226
0.137484 0.216281 0.156527
0.160494 0.235813 0.176028
0.187076 0.257908 0.189425
0.223331 0.285679 0.202121
0.228519 0.258122 0.175357
0.217441 0.215061 0.152316
0.313359 0.237766 0.122683
0.471473 0.279332 0.049622
0.584100 0.311284 0.000000
0.650263 0.337591 0.000000
0.687892 0.339361 0.000000
0.717464 0.340215 0.000000
0.741238 0.341985 0.000000
0.761288 0.344732 0.000000
0.779660 0.349676 0.000000
0.796567 0.356695 0.000000
0.812497 0.365179 0.000000
0.827848 0.375067 0.000000
0.842741 0.386084 0.000000
0.857237 0.397711 0.000000
0.871244 0.409400 0.000000
0.884733 0.420844 0.000000
0.897673 0.431830 0.000000
0.910063 0.442390 0.000000
0.921965 0.452399 0.000000
0.933471 0.462013 0.000000
0.944671 0.471321 0.000000
0.955535 0.480110 0.000000
0.965972 0.488472 0.000000
0.975982 0.496254 0.000000
0.151675 0.258366 0.169223
0.159030 0.264652 0.175174
0.169558 0.273564 0.183871
0.194766 0.292821 0.203464
0.231510 0.319158 0.227329
0.269230 0.345739 0.242191
0.302892 0.357885 0.243870
0.301488 0.321538 0.207218
0.276249 0.263706 0.176272
0.364324 0.277714 0.143954
0.515007 0.323522 0.077272
0.621271 0.360052 0.000000
0.681392 0.386725 0.000000
0.720027 0.401099 0.000000
0.742550 0.397070 0.000000
0.762173 0.395056 0.000000
0.780179 0.395727 0.000000
0.796902 0.398657 0.000000
0.812528 0.403204 0.000000
0.827695 0.409705 0.000000
0.842466 0.417517 0.000000
0.856779 0.426123 0.000000
0.870634 0.435157 0.000000
0.884001 0.444404 0.000000
0.896849 0.453437 0.000000
0.909148 0.462135 0.000000
0.921019 0.470680 0.000000
0.932494 0.478950 0.000000
0.943664 0.487037 0.000000
0.954498 0.494759 0.000000
0.964965 0.502251 0.000000
0.974975 0.509331 0.000000
0.193027 0.324590 0.202548
0.201266 0.330388 0.208774
0.212741 0.338262 0.217411
0.239506 0.355169 0.237461
0.285008 0.380621 0.271122
0.323033 0.404517 0.288609
0.369207 0.432380 0.309087
0.384344 0.423102 0.291020
0.375921 0.381903 0.244388
0.340429 0.314702 0.203983
0.412024 0.317754 0.169131
0.552453 0.367346 0.107912
0.647791 0.405158 0.000000
0.705226 0.429541 0.000000
0.740536 0.445563 0.000000
0.763241 0.446571 0.000000
0.781155 0.443366 0.000000
0.797665 0.442420 0.000000
0.813107 0.443702 0.000000
0.828031 0.446693 0.000000
0.842435 0.451240 0.000000
0.856413 0.456855 0.000000
0.869963 0.463050 0.000000
0.883055 0.469703 0.000000
0.895720 0.476600 0.000000
0.907927 0.483558 0.000000
0.919799 0.490517 0.000000
0.931334 0.497536 0.000000
0.942565 0.504417 0.000000
0.953429 0.511223 0.000000
0.963928 0.517906 0.000000
0.973999 0.524285 0.000000
0.245335 0.389990 0.241855
0.254124 0.394812 0.248234
0.266575 0.401465 0.257450
0.293553 0.415167 0.277714
0.335821 0.435767 0.309361
0.378607 0.458503 0.336614
0.418769 0.482002 0.356329
0.463416 0.507500 0.379278
0.456977 0.479408 0.338445
0.444007 0.436896 0.286137
0.403479 0.365911 0.236210
0.456428 0.358190 0.198184
0.583062 0.408484 0.142977
0.668177 0.444404 0.034791
0.723629 0.465431 0.000000
0.755062 0.478614 0.000000
0.781765 0.490333 0.000000
0.798001 0.486152 0.000000
0.813260 0.484077 0.000000
0.827939 0.484016 0.000000
0.842191 0.485695 0.000000
0.855985 0.488594 0.000000
0.869413 0.492561 0.000000
0.882353 0.497017 0.000000
0.894896 0.501915 0.000000
0.907012 0.507012 0.000000
0.918761 0.512291 0.000000
0.930205 0.517845 0.000000
0.941375 0.523491 0.000000
0.952209 0.529168 0.000000
0.962676 0.534874 0.000000
0.972717 0.540490 0.000000
0.307378 0.450568 0.287877
0.315648 0.454414 0.294072
0.327276 0.459510 0.302861
0.351263 0.470192 0.321019
0.388037 0.486580 0.349371
0.432136 0.506340 0.383673
0.465400 0.525383 0.401740
0.501549 0.546441 0.422644
0.528801 0.558618 0.432136
0.517601 0.527459 0.384741
0.503380 0.486519 0.329351
0.460212 0.414405 0.272313
0.503624 0.403998 0.235050
0.616327 0.454353 0.185519
0.690730 0.486275 0.121920
0.740291 0.502831 0.000000
0.773007 0.515038 0.000000
0.798795 0.527123 0.000000
0.817746 0.530541 0.000000
0.831846 0.527428 0.000000
0.845487 0.525963 0.000000
0.858671 0.525994 0.000000
0.871519 0.526940 0.000000
0.883970 0.528893 0.000000
0.896086 0.531426 0.000000
0.907836 0.534539 0.000000
0.919280 0.537987 0.000000
0.930419 0.541741 0.000000
0.941314 0.545830 0.000000
0.951904 0.550164 0.000000
0.962127 0.554711 0.000000
0.972015 0.559350 0.000000
0.373602 0.506035 0.337865
0.380591 0.508904 0.343420
0.390173 0.512627 0.350927
0.410437 0.520562 0.366918
0.440467 0.532555 0.391424
0.477241 0.547936 0.422675
0.508629 0.564599 0.445899
0.538170 0.582757 0.465217
0.568841 0.602075 0.486580
0.579004 0.599695 0.477363
0.568109 0.570092 0.430426
0.553887 0.531243 0.373877
0.512963 0.462470 0.313024
0.531365 0.435462 0.266484
0.634424 0.484596 0.223423
0.701930 0.513542 0.171939
0.748287 0.528985 0.096376
0.783627 0.540520 0.000000
0.808469 0.551873 0.000000
0.830808 0.562737 0.000000
0.844846 0.560388 0.000000
0.857877 0.558099 0.000000
0.870481 0.557153 0.000000
0.882780 0.557122 0.000000
0.894774 0.557916 0.000000
0.906432 0.559350 0.000000
0.917784 0.561364 0.000000
0.928862 0.563867 0.000000
0.939696 0.566766 0.000000
0.950256 0.570153 0.000000
0.960510 0.573816 0.000000
0.970397 0.577783 0.000000
0.429999 0.548821 0.382544
0.436164 0.551171 0.387701
0.444007 0.554131 0.394171
0.460609 0.560540 0.408301
0.484718 0.570153 0.429511
0.514183 0.582910 0.456855
0.544610 0.597650 0.484901
0.567651 0.611872 0.501213
0.591791 0.627008 0.519554
0.616144 0.642542 0.539635
0.613916 0.628901 0.512932
0.603998 0.601740 0.466651
0.590204 0.565087 0.410620
0.550958 0.499245 0.347631
0.556023 0.464912 0.298070
0.650019 0.511650 0.261570
0.711208 0.537804 0.217685
0.755154 0.552636 0.161013
0.792630 0.563989 0.053193
0.817777 0.574853 0.000000
0.839597 0.585199 0.000000
0.857176 0.590295 0.000000
0.869627 0.587457 0.000000
0.881773 0.585779 0.000000
0.893584 0.585016 0.000000
0.905119 0.584894 0.000000
0.916350 0.585565 0.000000
0.927337 0.586847 0.000000
0.938109 0.588678 0.000000
0.948608 0.591058 0.000000
0.958801 0.593896 0.000000
0.968597 0.597131 0.000000
0.481178 0.586633 0.426337
0.485817 0.588403 0.430488
0.491646 0.590631 0.435889
0.504479 0.595636 0.447730
0.523156 0.603052 0.465675
0.546197 0.612726 0.488502
0.572198 0.624262 0.515587
0.592584 0.635889 0.533257
0.611933 0.647974 0.549279
0.631800 0.660700 0.566705
0.648707 0.671077 0.580163
0.640650 0.652094 0.543694
0.631647 0.627131 0.498604
0.618982 0.593133 0.443702
0.582605 0.531151 0.380255
0.577569 0.491127 0.327977
0.663142 0.535058 0.297459
0.718868 0.559197 0.260441
0.761624 0.574701 0.214176
0.798734 0.586542 0.147311
0.826841 0.596551 0.088441
0.848112 0.606195 0.067018
0.867308 0.614710 0.017823
0.880705 0.614191 0.000000
0.892363 0.611994 0.000000
0.903746 0.610681 0.000000
0.914916 0.610193 0.000000
0.925872 0.610468 0.000000
0.936614 0.611383 0.000000
0.947082 0.613031 0.000000
0.957244 0.615229 0.000000
0.966857 0.617731 0.027924
0.522118 0.617517 0.464881
0.525841 0.618952 0.468635
0.530480 0.620661 0.473182
0.540490 0.624445 0.483253
0.555291 0.630213 0.498482
0.573877 0.637781 0.518181
0.594934 0.646815 0.541527
0.615045 0.656764 0.563317
0.630701 0.666682 0.576959
0.646815 0.677516 0.591394
0.663325 0.689387 0.606287
0.670527 0.690547 0.604608
0.661830 0.671168 0.570459
0.653193 0.647669 0.526360
0.640833 0.615351 0.472816
0.608728 0.558587 0.410101
0.595850 0.513909 0.355566
0.673945 0.555413 0.330785
0.725978 0.578698 0.299626
0.768032 0.595544 0.261784
0.804746 0.608209 0.209781
0.835874 0.617243 0.142916
0.856596 0.626368 0.133974
0.875364 0.634302 0.124849
0.891386 0.639307 0.117098
0.902647 0.636835 0.115053
0.913634 0.635218 0.113466
0.924437 0.634485 0.113405
0.934997 0.634485 0.115755
0.945312 0.635187 0.120058
0.955261 0.636622 0.128450
0.964630 0.638361 0.138003
0.555230 0.642084 0.498878
0.557977 0.643030 0.501701
0.561669 0.644434 0.505669
0.569665 0.647364 0.514183
0.581537 0.651850 0.527184
0.596551 0.657740 0.544091
0.613764 0.664942 0.564233
0.632288 0.673579 0.586450
0.646021 0.682521 0.599329
0.659754 0.692378 0.611444
0.674067 0.703243 0.624079
0.688746 0.714778 0.636744
0.688228 0.707210 0.623682
0.679316 0.687587 0.591943
0.670192 0.664485 0.550561
0.658564 0.634241 0.498939
0.630671 0.582666 0.438270
0.612482 0.535027 0.381994
0.683864 0.574151 0.362188
0.733028 0.597070 0.336339
0.774258 0.614862 0.304875
0.810361 0.628168 0.262516
0.842161 0.637049 0.203952
0.864530 0.645014 0.181888
0.882841 0.652461 0.177676
0.899413 0.658991 0.174044
0.911894 0.659602 0.172671
0.922545 0.657954 0.173556
0.932982 0.657099 0.176120
0.943145 0.657160 0.180941
0.953002 0.657923 0.188602
0.962127 0.658961 0.197452
0.582971 0.662501 0.529412
0.585412 0.663386 0.532128
0.593469 0.668116 0.541375
0.599817 0.670375 0.548638
0.609277 0.673854 0.559686
0.621027 0.678645 0.573602
0.634791 0.684901 0.590051
0.649805 0.692592 0.608209
0.663661 0.701289 0.623407
0.675166 0.710231 0.633387
0.687343 0.719936 0.643763
0.700191 0.730251 0.654719
0.713405 0.740841 0.666194
0.706264 0.725032 0.642939
0.697139 0.705287 0.613519
0.687312 0.682216 0.575463
0.675380 0.652949 0.526482
0.651606 0.606561 0.468116
0.631464 0.558709 0.410864
0.694545 0.593500 0.395117
0.741299 0.616480 0.374029
0.781613 0.634760 0.347570
0.816922 0.648371 0.312566
0.848142 0.657313 0.265446
0.872984 0.663600 0.226291
0.890593 0.670466 0.225071
0.906523 0.676417 0.223911
0.920623 0.681025 0.223911
0.930846 0.679316 0.226291
0.940795 0.678614 0.231479
0.950378 0.678676 0.238865
0.959350 0.679103 0.247837
0.608118 0.681025 0.558709
0.610529 0.682094 0.561517
0.613642 0.683528 0.565179
0.619318 0.686000 0.571893
0.627436 0.689570 0.581506
0.637446 0.694179 0.593561
0.649042 0.699947 0.607538
0.661952 0.706996 0.623072
0.675807 0.715541 0.639826
0.686000 0.723690 0.648707
0.696895 0.732540 0.658198
0.708492 0.741848 0.668391
0.720546 0.751461 0.679133
0.727993 0.755215 0.681910
0.720027 0.738674 0.657099
0.711055 0.719234 0.629053
0.701106 0.696620 0.593896
0.688350 0.667750 0.548638
0.667475 0.625422 0.492836
0.650233 0.581903 0.437934
0.702754 0.609430 0.423377
0.748348 0.633173 0.406653
0.787930 0.651972 0.384588
0.822446 0.665919 0.355932
0.853117 0.675074 0.317418
0.880613 0.680232 0.265385
0.897826 0.686915 0.266514
0.913268 0.692775 0.268833
0.927184 0.697963 0.272343
0.938354 0.699611 0.277958
0.947631 0.698909 0.284977
0.956390 0.698878 0.294560
0.628321 0.697444 0.582757
0.630365 0.698512 0.585168
0.632898 0.699825 0.588190
0.637568 0.702083 0.593744
0.644343 0.705379 0.601862
0.652705 0.709621 0.611994
0.662562 0.714931 0.623896
0.673548 0.721431 0.637201
0.685725 0.729091 0.651881
0.696925 0.737118 0.664027
0.706813 0.745144 0.672847
0.717250 0.753567 0.682368
0.728145 0.762295 0.692348
0.739376 0.771115 0.702693
0.740963 0.767849 0.695857
0.733150 0.751766 0.671138
0.724453 0.732876 0.643488
0.714595 0.710903 0.611139
0.701228 0.682551 0.569726
0.681758 0.643091 0.517235
0.667140 0.603662 0.464973
0.711208 0.625299 0.451179
0.755825 0.649683 0.438148
0.794461 0.668788 0.420203
0.828244 0.682795 0.396796
0.858366 0.692164 0.365270
0.885374 0.697749 0.323369
0.904967 0.702968 0.307195
0.919890 0.708827 0.312840
0.933165 0.714107 0.320195
0.944701 0.718502 0.328099
0.953216 0.717983 0.337957
0.646296 0.713649 0.604181
0.647944 0.714626 0.606195
0.650050 0.715816 0.608759
0.653956 0.717952 0.613489
0.659663 0.720943 0.620356
0.666743 0.724880 0.628931
0.675135 0.729702 0.639033
0.684749 0.735531 0.650690
0.695735 0.742428 0.664271
0.707759 0.750240 0.679255
0.716609 0.757382 0.687404
0.726070 0.764950 0.696193
0.735958 0.772732 0.705379
0.746151 0.780728 0.714961
0.756588 0.788754 0.724758
0.753048 0.779629 0.709285
0.745663 0.764248 0.685054
0.737514 0.746304 0.657984
0.728206 0.725460 0.627802
0.714717 0.698085 0.590570
0.696071 0.661189 0.542809
0.683375 0.625360 0.493690
0.721187 0.642756 0.480110
0.764797 0.667659 0.470680
0.802548 0.686854 0.456611
0.835477 0.700893 0.438514
0.864897 0.710475 0.413855
0.891203 0.716457 0.381445
0.912993 0.720455 0.353033
0.926940 0.726101 0.361944
0.939055 0.730983 0.371832
0.949401 0.735592 0.384222
0.663630 0.730831 0.625025
0.664851 0.731533 0.626520
0.666346 0.732387 0.628351
0.669490 0.734127 0.632136
0.674159 0.736751 0.637751
0.680140 0.740200 0.645075
0.687526 0.744564 0.654078
0.696254 0.749783 0.664942
0.706233 0.755978 0.677546
0.717403 0.763058 0.691768
0.727230 0.770077 0.702907
0.735805 0.776883 0.711055
0.744808 0.783871 0.719570
0.754086 0.791012 0.728328
0.763577 0.798215 0.737301
0.771969 0.803922 0.744045
0.765225 0.791409 0.723323
0.758145 0.776791 0.699641
0.750484 0.759792 0.673121
0.741726 0.739895 0.643641
0.728145 0.713497 0.609888
0.709987 0.678676 0.566613
0.697749 0.645258 0.520806
0.730678 0.658991 0.506615
0.773129 0.683955 0.499977
0.809964 0.703029 0.488991
0.842191 0.717067 0.475257
0.870848 0.727016 0.456580
0.896391 0.733455 0.432319
0.918914 0.736477 0.399847
0.932616 0.741573 0.406104
0.943542 0.746853 0.420478
0.677516 0.745754 0.641718
0.678584 0.746426 0.642969
0.679896 0.747219 0.644617
0.682643 0.748806 0.647974
0.686763 0.751156 0.653071
0.692164 0.754238 0.659785
0.698878 0.758083 0.668177
0.706691 0.762692 0.678126
0.715816 0.768185 0.689845
0.725978 0.774411 0.702998
0.736782 0.781338 0.716945
0.744564 0.787381 0.724392
0.752743 0.793668 0.732174
0.761288 0.800137 0.740261
0.770047 0.806668 0.748531
0.779080 0.813260 0.756863
0.782681 0.813657 0.755856
0.776242 0.801846 0.735988
0.769558 0.788113 0.713252
0.762448 0.772183 0.687556
0.754482 0.753628 0.658961
0.741329 0.728481 0.627710
0.724056 0.696101 0.589197
0.712459 0.665370 0.547936
0.740261 0.674891 0.532006
0.781674 0.699886 0.527947
0.817746 0.718868 0.520256
0.849271 0.733089 0.510521
0.876951 0.743099 0.496834
0.901183 0.749569 0.478676
0.922240 0.753384 0.456855
0.937469 0.757382 0.451759
0.691402 0.761044 0.658686
0.692348 0.761654 0.659876
0.693568 0.762325 0.661402
0.695979 0.763668 0.664424
0.699611 0.765682 0.669093
0.704463 0.768338 0.675227
0.710445 0.771664 0.682918
0.717525 0.775692 0.692103
0.725765 0.780423 0.702846
0.734951 0.785885 0.714870
0.745083 0.791989 0.728115
0.753628 0.797848 0.737881
0.761044 0.803403 0.744869
0.768765 0.809110 0.752102
0.776730 0.814878 0.759457
0.784878 0.820737 0.766903
0.793118 0.826535 0.774441
0.792477 0.822477 0.766659
0.786435 0.811398 0.747768
0.780209 0.798550 0.726070
0.773678 0.783749 0.701503
0.766506 0.766567 0.673976
0.754147 0.742824 0.643977
0.737819 0.712673 0.609522
0.726772 0.684474 0.573022
0.751034 0.691920 0.558373
0.791440 0.716823 0.556909
0.826566 0.735592 0.552453
0.856840 0.749325 0.545617
0.883116 0.759304 0.536553
0.905669 0.766323 0.525811
0.924743 0.771298 0.515099
0.703273 0.774075 0.673548
0.704128 0.774624 0.674678
0.705226 0.775265 0.676112
0.707454 0.776425 0.678920
0.710780 0.778225 0.683253
0.715206 0.780606 0.688991
0.720699 0.783597 0.696223
0.727260 0.787198 0.704799
0.734859 0.791470 0.714778
0.743404 0.796384 0.726040
0.752804 0.801877 0.738338
0.762722 0.807858 0.750942
0.769467 0.812863 0.757321
0.776577 0.818021 0.763912
0.783902 0.823239 0.770687
0.791409 0.828519 0.777493
0.799039 0.833799 0.784390
0.806699 0.839048 0.791318
0.802640 0.831571 0.778164
0.797086 0.821347 0.760494
0.791409 0.809537 0.740139
0.785489 0.795895 0.716823
0.779141 0.780179 0.690517
0.767758 0.758053 0.661769
0.752895 0.730495 0.630426
0.742763 0.705165 0.598932
0.763272 0.710018 0.585046
0.802396 0.734218 0.585443
0.836118 0.752285 0.583459
0.865080 0.765927 0.580316
0.889616 0.776242 0.576989
0.910002 0.784176 0.574487
0.714900 0.786770 0.688472
0.715694 0.787228 0.689479
0.716640 0.787747 0.690730
0.718593 0.788724 0.693294
0.721584 0.790249 0.697261
0.725643 0.792355 0.702571
0.730678 0.794980 0.709224
0.736721 0.798184 0.717189
0.743740 0.801999 0.726497
0.751675 0.806363 0.736904
0.760464 0.811337 0.748348
0.770016 0.816831 0.760555
0.777859 0.821866 0.769253
0.784360 0.826474 0.775265
0.791043 0.831174 0.781369
0.797910 0.835874 0.787594
0.804898 0.840635 0.793851
0.811948 0.845365 0.800168
0.817075 0.848112 0.803311
0.812192 0.839994 0.789029
0.807187 0.830686 0.772610
0.802121 0.819944 0.753689
0.796963 0.807584 0.731991
0.791562 0.793423 0.707362
0.781277 0.773129 0.680293
0.768215 0.748196 0.650599
0.759152 0.725429 0.623163
0.776089 0.727871 0.610071
0.813565 0.750820 0.611780
0.846006 0.768551 0.612573
0.873350 0.782101 0.613031
0.895750 0.792874 0.615229
0.725734 0.798459 0.702510
0.726406 0.798825 0.703395
0.727291 0.799283 0.704585
0.729122 0.800198 0.706966
0.731960 0.801602 0.710750
0.735775 0.803555 0.715846
0.740597 0.806058 0.722255
0.746426 0.809110 0.729915
0.753170 0.812711 0.738827
0.760800 0.816831 0.748745
0.769192 0.821408 0.759579
0.778317 0.826474 0.771145
0.787625 0.831815 0.782650
0.793637 0.835966 0.788144
0.799832 0.840177 0.793759
0.806058 0.844388 0.799405
0.812436 0.848600 0.805081
0.818845 0.852811 0.810788
0.825284 0.856962 0.816526
0.827176 0.856626 0.814817
0.822873 0.849454 0.801785
0.818570 0.841215 0.786893
0.814267 0.831754 0.769741
0.809964 0.820920 0.750088
0.805539 0.808347 0.727321
0.796262 0.789822 0.702022
0.785092 0.767483 0.674067
0.777981 0.747677 0.649134
0.792264 0.748562 0.637507
0.827634 0.769863 0.640558
0.858000 0.786984 0.644404
0.882841 0.800412 0.649195
0.737484 0.810819 0.717861
0.738064 0.811154 0.718654
0.738857 0.811521 0.719692
0.740505 0.812284 0.721920
0.743130 0.813535 0.725399
0.746639 0.815152 0.730037
0.751034 0.817319 0.735897
0.756374 0.819913 0.742855
0.762570 0.823026 0.750942
0.769589 0.826566 0.760037
0.777340 0.830594 0.769894
0.785733 0.835019 0.780423
0.794644 0.839750 0.791501
0.801785 0.844022 0.799191
