data/fiter_cube/10491141/1023205/file.cube
# Created by Adobe Lightroom plugin Export LUT (1.17.0)
# www.johnrellis.com/lightroom/exportlut.htm
# Preset: 莫兰迪丛林_04 云集
# Color profile: C:\Program Files (x86)\Common Files\Adobe\Color\Profiles\Recommended\AdobeRGB1998.icc
LUT_3D_SIZE 5
DOMAIN_MIN 0.000000 0.000000 0.000000
DOMAIN_MAX 0.903226 0.903226 0.903226
0.069123 0.076112 0.088075
0.350988 0.040620 0.068147
0.732692 0.091707 0.000000
0.857298 0.300206 0.000000
0.944335 0.423529 0.000000
0.121981 0.201389 0.142611
0.217441 0.215061 0.152316
0.741238 0.341985 0.000000
0.857237 0.397711 0.000000
0.944671 0.471321 0.000000
0.481178 0.586633 0.426337
0.592584 0.635889 0.533257
0.582605 0.531151 0.380255
0.848112 0.606195 0.067018
0.936614 0.611383 0.000000
0.663630 0.730831 0.625025
0.696254 0.749783 0.664942
0.763577 0.798215 0.737301
0.709987 0.678676 0.566613
0.896391 0.733455 0.432319
0.747585 0.821469 0.731044
0.765469 0.829618 0.754543
0.813870 0.854093 0.813138
0.843351 0.869871 0.833310
0.815854 0.801816 0.719020
0.055116 0.101625 0.190219
0.360815 0.000000 0.229526
0.705776 0.188174 0.191836
0.839109 0.353826 0.151797
0.934569 0.456733 0.088289
0.124453 0.222141 0.202426
0.319219 0.318517 0.298283
0.721889 0.376471 0.216434
0.843473 0.430274 0.154238
0.935607 0.494545 0.084504
0.469459 0.575616 0.435676
0.588769 0.627619 0.548455
0.593805 0.554009 0.449531
0.840299 0.630030 0.300908
0.927916 0.627283 0.264103
0.660548 0.726864 0.627558
0.693080 0.745876 0.666590
0.763821 0.796841 0.745693
0.711452 0.685328 0.590661
0.895567 0.741573 0.481331
0.743709 0.819089 0.728573
0.761501 0.827298 0.751736
0.815152 0.854368 0.817411
0.847532 0.873472 0.842557
0.817166 0.804959 0.728389
0.073518 0.230716 0.480049
0.358495 0.198215 0.552270
0.705379 0.362615 0.521141
0.778347 0.480964 0.487648
0.895079 0.565301 0.490974
0.304631 0.398535 0.456214
0.411566 0.426062 0.538140
0.686549 0.478157 0.542412
0.784634 0.527886 0.504601
0.898009 0.583795 0.490822
0.424048 0.553552 0.482002
0.524132 0.588373 0.532708
0.643397 0.627497 0.594263
0.803525 0.655207 0.558160
0.904143 0.655756 0.509361
0.633600 0.705318 0.612604
0.666407 0.722866 0.648707
0.750790 0.780331 0.748348
0.719081 0.704921 0.646632
0.892241 0.765347 0.605646
0.731167 0.810575 0.721798
0.746944 0.818235 0.741207
0.797086 0.844022 0.800534
0.853117 0.878050 0.857786
0.818875 0.811521 0.751064
0.384558 0.435645 0.655268
0.465858 0.432258 0.677119
0.699702 0.430182 0.729274
0.800412 0.580499 0.677363
0.867277 0.625208 0.657954
0.482185 0.536889 0.641169
0.508446 0.526940 0.665949
0.693111 0.523766 0.729061
0.792844 0.611170 0.683284
0.862699 0.640314 0.663050
0.535546 0.626856 0.630488
0.574548 0.634180 0.640833
0.661799 0.663874 0.702510
0.771298 0.672663 0.693599
0.855894 0.692561 0.685939
0.608301 0.694209 0.641627
0.632258 0.700984 0.654994
0.696437 0.734798 0.703334
0.746975 0.748104 0.727382
0.878965 0.769375 0.711818
0.705989 0.793454 0.705959
0.720455 0.800443 0.722377
0.766598 0.824887 0.774868
0.840391 0.867582 0.853208
0.824918 0.825467 0.789212
0.582727 0.612207 0.774746
0.602960 0.607935 0.784115
0.690883 0.592370 0.815976
0.823697 0.614191 0.830594
0.875456 0.703182 0.787655
0.605676 0.646357 0.764889
0.611261 0.636164 0.775479
0.685908 0.625666 0.808988
0.817563 0.635706 0.829801
0.873136 0.714839 0.791196
0.626490 0.684657 0.727108
0.635187 0.686580 0.735988
0.672267 0.691310 0.784604
0.799466 0.695979 0.832151
0.867002 0.748074 0.802457
0.648096 0.754879 0.751095
0.657099 0.754391 0.753017
0.688563 0.754452 0.762264
0.757717 0.774777 0.815244
0.858183 0.796689 0.821225
0.693263 0.801419 0.756374
0.701747 0.803311 0.760800
0.733791 0.812833 0.779843
0.791348 0.836088 0.818936
0.846799 0.858793 0.854124
