data/fiter_cube/10491141/1023205/file.cube
# Created by Adobe Lightroom plugin Export LUT (1.17.0)
# www.johnrellis.com/lightroom/exportlut.htm
# Preset: 莫兰迪丛林_04 云集
# Color profile: C:\Program Files (x86)\Common Files\Adobe\Color\Profiles\Recommended\AdobeRGB1998.icc
LUT_3D_SIZE 8
DOMAIN_MIN 0.000000 0.000000 0.000000
DOMAIN_MAX 0.903226 0.903226 0.903226
0.069123 0.076112 0.088075
0.133913 0.083284 0.086061
0.436744 0.000000 0.047639
0.671687 0.000000 0.000000
0.776516 0.168429 0.000000
0.842832 0.276951 0.000000
0.896849 0.360113 0.000000
0.944335 0.423529 0.000000
0.080293 0.099641 0.101167
0.102602 0.108827 0.105959
0.452918 0.149538 0.011353
0.676143 0.156130 0.000000
0.776425 0.230045 0.000000
0.841276 0.307256 0.000000
0.895537 0.377630 0.000000
0.943450 0.435004 0.000000
0.151675 0.258366 0.169223
0.231510 0.319158 0.227329
0.276249 0.263706 0.176272
0.681392 0.386725 0.000000
0.780179 0.395727 0.000000
0.842466 0.417517 0.000000
0.896849 0.453437 0.000000
0.943664 0.487037 0.000000
0.373602 0.506035 0.337865
0.440467 0.532555 0.391424
0.568841 0.602075 0.486580
0.512963 0.462470 0.313024
0.748287 0.528985 0.096376
0.844846 0.560388 0.000000
0.894774 0.557916 0.000000
0.939696 0.566766 0.000000
0.555230 0.642084 0.498878
0.581537 0.651850 0.527184
0.646021 0.682521 0.599329
0.688228 0.707210 0.623682
0.630671 0.582666 0.438270
0.774258 0.614862 0.304875
0.882841 0.652461 0.177676
0.932982 0.657099 0.176120
0.646296 0.713649 0.604181
0.659663 0.720943 0.620356
0.695735 0.742428 0.664271
0.735958 0.772732 0.705379
0.745663 0.764248 0.685054
0.696071 0.661189 0.542809
0.802548 0.686854 0.456611
0.912993 0.720455 0.353033
0.703273 0.774075 0.673548
0.710780 0.778225 0.683253
0.734859 0.791470 0.714778
0.769467 0.812863 0.757321
0.799039 0.833799 0.784390
0.791409 0.809537 0.740139
0.752895 0.730495 0.630426
0.836118 0.752285 0.583459
0.747585 0.821469 0.731044
0.752926 0.823880 0.738125
0.771328 0.832425 0.762081
0.801663 0.847532 0.800046
0.824552 0.860929 0.822660
0.845975 0.874205 0.841764
0.834501 0.850858 0.796323
0.815854 0.801816 0.719020
0.071473 0.084535 0.113924
0.134676 0.078462 0.124483
0.407843 0.000000 0.109438
0.657679 0.000000 0.061250
0.767605 0.187655 0.000000
0.834592 0.287022 0.000000
0.890929 0.367987 0.000000
0.940368 0.430060 0.000000
0.078889 0.106661 0.114412
0.124849 0.138552 0.146304
0.439948 0.153109 0.112428
0.668299 0.169467 0.029755
0.770291 0.242771 0.000000
0.835142 0.317082 0.000000
0.890318 0.385107 0.000000
0.939513 0.440772 0.000000
0.157168 0.263645 0.186709
0.252110 0.330114 0.263340
0.307256 0.295476 0.225864
0.680934 0.403265 0.021424
0.773098 0.402075 0.000000
0.836362 0.423590 0.000000
0.891051 0.456886 0.000000
0.939849 0.490150 0.000000
0.377630 0.503288 0.351293
0.445319 0.530938 0.405371
0.570581 0.599664 0.502586
0.516533 0.470680 0.342809
0.745296 0.534661 0.167575
0.836973 0.560082 0.076387
0.888731 0.559380 0.000000
0.935729 0.569421 0.000000
0.557153 0.640650 0.505974
0.581689 0.649805 0.531975
0.645624 0.679896 0.604028
0.689021 0.707881 0.632166
0.629786 0.584619 0.452125
0.773007 0.618738 0.331060
0.879515 0.656672 0.234134
0.929473 0.659480 0.227146
0.645167 0.711421 0.605249
0.656916 0.717403 0.619287
0.692409 0.738613 0.662013
0.734310 0.770230 0.706172
0.746181 0.765133 0.690639
0.695857 0.662776 0.550988
0.802518 0.689448 0.468940
0.910613 0.722896 0.379858
0.701015 0.771542 0.672084
0.707942 0.775174 0.680964
0.732082 0.788663 0.712276
0.768185 0.811093 0.757259
0.798489 0.832944 0.785275
0.791592 0.810025 0.743465
0.751766 0.730007 0.632502
0.835447 0.752163 0.585962
0.745693 0.819974 0.729274
0.751156 0.822507 0.736538
0.769589 0.831174 0.760525
0.800076 0.846403 0.798581
0.825559 0.861540 0.824735
0.846586 0.874571 0.843320
0.834928 0.851530 0.798734
0.815335 0.801663 0.720302
0.027497 0.111635 0.228153
0.120485 0.096773 0.275578
0.447456 0.000000 0.274907
0.616388 0.170260 0.257847
0.747036 0.269200 0.234562
0.818479 0.361364 0.222232
0.879179 0.423621 0.198337
0.931975 0.472175 0.172793
0.114839 0.180819 0.228428
0.146273 0.189792 0.283421
0.435523 0.189059 0.294102
0.629511 0.241642 0.269932
0.748775 0.315068 0.242710
0.819150 0.383673 0.222873
0.879118 0.437110 0.196811
0.931762 0.481453 0.171023
0.153017 0.276341 0.243015
0.224643 0.320684 0.285344
0.395697 0.384131 0.355962
0.661463 0.429236 0.306310
0.757595 0.441962 0.271733
0.824186 0.463447 0.238224
0.881865 0.489784 0.203647
0.932647 0.517601 0.173190
0.353338 0.488106 0.355932
0.421485 0.517144 0.407019
0.569665 0.591577 0.532006
0.546929 0.512840 0.432532
0.748867 0.575067 0.342840
0.824094 0.581811 0.310521
0.878813 0.583062 0.280735
0.928374 0.590723 0.252506
0.541680 0.630976 0.502708
0.570703 0.641962 0.531853
0.640803 0.673884 0.608881
0.701106 0.721248 0.666682
0.639826 0.604395 0.506676
0.777890 0.642634 0.419928
0.874174 0.676905 0.376501
0.921233 0.672053 0.358770
0.639277 0.706325 0.604883
0.652308 0.712764 0.620203
0.688045 0.734005 0.662409
0.733364 0.767117 0.713802
0.752193 0.772793 0.713466
0.697597 0.670527 0.578851
0.805447 0.701534 0.511620
0.905852 0.734829 0.463783
0.697780 0.768765 0.672480
0.705043 0.772641 0.681636
0.728634 0.785733 0.711666
0.766751 0.808621 0.760128
0.798764 0.832242 0.790646
0.795773 0.815488 0.759304
0.754055 0.735256 0.647456
0.839780 0.760128 0.607202
0.741695 0.817624 0.726833
0.746487 0.819791 0.732998
0.764858 0.828367 0.756680
0.795926 0.844022 0.795224
0.825772 0.861112 0.827665
0.847623 0.875059 0.847044
0.837583 0.854948 0.808530
0.816678 0.804898 0.729824
0.000000 0.180301 0.403296
0.119234 0.177096 0.436744
0.468147 0.015900 0.510216
0.658930 0.257267 0.454871
0.721950 0.328954 0.404181
0.782498 0.431342 0.413611
0.850706 0.489448 0.408118
0.909941 0.531762 0.398993
0.172183 0.277684 0.409674
0.192844 0.264317 0.441413
0.472877 0.210910 0.517754
0.651667 0.327214 0.466377
0.713680 0.383093 0.425574
0.783902 0.451026 0.419898
0.851133 0.500999 0.411017
0.910460 0.537713 0.397467
0.247959 0.390082 0.407599
0.306859 0.407843 0.426673
0.450996 0.447150 0.505089
0.626978 0.463416 0.492439
0.714992 0.487861 0.465858
0.791257 0.516381 0.444984
0.855863 0.545098 0.427619
0.912993 0.566217 0.403784
0.337102 0.484749 0.414618
0.386206 0.500816 0.436286
0.516381 0.555413 0.507225
0.595575 0.574060 0.536400
0.731868 0.604395 0.510460
0.799008 0.603876 0.481788
0.859281 0.607874 0.451423
0.914427 0.614343 0.420386
0.509270 0.610895 0.491279
0.538415 0.621912 0.516747
0.615076 0.655573 0.591333
0.690364 0.707179 0.671626
0.653040 0.630854 0.573144
0.787259 0.677729 0.529992
0.858610 0.690364 0.511803
0.908690 0.686091 0.487251
0.624994 0.695857 0.598718
0.639002 0.702785 0.614191
0.675288 0.723445 0.655207
0.726589 0.758328 0.716365
0.764920 0.788113 0.749935
0.703243 0.684535 0.618036
0.813504 0.722469 0.573816
0.900542 0.751736 0.558618
0.688380 0.761349 0.667903
0.695796 0.765438 0.676844
0.719661 0.778988 0.706172
0.757259 0.801816 0.752804
0.797726 0.830076 0.796750
0.804410 0.826017 0.785061
0.757382 0.743221 0.669917
0.846891 0.771206 0.635737
0.736416 0.814267 0.725185
0.741207 0.816587 0.731228
0.757198 0.824247 0.751003
0.786130 0.838682 0.786069
0.824369 0.859190 0.830289
0.848173 0.875059 0.851469
0.842313 0.860868 0.824094
0.818601 0.809689 0.744198
0.175021 0.287327 0.541375
0.234379 0.286687 0.558282
0.441138 0.258915 0.609216
0.657710 0.289860 0.622156
0.736385 0.444404 0.572992
0.776120 0.475837 0.533623
0.812131 0.548882 0.551293
0.879026 0.596155 0.563653
0.274968 0.364111 0.540764
0.294713 0.354192 0.557458
0.452918 0.337102 0.606317
0.656703 0.354589 0.626795
0.731533 0.472084 0.577996
0.772274 0.493416 0.539330
0.813535 0.557671 0.554528
0.879850 0.600824 0.564202
0.375158 0.458595 0.510094
0.409400 0.473640 0.528008
0.482185 0.489387 0.590631
0.646571 0.492805 0.634394
0.716335 0.541466 0.592309
0.757443 0.548058 0.560784
0.818235 0.585534 0.563989
0.882750 0.615473 0.564050
0.420539 0.555047 0.538781
0.450263 0.561425 0.547448
0.532036 0.582879 0.576318
0.624994 0.614710 0.632990
0.695033 0.613031 0.610925
0.761868 0.619715 0.594171
0.828428 0.630854 0.578973
0.890227 0.640528 0.560632
0.493629 0.606073 0.537774
0.515587 0.611627 0.547997
0.581140 0.635126 0.585595
0.654597 0.671839 0.643030
0.676143 0.665766 0.636927
0.781674 0.697017 0.625849
0.839445 0.692409 0.602350
0.895140 0.691249 0.578698
0.593988 0.678096 0.582147
0.608209 0.681544 0.593896
0.647425 0.699153 0.633051
0.698970 0.733639 0.690639
0.757778 0.780789 0.757076
0.710628 0.699733 0.655268
0.828428 0.746059 0.635401
0.893706 0.758663 0.629450
0.672084 0.748013 0.657618
0.678920 0.751675 0.665431
0.701839 0.764645 0.692042
0.738369 0.787045 0.735683
0.785061 0.817868 0.790249
0.816739 0.840116 0.815518
0.760739 0.752285 0.696284
0.857389 0.784909 0.670314
0.725551 0.806760 0.718532
0.730068 0.808865 0.724025
0.745541 0.816403 0.742611
0.772122 0.830411 0.773953
0.808896 0.850095 0.815579
0.845548 0.872587 0.853117
0.849393 0.869200 0.843717
0.820188 0.814817 0.760464
0.348211 0.407843 0.637415
0.377691 0.407507 0.645441
0.479072 0.400977 0.670893
0.642176 0.377905 0.712367
0.732601 0.471351 0.682246
0.788754 0.559655 0.659419
0.824582 0.580804 0.635920
0.865263 0.622217 0.643458
0.391150 0.451331 0.633326
0.406989 0.446784 0.641444
0.489754 0.441871 0.666682
0.637537 0.425055 0.707912
0.729641 0.496590 0.683467
0.785672 0.571435 0.661341
0.822324 0.588067 0.637812
0.863340 0.628443 0.646418
0.472694 0.534539 0.614313
0.489570 0.540490 0.625299
0.524010 0.536767 0.655695
0.628321 0.535393 0.697505
0.723201 0.567193 0.691341
0.777493 0.607050 0.669123
0.815854 0.611810 0.644770
0.857572 0.650080 0.657404
0.505119 0.588983 0.607996
0.520500 0.592096 0.611841
0.568078 0.604181 0.625757
0.627344 0.628779 0.679561
0.716365 0.639857 0.704707
0.766201 0.649836 0.678981
0.805356 0.646845 0.656458
0.859770 0.675593 0.666987
0.539666 0.653803 0.629389
0.553246 0.655787 0.633204
0.593439 0.662776 0.645991
0.643915 0.676600 0.667689
0.700771 0.698756 0.712673
0.748074 0.690883 0.687800
0.808804 0.694148 0.676326
0.871183 0.703548 0.669764
0.590204 0.678340 0.623011
0.600305 0.680934 0.628412
0.629999 0.690425 0.645899
0.670710 0.712001 0.676265
0.721431 0.744747 0.723720
0.733577 0.732326 0.709499
0.829404 0.760800 0.707057
0.882322 0.754421 0.687770
0.652461 0.737118 0.656001
0.658350 0.739864 0.660761
0.677119 0.748623 0.676173
0.712642 0.766323 0.712490
0.758816 0.796933 0.765835
0.813748 0.837827 0.824094
0.768093 0.767025 0.731807
0.872496 0.805600 0.722560
0.710842 0.796719 0.709255
0.715114 0.798734 0.714199
0.729915 0.805997 0.731350
0.755184 0.819242 0.760433
0.790127 0.838346 0.799252
0.833677 0.863615 0.845548
0.861448 0.881590 0.868650
0.823697 0.822934 0.782834
0.484932 0.519219 0.707637
0.498970 0.519829 0.713161
0.545312 0.515770 0.729549
0.633173 0.505760 0.758083
0.741695 0.512749 0.780392
0.794003 0.582544 0.747219
0.835019 0.633509 0.726436
0.869688 0.656672 0.716396
0.496712 0.536614 0.701839
0.507774 0.536339 0.707362
0.548852 0.533227 0.723995
0.630304 0.524590 0.752682
0.737484 0.527337 0.777432
0.790127 0.588830 0.745205
0.831449 0.635218 0.724208
0.867185 0.656641 0.714137
0.552941 0.598657 0.690761
0.561791 0.600977 0.697139
0.571954 0.589197 0.714656
0.632197 0.586847 0.744198
0.731930 0.582849 0.777859
0.786191 0.622614 0.750423
0.828092 0.657008 0.730556
0.865354 0.673793 0.721553
0.573266 0.627558 0.665888
0.580102 0.628351 0.667201
0.604822 0.641657 0.689754
0.636927 0.647700 0.728725
0.715175 0.648402 0.771572
0.781430 0.667994 0.760616
0.822599 0.688930 0.740597
0.861479 0.696407 0.730098
0.590631 0.672633 0.677852
0.596490 0.672908 0.678920
0.616510 0.675288 0.684138
0.646509 0.680323 0.694972
0.690120 0.698726 0.746304
0.770108 0.710933 0.769589
0.811673 0.718166 0.746883
0.854643 0.720150 0.736568
0.613184 0.715908 0.692348
0.618616 0.717128 0.694606
0.635767 0.721675 0.702571
0.662867 0.729763 0.716518
0.700069 0.739773 0.735134
0.754604 0.762753 0.779385
0.799954 0.755245 0.758877
0.853941 0.761166 0.756069
0.646326 0.739010 0.689754
0.651179 0.740810 0.692805
0.666377 0.745907 0.701930
0.691707 0.755734 0.718685
0.727810 0.774380 0.746792
0.774228 0.802274 0.788266
0.787716 0.794949 0.781155
0.871214 0.817411 0.783719
0.694728 0.790738 0.717098
0.698421 0.792203 0.719936
0.712276 0.798672 0.731502
0.733364 0.808011 0.749020
0.765347 0.821500 0.778042
0.809354 0.847105 0.824369
0.858122 0.879118 0.872374
0.830137 0.835203 0.811917
0.582727 0.612207 0.774746
0.588983 0.611597 0.777951
0.610346 0.606317 0.787167
0.656916 0.598199 0.804746
0.732143 0.585138 0.828336
0.808011 0.604791 0.832456
0.845640 0.654719 0.800961
0.875456 0.703182 0.787655
0.585931 0.619959 0.770993
0.591730 0.619501 0.774289
0.611780 0.615076 0.784024
0.655634 0.607233 0.801572
0.728908 0.595361 0.825681
0.805600 0.611200 0.831540
0.843961 0.658350 0.800778
0.874479 0.705898 0.788144
0.612848 0.655756 0.761074
0.612818 0.652461 0.764492
0.617609 0.641444 0.774929
0.655512 0.638453 0.794949
0.720974 0.629847 0.819944
0.799771 0.635462 0.831449
0.841001 0.676265 0.804044
0.872251 0.717952 0.791958
0.620722 0.675624 0.738613
0.625055 0.677607 0.743191
0.639216 0.682063 0.757992
0.654383 0.674800 0.781827
0.707607 0.672480 0.809903
0.790860 0.673335 0.833616
0.837278 0.705562 0.811521
0.869169 0.737179 0.798703
0.631037 0.702907 0.732143
0.634455 0.703059 0.733242
0.644007 0.701350 0.734798
0.660731 0.704250 0.749722
0.693141 0.711330 0.790402
0.769253 0.715816 0.829252
0.831540 0.739132 0.821378
0.864744 0.760708 0.807126
0.642695 0.742733 0.745266
0.645258 0.742336 0.745602
0.654475 0.741512 0.747463
0.671168 0.740719 0.751919
0.696193 0.740414 0.759731
0.742702 0.760037 0.808377
0.825437 0.778866 0.836332
0.860014 0.789853 0.818845
0.663172 0.780636 0.758541
0.665766 0.781033 0.759640
0.675044 0.782864 0.763851
0.692561 0.787320 0.772732
0.719203 0.794217 0.786221
0.752712 0.799466 0.800046
0.803220 0.817899 0.836790
0.852079 0.819394 0.829618
0.693263 0.801419 0.756374
0.695644 0.801877 0.757565
0.704768 0.804135 0.762509
0.722103 0.809171 0.772671
0.747402 0.817288 0.788388
0.781430 0.831266 0.811673
0.823697 0.853178 0.843809
0.846799 0.858793 0.854124
