data/fiter_cube/72007313/1022716/file.cube
# Created by Adobe Lightroom plugin Export LUT (1.17.0)
# www.johnrellis.com/lightroom/exportlut.htm
# Preset: 高级电影暗青色_05 云集
# Color profile: C:\Program Files (x86)\Common Files\Adobe\Color\Profiles\Recommended\AdobeRGB1998.icc
LUT_3D_SIZE 5
DOMAIN_MIN 0.000000 0.000000 0.000000
DOMAIN_MAX 0.903226 0.903226 0.903226
0.056153 0.065675 0.062409
0.098085 0.073762 0.074678
0.266026 0.000000 0.082063
0.572381 0.000000 0.099763
0.782712 0.000000 0.176699
0.071046 0.083772 0.078309
0.092042 0.090608 0.075441
0.258061 0.045594 0.082094
0.562371 0.000000 0.099641
0.788388 0.000000 0.184543
0.107088 0.138125 0.124422
0.114626 0.148470 0.125460
0.259709 0.206729 0.094118
0.566491 0.189151 0.094270
0.776913 0.265293 0.186069
0.202243 0.261021 0.229679
0.221103 0.282475 0.242466
0.268528 0.326421 0.231754
0.530053 0.416144 0.138399
0.774044 0.487739 0.204868
0.418128 0.496864 0.438605
0.436072 0.512505 0.450690
0.471138 0.545830 0.458412
0.564569 0.597162 0.430060
0.768551 0.665492 0.376745
0.065461 0.076234 0.080049
0.082734 0.076722 0.080232
0.238102 0.000000 0.080842
0.524926 0.000000 0.095460
0.764736 0.000000 0.165713
0.072084 0.086030 0.083436
0.084565 0.092042 0.087037
0.241001 0.082765 0.082033
0.524681 0.000000 0.095674
0.765591 0.000000 0.168643
0.109529 0.131685 0.126223
0.121828 0.147341 0.137667
0.221653 0.189853 0.114992
0.532830 0.188571 0.090089
0.768612 0.261875 0.179477
0.204257 0.253147 0.231724
0.222965 0.274632 0.246342
0.272557 0.324346 0.253208
0.511650 0.408820 0.170291
0.770413 0.486366 0.200992
0.415473 0.487739 0.437140
0.432349 0.503166 0.449226
0.491005 0.557580 0.484779
0.569421 0.602930 0.458839
0.769802 0.669459 0.384649
0.066773 0.092073 0.126802
0.078157 0.094362 0.127810
0.180636 0.099184 0.145418
0.484596 0.000000 0.147097
0.761959 0.000000 0.164797
0.073335 0.106874 0.124514
0.086580 0.110506 0.126650
0.180636 0.126864 0.155886
0.473671 0.000000 0.168765
0.764309 0.000000 0.168673
0.102296 0.139925 0.140017
0.117830 0.147066 0.146395
0.210208 0.205936 0.193484
0.477607 0.219669 0.196262
0.765927 0.256229 0.177310
0.208896 0.227085 0.225101
0.219791 0.242985 0.238437
0.289860 0.325811 0.300572
0.474952 0.404211 0.266941
0.761105 0.482643 0.231540
0.407752 0.452735 0.425605
0.422248 0.469734 0.439521
0.481270 0.532494 0.489601
0.560082 0.596918 0.508415
0.750790 0.664363 0.440314
0.062531 0.122957 0.189792
0.072145 0.125582 0.191287
0.184115 0.142428 0.256504
0.390509 0.152255 0.283391
0.724666 0.062196 0.335576
0.070283 0.134554 0.184909
0.082185 0.136446 0.185275
0.181704 0.164981 0.251255
0.382483 0.186435 0.288487
0.719387 0.147738 0.339574
0.096620 0.172244 0.200565
0.112062 0.176577 0.203037
0.174166 0.205997 0.235477
0.389014 0.269291 0.318090
0.720485 0.310979 0.375372
0.164096 0.239109 0.239780
0.178805 0.244144 0.243839
0.243107 0.282841 0.278843
0.450599 0.423346 0.392645
0.733700 0.482918 0.411170
0.395392 0.425483 0.411231
0.403388 0.428748 0.415198
0.466957 0.478584 0.466835
0.562768 0.590753 0.565332
0.726802 0.668940 0.544701
0.000000 0.197635 0.345647
0.000000 0.196139 0.339971
0.184939 0.226627 0.406226
0.504448 0.261265 0.538659
0.666590 0.343725 0.532586
0.000000 0.204746 0.333410
0.000000 0.202853 0.328313
0.181949 0.238499 0.394934
0.502953 0.295964 0.541314
0.664515 0.370550 0.538262
0.081758 0.254978 0.357000
0.079988 0.251102 0.353338
0.142306 0.243717 0.340581
0.452491 0.360266 0.518273
0.662562 0.449226 0.561395
0.188815 0.363409 0.411109
0.186465 0.359930 0.407568
0.204318 0.350561 0.399023
0.312840 0.364385 0.422919
0.668482 0.555932 0.607355
0.372320 0.503105 0.497871
0.372778 0.502190 0.496315
0.387945 0.504051 0.496223
0.486732 0.540215 0.532036
0.703700 0.695369 0.690455
