data/fiter_cube/72007313/1022716/file.cube
# Created by Adobe Lightroom plugin Export LUT (1.17.0)
# www.johnrellis.com/lightroom/exportlut.htm
# Preset: 高级电影暗青色_05 云集
# Color profile: C:\Program Files (x86)\Common Files\Adobe\Color\Profiles\Recommended\AdobeRGB1998.icc
LUT_3D_SIZE 8
DOMAIN_MIN 0.000000 0.000000 0.000000
DOMAIN_MAX 0.903226 0.903226 0.903226
0.056153 0.065675 0.062409
0.063783 0.067994 0.065034
0.113039 0.072938 0.075898
0.203891 0.022156 0.078828
0.337652 0.000000 0.084932
0.529992 0.000000 0.095186
0.673701 0.000000 0.120974
0.782712 0.000000 0.176699
0.056153 0.065675 0.062409
0.061433 0.067079 0.064332
0.108278 0.073487 0.075715
0.193179 0.034241 0.078401
0.328923 0.000000 0.084413
0.504143 0.000000 0.093385
0.656855 0.000000 0.116365
0.773434 0.000000 0.171054
0.074739 0.089113 0.082490
0.074281 0.089174 0.082490
0.104402 0.099367 0.077394
0.194064 0.090883 0.079042
0.340337 0.000000 0.085481
0.512963 0.000000 0.094636
0.674800 0.000000 0.123781
0.785122 0.000000 0.183200
0.092744 0.117250 0.106355
0.093538 0.118227 0.106264
0.103609 0.127962 0.102266
0.197665 0.163821 0.087343
0.375677 0.158724 0.082643
0.536950 0.111116 0.094392
0.676051 0.100801 0.124819
0.781369 0.194156 0.185855
0.126558 0.164523 0.147585
0.129854 0.168521 0.149722
0.139864 0.182162 0.151431
0.172976 0.203922 0.136294
0.322759 0.251011 0.100496
0.521447 0.259922 0.079652
0.663935 0.274388 0.116426
0.774746 0.333288 0.188327
0.180087 0.233341 0.206668
0.189120 0.244144 0.214389
0.206271 0.264317 0.224369
0.226505 0.284581 0.217838
0.286229 0.311437 0.181064
0.486702 0.378271 0.126101
0.667384 0.420600 0.112947
0.775845 0.462104 0.202548
0.272526 0.344671 0.299626
0.279637 0.352270 0.304906
0.298009 0.370703 0.315618
0.320470 0.397742 0.318853
0.360296 0.423804 0.302129
0.453712 0.456641 0.248661
0.639063 0.523461 0.200351
0.767025 0.560204 0.227115
0.418128 0.496864 0.438605
0.422705 0.500938 0.441596
0.443336 0.518700 0.455695
0.479133 0.551720 0.477913
0.490761 0.559045 0.459388
0.545068 0.589136 0.440009
0.638209 0.619043 0.389471
0.768551 0.665492 0.376745
0.055879 0.066102 0.062806
0.059571 0.066560 0.063569
0.103334 0.073610 0.075196
0.184939 0.042634 0.077821
0.316930 0.000000 0.084260
0.488167 0.000000 0.092073
0.646326 0.000000 0.113436
0.765316 0.000000 0.165347
0.057618 0.067567 0.064820
0.059449 0.067414 0.063508
0.101686 0.075563 0.075105
0.182406 0.058747 0.078187
0.314061 0.000000 0.084352
0.477699 0.000000 0.091829
0.634028 0.000000 0.110567
0.755642 0.000000 0.159945
0.074800 0.087861 0.083223
0.075715 0.088960 0.084016
0.099733 0.098817 0.078279
0.183688 0.095766 0.078370
0.316930 0.039551 0.084535
0.481575 0.000000 0.092164
0.642847 0.000000 0.114015
0.764462 0.000000 0.168276
0.092012 0.113375 0.105837
0.094057 0.115969 0.107362
0.103578 0.126040 0.107088
0.177890 0.152804 0.087037
0.329717 0.149752 0.081849
0.488197 0.104433 0.090547
0.643000 0.045014 0.113863
0.761563 0.156710 0.170718
0.126772 0.161288 0.147738
0.129427 0.164553 0.149508
0.139223 0.178042 0.152895
0.164553 0.193912 0.138186
0.296666 0.235233 0.101503
0.494514 0.246647 0.078645
0.646967 0.260227 0.110323
0.762814 0.316106 0.177768
0.176211 0.225254 0.202457
0.180362 0.230259 0.205631
0.197391 0.249760 0.216770
0.217563 0.272068 0.213962
0.274998 0.300816 0.183627
0.474372 0.370367 0.129122
0.659266 0.413764 0.109346
0.767788 0.451728 0.193057
0.259922 0.327642 0.287724
0.262913 0.330755 0.289189
0.281712 0.350561 0.301366
0.309270 0.383246 0.311162
0.351171 0.413245 0.300481
0.439826 0.444892 0.248905
0.625391 0.510460 0.190280
0.755673 0.546777 0.211673
0.405493 0.483040 0.427039
0.411933 0.488960 0.431891
0.433265 0.507897 0.446967
0.473854 0.544060 0.474037
0.502770 0.568353 0.474800
0.548760 0.592432 0.450538
0.634180 0.616236 0.392523
0.763272 0.659907 0.368353
0.067170 0.079316 0.086152
0.066835 0.078370 0.084474
0.091157 0.078828 0.086183
0.176425 0.056336 0.082460
0.318334 0.000000 0.084260
0.491493 0.000000 0.092988
0.652918 0.000000 0.116030
0.771756 0.000000 0.170504
0.067689 0.081300 0.086275
0.068086 0.081300 0.084840
0.090150 0.083680 0.088167
0.169162 0.074311 0.087495
0.311589 0.000000 0.084352
0.481331 0.000000 0.092409
0.644282 0.000000 0.113893
0.766751 0.000000 0.167727
0.075532 0.091737 0.089540
0.076539 0.091341 0.089021
0.094606 0.101717 0.096223
0.168338 0.105684 0.095857
0.316075 0.081880 0.089815
0.486152 0.000000 0.092378
0.645289 0.000000 0.114748
0.765652 0.000000 0.169772
0.097139 0.111208 0.108797
0.099550 0.115053 0.112306
0.113466 0.134127 0.126467
0.167361 0.154696 0.114717
0.318944 0.161990 0.101717
0.493965 0.134401 0.090120
0.649836 0.114626 0.115480
0.766690 0.184207 0.175143
0.130282 0.156222 0.150057
0.134127 0.161166 0.154116
0.150149 0.181125 0.168460
0.172000 0.201419 0.164889
0.288151 0.239567 0.137636
0.490089 0.258000 0.096773
0.648157 0.274723 0.109438
0.764614 0.326177 0.179599
0.179721 0.220157 0.205722
0.184604 0.225742 0.209995
0.201144 0.245243 0.223148
0.223789 0.272984 0.230259
0.270268 0.298100 0.207279
0.452247 0.362127 0.167453
0.651606 0.413367 0.108583
0.768887 0.457130 0.195193
0.266178 0.324926 0.293706
0.270085 0.329168 0.296544
0.286168 0.346715 0.307774
0.318059 0.383276 0.325780
0.354803 0.411627 0.321019
0.435187 0.444709 0.276402
0.622766 0.515282 0.227939
0.762844 0.558770 0.224277
0.405646 0.475959 0.427924
0.407996 0.478492 0.429419
0.426246 0.495644 0.442695
0.473487 0.537530 0.478035
0.503838 0.566155 0.485176
0.549554 0.592950 0.471107
0.631373 0.618341 0.419562
0.764523 0.663966 0.376410
0.068055 0.086641 0.111971
0.068391 0.086946 0.110872
0.089143 0.086824 0.115572
0.140749 0.089631 0.118898
0.278599 0.005097 0.122286
0.456825 0.000000 0.120790
0.636866 0.000000 0.111910
0.762692 0.000000 0.165042
0.069215 0.092592 0.110506
0.069673 0.092592 0.109194
0.090517 0.094270 0.116121
0.139681 0.098024 0.121736
0.275700 0.054719 0.125887
0.450996 0.000000 0.123751
0.632624 0.000000 0.111208
0.760800 0.000000 0.164340
0.075929 0.103883 0.111757
0.078279 0.104616 0.111421
0.094392 0.111208 0.118654
0.143893 0.120119 0.132692
0.272587 0.115999 0.142977
0.457710 0.024964 0.139284
0.649928 0.000000 0.119326
0.769894 0.000000 0.173098
0.091096 0.120821 0.120119
0.094606 0.121859 0.120760
0.111910 0.131777 0.130495
0.163577 0.164401 0.154971
0.275181 0.171328 0.156527
0.450813 0.163943 0.153628
0.639521 0.143954 0.131868
0.767544 0.191135 0.175784
0.133211 0.153414 0.151583
0.138186 0.156039 0.154757
0.154635 0.173220 0.171603
0.189944 0.216587 0.203647
0.276402 0.246372 0.186496
0.461738 0.267552 0.174075
0.641077 0.292180 0.158053
0.767605 0.333562 0.182681
0.189425 0.214542 0.210147
0.196841 0.223514 0.217990
0.211124 0.242222 0.232883
0.248203 0.285801 0.263615
0.284581 0.315282 0.255344
0.440803 0.368750 0.226047
0.641230 0.420142 0.193118
0.770535 0.461616 0.197330
0.270695 0.312718 0.294835
0.276127 0.319097 0.299931
0.294774 0.340978 0.316533
0.332860 0.383246 0.346593
0.374548 0.426337 0.360784
0.440253 0.456764 0.327367
0.613886 0.519524 0.289128
0.762356 0.564630 0.254490
0.415442 0.470558 0.435706
0.419959 0.475563 0.439826
0.434363 0.491463 0.451972
0.467292 0.524376 0.478065
0.510613 0.565515 0.505211
0.552392 0.594202 0.503960
0.625025 0.620630 0.459510
0.759976 0.668849 0.423621
0.066468 0.099886 0.142397
0.066590 0.100221 0.140932
0.084993 0.103395 0.147585
0.143038 0.102235 0.168399
0.230198 0.111452 0.178195
0.410559 0.000000 0.188815
0.607263 0.000000 0.184604
0.757015 0.000000 0.190280
0.068330 0.104738 0.138888
0.068666 0.105013 0.138033
0.089082 0.109926 0.148257
0.145052 0.111116 0.171176
0.228275 0.121675 0.180545
0.408698 0.013397 0.192447
0.605921 0.000000 0.192660
0.756710 0.000000 0.191958
0.075746 0.117647 0.140597
0.079438 0.118776 0.140627
0.095552 0.123842 0.145907
0.146181 0.136538 0.175906
0.225284 0.149264 0.188754
0.397436 0.113893 0.200046
0.596948 0.002045 0.212528
0.753079 0.000000 0.192569
0.089570 0.137575 0.149294
0.094301 0.138857 0.149874
0.111543 0.146792 0.156588
0.153811 0.173342 0.186954
0.240574 0.191135 0.211002
0.402686 0.192691 0.225132
0.601953 0.181521 0.226352
0.759091 0.172183 0.195285
0.116457 0.162692 0.163272
0.121523 0.164706 0.165042
0.139254 0.173892 0.173648
0.181186 0.203708 0.202548
0.266728 0.255894 0.238651
0.412909 0.266117 0.239658
0.605859 0.288273 0.240879
0.758145 0.318090 0.217624
0.170901 0.203311 0.199771
0.176547 0.206455 0.203159
0.196719 0.218418 0.216129
0.232792 0.252171 0.248417
0.286625 0.314885 0.292393
0.412207 0.363317 0.277195
0.615656 0.415320 0.276341
0.759396 0.458595 0.270176
0.272984 0.290135 0.285252
0.275669 0.294255 0.288609
0.288762 0.312261 0.303532
0.319371 0.350530 0.334569
0.377508 0.416083 0.382666
0.431373 0.457191 0.375555
0.592615 0.514580 0.345037
0.750271 0.561883 0.325597
0.409430 0.441840 0.422278
0.409369 0.442725 0.422614
0.420386 0.457374 0.434302
0.455695 0.497597 0.468421
0.499702 0.544457 0.505699
0.548852 0.589319 0.529717
0.610468 0.617670 0.499245
0.745937 0.666499 0.469764
0.063447 0.118807 0.181186
0.064118 0.118837 0.179507
0.082582 0.123812 0.187320
0.137575 0.133272 0.221561
0.236240 0.129152 0.249393
0.357427 0.143618 0.261143
0.569055 0.029877 0.291630
0.736477 0.000000 0.305455
0.066011 0.121279 0.174716
0.066407 0.121126 0.173342
0.085969 0.127626 0.184543
0.136995 0.138369 0.217563
0.232456 0.137301 0.247044
0.351507 0.153658 0.260563
0.564630 0.081575 0.292180
0.734157 0.000000 0.306279
0.074067 0.135653 0.178622
0.076722 0.136019 0.178225
0.093599 0.139528 0.180728
0.142824 0.159182 0.218296
0.238163 0.168917 0.256474
0.351202 0.188937 0.271214
0.564172 0.155062 0.303746
0.733791 0.143069 0.316930
0.088685 0.157504 0.188632
0.093172 0.158175 0.188510
0.110933 0.163760 0.192325
0.146242 0.180911 0.212253
0.259495 0.224186 0.284306
0.367864 0.242924 0.297948
0.573907 0.236118 0.326970
0.735714 0.277379 0.353063
0.112795 0.184665 0.200229
0.117433 0.186313 0.201328
0.135042 0.193362 0.206821
0.167575 0.211460 0.223545
0.244663 0.263584 0.281041
0.377813 0.294530 0.318547
0.570550 0.314336 0.344488
0.735470 0.351415 0.355413
0.151369 0.218326 0.219333
0.156741 0.221347 0.222019
0.174411 0.229801 0.229526
0.209049 0.250736 0.248569
0.278355 0.301640 0.296208
0.411963 0.386969 0.358068
0.586603 0.415778 0.369268
0.743557 0.459174 0.378088
0.236332 0.290532 0.281193
0.243168 0.294652 0.285222
0.265110 0.306432 0.297154
0.308324 0.332738 0.324132
0.370306 0.385016 0.375036
0.450080 0.474769 0.443214
0.579278 0.523949 0.421942
0.741115 0.572320 0.431556
0.409430 0.426123 0.414527
0.410315 0.425666 0.414343
0.422858 0.431312 0.421637
0.447913 0.462501 0.449866
0.484474 0.509728 0.490883
0.545434 0.576806 0.547997
0.601160 0.620386 0.552850
0.731868 0.669306 0.530480
0.050874 0.143252 0.233341
0.050813 0.143496 0.232181
0.072724 0.147524 0.238071
0.130617 0.163241 0.276005
0.244572 0.175143 0.336095
0.361761 0.164279 0.347692
0.512291 0.199161 0.373938
0.694728 0.224308 0.428351
0.055573 0.145632 0.228031
0.056428 0.145510 0.227054
0.075929 0.150149 0.234562
0.131746 0.167117 0.272038
0.241306 0.181643 0.332006
0.360266 0.173556 0.348180
0.508263 0.208591 0.373541
0.692226 0.231907 0.427680
0.065644 0.157351 0.227756
0.066407 0.157198 0.226963
0.083131 0.158114 0.225498
0.136660 0.181155 0.265354
0.237247 0.204715 0.327184
0.367224 0.206882 0.359777
0.508568 0.246586 0.384100
0.693690 0.275486 0.439643
0.082460 0.180941 0.239445
0.082521 0.180362 0.238102
0.098421 0.181460 0.237217
0.130526 0.188144 0.243687
0.228977 0.234531 0.318944
0.379431 0.261173 0.380591
0.511406 0.301946 0.402564
0.695979 0.333623 0.456031
0.108949 0.213748 0.254612
0.108858 0.213260 0.253605
0.122713 0.215030 0.253666
0.149355 0.220615 0.258396
0.200076 0.242191 0.284794
0.390936 0.328771 0.406256
0.516167 0.360052 0.424292
0.698909 0.399268 0.474556
0.149935 0.258549 0.278111
0.150179 0.258152 0.277348
0.162936 0.261387 0.279149
0.190036 0.271122 0.286931
0.233616 0.292424 0.307042
0.353948 0.370977 0.391669
0.537499 0.437781 0.463386
0.705531 0.482795 0.504601
0.212345 0.313970 0.312261
0.212833 0.313878 0.311894
0.225254 0.317998 0.315038
0.255314 0.331273 0.326513
0.307103 0.359869 0.352514
0.408881 0.430793 0.420264
0.566857 0.541558 0.513939
0.717189 0.574975 0.534112
0.347784 0.423621 0.406622
0.349828 0.424628 0.407477
0.358373 0.429145 0.411810
0.394141 0.447120 0.430488
0.454597 0.481025 0.467018
0.531701 0.539117 0.530327
0.604669 0.625238 0.607416
0.715785 0.675380 0.598596
0.000000 0.197635 0.345647
0.000000 0.197452 0.344396
0.001801 0.197269 0.342138
0.132143 0.215976 0.377691
0.255924 0.238163 0.440345
0.458503 0.259373 0.524712
0.543328 0.252384 0.500237
0.666590 0.343725 0.532586
0.000000 0.199527 0.340795
0.000000 0.199222 0.339666
0.008759 0.199283 0.338109
0.131289 0.217655 0.372717
0.253269 0.242679 0.436469
0.453834 0.267399 0.521721
0.542168 0.261143 0.500969
0.665187 0.350530 0.533196
0.000000 0.207980 0.332647
0.001526 0.207767 0.331853
0.024567 0.205722 0.326848
0.126253 0.223850 0.359045
0.245548 0.257877 0.426459
0.440284 0.294133 0.514672
0.544915 0.294499 0.510430
0.663661 0.378485 0.539849
0.059480 0.234531 0.347204
0.059571 0.234379 0.346563
0.061616 0.232547 0.342382
0.112032 0.228794 0.334203
0.227298 0.274662 0.406073
0.415076 0.328862 0.502281
0.552789 0.347051 0.530053
0.663050 0.423041 0.553002
0.106935 0.280217 0.368963
0.106447 0.279515 0.368353
0.103853 0.275486 0.364660
0.116823 0.266423 0.357000
0.176028 0.264927 0.353307
0.366857 0.353002 0.474495
0.560998 0.412268 0.555077
0.663020 0.478859 0.572351
0.168582 0.343603 0.400000
0.167788 0.342382 0.398749
0.165347 0.338537 0.394995
0.170443 0.331914 0.389075
0.202823 0.324712 0.384253
0.275517 0.336034 0.402136
0.567956 0.498116 0.584253
0.666743 0.541375 0.600092
0.256992 0.422065 0.443702
0.256504 0.421241 0.442847
0.254887 0.418677 0.439857
0.255619 0.415198 0.435798
0.290349 0.418128 0.437934
0.342412 0.428473 0.448829
0.476783 0.495674 0.524804
0.678035 0.603784 0.634424
0.372320 0.503105 0.497871
0.372320 0.502708 0.497292
0.373114 0.501976 0.495918
0.375311 0.501183 0.493904
0.409186 0.510002 0.501762
0.467689 0.531456 0.523033
0.561608 0.584283 0.579004
0.703700 0.695369 0.690455
