data/fiter_cube/72007313/1022716/file.cube
# Created by Adobe Lightroom plugin Export LUT (1.17.0)
# www.johnrellis.com/lightroom/exportlut.htm
# Preset: 高级电影暗青色_05 云集
# Color profile: C:\Program Files (x86)\Common Files\Adobe\Color\Profiles\Recommended\AdobeRGB1998.icc
LUT_3D_SIZE 32
DOMAIN_MIN 0.0 0.0 0.0
DOMAIN_MAX 1.0 1.0 1.0
0.056153 0.065675 0.062409
0.056153 0.065675 0.062409
0.056153 0.065675 0.062409
0.056153 0.065675 0.062409
0.063783 0.067994 0.065034
0.075441 0.070863 0.069154
0.085725 0.073060 0.072328
0.098085 0.073762 0.074678
0.113039 0.072938 0.075898
0.131197 0.069612 0.076631
0.152193 0.063539 0.077241
0.176638 0.050385 0.077546
0.203891 0.022156 0.078828
0.233890 0.000000 0.080354
0.266026 0.000000 0.082063
0.300572 0.000000 0.083284
0.337652 0.000000 0.084932
0.389563 0.000000 0.086732
0.437781 0.000000 0.089021
0.484840 0.000000 0.091524
0.529992 0.000000 0.095186
0.572381 0.000000 0.099763
0.610346 0.000000 0.105318
0.643732 0.000000 0.112398
0.673701 0.000000 0.120974
0.701198 0.000000 0.131441
0.728084 0.000000 0.143893
0.755215 0.000000 0.158724
0.782712 0.000000 0.176699
0.810636 0.000000 0.198642
0.839109 0.000000 0.225467
0.868528 0.008270 0.258701
0.056153 0.065675 0.062409
0.056153 0.065675 0.062409
0.056153 0.065675 0.062409
0.056153 0.065675 0.062409
0.063844 0.067567 0.065064
0.075105 0.070558 0.068788
0.085359 0.073152 0.072328
0.097200 0.073976 0.074342
0.112276 0.072786 0.075929
0.129885 0.069642 0.076692
0.150546 0.064363 0.076936
0.174441 0.052735 0.077638
0.201053 0.025879 0.078645
0.230594 0.000000 0.080262
0.262364 0.000000 0.081666
0.296239 0.000000 0.083314
0.333715 0.000000 0.084657
0.383246 0.000000 0.086458
0.429755 0.000000 0.088685
0.476051 0.000000 0.091157
0.521019 0.000000 0.094484
0.563531 0.000000 0.098482
0.602289 0.000000 0.103944
0.636500 0.000000 0.110719
0.667262 0.000000 0.119081
0.695552 0.000000 0.129030
0.722927 0.000000 0.141329
0.750454 0.000000 0.156161
0.778378 0.000000 0.173678
0.806668 0.000000 0.195254
0.835416 0.000000 0.221714
0.864927 0.000000 0.254459
0.056153 0.065675 0.062409
0.056153 0.065675 0.062409
0.056153 0.065675 0.062409
0.056153 0.065675 0.062409
0.063325 0.067628 0.065095
0.074678 0.070619 0.068818
0.084749 0.072908 0.072023
0.096620 0.073732 0.074372
0.111208 0.073060 0.075959
0.128542 0.070130 0.076722
0.148898 0.064668 0.077028
0.172610 0.053864 0.077394
0.199191 0.027802 0.078737
0.228489 0.000000 0.080049
0.259892 0.000000 0.081544
0.293706 0.000000 0.083223
0.331853 0.000000 0.084504
0.379614 0.000000 0.086519
0.425452 0.000000 0.088502
0.471168 0.000000 0.090761
0.516045 0.000000 0.094209
0.558862 0.000000 0.098238
0.597986 0.000000 0.103273
0.632715 0.000000 0.109926
0.663844 0.000000 0.117922
0.692500 0.000000 0.127993
0.720119 0.000000 0.139925
0.747921 0.000000 0.154513
0.776059 0.000000 0.172396
0.804532 0.000000 0.193790
0.833402 0.000000 0.220066
0.862943 0.000000 0.252354
0.056153 0.065675 0.062409
0.056153 0.065675 0.062409
0.056153 0.065675 0.062409
0.056153 0.065675 0.062409
0.062867 0.067720 0.064668
0.074281 0.070710 0.068421
0.083986 0.073030 0.072023
0.095979 0.073884 0.074403
0.110201 0.072969 0.075685
0.127443 0.070527 0.076417
0.147372 0.065339 0.077058
0.170871 0.054780 0.077485
0.196811 0.030610 0.078523
0.225772 0.000000 0.079866
0.256779 0.000000 0.081727
0.290257 0.000000 0.082826
0.329747 0.000000 0.084657
0.375677 0.000000 0.086458
0.419745 0.000000 0.088289
0.463966 0.000000 0.090547
0.508019 0.000000 0.093385
0.550713 0.000000 0.097353
0.590692 0.000000 0.102419
0.627131 0.000000 0.108919
0.659998 0.000000 0.117006
0.690242 0.000000 0.127291
0.718837 0.000000 0.139651
0.747189 0.000000 0.154421
0.775540 0.000000 0.172244
0.803922 0.000000 0.193423
0.832425 0.000000 0.219547
0.861540 0.000000 0.250950
0.056153 0.065675 0.062409
0.056153 0.065675 0.062409
0.056153 0.065675 0.062409
0.056153 0.065675 0.062409
0.061433 0.067079 0.064332
0.073579 0.070008 0.068116
0.082918 0.072877 0.071717
0.094423 0.073854 0.074098
0.108278 0.073487 0.075715
0.125154 0.070863 0.076509
0.144900 0.065949 0.076844
0.167514 0.057404 0.077272
0.193179 0.034241 0.078401
0.221775 0.000122 0.079774
0.252811 0.000000 0.081605
0.286717 0.000000 0.082948
0.328923 0.000000 0.084413
0.373510 0.000000 0.086549
0.417182 0.000000 0.088411
0.460761 0.000000 0.090425
0.504143 0.000000 0.093385
0.546410 0.000000 0.096925
0.586450 0.000000 0.101778
0.623499 0.000000 0.108278
0.656855 0.000000 0.116365
0.687648 0.000000 0.126619
0.716548 0.000000 0.138796
0.745052 0.000000 0.153536
0.773434 0.000000 0.171054
0.801816 0.000000 0.192325
0.830411 0.000000 0.218082
0.859525 0.006470 0.249485
0.060700 0.070863 0.067201
0.060700 0.070863 0.067201
0.060700 0.070863 0.067201
0.060792 0.070863 0.066804
0.061250 0.071168 0.066773
0.072023 0.074525 0.068147
0.082429 0.076356 0.071809
0.093782 0.076600 0.074250
0.107515 0.075959 0.075532
0.123781 0.073579 0.076692
0.143313 0.069520 0.076997
0.165835 0.062654 0.077424
0.191470 0.048280 0.078187
0.219913 0.018891 0.079805
0.251102 0.000000 0.081605
0.285740 0.000000 0.082826
0.329564 0.000000 0.084718
0.373236 0.000000 0.086549
0.416388 0.000000 0.088380
0.460121 0.000000 0.090883
0.503746 0.000000 0.093721
0.546777 0.000000 0.097292
0.634028 0.000000 0.111055
0.665522 0.000000 0.119448
0.693721 0.000000 0.129335
0.719997 0.000000 0.141115
0.745693 0.000000 0.154788
0.771237 0.000000 0.170687
0.796902 0.000000 0.189395
0.822934 0.000000 0.211887
0.849271 0.000000 0.239200
0.876432 0.164065 0.271977
0.066987 0.078370 0.073823
0.067079 0.078370 0.073457
0.067079 0.078370 0.073457
0.067079 0.078370 0.073457
0.067079 0.078370 0.073457
0.069917 0.079774 0.072206
0.082094 0.082948 0.072633
0.095308 0.083833 0.074952
0.109621 0.083040 0.076173
0.126986 0.080934 0.076936
0.147280 0.077546 0.077485
0.171054 0.071534 0.077790
0.197452 0.063264 0.079042
0.226566 0.043488 0.080537
0.258091 0.001007 0.081880
0.298039 0.000000 0.083742
0.342107 0.000000 0.085603
0.386053 0.000000 0.087160
0.430030 0.000000 0.089235
0.475563 0.000000 0.091951
0.522454 0.000000 0.095155
0.568994 0.000000 0.100099
0.612543 0.000000 0.106844
0.650904 0.000000 0.115572
0.684352 0.000000 0.126162
0.713313 0.000000 0.138521
0.740475 0.000000 0.152224
0.766690 0.000000 0.168185
0.792721 0.000000 0.186923
0.818723 0.000000 0.209171
0.845151 0.063905 0.235691
0.872313 0.172763 0.267887
0.071046 0.083772 0.078309
0.071046 0.083772 0.078309
0.071168 0.083436 0.078004
0.070710 0.083497 0.078004
0.070710 0.083497 0.078004
0.071901 0.084688 0.077546
0.076631 0.086275 0.075990
0.092042 0.090608 0.075441
0.108400 0.091402 0.076112
0.125399 0.089937 0.077180
0.145602 0.087404 0.077363
0.168978 0.082856 0.078004
0.195132 0.076722 0.078920
0.224002 0.067720 0.080385
0.258061 0.045594 0.082094
0.298650 0.000000 0.083803
0.340246 0.000000 0.085542
0.382483 0.000000 0.087190
0.425269 0.000000 0.089052
0.469856 0.000000 0.091615
0.516136 0.000000 0.094911
0.562371 0.000000 0.099641
0.606073 0.000000 0.105959
0.644739 0.000000 0.114107
0.678584 0.000000 0.124636
0.708003 0.000000 0.136599
0.735409 0.000000 0.150332
0.761990 0.000000 0.166049
0.788388 0.000000 0.184543
0.814725 0.000000 0.206638
0.841337 0.099733 0.232975
0.868589 0.186648 0.265080
0.074739 0.089113 0.082490
0.074739 0.089113 0.082490
0.074739 0.089113 0.082490
0.074281 0.089174 0.082490
0.074281 0.089174 0.082490
0.075471 0.090242 0.082063
0.078248 0.091646 0.080964
0.084779 0.093690 0.078981
0.104402 0.099367 0.077394
0.124788 0.100191 0.076783
0.144808 0.098573 0.077272
0.167941 0.095338 0.077852
0.194064 0.090883 0.079042
0.224979 0.084352 0.080598
0.261662 0.073487 0.082216
0.300298 0.047822 0.083711
0.340337 0.000000 0.085481
0.381262 0.000000 0.087190
0.423163 0.000000 0.089113
0.467292 0.000000 0.091341
0.512963 0.000000 0.094636
0.558801 0.000000 0.099092
0.602289 0.000000 0.105135
0.640894 0.000000 0.113497
0.674800 0.000000 0.123781
0.704433 0.000000 0.135592
0.731991 0.000000 0.149203
0.758694 0.000000 0.164584
0.785122 0.000000 0.183200
0.811490 0.000000 0.204837
0.838041 0.132906 0.231022
0.865232 0.204135 0.262730
0.078157 0.095186 0.087495
0.078248 0.095186 0.087190
0.078248 0.095186 0.087190
0.078248 0.095186 0.087190
0.077882 0.095247 0.086915
0.078981 0.096223 0.086519
0.081209 0.097322 0.086061
0.085664 0.099458 0.083986
0.095186 0.102296 0.082185
0.118349 0.109346 0.079622
0.142947 0.110506 0.077607
0.166354 0.108431 0.077790
0.194919 0.106142 0.078645
0.228061 0.102083 0.080507
0.264103 0.094636 0.082033
0.302403 0.081514 0.083711
0.342504 0.058747 0.085328
0.383551 0.000000 0.087221
0.425299 0.000000 0.088930
0.468544 0.000000 0.091402
0.512718 0.000000 0.094728
0.556451 0.000000 0.098848
0.598138 0.000000 0.104677
0.635584 0.000000 0.112367
0.669093 0.000000 0.121920
0.698939 0.000000 0.133516
0.726864 0.000000 0.147066
0.754299 0.000000 0.162905
0.781491 0.000000 0.181521
0.808469 0.089998 0.203861
0.835630 0.166018 0.230442
0.863279 0.227909 0.262760
0.082460 0.101198 0.092378
0.082063 0.101259 0.092378
0.082063 0.101259 0.092378
0.082124 0.101259 0.092103
0.082429 0.101747 0.092073
0.082734 0.102754 0.091402
0.084871 0.104036 0.090700
0.088228 0.106111 0.089601
0.094759 0.108888 0.087129
0.107607 0.112642 0.085176
0.135317 0.120851 0.081209
0.167605 0.124361 0.078553
0.197818 0.123354 0.078157
0.230076 0.120760 0.079957
0.265110 0.115511 0.081483
0.302586 0.106630 0.083131
0.341924 0.093019 0.085054
0.382300 0.071901 0.086580
0.423346 0.012573 0.088594
0.466133 0.000000 0.091005
0.510002 0.000000 0.093996
0.553582 0.000000 0.098268
0.595361 0.000000 0.104158
0.632807 0.000000 0.111696
0.666316 0.000000 0.121523
0.696132 0.000000 0.132692
0.723934 0.000000 0.146304
0.751125 0.000000 0.161898
0.778225 0.063661 0.180331
0.805203 0.137636 0.202548
0.832364 0.194675 0.229191
0.860014 0.249149 0.261326
0.086702 0.107729 0.098390
0.086702 0.107973 0.098116
0.086702 0.107973 0.098116
0.086336 0.108034 0.098116
0.087190 0.108858 0.098268
0.087770 0.110231 0.097627
0.089052 0.111727 0.096712
0.092317 0.113405 0.095430
0.097292 0.116396 0.092927
0.106844 0.120302 0.090547
0.124727 0.126833 0.088594
0.160037 0.137697 0.083345
0.219425 0.154116 0.080781
0.259831 0.152377 0.079011
0.298833 0.147677 0.080995
0.339422 0.140108 0.082643
0.380224 0.129458 0.084718
0.420844 0.115236 0.086732
0.461158 0.097108 0.089540
0.502251 0.073060 0.092439
0.543084 0.016663 0.096468
0.582483 0.000000 0.101503
0.618891 0.000000 0.108095
0.651820 0.000000 0.116548
0.681666 0.000000 0.127199
0.708888 0.001740 0.139528
0.735073 0.079347 0.153353
0.760739 0.120394 0.169314
0.786221 0.159945 0.188449
0.811887 0.200900 0.211032
0.837797 0.244083 0.238132
0.864683 0.289830 0.271000
0.092744 0.117250 0.106355
0.092836 0.117037 0.106142
0.092561 0.117067 0.105928
0.092561 0.117067 0.105928
0.093538 0.118227 0.106264
0.094484 0.120058 0.106050
0.095369 0.121431 0.104982
0.098695 0.124147 0.104189
0.103609 0.127962 0.102266
0.112184 0.133059 0.098787
0.126101 0.138643 0.095613
0.151858 0.148440 0.092988
0.197665 0.163821 0.087343
0.248295 0.171969 0.082490
0.292515 0.170718 0.080049
0.334905 0.166110 0.080659
0.375677 0.158724 0.082643
0.415991 0.148867 0.084779
0.455879 0.137484 0.087312
0.496498 0.124575 0.090547
0.536950 0.111116 0.094392
0.576318 0.099184 0.099458
0.612879 0.091920 0.106050
0.645991 0.092317 0.114412
0.676051 0.100801 0.124819
0.703426 0.116518 0.137026
0.729763 0.137697 0.150942
0.755581 0.163943 0.167208
0.781369 0.194156 0.185855
0.807340 0.229099 0.208743
0.833524 0.267735 0.236088
0.860685 0.310094 0.269108
0.098604 0.125887 0.113893
0.098604 0.125887 0.113893
0.098543 0.126070 0.113863
0.099001 0.126619 0.114015
0.100557 0.128389 0.114870
0.102815 0.131136 0.116396
0.103548 0.133150 0.115145
0.106050 0.135653 0.114229
0.110445 0.138918 0.113161
0.117006 0.143923 0.109682
0.128054 0.149874 0.105043
0.145541 0.156161 0.100282
0.177432 0.168643 0.097658
0.227787 0.184817 0.090486
0.282506 0.193179 0.083558
0.327916 0.191379 0.080720
0.371069 0.186069 0.079744
0.410681 0.179080 0.082246
0.450660 0.171054 0.085145
0.491127 0.162661 0.088106
0.531670 0.154849 0.092164
0.571221 0.149477 0.097353
0.608118 0.146883 0.103914
0.641505 0.149233 0.112612
0.671870 0.155673 0.123049
0.699519 0.166751 0.135470
0.726009 0.182467 0.149264
0.751980 0.203189 0.165896
0.777920 0.228672 0.185031
0.804074 0.259190 0.207828
0.830472 0.294316 0.235691
0.857786 0.333501 0.269261
0.107088 0.138125 0.124422
0.107301 0.138094 0.124605
0.107271 0.138277 0.124575
0.107851 0.139071 0.124849
0.109438 0.140780 0.125765
0.111543 0.143252 0.126986
0.112886 0.145998 0.126497
0.114626 0.148470 0.125460
0.118441 0.151614 0.124331
0.124239 0.155947 0.122560
0.133120 0.162051 0.117922
0.147158 0.168765 0.112490
0.167819 0.175601 0.105867
0.205386 0.190372 0.102449
0.259709 0.206729 0.094118
0.317357 0.215274 0.084932
0.363317 0.213504 0.080964
0.407263 0.208408 0.078523
0.446815 0.202548 0.081514
0.487007 0.196902 0.084871
0.527214 0.192142 0.088960
0.566491 0.189151 0.094270
0.603449 0.188876 0.101076
0.636988 0.191806 0.109926
0.667811 0.197879 0.120577
0.696040 0.207797 0.133516
0.723140 0.222202 0.148562
0.750088 0.241337 0.165743
0.776913 0.265293 0.186069
0.803861 0.294408 0.210361
0.831022 0.327825 0.240024
0.859037 0.365209 0.275517
0.116426 0.151034 0.135958
0.116762 0.151461 0.136233
0.117128 0.151888 0.136355
0.117983 0.153048 0.136904
0.119753 0.154818 0.138033
0.122133 0.157748 0.139498
0.124727 0.161593 0.140688
0.126314 0.164248 0.139254
0.129335 0.167636 0.138369
0.134890 0.171725 0.137118
0.142000 0.177035 0.133303
0.152926 0.183291 0.127626
0.169162 0.189822 0.120516
0.191623 0.195895 0.112337
0.234104 0.212039 0.107118
0.290623 0.228275 0.097047
0.350408 0.237339 0.085847
0.396887 0.236576 0.081758
0.443091 0.233341 0.077363
0.484688 0.230014 0.080262
0.525628 0.227634 0.084993
0.565362 0.227207 0.090852
0.602625 0.228824 0.098207
0.636408 0.232883 0.108034
0.667323 0.239445 0.119570
0.695796 0.249058 0.132998
0.723110 0.262272 0.148714
0.750057 0.279850 0.166964
0.776791 0.301732 0.188052
0.803433 0.327794 0.213107
0.830228 0.357855 0.242954
0.857755 0.391455 0.278538
0.126558 0.164523 0.147585
0.126864 0.164920 0.147860
0.127169 0.165316 0.148104
0.128115 0.166476 0.148745
0.129854 0.168521 0.149722
0.132326 0.171359 0.151339
0.135775 0.175509 0.153353
0.137148 0.178836 0.152407
0.139864 0.182162 0.151431
0.144533 0.186191 0.150149
0.151614 0.190890 0.148867
0.159945 0.197238 0.143099
0.172976 0.203922 0.136294
0.191653 0.210452 0.128237
0.216953 0.216861 0.118837
0.263981 0.234501 0.111818
0.322759 0.251011 0.100496
0.384192 0.261326 0.086885
0.431800 0.262028 0.082307
0.478553 0.260868 0.077943
0.521447 0.259922 0.079652
0.561120 0.260655 0.086305
0.598505 0.263157 0.094087
0.632624 0.267796 0.104311
0.663935 0.274388 0.116426
0.692683 0.283604 0.130861
0.720363 0.296086 0.147402
0.747707 0.312627 0.166354
0.774746 0.333288 0.188327
0.801694 0.357733 0.214481
0.828794 0.385962 0.245396
0.856626 0.417456 0.282414
0.137881 0.179660 0.160708
0.138613 0.180362 0.161166
0.147463 0.191745 0.170901
0.148684 0.193027 0.171633
0.150362 0.195163 0.172671
0.152956 0.198093 0.174350
0.156741 0.202274 0.176333
0.159182 0.206668 0.176608
0.161379 0.209842 0.175113
0.165286 0.213901 0.173739
0.171450 0.218601 0.172183
0.179507 0.224216 0.168399
0.189822 0.230442 0.160769
0.205203 0.236851 0.151705
0.226444 0.242832 0.141299
0.256260 0.250095 0.130465
0.309300 0.269413 0.119631
0.371191 0.286534 0.106050
0.434089 0.297826 0.089113
0.481758 0.299962 0.084382
0.527123 0.300999 0.079988
0.568750 0.302495 0.081147
0.604700 0.305333 0.090517
0.637049 0.309392 0.102388
0.666468 0.314672 0.115785
0.693660 0.321721 0.130617
0.719997 0.331731 0.147402
0.746334 0.345739 0.166506
0.772915 0.363958 0.188907
0.799710 0.386450 0.215946
0.826841 0.412543 0.247684
0.854765 0.441535 0.285618
0.152834 0.198825 0.177249
0.154543 0.200748 0.178866
0.156283 0.202976 0.180667
0.158511 0.205783 0.182589
0.161196 0.209018 0.184817
0.164370 0.212772 0.186923
0.168276 0.217075 0.189273
0.173220 0.222629 0.191989
0.174014 0.226200 0.189822
0.177432 0.230137 0.188449
0.182864 0.234867 0.187106
0.190829 0.240208 0.185306
0.199252 0.246281 0.179141
0.211246 0.252659 0.170352
0.228458 0.258885 0.160342
0.251560 0.264530 0.148806
0.285008 0.273075 0.137728
0.340948 0.293370 0.125002
0.403601 0.311254 0.110384
0.466316 0.323919 0.092897
0.514702 0.328466 0.086946
0.559716 0.332647 0.083650
0.600824 0.337102 0.084047
0.633722 0.341527 0.097475
0.663661 0.346990 0.111879
0.691249 0.354009 0.128481
0.717861 0.363561 0.146456
0.744411 0.376776 0.166598
0.771115 0.393927 0.190219
0.798001 0.414588 0.217990
0.825193 0.438575 0.250675
0.853483 0.465949 0.289769
0.165621 0.215244 0.191318
0.167239 0.217197 0.192874
0.169223 0.219486 0.194614
0.171603 0.222293 0.196689
0.174411 0.225589 0.198886
0.177676 0.229252 0.200992
0.181460 0.233738 0.203403
0.186404 0.239231 0.206241
0.188785 0.244358 0.205905
0.191562 0.248508 0.204807
0.196597 0.253361 0.203555
0.203525 0.258793 0.202060
0.212497 0.264561 0.199252
0.221805 0.271061 0.190890
0.235752 0.277379 0.181033
0.255131 0.283452 0.170016
0.280430 0.289067 0.157259
0.317540 0.299107 0.146181
0.376501 0.320806 0.131838
0.439948 0.339666 0.116182
0.501274 0.353582 0.098268
0.549584 0.360998 0.091951
0.592615 0.367651 0.090608
0.630854 0.373480 0.092653
0.661280 0.378759 0.108064
0.688930 0.385168 0.125795
0.715572 0.393957 0.144930
0.742123 0.405982 0.166232
0.768765 0.421698 0.190829
0.795621 0.440681 0.219211
0.822843 0.462684 0.252903
0.851377 0.488563 0.293523
0.180087 0.233341 0.206668
0.181704 0.235447 0.208347
0.183688 0.237888 0.210086
0.186130 0.240757 0.212222
0.189120 0.244144 0.214389
0.192325 0.247898 0.216678
0.196201 0.252262 0.219120
0.201175 0.257939 0.222049
0.206271 0.264317 0.224369
0.207828 0.268589 0.222324
0.211917 0.273442 0.221225
0.218112 0.278813 0.219760
0.226505 0.284581 0.217838
0.235752 0.290959 0.212558
0.247135 0.297642 0.203311
0.263676 0.304570 0.192782
0.286229 0.311437 0.181064
0.315160 0.318425 0.167697
0.357885 0.331914 0.157473
0.421729 0.356786 0.141878
0.486702 0.378271 0.126101
0.547082 0.395056 0.108614
0.593469 0.405158 0.103365
0.632624 0.413397 0.106569
0.667384 0.420600 0.112947
0.696162 0.427405 0.130098
0.722957 0.436164 0.151827
0.749355 0.447669 0.175753
0.775845 0.462104 0.202548
0.802365 0.479347 0.233585
0.829435 0.499702 0.269749
0.858030 0.523919 0.312596
0.202243 0.261021 0.229679
0.203342 0.262516 0.230777
0.204471 0.263828 0.231785
0.206332 0.265934 0.233127
0.208682 0.268742 0.234897
0.211704 0.272160 0.236759
0.215793 0.276707 0.239322
0.221103 0.282475 0.242466
0.227939 0.289891 0.246403
0.230381 0.295933 0.245640
0.234714 0.301305 0.244907
0.240635 0.307134 0.243961
0.248722 0.313268 0.242405
0.259007 0.319646 0.240299
0.268528 0.326421 0.231754
0.282383 0.333440 0.221256
0.301366 0.340398 0.209598
0.326604 0.347570 0.196353
0.357885 0.354711 0.181674
0.403998 0.369635 0.171695
0.468482 0.395209 0.154147
0.530053 0.416144 0.138399
0.584466 0.432136 0.122042
0.624994 0.440558 0.117861
0.660182 0.448188 0.124361
0.692073 0.455543 0.133822
0.720912 0.463874 0.151339
0.747555 0.474495 0.176608
0.774044 0.487739 0.204868
0.800565 0.503593 0.236820
0.827817 0.523033 0.274357
0.856443 0.546136 0.318456
0.220981 0.284337 0.248997
0.222263 0.285801 0.250034
0.223697 0.287388 0.251225
0.225620 0.289525 0.252659
0.228183 0.292393 0.254490
0.231113 0.295750 0.256382
0.235172 0.300084 0.258762
0.240330 0.305577 0.261814
0.247044 0.312840 0.265782
0.252415 0.320317 0.267765
0.255497 0.325750 0.266361
0.260807 0.331670 0.265629
0.268132 0.337865 0.264225
0.277745 0.344366 0.262547
0.288884 0.351415 0.258701
0.300114 0.358709 0.248631
0.316411 0.366308 0.237583
0.338323 0.374060 0.225193
0.366155 0.381903 0.211307
0.399939 0.389837 0.195682
0.449042 0.406897 0.186984
0.513634 0.433783 0.168917
0.571313 0.455055 0.154879
0.619837 0.469764 0.141146
0.650629 0.470832 0.134768
0.683253 0.478553 0.144381
0.714382 0.487282 0.157046
0.743679 0.497383 0.175662
0.770291 0.509575 0.204715
0.796994 0.524743 0.238041
0.824704 0.543572 0.276921
0.853635 0.566125 0.322332
0.248966 0.317479 0.276677
0.250492 0.319219 0.277989
0.251835 0.320653 0.279088
0.253605 0.322606 0.280339
0.255802 0.324987 0.281682
0.258732 0.327977 0.283421
0.262364 0.331792 0.285527
0.267094 0.336645 0.288121
0.273228 0.342962 0.291478
0.281071 0.350805 0.295659
0.282078 0.355779 0.293004
0.286320 0.360876 0.291600
0.292424 0.366430 0.289982
0.300450 0.372259 0.287907
0.310643 0.378119 0.285008
0.320562 0.384253 0.277470
0.332769 0.390784 0.265904
0.350408 0.397894 0.253452
0.374304 0.405768 0.240208
0.404303 0.414221 0.225650
0.439857 0.422950 0.209598
0.491127 0.442145 0.201999
0.552239 0.468330 0.184115
0.603388 0.486793 0.172641
0.645716 0.498329 0.160891
0.678004 0.503593 0.158846
0.709163 0.512139 0.171572
0.739284 0.521904 0.187106
0.768490 0.533257 0.207614
0.795285 0.547539 0.241947
0.822843 0.565332 0.281865
0.851896 0.587091 0.328527
0.272526 0.344671 0.299626
0.274083 0.346380 0.301061
0.275517 0.348028 0.302220
0.277317 0.349798 0.303471
0.279637 0.352270 0.304906
0.282597 0.355291 0.306706
0.286564 0.359167 0.308965
0.291569 0.364202 0.311894
0.298009 0.370703 0.315618
0.306157 0.378668 0.320287
0.310735 0.386114 0.321019
0.314519 0.391669 0.319768
0.320470 0.397742 0.318853
0.328191 0.404028 0.317357
0.337926 0.410407 0.315282
0.350011 0.416938 0.312749
0.360296 0.423804 0.302129
0.375250 0.431250 0.290227
0.395850 0.439246 0.277501
0.422187 0.447883 0.263828
0.453712 0.456641 0.248661
0.489784 0.465339 0.231449
0.540520 0.485603 0.224826
0.594781 0.508476 0.209232
0.639063 0.523461 0.200351
0.676478 0.532891 0.191257
0.706477 0.538079 0.189792
0.736965 0.548211 0.206516
0.767025 0.560204 0.227115
0.796841 0.574304 0.253635
0.824796 0.591272 0.293889
0.853941 0.612299 0.342504
0.301915 0.377539 0.327977
0.303349 0.378973 0.329137
0.304387 0.380041 0.329870
0.305821 0.381476 0.330816
0.307713 0.383307 0.331914
0.310369 0.385962 0.333440
0.313970 0.389593 0.335515
0.318883 0.394232 0.338293
0.325261 0.400336 0.342016
0.333318 0.408209 0.346777
0.342565 0.417304 0.351751
0.344640 0.423316 0.349523
0.350225 0.429511 0.349065
0.357397 0.435920 0.348028
0.366369 0.442298 0.346441
0.377417 0.448829 0.344305
0.389258 0.455512 0.339239
0.401160 0.462745 0.327886
0.418433 0.470588 0.315862
0.441016 0.479072 0.302831
0.468605 0.487739 0.288640
0.500450 0.496315 0.272740
0.536614 0.505760 0.256382
0.583124 0.524224 0.250034
0.630152 0.543023 0.238254
0.669154 0.555413 0.231479
0.703731 0.564263 0.223972
0.732387 0.569757 0.223453
0.762295 0.581445 0.244266
0.792416 0.595636 0.271305
0.822629 0.612116 0.304448
0.852689 0.632227 0.350286
0.331914 0.410101 0.356634
0.333104 0.411200 0.357549
0.334173 0.412177 0.358343
0.335698 0.413764 0.359442
0.338079 0.416083 0.360937
0.341619 0.419501 0.363348
0.346899 0.424537 0.366949
0.353735 0.431067 0.371679
0.362341 0.439307 0.377478
0.372778 0.449042 0.384527
0.384955 0.460365 0.392554
0.391547 0.470130 0.394903
0.398627 0.477882 0.396368
0.406867 0.485512 0.397162
0.416236 0.492897 0.397162
0.426795 0.499641 0.396063
0.439582 0.506462 0.394476
0.451179 0.513420 0.386694
0.465339 0.520928 0.375463
0.484199 0.528771 0.363256
0.507286 0.536736 0.350072
0.533898 0.544457 0.335241
0.563134 0.551629 0.318395
0.596277 0.560204 0.303288
0.635492 0.574609 0.297673
0.675227 0.589624 0.289921
0.710750 0.601221 0.285466
0.742916 0.609918 0.280308
0.769924 0.615717 0.281498
0.798428 0.628199 0.307866
0.828580 0.644495 0.342840
0.860014 0.664057 0.385473
0.379950 0.459327 0.402197
0.380957 0.460212 0.402899
0.381628 0.460853 0.403357
0.382757 0.461952 0.404059
0.384771 0.463661 0.405219
0.387640 0.466316 0.407050
0.391882 0.470100 0.409705
0.397498 0.475288 0.413367
0.404761 0.481727 0.418158
0.413642 0.489601 0.424048
0.423987 0.498543 0.430640
0.433845 0.508110 0.436347
0.437263 0.514427 0.435248
0.443702 0.520714 0.435370
