data/fiter_cube/81078425/1022775/file.cube
# Created by Adobe Lightroom plugin Export LUT (1.17.0)
# www.johnrellis.com/lightroom/exportlut.htm
# Preset: 旅拍情绪景观_09 云集视觉
# Color profile: C:\Program Files (x86)\Common Files\Adobe\Color\Profiles\Recommended\AdobeRGB1998.icc
LUT_3D_SIZE 8
DOMAIN_MIN 0.000000 0.000000 0.000000
DOMAIN_MAX 0.903226 0.903226 0.903226
0.091798 0.068421 0.064912
0.124392 0.071412 0.068208
0.252964 0.000000 0.068971
0.500145 0.000000 0.054597
0.747005 0.000000 0.024750
0.894865 0.000000 0.092378
0.980652 0.265446 0.192050
1.000000 0.425238 0.340337
0.094606 0.092226 0.075868
0.115755 0.093904 0.076875
0.230930 0.086091 0.075288
0.468025 0.000000 0.068757
0.726406 0.000000 0.056489
0.884031 0.120027 0.100832
0.975341 0.296910 0.198642
1.000000 0.442267 0.347234
0.095277 0.151858 0.105715
0.125307 0.155276 0.107393
0.190036 0.163333 0.110536
0.370153 0.177096 0.098848
0.653925 0.206210 0.094728
0.847745 0.281407 0.127596
0.958343 0.385107 0.224338
1.000000 0.497597 0.374914
0.088502 0.239109 0.153719
0.121981 0.245548 0.153994
0.223819 0.261509 0.184695
0.324529 0.286137 0.170413
0.530236 0.317205 0.143221
0.772885 0.393225 0.154940
0.923735 0.479286 0.252445
0.996551 0.568139 0.407141
0.000000 0.356634 0.222354
0.090974 0.365179 0.222568
0.224216 0.401312 0.239536
0.385138 0.430030 0.321660
0.499458 0.451850 0.263676
0.687922 0.489448 0.233585
0.858640 0.546105 0.263828
0.970916 0.634150 0.427771
0.000000 0.494331 0.312840
0.000000 0.503563 0.313725
0.196048 0.536309 0.325963
0.413153 0.580743 0.395636
0.564752 0.617182 0.475715
0.669612 0.624506 0.412238
0.817166 0.653315 0.401801
0.927916 0.684901 0.434943
0.000000 0.656031 0.441779
0.000000 0.662409 0.442512
0.157198 0.683955 0.451667
0.438575 0.721340 0.508965
0.638972 0.747066 0.624170
0.729641 0.773404 0.648981
0.805325 0.771633 0.603662
0.904784 0.792874 0.622309
0.000000 0.822049 0.598444
0.000000 0.824369 0.598566
0.200381 0.831754 0.604425
0.493599 0.842374 0.642878
0.691646 0.854704 0.719631
0.813748 0.868284 0.811704
0.856779 0.883909 0.804807
0.901213 0.881621 0.786374
0.098299 0.079316 0.081147
0.120760 0.076234 0.089662
0.247471 0.058473 0.098390
0.485298 0.000000 0.112245
0.739528 0.000000 0.126040
0.890410 0.100130 0.168460
0.976989 0.305394 0.257298
1.000000 0.454627 0.393835
0.097169 0.090730 0.089906
0.120729 0.105257 0.097414
0.227787 0.109041 0.107362
0.459937 0.022889 0.117617
0.721157 0.000000 0.130983
0.880797 0.174533 0.172854
0.972015 0.331212 0.261997
1.000000 0.469215 0.399237
0.090364 0.157504 0.128328
0.124727 0.163577 0.127138
0.194858 0.174350 0.133822
0.377478 0.193759 0.131380
0.653468 0.225650 0.144503
0.845914 0.301823 0.186038
0.955261 0.406348 0.280064
1.000000 0.517784 0.420478
0.083803 0.242222 0.172580
0.120150 0.249973 0.173129
0.225559 0.273136 0.196475
0.327611 0.294438 0.192172
0.526116 0.321782 0.168490
0.772763 0.403540 0.197787
0.921538 0.491127 0.296880
0.993317 0.581781 0.445533
0.000000 0.358007 0.239597
0.083986 0.366613 0.239384
0.218540 0.402655 0.252842
0.391394 0.436072 0.343023
0.500145 0.457404 0.285130
0.685420 0.492653 0.257420
0.859770 0.554101 0.297581
0.968719 0.643061 0.459602
0.000000 0.492958 0.326604
0.000000 0.501579 0.327123
0.187259 0.534447 0.337987
0.407874 0.583520 0.402167
0.566888 0.620386 0.492592
0.669429 0.628290 0.430915
0.815488 0.655970 0.420233
0.926970 0.688716 0.454688
0.000000 0.653223 0.451362
0.000000 0.659266 0.451911
0.136904 0.681270 0.460060
0.428687 0.719509 0.512566
0.636500 0.747982 0.626337
0.729915 0.774472 0.657984
0.804196 0.772976 0.613275
0.903532 0.794156 0.630732
0.000000 0.820493 0.604578
0.000000 0.822965 0.604578
0.169314 0.830716 0.609369
0.481239 0.841764 0.644282
0.688167 0.855650 0.720699
0.813352 0.868986 0.812467
0.856748 0.884367 0.808347
0.900755 0.882200 0.789883
0.112123 0.102846 0.129732
0.121859 0.100557 0.142763
0.210910 0.093416 0.165164
0.454719 0.000000 0.208804
0.757534 0.000000 0.261387
0.890257 0.248234 0.337255
0.968994 0.411322 0.429877
1.000000 0.544091 0.539971
0.126101 0.123140 0.134829
0.140627 0.133089 0.146670
0.209140 0.126192 0.171298
0.453712 0.090272 0.214450
0.737942 0.096376 0.266819
0.881437 0.281956 0.338140
0.964691 0.426886 0.430488
1.000000 0.553704 0.542229
0.110628 0.147677 0.158236
0.133211 0.160037 0.164675
0.215579 0.212131 0.199069
0.417456 0.230747 0.223545
0.675532 0.274815 0.270115
0.850248 0.367071 0.338323
0.949523 0.476875 0.434882
0.998383 0.586328 0.551171
0.013977 0.231174 0.219577
0.076234 0.251621 0.227970
0.204410 0.294591 0.237247
0.343847 0.326970 0.259586
0.554070 0.360723 0.255894
0.785000 0.448554 0.327489
0.919677 0.539300 0.433845
0.984253 0.631647 0.559716
0.000000 0.355077 0.286870
0.000000 0.365301 0.288396
0.186282 0.404944 0.298528
0.394507 0.460670 0.373327
0.509575 0.482795 0.355871
0.684016 0.508171 0.330419
0.865904 0.586267 0.406989
0.962921 0.676112 0.556603
0.000000 0.486580 0.367102
0.000000 0.496284 0.369299
0.143404 0.531029 0.380102
0.393469 0.593591 0.435309
0.577996 0.633722 0.546227
0.670497 0.642451 0.489082
0.811826 0.666316 0.477089
0.927184 0.709743 0.531792
0.000000 0.646418 0.485023
0.000000 0.652949 0.485573
0.000000 0.675563 0.491371
0.388495 0.715084 0.527489
0.626062 0.752407 0.633204
0.733242 0.780270 0.688350
0.803342 0.780392 0.647303
0.901610 0.801297 0.662013
0.000000 0.817227 0.628382
0.000000 0.819638 0.627192
0.000000 0.828153 0.628199
0.432136 0.840543 0.651789
0.671931 0.856809 0.722225
0.810269 0.870848 0.813565
0.857237 0.886320 0.820493
0.900084 0.885039 0.802579
0.135195 0.144991 0.216098
0.146578 0.146883 0.230137
0.203708 0.128786 0.273716
0.372869 0.102296 0.307225
0.656489 0.000000 0.395422
0.868315 0.291600 0.495125
0.955779 0.552514 0.626947
0.989441 0.661494 0.697658
0.161349 0.174411 0.219089
0.168917 0.177462 0.234348
0.210697 0.162875 0.276432
0.371099 0.142733 0.311955
0.655818 0.138216 0.402594
0.865934 0.340642 0.505577
0.952117 0.561700 0.626581
0.988251 0.664515 0.696193
0.155917 0.196109 0.236545
0.179110 0.210513 0.244602
0.244663 0.254490 0.285222
0.369299 0.241459 0.331609
0.657588 0.303746 0.428962
0.860014 0.472663 0.544915
0.939788 0.591333 0.625452
0.982971 0.680018 0.695369
0.112825 0.231998 0.264500
0.135927 0.242954 0.271305
0.212894 0.286015 0.301427
0.379522 0.394568 0.384985
0.617456 0.447059 0.438880
0.804929 0.531182 0.520500
0.916045 0.622766 0.608972
0.972259 0.704158 0.692042
0.000000 0.319097 0.326452
0.000000 0.329808 0.333471
0.090211 0.377722 0.364355
0.345953 0.479652 0.417578
0.527520 0.527001 0.463203
0.700008 0.549981 0.454536
0.872892 0.647608 0.569512
0.955627 0.728695 0.677974
0.000000 0.470680 0.430091
0.000000 0.480659 0.433082
0.000000 0.516625 0.443702
0.318883 0.584070 0.476631
0.584924 0.653468 0.592157
0.675624 0.667659 0.570855
0.808469 0.683253 0.554284
0.928740 0.745602 0.638941
0.000000 0.630274 0.534783
0.000000 0.637110 0.535851
0.000000 0.661524 0.540032
0.289799 0.703914 0.557977
0.591547 0.758267 0.637934
0.740963 0.790311 0.731380
0.803067 0.792142 0.694240
0.899626 0.811215 0.703334
0.000000 0.810483 0.670802
0.000000 0.813382 0.669398
0.000000 0.822995 0.665217
0.296666 0.837583 0.668849
0.626581 0.854337 0.723781
0.799557 0.873136 0.811978
0.858366 0.889494 0.838590
0.899321 0.889464 0.820951
0.165103 0.211154 0.357702
0.180423 0.215335 0.372015
0.224582 0.201328 0.413611
0.365179 0.144076 0.473640
0.566918 0.127077 0.500328
0.785824 0.246311 0.576928
0.925780 0.514977 0.680293
0.973022 0.718105 0.781003
0.194278 0.241062 0.359411
0.202670 0.243351 0.374884
0.239567 0.234134 0.415839
0.365484 0.179660 0.478614
0.564233 0.176822 0.502983
0.785061 0.290806 0.582788
0.923949 0.541009 0.687984
0.971496 0.730678 0.787167
0.222507 0.283757 0.365545
0.249546 0.300999 0.374823
0.290684 0.325078 0.420356
0.368292 0.292973 0.482765
0.557397 0.292180 0.514183
0.782773 0.410254 0.603998
0.918425 0.616907 0.713436
0.967071 0.768765 0.806790
0.171847 0.301152 0.386755
0.198428 0.313634 0.394263
0.287297 0.362036 0.423865
0.413886 0.446052 0.492927
0.552789 0.435615 0.540948
0.784573 0.559991 0.645350
0.913390 0.713558 0.753323
0.962768 0.785000 0.805997
0.063966 0.340948 0.405615
0.107118 0.350713 0.411933
0.206271 0.387549 0.436500
0.354498 0.463844 0.491371
0.559136 0.591913 0.590845
0.759518 0.655299 0.654292
0.886503 0.729366 0.726406
0.951873 0.790036 0.787045
0.000000 0.425727 0.455970
0.000000 0.434485 0.461769
0.000000 0.466651 0.483192
0.175540 0.528985 0.525841
0.511131 0.652522 0.601526
0.685847 0.700038 0.655360
0.815305 0.711604 0.645197
0.931151 0.794339 0.752682
0.000000 0.562951 0.558740
0.000000 0.576074 0.565362
0.000000 0.622919 0.589960
0.000000 0.678370 0.610651
0.477180 0.739651 0.643397
0.742916 0.799313 0.760525
0.804532 0.806882 0.743496
0.899199 0.821134 0.744686
0.000000 0.795743 0.722744
0.000000 0.798947 0.721798
0.000000 0.810178 0.718257
0.000000 0.829129 0.712764
0.477485 0.849149 0.721462
0.764431 0.874601 0.800626
0.860807 0.893675 0.859953
0.898802 0.894987 0.842039
0.220035 0.310399 0.540856
0.244358 0.318975 0.552209
0.283177 0.304875 0.581689
0.387457 0.263584 0.625879
0.562554 0.204959 0.658991
0.729183 0.260349 0.671199
0.875364 0.437751 0.718654
0.958068 0.683467 0.802243
0.250950 0.339452 0.540124
0.261845 0.341222 0.551537
0.302892 0.336767 0.581689
0.392706 0.297581 0.624903
0.561456 0.242496 0.660670
0.726802 0.293675 0.672419
0.874266 0.463325 0.722621
0.956909 0.695979 0.806210
0.321935 0.408270 0.533562
0.329381 0.412238 0.544213
0.357488 0.420722 0.580713
0.416083 0.398688 0.624689
0.559167 0.345800 0.669245
0.720577 0.388739 0.678523
0.871580 0.540673 0.737179
0.953613 0.735927 0.819944
0.275029 0.416327 0.545769
0.302556 0.429572 0.551690
0.390967 0.478309 0.573693
0.476204 0.528008 0.624903
0.557824 0.493141 0.677607
0.712612 0.510857 0.692256
0.870207 0.644617 0.763119
0.950225 0.791012 0.841825
0.183078 0.436133 0.557458
0.215244 0.446082 0.562371
0.310521 0.481971 0.580896
0.451026 0.549310 0.617426
0.592828 0.637446 0.679408
0.706386 0.628901 0.712795
0.874266 0.748623 0.798093
0.948730 0.849088 0.869902
0.000000 0.474952 0.565209
0.000000 0.482307 0.569116
0.182559 0.508598 0.583612
0.338842 0.557366 0.613123
0.514580 0.633448 0.662806
0.710933 0.747768 0.747890
0.862089 0.806271 0.806241
0.938170 0.854429 0.854673
0.000000 0.563378 0.610956
0.000000 0.568963 0.614099
0.000000 0.588800 0.625086
0.000000 0.624384 0.645197
0.276371 0.677760 0.675807
0.662135 0.788510 0.747341
0.811154 0.827665 0.797971
0.902953 0.836667 0.796109
0.000000 0.733547 0.737514
0.000000 0.736263 0.738247
0.000000 0.746090 0.740993
0.000000 0.787594 0.756527
0.124269 0.838376 0.769741
0.643671 0.865476 0.786465
0.861753 0.898161 0.876677
0.899321 0.902617 0.867033
0.353765 0.457862 0.715175
0.378759 0.469215 0.723262
0.409827 0.459510 0.738796
0.473182 0.427649 0.763272
0.589502 0.366369 0.793057
0.736507 0.357031 0.802579
0.847593 0.446632 0.796689
0.933776 0.609705 0.820432
0.365270 0.470832 0.704738
0.379187 0.475257 0.713069
0.417731 0.476204 0.730159
0.472358 0.445228 0.754818
0.580865 0.385595 0.784421
0.725612 0.367620 0.794644
0.838834 0.447364 0.789303
0.929534 0.605249 0.815335
0.428779 0.536065 0.703731
0.436774 0.538445 0.709407
0.463996 0.543328 0.727871
0.505730 0.528588 0.752895
0.585595 0.477943 0.781338
0.721798 0.449317 0.797665
0.836851 0.516197 0.796201
0.929595 0.661555 0.828519
0.435737 0.567163 0.706020
0.456550 0.576867 0.707698
0.524224 0.613092 0.716060
0.562310 0.627008 0.750362
0.608240 0.601038 0.780697
0.720638 0.562768 0.807431
0.834592 0.608301 0.807889
0.928832 0.729946 0.845396
0.347387 0.560601 0.705531
0.369238 0.566705 0.706020
0.443183 0.593713 0.712703
0.554070 0.647456 0.731044
0.641901 0.695430 0.768460
0.705623 0.663233 0.805051
0.821927 0.681941 0.811368
0.927245 0.795407 0.863462
0.213779 0.577874 0.709255
0.245243 0.583368 0.711147
0.336400 0.603510 0.718379
0.462745 0.642695 0.734096
0.605005 0.702815 0.760281
0.736873 0.778988 0.808225
0.822232 0.775296 0.831785
0.931579 0.866209 0.892363
0.000000 0.621546 0.719509
0.000000 0.626612 0.722103
0.140536 0.639948 0.727169
0.319158 0.665217 0.738003
0.483925 0.703761 0.754879
0.656336 0.765438 0.788846
0.825132 0.854795 0.854459
0.928222 0.899870 0.900633
0.000000 0.717922 0.768521
0.000000 0.720790 0.769589
0.000000 0.737972 0.779843
0.000000 0.758022 0.788968
0.147860 0.784695 0.799741
0.400641 0.822141 0.815152
0.789700 0.887846 0.855985
0.901122 0.912169 0.894560
0.524407 0.616266 0.828824
0.539361 0.623285 0.832151
0.556634 0.617517 0.838651
0.585779 0.595911 0.852323
0.644160 0.556207 0.869230
0.739864 0.487861 0.887877
0.850767 0.526055 0.888273
0.919097 0.613367 0.875303
0.527947 0.622766 0.824033
0.537713 0.626123 0.827695
0.563622 0.629145 0.835233
0.587884 0.606806 0.848386
0.642664 0.568353 0.865660
0.735744 0.502403 0.884764
0.846311 0.531640 0.885618
0.916503 0.615961 0.873625
0.552697 0.653529 0.816373
0.559716 0.655879 0.819547
0.578790 0.657893 0.827726
0.613733 0.657038 0.844755
0.652613 0.622370 0.861509
0.731624 0.563531 0.880156
0.840146 0.573449 0.884398
0.913298 0.647028 0.875242
0.576532 0.685878 0.807706
0.594110 0.695583 0.809659
0.613123 0.702724 0.818906
0.645472 0.712398 0.837644
0.675288 0.696834 0.856352
0.733211 0.653559 0.876463
0.834134 0.641901 0.886290
0.910613 0.698909 0.880766
0.514153 0.676692 0.812100
0.531304 0.683925 0.813779
0.579400 0.703151 0.815885
0.655268 0.739528 0.822446
0.701961 0.758389 0.846128
0.736538 0.735317 0.868772
0.823758 0.710109 0.887694
0.907561 0.757870 0.888365
0.423743 0.680964 0.818967
0.439033 0.683772 0.818540
0.490852 0.695674 0.818723
0.574670 0.721859 0.822812
0.680507 0.766567 0.833707
0.767117 0.812039 0.863462
0.822477 0.797269 0.894316
0.906432 0.820920 0.899870
0.288670 0.710109 0.832456
0.309575 0.711757 0.832120
0.376104 0.719112 0.832181
0.478004 0.737148 0.835599
0.600580 0.767880 0.843168
0.731594 0.815366 0.859525
0.843107 0.874479 0.894102
0.901793 0.871122 0.908263
0.000000 0.766720 0.854032
0.000000 0.767819 0.853941
0.174472 0.774472 0.855680
0.348730 0.789792 0.861051
0.494026 0.806363 0.864164
0.638056 0.830350 0.869993
0.776730 0.866087 0.884062
0.903624 0.922820 0.922850
