data/fiter_cube/81078425/1022775/file.cube
# Created by Adobe Lightroom plugin Export LUT (1.17.0)
# www.johnrellis.com/lightroom/exportlut.htm
# Preset: 旅拍情绪景观_09 云集视觉
# Color profile: C:\Program Files (x86)\Common Files\Adobe\Color\Profiles\Recommended\AdobeRGB1998.icc
LUT_3D_SIZE 32
DOMAIN_MIN 0.0 0.0 0.0
DOMAIN_MAX 1.0 1.0 1.0
0.091798 0.068421 0.064912
0.093965 0.069154 0.065156
0.097597 0.069490 0.065766
0.107149 0.071015 0.066773
0.124392 0.071412 0.068208
0.148013 0.068727 0.069337
0.177096 0.062745 0.069581
0.211673 0.042267 0.069612
0.252964 0.000000 0.068971
0.303288 0.000000 0.067109
0.363592 0.000000 0.064790
0.430091 0.000000 0.061128
0.500145 0.000000 0.054597
0.570001 0.000000 0.044007
0.635523 0.000000 0.031861
0.694636 0.000000 0.025177
0.747005 0.000000 0.024750
0.792416 0.000000 0.035279
0.830961 0.000000 0.056916
0.864897 0.000000 0.073762
0.894865 0.000000 0.092378
0.921080 0.093904 0.113344
0.943969 0.166232 0.136568
0.963653 0.219333 0.162966
0.980652 0.265446 0.192050
0.995148 0.308049 0.224277
1.000000 0.348119 0.259892
1.000000 0.387335 0.299016
1.000000 0.425238 0.340337
1.000000 0.463783 0.385534
1.000000 0.503319 0.434150
1.000000 0.544427 0.485725
0.092409 0.070741 0.065858
0.093690 0.070832 0.065827
0.097261 0.071931 0.066346
0.106844 0.073365 0.067353
0.123659 0.073915 0.068818
0.146822 0.072023 0.069917
0.175540 0.066712 0.070192
0.209354 0.054414 0.070192
0.250523 0.010040 0.069612
0.300572 0.000000 0.067811
0.360204 0.000000 0.065522
0.426612 0.000000 0.061921
0.496345 0.000000 0.056184
0.566522 0.000000 0.047059
0.632593 0.000000 0.035676
0.691920 0.000000 0.027680
0.744656 0.000000 0.028260
0.790372 0.000000 0.038178
0.829313 0.000000 0.059785
0.863310 0.000000 0.074678
0.893431 0.000000 0.092775
0.919951 0.103761 0.114046
0.942931 0.171633 0.137270
0.962829 0.223239 0.163485
0.979950 0.268406 0.192599
0.994568 0.310277 0.224643
1.000000 0.349981 0.260136
1.000000 0.388922 0.299260
1.000000 0.426703 0.340612
1.000000 0.465003 0.385748
1.000000 0.504204 0.434363
1.000000 0.545251 0.485908
0.092836 0.074067 0.067109
0.094759 0.073610 0.067475
0.096895 0.074281 0.067323
0.106111 0.076875 0.068238
0.122560 0.077516 0.069703
0.145144 0.076387 0.070771
0.173373 0.072267 0.071015
0.206729 0.062898 0.071077
0.247166 0.031403 0.070192
0.296696 0.000000 0.068818
0.355871 0.000000 0.066926
0.422156 0.000000 0.063539
0.492134 0.000000 0.059358
0.562249 0.000000 0.050690
0.628717 0.000000 0.040436
0.688777 0.000000 0.033997
0.741726 0.000000 0.032746
0.787900 0.000000 0.044800
0.827207 0.000000 0.061830
0.861448 0.000000 0.075898
0.892058 0.000000 0.094606
0.918700 0.117128 0.115053
0.941863 0.179507 0.137850
0.961944 0.228641 0.164096
0.979187 0.272831 0.193301
0.993957 0.313695 0.225162
1.000000 0.353094 0.260838
1.000000 0.391363 0.299901
1.000000 0.428840 0.341466
1.000000 0.466987 0.386755
1.000000 0.505974 0.435218
1.000000 0.546838 0.486946
0.093629 0.081636 0.070954
0.096529 0.081392 0.070893
0.099428 0.080751 0.072236
0.104250 0.082734 0.071534
0.119448 0.085389 0.072023
0.141665 0.085023 0.071962
0.168765 0.082429 0.072572
0.201266 0.076692 0.072633
0.240635 0.064363 0.072206
0.288945 0.020203 0.071351
0.347082 0.000000 0.069276
0.412970 0.000000 0.066835
0.482338 0.000000 0.063325
0.553155 0.000000 0.058747
0.620844 0.000000 0.048554
0.681788 0.000000 0.043977
0.735775 0.000000 0.044343
0.782834 0.000000 0.053071
0.822538 0.000000 0.064790
0.857603 0.000000 0.079591
0.888731 0.060426 0.096620
0.915984 0.141329 0.117311
0.939666 0.194888 0.140230
0.960052 0.240696 0.166201
0.977691 0.282444 0.195132
0.992676 0.322118 0.227604
1.000000 0.359991 0.263371
1.000000 0.397589 0.302342
1.000000 0.434455 0.344244
1.000000 0.471443 0.388739
1.000000 0.509941 0.437354
1.000000 0.550225 0.488685
0.094606 0.092226 0.075868
0.097475 0.092012 0.075776
0.101350 0.091890 0.075990
0.107271 0.090944 0.078828
0.115755 0.093904 0.076875
0.135988 0.096803 0.076295
0.161227 0.095583 0.075624
0.193149 0.092561 0.075349
0.230930 0.086091 0.075288
0.277256 0.074128 0.074525
0.333776 0.037995 0.073060
0.398657 0.000000 0.071229
0.468025 0.000000 0.068757
0.539178 0.000000 0.064515
0.608148 0.000000 0.060365
0.670771 0.000000 0.056947
0.726406 0.000000 0.056489
0.774655 0.000000 0.062196
0.815854 0.000000 0.071534
0.852140 0.008942 0.084871
0.884031 0.120027 0.100832
0.912047 0.172702 0.121035
0.936278 0.217288 0.143496
0.957336 0.258274 0.169833
0.975341 0.296910 0.198642
0.990692 0.334508 0.231296
1.000000 0.370611 0.266728
1.000000 0.406500 0.305730
1.000000 0.442267 0.347234
1.000000 0.478737 0.392889
1.000000 0.516075 0.440681
1.000000 0.555901 0.492409
0.095186 0.104341 0.081971
0.098024 0.104433 0.081575
0.101839 0.104585 0.081727
0.109773 0.103975 0.083040
0.117952 0.104646 0.085664
0.130098 0.107454 0.082734
0.154879 0.110872 0.081422
0.180850 0.109194 0.079652
0.218936 0.106905 0.078828
0.262913 0.101839 0.078584
0.317082 0.092378 0.077974
0.380438 0.075288 0.077058
0.449378 0.025422 0.074830
0.521019 0.000000 0.072328
0.591363 0.000000 0.068421
0.656214 0.000000 0.066072
0.713680 0.000000 0.066835
0.763760 0.000000 0.070222
0.806729 0.070069 0.078126
0.844480 0.123476 0.090578
0.877745 0.166049 0.106966
0.906859 0.205692 0.125978
0.933898 0.247501 0.150820
0.955291 0.283879 0.177096
0.973571 0.319036 0.206790
0.989136 0.353368 0.239445
1.000000 0.387396 0.274998
1.000000 0.421485 0.314031
1.000000 0.455543 0.355779
1.000000 0.490455 0.400610
1.000000 0.526940 0.448920
1.000000 0.565515 0.499947
0.095460 0.118715 0.088594
0.098299 0.118776 0.088228
0.101839 0.118959 0.088106
0.110658 0.119783 0.089113
0.122377 0.117983 0.093507
0.132509 0.121279 0.093812
0.147341 0.123476 0.090242
0.175875 0.127565 0.088502
0.205295 0.126619 0.086091
0.245457 0.125338 0.084382
0.298070 0.123232 0.084108
0.359564 0.118715 0.083284
0.427832 0.110170 0.082490
0.499611 0.098390 0.080232
0.571588 0.087343 0.077424
0.638422 0.086580 0.075776
0.698238 0.097993 0.075715
0.750698 0.120119 0.078676
0.795956 0.147219 0.086213
0.835538 0.176944 0.097902
0.870512 0.208743 0.113252
0.901183 0.241032 0.132998
0.927428 0.274052 0.155184
0.950103 0.306584 0.181613
0.969299 0.339239 0.211582
0.985595 0.371008 0.244266
0.999207 0.403174 0.280766
1.000000 0.435187 0.319402
1.000000 0.467720 0.361303
1.000000 0.501366 0.406043
1.000000 0.536431 0.453803
1.000000 0.573968 0.504662
0.095705 0.134188 0.096376
0.098421 0.134646 0.095979
0.102266 0.134768 0.095857
0.110842 0.135500 0.096284
0.123232 0.135775 0.098360
0.138186 0.134096 0.106752
0.150118 0.140566 0.103517
0.167086 0.142123 0.099702
0.199680 0.147219 0.097230
0.232609 0.147280 0.094179
0.272892 0.146883 0.091798
0.335058 0.148592 0.090639
0.401801 0.148775 0.089967
0.473121 0.147433 0.088808
0.545800 0.147127 0.086824
0.615595 0.151614 0.084993
0.678065 0.161593 0.085054
0.733364 0.177127 0.088014
0.781155 0.196872 0.094453
0.823239 0.220249 0.105653
0.860197 0.246281 0.120302
0.892607 0.273625 0.139345
0.920317 0.302800 0.161837
0.944152 0.332006 0.188266
0.964355 0.361395 0.217868
0.981353 0.391119 0.251194
0.995605 0.420813 0.287083
1.000000 0.450904 0.325780
1.000000 0.481910 0.367681
1.000000 0.514031 0.412604
1.000000 0.547906 0.460273
1.000000 0.584344 0.511192
0.095277 0.151858 0.105715
0.098054 0.152071 0.105379
0.102205 0.152468 0.105013
0.110780 0.153292 0.105135
0.125307 0.155276 0.107393
0.141268 0.154177 0.112642
0.156405 0.154574 0.120577
0.171206 0.162631 0.115267
0.190036 0.163333 0.110536
0.226810 0.170413 0.107912
0.264622 0.172183 0.104250
0.307164 0.172427 0.100649
0.370153 0.177096 0.098848
0.443427 0.181827 0.096986
0.516686 0.186984 0.096132
0.588037 0.195010 0.094484
0.653925 0.206210 0.094728
0.712184 0.220768 0.097322
0.763241 0.238163 0.102876
0.808347 0.258671 0.113313
0.847745 0.281407 0.127596
0.882261 0.305882 0.146090
0.911772 0.331609 0.167910
0.937011 0.358068 0.194461
0.958343 0.385107 0.224338
0.976379 0.412512 0.257939
0.991363 0.440192 0.294224
1.000000 0.468360 0.332830
1.000000 0.497597 0.374914
1.000000 0.528161 0.419715
1.000000 0.560723 0.467445
1.000000 0.595850 0.518212
0.095064 0.170687 0.115572
0.098054 0.171115 0.115450
0.102144 0.171603 0.115114
0.110903 0.172702 0.115145
0.125154 0.174868 0.116732
0.141756 0.176455 0.119600
0.162692 0.175570 0.130037
0.177584 0.179080 0.134646
0.195865 0.187869 0.128481
0.216434 0.187778 0.122896
0.258579 0.197024 0.119875
0.301427 0.200900 0.115724
0.347631 0.202914 0.111360
0.405219 0.206790 0.107546
0.482307 0.216617 0.105135
0.556756 0.227604 0.103670
0.625940 0.240970 0.103883
0.687648 0.256291 0.105989
0.742245 0.273503 0.111330
0.790799 0.293004 0.121309
0.833158 0.314031 0.135073
0.869993 0.336461 0.153170
0.901671 0.360082 0.175296
0.928557 0.384100 0.201541
0.951324 0.408972 0.231540
0.970428 0.434272 0.264591
0.986419 0.460060 0.301183
0.999512 0.486641 0.340429
1.000000 0.514336 0.382788
1.000000 0.543542 0.427924
1.000000 0.574853 0.475837
1.000000 0.608453 0.525994
0.094026 0.191348 0.126955
0.097108 0.191714 0.126680
0.101320 0.192477 0.126680
0.110384 0.193790 0.126497
0.124849 0.196262 0.127626
0.144411 0.199954 0.131411
0.164736 0.200443 0.137545
0.187503 0.200351 0.150759
0.202914 0.207370 0.150423
0.224887 0.217136 0.143038
0.247471 0.216129 0.136873
0.295384 0.228092 0.133577
0.342016 0.233585 0.128450
0.390570 0.236484 0.122621
0.439979 0.237644 0.116670
0.517144 0.252049 0.114717
0.593133 0.268223 0.112642
0.658717 0.285344 0.114931
0.717281 0.303197 0.119631
0.769802 0.322698 0.128603
0.815702 0.343389 0.141726
0.855497 0.364721 0.159396
0.889738 0.387121 0.182376
0.918730 0.409796 0.208438
0.943175 0.432959 0.238407
0.963714 0.456550 0.271916
0.980743 0.480690 0.308721
0.994751 0.505486 0.347662
1.000000 0.531792 0.390814
1.000000 0.559472 0.435737
1.000000 0.589410 0.483833
1.000000 0.621729 0.534081
0.092103 0.213901 0.139467
0.095094 0.214359 0.139528
0.099733 0.215213 0.139315
0.109041 0.216770 0.139254
0.123751 0.219638 0.140017
0.143740 0.223880 0.142794
0.164187 0.227634 0.145907
0.192020 0.228458 0.158877
0.216587 0.229770 0.175753
0.233005 0.240421 0.168307
0.259068 0.251102 0.159304
0.283604 0.248875 0.152987
0.337957 0.263951 0.149050
0.387366 0.270542 0.142672
0.437201 0.274540 0.136202
0.486763 0.276951 0.129244
0.552209 0.289097 0.125429
0.626581 0.309575 0.124361
0.690639 0.329686 0.128176
0.747311 0.350347 0.136690
0.797055 0.371344 0.149508
0.840085 0.392737 0.167514
0.877043 0.413977 0.190097
0.908293 0.435676 0.216617
0.934630 0.457710 0.247349
0.956542 0.479835 0.280674
0.974731 0.502556 0.317876
0.989624 0.525841 0.357153
1.000000 0.550530 0.399939
1.000000 0.577050 0.445716
1.000000 0.605646 0.493812
1.000000 0.636378 0.543603
0.088502 0.239109 0.153719
0.091920 0.239750 0.153597
0.096986 0.240513 0.153567
0.106935 0.242313 0.153567
0.121981 0.245548 0.153994
0.142214 0.250309 0.156191
0.167514 0.256962 0.161563
0.192844 0.259525 0.168093
0.223819 0.261509 0.184695
0.248081 0.266575 0.197604
0.268345 0.278477 0.188388
0.298589 0.289982 0.177707
0.324529 0.286137 0.170413
0.380774 0.301244 0.165438
0.431281 0.308629 0.158267
0.481483 0.313512 0.150790
0.530236 0.317205 0.143221
0.581537 0.323583 0.136233
0.653620 0.347448 0.138216
0.718379 0.370642 0.142580
0.772885 0.393225 0.154940
0.820249 0.415015 0.172549
0.860655 0.436591 0.194919
0.894987 0.457984 0.221714
0.923735 0.479286 0.252445
0.947631 0.500664 0.286595
0.967376 0.522332 0.323949
0.983520 0.544732 0.364355
0.996551 0.568139 0.407141
1.000000 0.593500 0.453559
1.000000 0.620783 0.501640
1.000000 0.650233 0.551568
0.082673 0.265934 0.169100
0.086702 0.266606 0.168948
0.091951 0.267582 0.168887
0.102541 0.269657 0.168826
0.118441 0.273198 0.169223
0.139406 0.278416 0.170901
0.165255 0.285801 0.175174
0.190249 0.292576 0.177676
0.226413 0.295323 0.194034
0.260349 0.298863 0.214878
0.283604 0.307378 0.221256
0.307652 0.319738 0.210239
0.340734 0.331243 0.197787
0.367163 0.325292 0.189670
0.424811 0.340764 0.183902
0.475929 0.349035 0.175998
0.525170 0.354711 0.167849
0.572168 0.359472 0.159731
0.616419 0.363348 0.151675
0.679683 0.384405 0.153658
0.743130 0.410224 0.161807
0.796994 0.433845 0.176394
0.841672 0.456397 0.198978
0.879576 0.478248 0.226017
0.911284 0.499519 0.256931
0.937591 0.520470 0.291508
0.959197 0.541497 0.329259
0.976806 0.563043 0.370336
0.990967 0.585565 0.414069
1.000000 0.609827 0.460731
1.000000 0.636225 0.509850
1.000000 0.664454 0.559808
0.072938 0.294804 0.185641
0.077363 0.295598 0.185611
0.083650 0.296544 0.185519
0.095552 0.298985 0.185641
0.112886 0.302739 0.185885
0.134707 0.308415 0.187137
0.161410 0.315953 0.190372
0.193759 0.325780 0.197269
0.224613 0.330663 0.204044
0.264775 0.334844 0.224918
0.301030 0.339757 0.250767
0.322881 0.351202 0.247562
0.349920 0.363470 0.234653
0.383886 0.373388 0.220768
0.411414 0.366613 0.211337
0.469306 0.382055 0.205081
0.519921 0.391028 0.196506
0.567193 0.397284 0.187778
0.611994 0.402258 0.179416
0.654932 0.407385 0.171939
0.705196 0.420874 0.170809
0.766812 0.448219 0.183780
0.819089 0.472724 0.201205
0.861692 0.495583 0.227634
0.897002 0.517540 0.259556
0.926085 0.538598 0.294591
0.949950 0.559503 0.333257
0.969329 0.580774 0.375555
0.984863 0.602777 0.420569
0.997009 0.626154 0.467811
1.000000 0.651637 0.517540
1.000000 0.678828 0.568139
0.052216 0.325292 0.203647
0.061830 0.326085 0.203464
0.069154 0.327214 0.203372
0.083650 0.329625 0.203616
0.103609 0.333593 0.203769
0.127718 0.339422 0.204654
0.155703 0.347265 0.207095
0.189334 0.357427 0.212741
0.219364 0.366766 0.214969
0.264591 0.371649 0.235813
0.307530 0.377111 0.261631
0.344091 0.383948 0.289372
0.364813 0.396460 0.276616
0.394110 0.408453 0.261784
0.427802 0.416327 0.246586
0.455634 0.408972 0.235996
0.512657 0.424231 0.229374
0.561944 0.433814 0.220310
0.607385 0.440070 0.211521
0.650660 0.446052 0.204135
0.692164 0.451850 0.197543
0.731930 0.458015 0.191653
0.789517 0.484962 0.208408
0.839628 0.510277 0.231571
0.880613 0.533288 0.260166
0.913085 0.555169 0.296056
0.939666 0.576379 0.336004
0.961120 0.597498 0.379095
0.978210 0.619104 0.425360
0.991577 0.641840 0.473640
1.000000 0.666529 0.524376
1.000000 0.692805 0.575525
0.000000 0.356634 0.222354
0.011383 0.357488 0.222293
0.033265 0.358526 0.222263
0.065553 0.361151 0.222446
0.090974 0.365179 0.222568
0.118196 0.371191 0.223362
0.148287 0.378851 0.225376
0.183291 0.388861 0.230106
0.224216 0.401312 0.239536
0.260655 0.408118 0.247349
0.309087 0.414099 0.272923
0.353246 0.420905 0.303502
0.385138 0.430030 0.321660
0.408240 0.442145 0.307225
0.438911 0.453651 0.291478
0.471595 0.459480 0.275242
0.499458 0.451850 0.263676
0.554833 0.466835 0.256870
0.602411 0.476387 0.248173
0.646143 0.483040 0.240177
0.687922 0.489448 0.233585
0.727932 0.495796 0.228031
0.765591 0.502159 0.223941
0.811337 0.520317 0.235966
0.858640 0.546105 0.263828
0.897429 0.569360 0.296300
0.927825 0.591211 0.335668
0.951873 0.612665 0.380438
0.970916 0.634150 0.427771
0.985718 0.656733 0.477974
0.997070 0.680659 0.529503
1.000000 0.706294 0.582025
0.000000 0.388678 0.242222
0.000000 0.389502 0.242344
0.000000 0.392035 0.243107
0.008576 0.394598 0.243137
0.070436 0.398749 0.243351
0.104982 0.404578 0.244053
0.139101 0.412238 0.245823
0.176303 0.422187 0.249821
0.219272 0.434546 0.258213
0.256260 0.445808 0.262638
0.307988 0.452399 0.286290
0.357855 0.459388 0.316350
0.402472 0.467384 0.351263
0.429389 0.478065 0.357244
0.454108 0.489631 0.341650
0.485847 0.500389 0.324651
0.517082 0.504204 0.307897
0.544762 0.496773 0.295232
0.596887 0.510002 0.289036
0.642145 0.519249 0.281468
0.684230 0.526268 0.274113
0.724361 0.532830 0.268650
0.762020 0.539208 0.265080
0.797421 0.545617 0.262943
0.832731 0.554955 0.266239
0.877134 0.581231 0.300084
0.912932 0.604730 0.337591
0.941497 0.626246 0.378882
0.962860 0.648096 0.428595
0.979431 0.670497 0.480140
0.992157 0.694057 0.533410
1.000000 0.719234 0.587488
0.000000 0.422400 0.263828
0.000000 0.423377 0.264134
0.000000 0.424811 0.264103
0.000000 0.427558 0.264439
0.009888 0.431830 0.264561
0.085267 0.437751 0.265324
0.126802 0.445563 0.267033
0.167605 0.455146 0.270726
0.212467 0.467109 0.278141
0.262181 0.481117 0.291539
0.303288 0.489601 0.300145
0.358160 0.496986 0.329778
0.408759 0.504997 0.363989
0.452338 0.514031 0.402472
0.474311 0.525353 0.393927
0.500175 0.536187 0.377874
0.532128 0.546227 0.360235
0.561028 0.547936 0.343023
0.587640 0.540002 0.330266
0.636408 0.551568 0.324468
0.679500 0.560327 0.317662
0.719753 0.567498 0.311894
0.757626 0.574090 0.308110
0.793057 0.580560 0.306310
0.826200 0.587182 0.306554
0.857267 0.594293 0.308965
0.894438 0.615290 0.338964
0.927367 0.639063 0.382147
0.953277 0.661158 0.428656
0.972686 0.683284 0.480171
0.986938 0.706752 0.535607
0.997620 0.731685 0.591974
0.000000 0.457404 0.287144
0.000000 0.458412 0.287449
0.000000 0.459846 0.287419
0.000000 0.462562 0.287755
0.000000 0.466865 0.287999
0.043030 0.472724 0.288853
0.109377 0.480171 0.290471
0.156924 0.489631 0.293919
0.204929 0.501091 0.300725
0.256870 0.514549 0.312657
0.300237 0.527245 0.319829
0.356695 0.535058 0.345098
0.412238 0.543175 0.378790
0.461341 0.551934 0.416571
0.499672 0.561791 0.448981
0.519799 0.572107 0.433845
0.545953 0.581964 0.417121
0.577234 0.590936 0.399268
0.603784 0.590417 0.381872
0.629206 0.582574 0.369055
0.674708 0.592279 0.363806
0.714931 0.600427 0.357885
0.752956 0.607538 0.354040
0.788388 0.614069 0.352270
0.821592 0.620569 0.352697
0.852567 0.627558 0.355535
0.881468 0.635035 0.361120
0.911070 0.648890 0.381842
0.940887 0.673213 0.431373
0.963836 0.696193 0.483406
0.981384 0.718624 0.536126
0.993530 0.743435 0.594751
0.000000 0.494331 0.312840
0.000000 0.495247 0.312871
0.000000 0.496742 0.313054
0.000000 0.499428 0.313268
0.000000 0.503563 0.313725
0.000000 0.509087 0.314488
0.083406 0.516472 0.316289
0.142794 0.525292 0.319768
0.196048 0.536309 0.325963
0.250889 0.549218 0.336675
0.308598 0.563836 0.353491
0.352636 0.573175 0.362402
0.413153 0.580743 0.395636
0.467414 0.588922 0.432685
0.514061 0.597894 0.472816
0.544213 0.607752 0.491005
0.564752 0.617182 0.475715
0.590570 0.626062 0.459480
0.621149 0.634333 0.442084
0.645258 0.632227 0.425086
0.669612 0.624506 0.412238
0.711666 0.632746 0.407874
0.748562 0.639582 0.402930
0.784085 0.646632 0.401221
0.817166 0.653315 0.401801
0.848112 0.660151 0.405005
0.876829 0.667506 0.411231
0.903380 0.675715 0.420935
0.927916 0.684901 0.434943
0.953765 0.708522 0.487221
0.973663 0.732296 0.543542
0.988586 0.755520 0.599145
0.000000 0.533532 0.341619
0.000000 0.534508 0.341741
0.000000 0.535698 0.341741
0.000000 0.538109 0.342107
0.000000 0.542107 0.342412
0.000000 0.547509 0.343389
0.008209 0.554314 0.345037
0.125063 0.562829 0.348425
0.186282 0.572961 0.354253
0.245029 0.584833 0.363836
0.305699 0.598322 0.379248
0.354620 0.610468 0.388495
0.413825 0.618250 0.415442
0.472053 0.625696 0.451728
0.522881 0.633906 0.490639
0.566217 0.643030 0.531579
0.588830 0.652186 0.534569
0.609155 0.660731 0.519951
0.634089 0.668635 0.504143
0.663355 0.675929 0.487037
0.684901 0.672358 0.470527
0.707668 0.664729 0.458320
0.745602 0.671077 0.454719
0.778897 0.676539 0.450538
0.811978 0.683558 0.450935
0.842741 0.690425 0.454108
0.871275 0.697749 0.460456
0.897734 0.705776 0.470680
0.922057 0.714778 0.484962
0.944274 0.725124 0.504417
0.965362 0.743648 0.546746
0.982177 0.767178 0.604456
0.000000 0.573693 0.372503
0.000000 0.574578 0.372717
0.000000 0.575647 0.372930
0.000000 0.578088 0.373144
0.000000 0.581689 0.373480
0.000000 0.586542 0.374578
0.000000 0.592920 0.376104
0.101747 0.600488 0.379248
0.175967 0.609674 0.384619
0.239567 0.620203 0.393256
0.302831 0.632227 0.406836
0.367102 0.645289 0.426856
0.412757 0.654170 0.436561
0.475257 0.661006 0.472175
0.529900 0.668452 0.510033
0.576959 0.676631 0.549065
0.615900 0.685725 0.587854
0.631861 0.693904 0.577050
0.651606 0.701411 0.563500
0.675502 0.708400 0.549035
0.703029 0.714748 0.533165
0.721798 0.710018 0.517967
0.742916 0.702754 0.506584
0.776974 0.707637 0.503899
0.806394 0.711574 0.499886
0.837064 0.718746 0.502892
0.865476 0.726101 0.509056
0.891783 0.734005 0.518914
0.915984 0.742763 0.532952
0.938170 0.752712 0.551873
0.958160 0.764279 0.576501
0.975433 0.777371 0.606744
0.000000 0.615198 0.406561
0.000000 0.615900 0.406806
0.000000 0.616938 0.406867
0.000000 0.619013 0.406958
0.000000 0.622187 0.407416
0.000000 0.626581 0.408209
0.000000 0.632166 0.409766
0.069337 0.638880 0.412604
0.166201 0.646937 0.417304
0.235721 0.656153 0.425086
0.301701 0.666529 0.437140
0.368109 0.678035 0.455421
0.420539 0.688624 0.468116
0.478553 0.695583 0.494728
0.536187 0.702022 0.531060
0.585840 0.709102 0.567987
0.627802 0.716884 0.604883
0.657893 0.725063 0.629969
0.672755 0.732143 0.618585
0.691554 0.738735 0.606226
0.713985 0.744778 0.593103
0.739590 0.750332 0.578729
0.755825 0.744869 0.565179
0.775204 0.738033 0.554803
0.805478 0.741756 0.552941
0.831815 0.744991 0.549950
0.860014 0.752438 0.555779
0.886076 0.760250 0.565270
0.910185 0.768765 0.578729
0.932219 0.778408 0.597162
0.951751 0.788876 0.619471
0.968902 0.800229 0.645411
0.000000 0.656031 0.441779
0.000000 0.656794 0.441901
0.000000 0.657710 0.441962
0.000000 0.659602 0.442084
0.000000 0.662409 0.442512
0.000000 0.666224 0.443244
0.000000 0.671015 0.444831
0.000000 0.676997 0.447303
0.157198 0.683955 0.451667
0.233494 0.691951 0.458564
0.302464 0.700954 0.469215
0.370825 0.710842 0.485542
0.438575 0.721340 0.508965
0.482948 0.729091 0.519646
0.542840 0.734524 0.554162
0.594720 0.740505 0.589197
0.638972 0.747066 0.624170
0.676234 0.754360 0.658686
0.697810 0.761440 0.670344
0.712001 0.767605 0.659907
0.729641 0.773404 0.648981
0.750423 0.778714 0.637110
0.773922 0.783505 0.624262
0.787747 0.777615 0.612268
0.805325 0.771633 0.603662
0.832120 0.774411 0.602716
0.855161 0.776699 0.600366
0.880919 0.784421 0.609247
0.904784 0.792874 0.622309
0.926604 0.802335 0.640192
0.945678 0.811612 0.659998
0.962799 0.822324 0.684077
0.000000 0.697719 0.478889
0.000000 0.698207 0.478950
0.000000 0.699062 0.478981
0.000000 0.700557 0.479072
0.000000 0.702968 0.479347
0.000000 0.706325 0.480110
0.000000 0.710353 0.481270
0.000000 0.715450 0.483589
0.151217 0.721248 0.487648
0.234348 0.727993 0.493568
0.306706 0.735409 0.503227
0.376806 0.743435 0.517723
0.445808 0.751919 0.539147
0.497993 0.760128 0.554650
0.550774 0.765591 0.579126
0.603998 0.770413 0.612085
0.649897 0.775784 0.645167
0.688746 0.781735 0.677485
0.720821 0.788449 0.708400
0.735378 0.794461 0.708492
0.748775 0.799893 0.699733
0.765103 0.804898 0.690303
0.784085 0.809567 0.680140
0.805325 0.813870 0.669337
0.817014 0.807919 0.659022
0.832853 0.802762 0.651972
0.856352 0.804929 0.652247
0.876555 0.806851 0.651392
0.899687 0.814633 0.662776
0.921019 0.823148 0.678157
0.939971 0.831907 0.696162
0.957061 0.841978 0.718349
0.000000 0.739376 0.517296
0.000000 0.739925 0.517357
0.000000 0.740505 0.517388
0.000000 0.741817 0.517540
0.000000 0.743832 0.517754
0.000000 0.746578 0.518334
0.000000 0.749966 0.519554
0.000000 0.754147 0.521630
0.154391 0.758907 0.525261
0.242161 0.764279 0.530877
0.316777 0.770108 0.539696
0.387976 0.776394 0.553002
0.457191 0.783017 0.572198
0.522179 0.790158 0.596704
0.561944 0.796231 0.607263
0.616114 0.799924 0.638422
0.662898 0.804105 0.669398
0.702449 0.808865 0.699306
0.735500 0.814237 0.727718
0.761746 0.820218 0.752834
0.771603 0.825223 0.746029
0.783993 0.829953 0.738796
0.798825 0.834379 0.731014
0.815854 0.838529 0.722744
0.834623 0.842100 0.714076
0.844663 0.836759 0.706081
0.858793 0.832517 0.701076
0.879179 0.834348 0.702663
0.896605 0.835874 0.702876
0.916289 0.842313 0.713649
0.935088 0.850675 0.730037
0.952148 0.860136 0.750240
0.000000 0.781674 0.557763
0.000000 0.782071 0.557855
0.000000 0.782498 0.557794
0.000000 0.783444 0.557916
0.000000 0.784970 0.558007
0.000000 0.786984 0.558495
0.000000 0.789517 0.559533
0.000000 0.792508 0.561273
0.170687 0.796017 0.564263
0.257755 0.799802 0.569360
0.333379 0.803891 0.577417
0.404730 0.808316 0.589532
0.472511 0.813016 0.606470
0.536553 0.818112 0.628412
