data/fiter_cube/81078425/1022775/file.cube
# Created by Adobe Lightroom plugin Export LUT (1.17.0)
# www.johnrellis.com/lightroom/exportlut.htm
# Preset: 旅拍情绪景观_09 云集视觉
# Color profile: C:\Program Files (x86)\Common Files\Adobe\Color\Profiles\Recommended\AdobeRGB1998.icc
LUT_3D_SIZE 5
DOMAIN_MIN 0.000000 0.000000 0.000000
DOMAIN_MAX 0.903226 0.903226 0.903226
0.091798 0.068421 0.064912
0.211673 0.042267 0.069612
0.635523 0.000000 0.031861
0.921080 0.093904 0.113344
1.000000 0.425238 0.340337
0.095705 0.134188 0.096376
0.167086 0.142123 0.099702
0.545800 0.147127 0.086824
0.892607 0.273625 0.139345
1.000000 0.481910 0.367681
0.072938 0.294804 0.185641
0.193759 0.325780 0.197269
0.411414 0.366613 0.211337
0.766812 0.448219 0.183780
0.984863 0.602777 0.420569
0.000000 0.533532 0.341619
0.125063 0.562829 0.348425
0.522881 0.633906 0.490639
0.707668 0.664729 0.458320
0.922057 0.714778 0.484962
0.000000 0.822049 0.598444
0.067079 0.829465 0.601495
0.612024 0.848569 0.683772
0.826017 0.872618 0.817533
0.901213 0.881621 0.786374
0.108064 0.095491 0.114626
0.183108 0.088258 0.141787
0.642023 0.000000 0.197787
0.914916 0.258610 0.307713
1.000000 0.516960 0.498817
0.107424 0.131350 0.138125
0.186038 0.179232 0.167178
0.564508 0.201694 0.209781
0.889708 0.350378 0.312993
1.000000 0.554681 0.511376
0.000000 0.297948 0.239445
0.170016 0.333379 0.245090
0.421149 0.393011 0.281834
0.779873 0.484199 0.299840
0.976898 0.642512 0.531029
0.000000 0.528099 0.382361
0.041901 0.558923 0.390265
0.514000 0.643793 0.508080
0.707515 0.676600 0.512718
0.918181 0.722927 0.531365
0.000000 0.818936 0.621271
0.000000 0.827085 0.621424
0.582361 0.848234 0.684596
0.829709 0.875029 0.829404
0.900450 0.884398 0.799130
0.149996 0.175265 0.280522
0.191348 0.169375 0.325322
0.471870 0.103212 0.402319
0.871336 0.341619 0.569177
0.978698 0.726558 0.769192
0.193118 0.232425 0.289769
0.241489 0.262760 0.333043
0.465614 0.231479 0.416114
0.865354 0.464424 0.599268
0.975647 0.731472 0.763821
0.097932 0.284062 0.332494
0.183810 0.321019 0.357519
0.472297 0.497475 0.493050
0.818112 0.619684 0.614588
0.960998 0.751156 0.744778
0.000000 0.460609 0.456092
0.000000 0.516777 0.487373
0.406287 0.640986 0.549676
0.713069 0.713680 0.638178
0.919860 0.768917 0.681270
0.000000 0.803891 0.695735
0.000000 0.814298 0.691768
0.391485 0.842863 0.693629
0.817685 0.878874 0.830045
0.898863 0.891936 0.830900
0.245243 0.342870 0.587945
0.294804 0.343389 0.615595
0.478248 0.263066 0.684504
0.763363 0.304021 0.706874
0.953216 0.670161 0.807309
0.324041 0.419867 0.581872
0.353796 0.427039 0.613214
0.484443 0.373785 0.682460
0.756802 0.394995 0.711513
0.949950 0.710964 0.819028
0.270237 0.456184 0.592004
0.358495 0.493843 0.607599
0.548302 0.599481 0.676661
0.735317 0.576867 0.723690
0.944762 0.807950 0.853880
0.000000 0.512383 0.606165
0.128725 0.533684 0.616632
0.416907 0.612085 0.661677
0.743435 0.779232 0.779110
0.935546 0.867643 0.868162
0.000000 0.732967 0.747585
0.000000 0.742580 0.750729
0.000000 0.788296 0.766293
0.683742 0.870878 0.804471
0.899718 0.904906 0.873808
0.524407 0.616266 0.828824
0.553307 0.621668 0.836393
0.610864 0.579248 0.860594
0.769680 0.485054 0.889921
0.919097 0.613367 0.875303
0.547906 0.646876 0.820096
0.570520 0.651911 0.829404
0.624079 0.627863 0.854551
0.761257 0.530083 0.886412
0.914977 0.640314 0.875608
0.547814 0.679927 0.809598
0.593713 0.700740 0.811795
0.670771 0.732662 0.839567
0.748836 0.676722 0.875883
0.908568 0.726131 0.883635
0.404578 0.690974 0.825345
0.457893 0.700801 0.825071
0.612573 0.745846 0.832517
0.784787 0.826596 0.869474
0.904875 0.833066 0.901457
0.000000 0.766720 0.854032
0.118379 0.771969 0.854887
0.421851 0.797391 0.862516
0.673304 0.837949 0.872404
0.903624 0.922820 0.922850
