data/fiter_cube/69180065/1023057/file.cube
# Created by Adobe Lightroom plugin Export LUT (1.17.0)
# www.johnrellis.com/lightroom/exportlut.htm
# Preset: 室内文艺胶片_10 云集
# Color profile: C:\Program Files (x86)\Common Files\Adobe\Color\Profiles\Recommended\AdobeRGB1998.icc
LUT_3D_SIZE 8
DOMAIN_MIN 0.000000 0.000000 0.000000
DOMAIN_MAX 0.903226 0.903226 0.903226
0.063111 0.084321 0.131014
0.073915 0.084840 0.131746
0.156802 0.080842 0.132174
0.331365 0.000000 0.129213
0.543877 0.000000 0.120272
0.750759 0.000000 0.109316
0.895628 0.123110 0.128939
0.986267 0.290806 0.203616
0.063447 0.090608 0.133822
0.073671 0.093294 0.132540
0.158022 0.099062 0.130648
0.326207 0.077668 0.126467
0.535454 0.000000 0.115633
0.738460 0.000000 0.100801
0.887388 0.167422 0.116365
0.982727 0.306645 0.193240
0.050080 0.142763 0.151675
0.068391 0.148287 0.146731
0.156069 0.170565 0.135317
0.338811 0.186526 0.121553
0.543359 0.191623 0.102144
0.741360 0.229374 0.061616
0.893034 0.300267 0.072572
0.984955 0.383459 0.173281
0.000000 0.277623 0.199771
0.067597 0.282628 0.198764
0.146670 0.282689 0.182071
0.335912 0.353948 0.143160
0.581353 0.392157 0.082918
0.748684 0.392584 0.000000
0.888701 0.433021 0.000000
0.980804 0.478279 0.112551
0.000000 0.461189 0.277897
0.086152 0.464302 0.277134
0.177401 0.470192 0.255070
0.295598 0.462776 0.237156
0.536461 0.551537 0.163760
0.756405 0.582238 0.059449
0.880400 0.572869 0.000000
0.973632 0.584588 0.018921
0.114992 0.644373 0.383734
0.168704 0.651301 0.387457
0.279149 0.655207 0.385840
0.348791 0.645380 0.337652
0.488838 0.652796 0.307713
0.716884 0.716518 0.236179
0.888151 0.735592 0.174105
0.970245 0.717708 0.177676
0.292393 0.795529 0.515282
0.321965 0.796414 0.517235
0.403571 0.794675 0.519707
0.462654 0.792020 0.489723
0.542535 0.777096 0.458900
0.674525 0.796384 0.428229
0.844816 0.831357 0.373358
0.964324 0.837461 0.334997
0.506920 0.893217 0.654597
0.524590 0.892363 0.656947
0.581170 0.890043 0.666560
0.661280 0.887205 0.684382
0.668971 0.881407 0.638819
0.729671 0.875181 0.626490
0.823819 0.895140 0.609827
0.927214 0.913176 0.570275
0.062165 0.085023 0.136812
0.071382 0.085176 0.136721
0.151736 0.078981 0.140780
0.321141 0.000000 0.142061
0.531151 0.000000 0.135256
0.732235 0.000000 0.120546
0.883726 0.132692 0.120394
0.980774 0.284550 0.194949
0.060853 0.091432 0.139498
0.073152 0.093965 0.141665
0.155459 0.096742 0.143038
0.322057 0.076112 0.142214
0.528893 0.000000 0.134890
0.726986 0.000000 0.119478
0.877623 0.175204 0.109041
0.977111 0.300389 0.184207
0.049012 0.142885 0.162966
0.077913 0.151003 0.165805
0.156741 0.170779 0.153567
0.331609 0.178134 0.141543
0.532677 0.185397 0.131960
0.727199 0.220066 0.114656
0.878904 0.291478 0.098573
0.978363 0.374792 0.162600
0.000000 0.274937 0.214267
0.081056 0.281102 0.215671
0.157382 0.287938 0.202518
0.325078 0.340764 0.169833
0.552758 0.367864 0.129854
0.726009 0.374548 0.098695
0.873899 0.419257 0.084993
0.974243 0.470069 0.110353
0.001984 0.459876 0.293858
0.102296 0.461952 0.292882
0.204746 0.469337 0.283513
0.295262 0.452735 0.255161
0.522850 0.537469 0.192813
0.743038 0.569696 0.125490
0.872160 0.563775 0.091829
0.969024 0.580316 0.115114
0.125612 0.638758 0.394385
0.170169 0.640620 0.394324
0.276341 0.645258 0.393072
0.350286 0.640040 0.350683
0.485176 0.645747 0.324285
0.713283 0.712764 0.262486
0.883970 0.731716 0.210544
0.966735 0.714046 0.207645
0.286595 0.788846 0.518029
0.312230 0.787869 0.517601
0.394812 0.787472 0.520745
0.471199 0.786831 0.503380
0.543236 0.774502 0.468818
0.670558 0.791806 0.438972
0.839963 0.827054 0.386023
0.960143 0.833494 0.349248
0.499153 0.890867 0.655024
0.518273 0.890440 0.658106
0.576013 0.888365 0.667659
0.658106 0.885801 0.685939
0.679316 0.883940 0.653285
0.734218 0.876432 0.637232
0.823209 0.894072 0.617395
0.925597 0.911803 0.577752
0.048402 0.085847 0.178164
0.077852 0.085573 0.179446
0.149233 0.082673 0.185214
0.333074 0.000000 0.205600
0.537102 0.000000 0.217807
0.737911 0.000000 0.227298
0.886687 0.181064 0.231754
0.982574 0.307866 0.244511
0.021149 0.099519 0.187320
0.071504 0.099367 0.190646
0.153750 0.103670 0.192905
0.329870 0.081697 0.210086
0.534966 0.000000 0.220493
0.732570 0.088533 0.225711
0.882261 0.211337 0.228946
0.980316 0.325078 0.242496
0.000000 0.151369 0.203189
0.063294 0.157168 0.206973
0.163424 0.175631 0.217441
0.334295 0.187167 0.221805
0.541924 0.200198 0.224918
0.732998 0.237491 0.225071
0.879973 0.308568 0.228000
0.977600 0.389288 0.243168
0.000000 0.284642 0.261753
0.081910 0.291661 0.265049
0.197513 0.311345 0.272831
0.336187 0.346777 0.248508
0.551751 0.360296 0.226139
0.732113 0.384222 0.221103
0.876890 0.430823 0.226719
0.973846 0.482887 0.246677
0.000000 0.466377 0.341253
0.114900 0.470832 0.343694
0.237888 0.482612 0.348241
0.331243 0.480171 0.323095
0.533288 0.543725 0.283055
0.740566 0.565393 0.245335
0.869505 0.558801 0.224155
0.967590 0.586603 0.249607
0.140505 0.643977 0.439063
0.189731 0.646052 0.440833
0.297124 0.650263 0.442664
0.386511 0.651698 0.416358
0.493202 0.641230 0.387182
0.710384 0.709255 0.344823
0.877562 0.726894 0.312505
0.963714 0.713252 0.305547
0.303380 0.792691 0.554406
0.330968 0.792111 0.554894
0.410101 0.790585 0.557153
0.519341 0.788602 0.564569
0.563989 0.778805 0.517662
0.674861 0.789425 0.492317
0.840574 0.828305 0.456336
0.957824 0.835752 0.433753
0.500145 0.891600 0.674128
0.515373 0.890684 0.674952
0.572808 0.888243 0.682704
0.658198 0.886534 0.700832
0.693080 0.884764 0.680415
0.743404 0.877867 0.664790
0.825223 0.893370 0.649287
0.925048 0.912627 0.619074
0.000000 0.087495 0.277897
0.070954 0.086549 0.282811
0.201511 0.085878 0.294469
0.330846 0.067018 0.300694
0.561364 0.000000 0.338476
0.743069 0.000000 0.351019
0.876982 0.247410 0.383398
0.972381 0.363287 0.402960
0.000000 0.107210 0.290043
0.058869 0.108919 0.293400
0.203738 0.117433 0.303655
0.334447 0.116640 0.308629
0.559777 0.101106 0.343755
0.738369 0.125978 0.353826
0.874540 0.270909 0.382300
0.971527 0.374609 0.399786
0.000000 0.174655 0.297612
0.000000 0.177798 0.300938
0.182742 0.193301 0.319860
0.339422 0.220829 0.329839
0.553491 0.240146 0.358373
0.732967 0.286046 0.376745
0.878599 0.359380 0.392401
0.972198 0.431434 0.403906
0.000000 0.288273 0.330571
0.000000 0.294316 0.333654
0.183017 0.314549 0.344152
0.342596 0.347234 0.361578
0.543084 0.370733 0.368109
0.727230 0.404273 0.374273
0.871305 0.452796 0.385229
0.967803 0.508141 0.403326
0.000000 0.477546 0.417700
0.108034 0.482734 0.421393
0.249088 0.496590 0.429053
0.389593 0.512505 0.434943
0.539971 0.545769 0.405341
0.730953 0.553826 0.381506
0.866972 0.568505 0.382483
0.962707 0.601678 0.404486
0.157931 0.657801 0.513359
0.209598 0.663233 0.517845
0.319738 0.665614 0.519127
0.448127 0.669429 0.521294
0.530846 0.658350 0.488197
0.713741 0.711086 0.462806
0.869596 0.722591 0.441474
0.957580 0.710201 0.424964
0.318853 0.796933 0.608545
0.347753 0.797391 0.610101
0.429603 0.797757 0.614191
0.536126 0.797024 0.620050
0.606500 0.792813 0.598199
0.685969 0.787869 0.571313
0.839780 0.828824 0.550469
0.950988 0.835691 0.536400
0.514916 0.893919 0.711727
0.531121 0.893614 0.713161
0.578515 0.891936 0.716304
0.653346 0.889158 0.724941
0.732723 0.885496 0.737728
0.758053 0.881071 0.706874
0.827085 0.891569 0.693477
0.923766 0.913237 0.674525
0.000000 0.095033 0.419898
0.050874 0.094881 0.425208
0.236210 0.093721 0.440497
0.415045 0.112612 0.463264
0.557092 0.107942 0.467536
0.760830 0.206455 0.511772
0.882353 0.316991 0.528038
0.961456 0.456580 0.565423
0.000000 0.122988 0.426581
0.024140 0.125277 0.432441
0.235538 0.132357 0.447028
0.419745 0.163149 0.469795
0.557427 0.165743 0.472511
0.758602 0.248173 0.515618
0.880400 0.344244 0.531975
0.959838 0.471717 0.568750
0.000000 0.198367 0.427192
0.000000 0.202060 0.435767
0.207584 0.217288 0.454658
0.414008 0.264317 0.482460
0.554894 0.285069 0.486397
0.746487 0.346624 0.523491
0.871458 0.416114 0.541100
0.952758 0.521965 0.581292
0.000000 0.311803 0.444465
0.000000 0.315404 0.446418
0.150576 0.327489 0.454536
0.367620 0.366735 0.489052
0.550774 0.419379 0.509087
0.731685 0.461646 0.537743
0.859037 0.511192 0.556909
0.952880 0.563714 0.571893
0.000000 0.462226 0.487526
0.000000 0.466865 0.489998
0.202396 0.481209 0.497230
0.367681 0.504845 0.510155
0.533593 0.534844 0.526879
0.714076 0.558160 0.534661
0.855070 0.589990 0.545403
0.951019 0.626947 0.559686
0.092164 0.645869 0.573907
0.165866 0.649348 0.576776
0.304417 0.658869 0.585412
0.454047 0.671534 0.597009
0.574121 0.674098 0.593591
0.706355 0.702754 0.573022
0.854429 0.708309 0.557305
0.947631 0.714046 0.559106
0.337957 0.800595 0.675349
0.363836 0.800229 0.675410
0.441138 0.799680 0.676570
0.541833 0.799619 0.678767
0.640314 0.798611 0.678279
0.699306 0.787106 0.647883
0.835203 0.825681 0.637537
0.941497 0.830289 0.625574
0.520134 0.893004 0.753017
0.534722 0.892424 0.753445
0.580346 0.890898 0.755062
0.650172 0.891051 0.760586
0.723537 0.888701 0.764736
0.774166 0.885618 0.754452
0.825559 0.886564 0.737575
0.920867 0.912047 0.728206
0.000000 0.116213 0.591424
0.109102 0.116732 0.595453
0.288884 0.119387 0.607233
0.480903 0.150851 0.629450
0.641871 0.206424 0.647822
0.751492 0.263188 0.635279
0.885222 0.432807 0.671504
0.955261 0.542260 0.692134
0.000000 0.148653 0.589685
0.095094 0.150515 0.593286
0.282383 0.158846 0.606195
0.476020 0.192416 0.629053
0.639582 0.248600 0.647913
0.748257 0.296696 0.636133
0.882506 0.452399 0.673548
0.953582 0.553491 0.694057
0.000000 0.230411 0.592309
0.000000 0.232395 0.596277
0.252781 0.250401 0.610346
0.462104 0.293034 0.634577
0.643183 0.367193 0.658930
0.745510 0.397131 0.647059
0.876768 0.517235 0.684627
0.949340 0.593774 0.703548
0.000000 0.343053 0.576257
0.000000 0.343389 0.576501
0.151827 0.356573 0.597833
0.411444 0.400977 0.635401
0.637354 0.493446 0.671565
0.743221 0.522271 0.667262
0.869535 0.599207 0.701320
0.944030 0.648493 0.716426
0.000000 0.488838 0.606928
0.000000 0.491188 0.608026
0.151369 0.498390 0.611872
0.330388 0.508202 0.618006
0.559991 0.554437 0.653498
0.726589 0.616663 0.676722
0.854368 0.659449 0.703517
0.935607 0.693751 0.717494
0.000000 0.633234 0.644434
0.066377 0.636622 0.646784
0.249119 0.644007 0.650904
0.403784 0.655787 0.657557
0.555505 0.671473 0.666590
0.702846 0.696651 0.682979
0.841184 0.718624 0.693996
0.935363 0.742580 0.705226
0.271580 0.792569 0.725795
0.308629 0.794278 0.727901
0.408850 0.797421 0.732479
0.537255 0.803128 0.741482
0.659693 0.810056 0.752163
0.742397 0.807248 0.744991
0.833066 0.824491 0.728328
0.932464 0.824704 0.715755
0.540490 0.895384 0.805661
0.553887 0.894896 0.805692
0.596277 0.893614 0.805966
0.658747 0.892851 0.807431
0.726223 0.892058 0.808164
0.792172 0.891020 0.808560
0.831052 0.884703 0.789242
0.919097 0.911833 0.787381
0.167819 0.163943 0.746517
0.228702 0.167910 0.750332
0.368872 0.180941 0.757412
0.537224 0.224613 0.769284
0.703151 0.329351 0.784268
0.807126 0.378546 0.787930
0.870726 0.454536 0.761501
0.946715 0.607019 0.784817
0.148867 0.193454 0.741176
0.213596 0.197421 0.744778
0.357092 0.210452 0.752010
0.527001 0.251072 0.763851
0.694301 0.347265 0.779049
0.800351 0.396033 0.783047
0.864958 0.462867 0.757412
0.943359 0.607721 0.781582
0.000000 0.275242 0.742824
0.155245 0.279576 0.744869
0.327245 0.296330 0.751431
0.510155 0.338384 0.763882
0.684016 0.423651 0.779263
0.798306 0.484779 0.787137
0.863340 0.533471 0.767147
0.942107 0.654871 0.794095
0.000000 0.385534 0.729610
0.000000 0.386053 0.732296
0.226780 0.394141 0.744259
0.461006 0.435920 0.760647
0.661463 0.514672 0.779171
0.797818 0.595972 0.795987
0.861143 0.622156 0.781979
0.939208 0.709041 0.808072
0.000000 0.512779 0.723781
0.000000 0.511223 0.722560
0.000000 0.507225 0.720912
0.313970 0.510613 0.731930
0.586175 0.571069 0.764584
0.780789 0.670405 0.794949
0.851194 0.691920 0.789548
0.933379 0.753872 0.816678
0.000000 0.650263 0.747127
0.000000 0.650904 0.747341
0.196139 0.652674 0.748043
0.352728 0.655421 0.749691
0.498604 0.656397 0.750301
0.716884 0.705776 0.781735
0.845701 0.766323 0.804959
0.927672 0.798093 0.824460
0.218540 0.771359 0.777005
0.254795 0.772793 0.778134
0.348028 0.775509 0.779721
0.467262 0.780514 0.782803
0.592004 0.786435 0.785977
0.715084 0.796719 0.792050
0.824399 0.815213 0.804501
0.920958 0.832273 0.814420
0.433112 0.886412 0.833310
0.452857 0.887083 0.834409
0.522515 0.889006 0.838376
0.613397 0.890166 0.842557
0.713161 0.892424 0.849088
0.802579 0.897581 0.858732
0.855375 0.897215 0.854215
0.917449 0.911040 0.845090
0.332433 0.259129 0.861448
0.366583 0.264622 0.862547
0.461646 0.283146 0.863615
0.593317 0.331212 0.867338
0.728695 0.419532 0.871672
0.842039 0.542809 0.876463
0.902708 0.552148 0.876310
0.936522 0.612329 0.845670
0.321447 0.280583 0.858915
0.356176 0.286168 0.860075
0.454261 0.304356 0.861662
0.586969 0.349493 0.865110
0.724178 0.433814 0.869810
0.838834 0.552209 0.874937
0.899931 0.562341 0.874693
0.934569 0.618341 0.844999
0.277501 0.345068 0.855802
0.317418 0.350286 0.856657
0.425330 0.366674 0.857755
0.571588 0.413214 0.863584
0.714595 0.488075 0.868162
0.831724 0.589929 0.873625
0.895415 0.609216 0.874571
0.931762 0.652491 0.848753
0.104677 0.427100 0.849851
0.193820 0.432013 0.851682
0.350134 0.446265 0.854459
0.527489 0.486793 0.859525
0.691707 0.553582 0.865782
0.819944 0.641627 0.873411
0.890623 0.677119 0.877104
0.929107 0.704616 0.856992
0.000000 0.536309 0.832395
0.000000 0.536187 0.834501
0.125643 0.533410 0.839414
0.392157 0.540856 0.849668
0.627649 0.600671 0.858946
0.791806 0.680446 0.869596
0.884123 0.742428 0.879667
0.926024 0.760800 0.867369
0.000000 0.666133 0.841825
0.000000 0.664393 0.841062
0.114809 0.659022 0.839139
0.282902 0.648737 0.837034
0.459113 0.641108 0.839475
0.730129 0.712184 0.862699
0.878996 0.804074 0.886259
0.926177 0.821347 0.883574
0.211429 0.780789 0.856870
0.237552 0.780331 0.856474
0.312200 0.779141 0.855619
0.416999 0.778500 0.855283
0.532341 0.777371 0.854734
0.649439 0.774929 0.853696
0.829831 0.818448 0.876036
0.923003 0.868070 0.895140
0.426307 0.872587 0.877379
0.440040 0.872465 0.877226
0.487678 0.872740 0.877440
0.564233 0.874205 0.878660
0.654719 0.876585 0.880369
0.747066 0.880888 0.882811
0.832609 0.888884 0.887358
0.910155 0.903441 0.897124
