data/fiter_cube/69180065/1023057/file.cube
# Created by Adobe Lightroom plugin Export LUT (1.17.0)
# www.johnrellis.com/lightroom/exportlut.htm
# Preset: 室内文艺胶片_10 云集
# Color profile: C:\Program Files (x86)\Common Files\Adobe\Color\Profiles\Recommended\AdobeRGB1998.icc
LUT_3D_SIZE 5
DOMAIN_MIN 0.000000 0.000000 0.000000
DOMAIN_MAX 0.903226 0.903226 0.903226
0.063111 0.084321 0.131014
0.126040 0.083558 0.132235
0.436622 0.000000 0.125643
0.793912 0.000000 0.109834
0.986267 0.290806 0.203616
0.058381 0.122072 0.144778
0.126314 0.141573 0.134524
0.434974 0.152132 0.115694
0.787625 0.205722 0.068635
0.986572 0.365087 0.183536
0.000000 0.366217 0.235172
0.132937 0.375463 0.218173
0.439185 0.457954 0.150210
0.786099 0.486030 0.000000
0.977356 0.529839 0.009339
0.159213 0.690303 0.418341
0.276036 0.694575 0.418891
0.428046 0.679042 0.360327
0.754726 0.750240 0.265324
0.968780 0.749722 0.215427
0.506920 0.893217 0.654597
0.563745 0.890684 0.663264
0.648432 0.883757 0.649958
0.748867 0.877012 0.623468
0.927214 0.913176 0.570275
0.056672 0.085756 0.161257
0.117922 0.084627 0.165927
0.427192 0.000000 0.190249
0.774838 0.000000 0.193973
0.981170 0.293706 0.205875
0.027405 0.128389 0.179995
0.129976 0.145235 0.190860
0.431037 0.153872 0.195773
0.772763 0.209201 0.192325
0.979187 0.363500 0.207980
0.000000 0.369696 0.283421
0.181247 0.384863 0.289067
0.428412 0.442145 0.237827
0.767849 0.464851 0.183200
0.972656 0.532891 0.214633
0.183993 0.692012 0.461250
0.297490 0.696407 0.464607
0.453407 0.687526 0.419745
0.752255 0.747402 0.348363
0.964202 0.747616 0.309819
0.506279 0.893370 0.671839
0.563195 0.890867 0.679469
0.685786 0.885832 0.695155
0.756497 0.876493 0.654353
0.926635 0.913939 0.612177
0.000000 0.090150 0.345434
0.178744 0.087617 0.359899
0.441749 0.070771 0.378912
0.789029 0.162966 0.435035
0.963439 0.430457 0.503075
0.000000 0.164858 0.357519
0.159060 0.176120 0.377295
0.447791 0.218692 0.400275
0.778561 0.287510 0.445472
0.963439 0.461646 0.497322
0.000000 0.373144 0.407385
0.149386 0.390021 0.415808
0.438788 0.442145 0.443549
0.760800 0.492012 0.457923
0.959869 0.569024 0.484321
0.204868 0.700801 0.576806
0.316533 0.701869 0.577050
0.532952 0.707546 0.581445
0.748318 0.742977 0.537560
0.950286 0.739254 0.501976
0.514122 0.892607 0.729763
0.564630 0.891722 0.733547
0.688136 0.888457 0.743954
0.774960 0.880369 0.723323
0.921630 0.911894 0.698634
0.000000 0.123842 0.629053
0.259525 0.127321 0.641352
0.588464 0.209842 0.679011
0.786740 0.307774 0.669459
0.952880 0.559228 0.717464
0.000000 0.214725 0.630610
0.230442 0.228855 0.642329
0.575738 0.313603 0.680232
0.780972 0.401343 0.676234
0.947967 0.595056 0.724086
0.000000 0.416602 0.617456
0.000000 0.418860 0.619135
0.486580 0.476753 0.668421
0.762325 0.579522 0.693965
0.937621 0.682002 0.741115
0.000000 0.674067 0.683223
0.232334 0.678065 0.684749
0.489570 0.695460 0.694697
0.737575 0.729946 0.716609
0.930602 0.765377 0.733730
0.520714 0.894102 0.812436
0.576989 0.893980 0.815915
0.697688 0.894041 0.821622
0.809842 0.892912 0.821012
0.918486 0.911467 0.801511
0.332433 0.259129 0.861448
0.433234 0.276341 0.863127
0.662318 0.370184 0.869535
0.858793 0.552056 0.876799
0.936522 0.612329 0.845670
0.296239 0.328130 0.857603
0.407324 0.345068 0.859525
0.649622 0.429969 0.866667
0.855070 0.600061 0.875425
0.933104 0.644129 0.848325
0.000000 0.479713 0.841978
0.202426 0.479347 0.846555
0.575952 0.542901 0.857908
0.833707 0.681025 0.872923
0.927184 0.731380 0.861357
0.000000 0.699397 0.847227
0.148135 0.695521 0.845548
0.387060 0.682002 0.842100
0.755398 0.739345 0.864652
0.925994 0.834592 0.887297
0.426307 0.872587 0.877379
0.472633 0.872587 0.877317
0.608545 0.875273 0.879515
0.769345 0.882475 0.883757
0.910155 0.903441 0.897124
