data/fiter_cube/69180065/1023057/file.cube
# Created by Adobe Lightroom plugin Export LUT (1.17.0)
# www.johnrellis.com/lightroom/exportlut.htm
# Preset: 室内文艺胶片_10 云集
# Color profile: C:\Program Files (x86)\Common Files\Adobe\Color\Profiles\Recommended\AdobeRGB1998.icc
LUT_3D_SIZE 32
DOMAIN_MIN 0.0 0.0 0.0
DOMAIN_MAX 1.0 1.0 1.0
0.063111 0.084321 0.131014
0.063661 0.084260 0.131014
0.064607 0.084474 0.131167
0.067353 0.084779 0.131319
0.073915 0.084840 0.131746
0.084810 0.085084 0.131930
0.101839 0.084810 0.132174
0.126040 0.083558 0.132235
0.156802 0.080842 0.132174
0.193393 0.074830 0.131777
0.235569 0.063355 0.131289
0.281895 0.026703 0.130404
0.331365 0.000000 0.129213
0.383337 0.000000 0.127596
0.436622 0.000000 0.125643
0.490394 0.000000 0.123110
0.543877 0.000000 0.120272
0.596185 0.000000 0.117098
0.650111 0.000000 0.113771
0.702937 0.000000 0.111086
0.750759 0.000000 0.109316
0.793912 0.000000 0.109834
0.832120 0.000000 0.113039
0.865843 0.041962 0.119081
0.895628 0.123110 0.128939
0.922026 0.170871 0.141695
0.945647 0.212924 0.158328
0.966949 0.252323 0.179019
0.986267 0.290806 0.203616
1.000000 0.329473 0.233677
1.000000 0.369574 0.268894
1.000000 0.412146 0.311406
0.062959 0.084657 0.131197
0.063447 0.084932 0.131167
0.064515 0.084810 0.131167
0.067781 0.085023 0.131289
0.074311 0.085420 0.131533
0.085054 0.086000 0.131868
0.101991 0.086030 0.132113
0.125887 0.085237 0.132143
0.156161 0.082734 0.132113
0.192599 0.077424 0.131716
0.234409 0.067323 0.131197
0.280308 0.040131 0.130343
0.329412 0.000000 0.128969
0.381018 0.000000 0.127352
0.433906 0.000000 0.125277
0.487526 0.000000 0.122713
0.540764 0.000000 0.119753
0.593042 0.000000 0.116640
0.646815 0.000000 0.113375
0.698970 0.000000 0.110262
0.746548 0.000000 0.108461
0.789731 0.000000 0.108858
0.828214 0.000000 0.111757
0.862364 0.048463 0.117556
0.892638 0.123568 0.127016
0.919493 0.170932 0.139254
0.943542 0.212192 0.155764
0.965148 0.251621 0.176638
0.984771 0.289921 0.201358
1.000000 0.328405 0.230716
1.000000 0.368292 0.266056
1.000000 0.410407 0.307927
0.063203 0.085237 0.131502
0.063691 0.085512 0.131472
0.064790 0.085695 0.131289
0.068086 0.085939 0.131228
0.074556 0.086641 0.131472
0.085634 0.087160 0.131624
0.102449 0.087526 0.131838
0.126009 0.087098 0.131868
0.156008 0.085420 0.131807
0.192203 0.080812 0.131411
0.233738 0.071931 0.130892
0.279484 0.054902 0.129976
0.328405 0.001251 0.128603
0.379675 0.000000 0.126986
0.432441 0.000000 0.124849
0.485878 0.000000 0.122316
0.539055 0.000000 0.119326
0.591180 0.000000 0.115969
0.645075 0.000000 0.112459
0.696773 0.000000 0.109407
0.744259 0.000000 0.107454
0.787533 0.000000 0.107912
0.826139 0.000000 0.109957
0.860563 0.068879 0.115663
0.890959 0.129671 0.125124
0.918029 0.174655 0.137911
0.942321 0.215335 0.154238
0.964172 0.253513 0.174502
0.983978 0.291295 0.199435
1.000000 0.329381 0.229099
1.000000 0.368933 0.264378
1.000000 0.410620 0.305760
0.063386 0.087037 0.132479
0.063844 0.087282 0.132448
0.064485 0.087251 0.132265
0.067353 0.088167 0.131838
0.074922 0.089052 0.131533
0.086702 0.090059 0.131289
0.103548 0.090944 0.131472
0.127016 0.091402 0.131441
0.156710 0.090730 0.131350
0.192691 0.087739 0.130861
0.233829 0.081666 0.130282
0.279179 0.070466 0.129152
0.327581 0.044923 0.127901
0.378332 0.000000 0.126009
0.430884 0.000000 0.123842
0.484108 0.000000 0.121035
0.537072 0.000000 0.117952
0.588983 0.000000 0.114290
0.642878 0.000000 0.110414
0.693355 0.000000 0.107088
0.740444 0.000000 0.104768
0.783627 0.000000 0.104891
0.822629 0.000000 0.106966
0.857786 0.095674 0.112490
0.889097 0.145113 0.121736
0.916869 0.186099 0.134401
0.941619 0.224430 0.151339
0.963775 0.261418 0.171908
0.983642 0.297826 0.197024
1.000000 0.334691 0.226993
1.000000 0.372808 0.262058
1.000000 0.413275 0.303441
0.063447 0.090608 0.133822
0.063813 0.090852 0.133974
0.064546 0.091096 0.133455
0.066957 0.091127 0.133425
0.073671 0.093294 0.132540
0.087037 0.095735 0.131685
0.104952 0.097230 0.131472
0.128328 0.098421 0.131044
0.158022 0.099062 0.130648
0.192905 0.098329 0.130098
0.233616 0.094697 0.129274
0.278386 0.088136 0.128206
0.326207 0.077668 0.126467
0.376837 0.059998 0.124483
0.429023 0.005493 0.121950
0.482307 0.000000 0.118959
0.535454 0.000000 0.115633
0.588220 0.000000 0.111604
0.642084 0.000000 0.107393
0.691920 0.000000 0.103456
0.738460 0.000000 0.100801
0.781399 0.000000 0.100252
0.820462 0.084382 0.102144
0.855772 0.129152 0.107485
0.887388 0.167422 0.116365
0.915465 0.203555 0.129702
0.940398 0.238071 0.146578
0.962707 0.272313 0.167636
0.982727 0.306645 0.193240
1.000000 0.341863 0.222965
1.000000 0.378576 0.258396
1.000000 0.417700 0.299809
0.062989 0.096254 0.136080
0.063233 0.097047 0.136202
0.064820 0.097444 0.135988
0.066651 0.097841 0.134951
0.072175 0.098604 0.134493
0.084291 0.102449 0.133089
0.106142 0.107271 0.131868
0.130465 0.109529 0.131167
0.160098 0.110262 0.130434
0.194858 0.111147 0.129397
0.235080 0.110475 0.128206
0.279118 0.108003 0.126619
0.326665 0.103304 0.124483
0.376745 0.094911 0.122286
0.428870 0.083345 0.119478
0.481819 0.067933 0.116030
0.534905 0.040589 0.112154
0.589105 0.009613 0.107393
0.642084 0.006195 0.102541
0.691768 0.032807 0.097932
0.738247 0.074067 0.094820
0.781247 0.104433 0.093385
0.842649 0.161227 0.096437
0.875212 0.190768 0.104005
0.903838 0.219669 0.115877
0.929168 0.248478 0.131411
0.951690 0.277317 0.150668
0.971893 0.306371 0.173678
0.990173 0.336736 0.200015
1.000000 0.368414 0.231205
1.000000 0.402106 0.267338
1.000000 0.438575 0.309850
0.061219 0.107088 0.139803
0.062257 0.107485 0.139590
0.063569 0.108583 0.139528
0.066041 0.109621 0.137942
0.071870 0.109560 0.137392
0.082246 0.112459 0.136049
0.102785 0.119265 0.133730
0.135439 0.127291 0.131319
0.166476 0.129305 0.130373
0.202426 0.130129 0.129061
0.242496 0.129702 0.127626
0.286961 0.129274 0.125734
0.334295 0.127504 0.123507
0.384436 0.124269 0.120516
0.435615 0.120424 0.116701
0.487648 0.115785 0.112337
0.540764 0.112795 0.106783
0.596765 0.111788 0.100954
0.649378 0.116976 0.094759
0.699489 0.127535 0.088960
0.746853 0.143648 0.084504
0.791257 0.165103 0.082582
0.831724 0.189670 0.085023
0.867674 0.215732 0.092653
0.898985 0.242191 0.105013
0.925750 0.268620 0.121523
0.949126 0.294987 0.141909
0.969787 0.321752 0.165011
0.988434 0.349584 0.192416
1.000000 0.378820 0.223850
1.000000 0.410651 0.260716
1.000000 0.445014 0.302922
0.058381 0.122072 0.144778
0.059449 0.122621 0.144564
0.061250 0.123720 0.144472
0.065919 0.125826 0.143984
0.070802 0.125765 0.140749
0.080964 0.125277 0.140475
0.097810 0.132143 0.137911
0.126314 0.141573 0.134524
0.169100 0.152834 0.130648
0.205295 0.154604 0.129183
0.245670 0.155245 0.127230
0.288731 0.154116 0.125124
0.334997 0.153170 0.122499
0.384131 0.152956 0.119326
0.434974 0.152132 0.115694
0.486641 0.151583 0.110780
0.541924 0.153170 0.104952
0.595819 0.157259 0.097292
0.647272 0.164675 0.088563
0.696559 0.175631 0.078553
0.743496 0.188846 0.072084
0.787625 0.205722 0.068635
0.828000 0.225650 0.069795
0.864012 0.247349 0.077638
0.895598 0.269780 0.091157
0.922759 0.292912 0.109133
0.946502 0.315892 0.130892
0.967590 0.339849 0.155489
0.986572 0.365087 0.183536
1.000000 0.391943 0.215549
1.000000 0.421393 0.252750
1.000000 0.453864 0.295598
0.050080 0.142763 0.151675
0.052674 0.143557 0.151461
0.057069 0.144625 0.151217
0.063569 0.146639 0.150698
0.068391 0.148287 0.146731
0.080323 0.147494 0.145418
0.094697 0.148074 0.144564
0.119112 0.158511 0.140475
0.156069 0.170565 0.135317
0.209140 0.185916 0.129397
0.250034 0.187411 0.127047
0.293584 0.187533 0.124544
0.338811 0.186526 0.121553
0.385504 0.184085 0.117678
0.435554 0.184970 0.113832
0.489723 0.187686 0.108583
0.543359 0.191623 0.102144
0.596063 0.197177 0.094484
0.646296 0.204898 0.085298
0.694972 0.215427 0.074861
0.741360 0.229374 0.061616
0.785092 0.245670 0.035096
0.825345 0.262394 0.035096
0.861326 0.280888 0.053071
0.893034 0.300267 0.072572
0.920439 0.319738 0.093568
0.944457 0.340063 0.117067
0.965759 0.360998 0.143954
0.984955 0.383459 0.173281
1.000000 0.407874 0.206332
1.000000 0.434760 0.244022
1.000000 0.464851 0.287572
0.035309 0.168948 0.160433
0.041108 0.169680 0.160342
0.047944 0.170535 0.160128
0.059541 0.172702 0.159579
0.070069 0.175479 0.157992
0.078401 0.175174 0.152316
0.095216 0.174105 0.151614
0.114748 0.177798 0.149264
0.146395 0.190951 0.143587
0.190860 0.205600 0.136599
0.253269 0.224704 0.127260
0.297856 0.225925 0.124056
0.343542 0.225711 0.120668
0.391211 0.225254 0.116304
0.441596 0.224674 0.111208
0.492622 0.225162 0.105165
0.545800 0.230442 0.098268
0.597803 0.236851 0.090120
0.647456 0.245121 0.080781
0.695155 0.255375 0.069184
0.740597 0.267704 0.053285
0.783108 0.281987 0.021546
0.822416 0.297826 0.000000
0.857847 0.314092 0.000000
0.889433 0.330358 0.024628
0.917113 0.347112 0.070130
0.941588 0.364813 0.099611
0.963439 0.383490 0.129610
0.983124 0.403632 0.161349
1.000000 0.425757 0.196262
1.000000 0.450507 0.235111
1.000000 0.478553 0.279606
0.017304 0.199344 0.171084
0.023163 0.200076 0.170871
0.032746 0.200961 0.170626
0.052033 0.203128 0.170199
0.070161 0.206210 0.169894
0.077089 0.207370 0.162844
0.095216 0.206394 0.160403
0.115358 0.204837 0.159274
0.141146 0.213443 0.154910
0.179507 0.229221 0.147677
0.230564 0.245945 0.138003
0.299535 0.267887 0.125093
0.351141 0.271824 0.119539
0.400305 0.272374 0.114809
0.449653 0.272435 0.108827
0.498726 0.271794 0.102327
0.547356 0.271122 0.094057
0.596979 0.276036 0.084993
0.645930 0.284062 0.074678
0.693233 0.293523 0.062348
0.738216 0.305180 0.035248
0.780636 0.318090 0.002930
0.819883 0.332433 0.000000
0.855406 0.347570 0.000000
0.887053 0.362799 0.000000
0.914855 0.377111 0.006500
0.939452 0.392035 0.075441
0.961486 0.407965 0.111635
0.981323 0.425605 0.146609
0.999298 0.445197 0.183444
1.000000 0.467384 0.224247
1.000000 0.492866 0.269535
0.000000 0.234501 0.183749
0.004944 0.235142 0.183536
0.016541 0.236118 0.183383
0.042542 0.237858 0.183230
0.068177 0.240970 0.182895
0.084138 0.243595 0.179446
0.094392 0.243076 0.171450
0.117617 0.241520 0.170169
0.140566 0.239384 0.168704
0.173007 0.254246 0.161807
0.218448 0.273014 0.152468
0.277165 0.293584 0.139986
0.369726 0.333989 0.121248
0.429145 0.340459 0.111086
0.479774 0.340185 0.103700
0.529259 0.339574 0.095064
0.576928 0.338903 0.085206
0.622644 0.338476 0.072755
0.665522 0.337987 0.057710
0.710536 0.346380 0.029725
0.753201 0.356023 0.000000
0.792996 0.367071 0.000000
0.829679 0.378546 0.000000
0.862974 0.390600 0.000000
0.892821 0.402869 0.000000
0.919402 0.415381 0.000000
0.942962 0.427375 0.025544
0.964111 0.440406 0.094759
0.983276 0.455024 0.135714
1.000000 0.471595 0.175418
1.000000 0.490913 0.217807
1.000000 0.513603 0.264744
0.000000 0.277623 0.199771
0.000000 0.278202 0.199680
0.000000 0.278752 0.199466
0.029908 0.280247 0.199069
0.067597 0.282628 0.198764
0.092470 0.285679 0.198367
0.098604 0.285557 0.187137
0.120760 0.283726 0.183474
0.146670 0.282689 0.182071
0.174014 0.285283 0.179782
0.215091 0.306340 0.170901
0.269078 0.329442 0.159182
0.335912 0.353948 0.143160
0.419898 0.383764 0.119020
0.484260 0.393744 0.103548
0.533867 0.393133 0.094270
0.581353 0.392157 0.082918
0.626062 0.390936 0.069245
0.668055 0.389288 0.050599
0.708461 0.388922 0.009400
0.748684 0.392584 0.000000
0.788479 0.401953 0.000000
0.825162 0.411933 0.000000
0.858640 0.422339 0.000000
0.888701 0.433021 0.000000
0.915557 0.443854 0.000000
0.939635 0.454658 0.000000
0.961242 0.465766 0.054505
0.980804 0.478279 0.112551
0.998627 0.492775 0.157565
1.000000 0.509789 0.202853
1.000000 0.530144 0.251804
0.000000 0.318639 0.215885
0.000000 0.319097 0.215702
0.000000 0.319646 0.215579
0.020661 0.321080 0.215396
0.067720 0.323796 0.215274
0.095766 0.327214 0.215000
0.113008 0.329564 0.209323
0.123568 0.328893 0.198428
0.152071 0.327276 0.196689
0.179812 0.325719 0.195132
0.211856 0.334112 0.190311
0.258549 0.357122 0.179690
0.317327 0.381537 0.165713
0.387488 0.406317 0.146395
0.471595 0.435431 0.117494
0.538872 0.447852 0.095064
0.585687 0.445777 0.083406
0.629572 0.443214 0.070100
0.670741 0.440558 0.050019
0.710414 0.439124 0.009461
0.748714 0.438544 0.000000
0.785061 0.439002 0.000000
0.821103 0.445655 0.000000
0.854826 0.454749 0.000000
0.885191 0.464088 0.000000
0.912322 0.473396 0.000000
0.936706 0.482765 0.000000
0.958770 0.492592 0.000000
0.978698 0.503166 0.081300
0.996887 0.515618 0.137179
1.000000 0.530480 0.186465
1.000000 0.548608 0.238193
0.000000 0.366217 0.235172
0.000000 0.366827 0.235233
0.000000 0.367285 0.235050
0.017243 0.368536 0.234958
0.071107 0.370367 0.234440
0.101381 0.372869 0.234012
0.130495 0.376257 0.233646
0.132937 0.375463 0.218173
0.157168 0.373510 0.212955
0.186587 0.371588 0.211002
0.215518 0.369390 0.208621
0.253452 0.384802 0.201358
0.304692 0.408789 0.189029
0.367193 0.433600 0.172702
0.439185 0.457954 0.150210
0.521782 0.485359 0.117159
0.591150 0.500084 0.087343
0.633967 0.495827 0.073945
0.674342 0.491920 0.058717
0.713252 0.488930 0.019562
0.750576 0.486915 0.000000
0.786099 0.486030 0.000000
0.819425 0.485817 0.000000
0.850889 0.486976 0.000000
0.881529 0.495033 0.000000
0.909117 0.503227 0.000000
0.933989 0.511711 0.000000
0.956603 0.520562 0.000000
0.977356 0.529839 0.009339
0.996002 0.540795 0.113069
1.000000 0.554009 0.170687
1.000000 0.570275 0.226322
0.000000 0.414435 0.256138
0.000000 0.414984 0.256107
0.000000 0.415595 0.256046
0.024933 0.416693 0.255863
0.077455 0.418433 0.255589
0.109285 0.420844 0.255222
0.139773 0.423926 0.254826
0.153841 0.425025 0.245640
0.164004 0.423743 0.231449
0.194766 0.421027 0.229160
0.224887 0.418067 0.226596
0.254276 0.414710 0.223880
0.297948 0.436378 0.213169
0.352636 0.459815 0.198764
0.416785 0.483131 0.180240
0.488533 0.505882 0.155673
0.566094 0.529076 0.121065
0.638300 0.547417 0.084260
0.678431 0.542412 0.070192
0.717037 0.538567 0.050690
0.753994 0.535607 0.008637
0.789090 0.533562 0.000000
0.821805 0.532250 0.000000
0.852354 0.531456 0.000000
0.880491 0.531243 0.000000
0.907256 0.534722 0.000000
0.932311 0.541955 0.000000
0.955047 0.549523 0.000000
0.975860 0.557702 0.015991
0.995056 0.566308 0.077790
1.000000 0.577417 0.150362
1.000000 0.591272 0.210513
0.000000 0.461189 0.277897
0.000000 0.461585 0.277653
0.000000 0.461830 0.277653
0.046357 0.462745 0.277348
0.086152 0.464302 0.277134
0.117861 0.466224 0.276738
0.148745 0.468879 0.276432
0.175296 0.471351 0.273442
0.177401 0.470192 0.255070
0.201602 0.467689 0.247898
0.232853 0.464424 0.245121
0.263279 0.460792 0.242039
0.295598 0.462776 0.237156
0.343450 0.485451 0.224979
0.400824 0.508080 0.209232
0.465553 0.530083 0.189731
0.536461 0.551537 0.163760
0.609979 0.572015 0.128481
0.682551 0.591852 0.088319
0.720302 0.586511 0.075715
0.756405 0.582238 0.059449
0.790646 0.578820 0.025177
0.822751 0.576135 0.000000
0.852720 0.574212 0.000000
0.880400 0.572869 0.000000
0.905913 0.572015 0.000000
0.929625 0.571862 0.000000
0.952514 0.577569 0.000000
0.973632 0.584588 0.018921
0.993103 0.592157 0.078737
1.000000 0.600977 0.123201
1.000000 0.613031 0.192477
0.000000 0.508232 0.301610
0.000000 0.508904 0.301732
0.040467 0.524498 0.309911
0.078126 0.525078 0.309636
0.107912 0.526024 0.308995
0.137392 0.527214 0.308415
0.168215 0.528801 0.307713
0.199527 0.530755 0.306706
0.208865 0.529992 0.292119
0.217655 0.527642 0.274693
0.249821 0.523674 0.271427
0.281193 0.519097 0.267826
0.311376 0.513878 0.263584
0.348302 0.521447 0.255528
0.399390 0.542931 0.242069
0.458564 0.563958 0.224857
0.523552 0.584039 0.204013
0.591424 0.602777 0.177493
0.660883 0.620630 0.142306
0.731106 0.639704 0.103243
0.765225 0.633326 0.092470
0.797787 0.627863 0.081361
0.828397 0.623468 0.070069
0.856840 0.619623 0.058595
0.882994 0.616358 0.035462
0.907225 0.613581 0.017334
0.929747 0.611536 0.003723
0.951049 0.610498 0.000000
0.971405 0.611597 0.020142
0.991028 0.618067 0.082246
1.000000 0.625360 0.114870
1.000000 0.634882 0.170687
0.029145 0.558495 0.329442
0.056001 0.560815 0.330480
0.072663 0.563134 0.331640
0.095918 0.565606 0.332341
0.122683 0.567834 0.332799
0.151492 0.569635 0.332708
0.181338 0.571160 0.332067
0.212039 0.572900 0.331273
0.234836 0.573754 0.324773
0.235569 0.571923 0.303044
0.259312 0.568475 0.293797
0.291081 0.563867 0.289830
0.321843 0.558679 0.285496
0.351476 0.552758 0.280552
0.393591 0.566735 0.270298
0.446357 0.586725 0.255924
0.505150 0.605798 0.238621
0.567895 0.623957 0.217502
0.633173 0.641077 0.191745
0.699184 0.657496 0.158602
0.766293 0.675807 0.123262
0.799619 0.670558 0.113558
0.829648 0.665034 0.105959
0.857511 0.660243 0.099825
0.883207 0.655879 0.094026
0.907042 0.652216 0.088685
0.929229 0.649256 0.085908
0.950134 0.647150 0.086671
0.970092 0.646174 0.089998
0.989136 0.646174 0.096712
1.000000 0.650294 0.120851
1.000000 0.657679 0.153536
0.079774 0.602258 0.355688
0.088899 0.604334 0.356909
0.099733 0.606439 0.358068
0.119203 0.608545 0.358831
0.142885 0.610376 0.359258
0.169955 0.611780 0.359106
0.198306 0.613031 0.358618
0.228305 0.614313 0.357733
0.259892 0.615900 0.357122
0.264317 0.614618 0.338476
0.271672 0.612543 0.318944
0.303563 0.608270 0.314702
0.334356 0.603235 0.310155
0.364477 0.597711 0.305180
0.393713 0.591882 0.299687
0.440803 0.610681 0.287449
0.493568 0.628717 0.272801
0.551080 0.646021 0.255528
0.611688 0.662470 0.235019
0.674159 0.678157 0.210147
0.736263 0.692988 0.179324
0.798215 0.709163 0.150088
0.831510 0.705623 0.140444
0.858640 0.699855 0.135225
0.883696 0.694484 0.131502
0.906920 0.689723 0.128084
0.928618 0.685603 0.126741
0.949126 0.682551 0.127474
0.968658 0.680537 0.131258
0.987396 0.679530 0.137789
1.000000 0.679896 0.147494
1.000000 0.681514 0.161166
0.114992 0.644373 0.383734
0.122194 0.646174 0.385077
0.131441 0.647883 0.386053
0.147341 0.649744 0.386999
0.168704 0.651301 0.387457
0.192935 0.652369 0.387335
0.220005 0.653285 0.386999
0.248417 0.654170 0.386328
0.279149 0.655207 0.385840
0.296757 0.655024 0.376196
0.296910 0.653498 0.353216
0.318303 0.650019 0.342260
0.348791 0.645380 0.337652
0.378790 0.640253 0.332555
0.407935 0.634485 0.326787
0.440772 0.635126 0.319646
0.488838 0.652796 0.307713
0.541711 0.669825 0.293980
0.598413 0.686275 0.277897
0.657343 0.701778 0.258854
0.716884 0.716518 0.236179
0.775479 0.730312 0.209018
0.831876 0.744167 0.184604
0.863920 0.741756 0.177005
0.888151 0.735592 0.174105
0.910582 0.729854 0.173007
0.931487 0.724910 0.172610
0.951324 0.720699 0.174197
0.970245 0.717708 0.177676
0.988373 0.715816 0.183963
1.000000 0.715084 0.193851
1.000000 0.715755 0.206973
0.159213 0.690303 0.418341
0.164797 0.691035 0.418769
0.171176 0.691676 0.419165
0.183871 0.692348 0.419532
0.201938 0.693050 0.419409
0.223484 0.693477 0.419409
0.248631 0.694026 0.419043
0.276036 0.694575 0.418891
0.305547 0.695430 0.418799
0.336431 0.696223 0.418555
0.336278 0.695186 0.397375
0.341405 0.693446 0.376165
0.370794 0.689174 0.371527
0.399725 0.684352 0.366125
0.428046 0.679042 0.360327
0.455940 0.673274 0.354101
0.492256 0.679530 0.345312
0.539513 0.695186 0.333898
0.590814 0.710262 0.320317
0.644587 0.724544 0.304906
0.699855 0.737789 0.286778
0.754726 0.750240 0.265324
0.808164 0.761746 0.240085
0.858244 0.772793 0.218692
0.888579 0.770626 0.211185
0.910369 0.764096 0.209934
0.930877 0.758328 0.209689
0.950256 0.753536 0.211337
0.968780 0.749722 0.215427
0.986572 0.747005 0.221469
1.000000 0.745602 0.231266
1.000000 0.745266 0.243473
0.199222 0.727047 0.448707
0.203677 0.727779 0.449287
0.209415 0.728420 0.449866
0.220829 0.728969 0.450172
0.236881 0.729427 0.450324
0.256504 0.729610 0.450446
0.279423 0.729824 0.450172
0.304753 0.729885 0.450324
0.333104 0.730220 0.450599
0.363073 0.730556 0.451209
0.375189 0.730159 0.439338
0.374701 0.729061 0.416846
0.392432 0.726131 0.405188
0.419928 0.721798 0.399817
0.447059 0.717128 0.394141
0.474067 0.712154 0.388159
0.500450 0.706813 0.381659
0.540063 0.717800 0.372381
0.586358 0.731991 0.361761
0.635645 0.745541 0.349126
0.686702 0.758145 0.334783
0.738125 0.769894 0.318242
0.788876 0.780758 0.298833
0.837705 0.790677 0.275822
0.880400 0.797421 0.252720
0.909422 0.795773 0.245853
0.929442 0.789425 0.246159
0.948455 0.783932 0.247715
0.966674 0.779477 0.251316
0.984192 0.776181 0.258030
1.000000 0.774105 0.267491
1.000000 0.773220 0.280156
0.248508 0.765347 0.484382
0.252781 0.766049 0.484962
0.257603 0.766476 0.485542
0.267155 0.766629 0.485878
0.280949 0.766598 0.485786
0.298466 0.766354 0.485786
0.319036 0.765988 0.485786
0.342290 0.765591 0.485847
0.368078 0.765103 0.486152
0.396033 0.764584 0.486793
0.419928 0.763973 0.484443
0.418311 0.762753 0.463752
0.420172 0.761044 0.442298
0.444770 0.756863 0.436835
0.469215 0.752255 0.430671
0.493721 0.747280 0.424018
0.518181 0.742031 0.417090
0.543877 0.738308 0.409888
0.584955 0.751431 0.400732
0.629419 0.764096 0.390692
0.676112 0.776089 0.379400
0.723720 0.787076 0.366186
0.771176 0.797086 0.350652
0.817288 0.806088 0.332036
0.861051 0.814237 0.310338
0.901457 0.821286 0.291539
0.929046 0.819974 0.286046
0.947417 0.813748 0.287297
0.965087 0.808621 0.290471
0.982208 0.804685 0.296941
0.998657 0.801785 0.305882
1.000000 0.800351 0.318822
0.292393 0.795529 0.515282
0.296452 0.796109 0.515984
0.301061 0.796445 0.516655
0.309575 0.796567 0.517052
0.321965 0.796414 0.517235
0.337926 0.796109 0.517571
0.357214 0.795682 0.517998
0.379004 0.795193 0.518761
0.403571 0.794675 0.519707
0.429969 0.794156 0.521477
0.458167 0.793545 0.523705
0.464515 0.792813 0.510765
0.462654 0.792020 0.489723
0.475410 0.789456 0.477485
0.497688 0.785641 0.471901
0.519951 0.781460 0.465492
0.542535 0.777096 0.458900
0.565667 0.772671 0.452399
0.593591 0.773892 0.445380
0.632929 0.785489 0.437537
0.674525 0.796384 0.428229
0.717525 0.806455 0.417731
0.760861 0.815610 0.405127
0.803525 0.823880 0.390539
0.844816 0.831357 0.373358
0.884337 0.838193 0.353216
0.920989 0.843931 0.334752
0.947143 0.843046 0.331640
0.964324 0.837461 0.334997
0.980835 0.832853 0.341192
0.996826 0.829435 0.350225
1.000000 0.827481 0.363348
0.342107 0.824125 0.548638
0.345281 0.824460 0.549187
0.349096 0.824552 0.549523
0.356573 0.824399 0.549889
0.367285 0.824033 0.550225
0.381811 0.823514 0.550713
0.398962 0.822873 0.551324
0.419226 0.822141 0.552422
0.442054 0.821439 0.554253
0.466926 0.820737 0.556573
0.493294 0.819913 0.559380
0.511406 0.819303 0.556603
0.509697 0.818814 0.538537
0.510185 0.817960 0.519585
0.529412 0.814755 0.514214
0.549157 0.811276 0.508507
0.569238 0.807553 0.502190
0.589990 0.803708 0.495766
0.611261 0.800015 0.489418
0.640803 0.804959 0.483070
0.677272 0.814878 0.475837
0.715450 0.824063 0.467567
0.754299 0.832517 0.457832
0.793149 0.840177 0.446174
0.831174 0.847135 0.432258
0.868254 0.853483 0.416236
0.904051 0.859312 0.397406
0.937896 0.864408 0.379736
0.962524 0.863645 0.377478
0.978515 0.858518 0.382940
0.994049 0.854612 0.391882
1.000000 0.852232 0.405249
0.391485 0.848722 0.581079
0.394171 0.848875 0.581628
0.397742 0.848875 0.581933
0.404395 0.848753 0.582452
0.414954 0.848447 0.583398
0.428717 0.848142 0.584680
0.445869 0.847898 0.586725
0.466041 0.847654 0.589288
0.488411 0.847410 0.592523
0.512566 0.847227 0.596582
0.537987 0.846983 0.600977
0.563928 0.846616 0.605798
0.566339 0.846738 0.593591
0.565698 0.846830 0.577203
0.575097 0.845396 0.567102
0.591974 0.842710 0.562158
0.609522 0.839841 0.556939
0.627405 0.836820 0.551385
0.646113 0.833829 0.545861
0.665339 0.830869 0.540337
0.694667 0.838041 0.535119
0.726986 0.846128 0.528801
0.760250 0.853605 0.521447
0.793881 0.860441 0.512535
0.827420 0.866667 0.501915
0.860441 0.872435 0.489448
0.893065 0.877745 0.474495
0.924895 0.882536 0.456306
0.955779 0.886992 0.439094
0.978180 0.885863 0.437964
0.993011 0.881559 0.446815
1.000000 0.878752 0.460517
0.454475 0.874052 0.621027
0.456855 0.874113 0.621454
0.459571 0.874022 0.621790
0.465431 0.873716 0.622339
0.474189 0.873259 0.623163
0.486030 0.872679 0.624384
0.500542 0.872068 0.626184
0.517571 0.871427 0.628443
0.536797 0.870756 0.631373
0.557702 0.870024 0.634913
0.579583 0.869261 0.638849
0.602350 0.868437 0.643305
0.614099 0.867979 0.639796
0.612818 0.868009 0.625544
