data/fiter_cube/89100697/1022669/file.cube
# Created by Adobe Lightroom plugin Export LUT (1.17.0)
# www.johnrellis.com/lightroom/exportlut.htm
# Preset: VSCO胶片_03 云集
# Color profile: C:\Program Files (x86)\Common Files\Adobe\Color\Profiles\Recommended\AdobeRGB1998.icc
LUT_3D_SIZE 5
DOMAIN_MIN 0.000000 0.000000 0.000000
DOMAIN_MAX 0.903226 0.903226 0.903226
0.100221 0.110628 0.082033
0.249577 0.105684 0.074220
0.630426 0.000000 0.000000
0.907561 0.054871 0.000000
1.000000 0.249973 0.000000
0.100649 0.206394 0.099489
0.215457 0.230838 0.070741
0.586206 0.243137 0.000000
0.891478 0.296086 0.000000
1.000000 0.362463 0.000000
0.028809 0.444831 0.129000
0.168551 0.432227 0.115877
0.524681 0.538506 0.000000
0.844541 0.564630 0.000000
1.000000 0.578820 0.000000
0.000000 0.719234 0.187716
0.137392 0.712245 0.153384
0.404669 0.698543 0.119966
0.789853 0.792294 0.000000
1.000000 0.798062 0.000000
0.280125 0.937438 0.390356
0.301946 0.936828 0.349462
0.487984 0.924010 0.334142
0.717647 0.931975 0.284794
0.954986 0.954955 0.000000
0.100008 0.113252 0.208530
0.250950 0.092348 0.214572
0.642634 0.000000 0.174228
0.906218 0.000000 0.166537
1.000000 0.245090 0.112825
0.114168 0.219364 0.199557
0.243046 0.238560 0.205173
0.612451 0.236820 0.185336
0.892363 0.284520 0.146456
1.000000 0.356451 0.082643
0.139742 0.467872 0.248905
0.216342 0.464881 0.220951
0.537682 0.538994 0.158450
0.839292 0.550286 0.089906
1.000000 0.575433 0.000000
0.180179 0.731197 0.322484
0.199161 0.726650 0.260472
0.419471 0.698360 0.231022
0.794461 0.792996 0.075288
1.000000 0.793942 0.000000
0.367437 0.935698 0.481727
0.371679 0.935698 0.441627
0.508598 0.927245 0.404547
0.720851 0.931304 0.365148
0.955322 0.955230 0.165469
0.000000 0.112795 0.504601
0.283482 0.072999 0.521202
0.640925 0.000000 0.540795
0.906340 0.000000 0.493538
1.000000 0.212650 0.459174
0.000000 0.235966 0.484840
0.265446 0.240116 0.503471
0.635248 0.180758 0.530663
0.899260 0.213382 0.489174
1.000000 0.436133 0.519463
0.114839 0.509087 0.471931
0.288701 0.523674 0.482704
0.593164 0.560601 0.489601
0.859556 0.573724 0.484565
1.000000 0.594720 0.477821
0.261051 0.758175 0.526909
0.364874 0.755856 0.528954
0.510948 0.739864 0.481392
0.805966 0.798032 0.466407
0.990234 0.782254 0.433631
0.475807 0.934905 0.644373
0.528893 0.932494 0.649897
0.566400 0.931548 0.581903
0.722438 0.923339 0.545739
0.951141 0.953765 0.480995
0.142184 0.089601 0.788937
0.342870 0.000000 0.795804
0.668940 0.000000 0.819913
0.883238 0.000000 0.796201
1.000000 0.228061 0.739681
0.097810 0.247257 0.778775
0.325078 0.242435 0.786343
0.658350 0.246647 0.811398
0.877073 0.251347 0.791958
1.000000 0.386358 0.745815
0.000000 0.523308 0.745205
0.235721 0.522789 0.747341
0.612512 0.563256 0.777676
0.854490 0.595209 0.783597
0.997803 0.644465 0.771542
0.286503 0.786313 0.744594
0.403021 0.788815 0.748836
0.635981 0.791867 0.760250
0.818601 0.807980 0.765805
0.977783 0.808011 0.768307
0.549767 0.941619 0.795163
0.591455 0.939727 0.797726
0.692226 0.935302 0.803159
0.760006 0.928923 0.758785
0.945373 0.952667 0.753658
0.351568 0.133242 0.964996
0.452338 0.118532 0.965728
0.675380 0.127901 0.968383
0.879088 0.271580 0.971862
1.000000 0.296239 0.934295
0.343359 0.285588 0.961456
0.446235 0.286595 0.962249
0.671595 0.313878 0.964904
0.875578 0.419165 0.968505
1.000000 0.426459 0.933806
0.213901 0.528649 0.948577
0.365301 0.533532 0.949920
0.651911 0.583429 0.952544
0.861570 0.656153 0.959014
0.986084 0.656031 0.934630
0.323339 0.788510 0.933196
0.407141 0.787076 0.933013
0.587274 0.780209 0.933257
0.821927 0.811185 0.944274
0.970184 0.839841 0.940337
0.548913 0.956054 0.926116
0.590753 0.954650 0.926390
0.704616 0.953521 0.930144
0.835904 0.950652 0.934478
0.951202 0.955718 0.942870
