data/fiter_cube/89100697/1022669/file.cube
# Created by Adobe Lightroom plugin Export LUT (1.17.0)
# www.johnrellis.com/lightroom/exportlut.htm
# Preset: VSCO胶片_03 云集
# Color profile: C:\Program Files (x86)\Common Files\Adobe\Color\Profiles\Recommended\AdobeRGB1998.icc
LUT_3D_SIZE 32
DOMAIN_MIN 0.0 0.0 0.0
DOMAIN_MAX 1.0 1.0 1.0
0.100221 0.110628 0.082033
0.104555 0.110658 0.081880
0.110506 0.111116 0.081605
0.125154 0.111543 0.080964
0.148989 0.111849 0.080079
0.177310 0.111666 0.078614
0.210880 0.109957 0.076875
0.249577 0.105684 0.074220
0.293614 0.097383 0.070741
0.342718 0.083101 0.065736
0.396735 0.053986 0.057588
0.454139 0.000000 0.037598
0.513146 0.000000 0.008331
0.572625 0.000000 0.000000
0.630426 0.000000 0.000000
0.684413 0.000000 0.000000
0.732296 0.000000 0.000000
0.776089 0.000000 0.000000
0.815122 0.000000 0.000000
0.849577 0.000000 0.000000
0.880156 0.000000 0.000000
0.907561 0.054871 0.000000
0.932250 0.109316 0.000000
0.954620 0.144778 0.000000
0.975372 0.172000 0.000000
0.994812 0.195254 0.000000
1.000000 0.216190 0.000000
1.000000 0.234134 0.000000
1.000000 0.249973 0.000000
1.000000 0.263584 0.000000
1.000000 0.275242 0.000000
1.000000 0.284489 0.000000
0.100465 0.113771 0.082551
0.103944 0.114412 0.081758
0.109926 0.114870 0.081483
0.124788 0.115938 0.080751
0.148257 0.116976 0.079774
0.176577 0.116823 0.078004
0.210086 0.115053 0.076295
0.248386 0.111238 0.073976
0.291936 0.104128 0.070130
0.341070 0.091646 0.065095
0.394751 0.069917 0.057923
0.451820 0.001709 0.036896
0.510796 0.000000 0.007599
0.570275 0.000000 0.000000
0.627985 0.000000 0.000000
0.682124 0.000000 0.000000
0.730129 0.000000 0.000000
0.774136 0.000000 0.000000
0.812985 0.000000 0.000000
0.847440 0.000000 0.000000
0.878141 0.000000 0.000000
0.905760 0.075105 0.000000
0.930571 0.119478 0.000000
0.953185 0.151125 0.000000
0.974060 0.177340 0.000000
0.993591 0.200473 0.000000
1.000000 0.219944 0.000000
1.000000 0.237736 0.000000
1.000000 0.253513 0.000000
1.000000 0.266789 0.000000
1.000000 0.278233 0.000000
1.000000 0.287297 0.000000
0.100923 0.118318 0.083833
0.103243 0.118654 0.083406
0.108827 0.119600 0.081849
0.124147 0.121828 0.080964
0.146944 0.122957 0.080018
0.175021 0.123354 0.078218
0.208591 0.121798 0.076173
0.246860 0.118349 0.073518
0.290074 0.112337 0.070008
0.338872 0.102052 0.064973
0.392401 0.085145 0.056733
0.449439 0.053590 0.036347
0.508507 0.000000 0.006836
0.567864 0.000000 0.000000
0.625452 0.000000 0.000000
0.680049 0.000000 0.000000
0.728206 0.000000 0.000000
0.772274 0.000000 0.000000
0.811368 0.000000 0.000000
0.845731 0.000000 0.000000
0.876707 0.028962 0.000000
0.904448 0.097627 0.000000
0.929412 0.132784 0.000000
0.952148 0.161318 0.000000
0.973144 0.185702 0.000000
0.992798 0.206973 0.000000
1.000000 0.226535 0.000000
1.000000 0.243503 0.000000
1.000000 0.258335 0.000000
1.000000 0.271641 0.000000
1.000000 0.282506 0.000000
1.000000 0.291386 0.000000
0.101472 0.128634 0.086030
0.103822 0.128939 0.085328
0.107912 0.129366 0.085145
0.121675 0.132845 0.081086
0.146029 0.136263 0.079042
0.171695 0.135561 0.078553
0.204410 0.135286 0.076478
0.242832 0.132876 0.073457
0.286381 0.128817 0.069429
0.335424 0.121065 0.063813
0.388647 0.109895 0.054292
0.445350 0.093599 0.032715
0.504265 0.068757 0.003998
0.563287 0.007416 0.000000
0.621393 0.000000 0.000000
0.676112 0.000000 0.000000
0.724697 0.000000 0.000000
0.769406 0.000000 0.000000
0.808316 0.000000 0.000000
0.842863 0.062409 0.000000
0.873930 0.100679 0.000000
0.901915 0.131319 0.000000
0.927214 0.157870 0.000000
0.950286 0.182162 0.000000
0.971710 0.203159 0.000000
0.991699 0.222690 0.000000
1.000000 0.240238 0.000000
1.000000 0.256107 0.000000
1.000000 0.270207 0.000000
1.000000 0.282017 0.000000
1.000000 0.292119 0.000000
1.000000 0.300359 0.000000
0.101900 0.144320 0.089265
0.104128 0.144442 0.087770
0.107973 0.144503 0.087617
0.117861 0.146365 0.085817
0.139315 0.151492 0.080079
0.171633 0.156222 0.075959
0.200778 0.153811 0.075898
0.236362 0.151949 0.073884
0.279454 0.149722 0.069856
0.327581 0.145968 0.064546
0.380896 0.139315 0.053712
0.438239 0.130282 0.031006
0.497353 0.119203 0.000000
0.556847 0.105806 0.000000
0.615106 0.094514 0.000000
0.670466 0.087251 0.000000
0.720424 0.087587 0.000000
0.765682 0.097780 0.000000
0.804807 0.111971 0.000000
0.839658 0.130648 0.000000
0.871000 0.150393 0.000000
0.899290 0.170565 0.000000
0.924834 0.191226 0.000000
0.948241 0.210605 0.000000
0.969848 0.228336 0.000000
0.990112 0.245121 0.000000
1.000000 0.260349 0.000000
1.000000 0.274266 0.000000
1.000000 0.287022 0.000000
1.000000 0.297673 0.000000
1.000000 0.306645 0.000000
1.000000 0.313909 0.000000
0.101564 0.162295 0.091981
0.103090 0.162325 0.089754
0.107301 0.162203 0.089906
0.115541 0.161624 0.089723
0.131807 0.166476 0.085695
0.160403 0.173526 0.078462
0.201907 0.181033 0.071565
0.234989 0.177798 0.071260
0.271519 0.173526 0.070497
0.318639 0.172366 0.064759
0.371527 0.170199 0.054078
0.428321 0.166262 0.029694
0.487343 0.161563 0.000000
0.547723 0.155886 0.000000
0.606928 0.151888 0.000000
0.663600 0.151003 0.000000
0.715602 0.154269 0.000000
0.761074 0.160861 0.000000
0.800595 0.170382 0.000000
0.835996 0.182712 0.000000
0.867826 0.196658 0.000000
0.896635 0.211948 0.000000
0.930175 0.235477 0.000000
0.953094 0.250553 0.000000
0.974182 0.264866 0.000000
0.993896 0.278355 0.000000
1.000000 0.290745 0.000000
1.000000 0.302098 0.000000
1.000000 0.312078 0.000000
1.000000 0.320958 0.000000
1.000000 0.328099 0.000000
1.000000 0.333806 0.000000
0.101045 0.183200 0.095277
0.101839 0.183200 0.092378
0.105898 0.182986 0.092287
0.114717 0.182559 0.092348
0.127382 0.183352 0.091463
0.150210 0.191226 0.084901
0.186435 0.200717 0.075227
0.238163 0.212650 0.063386
0.275700 0.208652 0.062409
0.316564 0.204685 0.060243
0.363134 0.201419 0.052644
0.419928 0.201511 0.025910
0.479286 0.201114 0.000000
0.539696 0.200351 0.000000
0.599298 0.200443 0.000000
0.657527 0.203616 0.000000
0.711086 0.208682 0.000000
0.757565 0.214511 0.000000
0.798154 0.222141 0.000000
0.834409 0.231907 0.000000
0.867094 0.243595 0.000000
0.896788 0.256199 0.000000
0.923644 0.269871 0.000000
0.948028 0.282719 0.000000
0.970306 0.295659 0.000000
0.990814 0.307012 0.000000
1.000000 0.317754 0.000000
1.000000 0.327367 0.000000
1.000000 0.336004 0.000000
1.000000 0.343481 0.000000
1.000000 0.349279 0.000000
1.000000 0.353887 0.000000
0.100649 0.206394 0.099489
0.100954 0.206394 0.096223
0.104891 0.206149 0.095644
0.113375 0.205478 0.095766
0.125826 0.204623 0.095796
0.143404 0.209232 0.092012
0.172519 0.219303 0.083497
0.215457 0.230838 0.070741
0.277501 0.247929 0.044709
0.318791 0.244450 0.039277
0.363195 0.240635 0.031617
0.409888 0.236576 0.018067
0.465064 0.236759 0.000000
0.525414 0.239628 0.000000
0.586206 0.243137 0.000000
0.646418 0.248936 0.000000
0.700526 0.255131 0.000000
0.747860 0.261295 0.000000
0.789334 0.268223 0.000000
0.826810 0.276402 0.000000
0.860807 0.285435 0.000000
0.891478 0.296086 0.000000
0.918975 0.307012 0.000000
0.943877 0.317937 0.000000
0.966613 0.328649 0.000000
0.987549 0.338415 0.000000
1.000000 0.347356 0.000000
1.000000 0.355291 0.000000
1.000000 0.362463 0.000000
1.000000 0.368444 0.000000
1.000000 0.373327 0.000000
1.000000 0.376715 0.000000
0.099794 0.232761 0.103853
0.100374 0.232761 0.100984
0.103304 0.232578 0.099763
0.112001 0.231815 0.099672
0.124514 0.230716 0.099763
0.139590 0.229343 0.099763
0.163790 0.239292 0.092195
0.199496 0.251621 0.081544
0.249027 0.265202 0.063966
0.321569 0.288762 0.000000
0.366369 0.285771 0.000000
0.413184 0.282414 0.000000
0.461433 0.279149 0.000000
0.511070 0.275975 0.000000
0.573175 0.282780 0.000000
0.633326 0.290410 0.000000
0.688472 0.297795 0.000000
0.736934 0.304784 0.000000
0.779690 0.311406 0.000000
0.818509 0.318578 0.000000
0.853391 0.327092 0.000000
0.885008 0.336126 0.000000
0.913420 0.345495 0.000000
0.939117 0.354589 0.000000
0.962646 0.363256 0.000000
0.984131 0.370947 0.000000
1.000000 0.378576 0.000000
1.000000 0.384985 0.000000
1.000000 0.390845 0.000000
1.000000 0.395575 0.000000
1.000000 0.399268 0.000000
1.000000 0.401709 0.000000
0.097444 0.262089 0.107942
0.098024 0.261997 0.105470
0.100465 0.261631 0.103182
0.109773 0.260868 0.103120
0.122866 0.259648 0.103273
0.138308 0.258000 0.103151
0.157992 0.260838 0.100435
0.188815 0.273228 0.090944
0.231022 0.287572 0.076631
0.286564 0.303380 0.046571
0.369360 0.333623 0.000000
0.416663 0.331090 0.000000
0.466468 0.329351 0.000000
0.516289 0.327581 0.000000
0.565759 0.325719 0.000000
0.618189 0.328283 0.000000
0.675105 0.337652 0.000000
0.725246 0.345373 0.000000
0.769467 0.352483 0.000000
0.809323 0.359747 0.000000
0.845457 0.367376 0.000000
0.877836 0.375189 0.000000
0.906920 0.383215 0.000000
0.933227 0.390784 0.000000
0.957305 0.398047 0.000000
0.979492 0.404608 0.000000
1.000000 0.410773 0.000000
1.000000 0.415839 0.000000
1.000000 0.420447 0.000000
1.000000 0.424140 0.000000
1.000000 0.426886 0.000000
1.000000 0.428382 0.000000
0.093812 0.293523 0.112367
0.094514 0.293462 0.109560
0.095918 0.293278 0.106722
0.106050 0.292454 0.106691
0.119753 0.291142 0.106661
0.136446 0.289250 0.106416
0.154910 0.287144 0.106508
0.181033 0.296178 0.099672
0.218051 0.310796 0.087312
0.266728 0.327245 0.067720
0.328588 0.346044 0.003021
0.421515 0.383032 0.000000
0.472053 0.382452 0.000000
0.521538 0.380591 0.000000
0.570184 0.379187 0.000000
0.617487 0.377935 0.000000
0.662165 0.376471 0.000000
0.710933 0.382544 0.000000
0.756863 0.390356 0.000000
0.798489 0.397711 0.000000
0.835966 0.405219 0.000000
0.869535 0.412604 0.000000
0.899748 0.419989 0.000000
0.927001 0.426734 0.000000
0.951843 0.433295 0.000000
0.974670 0.439002 0.000000
0.995819 0.444007 0.000000
1.000000 0.448310 0.000000
1.000000 0.451759 0.000000
1.000000 0.454078 0.000000
1.000000 0.455482 0.000000
1.000000 0.455940 0.000000
0.088106 0.327733 0.116670
0.088746 0.327489 0.113832
0.089845 0.327245 0.110292
0.100526 0.326390 0.110109
0.115724 0.325017 0.109682
0.133486 0.323125 0.109712
0.153231 0.320653 0.109285
0.175204 0.319951 0.107881
0.208713 0.335241 0.096986
0.252567 0.352728 0.079866
0.308049 0.371923 0.041535
0.375067 0.392584 0.000000
0.483009 0.441688 0.000000
0.537621 0.444129 0.000000
0.586084 0.442420 0.000000
0.632624 0.440742 0.000000
0.675654 0.438270 0.000000
0.714565 0.434668 0.000000
0.751339 0.432105 0.000000
0.793668 0.439582 0.000000
0.831846 0.446693 0.000000
0.865843 0.453468 0.000000
0.896269 0.459876 0.000000
0.923857 0.465644 0.000000
0.949004 0.471015 0.000000
0.972076 0.475776 0.000000
0.993530 0.479713 0.000000
1.000000 0.482826 0.000000
1.000000 0.485145 0.000000
1.000000 0.486671 0.000000
1.000000 0.487068 0.000000
1.000000 0.486275 0.000000
0.078553 0.365667 0.120272
0.079469 0.365484 0.117952
0.080629 0.365118 0.114199
0.091768 0.364172 0.112612
0.109285 0.362432 0.112367
0.129305 0.360662 0.112184
0.150973 0.358434 0.111971
0.173678 0.355596 0.111757
0.202152 0.362249 0.105837
0.242100 0.379950 0.090730
0.292912 0.399847 0.066377
0.355047 0.421607 0.000000
0.427955 0.444709 0.000000
0.528710 0.486915 0.000000
0.589044 0.495552 0.000000
0.635431 0.493935 0.000000
0.677699 0.490639 0.000000
0.715877 0.486244 0.000000
0.750973 0.481514 0.000000
0.784207 0.477516 0.000000
0.819516 0.479561 0.000000
0.855192 0.486610 0.000000
0.887022 0.492988 0.000000
0.915740 0.498665 0.000000
0.941863 0.503899 0.000000
0.965820 0.508232 0.000000
0.988037 0.511772 0.000000
1.000000 0.514702 0.000000
1.000000 0.516564 0.000000
1.000000 0.517449 0.000000
1.000000 0.517418 0.000000
1.000000 0.516167 0.000000
0.064607 0.404822 0.124605
0.065888 0.404669 0.121981
0.067689 0.404334 0.118563
0.079072 0.403388 0.115114
0.100649 0.401648 0.114931
0.123201 0.399451 0.114748
0.147280 0.396735 0.114321
0.171511 0.393530 0.113924
0.196658 0.389868 0.113466
0.232547 0.404852 0.101167
0.278782 0.424292 0.081270
0.334936 0.445808 0.027314
0.401099 0.468544 0.000000
0.476326 0.492134 0.000000
0.573999 0.531853 0.000000
0.638727 0.545953 0.000000
0.680049 0.541802 0.000000
0.717525 0.536492 0.000000
0.752102 0.530877 0.000000
0.784726 0.526207 0.000000
0.815549 0.522026 0.000000
0.844572 0.518944 0.000000
0.877165 0.524529 0.000000
0.907164 0.530571 0.000000
0.934417 0.535729 0.000000
0.959350 0.540154 0.000000
0.982391 0.543542 0.000000
1.000000 0.546166 0.000000
1.000000 0.547753 0.000000
1.000000 0.548394 0.000000
1.000000 0.547967 0.000000
1.000000 0.546349 0.000000
0.028809 0.444831 0.129000
0.032197 0.444770 0.126253
0.036988 0.444282 0.122683
0.059937 0.443153 0.117525
0.088380 0.441291 0.117037
0.115511 0.438788 0.117037
0.141939 0.435767 0.116457
0.168551 0.432227 0.115877
0.194919 0.428290 0.115419
0.224399 0.429938 0.111025
0.266758 0.448707 0.094148
0.318547 0.469734 0.065827
0.379309 0.491981 0.000000
0.448737 0.515038 0.000000
0.524681 0.538506 0.000000
0.617334 0.574975 0.000000
0.683009 0.591852 0.000000
0.719631 0.585534 0.000000
0.753597 0.579156 0.000000
0.785672 0.573571 0.000000
0.816037 0.568688 0.000000
0.844541 0.564630 0.000000
0.871244 0.561212 0.000000
0.897887 0.560723 0.000000
0.926421 0.566247 0.000000
0.952453 0.570977 0.000000
0.976440 0.574578 0.000000
0.998779 0.577234 0.000000
1.000000 0.578820 0.000000
1.000000 0.579339 0.000000
1.000000 0.578759 0.000000
1.000000 0.576806 0.000000
0.000000 0.485023 0.134066
0.000000 0.484932 0.131319
0.000000 0.484596 0.127504
0.002289 0.483558 0.119936
0.071290 0.481758 0.119875
0.105562 0.479286 0.119356
0.135500 0.476356 0.118837
0.164614 0.472999 0.118288
0.193149 0.468849 0.117433
0.220951 0.464149 0.116396
0.257328 0.474128 0.106020
0.305241 0.494148 0.083284
0.361089 0.515190 0.022156
0.425177 0.537255 0.000000
0.495857 0.559686 0.000000
0.570397 0.582177 0.000000
0.655726 0.613581 0.000000
0.721920 0.633112 0.000000
0.755520 0.626001 0.000000
0.787259 0.619715 0.000000
0.817136 0.614282 0.000000
0.845243 0.609369 0.000000
0.871611 0.605249 0.000000
0.896483 0.601709 0.000000
0.920226 0.598749 0.000000
0.945708 0.601007 0.000000
0.970642 0.604883 0.000000
0.993744 0.607691 0.000000
1.000000 0.609247 0.000000
1.000000 0.609644 0.000000
1.000000 0.608728 0.000000
1.000000 0.606531 0.000000
0.000000 0.524376 0.138613
0.000000 0.524132 0.136049
0.000000 0.523766 0.132753
0.000000 0.522881 0.124269
0.031922 0.521050 0.122805
0.092195 0.518761 0.122316
0.127840 0.515709 0.121553
0.159487 0.512169 0.120607
0.190188 0.508110 0.120058
0.219608 0.503471 0.118990
0.248722 0.498390 0.117586
0.293523 0.517510 0.098756
0.345586 0.537865 0.068360
0.405188 0.559075 0.000000
0.471321 0.580682 0.000000
0.541100 0.601801 0.000000
0.612177 0.622065 0.000000
0.690364 0.648859 0.000000
0.757504 0.671443 0.000000
0.788571 0.664271 0.000000
0.817929 0.657984 0.000000
0.845487 0.652308 0.000000
0.871489 0.647272 0.000000
0.896086 0.643030 0.000000
0.919615 0.639246 0.000000
0.942107 0.636133 0.000000
0.963989 0.633509 0.000000
0.988037 0.636591 0.000000
1.000000 0.638422 0.000000
1.000000 0.638941 0.000000
1.000000 0.638117 0.000000
1.000000 0.635828 0.000000
0.000000 0.563775 0.145388
0.000000 0.563592 0.142153
0.000000 0.569940 0.139895
0.000000 0.569055 0.130953
0.000000 0.567224 0.127169
0.075166 0.564660 0.126497
0.119570 0.561395 0.125612
0.155673 0.557519 0.124605
0.189151 0.553246 0.123690
0.220676 0.548455 0.122469
0.251255 0.542992 0.121096
0.286870 0.546441 0.113375
0.336461 0.565698 0.089326
0.392676 0.585809 0.031678
0.454627 0.606073 0.000000
0.520195 0.625635 0.000000
0.587457 0.644648 0.000000
0.654841 0.662837 0.000000
0.726162 0.685206 0.000000
0.792996 0.709895 0.000000
0.821286 0.702480 0.000000
0.848051 0.695735 0.000000
0.873320 0.689754 0.000000
0.897307 0.684474 0.000000
0.920195 0.679713 0.000000
0.942168 0.675349 0.000000
0.963348 0.671382 0.000000
0.983978 0.667750 0.000000
1.000000 0.666590 0.000000
1.000000 0.667262 0.000000
1.000000 0.666468 0.000000
1.000000 0.664179 0.000000
0.000000 0.605005 0.152834
0.000000 0.605585 0.150210
0.000000 0.606134 0.146609
0.000000 0.606195 0.138277
0.000000 0.605280 0.131136
0.044648 0.603235 0.130800
0.109010 0.600214 0.129549
0.149752 0.596704 0.128664
0.185824 0.592554 0.127535
0.219059 0.587976 0.126162
0.251133 0.582666 0.124178
0.282170 0.576837 0.122530
0.325811 0.589288 0.106508
0.378790 0.608301 0.077028
0.436774 0.627039 0.000000
0.498665 0.645411 0.000000
0.562402 0.663233 0.000000
0.626703 0.680415 0.000000
0.690730 0.697047 0.000000
0.755917 0.716121 0.000000
0.822416 0.742733 0.000000
0.848692 0.735409 0.000000
0.873533 0.728878 0.000000
0.897276 0.722896 0.000000
0.919890 0.717433 0.000000
0.941680 0.712490 0.000000
0.962707 0.707912 0.000000
0.983185 0.703548 0.000000
1.000000 0.699458 0.000000
1.000000 0.695247 0.000000
1.000000 0.693965 0.000000
1.000000 0.691829 0.000000
0.000000 0.643336 0.161654
0.000000 0.643824 0.159213
0.000000 0.644312 0.155459
0.000000 0.644373 0.147250
0.000000 0.643702 0.137209
0.000000 0.641810 0.136385
0.097414 0.639185 0.135378
0.143435 0.635859 0.133852
0.182284 0.632258 0.132601
0.218204 0.627893 0.130556
0.251835 0.623072 0.128878
0.284337 0.617700 0.126833
0.317510 0.614374 0.122072
0.367987 0.631952 0.099794
0.422919 0.649378 0.061799
0.481331 0.666468 0.000000
0.541680 0.683192 0.000000
0.603143 0.699214 0.000000
0.664698 0.714809 0.000000
0.724941 0.729885 0.000000
0.784665 0.745907 0.000000
0.849699 0.773648 0.000000
0.874174 0.766415 0.000000
0.897490 0.759884 0.000000
0.919860 0.753780 0.000000
0.941314 0.748165 0.000000
0.962158 0.742824 0.000000
0.982391 0.737881 0.000000
1.000000 0.733059 0.000000
1.000000 0.728176 0.000000
1.000000 0.723079 0.000000
1.000000 0.718471 0.000000
0.000000 0.680476 0.173129
0.000000 0.681025 0.170840
0.000000 0.681392 0.166629
0.000000 0.681544 0.158938
0.000000 0.681025 0.145449
0.000000 0.679408 0.144717
0.086275 0.676967 0.143465
0.138582 0.674067 0.141878
0.180514 0.670558 0.140078
0.217624 0.666773 0.138308
0.252873 0.662348 0.135775
0.286687 0.657404 0.133425
0.319066 0.651759 0.130434
0.359350 0.656458 0.119509
0.411688 0.672602 0.093568
0.467323 0.688563 0.035462
0.525139 0.704311 0.000000
0.584100 0.719600 0.000000
0.643427 0.734432 0.000000
0.702144 0.748684 0.000000
0.758907 0.762448 0.000000
0.813077 0.775753 0.000000
0.875273 0.802731 0.000000
0.899687 0.796994 0.000000
0.921721 0.790402 0.000000
0.942931 0.784176 0.000000
0.963439 0.778195 0.000000
0.983398 0.772549 0.000000
1.000000 0.766964 0.000000
1.000000 0.761349 0.000000
1.000000 0.755489 0.000000
1.000000 0.749722 0.000000
0.000000 0.719234 0.187716
0.000000 0.719417 0.185550
0.000000 0.719478 0.182254
0.000000 0.719234 0.174289
0.000000 0.718532 0.160678
0.000000 0.716915 0.155947
0.080232 0.714839 0.154757
0.137392 0.712245 0.153384
0.180728 0.709316 0.151369
0.219974 0.705837 0.148898
0.256260 0.702113 0.146609
0.291325 0.697719 0.144198
0.324865 0.692714 0.140932
0.357214 0.687098 0.137331
0.404669 0.698543 0.119966
0.457923 0.713191 0.091981
0.513024 0.727504 0.019379
0.569329 0.741512 0.000000
0.625971 0.755032 0.000000
0.682216 0.768032 0.000000
0.737209 0.780484 0.000000
0.789853 0.792294 0.000000
0.839414 0.803738 0.000000
0.897704 0.828489 0.000000
0.922026 0.823697 0.000000
0.942870 0.816892 0.000000
0.963165 0.810422 0.000000
0.982940 0.804196 0.000000
1.000000 0.798062 0.000000
1.000000 0.791897 0.000000
1.000000 0.785763 0.000000
1.000000 0.779904 0.000000
0.000000 0.753994 0.204440
0.000000 0.754177 0.202701
0.000000 0.754238 0.199283
0.000000 0.753994 0.191958
0.000000 0.753475 0.179294
0.000000 0.752285 0.170565
0.080232 0.750393 0.169223
0.138827 0.748043 0.167361
0.183536 0.745296 0.165347
0.223484 0.742153 0.162875
0.260349 0.738796 0.160708
0.296086 0.734859 0.157687
0.330175 0.730404 0.154238
0.363592 0.725429 0.150759
0.399298 0.723964 0.143893
0.450202 0.737240 0.123934
0.502953 0.750393 0.095216
0.556786 0.763302 0.019501
0.611200 0.775723 0.000000
0.665217 0.787686 0.000000
0.718502 0.799100 0.000000
0.769894 0.809964 0.000000
0.818570 0.820462 0.000000
0.864408 0.830442 0.000000
0.918425 0.852049 0.000000
0.942626 0.847990 0.000000
0.962646 0.840970 0.000000
0.982177 0.834287 0.000000
1.000000 0.827726 0.000000
1.000000 0.821256 0.000000
1.000000 0.815000 0.000000
1.000000 0.809110 0.000000
0.000000 0.789670 0.226352
0.000000 0.789853 0.224338
0.000000 0.789853 0.220798
0.000000 0.789609 0.213840
0.000000 0.789090 0.202396
0.000000 0.788113 0.189425
0.093965 0.786282 0.187961
0.147921 0.783993 0.185885
0.191501 0.781460 0.183932
0.230716 0.778470 0.181155
0.267979 0.775204 0.178836
0.303441 0.771572 0.175509
0.337926 0.767514 0.172213
0.371588 0.762997 0.168215
0.403967 0.758022 0.163912
0.445411 0.762203 0.152804
0.495644 0.773800 0.132204
0.546929 0.785214 0.104158
0.598840 0.796445 0.050813
0.650721 0.807279 0.000000
0.702022 0.817685 0.000000
0.751797 0.827634 0.000000
0.799374 0.837034 0.000000
0.844236 0.845975 0.000000
0.886595 0.854337 0.000000
0.936889 0.873045 0.000000
0.962768 0.870970 0.000000
0.981994 0.863737 0.000000
1.000000 0.856718 0.000000
1.000000 0.849943 0.000000
1.000000 0.843503 0.000000
1.000000 0.837552 0.000000
0.000000 0.821592 0.249454
0.000000 0.821805 0.247410
0.000000 0.821866 0.244480
0.000000 0.821714 0.238346
0.009216 0.821256 0.227237
0.035401 0.820706 0.212589
0.114565 0.819150 0.209567
0.162356 0.817258 0.207584
0.203647 0.815030 0.205570
0.241825 0.812589 0.203250
0.278386 0.809812 0.200534
0.313939 0.806729 0.197726
0.348516 0.803342 0.194369
0.382177 0.799496 0.190555
0.415045 0.795407 0.186923
0.446784 0.790799 0.182254
0.493385 0.799741 0.167788
0.542290 0.809873 0.148074
0.591852 0.819791 0.122927
0.641444 0.829404 0.083436
0.690455 0.838621 0.000000
0.738338 0.847440 0.000000
0.784421 0.855772 0.000000
0.827939 0.863676 0.000000
0.869230 0.871122 0.000000
0.908659 0.878019 0.000000
0.954833 0.893004 0.000000
0.982422 0.892668 0.000000
1.000000 0.885283 0.000000
1.000000 0.878233 0.000000
1.000000 0.871489 0.000000
1.000000 0.865446 0.000000
0.101198 0.852934 0.276982
0.103487 0.853056 0.275364
0.104860 0.853056 0.272648
0.106996 0.852903 0.266911
0.110201 0.852476 0.256992
0.114290 0.851987 0.243290
0.143618 0.850828 0.235660
0.184482 0.849149 0.233951
0.221958 0.847196 0.231846
0.257908 0.845121 0.229526
0.293309 0.842710 0.227024
0.327977 0.840146 0.224704
0.361791 0.837278 0.221592
0.395392 0.834073 0.218265
0.427924 0.830533 0.214298
0.459754 0.826688 0.210361
0.494636 0.825986 0.203494
0.541039 0.834745 0.188968
0.587976 0.843351 0.170626
0.635065 0.851713 0.147066
0.681788 0.859800 0.114717
0.727474 0.867460 0.052735
0.771603 0.874723 0.000000
0.813687 0.881651 0.000000
0.853635 0.888121 0.000000
0.891936 0.894163 0.000000
0.929107 0.899687 0.000000
0.971954 0.911559 0.000000
1.000000 0.912444 0.000000
1.000000 0.904997 0.000000
1.000000 0.898009 0.000000
1.000000 0.891844 0.000000
0.160098 0.882170 0.308598
0.160800 0.882261 0.306737
0.161563 0.882261 0.304173
0.163333 0.882170 0.299321
0.165530 0.881987 0.290623
0.168002 0.881804 0.278233
0.181399 0.881407 0.267277
0.215457 0.880308 0.266056
0.249424 0.879088 0.265049
0.282994 0.877714 0.263706
0.316655 0.876066 0.261875
0.350286 0.874266 0.260319
0.383337 0.872160 0.258061
0.416022 0.869749 0.255406
0.447974 0.866972 0.252506
0.479377 0.863828 0.249027
0.509972 0.860563 0.245274
0.548302 0.863645 0.236271
0.592340 0.870817 0.222385
0.636378 0.877836 0.205631
0.680140 0.884520 0.184634
0.723110 0.890929 0.157778
0.764767 0.896971 0.119173
0.804715 0.902678 0.022095
0.842893 0.908080 0.000000
0.879698 0.913115 0.000000
0.915496 0.917723 0.000000
0.950500 0.921782 0.000000
0.990173 0.930541 0.000000
1.000000 0.932006 0.000000
1.000000 0.924559 0.000000
1.000000 0.917998 0.000000
0.221988 0.912016 0.348547
0.222477 0.912078 0.346929
0.223148 0.912047 0.345068
0.223575 0.911955 0.339940
0.225071 0.911803 0.332158
0.226963 0.911589 0.321416
0.229587 0.911467 0.307500
0.256168 0.910399 0.305577
0.285039 0.909148 0.304356
0.314855 0.907774 0.303105
0.345159 0.906157 0.301427
0.375921 0.904417 0.299718
0.406806 0.902464 0.297642
0.437537 0.900298 0.295415
