data/fiter_cube/89100697/1022669/file.cube
# Created by Adobe Lightroom plugin Export LUT (1.17.0)
# www.johnrellis.com/lightroom/exportlut.htm
# Preset: VSCO胶片_03 云集
# Color profile: C:\Program Files (x86)\Common Files\Adobe\Color\Profiles\Recommended\AdobeRGB1998.icc
LUT_3D_SIZE 8
DOMAIN_MIN 0.000000 0.000000 0.000000
DOMAIN_MAX 0.903226 0.903226 0.903226
0.100221 0.110628 0.082033
0.148989 0.111849 0.080079
0.293614 0.097383 0.070741
0.513146 0.000000 0.008331
0.732296 0.000000 0.000000
0.880156 0.000000 0.000000
0.975372 0.172000 0.000000
1.000000 0.249973 0.000000
0.101900 0.144320 0.089265
0.139315 0.151492 0.080079
0.279454 0.149722 0.069856
0.497353 0.119203 0.000000
0.720424 0.087587 0.000000
0.871000 0.150393 0.000000
0.969848 0.228336 0.000000
1.000000 0.287022 0.000000
0.099794 0.232761 0.103853
0.124514 0.230716 0.099763
0.249027 0.265202 0.063966
0.461433 0.279149 0.000000
0.688472 0.297795 0.000000
0.853391 0.327092 0.000000
0.962646 0.363256 0.000000
1.000000 0.390845 0.000000
0.078553 0.365667 0.120272
0.109285 0.362432 0.112367
0.202152 0.362249 0.105837
0.427955 0.444709 0.000000
0.677699 0.490639 0.000000
0.819516 0.479561 0.000000
0.941863 0.503899 0.000000
1.000000 0.516564 0.000000
0.000000 0.524376 0.138613
0.031922 0.521050 0.122805
0.190188 0.508110 0.120058
0.345586 0.537865 0.068360
0.612177 0.622065 0.000000
0.817929 0.657984 0.000000
0.919615 0.639246 0.000000
1.000000 0.638422 0.000000
0.000000 0.680476 0.173129
0.000000 0.681025 0.145449
0.180514 0.670558 0.140078
0.319066 0.651759 0.130434
0.525139 0.704311 0.000000
0.758907 0.762448 0.000000
0.921721 0.790402 0.000000
1.000000 0.766964 0.000000
0.000000 0.821592 0.249454
0.009216 0.821256 0.227237
0.203647 0.815030 0.205570
0.348516 0.803342 0.194369
0.493385 0.799741 0.167788
0.690455 0.838621 0.000000
0.869230 0.871122 0.000000
1.000000 0.885283 0.000000
0.280125 0.937438 0.390356
0.282506 0.937377 0.376165
0.326574 0.935790 0.348455
0.436316 0.930480 0.344182
0.545708 0.919951 0.330694
0.680446 0.927428 0.300389
0.824277 0.943969 0.210697
0.954986 0.954955 0.000000
0.101991 0.111818 0.128634
0.148440 0.107729 0.129915
0.294560 0.078431 0.114199
0.510338 0.000000 0.109041
0.729915 0.000000 0.065431
0.875181 0.000000 0.000000
0.972107 0.162661 0.000000
1.000000 0.244511 0.000000
0.102846 0.146212 0.124086
0.146792 0.153902 0.127535
0.285252 0.151766 0.122225
0.499245 0.119661 0.105531
0.721218 0.078584 0.051545
0.868589 0.142092 0.000000
0.967468 0.221622 0.000000
1.000000 0.281529 0.000000
0.118471 0.239231 0.144930
0.143343 0.241764 0.139498
0.258244 0.267704 0.119051
0.459998 0.274846 0.096437
0.689174 0.294804 0.000000
0.851164 0.321355 0.000000
0.958740 0.356268 0.000000
1.000000 0.385840 0.000000
0.119295 0.373663 0.168826
0.129671 0.372747 0.149752
0.214481 0.365209 0.144350
0.429084 0.440772 0.065492
0.667140 0.478004 0.000000
0.814359 0.472816 0.000000
0.937865 0.497444 0.000000
1.000000 0.512078 0.000000
0.086213 0.531518 0.188693
0.095644 0.528222 0.165438
0.204318 0.514427 0.155154
0.350164 0.535698 0.123873
0.610925 0.618006 0.000000
0.813626 0.651545 0.000000
0.916533 0.634058 0.000000
1.000000 0.635859 0.000000
0.000000 0.682368 0.218631
0.027131 0.680659 0.196078
0.192660 0.671046 0.173983
0.326360 0.652827 0.163455
0.526085 0.702144 0.085023
0.759640 0.761563 0.000000
0.920287 0.787869 0.000000
1.000000 0.764340 0.000000
0.117433 0.819516 0.285740
0.122896 0.818204 0.265537
0.212589 0.813169 0.231601
0.353063 0.802335 0.220798
0.493690 0.797055 0.198154
0.689418 0.836545 0.106569
0.867826 0.869139 0.000000
0.998901 0.882933 0.000000
0.303593 0.935424 0.415991
0.306096 0.935607 0.402930
0.333349 0.934905 0.366918
0.440284 0.929747 0.362280
0.552178 0.921874 0.354009
0.682094 0.927459 0.325048
0.824002 0.943359 0.243900
0.954406 0.954284 0.000000
0.095521 0.113558 0.243168
0.149691 0.110567 0.247349
0.297307 0.076173 0.251499
0.525689 0.000000 0.240940
0.749630 0.000000 0.203037
0.883665 0.000000 0.221714
0.976013 0.165225 0.205234
1.000000 0.251102 0.180270
0.097108 0.153567 0.238315
0.152407 0.156222 0.242527
0.295384 0.139162 0.247562
0.520439 0.000000 0.232547
0.741024 0.000000 0.226780
0.877379 0.120150 0.216617
0.972107 0.222843 0.199130
1.000000 0.286656 0.174258
0.116945 0.251682 0.230838
0.163516 0.258305 0.235569
0.285557 0.276066 0.237552
0.495308 0.278416 0.229404
0.714748 0.289464 0.215061
0.861692 0.317754 0.198917
0.962524 0.355901 0.181399
1.000000 0.386603 0.155032
0.136782 0.394873 0.258305
0.180240 0.399542 0.261540
0.261234 0.399481 0.246067
0.456275 0.452155 0.219394
0.671504 0.467811 0.193149
0.828336 0.477974 0.175998
0.944152 0.498909 0.154635
1.000000 0.510674 0.119539
0.150332 0.552422 0.292088
0.195071 0.554376 0.293523
0.250217 0.547173 0.255131
0.375280 0.545312 0.237797
0.629328 0.626459 0.185580
0.814572 0.645686 0.138827
0.916045 0.627222 0.127260
1.000000 0.635584 0.101961
0.191165 0.697810 0.338323
0.216312 0.697169 0.331060
0.239841 0.690364 0.273747
0.360052 0.670527 0.258427
0.536584 0.703243 0.228489
0.765347 0.762661 0.157992
0.918242 0.783047 0.060060
1.000000 0.760464 0.050202
0.260777 0.825834 0.402258
0.263676 0.824735 0.387579
0.269718 0.821439 0.329747
0.380163 0.809781 0.307286
0.500969 0.794430 0.286290
0.692958 0.835935 0.247105
0.870695 0.870542 0.158450
0.998596 0.881651 0.000000
0.391730 0.933867 0.507500
0.389624 0.933806 0.495125
0.393072 0.933898 0.454353
0.462623 0.930907 0.429206
0.564965 0.922942 0.417243
0.684810 0.925536 0.396338
0.824369 0.942840 0.340917
0.954589 0.954589 0.213230
0.022461 0.114290 0.409827
0.143771 0.110140 0.415259
0.325719 0.062348 0.432441
0.524498 0.000000 0.436469
0.744839 0.000000 0.431525
0.884947 0.000000 0.392401
0.979065 0.000000 0.363958
1.000000 0.318212 0.417700
0.061250 0.159243 0.405371
0.148318 0.157778 0.410315
0.323156 0.140169 0.427619
0.523491 0.000000 0.433539
0.742611 0.000000 0.425544
0.882444 0.000000 0.388434
0.974609 0.159762 0.382544
1.000000 0.339361 0.411322
0.049775 0.266789 0.387304
0.131380 0.268742 0.390448
0.300999 0.276738 0.409186
0.516411 0.257572 0.421576
0.734737 0.230594 0.406714
0.873198 0.306828 0.406470
0.964172 0.386481 0.415015
1.000000 0.417853 0.398688
0.114961 0.416724 0.385718
0.174197 0.422400 0.389654
0.316472 0.439124 0.402472
0.492500 0.463966 0.400183
0.693141 0.470893 0.392004
0.843198 0.488991 0.388830
0.947509 0.509911 0.385168
1.000000 0.523644 0.374151
0.168307 0.582727 0.419623
0.215305 0.583703 0.420539
0.333928 0.587396 0.423682
0.434028 0.574884 0.394079
0.654536 0.637842 0.382788
0.811337 0.634974 0.363531
0.921050 0.633021 0.356481
1.000000 0.639918 0.350622
0.220279 0.717830 0.452735
0.260899 0.719326 0.455055
0.364630 0.717525 0.456886
0.425391 0.705074 0.405676
0.558007 0.708248 0.383490
0.776791 0.768246 0.370153
0.913573 0.776852 0.348608
0.995819 0.754177 0.335882
0.312535 0.834653 0.508019
0.340826 0.834104 0.509545
0.422248 0.831144 0.513390
0.434638 0.825772 0.441047
0.534447 0.807706 0.413123
0.699092 0.835843 0.396979
0.873014 0.872129 0.369177
0.993835 0.877867 0.332860
0.464302 0.934569 0.606500
0.481849 0.933776 0.608576
0.522210 0.931609 0.605463
0.511192 0.932982 0.538506
0.590326 0.925689 0.516747
0.688685 0.921416 0.497230
0.824002 0.941314 0.467414
0.953216 0.954589 0.397314
0.000000 0.108248 0.597925
0.149477 0.098543 0.602441
0.348455 0.000000 0.616754
0.562768 0.000000 0.637995
0.733761 0.000000 0.630396
0.872923 0.000000 0.602411
0.967590 0.000000 0.568627
1.000000 0.216342 0.547936
0.000000 0.158175 0.592798
0.150271 0.153933 0.597864
0.345190 0.126131 0.612726
0.561212 0.000000 0.636011
0.731930 0.000000 0.627802
0.871214 0.000000 0.600275
0.965850 0.101900 0.569818
1.000000 0.278202 0.552880
0.000000 0.271092 0.572259
0.074372 0.270054 0.578820
0.320653 0.277836 0.596307
0.549981 0.278965 0.624811
0.723568 0.240970 0.616999
0.863096 0.264439 0.592889
0.958373 0.342321 0.575647
1.000000 0.422980 0.572412
0.000000 0.433509 0.556451
0.108400 0.436011 0.558404
0.286137 0.442725 0.566369
0.510948 0.465278 0.595117
0.707454 0.467323 0.600397
0.848783 0.494362 0.592340
0.943847 0.546288 0.603845
1.000000 0.591974 0.618555
0.135378 0.600061 0.558312
0.201694 0.603784 0.561273
0.350317 0.614160 0.570001
0.524010 0.626947 0.584771
0.674983 0.644587 0.578363
0.814237 0.642756 0.572808
0.923583 0.656367 0.576410
1.000000 0.662470 0.573358
0.266728 0.739010 0.585321
0.303563 0.738888 0.586114
0.404120 0.737179 0.588037
0.529442 0.733761 0.593347
0.594263 0.714931 0.550011
0.785214 0.772549 0.563287
0.901884 0.766903 0.546136
0.989288 0.755612 0.538781
0.358343 0.845548 0.619501
0.383886 0.844572 0.620386
0.460121 0.841398 0.623774
0.558495 0.836240 0.628931
0.589075 0.826322 0.568627
0.702144 0.830045 0.546258
0.872526 0.872679 0.553491
0.982971 0.871702 0.535943
0.493172 0.936339 0.686732
0.508629 0.935515 0.687892
0.556451 0.932830 0.691463
0.624018 0.930053 0.696651
0.624903 0.930175 0.631403
0.700038 0.920562 0.606073
0.821195 0.937591 0.594873
0.949340 0.953521 0.566125
0.110964 0.093263 0.757107
0.203769 0.077974 0.759457
0.379004 0.000000 0.766995
0.575219 0.000000 0.782986
0.745266 0.000000 0.794430
0.860319 0.000000 0.768704
0.954528 0.000000 0.736904
1.000000 0.229068 0.705501
0.106508 0.153994 0.751919
0.199435 0.147738 0.754299
0.374487 0.118196 0.762936
0.570733 0.000000 0.779019
0.742397 0.000000 0.791257
0.858030 0.000000 0.766445
0.952575 0.130220 0.736416
1.000000 0.285832 0.707454
0.000000 0.282139 0.741665
0.159976 0.282078 0.744228
0.355108 0.281468 0.753567
0.557946 0.285344 0.769986
0.735866 0.295048 0.785183
0.852201 0.291539 0.762539
0.946410 0.350134 0.738064
1.000000 0.429297 0.717769
0.000000 0.437598 0.716457
0.000000 0.436439 0.716823
0.293889 0.441291 0.729732
0.529961 0.470497 0.751125
0.724453 0.509148 0.774868
0.840391 0.508812 0.758602
0.935454 0.542504 0.746181
1.000000 0.581384 0.736446
0.027039 0.608423 0.708980
0.159701 0.609796 0.709987
0.322850 0.614038 0.713527
0.494636 0.621302 0.719905
0.685817 0.650294 0.746059
0.822141 0.661646 0.749996
0.921447 0.685481 0.752560
0.994049 0.709102 0.757565
0.248264 0.753170 0.710201
0.293065 0.755917 0.713252
0.414954 0.758328 0.717250
0.562707 0.761257 0.724605
0.688808 0.765927 0.735622
0.795407 0.780087 0.732815
0.898405 0.778317 0.731289
0.983368 0.783261 0.736294
0.430335 0.860441 0.737606
0.453986 0.859953 0.738918
0.521050 0.857450 0.741604
0.606134 0.853819 0.745022
0.689143 0.848936 0.746090
0.727443 0.832670 0.700313
0.875059 0.876616 0.721309
0.969848 0.866697 0.707912
0.537530 0.940551 0.774105
0.550835 0.939818 0.774868
0.592706 0.937621 0.777188
0.651759 0.934905 0.780514
0.715175 0.931365 0.781674
0.734005 0.928466 0.732570
0.818296 0.931701 0.715175
0.945953 0.952911 0.719631
0.234714 0.086152 0.877073
0.287938 0.071443 0.878355
0.423194 0.000000 0.881987
0.585840 0.000000 0.888640
0.745174 0.000000 0.897642
0.864134 0.000000 0.900725
0.942870 0.086549 0.867277
1.000000 0.245853 0.832853
0.230716 0.156191 0.874449
0.284337 0.150546 0.875731
0.419562 0.129488 0.879576
0.582605 0.101656 0.886229
0.742397 0.139315 0.895415
0.861906 0.153506 0.898833
0.940703 0.194247 0.866026
1.000000 0.295476 0.832883
0.200259 0.291905 0.868193
0.260594 0.291783 0.869352
0.405127 0.291783 0.873259
0.573297 0.300328 0.880430
0.735409 0.336736 0.890043
0.856260 0.359625 0.895018
0.935363 0.377081 0.865141
1.000000 0.433661 0.837186
0.000000 0.438300 0.853696
0.150668 0.438392 0.855131
0.367468 0.456764 0.860105
0.552667 0.476112 0.868437
0.721859 0.515984 0.879728
0.846342 0.548180 0.888457
0.925933 0.552239 0.864927
0.996735 0.579004 0.844236
0.000000 0.606561 0.838102
0.144289 0.605829 0.838102
0.306798 0.603662 0.838560
0.491676 0.609674 0.845396
0.689662 0.648096 0.862181
0.831540 0.690059 0.879576
0.913725 0.689448 0.864256
0.986175 0.707759 0.853635
0.242649 0.754849 0.832517
0.284184 0.755062 0.832822
0.394842 0.755886 0.833799
0.527611 0.757412 0.835843
0.653803 0.758297 0.839384
0.799649 0.784878 0.861173
0.901640 0.799466 0.864988
0.975769 0.814572 0.866911
0.399145 0.868437 0.832578
0.426093 0.868864 0.833707
0.503807 0.870024 0.837186
0.605310 0.869383 0.840513
0.709804 0.868925 0.845121
0.803128 0.872496 0.854398
0.880797 0.881346 0.853025
0.963104 0.877775 0.854002
0.589258 0.945251 0.854887
0.600732 0.944823 0.855406
0.637385 0.943633 0.857481
0.689418 0.941863 0.860258
0.747707 0.939818 0.863432
0.804929 0.937346 0.865263
0.832303 0.930022 0.832670
0.945922 0.953063 0.847745
0.351568 0.133242 0.964996
0.384771 0.128481 0.965301
0.480629 0.114839 0.965942
0.608667 0.111269 0.967437
0.739925 0.162478 0.969451
0.856596 0.269047 0.971801
0.947051 0.266728 0.971984
1.000000 0.296239 0.934295
0.349981 0.190646 0.963836
0.383185 0.188785 0.964111
0.479347 0.183871 0.964843
0.607355 0.188388 0.966278
0.738705 0.228641 0.968292
0.855070 0.317662 0.970642
0.945312 0.317052 0.970916
1.000000 0.339605 0.933928
0.339025 0.321324 0.960174
0.373053 0.322148 0.960418
0.471931 0.325292 0.961089
0.602869 0.339513 0.962768
0.734798 0.375860 0.964721
0.850431 0.445319 0.967010
0.939818 0.450355 0.967773
0.998444 0.459144 0.933623
0.285161 0.464210 0.953613
0.344121 0.475349 0.953552
0.453559 0.482216 0.954345
0.591821 0.499611 0.956023
0.727474 0.533562 0.958312
0.842374 0.585321 0.961395
0.931151 0.595178 0.963287
0.990631 0.592950 0.934051
0.151400 0.603998 0.941802
0.220920 0.604089 0.942321
0.370184 0.606165 0.943908
0.546075 0.624018 0.946624
0.705501 0.656886 0.949645
0.827176 0.696193 0.954376
0.920409 0.718441 0.958404
0.981476 0.715358 0.935729
0.286381 0.755367 0.934478
0.317144 0.754818 0.934386
0.404425 0.752865 0.934173
0.514214 0.748165 0.934264
0.644312 0.746609 0.936431
0.800137 0.783597 0.944976
0.910338 0.821530 0.954192
0.972442 0.817899 0.939330
0.426032 0.872374 0.929198
0.445472 0.872007 0.929198
0.505089 0.870848 0.929259
0.589563 0.869047 0.929656
0.682521 0.867185 0.930480
0.771633 0.865324 0.931914
0.884398 0.885191 0.943603
0.963684 0.898650 0.943816
0.548913 0.956054 0.926116
0.561883 0.955596 0.926177
0.603998 0.954437 0.926726
0.668513 0.953674 0.928710
0.741634 0.953613 0.931945
0.817227 0.950988 0.933593
0.891447 0.951141 0.939117
0.951202 0.955718 0.942870
