data/fiter_cube/69180065/1023053/file.cube
# Created by Adobe Lightroom plugin Export LUT (1.17.0)
# www.johnrellis.com/lightroom/exportlut.htm
# Preset: 室内文艺胶片_06 云集
# Color profile: C:\Program Files (x86)\Common Files\Adobe\Color\Profiles\Recommended\AdobeRGB1998.icc
LUT_3D_SIZE 32
DOMAIN_MIN 0.0 0.0 0.0
DOMAIN_MAX 1.0 1.0 1.0
0.050965 0.070558 0.066590
0.058473 0.071534 0.066804
0.064729 0.072633 0.066560
0.077272 0.074830 0.066804
0.093996 0.077852 0.067109
0.114290 0.080873 0.067079
0.138918 0.083040 0.066651
0.168124 0.084871 0.065980
0.202029 0.085054 0.065339
0.240574 0.083894 0.063447
0.284611 0.079652 0.060883
0.333684 0.071626 0.055116
0.386633 0.054994 0.042176
0.441871 0.014649 0.023346
0.497292 0.000000 0.000000
0.551202 0.000000 0.000000
0.601892 0.000000 0.000000
0.649165 0.060883 0.000000
0.696437 0.105959 0.000000
0.740444 0.148440 0.000000
0.779538 0.188266 0.000000
0.814603 0.226474 0.000000
0.846006 0.262577 0.000000
0.874266 0.296818 0.000000
0.900084 0.328679 0.000000
0.924071 0.358953 0.000000
0.946685 0.387945 0.000000
0.968109 0.415808 0.000000
0.988525 0.442664 0.000000
1.000000 0.468879 0.000000
1.000000 0.494453 0.000000
1.000000 0.519463 0.000000
0.051240 0.073945 0.067842
0.057008 0.074678 0.067720
0.064271 0.076417 0.067781
0.076875 0.079194 0.067567
0.093721 0.082033 0.067475
0.114107 0.084565 0.067475
0.138735 0.086946 0.067414
0.167636 0.088746 0.066743
0.201358 0.089357 0.066072
0.239933 0.088655 0.064271
0.283818 0.085206 0.061219
0.332677 0.077852 0.055909
0.385290 0.066041 0.044282
0.440345 0.041108 0.025483
0.495613 0.005188 0.001587
0.549310 0.000000 0.000000
0.599878 0.018524 0.000000
0.647211 0.072633 0.000000
0.694331 0.112734 0.000000
0.737850 0.152255 0.000000
0.776852 0.190555 0.000000
0.811948 0.227695 0.000000
0.843473 0.263279 0.000000
0.871977 0.297063 0.000000
0.898009 0.328832 0.000000
0.922179 0.359075 0.000000
0.945006 0.387884 0.000000
0.966613 0.415808 0.000000
0.987213 0.442695 0.000000
1.000000 0.468910 0.000000
1.000000 0.494453 0.000000
1.000000 0.519371 0.000000
0.050568 0.079042 0.069703
0.056336 0.079713 0.069581
0.063111 0.080446 0.069368
0.076143 0.084321 0.069398
0.093172 0.087251 0.068879
0.113893 0.089845 0.068849
0.138582 0.092073 0.068391
0.167361 0.093812 0.067720
0.201236 0.094911 0.066987
0.239597 0.094362 0.065248
0.283452 0.091829 0.062196
0.332158 0.086030 0.057618
0.384802 0.076509 0.046357
0.439765 0.064179 0.027314
0.494911 0.044923 0.003204
0.548577 0.034302 0.000000
0.599176 0.060182 0.000000
0.646387 0.087404 0.000000
0.693477 0.122591 0.000000
0.736660 0.159426 0.000000
0.775631 0.196048 0.000000
0.810727 0.232212 0.000000
0.842283 0.266911 0.000000
0.870848 0.299931 0.000000
0.896941 0.331273 0.000000
0.921233 0.361151 0.000000
0.944121 0.389837 0.000000
0.965820 0.417487 0.000000
0.986542 0.444129 0.000000
1.000000 0.470314 0.000000
1.000000 0.495674 0.000000
1.000000 0.520439 0.000000
0.050935 0.090181 0.074006
0.058320 0.091218 0.074159
0.062165 0.092042 0.073274
0.072847 0.092866 0.073640
0.091249 0.097871 0.072877
0.113771 0.100954 0.071290
0.138705 0.102876 0.070863
0.167880 0.105013 0.070130
0.201663 0.106233 0.068574
0.240330 0.106325 0.067079
0.284001 0.105165 0.064088
0.332799 0.101442 0.059358
0.385168 0.095674 0.049256
0.439887 0.088716 0.030518
0.494942 0.081819 0.005951
0.548486 0.081666 0.000000
0.598871 0.092409 0.000000
0.645960 0.113252 0.000000
0.692714 0.142458 0.000000
0.735164 0.174685 0.000000
0.773648 0.208072 0.000000
0.808591 0.242039 0.000000
0.840360 0.275303 0.000000
0.869291 0.307439 0.000000
0.895872 0.338354 0.000000
0.920592 0.367773 0.000000
0.943755 0.395972 0.000000
0.965637 0.423316 0.000000
0.986358 0.449500 0.000000
1.000000 0.475013 0.000000
1.000000 0.499794 0.000000
1.000000 0.524071 0.000000
0.050385 0.103975 0.079561
0.058442 0.104829 0.080354
0.061097 0.106111 0.079164
0.070161 0.107729 0.078767
0.085237 0.108461 0.078950
0.109163 0.114839 0.077333
0.136812 0.118776 0.075196
0.167849 0.121309 0.073213
0.201968 0.123049 0.071656
0.240757 0.124117 0.069734
0.284489 0.124117 0.066621
0.333318 0.122683 0.061769
0.385809 0.119936 0.053101
0.440467 0.116701 0.034760
0.495491 0.114778 0.009979
0.549004 0.117739 0.000000
0.599603 0.127443 0.000000
0.647364 0.145144 0.000000
0.693660 0.170047 0.000000
0.735500 0.198337 0.000000
0.773404 0.228122 0.000000
0.808072 0.259464 0.000000
0.839597 0.290379 0.000000
0.868528 0.320897 0.000000
0.895140 0.350164 0.000000
0.919921 0.378302 0.000000
0.943114 0.405493 0.000000
0.964965 0.431647 0.000000
0.985687 0.457130 0.000000
1.000000 0.481880 0.000000
1.000000 0.506065 0.000000
1.000000 0.529686 0.000000
0.048127 0.120424 0.086152
0.054078 0.121675 0.086519
0.060914 0.122744 0.087190
0.067079 0.125032 0.084169
0.081453 0.126772 0.084199
0.101167 0.127352 0.084169
0.131350 0.135958 0.082033
0.164492 0.140993 0.078828
0.203037 0.144808 0.075319
0.242588 0.146731 0.072816
0.286809 0.148074 0.069917
0.335943 0.148287 0.065370
0.388251 0.148104 0.058808
0.443030 0.147829 0.040955
0.497993 0.148989 0.014435
0.551385 0.153902 0.000000
0.601648 0.163973 0.000000
0.650263 0.180514 0.000000
0.695766 0.202274 0.000000
0.737026 0.227543 0.000000
0.774685 0.254734 0.000000
0.809171 0.283146 0.000000
0.855802 0.329747 0.000000
0.882994 0.357061 0.000000
0.907866 0.383124 0.000000
0.930999 0.408026 0.000000
0.952636 0.432197 0.000000
0.973053 0.455573 0.000000
0.992523 0.478645 0.000000
1.000000 0.501213 0.000000
1.000000 0.523400 0.000000
1.000000 0.545220 0.000000
0.039460 0.141817 0.093965
0.047364 0.142672 0.094331
0.056001 0.144106 0.094575
0.064210 0.147097 0.091920
0.076600 0.150057 0.090425
0.097871 0.151461 0.090242
0.122805 0.151827 0.090455
0.160128 0.162692 0.087831
0.199710 0.169345 0.083833
0.245274 0.174960 0.079042
0.294926 0.178805 0.073945
0.345251 0.180545 0.068849
0.398291 0.182101 0.062104
0.453040 0.184237 0.047303
0.507378 0.187655 0.019562
0.559564 0.193912 0.000000
0.609155 0.204623 0.000000
0.658717 0.221408 0.000000
0.703548 0.241917 0.000000
0.744533 0.265263 0.000000
0.782437 0.291173 0.000000
0.817502 0.318334 0.000000
0.849546 0.346136 0.000000
0.878660 0.373205 0.000000
0.905028 0.398962 0.000000
0.928985 0.423102 0.000000
0.951019 0.446235 0.000000
0.971588 0.468574 0.000000
0.991150 0.490394 0.000000
1.000000 0.511925 0.000000
1.000000 0.533104 0.000000
1.000000 0.554101 0.000000
0.026947 0.165530 0.103120
0.033356 0.166537 0.103426
0.044892 0.167880 0.103395
0.061921 0.170993 0.103944
0.071046 0.174472 0.097719
0.090578 0.178408 0.097658
0.118257 0.179019 0.097749
0.147677 0.179294 0.097841
0.191379 0.192294 0.095308
0.236851 0.200931 0.090059
0.288731 0.208286 0.084138
0.346380 0.214786 0.075837
0.401984 0.218662 0.067689
0.456672 0.221927 0.057038
0.510674 0.226719 0.031525
0.562463 0.233768 0.000000
0.613581 0.245396 0.000000
0.661433 0.260807 0.000000
0.704952 0.278996 0.000000
0.745052 0.299565 0.000000
0.782254 0.322484 0.000000
0.816800 0.346777 0.000000
0.848447 0.371771 0.000000
0.877317 0.396033 0.000000
0.903563 0.419318 0.000000
0.927459 0.441688 0.000000
0.949523 0.463020 0.000000
0.970153 0.483833 0.000000
0.989746 0.504448 0.000000
1.000000 0.524773 0.000000
1.000000 0.545006 0.000000
1.000000 0.565026 0.000000
0.004974 0.193637 0.114443
0.012787 0.194583 0.114443
0.023621 0.196048 0.114595
0.050324 0.198978 0.115236
0.066133 0.203372 0.109926
0.084871 0.207492 0.107118
0.111666 0.211124 0.106935
0.144045 0.211429 0.106966
0.177707 0.211490 0.107088
0.227878 0.226627 0.104219
0.279515 0.237583 0.097932
0.337194 0.246921 0.090089
0.399084 0.255650 0.079866
0.461921 0.263920 0.066133
0.515557 0.269230 0.048981
0.568444 0.277562 0.014527
0.618860 0.289128 0.000000
0.665370 0.303105 0.000000
0.707668 0.319005 0.000000
0.746822 0.337163 0.000000
0.783322 0.357275 0.000000
0.817227 0.378698 0.000000
0.848386 0.400519 0.000000
0.876890 0.422217 0.000000
0.902861 0.443183 0.000000
0.926604 0.463233 0.000000
0.948547 0.482795 0.000000
0.969116 0.501946 0.000000
0.988617 0.520989 0.000000
1.000000 0.539971 0.000000
1.000000 0.558984 0.000000
1.000000 0.577905 0.000000
0.000000 0.226047 0.127443
0.000000 0.227024 0.127443
0.000000 0.228336 0.127535
0.024170 0.231205 0.128206
0.065217 0.235813 0.129183
0.076967 0.240543 0.118379
0.104494 0.245518 0.118288
0.138155 0.248142 0.118044
0.175143 0.248325 0.118044
0.212528 0.248020 0.117739
0.268803 0.264897 0.114900
0.326421 0.277836 0.107332
0.388464 0.289342 0.098085
0.452583 0.300237 0.086000
0.517906 0.312535 0.069368
0.576013 0.324498 0.040772
0.625422 0.335302 0.000000
0.670924 0.347967 0.000000
0.712154 0.361975 0.000000
0.750210 0.377630 0.000000
0.785519 0.394690 0.000000
0.818235 0.412787 0.000000
0.848386 0.431037 0.000000
0.876036 0.449561 0.000000
0.901579 0.467964 0.000000
0.925139 0.485878 0.000000
0.947082 0.503685 0.000000
0.967742 0.521386 0.000000
0.987366 0.539117 0.000000
1.000000 0.556939 0.000000
1.000000 0.574884 0.000000
1.000000 0.592889 0.064607
0.000000 0.261784 0.141939
0.000000 0.262821 0.142184
0.000000 0.264256 0.142367
0.000000 0.267063 0.143038
0.045258 0.271519 0.143923
0.069856 0.277165 0.135714
0.097169 0.282689 0.131472
0.129976 0.288914 0.131197
0.170260 0.290013 0.130953
0.211582 0.289769 0.130709
0.252750 0.288762 0.130373
0.315160 0.306645 0.127016
0.377173 0.321599 0.118379
0.443488 0.336248 0.108034
0.509636 0.350469 0.094820
0.572045 0.365423 0.077668
0.629755 0.381323 0.047608
0.675196 0.393072 0.004181
0.715297 0.404730 0.000000
0.752438 0.417731 0.000000
0.787015 0.432105 0.000000
0.819181 0.447303 0.000000
0.848905 0.463264 0.000000
0.876188 0.479377 0.000000
0.901366 0.495460 0.000000
0.924620 0.511223 0.000000
0.946319 0.527001 0.000000
0.966735 0.542901 0.000000
0.986175 0.558984 0.000000
1.000000 0.575311 0.000000
1.000000 0.591913 0.072755
1.000000 0.608728 0.109102
0.000000 0.301884 0.158602
0.000000 0.302922 0.158785
0.000000 0.304143 0.159091
0.000000 0.306981 0.159701
0.000000 0.311467 0.160616
0.070771 0.317235 0.160647
0.085817 0.323583 0.146242
0.123995 0.329839 0.146395
0.163058 0.336217 0.146151
0.208927 0.335760 0.145571
0.253971 0.334752 0.145144
0.299596 0.333593 0.144381
0.380591 0.363470 0.144411
0.449592 0.382361 0.135012
0.517235 0.399451 0.123842
0.580407 0.415625 0.110658
0.638178 0.432136 0.094728
0.689998 0.448127 0.074617
0.733425 0.461311 0.049042
0.768093 0.470924 0.021302
0.800290 0.481605 0.000000
0.830137 0.493263 0.000000
0.857694 0.505394 0.000000
0.883268 0.518029 0.000000
0.907042 0.530877 0.000000
0.929137 0.543999 0.000000
0.949859 0.557153 0.021027
0.969421 0.570672 0.058991
0.988098 0.584527 0.080354
1.000000 0.598840 0.102571
1.000000 0.613611 0.126406
1.000000 0.628779 0.152102
0.000000 0.349187 0.178561
0.000000 0.350103 0.178836
0.000000 0.351171 0.179080
0.000000 0.353552 0.179477
0.000000 0.357549 0.180453
0.052918 0.362737 0.182010
0.080507 0.369146 0.169650
0.115999 0.375647 0.163546
0.158602 0.382940 0.163577
0.205325 0.387671 0.163272
0.257176 0.388495 0.163302
0.309392 0.389258 0.163333
0.360723 0.389380 0.163088
0.434394 0.410224 0.160861
0.503197 0.430121 0.151369
0.567437 0.447883 0.140719
0.626093 0.464271 0.128695
0.678920 0.479744 0.115450
0.725429 0.493812 0.102174
0.767178 0.507591 0.088258
0.800992 0.518059 0.079896
0.830259 0.527367 0.076356
0.857328 0.537346 0.075196
0.882475 0.547784 0.076600
0.905913 0.558709 0.080690
0.927794 0.569879 0.087434
0.948333 0.581415 0.096590
0.967773 0.593347 0.108644
0.986358 0.605707 0.122866
1.000000 0.618738 0.139925
1.000000 0.632258 0.159762
1.000000 0.646387 0.183444
0.000000 0.394202 0.198550
0.000000 0.395117 0.198672
0.000000 0.396033 0.198978
0.000000 0.398413 0.199496
0.000000 0.401953 0.200412
0.000000 0.406806 0.201907
0.086061 0.413123 0.199374
0.104067 0.420172 0.181277
0.153140 0.428138 0.181827
0.201144 0.437690 0.182559
0.256046 0.441047 0.182834
0.311955 0.441169 0.182467
0.365759 0.440345 0.182071
0.416907 0.438605 0.181125
0.487892 0.456733 0.179294
0.553491 0.476387 0.169955
0.612818 0.493294 0.160281
0.666743 0.508782 0.150271
0.714595 0.522667 0.140230
0.757534 0.535973 0.131380
0.796201 0.549157 0.123720
0.830808 0.561730 0.117494
0.857420 0.569726 0.117586
0.882200 0.578424 0.119905
0.905333 0.587488 0.123629
0.926940 0.596918 0.129519
0.947295 0.606775 0.137179
0.966522 0.617212 0.147127
0.984924 0.628199 0.159701
1.000000 0.639887 0.174929
1.000000 0.652216 0.193393
1.000000 0.665187 0.215427
0.000000 0.440742 0.220279
0.000000 0.441566 0.220554
0.000000 0.442512 0.220706
0.000000 0.444587 0.221317
0.000000 0.448066 0.222232
0.000000 0.453285 0.223819
0.082368 0.459815 0.226078
0.105867 0.467567 0.209751
0.147127 0.475532 0.202182
0.199771 0.483986 0.203159
0.252445 0.493416 0.204257
0.312474 0.492897 0.203922
0.369512 0.491310 0.203281
0.422980 0.488899 0.202304
0.472267 0.485481 0.200809
0.539178 0.501518 0.198703
0.599420 0.519402 0.191104
0.654353 0.535424 0.182467
0.703426 0.549676 0.174594
0.747585 0.562921 0.167971
0.787259 0.575525 0.162631
0.822904 0.587732 0.158816
0.854856 0.599359 0.156283
0.882017 0.608881 0.156741
0.904784 0.616266 0.160830
0.926238 0.624323 0.166506
0.946471 0.632868 0.174105
0.965698 0.642115 0.184054
0.984070 0.652033 0.196262
1.000000 0.662715 0.211276
1.000000 0.674067 0.229618
1.000000 0.686091 0.251713
0.000000 0.490333 0.245304
0.000000 0.491279 0.245670
0.000000 0.492287 0.245914
0.000000 0.494545 0.246799
0.000000 0.497993 0.247745
0.000000 0.502586 0.249332
0.067079 0.508446 0.251316
0.123110 0.515496 0.246311
0.141848 0.523583 0.225040
0.199619 0.530846 0.226261
0.255283 0.538567 0.227390
0.312810 0.543938 0.228275
0.372381 0.540978 0.227146
0.427680 0.537224 0.225711
0.478035 0.532830 0.223758
0.523186 0.528008 0.221561
0.584741 0.541955 0.219547
0.640772 0.559075 0.213718
0.691829 0.574426 0.207492
0.737545 0.588312 0.202609
0.778561 0.601221 0.198917
0.815396 0.613306 0.196902
0.848264 0.624628 0.196170
0.877867 0.635340 0.196719
0.904692 0.645563 0.198795
0.926482 0.652857 0.204196
0.946380 0.659998 0.211551
0.965301 0.667842 0.221195
0.983307 0.676417 0.233188
1.000000 0.685695 0.247532
1.000000 0.695705 0.265202
1.000000 0.706508 0.286564
0.000000 0.537530 0.271824
0.000000 0.538170 0.271885
0.000000 0.538964 0.272282
0.000000 0.540826 0.272892
0.000000 0.543664 0.273838
0.000000 0.547601 0.275273
0.044007 0.552483 0.277226
0.138094 0.558282 0.279484
0.156069 0.565545 0.259007
0.198856 0.572595 0.249454
0.256870 0.579278 0.251133
0.313878 0.586236 0.252842
0.373571 0.587610 0.252903
0.431159 0.583459 0.251347
0.483131 0.578637 0.249302
0.529320 0.573327 0.246921
0.570550 0.567864 0.244419
0.626490 0.579767 0.242741
0.679164 0.596399 0.239048
0.726223 0.611048 0.235172
0.768460 0.624170 0.232731
0.806271 0.636225 0.231662
0.840085 0.647486 0.232029
0.870542 0.658015 0.234104
0.898100 0.667903 0.237186
0.923125 0.677394 0.241703
0.945434 0.686000 0.247868
0.964111 0.692683 0.257481
0.981933 0.700099 0.269352
0.998993 0.708309 0.283635
1.000000 0.717311 0.301030
1.000000 0.727138 0.322576
0.000000 0.582269 0.299840
0.000000 0.583093 0.300175
0.000000 0.594659 0.307927
0.000000 0.596185 0.308385
0.000000 0.598474 0.309331
0.000000 0.601434 0.310430
0.059144 0.605219 0.312200
0.149081 0.609796 0.314092
0.191653 0.615564 0.305516
0.208499 0.622614 0.281285
0.268986 0.627985 0.282933
0.327428 0.633326 0.284764
0.384466 0.638514 0.286687
0.443183 0.635187 0.285191
0.496254 0.629694 0.282719
0.543084 0.623896 0.279850
0.584833 0.618067 0.276921
0.622278 0.612268 0.273716
0.671809 0.621271 0.272496
0.719631 0.636255 0.271214
0.762173 0.649470 0.269535
0.800412 0.661372 0.269505
0.834623 0.672236 0.270817
0.865324 0.682216 0.273564
0.892882 0.691341 0.277256
0.917967 0.700008 0.282170
0.940856 0.708339 0.288182
0.962005 0.716640 0.295842
0.980407 0.723720 0.306310
0.997131 0.730800 0.320378
1.000000 0.738735 0.337713
1.000000 0.747585 0.358801
0.000000 0.627893 0.331456
0.000000 0.629755 0.332769
0.000000 0.631891 0.334112
0.000000 0.634546 0.335637
0.000000 0.637415 0.337255
0.000000 0.640528 0.338811
0.065492 0.643854 0.340368
0.156161 0.647578 0.342382
0.221317 0.651911 0.345037
0.232975 0.658167 0.320623
0.273411 0.663600 0.309606
0.332067 0.667842 0.311803
0.388861 0.671962 0.314092
0.443854 0.674922 0.315709
0.498054 0.669398 0.313115
0.545861 0.663569 0.310185
0.588586 0.657740 0.307042
0.626886 0.652003 0.303746
0.661555 0.646632 0.300664
0.706416 0.654047 0.300084
0.750729 0.667994 0.301274
0.790219 0.680781 0.302220
0.825620 0.692164 0.304448
0.857237 0.702419 0.308263
0.885649 0.711696 0.313054
0.911406 0.720363 0.319066
0.934905 0.728634 0.326299
0.956481 0.736751 0.335149
0.976471 0.744900 0.345861
0.995056 0.753109 0.358312
1.000000 0.760159 0.375433
1.000000 0.768093 0.396399
0.000000 0.667262 0.361395
0.000000 0.668879 0.362676
0.000000 0.670710 0.364019
0.000000 0.672877 0.365484
0.000000 0.675288 0.366979
0.000000 0.677760 0.368536
0.087648 0.680354 0.370123
0.169558 0.683345 0.372198
0.233371 0.686702 0.374945
0.267185 0.691341 0.364050
0.281559 0.697383 0.338720
0.339879 0.700801 0.341131
0.395666 0.703944 0.343603
0.448951 0.707118 0.346288
0.500542 0.706783 0.346777
0.548974 0.701076 0.343816
0.592187 0.695399 0.340490
0.631128 0.689815 0.337224
0.666438 0.684504 0.333928
0.698726 0.679683 0.330907
0.739162 0.685664 0.331060
0.779934 0.698695 0.334508
0.816434 0.710780 0.337743
0.848997 0.721431 0.342443
0.878172 0.730983 0.348272
0.904540 0.739681 0.355047
0.928527 0.747890 0.363226
0.950500 0.755917 0.373083
0.970794 0.763943 0.384985
0.989624 0.772000 0.398566
1.000000 0.780209 0.414466
1.000000 0.788205 0.433814
0.000000 0.703975 0.392187
0.000000 0.705409 0.393439
0.000000 0.706935 0.394690
0.000000 0.708766 0.396185
0.000000 0.710719 0.397711
0.000000 0.712612 0.399207
0.116579 0.714626 0.400824
0.189212 0.716793 0.403052
0.250523 0.719265 0.405859
0.304845 0.722103 0.407599
0.315160 0.727413 0.383490
0.350835 0.731380 0.372137
0.404974 0.733822 0.374762
0.456519 0.736263 0.377691
0.504906 0.738796 0.381018
0.552483 0.736110 0.380102
0.596399 0.730922 0.377417
0.636103 0.726101 0.374670
0.672358 0.721523 0.372137
0.705501 0.717311 0.369818
0.735805 0.713588 0.367742
0.772702 0.718868 0.368902
0.809995 0.730800 0.374670
0.843473 0.742214 0.380804
0.873320 0.752255 0.388159
0.900145 0.761227 0.396582
0.924437 0.769558 0.406165
0.946593 0.777554 0.417426
0.966979 0.785428 0.430426
0.985779 0.793332 0.445411
1.000000 0.801328 0.462623
1.000000 0.809537 0.482551
0.000000 0.742275 0.427741
0.000000 0.742977 0.428382
0.000000 0.743679 0.429053
0.000000 0.744594 0.429999
0.000000 0.745693 0.431098
0.064088 0.746914 0.432502
0.154849 0.748287 0.434272
0.217929 0.749905 0.436713
0.275853 0.751766 0.440101
0.332341 0.753750 0.444556
0.359014 0.757565 0.433021
0.370703 0.762631 0.408484
0.422278 0.764462 0.411505
0.470954 0.766262 0.414710
0.516838 0.768154 0.418128
0.560418 0.770138 0.421790
0.603326 0.765408 0.419196
0.642451 0.760586 0.416297
0.678126 0.756039 0.413581
0.710842 0.751736 0.410803
0.740841 0.747768 0.408301
0.768460 0.744137 0.405859
0.801175 0.747982 0.406897
0.834623 0.758175 0.413458
0.865171 0.768673 0.421271
0.892668 0.778073 0.430457
0.917540 0.786679 0.440986
0.940185 0.794888 0.453223
0.960906 0.802914 0.467201
0.979950 0.810849 0.483223
0.997436 0.818906 0.501610
1.000000 0.827085 0.522667
0.000000 0.773526 0.459113
0.000000 0.774136 0.459785
0.000000 0.774777 0.460517
0.000000 0.775479 0.461463
0.000000 0.776242 0.462715
0.129732 0.777035 0.464057
0.192508 0.777920 0.466011
0.248112 0.778866 0.468544
0.302190 0.779995 0.472084
0.355657 0.781216 0.476936
0.400336 0.783078 0.478157
0.410254 0.787472 0.457038
0.438880 0.790494 0.446326
0.484779 0.791867 0.449744
0.528130 0.793332 0.453376
0.569329 0.794980 0.457404
0.609064 0.795193 0.459968
0.647333 0.790768 0.457374
0.682521 0.786526 0.454932
0.714900 0.782559 0.452552
0.744717 0.778927 0.450355
0.772305 0.775570 0.448188
0.797848 0.772580 0.446265
0.827420 0.775692 0.447700
0.856077 0.782803 0.451637
0.884306 0.792782 0.461372
0.909850 0.801907 0.472816
0.933013 0.810452 0.485908
0.954162 0.818692 0.500786
0.973541 0.826871 0.517876
0.991333 0.835142 0.537591
1.000000 0.843412 0.559442
0.000000 0.805356 0.493935
0.000000 0.805905 0.494759
0.000000 0.806271 0.495369
0.079438 0.806638 0.496162
0.138643 0.806943 0.497261
0.189517 0.807218 0.498665
0.238224 0.807462 0.500572
0.286778 0.807645 0.503105
0.336065 0.807889 0.506645
0.385321 0.808194 0.511437
0.434424 0.808530 0.517723
0.453010 0.811337 0.505791
0.462135 0.815213 0.484382
0.502739 0.816037 0.486580
0.542473 0.816800 0.489845
0.580438 0.817746 0.493294
0.616693 0.818875 0.497200
0.652155 0.817258 0.497688
0.686091 0.813260 0.495155
0.717678 0.809628 0.492988
0.747005 0.806302 0.491188
0.774228 0.803189 0.489326
0.799435 0.800259 0.487434
0.822812 0.797421 0.485298
0.849302 0.799619 0.486213
0.876799 0.807340 0.493599
0.902800 0.816861 0.505486
0.926329 0.825681 0.519158
0.947723 0.834104 0.534722
0.967346 0.842405 0.552483
0.985351 0.850767 0.572442
1.000000 0.859007 0.594171
0.103151 0.831266 0.524193
0.117952 0.831724 0.524956
0.134646 0.832029 0.525658
0.163210 0.832212 0.526574
0.198764 0.832334 0.527794
0.238010 0.832334 0.529442
0.279911 0.832334 0.531701
0.323766 0.832242 0.534722
0.369024 0.832212 0.538811
0.415137 0.832212 0.544274
0.461280 0.832181 0.551293
0.496010 0.833188 0.552636
0.504509 0.836667 0.535180
0.526055 0.838926 0.525811
0.562432 0.839597 0.529412
0.597284 0.840330 0.533104
0.630854 0.841276 0.537285
0.663020 0.842496 0.541955
0.694636 0.839811 0.541070
0.724544 0.836484 0.539086
0.752529 0.833371 0.537316
0.778775 0.830533 0.535607
0.803189 0.827817 0.533776
0.826078 0.825254 0.531914
0.847471 0.822812 0.529961
0.871397 0.824521 0.531029
0.896361 0.831388 0.538964
0.920256 0.840665 0.553338
0.942016 0.849485 0.569635
0.961913 0.858061 0.587671
0.980072 0.866392 0.607385
0.996612 0.874693 0.629145
0.190372 0.856168 0.555627
0.199161 0.856413 0.556329
0.208927 0.856504 0.556878
0.228183 0.856443 0.557702
0.254978 0.856260 0.558892
0.287297 0.855985 0.560693
0.323369 0.855589 0.563073
0.362493 0.855192 0.566369
0.403937 0.854765 0.570916
0.446357 0.854398 0.576776
0.489723 0.854032 0.584405
0.533257 0.853727 0.594171
0.546166 0.856321 0.583459
0.554528 0.859525 0.566979
0.584955 0.860227 0.568872
0.616388 0.860777 0.572686
0.646693 0.861509 0.576654
0.675959 0.862455 0.581079
0.704250 0.863310 0.585382
0.732082 0.860319 0.583551
0.758480 0.857511 0.581964
0.783322 0.854887 0.580560
0.806699 0.852506 0.579095
0.828794 0.850187 0.577569
0.849607 0.848020 0.575921
0.869261 0.846036 0.574334
0.890929 0.847471 0.575647
0.913878 0.853849 0.583948
0.935698 0.862608 0.599420
0.955993 0.871458 0.617426
0.974395 0.879911 0.636805
0.991150 0.888334 0.658412
0.255589 0.878477 0.585840
0.261875 0.878538 0.586419
0.269749 0.878569 0.586969
0.285283 0.878477 0.587976
0.308019 0.878264 0.589563
0.336492 0.878019 0.591974
0.369574 0.877775 0.595392
0.405890 0.877562 0.599878
0.445014 0.877317 0.605859
0.485786 0.877073 0.613428
0.527214 0.876768 0.622675
0.567926 0.876493 0.633387
0.594324 0.877623 0.635615
0.602136 0.880674 0.623102
0.618158 0.882750 0.616266
0.645472 0.883268 0.619989
0.671992 0.883909 0.623926
0.697719 0.884733 0.628138
0.722805 0.885801 0.632898
0.747250 0.885618 0.635462
0.771115 0.883177 0.634119
0.793912 0.880919 0.632868
0.815610 0.878752 0.631617
0.836210 0.876768 0.630335
0.855863 0.874876 0.629114
0.874540 0.873167 0.627924
0.892454 0.871641 0.626886
0.911955 0.872923 0.628443
0.932921 0.878935 0.637079
0.952239 0.886809 0.652613
0.970642 0.895354 0.671626
0.987396 0.903716 0.692531
0.327184 0.901976 0.621271
0.332006 0.901976 0.621759
0.338079 0.901884 0.622370
0.350561 0.901610 0.623316
0.369574 0.901122 0.625055
0.393500 0.900572 0.627436
0.422004 0.899901 0.630915
0.453773 0.899168 0.635462
0.488533 0.898375 0.641413
0.525200 0.897520 0.648920
0.561730 0.896696 0.657496
0.597833 0.895964 0.667201
0.632593 0.895384 0.677913
0.639918 0.897765 0.668238
