data/fiter_cube/69180065/1023053/file.cube
# Created by Adobe Lightroom plugin Export LUT (1.17.0)
# www.johnrellis.com/lightroom/exportlut.htm
# Preset: 室内文艺胶片_06 云集
# Color profile: C:\Program Files (x86)\Common Files\Adobe\Color\Profiles\Recommended\AdobeRGB1998.icc
LUT_3D_SIZE 8
DOMAIN_MIN 0.000000 0.000000 0.000000
DOMAIN_MAX 0.903226 0.903226 0.903226
0.050965 0.070558 0.066590
0.093996 0.077852 0.067109
0.202029 0.085054 0.065339
0.386633 0.054994 0.042176
0.601892 0.000000 0.000000
0.779538 0.188266 0.000000
0.900084 0.328679 0.000000
0.988525 0.442664 0.000000
0.050385 0.103975 0.079561
0.085237 0.108461 0.078950
0.201968 0.123049 0.071656
0.385809 0.119936 0.053101
0.599603 0.127443 0.000000
0.773404 0.228122 0.000000
0.895140 0.350164 0.000000
0.985687 0.457130 0.000000
0.004974 0.193637 0.114443
0.066133 0.203372 0.109926
0.177707 0.211490 0.107088
0.399084 0.255650 0.079866
0.618860 0.289128 0.000000
0.783322 0.357275 0.000000
0.902861 0.443183 0.000000
0.988617 0.520989 0.000000
0.000000 0.349187 0.178561
0.000000 0.357549 0.180453
0.158602 0.382940 0.163577
0.360723 0.389380 0.163088
0.626093 0.464271 0.128695
0.800992 0.518059 0.079896
0.905913 0.558709 0.080690
0.986358 0.605707 0.122866
0.000000 0.537530 0.271824
0.000000 0.543664 0.273838
0.156069 0.565545 0.259007
0.373571 0.587610 0.252903
0.570550 0.567864 0.244419
0.768460 0.624170 0.232731
0.898100 0.667903 0.237186
0.981933 0.700099 0.269352
0.000000 0.703975 0.392187
0.000000 0.710719 0.397711
0.250523 0.719265 0.405859
0.404974 0.733822 0.374762
0.596399 0.730922 0.377417
0.735805 0.713588 0.367742
0.873320 0.752255 0.388159
0.966979 0.785428 0.430426
0.103151 0.831266 0.524193
0.198764 0.832334 0.527794
0.369024 0.832212 0.538811
0.504509 0.836667 0.535180
0.630854 0.841276 0.537285
0.752529 0.833371 0.537316
0.847471 0.822812 0.529961
0.942016 0.849485 0.569635
0.383490 0.921050 0.651728
0.420813 0.920012 0.656001
0.529046 0.916777 0.674189
0.659449 0.913573 0.710140
0.708034 0.916350 0.692103
0.789151 0.920562 0.710658
0.863523 0.915526 0.710597
0.927337 0.911833 0.709743
0.049012 0.077790 0.103578
0.094575 0.080262 0.102205
0.199741 0.093019 0.102541
0.379706 0.087495 0.103029
0.592828 0.070375 0.082033
0.766567 0.188815 0.000000
0.890776 0.323003 0.000000
0.982818 0.437842 0.000000
0.044129 0.109560 0.111849
0.091585 0.117556 0.114778
0.202090 0.131472 0.114565
0.383520 0.134463 0.108919
0.594690 0.143740 0.087800
0.765133 0.231113 0.009003
0.887480 0.346105 0.000000
0.979919 0.451972 0.000000
0.009918 0.196872 0.142763
0.086336 0.208133 0.152041
0.187564 0.220371 0.148440
0.402136 0.261814 0.133639
0.610132 0.290196 0.111360
0.772915 0.353155 0.075593
0.892027 0.434180 0.003815
0.981933 0.514427 0.028840
0.000000 0.348363 0.206241
0.000000 0.357885 0.212161
0.176425 0.384497 0.203037
0.360876 0.387335 0.199893
0.611139 0.453773 0.175967
0.784848 0.504631 0.149966
0.894804 0.548333 0.147494
0.979919 0.599481 0.171572
0.000000 0.537560 0.298100
0.000000 0.542687 0.299931
0.202853 0.561364 0.303990
0.375952 0.583032 0.283482
0.564508 0.562036 0.272282
0.761898 0.619226 0.263798
0.893278 0.664485 0.270115
0.977569 0.696986 0.298192
0.000000 0.699519 0.408820
0.000000 0.702632 0.411017
0.252842 0.711543 0.419196
0.408759 0.727565 0.394842
0.595850 0.728328 0.400305
0.734676 0.712795 0.391424
0.870909 0.751308 0.410559
0.964233 0.784115 0.448707
0.106600 0.825895 0.531243
0.194064 0.825650 0.532860
0.363348 0.826566 0.543877
0.516411 0.831113 0.553368
0.632502 0.838224 0.550530
0.751156 0.831266 0.550561
0.844053 0.819944 0.540246
0.938811 0.846769 0.576349
0.376318 0.918791 0.654932
0.414954 0.918090 0.659571
0.524254 0.915160 0.677241
0.655756 0.912230 0.712215
0.715816 0.917510 0.705745
0.792416 0.920897 0.721004
0.863432 0.915221 0.717952
0.926116 0.910857 0.714656
0.000000 0.092683 0.200778
0.069306 0.095430 0.201846
0.215335 0.092134 0.203189
0.400366 0.030610 0.189822
0.595300 0.058412 0.198459
0.766812 0.201694 0.204044
0.890410 0.330846 0.197971
0.982177 0.442542 0.198062
0.000000 0.128115 0.212894
0.077668 0.132906 0.215976
0.214725 0.135103 0.214481
0.395514 0.122774 0.203464
0.596521 0.148867 0.209720
0.765194 0.242100 0.209415
0.888151 0.354650 0.202976
0.980529 0.458473 0.204898
0.000000 0.216922 0.238468
0.066743 0.224643 0.241306
0.212711 0.245701 0.249393
0.405921 0.266056 0.246616
0.613489 0.298558 0.242161
0.772519 0.360388 0.235111
0.889738 0.438483 0.231418
0.979217 0.516960 0.238651
0.000000 0.358984 0.280644
0.000000 0.368719 0.287694
0.223545 0.397040 0.307836
0.393378 0.411933 0.303410
0.631800 0.472358 0.296757
0.783719 0.509392 0.289403
0.892912 0.553857 0.290349
0.977386 0.604211 0.304326
0.000000 0.541131 0.363043
0.000000 0.547814 0.369299
0.239902 0.566918 0.386633
0.413214 0.593439 0.382483
0.586542 0.579675 0.371954
0.769192 0.630671 0.370916
0.893828 0.672572 0.382055
0.973053 0.700618 0.400641
0.000000 0.700526 0.464149
0.000000 0.703670 0.468818
0.285557 0.711452 0.480781
0.453315 0.724636 0.478676
0.609216 0.732174 0.480995
0.737392 0.716579 0.468269
0.868956 0.755154 0.486763
0.961517 0.789487 0.523430
0.159854 0.826322 0.573602
0.231357 0.826230 0.576135
0.383032 0.826108 0.585565
0.553735 0.826780 0.611658
0.649470 0.835752 0.603601
0.757717 0.833341 0.607416
0.845609 0.823850 0.597498
0.938567 0.852262 0.629664
0.376898 0.918303 0.678889
0.409339 0.917296 0.680995
0.517906 0.914092 0.695583
0.652033 0.911864 0.727718
0.726131 0.915801 0.732631
0.799100 0.920226 0.747463
0.865934 0.916533 0.745968
0.926360 0.912657 0.741573
0.000000 0.114412 0.342046
0.000000 0.118349 0.344244
0.189700 0.120699 0.346441
0.420661 0.063844 0.352728
0.630579 0.000000 0.331090
0.763058 0.083589 0.320500
0.878813 0.300938 0.344274
0.973602 0.429786 0.355810
0.000000 0.152682 0.357733
0.000000 0.156161 0.359014
0.198215 0.158145 0.358587
0.422889 0.134249 0.362188
0.628016 0.100526 0.340612
0.758694 0.176669 0.333837
0.877775 0.332403 0.351232
0.972900 0.446601 0.359594
0.000000 0.244358 0.379156
0.000000 0.251072 0.382055
0.209323 0.265141 0.389654
0.426612 0.268894 0.390326
0.620172 0.277134 0.372930
0.763455 0.344823 0.378973
0.883452 0.434302 0.386694
0.973877 0.512749 0.389410
0.000000 0.388434 0.415290
0.000000 0.394812 0.417700
0.216983 0.414130 0.425574
0.432288 0.441871 0.439460
0.624109 0.465675 0.434791
0.770565 0.501793 0.431647
0.882536 0.549432 0.432502
0.970184 0.602808 0.440589
0.000000 0.551781 0.465034
0.000000 0.555749 0.467567
0.250492 0.570397 0.478828
0.462715 0.595422 0.506371
0.611627 0.601251 0.500755
0.777768 0.646326 0.507378
0.885222 0.674586 0.511864
0.965423 0.703456 0.519890
0.000000 0.704677 0.544396
0.077760 0.709682 0.550713
0.310124 0.715328 0.561120
0.501793 0.724575 0.581720
0.637751 0.740841 0.591150
0.747189 0.728176 0.576898
0.869230 0.765103 0.592615
0.958007 0.797391 0.618891
0.195102 0.825193 0.632258
0.257664 0.825742 0.635187
0.400305 0.826749 0.644648
0.559655 0.828092 0.664424
0.675929 0.835630 0.675807
0.770199 0.839567 0.684596
0.847593 0.829007 0.669673
0.937285 0.857694 0.693172
0.399023 0.918029 0.722866
0.429755 0.917510 0.725124
0.516442 0.915373 0.732143
0.636469 0.912535 0.750301
0.754726 0.911406 0.784085
0.807431 0.919432 0.782681
0.869444 0.918761 0.783963
0.926665 0.915007 0.777432
0.000000 0.147463 0.502007
0.000000 0.150515 0.503105
0.173342 0.152071 0.503227
0.389471 0.128908 0.503288
0.633539 0.066377 0.521477
0.793942 0.150362 0.496559
0.884886 0.279271 0.485176
0.960479 0.431128 0.519860
0.000000 0.184482 0.513390
0.000000 0.186801 0.514366
0.186007 0.187716 0.513268
0.394720 0.172549 0.510857
0.633234 0.154910 0.526757
0.791623 0.211032 0.502708
0.882841 0.312566 0.491676
0.959075 0.452766 0.527337
0.000000 0.282292 0.532311
0.000000 0.286748 0.534844
0.204288 0.291844 0.538628
0.409644 0.289158 0.535241
0.631250 0.302556 0.543816
0.780819 0.341100 0.520500
0.874205 0.400671 0.511192
0.957519 0.507195 0.539300
0.000000 0.418860 0.557946
0.000000 0.423407 0.559380
0.218723 0.437293 0.565423
0.432319 0.453223 0.574823
0.631525 0.467506 0.576715
0.767086 0.486275 0.556329
0.865385 0.531090 0.557671
0.958709 0.587121 0.559686
0.000000 0.572290 0.592798
0.000000 0.575463 0.594385
0.244175 0.584466 0.598871
0.454536 0.598230 0.607599
0.631128 0.618494 0.620386
0.764004 0.634607 0.614832
0.869566 0.659785 0.612146
0.955474 0.692470 0.614527
0.000000 0.703029 0.633631
0.058778 0.704707 0.635248
0.304356 0.708675 0.639612
0.492012 0.715663 0.649226
0.648951 0.729427 0.671595
0.752804 0.735683 0.671717
0.870573 0.773312 0.687373
0.951873 0.795895 0.695827
0.231846 0.821530 0.698268
0.281529 0.821439 0.699550
0.406256 0.821744 0.705165
0.551415 0.823545 0.717128
0.683192 0.828855 0.735622
0.777951 0.842557 0.750393
0.848539 0.832761 0.735805
0.936614 0.861692 0.752224
0.411536 0.913878 0.769711
0.438239 0.913237 0.770840
0.517174 0.911406 0.775051
0.621637 0.911528 0.785153
0.727443 0.911345 0.800107
0.811734 0.917357 0.816342
0.872221 0.921080 0.822538
0.926299 0.916320 0.812924
0.000000 0.193088 0.661952
0.000000 0.194491 0.661952
0.190219 0.193118 0.660060
0.412940 0.178592 0.658930
0.609155 0.158846 0.664851
0.781552 0.227329 0.667994
0.899474 0.346777 0.648646
0.967071 0.464851 0.651545
0.000000 0.226078 0.665187
0.000000 0.226902 0.664698
0.199344 0.226078 0.663508
0.414374 0.215366 0.660914
0.606561 0.204715 0.665126
0.779202 0.267460 0.669429
0.896818 0.373327 0.651484
0.965057 0.480446 0.654780
0.000000 0.326543 0.681086
0.000000 0.325780 0.681605
0.222110 0.327855 0.681605
0.427710 0.324773 0.678035
0.606012 0.323613 0.675074
0.776730 0.380468 0.681117
0.890379 0.456245 0.665736
0.959899 0.532830 0.668605
0.000000 0.461189 0.696742
0.000000 0.462837 0.696834
0.244388 0.469184 0.699397
0.448005 0.477455 0.704524
0.614130 0.477211 0.699550
0.774990 0.519280 0.704524
0.880980 0.563012 0.691371
0.952636 0.603601 0.689662
0.000000 0.596307 0.714290
0.000000 0.597955 0.714992
0.274418 0.602960 0.717311
0.461616 0.610895 0.721492
0.624353 0.622065 0.726406
0.767300 0.639307 0.727993
0.865202 0.653101 0.712612
0.941802 0.681941 0.714443
0.000000 0.714870 0.737819
0.156039 0.716426 0.739162
0.328954 0.718868 0.741176
0.493935 0.723384 0.744747
0.640131 0.731930 0.750454
0.766445 0.750515 0.763272
0.862547 0.763210 0.759731
0.944366 0.782071 0.758785
0.247623 0.824216 0.778622
0.295323 0.824582 0.779568
0.412512 0.824247 0.781094
0.549493 0.824338 0.784146
0.675257 0.827207 0.789700
0.783658 0.837949 0.806119
0.854429 0.841032 0.804105
0.940703 0.869810 0.816556
0.431403 0.912535 0.824430
0.455238 0.911833 0.824613
0.526482 0.909880 0.825589
0.619257 0.909026 0.829496
0.713802 0.909911 0.836423
0.807126 0.914092 0.849790
0.877592 0.925078 0.864225
0.927916 0.919646 0.853544
0.000000 0.256840 0.795193
0.000000 0.257969 0.795956
0.269108 0.256382 0.794400
0.456855 0.250217 0.791836
0.615778 0.246494 0.786923
0.767300 0.282719 0.795682
0.880003 0.391089 0.782650
0.968261 0.519829 0.773556
0.000000 0.284581 0.793942
0.000000 0.285435 0.794461
0.269841 0.283909 0.793057
0.453773 0.278172 0.789914
0.611444 0.274846 0.784695
0.761593 0.305608 0.791989
0.875486 0.404944 0.779843
0.964782 0.524712 0.771084
0.000000 0.373602 0.803128
0.000000 0.372778 0.803220
0.285863 0.376318 0.801022
0.460517 0.373754 0.797543
0.612940 0.372045 0.791562
0.757290 0.395392 0.795468
0.873625 0.480446 0.788296
0.962158 0.577905 0.783230
0.000000 0.501396 0.811795
0.102815 0.500450 0.811185
0.293431 0.499031 0.810544
0.472236 0.504662 0.809781
0.617639 0.502373 0.804410
0.751064 0.511711 0.802853
0.870787 0.579889 0.802701
0.957092 0.643458 0.798215
0.060151 0.621149 0.818448
0.161471 0.620508 0.817777
0.313909 0.619776 0.816922
0.466896 0.619898 0.816953
0.620600 0.626581 0.816495
0.740780 0.623224 0.810300
0.863096 0.667750 0.814755
0.948821 0.707851 0.812009
0.201511 0.729519 0.830503
0.249882 0.729580 0.830533
0.367163 0.730007 0.830747
0.502861 0.731777 0.831571
0.631891 0.735164 0.832486
0.752193 0.744472 0.835325
0.861540 0.763027 0.838315
0.939788 0.775387 0.829679
0.319005 0.822110 0.847745
0.351324 0.822477 0.848295
0.439521 0.822477 0.848753
0.551598 0.823392 0.849973
0.662776 0.825742 0.851194
0.766751 0.832883 0.854765
0.861479 0.849149 0.864591
0.936889 0.859037 0.861265
0.423102 0.911223 0.879271
0.445563 0.910796 0.879301
0.518273 0.910979 0.881041
0.608820 0.910063 0.881773
0.704128 0.909758 0.882750
0.795102 0.912352 0.885893
0.876890 0.921233 0.897246
0.931426 0.924376 0.896147
0.251011 0.360784 0.898711
0.293095 0.361700 0.898741
0.398932 0.361120 0.896849
0.528985 0.363989 0.894896
0.654719 0.370520 0.891630
0.766842 0.382940 0.887144
0.881987 0.448127 0.894865
0.952789 0.551019 0.872190
0.253635 0.383246 0.897765
0.294560 0.384009 0.897826
0.398932 0.383459 0.896239
0.526879 0.384833 0.893919
0.652247 0.390143 0.890715
0.764340 0.400244 0.886229
0.878996 0.460121 0.893309
0.951019 0.559014 0.871702
0.252140 0.450507 0.898924
0.303960 0.456367 0.898497
0.401129 0.453986 0.896422
0.528527 0.457221 0.895628
0.650355 0.458564 0.892058
0.760403 0.462593 0.887053
0.873381 0.510063 0.892821
0.948394 0.596216 0.874723
0.218692 0.539757 0.901549
0.268925 0.541253 0.901640
0.390326 0.545159 0.900298
0.530419 0.555138 0.898375
0.648737 0.554559 0.895354
0.756741 0.554772 0.890990
0.865599 0.582849 0.894224
0.945739 0.653071 0.881590
0.251896 0.648890 0.904234
0.287388 0.648615 0.904448
0.376440 0.644831 0.903502
0.492866 0.637354 0.902556
0.642603 0.651118 0.899443
0.748379 0.647272 0.895384
0.852476 0.656672 0.895048
0.942443 0.718288 0.891051
0.318425 0.748440 0.909422
0.342535 0.747524 0.908934
0.415595 0.744869 0.907774
0.515862 0.741268 0.906554
0.624262 0.737362 0.905455
0.746761 0.745449 0.904967
0.843870 0.745663 0.902983
0.940490 0.790158 0.905089
0.404334 0.835111 0.918334
0.423041 0.834623 0.918059
0.480812 0.833280 0.917357
0.565423 0.832334 0.917021
0.659724 0.832181 0.916777
0.753506 0.834043 0.917021
0.847013 0.840574 0.918303
0.936034 0.857145 0.918608
0.499916 0.908354 0.930602
0.513603 0.908110 0.930571
0.557885 0.907652 0.930510
0.625849 0.907622 0.930755
0.703700 0.908446 0.931090
0.782895 0.910979 0.931640
0.860166 0.916625 0.933104
0.935943 0.929412 0.938964
