data/fiter_cube/69180065/1023053/file.cube
# Created by Adobe Lightroom plugin Export LUT (1.17.0)
# www.johnrellis.com/lightroom/exportlut.htm
# Preset: 室内文艺胶片_06 云集
# Color profile: C:\Program Files (x86)\Common Files\Adobe\Color\Profiles\Recommended\AdobeRGB1998.icc
LUT_3D_SIZE 5
DOMAIN_MIN 0.000000 0.000000 0.000000
DOMAIN_MAX 0.903226 0.903226 0.903226
0.050965 0.070558 0.066590
0.168124 0.084871 0.065980
0.497292 0.000000 0.000000
0.814603 0.226474 0.000000
0.988525 0.442664 0.000000
0.026947 0.165530 0.103120
0.147677 0.179294 0.097841
0.510674 0.226719 0.031525
0.816800 0.346777 0.000000
0.989746 0.504448 0.000000
0.000000 0.440742 0.220279
0.105867 0.467567 0.209751
0.472267 0.485481 0.200809
0.822904 0.587732 0.158816
0.984070 0.652033 0.196262
0.000000 0.742275 0.427741
0.217929 0.749905 0.436713
0.516838 0.768154 0.418128
0.768460 0.744137 0.405859
0.960906 0.802914 0.467201
0.383490 0.921050 0.651728
0.497444 0.917693 0.667842
0.674983 0.913848 0.693690
0.808743 0.919249 0.710842
0.927337 0.911833 0.709743
0.007233 0.088350 0.170077
0.176455 0.090211 0.171817
0.489693 0.060395 0.169284
0.799069 0.230167 0.162142
0.981079 0.439338 0.148867
0.000000 0.183841 0.200626
0.173007 0.206027 0.209293
0.506279 0.238804 0.202701
0.803555 0.345708 0.185672
0.980529 0.498909 0.186404
0.000000 0.446784 0.297002
0.175204 0.472389 0.316045
0.483467 0.491249 0.303563
0.817838 0.588067 0.292790
0.977661 0.652552 0.319097
0.000000 0.741115 0.482460
0.258885 0.748013 0.494545
0.541833 0.765560 0.493202
0.769955 0.747219 0.480262
0.957122 0.806241 0.533928
0.382849 0.920134 0.674281
0.495460 0.916869 0.688197
0.707759 0.912352 0.739132
0.815793 0.921019 0.742733
0.927489 0.913573 0.736904
0.000000 0.129824 0.422339
0.126589 0.136294 0.424353
0.534112 0.002289 0.437446
0.805325 0.152926 0.402533
0.967437 0.430426 0.441566
0.000000 0.235599 0.451118
0.152041 0.244511 0.456703
0.537469 0.242588 0.461738
0.796231 0.300694 0.427802
0.967254 0.489387 0.457832
0.000000 0.483742 0.506981
0.161379 0.497810 0.512474
0.540154 0.535668 0.533471
0.796841 0.578058 0.526696
0.963073 0.648219 0.532586
0.000000 0.737301 0.605982
0.284947 0.740780 0.613428
0.594171 0.754665 0.647517
0.777554 0.759213 0.645441
0.951019 0.815457 0.675990
0.401801 0.915373 0.744411
0.492073 0.913939 0.750881
0.683558 0.911376 0.774990
0.825437 0.919890 0.802182
0.925780 0.914885 0.793393
0.000000 0.205539 0.695399
0.128878 0.206546 0.695033
0.513237 0.182437 0.690883
0.808682 0.266636 0.698268
0.966979 0.476448 0.683253
0.000000 0.303746 0.708522
0.164096 0.306859 0.708156
0.518975 0.299626 0.701991
0.804074 0.372900 0.705837
0.961181 0.525292 0.693202
0.000000 0.534356 0.730678
0.206363 0.538598 0.731868
0.535363 0.548913 0.735653
0.791592 0.581262 0.732937
0.947356 0.642023 0.722866
0.147219 0.746212 0.770321
0.317205 0.746578 0.770626
0.577539 0.752926 0.775692
0.792721 0.777401 0.791928
0.941314 0.800931 0.786160
0.431617 0.912566 0.838956
0.505455 0.910948 0.839841
0.667628 0.909331 0.844450
0.826535 0.916106 0.862821
0.928374 0.920439 0.863706
0.251011 0.360784 0.898711
0.368750 0.361120 0.897337
0.593317 0.366857 0.893523
0.793942 0.389776 0.886748
0.952789 0.551019 0.872190
0.265690 0.435492 0.898955
0.374548 0.435004 0.897642
0.591180 0.437079 0.893797
0.787686 0.446876 0.885771
0.949584 0.586419 0.874327
0.227207 0.594568 0.902617
0.334874 0.589288 0.901793
0.587121 0.602838 0.897826
0.775906 0.597131 0.890257
0.943816 0.683986 0.885557
0.345037 0.773159 0.912566
0.415595 0.770932 0.911467
0.582849 0.766049 0.909514
0.772030 0.769009 0.907317
0.939147 0.806424 0.907958
0.499916 0.908354 0.930602
0.544182 0.907774 0.930510
0.664302 0.907897 0.930938
0.802487 0.912047 0.931884
0.935943 0.929412 0.938964
