data/fiter_cube/55192441/1023184/file.cube
# Created by Adobe Lightroom plugin Export LUT (1.17.0)
# www.johnrellis.com/lightroom/exportlut.htm
# Preset: 清新轻盈通透人像_02 云集
# Color profile: C:\Program Files (x86)\Common Files\Adobe\Color\Profiles\Recommended\AdobeRGB1998.icc
LUT_3D_SIZE 8
DOMAIN_MIN 0.000000 0.000000 0.000000
DOMAIN_MAX 0.903226 0.903226 0.903226
0.000000 0.000000 0.000000
0.135439 0.000000 0.000000
0.469490 0.000000 0.000000
0.676661 0.000000 0.000000
0.798337 0.000000 0.000000
0.909606 0.000000 0.000000
1.000000 0.000000 0.000000
1.000000 0.141848 0.133303
0.000000 0.138979 0.000000
0.146242 0.148318 0.000000
0.453956 0.212863 0.000000
0.661738 0.192386 0.000000
0.787381 0.156191 0.000000
0.895232 0.139101 0.000000
0.991791 0.155825 0.000000
1.000000 0.196567 0.123690
0.000000 0.479316 0.000000
0.177707 0.477089 0.000000
0.459083 0.465705 0.000000
0.661036 0.429358 0.000000
0.789273 0.379095 0.000000
0.897856 0.349493 0.000000
1.000000 0.346654 0.097780
1.000000 0.351537 0.185763
0.000000 0.675776 0.000000
0.000000 0.671351 0.000000
0.390723 0.664363 0.000000
0.652308 0.661677 0.000000
0.804868 0.600793 0.000000
0.903838 0.548394 0.088746
0.995209 0.518608 0.177859
1.000000 0.498726 0.231205
0.000000 0.797879 0.000000
0.000000 0.795438 0.000000
0.321447 0.790280 0.000000
0.551263 0.783719 0.000000
0.753964 0.764126 0.000000
0.882689 0.712032 0.121889
0.976959 0.670375 0.221805
1.000000 0.641657 0.278080
0.000000 0.892912 0.000000
0.000000 0.897856 0.000000
0.301732 0.893309 0.000000
0.493050 0.886595 0.000000
0.676722 0.872770 0.095521
0.846647 0.857328 0.194064
0.970336 0.822660 0.269291
1.000000 0.780819 0.323308
0.063813 0.980682 0.198276
0.171572 0.980987 0.202304
0.317510 0.976257 0.198123
0.470008 0.970581 0.199313
0.618799 0.961883 0.198306
0.779721 0.950195 0.248753
0.927245 0.938262 0.299840
1.000000 0.907073 0.344732
0.234012 1.000000 0.300145
0.265782 1.000000 0.299382
0.356146 1.000000 0.300389
0.475532 1.000000 0.307866
0.588220 1.000000 0.283787
0.723812 1.000000 0.303380
0.864164 1.000000 0.347295
0.992126 0.999298 0.380987
0.000000 0.000000 0.131838
0.134035 0.000000 0.132235
0.451667 0.000000 0.158999
0.661616 0.000000 0.119570
0.785000 0.000000 0.126619
0.886931 0.000000 0.164248
0.982330 0.150179 0.206577
1.000000 0.211398 0.246311
0.000000 0.138521 0.135897
0.138430 0.140475 0.133120
0.451667 0.138369 0.123262
0.656214 0.130983 0.113313
0.779934 0.139864 0.124239
0.880156 0.172915 0.161837
0.972869 0.206271 0.198032
1.000000 0.241764 0.235630
0.000000 0.465248 0.168948
0.000000 0.469856 0.000000
0.451820 0.458808 0.000000
0.651301 0.415808 0.106294
0.776059 0.376867 0.141878
0.877592 0.359991 0.185672
0.974823 0.360906 0.228153
1.000000 0.370459 0.268315
0.000000 0.663142 0.068360
0.000000 0.662654 0.000000
0.372656 0.657801 0.000000
0.633173 0.641993 0.000000
0.774319 0.580591 0.161990
0.871855 0.538018 0.226658
0.967651 0.515709 0.260960
1.000000 0.503655 0.293156
0.000000 0.790494 0.119997
0.000000 0.788052 0.015656
0.321630 0.780697 0.000000
0.541863 0.769162 0.060334
0.737881 0.747494 0.166140
0.864530 0.701198 0.239048
0.961395 0.667750 0.297765
1.000000 0.644038 0.333349
0.000000 0.882383 0.179934
0.078553 0.881529 0.180850
0.312718 0.877775 0.180392
0.494270 0.873472 0.186404
0.673304 0.863249 0.222995
0.841367 0.851530 0.282597
0.962005 0.819089 0.332982
1.000000 0.779934 0.368597
0.140780 0.968841 0.265202
0.197726 0.966613 0.261540
0.328374 0.963500 0.260227
0.475471 0.960693 0.265354
0.621027 0.954742 0.268101
0.776608 0.943175 0.302586
0.919402 0.930083 0.339239
1.000000 0.900114 0.371984
0.259831 1.000000 0.340185
0.290105 1.000000 0.341558
0.372961 1.000000 0.343084
0.486366 1.000000 0.350256
0.605798 1.000000 0.352422
0.731228 1.000000 0.357824
0.865141 1.000000 0.384741
0.990173 0.997162 0.408820
0.000000 0.000000 0.458991
0.207431 0.000000 0.455299
0.456092 0.000000 0.448585
0.658106 0.000000 0.410437
0.775021 0.180240 0.404089
0.874266 0.342535 0.453986
0.971344 0.376013 0.464332
1.000000 0.397040 0.470375
0.000000 0.156893 0.464912
0.099458 0.105257 0.458900
0.454505 0.073365 0.445777
0.648707 0.175631 0.412848
0.767758 0.294591 0.421912
0.867796 0.367193 0.449104
0.964935 0.391241 0.457435
1.000000 0.409979 0.465461
0.000000 0.468727 0.457893
0.000000 0.467872 0.455238
0.446906 0.450965 0.436561
0.637537 0.448707 0.439582
0.765072 0.457801 0.450233
0.866148 0.463569 0.457038
0.962219 0.468940 0.463386
1.000000 0.474250 0.469764
0.000000 0.665309 0.400580
0.000000 0.664149 0.398413
0.399695 0.656489 0.400946
0.636988 0.643488 0.424323
0.763943 0.608301 0.458808
0.862852 0.590143 0.470344
0.959533 0.580041 0.476326
1.000000 0.571527 0.481270
0.000000 0.785794 0.376379
0.167147 0.782986 0.388342
0.395361 0.775509 0.405798
0.567010 0.769497 0.403021
0.743557 0.751156 0.435431
0.857145 0.716060 0.458595
0.951263 0.696803 0.483864
1.000000 0.679896 0.492500
0.180423 0.876799 0.395270
0.272984 0.874693 0.410925
0.401190 0.869810 0.418616
0.534813 0.864652 0.415290
0.684840 0.855711 0.423255
0.836210 0.844816 0.454749
0.950042 0.820829 0.480995
1.000000 0.795712 0.505394
0.303655 0.964965 0.439643
0.350835 0.962310 0.451118
0.415595 0.958709 0.439368
0.523552 0.954314 0.436042
0.645777 0.948486 0.432197
0.786099 0.939818 0.450294
0.921752 0.931212 0.477852
1.000000 0.907073 0.500725
0.380591 1.000000 0.481819
0.404150 1.000000 0.485634
0.438056 1.000000 0.466499
0.533410 1.000000 0.474311
0.635096 1.000000 0.472389
0.746914 1.000000 0.472999
0.872526 1.000000 0.492561
0.990784 0.997009 0.510674
0.000000 0.000000 0.645319
0.174380 0.000000 0.645472
0.409979 0.000000 0.635615
0.639094 0.000000 0.629236
0.764950 0.185275 0.574792
0.862089 0.339055 0.568475
0.952178 0.425544 0.585351
1.000000 0.485451 0.607141
0.000000 0.104433 0.653834
0.088685 0.095888 0.651118
0.408240 0.103914 0.638392
0.638575 0.166140 0.628809
0.761440 0.298985 0.581537
0.856382 0.392096 0.576074
0.946990 0.456367 0.591089
1.000000 0.506279 0.611841
0.000000 0.411658 0.653132
0.000000 0.412848 0.651392
0.426032 0.428626 0.635767
0.632197 0.447639 0.623468
0.752132 0.489357 0.603693
0.852628 0.528435 0.611902
0.950408 0.562127 0.629541
1.000000 0.563043 0.624292
0.000000 0.655604 0.642725
0.093660 0.654078 0.641077
0.428595 0.647578 0.635035
0.629206 0.632349 0.621241
0.741665 0.630854 0.623835
0.842771 0.630549 0.624109
0.942077 0.630182 0.624537
1.000000 0.628534 0.623957
0.086305 0.783902 0.581109
0.238926 0.779324 0.583093
0.442451 0.768612 0.593347
0.606409 0.759731 0.604974
0.744289 0.749264 0.613428
0.846098 0.733608 0.625696
0.941283 0.726192 0.630243
1.000000 0.714656 0.627405
0.257298 0.877562 0.558038
0.331914 0.879454 0.570397
0.469154 0.870115 0.588220
0.594110 0.862669 0.598474
0.708553 0.857847 0.593378
0.839170 0.845792 0.608850
0.942351 0.827848 0.618311
1.000000 0.811612 0.631128
0.337682 0.961822 0.559014
0.380896 0.960754 0.567346
0.487831 0.956420 0.589624
0.584955 0.953002 0.595300
0.684443 0.948486 0.590356
0.801572 0.940764 0.592981
0.923033 0.930877 0.605951
1.000000 0.909239 0.615869
0.409613 1.000000 0.577508
0.438453 1.000000 0.584619
0.515953 1.000000 0.603113
0.584253 1.000000 0.599939
0.669245 1.000000 0.596124
0.765866 1.000000 0.592432
0.879973 1.000000 0.602899
0.990906 0.996124 0.614923
0.000000 0.000000 0.759915
0.132113 0.000000 0.759365
0.359380 0.000000 0.752590
0.559594 0.000000 0.739773
0.749966 0.199252 0.739864
0.853178 0.339330 0.699062
0.945495 0.423529 0.689143
1.000000 0.483406 0.692195
0.000000 0.114260 0.762570
0.117739 0.122927 0.762539
0.369604 0.155337 0.754696
0.566217 0.221683 0.739040
0.747738 0.299931 0.738064
0.850553 0.393347 0.702266
0.943511 0.457771 0.694087
1.000000 0.505943 0.696254
0.121981 0.399847 0.764218
0.259739 0.415412 0.761227
0.429145 0.431159 0.751919
0.591608 0.452430 0.738888
0.739986 0.474495 0.731350
0.838499 0.511437 0.706783
0.934356 0.542931 0.704372
1.000000 0.564446 0.703761
0.172427 0.589960 0.762203
0.277592 0.594232 0.760586
0.462104 0.608484 0.756741
0.619257 0.621271 0.741817
0.735195 0.624475 0.727993
0.832944 0.633173 0.719295
0.929931 0.640284 0.718410
1.000000 0.647211 0.718074
0.228611 0.763027 0.750546
0.308598 0.762081 0.749813
0.467475 0.757168 0.745571
0.614527 0.748684 0.737972
0.729763 0.732601 0.722408
0.827909 0.729641 0.722469
0.926055 0.727535 0.721309
1.000000 0.723507 0.718593
0.302129 0.862211 0.699275
0.353277 0.860044 0.700984
0.472267 0.851865 0.704128
0.597681 0.843381 0.708553
0.702235 0.837247 0.700160
0.828611 0.833402 0.709133
0.930053 0.825315 0.721309
1.000000 0.816281 0.725277
0.370214 0.954070 0.682033
0.403296 0.951995 0.684504
0.494697 0.946868 0.693294
0.599542 0.942260 0.702327
0.692927 0.939452 0.696590
0.798978 0.934874 0.691707
0.917906 0.924254 0.700618
1.000000 0.903593 0.704036
0.418647 1.000000 0.672389
0.443091 1.000000 0.675563
0.513024 1.000000 0.684962
0.607538 1.000000 0.700252
0.686305 1.000000 0.695338
0.775814 1.000000 0.690089
0.880766 1.000000 0.692561
0.988403 0.992584 0.701564
0.000000 0.000000 0.860594
0.122103 0.000000 0.859617
0.335027 0.000000 0.853391
0.523827 0.148043 0.846677
0.691279 0.262089 0.835721
0.842405 0.343114 0.832334
0.939605 0.424994 0.804135
1.000000 0.484657 0.790249
0.000000 0.153170 0.856291
0.159548 0.163180 0.854765
0.354101 0.199466 0.849516
0.533501 0.263401 0.842313
0.691432 0.329259 0.830411
0.838010 0.388159 0.828214
0.936034 0.454017 0.803403
1.000000 0.503929 0.790951
0.289311 0.429328 0.858701
0.330694 0.432258 0.857053
0.442267 0.443915 0.852140
0.577050 0.463264 0.843595
0.705745 0.483894 0.828824
0.835050 0.507713 0.826078
0.931975 0.541527 0.808255
1.000000 0.566125 0.796933
0.338994 0.584710 0.865324
0.386419 0.590478 0.862638
0.506310 0.610101 0.855924
0.623804 0.625483 0.849485
0.729061 0.628473 0.836332
0.837919 0.630762 0.829831
0.932097 0.640681 0.816770
1.000000 0.648981 0.806180
0.353399 0.719631 0.852903
0.396826 0.722255 0.852476
0.506706 0.729610 0.850675
0.622827 0.735714 0.848539
0.727687 0.729671 0.834989
0.827359 0.723720 0.820066
0.922148 0.727718 0.813474
1.000000 0.732113 0.809476
0.370367 0.852232 0.840116
0.409949 0.853117 0.841184
0.507042 0.851072 0.839658
0.612207 0.847318 0.836332
0.714961 0.839445 0.828855
0.822934 0.825620 0.816037
0.920195 0.825559 0.819120
1.000000 0.823178 0.818357
0.416846 0.951293 0.810727
0.446357 0.950866 0.812375
0.521080 0.946777 0.813565
0.610681 0.942321 0.813931
0.708522 0.936736 0.812711
0.808927 0.930388 0.807492
0.917388 0.921721 0.807523
1.000000 0.907164 0.812711
0.447059 1.000000 0.782040
0.466743 1.000000 0.783047
0.525353 1.000000 0.785946
0.606226 1.000000 0.790219
0.701015 1.000000 0.795773
0.794247 1.000000 0.797910
0.885405 0.999084 0.794919
0.986603 0.989532 0.801053
0.000000 0.000000 0.939879
0.142306 0.000000 0.940429
0.325536 0.101137 0.937865
0.496742 0.202029 0.933410
0.652979 0.286473 0.925017
0.793179 0.355016 0.916625
0.923583 0.410559 0.913390
1.000000 0.469245 0.886503
0.100160 0.184390 0.935637
0.194156 0.196719 0.935912
0.349584 0.231205 0.933349
0.507530 0.283055 0.927977
0.655177 0.338537 0.919432
0.789548 0.388159 0.910369
0.916930 0.431586 0.906889
1.000000 0.479591 0.881712
0.316899 0.425788 0.936278
0.348425 0.428901 0.935424
0.437873 0.439094 0.931945
0.555718 0.457038 0.926604
0.677546 0.476661 0.917693
0.796323 0.497353 0.908598
0.917113 0.521355 0.907683
1.000000 0.549859 0.887175
0.410498 0.583215 0.938231
0.439857 0.588434 0.936278
0.520012 0.603082 0.931792
0.606592 0.607874 0.927367
0.704402 0.610986 0.919310
0.806180 0.613550 0.909606
0.918730 0.619409 0.910002
1.000000 0.631464 0.890929
0.416510 0.695155 0.934081
0.443915 0.697688 0.932952
0.523156 0.706477 0.930999
0.617090 0.713375 0.927489
0.711055 0.712581 0.919280
0.806027 0.706935 0.907378
0.911925 0.706752 0.903990
0.999268 0.718410 0.891234
0.427283 0.812863 0.926726
0.453254 0.814054 0.926482
0.525475 0.817136 0.925902
0.615351 0.820127 0.925963
0.716548 0.822446 0.925536
0.818509 0.820127 0.917235
0.912596 0.813107 0.905974
0.994537 0.818357 0.897490
0.442908 0.933623 0.921813
0.465919 0.933928 0.922271
0.528283 0.933288 0.921935
0.611841 0.932494 0.921630
0.709071 0.929351 0.919280
0.812497 0.923674 0.914763
0.908507 0.910521 0.903136
0.989166 0.908782 0.904112
0.461860 1.000000 0.888426
0.479286 1.000000 0.888548
0.535729 1.000000 0.890501
0.612543 1.000000 0.890745
0.705989 1.000000 0.891844
0.808103 0.999268 0.896117
0.901946 0.992309 0.901427
0.984039 0.985748 0.900175
0.052766 0.064149 1.000000
0.163577 0.089601 1.000000
0.313787 0.144015 1.000000
0.468086 0.218357 1.000000
0.614954 0.290684 0.996155
0.750362 0.352544 0.990967
0.877043 0.405585 0.987671
0.995453 0.446174 0.985107
0.152743 0.205203 1.000000
0.213535 0.215488 1.000000
0.340429 0.243198 1.000000
0.482277 0.288365 0.997528
0.621607 0.339574 0.993774
0.752255 0.386847 0.988678
0.875578 0.428321 0.985046
0.992920 0.462501 0.982666
0.314244 0.407660 0.998047
0.341833 0.411353 0.997772
0.418952 0.419959 0.995544
0.530755 0.442481 0.994598
0.646754 0.463661 0.990814
0.762051 0.483680 0.985534
0.876951 0.505058 0.982116
0.990509 0.523613 0.980743
0.432929 0.571008 0.994537
0.450111 0.572808 0.994476
0.500511 0.575128 0.992889
0.580896 0.581811 0.991150
0.675349 0.588708 0.988281
0.775387 0.593469 0.984070
0.879820 0.597436 0.980713
0.989502 0.602441 0.980346
0.440162 0.668269 0.993286
0.463111 0.672236 0.993164
0.523796 0.680049 0.991394
0.602655 0.687007 0.989349
0.686610 0.687648 0.986114
0.778958 0.685908 0.981964
0.878691 0.684871 0.977996
0.987488 0.692744 0.979309
0.447578 0.773220 0.989441
0.465675 0.774136 0.988891
0.520806 0.777005 0.987701
0.597986 0.780362 0.986938
0.692988 0.786343 0.985595
0.791928 0.792996 0.982910
0.886778 0.794064 0.980224
0.987854 0.802396 0.981170
0.460914 0.883787 0.986450
0.476967 0.883909 0.986114
0.526177 0.884184 0.985412
0.602228 0.885557 0.985077
0.698726 0.888823 0.984741
0.807492 0.896941 0.984558
0.904112 0.905119 0.982208
0.981750 0.899077 0.977020
0.476936 0.995666 0.984375
0.490425 0.995361 0.984131
0.536309 0.994629 0.983764
0.611505 0.993774 0.983551
0.705959 0.992187 0.983062
0.808682 0.989654 0.982116
0.907378 0.985931 0.980560
0.978241 0.979065 0.975952
