data/fiter_cube/55192441/1023184/file.cube
# Created by Adobe Lightroom plugin Export LUT (1.17.0)
# www.johnrellis.com/lightroom/exportlut.htm
# Preset: 清新轻盈通透人像_02 云集
# Color profile: C:\Program Files (x86)\Common Files\Adobe\Color\Profiles\Recommended\AdobeRGB1998.icc
LUT_3D_SIZE 32
DOMAIN_MIN 0.0 0.0 0.0
DOMAIN_MAX 1.0 1.0 1.0
0.000000 0.000000 0.000000
0.009491 0.000000 0.000000
0.039368 0.000000 0.000000
0.079530 0.000000 0.000000
0.135439 0.000000 0.000000
0.220157 0.000000 0.000000
0.312169 0.000000 0.000000
0.396796 0.000000 0.000000
0.469490 0.000000 0.000000
0.532036 0.000000 0.000000
0.586877 0.000000 0.000000
0.634546 0.000000 0.000000
0.676661 0.000000 0.000000
0.713558 0.000000 0.000000
0.745022 0.000000 0.000000
0.772580 0.000000 0.000000
0.798337 0.000000 0.000000
0.823056 0.000000 0.000000
0.847990 0.000000 0.000000
0.880095 0.000000 0.000000
0.909606 0.000000 0.000000
0.936767 0.000000 0.000000
0.961395 0.000000 0.000000
0.984009 0.000000 0.000000
1.000000 0.000000 0.000000
1.000000 0.058778 0.005219
1.000000 0.092195 0.076051
1.000000 0.118441 0.107027
1.000000 0.141848 0.133303
1.000000 0.165255 0.158236
1.000000 0.188602 0.182803
1.000000 0.212039 0.207309
0.000000 0.009613 0.000000
0.007843 0.010468 0.000000
0.039582 0.011109 0.000000
0.079316 0.012909 0.000000
0.134768 0.019257 0.000000
0.218021 0.031403 0.000000
0.309087 0.031769 0.000000
0.392798 0.016114 0.000000
0.465278 0.000000 0.000000
0.528069 0.000000 0.000000
0.582727 0.000000 0.000000
0.630549 0.000000 0.000000
0.672663 0.000000 0.000000
0.709773 0.000000 0.000000
0.741451 0.000000 0.000000
0.769100 0.000000 0.000000
0.794827 0.000000 0.000000
0.819547 0.000000 0.000000
0.844938 0.000000 0.000000
0.875853 0.000000 0.000000
0.904662 0.000000 0.000000
0.931487 0.000000 0.000000
0.956115 0.000000 0.000000
0.978882 0.000000 0.000000
1.000000 0.000732 0.000000
1.000000 0.068116 0.000000
1.000000 0.095247 0.060731
1.000000 0.120241 0.097688
1.000000 0.142031 0.124788
1.000000 0.164157 0.150607
1.000000 0.186252 0.175082
1.000000 0.209079 0.199863
0.000000 0.039704 0.000000
0.007599 0.041077 0.000000
0.037995 0.041932 0.000000
0.079072 0.047059 0.000000
0.134005 0.063294 0.000000
0.216526 0.079896 0.000000
0.306188 0.089815 0.000000
0.389319 0.092164 0.000000
0.461738 0.088106 0.000000
0.524620 0.078645 0.000000
0.579492 0.066773 0.000000
0.627558 0.042451 0.000000
0.669886 0.000000 0.000000
0.707271 0.000000 0.000000
0.739101 0.000000 0.000000
0.766934 0.000000 0.000000
0.792660 0.000000 0.000000
0.817380 0.000000 0.000000
0.843381 0.000000 0.000000
0.873533 0.000000 0.000000
0.902007 0.000000 0.000000
0.928710 0.000000 0.000000
0.953307 0.000000 0.000000
0.976135 0.003510 0.000000
0.997528 0.063233 0.000000
1.000000 0.086854 0.000000
1.000000 0.108644 0.050721
1.000000 0.129091 0.092470
1.000000 0.148867 0.121096
1.000000 0.169345 0.147066
1.000000 0.189914 0.171756
1.000000 0.211398 0.196506
0.000000 0.080385 0.000000
0.006226 0.081270 0.000000
0.041718 0.081941 0.000000
0.082094 0.083101 0.000000
0.135744 0.099550 0.000000
0.217258 0.124758 0.000000
0.305425 0.142794 0.000000
0.387823 0.151736 0.000000
0.459419 0.152834 0.000000
0.521904 0.149355 0.000000
0.576532 0.143374 0.000000
0.624537 0.135042 0.000000
0.666712 0.125948 0.000000
0.704128 0.115602 0.000000
0.736233 0.104585 0.000000
0.764248 0.093050 0.000000
0.789975 0.081819 0.000000
0.814633 0.071870 0.000000
0.841337 0.063905 0.000000
0.870054 0.061860 0.000000
0.897551 0.064302 0.000000
0.923735 0.072114 0.000000
0.948547 0.083650 0.000000
0.972076 0.096193 0.000000
0.994507 0.109651 0.000000
1.000000 0.123629 0.000000
1.000000 0.138216 0.053468
1.000000 0.154360 0.094942
1.000000 0.170413 0.123476
1.000000 0.186801 0.148348
1.000000 0.204288 0.172213
1.000000 0.222324 0.195560
0.000000 0.138979 0.000000
0.000000 0.140291 0.000000
0.054505 0.141970 0.000000
0.099428 0.144869 0.000000
0.146242 0.148318 0.000000
0.215824 0.169894 0.000000
0.301976 0.194675 0.000000
0.382849 0.208499 0.000000
0.453956 0.212863 0.000000
0.516258 0.211978 0.000000
0.571038 0.207370 0.000000
0.619226 0.200504 0.000000
0.661738 0.192386 0.000000
0.699672 0.183810 0.000000
0.732418 0.174380 0.000000
0.761044 0.165225 0.000000
0.787381 0.156191 0.000000
0.812436 0.148379 0.000000
0.840665 0.143069 0.000000
0.868528 0.140108 0.000000
0.895232 0.139101 0.000000
0.920989 0.140444 0.000000
0.945556 0.143923 0.000000
0.969146 0.149081 0.000000
0.991791 0.155825 0.000000
1.000000 0.164157 0.000000
1.000000 0.173709 0.057984
1.000000 0.184451 0.095613
1.000000 0.196567 0.123690
1.000000 0.209720 0.148592
1.000000 0.223545 0.171664
1.000000 0.239017 0.194888
0.000000 0.226139 0.000000
0.000000 0.227604 0.000000
0.048493 0.228580 0.000000
0.115938 0.230686 0.000000
0.174075 0.232822 0.000000
0.231785 0.235111 0.000000
0.303410 0.249851 0.000000
0.382300 0.266484 0.000000
0.452186 0.272465 0.000000
0.513909 0.272099 0.000000
0.568414 0.268132 0.000000
0.616510 0.261112 0.000000
0.658900 0.252934 0.000000
0.697047 0.243839 0.000000
0.730007 0.234348 0.000000
0.758938 0.224521 0.000000
0.785519 0.215274 0.000000
0.812100 0.207736 0.000000
0.840726 0.202396 0.000000
0.868162 0.198489 0.000000
0.894835 0.196262 0.000000
0.920745 0.195407 0.000000
0.976135 0.220066 0.000000
0.998199 0.225498 0.035004
1.000000 0.231296 0.090211
1.000000 0.237583 0.118502
1.000000 0.244602 0.141421
1.000000 0.252506 0.162448
1.000000 0.261357 0.182193
1.000000 0.271153 0.201297
1.000000 0.281804 0.220249
1.000000 0.293095 0.238773
0.000000 0.333532 0.000000
0.000000 0.333745 0.000000
0.000000 0.334203 0.000000
0.124178 0.335119 0.000000
0.195590 0.336461 0.000000
0.264744 0.335637 0.000000
0.330053 0.334813 0.000000
0.397955 0.338048 0.000000
0.465980 0.342473 0.000000
0.526329 0.340703 0.000000
0.579583 0.334844 0.000000
0.626612 0.326421 0.000000
0.668086 0.316503 0.000000
0.704616 0.305547 0.000000
0.736019 0.293950 0.000000
0.763516 0.282628 0.000000
0.789456 0.272313 0.000000
0.819394 0.265171 0.000000
0.848173 0.259525 0.000000
0.876555 0.255528 0.000000
0.905119 0.253910 0.000000
0.933562 0.254215 0.000000
0.961089 0.257053 0.000000
0.986999 0.261112 0.000000
1.000000 0.266361 0.082185
1.000000 0.271458 0.115755
1.000000 0.276860 0.141085
1.000000 0.282383 0.162112
1.000000 0.288548 0.181430
1.000000 0.295781 0.200107
1.000000 0.303502 0.218082
1.000000 0.312230 0.236057
0.000000 0.412024 0.000000
0.000000 0.411933 0.000000
0.000000 0.411780 0.000000
0.106386 0.411475 0.000000
0.192020 0.411170 0.000000
0.263890 0.410132 0.000000
0.333379 0.407385 0.000000
0.399023 0.404822 0.000000
0.462684 0.401892 0.000000
0.522454 0.399573 0.000000
0.575494 0.392981 0.000000
0.622278 0.383703 0.000000
0.663783 0.372778 0.000000
0.700404 0.360906 0.000000
0.732052 0.348241 0.000000
0.759762 0.335668 0.000000
0.788998 0.325811 0.000000
0.817929 0.317540 0.000000
0.845396 0.310521 0.000000
0.872923 0.305119 0.000000
0.900786 0.301823 0.000000
0.928710 0.300481 0.000000
0.955871 0.301183 0.000000
0.981628 0.302953 0.003967
1.000000 0.305486 0.086580
1.000000 0.308476 0.119020
1.000000 0.311315 0.142702
1.000000 0.314458 0.162844
1.000000 0.318761 0.182040
1.000000 0.323369 0.199893
1.000000 0.329259 0.218051
1.000000 0.335576 0.235447
0.000000 0.479316 0.000000
0.000000 0.479072 0.000000
0.000000 0.478767 0.000000
0.064759 0.478004 0.000000
0.177707 0.477089 0.000000
0.253941 0.475624 0.000000
0.325536 0.473030 0.000000
0.393805 0.469490 0.000000
0.459083 0.465705 0.000000
0.520592 0.460792 0.000000
0.573022 0.452338 0.000000
0.619593 0.441474 0.000000
0.661036 0.429358 0.000000
0.697566 0.416052 0.000000
0.729122 0.402228 0.000000
0.759731 0.389990 0.000000
0.789273 0.379095 0.000000
0.816892 0.369238 0.000000
0.843534 0.360601 0.000000
0.870512 0.353979 0.000000
0.897856 0.349493 0.000000
0.925322 0.346715 0.000000
0.952148 0.345647 0.000000
0.977691 0.345800 0.044526
1.000000 0.346654 0.097780
1.000000 0.347265 0.126558
1.000000 0.348272 0.148684
1.000000 0.349554 0.168093
1.000000 0.351537 0.185763
1.000000 0.354284 0.202976
1.000000 0.357824 0.220096
1.000000 0.361852 0.236545
0.000000 0.536797 0.000000
0.000000 0.536400 0.000000
0.000000 0.535851 0.000000
0.000000 0.534936 0.000000
0.154757 0.533562 0.000000
0.238804 0.531792 0.000000
0.309758 0.529686 0.000000
0.380102 0.525872 0.000000
0.446479 0.521752 0.000000
0.509972 0.517510 0.000000
0.569726 0.511620 0.000000
0.615656 0.498024 0.000000
0.657313 0.484596 0.000000
0.694026 0.470130 0.000000
0.729854 0.457649 0.000000
0.760861 0.444526 0.000000
0.789853 0.432136 0.000000
0.817197 0.420905 0.000000
0.843534 0.411231 0.000000
0.869841 0.403265 0.000000
0.896269 0.397284 0.000000
0.922423 0.392737 0.000000
0.947997 0.389380 0.000000
0.972503 0.387304 0.067720
0.995727 0.385840 0.105013
1.000000 0.384833 0.131380
1.000000 0.384253 0.152651
1.000000 0.384283 0.171878
1.000000 0.385107 0.190188
1.000000 0.386633 0.207523
1.000000 0.388952 0.224887
1.000000 0.391791 0.241855
0.000000 0.584375 0.000000
0.000000 0.584131 0.000000
0.000000 0.583764 0.000000
0.000000 0.582910 0.000000
0.122286 0.581750 0.000000
0.218021 0.580316 0.000000
0.292821 0.578607 0.000000
0.361303 0.576165 0.000000
0.429297 0.572137 0.000000
0.493599 0.567895 0.000000
0.554986 0.563165 0.000000
0.613367 0.557244 0.000000
0.657069 0.542596 0.000000
0.696315 0.528222 0.000000
0.730037 0.512688 0.000000
0.759823 0.497292 0.000000
0.787961 0.483223 0.000000
0.814664 0.470741 0.000000
0.840574 0.459541 0.000000
0.866606 0.450294 0.000000
0.892729 0.443122 0.000000
0.918791 0.437385 0.000000
0.944335 0.433173 0.024048
0.968872 0.429755 0.089967
0.992096 0.427100 0.120333
1.000000 0.424475 0.143191
1.000000 0.422217 0.162295
1.000000 0.420691 0.179721
1.000000 0.419776 0.196323
1.000000 0.419562 0.212619
1.000000 0.420172 0.228946
1.000000 0.421302 0.245304
0.000000 0.627802 0.000000
0.000000 0.627619 0.000000
0.000000 0.627192 0.000000
0.000000 0.626459 0.000000
0.071077 0.625452 0.000000
0.193606 0.624109 0.000000
0.272892 0.622553 0.000000
0.341863 0.620783 0.000000
0.409155 0.617762 0.000000
0.474434 0.613794 0.000000
0.538048 0.611231 0.000000
0.600793 0.609491 0.000000
0.684749 0.628504 0.000000
0.721035 0.606683 0.000000
0.753140 0.586847 0.000000
0.782620 0.568688 0.000000
0.810086 0.552300 0.000000
0.835966 0.537713 0.000000
0.860746 0.525048 0.000000
0.885588 0.514305 0.000000
0.910155 0.505119 0.059144
0.934295 0.497597 0.100313
0.957580 0.490974 0.127016
0.980041 0.485481 0.149813
1.000000 0.480598 0.169131
1.000000 0.476234 0.185855
1.000000 0.472206 0.200565
1.000000 0.468574 0.213809
1.000000 0.465644 0.226963
1.000000 0.463325 0.240146
1.000000 0.461769 0.253819
1.000000 0.460731 0.267613
0.000000 0.675776 0.000000
0.000000 0.675502 0.000000
0.000000 0.674678 0.000000
0.000000 0.673335 0.000000
0.000000 0.671351 0.000000
0.167910 0.668971 0.000000
0.253513 0.666621 0.000000
0.324346 0.664332 0.000000
0.390723 0.664363 0.000000
0.459419 0.664149 0.000000
0.525811 0.663783 0.000000
0.590265 0.663081 0.000000
0.652308 0.661677 0.000000
0.711696 0.658930 0.000000
0.746914 0.638025 0.000000
0.777188 0.618769 0.000000
0.804868 0.600793 0.000000
0.830503 0.584497 0.000000
0.855161 0.570306 0.000000
0.879576 0.558312 0.000000
0.903838 0.548394 0.088746
0.927947 0.539452 0.117952
0.951141 0.531670 0.141451
0.973693 0.524834 0.161044
0.995209 0.518608 0.177859
1.000000 0.512902 0.192813
1.000000 0.507652 0.206241
1.000000 0.502953 0.219059
1.000000 0.498726 0.231205
1.000000 0.495399 0.244114
1.000000 0.492531 0.256748
1.000000 0.490303 0.270573
0.000000 0.706905 0.000000
0.000000 0.706600 0.000000
0.000000 0.705959 0.000000
0.000000 0.705104 0.000000
0.000000 0.704372 0.000000
0.137179 0.703456 0.000000
0.231968 0.702632 0.000000
0.305577 0.701778 0.000000
0.371862 0.701167 0.000000
0.436042 0.700526 0.000000
0.501396 0.698970 0.000000
0.564294 0.697414 0.000000
0.624781 0.695308 0.000000
0.682612 0.692287 0.000000
0.737362 0.687922 0.000000
0.771115 0.667536 0.000000
0.798734 0.647822 0.000000
0.824521 0.629969 0.000000
0.849210 0.614343 0.000000
0.873686 0.601068 0.017517
0.898039 0.589960 0.099031
0.922026 0.580621 0.133303
0.945342 0.572168 0.157473
0.968109 0.564385 0.174716
0.989899 0.557244 0.190066
1.000000 0.550500 0.203830
1.000000 0.544152 0.215824
1.000000 0.538384 0.227390
1.000000 0.533288 0.238895
1.000000 0.528862 0.250980
1.000000 0.525109 0.263767
1.000000 0.521721 0.276860
0.000000 0.741329 0.000000
0.000000 0.741299 0.000000
0.000000 0.740780 0.000000
0.000000 0.739803 0.000000
0.000000 0.738369 0.000000
0.105348 0.736599 0.000000
0.211429 0.734920 0.000000
0.286656 0.733394 0.000000
0.352514 0.732265 0.000000
0.414374 0.731594 0.000000
0.476875 0.730495 0.000000
0.538994 0.728817 0.000000
0.598596 0.726711 0.000000
0.655573 0.723720 0.000000
0.709651 0.719448 0.000000
0.760250 0.713802 0.000000
0.793088 0.694575 0.000000
0.818875 0.675105 0.000000
0.843839 0.657923 0.000000
0.868254 0.643336 0.038788
0.892454 0.630945 0.106752
0.916411 0.620356 0.139986
0.939696 0.611048 0.165133
0.962432 0.602869 0.186801
0.984497 0.595087 0.202335
1.000000 0.587793 0.215183
1.000000 0.581109 0.227329
1.000000 0.575189 0.239872
1.000000 0.569818 0.251865
1.000000 0.565209 0.264866
1.000000 0.560998 0.278355
1.000000 0.557183 0.292546
0.000000 0.771725 0.000000
0.000000 0.771786 0.000000
0.000000 0.771481 0.000000
0.000000 0.770748 0.000000
0.000000 0.769558 0.000000
0.072786 0.768215 0.000000
0.194339 0.766903 0.000000
0.271031 0.765713 0.000000
0.337285 0.764584 0.000000
0.398077 0.763546 0.000000
0.456153 0.762448 0.000000
0.516655 0.759945 0.000000
0.574578 0.756710 0.000000
0.629999 0.752773 0.000000
0.682551 0.748013 0.000000
0.732448 0.742428 0.000000
0.779751 0.736294 0.000000
0.812863 0.719570 0.000000
0.838224 0.700984 0.000000
0.863584 0.685664 0.062470
0.888457 0.672541 0.115450
0.912840 0.661280 0.150851
0.936522 0.651270 0.176852
0.959564 0.642390 0.197940
0.981781 0.634394 0.216464
1.000000 0.627100 0.232609
1.000000 0.619684 0.243839
1.000000 0.613031 0.255283
1.000000 0.606867 0.267124
1.000000 0.600977 0.278477
1.000000 0.595453 0.290623
1.000000 0.590112 0.303105
0.000000 0.797879 0.000000
0.000000 0.797726 0.000000
0.000000 0.797269 0.000000
0.000000 0.796536 0.000000
0.000000 0.795438 0.000000
0.005310 0.794125 0.000000
0.178500 0.792844 0.000000
0.256138 0.791501 0.000000
0.321447 0.790280 0.000000
0.381231 0.789151 0.000000
0.437964 0.788083 0.000000
0.493812 0.786648 0.000000
0.551263 0.783719 0.000000
0.605921 0.780087 0.000000
0.657923 0.775540 0.000000
0.707057 0.770138 0.000000
0.753964 0.764126 0.000000
0.798795 0.758022 0.000000
0.832639 0.743923 0.000000
0.857542 0.726314 0.080751
0.882689 0.712032 0.121889
0.907256 0.699580 0.153079
0.931090 0.688655 0.180667
0.954406 0.679103 0.202976
0.976959 0.670375 0.221805
0.998749 0.662501 0.238560
1.000000 0.655268 0.253696
1.000000 0.648432 0.266789
1.000000 0.641657 0.278080
1.000000 0.635309 0.289769
1.000000 0.628992 0.301427
1.000000 0.622889 0.314153
0.000000 0.823301 0.000000
0.000000 0.823545 0.000000
0.000000 0.840452 0.000000
0.000000 0.839689 0.000000
0.000000 0.838407 0.000000
0.080323 0.836728 0.000000
0.188876 0.834806 0.000000
0.260288 0.832822 0.000000
0.322606 0.830930 0.000000
0.380163 0.829221 0.000000
0.434607 0.827512 0.000000
0.487190 0.825559 0.000000
0.540978 0.822324 0.000000
0.594659 0.817960 0.000000
0.645563 0.812985 0.000000
0.693996 0.807370 0.000000
0.740261 0.801205 0.000000
0.784360 0.794705 0.000000
0.826688 0.788174 0.081971
0.860746 0.776028 0.123201
0.884489 0.758419 0.154940
0.908659 0.744381 0.178378
0.932280 0.731868 0.198398
0.954894 0.720760 0.219425
0.976471 0.710292 0.236454
0.997314 0.700618 0.251164
1.000000 0.691615 0.263890
1.000000 0.683406 0.276188
1.000000 0.676020 0.288640
1.000000 0.668910 0.300145
1.000000 0.661830 0.311345
1.000000 0.654627 0.323278
0.000000 0.851560 0.000000
0.000000 0.853635 0.000000
0.000000 0.855650 0.000000
0.000000 0.856992 0.000000
0.000000 0.857511 0.000000
0.081910 0.856809 0.000000
0.184268 0.855436 0.000000
0.252903 0.853696 0.000000
0.312718 0.852049 0.000000
0.367834 0.850370 0.000000
0.420569 0.848722 0.000000
0.471290 0.846891 0.000000
0.520348 0.844602 0.000000
0.572473 0.840635 0.000000
0.622644 0.835904 0.000000
0.670527 0.830594 0.000000
0.716243 0.824887 0.000000
0.760098 0.818906 0.059602
0.802518 0.812955 0.101961
0.843565 0.807279 0.131319
0.878630 0.797696 0.159030
0.902495 0.781338 0.185641
0.926604 0.768368 0.205356
0.949920 0.756497 0.222538
0.972015 0.745541 0.240452
0.993256 0.735378 0.255680
1.000000 0.725917 0.269474
1.000000 0.717250 0.282506
1.000000 0.709285 0.295415
1.000000 0.701808 0.308690
1.000000 0.694423 0.321752
1.000000 0.686397 0.333104
0.000000 0.872404 0.000000
0.000000 0.874235 0.000000
0.000000 0.876036 0.000000
0.000000 0.877287 0.000000
0.000000 0.877775 0.000000
0.094118 0.877195 0.000000
0.184787 0.875944 0.000000
0.248966 0.874418 0.000000
0.305791 0.872923 0.000000
0.358801 0.871397 0.000000
0.409552 0.869871 0.000000
0.458473 0.868223 0.000000
0.505791 0.866056 0.000000
0.553063 0.863279 0.000000
0.602625 0.858885 0.000000
0.649836 0.853971 0.000000
0.695094 0.848692 0.038087
0.738674 0.843198 0.092226
0.780880 0.837705 0.121218
0.821958 0.832486 0.146242
0.861814 0.827512 0.168551
0.897917 0.820523 0.190677
0.921538 0.804837 0.213596
0.945159 0.792416 0.230808
0.967773 0.780697 0.245274
0.989288 0.769802 0.259861
1.000000 0.759640 0.273960
1.000000 0.750271 0.287236
1.000000 0.741604 0.300359
1.000000 0.733394 0.313573
1.000000 0.725277 0.326635
1.000000 0.716945 0.340032
0.000000 0.892912 0.000000
0.000000 0.894621 0.000000
0.000000 0.896269 0.000000
0.000000 0.897429 0.000000
0.000000 0.897856 0.000000
0.112123 0.897337 0.000000
0.188693 0.896239 0.000000
0.248020 0.894804 0.000000
0.301732 0.893309 0.000000
0.352117 0.891783 0.000000
0.400458 0.890257 0.000000
0.447517 0.888609 0.000000
0.493050 0.886595 0.000000
0.537682 0.884306 0.000000
0.584100 0.881041 0.000000
0.631128 0.876951 0.048096
0.676722 0.872770 0.095521
0.720851 0.868650 0.124544
0.763821 0.864652 0.149355
0.805753 0.860868 0.172763
0.846647 0.857328 0.194064
0.886473 0.853941 0.214328
0.923827 0.849424 0.233402
0.947234 0.834470 0.253819
0.970336 0.822660 0.269291
0.992187 0.811276 0.282689
1.000000 0.800412 0.295659
1.000000 0.790372 0.309789
1.000000 0.780819 0.323308
1.000000 0.771572 0.336492
1.000000 0.762264 0.349950
1.000000 0.753079 0.363073
0.000000 0.920165 0.050965
0.000000 0.920897 0.060456
0.000000 0.921355 0.065705
0.000000 0.921447 0.069032
0.013123 0.921141 0.071626
0.140932 0.920287 0.072358
0.202487 0.919188 0.071473
0.255650 0.917998 0.072267
0.305180 0.916899 0.074037
0.352850 0.915801 0.077729
0.399023 0.914702 0.083406
0.444129 0.913329 0.087617
0.487861 0.911559 0.091127
0.530632 0.909453 0.093446
0.572625 0.906981 0.094667
0.618311 0.903258 0.116518
0.663020 0.899229 0.138369
0.706447 0.895201 0.157809
0.748653 0.891203 0.176516
0.789792 0.887297 0.194278
0.829862 0.883421 0.211551
0.868894 0.879667 0.228153
0.906798 0.875883 0.244205
0.943664 0.872190 0.258915
0.965820 0.856840 0.276158
0.987854 0.844907 0.289372
1.000000 0.833555 0.301640
1.000000 0.822721 0.313420
1.000000 0.812589 0.327520
1.000000 0.802579 0.341100
1.000000 0.792721 0.354406
1.000000 0.783047 0.367315
0.000000 0.939544 0.116976
0.000000 0.940246 0.120302
0.000000 0.940795 0.123171
0.000000 0.940917 0.125521
0.096132 0.940612 0.126711
0.160281 0.939788 0.125948
0.212314 0.938659 0.125154
0.259739 0.937407 0.124361
0.305821 0.936187 0.125246
0.350500 0.935027 0.127047
0.394293 0.933867 0.129366
0.437171 0.932586 0.131991
0.479164 0.930999 0.133669
0.520653 0.929107 0.135805
0.561273 0.927031 0.136965
0.602533 0.924529 0.141451
0.646845 0.921050 0.159487
0.689937 0.917571 0.176394
0.732021 0.914092 0.193515
0.772976 0.910735 0.209812
0.813016 0.907439 0.226169
0.852140 0.904234 0.242100
0.890227 0.901122 0.257725
0.927306 0.897917 0.272526
0.960021 0.891203 0.276158
0.982055 0.876738 0.291234
1.000000 0.864622 0.304021
1.000000 0.853452 0.315679
1.000000 0.842588 0.327428
1.000000 0.832120 0.340795
1.000000 0.822019 0.354559
1.000000 0.812222 0.368109
0.000000 0.963684 0.173556
0.000000 0.964416 0.176333
0.049073 0.964752 0.178042
0.105440 0.964599 0.178592
0.150210 0.963958 0.177951
0.192081 0.962890 0.176577
0.232914 0.961517 0.174868
0.273350 0.959899 0.172732
0.313817 0.958221 0.171054
0.354131 0.956512 0.170047
0.394263 0.954711 0.169558
0.434119 0.952972 0.169436
0.473701 0.951080 0.169100
0.512810 0.948821 0.168673
0.551293 0.946258 0.167391
0.589410 0.943481 0.166171
0.629847 0.940093 0.172213
0.671870 0.936400 0.185916
0.713222 0.933074 0.200290
0.753964 0.930114 0.215824
0.793881 0.927337 0.231724
0.832822 0.924529 0.246983
0.870634 0.921477 0.261662
0.907195 0.918120 0.274784
0.942473 0.914488 0.287022
0.976959 0.910796 0.297887
1.000000 0.898192 0.310674
1.000000 0.885466 0.322179
1.000000 0.873930 0.332799
1.000000 0.862760 0.344152
1.000000 0.852049 0.356603
1.000000 0.841855 0.370275
0.063813 0.980682 0.198276
0.088136 0.981353 0.200687
0.108980 0.981689 0.202152
0.138186 0.981537 0.202853
0.171572 0.980987 0.202304
0.206760 0.980072 0.201328
0.243076 0.978943 0.200229
0.279820 0.977630 0.198978
0.317510 0.976257 0.198123
0.355627 0.974914 0.198062
0.393591 0.973510 0.197787
0.431922 0.972107 0.198489
0.470008 0.970581 0.199313
0.507713 0.968780 0.199344
0.544976 0.966644 0.199069
0.581964 0.964294 0.198459
0.618799 0.961883 0.198306
0.659480 0.958709 0.208225
0.700221 0.955688 0.220951
0.740322 0.952880 0.234531
0.779721 0.950195 0.248753
0.818204 0.947509 0.262608
0.855619 0.944640 0.275700
0.891966 0.941588 0.288090
0.927245 0.938262 0.299840
0.961486 0.934722 0.310613
0.994903 0.931182 0.321324
1.000000 0.920073 0.332982
1.000000 0.907073 0.344732
1.000000 0.895384 0.355932
1.000000 0.883970 0.367926
1.000000 0.873014 0.380041
0.126680 0.998749 0.225437
0.138277 0.999145 0.227085
0.149325 0.999207 0.227604
0.168887 0.998871 0.227451
0.193820 0.998138 0.226383
0.222599 0.997162 0.224887
0.253788 0.995972 0.223117
0.286900 0.994690 0.221530
0.321508 0.993378 0.220676
0.356909 0.992157 0.220279
0.393011 0.990906 0.220432
0.429572 0.989715 0.221469
0.466072 0.988403 0.222141
0.502403 0.986816 0.222751
0.538231 0.984894 0.222568
0.573846 0.982727 0.221958
0.609400 0.980407 0.221561
0.645808 0.978027 0.223514
0.685847 0.975128 0.234409
0.725277 0.972473 0.246525
0.764034 0.969909 0.259220
0.802060 0.967315 0.272129
0.839048 0.964599 0.284611
0.875090 0.961730 0.296361
0.910124 0.958618 0.307408
0.944305 0.955322 0.317845
0.977661 0.951965 0.328099
1.000000 0.948547 0.337865
1.000000 0.938628 0.348943
1.000000 0.925322 0.360906
1.000000 0.913329 0.372168
1.000000 0.901915 0.383764
0.157778 1.000000 0.244877
0.165499 1.000000 0.245823
0.174258 1.000000 0.246342
0.189792 1.000000 0.246159
0.211795 1.000000 0.245884
0.238071 1.000000 0.246159
0.268009 1.000000 0.247074
0.300053 1.000000 0.248814
0.333959 1.000000 0.251621
0.368597 1.000000 0.254826
0.403937 1.000000 0.258518
0.439368 1.000000 0.262150
0.474617 1.000000 0.265568
0.509636 1.000000 0.268223
0.544121 1.000000 0.269810
0.578058 1.000000 0.270085
0.611963 1.000000 0.270390
0.645838 1.000000 0.270603
0.682277 1.000000 0.276188
0.720546 0.998138 0.286076
0.758175 0.995514 0.296880
0.795071 0.992859 0.308019
0.831052 0.990051 0.318486
0.866178 0.987121 0.328710
0.900450 0.984009 0.338750
0.933989 0.980713 0.348211
0.966827 0.977356 0.357275
0.998779 0.973968 0.366430
1.000000 0.970703 0.375677
1.000000 0.961212 0.386175
1.000000 0.946624 0.398169
1.000000 0.933715 0.409003
0.213535 1.000000 0.283482
0.218387 1.000000 0.284062
0.223880 1.000000 0.284154
0.234470 1.000000 0.283513
0.250156 1.000000 0.282628
0.270085 1.000000 0.281865
0.293492 1.000000 0.281224
0.319829 1.000000 0.281163
0.348455 1.000000 0.281590
0.378820 1.000000 0.282902
0.410010 1.000000 0.283909
0.441993 1.000000 0.285344
0.474372 1.000000 0.286656
0.506889 1.000000 0.287816
