data/fiter_cube/55192441/1023184/file.cube
# Created by Adobe Lightroom plugin Export LUT (1.17.0)
# www.johnrellis.com/lightroom/exportlut.htm
# Preset: 清新轻盈通透人像_02 云集
# Color profile: C:\Program Files (x86)\Common Files\Adobe\Color\Profiles\Recommended\AdobeRGB1998.icc
LUT_3D_SIZE 5
DOMAIN_MIN 0.000000 0.000000 0.000000
DOMAIN_MAX 0.903226 0.903226 0.903226
0.000000 0.000000 0.000000
0.396796 0.000000 0.000000
0.745022 0.000000 0.000000
0.936767 0.000000 0.000000
1.000000 0.141848 0.133303
0.000000 0.412024 0.000000
0.399023 0.404822 0.000000
0.732052 0.348241 0.000000
0.928710 0.300481 0.000000
1.000000 0.318761 0.182040
0.000000 0.741329 0.000000
0.286656 0.733394 0.000000
0.709651 0.719448 0.000000
0.916411 0.620356 0.139986
1.000000 0.569818 0.251865
0.000000 0.920165 0.050965
0.255650 0.917998 0.072267
0.572625 0.906981 0.094667
0.868894 0.879667 0.228153
1.000000 0.812589 0.327520
0.234012 1.000000 0.300145
0.329381 1.000000 0.299199
0.523278 1.000000 0.280888
0.760006 1.000000 0.314977
0.992126 0.999298 0.380987
0.000000 0.000000 0.382788
0.385809 0.000000 0.379461
0.723720 0.000000 0.343694
0.898436 0.291600 0.390661
1.000000 0.346136 0.411963
0.000000 0.401526 0.392065
0.383795 0.387854 0.372992
0.711421 0.385199 0.376318
0.894163 0.403998 0.397436
1.000000 0.425269 0.420691
0.000000 0.731624 0.319921
0.312169 0.721828 0.324559
0.689357 0.697230 0.359136
0.884611 0.636927 0.421759
1.000000 0.614771 0.449775
0.232944 0.909697 0.385412
0.368841 0.907469 0.392737
0.603174 0.898100 0.388769
0.864561 0.873808 0.428504
1.000000 0.821683 0.473304
0.375769 1.000000 0.463172
0.412909 1.000000 0.444739
0.575097 1.000000 0.444984
0.777188 1.000000 0.452552
0.992615 0.998993 0.492531
0.000000 0.000000 0.707851
0.327764 0.000000 0.701411
0.697536 0.000000 0.687465
0.881529 0.364721 0.632258
1.000000 0.484382 0.647761
0.000000 0.338384 0.713741
0.360449 0.362890 0.702480
0.694362 0.410529 0.685328
0.870451 0.494881 0.650324
1.000000 0.555322 0.665461
0.000000 0.712581 0.699855
0.391394 0.706538 0.694392
0.682063 0.684901 0.674830
0.859098 0.683101 0.676478
1.000000 0.679530 0.674769
0.306645 0.895720 0.628748
0.442359 0.886839 0.639704
0.651362 0.877623 0.653590
0.858824 0.864927 0.661006
1.000000 0.833707 0.671901
0.408698 1.000000 0.620630
0.492683 1.000000 0.637995
0.634821 1.000000 0.646937
0.793942 1.000000 0.637537
0.988739 0.993500 0.653681
0.000000 0.000000 0.877226
0.281163 0.000000 0.874388
0.599512 0.217502 0.862913
0.861357 0.360632 0.851286
1.000000 0.478065 0.812284
0.241337 0.365698 0.875883
0.379919 0.381506 0.872099
0.626276 0.427832 0.858091
0.854368 0.478828 0.845029
1.000000 0.538720 0.813993
0.354376 0.640955 0.874998
0.473610 0.655390 0.872587
0.666651 0.668360 0.855985
0.842649 0.661891 0.834745
1.000000 0.677913 0.822019
0.398840 0.876768 0.864775
0.489326 0.873106 0.861570
0.661036 0.867338 0.856596
0.844511 0.847105 0.837888
0.998657 0.841917 0.837095
0.452369 1.000000 0.808835
0.513085 1.000000 0.811948
0.656031 1.000000 0.818540
0.824857 1.000000 0.827329
0.985657 0.988281 0.825010
0.052766 0.064149 1.000000
0.275395 0.127901 1.000000
0.542901 0.255894 0.998352
0.782650 0.366857 0.989715
0.995453 0.446174 0.985107
0.278935 0.361486 0.999817
0.374182 0.375311 0.998322
0.578882 0.417792 0.994018
0.789029 0.464240 0.985412
0.991974 0.508110 0.982086
0.435706 0.617670 0.993927
0.502708 0.629603 0.991913
0.636286 0.637293 0.987518
0.799771 0.635798 0.980072
0.988098 0.644617 0.979370
0.455543 0.802487 0.989746
0.510430 0.804837 0.988586
0.648249 0.810636 0.987243
0.819760 0.820798 0.982330
0.986358 0.826474 0.980102
0.476936 0.995666 0.984375
0.521691 0.994842 0.983825
0.657069 0.993133 0.983398
0.834348 0.988891 0.981811
0.978241 0.979065 0.975952
