data/fiter_cube/15997792/1023465/file.cube
# Created by Adobe Lightroom plugin Export LUT (1.17.0)
# www.johnrellis.com/lightroom/exportlut.htm
# Preset: 日系A通透明亮[云集]-6 亮暖色
# Color profile: C:\Program Files (x86)\Common Files\Adobe\Color\Profiles\Recommended\AdobeRGB1998.icc
LUT_3D_SIZE 5
DOMAIN_MIN 0.000000 0.000000 0.000000
DOMAIN_MAX 0.903226 0.903226 0.903226
0.000000 0.000000 0.000000
0.537163 0.010986 0.000000
0.897551 0.232822 0.000000
1.000000 0.333379 0.000000
1.000000 0.389166 0.000000
0.000000 0.466957 0.064973
0.470344 0.494514 0.000000
0.908415 0.503441 0.000000
1.000000 0.472389 0.000000
1.000000 0.472206 0.000000
0.133364 0.811185 0.322362
0.360510 0.815152 0.313420
0.790280 0.819852 0.000000
1.000000 0.746029 0.218692
1.000000 0.668391 0.240574
0.406012 0.941466 0.529686
0.454994 0.943389 0.515740
0.658259 0.938659 0.599634
0.903868 0.929381 0.323095
1.000000 0.852323 0.375555
0.559747 1.000000 0.682307
0.581048 1.000000 0.679927
0.672114 1.000000 0.708186
0.786526 1.000000 0.697566
0.974884 0.991363 0.484230
0.000000 0.001648 0.397681
0.424384 0.000000 0.408270
0.825010 0.000000 0.237095
0.991608 0.324468 0.259983
1.000000 0.419135 0.271275
0.000000 0.401709 0.380682
0.411414 0.400092 0.378119
0.832181 0.423316 0.308171
0.994232 0.475715 0.312474
1.000000 0.499092 0.309148
0.232059 0.774350 0.478248
0.456397 0.771542 0.509789
0.762753 0.785794 0.419257
0.993500 0.764401 0.513787
1.000000 0.696101 0.453376
0.493202 0.924895 0.637720
0.553521 0.925261 0.648615
0.696010 0.926757 0.700923
0.897398 0.922728 0.523461
1.000000 0.865843 0.564355
0.616083 0.999969 0.744747
0.633661 0.999878 0.742733
0.707393 0.997833 0.760342
0.810971 0.996918 0.767666
0.972747 0.989837 0.615015
0.000000 0.000000 0.734829
0.269657 0.000000 0.745510
0.718410 0.000000 0.746426
0.918273 0.236057 0.639796
1.000000 0.302342 0.510094
0.000000 0.306798 0.697810
0.231846 0.295476 0.716457
0.705837 0.374456 0.732723
0.914000 0.396521 0.636988
1.000000 0.455390 0.550835
0.000000 0.687984 0.693843
0.290196 0.685237 0.693568
0.684443 0.691768 0.704921
0.916045 0.716823 0.702388
1.000000 0.724819 0.694423
0.387427 0.899138 0.710201
0.518395 0.892485 0.732906
0.724117 0.892393 0.793332
0.879667 0.903227 0.766964
1.000000 0.900694 0.817380
0.593713 0.992859 0.785245
0.655207 0.989258 0.806882
0.763943 0.985565 0.841825
0.855863 0.985382 0.869749
0.969299 0.984710 0.794491
0.000000 0.000000 0.892790
0.064607 0.000000 0.894408
0.591760 0.085328 0.900938
0.860990 0.265629 0.890471
0.992187 0.393347 0.821012
0.000000 0.236179 0.878508
0.000000 0.244968 0.880919
0.588678 0.322087 0.889769
0.852293 0.415839 0.883177
0.987243 0.479805 0.821866
0.000000 0.545037 0.837552
0.000000 0.529870 0.833921
0.546532 0.566674 0.855985
0.825956 0.650202 0.861387
0.981659 0.656306 0.825010
0.000000 0.840970 0.846860
0.293370 0.837491 0.845335
0.582605 0.832517 0.845060
0.825132 0.843870 0.858946
0.985779 0.873716 0.877409
0.474067 0.985077 0.838285
0.547570 0.981750 0.846586
0.713985 0.974945 0.874144
0.871794 0.974762 0.914611
0.970367 0.979522 0.905577
0.000000 0.000000 0.981506
0.000000 0.000000 0.980896
0.465370 0.000000 0.980529
0.749355 0.219883 0.979706
0.961334 0.317937 0.970184
0.000000 0.182162 0.975158
0.000000 0.179782 0.974823
0.459113 0.201205 0.974853
0.745113 0.337896 0.973846
0.955901 0.406043 0.966094
0.000000 0.456428 0.956146
0.000000 0.447211 0.957092
0.393561 0.431586 0.959625
0.729854 0.539086 0.960327
0.946227 0.604791 0.958831
0.000000 0.716518 0.940337
0.000000 0.707362 0.938262
0.152560 0.671901 0.934752
0.676204 0.707698 0.944732
0.941405 0.806455 0.955291
0.046265 0.954101 0.945342
0.250401 0.951965 0.944457
0.505180 0.947936 0.944121
0.735103 0.941955 0.943420
0.941283 0.949035 0.954742
