data/fiter_cube/15997792/1023465/file.cube
# Created by Adobe Lightroom plugin Export LUT (1.17.0)
# www.johnrellis.com/lightroom/exportlut.htm
# Preset: 日系A通透明亮[云集]-6 亮暖色
# Color profile: C:\Program Files (x86)\Common Files\Adobe\Color\Profiles\Recommended\AdobeRGB1998.icc
LUT_3D_SIZE 32
DOMAIN_MIN 0.0 0.0 0.0
DOMAIN_MAX 1.0 1.0 1.0
0.000000 0.000000 0.000000
0.054994 0.011597 0.000000
0.080385 0.028626 0.000000
0.140169 0.062928 0.000000
0.242741 0.068269 0.000000
0.348577 0.058564 0.000000
0.447730 0.023194 0.000000
0.537163 0.010986 0.000000
0.616297 0.055665 0.000000
0.685695 0.095491 0.000000
0.744198 0.129793 0.000000
0.792874 0.161257 0.000000
0.833738 0.188937 0.000000
0.868193 0.212161 0.000000
0.897551 0.232822 0.000000
0.922820 0.250675 0.000000
0.944671 0.266453 0.000000
0.963745 0.280858 0.000000
0.981018 0.294530 0.000000
0.998810 0.308751 0.000000
1.000000 0.321660 0.000000
1.000000 0.333379 0.000000
1.000000 0.343725 0.000000
1.000000 0.353155 0.000000
1.000000 0.361425 0.000000
1.000000 0.369055 0.000000
1.000000 0.376165 0.000000
1.000000 0.382910 0.000000
1.000000 0.389166 0.000000
1.000000 0.395178 0.000000
1.000000 0.400855 0.000000
1.000000 0.406409 0.000000
0.000000 0.064179 0.006806
0.047517 0.068116 0.000000
0.079500 0.073152 0.000000
0.143679 0.090364 0.000000
0.247471 0.101991 0.000000
0.352453 0.102083 0.000000
0.450568 0.097017 0.000000
0.538659 0.097078 0.000000
0.616602 0.108278 0.000000
0.685603 0.131655 0.000000
0.743496 0.157168 0.000000
0.791836 0.182071 0.000000
0.832425 0.205234 0.000000
0.866880 0.225772 0.000000
0.896239 0.244022 0.000000
0.921416 0.260227 0.000000
0.943359 0.274846 0.000000
0.962493 0.288060 0.000000
0.979919 0.300786 0.000000
0.997375 0.313939 0.000000
1.000000 0.325933 0.000000
1.000000 0.336767 0.000000
1.000000 0.346685 0.000000
1.000000 0.355566 0.000000
1.000000 0.363653 0.000000
1.000000 0.371099 0.000000
1.000000 0.377813 0.000000
1.000000 0.384588 0.000000
1.000000 0.390692 0.000000
1.000000 0.396521 0.000000
1.000000 0.401984 0.000000
1.000000 0.407385 0.000000
0.000000 0.090639 0.019257
0.029358 0.091615 0.015869
0.075929 0.098939 0.000000
0.144808 0.119265 0.000000
0.253574 0.137575 0.000000
0.358160 0.142092 0.000000
0.454505 0.141421 0.000000
0.541314 0.142611 0.000000
0.618463 0.152071 0.000000
0.686275 0.167575 0.000000
0.743832 0.187900 0.000000
0.791867 0.208011 0.000000
0.832181 0.226322 0.000000
0.866484 0.243809 0.000000
0.895689 0.259617 0.000000
0.920989 0.273411 0.000000
0.942840 0.286534 0.000000
0.961944 0.298222 0.000000
0.979522 0.309758 0.000000
0.996735 0.321813 0.000000
1.000000 0.332769 0.000000
1.000000 0.342779 0.000000
1.000000 0.352087 0.000000
1.000000 0.360296 0.000000
1.000000 0.367926 0.000000
1.000000 0.374853 0.000000
1.000000 0.381445 0.000000
1.000000 0.387732 0.000000
1.000000 0.393530 0.000000
1.000000 0.399237 0.000000
1.000000 0.404456 0.000000
1.000000 0.409552 0.000000
0.000000 0.150271 0.040284
0.005219 0.151705 0.022339
0.060853 0.155367 0.023896
0.137484 0.172519 0.000000
0.249149 0.194827 0.000000
0.372564 0.211429 0.000000
0.466468 0.211765 0.000000
0.550713 0.213077 0.000000
0.625238 0.218753 0.000000
0.691188 0.229313 0.000000
0.746914 0.242130 0.000000
0.793759 0.254978 0.000000
0.833219 0.267887 0.000000
0.866941 0.279881 0.000000
0.895933 0.290745 0.000000
0.920928 0.301061 0.000000
0.942596 0.310582 0.000000
0.961578 0.319768 0.000000
0.979278 0.329046 0.000000
0.995880 0.338445 0.000000
1.000000 0.347417 0.000000
1.000000 0.355810 0.000000
1.000000 0.363714 0.000000
1.000000 0.371069 0.000000
1.000000 0.377874 0.000000
1.000000 0.384161 0.000000
1.000000 0.390082 0.000000
1.000000 0.395911 0.000000
1.000000 0.401251 0.000000
1.000000 0.406073 0.000000
1.000000 0.410803 0.000000
1.000000 0.415290 0.000000
0.000000 0.231846 0.037232
0.000000 0.233707 0.000000
0.000000 0.235172 0.004608
0.106813 0.247044 0.000000
0.223545 0.261082 0.000000
0.344244 0.273045 0.000000
0.465614 0.289616 0.000000
0.562280 0.295995 0.000000
0.633845 0.297398 0.000000
0.696986 0.302831 0.000000
0.750668 0.308904 0.000000
0.796017 0.315312 0.000000
0.834623 0.321538 0.000000
0.867826 0.328008 0.000000
0.896513 0.333898 0.000000
0.921416 0.339879 0.000000
0.943053 0.345312 0.000000
0.961944 0.350988 0.000000
0.979828 0.357397 0.000000
0.996002 0.363867 0.000000
1.000000 0.370123 0.000000
1.000000 0.376379 0.000000
1.000000 0.382391 0.000000
1.000000 0.388037 0.000000
1.000000 0.393378 0.000000
1.000000 0.398505 0.000000
1.000000 0.403418 0.000000
1.000000 0.407965 0.000000
1.000000 0.412451 0.000000
1.000000 0.416571 0.000000
1.000000 0.420386 0.000000
1.000000 0.424231 0.000000
0.000000 0.313390 0.026307
0.000000 0.315190 0.000000
0.000000 0.316777 0.000000
0.056764 0.318791 0.000000
0.180606 0.337682 0.000000
0.309575 0.343999 0.000000
0.429358 0.348363 0.000000
0.542504 0.366522 0.000000
0.642878 0.383368 0.000000
0.706783 0.384558 0.000000
0.757717 0.384161 0.000000
0.801114 0.383734 0.000000
0.838315 0.383856 0.000000
0.870603 0.384253 0.000000
0.898711 0.385138 0.000000
0.923033 0.386114 0.000000
0.944305 0.387488 0.000000
0.963378 0.389685 0.000000
0.980957 0.392645 0.000000
0.996796 0.395941 0.000000
1.000000 0.399542 0.000000
1.000000 0.403235 0.000000
1.000000 0.416175 0.000000
1.000000 0.419745 0.000000
1.000000 0.423011 0.000000
1.000000 0.426001 0.000000
1.000000 0.428931 0.000000
1.000000 0.431708 0.000000
1.000000 0.434546 0.000000
1.000000 0.437232 0.000000
1.000000 0.439796 0.000000
1.000000 0.442298 0.000000
0.000000 0.397253 0.028717
0.000000 0.398596 0.000000
0.000000 0.400488 0.000000
0.000000 0.402808 0.000000
0.139590 0.407324 0.000000
0.268864 0.428199 0.000000
0.398047 0.426947 0.000000
0.512078 0.425727 0.000000
0.616419 0.446540 0.000000
0.706538 0.464057 0.000000
0.773922 0.470436 0.000000
0.814664 0.462776 0.000000
0.849424 0.455909 0.000000
0.879759 0.449866 0.000000
0.905974 0.444556 0.000000
0.928710 0.440253 0.000000
0.948821 0.436988 0.000000
0.968231 0.435706 0.000000
0.985260 0.435248 0.000000
1.000000 0.435492 0.000000
1.000000 0.436805 0.000000
1.000000 0.438575 0.000000
1.000000 0.440925 0.000000
1.000000 0.443214 0.000000
1.000000 0.445472 0.000000
1.000000 0.447242 0.000000
1.000000 0.448981 0.000000
1.000000 0.450446 0.000000
1.000000 0.451850 0.000000
1.000000 0.453437 0.000000
1.000000 0.454719 0.000000
1.000000 0.456275 0.000000
0.000000 0.466957 0.064973
0.000000 0.468177 0.021942
0.000000 0.469642 0.000000
0.000000 0.472114 0.000000
0.108125 0.474556 0.000000
0.224277 0.484199 0.000000
0.350958 0.500786 0.000000
0.470344 0.494514 0.000000
0.574090 0.489296 0.000000
0.669703 0.511711 0.000000
0.748592 0.525689 0.000000
0.812436 0.531731 0.000000
0.853849 0.524956 0.000000
0.883055 0.513603 0.000000
0.908415 0.503441 0.000000
0.930571 0.494606 0.000000
0.951232 0.488075 0.000000
0.969635 0.482582 0.000000
0.985870 0.478309 0.000000
1.000000 0.475196 0.000000
1.000000 0.473335 0.000000
1.000000 0.472389 0.000000
1.000000 0.472175 0.000000
1.000000 0.472145 0.000000
1.000000 0.472114 0.000000
1.000000 0.472267 0.000000
1.000000 0.472206 0.000000
1.000000 0.472053 0.000000
1.000000 0.472206 0.000000
1.000000 0.472297 0.000000
1.000000 0.472602 0.000000
1.000000 0.472938 0.000000
0.000000 0.532067 0.099306
0.000000 0.533043 0.085054
0.000000 0.534478 0.061524
0.000000 0.536950 0.000000
0.074952 0.539239 0.034455
0.204746 0.541222 0.087587
0.308873 0.554070 0.000000
0.429236 0.567407 0.000000
0.536736 0.557733 0.000000
0.629664 0.549645 0.000000
0.715236 0.569787 0.000000
0.784573 0.579339 0.000000
0.840940 0.581811 0.000000
0.887205 0.579461 0.000000
0.911833 0.564874 0.000000
0.934234 0.552636 0.000000
0.954101 0.541924 0.000000
0.971466 0.532555 0.000000
0.986908 0.524437 0.000000
1.000000 0.518059 0.000000
1.000000 0.513268 0.000000
1.000000 0.509453 0.000000
1.000000 0.506554 0.000000
1.000000 0.504295 0.000000
1.000000 0.502281 0.000000
1.000000 0.500175 0.000000
1.000000 0.498390 0.000000
1.000000 0.496712 0.000000
1.000000 0.495216 0.000000
1.000000 0.493935 0.000000
1.000000 0.492927 0.000000
1.000000 0.492012 0.000000
0.000000 0.592309 0.136294
0.000000 0.593011 0.127230
0.000000 0.594202 0.113100
0.000000 0.596674 0.074037
0.007324 0.598749 0.086336
0.194522 0.600671 0.115541
0.288853 0.604395 0.128206
0.389044 0.617029 0.000000
0.500786 0.627680 0.000000
0.595087 0.616297 0.000000
0.679042 0.606287 0.000000
0.752956 0.618738 0.000000
0.814328 0.624628 0.000000
0.864805 0.624201 0.000000
0.907774 0.621027 0.000000
0.938415 0.611963 0.000000
0.957397 0.597375 0.000000
0.973968 0.584253 0.000000
0.988830 0.573022 0.000000
1.000000 0.563409 0.000000
1.000000 0.555505 0.000000
1.000000 0.548852 0.000000
1.000000 0.543053 0.000000
1.000000 0.538170 0.000000
1.000000 0.533837 0.000000
1.000000 0.529931 0.000000
1.000000 0.526329 0.000000
1.000000 0.523125 0.000000
1.000000 0.520287 0.015595
1.000000 0.517693 0.042908
1.000000 0.515465 0.062531
1.000000 0.513451 0.072480
0.000000 0.646357 0.173831
0.000000 0.647120 0.166995
0.000000 0.648249 0.156649
0.000000 0.650446 0.133669
0.000000 0.652888 0.122621
0.187076 0.654810 0.145571
0.282658 0.656672 0.171633
0.366796 0.663294 0.149355
0.461341 0.672908 0.000000
0.561089 0.679683 0.000000
0.644984 0.667903 0.000000
0.722683 0.658595 0.000000
0.786679 0.662470 0.000000
0.842557 0.665888 0.000000
0.888426 0.663539 0.000000
0.925872 0.657557 0.000000
0.956664 0.649744 0.000000
0.975372 0.635920 0.000000
0.989654 0.621454 0.000000
1.000000 0.608972 0.000000
1.000000 0.598413 0.000000
1.000000 0.589197 0.000000
1.000000 0.581323 0.000000
1.000000 0.574273 0.000000
1.000000 0.567895 0.037964
1.000000 0.561944 0.064332
1.000000 0.556512 0.074922
1.000000 0.551629 0.082856
1.000000 0.547173 0.088685
1.000000 0.543084 0.093996
1.000000 0.539513 0.098817
1.000000 0.536309 0.104036
0.000000 0.695399 0.210971
0.000000 0.696071 0.205783
0.000000 0.696864 0.198459
0.000000 0.698634 0.181552
0.000000 0.701320 0.158755
0.185000 0.702724 0.177615
0.278874 0.704219 0.199771
0.359075 0.705592 0.225315
0.436652 0.713283 0.173648
0.522789 0.720546 0.030793
0.611627 0.724269 0.000000
0.689662 0.714900 0.000000
0.777920 0.721523 0.000000
0.831754 0.715236 0.000000
0.879973 0.713527 0.000000
0.919249 0.707027 0.000000
0.951110 0.698177 0.000000
0.977234 0.688441 0.000000
0.998199 0.678096 0.103792
1.000000 0.662501 0.109102
1.000000 0.648737 0.114229
1.000000 0.636713 0.120760
1.000000 0.625788 0.125582
1.000000 0.616144 0.131014
1.000000 0.607324 0.134981
1.000000 0.599268 0.138064
1.000000 0.591760 0.139925
1.000000 0.584924 0.140841
1.000000 0.578637 0.141604
1.000000 0.572869 0.142153
1.000000 0.567712 0.143496
1.000000 0.563012 0.144900
0.000000 0.743496 0.251957
0.000000 0.743923 0.248081
0.000000 0.744320 0.241794
0.000000 0.745327 0.228611
0.081971 0.747097 0.206760
0.192447 0.747799 0.212955
0.280888 0.748257 0.232181
0.357702 0.748867 0.254734
0.428229 0.752071 0.263493
0.500664 0.760586 0.204837
0.580346 0.768002 0.109102
0.661738 0.770596 0.000000
0.734890 0.762631 0.000000
0.807279 0.757290 0.000000
0.854154 0.744686 0.000000
0.897551 0.740902 0.000000
0.932799 0.732967 0.000000
0.961486 0.723201 0.000000
0.985382 0.713069 0.106142
1.000000 0.703487 0.154879
1.000000 0.691524 0.174838
1.000000 0.677333 0.174624
1.000000 0.664576 0.175296
1.000000 0.652949 0.175875
1.000000 0.642359 0.175723
1.000000 0.632563 0.175418
1.000000 0.623529 0.174716
1.000000 0.615167 0.173434
1.000000 0.607416 0.171939
1.000000 0.600397 0.171054
1.000000 0.593927 0.170016
1.000000 0.588098 0.170108
0.000000 0.778134 0.286412
0.027985 0.778531 0.282689
0.067567 0.778866 0.277958
0.103243 0.779721 0.267765
0.139925 0.781399 0.251316
0.202853 0.783047 0.245548
0.285222 0.783871 0.263401
0.358007 0.784787 0.284367
0.425330 0.786069 0.308843
0.486244 0.790890 0.292363
0.552178 0.797330 0.234348
0.624201 0.802762 0.149020
0.697597 0.802487 0.000000
0.764981 0.794064 0.000000
0.833860 0.788937 0.000000
0.873930 0.770260 0.000000
0.912566 0.764218 0.000000
0.944121 0.755306 0.000000
0.970520 0.745205 0.098482
0.993072 0.735256 0.150912
1.000000 0.725734 0.189639
1.000000 0.716915 0.221195
1.000000 0.703487 0.223117
1.000000 0.690242 0.220249
1.000000 0.678096 0.217533
1.000000 0.666743 0.214511
1.000000 0.656184 0.211093
1.000000 0.646387 0.207767
1.000000 0.637385 0.204440
1.000000 0.629053 0.201450
1.000000 0.621485 0.199496
1.000000 0.614496 0.198123
0.133364 0.811185 0.322362
0.140627 0.811582 0.320043
0.148623 0.811887 0.316014
0.166140 0.812589 0.307836
0.189914 0.813657 0.294774
0.220951 0.815091 0.279423
0.293614 0.815030 0.294987
0.360510 0.815152 0.313420
0.423133 0.815671 0.335271
0.481849 0.816709 0.360571
0.534600 0.822263 0.319463
0.594903 0.827298 0.262394
0.660578 0.831083 0.183352
0.727565 0.828672 0.090913
0.790280 0.819852 0.000000
0.853849 0.813016 0.000000
0.890929 0.792172 0.000000
0.925658 0.784726 0.000000
0.954620 0.775357 0.086275
0.979370 0.765438 0.145174
1.000000 0.755520 0.185977
1.000000 0.746029 0.218692
1.000000 0.736965 0.246311
1.000000 0.727199 0.264958
1.000000 0.713588 0.259709
1.000000 0.701045 0.254490
1.000000 0.689326 0.249363
1.000000 0.678523 0.245121
1.000000 0.668391 0.240574
1.000000 0.659144 0.236881
1.000000 0.650629 0.233982
1.000000 0.642756 0.232242
0.191379 0.838804 0.356542
0.196475 0.839170 0.354742
0.202060 0.839475 0.351751
0.214633 0.840085 0.345342
0.232670 0.841001 0.335088
0.255131 0.842374 0.321477
0.307347 0.842710 0.327398
0.367834 0.842679 0.344427
0.425788 0.842771 0.364538
0.480049 0.843107 0.387213
0.528985 0.844846 0.393103
0.576745 0.849119 0.347051
0.631250 0.852262 0.290135
0.691310 0.854063 0.213962
0.752468 0.849516 0.147646
0.810727 0.840482 0.088777
0.869200 0.831876 0.000000
0.905425 0.810910 0.000000
0.937621 0.803037 0.065797
0.964935 0.793942 0.138003
0.988342 0.784298 0.181735
1.000000 0.774624 0.217319
1.000000 0.765164 0.246769
1.000000 0.756008 0.272129
1.000000 0.747280 0.294560
1.000000 0.735927 0.298955
1.000000 0.723018 0.291661
1.000000 0.711086 0.285069
1.000000 0.699947 0.279210
1.000000 0.689418 0.273259
1.000000 0.679683 0.268498
1.000000 0.670741 0.264714
0.236393 0.861112 0.387579
0.239322 0.861326 0.385718
0.244205 0.861448 0.383551
0.253819 0.861906 0.378119
0.268406 0.862608 0.370062
0.287053 0.863615 0.359319
0.320653 0.864317 0.356268
0.374762 0.863981 0.371283
0.427375 0.863706 0.389349
0.477729 0.863645 0.409949
0.525689 0.863737 0.433234
0.566705 0.866423 0.416510
0.610956 0.869718 0.370581
0.661463 0.871855 0.314061
0.717067 0.872648 0.240940
0.773648 0.867002 0.189334
0.828550 0.858091 0.147585
0.882841 0.848661 0.076539
0.919066 0.827970 0.000000
0.949004 0.819974 0.123690
0.974640 0.810880 0.173068
0.996582 0.801236 0.210758
1.000000 0.791562 0.242252
1.000000 0.782040 0.269596
1.000000 0.772763 0.292973
1.000000 0.763912 0.313878
1.000000 0.755459 0.332128
1.000000 0.742855 0.324956
1.000000 0.730709 0.317205
1.000000 0.719356 0.310185
1.000000 0.708705 0.303716
1.000000 0.698909 0.299016
0.275914 0.880613 0.417517
0.279393 0.880949 0.416480
0.299992 0.888487 0.428016
0.307561 0.888762 0.423835
0.319158 0.889158 0.417548
0.333928 0.889677 0.409186
0.352178 0.890379 0.399390
0.397894 0.889525 0.412543
0.443854 0.888701 0.428595
0.488869 0.888060 0.447211
0.532219 0.887541 0.467903
0.573846 0.887053 0.490669
0.606806 0.889921 0.451423
0.646723 0.891997 0.404395
0.692714 0.892973 0.347875
0.743954 0.892760 0.276890
0.796811 0.886229 0.236057
0.848722 0.877653 0.200748
0.900542 0.868498 0.153964
0.935332 0.846860 0.120180
0.962707 0.838224 0.172091
0.986175 0.828702 0.211795
1.000000 0.818784 0.244266
1.000000 0.808835 0.272160
1.000000 0.798886 0.295872
1.000000 0.789242 0.316686
1.000000 0.779904 0.334508
1.000000 0.771023 0.350530
1.000000 0.761166 0.357214
1.000000 0.748928 0.348119
1.000000 0.737453 0.340215
1.000000 0.726833 0.334081
0.315801 0.899382 0.449348
0.320226 0.900328 0.450111
0.325383 0.901366 0.450294
0.334020 0.902373 0.448768
0.345342 0.903319 0.445014
0.359106 0.904051 0.439155
0.374823 0.904753 0.431128
0.407599 0.904448 0.436378
0.448920 0.903593 0.451057
0.489876 0.902831 0.467811
0.530236 0.902159 0.486641
0.569329 0.901457 0.507408
0.603296 0.901946 0.509636
0.634150 0.904356 0.469398
0.671504 0.905821 0.422156
0.714687 0.906340 0.365698
0.763119 0.905730 0.296239
0.812924 0.898894 0.263279
0.862608 0.890898 0.231662
0.912413 0.882444 0.192752
0.947662 0.863371 0.163729
0.972686 0.852293 0.200198
0.994720 0.842802 0.235782
1.000000 0.832975 0.266117
1.000000 0.822965 0.291966
1.000000 0.813016 0.314244
1.000000 0.803342 0.333440
1.000000 0.794034 0.350927
1.000000 0.785183 0.366583
1.000000 0.776791 0.381109
1.000000 0.765988 0.378943
1.000000 0.754696 0.371557
0.345617 0.913695 0.474891
0.349706 0.914519 0.475746
0.354223 0.915343 0.476173
0.361425 0.916197 0.475013
0.371344 0.916960 0.472114
0.383154 0.917540 0.467475
0.397223 0.918090 0.461402
0.418982 0.918273 0.459968
0.456062 0.917418 0.473304
0.493477 0.916594 0.488685
0.530846 0.915770 0.506157
0.567468 0.915007 0.525292
0.602838 0.914153 0.545556
0.629999 0.915648 0.527642
0.659144 0.917540 0.487190
0.694331 0.918639 0.439734
0.735103 0.918853 0.383307
0.781064 0.918059 0.315343
0.828519 0.911101 0.289525
0.876249 0.903685 0.260624
0.924132 0.895872 0.226871
0.959838 0.879240 0.200351
0.982605 0.865751 0.225925
1.000000 0.856229 0.259098
1.000000 0.846281 0.286931
1.000000 0.836179 0.310643
1.000000 0.826200 0.331243
1.000000 0.816526 0.349706
1.000000 0.807187 0.366583
1.000000 0.798306 0.382025
1.000000 0.789914 0.396582
1.000000 0.781918 0.410010
0.373358 0.926909 0.499641
0.376867 0.927611 0.500511
0.380835 0.928313 0.501061
0.387335 0.929046 0.500359
0.396033 0.929656 0.498329
0.406409 0.930114 0.494728
0.418555 0.930510 0.489876
0.432746 0.930968 0.484230
0.464942 0.930175 0.495399
0.498939 0.929259 0.509453
0.533165 0.928374 0.525231
0.567285 0.927428 0.542840
0.600519 0.926482 0.561456
0.632319 0.925628 0.579004
0.654231 0.927977 0.544457
0.681971 0.929686 0.504082
0.715633 0.930755 0.457435
0.754757 0.931060 0.402625
0.798917 0.930083 0.341344
0.844724 0.923919 0.319310
0.890867 0.917388 0.294285
0.937346 0.910399 0.265415
0.973541 0.895964 0.241398
0.994171 0.880369 0.258701
1.000000 0.870695 0.289586
1.000000 0.860685 0.315679
1.000000 0.850584 0.338598
1.000000 0.840665 0.358740
1.000000 0.830991 0.376837
1.000000 0.821744 0.393469
1.000000 0.813016 0.409735
1.000000 0.805142 0.425605
0.406012 0.941466 0.529686
0.408270 0.941772 0.529870
0.410925 0.942016 0.529747
0.415656 0.942290 0.528618
0.422644 0.942565 0.526513
0.431464 0.942748 0.523552
0.442237 0.943053 0.519829
0.454994 0.943389 0.515740
0.478279 0.943114 0.520806
0.509270 0.942260 0.534081
0.540887 0.941405 0.549035
0.572473 0.940459 0.565423
0.603418 0.939483 0.582513
0.633570 0.938415 0.600244
0.658259 0.938659 0.599634
0.679072 0.940673 0.565606
0.705135 0.942199 0.525414
0.736904 0.943084 0.478492
0.773983 0.943236 0.424048
0.816037 0.941650 0.368444
0.859770 0.935698 0.347021
0.903868 0.929381 0.323095
0.948302 0.922637 0.295964
0.984558 0.909850 0.271824
1.000000 0.892241 0.280613
1.000000 0.882414 0.309087
1.000000 0.872282 0.333837
1.000000 0.862211 0.355810
1.000000 0.852323 0.375555
1.000000 0.842741 0.393591
1.000000 0.833799 0.411048
1.000000 0.825498 0.426368
0.430091 0.952544 0.552819
0.432166 0.952819 0.553124
0.434546 0.953063 0.553185
0.438880 0.953277 0.552422
0.445075 0.953491 0.550896
0.452796 0.953613 0.548425
0.462226 0.953765 0.545434
0.473396 0.953979 0.542168
0.489479 0.954009 0.542016
0.517601 0.953063 0.554223
0.546471 0.952148 0.567895
0.575525 0.951171 0.582635
0.604242 0.950134 0.598108
0.632715 0.949065 0.614466
0.660395 0.947997 0.631098
0.679561 0.949371 0.614527
0.699825 0.951232 0.581323
0.724941 0.952697 0.541772
0.755337 0.953552 0.495674
0.790951 0.953735 0.441657
0.831357 0.951812 0.392096
0.873442 0.946288 0.372290
0.915892 0.940429 0.350347
0.958770 0.934173 0.325383
0.994171 0.922087 0.296117
1.000000 0.902892 0.297917
1.000000 0.892973 0.325231
1.000000 0.882872 0.348943
1.000000 0.872862 0.370459
1.000000 0.863188 0.390387
1.000000 0.854124 0.409125
1.000000 0.845548 0.424323
0.458259 0.964385 0.580224
0.460304 0.964630 0.580743
0.462379 0.964813 0.580774
0.465858 0.964904 0.580072
0.470924 0.964935 0.578607
0.477455 0.964935 0.576501
0.485603 0.964874 0.574029
0.495216 0.964843 0.571099
0.506462 0.964874 0.568231
0.529290 0.963928 0.576684
0.554833 0.962799 0.588342
0.580987 0.961669 0.601007
0.607294 0.960510 0.614679
0.633448 0.959258 0.628931
0.659174 0.957977 0.643519
0.683436 0.956970 0.655238
0.698512 0.958862 0.627131
0.718044 0.960479 0.594018
0.742245 0.961791 0.554864
0.771511 0.962646 0.508721
0.805844 0.962829 0.455268
0.844816 0.960601 0.410986
0.885252 0.955383 0.392279
0.926085 0.949737 0.370825
0.967132 0.943633 0.346624
1.000000 0.934295 0.322362
1.000000 0.913695 0.317906
1.000000 0.903624 0.343542
1.000000 0.893584 0.366552
1.000000 0.883818 0.387915
1.000000 0.874449 0.406500
1.000000 0.865782 0.422644
0.478645 0.973632 0.600702
0.480537 0.973816 0.601251
0.482429 0.973968 0.601404
0.485634 0.974029 0.600977
0.490181 0.974029 0.599786
0.496101 0.974029 0.598230
0.503532 0.973968 0.596368
0.512230 0.973938 0.594202
0.522545 0.973938 0.592126
0.539422 0.973480 0.595941
0.562737 0.972442 0.606561
0.587060 0.971374 0.618463
0.611627 0.970275 0.631067
0.636133 0.969085 0.644190
0.660456 0.967864 0.657771
0.684443 0.966644 0.671656
0.703243 0.966766 0.669490
0.718166 0.968627 0.642390
0.737179 0.970245 0.610529
0.760586 0.971527 0.572717
0.788571 0.972320 0.527276
0.821408 0.972412 0.473640
0.858793 0.969848 0.434211
0.897551 0.964904 0.415930
0.936797 0.959533 0.395666
0.976410 0.953796 0.372992
1.000000 0.946197 0.349950
1.000000 0.924559 0.340276
1.000000 0.914611 0.365820
1.000000 0.904814 0.388769
1.000000 0.895232 0.408087
1.000000 0.886595 0.425422
0.500023 0.982757 0.622187
0.501518 0.982879 0.622522
0.502953 0.982940 0.622492
0.505577 0.982910 0.621942
0.509331 0.982849 0.620783
0.514397 0.982727 0.619318
0.520806 0.982635 0.617578
0.528527 0.982544 0.615747
0.537713 0.982483 0.614038
0.549279 0.982391 0.613733
0.570733 0.981353 0.623499
0.593133 0.980346 0.634363
0.615961 0.979248 0.645930
0.639063 0.978119 0.658106
0.661891 0.976898 0.670558
0.684565 0.975616 0.683284
0.707027 0.974365 0.696345
0.721065 0.975555 0.681636
0.735714 0.977386 0.655268
0.754238 0.978912 0.624201
0.776883 0.980133 0.587091
0.803799 0.980835 0.542229
0.835233 0.980865 0.488197
0.871244 0.978058 0.453773
0.908537 0.973358 0.436194
0.946410 0.968292 0.416968
0.984710 0.962921 0.396002
1.000000 0.957183 0.373968
1.000000 0.934691 0.359960
1.000000 0.924651 0.383246
1.000000 0.915038 0.403632
1.000000 0.906340 0.422004
0.518334 0.990997 0.640894
0.519493 0.991058 0.641047
0.520806 0.991089 0.641047
0.523095 0.991089 0.640558
0.526787 0.991058 0.639918
0.531884 0.991058 0.639216
0.538384 0.991119 0.638605
0.546349 0.991211 0.638178
0.555749 0.991394 0.638087
0.566278 0.991577 0.638178
0.584436 0.991058 0.645838
0.605585 0.990265 0.656580
0.627161 0.989349 0.667811
0.648859 0.988312 0.679408
0.670436 0.987182 0.691127
0.691676 0.985962 0.702724
0.712856 0.984710 0.714656
0.732448 0.983795 0.723079
0.743374 0.985687 0.701991
0.757443 0.987427 0.677119
0.775021 0.988861 0.647669
0.796384 0.989960 0.612268
0.821714 0.990539 0.568933
0.851316 0.990539 0.515496
0.885710 0.987518 0.486519
0.921477 0.983093 0.470222
0.957855 0.978363 0.452522
0.994476 0.973327 0.433204
1.000000 0.969268 0.412055
1.000000 0.947448 0.396765
1.000000 0.936126 0.413977
1.000000 0.927337 0.433722
0.542992 1.000000 0.665370
0.543938 1.000000 0.665461
0.544915 1.000000 0.665339
0.546746 1.000000 0.664820
0.549798 1.000000 0.664088
0.554040 1.000000 0.663294
0.559380 0.999969 0.662470
0.565972 0.999878 0.661707
0.573724 0.999847 0.661128
0.582727 0.999817 0.660853
0.595544 0.999420 0.663874
0.614435 0.998474 0.672969
0.633875 0.997436 0.682643
0.653742 0.996277 0.692744
