data/fiter_cube/15997792/1023465/file.cube
# Created by Adobe Lightroom plugin Export LUT (1.17.0)
# www.johnrellis.com/lightroom/exportlut.htm
# Preset: 日系A通透明亮[云集]-6 亮暖色
# Color profile: C:\Program Files (x86)\Common Files\Adobe\Color\Profiles\Recommended\AdobeRGB1998.icc
LUT_3D_SIZE 8
DOMAIN_MIN 0.000000 0.000000 0.000000
DOMAIN_MAX 0.903226 0.903226 0.903226
0.000000 0.000000 0.000000
0.242741 0.068269 0.000000
0.616297 0.055665 0.000000
0.833738 0.188937 0.000000
0.944671 0.266453 0.000000
1.000000 0.321660 0.000000
1.000000 0.361425 0.000000
1.000000 0.389166 0.000000
0.000000 0.231846 0.037232
0.223545 0.261082 0.000000
0.633845 0.297398 0.000000
0.834623 0.321538 0.000000
0.943053 0.345312 0.000000
1.000000 0.370123 0.000000
1.000000 0.393378 0.000000
1.000000 0.412451 0.000000
0.000000 0.532067 0.099306
0.074952 0.539239 0.034455
0.536736 0.557733 0.000000
0.840940 0.581811 0.000000
0.954101 0.541924 0.000000
1.000000 0.513268 0.000000
1.000000 0.502281 0.000000
1.000000 0.495216 0.000000
0.000000 0.743496 0.251957
0.081971 0.747097 0.206760
0.428229 0.752071 0.263493
0.734890 0.762631 0.000000
0.932799 0.732967 0.000000
1.000000 0.691524 0.174838
1.000000 0.642359 0.175723
1.000000 0.607416 0.171939
0.236393 0.861112 0.387579
0.268406 0.862608 0.370062
0.427375 0.863706 0.389349
0.610956 0.869718 0.370581
0.828550 0.858091 0.147585
0.974640 0.810880 0.173068
1.000000 0.772763 0.292973
1.000000 0.730709 0.317205
0.373358 0.926909 0.499641
0.396033 0.929656 0.498329
0.464942 0.930175 0.495399
0.600519 0.926482 0.561456
0.715633 0.930755 0.457435
0.890867 0.917388 0.294285
1.000000 0.870695 0.289586
1.000000 0.830991 0.376837
0.478645 0.973632 0.600702
0.490181 0.974029 0.599786
0.522545 0.973938 0.592126
0.611627 0.970275 0.631067
0.703243 0.966766 0.669490
0.788571 0.972320 0.527276
0.936797 0.959533 0.395666
1.000000 0.914611 0.365820
0.559747 1.000000 0.682307
0.566003 1.000000 0.681361
0.588373 1.000000 0.679774
0.641840 1.000000 0.697688
0.711299 0.998901 0.729335
0.772763 0.999695 0.720851
0.846860 1.000000 0.590600
0.974884 0.991363 0.484230
0.000000 0.001190 0.201755
0.212100 0.000000 0.206485
0.542290 0.000000 0.105318
0.783108 0.000000 0.059297
0.918669 0.240818 0.000000
0.996887 0.319860 0.000000
1.000000 0.367468 0.069062
1.000000 0.397620 0.091249
0.000000 0.220890 0.196048
0.209567 0.224216 0.194553
0.554314 0.205234 0.125948
0.792966 0.268711 0.073213
0.920989 0.329503 0.007904
0.996033 0.370733 0.050477
1.000000 0.399359 0.081514
1.000000 0.419654 0.097963
0.000000 0.500359 0.242374
0.220279 0.500755 0.257206
0.515221 0.523552 0.175937
0.821744 0.568383 0.171084
0.932341 0.533684 0.144564
0.999969 0.513603 0.148379
1.000000 0.505394 0.158633
1.000000 0.501030 0.164126
0.183200 0.716670 0.355962
0.258122 0.719661 0.344671
0.453223 0.730922 0.369787
0.716426 0.738643 0.194675
0.913176 0.721157 0.217441
1.000000 0.687678 0.285649
1.000000 0.643732 0.267124
1.000000 0.612116 0.251316
0.322301 0.847044 0.461891
0.344549 0.848356 0.447700
0.452186 0.851316 0.445167
0.615351 0.856107 0.445197
0.818235 0.846433 0.270512
0.964782 0.807126 0.284611
1.000000 0.776699 0.377447
1.000000 0.736233 0.380682
0.415595 0.917449 0.544366
0.430426 0.918303 0.539239
0.481331 0.920653 0.526757
0.610071 0.918730 0.589837
0.719326 0.924437 0.514183
0.887541 0.913725 0.370916
1.000000 0.870573 0.364233
1.000000 0.834531 0.437659
0.500328 0.966918 0.626459
0.508324 0.966705 0.623133
0.539269 0.967315 0.617029
0.620050 0.965545 0.649287
0.711879 0.962707 0.694301
0.791409 0.968627 0.569665
0.933562 0.956481 0.442878
1.000000 0.913451 0.410346
0.573724 1.000000 0.699031
0.580438 1.000000 0.698878
0.602106 1.000000 0.697719
0.650263 1.000000 0.711299
0.723659 0.998413 0.748165
0.782040 0.998383 0.743374
0.850248 1.000000 0.624842
0.973480 0.990204 0.521355
0.000000 0.000031 0.460639
0.117830 0.000000 0.470741
0.484077 0.000000 0.470283
0.714870 0.000000 0.420996
0.878904 0.000000 0.282353
0.965270 0.279606 0.302556
1.000000 0.382574 0.322637
1.000000 0.429938 0.325689
0.000000 0.188327 0.439124
0.087312 0.178378 0.450416
0.474861 0.199832 0.458045
0.712825 0.097658 0.401282
0.873808 0.106355 0.290196
0.964630 0.342962 0.316014
1.000000 0.415625 0.330785
1.000000 0.452247 0.332280
0.000000 0.452827 0.435401
0.125093 0.453834 0.436011
0.466407 0.451606 0.434730
0.732387 0.450355 0.383062
0.882719 0.484840 0.378485
0.969543 0.509178 0.381109
1.000000 0.524407 0.380499
1.000000 0.530236 0.370764
0.026184 0.683436 0.469032
0.258488 0.682185 0.481025
0.486000 0.685512 0.513207
0.691951 0.704677 0.461677
0.891447 0.725795 0.515221
0.972625 0.696681 0.504723
1.000000 0.667720 0.476936
1.000000 0.642603 0.446815
0.305119 0.826963 0.540093
0.386084 0.824216 0.557122
0.523766 0.823423 0.587854
0.646967 0.834470 0.626001
0.807858 0.833799 0.503319
0.947814 0.814298 0.529137
1.000000 0.804868 0.602197
1.000000 0.763119 0.556909
0.446448 0.904540 0.616754
0.493812 0.902098 0.635279
0.564385 0.901762 0.650904
0.645258 0.905180 0.673945
0.737942 0.911376 0.658045
0.879240 0.905303 0.551171
0.992309 0.875242 0.554467
1.000000 0.854246 0.616999
0.554467 0.957763 0.697963
0.582025 0.955688 0.710994
0.606409 0.956451 0.706447
0.656123 0.957549 0.713405
0.739437 0.955657 0.754665
0.807248 0.962005 0.687587
0.930846 0.953979 0.596246
1.000000 0.919249 0.575830
0.627924 0.996765 0.758236
0.630488 0.996857 0.755764
0.648157 0.996918 0.753933
0.681849 0.997925 0.756741
0.747524 0.994415 0.785885
0.806302 0.993622 0.797330
0.863310 0.998230 0.718196
0.971527 0.988739 0.640162
0.000000 0.000000 0.660426
0.000000 0.000000 0.667079
0.411902 0.000000 0.684382
0.659205 0.000000 0.675135
0.798062 0.120516 0.619837
0.924315 0.149874 0.535729
1.000000 0.203037 0.445441
1.000000 0.392737 0.460212
0.000000 0.151431 0.647761
0.000000 0.154177 0.654047
0.408606 0.166842 0.673304
0.654841 0.190829 0.669795
0.796994 0.236606 0.617609
0.922484 0.233341 0.531243
1.000000 0.266941 0.445747
1.000000 0.437537 0.476661
0.000000 0.376654 0.606806
0.000000 0.367254 0.606287
0.362432 0.377478 0.638483
0.639155 0.427527 0.651392
0.798276 0.417853 0.605371
0.924956 0.392218 0.514641
0.997742 0.495979 0.522545
1.000000 0.544030 0.530480
0.000000 0.625605 0.625574
0.000000 0.625177 0.625605
0.383703 0.623590 0.627527
0.631861 0.629450 0.635462
0.813138 0.638453 0.617090
0.920165 0.655573 0.618524
0.992615 0.666804 0.618708
1.000000 0.666041 0.605737
0.182834 0.794705 0.631434
0.287999 0.792020 0.636286
0.485695 0.786465 0.659907
0.650752 0.791684 0.704646
0.781369 0.804105 0.676814
0.922759 0.827237 0.733394
0.989319 0.816831 0.735622
1.000000 0.788266 0.701442
0.393439 0.891386 0.670924
0.447242 0.891020 0.683986
0.570825 0.884184 0.717891
0.679042 0.884703 0.752743
0.762387 0.895079 0.777188
0.869139 0.894469 0.711482
0.973236 0.885954 0.734432
1.000000 0.881559 0.774960
0.520714 0.951568 0.724178
0.551141 0.950072 0.734707
0.634211 0.945647 0.766415
0.704768 0.945769 0.788327
0.768154 0.948638 0.809110
0.829282 0.954131 0.794034
0.927367 0.949523 0.734188
1.000000 0.926696 0.731228
0.615351 0.995117 0.778775
0.634455 0.993896 0.786496
0.690486 0.989929 0.809598
0.730251 0.989593 0.817502
0.774228 0.989502 0.827268
0.836851 0.987243 0.854398
0.880888 0.992950 0.806851
0.970123 0.986542 0.754543
0.000000 0.000000 0.791257
0.000000 0.000000 0.793606
0.312535 0.000000 0.800168
0.592004 0.000000 0.813382
0.766903 0.126894 0.800595
0.866880 0.249332 0.743923
0.961578 0.306523 0.689052
1.000000 0.339757 0.624537
0.000000 0.138643 0.782345
0.000000 0.137728 0.785855
0.311925 0.135134 0.794003
0.589593 0.200046 0.807584
0.763058 0.241459 0.796780
0.863310 0.313848 0.743648
0.960327 0.350744 0.690272
1.000000 0.372900 0.626673
0.000000 0.338262 0.753750
0.000000 0.337255 0.758968
0.277836 0.330541 0.770962
0.577752 0.396857 0.788754
0.749783 0.430365 0.783597
0.849607 0.458167 0.741238
0.955871 0.460639 0.691829
1.000000 0.460548 0.630152
0.000000 0.536431 0.735775
0.000000 0.532830 0.734676
0.182315 0.518425 0.733028
0.543572 0.553277 0.759548
0.733303 0.607385 0.768307
0.848661 0.602869 0.741207
0.955993 0.583429 0.689540
1.000000 0.611719 0.668452
0.000000 0.738613 0.747463
0.000000 0.738003 0.747555
0.348821 0.735256 0.747372
0.561547 0.733852 0.749844
0.728450 0.742641 0.759243
0.867338 0.758114 0.760769
0.955474 0.771298 0.765560
1.000000 0.772793 0.759884
0.262058 0.860014 0.731777
0.325902 0.858488 0.734920
0.473182 0.853178 0.746670
0.626703 0.849424 0.772213
0.744778 0.858366 0.804349
0.847959 0.870603 0.792569
0.960052 0.894957 0.840970
1.000000 0.889250 0.844572
0.452216 0.939910 0.760098
0.484718 0.938109 0.765316
0.575341 0.933593 0.783658
0.685389 0.929717 0.813657
0.774197 0.933196 0.840330
0.842588 0.941894 0.858549
0.922240 0.941680 0.817868
0.998444 0.933501 0.832425
0.570184 0.990997 0.796567
0.589899 0.989715 0.801724
0.649531 0.985962 0.818692
0.734432 0.982513 0.847593
0.796414 0.982116 0.864469
0.850217 0.983001 0.881346
0.895842 0.987030 0.869474
0.969665 0.983490 0.832853
0.000000 0.000000 0.877897
0.000000 0.000000 0.878416
0.231449 0.000000 0.879667
0.506523 0.000000 0.884550
0.703182 0.188174 0.888365
0.844816 0.247684 0.876371
0.927764 0.332219 0.830350
1.000000 0.391211 0.791653
0.000000 0.128389 0.870451
0.000000 0.125948 0.871122
0.229862 0.119387 0.873747
0.504662 0.156039 0.879149
0.701381 0.265812 0.884215
0.841001 0.306432 0.873014
0.924620 0.372015 0.829435
1.000000 0.419287 0.792020
0.000000 0.293339 0.855985
0.000000 0.283635 0.857267
0.208438 0.298802 0.860990
0.500542 0.341741 0.867887
0.701991 0.433967 0.876646
0.833341 0.451423 0.866514
0.916869 0.485389 0.829953
0.996368 0.506462 0.796078
0.000000 0.471565 0.825071
0.000000 0.469856 0.826841
0.151369 0.473274 0.835447
0.475380 0.496834 0.849760
0.695766 0.584741 0.863035
0.823209 0.607691 0.858518
0.907103 0.616480 0.833310
0.993561 0.612573 0.801846
0.000000 0.656397 0.823056
0.000000 0.654688 0.822477
0.136751 0.648219 0.820493
0.402167 0.634943 0.818265
0.657496 0.678309 0.837675
0.807309 0.721157 0.845274
0.904448 0.717250 0.829709
0.992889 0.705898 0.799191
0.000000 0.820645 0.828092
0.126589 0.820645 0.828611
0.341100 0.818204 0.828214
0.518486 0.815244 0.828153
0.666377 0.814237 0.829862
0.807126 0.826200 0.842191
0.924712 0.848478 0.855802
0.990967 0.858335 0.860807
0.335729 0.923522 0.816007
0.375830 0.922576 0.817502
0.481056 0.918273 0.821714
0.608240 0.914061 0.834318
0.729580 0.912718 0.854276
0.834104 0.921477 0.882017
0.914153 0.929900 0.875547
0.991943 0.945251 0.909697
0.500572 0.986664 0.828641
0.522515 0.985412 0.831418
0.588983 0.981872 0.841215
0.680110 0.977905 0.858610
0.777615 0.974365 0.882536
0.856718 0.975799 0.904753
0.911406 0.980621 0.918669
0.970489 0.980529 0.893492
0.000000 0.000000 0.938506
0.000000 0.000000 0.939696
0.154513 0.000000 0.939513
0.437446 0.000000 0.940215
0.629786 0.137270 0.941436
0.783017 0.263462 0.938994
0.908782 0.313420 0.929870
0.981079 0.377447 0.890684
0.000000 0.111543 0.931212
0.000000 0.108614 0.932403
0.142245 0.096254 0.932921
0.432227 0.110170 0.933745
0.624506 0.201877 0.935119
0.776944 0.299535 0.932830
0.900664 0.336187 0.923430
0.974304 0.384894 0.885008
0.000000 0.255467 0.925536
0.000000 0.257359 0.925628
0.112215 0.264469 0.925628
0.429114 0.289616 0.926940
0.623163 0.352087 0.928344
0.777249 0.432441 0.928344
0.898070 0.455909 0.921386
0.972808 0.489998 0.888914
0.000000 0.441382 0.910307
0.000000 0.439399 0.910185
0.000000 0.420264 0.912169
0.404120 0.437903 0.915984
0.617762 0.499001 0.919158
0.782345 0.585718 0.923644
0.893980 0.594751 0.918425
0.967620 0.605646 0.891752
0.000000 0.586816 0.888426
0.000000 0.581994 0.886625
0.000000 0.565728 0.882811
0.311528 0.564538 0.889769
0.572595 0.597467 0.900023
0.766293 0.681178 0.909178
0.878843 0.696590 0.906615
0.957763 0.704463 0.890257
0.000000 0.747250 0.885924
0.000000 0.745968 0.885496
0.000000 0.741085 0.883970
0.329351 0.732448 0.882353
0.503349 0.717189 0.879332
0.734340 0.761257 0.895140
0.874022 0.803098 0.903227
0.957702 0.803098 0.893614
0.039002 0.890288 0.890837
0.172274 0.890379 0.891356
0.327153 0.888426 0.890959
0.478798 0.885924 0.890776
0.616999 0.881895 0.889586
0.748470 0.880125 0.890776
0.877073 0.892271 0.903777
0.972595 0.917327 0.922118
0.368139 0.976226 0.876738
0.395972 0.975311 0.877287
0.484932 0.974487 0.881926
0.589105 0.970977 0.886687
0.702846 0.966461 0.896422
0.815091 0.963928 0.913817
0.908873 0.969726 0.938109
0.968780 0.975433 0.936614
0.000000 0.000000 0.981506
0.000000 0.000000 0.981903
0.000000 0.000000 0.980652
0.365576 0.000000 0.980591
0.553735 0.000000 0.980224
0.711971 0.176822 0.979675
0.843534 0.274113 0.976440
0.961334 0.317937 0.970184
0.000000 0.076570 0.978210
0.000000 0.069062 0.978668
0.000000 0.000000 0.977935
0.361181 0.000000 0.977508
0.550927 0.092531 0.977356
0.709529 0.222538 0.977020
0.840482 0.303288 0.973602
0.957763 0.338506 0.967529
0.000000 0.213046 0.972656
0.000000 0.213413 0.972778
0.000000 0.212009 0.971496
0.351110 0.225406 0.973358
0.546838 0.263462 0.972869
0.706264 0.340459 0.972045
0.838163 0.405280 0.969574
0.953582 0.427649 0.964355
0.000000 0.381567 0.963775
0.000000 0.369970 0.964752
0.000000 0.344488 0.965209
0.306737 0.362585 0.965820
0.532219 0.402167 0.966247
0.701686 0.470832 0.966369
0.838376 0.536614 0.965393
0.949584 0.547845 0.961334
0.000000 0.524407 0.947295
0.000000 0.522271 0.948425
0.000000 0.511864 0.949676
0.200168 0.498909 0.953491
0.475410 0.506188 0.955596
0.680812 0.574517 0.956634
0.835630 0.653407 0.958923
0.944152 0.664881 0.957305
0.000000 0.675471 0.938506
0.000000 0.671931 0.937591
0.000000 0.659876 0.935393
0.000000 0.636072 0.933410
0.353887 0.620478 0.937102
0.635889 0.666804 0.946441
0.833829 0.759579 0.954864
0.943725 0.784848 0.957000
0.000000 0.823148 0.938964
0.000000 0.821683 0.938415
0.000000 0.816892 0.937011
0.191440 0.809873 0.936034
0.409522 0.800107 0.934661
0.575494 0.787259 0.933135
0.803769 0.830320 0.945281
0.935698 0.868406 0.951019
0.046265 0.954101 0.945342
0.145937 0.953307 0.944945
0.287022 0.951476 0.944366
0.434546 0.949310 0.944244
0.573144 0.946288 0.943847
0.703517 0.942779 0.943389
0.827390 0.940032 0.944213
0.941283 0.949035 0.954742
