data/fiter_cube/39179523/1023427/file.cube
# Created by Adobe Lightroom plugin Export LUT (1.17.0)
# www.johnrellis.com/lightroom/exportlut.htm
# Preset: 日系大师人物肖像_01 云集
# Color profile: C:\Program Files (x86)\Common Files\Adobe\Color\Profiles\Recommended\AdobeRGB1998.icc
LUT_3D_SIZE 8
DOMAIN_MIN 0.000000 0.000000 0.000000
DOMAIN_MAX 0.903226 0.903226 0.903226
0.000000 0.000000 0.000000
0.118990 0.000000 0.011566
0.282292 0.000000 0.009003
0.432410 0.000000 0.000000
0.562402 0.000000 0.000000
0.684382 0.000000 0.047608
0.788724 0.000000 0.095613
0.866972 0.000000 0.146853
0.041535 0.110109 0.000000
0.109865 0.101747 0.020661
0.287236 0.109224 0.000000
0.434516 0.081575 0.000000
0.563104 0.000000 0.000000
0.682765 0.000000 0.030854
0.785702 0.000000 0.090486
0.865110 0.000000 0.142611
0.105989 0.249180 0.000000
0.170748 0.233707 0.019806
0.253452 0.232975 0.076905
0.456489 0.285893 0.000000
0.582483 0.254368 0.000000
0.697963 0.223270 0.000000
0.796567 0.192111 0.088167
0.869688 0.170626 0.144442
0.165164 0.371801 0.048951
0.210910 0.359380 0.069917
0.289220 0.316289 0.087129
0.396246 0.365179 0.147616
0.593805 0.422004 0.080995
0.723232 0.402136 0.000000
0.805509 0.360632 0.078126
0.871305 0.326970 0.136721
0.215518 0.472267 0.090517
0.248447 0.462287 0.103059
0.316228 0.425635 0.108797
0.389288 0.405341 0.129152
0.512200 0.472450 0.214328
0.690028 0.527214 0.198520
0.812039 0.513939 0.042725
0.872465 0.464668 0.124392
0.259831 0.563500 0.118044
0.286961 0.558068 0.131594
0.343633 0.526116 0.130098
0.396826 0.468971 0.125582
0.490486 0.497017 0.170199
0.626795 0.577325 0.278691
0.772488 0.620935 0.305852
0.864897 0.596979 0.225650
0.310826 0.670741 0.141695
0.333532 0.665644 0.156008
0.384527 0.641779 0.149996
0.444953 0.597162 0.139986
0.483894 0.525902 0.123995
0.623102 0.618219 0.223331
0.734920 0.676997 0.357824
0.829007 0.697444 0.423651
0.377783 0.785122 0.207004
0.398322 0.781949 0.221561
0.446845 0.772152 0.217411
0.519402 0.754849 0.210880
0.592920 0.719661 0.191287
0.677577 0.709316 0.219242
0.773281 0.756252 0.356878
0.820554 0.764920 0.495399
0.000000 0.002075 0.124422
0.117311 0.000000 0.122652
0.280674 0.000000 0.139223
0.423194 0.000000 0.132235
0.553094 0.000000 0.135927
0.673060 0.000000 0.145205
0.778653 0.000000 0.162478
0.860533 0.000000 0.194369
0.000000 0.126528 0.128084
0.116823 0.123293 0.127657
0.279850 0.109224 0.128481
0.427710 0.072389 0.130373
0.556268 0.000000 0.134310
0.674311 0.000000 0.143923
0.777127 0.000000 0.159701
0.858671 0.000000 0.190372
0.000000 0.267979 0.095277
0.153475 0.260960 0.133577
0.261936 0.249058 0.157351
0.447852 0.278355 0.122408
0.574029 0.250278 0.129274
0.687495 0.221897 0.141878
0.785397 0.194491 0.160525
0.862638 0.179232 0.192477
0.103334 0.385718 0.085420
0.195712 0.378332 0.140261
0.294896 0.336492 0.145418
0.395209 0.369482 0.199313
0.583429 0.418006 0.160952
0.708064 0.394934 0.136172
0.794614 0.358343 0.158175
0.864744 0.329229 0.188449
0.185641 0.484657 0.116670
0.236973 0.476905 0.152071
0.316381 0.439979 0.156008
0.388495 0.407385 0.163851
0.508537 0.472816 0.247501
0.684627 0.526452 0.237003
0.805722 0.512505 0.158999
0.867887 0.466346 0.186954
0.239170 0.570825 0.135256
0.274357 0.564660 0.162966
0.339574 0.534173 0.167361
0.398047 0.477821 0.156649
0.488136 0.496681 0.194491
0.625788 0.579034 0.302800
0.770382 0.622248 0.329900
0.862394 0.598413 0.257389
0.291264 0.672633 0.150729
0.318669 0.666560 0.174228
0.376989 0.643977 0.178927
0.440925 0.600977 0.166201
0.483711 0.530632 0.145357
0.618128 0.614923 0.237919
0.730953 0.675166 0.370581
0.826139 0.696529 0.433204
0.360082 0.785550 0.206424
0.383734 0.782803 0.226261
0.438880 0.772885 0.235843
0.512840 0.755642 0.227298
0.593866 0.726925 0.212345
0.676753 0.710018 0.228702
0.771176 0.755306 0.364172
0.818662 0.764462 0.502373
0.000000 0.009735 0.304204
0.106142 0.000000 0.305211
0.293400 0.000000 0.306981
0.462593 0.061006 0.323430
0.575250 0.000000 0.311620
0.673579 0.000000 0.307073
0.770413 0.000000 0.294163
0.854429 0.000000 0.311345
0.000000 0.153475 0.303197
0.088441 0.142000 0.304021
0.289586 0.147005 0.305638
0.450660 0.157107 0.317296
0.564141 0.132418 0.305974
0.663203 0.096498 0.297337
0.769924 0.000000 0.293065
0.853758 0.078798 0.309880
0.000000 0.302220 0.305913
0.034577 0.300938 0.305974
0.279606 0.294102 0.304082
0.429725 0.278294 0.298100
0.561395 0.261173 0.295079
0.676692 0.241947 0.293767
0.776272 0.225132 0.297093
0.855344 0.225284 0.311345
0.000000 0.432868 0.277256
0.036316 0.428504 0.270451
0.294743 0.407599 0.292882
0.411597 0.403082 0.323888
0.593927 0.436744 0.308019
0.698024 0.402502 0.304662
0.786923 0.374182 0.305272
0.858335 0.354528 0.315831
0.000000 0.525719 0.212131
0.087434 0.521569 0.208499
0.312016 0.498238 0.282353
0.398535 0.432013 0.260807
0.521630 0.497749 0.347082
0.690730 0.543236 0.345098
0.797024 0.520409 0.316899
0.860746 0.481636 0.321660
0.085542 0.607416 0.166384
0.183413 0.601709 0.198062
0.330724 0.579278 0.271946
0.409674 0.521813 0.254063
0.487892 0.503990 0.263828
0.628382 0.590784 0.376440
0.768734 0.631556 0.403845
0.859403 0.609339 0.351751
0.207980 0.698970 0.180453
0.252567 0.693660 0.204349
0.359014 0.674159 0.264378
0.438361 0.631464 0.249821
0.492348 0.560143 0.214878
0.613428 0.615991 0.287144
0.731319 0.682734 0.426795
0.824979 0.705684 0.488319
0.294377 0.797787 0.217136
0.323522 0.794522 0.234195
0.411505 0.783322 0.291600
0.496223 0.766903 0.289586
0.582483 0.737972 0.265080
0.667536 0.706691 0.250248
0.767269 0.755795 0.393927
0.816251 0.768093 0.538933
0.000000 0.079896 0.468421
0.000000 0.079957 0.471351
0.285710 0.087129 0.476814
0.465400 0.118807 0.483406
0.638087 0.221683 0.510460
0.718441 0.218509 0.479622
0.785977 0.218784 0.459205
0.848203 0.223606 0.448737
0.000000 0.174319 0.468330
0.000000 0.170596 0.470405
0.284337 0.177127 0.475471
0.462684 0.196323 0.482399
0.630884 0.264530 0.507744
0.711513 0.250584 0.476844
0.781064 0.241093 0.456092
0.845884 0.237888 0.445258
0.000000 0.315587 0.464729
0.000000 0.313176 0.464485
0.271000 0.312718 0.466712
0.451698 0.329931 0.476661
0.604120 0.354437 0.492866
0.691554 0.328069 0.466865
0.769741 0.303319 0.447028
0.842222 0.286503 0.435615
0.000000 0.464271 0.468635
0.000000 0.463325 0.468452
0.255589 0.459876 0.467964
0.433814 0.453437 0.467140
0.561486 0.432837 0.454658
0.672084 0.412085 0.443610
0.767819 0.394079 0.436439
0.845243 0.388037 0.439979
0.000000 0.590661 0.448463
0.000000 0.585443 0.443427
0.248753 0.568902 0.428992
0.427741 0.535698 0.437934
0.540948 0.537011 0.472053
0.699397 0.568719 0.471504
0.781338 0.533227 0.458778
0.848203 0.505516 0.453834
0.000000 0.660609 0.375158
0.000000 0.658869 0.373938
0.238987 0.643732 0.363684
0.422766 0.608148 0.406409
0.489509 0.519890 0.355535
0.638239 0.615900 0.480598
0.769009 0.649958 0.504417
0.850309 0.625910 0.474800
0.000000 0.735744 0.307744
0.010437 0.733059 0.304753
0.237217 0.721157 0.306126
0.426612 0.688899 0.377447
0.507774 0.621759 0.331701
0.605432 0.618830 0.353582
0.730465 0.694301 0.506615
0.821530 0.718196 0.561059
0.000000 0.819760 0.248783
0.152377 0.817258 0.266087
0.308934 0.807523 0.314366
0.461555 0.788174 0.383551
0.560052 0.759854 0.355261
0.653193 0.717586 0.306279
0.758999 0.755489 0.434760
0.811765 0.773342 0.591241
0.000000 0.135439 0.612665
0.000000 0.139620 0.614679
0.260868 0.154177 0.619745
0.450904 0.183658 0.628962
0.622522 0.226749 0.639643
0.746548 0.353704 0.642267
0.804196 0.387915 0.618524
0.849577 0.388769 0.594659
0.000000 0.205142 0.610956
0.000000 0.208194 0.613428
0.263951 0.218082 0.618463
0.450263 0.238437 0.627192
0.619562 0.273228 0.637995
0.744228 0.385443 0.644312
0.801328 0.405463 0.619257
0.847807 0.400610 0.594781
0.000000 0.331212 0.603784
0.000000 0.333227 0.605249
0.263310 0.338048 0.610224
0.446418 0.355138 0.621210
0.609064 0.380468 0.631617
0.734798 0.469184 0.649256
0.790524 0.449561 0.616876
0.841733 0.429816 0.590723
0.000000 0.464790 0.604608
0.000000 0.464393 0.604334
0.248753 0.463752 0.603754
0.431189 0.470680 0.607782
0.593225 0.495033 0.621759
0.708705 0.530480 0.634150
0.771969 0.491829 0.600061
0.833433 0.456275 0.570672
0.000000 0.603113 0.606073
0.000000 0.602441 0.605890
0.235660 0.599420 0.604974
0.416236 0.594293 0.603784
0.565301 0.586358 0.601312
0.666743 0.560174 0.581903
0.755398 0.535698 0.564965
0.830564 0.522545 0.558892
0.000000 0.714199 0.588586
0.000000 0.712367 0.587915
0.231418 0.700496 0.577081
0.393256 0.679377 0.558007
0.533257 0.638056 0.548028
0.646815 0.645350 0.591333
0.769253 0.671748 0.605707
0.833646 0.641260 0.589319
0.000000 0.771328 0.511833
0.000000 0.768734 0.509972
0.220127 0.759792 0.502739
0.355474 0.742763 0.484718
0.511101 0.702510 0.498085
0.579644 0.611322 0.415503
0.726955 0.707851 0.594720
0.817838 0.731350 0.632471
0.000000 0.833158 0.449012
0.000000 0.831601 0.447578
0.214023 0.826139 0.440833
0.334905 0.817807 0.423682
0.523278 0.789944 0.481483
0.627375 0.748806 0.416968
0.741726 0.751003 0.472084
0.805112 0.778286 0.645289
0.000000 0.201602 0.726284
0.000000 0.207034 0.727077
0.242496 0.222782 0.729091
0.426001 0.253178 0.735073
0.588006 0.296025 0.741573
0.730770 0.348974 0.744747
0.804105 0.484993 0.729824
0.842588 0.550561 0.722805
0.000000 0.251957 0.722866
0.000000 0.255375 0.723537
0.250950 0.267247 0.726406
0.427527 0.291203 0.732235
0.586999 0.328588 0.739010
0.727901 0.376349 0.742794
0.801907 0.504631 0.731258
0.840970 0.559442 0.723690
0.000000 0.358343 0.719417
0.000000 0.360906 0.720027
0.271977 0.371649 0.722744
0.435554 0.389654 0.728267
0.587945 0.419379 0.735348
0.722011 0.458442 0.739986
0.796292 0.565484 0.737911
0.836332 0.587823 0.726864
0.000000 0.467567 0.715480
0.000000 0.468208 0.714809
0.261662 0.473518 0.714260
0.441321 0.497536 0.720546
0.589197 0.525200 0.729671
0.713893 0.559472 0.736782
0.789700 0.639979 0.748562
0.830076 0.619471 0.726772
0.000000 0.587854 0.712551
0.000000 0.588067 0.712367
0.250095 0.588769 0.711727
0.417456 0.591028 0.710628
0.571221 0.605280 0.713191
0.697932 0.634852 0.726101
0.774868 0.669154 0.737209
0.821439 0.630518 0.707546
0.000000 0.709957 0.710079
0.000000 0.709895 0.710414
0.238315 0.707729 0.709895
0.409094 0.703761 0.708888
0.552911 0.697871 0.707210
0.672358 0.692226 0.706416
0.745541 0.667445 0.687129
0.815183 0.650141 0.675319
0.000000 0.799405 0.685145
0.000000 0.798581 0.685817
0.254520 0.794675 0.687068
0.408484 0.785672 0.684749
0.526787 0.765866 0.667353
0.629603 0.724849 0.646754
0.729641 0.730892 0.691310
0.817258 0.750454 0.708553
0.000000 0.849363 0.618860
0.000000 0.847868 0.618341
0.227970 0.842954 0.615930
0.362921 0.834775 0.610285
0.475227 0.821408 0.595666
0.609766 0.791287 0.601923
0.708888 0.740780 0.503532
0.798734 0.786099 0.706447
0.000000 0.275059 0.799985
0.000000 0.280308 0.800412
0.256809 0.296086 0.801205
0.411292 0.323491 0.802731
0.553491 0.362982 0.804379
0.683223 0.413916 0.805722
0.792813 0.474861 0.804837
0.835080 0.589715 0.786252
0.000000 0.310735 0.798062
0.099031 0.314702 0.798520
0.269474 0.327520 0.799405
0.416297 0.350835 0.800839
0.555352 0.386603 0.802640
0.683070 0.434119 0.804166
0.790677 0.491249 0.803494
0.833555 0.599207 0.786618
0.086610 0.391516 0.795315
0.176883 0.398779 0.795315
0.304479 0.411414 0.795956
0.435248 0.430091 0.797543
0.565301 0.459510 0.799527
0.686336 0.501518 0.801663
0.786801 0.550134 0.802090
0.830259 0.637507 0.791165
0.000000 0.470039 0.791318
0.132906 0.473915 0.791165
0.304326 0.491188 0.791104
0.458381 0.523888 0.791928
0.579644 0.549859 0.794553
0.691707 0.586023 0.798184
0.781491 0.621454 0.800259
0.826017 0.684657 0.797024
0.000000 0.570397 0.788113
0.097139 0.571527 0.787716
0.274723 0.576226 0.786618
0.422827 0.586175 0.785000
0.581628 0.624170 0.786557
0.690425 0.653010 0.792111
0.774655 0.681636 0.797024
0.821897 0.729732 0.802976
0.000000 0.677607 0.785428
0.072908 0.677913 0.785214
0.267979 0.679133 0.784512
0.418311 0.681941 0.783413
0.554986 0.687922 0.781674
0.679011 0.706630 0.783230
0.767697 0.733150 0.793545
0.816526 0.753658 0.800015
0.000000 0.785916 0.782925
0.008728 0.785519 0.782925
0.261112 0.783627 0.782528
0.413611 0.780484 0.781796
0.551781 0.775631 0.780575
0.664515 0.770413 0.779324
0.748226 0.765774 0.778317
0.803189 0.745541 0.762509
0.000000 0.856565 0.751095
0.024628 0.855619 0.751369
0.258946 0.852537 0.752865
0.411139 0.846372 0.755886
0.547753 0.837156 0.760464
0.639277 0.823301 0.750118
0.710445 0.795407 0.726955
0.794644 0.796994 0.767575
0.192325 0.363897 0.849424
0.228153 0.367803 0.849393
0.318975 0.380926 0.848966
0.430610 0.404791 0.848447
0.545495 0.439124 0.847593
0.655634 0.484321 0.846342
0.752651 0.535607 0.844602
0.829709 0.585901 0.841398
0.218601 0.388281 0.848295
0.249454 0.391943 0.848264
0.332280 0.403571 0.847959
0.438422 0.425086 0.847440
0.550225 0.457282 0.846647
0.658045 0.500237 0.845457
0.753079 0.548638 0.843839
0.828702 0.595880 0.840879
0.273655 0.452796 0.845609
0.302342 0.458381 0.845426
0.369482 0.467506 0.845090
0.464393 0.486580 0.844877
0.566888 0.513878 0.844144
0.667353 0.550774 0.843107
0.755428 0.590753 0.841978
0.825956 0.629206 0.839780
0.184176 0.484108 0.844877
0.242496 0.493172 0.844480
0.377966 0.527092 0.842557
0.498299 0.564233 0.840879
0.590021 0.586664 0.840482
0.679744 0.614923 0.840055
0.759030 0.645777 0.839719
0.822538 0.673671 0.838651
0.097505 0.555108 0.842527
0.169314 0.557794 0.842283
0.297032 0.566705 0.841215
0.448066 0.593683 0.839597
0.603693 0.649714 0.836423
0.687587 0.671687 0.836698
0.761532 0.697047 0.837491
0.819089 0.718807 0.837644
0.031128 0.647028 0.840055
0.146059 0.648219 0.839719
0.283787 0.652583 0.838773
0.421393 0.661982 0.837125
0.554345 0.679286 0.834745
0.688167 0.720455 0.833310
0.762600 0.742214 0.835630
0.816526 0.761013 0.837491
0.000000 0.743099 0.837461
0.111818 0.743374 0.837217
0.269383 0.744411 0.836515
0.415656 0.747585 0.835325
0.551720 0.753811 0.833555
0.662715 0.761624 0.831754
0.754238 0.776669 0.832090
0.813718 0.795377 0.836820
0.000000 0.840848 0.834623
0.000000 0.840360 0.834470
0.249424 0.838682 0.834043
0.408759 0.835569 0.833310
0.548943 0.831205 0.832273
0.660334 0.826566 0.831235
0.742336 0.822538 0.830472
0.803983 0.818997 0.829709
