data/fiter_cube/39179523/1023427/file.cube
# Created by Adobe Lightroom plugin Export LUT (1.17.0)
# www.johnrellis.com/lightroom/exportlut.htm
# Preset: 日系大师人物肖像_01 云集
# Color profile: C:\Program Files (x86)\Common Files\Adobe\Color\Profiles\Recommended\AdobeRGB1998.icc
LUT_3D_SIZE 5
DOMAIN_MIN 0.000000 0.000000 0.000000
DOMAIN_MAX 0.903226 0.903226 0.903226
0.000000 0.000000 0.000000
0.242161 0.000000 0.014405
0.499702 0.000000 0.000000
0.713680 0.000000 0.063142
0.866972 0.000000 0.146853
0.088655 0.215824 0.000000
0.217014 0.199527 0.061036
0.515129 0.223453 0.000000
0.722408 0.165896 0.037018
0.869993 0.119600 0.146517
0.190951 0.423499 0.072877
0.286107 0.385779 0.094484
0.458106 0.422370 0.182376
0.751888 0.474372 0.000000
0.871672 0.396399 0.129915
0.272526 0.590600 0.124056
0.337224 0.563287 0.135714
0.423255 0.460792 0.123110
0.655482 0.603449 0.296086
0.856443 0.625513 0.286992
0.377783 0.785122 0.207004
0.431891 0.775265 0.218601
0.553491 0.735622 0.197574
0.703700 0.723415 0.253422
0.820554 0.764920 0.495399
0.000000 0.000000 0.257664
0.247715 0.000000 0.259342
0.507591 0.000000 0.270054
0.692531 0.000000 0.252323
0.855222 0.000000 0.278569
0.000000 0.258854 0.262150
0.239139 0.251835 0.260502
0.495674 0.222232 0.253056
0.702968 0.185672 0.255344
0.857206 0.175784 0.279973
0.000000 0.468360 0.184573
0.276280 0.446265 0.248051
0.462806 0.441566 0.302342
0.734157 0.472511 0.268681
0.862638 0.412848 0.286046
0.186954 0.622858 0.164431
0.323308 0.602808 0.243076
0.438575 0.498695 0.210575
0.656580 0.613001 0.367926
0.852659 0.634363 0.368048
0.319768 0.796139 0.216373
0.405097 0.785550 0.275914
0.544823 0.751369 0.261509
0.699092 0.723812 0.280858
0.818143 0.768490 0.531823
0.000000 0.106691 0.543603
0.221256 0.116732 0.549584
0.546258 0.171725 0.564599
0.754543 0.302464 0.561608
0.849943 0.307317 0.522545
0.000000 0.289006 0.537346
0.218204 0.289982 0.542260
0.538354 0.322179 0.561151
0.738155 0.371954 0.556298
0.844297 0.345739 0.517235
0.000000 0.536706 0.540703
0.187472 0.533257 0.539391
0.501762 0.522484 0.537072
0.693629 0.482185 0.510521
0.838285 0.457740 0.500847
0.000000 0.704616 0.465095
0.188144 0.692317 0.455726
0.472511 0.639551 0.465980
0.664576 0.647669 0.537163
0.841855 0.661036 0.540032
0.000000 0.825437 0.355200
0.187106 0.820676 0.347021
0.489784 0.788846 0.430213
0.664576 0.716915 0.336645
0.808072 0.774899 0.615625
0.000000 0.217746 0.746273
0.187594 0.234287 0.748562
0.500145 0.288609 0.756802
0.749142 0.378943 0.762448
0.840024 0.584039 0.747341
0.000000 0.337987 0.741482
0.226078 0.349462 0.743801
0.505791 0.385870 0.751766
0.742611 0.456733 0.758877
0.835416 0.609857 0.749874
0.000000 0.522606 0.733425
0.209873 0.525536 0.732448
0.508324 0.555261 0.735286
0.725368 0.607538 0.749447
0.824857 0.657496 0.747829
0.000000 0.732815 0.732021
0.193027 0.730037 0.730861
0.482765 0.723079 0.729122
0.693782 0.713130 0.726955
0.810971 0.675471 0.698390
0.000000 0.852995 0.658473
0.197421 0.848508 0.657038
0.437812 0.833310 0.649287
0.635706 0.792386 0.635279
0.797116 0.788174 0.721431
0.192325 0.363897 0.849424
0.293217 0.376684 0.849088
0.488289 0.420661 0.848081
0.681636 0.497505 0.846006
0.829709 0.585901 0.841398
0.264012 0.436805 0.846403
0.338537 0.446326 0.846189
0.509087 0.481819 0.845396
0.688899 0.547326 0.843565
0.826841 0.619745 0.840177
0.126284 0.513787 0.843687
0.288365 0.529808 0.842771
0.553918 0.608850 0.838376
0.703975 0.650263 0.838224
0.820737 0.696284 0.838041
0.006714 0.671229 0.839658
0.247929 0.674525 0.838773
0.490333 0.690120 0.835843
0.706233 0.735744 0.832792
0.815824 0.770199 0.837339
0.000000 0.840848 0.834623
0.205997 0.839231 0.834165
0.481880 0.833494 0.832822
0.683253 0.825528 0.831022
0.803983 0.818997 0.829709
