data/fiter_cube/39179523/1023427/file.cube
# Created by Adobe Lightroom plugin Export LUT (1.17.0)
# www.johnrellis.com/lightroom/exportlut.htm
# Preset: 日系大师人物肖像_01 云集
# Color profile: C:\Program Files (x86)\Common Files\Adobe\Color\Profiles\Recommended\AdobeRGB1998.icc
LUT_3D_SIZE 32
DOMAIN_MIN 0.0 0.0 0.0
DOMAIN_MAX 1.0 1.0 1.0
0.000000 0.000000 0.000000
0.000000 0.000000 0.000000
0.000000 0.000000 0.000000
0.074708 0.000000 0.004761
0.118990 0.000000 0.011566
0.160464 0.000000 0.019226
0.201144 0.000000 0.025910
0.242161 0.000000 0.014405
0.282292 0.000000 0.009003
0.321599 0.000000 0.002106
0.359808 0.000000 0.000000
0.396704 0.000000 0.000000
0.432410 0.000000 0.000000
0.466896 0.000000 0.000000
0.499702 0.000000 0.000000
0.531518 0.000000 0.000000
0.562402 0.000000 0.000000
0.592370 0.000000 0.000000
0.621546 0.000000 0.008270
0.653040 0.000000 0.026276
0.684382 0.000000 0.047608
0.713680 0.000000 0.063142
0.740780 0.000000 0.073671
0.765743 0.000000 0.084901
0.788724 0.000000 0.095613
0.810147 0.000000 0.107332
0.830289 0.000000 0.118502
0.849149 0.000000 0.131991
0.866972 0.000000 0.146853
0.883787 0.000000 0.163058
0.899626 0.000000 0.181674
0.914336 0.000000 0.203006
0.000000 0.000000 0.000000
0.000000 0.000000 0.000000
0.000000 0.000000 0.000000
0.076417 0.000000 0.004700
0.119722 0.000000 0.011505
0.160464 0.000000 0.019226
0.201938 0.000000 0.011933
0.242161 0.000000 0.008850
0.282261 0.000000 0.003265
0.321447 0.000000 0.000000
0.359411 0.000000 0.000000
0.396277 0.000000 0.000000
0.431800 0.000000 0.000000
0.466194 0.000000 0.000000
0.498970 0.000000 0.000000
0.530694 0.000000 0.000000
0.561395 0.000000 0.000000
0.591333 0.000000 0.000000
0.620447 0.000000 0.007324
0.651820 0.000000 0.023133
0.682795 0.000000 0.045167
0.711879 0.000000 0.060487
0.738918 0.000000 0.071962
0.763912 0.000000 0.083284
0.787045 0.000000 0.094209
0.808621 0.000000 0.104982
0.828916 0.000000 0.117220
0.847959 0.000000 0.130526
0.865904 0.000000 0.144930
0.882872 0.000000 0.161685
0.898833 0.000000 0.179995
0.913664 0.000000 0.201053
0.000000 0.000000 0.000000
0.000000 0.000000 0.000000
0.001038 0.002197 0.000000
0.078004 0.000000 0.001312
0.120790 0.000000 0.002899
0.161929 0.000000 0.003784
0.202426 0.000000 0.002899
0.242618 0.000000 0.000641
0.282536 0.000000 0.000000
0.321660 0.000000 0.000000
0.359625 0.000000 0.000000
0.396338 0.000000 0.000000
0.431891 0.000000 0.000000
0.466194 0.000000 0.000000
0.498878 0.000000 0.000000
0.530602 0.000000 0.000000
0.561181 0.000000 0.000000
0.590997 0.000000 0.000000
0.620172 0.000000 0.005280
0.651637 0.000000 0.021271
0.682338 0.000000 0.042573
0.711208 0.000000 0.059541
0.738186 0.000000 0.071626
0.763210 0.000000 0.081849
0.786313 0.000000 0.092439
0.807950 0.000000 0.104433
0.828244 0.000000 0.116152
0.847349 0.000000 0.129397
0.865415 0.000000 0.143984
0.882414 0.000000 0.160586
0.898436 0.000000 0.178714
0.913268 0.000000 0.200137
0.016846 0.071901 0.000000
0.018708 0.073732 0.000000
0.027131 0.074800 0.000305
0.074372 0.069581 0.009247
0.123018 0.076081 0.000000
0.164126 0.069551 0.000000
0.204776 0.061158 0.000000
0.245090 0.043366 0.000000
0.284642 0.015717 0.000000
0.323339 0.000000 0.000000
0.361089 0.000000 0.000000
0.397833 0.000000 0.000000
0.433082 0.000000 0.000000
0.466896 0.000000 0.000000
0.499519 0.000000 0.000000
0.530999 0.000000 0.000000
0.561700 0.000000 0.000000
0.591394 0.000000 0.000000
0.620356 0.000000 0.000000
0.651759 0.000000 0.017029
0.681758 0.000000 0.038178
0.710231 0.000000 0.056794
0.737148 0.000000 0.069856
0.762295 0.000000 0.080934
0.785763 0.000000 0.091371
0.807706 0.000000 0.102968
0.828183 0.000000 0.115511
0.847410 0.000000 0.128847
0.865415 0.000000 0.143557
0.882383 0.000000 0.159731
0.898253 0.000000 0.178378
0.913024 0.000000 0.199069
0.041535 0.110109 0.000000
0.042237 0.111025 0.000000
0.058839 0.111025 0.000000
0.095644 0.104463 0.007294
0.109865 0.101747 0.020661
0.158175 0.114473 0.000000
0.208072 0.118746 0.000000
0.247807 0.114382 0.000000
0.287236 0.109224 0.000000
0.325750 0.104280 0.000000
0.363256 0.098482 0.000000
0.399573 0.093233 0.000000
0.434516 0.081575 0.000000
0.468116 0.067414 0.000000
0.500786 0.034730 0.000000
0.532403 0.000000 0.000000
0.563104 0.000000 0.000000
0.592798 0.000000 0.000000
0.622278 0.000000 0.000000
0.653376 0.000000 0.011353
0.682765 0.000000 0.030854
0.710780 0.000000 0.054536
0.737362 0.000000 0.068086
0.762356 0.000000 0.079072
0.785702 0.000000 0.090486
0.807584 0.000000 0.101869
0.828000 0.000000 0.114656
0.847135 0.000000 0.128054
0.865110 0.000000 0.142611
0.882017 0.000000 0.158938
0.897917 0.000000 0.176791
0.912688 0.000000 0.197330
0.063264 0.145357 0.000000
0.063386 0.146212 0.000000
0.076173 0.144656 0.000000
0.106966 0.138643 0.001068
0.130800 0.135073 0.012543
0.144381 0.132845 0.028656
0.192782 0.149111 0.000000
0.248020 0.162081 0.000000
0.291844 0.162753 0.000000
0.330114 0.158968 0.000000
0.367193 0.154208 0.000000
0.402960 0.147890 0.000000
0.437537 0.141207 0.000000
0.471168 0.132204 0.000000
0.503624 0.122499 0.000000
0.535149 0.111666 0.000000
0.565728 0.099184 0.000000
0.595331 0.083894 0.000000
0.625788 0.065766 0.000000
0.656153 0.019379 0.003632
0.685145 0.000000 0.025330
0.712917 0.000000 0.049805
0.751827 0.000000 0.073976
0.775570 0.000000 0.086091
0.797513 0.000000 0.098604
0.817868 0.000000 0.109834
0.836790 0.000000 0.122683
0.854551 0.000000 0.136782
0.871336 0.000000 0.151156
0.887205 0.000000 0.167208
0.902129 0.000000 0.185031
0.915953 0.017029 0.205264
0.077668 0.181796 0.000000
0.081666 0.181399 0.000000
0.097627 0.178836 0.000000
0.122560 0.173220 0.000000
0.148714 0.164950 0.003632
0.166781 0.167269 0.014710
0.181125 0.166110 0.034943
0.229648 0.184726 0.009369
0.286564 0.200229 0.000000
0.339055 0.210239 0.000000
0.375769 0.204349 0.000000
0.411505 0.198337 0.000000
0.445869 0.191745 0.000000
0.479164 0.184176 0.000000
0.511070 0.176455 0.000000
0.541894 0.167819 0.000000
0.571862 0.158633 0.000000
0.601862 0.148806 0.000000
0.633173 0.139162 0.000000
0.663447 0.129000 0.000000
0.692775 0.117464 0.018647
0.721096 0.104372 0.048585
0.748013 0.090974 0.067994
0.773037 0.076387 0.081270
0.796017 0.061097 0.094606
0.816861 0.027192 0.107729
0.836057 0.003265 0.120760
0.853880 0.000000 0.134035
0.870665 0.002045 0.148714
0.886473 0.036286 0.164553
0.901366 0.072908 0.182254
0.915221 0.102174 0.202426
0.088655 0.215824 0.000000
0.100893 0.214206 0.000000
0.113588 0.211673 0.000000
0.135164 0.206912 0.000000
0.159823 0.199008 0.009613
0.181582 0.193332 0.025666
0.201205 0.199191 0.038636
0.217014 0.199527 0.061036
0.265171 0.218357 0.048341
0.321324 0.234440 0.000000
0.374609 0.245914 0.000000
0.416297 0.245609 0.000000
0.450355 0.238315 0.000000
0.483375 0.230961 0.000000
0.515129 0.223453 0.000000
0.545830 0.215671 0.000000
0.575586 0.207431 0.000000
0.606867 0.199832 0.000000
0.637049 0.191745 0.000000
0.666346 0.183505 0.000000
0.694759 0.174838 0.007172
0.722408 0.165896 0.037018
0.748745 0.157198 0.063233
0.773251 0.148074 0.077699
0.795865 0.139559 0.091585
0.816495 0.131746 0.104677
0.835538 0.125277 0.118196
0.853300 0.120974 0.131624
0.869993 0.119600 0.146517
0.885771 0.122652 0.162081
0.900694 0.131106 0.179507
0.914549 0.145022 0.199527
0.105989 0.249180 0.000000
0.115999 0.247990 0.000000
0.127291 0.245670 0.000427
0.146914 0.241123 0.008392
0.170748 0.233707 0.019806
0.193790 0.224308 0.036500
0.213993 0.223880 0.051514
0.236118 0.231724 0.062470
0.253452 0.232975 0.076905
0.300298 0.252232 0.075654
0.355810 0.268070 0.011536
0.408209 0.279332 0.000000
0.456489 0.285893 0.000000
0.489174 0.278019 0.000000
0.520623 0.270024 0.000000
0.550896 0.261631 0.000000
0.582483 0.254368 0.000000
0.612879 0.246769 0.000000
0.641962 0.238895 0.000000
0.670314 0.231022 0.000000
0.697963 0.223270 0.000000
0.724880 0.215305 0.024140
0.750515 0.207309 0.056092
0.774411 0.199374 0.074342
0.796567 0.192111 0.088167
0.816831 0.184817 0.102480
0.835630 0.178775 0.115602
0.853147 0.173526 0.129519
0.869688 0.170626 0.144442
0.885374 0.170596 0.159609
0.900145 0.174014 0.176822
0.913970 0.181979 0.196231
0.122011 0.281682 0.000000
0.131258 0.280461 0.010285
0.140414 0.278508 0.015503
0.158694 0.274022 0.023011
0.181308 0.267216 0.032685
0.204379 0.257939 0.047181
0.225406 0.246952 0.060121
0.246311 0.253849 0.067903
0.270695 0.263828 0.076997
0.289006 0.265934 0.092409
0.334264 0.284855 0.096986
0.388769 0.300328 0.063325
0.440436 0.311345 0.000000
0.489265 0.319280 0.000000
0.527184 0.316503 0.000000
0.559380 0.308965 0.000000
0.590448 0.300999 0.000000
0.620172 0.292699 0.000000
0.648341 0.284611 0.000000
0.675715 0.276341 0.000000
0.702266 0.268406 0.000000
0.727993 0.260197 0.008759
0.752468 0.252262 0.046876
0.775418 0.244358 0.069825
0.796872 0.236759 0.084443
0.816770 0.229465 0.099153
0.835386 0.222873 0.112490
0.852842 0.217288 0.126375
0.869352 0.213321 0.141604
0.885039 0.211612 0.157321
0.899809 0.212436 0.174472
0.913695 0.216709 0.193698
0.135927 0.312322 0.011231
0.145022 0.311162 0.026429
0.153872 0.309209 0.030793
0.170199 0.305058 0.037537
0.191165 0.298680 0.048371
0.213626 0.289982 0.058137
0.235111 0.279698 0.065278
0.254856 0.272862 0.072663
0.278111 0.283146 0.080781
0.304479 0.295109 0.092164
0.323552 0.297734 0.109010
0.367407 0.316655 0.118715
0.420905 0.331914 0.091249
0.472786 0.343542 0.037324
0.522362 0.352117 0.000000
0.567803 0.356756 0.000000
0.597925 0.347509 0.000000
0.626795 0.338384 0.000000
0.653986 0.329198 0.000000
0.680415 0.320348 0.000000
0.706264 0.311589 0.000000
0.731258 0.303166 0.000000
0.755032 0.294987 0.029419
0.777371 0.286778 0.063722
0.798276 0.278782 0.080842
0.817685 0.271061 0.095064
0.835843 0.263828 0.110231
0.852964 0.257511 0.124300
0.869200 0.252415 0.138827
0.884703 0.248875 0.153780
0.899382 0.247654 0.170871
0.913115 0.249393 0.189975
0.151156 0.341405 0.029664
0.157961 0.340826 0.047456
0.165835 0.338994 0.050843
0.181155 0.334966 0.055421
0.200626 0.328893 0.061250
0.222202 0.320775 0.065736
0.243595 0.310857 0.071778
0.263340 0.298894 0.077272
0.283726 0.299565 0.084779
0.308812 0.311711 0.094575
0.337102 0.325109 0.106996
0.357641 0.329412 0.126436
0.409674 0.356664 0.146181
0.464546 0.372900 0.121614
0.516289 0.384253 0.090272
0.565454 0.392096 0.009613
0.611872 0.397436 0.000000
0.645289 0.391577 0.000000
0.670771 0.380407 0.000000
0.695583 0.369604 0.000000
0.719692 0.359594 0.000000
0.742763 0.349645 0.000000
0.764614 0.340124 0.030091
0.785306 0.330755 0.066499
0.804746 0.321752 0.083467
0.822965 0.313268 0.098238
0.840055 0.305241 0.112459
0.856260 0.298070 0.126864
0.871763 0.291905 0.140658
0.886595 0.287114 0.155856
0.900694 0.284276 0.172183
0.914031 0.283787 0.190433
0.165164 0.371801 0.048951
0.172183 0.370825 0.061769
0.179263 0.369238 0.064851
0.193118 0.365118 0.066560
0.210910 0.359380 0.069917
0.231388 0.351171 0.073121
0.252262 0.341161 0.077699
0.271672 0.329686 0.082734
0.289220 0.316289 0.087129
0.313085 0.326665 0.096376
0.341527 0.341924 0.109194
0.373144 0.358465 0.124788
0.396246 0.365179 0.147616
0.441230 0.387427 0.169375
0.495064 0.403418 0.146792
0.545830 0.414557 0.119417
0.593805 0.422004 0.080995
0.638117 0.426215 0.000000
0.676051 0.425544 0.000000
0.699947 0.413336 0.000000
0.723232 0.402136 0.000000
0.745480 0.391211 0.000000
0.766629 0.380560 0.009857
0.786648 0.370367 0.059022
0.805509 0.360632 0.078126
0.823270 0.351171 0.093874
0.840055 0.342260 0.107942
0.856016 0.334173 0.122591
0.871305 0.326970 0.136721
0.885985 0.321080 0.151736
0.900023 0.316594 0.167453
0.913298 0.314336 0.185519
0.178042 0.397467 0.062989
0.184604 0.396551 0.070619
0.190921 0.395178 0.073793
0.203220 0.391424 0.075044
0.220005 0.385626 0.077546
0.239139 0.377996 0.081147
0.259281 0.368902 0.084352
0.278965 0.358251 0.088350
0.297124 0.345556 0.092042
0.315068 0.337957 0.097658
0.341772 0.353033 0.109285
0.371954 0.369879 0.123384
0.403967 0.386908 0.141665
0.428199 0.394659 0.165133
0.471626 0.417090 0.192081
0.524193 0.432624 0.170871
0.573449 0.443061 0.146029
0.619715 0.449928 0.115267
0.661707 0.452979 0.069642
0.699855 0.453315 0.000000
0.727047 0.444800 0.000000
0.748623 0.432715 0.000000
0.769070 0.420966 0.000000
0.788449 0.409766 0.042878
0.806851 0.398993 0.071748
0.824094 0.388708 0.089906
0.840513 0.378882 0.103853
0.856168 0.369879 0.118624
0.871214 0.361639 0.133120
0.885710 0.354620 0.147494
0.899596 0.348943 0.163699
0.912810 0.344976 0.180911
0.190951 0.423499 0.072877
0.196262 0.422950 0.079225
0.203037 0.421454 0.083345
0.214389 0.417945 0.084474
0.229892 0.412573 0.086397
0.247776 0.405463 0.089113
0.267063 0.396490 0.091676
0.286107 0.385779 0.094484
0.303899 0.373510 0.097658
0.319921 0.359503 0.100771
0.340429 0.361151 0.108186
0.369146 0.377935 0.121553
0.400671 0.396155 0.137911
0.433082 0.413519 0.157473
0.458106 0.422370 0.182376
0.500420 0.444556 0.211582
0.551629 0.460273 0.193912
0.599542 0.470405 0.171298
0.644007 0.476539 0.144900
0.684382 0.479103 0.112001
0.720912 0.478737 0.058015
0.751888 0.474372 0.000000
0.771603 0.461402 0.000000
0.790433 0.448981 0.017853
0.808194 0.437110 0.064424
0.825162 0.425849 0.083680
0.841276 0.415290 0.100313
0.856748 0.405402 0.115694
0.871672 0.396399 0.129915
0.886076 0.388342 0.144686
0.899870 0.381598 0.160647
0.912993 0.376287 0.177859
0.203525 0.449012 0.081758
0.208560 0.448432 0.087648
0.214878 0.447120 0.092378
0.225193 0.443854 0.093629
0.239506 0.438697 0.095186
0.256474 0.431708 0.096803
0.274662 0.423194 0.098787
0.292912 0.412940 0.101320
0.310826 0.400580 0.102998
0.326757 0.387121 0.105653
0.340307 0.371283 0.107057
0.365576 0.383978 0.118563
0.395483 0.401984 0.133791
0.428229 0.421210 0.151369
0.460151 0.438239 0.172702
0.485695 0.447974 0.198520
0.527123 0.469764 0.228336
0.577417 0.486336 0.215976
0.624567 0.496559 0.195193
0.667659 0.502342 0.171969
0.706538 0.504662 0.144717
0.741360 0.503563 0.109621
0.771847 0.499672 0.036561
0.793301 0.488777 0.000580
0.810513 0.475868 0.058991
0.826932 0.463478 0.081514
0.842649 0.451759 0.097566
0.857725 0.440864 0.113313
0.872282 0.430823 0.127504
0.886320 0.421698 0.141939
0.899809 0.413581 0.157259
0.912688 0.406775 0.172854
0.215518 0.472267 0.090517
0.220066 0.471626 0.095613
0.225711 0.470741 0.101839
0.235111 0.467323 0.101991
0.248447 0.462287 0.103059
0.264225 0.455665 0.104158
0.281315 0.447395 0.105684
0.299077 0.437385 0.107088
0.316228 0.425635 0.108797
0.332189 0.412238 0.110353
0.346166 0.397162 0.111543
0.360662 0.387121 0.114748
0.389288 0.405341 0.129152
0.420539 0.424567 0.145815
0.454383 0.444892 0.164736
0.486000 0.461952 0.187442
0.512200 0.472450 0.214328
0.553155 0.494179 0.244755
0.603143 0.512108 0.236881
0.648737 0.521935 0.218692
0.690028 0.527214 0.198520
0.727016 0.528649 0.175021
0.759548 0.526665 0.146273
0.788174 0.521965 0.106386
0.812039 0.513939 0.042725
0.828031 0.500389 0.074861
0.843381 0.487648 0.093446
0.858183 0.475807 0.108675
0.872465 0.464668 0.124392
0.886290 0.454566 0.138399
0.899626 0.445289 0.152102
0.912322 0.437140 0.167239
0.226810 0.494911 0.098451
0.231174 0.494362 0.103273
0.239475 0.499458 0.111482
0.248417 0.496315 0.112856
0.260746 0.491249 0.113375
0.275364 0.484535 0.113771
0.291630 0.476265 0.115053
0.308568 0.466072 0.115297
0.325200 0.454475 0.116365
0.340948 0.440955 0.116823
0.354925 0.426062 0.117281
0.366522 0.409033 0.117098
0.385779 0.410315 0.124758
0.416205 0.429938 0.140810
0.448951 0.450568 0.159426
0.483955 0.471962 0.179965
0.515892 0.489357 0.204593
0.542992 0.500816 0.232090
0.583703 0.522545 0.263554
0.632288 0.540826 0.260960
0.675471 0.549462 0.244450
0.714382 0.553582 0.226291
0.748592 0.553765 0.206058
0.778561 0.550622 0.181827
0.804746 0.544579 0.150027
0.827848 0.536431 0.103609
0.844572 0.523919 0.090791
0.858762 0.510674 0.105684
0.872618 0.498421 0.119783
0.886137 0.487129 0.133700
0.899260 0.476692 0.146639
0.911742 0.467231 0.160922
0.238651 0.518822 0.106752
0.242588 0.519066 0.110964
0.248508 0.518791 0.116579
0.257450 0.516686 0.118990
0.268864 0.512535 0.119600
0.282750 0.506584 0.120180
0.298131 0.498604 0.120516
0.314427 0.489021 0.121126
0.330724 0.477882 0.121431
0.346197 0.464912 0.121004
0.360296 0.450324 0.120912
0.372381 0.434241 0.120699
0.381872 0.416144 0.119661
0.407935 0.430182 0.132845
0.439643 0.450935 0.150546
0.473426 0.472602 0.170260
0.509483 0.494942 0.192325
0.541222 0.512322 0.217777
0.569268 0.524773 0.246586
0.609247 0.546319 0.278935
0.655756 0.564508 0.281804
0.697292 0.572686 0.267063
0.733974 0.576013 0.251164
0.766018 0.575433 0.233310
0.793942 0.571527 0.211612
0.818448 0.565026 0.184665
0.840330 0.556390 0.147524
0.859159 0.545373 0.102388
0.872709 0.532036 0.116243
0.885985 0.519615 0.128298
0.898863 0.508019 0.140841
0.911223 0.497353 0.153170
0.248905 0.540856 0.112673
0.253086 0.540917 0.116884
0.258396 0.540703 0.122133
0.266819 0.538872 0.125490
0.277653 0.534874 0.125704
0.290837 0.529137 0.125948
0.305425 0.521508 0.125765
0.321019 0.512322 0.125673
0.336706 0.501671 0.125673
0.352026 0.489387 0.125307
0.366461 0.475349 0.124910
0.378912 0.459663 0.123812
0.389166 0.442237 0.122866
0.400549 0.430213 0.124269
0.431281 0.451209 0.141207
0.464149 0.473121 0.160037
0.499245 0.495735 0.181155
0.536156 0.519066 0.204562
0.568048 0.536522 0.231601
0.596826 0.549889 0.261387
0.634730 0.570062 0.294987
0.679133 0.588159 0.303319
0.718410 0.595331 0.290471
0.752621 0.597772 0.276371
0.782315 0.596338 0.260533
0.808316 0.591882 0.241245
0.831296 0.584894 0.217319
0.852049 0.575860 0.185306
0.871061 0.564996 0.137118
0.885588 0.551934 0.122621
0.898253 0.539208 0.133303
0.910430 0.527276 0.144228
0.259831 0.563500 0.118044
0.263462 0.563592 0.121492
0.268528 0.563470 0.126650
0.276921 0.561669 0.130922
0.286961 0.558068 0.131594
0.299290 0.552483 0.131228
0.313390 0.545220 0.130861
0.328222 0.536553 0.130465
0.343633 0.526116 0.130098
0.358801 0.514366 0.129397
0.373144 0.500786 0.128267
0.385992 0.485756 0.127077
0.396826 0.468971 0.125582
0.405280 0.450416 0.123323
0.423743 0.451392 0.130465
0.455970 0.473701 0.149416
0.490486 0.497017 0.170199
0.527184 0.521050 0.193057
0.565759 0.545830 0.218082
0.598108 0.563806 0.247166
0.626795 0.577325 0.278691
0.662806 0.596185 0.314214
0.704341 0.613672 0.328222
0.740871 0.619623 0.317815
0.772488 0.620935 0.305852
0.799771 0.618738 0.292363
0.823789 0.613672 0.275334
0.845274 0.606378 0.254154
0.864897 0.596979 0.225650
0.882994 0.585534 0.184360
0.898955 0.571923 0.132235
0.910796 0.558709 0.140719
0.272526 0.590600 0.124056
0.275822 0.590295 0.127504
0.280522 0.589624 0.131807
0.288426 0.587701 0.137179
0.297734 0.583825 0.136873
0.309392 0.578515 0.136873
0.322911 0.571466 0.136110
0.337224 0.563287 0.135714
0.352544 0.553307 0.134371
0.367590 0.542107 0.133761
0.382208 0.529381 0.132631
0.395605 0.514824 0.130922
0.407202 0.498482 0.128573
0.416571 0.480537 0.126009
0.423255 0.460792 0.123110
0.450599 0.476295 0.137881
0.484504 0.499977 0.158755
0.520531 0.524437 0.181491
0.558465 0.549554 0.206210
0.597803 0.574823 0.232731
0.628290 0.591180 0.263462
0.655482 0.603449 0.296086
0.688228 0.620020 0.332982
0.725612 0.635828 0.352209
0.759274 0.640375 0.342901
0.788235 0.640803 0.332708
0.813626 0.638056 0.320836
0.836118 0.632868 0.306126
0.856443 0.625513 0.286992
0.875090 0.615991 0.260899
0.892424 0.604120 0.222904
0.908568 0.589502 0.160678
0.284276 0.615747 0.128603
0.287480 0.615503 0.131716
0.291661 0.614984 0.135988
0.299626 0.613245 0.142550
0.308507 0.609674 0.142061
0.319738 0.604578 0.141421
0.332616 0.598108 0.140780
0.346532 0.590234 0.139956
0.361486 0.580835 0.138979
0.376532 0.570031 0.137636
0.391302 0.557733 0.135958
0.405066 0.543877 0.133791
0.417487 0.528313 0.131685
0.427863 0.511223 0.129061
0.436042 0.492378 0.125765
0.445716 0.478645 0.125490
0.479133 0.502770 0.145846
0.514580 0.527672 0.168368
0.552087 0.553338 0.193423
0.590906 0.579034 0.219730
0.629603 0.603571 0.248417
0.658015 0.618036 0.281102
0.683528 0.629175 0.315312
0.712825 0.643366 0.353429
0.744442 0.656031 0.375830
0.775479 0.659541 0.368292
0.802365 0.659480 0.360021
0.826017 0.656489 0.349706
0.847196 0.651240 0.336614
0.866453 0.643946 0.319341
0.884245 0.634455 0.295262
0.900816 0.622370 0.260197
0.297948 0.644465 0.135409
0.301274 0.644282 0.138613
0.304967 0.643854 0.142641
0.313085 0.642023 0.149935
0.321447 0.638697 0.149294
0.332067 0.633906 0.148104
0.344579 0.627832 0.147005
0.358312 0.620508 0.145846
0.373083 0.611566 0.143984
0.388067 0.601282 0.141909
0.402930 0.589502 0.140047
0.417029 0.576165 0.137881
0.430030 0.561242 0.135103
0.441352 0.544610 0.132082
0.450538 0.526268 0.128389
0.457404 0.506340 0.124422
0.475776 0.507042 0.132326
0.510430 0.531914 0.155062
0.547143 0.557702 0.179446
0.585351 0.583581 0.205997
0.623346 0.608270 0.234501
0.660578 0.631525 0.264714
0.686122 0.643488 0.299107
0.708827 0.652522 0.334234
0.734035 0.663783 0.373114
0.762905 0.676295 0.402167
0.791257 0.678889 0.396704
0.816007 0.678218 0.389960
0.837949 0.675105 0.381262
0.857755 0.669917 0.370001
0.875914 0.662776 0.354589
0.892699 0.653407 0.332982
0.310826 0.670741 0.141695
0.313725 0.670649 0.144717
0.317479 0.670192 0.148684
0.325414 0.668605 0.156283
0.333532 0.665644 0.156008
0.343725 0.661494 0.155123
0.356085 0.656153 0.153689
0.369757 0.649561 0.151827
0.384527 0.641779 0.149996
0.400000 0.632746 0.147799
0.415473 0.622400 0.145541
0.430610 0.610620 0.143038
0.444953 0.597162 0.139986
0.457710 0.581933 0.136446
0.468666 0.564874 0.132570
0.477485 0.546166 0.128328
0.483894 0.525902 0.123995
0.512657 0.542199 0.141970
0.548882 0.568170 0.167056
0.586114 0.593866 0.194400
0.623102 0.618219 0.223331
0.659327 0.641016 0.253788
0.693294 0.661158 0.285863
0.715419 0.670314 0.321691
0.734920 0.676997 0.357824
0.756008 0.685481 0.397498
0.780331 0.696315 0.431739
0.806180 0.698238 0.428168
0.829007 0.697444 0.423651
0.849363 0.694484 0.417487
0.867796 0.689693 0.408789
0.884672 0.682948 0.395941
0.324834 0.699123 0.151095
0.327977 0.698878 0.154116
0.331304 0.698360 0.157443
0.338720 0.696834 0.164706
0.346960 0.694087 0.165316
0.356970 0.690333 0.163973
0.368780 0.685664 0.162600
0.382361 0.679835 0.160616
0.397131 0.673060 0.158724
0.412787 0.665248 0.156283
0.428992 0.656153 0.153506
0.445045 0.646113 0.150362
0.460761 0.634516 0.147005
0.475563 0.621332 0.143282
0.488777 0.606531 0.139345
0.500145 0.589807 0.134615
0.509178 0.571160 0.129702
0.519615 0.557153 0.128725
0.555047 0.582818 0.155093
0.590845 0.607630 0.183169
0.626459 0.631220 0.212955
0.661341 0.653162 0.244205
0.694545 0.672969 0.276493
0.724025 0.689082 0.310399
0.742550 0.695430 0.346807
0.758633 0.699672 0.383551
0.775692 0.705592 0.423499
0.795773 0.715084 0.462531
0.819150 0.716396 0.460883
0.840177 0.715755 0.458747
0.859068 0.713222 0.455116
0.876036 0.709102 0.449378
0.339818 0.726833 0.162997
0.342504 0.726558 0.165652
0.345922 0.726070 0.168948
0.353033 0.724819 0.175540
0.361486 0.722652 0.177707
0.371344 0.719844 0.176761
0.383337 0.716365 0.175418
0.397162 0.712184 0.174044
0.412634 0.707240 0.172244
0.429297 0.701503 0.170443
0.446540 0.694942 0.168368
0.464302 0.687251 0.165530
0.482002 0.678370 0.162387
0.499214 0.668055 0.158755
0.515465 0.656245 0.154360
0.530327 0.642695 0.149538
0.543603 0.627649 0.144289
0.555047 0.611078 0.139010
0.575769 0.612268 0.149325
0.609491 0.635157 0.179965
0.642756 0.656672 0.211490
0.674952 0.676295 0.243931
0.705409 0.693782 0.277287
0.733944 0.709194 0.311192
0.757748 0.720485 0.346410
0.771817 0.723354 0.383154
0.783902 0.724941 0.419928
0.796567 0.728267 0.459937
0.811948 0.736446 0.503563
0.832578 0.737240 0.503929
0.851469 0.736995 0.504875
0.868193 0.735103 0.504753
0.359411 0.758419 0.183963
0.361852 0.758175 0.186374
0.364935 0.757687 0.189181
0.371771 0.756466 0.195407
0.380224 0.754574 0.198398
0.389715 0.752163 0.196994
0.401251 0.749172 0.195682
0.414771 0.745602 0.194095
0.429816 0.741421 0.192264
0.446265 0.736629 0.190524
0.463783 0.731014 0.187930
0.481941 0.724697 0.185306
0.500481 0.717494 0.182315
0.519005 0.709285 0.178988
