data/fiter_cube/46928955/1023409/file.cube
# Created by Adobe Lightroom plugin Export LUT (1.17.0)
# www.johnrellis.com/lightroom/exportlut.htm
# Preset: 室内干净明亮通透人像_02 云集
# Color profile: C:\Program Files (x86)\Common Files\Adobe\Color\Profiles\Recommended\AdobeRGB1998.icc
LUT_3D_SIZE 32
DOMAIN_MIN 0.0 0.0 0.0
DOMAIN_MAX 1.0 1.0 1.0
0.107637 0.020172 0.075471
0.107637 0.020172 0.075471
0.107637 0.020172 0.075471
0.118685 0.025727 0.077852
0.133791 0.032898 0.081483
0.153506 0.034668 0.085603
0.180545 0.047456 0.090303
0.217227 0.057221 0.094331
0.261875 0.059174 0.098177
0.312688 0.054047 0.101625
0.369207 0.036805 0.105592
0.429023 0.012482 0.110262
0.489662 0.000000 0.115328
0.548882 0.000000 0.122072
0.603601 0.035279 0.130098
0.650355 0.082551 0.140291
0.694179 0.121218 0.154269
0.737606 0.164889 0.174624
0.773068 0.204044 0.195926
0.805386 0.241398 0.219211
0.835721 0.278264 0.245029
0.864469 0.314580 0.273259
0.891508 0.350195 0.302953
0.917601 0.385473 0.334630
0.943206 0.420783 0.368231
0.969085 0.457404 0.404425
0.996063 0.496345 0.444343
1.000000 0.537652 0.487922
1.000000 0.579492 0.533318
1.000000 0.619745 0.579126
1.000000 0.655665 0.627039
1.000000 0.665553 0.643275
0.107637 0.020172 0.075471
0.107637 0.020172 0.075471
0.107637 0.020172 0.075471
0.118685 0.025727 0.077852
0.133577 0.033143 0.081483
0.152926 0.048707 0.086458
0.179751 0.062959 0.091188
0.215488 0.069001 0.094911
0.259129 0.071199 0.098787
0.309545 0.069551 0.102266
0.364965 0.064088 0.105867
0.423865 0.052186 0.110506
0.483803 0.036042 0.115694
0.542473 0.041474 0.121798
0.597314 0.065431 0.129641
0.644800 0.093080 0.139437
0.689296 0.127016 0.153536
0.731502 0.166384 0.172396
0.766415 0.202518 0.192691
0.798489 0.238102 0.215000
0.828702 0.273472 0.239719
0.857450 0.308934 0.266941
0.884642 0.343816 0.295933
0.910918 0.378607 0.327123
0.936736 0.413733 0.360296
0.962829 0.450233 0.396429
0.990112 0.488991 0.435950
1.000000 0.530724 0.479805
1.000000 0.573419 0.525994
1.000000 0.614557 0.572412
1.000000 0.651514 0.620478
1.000000 0.666438 0.643641
0.107637 0.020172 0.075471
0.107637 0.020172 0.075471
0.107637 0.020172 0.075471
0.118502 0.031739 0.078035
0.133211 0.055177 0.083070
0.152529 0.067659 0.088258
0.179019 0.075624 0.092409
0.214206 0.080903 0.095827
0.257115 0.084016 0.099397
0.306706 0.083955 0.102907
0.361791 0.080873 0.106722
0.420111 0.076265 0.110903
0.479805 0.072084 0.116335
0.538415 0.074556 0.122255
0.593378 0.086641 0.129732
0.641230 0.106691 0.139742
0.686519 0.137484 0.153536
0.727840 0.172244 0.171969
0.762417 0.205997 0.191257
0.794339 0.240024 0.213199
0.824674 0.274296 0.237613
0.853605 0.308812 0.264652
0.880919 0.342992 0.293400
0.907286 0.377203 0.323949
0.933196 0.411933 0.356939
0.959380 0.448066 0.392706
0.986786 0.486763 0.432349
1.000000 0.528374 0.476112
1.000000 0.571374 0.522606
1.000000 0.612787 0.569360
1.000000 0.650172 0.617365
1.000000 0.667659 0.644251
0.109285 0.062470 0.081300
0.109255 0.064790 0.082063
0.109804 0.067140 0.082521
0.116793 0.074464 0.088258
0.133333 0.084688 0.088289
0.152926 0.091920 0.092042
0.179416 0.097841 0.095186
0.214359 0.102907 0.098177
0.256626 0.105776 0.101411
0.305486 0.106966 0.104799
0.359319 0.106722 0.108309
0.416907 0.105715 0.112612
0.475654 0.105928 0.117739
0.533623 0.109041 0.123842
0.588556 0.117281 0.131289
0.636774 0.132906 0.140963
0.683375 0.157870 0.154757
0.723293 0.186984 0.172000
0.756863 0.216098 0.190860
0.787991 0.246464 0.211307
0.817960 0.277928 0.234653
0.846708 0.310338 0.260594
0.874510 0.343664 0.289097
0.901793 0.377966 0.320470
0.928954 0.413336 0.354345
0.956451 0.450446 0.391394
0.984894 0.489937 0.432258
1.000000 0.532067 0.477058
1.000000 0.574792 0.523644
1.000000 0.615564 0.570001
1.000000 0.652064 0.617151
1.000000 0.670314 0.645563
0.112673 0.092927 0.092805
0.112978 0.093965 0.093233
0.113313 0.095003 0.093660
0.119203 0.095552 0.098268
0.127901 0.106081 0.103639
0.152071 0.118685 0.098634
0.179171 0.123445 0.099275
0.213046 0.128481 0.101595
0.254368 0.131930 0.104219
0.301762 0.134981 0.107240
0.354589 0.136751 0.110842
0.411078 0.138247 0.115236
0.469123 0.140566 0.120027
0.526879 0.144839 0.126131
0.582147 0.152285 0.133700
0.631464 0.164523 0.143221
0.680537 0.186069 0.157748
0.719905 0.210239 0.174533
0.753323 0.235477 0.192752
0.784298 0.262119 0.212955
0.813870 0.290532 0.235843
0.842405 0.320653 0.261143
0.870176 0.351965 0.289281
0.897642 0.384833 0.320165
0.925109 0.419196 0.353796
0.952972 0.455695 0.391058
0.981567 0.494575 0.432074
1.000000 0.535729 0.476387
1.000000 0.577813 0.522881
1.000000 0.618006 0.568933
1.000000 0.654261 0.615839
1.000000 0.674434 0.647578
0.114412 0.121340 0.103822
0.114504 0.122164 0.103975
0.115816 0.122988 0.104311
0.122103 0.122133 0.106264
0.130434 0.126833 0.112551
0.144198 0.139742 0.119783
0.178378 0.155337 0.111879
0.214420 0.156588 0.106294
0.254856 0.161135 0.108583
0.301335 0.165164 0.111299
0.353185 0.168826 0.114778
0.408789 0.172152 0.118868
0.465949 0.175814 0.123781
0.523217 0.180789 0.129976
0.578454 0.188235 0.137484
0.630884 0.200412 0.147982
0.678920 0.218448 0.162234
0.717647 0.238529 0.178897
0.751003 0.260410 0.197024
0.782193 0.284337 0.217197
0.812039 0.310582 0.240177
0.841123 0.338872 0.266178
0.907713 0.421332 0.342168
0.934295 0.453651 0.376043
0.960418 0.486641 0.411658
0.986755 0.520775 0.449348
1.000000 0.556390 0.489265
1.000000 0.591791 0.529595
1.000000 0.626246 0.570245
1.000000 0.658289 0.611505
1.000000 0.683619 0.652155
1.000000 0.679835 0.650141
0.112612 0.159670 0.119936
0.113069 0.160067 0.119692
0.117250 0.160952 0.120272
0.124666 0.161288 0.119448
0.138308 0.159426 0.128481
0.152010 0.168978 0.133730
0.175051 0.184573 0.142824
0.223423 0.202152 0.130648
0.267430 0.202243 0.120638
0.314336 0.202762 0.118379
0.367254 0.207767 0.121553
0.423194 0.212650 0.126040
0.480171 0.217533 0.131533
0.536370 0.223270 0.137911
0.589288 0.230564 0.145785
0.644556 0.245151 0.158083
0.689631 0.261570 0.173587
0.726497 0.279149 0.191012
0.759579 0.298955 0.210208
0.791623 0.322179 0.232547
0.823606 0.349432 0.258762
0.855772 0.380591 0.290013
0.887602 0.414923 0.325200
0.918822 0.450813 0.363409
0.949126 0.487617 0.403601
0.978027 0.523766 0.444099
1.000000 0.560143 0.485634
1.000000 0.595666 0.526940
1.000000 0.629664 0.567437
1.000000 0.661891 0.608240
1.000000 0.688624 0.652552
1.000000 0.686519 0.653620
0.109224 0.195224 0.135988
0.112459 0.195804 0.136019
0.117617 0.196628 0.136477
0.128634 0.197574 0.136751
0.142611 0.196353 0.140169
0.160494 0.198520 0.149996
0.181247 0.209354 0.157015
0.213718 0.227634 0.168856
0.269780 0.245243 0.152316
0.318151 0.246189 0.139345
0.365240 0.241855 0.129488
0.418952 0.245945 0.132174
0.474891 0.251682 0.137301
0.530205 0.257969 0.143648
0.588617 0.268406 0.152773
0.641505 0.281163 0.164858
0.684382 0.294194 0.179294
0.720302 0.308476 0.195682
0.752956 0.324926 0.214328
0.784726 0.345098 0.235996
0.816495 0.369238 0.261601
0.848417 0.397467 0.291752
0.880064 0.428840 0.326024
0.911131 0.462318 0.363195
0.941405 0.496925 0.402380
0.970489 0.531701 0.442664
0.999145 0.566674 0.483680
1.000000 0.601343 0.524865
1.000000 0.634821 0.565637
1.000000 0.666560 0.606165
1.000000 0.692775 0.650324
1.000000 0.694453 0.657618
0.108858 0.235264 0.155520
0.113161 0.235660 0.155550
0.119661 0.236484 0.156039
0.134066 0.237583 0.157565
0.147005 0.237430 0.155459
0.172091 0.235111 0.168215
0.194797 0.242191 0.177707
0.222599 0.254795 0.186587
0.263737 0.275456 0.201511
0.326085 0.293553 0.182376
0.377325 0.294652 0.167056
0.425055 0.289921 0.153017
0.471992 0.285893 0.144747
0.531365 0.295140 0.151980
0.590265 0.306737 0.161654
0.639490 0.317571 0.173068
0.680598 0.328527 0.187198
0.715877 0.340124 0.202731
0.748074 0.354070 0.220890
0.779690 0.371618 0.242161
0.811246 0.393225 0.267491
0.842893 0.418830 0.297063
0.874357 0.447517 0.330358
0.905241 0.478767 0.366796
0.935454 0.511467 0.405676
0.964630 0.544244 0.445045
0.993561 0.577874 0.485786
1.000000 0.611078 0.526390
1.000000 0.643336 0.566583
1.000000 0.673976 0.606592
1.000000 0.699184 0.650080
1.000000 0.703456 0.662257
0.110506 0.277623 0.178378
0.116274 0.277897 0.178256
0.123354 0.278477 0.178531
0.140017 0.279484 0.180026
0.158785 0.279728 0.179477
0.182742 0.278111 0.185641
0.211521 0.277073 0.201083
0.239139 0.288670 0.210178
0.272831 0.302770 0.221347
0.321538 0.326207 0.239963
0.387304 0.343938 0.218112
0.438605 0.344152 0.200168
0.490700 0.342687 0.186038
0.538109 0.337804 0.172580
0.589685 0.343297 0.172824
0.637690 0.353307 0.182773
0.678798 0.363226 0.196689
0.713954 0.373877 0.212955
0.746029 0.386572 0.231113
0.777096 0.401862 0.251926
0.807706 0.420600 0.276371
0.838010 0.442603 0.304387
0.868070 0.467475 0.335637
0.897765 0.494942 0.369726
0.927214 0.524468 0.406622
0.956390 0.555261 0.445075
0.985809 0.587732 0.485695
1.000000 0.620539 0.526848
1.000000 0.652522 0.567590
1.000000 0.683070 0.608331
1.000000 0.708003 0.652308
1.000000 0.713344 0.667536
0.116274 0.319799 0.202914
0.122744 0.320256 0.202945
0.131289 0.320745 0.203281
0.149355 0.321843 0.204807
0.174105 0.322728 0.207034
0.192966 0.322728 0.205386
0.228672 0.320836 0.221958
0.259403 0.325383 0.237064
0.292912 0.338964 0.248600
0.332219 0.354772 0.262699
0.388586 0.382208 0.287144
0.461250 0.404181 0.266209
0.514427 0.406348 0.246555
0.560266 0.402258 0.228367
0.599298 0.394202 0.211124
0.634577 0.387610 0.200046
0.674128 0.395575 0.208896
0.708583 0.404334 0.221378
0.740475 0.415137 0.239231
0.771389 0.428870 0.259739
0.801907 0.446052 0.283940
0.832303 0.466163 0.311528
0.862455 0.489509 0.342809
0.892302 0.515282 0.376837
0.921813 0.542962 0.413031
0.950958 0.572045 0.450965
0.980346 0.602502 0.490486
1.000000 0.633295 0.530236
1.000000 0.663661 0.570092
1.000000 0.692866 0.610224
1.000000 0.716976 0.653773
1.000000 0.724178 0.673365
0.128603 0.365026 0.231724
0.135225 0.365393 0.231785
0.144289 0.365911 0.232364
0.163088 0.366888 0.233707
0.191775 0.368322 0.237491
0.213474 0.368811 0.235904
0.245457 0.368170 0.245151
0.283024 0.366613 0.265415
0.316686 0.377417 0.279606
0.358587 0.396033 0.297032
0.407599 0.418250 0.318761
0.471534 0.451514 0.351568
0.583337 0.511223 0.364721
0.624598 0.507256 0.337316
0.656794 0.496345 0.312444
0.683436 0.481788 0.288914
0.706569 0.466011 0.266941
0.734646 0.466285 0.268650
0.763729 0.474647 0.281529
0.792447 0.486030 0.297948
0.821073 0.501274 0.322515
0.849485 0.519585 0.350347
0.877623 0.540002 0.380652
0.905882 0.562799 0.413275
0.934112 0.587610 0.448188
0.962554 0.613947 0.484657
0.991516 0.640589 0.521111
1.000000 0.666865 0.557122
1.000000 0.692683 0.593408
1.000000 0.718105 0.631006
1.000000 0.736751 0.673487
1.000000 0.735714 0.679774
0.151400 0.423377 0.272251
0.158511 0.423713 0.272404
0.168032 0.423407 0.272465
0.187045 0.423590 0.273320
0.215579 0.423713 0.276036
0.243656 0.423377 0.276646
0.267491 0.423194 0.276249
0.313268 0.424384 0.298741
0.356909 0.430426 0.325628
0.401068 0.451240 0.346685
0.451392 0.475776 0.372168
0.506157 0.503410 0.401831
0.571130 0.542473 0.445258
0.625422 0.557610 0.420111
0.661189 0.553063 0.391882
0.688930 0.542016 0.366491
0.712490 0.527245 0.340490
0.733425 0.511376 0.315953
0.755337 0.501152 0.301061
0.783902 0.510826 0.315679
0.812253 0.523339 0.333104
0.840665 0.539025 0.355627
0.868711 0.558007 0.385016
0.896941 0.579370 0.417151
0.925231 0.602411 0.451179
0.953735 0.627253 0.486976
0.982971 0.652583 0.522789
1.000000 0.677760 0.558251
1.000000 0.702785 0.594202
1.000000 0.727687 0.631678
1.000000 0.746120 0.674067
1.000000 0.747738 0.686580
0.174105 0.468605 0.306371
0.181216 0.469490 0.307225
0.190646 0.470008 0.307836
0.210330 0.471382 0.309606
0.239628 0.473182 0.313390
0.275334 0.475135 0.319493
0.300298 0.477577 0.318700
0.339849 0.479103 0.332799
0.386267 0.480903 0.359808
0.429114 0.492439 0.385412
0.474922 0.514488 0.409308
0.523522 0.539055 0.437263
0.571069 0.563867 0.468147
0.621546 0.595819 0.511223
0.663081 0.604150 0.482582
0.692378 0.596948 0.450080
0.716121 0.584710 0.421363
0.737209 0.570001 0.393408
0.757259 0.555077 0.367590
0.777523 0.541466 0.344732
0.803922 0.546838 0.351629
0.832395 0.560937 0.371099
0.860685 0.577234 0.393072
0.889158 0.597314 0.423438
0.917662 0.619623 0.457099
0.946593 0.643153 0.492317
0.976257 0.667292 0.527489
1.000000 0.691402 0.562524
1.000000 0.715541 0.598230
1.000000 0.739773 0.635492
1.000000 0.757595 0.677852
1.000000 0.760250 0.693782
0.208591 0.526940 0.354040
0.215732 0.527459 0.354620
0.224460 0.527398 0.354772
0.242863 0.527733 0.356085
0.270695 0.527947 0.358465
0.306004 0.528374 0.363745
0.334752 0.529412 0.364263
0.363409 0.531090 0.367315
0.411749 0.531762 0.392523
0.456825 0.534295 0.423011
0.498207 0.551598 0.447181
0.540795 0.572137 0.473579
0.582116 0.592889 0.502281
0.620050 0.613184 0.531273
0.660273 0.639857 0.568292
0.693568 0.644678 0.539147
0.719020 0.637232 0.506188
0.740200 0.625208 0.476326
0.760342 0.611810 0.448066
0.780453 0.598901 0.422766
0.801083 0.587243 0.400275
0.824155 0.583001 0.389593
0.852476 0.598169 0.410407
0.881163 0.615656 0.433722
0.910185 0.636194 0.463203
0.939757 0.659724 0.498817
0.970703 0.683528 0.534356
1.000000 0.707759 0.570123
1.000000 0.732113 0.606744
1.000000 0.756588 0.645319
1.000000 0.773159 0.689662
1.000000 0.773068 0.701381
0.246006 0.578393 0.399756
0.252842 0.579034 0.400671
0.260838 0.579248 0.401129
0.279179 0.579431 0.402502
0.305730 0.579644 0.405188
0.340490 0.580133 0.410437
0.375280 0.581170 0.415808
0.401770 0.582971 0.416938
0.442054 0.583917 0.433448
0.487098 0.584710 0.461677
0.526329 0.589288 0.491218
0.561608 0.604822 0.513573
0.595483 0.620722 0.536736
0.627222 0.636500 0.559808
0.656703 0.652155 0.582086
0.690883 0.675227 0.612268
0.719173 0.678431 0.584436
0.742214 0.672236 0.554223
0.762661 0.663203 0.528527
0.783139 0.653315 0.504295
0.804166 0.643793 0.481880
0.825925 0.635279 0.461585
0.848600 0.628046 0.443030
0.876371 0.639551 0.456306
0.906035 0.658808 0.481788
0.936675 0.680049 0.510552
0.968444 0.703517 0.546044
1.000000 0.726802 0.581323
1.000000 0.750088 0.617334
1.000000 0.773434 0.655421
1.000000 0.787533 0.699001
1.000000 0.786099 0.709133
0.285649 0.619043 0.440406
0.291264 0.619104 0.440772
0.298589 0.618982 0.441352
0.315068 0.618860 0.442695
0.339635 0.618708 0.445319
0.371618 0.618585 0.450202
0.409705 0.618738 0.459205
0.435218 0.619776 0.460273
0.463874 0.621118 0.466896
0.507439 0.621057 0.492897
0.546044 0.622004 0.521630
0.578058 0.630426 0.545953
0.607691 0.644312 0.566369
0.635889 0.658503 0.586481
0.662715 0.672694 0.606134
0.687984 0.686519 0.624689
0.718776 0.707607 0.651728
0.743709 0.709773 0.625238
0.765408 0.705013 0.597620
0.785214 0.698482 0.575586
0.805447 0.691524 0.555261
0.826474 0.684810 0.536309
0.848478 0.678828 0.518608
0.872068 0.674464 0.502953
0.898741 0.677333 0.499001
0.930083 0.697383 0.524956
0.963012 0.718807 0.552880
0.997559 0.742214 0.588342
1.000000 0.765255 0.624598
1.000000 0.788540 0.663294
1.000000 0.801450 0.707576
1.000000 0.799222 0.717220
0.329442 0.654780 0.480537
0.335790 0.655421 0.481727
0.376318 0.677943 0.510918
0.391211 0.677485 0.512596
0.413062 0.676631 0.515648
0.441169 0.675441 0.520714
0.474556 0.674067 0.529168
0.501793 0.673487 0.534813
0.524102 0.673915 0.538628
0.554772 0.673915 0.554040
0.587243 0.673976 0.576837
0.615106 0.674983 0.600580
0.638758 0.685389 0.617121
0.662135 0.697261 0.633143
0.684993 0.709194 0.649256
0.707362 0.721004 0.665339
0.729274 0.732784 0.681514
0.757046 0.751522 0.706294
0.778500 0.751705 0.679133
0.798489 0.747127 0.652003
0.817136 0.741726 0.631556
0.836759 0.736507 0.613336
0.857542 0.731685 0.596643
0.879606 0.727810 0.581445
0.903197 0.724849 0.567193
0.929229 0.723903 0.555077
0.960449 0.738430 0.571160
0.994629 0.758419 0.597406
1.000000 0.780636 0.632410
1.000000 0.803464 0.670924
1.000000 0.815000 0.715389
1.000000 0.812375 0.725490
0.383551 0.691310 0.525933
0.392462 0.694179 0.530419
0.403449 0.696864 0.534966
0.420417 0.699031 0.540398
0.443091 0.700282 0.546410
0.469703 0.700252 0.552941
0.499428 0.699458 0.561059
0.528649 0.698878 0.569940
0.547753 0.699519 0.572381
0.568597 0.700496 0.578668
0.599084 0.700526 0.598718
0.626032 0.701289 0.619684
0.648798 0.704585 0.639368
0.669917 0.715328 0.653864
0.690883 0.726070 0.668605
0.711696 0.736873 0.683436
0.732296 0.747677 0.698390
0.752834 0.758633 0.713680
0.779629 0.776699 0.737758
0.799985 0.777096 0.712673
0.819791 0.774014 0.688228
0.839384 0.770901 0.670222
0.859770 0.767788 0.654353
0.881315 0.765255 0.640192
0.904326 0.763394 0.627253
0.929534 0.763241 0.616510
0.957885 0.765377 0.608179
0.990784 0.774533 0.611810
1.000000 0.795712 0.640558
1.000000 0.818692 0.679347
1.000000 0.828733 0.724025
1.000000 0.825528 0.733883
0.423316 0.717372 0.560357
0.431586 0.719844 0.564630
0.441352 0.722286 0.569177
0.456336 0.724178 0.574395
0.476265 0.725307 0.580133
0.498909 0.725368 0.585992
0.523827 0.724910 0.592859
0.550988 0.724422 0.601617
0.570275 0.725032 0.605402
0.587762 0.726314 0.609125
0.611566 0.727108 0.621759
0.637354 0.727840 0.640620
0.660090 0.728634 0.660151
0.680049 0.734798 0.676631
0.699458 0.744717 0.690303
0.718868 0.754604 0.704097
0.738277 0.764584 0.718044
0.757809 0.774807 0.732326
0.777737 0.785489 0.747097
0.804135 0.803220 0.770565
0.823423 0.803738 0.747524
0.843168 0.801999 0.725856
0.863401 0.800504 0.709865
0.884367 0.799008 0.696101
0.906584 0.797910 0.683528
0.930785 0.797910 0.672755
0.957855 0.799893 0.664515
0.988800 0.804685 0.659785
1.000000 0.812833 0.659388
1.000000 0.832639 0.686275
1.000000 0.841886 0.731319
1.000000 0.838529 0.742275
0.462196 0.742855 0.595544
0.469368 0.745144 0.599573
0.478004 0.747402 0.603815
0.490669 0.749264 0.608637
0.507286 0.750362 0.613672
0.526207 0.750546 0.618677
0.547234 0.750271 0.624323
0.570397 0.749996 0.631464
0.591516 0.750332 0.637690
0.606622 0.751461 0.639673
0.623102 0.752926 0.644617
0.648066 0.753262 0.661769
0.670649 0.753872 0.679835
0.690791 0.754849 0.698695
0.709194 0.763485 0.712428
0.727962 0.773251 0.726040
0.747341 0.783566 0.740291
0.767178 0.794400 0.755184
0.787655 0.805875 0.770718
0.808865 0.818021 0.786740
0.836332 0.836667 0.810269
0.855680 0.838315 0.791196
0.875608 0.837949 0.773068
0.897002 0.838346 0.759731
0.919371 0.838834 0.748928
0.943542 0.840085 0.739620
0.970397 0.842802 0.732631
1.000000 0.847898 0.728908
1.000000 0.855833 0.729366
1.000000 0.861082 0.735531
1.000000 0.860899 0.757015
1.000000 0.851621 0.750881
0.511223 0.777462 0.643702
0.515496 0.778531 0.645808
0.520165 0.779355 0.647730
0.528923 0.779843 0.650202
0.541253 0.780056 0.653223
0.556329 0.779873 0.656764
0.574121 0.779690 0.661219
0.593957 0.779782 0.667201
0.615930 0.780423 0.675380
0.630640 0.781949 0.677790
0.645716 0.783902 0.681575
0.665614 0.785153 0.692805
0.688045 0.785794 0.709621
0.708339 0.786526 0.726986
0.726406 0.789273 0.743343
0.743984 0.798215 0.755703
0.762081 0.807553 0.768490
0.780819 0.817350 0.781735
0.800137 0.827665 0.795377
0.820005 0.838468 0.809201
0.840543 0.849760 0.823117
0.866575 0.866545 0.843107
0.883665 0.866972 0.825101
0.901732 0.865812 0.807797
0.922850 0.866484 0.795682
0.945678 0.868132 0.786862
0.971221 0.871061 0.780270
1.000000 0.876097 0.776761
1.000000 0.883635 0.777096
1.000000 0.886381 0.783108
1.000000 0.883848 0.795529
1.000000 0.866087 0.763424
0.541131 0.802640 0.677638
0.544610 0.803677 0.679561
0.548974 0.804623 0.681453
0.556481 0.805264 0.683742
0.566674 0.805539 0.686244
0.579461 0.805386 0.688899
0.594476 0.805142 0.692348
0.611872 0.805020 0.697078
0.631769 0.805447 0.703853
0.648798 0.806485 0.708644
0.662501 0.808225 0.711360
0.676967 0.810086 0.715908
0.699092 0.810575 0.731380
0.719783 0.811307 0.747616
0.738582 0.812284 0.764187
0.755825 0.817716 0.778134
0.773404 0.826749 0.790188
0.791714 0.836271 0.802640
0.810666 0.846311 0.815366
0.830289 0.856809 0.828275
0.850462 0.867735 0.841306
0.871672 0.879576 0.854704
0.896910 0.895323 0.872770
0.913268 0.895964 0.857023
0.924865 0.889647 0.835813
0.946410 0.891295 0.825498
0.970428 0.894560 0.819303
0.997589 0.899504 0.815793
1.000000 0.906767 0.815702
1.000000 0.908446 0.821195
1.000000 0.906401 0.833036
1.000000 0.891783 0.808499
0.576379 0.835752 0.721126
0.579553 0.836973 0.723079
0.583124 0.837675 0.724453
0.588922 0.837919 0.725826
0.597253 0.837736 0.727230
0.607813 0.837186 0.728939
0.620691 0.836484 0.731167
0.635798 0.835752 0.734310
0.652918 0.835294 0.738979
0.671351 0.835294 0.745022
0.683070 0.835874 0.745571
0.695766 0.836881 0.747982
0.712612 0.837339 0.756283
0.732509 0.837156 0.770047
0.750851 0.836942 0.783993
0.767544 0.837064 0.798184
0.783474 0.843717 0.808560
0.800381 0.851987 0.819059
0.818418 0.861234 0.830442
0.837613 0.871397 0.842557
0.857511 0.882078 0.854917
0.877684 0.892912 0.867124
0.898558 0.904356 0.879423
0.921843 0.918273 0.894926
0.936309 0.917967 0.879881
0.951965 0.916350 0.865293
0.974029 0.919127 0.856962
0.998840 0.923705 0.852964
1.000000 0.930510 0.852232
1.000000 0.929442 0.857084
1.000000 0.927703 0.867613
1.000000 0.914916 0.847654
0.599268 0.860105 0.751522
0.602167 0.861326 0.753353
0.605280 0.862058 0.754696
0.610590 0.862333 0.755947
0.618250 0.862150 0.757137
0.627863 0.861784 0.758663
0.639887 0.861295 0.760769
0.653864 0.860929 0.763699
0.670039 0.860807 0.768032
0.688228 0.861112 0.773983
0.702419 0.861906 0.777035
0.714839 0.863249 0.779080
0.727840 0.864652 0.782559
0.747646 0.864836 0.794797
0.766751 0.864897 0.807706
0.784512 0.865171 0.820737
0.800839 0.867155 0.833158
0.817380 0.875059 0.842771
0.834897 0.883757 0.853025
0.853391 0.893217 0.863798
0.872557 0.903136 0.874815
0.892027 0.913237 0.885771
0.911284 0.923186 0.896300
0.931182 0.933654 0.907042
0.952483 0.945892 0.920317
0.966064 0.945647 0.907042
0.981170 0.944457 0.894499
1.000000 0.948852 0.888701
1.000000 0.954101 0.888212
1.000000 0.949920 0.893156
1.000000 0.948333 0.901457
1.000000 0.935790 0.881468
0.624994 0.887938 0.784939
0.627405 0.888762 0.786221
0.629877 0.889097 0.786984
0.634241 0.889006 0.787625
0.640650 0.888518 0.788174
0.649317 0.887846 0.789059
0.659937 0.887175 0.790433
0.672724 0.886625 0.792691
0.687831 0.886442 0.796170
0.704799 0.886748 0.801175
0.721981 0.887449 0.806455
0.733913 0.888914 0.808042
0.746517 0.890410 0.810758
0.762295 0.891356 0.817533
0.781765 0.891356 0.829129
0.800015 0.891417 0.840818
0.817044 0.891783 0.852720
0.833158 0.895995 0.863035
0.850004 0.904051 0.872160
0.867765 0.912779 0.881804
0.886168 0.921996 0.891722
0.904906 0.931395 0.901610
0.923491 0.940642 0.911162
0.941711 0.949706 0.920378
0.960296 0.959197 0.929747
0.979431 0.969818 0.941314
0.992493 0.969970 0.929839
1.000000 0.969512 0.919249
1.000000 0.969726 0.916350
1.000000 0.966064 0.920378
1.000000 0.964813 0.927520
1.000000 0.954040 0.910307
0.648219 0.913909 0.813993
0.650172 0.914458 0.814817
0.652491 0.914763 0.815396
0.656672 0.914794 0.816037
0.663050 0.914763 0.817044
0.671748 0.914885 0.818570
0.683070 0.915618 0.821195
0.696742 0.916777 0.824857
0.712764 0.918425 0.829740
0.730861 0.920592 0.835874
0.750820 0.923095 0.843229
0.765957 0.925933 0.847410
0.779568 0.928649 0.850797
0.793301 0.930999 0.854734
0.812802 0.931853 0.864530
0.831998 0.932097 0.874998
0.849943 0.932403 0.885435
0.866758 0.933135 0.896056
0.883024 0.939300 0.904417
0.899931 0.947051 0.912505
0.917266 0.955108 0.920806
0.934722 0.963287 0.929076
0.951873 0.971252 0.937102
0.968597 0.979034 0.944854
0.984649 0.986450 0.952239
1.000000 0.994171 0.959899
1.000000 0.995911 0.970062
1.000000 0.991180 0.961486
1.000000 0.986023 0.954498
1.000000 0.983062 0.955200
1.000000 0.978637 0.950866
1.000000 0.969726 0.935821
0.685054 0.952544 0.853849
0.686732 0.952850 0.854368
0.688411 0.952850 0.854582
0.691981 0.952544 0.854765
0.697475 0.952117 0.855131
0.705043 0.951720 0.855863
0.714839 0.951568 0.857237
0.726772 0.951751 0.859403
0.740902 0.952270 0.862455
0.757107 0.953155 0.866545
0.774960 0.954223 0.871611
0.792111 0.955627 0.876371
0.804166 0.957092 0.878019
0.816587 0.958434 0.880400
