data/fiter_cube/46928955/1023409/file.cube
# Created by Adobe Lightroom plugin Export LUT (1.17.0)
# www.johnrellis.com/lightroom/exportlut.htm
# Preset: 室内干净明亮通透人像_02 云集
# Color profile: C:\Program Files (x86)\Common Files\Adobe\Color\Profiles\Recommended\AdobeRGB1998.icc
LUT_3D_SIZE 5
DOMAIN_MIN 0.000000 0.000000 0.000000
DOMAIN_MAX 0.903226 0.903226 0.903226
0.107637 0.020172 0.075471
0.217227 0.057221 0.094331
0.603601 0.035279 0.130098
0.864469 0.314580 0.273259
1.000000 0.579492 0.533318
0.109224 0.195224 0.135988
0.213718 0.227634 0.168856
0.588617 0.268406 0.152773
0.848417 0.397467 0.291752
1.000000 0.634821 0.565637
0.208591 0.526940 0.354040
0.363409 0.531090 0.367315
0.660273 0.639857 0.568292
0.824155 0.583001 0.389593
1.000000 0.732113 0.606744
0.511223 0.777462 0.643702
0.593957 0.779782 0.667201
0.726406 0.789273 0.743343
0.866575 0.866545 0.843107
1.000000 0.883635 0.777096
0.711543 0.980804 0.879911
0.751827 0.980682 0.885344
0.839139 0.974609 0.895750
0.962768 0.997070 0.955566
1.000000 1.000000 1.000000
0.099397 0.068025 0.134798
0.197055 0.121920 0.157504
0.593988 0.160159 0.191562
0.833219 0.335058 0.280552
1.000000 0.566400 0.511009
0.094728 0.210269 0.203952
0.244999 0.250034 0.214786
0.598718 0.305394 0.241917
0.826139 0.408759 0.317479
1.000000 0.611078 0.533104
0.171237 0.535943 0.407233
0.385504 0.541558 0.423438
0.637293 0.613367 0.548363
0.805997 0.581170 0.436469
1.000000 0.726009 0.600885
0.499763 0.778653 0.661921
0.586816 0.781033 0.681483
0.726375 0.789334 0.750301
0.863523 0.863523 0.843381
1.000000 0.877134 0.775967
0.698024 0.981659 0.884825
0.739223 0.981353 0.888884
0.853391 0.987396 0.912108
0.969879 1.000000 0.962554
1.000000 1.000000 1.000000
0.000000 0.158419 0.320043
0.178378 0.214115 0.325689
0.565332 0.303197 0.422614
0.841398 0.436835 0.511559
1.000000 0.601160 0.613611
0.000000 0.260685 0.398566
0.232425 0.299962 0.406256
0.596643 0.396490 0.474067
0.833585 0.508934 0.546288
1.000000 0.635248 0.630579
0.105623 0.527764 0.547601
0.325505 0.551568 0.558312
0.632532 0.599359 0.581628
0.814145 0.642512 0.611048
1.000000 0.732723 0.686305
0.409949 0.785733 0.730434
0.517479 0.781613 0.727199
0.711574 0.793393 0.760311
0.859953 0.859007 0.848753
1.000000 0.853513 0.769772
0.648035 0.981201 0.904295
0.691035 0.984131 0.906828
0.819516 0.990387 0.919493
0.962768 0.999603 0.965301
1.000000 1.000000 1.000000
0.000000 0.275639 0.583978
0.102296 0.299382 0.594751
0.527794 0.491249 0.612879
0.776638 0.561364 0.689693
1.000000 0.669947 0.797757
0.000000 0.355200 0.621912
0.214603 0.375738 0.627985
0.563073 0.547204 0.635828
0.778683 0.595697 0.704402
1.000000 0.687007 0.801694
0.000000 0.512749 0.687953
0.269413 0.527062 0.692317
0.604791 0.621027 0.711421
0.794369 0.684962 0.755062
1.000000 0.755825 0.830747
0.397406 0.746792 0.796292
0.478584 0.752590 0.797177
0.649165 0.781064 0.812619
0.825406 0.815366 0.830533
1.000000 0.857664 0.856840
0.568261 0.993256 0.956695
0.604242 0.996368 0.957733
0.736507 1.000000 0.955596
0.939208 1.000000 0.969085
1.000000 1.000000 1.000000
0.000000 0.431067 0.826963
0.238743 0.451911 0.828336
0.574365 0.591119 0.830350
0.762722 0.699550 0.853910
0.975525 0.750423 0.906554
0.083497 0.470863 0.833982
0.274418 0.487922 0.835264
0.574456 0.602289 0.838132
0.764126 0.715267 0.856413
0.977081 0.763302 0.909819
0.000000 0.531884 0.863401
0.000000 0.546014 0.861997
0.552728 0.635645 0.864683
0.778714 0.771969 0.874846
0.997681 0.816434 0.931456
0.272129 0.766232 0.926299
0.346777 0.764523 0.923613
0.511345 0.761532 0.920043
0.778378 0.815335 0.929015
1.000000 0.905058 0.965820
0.550500 0.969604 0.997345
0.577111 0.970459 0.997009
0.672267 0.980468 1.000000
0.839658 0.998505 1.000000
1.000000 1.000000 1.000000
