data/fiter_cube/46928955/1023409/file.cube
# Created by Adobe Lightroom plugin Export LUT (1.17.0)
# www.johnrellis.com/lightroom/exportlut.htm
# Preset: 室内干净明亮通透人像_02 云集
# Color profile: C:\Program Files (x86)\Common Files\Adobe\Color\Profiles\Recommended\AdobeRGB1998.icc
LUT_3D_SIZE 8
DOMAIN_MIN 0.000000 0.000000 0.000000
DOMAIN_MAX 0.903226 0.903226 0.903226
0.107637 0.020172 0.075471
0.133791 0.032898 0.081483
0.261875 0.059174 0.098177
0.489662 0.000000 0.115328
0.694179 0.121218 0.154269
0.835721 0.278264 0.245029
0.943206 0.420783 0.368231
1.000000 0.579492 0.533318
0.112673 0.092927 0.092805
0.127901 0.106081 0.103639
0.254368 0.131930 0.104219
0.469123 0.140566 0.120027
0.680537 0.186069 0.157748
0.813870 0.290532 0.235843
0.925109 0.419196 0.353796
1.000000 0.577813 0.522881
0.108858 0.235264 0.155520
0.147005 0.237430 0.155459
0.263737 0.275456 0.201511
0.471992 0.285893 0.144747
0.680598 0.328527 0.187198
0.811246 0.393225 0.267491
0.935454 0.511467 0.405676
1.000000 0.643336 0.566583
0.151400 0.423377 0.272251
0.215579 0.423713 0.276036
0.356909 0.430426 0.325628
0.571130 0.542473 0.445258
0.712490 0.527245 0.340490
0.812253 0.523339 0.333104
0.925231 0.602411 0.451179
1.000000 0.702785 0.594202
0.285649 0.619043 0.440406
0.339635 0.618708 0.445319
0.463874 0.621118 0.466896
0.607691 0.644312 0.566369
0.718776 0.707607 0.651728
0.805447 0.691524 0.555261
0.898741 0.677333 0.499001
1.000000 0.765255 0.624598
0.462196 0.742855 0.595544
0.507286 0.750362 0.613672
0.591516 0.750332 0.637690
0.670649 0.753872 0.679835
0.747341 0.783566 0.740291
0.836332 0.836667 0.810269
0.919371 0.838834 0.748928
1.000000 0.855833 0.729366
0.599268 0.860105 0.751522
0.618250 0.862150 0.757137
0.670039 0.860807 0.768032
0.727840 0.864652 0.782559
0.800839 0.867155 0.833158
0.872557 0.903136 0.874815
0.952483 0.945892 0.920317
1.000000 0.954101 0.888212
0.711543 0.980804 0.879911
0.723354 0.980438 0.881071
0.765652 0.981323 0.888212
0.832273 0.986786 0.904997
0.876738 0.976013 0.912810
0.946319 0.989776 0.948272
0.994415 1.000000 0.977874
1.000000 1.000000 1.000000
0.104860 0.040742 0.096407
0.126986 0.061311 0.097414
0.249241 0.095369 0.107393
0.462745 0.127993 0.121462
0.673915 0.175174 0.154543
0.805264 0.274876 0.227115
0.917723 0.400580 0.340703
1.000000 0.556298 0.505333
0.104738 0.098390 0.112825
0.134768 0.118257 0.116670
0.253696 0.150423 0.123903
0.459907 0.175326 0.132174
0.666865 0.217746 0.158694
0.795193 0.296391 0.227268
0.904784 0.405432 0.333410
1.000000 0.553307 0.493812
0.102296 0.240879 0.176272
0.161501 0.248325 0.182284
0.271489 0.281651 0.214481
0.467933 0.292454 0.176303
0.662135 0.327733 0.196506
0.789731 0.382391 0.251408
0.905882 0.479072 0.367559
1.000000 0.614527 0.532158
0.146395 0.416815 0.283268
0.215457 0.420722 0.288334
0.357855 0.427253 0.333867
0.536736 0.509056 0.415869
0.675624 0.489631 0.316747
0.780850 0.493690 0.319860
0.894438 0.563867 0.406134
1.000000 0.676020 0.561303
0.283909 0.615747 0.449866
0.334356 0.613764 0.451423
0.458625 0.612940 0.468025
0.591028 0.626795 0.550591
0.699123 0.684840 0.627039
0.788113 0.670527 0.536370
0.882902 0.661891 0.491463
1.000000 0.749783 0.604852
0.447730 0.734035 0.589807
0.481971 0.733944 0.596643
0.575311 0.733883 0.623255
0.657496 0.740414 0.664942
0.737911 0.773159 0.730678
0.830228 0.830472 0.804440
0.911803 0.831266 0.742367
1.000000 0.844266 0.716670
0.581994 0.846342 0.737087
0.596857 0.844358 0.737362
0.651759 0.845060 0.750362
0.716823 0.852873 0.771542
0.792569 0.858762 0.825834
0.863371 0.894621 0.867765
0.941253 0.935821 0.911650
1.000000 0.943572 0.876005
0.697841 0.971984 0.872831
0.711360 0.973114 0.875273
0.754788 0.974945 0.882963
0.825406 0.981415 0.901671
0.886076 0.984833 0.920775
0.950134 0.992859 0.951568
0.994049 1.000000 0.976837
1.000000 1.000000 1.000000
0.097871 0.082094 0.154910
0.119509 0.101259 0.152651
0.240269 0.144594 0.186374
0.500725 0.124483 0.206516
0.698878 0.222293 0.244602
0.815946 0.336034 0.305058
0.926268 0.444434 0.381292
1.000000 0.582177 0.526421
0.098726 0.131960 0.185916
0.131899 0.147219 0.185580
0.258824 0.185519 0.205875
0.496193 0.194186 0.222538
0.688380 0.262303 0.255680
0.806424 0.351690 0.307652
0.916625 0.451179 0.380468
1.000000 0.586572 0.523400
0.085145 0.252811 0.244541
0.143862 0.267826 0.249607
0.300999 0.298772 0.258335
0.508232 0.329778 0.275364
0.687709 0.373632 0.305089
0.801724 0.429419 0.348882
0.910948 0.510765 0.418616
1.000000 0.626886 0.541894
0.052369 0.448676 0.364202
0.181430 0.457435 0.365789
0.384344 0.467597 0.382605
0.558892 0.527977 0.455482
0.680293 0.497139 0.375189
0.792142 0.533013 0.416266
0.903380 0.599908 0.485389
1.000000 0.690181 0.579400
0.243961 0.626032 0.495888
0.313573 0.627771 0.498726
0.486336 0.628870 0.524193
0.609064 0.641291 0.589532
0.710140 0.697566 0.651392
0.788846 0.674556 0.565393
0.887053 0.681788 0.549493
1.000000 0.758267 0.635096
0.431495 0.739986 0.615900
0.472389 0.740169 0.622248
0.570214 0.739620 0.642145
0.657099 0.744289 0.674769
0.736812 0.771511 0.739376
0.825986 0.826078 0.803769
0.906615 0.825376 0.745113
1.000000 0.842069 0.722988
0.575372 0.853513 0.757321
0.592645 0.852476 0.758389
0.646357 0.850919 0.765347
0.719661 0.854765 0.785397
0.791684 0.860105 0.828977
0.865232 0.896361 0.874235
0.948089 0.941833 0.918975
1.000000 0.951629 0.888670
0.685664 0.974914 0.880217
0.695796 0.973571 0.879728
0.738705 0.973754 0.884459
0.818692 0.983032 0.905486
0.881559 0.986786 0.921324
0.951568 0.994263 0.954894
0.994812 1.000000 0.981445
1.000000 1.000000 1.000000
0.060883 0.130098 0.254795
0.091341 0.137423 0.259403
0.214847 0.220005 0.262272
0.450416 0.240665 0.328679
0.692470 0.271916 0.379248
0.816892 0.374945 0.424964
0.917998 0.479805 0.486030
1.000000 0.584253 0.561212
0.069612 0.180484 0.293370
0.112123 0.186801 0.294285
0.243442 0.258000 0.287877
0.470222 0.275822 0.350500
0.695888 0.309606 0.393866
0.811246 0.398871 0.433997
0.912444 0.492592 0.490547
1.000000 0.592004 0.563470
0.000000 0.272221 0.350713
0.115236 0.282689 0.357427
0.300664 0.330236 0.363561
0.517632 0.373449 0.409400
0.702724 0.422827 0.447089
0.809689 0.491341 0.487770
0.920806 0.569970 0.545403
1.000000 0.644404 0.601648
0.049134 0.441535 0.450172
0.162661 0.451392 0.454627
0.354681 0.486244 0.472847
0.556268 0.515251 0.485695
0.687648 0.538323 0.501610
0.792752 0.575555 0.531273
0.903685 0.629664 0.574975
1.000000 0.700496 0.637171
0.135012 0.649165 0.594171
0.234714 0.648493 0.589380
0.442451 0.647456 0.581750
0.619501 0.653986 0.623499
0.713649 0.699886 0.668360
0.784115 0.666712 0.591913
0.896422 0.707546 0.626459
1.000000 0.768643 0.687373
0.397040 0.756680 0.674708
0.450263 0.761746 0.683833
0.555352 0.758724 0.688167
0.668635 0.763088 0.714199
0.748745 0.784634 0.770687
0.832395 0.832120 0.817624
0.907591 0.822171 0.757259
1.000000 0.841947 0.746151
0.549187 0.860044 0.785885
0.570062 0.861204 0.788266
0.631739 0.863706 0.795163
0.719417 0.868956 0.813291
0.799710 0.876646 0.845579
0.875486 0.906249 0.890837
0.954498 0.947265 0.926696
1.000000 0.949889 0.895384
0.672206 0.985931 0.900603
0.684962 0.986725 0.901518
0.724392 0.986786 0.902739
0.795529 0.988769 0.910826
0.877287 0.992645 0.927214
0.952422 0.996246 0.959747
0.995880 1.000000 0.987488
1.000000 1.000000 1.000000
0.000000 0.188388 0.390295
0.000000 0.195254 0.395300
0.217319 0.257786 0.399817
0.405676 0.329320 0.438788
0.647791 0.376532 0.508354
0.792630 0.451545 0.558190
0.918364 0.537438 0.614923
1.000000 0.619074 0.669917
0.000000 0.229923 0.419654
0.035126 0.236027 0.424628
0.240208 0.285801 0.426825
0.425818 0.358221 0.457984
0.651575 0.401892 0.519554
0.793759 0.474952 0.570153
0.919707 0.552148 0.622766
1.000000 0.627863 0.673274
0.000000 0.305241 0.476417
0.095033 0.321752 0.484779
0.288182 0.358129 0.494545
0.478767 0.441169 0.508446
0.662196 0.477180 0.555657
0.793301 0.532494 0.597040
0.912261 0.594171 0.640284
1.000000 0.651209 0.677943
0.000000 0.441505 0.549676
0.126131 0.448493 0.553124
0.324224 0.474403 0.566949
0.552422 0.550988 0.582635
0.686030 0.582910 0.617792
0.800778 0.617151 0.643488
0.907103 0.653407 0.666102
1.000000 0.697047 0.696071
0.196902 0.600031 0.628290
0.259892 0.605921 0.631342
0.416144 0.623865 0.639155
0.582696 0.659541 0.661799
0.690913 0.666987 0.659419
0.786374 0.682612 0.666743
0.896880 0.714961 0.690791
1.000000 0.762203 0.731167
0.319982 0.751339 0.728939
0.362829 0.752163 0.729519
0.475868 0.752743 0.728817
0.616602 0.754360 0.726558
0.727138 0.764950 0.762600
0.817655 0.815061 0.808011
0.895323 0.795163 0.746059
1.000000 0.841245 0.785153
0.496437 0.863462 0.823728
0.517754 0.862486 0.822354
0.583093 0.862211 0.820951
0.675898 0.866423 0.825589
0.779477 0.875669 0.846647
0.867582 0.900969 0.894408
0.950286 0.942840 0.926635
1.000000 0.939818 0.889006
0.627008 0.983398 0.916045
0.639124 0.982971 0.915373
0.679805 0.982696 0.914275
0.755428 0.992126 0.921599
0.848386 0.994598 0.931029
0.940520 0.999390 0.957122
0.995605 1.000000 0.989929
1.000000 1.000000 1.000000
0.000000 0.261723 0.555352
0.000000 0.267399 0.558556
0.201236 0.309178 0.566827
0.442390 0.429541 0.575921
0.608820 0.460121 0.623590
0.755673 0.533867 0.659449
0.890166 0.597345 0.720577
1.000000 0.662440 0.779995
0.000000 0.289311 0.564324
0.000000 0.293828 0.567132
0.216617 0.325994 0.574578
0.448341 0.438209 0.580133
0.608942 0.474159 0.624231
0.753719 0.543786 0.660761
0.888823 0.604547 0.722469
1.000000 0.667262 0.780514
0.000000 0.365423 0.612268
0.102022 0.375891 0.613977
0.286381 0.400610 0.619165
0.493782 0.492622 0.623285
0.630945 0.543328 0.652308
0.762203 0.590417 0.687739
0.894987 0.639734 0.742184
1.000000 0.692226 0.791867
0.000000 0.458259 0.654780
0.087617 0.461921 0.655299
0.314702 0.486793 0.662898
0.541253 0.565698 0.681300
0.668025 0.634852 0.703792
0.784207 0.661616 0.736751
0.912840 0.697780 0.778256
1.000000 0.738460 0.814939
0.187106 0.586481 0.701686
0.244694 0.591241 0.703609
0.387610 0.608240 0.709682
0.548791 0.639063 0.720912
0.690944 0.700832 0.738705
0.796231 0.719875 0.769467
0.916991 0.748196 0.796506
1.000000 0.775357 0.815000
0.355840 0.713954 0.759365
0.393774 0.719051 0.763119
0.488655 0.729763 0.768399
0.597253 0.747707 0.778286
0.700191 0.778561 0.799771
0.798154 0.787625 0.800381
0.908568 0.807523 0.812161
1.000000 0.842527 0.838712
0.479896 0.861845 0.863554
0.498878 0.865660 0.866728
0.551110 0.872557 0.871397
0.629267 0.879881 0.875090
0.740688 0.885740 0.873594
0.858488 0.899382 0.900786
0.951141 0.941436 0.931029
1.000000 0.923064 0.886442
0.574426 0.994049 0.950652
0.587121 0.993408 0.949523
0.630549 0.992828 0.946777
0.703120 0.996551 0.945647
0.797543 1.000000 0.945129
0.917784 1.000000 0.959503
0.996979 1.000000 0.995636
1.000000 1.000000 1.000000
0.000000 0.336309 0.690364
0.000000 0.343633 0.694667
0.199893 0.369024 0.699580
0.454627 0.471168 0.704524
0.617914 0.591180 0.711543
0.739773 0.594903 0.769039
0.851957 0.644587 0.788907
0.999451 0.703487 0.850889
0.000000 0.352911 0.689937
0.000000 0.359014 0.693660
0.217685 0.381720 0.698512
0.453010 0.473548 0.701808
0.616083 0.593286 0.707057
0.733730 0.594842 0.762325
0.843961 0.641718 0.780667
0.990234 0.698634 0.843168
0.000000 0.413092 0.717983
0.130709 0.424262 0.719570
0.287938 0.442451 0.722194
0.480323 0.513024 0.725978
0.636561 0.627802 0.727291
0.742519 0.630030 0.777798
0.853117 0.673274 0.798184
1.000000 0.726314 0.859373
0.000000 0.470192 0.749844
0.000000 0.476936 0.749477
0.309026 0.510094 0.752651
0.509331 0.569970 0.761501
0.657496 0.660883 0.767453
0.756954 0.687098 0.803464
0.870695 0.720912 0.828611
1.000000 0.763119 0.877623
0.087037 0.584955 0.783932
0.165743 0.585992 0.782650
0.310460 0.593133 0.781796
0.469184 0.611566 0.783993
0.649104 0.679255 0.798459
0.761746 0.739498 0.820340
0.879973 0.763790 0.849607
1.000000 0.804349 0.893462
0.312718 0.711482 0.829496
0.344060 0.713771 0.829984
0.432502 0.721706 0.831632
0.538567 0.734524 0.835935
0.645808 0.749722 0.841794
0.792538 0.811215 0.862760
0.913787 0.835111 0.891508
1.000000 0.870298 0.918486
0.469215 0.830442 0.882353
0.486854 0.833005 0.883940
0.536339 0.838285 0.886198
0.609339 0.848539 0.891051
0.699336 0.862821 0.897063
0.809598 0.894041 0.914275
0.922179 0.905608 0.915953
1.000000 0.922545 0.927214
0.563226 0.969665 0.960662
0.572930 0.971710 0.961791
0.610040 0.983246 0.968688
0.664088 0.997864 0.976196
0.740749 1.000000 0.980529
0.860044 1.000000 0.978790
0.996490 1.000000 0.997620
1.000000 1.000000 1.000000
0.000000 0.431067 0.826963
0.093141 0.437995 0.828916
0.283207 0.460029 0.828489
0.487617 0.538537 0.830014
0.643397 0.642512 0.830137
0.739254 0.700160 0.844968
0.861326 0.708309 0.890990
0.975525 0.750423 0.906554
0.000000 0.440833 0.825864
0.118685 0.447364 0.827848
0.290715 0.468757 0.828397
0.484504 0.539849 0.829038
0.641138 0.642023 0.829496
0.737911 0.702541 0.843473
0.857664 0.708919 0.888426
0.972503 0.751034 0.904814
0.079683 0.479194 0.834836
0.175601 0.485878 0.835721
0.314092 0.501610 0.834653
0.487037 0.558892 0.841154
0.643885 0.652888 0.840696
0.743618 0.721553 0.849302
0.859678 0.725704 0.892943
0.976806 0.766720 0.910277
0.000000 0.505303 0.852689
0.000000 0.514488 0.854093
0.298619 0.547509 0.853758
0.491585 0.596063 0.857298
0.640894 0.667811 0.860258
0.759060 0.757992 0.864805
0.868833 0.758633 0.905852
0.989868 0.797482 0.923522
0.000000 0.594141 0.878294
0.000000 0.595209 0.879179
0.089265 0.591943 0.876493
0.397559 0.616510 0.874632
0.612024 0.679988 0.879026
0.760861 0.772641 0.884184
0.873075 0.798978 0.917235
1.000000 0.836149 0.939879
0.187106 0.726925 0.912444
0.221561 0.725765 0.911040
0.313909 0.723873 0.907988
0.425544 0.722194 0.905211
0.540520 0.718532 0.903105
0.738705 0.782773 0.916442
0.893828 0.867796 0.942748
1.000000 0.890196 0.962005
0.416907 0.858396 0.955657
0.429877 0.858183 0.955230
0.471717 0.858091 0.954528
0.538842 0.860838 0.955779
0.626581 0.865721 0.958404
0.733974 0.870756 0.960632
0.909209 0.920745 0.967285
1.000000 0.961364 0.983307
0.550500 0.969604 0.997345
0.558099 0.969512 0.997009
0.586542 0.971191 0.997223
0.638392 0.976654 0.999237
0.711330 0.984771 1.000000
0.809171 0.996796 1.000000
0.946960 1.000000 1.000000
1.000000 1.000000 1.000000
