data/fiter_cube/12544332/1022697/file.cube
# Created by Adobe Lightroom plugin Export LUT (1.24.0)
# www.johnrellis.com/lightroom/exportlut.htm
# Preset: 城市青橙纪实夜景 _01 云集
# Color profile: C:\Program Files (x86)\Common Files\Adobe\Color\Profiles\Recommended\AdobeRGB1998.icc
LUT_3D_SIZE 8
DOMAIN_MIN 0.000000 0.000000 0.000000
DOMAIN_MAX 0.903226 0.903226 0.903226
0.104646 0.104646 0.104646
0.171481 0.109133 0.103212
0.287297 0.123049 0.095766
0.435065 0.151644 0.073365
0.613977 0.196506 0.000000
0.771145 0.238224 0.000000
0.885069 0.263798 0.000000
0.964050 0.275212 0.000000
0.099519 0.129274 0.114595
0.165743 0.134188 0.105867
0.283299 0.145602 0.093874
0.430549 0.172976 0.070161
0.608972 0.214786 0.000000
0.766995 0.252598 0.000000
0.882933 0.275578 0.000000
0.963073 0.284611 0.000000
0.092317 0.177493 0.139864
0.143099 0.181003 0.131411
0.269322 0.195468 0.112245
0.422797 0.226200 0.067353
0.602960 0.267308 0.000000
0.764309 0.298802 0.000000
0.883146 0.314214 0.000000
0.963378 0.316258 0.000000
0.071748 0.241093 0.176211
0.118563 0.244816 0.166323
0.246464 0.251225 0.148745
0.408423 0.282292 0.114382
0.598749 0.328069 0.000000
0.761288 0.364508 0.000000
0.880735 0.371710 0.000000
0.961975 0.365087 0.000000
0.000000 0.316381 0.219608
0.064698 0.320531 0.210544
0.221256 0.329107 0.180850
0.381353 0.342718 0.157931
0.578332 0.389654 0.095979
0.753475 0.423774 0.000000
0.876249 0.438636 0.000000
0.959960 0.425635 0.000000
0.000000 0.411078 0.274876
0.000000 0.416175 0.267124
0.156039 0.428992 0.224613
0.373236 0.439612 0.198856
0.562921 0.466743 0.151034
0.747860 0.497993 0.025971
0.873075 0.502007 0.000000
0.958312 0.493629 0.000000
0.000000 0.545464 0.353735
0.000000 0.550408 0.345586
0.000000 0.564080 0.304692
0.343786 0.577417 0.239200
0.573144 0.588342 0.203799
0.759457 0.598993 0.130800
0.876158 0.581872 0.000000
0.955138 0.559045 0.000000
0.000000 0.713497 0.452766
0.000000 0.716884 0.443458
0.000000 0.727535 0.403388
0.235935 0.739956 0.306432
0.570184 0.737819 0.281712
0.786740 0.739132 0.223026
0.899901 0.691096 0.159792
0.965240 0.642298 0.016724
0.088655 0.126864 0.150668
0.156039 0.129091 0.144198
0.274907 0.142061 0.121065
0.420508 0.178378 0.092439
0.600000 0.230198 0.000000
0.761501 0.265202 0.000000
0.880522 0.283482 0.000000
0.962005 0.287755 0.000000
0.080720 0.148989 0.157870
0.151431 0.151431 0.151431
0.269749 0.160769 0.132357
0.418647 0.190280 0.097810
0.597681 0.241245 0.000000
0.759396 0.276951 0.000000
0.878996 0.293675 0.000000
0.961089 0.296269 0.000000
0.083650 0.190768 0.170626
0.137758 0.197208 0.168399
0.260716 0.205173 0.152438
0.413642 0.229038 0.116884
0.593744 0.273106 0.000000
0.756863 0.315892 0.000000
0.878416 0.328130 0.000000
0.961181 0.325780 0.000000
0.058259 0.251713 0.201236
0.112337 0.256748 0.195987
0.243473 0.262669 0.177279
0.401465 0.286290 0.149203
0.588128 0.326085 0.080079
0.753597 0.362890 0.000000
0.876097 0.381109 0.000000
0.959899 0.372320 0.000000
0.000000 0.326360 0.241550
0.029206 0.330297 0.234623
0.208560 0.339300 0.201938
0.378454 0.349248 0.182803
0.571771 0.390570 0.134554
0.748318 0.423438 0.000000
0.873716 0.438117 0.000000
0.958618 0.430976 0.000000
0.000000 0.418891 0.293706
0.000000 0.423194 0.286931
0.143709 0.435645 0.251438
0.367346 0.446509 0.219669
0.559777 0.470680 0.176761
0.744991 0.499886 0.104982
0.871275 0.503166 0.000000
0.957336 0.495430 0.000000
0.000000 0.550103 0.369879
0.000000 0.554223 0.362249
0.000000 0.567895 0.326635
0.327153 0.582666 0.257267
0.568353 0.593133 0.225925
0.756558 0.601587 0.161654
0.873777 0.583429 0.083589
0.953765 0.560143 0.000000
0.000000 0.715541 0.466651
0.000000 0.719020 0.458350
0.000000 0.729763 0.421668
0.214389 0.742428 0.333257
0.562860 0.742397 0.304173
0.782650 0.742397 0.247959
0.898314 0.693935 0.187930
0.964019 0.644343 0.102876
0.000000 0.175631 0.233310
0.070924 0.173983 0.231113
0.247227 0.177646 0.218143
0.406439 0.179416 0.177707
0.589624 0.224582 0.136629
0.754055 0.277470 0.047547
0.877317 0.317021 0.000000
0.961212 0.319310 0.000000
0.000000 0.194400 0.237186
0.088075 0.192020 0.235355
0.243412 0.194278 0.222049
0.401831 0.197360 0.185519
0.585443 0.237369 0.144717
0.752102 0.285863 0.061646
0.876249 0.323339 0.000000
0.960693 0.326635 0.000000
0.000000 0.232914 0.250889
0.071077 0.232975 0.248539
0.234592 0.234592 0.234592
0.393774 0.244236 0.206546
0.580682 0.275547 0.163333
0.750393 0.315465 0.084627
0.875425 0.346441 0.000000
0.960082 0.352117 0.000000
0.000000 0.280674 0.266087
0.000000 0.285283 0.265721
0.205051 0.295628 0.252018
0.384741 0.305760 0.232517
0.574182 0.333776 0.189487
0.747127 0.364660 0.119326
0.874052 0.386450 0.000000
0.959319 0.394018 0.000000
0.000000 0.350195 0.299596
0.000000 0.356115 0.298772
0.164675 0.370184 0.283177
0.368383 0.377813 0.255558
0.560754 0.403906 0.223301
0.740841 0.430121 0.162936
0.870939 0.441291 0.000000
0.957946 0.441505 0.000000
0.000000 0.442176 0.349645
0.000000 0.447883 0.347539
0.069123 0.462409 0.329198
0.337774 0.474220 0.284550
0.550774 0.489265 0.252445
0.736477 0.509575 0.208652
0.867094 0.509819 0.134249
0.956268 0.498970 0.000000
0.000000 0.571679 0.424994
0.000000 0.576226 0.420569
0.000000 0.589380 0.397009
0.258885 0.605554 0.326482
0.550256 0.612940 0.297368
0.749630 0.615442 0.245487
0.869688 0.593530 0.200626
0.952514 0.567681 0.103639
0.000000 0.727108 0.515129
0.000000 0.729671 0.508110
0.000000 0.739956 0.480171
0.095216 0.753231 0.412665
0.528405 0.753628 0.369512
0.764614 0.752041 0.323491
0.893004 0.705470 0.267887
0.960876 0.653834 0.209934
0.000000 0.246738 0.341009
0.000000 0.247471 0.340032
0.127199 0.223819 0.335088
0.368902 0.235691 0.315404
0.568566 0.213107 0.254917
0.743771 0.264012 0.209659
0.872251 0.308446 0.148104
0.959380 0.331914 0.000000
0.000000 0.263951 0.344762
0.000000 0.260288 0.344305
0.131014 0.240208 0.338659
0.366766 0.248814 0.318364
0.565576 0.231205 0.260777
0.741634 0.276646 0.215427
0.871305 0.316777 0.153384
0.959228 0.337316 0.000000
0.000000 0.295628 0.356390
0.000000 0.293950 0.355535
0.126162 0.284001 0.349004
0.359014 0.287358 0.328099
0.557092 0.284092 0.279942
0.738094 0.317296 0.235599
0.871397 0.345892 0.169986
0.959564 0.358099 0.000000
0.000000 0.346380 0.377295
0.000000 0.346197 0.375891
0.081910 0.345006 0.368811
0.346105 0.346105 0.346105
0.545098 0.355108 0.310216
0.731594 0.375769 0.261570
0.868376 0.391180 0.193027
0.958282 0.394842 0.019074
0.000000 0.402747 0.396704
0.000000 0.405005 0.396063
0.000000 0.413001 0.391516
0.305699 0.425238 0.367407
0.534508 0.433845 0.343572
0.725582 0.449287 0.296452
0.865110 0.453254 0.228733
0.956451 0.445777 0.116945
0.000000 0.480964 0.434577
0.000000 0.487129 0.436316
0.000000 0.502739 0.433173
0.248295 0.520470 0.403418
0.526329 0.527611 0.368292
0.720851 0.534386 0.335088
0.859586 0.528679 0.278721
0.953613 0.509575 0.183169
0.000000 0.604639 0.507927
0.000000 0.609186 0.506554
0.000000 0.622644 0.496101
0.110567 0.638941 0.456123
0.500084 0.645777 0.408240
0.733059 0.644068 0.364538
0.859892 0.615625 0.328985
0.948272 0.584985 0.258640
0.000000 0.749660 0.592584
0.000000 0.752193 0.588281
0.000000 0.759335 0.568353
0.000000 0.769863 0.519127
0.446540 0.771969 0.465003
0.725948 0.767300 0.437659
0.880949 0.728084 0.380377
0.953582 0.674098 0.332677
0.000000 0.340703 0.477272
0.000000 0.342565 0.475929
0.000000 0.323980 0.473487
0.244175 0.280827 0.462440
0.520470 0.306584 0.436805
0.723018 0.267460 0.360143
0.861601 0.325963 0.320775
0.953155 0.354162 0.265568
0.000000 0.355840 0.479713
0.000000 0.352331 0.479683
0.000000 0.335149 0.476967
0.236332 0.291539 0.465553
0.518273 0.317906 0.438972
0.721340 0.283940 0.365148
0.860929 0.336400 0.324834
0.953033 0.360082 0.266972
0.000000 0.383398 0.490120
0.000000 0.381018 0.489967
0.000000 0.368597 0.486427
0.220676 0.335302 0.474739
0.511070 0.354406 0.446632
0.714778 0.334142 0.380804
0.858305 0.369116 0.337713
0.952697 0.379034 0.269444
0.000000 0.427131 0.507408
0.000000 0.425727 0.506737
0.000000 0.419226 0.502617
0.205051 0.403906 0.490730
0.500359 0.411994 0.461769
0.707149 0.406043 0.407507
0.856138 0.418585 0.355200
0.954101 0.406836 0.263401
0.000000 0.486030 0.531548
0.000000 0.485817 0.530632
0.000000 0.484321 0.526085
0.157168 0.481910 0.513725
0.483742 0.483742 0.483742
0.698909 0.486152 0.438788
0.853025 0.481483 0.377264
0.952239 0.460731 0.285893
0.000000 0.553429 0.558587
0.000000 0.554894 0.558160
0.000000 0.559442 0.554742
0.000000 0.569818 0.545006
0.429755 0.577234 0.504723
0.689570 0.576684 0.480018
0.845121 0.565850 0.426184
0.947417 0.534874 0.337224
0.000000 0.651331 0.611170
0.000000 0.653742 0.610559
0.000000 0.663355 0.607507
0.000000 0.678492 0.592370
0.352056 0.685756 0.539025
0.688899 0.683131 0.510552
0.840360 0.654566 0.475593
0.938811 0.618952 0.405615
0.000000 0.776425 0.682918
0.000000 0.778317 0.680873
0.000000 0.784665 0.670588
0.000000 0.793484 0.641657
0.204440 0.796628 0.577081
0.663325 0.785183 0.570153
0.856779 0.763363 0.519677
0.938964 0.710109 0.476265
0.000000 0.447364 0.632776
0.000000 0.451911 0.631098
0.000000 0.436988 0.629847
0.000000 0.400092 0.624842
0.415839 0.373663 0.608453
0.678035 0.410071 0.572076
0.835966 0.419745 0.515038
0.931731 0.470832 0.493690
0.000000 0.458137 0.632929
0.000000 0.458442 0.631983
0.000000 0.444099 0.630762
0.000000 0.409522 0.625605
0.411292 0.381964 0.609674
0.675990 0.419348 0.573816
0.834867 0.428107 0.517601
0.931365 0.475807 0.495369
0.000000 0.484810 0.640223
0.000000 0.481788 0.639796
0.000000 0.469795 0.637903
0.000000 0.442329 0.632471
0.393591 0.411231 0.617212
0.671473 0.452583 0.581933
0.832181 0.457435 0.527764
0.930694 0.493416 0.501488
0.000000 0.520562 0.651698
0.000000 0.518486 0.651179
0.000000 0.510643 0.649317
0.000000 0.493355 0.644709
0.358068 0.464607 0.631189
0.665064 0.504570 0.596918
0.828672 0.506371 0.546593
0.931090 0.518547 0.506645
0.000000 0.568078 0.666590
0.000000 0.567071 0.666194
0.000000 0.563043 0.664271
0.000000 0.554681 0.659174
0.315190 0.541070 0.646418
0.653651 0.564385 0.614130
0.824460 0.561181 0.564965
0.933013 0.544701 0.501793
0.000000 0.625269 0.685237
0.000000 0.625483 0.685084
0.000000 0.625330 0.683192
0.000000 0.625208 0.678126
0.255833 0.627527 0.666621
0.637934 0.637812 0.637873
0.818814 0.630793 0.592798
0.931884 0.596735 0.515618
0.000000 0.701442 0.719417
0.000000 0.702754 0.719387
0.000000 0.706569 0.718135
0.000000 0.714443 0.713741
0.000000 0.729305 0.701656
0.587030 0.726223 0.656336
0.808408 0.712978 0.637110
0.919707 0.684016 0.579797
0.000000 0.797665 0.770993
0.000000 0.799802 0.770169
0.000000 0.807034 0.767330
0.000000 0.820920 0.761410
0.000000 0.827512 0.728939
0.506981 0.815488 0.671992
0.811826 0.803220 0.670008
0.914672 0.764828 0.636622
0.000000 0.536095 0.766232
0.000000 0.540002 0.765743
0.000000 0.535607 0.764645
0.000000 0.511315 0.763210
0.175479 0.475319 0.757870
0.605798 0.517174 0.741054
0.797147 0.566125 0.701015
0.896971 0.619379 0.684443
0.000000 0.542992 0.765957
0.000000 0.546532 0.765377
0.000000 0.540307 0.764553
0.000000 0.516869 0.762905
0.171420 0.482551 0.757473
0.602686 0.521874 0.740688
0.795224 0.570245 0.701350
0.896178 0.621851 0.684840
0.000000 0.564324 0.769497
0.000000 0.567315 0.768795
0.000000 0.558465 0.767971
0.000000 0.538415 0.766232
0.160159 0.509819 0.760555
0.596735 0.544030 0.744381
0.792996 0.592157 0.708034
0.895262 0.637446 0.692195
0.000000 0.593744 0.775479
0.000000 0.596216 0.774624
0.000000 0.588556 0.773770
0.000000 0.573236 0.772091
0.104585 0.552422 0.766690
0.582788 0.578759 0.751461
0.789548 0.625849 0.718959
0.894255 0.659937 0.701778
0.000000 0.630671 0.782284
0.000000 0.632990 0.781430
0.000000 0.628168 0.780545
0.000000 0.617517 0.778988
0.000000 0.602350 0.774319
0.539971 0.613886 0.760403
0.783566 0.664149 0.730922
0.893614 0.686122 0.711208
0.000000 0.676020 0.791653
0.000000 0.678218 0.791073
0.000000 0.677028 0.790402
0.000000 0.672511 0.789029
0.000000 0.665980 0.785214
0.478676 0.672389 0.774075
0.777157 0.712917 0.748135
0.894102 0.716976 0.720333
0.000000 0.727535 0.803250
0.000000 0.729671 0.802884
0.000000 0.731746 0.802121
0.000000 0.732998 0.800900
0.000000 0.736416 0.797269
0.425147 0.748745 0.787625
0.766293 0.766262 0.766293
0.893187 0.757656 0.732357
0.000000 0.793301 0.830930
0.000000 0.795254 0.830686
0.000000 0.802731 0.830320
0.000000 0.810849 0.829221
0.000000 0.822873 0.825803
0.261173 0.842832 0.815702
0.731258 0.830442 0.779324
0.886534 0.818509 0.767391
0.000000 0.594507 0.860929
0.000000 0.597436 0.860655
0.000000 0.605127 0.859281
0.000000 0.589258 0.858946
0.000000 0.576135 0.856565
0.537987 0.626001 0.846769
0.768582 0.692714 0.834104
0.872374 0.725917 0.808164
0.000000 0.598474 0.860960
0.000000 0.601343 0.860655
0.000000 0.608545 0.859403
0.000000 0.593042 0.858946
0.000000 0.580133 0.856626
0.533501 0.627710 0.847013
0.767483 0.695003 0.834287
0.871946 0.728054 0.808804
0.000000 0.610529 0.862150
0.000000 0.613123 0.861814
0.000000 0.620966 0.860349
0.000000 0.606867 0.860288
0.000000 0.594690 0.857908
0.517632 0.634974 0.848753
0.764797 0.704646 0.835782
0.871031 0.736385 0.811704
0.000000 0.626947 0.865049
0.000000 0.629389 0.864775
0.000000 0.637903 0.863401
0.000000 0.629908 0.862730
0.000000 0.617914 0.860685
0.484138 0.648615 0.852476
0.759274 0.720302 0.839017
0.869902 0.750332 0.816892
0.000000 0.656794 0.868528
0.000000 0.658198 0.868376
0.000000 0.662409 0.867399
0.000000 0.660914 0.866423
0.000000 0.647822 0.864836
0.412055 0.666926 0.857725
0.747707 0.739345 0.843717
0.868345 0.768917 0.823850
0.000000 0.694545 0.873136
0.000000 0.695735 0.872801
0.000000 0.699825 0.871855
0.000000 0.703487 0.870603
0.000000 0.690944 0.869963
0.225223 0.692927 0.865568
0.720974 0.759640 0.851499
0.866575 0.792996 0.833280
0.000000 0.738155 0.878996
0.000000 0.739376 0.878752
0.000000 0.743526 0.877958
0.000000 0.751217 0.876707
0.000000 0.747341 0.876005
0.000000 0.747036 0.873167
0.654139 0.784817 0.861509
0.863371 0.821592 0.844236
0.000000 0.785855 0.885710
0.000000 0.787076 0.885496
0.000000 0.791714 0.884977
0.000000 0.800748 0.884123
0.000000 0.807248 0.883421
0.000000 0.815091 0.881041
0.603449 0.839750 0.871580
0.857877 0.857847 0.857847
