data/fiter_cube/12544332/1022697/file.cube
# Created by Adobe Lightroom plugin Export LUT (1.24.0)
# www.johnrellis.com/lightroom/exportlut.htm
# Preset: 城市青橙纪实夜景 _01 云集
# Color profile: C:\Program Files (x86)\Common Files\Adobe\Color\Profiles\Recommended\AdobeRGB1998.icc
LUT_3D_SIZE 5
DOMAIN_MIN 0.000000 0.000000 0.000000
DOMAIN_MAX 0.903226 0.903226 0.903226
0.104646 0.104646 0.104646
0.256687 0.118715 0.098238
0.521599 0.172976 0.031556
0.803861 0.246311 0.000000
0.964050 0.275212 0.000000
0.093874 0.163973 0.132021
0.241398 0.178317 0.110201
0.512902 0.231510 0.000000
0.799802 0.291173 0.000000
0.963867 0.306554 0.000000
0.023774 0.276982 0.196719
0.199557 0.286351 0.168124
0.492103 0.334966 0.108186
0.792050 0.398962 0.000000
0.960937 0.394324 0.000000
0.000000 0.440864 0.292210
0.054170 0.455146 0.258824
0.465949 0.477760 0.191531
0.784848 0.521904 0.000000
0.957610 0.510002 0.000000
0.000000 0.713497 0.452766
0.000000 0.724300 0.417578
0.433387 0.737606 0.294804
0.823575 0.729915 0.206851
0.965240 0.642298 0.016724
0.015595 0.161257 0.210513
0.222416 0.164187 0.197726
0.498634 0.200595 0.135378
0.789853 0.290623 0.000000
0.960998 0.310460 0.000000
0.000000 0.209903 0.225193
0.211795 0.211795 0.211795
0.491615 0.242100 0.156405
0.788205 0.316625 0.000000
0.960571 0.336248 0.000000
0.000000 0.304601 0.262577
0.158663 0.319432 0.249241
0.474708 0.346593 0.204105
0.782834 0.399420 0.064118
0.959167 0.414282 0.000000
0.000000 0.465400 0.350347
0.000000 0.481056 0.332494
0.454261 0.503532 0.262028
0.778134 0.530632 0.177279
0.956146 0.513512 0.000000
0.000000 0.724453 0.500786
0.000000 0.734920 0.473976
0.378851 0.751858 0.356329
0.816007 0.744533 0.285771
0.962371 0.651087 0.182925
0.000000 0.291783 0.406439
0.000000 0.279850 0.403388
0.441962 0.269139 0.373541
0.773770 0.276036 0.270695
0.957336 0.335576 0.154879
0.000000 0.328313 0.417182
0.000000 0.316686 0.413703
0.434974 0.307683 0.382116
0.769070 0.317998 0.287785
0.957488 0.354528 0.157687
0.000000 0.414130 0.452155
0.000000 0.412787 0.447395
0.412116 0.412116 0.412116
0.759335 0.427314 0.333806
0.956115 0.422034 0.187350
0.000000 0.537530 0.505150
0.000000 0.548211 0.503655
0.318334 0.576837 0.460487
0.749508 0.575738 0.403693
0.949432 0.538262 0.276188
0.000000 0.761837 0.636347
0.000000 0.769345 0.624079
0.000000 0.783658 0.544640
0.753414 0.774807 0.489906
0.947326 0.689143 0.399817
0.000000 0.471626 0.668605
0.000000 0.468666 0.666743
0.080323 0.402350 0.658717
0.712367 0.445136 0.605676
0.923003 0.511803 0.549340
0.000000 0.501366 0.672908
0.000000 0.490639 0.671992
0.069520 0.437110 0.663294
0.707637 0.474342 0.612421
0.921843 0.527276 0.554986
0.000000 0.562432 0.690394
0.000000 0.556664 0.689113
0.000000 0.530999 0.679988
0.694209 0.556023 0.634363
0.922026 0.568658 0.564080
0.000000 0.656153 0.719356
0.000000 0.655909 0.717800
0.000000 0.657099 0.710170
0.673793 0.673732 0.673762
0.922789 0.639429 0.576196
0.000000 0.798245 0.788296
0.000000 0.805692 0.786007
0.000000 0.828794 0.777005
0.573663 0.818967 0.700679
0.907622 0.779080 0.673152
0.000000 0.594507 0.860929
0.000000 0.604211 0.859556
0.000000 0.580438 0.858244
0.618158 0.649439 0.843107
0.872374 0.725917 0.808164
0.000000 0.607019 0.861875
0.000000 0.615930 0.860563
0.000000 0.594446 0.859159
0.613306 0.659693 0.844205
0.871366 0.733944 0.810880
0.000000 0.640558 0.866667
0.000000 0.644800 0.865690
0.000000 0.637018 0.863615
0.555016 0.674464 0.851194
0.869139 0.758907 0.820035
0.000000 0.705226 0.874815
0.000000 0.709255 0.873899
0.000000 0.710597 0.872099
0.365087 0.712703 0.864988
0.865873 0.799527 0.835813
0.000000 0.785855 0.885710
0.000000 0.790219 0.885130
0.000000 0.805722 0.883665
0.000000 0.819333 0.879484
0.857877 0.857847 0.857847
