data/fiter_cube/12544332/1022697/file.cube
# Created by Adobe Lightroom plugin Export LUT (1.24.0)
# www.johnrellis.com/lightroom/exportlut.htm
# Preset: 城市青橙纪实夜景 _01 云集
# Color profile: C:\Program Files (x86)\Common Files\Adobe\Color\Profiles\Recommended\AdobeRGB1998.icc
LUT_3D_SIZE 32
0.104646 0.104646 0.104646
0.112367 0.105074 0.104860
0.122377 0.105684 0.104524
0.143771 0.106966 0.104128
0.171481 0.109133 0.103212
0.199405 0.111818 0.101961
0.227726 0.114809 0.100343
0.256687 0.118715 0.098238
0.287297 0.123049 0.095766
0.320287 0.128481 0.092439
0.356176 0.135012 0.087800
0.394476 0.142580 0.081605
0.435065 0.151644 0.073365
0.477577 0.161715 0.061219
0.521599 0.172976 0.031556
0.568109 0.184634 0.000000
0.613977 0.196506 0.000000
0.657069 0.208316 0.000000
0.697505 0.218967 0.000000
0.735714 0.229221 0.000000
0.771145 0.238224 0.000000
0.803861 0.246311 0.000000
0.833677 0.253422 0.000000
0.860655 0.259281 0.000000
0.885069 0.263798 0.000000
0.907256 0.267735 0.000000
0.927611 0.271000 0.000000
0.946441 0.273472 0.000000
0.964050 0.275212 0.000000
0.980468 0.276463 0.000000
0.995911 0.277348 0.000000
1.000000 0.277775 0.000000
0.104280 0.107393 0.105806
0.111971 0.107820 0.104891
0.122072 0.108431 0.104311
0.143435 0.110140 0.103883
0.171115 0.112062 0.102968
0.198825 0.114534 0.101747
0.227207 0.117403 0.100374
0.256138 0.121279 0.098024
0.286748 0.125521 0.095552
0.319707 0.130861 0.092195
0.355505 0.137209 0.087312
0.393744 0.145022 0.081361
0.434302 0.153841 0.073121
0.476814 0.164096 0.061280
0.520836 0.174685 0.031006
0.567071 0.186679 0.000000
0.612665 0.198611 0.000000
0.655726 0.209842 0.000000
0.696162 0.220859 0.000000
0.734371 0.230686 0.000000
0.769955 0.239567 0.000000
0.802762 0.247501 0.000000
0.832761 0.254307 0.000000
0.859892 0.260166 0.000000
0.884398 0.264866 0.000000
0.906645 0.268833 0.000000
0.927123 0.271763 0.000000
0.946014 0.274418 0.000000
0.963653 0.276127 0.000000
0.980194 0.277379 0.000000
0.995605 0.278111 0.000000
1.000000 0.278660 0.000000
0.103731 0.110994 0.107118
0.111452 0.111421 0.106203
0.121675 0.112215 0.104921
0.143069 0.113924 0.103548
0.170596 0.116030 0.102876
0.198367 0.118410 0.101625
0.226535 0.121096 0.100069
0.255344 0.124666 0.097963
0.286168 0.128969 0.095216
0.319036 0.134218 0.091859
0.354894 0.140536 0.087221
0.393072 0.148043 0.081270
0.433509 0.156924 0.072663
0.476051 0.166842 0.060761
0.519982 0.177737 0.030640
0.566400 0.189303 0.000000
0.611810 0.200992 0.000000
0.654841 0.212039 0.000000
0.695369 0.222812 0.000000
0.733547 0.232670 0.000000
0.769284 0.241581 0.000000
0.802182 0.249302 0.000000
0.832212 0.256199 0.000000
0.859403 0.261906 0.000000
0.883970 0.266728 0.000000
0.906310 0.270268 0.000000
0.926818 0.273350 0.000000
0.945769 0.275761 0.000000
0.963470 0.277379 0.000000
0.980011 0.278386 0.000000
0.995483 0.279149 0.000000
1.000000 0.279637 0.000000
0.101839 0.119387 0.110384
0.109804 0.119783 0.109041
0.120668 0.120211 0.108034
0.142245 0.122042 0.105104
0.169375 0.123964 0.102388
0.197147 0.126040 0.100923
0.225345 0.128573 0.099580
0.254429 0.131868 0.097230
0.284916 0.135897 0.094484
0.318120 0.140932 0.091035
0.353796 0.147036 0.086671
0.391943 0.154757 0.080018
0.432319 0.163424 0.071931
0.474739 0.173190 0.059846
0.518914 0.183688 0.027131
0.565148 0.195132 0.000000
0.610559 0.206394 0.000000
0.653468 0.217533 0.000000
0.693935 0.227604 0.000000
0.732204 0.237339 0.000000
0.767971 0.245792 0.000000
0.800992 0.253605 0.000000
0.831266 0.260166 0.000000
0.858671 0.265385 0.000000
0.883452 0.269902 0.000000
0.906004 0.273594 0.000000
0.926635 0.276310 0.000000
0.945647 0.278660 0.000000
0.963348 0.280156 0.000000
0.979919 0.281193 0.000000
0.995361 0.281773 0.000000
1.000000 0.282017 0.000000
0.099519 0.129274 0.114595
0.107088 0.129732 0.113558
0.117769 0.130404 0.112367
0.137697 0.131472 0.109926
0.165743 0.134188 0.105867
0.195224 0.136812 0.100557
0.223545 0.139010 0.098726
0.252659 0.141909 0.096651
0.283299 0.145602 0.093874
0.316228 0.150790 0.090120
0.351934 0.156680 0.085389
0.390204 0.164340 0.078798
0.430549 0.172976 0.070161
0.472908 0.182498 0.056886
0.517082 0.192630 0.022797
0.563592 0.203769 0.000000
0.608972 0.214786 0.000000
0.652064 0.225284 0.000000
0.692683 0.235233 0.000000
0.731197 0.244327 0.000000
0.766995 0.252598 0.000000
0.800168 0.260105 0.000000
0.830472 0.266117 0.000000
0.858061 0.271122 0.000000
0.882933 0.275578 0.000000
0.905577 0.278721 0.000000
0.926268 0.281346 0.000000
0.945373 0.283207 0.000000
0.963073 0.284611 0.000000
0.979675 0.285496 0.000000
0.995178 0.285740 0.000000
1.000000 0.285771 0.000000
0.097353 0.140261 0.119600
0.104311 0.140749 0.118441
0.113588 0.141238 0.117159
0.132967 0.142061 0.115114
0.158328 0.143862 0.111727
0.190005 0.147585 0.106538
0.221378 0.151034 0.100526
0.250584 0.153964 0.095674
0.281285 0.157534 0.092897
0.314275 0.162631 0.089021
0.349950 0.168734 0.083833
0.388220 0.176089 0.077363
0.428565 0.184573 0.068391
0.471107 0.193790 0.052949
0.515435 0.203708 0.016083
0.561975 0.214786 0.000000
0.607477 0.225559 0.000000
0.650660 0.235630 0.000000
0.691402 0.245029 0.000000
0.730220 0.253849 0.000000
0.766201 0.261845 0.000000
0.799649 0.268498 0.000000
0.835050 0.275700 0.000000
0.862058 0.280156 0.000000
0.886412 0.283818 0.000000
0.908507 0.286625 0.000000
0.928771 0.288731 0.000000
0.947448 0.290074 0.000000
0.964874 0.291081 0.000000
0.981201 0.291356 0.000000
0.996429 0.291508 0.000000
1.000000 0.291234 0.000000
0.095399 0.151827 0.125338
0.101930 0.152163 0.124269
0.110109 0.152773 0.123079
0.128237 0.153780 0.120394
0.152743 0.154788 0.117708
0.181704 0.157565 0.113558
0.215427 0.162478 0.107912
0.248631 0.166781 0.101595
0.279698 0.170809 0.094575
0.312963 0.176547 0.087251
0.348730 0.182742 0.082094
0.387274 0.189914 0.074983
0.427802 0.198245 0.065461
0.470527 0.207462 0.045014
0.515190 0.217350 0.006348
0.562066 0.228061 0.000000
0.607691 0.238560 0.000000
0.651026 0.248234 0.000000
0.692073 0.257176 0.000000
0.731044 0.265568 0.000000
0.767514 0.273167 0.000000
0.801328 0.279240 0.000000
0.832151 0.284916 0.000000
0.860075 0.289067 0.000000
0.885069 0.292485 0.000000
0.907561 0.294743 0.000000
0.928038 0.296666 0.000000
0.946868 0.297551 0.000000
0.964385 0.298192 0.000000
0.980743 0.298314 0.000000
0.996063 0.297856 0.000000
1.000000 0.297398 0.000000
0.093874 0.163973 0.132021
0.099489 0.164523 0.131319
0.107179 0.165011 0.129732
0.122713 0.166171 0.126345
0.147860 0.167117 0.124392
0.174685 0.168643 0.120943
0.206363 0.172641 0.115816
0.241398 0.178317 0.110201
0.276646 0.183841 0.103090
0.310246 0.188907 0.095277
0.346258 0.195682 0.085664
0.384558 0.204257 0.073091
0.425208 0.212741 0.062074
0.468025 0.221744 0.036072
0.512902 0.231510 0.000000
0.559686 0.242252 0.000000
0.605249 0.252232 0.000000
0.648676 0.261570 0.000000
0.689815 0.270420 0.000000
0.729122 0.278294 0.000000
0.765774 0.285252 0.000000
0.799802 0.291173 0.000000
0.830838 0.296147 0.000000
0.858854 0.299992 0.000000
0.884031 0.302678 0.000000
0.906706 0.304631 0.000000
0.927276 0.305882 0.000000
0.946227 0.306554 0.000000
0.963867 0.306554 0.000000
0.980316 0.306371 0.000000
0.995666 0.305638 0.000000
1.000000 0.304662 0.000000
0.092317 0.177493 0.139864
0.097749 0.178012 0.139040
0.104463 0.178531 0.137545
0.119203 0.179721 0.134432
0.143099 0.181003 0.131411
0.170504 0.182040 0.128603
0.199405 0.184451 0.124727
0.232792 0.189212 0.119081
0.269322 0.195468 0.112245
0.307439 0.202426 0.104067
0.343786 0.208682 0.094484
0.382116 0.216648 0.082979
0.422797 0.226200 0.067353
0.465431 0.236790 0.029664
0.510643 0.247074 0.000000
0.557305 0.257450 0.000000
0.602960 0.267308 0.000000
0.646509 0.276463 0.000000
0.687861 0.284733 0.000000
0.727382 0.292332 0.000000
0.764309 0.298802 0.000000
0.798459 0.304234 0.000000
0.829679 0.308690 0.000000
0.857877 0.311955 0.000000
0.883146 0.314214 0.000000
0.905913 0.315831 0.000000
0.926635 0.316472 0.000000
0.945678 0.316625 0.000000
0.963378 0.316258 0.000000
0.979889 0.315465 0.000000
0.995300 0.314580 0.000000
1.000000 0.313085 0.000000
0.090211 0.191928 0.148348
0.094942 0.192477 0.147280
0.101289 0.192996 0.145907
0.115450 0.194308 0.142977
0.137026 0.195743 0.138094
0.166262 0.196811 0.136446
0.195071 0.198428 0.132784
0.226139 0.201572 0.127901
0.261173 0.207065 0.121675
0.299657 0.214328 0.114260
0.340673 0.222843 0.104402
0.379370 0.230137 0.093080
0.420294 0.239109 0.078584
0.463264 0.249210 0.057008
0.508598 0.261021 0.000000
0.555169 0.273564 0.000000
0.600977 0.283452 0.000000
0.644678 0.292424 0.000000
0.686183 0.300359 0.000000
0.725978 0.307500 0.000000
0.762966 0.313664 0.000000
0.797177 0.318761 0.000000
0.828428 0.322515 0.000000
0.856626 0.325322 0.000000
0.882017 0.327001 0.000000
0.904936 0.327916 0.000000
0.925811 0.328191 0.000000
0.945006 0.327733 0.000000
0.962860 0.327062 0.000000
0.979461 0.325872 0.000000
0.994995 0.324285 0.000000
1.000000 0.322606 0.000000
0.086061 0.207370 0.157198
0.090669 0.207889 0.156222
0.097322 0.208499 0.154910
0.110903 0.209659 0.151766
0.131350 0.211185 0.146517
0.160678 0.212436 0.143374
0.191073 0.213809 0.140902
0.221286 0.215671 0.136751
0.254765 0.220005 0.130404
0.291905 0.226505 0.123842
0.332769 0.235019 0.115175
0.376501 0.244846 0.104097
0.417578 0.253086 0.090974
0.461189 0.263096 0.071931
0.506523 0.274144 0.028504
0.552880 0.286137 0.000000
0.598627 0.298222 0.000000
0.642206 0.308812 0.000000
0.683955 0.316655 0.000000
0.724086 0.323552 0.000000
0.761349 0.329290 0.000000
0.795712 0.333989 0.000000
0.827207 0.337346 0.000000
0.855589 0.339605 0.000000
0.881132 0.340887 0.000000
0.904143 0.341314 0.000000
0.925109 0.340948 0.000000
0.944427 0.340154 0.000000
0.962310 0.338872 0.000000
0.979034 0.336980 0.000000
0.994598 0.335210 0.000000
1.000000 0.332982 0.000000
0.080171 0.223606 0.166323
0.085206 0.224094 0.165408
0.091859 0.224765 0.164309
0.105348 0.225895 0.161532
0.125307 0.227604 0.156222
0.152773 0.229160 0.150271
0.186282 0.230289 0.148959
0.217807 0.231815 0.145083
0.249302 0.234165 0.140078
0.285832 0.239963 0.132479
0.325353 0.247715 0.125338
0.368475 0.257298 0.115511
0.417731 0.269902 0.101656
0.462409 0.279973 0.084810
0.508568 0.290898 0.059693
0.555718 0.302403 0.000000
0.601648 0.313909 0.000000
0.645228 0.324681 0.000000
0.686641 0.334844 0.000000
0.726497 0.342199 0.000000
0.763546 0.347448 0.000000
0.797574 0.351537 0.000000
0.828641 0.354192 0.000000
0.856718 0.355840 0.000000
0.882048 0.356451 0.000000
0.904875 0.356115 0.000000
0.925689 0.355200 0.000000
0.944884 0.353674 0.000000
0.962676 0.351843 0.000000
0.979309 0.349584 0.000000
0.994781 0.347143 0.000000
1.000000 0.344579 0.000000
0.071748 0.241093 0.176211
0.076997 0.241459 0.175509
0.084199 0.242069 0.174228
0.098451 0.243229 0.171267
0.118563 0.244816 0.166323
0.144106 0.246738 0.158480
0.179599 0.247807 0.155947
0.213443 0.249210 0.153414
0.246464 0.251225 0.148745
0.280278 0.254734 0.142336
0.319646 0.261967 0.133852
0.361791 0.271031 0.125734
0.408423 0.282292 0.114382
0.458900 0.295354 0.098329
0.505211 0.305882 0.077577
0.552514 0.317113 0.029053
0.598749 0.328069 0.000000
0.642481 0.338354 0.000000
0.684199 0.347936 0.000000
0.724117 0.357061 0.000000
0.761288 0.364508 0.000000
0.795651 0.368017 0.000000
0.826932 0.370489 0.000000
0.855253 0.371679 0.000000
0.880735 0.371710 0.000000
0.903746 0.370947 0.000000
0.924743 0.369604 0.000000
0.944030 0.367559 0.000000
0.961975 0.365087 0.000000
0.978698 0.362585 0.000000
0.994293 0.359625 0.000000
1.000000 0.356481 0.000000
0.058900 0.258579 0.186465
0.065431 0.259098 0.185550
0.073518 0.259678 0.184360
0.088441 0.260899 0.181491
0.109804 0.262486 0.176394
0.135744 0.264469 0.169253
0.170016 0.266087 0.162631
0.207767 0.267216 0.161288
0.242435 0.269108 0.157259
0.276402 0.271366 0.151919
0.313451 0.276616 0.144411
0.355291 0.285344 0.134920
0.400580 0.295842 0.125765
0.449531 0.308171 0.112276
0.501305 0.321691 0.092653
0.549340 0.332738 0.066316
0.595514 0.343175 0.000000
0.639551 0.352850 0.000000
0.681605 0.362188 0.000000
0.721920 0.370764 0.000000
0.759304 0.378515 0.000000
0.793668 0.385504 0.000000
0.825254 0.387427 0.000000
0.853880 0.388281 0.000000
0.879545 0.387945 0.000000
0.902708 0.386664 0.000000
0.923857 0.384710 0.000000
0.943328 0.382177 0.000000
0.961364 0.379400 0.000000
0.978180 0.376196 0.000000
0.993866 0.372900 0.000000
1.000000 0.369390 0.000000
0.023774 0.276982 0.196719
0.038666 0.277470 0.195956
0.056397 0.278050 0.194736
0.076051 0.279240 0.192020
0.099123 0.281010 0.187503
0.126253 0.283085 0.180026
0.157290 0.285283 0.170138
0.199557 0.286351 0.168124
0.237430 0.287999 0.165713
0.273167 0.290227 0.160647
0.308171 0.292821 0.154635
0.349371 0.300725 0.145480
0.393866 0.310552 0.135836
0.441444 0.322087 0.124697
0.492103 0.334966 0.108186
0.545098 0.348699 0.085084
0.592401 0.359350 0.044251
0.636591 0.368505 0.000000
0.678981 0.377081 0.000000
0.719661 0.385412 0.000000
0.757351 0.392706 0.000000
0.792050 0.398962 0.000000
0.823606 0.404425 0.000000
0.852384 0.405280 0.000000
0.878325 0.404486 0.000000
0.901701 0.402838 0.000000
0.923064 0.400458 0.000000
0.942718 0.397589 0.000000
0.960937 0.394324 0.000000
0.977874 0.390692 0.000000
0.993713 0.386847 0.000000
1.000000 0.382818 0.000000
0.000000 0.296330 0.208011
0.000000 0.296788 0.207218
0.008637 0.297307 0.205966
0.054719 0.298589 0.203220
0.084810 0.300420 0.198886
0.114961 0.302586 0.191562
0.146975 0.304967 0.181704
0.188052 0.306676 0.175204
0.230808 0.308232 0.173678
0.269017 0.310277 0.169497
0.306188 0.312902 0.163729
0.343786 0.317021 0.156527
0.387671 0.326299 0.146181
0.434272 0.336950 0.135470
0.483558 0.349065 0.122042
0.535302 0.362188 0.102693
0.587488 0.375341 0.074769
0.633295 0.384955 0.005035
0.676295 0.393194 0.000000
0.717464 0.401038 0.000000
0.755673 0.407874 0.000000
0.790677 0.413642 0.000000
0.822568 0.418433 0.000000
0.851377 0.422156 0.000000
0.877409 0.421942 0.000000
0.900999 0.419715 0.000000
0.922484 0.416846 0.000000
0.942229 0.413489 0.000000
0.960540 0.409796 0.000000
0.977569 0.405554 0.000000
0.993408 0.401373 0.000000
1.000000 0.396918 0.000000
0.000000 0.316381 0.219608
0.000000 0.316808 0.218570
0.000000 0.317449 0.217685
0.000000 0.318639 0.215122
0.064698 0.320531 0.210544
0.100496 0.322820 0.203708
0.134859 0.325383 0.194339
0.173129 0.327764 0.181888
0.221256 0.329107 0.180850
0.263615 0.331029 0.178470
0.302800 0.333715 0.172946
0.340917 0.336767 0.166506
0.381353 0.342718 0.157931
0.427588 0.352880 0.146029
0.476051 0.364294 0.133944
0.526543 0.376776 0.118349
0.578332 0.389654 0.095979
0.628321 0.401129 0.062806
0.673335 0.410132 0.000000
0.714931 0.417517 0.000000
0.753475 0.423774 0.000000
0.788846 0.428931 0.000000
0.820981 0.433143 0.000000
0.850065 0.436347 0.000000
0.876249 0.438636 0.000000
0.899931 0.436988 0.000000
0.921630 0.433692 0.000000
0.941558 0.429908 0.000000
0.959960 0.425635 0.000000
0.977081 0.421149 0.000000
0.993072 0.416266 0.000000
1.000000 0.411444 0.000000
0.000000 0.337407 0.231937
0.000000 0.337896 0.231022
0.000000 0.339574 0.230594
0.000000 0.340734 0.228000
0.004761 0.342687 0.223636
0.080964 0.344793 0.216922
0.120882 0.347448 0.207614
0.159731 0.350134 0.194766
0.209354 0.352331 0.188479
0.256931 0.354437 0.187289
0.299199 0.357000 0.182925
0.339544 0.359930 0.176547
0.378820 0.363195 0.169162
0.423224 0.371344 0.158602
0.471748 0.382391 0.145113
0.521935 0.394415 0.130983
0.573358 0.406867 0.112642
0.623316 0.418189 0.087129
0.671015 0.428138 0.030488
0.713985 0.435706 0.000000
0.752651 0.441413 0.000000
0.788174 0.445899 0.000000
0.820493 0.449287 0.000000
0.849607 0.451728 0.000000
0.875731 0.453346 0.000000
0.899321 0.454292 0.000000
0.920958 0.451057 0.000000
0.940917 0.446693 0.000000
0.959411 0.442023 0.000000
0.976593 0.437049 0.000000
0.992645 0.431739 0.000000
1.000000 0.426429 0.000000
0.000000 0.360052 0.244968
0.000000 0.360632 0.244450
0.000000 0.361334 0.243290
0.000000 0.362768 0.241001
0.000000 0.364660 0.236912
0.041688 0.367102 0.230594
0.102327 0.370245 0.221897
0.145602 0.373480 0.209384
0.192294 0.376410 0.196017
0.246281 0.378241 0.194949
0.293370 0.380529 0.192355
0.336217 0.383368 0.186038
0.377447 0.386542 0.179202
0.417884 0.390051 0.170779
0.466224 0.400702 0.157565
0.516930 0.412543 0.141939
0.567926 0.424537 0.126558
0.617762 0.435462 0.105287
0.665736 0.445228 0.075257
0.710414 0.453315 0.000000
0.750149 0.458930 0.000000
0.786038 0.462928 0.000000
0.818723 0.465797 0.000000
0.848203 0.467628 0.000000
0.874571 0.468482 0.000000
0.898405 0.468727 0.000000
0.920104 0.468605 0.000000
0.940185 0.463935 0.000000
0.958831 0.458717 0.000000
0.976135 0.453285 0.000000
0.992248 0.447608 0.000000
1.000000 0.441871 0.000000
0.000000 0.384283 0.259220
0.000000 0.384894 0.258518
0.000000 0.385687 0.257511
0.000000 0.387152 0.255344
0.000000 0.389380 0.251469
0.000000 0.392096 0.245304
0.074708 0.395148 0.236973
0.127657 0.398474 0.224704
0.173770 0.401923 0.208103
0.232242 0.404059 0.202396
0.285161 0.406165 0.200656
0.331975 0.408881 0.195926
0.375860 0.411963 0.188907
0.418341 0.415473 0.180606
0.462257 0.421057 0.170138
0.513054 0.432654 0.155245
0.564843 0.444434 0.137667
0.614618 0.454963 0.120394
0.662531 0.464363 0.096498
0.707698 0.472023 0.060334
0.747921 0.477302 0.000000
0.783963 0.480781 0.000000
0.816983 0.483162 0.000000
0.846708 0.484321 0.000000
0.873320 0.484535 0.000000
0.897368 0.484108 0.000000
0.919280 0.483192 0.000000
0.939452 0.481422 0.000000
0.958160 0.475807 0.000000
0.975555 0.469978 0.000000
0.991791 0.463813 0.000000
1.000000 0.457557 0.000000
0.000000 0.411078 0.274876
0.000000 0.411658 0.274113
0.000000 0.412512 0.273228
0.000000 0.414008 0.271000
0.000000 0.416175 0.267124
0.000000 0.418860 0.261234
0.000000 0.421942 0.252964
0.101991 0.425330 0.241184
0.156039 0.428992 0.224613
0.212589 0.432044 0.210269
0.273686 0.433997 0.208377
0.326299 0.436500 0.205936
0.373236 0.439612 0.198856
0.418524 0.443000 0.190646
0.462562 0.446723 0.181216
0.510491 0.455024 0.168093
0.562921 0.466743 0.151034
0.613703 0.477119 0.132448
0.662013 0.486000 0.113130
0.707240 0.493233 0.086244
0.747860 0.497993 0.025971
0.783963 0.500664 0.000000
0.816220 0.501823 0.000000
0.846189 0.502373 0.000000
0.873075 0.502007 0.000000
0.897215 0.500877 0.000000
0.919280 0.499214 0.000000
0.939513 0.497230 0.000000
0.958312 0.493629 0.000000
0.975738 0.487312 0.000000
0.991974 0.480751 0.000000
1.000000 0.474037 0.000000
0.000000 0.440864 0.292210
0.000000 0.441535 0.291752
0.000000 0.442206 0.290745
0.000000 0.443580 0.288396
0.000000 0.445777 0.284520
0.000000 0.448402 0.278477
0.000000 0.451606 0.270390
0.054170 0.455146 0.258824
0.132296 0.459083 0.242679
0.187839 0.463111 0.221042
0.258488 0.465309 0.216800
0.318212 0.467750 0.214267
0.370672 0.470710 0.209323
0.419135 0.474067 0.201175
0.465949 0.477760 0.191531
0.511528 0.482002 0.180880
0.563165 0.492103 0.164675
0.614649 0.501884 0.146059
0.663325 0.510124 0.126833
0.708461 0.516381 0.105074
0.748928 0.520287 0.075196
0.784848 0.521904 0.000000
0.816434 0.521813 0.000000
0.844602 0.520653 0.000000
0.871611 0.519615 0.000000
0.896056 0.517693 0.000000
0.918273 0.515343 0.000000
0.938689 0.512810 0.000000
0.957610 0.510002 0.000000
0.975189 0.504540 0.000000
0.991516 0.497627 0.000000
1.000000 0.490517 0.000000
0.000000 0.472450 0.310765
0.000000 0.472999 0.310185
0.000000 0.473823 0.309270
0.000000 0.475319 0.306798
0.000000 0.477485 0.303044
0.000000 0.480140 0.297154
0.000000 0.483406 0.288762
0.000000 0.487068 0.277501
0.096559 0.491035 0.261906
0.165469 0.495369 0.240452
0.236545 0.498634 0.225345
0.306126 0.500938 0.222934
0.364996 0.503655 0.219638
0.417914 0.507103 0.211856
0.467872 0.510674 0.202365
0.516228 0.514519 0.191440
0.563806 0.519371 0.178592
0.615747 0.528557 0.160311
0.665492 0.536217 0.140078
0.710811 0.541558 0.120058
0.751186 0.544335 0.098085
0.787106 0.545037 0.064698
0.818631 0.544030 0.000000
0.846098 0.541405 0.000000
0.869871 0.537713 0.000000
0.894469 0.535271 0.000000
0.916960 0.532219 0.000000
0.937591 0.528954 0.000000
0.956695 0.525536 0.000000
0.974456 0.521843 0.000000
0.990906 0.514672 0.000000
1.000000 0.507195 0.000000
0.000000 0.508110 0.331640
0.000000 0.508843 0.331212
0.000000 0.509483 0.329961
0.000000 0.510918 0.327703
0.000000 0.512993 0.323644
0.000000 0.515618 0.317754
0.000000 0.519005 0.309606
0.000000 0.522698 0.298405
0.000000 0.526787 0.282963
0.134249 0.531121 0.261662
0.204746 0.535332 0.234257
0.289342 0.537285 0.232090
0.356451 0.539513 0.228946
0.414801 0.542321 0.223301
0.468238 0.545434 0.213657
0.519158 0.548669 0.202823
0.568200 0.552270 0.190768
0.617762 0.557610 0.175326
0.667903 0.564446 0.155612
0.713863 0.568658 0.134188
0.754238 0.570031 0.115297
0.789914 0.569512 0.092287
0.821256 0.567285 0.054353
0.848508 0.563592 0.000000
0.872221 0.558862 0.000000
0.893278 0.553582 0.000000
0.915801 0.550011 0.000000
0.936584 0.546014 0.000000
0.955840 0.541833 0.000000
0.973754 0.537499 0.000000
0.990387 0.532128 0.000000
1.000000 0.524193 0.000000
0.000000 0.545464 0.353735
0.000000 0.546166 0.353033
0.000000 0.546960 0.351934
0.000000 0.548363 0.349584
0.000000 0.550408 0.345586
0.000000 0.553002 0.339513
0.000000 0.556298 0.331426
0.000000 0.559930 0.319921
0.000000 0.564080 0.304692
0.081727 0.568353 0.284245
0.175937 0.572778 0.257084
0.265385 0.575494 0.242191
0.343786 0.577417 0.239200
0.409186 0.579644 0.235691
0.467109 0.582300 0.226902
0.521324 0.585229 0.216037
0.573144 0.588342 0.203799
0.623041 0.591730 0.189822
0.672877 0.596429 0.172183
0.718837 0.599115 0.152102
0.759457 0.598993 0.130800
0.794858 0.596826 0.113130
0.825803 0.592981 0.089723
0.852689 0.587915 0.048737
0.876158 0.581872 0.000000
0.896757 0.575280 0.000000
0.914977 0.568505 0.000000
0.935760 0.563867 0.000000
0.955138 0.559045 0.000000
0.973205 0.554040 0.000000
0.990021 0.548913 0.000000
1.000000 0.541588 0.000000
0.000000 0.585290 0.377111
0.000000 0.585870 0.376379
0.000000 0.586603 0.375402
0.000000 0.587854 0.372808
0.000000 0.589746 0.368566
0.000000 0.592248 0.362554
0.000000 0.595331 0.354314
0.000000 0.598871 0.342962
0.000000 0.602869 0.327916
0.000000 0.607111 0.308019
0.138308 0.611444 0.281987
0.231022 0.615167 0.253727
0.325292 0.616754 0.251041
0.399573 0.618494 0.247410
0.463386 0.620630 0.241581
0.521355 0.623041 0.230716
0.576043 0.625666 0.218631
0.628229 0.628382 0.205020
0.678645 0.631312 0.188907
0.724575 0.632044 0.170687
0.765194 0.630060 0.151400
0.800656 0.626001 0.131197
0.831052 0.620447 0.113924
0.857542 0.613825 0.091005
0.880674 0.606378 0.054475
0.900999 0.598474 0.000000
0.919036 0.590448 0.000000
0.935149 0.582422 0.000000
0.954101 0.576745 0.000000
0.972320 0.571130 0.000000
0.989258 0.565240 0.000000
1.000000 0.559106 0.000000
0.000000 0.626368 0.401282
0.000000 0.626917 0.400458
0.000000 0.627527 0.399451
0.000000 0.628779 0.396765
0.000000 0.630640 0.392584
0.000000 0.633173 0.386633
0.000000 0.636378 0.378302
0.000000 0.640101 0.367224
0.000000 0.644282 0.352789
0.000000 0.648737 0.333562
0.070863 0.653193 0.308629
0.196475 0.657465 0.276860
0.302007 0.659541 0.265568
0.387457 0.660883 0.262303
0.458503 0.662379 0.258274
0.520958 0.663996 0.248844
0.578576 0.665766 0.236881
0.633051 0.667597 0.223484
0.685145 0.669520 0.208408
0.733883 0.670344 0.191501
0.774044 0.665797 0.173556
0.809018 0.659266 0.155367
0.838956 0.651362 0.137667
0.864714 0.642695 0.121492
0.887297 0.633509 0.099428
0.907164 0.624109 0.067384
0.924865 0.614649 0.000000
0.940673 0.605341 0.000000
0.954925 0.596155 0.000000
0.972107 0.589410 0.000000
0.989075 0.582910 0.000000
1.000000 0.576135 0.000000
0.000000 0.670954 0.427619
0.000000 0.671443 0.426825
0.000000 0.672023 0.425605
0.000000 0.673060 0.423133
0.000000 0.674800 0.418616
0.000000 0.677028 0.412299
0.000000 0.679866 0.403967
0.000000 0.683131 0.392950
0.000000 0.686793 0.378393
0.000000 0.690669 0.359716
0.000000 0.694484 0.335729
0.158846 0.698116 0.306584
0.270237 0.700404 0.281987
0.369512 0.700862 0.279210
0.448127 0.701411 0.275364
