data/fiter_cube/60169440/1023145/file.cube
# Created by Adobe Lightroom plugin Export LUT (1.17.0)
# www.johnrellis.com/lightroom/exportlut.htm
# Preset: 海滩旅拍低饱和胶片_03 云集
# Color profile: C:\Program Files (x86)\Common Files\Adobe\Color\Profiles\Recommended\AdobeRGB1998.icc
LUT_3D_SIZE 32
DOMAIN_MIN 0.0 0.0 0.0
DOMAIN_MAX 1.0 1.0 1.0
0.000000 0.000000 0.000000
0.023163 0.008728 0.009491
0.050874 0.019959 0.020813
0.077638 0.043671 0.046418
0.102876 0.062409 0.064088
0.131106 0.071321 0.074098
0.161105 0.079622 0.083192
0.191989 0.088289 0.092592
0.223697 0.097749 0.102571
0.256382 0.107698 0.113130
0.290074 0.118746 0.124514
0.324376 0.130892 0.136782
0.359289 0.144015 0.149477
0.394415 0.157839 0.162722
0.429541 0.172305 0.176455
0.464698 0.187594 0.190982
0.499855 0.203616 0.206577
0.538628 0.222782 0.225223
0.584070 0.247593 0.249546
0.625727 0.274174 0.276097
0.663539 0.303349 0.305211
0.698299 0.335058 0.337163
0.729824 0.368933 0.371313
0.758389 0.405188 0.407935
0.784817 0.444038 0.447211
0.810422 0.485756 0.489326
0.836545 0.530327 0.534295
0.864134 0.575525 0.579797
0.893248 0.621546 0.626154
0.923522 0.668421 0.673304
0.954345 0.716152 0.721279
0.983825 0.767056 0.772213
0.003510 0.023407 0.017456
0.021515 0.024140 0.012604
0.056519 0.026062 0.011444
0.079530 0.047425 0.038361
0.104524 0.063905 0.060853
0.131930 0.072694 0.071107
0.161410 0.080995 0.080598
0.191714 0.089418 0.090059
0.222934 0.098726 0.099916
0.255283 0.108522 0.110597
0.288365 0.119661 0.121920
0.322301 0.131441 0.133852
0.356725 0.144198 0.146609
0.391577 0.157809 0.159640
0.426307 0.171817 0.173373
0.461128 0.186831 0.187808
0.495888 0.202487 0.203159
0.534752 0.221439 0.221714
0.578424 0.244724 0.244938
0.619348 0.270176 0.270237
0.656825 0.298039 0.298314
0.691554 0.328679 0.329320
0.723415 0.361425 0.362676
0.752377 0.396979 0.398840
0.779202 0.435157 0.437629
0.805173 0.476631 0.479622
0.831540 0.521630 0.525109
0.859373 0.567529 0.571466
0.888731 0.614191 0.618494
0.919310 0.661799 0.666438
0.950500 0.709895 0.714809
0.980529 0.760739 0.765805
0.005921 0.053010 0.040803
0.035737 0.050935 0.045655
0.048707 0.052338 0.028901
0.081697 0.054749 0.026551
0.106416 0.066987 0.053956
0.133303 0.075807 0.067323
0.162173 0.083803 0.077058
0.191989 0.091798 0.086732
0.222843 0.100740 0.096773
0.254643 0.110353 0.107424
0.287510 0.121218 0.118746
0.321355 0.132570 0.130709
0.355535 0.145052 0.143526
0.390143 0.158480 0.156588
0.424598 0.172488 0.170291
0.459266 0.187106 0.184817
0.493812 0.202579 0.200137
0.533043 0.221439 0.218814
0.575586 0.243931 0.241428
0.615991 0.268437 0.266148
0.653407 0.295445 0.293797
0.688167 0.325444 0.324407
0.720180 0.357733 0.357427
0.749355 0.392676 0.393347
0.776394 0.430488 0.431891
0.802518 0.471626 0.473793
0.828977 0.516655 0.519463
0.856870 0.563104 0.566430
0.886442 0.610163 0.614038
0.917144 0.658167 0.662409
0.948516 0.706416 0.711055
0.978790 0.757259 0.762051
0.017395 0.079347 0.069612
0.041444 0.079500 0.071229
0.065187 0.078279 0.073518
0.076600 0.079500 0.058747
0.110201 0.075257 0.044099
0.137331 0.085359 0.058900
0.165286 0.091859 0.069673
0.194430 0.099153 0.079805
0.224613 0.106752 0.090272
0.255802 0.115969 0.101045
0.288151 0.125826 0.112551
0.321386 0.136812 0.124910
0.355016 0.148653 0.137423
0.389136 0.161410 0.150759
0.423255 0.174960 0.164828
0.457527 0.188998 0.179477
0.491829 0.203952 0.194827
0.531640 0.222843 0.213993
0.572168 0.243717 0.235447
0.611170 0.266484 0.259037
0.647791 0.291905 0.285588
0.682277 0.320409 0.315373
0.714748 0.351751 0.348058
0.745083 0.386633 0.384344
0.773434 0.425208 0.424231
0.800809 0.467597 0.467750
0.828153 0.513848 0.515099
0.856535 0.561364 0.563378
0.886259 0.608820 0.611597
0.916838 0.656764 0.660151
0.947814 0.704616 0.708492
0.977752 0.754635 0.758846
0.019196 0.106508 0.092348
0.036683 0.106844 0.093263
0.063600 0.107637 0.095796
0.085176 0.103578 0.096284
0.102144 0.106966 0.072786
0.141756 0.096223 0.060639
0.169131 0.106355 0.057984
0.197086 0.112062 0.068544
0.226291 0.118074 0.079683
0.256870 0.125673 0.090944
0.288426 0.134249 0.102998
0.320958 0.143954 0.115450
0.354162 0.155062 0.128420
0.387854 0.166781 0.142061
0.421851 0.179477 0.156527
0.456214 0.193027 0.171511
0.490669 0.207492 0.187442
0.532158 0.226535 0.207675
0.571588 0.246159 0.228794
0.609705 0.267674 0.252018
0.645624 0.291722 0.278111
0.679683 0.318853 0.307286
0.712032 0.349004 0.339666
0.742611 0.382940 0.375860
0.771359 0.420844 0.415808
0.799039 0.462959 0.459876
0.826535 0.509056 0.507591
0.854917 0.556939 0.556847
0.884581 0.604639 0.605615
0.915099 0.652796 0.654719
0.946166 0.700923 0.703578
0.976349 0.750973 0.754208
0.002350 0.138613 0.118502
0.014008 0.139193 0.119387
0.049653 0.140352 0.121035
0.088319 0.142000 0.126070
0.110079 0.131899 0.122621
0.132326 0.139681 0.086824
0.179049 0.120211 0.070039
0.204593 0.127871 0.062257
0.230594 0.136233 0.065248
0.260441 0.141390 0.077577
0.291325 0.148196 0.090272
0.323339 0.156191 0.103273
0.355932 0.165652 0.116945
0.389105 0.176181 0.131228
0.422705 0.187625 0.146304
0.456855 0.200259 0.161929
0.494301 0.215213 0.179568
0.534295 0.232792 0.199527
0.572900 0.251225 0.220768
0.610651 0.271763 0.244297
0.646571 0.294835 0.270634
0.680842 0.321141 0.300572
0.751980 0.393439 0.377386
0.779690 0.430426 0.417823
0.805692 0.470192 0.460609
0.830991 0.512596 0.505760
0.856687 0.556237 0.551537
0.883360 0.599512 0.596612
0.910826 0.643397 0.641993
0.939086 0.687526 0.687404
0.967041 0.732540 0.733455
0.992981 0.780392 0.782101
0.000000 0.180362 0.152407
0.000000 0.180819 0.153017
0.006683 0.182162 0.154635
0.077485 0.184665 0.158846
0.125795 0.185367 0.165408
0.141817 0.172335 0.156954
0.172183 0.182376 0.106233
0.227054 0.151308 0.083040
0.251713 0.157412 0.072847
0.275425 0.165042 0.063783
0.303807 0.171725 0.073640
0.335729 0.177768 0.088991
0.367987 0.185092 0.104280
0.400580 0.193668 0.119997
0.433387 0.203525 0.136080
0.466987 0.214694 0.152682
0.508110 0.230411 0.172946
0.547570 0.246799 0.194003
0.586206 0.264744 0.216587
0.624567 0.285435 0.242283
0.662257 0.310185 0.272221
0.699428 0.339544 0.307164
0.735134 0.373968 0.347051
0.767941 0.412940 0.391394
0.798001 0.455726 0.438911
0.825711 0.500389 0.487770
0.852476 0.546136 0.536797
0.879576 0.590661 0.584039
0.907347 0.635431 0.630945
0.935546 0.679988 0.677302
0.963745 0.725185 0.723964
0.990204 0.772854 0.772854
0.000000 0.218296 0.183536
0.000000 0.219059 0.184421
0.000000 0.220310 0.185824
0.055940 0.222812 0.189395
0.118471 0.226108 0.196628
0.159365 0.221103 0.198642
0.165743 0.213901 0.182712
0.209018 0.222171 0.127108
0.270695 0.181308 0.098726
0.294560 0.185824 0.086427
0.317205 0.191958 0.075227
0.338689 0.199008 0.066011
0.370153 0.204196 0.083742
0.402045 0.210544 0.101503
0.434211 0.218296 0.118868
0.472450 0.230045 0.138521
0.510338 0.242863 0.158572
0.547478 0.256870 0.179629
0.584527 0.272282 0.202182
0.621851 0.290684 0.227543
0.658839 0.312749 0.257023
0.695460 0.339330 0.291417
0.730953 0.370764 0.330449
0.763790 0.406989 0.374182
0.794034 0.447456 0.421393
0.821897 0.490730 0.470436
0.848783 0.536248 0.520775
0.876005 0.581781 0.570153
0.903990 0.627131 0.618585
0.932372 0.672602 0.666590
0.960906 0.718257 0.714290
0.987915 0.766079 0.763851
0.000000 0.259281 0.217472
0.000000 0.260166 0.218387
0.000000 0.261387 0.219760
0.000000 0.263828 0.223026
0.105318 0.267460 0.229099
0.169284 0.271244 0.239689
0.197940 0.260502 0.236271
0.193271 0.259495 0.209201
0.249638 0.265446 0.151583
0.318761 0.215061 0.117800
0.341344 0.217563 0.103059
0.362158 0.221561 0.089693
0.382025 0.226566 0.077058
0.405615 0.232090 0.076692
0.442329 0.240299 0.098604
0.478248 0.249271 0.119844
0.513909 0.259190 0.141329
0.549401 0.270695 0.163119
0.585138 0.283818 0.186191
0.621607 0.299870 0.211826
0.657923 0.319219 0.241428
0.694026 0.342992 0.275669
0.729122 0.371649 0.314458
0.761837 0.405066 0.357763
0.792050 0.442908 0.404852
0.820005 0.484443 0.454292
0.847013 0.529076 0.505730
0.874083 0.574914 0.556939
0.902007 0.620600 0.606867
0.930327 0.666499 0.656245
0.958862 0.712337 0.704891
0.986114 0.759915 0.754849
0.000000 0.302403 0.253208
0.000000 0.303105 0.254124
0.000000 0.304082 0.255192
0.000000 0.306462 0.258183
0.087678 0.309880 0.263584
0.157565 0.314061 0.272221
0.214084 0.314824 0.280797
0.239841 0.302037 0.276616
0.222690 0.307378 0.234134
0.291905 0.310857 0.177981
0.368261 0.250370 0.139376
0.388617 0.250217 0.121798
0.410712 0.253971 0.107027
0.432227 0.259190 0.093324
0.453193 0.265415 0.080354
0.484352 0.272038 0.094697
0.519371 0.279789 0.119600
0.554314 0.289128 0.143679
0.589410 0.300206 0.168338
0.624567 0.313603 0.195285
0.659358 0.329931 0.225193
0.693629 0.349981 0.258701
0.727138 0.374395 0.296422
0.758663 0.403388 0.338109
0.788296 0.437415 0.384070
0.816312 0.476112 0.433326
0.843717 0.519585 0.485939
0.871305 0.566308 0.540215
0.899809 0.613397 0.593164
0.928801 0.660822 0.645350
0.957977 0.708003 0.696284
0.985901 0.756435 0.747951
0.000000 0.344762 0.288670
0.000000 0.345617 0.289494
0.000000 0.346715 0.290806
0.000000 0.349035 0.293736
0.061311 0.352636 0.298558
0.144350 0.357244 0.306462
0.214023 0.362615 0.318578
0.257176 0.358831 0.322423
0.285405 0.346471 0.320562
0.256413 0.357641 0.260960
0.339910 0.361975 0.208530
0.421149 0.303685 0.165988
0.447242 0.290867 0.146242
0.465370 0.290990 0.128420
0.483070 0.292882 0.112551
0.501152 0.296788 0.098421
0.522484 0.302129 0.088991
0.556207 0.308934 0.117891
0.590265 0.317418 0.145205
0.624659 0.328283 0.173800
0.658869 0.341863 0.204623
0.692805 0.359014 0.238956
0.726253 0.380468 0.277104
0.757839 0.406378 0.319310
0.787533 0.437354 0.365423
0.815549 0.473304 0.415106
0.842832 0.514366 0.468208
0.870176 0.560113 0.523949
0.898375 0.607111 0.578882
0.927245 0.654597 0.632654
0.956390 0.702266 0.685328
0.984588 0.750759 0.738003
0.000000 0.389532 0.326085
0.000000 0.390326 0.327001
0.000000 0.391394 0.328222
0.000000 0.393622 0.330846
0.000000 0.397162 0.335576
0.129793 0.401648 0.342626
0.203006 0.407324 0.353338
0.275364 0.413764 0.369146
0.307073 0.408728 0.370397
0.340551 0.400092 0.374060
0.306798 0.418372 0.302251
0.394629 0.419898 0.245151
0.509514 0.386786 0.213199
0.538720 0.355138 0.187228
0.552117 0.350011 0.164736
0.565850 0.347997 0.145388
0.580957 0.348730 0.128847
0.597772 0.352117 0.115175
0.623590 0.357305 0.128206
0.655238 0.364904 0.163119
0.686671 0.375494 0.198795
0.717922 0.389746 0.236362
0.747921 0.407965 0.276860
0.776699 0.431067 0.320836
0.804227 0.459449 0.368566
0.830838 0.493446 0.419654
0.856901 0.532677 0.473823
0.882933 0.576196 0.529778
0.909667 0.620722 0.584070
0.937072 0.666285 0.637446
0.964599 0.711971 0.689357
0.991241 0.759274 0.741939
0.000000 0.445045 0.372625
0.000000 0.445869 0.373541
0.000000 0.446906 0.374762
0.000000 0.449470 0.377783
0.000000 0.453468 0.382757
0.116976 0.458564 0.389899
0.199649 0.465217 0.400732
0.275853 0.473121 0.416052
0.338293 0.477913 0.430030
0.372320 0.473487 0.433661
0.396185 0.471717 0.433051
0.370489 0.490883 0.355627
0.464057 0.492897 0.295781
0.547265 0.432410 0.240787
0.582513 0.388830 0.213626
0.594385 0.381903 0.189975
0.606043 0.377630 0.169406
0.618830 0.376379 0.152224
0.634058 0.378332 0.139040
0.652644 0.383703 0.129366
0.683589 0.391089 0.167636
0.714504 0.401801 0.207431
0.744442 0.416236 0.248753
0.773251 0.435218 0.293370
0.800900 0.459510 0.341253
0.827665 0.489540 0.392798
0.854002 0.525689 0.447883
0.880247 0.567590 0.505974
0.907012 0.612451 0.563806
0.934661 0.658381 0.620020
0.962493 0.705043 0.674830
0.989715 0.752743 0.729335
0.000000 0.499397 0.418463
0.000000 0.500175 0.419379
0.000000 0.500664 0.420111
0.000000 0.502129 0.422156
0.000000 0.504356 0.425544
0.100649 0.507591 0.431067
0.192203 0.512352 0.439582
0.269230 0.518486 0.452003
0.346624 0.526207 0.470039
0.392828 0.526818 0.478523
0.428077 0.522942 0.484199
0.436316 0.526116 0.473274
0.419654 0.541375 0.395026
0.509453 0.540093 0.332677
0.586877 0.479530 0.272892
0.623163 0.421851 0.242924
0.631556 0.411658 0.216709
0.640986 0.405219 0.194858
0.652705 0.402655 0.177401
0.667811 0.404028 0.164309
0.686458 0.409308 0.155825
0.711940 0.417609 0.174685
0.742000 0.428595 0.218845
0.771054 0.443824 0.264927
0.799039 0.464179 0.313970
0.826169 0.490425 0.366430
0.852842 0.523278 0.422766
0.879423 0.562768 0.482734
0.906249 0.607233 0.544182
0.933959 0.653285 0.603510
0.961944 0.700496 0.661311
0.989502 0.748592 0.717983
0.000000 0.547326 0.459236
0.000000 0.548119 0.460121
0.000000 0.548241 0.460548
0.000000 0.548943 0.461982
0.000000 0.550134 0.464515
0.085145 0.552056 0.468666
0.185519 0.555383 0.475563
0.263584 0.559960 0.485847
0.339727 0.566003 0.500603
0.414466 0.572717 0.519646
0.447395 0.570611 0.524163
0.482643 0.567315 0.531609
0.475380 0.573663 0.509087
0.465980 0.584680 0.433204
0.549096 0.580499 0.369696
0.620417 0.521050 0.305211
0.658106 0.452461 0.273381
0.664698 0.440040 0.245182
0.673365 0.432319 0.222416
0.685176 0.429175 0.204868
0.700435 0.430335 0.192264
0.719173 0.435431 0.184756
0.740078 0.444068 0.185855
0.768826 0.455695 0.233158
0.797208 0.472175 0.284123
0.825071 0.494728 0.338384
0.852811 0.524651 0.397192
0.880644 0.562493 0.460670
0.908476 0.607141 0.527245
0.937011 0.654322 0.591485
0.965637 0.702907 0.653529
0.993530 0.752041 0.713527
0.000000 0.589929 0.495735
0.000000 0.590692 0.496681
0.000000 0.591058 0.497353
0.000000 0.591943 0.498939
0.000000 0.593164 0.501579
0.082521 0.595117 0.505791
0.187015 0.597955 0.512139
0.265812 0.601648 0.521294
0.341314 0.606134 0.533806
0.416754 0.611170 0.550530
0.472663 0.613367 0.563622
0.503563 0.610376 0.568414
0.534203 0.605676 0.574640
0.511498 0.612573 0.539666
0.506523 0.618952 0.467567
0.581048 0.612604 0.403510
0.649470 0.558404 0.337438
0.687892 0.480507 0.303685
0.694789 0.467628 0.275059
0.704616 0.459998 0.252506
0.717617 0.457160 0.235599
0.733700 0.458686 0.224338
0.752621 0.463844 0.218570
0.774258 0.472724 0.218997
0.798978 0.486702 0.255314
0.827451 0.505760 0.312535
0.855833 0.532280 0.373846
0.884154 0.567041 0.439857
0.912047 0.609735 0.509819
0.940124 0.655848 0.577447
0.968139 0.703395 0.641840
0.995361 0.751583 0.703426
0.000000 0.625116 0.526390
0.000000 0.625360 0.526940
0.000000 0.625483 0.527398
0.000000 0.626032 0.528771
0.000000 0.626917 0.531151
0.089906 0.628260 0.534813
0.190494 0.630243 0.540307
0.267155 0.632837 0.548089
0.339971 0.635981 0.558679
0.412329 0.639612 0.572808
0.484260 0.644038 0.590906
0.520745 0.643641 0.598291
0.548333 0.640833 0.603326
0.575128 0.636347 0.609186
0.542138 0.644587 0.564782
0.542992 0.648188 0.499794
0.610071 0.641321 0.437232
0.676661 0.593744 0.371344
0.715663 0.508293 0.335576
0.723110 0.495155 0.306645
0.733364 0.487251 0.284092
0.746548 0.484169 0.267521
0.762631 0.485481 0.257023
0.781796 0.491066 0.253117
0.803830 0.500633 0.256229
0.826780 0.516686 0.278996
0.855955 0.539178 0.342931
0.885100 0.570306 0.411780
0.913725 0.610224 0.485328
0.941985 0.655909 0.558526
0.970214 0.703456 0.627222
0.997528 0.751949 0.692500
0.000000 0.657740 0.555444
0.000000 0.658503 0.556390
0.000000 0.679377 0.575891
0.000000 0.679469 0.577081
0.000000 0.679561 0.579004
0.153262 0.679652 0.581872
0.230594 0.679927 0.586175
0.299840 0.680507 0.592401
0.368200 0.681605 0.601190
0.436194 0.683162 0.612879
0.502251 0.685359 0.627436
0.557275 0.687831 0.641962
0.580102 0.685267 0.644953
0.602808 0.681514 0.648676
0.621820 0.676936 0.651148
0.583581 0.684535 0.600702
0.589471 0.685451 0.544152
0.647974 0.678187 0.484932
0.711330 0.636561 0.418769
0.749844 0.544945 0.380102
0.757290 0.530663 0.349828
0.767697 0.521965 0.326635
0.780941 0.518425 0.310338
0.797055 0.519646 0.300908
0.815793 0.525017 0.298192
0.837461 0.535058 0.303197
0.860502 0.552178 0.326299
0.887236 0.577722 0.382757
0.915709 0.613092 0.458289
0.943877 0.656764 0.536400
0.972015 0.703426 0.609552
0.999115 0.751461 0.678492
0.000000 0.692500 0.586969
0.000000 0.695186 0.589776
0.000000 0.697841 0.592737
0.000000 0.700252 0.596033
0.075746 0.702052 0.599573
0.172335 0.702846 0.603143
0.242344 0.703182 0.607446
0.307256 0.703426 0.613062
0.371801 0.704005 0.620844
0.435615 0.704829 0.630854
0.498054 0.706203 0.643366
0.555474 0.708614 0.657740
0.592309 0.709041 0.666590
0.612940 0.706355 0.669520
0.633173 0.702449 0.672908
0.640345 0.699916 0.668696
0.604822 0.706569 0.617304
0.616022 0.706325 0.568048
0.670436 0.699733 0.514092
0.732021 0.664607 0.451423
0.771511 0.570581 0.412573
0.780392 0.557275 0.383734
0.791867 0.549218 0.361669
0.806088 0.546380 0.346929
0.822995 0.548272 0.339086
0.842985 0.555200 0.339239
0.866209 0.567498 0.348272
0.891173 0.588098 0.376013
0.917876 0.618494 0.428199
0.946319 0.659419 0.511559
0.974334 0.704891 0.590204
1.000000 0.752499 0.663752
0.000000 0.717403 0.609979
0.000000 0.719631 0.612451
0.000000 0.721889 0.615106
0.000000 0.723812 0.618097
0.126894 0.725246 0.621302
0.197330 0.725734 0.624598
0.259495 0.725795 0.628565
0.319371 0.725704 0.633661
0.379461 0.725856 0.640620
0.439765 0.726162 0.649500
0.498146 0.727077 0.660395
0.552361 0.728756 0.672816
0.602594 0.731167 0.686580
0.625299 0.729885 0.690669
0.643763 0.727047 0.693385
0.661646 0.723079 0.696407
0.659174 0.722499 0.686030
0.626917 0.728573 0.635065
0.642817 0.727687 0.592615
0.693721 0.721950 0.543877
0.753201 0.692622 0.486244
0.790555 0.605402 0.447730
0.803647 0.585595 0.420417
0.816129 0.578302 0.399817
0.831174 0.576074 0.386328
0.849210 0.579156 0.380713
0.870390 0.587915 0.384100
0.894896 0.602991 0.398108
0.921172 0.627619 0.431922
0.948119 0.663020 0.486732
0.976043 0.706355 0.566308
1.000000 0.753201 0.645441
0.000000 0.741146 0.632380
0.000000 0.743069 0.634638
0.000000 0.745052 0.637110
0.105501 0.746700 0.639918
0.169772 0.747768 0.642878
0.225925 0.748013 0.645930
0.280217 0.747799 0.649561
0.334874 0.747372 0.654200
0.390814 0.747005 0.660334
0.446784 0.746883 0.668116
0.500694 0.747280 0.677516
0.551537 0.748318 0.688228
0.599207 0.750057 0.700221
0.637964 0.751736 0.710964
0.655085 0.749935 0.713405
0.672084 0.747433 0.716335
0.689143 0.744289 0.719966
0.680049 0.746426 0.705013
0.653742 0.753109 0.657771
0.673823 0.753140 0.622461
0.722164 0.749294 0.580011
0.780179 0.726314 0.530236
0.815091 0.648280 0.493965
0.833249 0.623255 0.469551
0.847471 0.617731 0.451881
0.864439 0.617700 0.442206
0.884459 0.623713 0.441505
0.907530 0.636255 0.451514
0.933440 0.656153 0.473732
0.960143 0.686122 0.515587
0.986877 0.725399 0.573877
1.000000 0.769863 0.644465
0.104555 0.771511 0.662074
0.124025 0.772335 0.663294
0.144808 0.772946 0.664454
0.178531 0.773312 0.666072
0.219486 0.773373 0.668147
0.264103 0.773007 0.670680
0.311254 0.772457 0.673976
0.360815 0.771878 0.678431
0.412268 0.771511 0.684291
0.463905 0.771420 0.691585
0.513268 0.771847 0.700130
0.560540 0.772763 0.709743
0.605249 0.774136 0.720363
0.647089 0.776242 0.731960
0.672694 0.776608 0.738308
0.688167 0.774716 0.740658
0.703700 0.772305 0.743496
0.719417 0.769284 0.746975
0.703792 0.772885 0.726680
0.683040 0.778531 0.683284
0.703365 0.778164 0.650843
0.748135 0.774319 0.611566
0.803311 0.754757 0.565515
0.834409 0.683009 0.530663
0.855802 0.653193 0.508324
0.870817 0.648951 0.493019
0.888945 0.650874 0.486488
0.910277 0.659510 0.490364
0.934508 0.675410 0.505760
0.961028 0.698360 0.532799
0.987854 0.731167 0.578058
1.000000 0.773068 0.638941
0.175174 0.793606 0.684047
0.187289 0.794400 0.685267
0.201114 0.795071 0.686519
0.226444 0.795377 0.688136
0.259220 0.795285 0.690059
0.296757 0.794675 0.692378
0.338323 0.793851 0.695308
0.382483 0.792935 0.699214
0.429236 0.792203 0.704372
0.475624 0.791836 0.710719
0.520989 0.791958 0.718196
0.564782 0.792538 0.726619
0.606897 0.793545 0.736019
0.646693 0.795285 0.746334
0.684199 0.797940 0.757717
0.700252 0.797024 0.760525
0.715053 0.795468 0.763180
0.729976 0.793454 0.766384
0.745174 0.790921 0.770199
0.724300 0.796445 0.745235
0.709071 0.801907 0.705837
0.730556 0.801999 0.676448
0.773617 0.799008 0.641596
0.827420 0.783383 0.600061
0.851469 0.712703 0.561089
0.876066 0.679866 0.541955
0.892149 0.677852 0.530358
0.911528 0.682185 0.527825
0.933989 0.693507 0.535851
0.959136 0.712123 0.555474
0.986267 0.738491 0.587518
1.000000 0.774746 0.637690
0.247593 0.821469 0.712642
0.256870 0.822324 0.713985
0.267063 0.822721 0.715053
0.285405 0.822629 0.716304
0.310918 0.821988 0.717708
0.341711 0.820951 0.719509
0.376654 0.819608 0.721859
0.414679 0.818082 0.724880
0.454383 0.816648 0.728786
0.494514 0.815549 0.733669
0.534478 0.814725 0.739437
0.574060 0.814511 0.746304
0.612634 0.814694 0.754055
0.649226 0.815457 0.762509
0.684138 0.816770 0.771786
0.712062 0.817716 0.779446
0.725154 0.815824 0.780911
0.738735 0.813809 0.783169
0.752926 0.811795 0.786343
0.763394 0.810605 0.787808
0.742184 0.817044 0.761044
0.731685 0.822293 0.725216
0.753536 0.822477 0.697688
0.794705 0.819486 0.665034
0.846494 0.806058 0.626246
0.871489 0.744106 0.594232
0.898863 0.709224 0.578210
0.915709 0.709255 0.570001
0.935943 0.715938 0.571374
0.959350 0.730190 0.583948
0.985016 0.752132 0.608759
1.000000 0.781552 0.645960
0.292943 0.842405 0.734310
0.300694 0.843168 0.735622
0.309545 0.843565 0.736690
0.325017 0.843442 0.737819
0.346929 0.842802 0.739223
0.374029 0.841764 0.740963
0.405066 0.840513 0.743221
0.438605 0.839200 0.746090
0.474159 0.838010 0.749783
0.510796 0.837095 0.754330
0.547662 0.836423 0.759701
0.584863 0.836240 0.766049
0.620783 0.836484 0.773129
0.655329 0.837095 0.780789
0.688716 0.838132 0.789151
0.721340 0.839811 0.798520
0.741024 0.839750 0.803159
0.753933 0.838254 0.805173
0.767361 0.836698 0.807919
0.781186 0.835050 0.811460
0.785306 0.835447 0.809140
0.765591 0.841886 0.782071
0.758846 0.846555 0.749355
0.780575 0.846799 0.723507
0.819974 0.844205 0.693263
0.870542 0.833463 0.658076
0.893187 0.776028 0.628656
0.923095 0.740383 0.616175
0.941497 0.743771 0.613123
0.963165 0.754238 0.620233
0.987182 0.772183 0.638727
1.000000 0.797421 0.669184
0.342290 0.865476 0.758755
0.348577 0.865934 0.759762
0.355169 0.866026 0.760433
0.367803 0.865568 0.761257
0.385595 0.864652 0.762203
0.408026 0.863432 0.763546
0.434180 0.862028 0.765286
0.463264 0.860624 0.767697
0.494789 0.859342 0.770871
0.527764 0.858396 0.774929
0.561883 0.857664 0.779751
0.596094 0.857450 0.785489
0.629541 0.857542 0.791806
0.662135 0.857908 0.798672
0.693812 0.858518 0.806058
0.725002 0.859556 0.814267
0.755917 0.861234 0.823575
0.768215 0.859953 0.825284
0.780697 0.858640 0.827543
0.793576 0.857298 0.830472
0.806577 0.855711 0.833951
0.805020 0.857511 0.827909
0.786801 0.863890 0.800809
0.783536 0.868132 0.771389
0.804929 0.868528 0.746822
0.842771 0.866361 0.718441
0.892485 0.857847 0.685939
0.913329 0.804440 0.658869
0.944823 0.768338 0.649866
0.964416 0.774868 0.651545
0.986664 0.788510 0.663630
1.000000 0.809445 0.687373
0.385016 0.886717 0.781491
0.389776 0.886961 0.782193
0.395361 0.886992 0.782803
0.405798 0.886687 0.783597
0.421729 0.886076 0.784787
0.441901 0.885466 0.786557
0.466407 0.885069 0.789181
0.494026 0.884855 0.792599
0.524224 0.884855 0.796841
0.556023 0.885130 0.801877
0.588342 0.885618 0.807523
0.620417 0.886320 0.813657
0.652064 0.887114 0.820157
0.683070 0.887785 0.826902
0.713466 0.888426 0.833921
0.743252 0.889036 0.841276
0.772671 0.890043 0.849424
0.795651 0.890684 0.855894
0.807004 0.889464 0.857664
0.818570 0.888182 0.859922
0.830198 0.886717 0.862577
0.841703 0.884916 0.865537
0.835325 0.887816 0.856260
0.818967 0.894041 0.830228
0.818906 0.897917 0.804807
0.839628 0.898741 0.782132
0.875639 0.897429 0.755947
0.923308 0.890745 0.726284
0.942657 0.842191 0.702113
0.974029 0.806790 0.696620
0.993957 0.816831 0.704097
1.000000 0.833890 0.722621
0.458564 0.915465 0.814786
0.459358 0.915709 0.815061
0.459724 0.915679 0.815030
0.460761 0.915435 0.814908
0.472999 0.914611 0.815640
0.488960 0.913634 0.816770
0.508568 0.912657 0.818509
0.531212 0.911742 0.820798
0.556268 0.910979 0.823819
0.582971 0.910369 0.827390
0.610437 0.909880 0.831449
0.638514 0.909575 0.836057
0.666835 0.909331 0.841093
0.695247 0.909117 0.846464
