data/fiter_cube/60169440/1023145/file.cube
# Created by Adobe Lightroom plugin Export LUT (1.17.0)
# www.johnrellis.com/lightroom/exportlut.htm
# Preset: 海滩旅拍低饱和胶片_03 云集
# Color profile: C:\Program Files (x86)\Common Files\Adobe\Color\Profiles\Recommended\AdobeRGB1998.icc
LUT_3D_SIZE 5
DOMAIN_MIN 0.000000 0.000000 0.000000
DOMAIN_MAX 0.903226 0.903226 0.903226
0.000000 0.000000 0.000000
0.191989 0.088289 0.092592
0.429541 0.172305 0.176455
0.698299 0.335058 0.337163
0.893248 0.621546 0.626154
0.000000 0.218296 0.183536
0.209018 0.222171 0.127108
0.434211 0.218296 0.118868
0.695460 0.339330 0.291417
0.903990 0.627131 0.618585
0.000000 0.547326 0.459236
0.263584 0.559960 0.485847
0.549096 0.580499 0.369696
0.719173 0.435431 0.184756
0.908476 0.607141 0.527245
0.104555 0.771511 0.662074
0.360815 0.771878 0.678431
0.672694 0.776608 0.738308
0.748135 0.774319 0.611566
0.934508 0.675410 0.505760
0.509880 0.936126 0.839109
0.560143 0.933776 0.843809
0.724056 0.921477 0.862333
0.864958 0.922301 0.898375
0.922026 0.936614 0.803861
0.033631 0.073060 0.174044
0.276982 0.000000 0.175692
0.426184 0.195895 0.191165
0.671534 0.313542 0.292454
0.877928 0.595239 0.597253
0.000000 0.219577 0.222354
0.250126 0.259892 0.249119
0.450080 0.251682 0.202365
0.674678 0.329015 0.258213
0.882933 0.592370 0.580499
0.000000 0.538689 0.460670
0.252903 0.554681 0.488045
0.541314 0.570123 0.429633
0.691493 0.434028 0.237827
0.902220 0.596948 0.513542
0.088258 0.768917 0.664088
0.356878 0.769558 0.679988
0.674311 0.776730 0.740627
0.750973 0.775235 0.639979
0.927764 0.683589 0.530480
0.485573 0.936950 0.838529
0.542931 0.934264 0.843351
0.725429 0.929595 0.870085
0.871824 0.928252 0.905028
0.926177 0.940032 0.817777
0.000000 0.144900 0.424689
0.298253 0.111116 0.459846
0.647181 0.000000 0.414405
0.668513 0.413336 0.442084
0.883787 0.604089 0.605798
0.110475 0.301244 0.414862
0.261357 0.299229 0.465736
0.621576 0.307500 0.447303
0.671168 0.428351 0.442512
0.889311 0.604028 0.594751
0.000000 0.505241 0.511833
0.222660 0.525139 0.523491
0.590295 0.604395 0.588800
0.695430 0.502098 0.454353
0.897459 0.623072 0.576287
0.000000 0.760311 0.674372
0.241062 0.760525 0.676875
0.619867 0.768368 0.726711
0.765469 0.784909 0.709071
0.913054 0.700710 0.582147
0.380407 0.937346 0.835538
0.472541 0.936187 0.842832
0.667109 0.932555 0.864897
0.872038 0.933013 0.909880
0.926818 0.939086 0.840024
0.116548 0.255375 0.655848
0.305791 0.248753 0.671534
0.639796 0.190463 0.704250
0.848508 0.316381 0.592676
0.911223 0.638392 0.689418
0.219272 0.390631 0.645838
0.296239 0.363256 0.665156
0.624781 0.366949 0.711147
0.829740 0.424628 0.614679
0.897551 0.652918 0.693446
0.172457 0.532555 0.648005
0.294255 0.538445 0.648585
0.565362 0.588098 0.690639
0.780972 0.610498 0.670069
0.874174 0.705562 0.718776
0.153079 0.710292 0.720546
0.291752 0.712886 0.719295
0.543328 0.733577 0.728359
0.785611 0.796048 0.784512
0.903227 0.734737 0.700130
0.325170 0.933410 0.866911
0.402350 0.933745 0.867124
0.574640 0.939147 0.871183
0.808713 0.939147 0.902037
0.935668 0.945220 0.884123
0.375830 0.455116 0.849943
0.438788 0.449012 0.853544
0.629267 0.426459 0.869902
0.883696 0.348058 0.858762
1.000000 0.520104 0.756832
0.407233 0.522240 0.842557
0.448859 0.510399 0.847074
0.624750 0.500572 0.864439
0.872648 0.445655 0.864714
0.999420 0.560235 0.768093
0.398474 0.634546 0.822171
0.445075 0.632532 0.823423
0.593225 0.629969 0.848295
0.832029 0.630976 0.875731
0.985779 0.665309 0.804746
0.424872 0.770230 0.868711
0.458930 0.768063 0.865263
0.561089 0.761807 0.856077
0.746426 0.766629 0.871000
0.965911 0.802396 0.862028
0.467292 0.910643 0.925811
0.495918 0.910948 0.924743
0.590448 0.915343 0.924132
0.736782 0.923369 0.922545
0.953948 0.959045 0.953246
