data/fiter_cube/60169440/1023145/file.cube
# Created by Adobe Lightroom plugin Export LUT (1.17.0)
# www.johnrellis.com/lightroom/exportlut.htm
# Preset: 海滩旅拍低饱和胶片_03 云集
# Color profile: C:\Program Files (x86)\Common Files\Adobe\Color\Profiles\Recommended\AdobeRGB1998.icc
LUT_3D_SIZE 8
DOMAIN_MIN 0.000000 0.000000 0.000000
DOMAIN_MAX 0.903226 0.903226 0.903226
0.000000 0.000000 0.000000
0.102876 0.062409 0.064088
0.223697 0.097749 0.102571
0.359289 0.144015 0.149477
0.499855 0.203616 0.206577
0.663539 0.303349 0.305211
0.784817 0.444038 0.447211
0.893248 0.621546 0.626154
0.019196 0.106508 0.092348
0.102144 0.106966 0.072786
0.226291 0.118074 0.079683
0.354162 0.155062 0.128420
0.490669 0.207492 0.187442
0.645624 0.291722 0.278111
0.771359 0.420844 0.415808
0.884581 0.604639 0.605615
0.000000 0.259281 0.217472
0.105318 0.267460 0.229099
0.249638 0.265446 0.151583
0.382025 0.226566 0.077058
0.513909 0.259190 0.141329
0.657923 0.319219 0.241428
0.792050 0.442908 0.404852
0.902007 0.620600 0.606867
0.000000 0.445045 0.372625
0.000000 0.453468 0.382757
0.338293 0.477913 0.430030
0.464057 0.492897 0.295781
0.606043 0.377630 0.169406
0.683589 0.391089 0.167636
0.800900 0.459510 0.341253
0.907012 0.612451 0.563806
0.000000 0.625116 0.526390
0.000000 0.626917 0.531151
0.339971 0.635981 0.558679
0.548333 0.640833 0.603326
0.610071 0.641321 0.437232
0.733364 0.487251 0.284092
0.803830 0.500633 0.256229
0.913725 0.610224 0.485328
0.000000 0.741146 0.632380
0.169772 0.747768 0.642878
0.390814 0.747005 0.660334
0.599207 0.750057 0.700221
0.689143 0.744289 0.719966
0.722164 0.749294 0.580011
0.847471 0.617731 0.451881
0.933440 0.656153 0.473732
0.292943 0.842405 0.734310
0.346929 0.842802 0.739223
0.474159 0.838010 0.749783
0.620783 0.836484 0.773129
0.741024 0.839750 0.803159
0.785306 0.835447 0.809140
0.819974 0.844205 0.693263
0.941497 0.743771 0.613123
0.509880 0.936126 0.839109
0.511955 0.935882 0.839017
0.582513 0.933135 0.846586
0.684932 0.931853 0.862943
0.779721 0.922026 0.875486
0.854490 0.923156 0.895811
0.872160 0.925597 0.889494
0.922026 0.936614 0.803861
0.030243 0.044007 0.093141
0.131899 0.015167 0.088777
0.220127 0.107576 0.105715
0.349065 0.150149 0.130404
0.485725 0.203555 0.188083
0.635767 0.283726 0.273960
0.763333 0.410742 0.409277
0.876066 0.593652 0.597253
0.015381 0.109590 0.111574
0.120272 0.124056 0.119783
0.233402 0.136873 0.113924
0.351598 0.164675 0.117311
0.486427 0.212589 0.175021
0.629084 0.282902 0.257816
0.753902 0.396460 0.386206
0.867094 0.576196 0.575921
0.000000 0.259159 0.222171
0.118044 0.270115 0.237003
0.259556 0.275914 0.196719
0.380133 0.235813 0.121920
0.498909 0.257572 0.131258
0.636469 0.308782 0.221195
0.765194 0.408911 0.363195
0.880827 0.586633 0.570764
0.000000 0.436835 0.369512
0.000000 0.446326 0.380987
0.341650 0.472999 0.429603
0.444678 0.471962 0.310033
0.569238 0.362097 0.187747
0.648280 0.371130 0.161776
0.771237 0.429694 0.301274
0.886290 0.579187 0.525902
0.000000 0.619104 0.524346
0.000000 0.619715 0.527703
0.329870 0.626551 0.551293
0.536950 0.628687 0.592035
0.595087 0.625727 0.438178
0.715846 0.480598 0.292363
0.786740 0.491188 0.256138
0.900938 0.591180 0.459968
0.000000 0.732357 0.625971
0.138460 0.733059 0.630213
0.367651 0.733883 0.647272
0.582361 0.739284 0.688411
0.683223 0.738369 0.714199
0.719203 0.745754 0.585718
0.840116 0.617151 0.458839
0.923735 0.648157 0.467048
0.261814 0.831418 0.723262
0.311559 0.828977 0.724758
0.449989 0.826078 0.736965
0.606500 0.827543 0.763546
0.735592 0.834409 0.798154
0.782773 0.829831 0.806058
0.812100 0.836240 0.688716
0.931121 0.734310 0.604273
0.488899 0.930480 0.831998
0.493385 0.931212 0.833005
0.570031 0.928893 0.841489
0.675776 0.928283 0.858579
0.785122 0.927428 0.881224
0.857725 0.925750 0.898772
0.872831 0.924376 0.890196
0.919005 0.933593 0.801938
0.021881 0.081117 0.209598
0.143618 0.061158 0.218967
0.333196 0.000000 0.210422
0.371466 0.204135 0.223575
0.503532 0.232212 0.226932
0.648554 0.297948 0.267704
0.774868 0.424201 0.413611
0.886381 0.608026 0.609674
0.073182 0.159060 0.215061
0.134585 0.152743 0.233402
0.315862 0.144625 0.221744
0.376898 0.218814 0.227512
0.503685 0.244724 0.228367
0.641657 0.299565 0.257603
0.768460 0.413825 0.394446
0.882200 0.598383 0.596307
0.000000 0.259434 0.262455
0.115541 0.270787 0.269444
0.298985 0.310735 0.297795
0.413306 0.282811 0.245792
0.526604 0.295018 0.238132
0.648737 0.331975 0.257267
0.772763 0.418311 0.363775
0.885344 0.592767 0.575402
0.000000 0.449683 0.393835
0.000000 0.463081 0.404334
0.322393 0.488655 0.444984
0.476570 0.502403 0.405341
0.577539 0.396246 0.274479
0.662470 0.395209 0.257725
0.781521 0.446296 0.322850
0.894896 0.592584 0.539696
0.000000 0.618524 0.530205
0.000000 0.622400 0.536614
0.324956 0.632532 0.561913
0.562554 0.646387 0.614954
0.617182 0.644160 0.514824
0.715908 0.509178 0.365454
0.783688 0.506493 0.309392
0.905730 0.598199 0.469276
0.000000 0.732937 0.630793
0.120333 0.733852 0.635431
0.363439 0.734218 0.651453
0.569390 0.737758 0.686519
0.688502 0.742428 0.719448
0.722225 0.746609 0.617395
0.831449 0.632929 0.501549
0.921691 0.663111 0.502525
0.251255 0.835142 0.729335
0.306859 0.833310 0.731533
0.443214 0.828763 0.741146
0.596033 0.827512 0.763302
0.733944 0.834775 0.799130
0.795193 0.833799 0.816312
0.819944 0.842710 0.712886
0.935668 0.754574 0.639490
0.465309 0.932708 0.832975
0.466773 0.931792 0.832151
0.548425 0.928222 0.839322
0.662989 0.929351 0.858274
0.774899 0.927733 0.879667
0.860655 0.928618 0.902251
0.882902 0.926696 0.899748
0.923369 0.937163 0.816098
0.000000 0.119051 0.349523
0.149477 0.111727 0.363195
0.345922 0.000000 0.382879
0.552575 0.000000 0.349371
0.563348 0.258122 0.325414
0.640467 0.348852 0.366979
0.765011 0.430091 0.426764
0.881285 0.600427 0.602472
0.092958 0.209293 0.360479
0.138918 0.186648 0.373724
0.346715 0.157473 0.402106
0.543267 0.142367 0.358251
0.552361 0.295476 0.341619
0.639155 0.353857 0.365942
0.761715 0.429175 0.421027
0.880186 0.595941 0.594781
0.061067 0.301335 0.368780
0.145998 0.308019 0.374823
0.308354 0.329992 0.412696
0.510094 0.340093 0.399023
0.545983 0.373816 0.382635
0.654200 0.389929 0.379370
0.777493 0.462837 0.438056
0.893767 0.607263 0.592462
0.000000 0.430823 0.436225
0.021607 0.437903 0.440558
0.288121 0.469703 0.461097
0.511437 0.527489 0.509728
0.581872 0.447974 0.404791
0.664088 0.437018 0.382605
0.774166 0.480934 0.421057
0.899382 0.600855 0.552544
0.000000 0.614710 0.556939
0.000000 0.618372 0.558251
0.265568 0.633875 0.569482
0.544884 0.652827 0.620630
0.640650 0.662074 0.595941
0.708583 0.547265 0.453895
0.785245 0.537591 0.419989
0.905699 0.625208 0.535546
0.000000 0.739162 0.643915
0.000000 0.744320 0.651911
0.334478 0.742733 0.663661
0.553857 0.745480 0.694209
0.705348 0.758663 0.737545
0.738369 0.759243 0.671046
0.825406 0.660822 0.562341
0.918120 0.680995 0.544671
0.185855 0.837400 0.734401
0.259831 0.837461 0.737942
0.418402 0.835966 0.749538
0.578943 0.835843 0.770596
0.722774 0.841917 0.803220
0.807736 0.847379 0.830014
0.829374 0.850217 0.745022
0.934661 0.771603 0.672999
0.424323 0.940520 0.839475
0.449317 0.940154 0.841550
0.524865 0.937133 0.847105
0.633234 0.933654 0.859037
0.754482 0.930785 0.878782
0.863951 0.933440 0.907744
0.898466 0.929686 0.913634
0.928313 0.941039 0.835172
0.000000 0.172580 0.496315
0.154299 0.169009 0.506584
0.350164 0.137575 0.537194
0.547784 0.000000 0.525933
0.720821 0.125307 0.471901
0.718532 0.352911 0.450294
0.751003 0.516960 0.542382
0.880186 0.628138 0.638544
0.054719 0.237675 0.499153
0.144625 0.226444 0.510765
0.341283 0.211582 0.540978
0.556725 0.146670 0.545769
0.713130 0.213474 0.479957
0.711086 0.378729 0.460090
0.751888 0.519249 0.542168
0.880400 0.628077 0.636652
0.126528 0.345830 0.476844
0.183169 0.351293 0.485145
0.310765 0.351965 0.538567
0.544457 0.352178 0.575128
0.684718 0.374273 0.508568
0.679438 0.445624 0.486366
0.751186 0.521538 0.535393
0.878202 0.622797 0.624323
0.000000 0.452155 0.524834
0.141146 0.455970 0.527306
0.304448 0.475227 0.540093
0.510491 0.528496 0.582605
0.642542 0.536431 0.564141
0.663844 0.522759 0.528252
0.760220 0.539666 0.533959
0.887266 0.630091 0.616297
0.000000 0.572625 0.580163
0.000000 0.577020 0.582666
0.281102 0.592462 0.590967
0.488136 0.632532 0.619196
0.654414 0.666987 0.653071
0.689143 0.577752 0.540734
0.771267 0.570550 0.526268
0.894560 0.646876 0.603418
0.000000 0.715419 0.663874
0.000000 0.717250 0.664668
0.265293 0.721492 0.666468
0.476753 0.730922 0.678645
0.667323 0.745174 0.720912
0.743313 0.760830 0.709743
0.808011 0.672450 0.599969
0.910124 0.694209 0.600702
0.000000 0.832090 0.743709
0.159762 0.831693 0.743374
0.334539 0.831449 0.746334
0.519646 0.830686 0.763546
0.675044 0.836362 0.791653
0.806485 0.851225 0.833219
0.833555 0.852201 0.773709
0.926543 0.778988 0.694942
0.340246 0.938567 0.837217
0.371954 0.937316 0.838285
0.461311 0.934081 0.842832
0.583551 0.936065 0.858030
0.703822 0.933104 0.873075
0.838407 0.933440 0.901762
0.904906 0.933257 0.920623
0.929503 0.941009 0.851530
0.094118 0.240940 0.633356
0.184268 0.239109 0.638575
0.348180 0.226566 0.654200
0.556909 0.193606 0.688106
0.724758 0.147311 0.643305
0.827359 0.288121 0.571740
0.839963 0.484291 0.585657
0.899809 0.652674 0.690364
0.088716 0.278569 0.626337
0.177249 0.277226 0.631189
0.340368 0.271550 0.649897
0.546654 0.254276 0.684352
0.716915 0.220127 0.644770
0.819333 0.326635 0.576562
0.833219 0.496010 0.588708
0.894499 0.657191 0.691768
0.200351 0.403326 0.614527
0.242924 0.404944 0.623072
0.332250 0.387549 0.648127
0.526604 0.400427 0.682368
0.705959 0.385840 0.666560
0.802457 0.443366 0.605249
0.818296 0.542992 0.608484
0.883268 0.681300 0.705592
0.174166 0.487404 0.620447
0.217197 0.488258 0.619654
0.333593 0.497902 0.622431
0.508385 0.536736 0.672511
0.695674 0.563226 0.705501
0.780941 0.573571 0.651240
0.796109 0.608728 0.640620
0.883940 0.701442 0.714992
0.134707 0.581872 0.652491
0.191928 0.584131 0.653193
0.322026 0.593256 0.656153
0.481056 0.615106 0.664790
0.647303 0.660609 0.696132
0.739559 0.662226 0.680415
0.766903 0.647974 0.653529
0.888060 0.697505 0.695888
0.080232 0.680995 0.690700
0.168704 0.684443 0.692836
0.313725 0.691371 0.695186
0.473945 0.705165 0.701656
0.622950 0.735927 0.724086
0.761349 0.772030 0.760159
0.791165 0.688746 0.657191
0.905913 0.721675 0.685756
0.145480 0.817075 0.773526
0.210483 0.820279 0.776242
0.342107 0.824979 0.779721
0.486305 0.828519 0.782406
0.621180 0.837491 0.791104
0.778439 0.851652 0.828855
0.847105 0.862455 0.816129
0.925078 0.793912 0.726192
0.324651 0.935851 0.860014
0.348821 0.935241 0.859434
0.421363 0.934569 0.858732
0.521599 0.937316 0.861234
0.647211 0.936370 0.872374
0.784115 0.935821 0.893523
0.907164 0.941375 0.927459
0.934752 0.944701 0.877470
0.213504 0.324590 0.739895
0.258518 0.325048 0.743801
0.374273 0.320409 0.753140
0.532982 0.309300 0.771633
0.709071 0.272953 0.777584
0.841733 0.284031 0.720027
0.917754 0.410559 0.664485
0.952361 0.601801 0.708156
0.214633 0.350500 0.733883
0.257725 0.351019 0.737636
0.370275 0.348333 0.747524
0.525414 0.340917 0.765530
0.701106 0.314458 0.774685
0.833890 0.317723 0.719814
0.909880 0.426093 0.664637
0.944976 0.600946 0.703853
0.302739 0.461433 0.726711
0.321019 0.456977 0.730617
0.373724 0.435065 0.741634
0.518914 0.441657 0.760555
0.692226 0.443397 0.780789
0.823911 0.435676 0.736904
0.901366 0.504021 0.687709
0.942199 0.635218 0.720821
0.267460 0.527672 0.708736
0.290898 0.526696 0.706569
0.387671 0.536187 0.719722
0.510185 0.547173 0.749203
0.672450 0.572625 0.781735
0.809964 0.566064 0.764828
0.888731 0.596765 0.719844
0.933623 0.679591 0.741299
0.259586 0.607141 0.731167
0.284733 0.606714 0.729549
0.362097 0.607996 0.726101
0.471473 0.614008 0.722744
0.622126 0.644862 0.758541
0.786831 0.669215 0.791012
0.864897 0.673793 0.744381
0.913451 0.725307 0.759762
0.260624 0.695552 0.761990
0.288182 0.696315 0.761593
0.369299 0.699153 0.760403
0.478187 0.705348 0.759579
0.594537 0.715145 0.760220
0.740932 0.753170 0.789395
0.838407 0.757992 0.778225
0.891722 0.775723 0.783352
0.277775 0.788327 0.800778
0.306157 0.789639 0.801297
0.384375 0.792233 0.801022
0.486427 0.797513 0.801694
0.598413 0.805753 0.803616
0.721767 0.830961 0.820859
0.860410 0.869383 0.859464
0.912932 0.802548 0.772732
0.336736 0.909667 0.875151
0.357946 0.911040 0.876127
0.425391 0.917876 0.881529
0.512413 0.927672 0.888762
0.613428 0.933867 0.892027
0.725246 0.940856 0.895933
0.876127 0.944549 0.923552
0.942596 0.950774 0.911406
0.375830 0.455116 0.849943
0.396429 0.454505 0.851682
0.458625 0.446723 0.854765
0.563470 0.435279 0.863584
0.703731 0.414221 0.877440
0.850248 0.363073 0.868101
0.949798 0.409186 0.801846
1.000000 0.520104 0.756832
0.379156 0.472389 0.846220
0.398993 0.471992 0.848020
0.459846 0.465797 0.851774
0.561486 0.455604 0.860288
0.699397 0.438849 0.874571
0.844663 0.393103 0.867063
0.945434 0.427985 0.803159
1.000000 0.529229 0.758206
0.425422 0.546136 0.839048
0.428717 0.538140 0.841001
0.465553 0.523369 0.844877
0.563256 0.523095 0.856352
0.691157 0.515892 0.870695
0.831724 0.484840 0.869169
0.936980 0.495613 0.814633
0.997009 0.571008 0.770932
0.413581 0.605707 0.826963
0.434363 0.608087 0.829252
0.498329 0.614282 0.835264
0.554864 0.597375 0.848508
0.673487 0.600793 0.864958
0.814817 0.593744 0.877104
0.925841 0.584466 0.835477
0.990417 0.632288 0.792630
0.401892 0.669734 0.832547
0.415961 0.670130 0.832212
0.454414 0.666651 0.827634
0.524254 0.662928 0.828855
0.634363 0.665888 0.852140
0.781674 0.681788 0.879545
0.908507 0.669947 0.859495
0.981567 0.702693 0.819791
0.413916 0.746670 0.858305
0.424262 0.745632 0.856870
0.459876 0.742916 0.852903
0.517296 0.738613 0.847227
0.592187 0.731472 0.838895
0.721340 0.743771 0.865446
0.891844 0.770169 0.895964
0.970764 0.783780 0.854643
0.442695 0.832212 0.893462
0.452552 0.831998 0.892821
0.485756 0.831540 0.890990
0.542046 0.831968 0.889067
0.614893 0.832181 0.886229
0.700649 0.829770 0.880308
0.832761 0.845457 0.892180
0.947845 0.860716 0.885893
0.467292 0.910643 0.925811
0.475563 0.910582 0.925322
0.505791 0.911284 0.924590
0.558007 0.913725 0.924346
0.626429 0.917082 0.923674
0.711849 0.921752 0.922637
0.824033 0.932067 0.925383
0.953948 0.959045 0.953246
