data/fiter_cube/44540723/1023238/file.cube
# Created by Adobe Lightroom plugin Export LUT (1.17.0)
# www.johnrellis.com/lightroom/exportlut.htm
# Preset: 奶油色调低饱和（弱光环境）_09 云集
# Color profile: C:\Program Files (x86)\Common Files\Adobe\Color\Profiles\Recommended\AdobeRGB1998.icc
LUT_3D_SIZE 8
DOMAIN_MIN 0.000000 0.000000 0.000000
DOMAIN_MAX 0.903226 0.903226 0.903226
0.074922 0.071351 0.069123
0.114321 0.078157 0.075746
0.320867 0.002869 0.078614
0.603082 0.000000 0.092714
0.760952 0.153719 0.183505
0.847959 0.355688 0.320928
0.899229 0.489570 0.448280
0.933227 0.590631 0.554284
0.089540 0.111177 0.081056
0.112459 0.115267 0.085298
0.327459 0.149905 0.070405
0.594263 0.130007 0.090333
0.752224 0.234104 0.182895
0.839933 0.376013 0.312352
0.893156 0.492164 0.436255
0.930236 0.591028 0.546471
0.125856 0.336797 0.111818
0.169100 0.321263 0.134951
0.300877 0.338354 0.149386
0.603601 0.405249 0.132052
0.762417 0.432563 0.218173
0.842313 0.489601 0.347692
0.896818 0.566522 0.472572
0.931640 0.636591 0.571527
0.301823 0.572625 0.268589
0.332616 0.561028 0.280339
0.410193 0.529686 0.323156
0.577691 0.571923 0.351019
0.754330 0.616632 0.379278
0.848753 0.623590 0.410498
0.894408 0.645258 0.502129
0.928344 0.683406 0.586297
0.510521 0.701076 0.442451
0.523919 0.695857 0.447578
0.565484 0.680751 0.468605
0.624659 0.671199 0.495857
0.708217 0.682033 0.499428
0.802731 0.700313 0.517510
0.877592 0.716884 0.549218
0.924346 0.736477 0.605035
0.637842 0.764797 0.564813
0.651575 0.765866 0.575036
0.670588 0.757595 0.583856
0.696834 0.744442 0.599542
0.732448 0.741604 0.606683
0.784512 0.749477 0.611566
0.850553 0.769741 0.635920
0.908537 0.790707 0.667689
0.733364 0.814603 0.661860
0.737697 0.813993 0.664515
0.746151 0.808743 0.667536
0.761074 0.801205 0.675349
0.776150 0.790585 0.684779
0.805844 0.795834 0.688441
0.842283 0.803220 0.693904
0.888579 0.819730 0.714321
0.799771 0.854734 0.732509
0.801389 0.854002 0.733181
0.807828 0.851957 0.736721
0.819821 0.849485 0.744839
0.825986 0.840513 0.745418
0.842863 0.839353 0.756466
0.867277 0.846525 0.764065
0.892546 0.852598 0.770047
0.075563 0.080354 0.106294
0.114778 0.073854 0.117494
0.295964 0.045991 0.146242
0.576196 0.048463 0.207736
0.739498 0.227665 0.279637
0.828702 0.375494 0.373205
0.884977 0.490272 0.468910
0.924773 0.586419 0.560540
0.080781 0.123232 0.113252
0.123659 0.130220 0.131594
0.319799 0.154360 0.161196
0.579858 0.184329 0.209934
0.737606 0.283238 0.280552
0.825284 0.398749 0.370886
0.880522 0.495521 0.460853
0.921660 0.585870 0.552117
0.088808 0.350530 0.130739
0.194858 0.346990 0.208133
0.317937 0.349798 0.229953
0.600366 0.408881 0.229068
0.745693 0.439918 0.301091
0.826261 0.491371 0.390661
0.881895 0.556085 0.481270
0.922789 0.626795 0.570916
0.296422 0.570977 0.294377
0.354253 0.562127 0.329900
0.431769 0.536553 0.365301
0.560693 0.556451 0.377783
0.731319 0.596582 0.391363
0.828153 0.606195 0.423377
0.880064 0.630579 0.502159
0.920165 0.673304 0.583398
0.521599 0.700587 0.468696
0.533135 0.694697 0.471778
0.569299 0.678096 0.485939
0.616724 0.661311 0.504509
0.695674 0.670802 0.503593
0.793515 0.692164 0.521813
0.871031 0.710719 0.553033
0.918822 0.731533 0.607965
0.637629 0.761257 0.572045
0.644190 0.759060 0.574792
0.663600 0.751064 0.583215
0.691737 0.739132 0.599451
0.728267 0.736873 0.609918
0.781796 0.746975 0.617762
0.847654 0.767422 0.639826
0.905577 0.787381 0.667689
0.727504 0.810025 0.659358
0.729122 0.808011 0.659083
0.739040 0.803372 0.663203
0.756435 0.797208 0.673243
0.773526 0.787869 0.684291
0.802029 0.792172 0.687800
0.837339 0.798550 0.691005
0.884154 0.814908 0.709499
0.796536 0.852567 0.730831
0.798886 0.852201 0.732265
0.805753 0.850401 0.736110
0.818143 0.848081 0.744442
0.831052 0.843809 0.753231
0.844846 0.840543 0.761074
0.866514 0.845670 0.764920
0.890745 0.850828 0.768917
0.000000 0.105135 0.327886
0.000000 0.086000 0.348730
0.328344 0.000000 0.361425
0.558068 0.170321 0.379950
0.724788 0.307683 0.434638
0.814817 0.460639 0.513146
0.873503 0.552270 0.572107
0.916625 0.626642 0.629511
0.064851 0.225681 0.334203
0.075441 0.188571 0.354437
0.338964 0.136904 0.370123
0.561242 0.253452 0.391638
0.723507 0.357061 0.443702
0.811185 0.476936 0.512657
0.870726 0.555962 0.566705
0.915099 0.628901 0.626032
0.000000 0.406409 0.356207
0.169650 0.407050 0.369451
0.374701 0.394354 0.395941
0.590112 0.430091 0.428138
0.735409 0.487251 0.476905
0.813962 0.540276 0.523522
0.870756 0.595087 0.573968
0.914244 0.652888 0.630426
0.229129 0.612299 0.344335
0.314885 0.605585 0.377813
0.502800 0.581476 0.478340
0.591638 0.578943 0.493843
0.742916 0.616114 0.508354
0.818723 0.628565 0.542443
0.872190 0.656214 0.589624
0.914000 0.693660 0.641505
0.483619 0.717861 0.474586
0.524712 0.711940 0.501305
0.609644 0.694850 0.558556
0.647822 0.674220 0.574029
0.710445 0.682643 0.574762
0.797574 0.702815 0.586572
0.869871 0.720699 0.609644
0.913390 0.740688 0.654139
0.632258 0.769497 0.585412
0.650355 0.766384 0.599664
0.686549 0.756710 0.626062
0.708553 0.744320 0.634333
0.734951 0.736843 0.641840
0.781949 0.746761 0.646784
0.846830 0.768948 0.665126
0.905699 0.790768 0.690944
0.731716 0.815610 0.673762
0.738613 0.813504 0.679469
0.751644 0.807797 0.687343
0.765133 0.800473 0.692226
0.779934 0.790738 0.699397
0.805142 0.793088 0.704463
0.840635 0.801663 0.710201
0.888029 0.820188 0.729366
0.798978 0.854734 0.739773
0.802426 0.853513 0.742672
0.808713 0.851164 0.745663
0.821958 0.849699 0.754452
0.833890 0.845121 0.761410
0.846921 0.840970 0.769986
0.868223 0.846738 0.774197
0.892454 0.852598 0.778805
0.000000 0.174594 0.559106
0.000000 0.155184 0.567834
0.275944 0.013977 0.579950
0.581750 0.000000 0.568109
0.702663 0.354070 0.557031
0.795895 0.475196 0.589441
0.857450 0.565026 0.629053
0.905028 0.637659 0.673335
0.060090 0.334539 0.566155
0.000000 0.290227 0.572442
0.311162 0.202579 0.582238
0.586664 0.183749 0.571557
0.702968 0.406470 0.564996
0.794156 0.497108 0.593286
0.855406 0.575952 0.630793
0.903929 0.644160 0.674678
0.351873 0.517113 0.560906
0.407172 0.518853 0.562097
0.429236 0.467628 0.576043
0.595392 0.418067 0.577813
0.713558 0.515099 0.588830
0.798184 0.573571 0.618463
0.859586 0.632105 0.656855
0.905608 0.677760 0.690028
0.340002 0.637263 0.573571
0.393408 0.633417 0.577386
0.513695 0.621210 0.588037
0.621149 0.601068 0.596216
0.728756 0.619745 0.613855
0.799863 0.644678 0.635798
0.858244 0.674403 0.662654
0.905760 0.707607 0.693751
0.473304 0.743069 0.546227
0.506493 0.737148 0.557031
0.592737 0.721248 0.590936
0.687495 0.699733 0.644068
0.725338 0.694057 0.646876
0.804654 0.715511 0.656611
0.864134 0.730251 0.675929
0.907469 0.748592 0.702449
0.618219 0.787350 0.607111
0.640925 0.786740 0.621820
0.686976 0.775662 0.650538
0.738033 0.761135 0.685512
0.754269 0.745876 0.689540
0.790341 0.753933 0.690517
0.851377 0.775509 0.702205
0.906920 0.794369 0.720943
0.718288 0.824918 0.677699
0.727657 0.823575 0.684688
0.753994 0.818692 0.704463
0.782925 0.811154 0.725460
0.796445 0.801724 0.729335
0.813748 0.798062 0.732662
0.844236 0.805051 0.734981
0.890623 0.823667 0.750179
0.793881 0.861234 0.744076
0.798642 0.860563 0.748043
0.812314 0.857755 0.759243
0.828397 0.853849 0.771084
0.839475 0.848997 0.775784
0.851133 0.843626 0.782650
0.870237 0.847929 0.787289
0.894102 0.854398 0.791897
0.000000 0.311498 0.694636
0.000000 0.287236 0.697444
0.284764 0.244053 0.699641
0.539818 0.000000 0.701137
0.724422 0.255589 0.689479
0.787869 0.480171 0.666590
0.843656 0.588525 0.688930
0.895903 0.652796 0.719509
0.247929 0.431281 0.692317
0.245975 0.404211 0.696132
0.352300 0.343053 0.699336
0.549554 0.211215 0.699977
0.723842 0.326055 0.688930
0.786709 0.507958 0.669337
0.843565 0.601129 0.691859
0.895720 0.659022 0.720790
0.506950 0.598688 0.685054
0.520165 0.594354 0.686976
0.498207 0.537591 0.691798
0.583124 0.462165 0.696895
0.721187 0.472358 0.686671
0.780484 0.575982 0.675013
0.841886 0.633417 0.697932
0.894347 0.675563 0.722347
0.561181 0.677180 0.692500
0.582757 0.675807 0.692287
0.642176 0.674006 0.692317
0.655756 0.643519 0.694881
0.724941 0.607996 0.689845
0.783352 0.653773 0.692134
0.845212 0.678767 0.709590
0.896696 0.706081 0.729061
0.558434 0.739864 0.689448
0.578820 0.737575 0.691127
0.632685 0.729152 0.694697
0.690974 0.717525 0.698482
0.733394 0.699916 0.695460
0.794553 0.708949 0.704311
0.850919 0.725154 0.718685
0.898924 0.746426 0.738155
0.606806 0.797696 0.653315
0.623804 0.794827 0.659236
0.667628 0.785122 0.674556
0.717922 0.772610 0.694423
0.764126 0.755764 0.717800
0.791836 0.754482 0.721798
0.855619 0.777859 0.734615
0.904753 0.792477 0.751034
0.707759 0.833921 0.696254
0.714534 0.832242 0.699519
0.736385 0.827543 0.710780
0.768917 0.820645 0.729580
0.804959 0.810056 0.753567
0.816861 0.798276 0.755520
0.844633 0.805264 0.756527
0.892088 0.824063 0.768093
0.775296 0.866209 0.741695
0.779110 0.865385 0.744015
0.794461 0.862364 0.754665
0.821347 0.859831 0.775540
0.843442 0.853941 0.791287
0.854917 0.847593 0.795285
0.870146 0.847349 0.799741
0.893462 0.853788 0.803037
0.310277 0.458869 0.770474
0.310307 0.438544 0.771786
0.398810 0.407568 0.771572
0.534569 0.343542 0.773922
0.688716 0.202640 0.773709
0.798550 0.417609 0.757870
0.845670 0.576410 0.744106
0.887327 0.673121 0.764950
0.412268 0.521965 0.764279
0.407172 0.504479 0.765347
0.443000 0.463722 0.767147
0.550042 0.405341 0.769924
0.688319 0.276341 0.770169
0.795712 0.446723 0.755306
0.843656 0.588922 0.743832
0.886687 0.676936 0.764767
0.599695 0.652094 0.760464
0.594537 0.642908 0.761227
0.577508 0.605035 0.764523
0.611536 0.556359 0.767025
0.699367 0.471656 0.766537
0.794278 0.537133 0.754452
0.841764 0.633539 0.748165
0.887327 0.694484 0.768185
0.694850 0.726497 0.759915
0.696925 0.724483 0.759915
0.705501 0.717983 0.761837
0.697993 0.687312 0.766659
0.727382 0.637781 0.766812
0.797726 0.638666 0.758206
0.842954 0.689021 0.757595
0.890410 0.722408 0.774929
0.686824 0.761013 0.765682
0.695918 0.760311 0.765835
0.721981 0.757839 0.766018
0.755734 0.754696 0.765866
0.757473 0.730159 0.763485
0.795499 0.702174 0.756161
0.841428 0.729946 0.761349
0.891875 0.748013 0.776120
0.680842 0.796231 0.759030
0.690761 0.795956 0.760861
0.714748 0.792538 0.763180
0.745602 0.786893 0.765652
0.775082 0.778225 0.766018
0.802426 0.763912 0.761959
0.852659 0.773861 0.772000
0.898466 0.788540 0.785702
0.717556 0.841672 0.745541
0.724758 0.841550 0.747951
0.743496 0.839841 0.752682
0.771511 0.835782 0.761410
0.801694 0.827756 0.772519
0.832456 0.814237 0.787503
0.850004 0.810117 0.786313
0.899413 0.829007 0.796780
0.774075 0.873167 0.764431
0.777768 0.872374 0.766110
0.790188 0.870024 0.772091
0.810300 0.867277 0.782773
0.833219 0.863005 0.795438
0.860990 0.855528 0.814633
0.872251 0.848386 0.817685
0.894713 0.855100 0.819974
0.487526 0.564691 0.820157
0.488045 0.555077 0.821530
0.517144 0.533715 0.822934
0.580407 0.496498 0.824765
0.667506 0.419715 0.825834
0.775082 0.364080 0.822568
0.850370 0.517113 0.809567
0.890257 0.643366 0.803555
0.536461 0.600916 0.816556
0.534936 0.591791 0.817807
0.544762 0.564904 0.819821
0.594537 0.528161 0.821317
0.671504 0.457465 0.822446
0.773098 0.394324 0.819577
0.847410 0.529046 0.806729
0.887816 0.646143 0.801175
0.652796 0.688685 0.813260
0.649714 0.682429 0.813840
0.637781 0.656336 0.815763
0.650935 0.621729 0.817685
0.696925 0.567407 0.818631
0.776761 0.495216 0.817472
0.846799 0.587274 0.806790
0.888243 0.674342 0.804654
0.733303 0.754574 0.811948
0.734432 0.752590 0.811917
0.734829 0.743435 0.812863
0.719631 0.712612 0.815457
0.734737 0.675837 0.816190
0.784604 0.612787 0.816007
0.847288 0.654292 0.808042
0.888182 0.710597 0.808438
0.761654 0.787472 0.811887
0.765896 0.787228 0.811673
0.780240 0.787198 0.811582
0.786191 0.781216 0.813382
0.773465 0.751705 0.814847
0.791958 0.708461 0.813352
0.845884 0.707210 0.807156
0.886931 0.748562 0.811460
0.755550 0.816129 0.818601
0.760128 0.815610 0.818753
0.774807 0.813962 0.819181
0.796323 0.811582 0.820005
0.820432 0.808530 0.820249
0.821042 0.788571 0.818570
0.849882 0.763851 0.811826
0.888914 0.788388 0.818540
0.756344 0.842313 0.814298
0.760891 0.842069 0.815122
0.774014 0.840635 0.816922
0.793423 0.838499 0.819760
0.815335 0.834897 0.822263
0.837675 0.829221 0.823575
0.855802 0.815640 0.817563
0.897795 0.824094 0.826200
0.779141 0.873198 0.802548
0.782437 0.873075 0.803433
0.794766 0.873350 0.807584
0.811704 0.873289 0.812467
0.832761 0.872648 0.818784
0.857023 0.868284 0.829068
0.881743 0.859586 0.842069
0.897124 0.857542 0.841764
0.619226 0.655360 0.861540
0.617975 0.649317 0.862303
0.623285 0.632166 0.863493
0.650538 0.608392 0.865507
0.693904 0.563073 0.868132
0.758297 0.476997 0.871336
0.840696 0.478981 0.868528
0.895476 0.600122 0.858366
0.642329 0.674617 0.859525
0.640833 0.668971 0.860319
0.639704 0.649928 0.861936
0.662348 0.627039 0.863767
0.700526 0.584161 0.866423
0.760098 0.503868 0.869566
0.839719 0.494881 0.867063
0.894255 0.607050 0.857145
0.701534 0.724544 0.856138
0.699825 0.720333 0.856687
0.691737 0.702419 0.858122
0.699153 0.680140 0.861082
0.725216 0.646754 0.863310
0.769711 0.582940 0.865995
0.839780 0.551232 0.865019
0.893004 0.636225 0.856291
0.765713 0.778439 0.853605
0.764401 0.775906 0.854154
0.757900 0.764767 0.855344
0.746609 0.740841 0.858244
0.754910 0.713100 0.860777
0.785397 0.671046 0.863005
0.841306 0.622431 0.863798
0.892576 0.676692 0.856626
0.803555 0.813077 0.851499
0.804501 0.812680 0.852110
0.805844 0.809628 0.853391
0.806729 0.801724 0.855741
0.790982 0.773373 0.858610
0.800809 0.740322 0.860685
0.841215 0.685237 0.862760
0.892393 0.721492 0.857298
0.811032 0.833951 0.855131
0.813291 0.833707 0.855070
0.821195 0.833127 0.855100
0.834501 0.832761 0.855619
0.841978 0.828855 0.857816
0.832181 0.805234 0.861540
0.848447 0.769223 0.863706
0.894835 0.771450 0.860990
0.808957 0.858762 0.862303
0.811154 0.858366 0.862333
0.818753 0.857145 0.862547
0.831937 0.855528 0.863401
0.849363 0.853635 0.864714
0.869718 0.852232 0.866545
0.872068 0.837919 0.868101
0.896422 0.816587 0.863554
0.812833 0.878355 0.858305
0.814725 0.878111 0.858549
0.821714 0.877470 0.859739
0.833921 0.876707 0.862181
0.849790 0.875608 0.865476
0.868009 0.874296 0.869413
0.887297 0.872160 0.873320
0.902129 0.862760 0.870054
