data/fiter_cube/44540723/1023238/file.cube
# Created by Adobe Lightroom plugin Export LUT (1.17.0)
# www.johnrellis.com/lightroom/exportlut.htm
# Preset: 奶油色调低饱和（弱光环境）_09 云集
# Color profile: C:\Program Files (x86)\Common Files\Adobe\Color\Profiles\Recommended\AdobeRGB1998.icc
LUT_3D_SIZE 32
DOMAIN_MIN 0.0 0.0 0.0
DOMAIN_MAX 1.0 1.0 1.0
0.074922 0.071351 0.069123
0.079103 0.072114 0.070100
0.084596 0.072572 0.070985
0.095064 0.075288 0.072908
0.114321 0.078157 0.075746
0.145266 0.079683 0.077424
0.190402 0.076905 0.078614
0.249058 0.065614 0.079042
0.320867 0.002869 0.078614
0.398688 0.000000 0.077394
0.474891 0.000000 0.077943
0.543877 0.000000 0.082399
0.603082 0.000000 0.092714
0.653040 0.000000 0.109590
0.695155 0.000000 0.131289
0.730861 0.082765 0.156527
0.760952 0.153719 0.183505
0.785641 0.207553 0.212192
0.806058 0.253208 0.241764
0.828824 0.307591 0.281834
0.847959 0.355688 0.320928
0.863981 0.396460 0.357214
0.877440 0.431434 0.390295
0.889036 0.462135 0.420600
0.899229 0.489570 0.448280
0.908476 0.515435 0.474952
0.917174 0.540520 0.500969
0.925383 0.565515 0.527337
0.933227 0.590631 0.554284
0.940764 0.616114 0.581750
0.947814 0.642084 0.610163
0.954589 0.667781 0.638392
0.076570 0.075227 0.070649
0.079225 0.075502 0.071260
0.085023 0.076967 0.071321
0.095796 0.079408 0.073213
0.115419 0.082673 0.075654
0.146365 0.084993 0.077211
0.190860 0.084260 0.078279
0.248417 0.076448 0.078645
0.318853 0.044068 0.077882
0.395972 0.000000 0.076997
0.471138 0.000000 0.077577
0.539788 0.000000 0.081880
0.598871 0.000000 0.092103
0.649012 0.000000 0.108614
0.691310 0.000000 0.129610
0.727138 0.097292 0.155093
0.757534 0.159854 0.181216
0.782681 0.210239 0.209567
0.803464 0.254246 0.238987
0.826322 0.306676 0.277775
0.845182 0.352758 0.315618
0.861234 0.392401 0.351232
0.874846 0.426856 0.383856
0.886687 0.457404 0.414008
0.897093 0.484932 0.442084
0.906554 0.511070 0.469215
0.915557 0.536278 0.495369
0.923980 0.561578 0.522179
0.932036 0.586999 0.549493
0.939757 0.612634 0.577142
0.946990 0.638788 0.605768
0.953826 0.664851 0.634607
0.079011 0.080476 0.072602
0.081178 0.080079 0.074006
0.084443 0.080873 0.073823
0.095460 0.085115 0.074830
0.116945 0.089296 0.075654
0.147982 0.092714 0.077058
0.192081 0.093751 0.077943
0.248936 0.089052 0.078157
0.318395 0.072724 0.077211
0.394598 0.000000 0.076234
0.469184 0.000000 0.077089
0.537774 0.000000 0.080903
0.596643 0.000000 0.091707
0.646876 0.000000 0.108309
0.689113 0.010285 0.129702
0.725063 0.118044 0.154482
0.755673 0.172274 0.180697
0.780941 0.217990 0.208225
0.802121 0.260136 0.238010
0.824949 0.310582 0.276616
0.843687 0.354742 0.313695
0.859770 0.393103 0.348425
0.873411 0.427131 0.381353
0.885344 0.456947 0.411292
0.895903 0.484291 0.439338
0.905547 0.509941 0.466011
0.914549 0.535332 0.492958
0.923156 0.560510 0.519768
0.931365 0.585901 0.547082
0.939147 0.611597 0.574975
0.946471 0.637659 0.603754
0.953368 0.663661 0.632563
0.084077 0.091249 0.076936
0.086061 0.090883 0.078218
0.088350 0.090486 0.079500
0.094820 0.093538 0.079347
0.115023 0.101839 0.078676
0.153353 0.111147 0.076295
0.197696 0.114870 0.076692
0.254276 0.114595 0.076326
0.322850 0.106386 0.075257
0.397681 0.088136 0.074037
0.470710 0.054261 0.074952
0.537835 0.000000 0.079927
0.595758 0.000000 0.091463
0.645289 0.063020 0.109071
0.687282 0.111543 0.129763
0.723140 0.155795 0.154757
0.753658 0.197971 0.181338
0.778897 0.237247 0.209079
0.801205 0.276555 0.239292
0.822965 0.320867 0.275669
0.841154 0.360845 0.311101
0.857084 0.396521 0.344854
0.871031 0.428992 0.377111
0.883330 0.458839 0.408148
0.894438 0.486366 0.437079
0.904570 0.512566 0.465126
0.914000 0.538048 0.492561
0.922789 0.563378 0.520012
0.931060 0.588525 0.547539
0.938842 0.613611 0.575189
0.946136 0.638911 0.603265
0.952972 0.664149 0.631647
0.089540 0.111177 0.081056
0.091737 0.110628 0.082277
0.094606 0.109743 0.083528
0.100313 0.110048 0.085695
0.112459 0.115267 0.085298
0.142245 0.129213 0.082795
0.195377 0.145113 0.077241
0.260472 0.151980 0.071870
0.327459 0.149905 0.070405
0.400061 0.142885 0.070008
0.471382 0.132601 0.071199
0.537041 0.126833 0.077272
0.594263 0.130007 0.090333
0.643183 0.146242 0.108705
0.685267 0.171206 0.130953
0.721370 0.201907 0.155886
0.752224 0.234104 0.182895
0.777798 0.266850 0.210788
0.801358 0.303227 0.243168
0.822293 0.341222 0.278202
0.839933 0.376013 0.312352
0.855589 0.408240 0.345342
0.869413 0.438056 0.377081
0.881865 0.465980 0.407355
0.893156 0.492164 0.436255
0.903441 0.517540 0.464393
0.912993 0.542321 0.491951
0.921874 0.566583 0.519097
0.930236 0.591028 0.546471
0.938079 0.615564 0.574060
0.945464 0.640314 0.602045
0.952392 0.665217 0.630365
0.095827 0.145022 0.085054
0.098848 0.144350 0.086213
0.102419 0.142916 0.088045
0.108705 0.139681 0.091341
0.119966 0.142733 0.092988
0.140383 0.151614 0.091676
0.180606 0.170230 0.087892
0.248478 0.191562 0.077882
0.333104 0.202335 0.065217
0.409216 0.201144 0.060700
0.478065 0.197696 0.064363
0.541375 0.196689 0.073732
0.596704 0.201144 0.089754
0.644587 0.212741 0.109468
0.685847 0.230045 0.132998
0.721523 0.252445 0.159182
0.752071 0.277592 0.186740
0.777340 0.303655 0.214817
0.802182 0.336950 0.250034
0.822385 0.368475 0.283909
0.839780 0.398901 0.318029
0.855406 0.427405 0.350561
0.884092 0.493019 0.423651
0.894987 0.516838 0.452216
0.904570 0.538994 0.478859
0.913298 0.559991 0.503807
0.921324 0.580591 0.527977
0.928862 0.601129 0.552056
0.936034 0.621973 0.576501
0.942901 0.643244 0.601282
0.949401 0.664698 0.626307
0.955627 0.685634 0.650752
0.103731 0.204288 0.089662
0.107759 0.202396 0.091035
0.112673 0.200717 0.093385
0.122072 0.196689 0.098451
0.133852 0.190738 0.106447
0.154910 0.199924 0.105196
0.186831 0.212009 0.103090
0.240269 0.232975 0.098573
0.326757 0.258213 0.084413
0.419104 0.271336 0.067720
0.504845 0.276158 0.044709
0.564202 0.275914 0.069825
0.615167 0.279576 0.093599
0.659419 0.287602 0.117891
0.697414 0.299046 0.143709
0.730037 0.314611 0.171054
0.758236 0.332128 0.198245
0.784939 0.356298 0.230961
0.808286 0.383398 0.267033
0.827909 0.410590 0.302708
0.845792 0.438087 0.338293
0.862211 0.465949 0.374395
0.876921 0.493111 0.409125
0.889830 0.518944 0.442054
0.901091 0.542901 0.472389
0.910735 0.564630 0.499794
0.919341 0.585107 0.525017
0.927184 0.605005 0.549584
0.934600 0.625086 0.574060
0.941558 0.645441 0.598535
0.948180 0.666133 0.623499
0.954559 0.686580 0.647944
0.111696 0.267582 0.096437
0.116335 0.265507 0.098360
0.122530 0.263188 0.101198
0.134066 0.258457 0.107301
0.149233 0.251530 0.117006
0.167239 0.248264 0.125093
0.197024 0.259983 0.123293
0.238071 0.273320 0.121035
0.299351 0.292821 0.119234
0.391577 0.319097 0.105074
0.480598 0.333593 0.093812
0.558251 0.341802 0.083955
0.617578 0.345830 0.091829
0.660304 0.349462 0.119783
0.697322 0.356207 0.147768
0.729397 0.365850 0.175601
0.758785 0.380346 0.205692
0.785641 0.399756 0.240269
0.807370 0.419165 0.273503
0.826200 0.439704 0.306981
0.843595 0.461921 0.341497
0.859709 0.485206 0.376135
0.874327 0.508537 0.409522
0.887266 0.531304 0.441688
0.898650 0.552850 0.471229
0.908507 0.572778 0.498024
0.917327 0.591791 0.523247
0.925414 0.610468 0.547478
0.933043 0.629603 0.571832
0.940185 0.649073 0.596521
0.946960 0.669154 0.621485
0.953491 0.688869 0.645930
0.125856 0.336797 0.111818
0.130831 0.335088 0.114504
0.137911 0.333013 0.117739
0.151003 0.328222 0.124605
0.169100 0.321263 0.134951
0.188449 0.311925 0.148165
0.213901 0.314061 0.152895
0.251499 0.325872 0.151278
0.300877 0.338354 0.149386
0.367742 0.356634 0.148623
0.455055 0.380621 0.141665
0.535943 0.395727 0.134371
0.603601 0.405249 0.132052
0.660121 0.411353 0.132326
0.699245 0.414588 0.153994
0.732052 0.421057 0.184695
0.762417 0.432563 0.218173
0.786893 0.444404 0.250553
0.807218 0.457313 0.282536
0.825345 0.472297 0.314824
0.842313 0.489601 0.347692
0.858183 0.508354 0.380529
0.872526 0.528069 0.413214
0.885405 0.547692 0.443946
0.896818 0.566522 0.472572
0.906767 0.584405 0.499031
0.915709 0.601648 0.523613
0.923919 0.618799 0.547539
0.931640 0.636591 0.571527
0.938933 0.654810 0.595819
0.945830 0.673701 0.620417
0.952453 0.692561 0.644709
0.150668 0.404395 0.138857
0.156039 0.402747 0.141115
0.162692 0.400519 0.143954
0.176669 0.396094 0.150668
0.195438 0.389319 0.160342
0.216831 0.380560 0.173281
0.238590 0.369848 0.188144
0.272313 0.378088 0.188205
0.315526 0.388586 0.187442
0.367559 0.399237 0.186435
0.432990 0.414954 0.186221
0.510124 0.435523 0.185367
0.581201 0.450690 0.182467
0.640711 0.460334 0.182803
0.693874 0.469795 0.188846
0.738705 0.478340 0.200168
0.766445 0.483589 0.233249
0.789242 0.489967 0.264927
0.808438 0.497780 0.296056
0.825742 0.507744 0.326390
0.841886 0.520043 0.357183
0.856870 0.533898 0.387518
0.870634 0.548852 0.416968
0.883055 0.564416 0.445380
0.894255 0.580133 0.472541
0.904356 0.595636 0.497902
0.913542 0.611322 0.522606
0.922087 0.627466 0.546777
0.930144 0.644373 0.571221
0.937713 0.661921 0.595911
0.944823 0.680171 0.620844
0.951659 0.698421 0.645380
0.186709 0.463447 0.173404
0.191531 0.462104 0.175235
0.198154 0.460426 0.178073
0.211307 0.456672 0.184207
0.230259 0.451057 0.193088
0.252049 0.443397 0.204685
0.275669 0.434363 0.218906
0.301061 0.428473 0.230655
0.338567 0.437110 0.229770
0.383276 0.446143 0.229557
0.433234 0.454902 0.229282
0.490394 0.465919 0.230045
0.559960 0.486671 0.235355
0.626062 0.504173 0.237766
0.680781 0.515831 0.242893
0.726375 0.523949 0.250340
0.763149 0.528893 0.259129
0.789670 0.531640 0.277379
0.807980 0.534813 0.306981
0.824735 0.540612 0.335973
0.840543 0.549065 0.365301
0.855406 0.559564 0.394202
0.869047 0.571557 0.422889
0.881468 0.584375 0.450233
0.892699 0.597559 0.476326
0.902739 0.610803 0.501030
0.911986 0.624323 0.524620
0.920531 0.638666 0.548272
0.928679 0.653803 0.572015
0.936339 0.669856 0.596124
0.943603 0.686824 0.620722
0.950561 0.703975 0.644923
0.234501 0.516930 0.214328
0.238987 0.515892 0.216190
0.244846 0.514397 0.218845
0.256718 0.511192 0.223636
0.274205 0.506401 0.231632
0.294774 0.500008 0.241764
0.317510 0.492042 0.254215
0.340124 0.482856 0.268376
0.368627 0.482399 0.274907
0.406531 0.489815 0.274815
0.449714 0.497780 0.275853
0.500572 0.509361 0.280888
0.580499 0.543938 0.311681
0.639857 0.563561 0.323461
0.693111 0.577661 0.327764
0.736233 0.585748 0.333318
0.770230 0.589654 0.340063
0.797452 0.591089 0.347814
0.820645 0.591821 0.356756
0.837186 0.593774 0.378698
0.851041 0.597864 0.404273
0.863951 0.603876 0.429480
0.875883 0.611200 0.453681
0.886839 0.619867 0.477668
0.896880 0.629267 0.500359
0.906096 0.639399 0.522362
0.914641 0.650050 0.543877
0.922637 0.661463 0.564996
0.930175 0.673976 0.586694
0.937438 0.687617 0.608911
0.944396 0.702022 0.631373
0.951141 0.716976 0.653773
0.301823 0.572625 0.268589
0.305394 0.571710 0.270085
0.309575 0.569787 0.271305
0.319127 0.566461 0.275090
0.332616 0.561028 0.280339
0.349310 0.554314 0.287694
0.368627 0.546777 0.297490
0.389044 0.538048 0.309026
0.410193 0.529686 0.323156
0.446693 0.538476 0.329900
0.488533 0.549554 0.336400
0.532647 0.560784 0.343450
0.577691 0.571923 0.351019
0.621790 0.581842 0.357702
0.671931 0.598138 0.370459
0.718074 0.610529 0.374395
0.754330 0.616632 0.379278
0.783230 0.618982 0.384649
0.807492 0.620081 0.391577
0.829313 0.621485 0.399695
0.848753 0.623590 0.410498
0.861509 0.626947 0.434577
0.873289 0.631861 0.457923
0.884306 0.637995 0.480262
0.894408 0.645258 0.502129
0.903716 0.653407 0.523461
0.912383 0.662379 0.544244
0.920562 0.672267 0.564965
0.928344 0.683406 0.586297
0.935760 0.695857 0.608423
0.942931 0.709163 0.630701
0.949889 0.723232 0.653162
0.354314 0.608759 0.310552
0.357305 0.607782 0.311742
0.360723 0.606409 0.312779
0.368261 0.603296 0.315496
0.379400 0.598871 0.319677
0.395880 0.594537 0.327672
0.415229 0.589776 0.337652
0.435859 0.584344 0.349706
0.457160 0.578546 0.363378
0.480110 0.575494 0.376349
0.513115 0.583764 0.380865
0.548913 0.592584 0.386664
0.585779 0.601221 0.392401
0.622644 0.609186 0.397498
0.658656 0.615961 0.401740
0.698756 0.627558 0.412238
0.737209 0.636805 0.414893
0.768093 0.641260 0.418341
0.793790 0.643305 0.423651
0.816648 0.645228 0.430518
0.837430 0.647608 0.438941
0.856321 0.650294 0.448493
0.871275 0.653223 0.463233
0.882261 0.657496 0.485176
0.892454 0.662867 0.506157
0.901854 0.669215 0.526787
0.910613 0.676539 0.546990
0.918883 0.685054 0.567376
0.926787 0.694789 0.588312
0.934356 0.705959 0.610040
0.941711 0.718135 0.632044
0.948821 0.731136 0.654292
0.414649 0.646387 0.359442
0.417456 0.645838 0.360601
0.420294 0.644678 0.361517
0.426734 0.642420 0.363928
0.436255 0.638849 0.367926
0.448554 0.634394 0.373297
0.463172 0.629267 0.380224
0.479408 0.623743 0.389197
0.496803 0.617975 0.399969
0.514702 0.612299 0.412665
0.537407 0.613275 0.420935
0.566613 0.620447 0.425635
0.597040 0.627527 0.430152
0.628077 0.634089 0.434363
0.658808 0.639673 0.437720
0.688350 0.643854 0.439551
0.720455 0.651545 0.448096
0.753017 0.658778 0.450599
0.780148 0.662684 0.454047
0.803983 0.665461 0.459632
0.825742 0.668147 0.466468
0.845426 0.670954 0.474586
0.863157 0.673823 0.483192
0.879240 0.676905 0.492775
0.890562 0.680629 0.510552
0.900175 0.685664 0.530816
0.909209 0.691920 0.551263
0.917784 0.699519 0.572107
0.925963 0.708553 0.593378
0.933776 0.718990 0.615656
0.941375 0.730312 0.637812
0.948669 0.742489 0.660060
0.468360 0.677852 0.404700
0.470710 0.677516 0.405768
0.472999 0.676692 0.406714
0.478218 0.674891 0.408759
0.486183 0.672023 0.412116
0.496101 0.668360 0.416297
0.508293 0.664210 0.422400
0.521904 0.659571 0.429816
0.536675 0.654627 0.438727
0.551476 0.649134 0.448463
0.565820 0.643305 0.459144
0.587427 0.646754 0.462867
0.611200 0.651484 0.465522
0.635828 0.655756 0.467536
0.660822 0.659541 0.469276
0.685756 0.662623 0.470039
0.710719 0.665400 0.470741
0.738766 0.671656 0.477638
0.766445 0.677729 0.482521
0.791775 0.682460 0.487465
0.814755 0.686519 0.494026
0.835477 0.690333 0.501854
0.854124 0.693751 0.510063
0.870970 0.697139 0.518791
0.886168 0.700618 0.528313
0.899565 0.704341 0.539300
0.908629 0.709255 0.559228
0.917235 0.715541 0.579400
0.925383 0.723171 0.600183
0.933227 0.731991 0.621302
0.940734 0.741695 0.642329
0.947997 0.752255 0.663386
0.510521 0.701076 0.442451
0.511864 0.700557 0.442847
0.513695 0.699794 0.443549
0.517693 0.698238 0.445136
0.523919 0.695857 0.447578
0.531975 0.692744 0.451026
0.541985 0.689204 0.455787
0.553155 0.685115 0.461433
0.565484 0.680751 0.468605
0.578302 0.675990 0.476570
0.591119 0.670985 0.485512
0.604822 0.667384 0.493751
0.624659 0.671199 0.495857
0.645106 0.674678 0.497749
0.666011 0.677577 0.498665
0.687007 0.679988 0.499397
0.708217 0.682033 0.499428
0.729824 0.684047 0.499825
0.754940 0.689693 0.505425
0.778805 0.694942 0.512108
0.802731 0.700313 0.517510
0.824399 0.704982 0.524193
0.843900 0.709163 0.531762
0.861570 0.713130 0.540337
0.877592 0.716884 0.549218
0.892058 0.720790 0.558953
0.905303 0.725002 0.569329
0.916045 0.729976 0.584527
0.924346 0.736477 0.605035
0.932280 0.744167 0.625696
0.939971 0.752834 0.646418
0.947356 0.762356 0.667048
0.547875 0.720516 0.477241
0.549767 0.720394 0.478431
0.574182 0.730953 0.501213
0.577142 0.729671 0.502251
0.581445 0.727565 0.503624
0.587060 0.724880 0.505638
0.593896 0.721553 0.508385
0.601923 0.717861 0.512078
0.611139 0.713771 0.516625
0.620966 0.709468 0.522362
0.631098 0.704891 0.528771
0.640833 0.699855 0.535576
0.652857 0.698268 0.539269
0.668391 0.700282 0.539849
0.684413 0.702022 0.539788
0.700984 0.703487 0.539483
0.718044 0.704707 0.539025
0.735470 0.705776 0.538354
0.753384 0.706874 0.537682
0.775235 0.711727 0.541863
0.795651 0.716304 0.549096
0.817533 0.721920 0.554376
0.837339 0.726619 0.560571
0.855131 0.730770 0.567590
0.871092 0.734340 0.574823
0.885618 0.737758 0.582605
0.898863 0.741299 0.591150
0.911223 0.745327 0.600855
0.922728 0.750088 0.612024
0.931365 0.756283 0.630121
0.939117 0.763760 0.650080
0.946563 0.772091 0.670069
0.586419 0.739223 0.514275
0.590173 0.740261 0.517510
0.594263 0.741115 0.520714
0.599268 0.741268 0.524315
0.604852 0.740475 0.527398
0.610559 0.738613 0.530114
0.616724 0.736080 0.532860
0.623590 0.732876 0.535912
0.631464 0.729427 0.539879
0.639857 0.725734 0.544457
0.648829 0.721736 0.549920
0.657588 0.717464 0.555657
0.665583 0.712612 0.561334
0.677607 0.713161 0.562463
0.690974 0.714534 0.562402
0.704982 0.715724 0.562005
0.719509 0.716762 0.561334
0.734615 0.717830 0.560723
0.750484 0.718990 0.560418
0.766964 0.720424 0.560357
0.787533 0.725521 0.564446
0.806302 0.730526 0.573449
0.827176 0.736751 0.579461
0.845914 0.742031 0.586267
0.862760 0.746517 0.593317
0.877989 0.750607 0.601129
0.891936 0.754665 0.609613
0.904845 0.758938 0.618982
0.916899 0.763729 0.629419
0.928161 0.769039 0.641077
0.938384 0.774899 0.654231
0.945861 0.782193 0.673701
0.612909 0.752316 0.540124
0.616175 0.753201 0.542931
0.619745 0.753994 0.545892
0.623987 0.754086 0.548760
0.628717 0.753445 0.551690
0.633509 0.751919 0.553979
0.638727 0.749630 0.556268
0.644648 0.746975 0.559014
0.651331 0.744015 0.562341
0.658686 0.740719 0.566247
0.666468 0.737270 0.570947
0.674311 0.733516 0.575982
0.681483 0.729244 0.580804
0.688991 0.725643 0.584955
0.700252 0.726894 0.584924
0.712032 0.728023 0.584375
0.724453 0.729061 0.583795
0.737484 0.730098 0.583307
0.751308 0.731228 0.582940
0.765866 0.732692 0.583093
0.780941 0.734340 0.583764
0.799588 0.739162 0.587793
0.817350 0.744778 0.597986
0.837003 0.751369 0.604517
0.854582 0.756802 0.611139
0.870512 0.761593 0.618311
0.885069 0.766018 0.626184
0.898528 0.770565 0.634882
0.911070 0.775387 0.644678
0.922820 0.780667 0.655543
0.933745 0.786282 0.667262
0.943816 0.792294 0.679805
0.637842 0.764797 0.564813
0.640650 0.765560 0.567193
0.643885 0.766262 0.569879
0.647517 0.766415 0.572534
0.651575 0.765866 0.575036
0.655634 0.764553 0.576989
0.660029 0.762631 0.579004
0.664942 0.760250 0.581140
0.670588 0.757595 0.583856
0.676814 0.754665 0.587182
0.683528 0.751583 0.591058
0.690333 0.748196 0.595300
0.696834 0.744442 0.599542
0.702968 0.740322 0.603845
0.710842 0.738766 0.606165
0.721218 0.740139 0.606287
0.732448 0.741604 0.606683
0.744411 0.743252 0.607202
0.757137 0.745083 0.608118
0.770535 0.747158 0.609613
0.784512 0.749477 0.611566
0.798825 0.751980 0.613733
0.815274 0.756435 0.617914
0.832181 0.762844 0.629053
0.850553 0.769741 0.635920
0.867033 0.775570 0.642908
0.881987 0.780758 0.650385
0.895750 0.785702 0.658595
0.908537 0.790707 0.667689
0.920439 0.795895 0.677577
0.931487 0.801266 0.688228
0.941619 0.806912 0.699947
0.669703 0.780514 0.596674
0.671260 0.780758 0.597955
0.672663 0.780850 0.599023
0.674739 0.780484 0.600275
0.677363 0.779660 0.601587
0.680354 0.778317 0.602869
0.683894 0.776608 0.604456
0.688197 0.774624 0.606439
0.693263 0.772488 0.609094
0.698909 0.770169 0.612238
0.705013 0.767666 0.615900
0.711055 0.764889 0.619684
0.716945 0.761685 0.623468
0.722438 0.758206 0.627161
0.727535 0.754330 0.630854
0.735500 0.754604 0.631586
0.744747 0.755886 0.631647
0.754788 0.757290 0.631952
0.765438 0.758816 0.632441
0.776730 0.760555 0.633265
0.788540 0.762387 0.634394
0.800748 0.764340 0.635676
0.813260 0.766354 0.637201
0.827054 0.769467 0.639734
0.842954 0.775937 0.650141
0.859953 0.782681 0.656794
0.875608 0.788693 0.663844
0.890013 0.794247 0.671595
0.903319 0.799619 0.680232
0.915679 0.804990 0.689662
0.927092 0.810452 0.699977
0.937621 0.816281 0.711604
0.691188 0.791531 0.618524
0.692531 0.791775 0.619623
0.693904 0.791958 0.620722
0.695705 0.791653 0.621820
0.697871 0.790951 0.622858
0.700313 0.789731 0.623896
0.703212 0.788205 0.625086
0.706691 0.786435 0.626612
0.710811 0.784482 0.628534
0.715602 0.782406 0.631220
0.720821 0.780240 0.634211
0.726131 0.777737 0.637354
0.731350 0.775021 0.640650
0.736507 0.772000 0.643977
0.741299 0.768765 0.647333
0.746426 0.766018 0.650385
0.754574 0.767391 0.650752
0.763424 0.768887 0.651270
0.772915 0.770504 0.652033
0.783017 0.772305 0.653071
0.793606 0.774258 0.654475
0.804654 0.776303 0.655940
0.816037 0.778470 0.657740
0.827573 0.780636 0.659480
0.837003 0.780514 0.657191
0.852781 0.787442 0.666987
0.868437 0.794064 0.674464
0.883513 0.800351 0.681910
0.897429 0.806271 0.690059
0.910338 0.812070 0.699306
0.922301 0.817929 0.709651
0.933349 0.824125 0.721553
0.716732 0.805020 0.644709
0.718013 0.805325 0.645838
0.718959 0.805386 0.646540
0.720211 0.805020 0.647181
0.721584 0.804227 0.647639
0.723293 0.803067 0.648219
0.725338 0.801572 0.648768
0.727749 0.799802 0.649439
0.730739 0.797818 0.650538
0.734127 0.795682 0.651942
0.738003 0.793423 0.653773
0.742214 0.791012 0.656031
0.746487 0.788388 0.658350
0.750637 0.785489 0.660731
0.754482 0.782284 0.662989
0.758175 0.778866 0.665370
0.763272 0.777401 0.666621
0.770596 0.778531 0.666621
0.778897 0.779995 0.667170
0.787961 0.781796 0.668299
0.797665 0.783810 0.669886
0.807675 0.785885 0.671504
0.817868 0.787930 0.672999
0.828092 0.789761 0.674342
0.838285 0.791440 0.675410
0.848661 0.793149 0.676448
0.863859 0.800168 0.685481
0.878019 0.806394 0.693355
0.892271 0.812772 0.701106
0.905577 0.818906 0.709865
0.917937 0.825132 0.720119
0.929412 0.831632 0.731868
0.733364 0.814603 0.661860
0.734463 0.814878 0.662837
0.735409 0.814969 0.663569
0.736477 0.814664 0.664088
0.737697 0.813993 0.664515
0.739223 0.813016 0.665003
0.741146 0.811795 0.665644
0.743404 0.810361 0.666407
0.746151 0.808743 0.667536
0.749416 0.807034 0.669032
0.752987 0.805203 0.670802
0.756954 0.803281 0.672999
0.761074 0.801205 0.675349
0.765072 0.798886 0.677668
0.768856 0.796262 0.679927
0.772580 0.793454 0.682246
0.776150 0.790585 0.684779
0.782101 0.790890 0.685512
0.789364 0.792294 0.686122
0.797360 0.793973 0.687190
0.805844 0.795834 0.688441
0.814725 0.797818 0.689937
0.823789 0.799710 0.691371
0.833005 0.801541 0.692744
0.842283 0.803220 0.693904
0.851591 0.804807 0.694942
0.861051 0.806424 0.696132
0.875517 0.813504 0.705043
0.888579 0.819730 0.714321
0.902159 0.826474 0.723079
0.914916 0.833188 0.733272
0.926696 0.839902 0.744808
0.750668 0.824857 0.679774
0.751461 0.825010 0.680446
0.752041 0.824979 0.680842
0.752743 0.824613 0.681086
0.753567 0.823911 0.681270
0.754726 0.822995 0.681483
0.756191 0.821836 0.681788
0.758053 0.820523 0.682338
0.760464 0.819120 0.683284
0.763363 0.817685 0.684627
0.766659 0.816129 0.686305
0.770321 0.814572 0.688289
0.774136 0.812863 0.690486
0.777951 0.810941 0.692714
0.781552 0.808743 0.694820
0.785061 0.806363 0.697017
0.788510 0.803861 0.699306
0.792264 0.801785 0.701564
0.798672 0.803067 0.702174
0.805692 0.804623 0.703120
0.813260 0.806363 0.704372
0.821195 0.808164 0.705898
0.829343 0.810025 0.707362
0.837675 0.811765 0.708766
0.846067 0.813443 0.710018
0.854551 0.815030 0.711238
0.863157 0.816617 0.712428
0.871885 0.818204 0.713710
0.885588 0.825193 0.722499
0.897795 0.831571 0.733150
0.910918 0.838743 0.743099
0.923064 0.845792 0.754330
0.765286 0.833982 0.695064
0.765835 0.834012 0.695491
0.766323 0.834012 0.695857
0.767025 0.833738 0.696162
0.768002 0.833280 0.696529
0.769467 0.832700 0.697261
0.771572 0.832151 0.698360
0.774197 0.831571 0.700008
0.777371 0.830991 0.701991
0.781003 0.830411 0.704433
0.784939 0.829740 0.707057
0.789120 0.828977 0.709957
0.793332 0.828061 0.712886
0.797360 0.826871 0.715663
0.801175 0.825406 0.718257
0.804685 0.823636 0.720546
0.808042 0.821683 0.722835
0.811460 0.819730 0.725399
0.815885 0.819242 0.727291
0.821897 0.820645 0.728237
0.828367 0.822202 0.729458
0.835172 0.823850 0.730831
0.842130 0.825437 0.732174
0.849302 0.827054 0.733486
0.856565 0.828580 0.734768
0.863951 0.830045 0.735958
0.871489 0.831540 0.737148
0.879149 0.833066 0.738491
0.887022 0.834745 0.740078
0.899657 0.841550 0.748867
0.910674 0.847898 0.760586
0.922667 0.855039 0.771237
0.785946 0.846220 0.717372
0.786282 0.846250 0.717617
0.786557 0.846128 0.717739
0.786984 0.845823 0.717830
0.787686 0.845304 0.718013
0.788663 0.844694 0.718318
0.790097 0.844022 0.718898
0.791958 0.843320 0.719844
0.794278 0.842557 0.721096
0.796963 0.841764 0.722713
0.799924 0.840879 0.724483
0.803128 0.839933 0.726497
0.806516 0.838926 0.728664
