data/fiter_cube/44540723/1023238/file.cube
# Created by Adobe Lightroom plugin Export LUT (1.17.0)
# www.johnrellis.com/lightroom/exportlut.htm
# Preset: 奶油色调低饱和（弱光环境）_09 云集
# Color profile: C:\Program Files (x86)\Common Files\Adobe\Color\Profiles\Recommended\AdobeRGB1998.icc
LUT_3D_SIZE 5
DOMAIN_MIN 0.000000 0.000000 0.000000
DOMAIN_MAX 0.903226 0.903226 0.903226
0.074922 0.071351 0.069123
0.249058 0.065614 0.079042
0.695155 0.000000 0.131289
0.863981 0.396460 0.357214
0.933227 0.590631 0.554284
0.111696 0.267582 0.096437
0.238071 0.273320 0.121035
0.697322 0.356207 0.147768
0.859709 0.485206 0.376135
0.933043 0.629603 0.571832
0.414649 0.646387 0.359442
0.479408 0.623743 0.389197
0.658808 0.639673 0.437720
0.845426 0.670954 0.474586
0.925963 0.708553 0.593378
0.669703 0.780514 0.596674
0.688197 0.774624 0.606439
0.727535 0.754330 0.630854
0.800748 0.764340 0.635676
0.903319 0.799619 0.680232
0.799771 0.854734 0.732509
0.805600 0.852506 0.735348
0.818906 0.842741 0.740200
0.848692 0.841154 0.758358
0.892546 0.852598 0.770047
0.000000 0.095705 0.250492
0.252537 0.000000 0.290318
0.657343 0.214237 0.364599
0.831907 0.460761 0.491585
0.917540 0.610346 0.605646
0.000000 0.325444 0.287480
0.295567 0.324773 0.329564
0.667567 0.403326 0.398169
0.832059 0.521141 0.500008
0.916991 0.637720 0.612665
0.381353 0.666407 0.394476
0.528130 0.641382 0.486641
0.650294 0.630518 0.507591
0.833097 0.669398 0.538201
0.916350 0.715541 0.637263
0.676417 0.784207 0.620142
0.706477 0.777432 0.642512
0.739162 0.758022 0.657099
0.800717 0.764157 0.660975
0.901976 0.800229 0.697078
0.804288 0.855894 0.743984
0.809689 0.853666 0.746151
0.828061 0.847868 0.756435
0.852750 0.843351 0.770138
0.894133 0.854337 0.779782
0.000000 0.238499 0.638239
0.167758 0.182742 0.646143
0.661860 0.129885 0.635035
0.804501 0.515648 0.636439
0.900542 0.644678 0.696254
0.409949 0.535210 0.633234
0.403326 0.468086 0.642481
0.669551 0.398718 0.641077
0.803006 0.573144 0.648493
0.900694 0.668086 0.703059
0.463691 0.700069 0.641657
0.552026 0.688624 0.647089
0.686854 0.658442 0.653346
0.810941 0.685451 0.678462
0.902129 0.728359 0.717525
0.645258 0.803159 0.644190
0.682338 0.794125 0.662531
0.764034 0.773587 0.713069
0.806241 0.768551 0.716823
0.902373 0.801602 0.738155
0.783139 0.862699 0.740291
0.799680 0.860502 0.753262
0.835386 0.853544 0.780545
0.854765 0.843107 0.789090
0.892729 0.852995 0.795346
0.351385 0.481483 0.781460
0.400397 0.446448 0.783749
0.605921 0.334600 0.787472
0.811398 0.442206 0.770382
0.885832 0.668788 0.772366
0.568048 0.629175 0.773800
0.553216 0.592615 0.777157
0.638697 0.502098 0.780819
0.807004 0.523430 0.766629
0.882872 0.686915 0.773129
0.707729 0.746578 0.771023
0.730922 0.746883 0.771054
0.728237 0.710414 0.773342
0.803037 0.665370 0.763577
0.886046 0.732296 0.780972
0.705440 0.810361 0.775998
0.724025 0.806485 0.776761
0.771481 0.797971 0.780880
0.816434 0.777279 0.776150
0.896910 0.795682 0.793881
0.773098 0.874876 0.770901
0.786526 0.872953 0.777188
0.822354 0.868101 0.795193
0.867033 0.857176 0.822385
0.894774 0.855131 0.824277
0.619226 0.655360 0.861540
0.618952 0.636164 0.863218
0.670039 0.589410 0.866789
0.778286 0.444587 0.872313
0.895476 0.600122 0.858366
0.686519 0.711604 0.857298
0.679438 0.694331 0.859068
0.701961 0.650813 0.863066
0.783291 0.535943 0.868040
0.893706 0.628656 0.856962
0.785245 0.797055 0.852415
0.787137 0.792935 0.853666
0.769039 0.756985 0.857786
0.800229 0.692012 0.861387
0.892149 0.698024 0.856596
0.811521 0.840116 0.857450
0.819181 0.839322 0.857481
0.843015 0.838102 0.858579
0.842161 0.813260 0.862730
0.895171 0.782803 0.861540
0.812833 0.878355 0.858305
0.819455 0.877684 0.859342
0.841489 0.876188 0.863767
0.872801 0.873899 0.870451
0.902129 0.862760 0.870054
