data/fiter_cube/38543845/1023270/file.cube
# Created by Adobe Lightroom plugin Export LUT (1.17.0)
# www.johnrellis.com/lightroom/exportlut.htm
# Preset: 清新通透胶片预设_06 云集
# Color profile: C:\Program Files (x86)\Common Files\Adobe\Color\Profiles\Recommended\AdobeRGB1998.icc
LUT_3D_SIZE 5
DOMAIN_MIN 0.000000 0.000000 0.000000
DOMAIN_MAX 0.903226 0.903226 0.903226
0.149996 0.157656 0.150057
0.611536 0.000000 0.163272
0.857664 0.208347 0.223148
0.932555 0.401770 0.384253
0.967590 0.518486 0.526024
0.185336 0.554192 0.347539
0.522118 0.558892 0.273106
0.825925 0.509087 0.225742
0.918029 0.511772 0.390387
0.960845 0.561120 0.527733
0.534447 0.779477 0.656306
0.553491 0.770047 0.637110
0.737728 0.763851 0.604822
0.877104 0.696315 0.459693
0.940185 0.662501 0.529168
0.663203 0.847105 0.753811
0.667659 0.843473 0.747738
0.682399 0.833585 0.726131
0.807004 0.830381 0.714076
0.899718 0.794736 0.663325
0.727810 0.886992 0.806271
0.730098 0.885435 0.803708
0.738216 0.880278 0.796048
0.769650 0.877623 0.785824
0.861509 0.879667 0.787350
0.132479 0.168154 0.524651
0.585473 0.299504 0.585351
0.817227 0.466163 0.587762
0.901701 0.531151 0.595056
0.948211 0.588739 0.635615
0.173739 0.575097 0.553246
0.567681 0.590326 0.574029
0.799344 0.568231 0.555230
0.892210 0.582940 0.586542
0.943236 0.614008 0.632197
0.590478 0.781277 0.705959
0.636469 0.771237 0.707820
0.742367 0.766079 0.680964
0.862730 0.702510 0.563409
0.927031 0.685145 0.620172
0.694484 0.846891 0.777737
0.698726 0.843259 0.772396
0.706203 0.831724 0.754177
0.809567 0.831113 0.739834
0.895323 0.797940 0.691707
0.744198 0.886564 0.818845
0.746029 0.885130 0.816251
0.752651 0.880400 0.808591
0.777615 0.877562 0.798337
0.863615 0.880858 0.800565
0.271305 0.184909 0.779263
0.574121 0.442420 0.799252
0.788846 0.645106 0.797147
0.868406 0.671138 0.770840
0.918242 0.694087 0.769802
0.000000 0.312505 0.722499
0.548486 0.551171 0.765866
0.779538 0.699519 0.790921
0.860777 0.697566 0.771054
0.913359 0.710201 0.771542
0.526055 0.776364 0.767727
0.636194 0.775845 0.771786
0.754665 0.770108 0.771969
0.840665 0.740932 0.746639
0.905303 0.731868 0.748775
0.699641 0.851316 0.803494
0.726223 0.847288 0.808469
0.761776 0.835904 0.807797
0.816159 0.833036 0.793576
0.886687 0.800381 0.744381
0.756558 0.887877 0.836332
0.770901 0.886229 0.840635
0.788754 0.882383 0.840940
0.797147 0.878050 0.829404
0.869902 0.884703 0.833341
0.426093 0.318212 0.868742
0.565667 0.470008 0.870268
0.781369 0.728573 0.877928
0.855558 0.739986 0.862760
0.899748 0.754940 0.844999
0.414649 0.437324 0.846372
0.562402 0.546960 0.852140
0.780453 0.746395 0.871397
0.851804 0.761776 0.860777
0.896910 0.766842 0.846098
0.182467 0.590661 0.804532
0.358556 0.589014 0.797452
0.729732 0.743343 0.834165
0.837766 0.798856 0.850858
0.889586 0.791379 0.844358
0.641352 0.840482 0.836698
0.678981 0.841489 0.838804
0.765316 0.840421 0.842313
0.821653 0.833738 0.839811
0.881468 0.814542 0.825071
0.759762 0.892485 0.857847
0.773617 0.891295 0.860624
0.807980 0.888518 0.867887
0.834928 0.884794 0.870054
0.880461 0.892149 0.871702
0.507744 0.429206 0.916960
0.579828 0.511345 0.914183
0.734554 0.683223 0.909148
0.849607 0.802090 0.909270
0.889189 0.783841 0.895872
0.498787 0.481392 0.906798
0.574487 0.548699 0.905272
0.731868 0.695796 0.903838
0.850980 0.813413 0.907927
0.887388 0.793545 0.895048
0.000000 0.395148 0.877256
0.332464 0.475837 0.880095
0.689326 0.697871 0.884215
0.843290 0.822538 0.901366
0.884703 0.822904 0.895140
0.326177 0.715724 0.863737
0.387274 0.711330 0.860746
0.525811 0.696315 0.850187
0.787106 0.798062 0.875273
0.883909 0.858976 0.897520
0.681880 0.883085 0.880827
0.700771 0.882902 0.881407
0.759152 0.884977 0.885618
0.830930 0.889433 0.893431
0.887419 0.896422 0.904051
