data/fiter_cube/38543845/1023270/file.cube
# Created by Adobe Lightroom plugin Export LUT (1.17.0)
# www.johnrellis.com/lightroom/exportlut.htm
# Preset: 清新通透胶片预设_06 云集
# Color profile: C:\Program Files (x86)\Common Files\Adobe\Color\Profiles\Recommended\AdobeRGB1998.icc
LUT_3D_SIZE 32
DOMAIN_MIN 0.0 0.0 0.0
DOMAIN_MAX 1.0 1.0 1.0
0.149996 0.157656 0.150057
0.170504 0.157809 0.152132
0.186435 0.160281 0.154940
0.221653 0.164920 0.161288
0.316014 0.157259 0.164981
0.429053 0.131960 0.165560
0.530266 0.087892 0.164523
0.611536 0.000000 0.163272
0.674861 0.000000 0.162570
0.724666 0.000000 0.163333
0.763180 0.000000 0.166964
0.793179 0.068574 0.174716
0.817899 0.122438 0.186496
0.839200 0.167544 0.203159
0.857664 0.208347 0.223148
0.873930 0.244175 0.245640
0.887816 0.276860 0.268833
0.899382 0.306340 0.292210
0.909087 0.333349 0.315709
0.917693 0.357916 0.338750
0.925475 0.380652 0.361761
0.932555 0.401770 0.384253
0.938964 0.421576 0.406561
0.944793 0.440101 0.428290
0.950225 0.457252 0.448890
0.955138 0.473579 0.469184
0.959625 0.489204 0.488869
0.963775 0.504234 0.507897
0.967590 0.518486 0.526024
0.971069 0.532433 0.543481
0.974182 0.546258 0.560693
0.976867 0.560174 0.577905
0.154910 0.174166 0.158999
0.165896 0.175784 0.158145
0.185489 0.177005 0.157168
0.221958 0.179812 0.161746
0.315160 0.180209 0.164157
0.426520 0.166140 0.164218
0.527520 0.140230 0.162844
0.608850 0.113039 0.161349
0.672511 0.091279 0.160647
0.722713 0.087892 0.161410
0.761349 0.101411 0.165560
0.791714 0.126375 0.173465
0.816556 0.158602 0.185855
0.837980 0.192996 0.203067
0.856657 0.226444 0.223056
0.872953 0.258824 0.245914
0.886900 0.288273 0.269047
0.898589 0.315526 0.292668
0.908354 0.340612 0.316136
0.917082 0.363775 0.338781
0.924926 0.385473 0.361639
0.932067 0.405798 0.384222
0.938537 0.424964 0.406439
0.944427 0.442847 0.427985
0.949859 0.459541 0.448798
0.954803 0.475715 0.469154
0.959411 0.490791 0.488533
0.963500 0.505791 0.507958
0.967376 0.519768 0.525780
0.970855 0.533654 0.543572
0.973999 0.547265 0.560693
0.976745 0.560937 0.577630
0.162539 0.187900 0.168704
0.165469 0.188540 0.167422
0.179477 0.190616 0.167361
0.220523 0.198642 0.164950
0.314183 0.207675 0.163363
0.423896 0.203342 0.162417
0.523613 0.188602 0.160311
0.605066 0.171817 0.158602
0.669245 0.159976 0.157717
0.719875 0.156252 0.159060
0.758968 0.162020 0.163363
0.789639 0.175662 0.171878
0.814755 0.195651 0.185122
0.836362 0.221866 0.202976
0.855131 0.249485 0.223545
0.871702 0.276432 0.245640
0.885771 0.303136 0.269657
0.897520 0.327489 0.292912
0.907439 0.350317 0.316289
0.916228 0.371862 0.339147
0.924193 0.392126 0.362036
0.931426 0.411231 0.384375
0.937957 0.429725 0.406500
0.943938 0.446693 0.428077
0.949432 0.463020 0.448829
0.954406 0.478523 0.469276
0.959014 0.493355 0.488685
0.963195 0.507866 0.507866
0.967071 0.521630 0.525872
0.970581 0.535241 0.543572
0.973785 0.548608 0.560662
0.976532 0.562219 0.577783
0.171664 0.215457 0.183963
0.174044 0.215702 0.182589
0.177707 0.216983 0.180453
0.210147 0.225345 0.178775
0.306462 0.256565 0.168795
0.417334 0.267491 0.156954
0.515648 0.262425 0.154452
0.597406 0.253544 0.152010
0.662318 0.245579 0.151369
0.713985 0.241550 0.152956
0.754025 0.241154 0.158602
0.785397 0.246433 0.168429
0.810849 0.257542 0.183322
0.832853 0.273228 0.202396
0.852110 0.291417 0.223270
0.868894 0.311650 0.246464
0.883330 0.331914 0.270024
0.895293 0.351476 0.293584
0.905455 0.370153 0.316594
0.914458 0.388464 0.339818
0.922606 0.406165 0.362707
0.930053 0.423041 0.384680
0.936706 0.439643 0.407172
0.942840 0.455177 0.428382
0.948455 0.470222 0.449226
0.953552 0.484627 0.469306
0.958251 0.498726 0.489143
0.962554 0.512322 0.507774
0.966461 0.525719 0.526207
0.970062 0.538689 0.543664
0.973266 0.551720 0.560754
0.976104 0.564691 0.577539
0.169406 0.284947 0.207156
0.172519 0.284398 0.203372
0.176394 0.283757 0.198611
0.198764 0.289860 0.189456
0.280888 0.306554 0.183688
0.404425 0.338018 0.166781
0.504814 0.344701 0.147829
0.585840 0.339879 0.140688
0.652003 0.333440 0.140383
0.704799 0.328740 0.143282
0.746212 0.325170 0.150668
0.778653 0.324254 0.163455
0.804959 0.327337 0.181033
0.827573 0.334722 0.201236
0.847349 0.344823 0.223606
0.864714 0.357305 0.246616
0.879515 0.370642 0.270848
0.891905 0.384405 0.294347
0.902464 0.398169 0.317601
0.911833 0.412268 0.340642
0.920287 0.426246 0.363165
0.927916 0.440406 0.385565
0.934844 0.454292 0.407904
0.941192 0.467872 0.428992
0.946960 0.481117 0.449744
0.952209 0.494148 0.470100
0.957061 0.506859 0.489357
0.961486 0.519432 0.508232
0.965515 0.531762 0.526268
0.969207 0.544091 0.543755
0.972503 0.556298 0.560876
0.975402 0.568780 0.577813
0.157565 0.380926 0.241367
0.162875 0.379828 0.236301
0.169497 0.377935 0.229587
0.182467 0.374151 0.217319
0.249302 0.386267 0.202792
0.366491 0.401770 0.193179
0.492744 0.424018 0.172427
0.576287 0.425147 0.144533
0.638605 0.417243 0.125093
0.693141 0.411017 0.130800
0.736110 0.405280 0.141665
0.769955 0.400061 0.157595
0.797238 0.397498 0.177981
0.820768 0.397986 0.200107
0.841245 0.401495 0.223514
0.859312 0.407263 0.248142
0.874571 0.414374 0.272190
0.887510 0.422309 0.295781
0.898558 0.431159 0.318914
0.908354 0.440772 0.342077
0.917174 0.451118 0.364813
0.925200 0.461707 0.387182
0.932677 0.473487 0.409918
0.939239 0.484657 0.431128
0.945159 0.495827 0.451881
0.950622 0.506950 0.471565
0.955596 0.518181 0.490852
0.960143 0.529290 0.509453
0.964294 0.540368 0.527337
0.968109 0.551598 0.544671
0.971496 0.562951 0.561608
0.974487 0.574701 0.578454
0.157809 0.474678 0.289220
0.165011 0.473121 0.284184
0.173800 0.471046 0.277745
0.190951 0.466896 0.265446
0.212985 0.464546 0.240970
0.324407 0.477516 0.233433
0.449805 0.488533 0.222965
0.565057 0.503319 0.205631
0.632349 0.500023 0.166445
0.683223 0.489326 0.137453
0.724575 0.478431 0.132052
0.759884 0.470436 0.152346
0.788327 0.463722 0.175937
0.812833 0.459266 0.199527
0.834195 0.457374 0.224063
0.852750 0.457771 0.249058
0.868711 0.459358 0.273625
0.882292 0.462348 0.297673
0.893919 0.466682 0.320897
0.904265 0.472084 0.344091
0.913573 0.478676 0.366461
0.921965 0.486091 0.388983
0.929564 0.494331 0.410590
0.936461 0.502861 0.431769
0.942748 0.511803 0.452125
0.948455 0.521019 0.471992
0.953643 0.530663 0.491463
0.958373 0.540246 0.509697
0.962707 0.550103 0.527672
0.966644 0.560143 0.544854
0.970214 0.570397 0.561608
0.973327 0.581292 0.578546
0.185336 0.554192 0.347539
0.191653 0.552880 0.343359
0.199893 0.551049 0.337224
0.216007 0.547082 0.325872
0.237980 0.541192 0.310185
0.292332 0.544152 0.287297
0.406317 0.552575 0.280705
0.522118 0.558892 0.273106
0.620844 0.568109 0.264500
0.675776 0.562341 0.219425
0.717067 0.549279 0.185275
0.749264 0.533074 0.157137
0.778317 0.522515 0.173800
0.803738 0.514824 0.199557
0.825925 0.509087 0.225742
0.845212 0.505211 0.250706
0.861936 0.502831 0.275273
0.876188 0.501884 0.299260
0.888487 0.502312 0.322484
0.899351 0.504265 0.345525
0.909148 0.507469 0.368200
0.918029 0.511772 0.390387
0.926024 0.517113 0.411719
0.933288 0.523156 0.432715
0.939879 0.529808 0.453040
0.945830 0.537224 0.472938
0.951263 0.544884 0.492042
0.956268 0.552789 0.510246
0.960845 0.561120 0.527733
0.964965 0.569970 0.544945
0.968658 0.579187 0.561791
0.971923 0.589136 0.578637
0.236179 0.616602 0.410376
0.240940 0.615534 0.406897
0.247715 0.614130 0.402350
0.260899 0.611017 0.392859
0.278904 0.606348 0.379065
0.299870 0.600244 0.363714
0.378668 0.605921 0.344488
0.481910 0.610101 0.338567
0.580560 0.613336 0.332738
0.663905 0.618982 0.333501
0.708370 0.611170 0.286870
0.742489 0.596551 0.248905
0.769955 0.580011 0.217288
0.793973 0.564508 0.201419
0.816800 0.556268 0.227329
0.836912 0.549615 0.252781
0.854429 0.544182 0.277165
0.869413 0.540276 0.301488
0.882353 0.537530 0.324529
0.893858 0.536431 0.347723
0.904234 0.536797 0.369879
0.913603 0.538323 0.391699
0.922026 0.541070 0.413336
0.929686 0.544732 0.433814
0.936553 0.549340 0.454322
0.942901 0.554467 0.473548
0.948608 0.560327 0.492378
0.953857 0.566674 0.510521
0.958618 0.573632 0.528161
0.962951 0.581048 0.545068
0.966857 0.589197 0.562097
0.970275 0.597986 0.578820
0.295659 0.664302 0.470283
0.299290 0.663478 0.467903
0.303471 0.662348 0.463966
0.313146 0.659937 0.456397
0.327245 0.656184 0.445441
0.344152 0.651270 0.431922
0.367437 0.649470 0.407172
0.456855 0.652094 0.402991
0.544396 0.654170 0.398535
0.625452 0.655634 0.393774
0.695705 0.657740 0.402289
0.732479 0.648493 0.355474
0.761593 0.633967 0.316075
0.786221 0.617823 0.281254
0.807919 0.601404 0.250126
0.828214 0.590021 0.254643
0.846464 0.582544 0.279057
0.862181 0.576257 0.303441
0.875792 0.571374 0.326787
0.887938 0.567864 0.349615
0.898863 0.565789 0.371679
0.908690 0.565087 0.393622
0.917601 0.565423 0.414282
0.925658 0.566949 0.434852
0.932921 0.569451 0.454963
0.939544 0.572778 0.474372
0.945586 0.576837 0.492897
0.951110 0.581567 0.510887
0.956146 0.587030 0.528313
0.960693 0.593194 0.545373
0.964843 0.600000 0.562127
0.968444 0.607721 0.579004
0.355230 0.700252 0.522911
0.358038 0.699672 0.521202
0.360906 0.698817 0.518181
0.367987 0.696956 0.512688
0.377935 0.694026 0.504051
0.390723 0.690272 0.493477
0.405493 0.685573 0.481453
0.445869 0.686152 0.462440
0.520409 0.686976 0.458564
0.591943 0.687526 0.455207
0.659022 0.687495 0.450599
0.719112 0.687526 0.463172
0.750301 0.677821 0.419715
0.776730 0.664332 0.379370
0.799680 0.649378 0.343114
0.819974 0.633783 0.311101
0.837980 0.617945 0.281468
0.854429 0.610071 0.305943
0.868742 0.603388 0.328771
0.881559 0.597955 0.351324
0.893065 0.593957 0.373205
0.903441 0.591180 0.394751
0.912779 0.589715 0.415686
0.921294 0.589349 0.435981
0.928923 0.590082 0.456062
0.935912 0.591608 0.475013
0.942290 0.593957 0.493385
0.948089 0.597253 0.511223
0.953399 0.601282 0.528557
0.958221 0.606043 0.545495
0.962554 0.611719 0.562280
0.966400 0.618372 0.579217
0.411353 0.727016 0.566430
0.413001 0.726558 0.564996
0.415167 0.725765 0.562860
0.420081 0.724361 0.558831
0.427192 0.722103 0.552514
0.436561 0.719173 0.544640
0.447486 0.715541 0.535485
0.459480 0.711543 0.524437
0.508995 0.713130 0.511284
0.569146 0.712947 0.507652
0.627832 0.712520 0.504051
0.684321 0.711849 0.500008
0.737667 0.712367 0.510399
0.765560 0.702724 0.476814
0.789822 0.690394 0.438453
0.811185 0.676234 0.402777
0.830014 0.661280 0.369421
0.846708 0.645930 0.338903
0.861631 0.633783 0.331243
0.875029 0.626978 0.353826
0.887114 0.621393 0.375677
0.897948 0.617090 0.397162
0.907774 0.613886 0.417548
0.916625 0.611933 0.437964
0.924712 0.610986 0.457465
0.932036 0.610956 0.476295
0.938750 0.611841 0.494484
0.944854 0.613611 0.512016
0.950439 0.616297 0.529259
0.955535 0.619745 0.545861
0.960082 0.624292 0.562768
0.964172 0.629755 0.579492
0.460121 0.747677 0.602075
0.461372 0.747341 0.601160
0.462837 0.746792 0.599573
0.466194 0.745663 0.596643
0.471290 0.743893 0.592004
0.478004 0.741451 0.586114
0.485695 0.738460 0.578790
0.494667 0.734890 0.570825
0.508324 0.733852 0.554650
0.557336 0.733639 0.551629
0.606989 0.733242 0.548547
0.656336 0.732601 0.545190
0.704799 0.731899 0.541863
0.753048 0.732784 0.548669
0.778317 0.723384 0.524346
0.800473 0.712032 0.489052
0.820127 0.698512 0.454841
0.837522 0.684199 0.422370
0.853208 0.669612 0.392126
0.867796 0.655299 0.364019
0.880613 0.647303 0.376806
0.891997 0.641657 0.398108
0.902312 0.637171 0.418555
0.911620 0.633722 0.438666
0.920134 0.631373 0.457893
0.927855 0.629969 0.476295
0.934905 0.629511 0.494484
0.941344 0.630030 0.512078
0.947204 0.631434 0.529412
0.952575 0.633783 0.546044
0.957427 0.637049 0.562646
0.961730 0.641566 0.579767
0.500725 0.764736 0.631678
0.501457 0.764370 0.630793
0.502495 0.763912 0.629633
0.505028 0.762936 0.627497
0.508629 0.761379 0.623865
0.513329 0.759274 0.619074
0.519310 0.756771 0.613703
0.525811 0.753719 0.607202
0.533135 0.750240 0.600366
0.555230 0.750668 0.588281
0.595819 0.750484 0.585473
0.637659 0.750179 0.582422
0.679866 0.749660 0.579492
0.722316 0.748959 0.576135
0.766537 0.750362 0.580621
0.789609 0.741207 0.563775
0.809537 0.730343 0.531579
0.827390 0.717617 0.500359
0.843595 0.704097 0.470100
0.858732 0.690425 0.441047
0.872831 0.676997 0.413916
0.885771 0.665309 0.398810
0.896574 0.659724 0.419135
0.906401 0.655116 0.439033
0.915251 0.651575 0.458320
0.923369 0.648951 0.476967
0.930785 0.647303 0.494820
0.937560 0.646601 0.512291
0.943786 0.646845 0.529137
0.949462 0.648096 0.545983
0.954559 0.650416 0.562921
0.959106 0.653925 0.580072
0.534447 0.779477 0.656306
0.535088 0.779171 0.655665
0.535851 0.778805 0.654810
0.537530 0.777920 0.652918
0.540429 0.776638 0.650202
0.543847 0.774868 0.646509
0.548425 0.772671 0.642206
0.553491 0.770047 0.637110
0.559197 0.767056 0.631617
0.564996 0.764706 0.623133
0.592676 0.765438 0.616297
0.627283 0.765347 0.613764
0.663111 0.765072 0.610956
0.699947 0.764614 0.607935
0.737728 0.763851 0.604822
0.778531 0.765591 0.607172
0.799283 0.756497 0.596399
0.817288 0.746181 0.567041
0.833677 0.734279 0.539025
0.849058 0.721767 0.511650
0.863493 0.708949 0.485054
0.877104 0.696315 0.459693
0.889952 0.683894 0.435096
0.900877 0.675990 0.439124
0.910216 0.671321 0.458167
0.918700 0.667720 0.476783
0.926513 0.665003 0.494667
0.933623 0.663264 0.512322
0.940185 0.662501 0.529168
0.946136 0.662684 0.546044
0.951537 0.664088 0.563104
0.956359 0.666743 0.580743
0.563226 0.792599 0.677394
0.563653 0.792355 0.676844
0.564233 0.792020 0.676234
0.565576 0.791287 0.674739
0.567773 0.790127 0.672602
0.570520 0.788602 0.669642
0.573907 0.786740 0.666102
0.577874 0.784482 0.661982
0.582330 0.781796 0.657404
0.587243 0.778836 0.652613
0.595178 0.778408 0.642115
0.623316 0.778470 0.639857
0.653071 0.778378 0.637263
0.684504 0.778042 0.634577
0.717098 0.777493 0.631617
0.750851 0.776699 0.628656
0.788907 0.778653 0.629450
0.807706 0.769680 0.623285
0.824125 0.760159 0.597314
0.839536 0.749264 0.571954
0.854002 0.737636 0.547601
0.867765 0.725734 0.523705
0.880797 0.713771 0.500450
0.893187 0.701991 0.477852
0.904936 0.690761 0.457923
0.913848 0.686213 0.476570
0.922057 0.682521 0.494392
0.929534 0.679927 0.512078
0.936370 0.678218 0.529351
0.942657 0.677516 0.546197
0.948363 0.677974 0.563317
0.953460 0.679835 0.581262
0.587060 0.804044 0.695033
0.587366 0.803830 0.694636
0.587915 0.803525 0.694118
0.588891 0.802914 0.692866
0.590570 0.801907 0.691096
0.592737 0.800595 0.688716
0.595361 0.798917 0.685756
0.598505 0.796933 0.682338
0.601984 0.794644 0.678431
0.605798 0.791958 0.674220
0.609949 0.789059 0.669825
0.623133 0.789761 0.661067
0.647913 0.789822 0.658930
0.674464 0.789670 0.656489
0.702419 0.789273 0.653864
0.731624 0.788663 0.651179
0.762264 0.787778 0.648493
0.797086 0.789334 0.648249
0.815335 0.781369 0.645960
0.830533 0.772793 0.623102
0.844999 0.762753 0.600275
0.858640 0.751980 0.578393
0.871641 0.740871 0.557122
0.884092 0.729702 0.536156
0.896086 0.718563 0.515618
0.907530 0.707637 0.495827
0.917327 0.699977 0.494270
0.925200 0.696498 0.511742
0.932403 0.693935 0.529015
0.939025 0.692470 0.546197
0.945037 0.692103 0.563561
0.950408 0.693263 0.582086
0.606775 0.814176 0.709834
0.606958 0.813962 0.709438
0.607874 0.813931 0.709407
0.608637 0.813382 0.708339
0.610010 0.812528 0.706874
0.611597 0.811368 0.704768
0.613733 0.809873 0.702296
0.616083 0.808133 0.699306
0.619013 0.806088 0.696040
0.622156 0.803769 0.692409
0.625452 0.801144 0.688472
0.628473 0.799619 0.681392
0.646509 0.800076 0.677180
0.668849 0.800076 0.675105
0.692714 0.799832 0.672877
0.717983 0.799435 0.670436
0.744747 0.798795 0.667994
0.772793 0.797879 0.665309
0.804166 0.798642 0.664454
0.822629 0.791989 0.665064
0.836606 0.784329 0.645228
0.850126 0.775143 0.625025
0.863005 0.765194 0.605432
0.875364 0.754849 0.586267
0.887266 0.744350 0.567498
0.898711 0.733913 0.549340
0.909789 0.723629 0.531701
0.920470 0.713588 0.514763
0.928313 0.709712 0.528679
0.935271 0.707485 0.546227
0.941619 0.706477 0.564050
0.947295 0.706935 0.583093
0.623774 0.823392 0.722774
0.623987 0.823270 0.722530
0.624292 0.823056 0.722103
0.625025 0.822599 0.721309
0.626093 0.821866 0.720027
0.627558 0.820859 0.718410
0.629267 0.819638 0.716274
0.631312 0.818112 0.713741
0.633600 0.816312 0.710872
0.636164 0.814267 0.707698
0.638880 0.811948 0.704158
0.641901 0.809445 0.700618
0.647272 0.809354 0.692653
0.666072 0.809415 0.690791
0.686549 0.809323 0.688746
0.708431 0.809018 0.686580
0.731716 0.808591 0.684382
0.756283 0.807889 0.682063
0.782315 0.806943 0.679683
0.810849 0.807095 0.678370
0.829343 0.801541 0.681331
0.842344 0.794614 0.663905
0.854978 0.786374 0.646204
0.867094 0.777279 0.628870
0.878904 0.767727 0.611780
0.890257 0.757961 0.595148
0.901335 0.748196 0.578973
0.911986 0.738613 0.563622
0.922332 0.729427 0.549432
0.931426 0.722530 0.546197
0.938109 0.720943 0.564660
0.944060 0.720485 0.583398
0.638392 0.831876 0.734127
0.638666 0.831724 0.733913
0.638972 0.831571 0.733639
0.639521 0.831174 0.732967
0.640436 0.830533 0.731838
0.641535 0.829679 0.730373
0.643000 0.828580 0.728542
0.644709 0.827237 0.726314
0.646632 0.825681 0.723842
0.648737 0.823880 0.721004
0.651148 0.821866 0.717983
0.653681 0.819638 0.714748
0.656336 0.817166 0.711360
0.665705 0.818051 0.704433
0.683284 0.818021 0.702693
0.702174 0.817838 0.700771
0.722438 0.817533 0.698848
0.743984 0.816983 0.696742
0.766964 0.816281 0.694606
0.791073 0.815335 0.692317
0.817197 0.814939 0.690761
0.835691 0.810300 0.695583
0.847837 0.804074 0.680018
0.859648 0.796628 0.664546
0.871122 0.788418 0.649409
0.882292 0.779751 0.634607
0.893248 0.770748 0.619989
0.903868 0.761837 0.606104
0.914183 0.753109 0.593225
0.924193 0.744808 0.581689
0.933867 0.737118 0.572351
0.940764 0.734218 0.583734
0.651453 0.839750 0.744442
0.651698 0.839628 0.744259
0.651942 0.839475 0.743984
0.652430 0.839139 0.743404
0.653101 0.838590 0.742367
0.654078 0.837827 0.741115
0.655238 0.836851 0.739467
0.656733 0.835691 0.737606
0.658289 0.834287 0.735317
0.660151 0.832700 0.732876
0.662226 0.830930 0.730190
0.664424 0.828946 0.727291
0.666682 0.826780 0.724178
0.668574 0.825803 0.718013
0.682002 0.826078 0.715023
0.698390 0.825956 0.713283
0.716091 0.825711 0.711513
0.735073 0.825345 0.709621
0.755306 0.824796 0.707698
0.776791 0.824063 0.705745
0.799283 0.823117 0.703731
0.823270 0.822354 0.702022
0.841794 0.818509 0.707729
0.853208 0.812833 0.694423
0.864347 0.806180 0.680781
0.875273 0.798795 0.667475
0.885924 0.790982 0.654841
0.896361 0.783017 0.642695
0.906584 0.775082 0.631342
0.916594 0.767422 0.621210
0.926177 0.760128 0.612543
0.935180 0.753109 0.604852
0.663203 0.847105 0.753811
0.663447 0.847013 0.753719
0.663539 0.846860 0.753414
0.663996 0.846586 0.752926
0.664637 0.846067 0.752071
0.665431 0.845365 0.750912
0.666407 0.844541 0.749447
0.667659 0.843473 0.747738
0.669093 0.842283 0.745785
0.670680 0.840848 0.743587
0.672450 0.839261 0.741176
0.674372 0.837491 0.738521
0.676356 0.835569 0.735744
0.678523 0.833463 0.732876
0.682399 0.833585 0.726131
0.696620 0.833524 0.724544
0.712154 0.833341 0.722988
0.728817 0.833066 0.721218
0.746670 0.832670 0.719539
0.765713 0.832059 0.717769
0.785855 0.831327 0.715908
0.807004 0.830381 0.714076
0.829160 0.829343 0.712276
0.847440 0.826352 0.717281
0.858366 0.821012 0.707332
0.868986 0.815122 0.695338
0.879423 0.808530 0.683742
0.889647 0.801694 0.673152
0.899718 0.794736 0.663325
0.909636 0.788052 0.654871
0.919005 0.781338 0.646876
0.927886 0.775265 0.640681
0.674006 0.853880 0.762509
0.674067 0.853788 0.762325
0.674281 0.853666 0.762142
0.674647 0.853391 0.761685
0.675196 0.852964 0.760922
0.675868 0.852354 0.759884
0.676783 0.851591 0.758633
0.677821 0.850675 0.757107
0.679042 0.849577 0.755337
0.680507 0.848325 0.753384
0.682063 0.846891 0.751217
0.683742 0.845335 0.748867
0.685512 0.843595 0.746334
0.687465 0.841703 0.743740
0.689418 0.839719 0.740871
0.696559 0.840543 0.735012
0.710018 0.840421 0.733516
0.724697 0.840238 0.731960
0.740536 0.839933 0.730434
0.757443 0.839475 0.728817
0.775418 0.838895 0.727138
0.794461 0.838163 0.725521
0.814389 0.837339 0.723873
0.835203 0.836301 0.722255
0.852964 0.833860 0.726497
0.863523 0.828824 0.719295
0.873716 0.823636 0.708827
0.883787 0.817960 0.699123
0.893736 0.812161 0.690547
0.903380 0.806302 0.682856
0.912566 0.800473 0.675959
0.921294 0.795407 0.670985
0.684108 0.860197 0.770687
0.684199 0.860166 0.770565
0.684352 0.860014 0.770352
0.684688 0.859800 0.769955
0.685145 0.859403 0.769284
0.685725 0.858854 0.768368
0.686519 0.858183 0.767208
0.687495 0.857328 0.765896
0.688563 0.856352 0.764309
0.689815 0.855222 0.762509
0.691188 0.853971 0.760555
0.692683 0.852567 0.758419
0.694301 0.850980 0.756161
0.696010 0.849302 0.753780
0.697841 0.847471 0.751308
0.699245 0.846830 0.745937
0.709682 0.847013 0.743435
0.722530 0.846891 0.741970
0.736507 0.846677 0.740536
0.751522 0.846342 0.739101
0.767575 0.845945 0.737606
0.784665 0.845426 0.736202
0.802640 0.844755 0.734768
0.821500 0.844022 0.733333
0.841154 0.843168 0.732082
0.858488 0.841245 0.735836
0.868742 0.836545 0.731197
0.878721 0.832181 0.722133
0.888548 0.827543 0.714229
0.897887 0.822446 0.706874
0.906920 0.817655 0.701015
0.915557 0.813504 0.696986
0.693477 0.866087 0.778347
0.693629 0.866026 0.778256
0.693751 0.865934 0.778073
0.694026 0.865721 0.777707
0.694423 0.865354 0.777035
0.694972 0.864866 0.776242
0.695705 0.864256 0.775265
0.696529 0.863523 0.774044
0.697505 0.862638 0.772641
0.698665 0.861662 0.771084
0.699886 0.860502 0.769314
0.701228 0.859251 0.767391
0.702754 0.857877 0.765377
0.704372 0.856352 0.763210
0.706020 0.854734 0.760983
0.707759 0.852964 0.758694
0.710689 0.853269 0.752804
0.722042 0.853208 0.751553
0.734432 0.853086 0.750271
0.747799 0.852873 0.748989
0.762142 0.852598 0.747738
0.777462 0.852262 0.746487
0.793729 0.851835 0.745266
0.810788 0.851316 0.744106
0.828702 0.850736 0.743130
0.847349 0.850126 0.742214
0.864225 0.848692 0.745632
0.874296 0.844541 0.743679
0.883787 0.840818 0.735683
0.893065 0.836790 0.728603
0.902068 0.832914 0.723140
0.910674 0.829770 0.719783
0.702480 0.871641 0.785641
0.702541 0.871580 0.785550
0.702663 0.871489 0.785397
0.702937 0.871305 0.785092
0.703304 0.870970 0.784543
0.703731 0.870573 0.783780
0.704402 0.869993 0.782895
0.705135 0.869352 0.781827
0.706050 0.868589 0.780545
0.707118 0.867674 0.779141
0.708248 0.866667 0.777584
0.709529 0.865537 0.775875
0.710933 0.864317 0.774075
0.712367 0.862974 0.772091
0.713985 0.861509 0.770108
0.715663 0.859983 0.768032
0.717342 0.858549 0.765560
0.722988 0.859251 0.760678
0.733974 0.859220 0.759579
0.745907 0.859159 0.758511
0.758816 0.859007 0.757443
0.772580 0.858824 0.756405
0.787259 0.858610 0.755489
0.802792 0.858335 0.754696
0.819120 0.858030 0.754025
0.836240 0.857725 0.753475
0.854063 0.857420 0.753201
0.870329 0.856382 0.756039
0.879667 0.852232 0.755703
0.888853 0.849363 0.749020
0.897826 0.846525 0.743893
0.906432 0.844266 0.740810
0.711055 0.876921 0.792660
0.711116 0.876860 0.792538
0.711177 0.876768 0.792386
0.711421 0.876616 0.792081
0.711757 0.876310 0.791623
0.712215 0.875944 0.790982
0.712825 0.875456 0.790219
0.713558 0.874876 0.789273
0.714443 0.874205 0.788205
0.715389 0.873442 0.786923
0.716518 0.872557 0.785580
0.717739 0.871580 0.784085
0.719051 0.870481 0.782467
0.720516 0.869291 0.780789
0.722011 0.868040 0.779019
0.723629 0.866697 0.777218
0.725399 0.865263 0.775357
0.726772 0.864988 0.770993
0.735256 0.865263 0.768948
0.745937 0.865324 0.768032
0.757534 0.865324 0.767239
0.769986 0.865354 0.766506
0.783352 0.865324 0.765896
0.797513 0.865324 0.765499
0.812345 0.865202 0.765011
0.827848 0.865019 0.764492
0.844053 0.864775 0.764126
0.860807 0.864591 0.764065
0.876555 0.864042 0.766629
0.885405 0.860258 0.768338
0.894285 0.858518 0.763638
0.902892 0.857267 0.761013
0.719509 0.882048 0.799557
0.719570 0.881987 0.799466
0.719692 0.881895 0.799344
0.719844 0.881743 0.799039
0.720180 0.881498 0.798672
0.720577 0.881163 0.798062
0.721187 0.880735 0.797391
0.721859 0.880247 0.796567
0.722652 0.879637 0.795621
0.723598 0.878935 0.794491
0.724605 0.878202 0.793301
0.725795 0.877317 0.791989
0.727077 0.876371 0.790585
0.728542 0.875334 0.789151
