data/fiter_cube/38543845/1023270/file.cube
# Created by Adobe Lightroom plugin Export LUT (1.17.0)
# www.johnrellis.com/lightroom/exportlut.htm
# Preset: 清新通透胶片预设_06 云集
# Color profile: C:\Program Files (x86)\Common Files\Adobe\Color\Profiles\Recommended\AdobeRGB1998.icc
LUT_3D_SIZE 8
DOMAIN_MIN 0.000000 0.000000 0.000000
DOMAIN_MAX 0.903226 0.903226 0.903226
0.149996 0.157656 0.150057
0.316014 0.157259 0.164981
0.674861 0.000000 0.162570
0.817899 0.122438 0.186496
0.887816 0.276860 0.268833
0.925475 0.380652 0.361761
0.950225 0.457252 0.448890
0.967590 0.518486 0.526024
0.169406 0.284947 0.207156
0.280888 0.306554 0.183688
0.652003 0.333440 0.140383
0.804959 0.327337 0.181033
0.879515 0.370642 0.270848
0.920287 0.426246 0.363165
0.946960 0.481117 0.449744
0.965515 0.531762 0.526268
0.236179 0.616602 0.410376
0.278904 0.606348 0.379065
0.580560 0.613336 0.332738
0.769955 0.580011 0.217288
0.854429 0.544182 0.277165
0.904234 0.536797 0.369879
0.936553 0.549340 0.454322
0.958618 0.573632 0.528161
0.460121 0.747677 0.602075
0.471290 0.743893 0.592004
0.508324 0.733852 0.554650
0.704799 0.731899 0.541863
0.820127 0.698512 0.454841
0.880613 0.647303 0.376806
0.920134 0.631373 0.457893
0.947204 0.631434 0.529412
0.587060 0.804044 0.695033
0.590570 0.801907 0.691096
0.601984 0.794644 0.678431
0.647913 0.789822 0.658930
0.762264 0.787778 0.648493
0.844999 0.762753 0.600275
0.896086 0.718563 0.515618
0.932403 0.693935 0.529015
0.651453 0.839750 0.744442
0.653101 0.838590 0.742367
0.658289 0.834287 0.735317
0.666682 0.826780 0.724178
0.716091 0.825711 0.711513
0.799283 0.823117 0.703731
0.864347 0.806180 0.680781
0.906584 0.775082 0.631342
0.693477 0.866087 0.778347
0.694423 0.865354 0.777035
0.697505 0.862638 0.772641
0.702754 0.857877 0.765377
0.710689 0.853269 0.752804
0.762142 0.852598 0.747738
0.828702 0.850736 0.743130
0.883787 0.840818 0.735683
0.727810 0.886992 0.806271
0.728450 0.886503 0.805478
0.730922 0.884886 0.802884
0.735317 0.882109 0.798642
0.741817 0.878355 0.793637
0.759548 0.877409 0.786191
0.804715 0.878294 0.785336
0.861509 0.879667 0.787350
0.160433 0.170016 0.276402
0.308141 0.177829 0.300999
0.668116 0.149508 0.352819
0.804135 0.258640 0.361120
0.873289 0.366583 0.407691
0.912993 0.439094 0.459998
0.940551 0.495705 0.515221
0.960632 0.543938 0.567987
0.138613 0.306828 0.290776
0.332952 0.347356 0.320317
0.652369 0.347265 0.320836
0.793454 0.380041 0.353979
0.866484 0.427039 0.404211
0.908782 0.471443 0.458625
0.937804 0.513909 0.514305
0.958770 0.554772 0.567285
0.314733 0.628168 0.492256
0.407691 0.619928 0.498909
0.592340 0.622217 0.459297
0.761837 0.583551 0.340887
0.845212 0.560784 0.394446
0.895079 0.557549 0.454871
0.928771 0.569024 0.512535
0.952636 0.590082 0.566339
0.518730 0.746975 0.641657
0.530510 0.743008 0.634974
0.550042 0.731716 0.607691
0.706416 0.732998 0.589837
0.813687 0.700618 0.507774
0.873869 0.653773 0.447364
0.913970 0.640436 0.508202
0.942260 0.641077 0.563470
0.612726 0.803403 0.712551
0.615198 0.801358 0.708705
0.623468 0.794400 0.696345
0.658320 0.789242 0.677516
0.763363 0.788083 0.667781
0.841825 0.764126 0.621759
0.892302 0.720577 0.542260
0.928466 0.698878 0.559258
0.663935 0.839353 0.753414
0.665248 0.838193 0.751400
0.669459 0.834073 0.744259
0.676478 0.826780 0.733089
0.720394 0.825528 0.720729
0.800168 0.823331 0.713344
0.863005 0.806912 0.690394
0.904692 0.776425 0.643244
0.701198 0.865751 0.784085
0.701961 0.864988 0.782742
0.704616 0.862364 0.778256
0.709316 0.857725 0.770993
0.715206 0.852873 0.758419
0.764584 0.852506 0.753536
0.829282 0.850889 0.748989
0.883177 0.841337 0.740963
0.732876 0.886778 0.810117
0.733516 0.886320 0.809354
0.735805 0.884764 0.806760
0.739956 0.882048 0.802487
0.746181 0.878416 0.797543
0.762325 0.877317 0.790127
0.806332 0.878386 0.789273
0.862089 0.879973 0.791348
0.130282 0.165286 0.588464
0.342138 0.192203 0.626093
0.640131 0.376257 0.643732
0.771176 0.468696 0.632563
0.841459 0.525628 0.633112
0.884337 0.559899 0.636408
0.918517 0.579461 0.641535
0.943572 0.605463 0.658869
0.000000 0.228794 0.542535
0.335424 0.338048 0.600549
0.632044 0.493721 0.637568
0.763424 0.522393 0.631617
0.835416 0.555230 0.633753
0.883055 0.565667 0.626398
0.916564 0.589044 0.639460
0.942168 0.611994 0.657618
0.245090 0.631006 0.610803
0.419471 0.636866 0.619013
0.615625 0.637903 0.626856
0.744503 0.614466 0.600427
0.823056 0.608942 0.604456
0.873228 0.611963 0.616083
0.909850 0.620813 0.632807
0.937377 0.634333 0.653468
0.533654 0.754177 0.684688
0.578027 0.749142 0.691737
0.634272 0.736843 0.692409
0.713161 0.736660 0.676265
0.799710 0.703639 0.607538
0.856687 0.676265 0.598444
0.898192 0.668818 0.621454
0.928985 0.670161 0.646113
0.632776 0.806180 0.737636
0.651301 0.803647 0.742000
0.671778 0.796414 0.738521
0.683162 0.788846 0.720150
0.767636 0.789822 0.712856
0.834195 0.767361 0.672175
0.882017 0.725734 0.607660
0.917418 0.715114 0.636042
0.685939 0.840208 0.773312
0.696376 0.838651 0.776333
0.700923 0.834440 0.770260
0.704646 0.827573 0.758907
0.733120 0.825132 0.746853
0.802976 0.824125 0.740414
0.859403 0.808743 0.716365
0.899351 0.780087 0.675898
0.723720 0.865507 0.801602
0.724544 0.864744 0.800412
0.726558 0.862181 0.796048
0.729488 0.857755 0.788540
0.733577 0.851499 0.779110
0.772366 0.852354 0.771298
0.831510 0.851652 0.767422
0.881712 0.843259 0.757870
0.749447 0.886442 0.822812
0.749477 0.886076 0.821805
0.751247 0.884611 0.819181
0.754574 0.882078 0.814847
0.759731 0.878721 0.809720
0.770962 0.877165 0.802335
0.811643 0.878843 0.801907
0.864256 0.881193 0.804440
0.215671 0.163821 0.739315
0.369482 0.220218 0.751736
0.647883 0.547875 0.775479
0.754940 0.590112 0.763455
0.821805 0.625055 0.747189
0.866117 0.638605 0.737057
0.898100 0.658442 0.738369
0.923247 0.678523 0.746853
0.201083 0.272374 0.720760
0.371618 0.336858 0.735561
0.647913 0.589349 0.766720
0.750607 0.626246 0.760983
0.818082 0.642634 0.747372
0.862943 0.650752 0.737819
0.895781 0.666499 0.739223
0.922789 0.679530 0.743923
0.000000 0.457404 0.685664
0.187869 0.459785 0.684993
0.603723 0.620600 0.731991
0.738064 0.688777 0.751888
0.806973 0.680842 0.742428
0.853391 0.680903 0.736263
0.891264 0.678676 0.730526
0.921935 0.680293 0.730068
0.461433 0.747005 0.735195
0.524559 0.746548 0.737026
0.652461 0.746700 0.743771
0.722652 0.740414 0.740780
0.789059 0.718715 0.716854
0.841367 0.709529 0.715297
0.882444 0.704433 0.716976
0.915129 0.703700 0.722194
0.637324 0.812253 0.765896
0.654261 0.809995 0.767971
0.697261 0.802884 0.773312
0.722774 0.791623 0.767697
0.773556 0.791714 0.758083
0.825223 0.767391 0.718959
0.868925 0.743252 0.700984
0.905425 0.736324 0.711421
0.688258 0.843137 0.788693
0.698299 0.841764 0.790829
0.726619 0.837095 0.797055
0.740566 0.830076 0.792508
0.749874 0.824704 0.779049
0.807034 0.825376 0.773983
0.854704 0.810056 0.747433
0.892973 0.782345 0.711910
0.725277 0.866972 0.810971
0.731807 0.866056 0.812772
0.751431 0.863005 0.818204
0.757290 0.858824 0.813260
0.759030 0.852934 0.803494
0.783169 0.852354 0.795529
0.834958 0.852964 0.792721
0.879911 0.845701 0.780636
0.756252 0.887114 0.832242
0.760769 0.886595 0.833707
0.774960 0.884825 0.838346
0.775784 0.882841 0.833249
0.779507 0.879759 0.827848
0.783993 0.877043 0.820523
0.819516 0.879911 0.820310
0.867826 0.883360 0.823362
0.323217 0.217716 0.810819
0.415961 0.278538 0.815335
0.614557 0.510185 0.826291
0.761959 0.699489 0.839078
0.813993 0.680964 0.821744
0.853025 0.698177 0.804318
0.886503 0.701411 0.795132
0.912963 0.710780 0.792782
0.327947 0.306218 0.798917
0.421241 0.360296 0.804410
0.616846 0.550134 0.818784
0.764340 0.716304 0.837369
0.811795 0.694942 0.820371
0.851133 0.706386 0.804501
0.884794 0.707729 0.795590
0.911620 0.715572 0.793423
0.000000 0.336584 0.753048
0.261387 0.402594 0.765743
0.589349 0.595453 0.792111
0.759884 0.740230 0.827237
0.804654 0.729366 0.815488
0.844846 0.728420 0.803555
0.879149 0.725887 0.796017
0.907225 0.729763 0.794491
0.240055 0.629694 0.760250
0.322301 0.631312 0.759548
0.492927 0.638087 0.756802
0.714260 0.730434 0.791012
0.791653 0.762020 0.804807
0.834257 0.751736 0.796658
0.870329 0.746792 0.791989
0.901915 0.744167 0.789975
0.573693 0.799252 0.792782
0.600549 0.799924 0.794339
0.669215 0.799374 0.796475
0.743008 0.801175 0.802884
0.778195 0.792325 0.795743
0.819944 0.771237 0.773373
0.861631 0.761746 0.770687
0.896880 0.756588 0.771633
0.691096 0.847349 0.811185
0.700526 0.846067 0.812314
0.727779 0.841794 0.815396
0.761013 0.834745 0.818845
0.773495 0.825681 0.811734
0.810880 0.826200 0.805051
0.849393 0.807340 0.774289
0.887022 0.788235 0.759030
0.726711 0.869291 0.824582
0.732967 0.868437 0.825834
0.752041 0.865690 0.829740
0.777340 0.861326 0.834897
0.785916 0.856046 0.829953
0.793942 0.852384 0.819913
0.838956 0.854704 0.818265
0.878630 0.847013 0.802487
0.757137 0.888853 0.841276
0.761563 0.888365 0.842466
0.775631 0.886839 0.846372
0.795468 0.884703 0.851987
0.801541 0.882353 0.848753
0.804746 0.878904 0.842466
0.828092 0.881529 0.840085
0.872435 0.886412 0.843839
0.408087 0.297124 0.858824
0.463600 0.346807 0.859953
0.600275 0.509697 0.862608
0.736202 0.678065 0.867979
0.812558 0.745022 0.870573
0.848753 0.730159 0.855985
0.876493 0.741878 0.842252
0.902312 0.746059 0.835508
0.414588 0.358648 0.851041
0.468696 0.401648 0.852598
0.603296 0.540917 0.856992
0.736843 0.688380 0.865049
0.813504 0.754543 0.869718
0.847440 0.738216 0.855283
0.875151 0.747677 0.842496
0.901366 0.750027 0.835966
0.346014 0.424933 0.825711
0.434241 0.477394 0.828367
0.589685 0.587091 0.838132
0.731136 0.707546 0.854215
0.815610 0.779965 0.866911
0.843137 0.760861 0.852811
0.870848 0.765072 0.842832
0.898161 0.762173 0.836942
0.000000 0.481483 0.787350
0.123232 0.479377 0.784939
0.415778 0.536522 0.793820
0.695521 0.709102 0.828153
0.815579 0.806699 0.861601
0.835691 0.786709 0.847959
0.865110 0.782803 0.841337
0.893736 0.777340 0.836423
0.416541 0.716945 0.806302
0.450813 0.717464 0.805570
0.541527 0.720516 0.803220
0.637171 0.726040 0.800656
0.770504 0.784024 0.828885
0.824430 0.805386 0.838987
0.857450 0.795987 0.834012
0.888365 0.791226 0.831510
0.631556 0.833402 0.829282
0.645258 0.833799 0.830045
0.686519 0.833951 0.831632
0.741146 0.833341 0.833799
0.789548 0.833585 0.838102
0.813718 0.826139 0.831785
0.846769 0.808133 0.813474
0.883574 0.803006 0.814450
0.728908 0.872709 0.843229
0.734920 0.871977 0.843931
0.753384 0.869535 0.846159
0.778012 0.865812 0.848966
0.802060 0.860899 0.851164
0.812009 0.854398 0.845853
0.843565 0.856931 0.842985
0.877470 0.845701 0.822843
0.759060 0.891600 0.854032
0.763424 0.891173 0.854948
0.777157 0.889952 0.857969
0.796780 0.888304 0.862425
0.818296 0.886290 0.867369
0.827909 0.883818 0.865446
0.838163 0.884031 0.861112
0.878630 0.890837 0.865995
0.472358 0.378973 0.894133
0.508385 0.418280 0.894285
0.603143 0.530907 0.892638
0.713436 0.659174 0.891844
0.804532 0.755062 0.894957
0.846220 0.777401 0.892027
0.872709 0.764645 0.879759
0.894255 0.772976 0.869139
0.470253 0.409369 0.886961
0.506157 0.444129 0.887388
0.601038 0.545281 0.887022
0.711147 0.664057 0.887816
0.802060 0.756100 0.892180
0.844022 0.779202 0.889708
0.869841 0.764981 0.877287
0.892149 0.771725 0.866880
0.457038 0.481361 0.872862
0.494820 0.507500 0.873320
0.595850 0.587152 0.874937
0.708675 0.685023 0.879606
0.800717 0.767605 0.887663
0.845182 0.797024 0.888457
0.868132 0.782528 0.877043
0.890745 0.787442 0.869261
0.107149 0.417365 0.844785
0.245365 0.444373 0.846952
0.516472 0.580194 0.851499
0.683742 0.693904 0.862608
0.790738 0.775631 0.878233
0.847105 0.820981 0.887175
0.865385 0.805234 0.876493
0.888090 0.805814 0.870878
0.196353 0.611994 0.831235
0.245640 0.609918 0.828885
0.362402 0.604120 0.821866
0.511284 0.615320 0.817258
0.744320 0.756649 0.853361
0.843595 0.837400 0.882322
0.858244 0.820279 0.871397
0.884367 0.819821 0.869596
0.497108 0.766415 0.839200
0.515404 0.766537 0.838590
0.567987 0.766964 0.836667
0.631464 0.767544 0.834134
0.688869 0.765133 0.830838
0.804074 0.816007 0.856046
0.852171 0.838071 0.867369
0.881773 0.834653 0.867704
0.661585 0.858335 0.855406
0.671138 0.858640 0.856077
0.699031 0.859159 0.857511
0.738796 0.859739 0.859770
0.782071 0.859251 0.861723
0.824796 0.861723 0.867247
0.847105 0.858030 0.865019
0.877897 0.847166 0.855009
0.759304 0.894743 0.869444
0.763577 0.894438 0.870115
0.778958 0.894194 0.873167
0.798581 0.893095 0.876463
0.820523 0.891630 0.880125
0.843046 0.890410 0.884489
0.856107 0.888884 0.884459
0.885679 0.896025 0.887999
0.507744 0.429206 0.916960
0.531914 0.456458 0.916381
0.600153 0.534936 0.913329
0.690913 0.638117 0.910124
0.774380 0.722499 0.908721
0.840604 0.795132 0.909514
0.866209 0.793240 0.905394
0.889189 0.783841 0.895872
0.505608 0.447028 0.913146
0.530022 0.472480 0.912718
0.599115 0.546136 0.910338
0.689448 0.642847 0.907652
0.773037 0.724605 0.907042
0.839750 0.796201 0.908537
0.865354 0.795193 0.904479
0.888121 0.785245 0.895048
0.489845 0.488716 0.903410
0.515923 0.509575 0.903136
0.589166 0.571313 0.901640
0.686061 0.660060 0.901732
0.770779 0.734157 0.903075
0.838529 0.801968 0.906401
0.865293 0.806607 0.903471
0.886687 0.796048 0.894621
0.316197 0.438331 0.891203
0.394018 0.481697 0.890227
0.545098 0.583581 0.887877
0.661952 0.666712 0.890288
0.759060 0.740658 0.895506
0.834592 0.808530 0.902739
0.866300 0.824918 0.902983
0.885496 0.813626 0.895018
0.000000 0.458778 0.860746
0.000000 0.453254 0.859648
0.170352 0.470558 0.861601
0.522606 0.599786 0.871183
0.716823 0.727108 0.879881
0.817960 0.804410 0.894011
0.866545 0.843229 0.902159
0.884581 0.833890 0.895995
0.206668 0.676570 0.862455
0.236912 0.674403 0.861326
0.323949 0.667567 0.857237
0.426703 0.654994 0.849821
0.524651 0.636072 0.839628
0.772183 0.783139 0.874846
0.870176 0.865629 0.903807
0.884520 0.854948 0.897734
0.525933 0.801480 0.867124
0.536431 0.801175 0.866667
0.569268 0.800290 0.865293
0.617548 0.799496 0.863706
0.669795 0.798154 0.861906
0.723995 0.795956 0.860502
0.834012 0.844480 0.882933
0.882750 0.872007 0.897520
0.681880 0.883085 0.880827
0.687465 0.882963 0.880919
0.707118 0.883024 0.881712
0.739956 0.884092 0.883970
0.779049 0.886168 0.887572
0.820493 0.888548 0.891966
0.862089 0.893797 0.899596
0.887419 0.896422 0.904051
