data/fiter_cube/27130762/1023404/file.cube
# Created by Adobe Lightroom plugin Export LUT (1.17.0)
# www.johnrellis.com/lightroom/exportlut.htm
# Preset: 森系文艺人像美食静物_08 云集
# Color profile: C:\Program Files (x86)\Common Files\Adobe\Color\Profiles\Recommended\AdobeRGB1998.icc
LUT_3D_SIZE 5
DOMAIN_MIN 0.000000 0.000000 0.000000
DOMAIN_MAX 0.903226 0.903226 0.903226
0.000000 0.000000 0.000000
0.273198 0.000000 0.000000
0.670649 0.103365 0.000000
0.865354 0.380011 0.171267
0.995819 0.582635 0.375830
0.000000 0.187015 0.064302
0.190524 0.217288 0.102541
0.701595 0.367437 0.053040
0.874296 0.486763 0.251591
0.998718 0.637049 0.427558
0.000000 0.538231 0.228641
0.351965 0.532769 0.321752
0.549889 0.561822 0.399145
0.884367 0.719722 0.476905
1.000000 0.766415 0.557153
0.281590 0.738888 0.444923
0.423651 0.734524 0.474983
0.659022 0.715175 0.579950
0.732357 0.740536 0.606226
0.966033 0.881773 0.700252
0.476814 0.897490 0.625452
0.554864 0.893339 0.641108
0.741665 0.877989 0.716518
0.856687 0.872160 0.769680
0.900938 0.905333 0.790768
0.000000 0.071931 0.170871
0.271855 0.024231 0.207614
0.603235 0.211643 0.255100
0.818784 0.427924 0.362402
0.974456 0.596521 0.472236
0.000000 0.226261 0.246677
0.282506 0.283268 0.284550
0.639704 0.389014 0.333440
0.832059 0.509880 0.410529
0.977813 0.641840 0.504967
0.000000 0.558129 0.370764
0.333440 0.558556 0.397101
0.561242 0.569512 0.472541
0.875914 0.719020 0.556023
0.987945 0.767788 0.610529
0.298100 0.743801 0.508263
0.435431 0.739834 0.529229
0.661707 0.724453 0.610681
0.737545 0.744686 0.635370
0.966918 0.883452 0.727352
0.464637 0.900298 0.649989
0.545220 0.896117 0.662379
0.728420 0.886687 0.719722
0.859281 0.877348 0.782559
0.903868 0.908110 0.803067
0.108461 0.205661 0.499794
0.322606 0.225345 0.526177
0.623102 0.342504 0.535637
0.764462 0.443641 0.520134
0.927642 0.588617 0.592737
0.266758 0.366430 0.508751
0.376928 0.389776 0.536919
0.617945 0.445960 0.559289
0.755795 0.490578 0.537469
0.935851 0.627893 0.613092
0.245945 0.556634 0.576410
0.392676 0.571435 0.584314
0.614679 0.616510 0.615808
0.801083 0.672084 0.644678
0.958373 0.747341 0.684138
0.272374 0.760586 0.656641
0.411719 0.756649 0.656825
0.635035 0.751003 0.665614
0.756252 0.760464 0.703548
0.975372 0.888945 0.797086
0.433295 0.908354 0.734310
0.509789 0.905791 0.736233
0.674403 0.899229 0.741817
0.853391 0.887846 0.806516
0.907225 0.910918 0.829160
0.386084 0.415381 0.692164
0.456336 0.429572 0.701595
0.640681 0.462104 0.730861
0.794064 0.558862 0.717952
0.924895 0.637354 0.732570
0.447456 0.505333 0.693355
0.490608 0.509148 0.702022
0.639582 0.528222 0.729824
0.789853 0.594537 0.724483
0.921111 0.650263 0.733455
0.472175 0.606958 0.701045
0.526299 0.619806 0.703456
0.644099 0.651911 0.729580
0.783139 0.677882 0.745205
0.914153 0.687984 0.734859
0.467811 0.736233 0.750423
0.520104 0.739437 0.751980
0.642969 0.753872 0.761624
0.787442 0.787289 0.787350
0.948577 0.841245 0.818418
0.459571 0.910918 0.839231
0.509239 0.911833 0.840757
0.627832 0.918334 0.844968
0.807156 0.912108 0.834501
0.917815 0.920165 0.873320
0.597345 0.615686 0.856352
0.626673 0.618799 0.859892
0.721065 0.628504 0.873045
0.854612 0.649012 0.891234
0.941863 0.723262 0.872496
0.608453 0.647852 0.854612
0.633997 0.649653 0.858244
0.720119 0.656214 0.871580
0.850980 0.669551 0.891661
0.940581 0.736690 0.874907
0.622370 0.716152 0.847227
0.640925 0.716762 0.851499
0.712032 0.722438 0.868101
0.835325 0.730373 0.892271
0.939605 0.780331 0.885832
0.617823 0.798093 0.873045
0.639155 0.798550 0.872557
0.705074 0.801297 0.872251
0.810483 0.815305 0.890684
0.939757 0.849729 0.907012
0.604883 0.900603 0.910521
0.627100 0.901305 0.911254
0.700008 0.905425 0.914946
0.808591 0.913817 0.921111
0.940856 0.940276 0.940490
