data/fiter_cube/27130762/1023404/file.cube
# Created by Adobe Lightroom plugin Export LUT (1.17.0)
# www.johnrellis.com/lightroom/exportlut.htm
# Preset: 森系文艺人像美食静物_08 云集
# Color profile: C:\Program Files (x86)\Common Files\Adobe\Color\Profiles\Recommended\AdobeRGB1998.icc
LUT_3D_SIZE 8
DOMAIN_MIN 0.000000 0.000000 0.000000
DOMAIN_MAX 0.903226 0.903226 0.903226
0.000000 0.000000 0.000000
0.074037 0.046906 0.008576
0.349554 0.000000 0.000000
0.589197 0.000000 0.000000
0.736324 0.194064 0.000000
0.842374 0.346624 0.138643
0.926604 0.471565 0.259800
0.995819 0.582635 0.375830
0.000000 0.077882 0.032044
0.047395 0.085603 0.053101
0.375219 0.121401 0.000000
0.598077 0.156161 0.000000
0.739162 0.260227 0.000000
0.839902 0.377234 0.156954
0.923613 0.488106 0.270695
0.993774 0.593561 0.383978
0.000000 0.239994 0.073884
0.084657 0.248722 0.101991
0.253666 0.272526 0.133944
0.621302 0.416785 0.084688
0.766751 0.444984 0.159426
0.855711 0.498726 0.251530
0.935180 0.575402 0.348821
0.998352 0.651057 0.440284
0.000000 0.457069 0.167453
0.027039 0.458595 0.177462
0.376623 0.445411 0.278660
0.474495 0.486702 0.314611
0.733761 0.622309 0.360967
0.881712 0.659205 0.401404
0.945281 0.685573 0.454231
0.999969 0.725673 0.514153
0.000000 0.606592 0.293553
0.184451 0.605798 0.305486
0.427161 0.598840 0.398169
0.562310 0.586633 0.455299
0.607233 0.618494 0.464546
0.794308 0.727047 0.510613
0.936553 0.784878 0.561089
1.000000 0.808438 0.604974
0.242069 0.713649 0.414099
0.306035 0.714900 0.427283
0.442359 0.709773 0.461006
0.602167 0.696101 0.539971
0.673701 0.693294 0.570489
0.708339 0.717220 0.579248
0.862486 0.818387 0.629694
0.977966 0.872862 0.687251
0.370794 0.805203 0.522393
0.406989 0.804440 0.529808
0.501854 0.799283 0.550652
0.645441 0.789578 0.621698
0.727749 0.779721 0.651392
0.772824 0.787655 0.671199
0.804654 0.810636 0.680568
0.924468 0.894377 0.728359
0.476814 0.897490 0.625452
0.502098 0.896086 0.629938
0.576959 0.892332 0.646509
0.681788 0.887633 0.683803
0.781003 0.874784 0.730861
0.844358 0.871641 0.761563
0.875364 0.886412 0.778531
0.900938 0.905333 0.790768
0.000000 0.042237 0.072084
0.073396 0.051209 0.079042
0.309239 0.000000 0.089326
0.556756 0.103304 0.115816
0.712703 0.243961 0.160769
0.819913 0.367529 0.232975
0.909789 0.478706 0.315923
0.985595 0.583795 0.407446
0.000000 0.087251 0.088655
0.074372 0.106874 0.102113
0.338567 0.134371 0.113985
0.570672 0.197269 0.133455
0.719936 0.297734 0.179904
0.821561 0.397894 0.247959
0.908537 0.495674 0.325933
0.983642 0.593561 0.413428
0.000000 0.260136 0.147219
0.068116 0.274540 0.156832
0.282628 0.292271 0.204074
0.616968 0.417792 0.213291
0.744778 0.451637 0.258762
0.836301 0.503044 0.317327
0.918517 0.571923 0.385016
0.988281 0.647272 0.460761
0.000000 0.462837 0.230533
0.097566 0.466011 0.241642
0.382879 0.458564 0.319127
0.476356 0.486183 0.348486
0.721675 0.611353 0.391058
0.860380 0.646265 0.429938
0.930510 0.676234 0.472511
0.991485 0.720455 0.526574
0.082643 0.610010 0.337346
0.204013 0.608667 0.345464
0.413092 0.602319 0.404578
0.560174 0.586725 0.469154
0.603967 0.614435 0.476905
0.789120 0.722133 0.523796
0.932219 0.781643 0.575189
0.996735 0.805417 0.615015
0.251347 0.712032 0.435889
0.306889 0.710658 0.443763
0.438788 0.706050 0.471595
0.598108 0.694667 0.546593
0.673030 0.691829 0.578424
0.708339 0.716884 0.588220
0.861479 0.817319 0.637842
0.976410 0.871305 0.693263
0.366705 0.801328 0.530571
0.400580 0.799191 0.535149
0.495613 0.794919 0.554742
0.635248 0.787503 0.618158
0.725063 0.778866 0.654414
0.770962 0.785519 0.673976
0.801450 0.807431 0.681849
0.921904 0.891417 0.728817
0.469276 0.895415 0.629053
0.495369 0.894530 0.633753
0.571496 0.891081 0.649805
0.672419 0.887358 0.680964
0.783566 0.878782 0.738277
0.845426 0.873869 0.766140
0.875151 0.886076 0.780972
0.899748 0.904143 0.791592
0.000000 0.081666 0.222293
0.066377 0.080842 0.243992
0.343725 0.065583 0.263401
0.527337 0.147951 0.265690
0.666041 0.287633 0.317571
0.784939 0.414832 0.384375
0.885740 0.511376 0.440162
0.971801 0.603326 0.497810
0.000000 0.148623 0.239445
0.112337 0.158968 0.265019
0.343236 0.173190 0.286076
0.521630 0.217014 0.286137
0.672145 0.334295 0.339055
0.786954 0.438209 0.395758
0.886076 0.526268 0.447425
0.971405 0.613947 0.503746
0.000000 0.283665 0.306950
0.107118 0.301183 0.317205
0.349401 0.347051 0.348486
0.555932 0.400244 0.371466
0.702205 0.464637 0.408209
0.804257 0.523705 0.445472
0.895964 0.588006 0.486549
0.974701 0.657649 0.534173
0.000000 0.495888 0.391455
0.000000 0.499947 0.393011
0.370672 0.502495 0.404028
0.509270 0.514824 0.449683
0.732845 0.622126 0.501640
0.833829 0.647272 0.525719
0.913054 0.683040 0.552880
0.980713 0.727504 0.588922
0.000000 0.625055 0.437873
0.204990 0.624537 0.444495
0.407233 0.621942 0.467689
0.571984 0.612573 0.525353
0.622736 0.630762 0.538262
0.797818 0.731014 0.586511
0.932586 0.787808 0.635584
0.987976 0.806699 0.658625
0.253880 0.719844 0.501701
0.316869 0.718502 0.508843
0.448524 0.713985 0.527550
0.599207 0.706172 0.582666
0.682094 0.698024 0.613153
0.714290 0.721492 0.620508
0.865690 0.820798 0.669947
0.978088 0.874601 0.725978
0.370214 0.807523 0.575677
0.405798 0.805722 0.579675
0.498116 0.800900 0.592432
0.612787 0.795712 0.621698
0.725063 0.785855 0.673304
0.776486 0.789853 0.694301
0.807553 0.812955 0.703090
0.927886 0.897063 0.753201
0.457130 0.899046 0.655360
0.480751 0.897459 0.657160
0.559350 0.893431 0.669276
0.660212 0.891173 0.692500
0.779355 0.882963 0.749905
0.845060 0.878050 0.776761
0.878080 0.888579 0.793423
0.902800 0.907012 0.803983
0.000000 0.151522 0.419104
0.129854 0.158541 0.433204
0.363226 0.159335 0.470375
0.552148 0.252628 0.460029
0.665034 0.338811 0.451545
0.736751 0.394568 0.454231
0.839139 0.500481 0.510369
0.945159 0.596918 0.564294
0.139498 0.236851 0.434943
0.198581 0.238712 0.445594
0.371130 0.243503 0.477028
0.550530 0.306310 0.471931
0.661463 0.370153 0.462379
0.731807 0.419989 0.466407
0.841703 0.517174 0.519280
0.946410 0.607446 0.569177
0.185458 0.344945 0.451911
0.256382 0.361517 0.457252
0.391058 0.397375 0.487892
0.546380 0.427222 0.504021
0.652338 0.451362 0.493263
0.749447 0.508507 0.517876
0.860166 0.582940 0.560418
0.954864 0.653895 0.598291
0.141329 0.483619 0.506401
0.230625 0.491371 0.510521
0.396521 0.514611 0.524437
0.548577 0.550072 0.549493
0.681025 0.584680 0.566033
0.784024 0.623072 0.587091
0.880339 0.669306 0.612482
0.963195 0.720668 0.641718
0.115267 0.635676 0.563531
0.220768 0.637201 0.566094
0.391547 0.645136 0.576654
0.561120 0.645563 0.582940
0.646509 0.651301 0.608789
0.814939 0.742306 0.661280
0.910277 0.775265 0.684840
0.974975 0.800717 0.701534
0.239780 0.735622 0.600244
0.309178 0.735988 0.603754
0.446204 0.730617 0.607446
0.580041 0.726314 0.619562
0.693935 0.718685 0.659297
0.729122 0.734371 0.667964
0.878233 0.830106 0.718502
0.982422 0.879118 0.772000
0.358556 0.816709 0.642115
0.395727 0.815793 0.644343
0.492287 0.812558 0.650813
0.604517 0.808682 0.663203
0.724697 0.802792 0.704982
0.788113 0.799680 0.727321
0.815976 0.820462 0.733364
0.935576 0.903044 0.785183
0.447608 0.906767 0.706874
0.472084 0.905943 0.708095
0.542138 0.902495 0.710872
0.639551 0.897978 0.719448
0.751949 0.892424 0.750729
0.842588 0.885435 0.792782
0.882322 0.892180 0.811978
0.906859 0.910765 0.821775
0.207706 0.264714 0.563622
0.259342 0.272282 0.569909
0.392309 0.290562 0.588159
0.562951 0.319921 0.613489
0.680873 0.417487 0.597192
0.760006 0.478767 0.587182
0.826658 0.510155 0.583886
0.905028 0.569909 0.610651
0.265721 0.326390 0.568566
0.302220 0.331792 0.574487
0.408423 0.343908 0.591302
0.564355 0.363470 0.617334
0.678737 0.442634 0.601984
0.757839 0.494179 0.592187
0.824949 0.520409 0.587518
0.907744 0.581872 0.616632
0.335332 0.429450 0.567620
0.367987 0.440131 0.575158
0.443336 0.456031 0.596033
0.562127 0.467872 0.623316
0.672755 0.509636 0.616663
0.749050 0.536461 0.604700
0.817472 0.549218 0.595880
0.916106 0.619959 0.635035
0.335393 0.511620 0.594629
0.371954 0.519036 0.596735
0.466865 0.542840 0.604608
0.567559 0.573938 0.630091
0.669551 0.593103 0.641566
0.739986 0.595514 0.625818
0.823423 0.620661 0.632715
0.934783 0.683497 0.667018
0.326238 0.616083 0.633600
0.363500 0.619348 0.635431
0.459266 0.629511 0.641199
0.568536 0.646906 0.652674
0.668971 0.670497 0.669886
0.770718 0.697230 0.683345
0.869230 0.731899 0.700649
0.954376 0.771817 0.721492
0.319097 0.724697 0.673762
0.356176 0.725399 0.675166
0.450446 0.727932 0.679194
0.559472 0.735775 0.687831
0.672572 0.736507 0.688746
0.741695 0.744747 0.710689
0.896330 0.838468 0.771939
0.973785 0.867521 0.798520
0.343206 0.825864 0.722621
0.373419 0.825834 0.723568
0.469795 0.822416 0.722103
0.583124 0.818692 0.720729
0.686946 0.816464 0.721706
0.791348 0.810697 0.756832
0.823331 0.826688 0.765011
0.945830 0.908751 0.820310
0.420325 0.912474 0.767483
0.444892 0.911345 0.767147
0.517052 0.907988 0.765957
0.611139 0.906249 0.765805
0.710414 0.901671 0.765896
0.831144 0.894835 0.809751
0.885832 0.894926 0.832273
0.909850 0.913268 0.840299
0.357275 0.388800 0.671443
0.382788 0.393744 0.674464
0.460060 0.408087 0.684535
0.574762 0.429480 0.702968
0.695277 0.464546 0.714443
0.773159 0.534997 0.696010
0.850889 0.590967 0.701350
0.922637 0.621881 0.708583
0.382208 0.424506 0.670314
0.402594 0.427436 0.673060
0.470130 0.438483 0.683406
0.574853 0.454383 0.700984
0.692561 0.482948 0.714046
0.770687 0.547021 0.697444
0.848814 0.597955 0.702541
0.921172 0.625788 0.708705
0.437171 0.507347 0.672236
0.454353 0.511528 0.675898
0.500999 0.517296 0.686519
0.583703 0.527581 0.703029
0.691371 0.543145 0.720089
0.768093 0.589166 0.707210
0.845304 0.623560 0.709895
0.918700 0.641321 0.711269
0.454932 0.568627 0.675654
0.474098 0.573602 0.676143
0.530632 0.591058 0.683223
0.600610 0.610285 0.706905
0.690578 0.621485 0.730465
0.768093 0.647425 0.725154
0.841794 0.660670 0.721157
0.915953 0.664393 0.713252
0.448890 0.633112 0.698726
0.468849 0.636439 0.699733
0.527764 0.647089 0.703120
0.606104 0.664912 0.709529
0.681575 0.686275 0.729000
0.763699 0.700679 0.740139
0.830594 0.693629 0.723781
0.914000 0.710475 0.725093
0.442481 0.711604 0.726467
0.462959 0.713863 0.727962
0.521538 0.719081 0.731106
0.599359 0.728206 0.737026
0.677546 0.741451 0.746365
0.764492 0.764645 0.764584
0.865110 0.795163 0.782193
0.950713 0.828733 0.801358
0.436683 0.812619 0.773495
0.456916 0.813687 0.774777
0.514916 0.815915 0.777615
0.591302 0.821439 0.782925
0.671046 0.831724 0.789792
0.772000 0.833494 0.787228
0.837644 0.839292 0.807126
0.963958 0.919402 0.869139
0.439307 0.914183 0.828916
0.456306 0.914122 0.829099
0.508629 0.914580 0.830137
0.583886 0.916442 0.830747
0.681758 0.912902 0.822141
0.786435 0.908751 0.819059
0.888151 0.903441 0.856840
0.916136 0.918761 0.866209
0.477790 0.502251 0.760647
0.492866 0.505608 0.763149
0.539788 0.513390 0.769589
0.616114 0.525353 0.781552
0.713558 0.539208 0.798062
0.801205 0.573510 0.801877
0.860166 0.629328 0.786587
0.934691 0.688594 0.802090
0.487434 0.520623 0.758663
0.500969 0.523217 0.761044
0.544244 0.529503 0.767544
0.615900 0.539117 0.779080
0.710201 0.551354 0.795529
0.797757 0.581353 0.800168
0.856992 0.633356 0.785153
0.931975 0.689387 0.800198
0.522484 0.577996 0.759823
0.529290 0.576928 0.762081
0.563439 0.580468 0.768032
0.624262 0.587640 0.779446
0.708705 0.596582 0.795590
0.795987 0.616541 0.804074
0.856901 0.658930 0.791928
0.932189 0.706691 0.805844
0.540917 0.628717 0.755581
0.550896 0.630884 0.757473
0.585504 0.639399 0.765652
0.635828 0.647730 0.780117
0.706661 0.654658 0.796933
0.794491 0.665888 0.812467
0.857298 0.696956 0.802823
0.931121 0.730556 0.812161
0.539269 0.675013 0.767819
0.550622 0.676814 0.767697
0.587671 0.683803 0.768246
0.640681 0.695521 0.770993
0.699458 0.706996 0.794278
0.784726 0.715602 0.818143
0.854032 0.738186 0.812985
0.927214 0.756710 0.816068
0.533379 0.735103 0.790890
0.545403 0.736416 0.791257
0.582910 0.740749 0.792660
0.636378 0.747799 0.795621
0.698543 0.757259 0.799893
0.772580 0.775875 0.819425
0.855283 0.793576 0.832181
0.921691 0.787747 0.818601
0.528435 0.806302 0.818662
0.540612 0.807340 0.819455
0.577234 0.809781 0.821103
0.630152 0.814420 0.824460
0.693843 0.821134 0.829313
0.769650 0.832792 0.837949
0.855863 0.855131 0.855436
0.946136 0.884855 0.873960
0.515801 0.894926 0.861814
0.526787 0.895415 0.862272
0.564050 0.901030 0.867582
0.617945 0.906523 0.872313
0.686183 0.912169 0.876310
0.766537 0.920836 0.881437
0.865324 0.921294 0.878813
0.925872 0.927184 0.899382
0.597345 0.615686 0.856352
0.606561 0.617121 0.857725
0.636255 0.619654 0.861082
0.688228 0.625086 0.868284
0.757504 0.632044 0.878447
0.838132 0.641321 0.891447
0.901274 0.672786 0.890745
0.941863 0.723262 0.872496
0.600397 0.625544 0.855039
0.609247 0.626703 0.856443
0.637903 0.628962 0.860014
0.687892 0.633387 0.867002
0.755825 0.639643 0.877317
0.836088 0.647791 0.890593
0.899535 0.676997 0.890135
0.940795 0.726101 0.872435
0.610529 0.656275 0.853788
0.617914 0.656886 0.854978
0.642817 0.657801 0.858244
0.689876 0.662440 0.866484
0.753384 0.666529 0.876677
0.830777 0.672236 0.889799
0.896910 0.695766 0.891539
0.940002 0.740658 0.875517
0.617517 0.694667 0.849912
0.625696 0.696407 0.851682
0.651820 0.700526 0.856779
0.689448 0.701259 0.865141
0.747982 0.704891 0.876005
0.822568 0.709987 0.889921
0.893767 0.726741 0.895628
0.939879 0.765377 0.881926
0.624323 0.737087 0.849851
0.631586 0.738277 0.850126
0.652857 0.740261 0.850462
0.682734 0.740414 0.859312
0.737118 0.745937 0.873075
0.808042 0.751583 0.888121
0.887633 0.764218 0.900725
0.939818 0.798093 0.891081
0.617762 0.783505 0.867002
0.624170 0.783536 0.866697
0.645808 0.784207 0.866117
0.681575 0.785794 0.865690
0.730617 0.789792 0.865476
0.794247 0.799924 0.886290
0.880400 0.813718 0.909422
0.940154 0.839139 0.903838
0.611292 0.839689 0.887694
0.617762 0.839719 0.887633
0.639551 0.839994 0.887633
0.676967 0.841367 0.888396
0.728206 0.844114 0.889799
0.790677 0.850065 0.892210
0.864378 0.866667 0.908202
0.939178 0.885130 0.918761
0.604883 0.900603 0.910521
0.611444 0.900694 0.910643
0.634577 0.901701 0.911620
0.674983 0.904082 0.913848
0.727993 0.907012 0.916258
0.791348 0.912016 0.919890
0.863279 0.921263 0.926238
0.940856 0.940276 0.940490
