data/fiter_cube/27130762/1023404/file.cube
# Created by Adobe Lightroom plugin Export LUT (1.17.0)
# www.johnrellis.com/lightroom/exportlut.htm
# Preset: 森系文艺人像美食静物_08 云集
# Color profile: C:\Program Files (x86)\Common Files\Adobe\Color\Profiles\Recommended\AdobeRGB1998.icc
LUT_3D_SIZE 32
DOMAIN_MIN 0.0 0.0 0.0
DOMAIN_MAX 1.0 1.0 1.0
0.000000 0.000000 0.000000
0.000092 0.005798 0.001678
0.004120 0.012116 0.003235
0.026368 0.027100 0.005737
0.074037 0.046906 0.008576
0.122896 0.052064 0.010010
0.194308 0.019928 0.006958
0.273198 0.000000 0.000000
0.349554 0.000000 0.000000
0.420142 0.000000 0.000000
0.483894 0.000000 0.000000
0.539910 0.000000 0.000000
0.589197 0.000000 0.000000
0.632288 0.000000 0.000000
0.670649 0.103365 0.000000
0.705501 0.152682 0.000000
0.736324 0.194064 0.000000
0.765316 0.234043 0.000000
0.793027 0.273930 0.056733
0.818448 0.311162 0.102083
0.842374 0.346624 0.138643
0.865354 0.380011 0.171267
0.887022 0.412085 0.201511
0.907286 0.442420 0.231327
0.926604 0.471565 0.259800
0.945006 0.500008 0.288304
0.962585 0.527916 0.317144
0.979522 0.555505 0.346258
0.995819 0.582635 0.375830
1.000000 0.609369 0.405921
1.000000 0.635401 0.436072
1.000000 0.660578 0.466468
0.000000 0.012024 0.003418
0.000000 0.014191 0.006470
0.001862 0.025330 0.004364
0.026673 0.041077 0.006775
0.075837 0.056733 0.010620
0.125460 0.060212 0.011810
0.197238 0.035035 0.007111
0.275547 0.000000 0.000000
0.351110 0.000000 0.000000
0.421088 0.000000 0.000000
0.484352 0.000000 0.000000
0.540063 0.000000 0.000000
0.588678 0.000000 0.000000
0.631739 0.053864 0.000000
0.669978 0.115694 0.000000
0.704585 0.160830 0.000000
0.735409 0.200381 0.000000
0.764340 0.238621 0.000000
0.791653 0.276860 0.057923
0.816587 0.312810 0.102876
0.840482 0.347356 0.137881
0.863462 0.380163 0.169528
0.885039 0.411719 0.200412
0.905425 0.441657 0.229862
0.924865 0.470680 0.258152
0.943389 0.498970 0.286381
0.961181 0.526909 0.315251
0.978271 0.554650 0.344732
0.994690 0.581903 0.374304
1.000000 0.608667 0.404364
1.000000 0.634730 0.434546
1.000000 0.659907 0.464912
0.000000 0.027405 0.007599
0.000000 0.029603 0.011749
0.000000 0.033936 0.013519
0.024109 0.056794 0.011780
0.077546 0.065583 0.013153
0.129580 0.068086 0.012757
0.201266 0.057557 0.007172
0.279301 0.004059 0.000000
0.354070 0.000000 0.000000
0.423224 0.000000 0.000000
0.486152 0.000000 0.000000
0.541283 0.000000 0.000000
0.589441 0.000000 0.000000
0.632380 0.087068 0.000000
0.670497 0.132906 0.000000
0.704921 0.172366 0.000000
0.735500 0.209964 0.000000
0.764370 0.246616 0.000000
0.791165 0.282780 0.063783
0.816098 0.317632 0.104799
0.839872 0.351049 0.139742
0.862669 0.383398 0.171664
0.884337 0.414160 0.201297
0.904784 0.443946 0.230411
0.924071 0.472480 0.259251
0.942687 0.500389 0.286992
0.960479 0.528222 0.316106
0.977661 0.555749 0.345129
0.994079 0.582818 0.374853
1.000000 0.609491 0.404700
1.000000 0.635309 0.434668
1.000000 0.660426 0.465003
0.000000 0.058289 0.017914
0.000000 0.059602 0.023041
0.000000 0.059937 0.030335
0.008301 0.064027 0.032532
0.070985 0.081392 0.025940
0.139742 0.088228 0.014252
0.212802 0.084413 0.006226
0.289921 0.072511 0.000000
0.362768 0.051606 0.000000
0.430549 0.023865 0.000000
0.491676 0.023194 0.000000
0.545556 0.062928 0.000000
0.593042 0.096773 0.000000
0.634913 0.130495 0.000000
0.672602 0.164340 0.000000
0.706508 0.197726 0.000000
0.736721 0.230411 0.000000
0.765438 0.263951 0.000000
0.791470 0.297032 0.074220
0.815640 0.328954 0.112306
0.838987 0.360266 0.145327
0.861601 0.390936 0.176272
0.883299 0.420661 0.205295
0.903868 0.449744 0.234470
0.923552 0.478065 0.262913
0.942412 0.506004 0.291417
0.960510 0.533379 0.319799
0.977691 0.560662 0.349432
0.994171 0.587243 0.378424
1.000000 0.613336 0.408301
1.000000 0.638605 0.437720
1.000000 0.663020 0.467170
0.000000 0.077882 0.032044
0.000000 0.078706 0.032807
0.000366 0.079286 0.044160
0.027741 0.078492 0.052583
0.047395 0.085603 0.053101
0.110414 0.116060 0.038636
0.214267 0.128695 0.006775
0.304509 0.125612 0.000000
0.375219 0.121401 0.000000
0.440589 0.120485 0.000000
0.499672 0.125216 0.000000
0.551934 0.137392 0.000000
0.598077 0.156161 0.000000
0.639094 0.179629 0.000000
0.676020 0.205142 0.000000
0.709590 0.232639 0.000000
0.739162 0.260227 0.000000
0.768093 0.290959 0.035798
0.793271 0.319982 0.092897
0.816983 0.348791 0.126558
0.839902 0.377234 0.156954
0.862119 0.405676 0.186526
0.883543 0.433539 0.214694
0.903990 0.461097 0.242954
0.923613 0.488106 0.270695
0.942321 0.514946 0.298802
0.960357 0.541558 0.326696
0.977417 0.567681 0.355322
0.993774 0.593561 0.383978
1.000000 0.618738 0.412909
1.000000 0.643366 0.441810
1.000000 0.667170 0.470954
0.000000 0.102144 0.047181
0.000000 0.103456 0.046632
0.000000 0.104768 0.047700
0.036286 0.104921 0.061372
0.068421 0.106477 0.066468
0.081971 0.117952 0.065919
0.165866 0.163821 0.046387
0.282506 0.185275 0.000000
0.392981 0.189578 0.000000
0.455695 0.190097 0.000000
0.511925 0.194339 0.000000
0.562036 0.203006 0.000000
0.606195 0.215976 0.000000
0.645960 0.233158 0.000000
0.681849 0.252903 0.000000
0.714565 0.275334 0.000000
0.743984 0.298863 0.008331
0.771847 0.324834 0.079713
0.796445 0.349798 0.114595
0.819821 0.375372 0.145144
0.842435 0.401007 0.173922
0.864469 0.426795 0.201846
0.898466 0.472847 0.251774
0.917723 0.497749 0.278233
0.935821 0.522026 0.304631
0.953033 0.545922 0.330755
0.969421 0.569451 0.357031
0.985168 0.592798 0.383093
1.000000 0.615869 0.409064
1.000000 0.638514 0.435737
1.000000 0.660731 0.462409
1.000000 0.682185 0.489174
0.000000 0.140932 0.059083
0.000000 0.142153 0.057221
0.000000 0.144137 0.056184
0.026398 0.147158 0.068147
0.082521 0.145541 0.076539
0.109773 0.150546 0.080934
0.131472 0.165896 0.080354
0.234257 0.224002 0.060090
0.352819 0.254276 0.000000
0.458534 0.268376 0.000000
0.533684 0.272282 0.000000
0.580896 0.276799 0.000000
0.622461 0.285039 0.000000
0.659846 0.296696 0.000000
0.694057 0.310918 0.000000
0.724483 0.327306 0.018433
0.753658 0.347356 0.082795
0.780179 0.368566 0.116548
0.804196 0.389837 0.145663
0.827237 0.412055 0.174533
0.850278 0.436011 0.202914
0.872923 0.460761 0.231174
0.894621 0.485847 0.259434
0.915190 0.510887 0.287053
0.934356 0.535241 0.314458
0.952148 0.558679 0.340734
0.968688 0.581323 0.366705
0.984436 0.603479 0.391882
0.999451 0.625360 0.417487
1.000000 0.646906 0.442817
1.000000 0.668025 0.468544
1.000000 0.688563 0.494697
0.000000 0.187015 0.064302
0.000000 0.188113 0.063416
0.000000 0.189822 0.062287
0.000000 0.193179 0.066590
0.085664 0.194034 0.086458
0.138369 0.190005 0.098848
0.164767 0.200443 0.102358
0.190524 0.217288 0.102541
0.287510 0.276188 0.089754
0.407385 0.319249 0.048585
0.505821 0.339025 0.000000
0.587243 0.348425 0.000000
0.632959 0.352056 0.000000
0.668971 0.358221 0.000000
0.701595 0.367437 0.053040
0.731380 0.379004 0.088258
0.759792 0.394598 0.119295
0.784665 0.410163 0.146914
0.807523 0.426917 0.173220
0.829984 0.445197 0.198764
0.852323 0.465339 0.225101
0.874296 0.486763 0.251591
0.895476 0.509026 0.277684
0.915526 0.531395 0.303868
0.934264 0.553491 0.330083
0.951812 0.575036 0.354772
0.968261 0.595911 0.379034
0.983764 0.616510 0.403388
0.998718 0.637049 0.427558
1.000000 0.657160 0.451789
1.000000 0.677272 0.476875
1.000000 0.696742 0.502007
0.000000 0.239994 0.073884
0.000000 0.241062 0.072724
0.000000 0.242771 0.071992
0.000000 0.245731 0.071992
0.084657 0.248722 0.101991
0.152773 0.244999 0.116365
0.205783 0.240116 0.132509
0.227787 0.255131 0.132876
0.253666 0.272526 0.133944
0.337713 0.328710 0.129427
0.456794 0.381353 0.108949
0.546380 0.404120 0.094392
0.621302 0.416785 0.084688
0.679652 0.423346 0.082979
0.710628 0.427161 0.108736
0.740475 0.435615 0.134859
0.766751 0.444984 0.159426
0.790433 0.455787 0.182223
0.812375 0.467811 0.204929
0.833982 0.482063 0.228458
0.855711 0.498726 0.251530
0.877012 0.516991 0.275975
0.897429 0.536126 0.300633
0.916869 0.555810 0.324895
0.935180 0.575402 0.348821
0.952178 0.594568 0.372473
0.968322 0.613489 0.395178
0.983642 0.632258 0.417731
0.998352 0.651057 0.440284
1.000000 0.669764 0.463386
1.000000 0.688319 0.486915
1.000000 0.706630 0.511192
0.000000 0.295476 0.088411
0.000000 0.296361 0.088289
0.000000 0.297520 0.088045
0.000000 0.300328 0.088350
0.057099 0.302922 0.107607
0.164675 0.301213 0.138979
0.226322 0.295537 0.155123
0.268345 0.295598 0.169345
0.289494 0.310796 0.170626
0.313725 0.327855 0.172671
0.382727 0.378027 0.175204
0.498756 0.436042 0.163729
0.580957 0.460304 0.161563
0.650324 0.475044 0.162051
0.712306 0.487221 0.165866
0.749935 0.492714 0.182345
0.774899 0.497383 0.201755
0.797421 0.503502 0.222019
0.818723 0.511925 0.241825
0.839536 0.522515 0.262303
0.860105 0.535302 0.283360
0.880369 0.549828 0.304234
0.899748 0.565270 0.325536
0.918090 0.581598 0.347753
0.935668 0.598291 0.369299
0.952392 0.615167 0.390478
0.968231 0.632105 0.411658
0.983398 0.649287 0.432959
0.997955 0.666621 0.454841
1.000000 0.684016 0.476783
1.000000 0.701289 0.499611
1.000000 0.718441 0.523003
0.000000 0.349767 0.109651
0.000000 0.350439 0.108888
0.000000 0.351598 0.109224
0.000000 0.353552 0.110933
0.000000 0.356207 0.117189
0.174716 0.355962 0.164950
0.242130 0.351232 0.182010
0.295903 0.345830 0.200259
0.326726 0.350530 0.210513
0.347082 0.365454 0.212924
0.369116 0.381537 0.215244
0.424231 0.424170 0.221714
0.535393 0.484138 0.218204
0.613214 0.510948 0.223850
0.679713 0.529107 0.230930
0.735592 0.541009 0.238834
0.782376 0.548974 0.247013
0.803891 0.551232 0.263706
0.824430 0.555840 0.279820
0.844541 0.562860 0.297490
0.864347 0.572442 0.316136
0.883818 0.583856 0.334813
0.902434 0.596612 0.354681
0.920287 0.610132 0.374029
0.937316 0.624384 0.393408
0.953460 0.638758 0.412634
0.968841 0.653437 0.431647
0.983642 0.668452 0.450965
0.997803 0.683803 0.470954
1.000000 0.699428 0.491432
1.000000 0.715175 0.512932
1.000000 0.730892 0.535515
0.000000 0.402533 0.134798
0.000000 0.403082 0.135012
0.000000 0.403906 0.136110
0.000000 0.405371 0.138369
0.000000 0.407263 0.144259
0.166995 0.407538 0.177218
0.255711 0.404456 0.212039
0.311986 0.399298 0.228916
0.359045 0.393835 0.247776
0.380926 0.403204 0.254032
0.399573 0.416968 0.256748
0.419623 0.431708 0.259800
0.475319 0.479713 0.282414
0.583886 0.542168 0.288609
0.655482 0.569299 0.299168
0.715999 0.587152 0.309728
0.766049 0.598871 0.319829
0.809964 0.608057 0.328740
0.841123 0.613672 0.338903
0.859648 0.617151 0.352697
0.877775 0.622736 0.366979
0.895293 0.630152 0.382361
0.912169 0.638758 0.397528
0.928374 0.648646 0.413458
0.943969 0.659236 0.429541
0.959045 0.670680 0.445441
0.973358 0.682399 0.461860
0.987091 0.694606 0.478828
1.000000 0.707332 0.496040
1.000000 0.720485 0.514549
1.000000 0.733944 0.533806
1.000000 0.747616 0.554681
0.000000 0.457069 0.167453
0.000000 0.457343 0.167910
0.000000 0.457527 0.168826
0.000000 0.457893 0.171328
0.027039 0.458595 0.177462
0.164553 0.458534 0.195346
0.270085 0.455665 0.243992
0.328008 0.450629 0.261357
0.376623 0.445411 0.278660
0.416358 0.441749 0.297459
0.432868 0.454597 0.300999
0.453346 0.470649 0.307897
0.474495 0.486702 0.314611
0.509392 0.516655 0.327733
0.612055 0.577874 0.336767
0.678645 0.604883 0.349432
0.733761 0.622309 0.360967
0.780514 0.634424 0.370764
0.822660 0.644953 0.380804
0.861112 0.654994 0.389868
0.881712 0.659205 0.401404
0.898589 0.663874 0.413611
0.914641 0.669917 0.426917
0.930266 0.677241 0.440223
0.945281 0.685573 0.454231
0.959777 0.694667 0.468238
0.973663 0.704341 0.482795
0.987060 0.714778 0.498085
0.999969 0.725673 0.514153
1.000000 0.737270 0.531151
1.000000 0.749203 0.549554
1.000000 0.761501 0.569146
0.000000 0.499855 0.197269
0.000000 0.500023 0.198062
0.000000 0.500084 0.199435
0.000000 0.500237 0.202396
0.079622 0.500145 0.208133
0.169406 0.500206 0.218357
0.267185 0.497627 0.258518
0.339940 0.493385 0.291539
0.388281 0.488563 0.307378
0.431739 0.485328 0.326177
0.463172 0.487770 0.342657
0.479774 0.500755 0.348089
0.497169 0.513878 0.353368
0.514946 0.527001 0.359106
0.544213 0.551537 0.370123
0.634150 0.606592 0.380713
0.698207 0.634882 0.392676
0.748989 0.651911 0.404364
0.794003 0.665248 0.415351
0.835416 0.677546 0.425544
0.872862 0.689052 0.436072
0.902312 0.697902 0.446448
0.917754 0.701595 0.457282
0.932738 0.706722 0.468818
0.947204 0.712825 0.480446
0.961151 0.719936 0.492988
0.974578 0.727626 0.505821
0.987549 0.736172 0.519463
1.000000 0.745357 0.534234
1.000000 0.755276 0.549981
1.000000 0.765713 0.567346
1.000000 0.776638 0.585870
0.000000 0.538231 0.228641
0.000000 0.538506 0.229862
0.000000 0.538293 0.230777
0.000000 0.538109 0.233982
0.114961 0.537804 0.239780
0.188235 0.537316 0.249027
0.266117 0.535546 0.274784
0.351965 0.532769 0.321752
0.401648 0.529290 0.338903
0.445014 0.526055 0.355840
0.482277 0.523339 0.374273
0.504784 0.528435 0.385504
0.519432 0.539574 0.390204
0.534600 0.550805 0.394659
0.549889 0.561822 0.399145
0.574578 0.581964 0.407568
0.652796 0.631067 0.419196
0.715450 0.660883 0.431159
0.763699 0.678401 0.443275
0.808011 0.693629 0.455024
0.848356 0.707393 0.466041
0.884367 0.719722 0.476905
0.915892 0.730404 0.487404
0.935454 0.735927 0.497566
0.949432 0.740139 0.507561
0.962860 0.745449 0.518669
0.975891 0.751553 0.530419
0.988464 0.758572 0.543328
1.000000 0.766415 0.557153
1.000000 0.774929 0.572107
1.000000 0.784054 0.588495
1.000000 0.793515 0.605890
0.000000 0.573205 0.260472
0.000000 0.573358 0.261509
0.000000 0.573541 0.263035
0.073762 0.573632 0.266819
0.150546 0.573632 0.273075
0.212985 0.573632 0.282506
0.271702 0.573419 0.296544
0.354803 0.570520 0.340063
0.416541 0.567102 0.371679
0.458198 0.563470 0.386053
0.494942 0.560235 0.401923
0.526543 0.557427 0.418830
0.541527 0.564111 0.424689
0.553918 0.573205 0.427741
0.566766 0.582300 0.430549
0.579767 0.591363 0.433387
0.601251 0.608637 0.440375
0.669184 0.652155 0.452430
0.731563 0.684169 0.464881
0.779049 0.703487 0.478645
0.822660 0.720607 0.491341
0.861967 0.735714 0.503532
0.896483 0.748501 0.514916
0.926665 0.759396 0.526329
0.952605 0.768490 0.537469
0.965515 0.772000 0.546960
0.977966 0.776364 0.557305
0.989990 0.781796 0.568933
1.000000 0.787930 0.581567
1.000000 0.794675 0.594903
1.000000 0.801938 0.609491
1.000000 0.809689 0.625025
0.000000 0.606592 0.293553
0.005158 0.606531 0.294652
0.078340 0.606500 0.296391
0.131960 0.606195 0.299657
0.184451 0.605798 0.305486
0.237034 0.605341 0.314092
0.289250 0.604669 0.326024
0.356817 0.602319 0.356451
0.427161 0.598840 0.398169
0.468269 0.595209 0.412787
0.504173 0.591821 0.426490
0.535973 0.588739 0.440803
0.562310 0.586633 0.455299
0.573083 0.594568 0.458076
0.584192 0.602594 0.460395
0.595514 0.610529 0.462409
0.607233 0.618494 0.464546
0.626001 0.633326 0.470130
0.685084 0.672023 0.482734
0.747555 0.706264 0.496193
0.794308 0.727047 0.510613
0.836881 0.745266 0.523949
0.874723 0.760800 0.536584
0.907713 0.773892 0.548974
0.936553 0.784878 0.561089
0.961669 0.794034 0.572961
0.979492 0.799954 0.583673
0.991028 0.803830 0.593866
1.000000 0.808438 0.604974
1.000000 0.813687 0.617121
1.000000 0.819577 0.630243
1.000000 0.825956 0.644678
0.105959 0.636439 0.325444
0.122225 0.636561 0.326940
0.156374 0.644160 0.337316
0.188205 0.643793 0.340642
0.228244 0.643091 0.346410
0.271824 0.642206 0.354192
0.318090 0.640955 0.364538
0.369818 0.639124 0.382879
0.436408 0.635340 0.420508
0.486854 0.631769 0.446845
0.521019 0.628199 0.458350
0.552026 0.624781 0.470588
0.579126 0.621424 0.483284
0.598322 0.621485 0.492714
0.607752 0.628138 0.494331
0.617365 0.634882 0.495766
0.627436 0.641657 0.497444
0.637629 0.648432 0.498787
0.653681 0.660700 0.503471
0.704555 0.694850 0.516136
0.767300 0.731014 0.529992
0.812955 0.752926 0.544793
0.853849 0.771542 0.558434
0.889555 0.786954 0.571679
0.920531 0.799557 0.584314
0.947417 0.809873 0.596277
0.970733 0.818265 0.607782
0.991058 0.825162 0.619104
1.000000 0.828641 0.628748
1.000000 0.832425 0.639399
1.000000 0.836881 0.651179
1.000000 0.841855 0.664210
0.165835 0.666011 0.358526
0.177523 0.666987 0.361028
0.192203 0.667842 0.363653
0.219455 0.668269 0.367895
0.253819 0.668208 0.373693
0.293095 0.667536 0.381323
0.334630 0.666377 0.390753
0.377264 0.665003 0.402502
0.436774 0.661646 0.433112
0.494270 0.657984 0.467781
0.529076 0.654414 0.479683
0.559411 0.650965 0.490455
0.586755 0.647639 0.501823
0.610590 0.644526 0.513390
0.624506 0.646540 0.519249
0.632959 0.652430 0.520500
0.641749 0.658381 0.521843
0.650874 0.664515 0.523186
0.660639 0.670863 0.524834
0.675044 0.681788 0.529046
0.719722 0.712734 0.541863
0.783413 0.751278 0.556786
0.828153 0.774075 0.572320
0.867582 0.793118 0.587274
0.901762 0.808591 0.601068
0.931334 0.821134 0.614130
0.957000 0.831296 0.626246
0.979126 0.839506 0.638483
0.998291 0.846128 0.650263
1.000000 0.850858 0.661891
1.000000 0.854002 0.672328
1.000000 0.857786 0.684382
0.206577 0.690608 0.386725
0.216403 0.691341 0.389044
0.228061 0.692103 0.391547
0.250248 0.692409 0.395514
0.280217 0.692256 0.401007
0.315038 0.691402 0.407843
0.352300 0.690211 0.416327
0.391485 0.688655 0.426520
0.438880 0.686366 0.446693
0.494789 0.682551 0.478798
0.537896 0.679194 0.501305
0.567437 0.675837 0.510796
0.594446 0.672572 0.520806
0.618616 0.669429 0.531304
0.639765 0.666438 0.542229
0.649409 0.670222 0.545006
0.657191 0.675593 0.546227
0.665461 0.681117 0.547387
0.674159 0.686946 0.548852
0.683345 0.693050 0.550683
0.696407 0.702785 0.554711
0.735714 0.731044 0.567407
0.798825 0.770443 0.583368
0.843626 0.794858 0.599573
0.881468 0.813870 0.614771
0.914092 0.829099 0.628779
0.942260 0.841367 0.642023
0.966491 0.851225 0.654810
0.987366 0.859129 0.667445
1.000000 0.865324 0.679988
1.000000 0.870176 0.692836
1.000000 0.873442 0.704860
0.242069 0.713649 0.414099
0.250462 0.714290 0.416052
0.260990 0.714961 0.418463
0.279820 0.715175 0.422309
0.306035 0.714900 0.427283
0.336858 0.714046 0.433570
0.370397 0.712764 0.440986
0.405921 0.711299 0.449928
0.442359 0.709773 0.461006
0.496437 0.706081 0.490761
0.545556 0.702510 0.520500
0.575708 0.699275 0.530907
0.602167 0.696101 0.539971
0.626459 0.692988 0.549432
0.648096 0.690120 0.559442
0.666346 0.688136 0.569085
0.673701 0.693294 0.570489
0.681575 0.698787 0.572290
0.689937 0.704585 0.574243
0.698817 0.710719 0.576623
0.708339 0.717220 0.579248
0.720821 0.726680 0.583642
0.755856 0.752956 0.596399
0.817227 0.792142 0.613428
0.862486 0.818387 0.629694
0.898497 0.837064 0.645319
0.929198 0.851835 0.659785
0.955505 0.863584 0.673732
0.977966 0.872862 0.687251
0.996918 0.880095 0.700740
1.000000 0.885618 0.714290
1.000000 0.889860 0.728267
0.281590 0.738888 0.444923
0.287633 0.739162 0.446387
0.295323 0.739193 0.447944
0.311223 0.738857 0.450752
0.333623 0.738247 0.455116
0.360662 0.737209 0.460304
0.391150 0.735897 0.466957
0.423651 0.734524 0.474983
0.457191 0.733181 0.484749
0.502190 0.730434 0.506126
0.550072 0.727108 0.534081
0.587823 0.723964 0.554040
0.613489 0.720974 0.562249
0.637354 0.718044 0.570886
0.659022 0.715175 0.579950
0.678401 0.712551 0.589502
0.692287 0.712612 0.596582
0.699367 0.717586 0.597986
0.706935 0.722896 0.599786
0.714992 0.728542 0.601770
0.723445 0.734432 0.603906
0.732357 0.740536 0.606226
0.743709 0.749050 0.609949
0.773953 0.772488 0.621088
0.832883 0.810697 0.638148
0.878019 0.837858 0.654444
0.912261 0.856077 0.670283
0.941344 0.870420 0.685359
0.966033 0.881773 0.700252
0.986786 0.890532 0.714748
1.000000 0.897246 0.729213
1.000000 0.902373 0.743923
0.311742 0.760128 0.470466
0.317266 0.760311 0.471656
0.324590 0.760433 0.473152
0.338415 0.760159 0.475807
0.358160 0.759518 0.479622
0.382483 0.758541 0.484321
0.409644 0.757259 0.490242
0.439429 0.755795 0.497230
0.470710 0.754421 0.506065
0.506188 0.752621 0.519493
0.553033 0.749325 0.545800
0.596490 0.746120 0.572442
0.623072 0.743252 0.581842
0.646632 0.740444 0.589837
0.668299 0.737758 0.598383
0.688014 0.735378 0.607324
0.705653 0.733272 0.616541
0.716396 0.735348 0.621485
0.723537 0.740505 0.623133
0.731106 0.745968 0.624994
0.739284 0.751797 0.627253
0.747829 0.757870 0.629603
0.756741 0.764218 0.632227
0.767514 0.772213 0.635767
0.791196 0.790951 0.643397
0.847837 0.828183 0.660761
0.892821 0.856138 0.677272
0.925322 0.873838 0.693996
0.952697 0.887724 0.710170
0.975647 0.898497 0.726040
0.994720 0.906798 0.741695
1.000000 0.913115 0.757290
0.345037 0.784115 0.498939
0.350164 0.784360 0.500114
0.355962 0.784421 0.501427
0.367895 0.783993 0.503655
0.385199 0.783230 0.506798
0.406683 0.782132 0.510887
0.431464 0.780697 0.515923
0.458412 0.779171 0.522026
0.487068 0.777462 0.529290
0.516716 0.775875 0.538140
0.558801 0.772641 0.559930
0.601068 0.769284 0.584771
0.634546 0.766201 0.602625
0.657191 0.763302 0.609644
0.678279 0.760433 0.616938
0.697688 0.757748 0.624628
0.715358 0.755367 0.632685
0.731319 0.753384 0.641169
0.739406 0.757259 0.643977
0.746639 0.762539 0.645838
0.754421 0.768246 0.648127
0.762570 0.774166 0.650477
0.770993 0.780209 0.652918
0.779477 0.786221 0.655238
0.789059 0.793210 0.658137
0.810208 0.811032 0.666804
0.864225 0.846891 0.684596
0.908354 0.874998 0.701747
0.938689 0.891844 0.719265
0.964111 0.904936 0.736416
0.985138 0.915038 0.753140
1.000000 0.922728 0.769863
0.370794 0.805203 0.522393
0.375006 0.805478 0.523674
0.380682 0.805509 0.524834
0.391302 0.805173 0.526940
0.406989 0.804440 0.529808
0.426825 0.803372 0.533532
0.449561 0.802152 0.538231
0.474708 0.800748 0.543816
0.501854 0.799283 0.550652
0.530022 0.797879 0.558770
0.564935 0.795651 0.573968
0.606928 0.792477 0.598016
0.645441 0.789578 0.621698
0.669215 0.786954 0.629969
0.690242 0.784390 0.636835
0.709743 0.781979 0.643977
0.727749 0.779721 0.651392
0.744350 0.777981 0.659449
0.758755 0.777188 0.667201
0.765591 0.782254 0.669032
0.772824 0.787655 0.671199
0.780514 0.793240 0.673426
0.788388 0.799039 0.675776
0.796475 0.804807 0.678187
0.804654 0.810636 0.680568
0.813382 0.816953 0.683223
0.831998 0.832975 0.691402
0.881529 0.866392 0.710048
0.924468 0.894377 0.728359
0.952605 0.910338 0.747036
0.975799 0.922545 0.765164
0.994659 0.931762 0.782773
0.397070 0.827756 0.547387
0.400793 0.827878 0.548425
0.405585 0.827787 0.549340
0.415167 0.827359 0.551080
0.429328 0.826535 0.553399
0.447242 0.825467 0.556725
0.468177 0.824186 0.560906
0.491768 0.822782 0.565911
0.517205 0.821378 0.572229
0.543999 0.820005 0.579583
0.572015 0.818601 0.588739
0.613214 0.815579 0.611536
0.651240 0.812802 0.633967
0.681453 0.810239 0.649836
0.702052 0.807889 0.656123
0.721645 0.805600 0.662715
0.739864 0.803433 0.669612
0.756741 0.801663 0.676967
0.772305 0.800351 0.684901
0.784115 0.801419 0.690974
0.790921 0.806516 0.692988
0.798062 0.811856 0.695247
0.805478 0.817319 0.697627
0.813046 0.822843 0.700069
0.820737 0.828367 0.702541
0.828550 0.833951 0.705074
0.836545 0.839658 0.707790
0.853880 0.854612 0.716152
0.897642 0.884672 0.735012
0.938537 0.911742 0.754421
0.965148 0.927245 0.773831
0.986175 0.938476 0.792477
0.421363 0.849668 0.571283
0.424628 0.849729 0.572015
0.429175 0.849607 0.572869
0.437781 0.849241 0.574517
0.451240 0.848600 0.576898
0.467994 0.847868 0.580316
0.488563 0.847105 0.584741
0.511437 0.846311 0.590173
0.536492 0.845579 0.596857
0.562982 0.844877 0.604730
0.590051 0.844266 0.613428
0.625269 0.842527 0.630579
0.662989 0.840269 0.652247
0.698024 0.838071 0.673487
0.720119 0.836118 0.681361
0.739620 0.834104 0.687556
0.757992 0.832181 0.694209
0.775082 0.830503 0.701228
0.790982 0.829221 0.708766
0.805631 0.828397 0.716854
0.814939 0.830961 0.721462
0.821500 0.835874 0.723781
0.828214 0.840909 0.726131
0.835172 0.846006 0.728664
0.842252 0.851164 0.731197
0.849424 0.856352 0.733852
0.856748 0.861631 0.736599
0.864225 0.867002 0.739590
0.879728 0.880369 0.748013
0.917235 0.906584 0.766720
0.954376 0.931273 0.786709
0.979248 0.946136 0.806088
0.452003 0.875547 0.600824
0.454932 0.875547 0.601465
0.458900 0.875334 0.602136
0.466682 0.874876 0.603449
0.478798 0.874113 0.605554
0.494392 0.873198 0.608423
0.513024 0.872160 0.612177
0.534295 0.871122 0.616907
0.557488 0.870024 0.622675
0.582086 0.868956 0.629358
0.606958 0.867918 0.636591
0.634943 0.866606 0.647120
0.671626 0.863981 0.667262
0.705898 0.861479 0.687251
