data/fiter_cube/87192323/1023455/file.cube
# Created by Adobe Lightroom plugin Export LUT (1.17.0)
# www.johnrellis.com/lightroom/exportlut.htm
# Preset: 日系清新自然_06 云集
# Color profile: C:\Program Files (x86)\Common Files\Adobe\Color\Profiles\Recommended\AdobeRGB1998.icc
LUT_3D_SIZE 8
DOMAIN_MIN 0.000000 0.000000 0.000000
DOMAIN_MAX 0.903226 0.903226 0.903226
0.000000 0.000000 0.000000
0.133120 0.035035 0.000000
0.290990 0.092103 0.000000
0.463752 0.131838 0.000000
0.642786 0.160647 0.000000
0.796780 0.177188 0.000000
0.921630 0.183200 0.000000
1.000000 0.176761 0.000000
0.025849 0.134920 0.072694
0.128145 0.168917 0.000000
0.295140 0.182712 0.000000
0.466865 0.204532 0.000000
0.644282 0.222080 0.000000
0.794736 0.229007 0.000000
0.918120 0.227634 0.000000
1.000000 0.217380 0.000000
0.068177 0.292729 0.144137
0.135317 0.297673 0.153994
0.290959 0.362219 0.000000
0.489479 0.369024 0.000000
0.673945 0.368292 0.000000
0.814847 0.356970 0.000000
0.934142 0.341833 0.000000
1.000000 0.320409 0.000000
0.141360 0.458106 0.241978
0.183993 0.462989 0.245853
0.300786 0.481147 0.281682
0.499367 0.576013 0.000000
0.695949 0.559319 0.000000
0.848997 0.517998 0.000000
0.949859 0.480781 0.000000
1.000000 0.444739 0.000000
0.225040 0.630060 0.343603
0.253422 0.634485 0.344213
0.360357 0.649348 0.374182
0.485298 0.688624 0.358831
0.677913 0.738949 0.000000
0.828336 0.687922 0.000000
0.952972 0.633600 0.000000
1.000000 0.576898 0.000000
0.333837 0.764858 0.451148
0.354314 0.770993 0.454139
0.435920 0.778103 0.479805
0.550164 0.790097 0.525231
0.640253 0.824033 0.435187
0.812619 0.852323 0.000000
0.941985 0.792691 0.000000
1.000000 0.725338 0.000000
0.467292 0.868833 0.570581
0.476478 0.871031 0.569940
0.529808 0.873228 0.587304
0.612207 0.877897 0.618891
0.706203 0.883696 0.660761
0.763668 0.915770 0.512718
0.914153 0.932311 0.125887
1.000000 0.868803 0.000000
0.589624 0.944732 0.676417
0.594446 0.945312 0.675349
0.627375 0.945892 0.685298
0.684230 0.946990 0.706233
0.747555 0.945129 0.728328
0.803281 0.954833 0.721553
0.856413 0.978454 0.570489
0.987274 0.986999 0.068818
0.000000 0.059846 0.145632
0.114900 0.058747 0.144900
0.272343 0.023407 0.136385
0.436439 0.105928 0.121279
0.619501 0.138186 0.100282
0.777066 0.163546 0.070924
0.907164 0.175418 0.000000
1.000000 0.171786 0.000000
0.000000 0.140230 0.137575
0.112398 0.160250 0.147677
0.272892 0.167880 0.134676
0.444099 0.186893 0.119722
0.625208 0.206149 0.096468
0.779019 0.218326 0.068055
0.905638 0.221500 0.000000
1.000000 0.213138 0.000000
0.073487 0.288487 0.193606
0.141390 0.300359 0.202976
0.276707 0.349859 0.143099
0.473884 0.353368 0.113283
0.654017 0.356329 0.087984
0.797482 0.348943 0.058808
0.918425 0.336645 0.000000
1.000000 0.317784 0.000000
0.156710 0.449042 0.278660
0.189242 0.457252 0.277958
0.299992 0.478645 0.308873
0.478035 0.556817 0.130617
0.672633 0.541222 0.000000
0.826658 0.507927 0.052491
0.934386 0.475898 0.000000
1.000000 0.443153 0.000000
0.246860 0.623438 0.378027
0.260533 0.628412 0.369390
0.357885 0.643153 0.392065
0.480507 0.676783 0.394018
0.663142 0.726680 0.130312
0.817350 0.679805 0.000000
0.945769 0.630152 0.000000
1.000000 0.576959 0.000000
0.347448 0.757900 0.473457
0.359167 0.761593 0.469856
0.432013 0.770260 0.488716
0.546899 0.784360 0.534783
0.639002 0.818448 0.467384
0.807980 0.848814 0.177127
0.938018 0.790188 0.000000
1.000000 0.724300 0.000000
0.473335 0.863005 0.582635
0.480232 0.864134 0.580163
0.526787 0.868070 0.592096
0.610986 0.874510 0.625299
0.706294 0.881987 0.668360
0.763638 0.912749 0.538018
0.909911 0.929320 0.212406
1.000000 0.866331 0.000000
0.594537 0.942168 0.684962
0.599908 0.943084 0.684352
0.628260 0.944549 0.690700
0.685512 0.946044 0.711940
0.753445 0.946899 0.738766
0.808804 0.954681 0.736202
0.858213 0.977478 0.593194
0.985870 0.986114 0.187869
0.000000 0.099550 0.307195
0.101045 0.095583 0.304631
0.242771 0.110750 0.294957
0.394934 0.143862 0.303197
0.589380 0.000000 0.277256
0.747524 0.123903 0.259983
0.890898 0.170993 0.254582
1.000000 0.180179 0.235752
0.000000 0.197787 0.306615
0.102510 0.186740 0.304479
0.241550 0.183413 0.295445
0.402014 0.188602 0.299809
0.588586 0.130678 0.263432
0.749203 0.198611 0.262852
0.890898 0.218601 0.254520
1.000000 0.220676 0.235691
0.000305 0.289128 0.284825
0.118898 0.297307 0.288457
0.236179 0.318029 0.295659
0.418555 0.321386 0.285618
0.611719 0.332952 0.280644
0.770138 0.339147 0.273838
0.902037 0.337621 0.262455
1.000000 0.325292 0.240909
0.106081 0.430823 0.335424
0.163760 0.439673 0.341131
0.284672 0.470497 0.361913
0.447547 0.532525 0.314305
0.655451 0.524743 0.297307
0.803220 0.504356 0.295842
0.921233 0.481575 0.280735
1.000000 0.453040 0.253330
0.213321 0.603998 0.419715
0.252811 0.610803 0.426398
0.351141 0.633570 0.443305
0.493721 0.664668 0.498512
0.648219 0.716335 0.331823
0.808896 0.673671 0.279759
0.939361 0.633539 0.304631
1.000000 0.587610 0.274876
0.337865 0.746609 0.510887
0.369696 0.750515 0.519860
0.440040 0.763333 0.534539
0.549676 0.779995 0.574731
0.646967 0.809781 0.562921
0.797116 0.841642 0.361761
0.930663 0.787472 0.272587
1.000000 0.728573 0.275669
0.483955 0.858488 0.618006
0.504906 0.859892 0.625483
0.543023 0.865934 0.630457
0.619440 0.873472 0.656855
0.713619 0.882536 0.698482
0.773251 0.909728 0.621057
0.907866 0.928710 0.389776
1.000000 0.867765 0.235752
0.612696 0.939971 0.715633
0.624384 0.940337 0.719631
0.641321 0.943084 0.717189
0.694301 0.946410 0.734829
0.761501 0.947906 0.761044
0.823972 0.952697 0.777615
0.866239 0.975799 0.662074
0.984558 0.985748 0.374273
0.000000 0.153902 0.468421
0.069093 0.155398 0.465766
0.242130 0.148623 0.452552
0.376013 0.163973 0.437964
0.514794 0.230045 0.444221
0.715724 0.126253 0.441932
0.865660 0.000000 0.402777
0.990082 0.000000 0.361486
0.000000 0.231022 0.471199
0.084352 0.227817 0.467903
0.242130 0.212436 0.454566
0.376440 0.213596 0.439002
0.516045 0.266300 0.445594
0.718746 0.174868 0.437293
0.864469 0.128450 0.397986
0.987427 0.181399 0.374975
0.000000 0.364782 0.466255
0.128084 0.369360 0.468025
0.239841 0.344427 0.457435
0.376013 0.328130 0.440681
0.542901 0.341711 0.450050
0.725460 0.307103 0.425483
0.869383 0.321965 0.406989
0.992706 0.340978 0.401282
0.074769 0.434180 0.430426
0.137331 0.438575 0.432471
0.250675 0.452277 0.438270
0.374273 0.470192 0.442786
0.574395 0.477974 0.442054
0.743160 0.485176 0.442908
0.885313 0.485634 0.439033
1.000000 0.472053 0.422156
0.126467 0.567041 0.476051
0.176089 0.572656 0.479164
0.295872 0.594446 0.492927
0.452186 0.633478 0.529168
0.607813 0.685481 0.492470
0.783780 0.667109 0.485176
0.913329 0.647364 0.490028
1.000000 0.611292 0.458015
0.281773 0.725673 0.554070
0.316991 0.731960 0.561242
0.413794 0.743862 0.579919
0.537438 0.767727 0.615167
0.665919 0.797482 0.672358
0.781186 0.831479 0.536004
0.918395 0.788602 0.480354
1.000000 0.746426 0.492561
0.444739 0.847196 0.642267
0.467475 0.849424 0.648371
0.538048 0.856779 0.669551
0.623896 0.870756 0.696315
0.720211 0.884123 0.736416
0.789273 0.906371 0.719753
0.902373 0.926146 0.564874
1.000000 0.870695 0.458320
0.592218 0.937499 0.733791
0.606409 0.938323 0.738338
0.651606 0.940856 0.753414
0.702724 0.946349 0.766232
0.768582 0.949584 0.789548
0.839322 0.952514 0.820127
0.877531 0.973175 0.746639
0.981598 0.984558 0.555444
0.000000 0.220401 0.628077
0.022248 0.220584 0.625452
0.243748 0.213993 0.613977
0.382666 0.186893 0.593194
0.521416 0.206119 0.583124
0.653773 0.276158 0.579461
0.815640 0.264317 0.581872
0.973754 0.091585 0.543236
0.000000 0.277562 0.629206
0.072328 0.275517 0.627131
0.246036 0.263157 0.615900
0.382116 0.233707 0.594354
0.521324 0.244419 0.583307
0.653559 0.305852 0.579889
0.818601 0.286931 0.581262
0.973602 0.168185 0.542443
0.088472 0.413947 0.631861
0.153323 0.409644 0.629206
0.248783 0.379858 0.618647
0.382544 0.350500 0.599878
0.520012 0.344335 0.582757
0.649714 0.390448 0.579278
0.827420 0.353216 0.576165
0.972198 0.299748 0.538018
0.118441 0.514244 0.617609
0.173373 0.517540 0.618647
0.290471 0.528832 0.622858
0.393042 0.502190 0.608026
0.519738 0.474128 0.583734
0.667567 0.493050 0.586358
0.840482 0.463722 0.567926
0.974945 0.438422 0.531975
0.135805 0.575830 0.575982
0.179263 0.578546 0.577173
0.280095 0.586603 0.579858
0.400458 0.598901 0.583062
0.515312 0.608667 0.581201
0.704402 0.621485 0.590265
0.859770 0.628809 0.596033
0.982940 0.619989 0.586389
0.153567 0.676234 0.597345
0.196262 0.680354 0.599695
0.304479 0.693568 0.607721
0.448768 0.717861 0.627527
0.603998 0.756252 0.669490
0.742275 0.802792 0.649622
0.894713 0.789944 0.650965
0.998199 0.766293 0.647730
0.368475 0.824552 0.676173
0.391577 0.826322 0.678798
0.465400 0.833371 0.689784
0.574304 0.847745 0.713985
0.692195 0.871397 0.751583
0.801907 0.895872 0.800595
0.890776 0.919005 0.692531
0.997986 0.874388 0.631098
0.545312 0.928588 0.755550
0.559442 0.929259 0.758236
0.606348 0.932006 0.768154
0.683406 0.939452 0.790036
0.761501 0.948760 0.812985
0.840269 0.954498 0.844999
0.889097 0.969268 0.824552
0.977173 0.982300 0.695460
0.000000 0.291478 0.761013
0.095338 0.290745 0.759152
0.251835 0.284001 0.751308
0.388739 0.265415 0.739803
0.520500 0.227787 0.721614
0.657374 0.253330 0.711757
0.784634 0.334051 0.705104
0.916136 0.403937 0.713649
0.000000 0.332525 0.758938
0.118685 0.330175 0.756954
0.256168 0.320867 0.750027
0.388678 0.300511 0.738857
0.518120 0.260746 0.719448
0.655573 0.282506 0.710201
0.783169 0.356481 0.704341
0.917144 0.414862 0.712886
0.151339 0.446174 0.763058
0.176516 0.437629 0.761563
0.278233 0.426307 0.755337
0.396338 0.402808 0.743069
0.518639 0.360113 0.721767
0.655787 0.369757 0.710597
0.782345 0.430518 0.705989
0.924102 0.454566 0.712398
0.249149 0.583093 0.768887
0.277531 0.581689 0.766842
0.355596 0.576532 0.760739
0.427466 0.545708 0.750607
0.528862 0.501915 0.729824
0.658961 0.491310 0.713649
0.783078 0.535851 0.711666
0.939300 0.515343 0.709255
0.245762 0.645563 0.741512
0.276768 0.648585 0.742397
0.364599 0.658900 0.744961
0.475471 0.675105 0.749752
0.549950 0.647486 0.735256
0.654292 0.610285 0.709712
0.792782 0.628382 0.713527
0.954467 0.596765 0.695064
0.238590 0.699641 0.704402
0.267216 0.702113 0.705745
0.345892 0.707942 0.707698
0.446235 0.716487 0.710018
0.549432 0.725307 0.710964
0.652674 0.731746 0.708125
0.834836 0.751858 0.728481
0.967071 0.754421 0.732113
0.261051 0.801266 0.731167
0.285161 0.801999 0.731777
0.352239 0.802335 0.731533
0.464332 0.812802 0.738308
0.604761 0.835264 0.758267
0.757595 0.871824 0.804227
0.871275 0.905821 0.789334
0.983124 0.885252 0.782620
0.470527 0.916960 0.793149
0.485481 0.917662 0.794156
0.535760 0.920562 0.798550
0.615808 0.927276 0.809079
0.716732 0.937438 0.828977
0.824247 0.952850 0.862608
0.907408 0.964813 0.897459
0.973236 0.980285 0.811124
0.142245 0.368231 0.867094
0.185489 0.367498 0.866331
0.285344 0.362554 0.863096
0.400855 0.348394 0.857053
0.521660 0.317052 0.846281
0.649195 0.284947 0.833463
0.783352 0.311376 0.825650
0.906920 0.412543 0.820890
0.171176 0.401221 0.867338
0.206088 0.399542 0.866514
0.294865 0.392737 0.863279
0.404578 0.376562 0.856840
0.522728 0.345129 0.846250
0.649042 0.310735 0.833280
0.783230 0.334905 0.825498
0.906615 0.430121 0.821012
0.243015 0.492897 0.868376
0.264683 0.490486 0.867521
0.329992 0.481727 0.864195
0.421881 0.463325 0.857816
0.528923 0.430426 0.847288
0.649012 0.387884 0.833127
0.783291 0.407660 0.825437
0.906096 0.486061 0.822110
0.359747 0.623255 0.869322
0.377356 0.623285 0.868467
0.413245 0.612146 0.866087
0.465034 0.586694 0.860166
0.548272 0.553338 0.849638
0.650507 0.497597 0.833188
0.783474 0.508843 0.825315
0.905638 0.566033 0.823789
0.391028 0.707820 0.865263
0.411017 0.711177 0.865843
0.473182 0.722408 0.868193
0.539666 0.719234 0.865324
0.585412 0.683864 0.855802
0.661830 0.632166 0.837766
0.783993 0.617700 0.825284
0.905303 0.658961 0.826413
0.383856 0.760586 0.846220
0.402258 0.762692 0.846769
0.459480 0.769833 0.848783
0.540307 0.781125 0.852781
0.634211 0.795865 0.859373
0.695064 0.771389 0.849271
0.785428 0.731289 0.825681
0.916136 0.748684 0.830808
0.371679 0.811948 0.821286
0.387976 0.813077 0.821683
0.439307 0.816892 0.822965
0.512932 0.823026 0.825132
0.600549 0.831052 0.827970
0.695216 0.839628 0.830228
0.786954 0.842496 0.825864
0.950103 0.862882 0.849302
0.397314 0.911650 0.853391
0.410681 0.911742 0.853391
0.453437 0.912230 0.853361
0.517632 0.912902 0.853025
0.611109 0.917449 0.855070
0.745937 0.933043 0.870695
0.887572 0.958221 0.912230
0.967987 0.977234 0.900328
0.293645 0.470985 0.959472
0.311437 0.469795 0.959136
0.366735 0.465339 0.957946
0.448249 0.454261 0.955810
0.546136 0.432319 0.952483
0.656184 0.391333 0.947753
0.782040 0.373877 0.942107
0.911498 0.405524 0.936187
0.312902 0.495857 0.959014
0.328710 0.494545 0.958709
0.379095 0.489021 0.957580
0.455940 0.476967 0.955474
0.550103 0.454292 0.952270
0.657588 0.413184 0.947601
0.782223 0.393072 0.941955
0.911498 0.422400 0.936034
0.370367 0.569604 0.957855
0.381933 0.567956 0.957580
0.420325 0.561181 0.956542
0.483192 0.547723 0.954681
0.565118 0.523613 0.951690
0.663569 0.482856 0.947234
0.783291 0.453407 0.941558
0.911528 0.475807 0.935790
0.472206 0.679683 0.955993
0.471809 0.673640 0.956085
0.483955 0.659052 0.955718
0.528923 0.645167 0.954040
0.592645 0.621302 0.951263
0.675654 0.581781 0.947021
0.784817 0.538262 0.941222
0.912016 0.552544 0.935637
0.516747 0.761318 0.954803
0.526757 0.761593 0.954742
0.558434 0.761593 0.954498
0.602991 0.756588 0.954101
0.631220 0.725551 0.952178
0.695033 0.690394 0.947875
0.786160 0.633631 0.941192
0.913024 0.643366 0.935607
0.525322 0.814328 0.948547
0.536828 0.816129 0.948852
0.574426 0.822171 0.950072
0.633295 0.832059 0.952575
0.694728 0.833677 0.954040
0.732601 0.804227 0.951110
0.798276 0.756313 0.943175
0.914916 0.742428 0.935943
0.520287 0.861936 0.938781
0.530663 0.863035 0.939055
0.564691 0.866758 0.940154
0.619928 0.873259 0.942290
0.692470 0.882963 0.945922
0.778256 0.896635 0.951904
0.834562 0.881285 0.950286
0.918151 0.844968 0.936950
0.512627 0.912566 0.926940
0.521691 0.913146 0.927153
0.552209 0.915343 0.927855
0.603235 0.919219 0.929290
0.670680 0.924834 0.931518
0.750210 0.932158 0.934752
0.838102 0.940917 0.939055
0.923217 0.945800 0.939025
