data/fiter_cube/87192323/1023455/file.cube
# Created by Adobe Lightroom plugin Export LUT (1.17.0)
# www.johnrellis.com/lightroom/exportlut.htm
# Preset: 日系清新自然_06 云集
# Color profile: C:\Program Files (x86)\Common Files\Adobe\Color\Profiles\Recommended\AdobeRGB1998.icc
LUT_3D_SIZE 5
DOMAIN_MIN 0.000000 0.000000 0.000000
DOMAIN_MAX 0.903226 0.903226 0.903226
0.000000 0.000000 0.000000
0.251133 0.081544 0.000000
0.556634 0.149142 0.000000
0.831601 0.179812 0.000000
1.000000 0.176761 0.000000
0.050324 0.253391 0.122805
0.248875 0.314794 0.000000
0.581201 0.327123 0.000000
0.843503 0.319402 0.000000
1.000000 0.291905 0.000000
0.180484 0.545129 0.291752
0.297704 0.563592 0.316228
0.599207 0.668849 0.000000
0.872374 0.591943 0.000000
1.000000 0.509972 0.000000
0.369604 0.795865 0.483680
0.436805 0.803281 0.500389
0.623865 0.821347 0.577539
0.841428 0.875364 0.060456
1.000000 0.761959 0.000000
0.589624 0.944732 0.676417
0.616266 0.945708 0.681422
0.712062 0.944640 0.713802
0.811185 0.961578 0.694026
0.987274 0.986999 0.068818
0.000000 0.088808 0.265629
0.210452 0.095399 0.258152
0.506950 0.000000 0.242435
0.791897 0.150759 0.219577
1.000000 0.174258 0.187991
0.000000 0.252964 0.248875
0.204807 0.280217 0.259861
0.521416 0.290776 0.240879
0.807889 0.305058 0.225772
1.000000 0.293034 0.192020
0.174502 0.523735 0.361730
0.288914 0.550561 0.378241
0.561425 0.637964 0.276280
0.853025 0.581720 0.252964
1.000000 0.516869 0.213443
0.389899 0.785763 0.536339
0.451881 0.797086 0.548760
0.630915 0.820005 0.618891
0.833463 0.870359 0.327672
1.000000 0.762966 0.206729
0.616175 0.942138 0.712978
0.632471 0.944579 0.710323
0.725856 0.947417 0.741604
0.826169 0.960327 0.743282
0.985992 0.986664 0.330785
0.000000 0.186862 0.552300
0.205570 0.184146 0.539849
0.447120 0.184726 0.510033
0.719905 0.227512 0.518578
0.982757 0.000000 0.454871
0.002075 0.361883 0.555474
0.207248 0.332097 0.544335
0.450111 0.305669 0.514305
0.732418 0.309606 0.513359
0.983917 0.245151 0.449378
0.098909 0.507073 0.505058
0.231968 0.517327 0.509117
0.445747 0.542016 0.514061
0.764096 0.559289 0.522545
0.992248 0.549310 0.508934
0.277653 0.743038 0.596857
0.373877 0.752987 0.608728
0.597345 0.794553 0.667353
0.804288 0.851286 0.612512
1.000000 0.785519 0.575769
0.570306 0.932860 0.742275
0.617456 0.936004 0.755398
0.731472 0.947204 0.789090
0.857725 0.954345 0.840665
0.978973 0.983093 0.627100
0.000000 0.308141 0.787198
0.221988 0.303807 0.781857
0.454780 0.268528 0.763272
0.688136 0.265537 0.740139
0.904601 0.430549 0.741390
0.130983 0.420142 0.788693
0.250278 0.411170 0.783932
0.456977 0.369543 0.763821
0.686030 0.351141 0.738277
0.902007 0.481849 0.742184
0.279942 0.628840 0.786221
0.369024 0.641718 0.788693
0.495094 0.603906 0.770809
0.684688 0.548669 0.737118
0.928405 0.574670 0.738979
0.273289 0.730312 0.736202
0.345983 0.734340 0.736782
0.509697 0.748287 0.740658
0.685786 0.759915 0.737728
0.961669 0.781857 0.761685
0.442542 0.912596 0.804593
0.494820 0.915801 0.807950
0.643488 0.928527 0.824369
0.841428 0.954711 0.876188
0.971954 0.979583 0.835508
0.293645 0.470985 0.959472
0.349920 0.466926 0.958343
0.495552 0.444953 0.954284
0.685664 0.376654 0.946288
0.911498 0.405524 0.936187
0.353338 0.547814 0.958160
0.394659 0.541985 0.957183
0.515312 0.516289 0.953552
0.689296 0.447333 0.945953
0.911528 0.459571 0.935912
0.497230 0.721706 0.955291
0.530663 0.722042 0.954925
0.581353 0.686366 0.952941
0.706111 0.622461 0.945861
0.912444 0.596582 0.935576
0.524407 0.825895 0.946319
0.560906 0.831205 0.947417
0.666163 0.847929 0.952087
0.758175 0.823789 0.950958
0.915557 0.767849 0.936095
0.512627 0.912566 0.926940
0.542504 0.914611 0.927611
0.635218 0.921782 0.930297
0.771542 0.934234 0.935760
0.923217 0.945800 0.939025
