data/fiter_cube/87192323/1023455/file.cube
# Created by Adobe Lightroom plugin Export LUT (1.17.0)
# www.johnrellis.com/lightroom/exportlut.htm
# Preset: 日系清新自然_06 云集
# Color profile: C:\Program Files (x86)\Common Files\Adobe\Color\Profiles\Recommended\AdobeRGB1998.icc
LUT_3D_SIZE 32
DOMAIN_MIN 0.0 0.0 0.0
DOMAIN_MAX 1.0 1.0 1.0
0.000000 0.000000 0.000000
0.032380 0.004028 0.000000
0.063905 0.007477 0.000000
0.094301 0.016510 0.000000
0.133120 0.035035 0.000000
0.172671 0.058198 0.000000
0.212131 0.069612 0.000000
0.251133 0.081544 0.000000
0.290990 0.092103 0.000000
0.331853 0.102846 0.000000
0.374487 0.112520 0.000000
0.418433 0.122499 0.000000
0.463752 0.131838 0.000000
0.510307 0.140902 0.000000
0.556634 0.149142 0.000000
0.600671 0.155367 0.000000
0.642786 0.160647 0.000000
0.682338 0.165866 0.000000
0.719020 0.170016 0.000000
0.759121 0.174166 0.000000
0.796780 0.177188 0.000000
0.831601 0.179812 0.000000
0.863737 0.181949 0.000000
0.893614 0.182864 0.000000
0.921630 0.183200 0.000000
0.948333 0.182650 0.000000
0.974060 0.181613 0.000000
0.998993 0.179904 0.000000
1.000000 0.176761 0.000000
1.000000 0.172610 0.000000
1.000000 0.166964 0.000000
1.000000 0.159823 0.000000
0.002777 0.036683 0.010986
0.027680 0.051392 0.000000
0.061830 0.050538 0.000000
0.093721 0.057923 0.000000
0.133059 0.067140 0.000000
0.172732 0.077241 0.000000
0.212253 0.086580 0.000000
0.251255 0.095827 0.000000
0.290837 0.104829 0.000000
0.331762 0.114351 0.000000
0.374121 0.123598 0.000000
0.417884 0.131960 0.000000
0.462898 0.140810 0.000000
0.509300 0.149111 0.000000
0.555474 0.156527 0.000000
0.599481 0.162661 0.000000
0.641474 0.167880 0.000000
0.680995 0.172793 0.000000
0.717647 0.176577 0.000000
0.757473 0.180270 0.000000
0.794797 0.183169 0.000000
0.829343 0.185336 0.000000
0.861418 0.187045 0.000000
0.891325 0.187869 0.000000
0.919493 0.188022 0.000000
0.946319 0.187655 0.000000
0.972259 0.186191 0.000000
0.997314 0.184085 0.000000
1.000000 0.181338 0.000000
1.000000 0.177127 0.000000
1.000000 0.171633 0.000000
1.000000 0.164462 0.000000
0.007721 0.068452 0.026154
0.025971 0.068177 0.027893
0.059663 0.079377 0.000000
0.092927 0.081483 0.000000
0.133150 0.088228 0.000000
0.173159 0.097017 0.000000
0.212467 0.104616 0.000000
0.251408 0.112337 0.000000
0.291051 0.119661 0.000000
0.331945 0.128084 0.000000
0.374182 0.136080 0.000000
0.417975 0.144442 0.000000
0.463020 0.152407 0.000000
0.509361 0.160159 0.000000
0.555291 0.166903 0.000000
0.599390 0.172824 0.000000
0.641352 0.177584 0.000000
0.680720 0.181399 0.000000
0.717372 0.184878 0.000000
0.757137 0.188754 0.000000
0.794034 0.190738 0.000000
0.828580 0.192721 0.000000
0.860533 0.194156 0.000000
0.890440 0.194614 0.000000
0.918578 0.194553 0.000000
0.945495 0.194064 0.000000
0.971435 0.192447 0.000000
0.996582 0.190463 0.000000
1.000000 0.187167 0.000000
1.000000 0.183078 0.000000
1.000000 0.177249 0.000000
1.000000 0.170321 0.000000
0.019684 0.098878 0.057679
0.038880 0.098939 0.059205
0.057588 0.100221 0.060517
0.091157 0.120699 0.000000
0.131380 0.125185 0.000000
0.174441 0.129976 0.000000
0.214054 0.135836 0.000000
0.253269 0.141939 0.000000
0.292851 0.147951 0.000000
0.333562 0.154055 0.000000
0.375921 0.160983 0.000000
0.419623 0.167697 0.000000
0.464485 0.174960 0.000000
0.510643 0.181308 0.000000
0.556634 0.187167 0.000000
0.600336 0.191928 0.000000
0.642084 0.196139 0.000000
0.681239 0.199527 0.000000
0.718532 0.202243 0.000000
0.757168 0.204807 0.000000
0.793362 0.206638 0.000000
0.827451 0.207950 0.000000
0.859373 0.208682 0.000000
0.889433 0.208469 0.000000
0.918029 0.208347 0.000000
0.945312 0.207095 0.000000
0.971527 0.205539 0.000000
0.996796 0.203098 0.000000
1.000000 0.199741 0.000000
1.000000 0.195163 0.000000
1.000000 0.189761 0.000000
1.000000 0.182498 0.000000
0.025849 0.134920 0.072694
0.046479 0.135103 0.073182
0.063783 0.135225 0.075410
0.083375 0.143221 0.069093
0.128145 0.168917 0.000000
0.169680 0.171664 0.000000
0.213413 0.175418 0.000000
0.255222 0.178134 0.000000
0.295140 0.182712 0.000000
0.335912 0.187747 0.000000
0.378210 0.193271 0.000000
0.421851 0.198947 0.000000
0.466865 0.204532 0.000000
0.512993 0.210361 0.000000
0.558648 0.214939 0.000000
0.602594 0.219089 0.000000
0.644282 0.222080 0.000000
0.683284 0.224399 0.000000
0.721645 0.226474 0.000000
0.759274 0.228122 0.000000
0.794736 0.229007 0.000000
0.828244 0.229709 0.000000
0.859800 0.229648 0.000000
0.889708 0.229068 0.000000
0.918120 0.227634 0.000000
0.945403 0.226200 0.000000
0.971557 0.223972 0.000000
0.996735 0.220920 0.000000
1.000000 0.217380 0.000000
1.000000 0.212863 0.000000
1.000000 0.207126 0.000000
1.000000 0.200015 0.000000
0.029969 0.172641 0.086946
0.049378 0.173465 0.086641
0.067048 0.173617 0.088685
0.088838 0.174472 0.093233
0.116121 0.190921 0.071992
0.167178 0.217533 0.000000
0.208469 0.218235 0.000000
0.252445 0.221256 0.000000
0.297581 0.222965 0.000000
0.340276 0.226047 0.000000
0.382727 0.230289 0.000000
0.426612 0.235050 0.000000
0.471656 0.239750 0.000000
0.517815 0.244327 0.000000
0.563348 0.248173 0.000000
0.606836 0.251255 0.000000
0.648249 0.253178 0.000000
0.687007 0.254307 0.000000
0.726101 0.255528 0.000000
0.763027 0.256260 0.000000
0.797910 0.256321 0.000000
0.831052 0.255741 0.000000
0.878264 0.257847 0.000000
0.906981 0.256535 0.000000
0.933867 0.254337 0.000000
0.959472 0.251652 0.000000
0.983978 0.248783 0.000000
1.000000 0.244846 0.000000
1.000000 0.240635 0.000000
1.000000 0.235538 0.000000
1.000000 0.229435 0.000000
1.000000 0.222202 0.000000
0.036561 0.214298 0.103700
0.052888 0.214878 0.102754
0.070802 0.215305 0.104555
0.094850 0.216587 0.109438
0.121370 0.218418 0.116457
0.154513 0.243076 0.073274
0.209262 0.268376 0.000000
0.250309 0.266850 0.000000
0.296391 0.269596 0.000000
0.344366 0.272129 0.000000
0.393866 0.274418 0.000000
0.438453 0.277867 0.000000
0.483925 0.281498 0.000000
0.529961 0.284581 0.000000
0.574456 0.286931 0.000000
0.617060 0.288640 0.000000
0.657313 0.289097 0.000000
0.697444 0.289708 0.000000
0.735988 0.289891 0.000000
0.772580 0.289586 0.000000
0.807736 0.288701 0.000000
0.841642 0.287510 0.000000
0.873777 0.285924 0.000000
0.904021 0.283757 0.000000
0.932311 0.281163 0.000000
0.958618 0.277836 0.000000
0.983429 0.274296 0.000000
1.000000 0.270176 0.000000
1.000000 0.265232 0.000000
1.000000 0.259648 0.000000
1.000000 0.253300 0.000000
1.000000 0.245914 0.000000
0.050324 0.253391 0.122805
0.061677 0.253880 0.120485
0.076631 0.254551 0.122469
0.100130 0.255863 0.126680
0.127718 0.257694 0.133516
0.154208 0.267063 0.127810
0.192752 0.291112 0.076600
0.248875 0.314794 0.000000
0.289982 0.311711 0.000000
0.338293 0.315251 0.000000
0.388464 0.318608 0.000000
0.440650 0.321202 0.000000
0.491066 0.323369 0.000000
0.537133 0.325628 0.000000
0.581201 0.327123 0.000000
0.622919 0.327092 0.000000
0.664027 0.327062 0.000000
0.704158 0.326452 0.000000
0.741146 0.325383 0.000000
0.776333 0.323583 0.000000
0.810483 0.321630 0.000000
0.843503 0.319402 0.000000
0.875029 0.316991 0.000000
0.904753 0.313756 0.000000
0.932616 0.310338 0.000000
0.958679 0.306462 0.000000
0.983276 0.302190 0.000000
1.000000 0.297337 0.000000
1.000000 0.291905 0.000000
1.000000 0.285954 0.000000
1.000000 0.279271 0.000000
1.000000 0.271641 0.000000
0.068177 0.292729 0.144137
0.072724 0.293553 0.141543
0.086000 0.294163 0.143465
0.108400 0.295567 0.147646
0.135317 0.297673 0.153994
0.163638 0.300511 0.162478
0.190677 0.316503 0.140871
0.232975 0.339605 0.082856
0.290959 0.362219 0.000000
0.332616 0.358770 0.000000
0.382757 0.362402 0.000000
0.435187 0.365911 0.000000
0.489479 0.369024 0.000000
0.544213 0.370367 0.000000
0.589746 0.370062 0.000000
0.632166 0.369268 0.000000
0.673945 0.368292 0.000000
0.712306 0.366400 0.000000
0.747555 0.363378 0.000000
0.781643 0.360082 0.000000
0.814847 0.356970 0.000000
0.847044 0.353613 0.000000
0.877714 0.350042 0.000000
0.906798 0.346166 0.000000
0.934142 0.341833 0.000000
0.959808 0.336950 0.000000
0.984070 0.331945 0.000000
1.000000 0.326390 0.000000
1.000000 0.320409 0.000000
1.000000 0.313787 0.000000
1.000000 0.306798 0.000000
1.000000 0.298802 0.000000
0.084840 0.332677 0.167422
0.087953 0.333288 0.164767
0.098360 0.333898 0.165957
0.119020 0.335363 0.169802
0.144961 0.337530 0.175509
0.172915 0.340581 0.183505
0.202090 0.344274 0.193729
0.230137 0.366247 0.153536
0.275517 0.388708 0.090455
0.335149 0.410346 0.000000
0.377264 0.405982 0.000000
0.428809 0.409308 0.000000
0.483497 0.413489 0.000000
0.538476 0.415930 0.000000
0.593164 0.416632 0.000000
0.644984 0.415045 0.000000
0.685084 0.412207 0.000000
0.721828 0.407996 0.000000
0.755978 0.403632 0.000000
0.788815 0.398810 0.000000
0.820737 0.394354 0.000000
0.851408 0.389532 0.000000
0.880797 0.384619 0.000000
0.908751 0.379492 0.000000
0.935271 0.374182 0.000000
0.960510 0.368627 0.000000
0.984527 0.362615 0.000000
1.000000 0.356542 0.000000
1.000000 0.349981 0.000000
1.000000 0.342992 0.000000
1.000000 0.335363 0.000000
1.000000 0.326970 0.000000
0.102419 0.372076 0.191226
0.105043 0.372839 0.189029
0.112947 0.373724 0.189212
0.131655 0.375189 0.192691
0.156100 0.377447 0.197971
0.183291 0.380713 0.205509
0.212619 0.384863 0.214786
0.239963 0.394842 0.211246
0.272404 0.416876 0.166659
0.321141 0.439063 0.097749
0.382544 0.459968 0.000000
0.424537 0.454688 0.000000
0.478309 0.457832 0.000000
0.535943 0.463020 0.000000
0.591089 0.464668 0.000000
0.642786 0.462989 0.000000
0.690669 0.458076 0.000000
0.730617 0.451240 0.000000
0.763455 0.444800 0.000000
0.795254 0.438727 0.000000
0.826200 0.432685 0.000000
0.856077 0.426612 0.000000
0.884733 0.420661 0.000000
0.912047 0.414496 0.000000
0.937987 0.408148 0.000000
0.962646 0.401587 0.000000
0.986114 0.394751 0.000000
1.000000 0.387701 0.000000
1.000000 0.380438 0.000000
1.000000 0.372808 0.000000
1.000000 0.364599 0.000000
1.000000 0.355840 0.000000
0.120882 0.412818 0.215366
0.123232 0.413550 0.213443
0.129152 0.414374 0.213016
0.145724 0.415808 0.216098
0.168673 0.418372 0.221134
0.194949 0.421637 0.227970
0.223758 0.425940 0.236667
0.254398 0.430976 0.247196
0.281102 0.447120 0.227329
0.318090 0.469123 0.179904
0.369726 0.490700 0.105684
0.435370 0.513512 0.000000
0.493233 0.520714 0.000000
0.548516 0.521782 0.000000
0.603815 0.522728 0.000000
0.655268 0.520043 0.000000
0.702296 0.513939 0.000000
0.744869 0.505394 0.000000
0.783841 0.495155 0.000000
0.815091 0.486061 0.000000
0.843778 0.477577 0.000000
0.871458 0.469459 0.000000
0.897948 0.461280 0.000000
0.923369 0.453468 0.000000
0.947692 0.445502 0.000000
0.970855 0.437537 0.000000
0.993103 0.429511 0.000000
1.000000 0.421332 0.000000
1.000000 0.413123 0.000000
1.000000 0.404486 0.000000
1.000000 0.395544 0.000000
1.000000 0.385992 0.000000
0.141360 0.458106 0.241978
0.143465 0.458900 0.240208
0.146883 0.459541 0.238590
0.162509 0.460945 0.241489
0.183993 0.462989 0.245853
0.209323 0.465888 0.252018
0.237613 0.469917 0.260014
0.268223 0.474830 0.269718
0.300786 0.481147 0.281682
0.329229 0.505058 0.245579
0.373083 0.529961 0.194797
0.431098 0.554101 0.114870
0.499367 0.576013 0.000000
0.545159 0.570428 0.000000
0.596826 0.567102 0.000000
0.648798 0.565179 0.000000
0.695949 0.559319 0.000000
0.738705 0.550713 0.000000
0.777951 0.540398 0.000000
0.814969 0.529351 0.000000
0.848997 0.517998 0.000000
0.875792 0.508415 0.000000
0.901488 0.499031 0.000000
0.926177 0.489784 0.000000
0.949859 0.480781 0.000000
0.972534 0.471870 0.000000
0.994293 0.462867 0.000000
1.000000 0.453895 0.000000
1.000000 0.444739 0.000000
1.000000 0.435401 0.000000
1.000000 0.425879 0.000000
1.000000 0.415778 0.000000
0.159792 0.499397 0.265629
0.161807 0.500145 0.264317
0.164187 0.500908 0.262333
0.177981 0.502220 0.264622
0.197971 0.504265 0.268711
0.222873 0.507805 0.274815
0.251316 0.512871 0.282933
0.282475 0.519036 0.292760
0.316075 0.526421 0.304570
0.347814 0.539574 0.303532
0.380285 0.563104 0.262394
0.426673 0.585901 0.207828
0.484718 0.606806 0.123781
0.551507 0.625116 0.000000
0.598657 0.620020 0.000000
0.641810 0.608789 0.000000
0.688991 0.603143 0.000000
0.731991 0.594629 0.000000
0.771603 0.584283 0.000000
0.809018 0.573327 0.000000
0.844358 0.561547 0.000000
0.877531 0.549218 0.000000
0.905730 0.537407 0.000000
0.929839 0.527092 0.000000
0.952911 0.516869 0.000000
0.974975 0.506767 0.000000
0.996246 0.496834 0.000000
1.000000 0.486915 0.000000
1.000000 0.477028 0.000000
1.000000 0.466987 0.000000
1.000000 0.456794 0.000000
1.000000 0.446021 0.000000
0.180484 0.545129 0.291752
0.182193 0.545953 0.290410
0.184482 0.546777 0.288670
0.196414 0.548425 0.290105
0.215976 0.550744 0.294133
0.239628 0.554009 0.299779
0.267277 0.558282 0.307042
0.297704 0.563592 0.316228
0.330816 0.570062 0.327153
0.366186 0.577752 0.340337
0.394995 0.594568 0.322454
0.429999 0.615991 0.278508
0.477241 0.635981 0.221012
0.534539 0.653925 0.134035
0.599207 0.668849 0.000000
0.647242 0.664179 0.000000
0.682277 0.646235 0.000000
0.725338 0.637751 0.000000
0.765499 0.627466 0.000000
0.803250 0.616266 0.000000
0.838865 0.604395 0.000000
0.872374 0.591943 0.000000
0.903593 0.578882 0.000000
0.932830 0.565301 0.000000
0.956176 0.553521 0.000000
0.977844 0.542382 0.000000
0.998749 0.531456 0.000000
1.000000 0.520775 0.000000
1.000000 0.509972 0.000000
1.000000 0.499245 0.000000
1.000000 0.488319 0.000000
1.000000 0.476844 0.000000
0.202335 0.590021 0.317937
0.204044 0.590845 0.317144
0.206241 0.591638 0.315648
0.215854 0.593286 0.315862
0.234653 0.595331 0.319677
0.257511 0.598291 0.325200
0.284306 0.602167 0.332158
0.314092 0.606958 0.340917
0.346502 0.612634 0.351446
0.381048 0.619257 0.363836
0.417334 0.626490 0.378088
0.442176 0.645502 0.341497
0.477852 0.663783 0.294591
0.524132 0.680323 0.234287
0.579034 0.694453 0.145632
0.640528 0.705989 0.000000
0.689967 0.702541 0.000000
0.718837 0.680140 0.000000
0.759213 0.669612 0.000000
0.797818 0.658625 0.000000
0.834104 0.646876 0.000000
0.868162 0.634363 0.000000
0.899901 0.621118 0.000000
0.929503 0.607385 0.000000
0.957061 0.593164 0.000000
0.981994 0.578943 0.000000
1.000000 0.566918 0.000000
1.000000 0.555200 0.000000
1.000000 0.543511 0.000000
1.000000 0.531792 0.000000
1.000000 0.519890 0.000000
1.000000 0.507713 0.000000
0.225040 0.630060 0.343603
0.226352 0.630701 0.342382
0.228550 0.631342 0.341009
0.236240 0.632685 0.340459
0.253422 0.634485 0.344213
0.275151 0.637079 0.349493
0.300816 0.640375 0.356023
0.329137 0.644465 0.364202
0.360357 0.649348 0.374182
0.393774 0.655024 0.385870
0.428840 0.661311 0.399420
0.459907 0.671321 0.399725
0.485298 0.688624 0.358831
0.521019 0.704402 0.309636
0.566125 0.718166 0.248051
0.618891 0.729732 0.159487
0.677913 0.738949 0.000000
0.729061 0.737118 0.000000
0.753719 0.712154 0.000000
0.791531 0.699763 0.000000
0.828336 0.687922 0.000000
0.862760 0.675227 0.000000
0.894896 0.661921 0.000000
0.924956 0.648035 0.000000
0.952972 0.633600 0.000000
0.979034 0.618860 0.000000
1.000000 0.603540 0.000000
1.000000 0.589563 0.000000
1.000000 0.576898 0.000000
1.000000 0.564324 0.000000
1.000000 0.551629 0.000000
1.000000 0.538628 0.000000
0.249302 0.667475 0.369360
0.251011 0.668177 0.368444
0.260441 0.678828 0.374945
0.266361 0.680110 0.373571
0.282383 0.681483 0.377203
0.302495 0.683345 0.381994
0.326452 0.685756 0.388312
0.353399 0.688777 0.395911
0.383246 0.692622 0.405432
0.415167 0.696986 0.416541
0.448859 0.701930 0.429572
0.483711 0.707210 0.444160
0.507591 0.718837 0.426551
0.532708 0.733455 0.382574
0.567437 0.746426 0.331060
0.610925 0.757595 0.266819
0.661891 0.766873 0.177890
0.718715 0.774075 0.000000
0.770016 0.772396 0.000000
0.791958 0.746059 0.000000
0.826780 0.731350 0.000000
0.861173 0.718074 0.000000
0.893309 0.704097 0.000000
0.923186 0.689631 0.000000
0.950866 0.674556 0.000000
0.976623 0.659205 0.000000
1.000000 0.643427 0.000000
1.000000 0.627344 0.000000
1.000000 0.610925 0.000000
1.000000 0.596979 0.000000
1.000000 0.583398 0.000000
1.000000 0.569512 0.000000
0.277623 0.704555 0.397498
0.279973 0.706203 0.397803
0.283024 0.707973 0.398047
0.288273 0.710414 0.397009
0.303471 0.712490 0.401221
0.322637 0.714504 0.406287
0.345006 0.716793 0.412390
0.370428 0.719417 0.419867
0.398596 0.722652 0.429023
0.428748 0.726375 0.439673
0.460883 0.730465 0.452033
0.494179 0.735042 0.466072
0.528008 0.739590 0.481300
0.544823 0.753170 0.444770
0.569696 0.765957 0.399115
0.603662 0.777188 0.345861
0.645838 0.786801 0.280369
0.695125 0.794614 0.191623
0.750240 0.800778 0.000000
0.801205 0.799313 0.000000
0.822538 0.773465 0.000000
0.855406 0.757504 0.000000
0.888090 0.743526 0.000000
0.918547 0.728908 0.000000
0.946746 0.713710 0.000000
0.972992 0.698116 0.000000
0.997467 0.682155 0.000000
1.000000 0.665888 0.000000
1.000000 0.649195 0.000000
1.000000 0.632136 0.000000
1.000000 0.615167 0.000000
1.000000 0.600519 0.000000
0.304570 0.735592 0.423590
0.307134 0.737057 0.424353
0.309819 0.738674 0.424292
0.314519 0.740688 0.423590
0.327855 0.742580 0.427070
0.345312 0.744320 0.431952
0.366155 0.746212 0.437934
0.389776 0.748470 0.445106
0.416052 0.751186 0.453864
0.444739 0.754360 0.464149
0.475105 0.757900 0.476020
0.506554 0.761715 0.489174
0.538628 0.765621 0.503197
0.565057 0.772213 0.503990
0.581109 0.784756 0.463905
0.605554 0.795987 0.416571
0.638605 0.805936 0.361517
0.679530 0.814267 0.295109
0.727352 0.821012 0.206119
0.781064 0.826291 0.000000
0.831418 0.824949 0.000000
0.852323 0.799802 0.000000
0.883116 0.782559 0.000000
0.914061 0.767758 0.000000
0.942687 0.752346 0.000000
0.969268 0.736446 0.000000
0.994018 0.720180 0.000000
1.000000 0.703670 0.000000
1.000000 0.686793 0.000000
1.000000 0.669490 0.000000
1.000000 0.651575 0.000000
1.000000 0.632898 0.000000
0.333837 0.764858 0.451148
0.336217 0.766110 0.451698
0.338781 0.767575 0.451972
0.343175 0.769345 0.451453
0.354314 0.770993 0.454139
0.370611 0.772457 0.458839
0.389532 0.774075 0.464576
0.411505 0.775906 0.471534
0.435920 0.778103 0.479805
0.462440 0.780636 0.489448
0.490547 0.783597 0.500206
0.520043 0.786801 0.512261
0.550164 0.790097 0.525231
0.580774 0.793515 0.539330
0.599390 0.802243 0.523857
0.615900 0.813626 0.483223
0.640253 0.824033 0.435187
0.672786 0.833188 0.379278
0.713039 0.841032 0.312352
0.760067 0.847410 0.224155
0.812619 0.852323 0.000000
0.863188 0.851347 0.000000
0.884123 0.826902 0.000000
0.912932 0.808316 0.000000
0.941985 0.792691 0.000000
0.968872 0.776455 0.000000
0.993774 0.759701 0.000000
1.000000 0.742794 0.000000
1.000000 0.725338 0.000000
1.000000 0.707607 0.000000
1.000000 0.689296 0.000000
1.000000 0.670130 0.000000
0.369604 0.795865 0.483680
0.371191 0.796536 0.483833
0.373144 0.797269 0.483619
0.376623 0.798306 0.483009
0.385473 0.799435 0.484413
0.399634 0.800443 0.488685
0.416846 0.801724 0.493874
0.436805 0.803281 0.500389
0.459266 0.805234 0.508141
0.483894 0.807492 0.517082
0.510216 0.810086 0.527337
0.537774 0.812772 0.538628
0.566186 0.815610 0.550835
0.594934 0.818448 0.563745
0.623865 0.821347 0.577539
0.635096 0.831785 0.545922
0.651514 0.842008 0.505333
0.675319 0.851255 0.456916
0.706569 0.859403 0.399634
0.745296 0.866239 0.330510
0.790585 0.871580 0.241428
0.841428 0.875364 0.060456
0.890867 0.874083 0.000000
0.911192 0.850156 0.000000
0.937743 0.830198 0.000000
0.964904 0.813748 0.000000
0.990173 0.796811 0.000000
1.000000 0.779507 0.000000
1.000000 0.761959 0.000000
1.000000 0.743862 0.000000
1.000000 0.725246 0.000000
1.000000 0.705928 0.000000
0.401312 0.821225 0.512169
0.402686 0.821866 0.512352
0.404639 0.822538 0.512535
0.407935 0.823453 0.511925
0.414771 0.824460 0.512596
0.427497 0.825284 0.516381
0.442939 0.826230 0.521172
0.460822 0.827420 0.527031
0.481392 0.828916 0.534051
0.503807 0.830716 0.542290
0.528161 0.832792 0.551629
0.553582 0.834958 0.561883
0.580011 0.837247 0.573175
0.607172 0.839628 0.585260
0.634424 0.842100 0.597894
0.656275 0.846799 0.599237
0.666743 0.856901 0.564965
0.683375 0.866270 0.524529
0.706691 0.874846 0.476600
0.737057 0.882292 0.418128
0.774563 0.888457 0.348028
0.818601 0.893217 0.257542
0.867979 0.896483 0.095125
0.916930 0.895232 0.000000
0.935393 0.870909 0.000000
0.960327 0.850187 0.000000
0.985840 0.832914 0.000000
1.000000 0.815427 0.000000
1.000000 0.797543 0.000000
1.000000 0.779232 0.000000
1.000000 0.760433 0.000000
1.000000 0.740963 0.000000
0.436805 0.847440 0.543786
0.438361 0.848051 0.544091
0.439796 0.848539 0.544030
0.442695 0.849210 0.543633
0.447730 0.849973 0.543297
0.458747 0.850431 0.546624
0.472267 0.851011 0.550744
0.488258 0.851682 0.555840
0.506432 0.852598 0.561883
0.526574 0.853727 0.569055
0.548425 0.855009 0.577234
0.571588 0.856535 0.586328
0.595758 0.858152 0.596246
0.620539 0.859861 0.606775
0.645624 0.861570 0.617914
0.670832 0.863371 0.629572
0.684901 0.869810 0.616266
0.695552 0.878874 0.582025
0.712001 0.887480 0.541436
0.734890 0.895354 0.493263
0.764462 0.902251 0.434974
0.800748 0.907866 0.363073
0.843259 0.911955 0.271122
0.891020 0.914488 0.111604
0.938842 0.912932 0.000000
0.959319 0.890929 0.000000
0.982849 0.869810 0.000000
1.000000 0.851316 0.000000
1.000000 0.833066 0.000000
1.000000 0.814450 0.000000
1.000000 0.795407 0.000000
1.000000 0.775631 0.000000
0.467292 0.868833 0.570581
0.468605 0.869352 0.570916
0.470100 0.869810 0.570947
0.472663 0.870390 0.570642
0.476478 0.871031 0.569940
0.486549 0.871427 0.573083
0.498817 0.871885 0.576928
0.513268 0.872465 0.581659
0.529808 0.873228 0.587304
0.548363 0.874144 0.593896
0.568322 0.875242 0.601465
0.589807 0.876524 0.609766
0.612207 0.877897 0.618891
0.635279 0.879301 0.628565
0.658747 0.880705 0.638788
0.682399 0.882170 0.649500
0.706203 0.883696 0.660761
0.713985 0.892119 0.634638
0.725124 0.900603 0.601068
0.741482 0.908598 0.560662
0.763668 0.915770 0.512718
0.792081 0.921965 0.453651
0.826902 0.926909 0.379553
0.867765 0.930388 0.285588
0.914153 0.932311 0.125887
0.961212 0.930694 0.000000
0.982696 0.910155 0.000000
1.000000 0.888396 0.000000
1.000000 0.868803 0.000000
1.000000 0.849851 0.000000
1.000000 0.830442 0.000000
1.000000 0.810391 0.000000
0.498848 0.889647 0.598138
0.500023 0.889982 0.598383
0.501122 0.890257 0.598383
0.503227 0.890623 0.597894
0.506218 0.891112 0.597040
0.514519 0.891325 0.599329
0.525322 0.891569 0.602594
0.538231 0.891936 0.606744
0.553155 0.892454 0.611810
0.569848 0.893126 0.617700
0.588098 0.893980 0.624445
0.607813 0.895018 0.632105
0.628473 0.896056 0.640375
0.649775 0.897154 0.649165
0.671534 0.898192 0.658350
0.693568 0.899229 0.668025
0.715755 0.900359 0.678126
0.733364 0.903471 0.679103
0.740444 0.911772 0.650935
0.751736 0.919707 0.617487
0.767910 0.927031 0.577661
0.789364 0.933593 0.528923
0.816709 0.939147 0.469398
0.850034 0.943511 0.393378
0.889616 0.946441 0.295415
0.934569 0.947845 0.131563
0.980926 0.946197 0.000000
1.000000 0.927764 0.000000
1.000000 0.904906 0.000000
1.000000 0.884306 0.000000
1.000000 0.864622 0.000000
1.000000 0.844327 0.000000
0.528222 0.908354 0.623713
0.529168 0.908598 0.623865
0.530144 0.908812 0.623743
0.531975 0.909148 0.623346
0.534936 0.909636 0.622766
0.541985 0.910033 0.624598
0.552361 0.910460 0.628138
0.564660 0.911070 0.632502
0.578882 0.911833 0.637781
0.594781 0.912749 0.643885
0.611994 0.913725 0.650507
0.630457 0.914763 0.657954
0.649805 0.915770 0.665766
0.669642 0.916716 0.673976
0.689876 0.917571 0.682551
0.710231 0.918303 0.691157
0.730800 0.919005 0.700282
0.751369 0.919799 0.709682
0.762478 0.924834 0.699123
0.769802 0.932525 0.671321
0.781003 0.939727 0.638544
0.796475 0.946349 0.598840
0.816892 0.952209 0.549981
0.842741 0.957092 0.489631
0.874571 0.960845 0.411658
0.912596 0.963195 0.309789
0.956176 0.964111 0.139803
1.000000 0.962249 0.000000
1.000000 0.945892 0.000000
1.000000 0.921843 0.000000
1.000000 0.900023 0.000000
1.000000 0.879088 0.000000
0.562097 0.928466 0.652888
0.562860 0.928618 0.652857
0.563561 0.928740 0.652705
0.565087 0.928923 0.652247
0.567498 0.929229 0.651606
0.572900 0.929412 0.652522
0.581720 0.929564 0.655329
0.592279 0.929747 0.658839
0.604486 0.930053 0.663050
0.618311 0.930449 0.667994
0.633417 0.930877 0.673579
0.649714 0.931365 0.679652
0.666865 0.931823 0.686244
0.684779 0.932280 0.693324
