data/fiter_cube/12544332/1022701/file.cube
# Created by Adobe Lightroom plugin Export LUT (1.24.0)
# www.johnrellis.com/lightroom/exportlut.htm
# Preset: 城市青橙纪实夜景 _05 云集
# Color profile: C:\Program Files (x86)\Common Files\Adobe\Color\Profiles\Recommended\AdobeRGB1998.icc
LUT_3D_SIZE 32
0.114870 0.114870 0.114870
0.125032 0.116640 0.115267
0.137026 0.118929 0.116152
0.157656 0.123537 0.117647
0.184329 0.130068 0.119387
0.213230 0.137606 0.121004
0.244175 0.146181 0.122072
0.277256 0.155123 0.122438
0.313359 0.165621 0.121798
0.352483 0.177310 0.120180
0.393805 0.190341 0.118074
0.436408 0.204593 0.115236
0.479408 0.219425 0.111269
0.521935 0.235264 0.106477
0.565087 0.251469 0.100832
0.614160 0.270146 0.093782
0.654688 0.285985 0.087739
0.689052 0.299931 0.082612
0.719234 0.312261 0.079988
0.747768 0.324193 0.077516
0.774563 0.335241 0.077394
0.799435 0.345708 0.079011
0.821958 0.355200 0.083650
0.842374 0.363836 0.090730
0.860990 0.371923 0.099733
0.878172 0.379767 0.110597
0.894408 0.387427 0.123720
0.909789 0.395361 0.138674
0.924437 0.403784 0.155886
0.938354 0.413001 0.175967
0.951537 0.423590 0.199527
0.963836 0.436194 0.227146
0.114595 0.119234 0.116548
0.124483 0.120790 0.116365
0.136660 0.123171 0.116213
0.157198 0.127260 0.117952
0.183658 0.133455 0.119692
0.212161 0.140688 0.121523
0.243015 0.148501 0.122499
0.275669 0.157656 0.122469
0.311620 0.167666 0.121889
0.350439 0.179232 0.120302
0.391485 0.192111 0.118288
0.433814 0.205997 0.115328
0.476509 0.220859 0.111421
0.518975 0.236149 0.106813
0.562066 0.252354 0.101259
0.610010 0.270451 0.094179
0.649958 0.286076 0.088228
0.684230 0.299626 0.083436
0.714443 0.311986 0.079927
0.743160 0.323674 0.077272
0.770291 0.334630 0.077119
0.795499 0.345006 0.078737
0.818418 0.354620 0.082948
0.839231 0.363287 0.089693
0.858213 0.371405 0.098451
0.875761 0.379339 0.109133
0.892302 0.387091 0.121767
0.907988 0.395056 0.136721
0.922881 0.403357 0.154055
0.937041 0.412512 0.174105
0.950378 0.423011 0.197391
0.962829 0.435492 0.225040
0.114260 0.124605 0.118929
0.123720 0.126375 0.118318
0.135988 0.128420 0.118166
0.156558 0.132204 0.118105
0.182712 0.137881 0.120089
0.211307 0.144533 0.121767
0.241672 0.152285 0.122560
0.274266 0.160800 0.122774
0.309880 0.170504 0.122042
0.348455 0.181765 0.120546
0.389471 0.194675 0.118318
0.431647 0.208499 0.115389
0.474403 0.223117 0.111543
0.516777 0.238376 0.106722
0.560143 0.254276 0.101411
0.607538 0.271916 0.094362
0.647028 0.287358 0.088655
0.681270 0.300725 0.083375
0.711604 0.312902 0.079927
0.740444 0.324437 0.077638
0.767788 0.335515 0.076753
0.793332 0.345678 0.078340
0.816464 0.355138 0.082582
0.837522 0.363836 0.088716
0.856687 0.371984 0.097780
0.874418 0.379767 0.108278
0.891142 0.387366 0.121218
0.906950 0.395422 0.135866
0.922026 0.403693 0.153140
0.936278 0.412757 0.173434
0.949706 0.423224 0.196384
0.962280 0.435492 0.223758
0.113130 0.136294 0.123873
0.122499 0.137362 0.123537
0.134310 0.138796 0.123659
0.155032 0.141909 0.123445
0.181399 0.146883 0.122347
0.209751 0.152926 0.122683
0.240085 0.159823 0.123354
0.272587 0.167849 0.123018
0.307988 0.177096 0.122347
0.346471 0.188266 0.120607
0.387182 0.200626 0.118471
0.429175 0.214298 0.115358
0.471565 0.228641 0.111543
0.513787 0.243259 0.107301
0.557824 0.258915 0.101656
0.604242 0.276249 0.094667
0.643427 0.290898 0.088746
0.677363 0.303868 0.084047
0.707546 0.315618 0.079927
0.736263 0.326726 0.077577
0.763638 0.337346 0.076905
0.789334 0.347570 0.077790
0.813138 0.356817 0.081910
0.834928 0.365576 0.088380
0.854887 0.373816 0.096895
0.873289 0.381720 0.108156
0.890501 0.389471 0.120912
0.906584 0.397375 0.136080
0.921721 0.405646 0.153414
0.935973 0.414618 0.173312
0.949340 0.424720 0.196475
0.961791 0.436683 0.223514
0.112459 0.147463 0.129244
0.120668 0.148257 0.129366
0.131746 0.149508 0.130007
0.150576 0.152132 0.129763
0.177157 0.157595 0.128817
0.206882 0.163638 0.126894
0.237278 0.170047 0.124788
0.269413 0.177615 0.123751
0.304631 0.186618 0.122683
0.342626 0.197452 0.121004
0.383093 0.209201 0.118746
0.424903 0.222477 0.115480
0.467323 0.236393 0.111910
0.509667 0.250767 0.107210
0.554681 0.266423 0.101350
0.600366 0.282841 0.094942
0.639887 0.297154 0.088716
0.674311 0.309850 0.083589
0.704860 0.321172 0.079774
0.733730 0.331914 0.077150
0.761074 0.341985 0.076722
0.786923 0.351690 0.077760
0.810849 0.360937 0.081178
0.832975 0.369238 0.088045
0.853239 0.377356 0.096529
0.871946 0.385107 0.107546
0.889342 0.392584 0.120790
0.905577 0.400275 0.135622
0.920775 0.408270 0.153231
0.935119 0.416999 0.172824
0.948577 0.426917 0.196139
0.961120 0.438666 0.223056
0.111543 0.158907 0.135286
0.119265 0.159701 0.135714
0.128878 0.160769 0.135714
0.146334 0.163302 0.135164
0.170413 0.167178 0.134524
0.201480 0.174594 0.132662
0.234379 0.181949 0.130739
0.266636 0.189181 0.128328
0.301701 0.198215 0.125063
0.339757 0.209018 0.121645
0.380163 0.220798 0.119112
0.421881 0.233524 0.116060
0.464149 0.247135 0.111849
0.506706 0.261021 0.107362
0.552697 0.276646 0.101167
0.597803 0.292332 0.094667
0.637324 0.306065 0.088502
0.671962 0.318303 0.083375
0.702907 0.329107 0.079835
0.732204 0.339300 0.077211
0.760006 0.349218 0.076234
0.786252 0.358465 0.077546
0.830442 0.376867 0.087190
0.850278 0.384375 0.096132
0.868376 0.391211 0.106355
0.885008 0.397894 0.118654
0.900511 0.404547 0.132204
0.915007 0.411597 0.147829
0.928801 0.419104 0.165560
0.941863 0.427436 0.186038
0.954131 0.437171 0.209384
0.965545 0.448829 0.236820
0.110628 0.172732 0.142763
0.118227 0.173465 0.143008
0.126406 0.174624 0.142702
0.142550 0.177279 0.141390
0.166781 0.180880 0.140780
0.194858 0.185916 0.139864
0.230777 0.195346 0.137667
0.267643 0.204471 0.135012
0.303319 0.213199 0.131991
0.342382 0.223911 0.128359
0.383490 0.236149 0.123415
0.426062 0.249424 0.117678
0.468666 0.263432 0.111025
0.511192 0.276768 0.106081
0.559899 0.293095 0.099611
0.604486 0.307927 0.092927
0.643244 0.320836 0.086641
0.677302 0.331853 0.082033
0.708278 0.342077 0.078309
0.738186 0.351873 0.076631
0.767147 0.361730 0.075898
0.794827 0.371252 0.078798
0.820371 0.380285 0.084565
0.843351 0.388525 0.093172
0.863767 0.395941 0.104616
0.881804 0.402808 0.116823
0.898039 0.409430 0.131319
0.912993 0.416175 0.147005
0.927062 0.423285 0.165011
0.940276 0.431281 0.185000
0.952697 0.440650 0.208530
0.964233 0.451850 0.235599
0.111421 0.186282 0.151156
0.117281 0.187106 0.151095
0.124239 0.188327 0.150393
0.138399 0.190890 0.148440
0.161654 0.194339 0.147127
0.189242 0.198825 0.146487
0.220462 0.205295 0.145083
0.258946 0.215946 0.142489
0.299077 0.226841 0.139712
0.337774 0.236790 0.136080
0.378759 0.248447 0.132204
0.421180 0.261143 0.126467
0.464027 0.274449 0.119631
0.507774 0.288731 0.112123
0.556390 0.305730 0.102510
0.600031 0.320623 0.092470
0.638453 0.332433 0.086549
0.672572 0.342840 0.081788
0.703700 0.352209 0.078309
0.733791 0.361517 0.076081
0.762905 0.370733 0.075837
0.790799 0.379675 0.078248
0.816587 0.388159 0.084169
0.839872 0.395880 0.092653
0.860655 0.402838 0.103761
0.878996 0.409339 0.116304
0.895598 0.415503 0.130678
0.910857 0.421851 0.146334
0.925200 0.428626 0.164279
0.938628 0.436286 0.184390
0.951232 0.445197 0.207736
0.962982 0.456001 0.234867
0.111360 0.201755 0.160525
0.116365 0.202609 0.159915
0.122560 0.203861 0.159518
0.135348 0.206271 0.157473
0.156130 0.209812 0.154391
0.184543 0.213809 0.153964
0.214878 0.219089 0.152804
0.248875 0.226963 0.150881
0.290349 0.239017 0.147768
0.333806 0.251774 0.144686
0.374884 0.262852 0.140597
0.417243 0.275059 0.135805
0.460151 0.287694 0.129763
0.506767 0.302708 0.121889
0.553735 0.318303 0.112917
0.596521 0.332372 0.103182
0.634882 0.344640 0.093172
0.669154 0.355596 0.082826
0.700374 0.364477 0.078187
0.730556 0.373205 0.075776
0.759854 0.381659 0.075776
0.787900 0.389960 0.078676
0.813840 0.397894 0.083803
0.837278 0.404974 0.092775
0.858244 0.411566 0.103670
0.876829 0.417426 0.116548
0.893675 0.423102 0.130434
0.909117 0.428962 0.146365
0.923644 0.435248 0.164492
0.937194 0.442420 0.184665
0.949920 0.450874 0.208225
0.961761 0.461189 0.235050
0.110079 0.219089 0.170352
0.114382 0.219791 0.169802
0.120150 0.220920 0.169070
0.132082 0.223301 0.167147
0.150912 0.226780 0.163119
0.179263 0.230594 0.161624
0.210330 0.235355 0.160830
0.242832 0.241215 0.159304
0.280308 0.250736 0.156893
0.324437 0.264103 0.153201
0.370275 0.278111 0.149569
0.412604 0.289555 0.144991
0.455604 0.302007 0.139712
0.504112 0.317876 0.133364
0.550683 0.332433 0.124788
0.593866 0.345800 0.115602
0.632654 0.357549 0.106020
0.667384 0.367956 0.096803
0.698939 0.377264 0.087617
0.729122 0.386633 0.077180
0.758022 0.394415 0.075593
0.785367 0.401862 0.078157
0.810819 0.408637 0.083742
0.833982 0.414923 0.092866
0.854887 0.420752 0.103365
0.873747 0.426062 0.116396
0.890990 0.431250 0.130526
0.906950 0.436835 0.146670
0.921843 0.442786 0.164889
0.935790 0.449683 0.185519
0.948821 0.457771 0.209079
0.960906 0.467811 0.236728
0.106996 0.237064 0.180636
0.111147 0.237827 0.180148
0.116670 0.238865 0.179202
0.128267 0.241306 0.177401
0.146456 0.244785 0.173648
0.172274 0.248844 0.169345
0.205509 0.253361 0.169162
0.238834 0.258885 0.168002
0.273777 0.265568 0.166049
0.315129 0.277226 0.162814
0.361151 0.291417 0.158816
0.408637 0.305913 0.154574
0.454353 0.319432 0.149844
0.501518 0.333989 0.143984
0.547112 0.347692 0.137240
0.589807 0.360204 0.129274
0.628626 0.371069 0.120180
0.663416 0.380652 0.111879
0.695125 0.389288 0.103304
0.725521 0.397803 0.094392
0.754757 0.406409 0.085878
0.782467 0.414496 0.078706
0.808225 0.420752 0.084688
0.831601 0.426490 0.092988
0.852720 0.431647 0.104311
0.871733 0.436439 0.116945
0.889067 0.441047 0.131319
0.905150 0.445930 0.147219
0.920165 0.451392 0.165682
0.934234 0.457679 0.186221
0.947387 0.465309 0.210208
0.959625 0.474861 0.237583
0.101930 0.256779 0.191958
0.106020 0.257572 0.191470
0.111818 0.258701 0.190463
0.123323 0.260960 0.188571
0.141268 0.264286 0.184970
0.164858 0.268589 0.179294
0.198795 0.273136 0.177646
0.234562 0.278386 0.176822
0.270817 0.284886 0.175174
0.307897 0.292485 0.173007
0.352453 0.305791 0.168948
0.400366 0.320531 0.164370
0.470130 0.350195 0.162020
0.519585 0.364965 0.156893
0.566491 0.378393 0.150484
0.608728 0.389715 0.144045
0.646296 0.398901 0.136995
0.679530 0.406348 0.129061
0.709926 0.413031 0.121920
0.739071 0.420081 0.113985
0.766720 0.426947 0.106996
0.792691 0.433570 0.100557
0.816678 0.439734 0.093874
0.838407 0.444373 0.099275
0.858213 0.448249 0.110658
0.876219 0.451911 0.123659
0.892729 0.455604 0.138460
0.908049 0.459571 0.155001
0.922423 0.464210 0.172915
0.935943 0.469825 0.194064
0.948608 0.476875 0.217563
0.960479 0.485847 0.245457
0.092500 0.281407 0.205783
0.097200 0.281987 0.205264
0.103365 0.282933 0.204257
0.115755 0.284947 0.202182
0.134554 0.288060 0.198459
0.158511 0.292058 0.192386
0.190982 0.296513 0.186679
0.229831 0.301518 0.186526
0.268223 0.307591 0.185245
0.307134 0.315068 0.183169
0.347936 0.324346 0.180362
0.399176 0.341711 0.176547
0.455207 0.361700 0.172457
0.511192 0.380896 0.168093
0.558770 0.394171 0.162509
0.601770 0.405188 0.157046
0.639796 0.413855 0.151339
0.673335 0.420966 0.145632
0.704097 0.426947 0.138796
0.733455 0.433173 0.131411
0.761410 0.439368 0.124971
0.787839 0.445350 0.118624
0.812070 0.450996 0.113344
0.834379 0.456123 0.108461
0.854551 0.460334 0.111543
0.872892 0.463386 0.124575
0.889738 0.466499 0.139040
0.905364 0.469947 0.155306
0.920012 0.474067 0.173861
0.933867 0.479133 0.194827
0.946777 0.485695 0.218936
0.958892 0.494209 0.246830
0.080751 0.303471 0.218631
0.086244 0.304204 0.217838
0.092988 0.305058 0.216892
0.106508 0.307073 0.214878
0.125917 0.310002 0.211124
0.150698 0.313817 0.205478
0.180026 0.318730 0.197238
0.221378 0.323339 0.195132
0.262425 0.329015 0.194736
0.302617 0.336065 0.192752
0.343786 0.344579 0.190799
0.391638 0.359136 0.188693
0.445350 0.377386 0.184390
0.499275 0.394995 0.179477
0.551751 0.411475 0.175113
0.595148 0.421820 0.169650
0.633082 0.429664 0.164401
0.666987 0.436042 0.159365
0.698116 0.441718 0.154604
0.727840 0.447303 0.149142
0.756313 0.452857 0.142947
0.783108 0.458350 0.137148
0.807858 0.463478 0.131746
0.830594 0.468238 0.127169
0.851316 0.472541 0.123842
0.870146 0.476020 0.126223
0.887297 0.478584 0.140414
0.903166 0.481514 0.157015
0.918090 0.485115 0.175570
0.932128 0.489693 0.196994
0.945281 0.495766 0.221256
0.957580 0.503838 0.249454
0.062226 0.327062 0.231846
0.068727 0.327886 0.231357
0.077028 0.328557 0.230503
0.093477 0.330480 0.228336
0.115297 0.333288 0.224643
0.141360 0.337041 0.219028
0.171511 0.341680 0.211124
0.210056 0.346471 0.204349
0.254429 0.351812 0.204135
0.297063 0.358221 0.203159
0.341619 0.368688 0.201816
0.387579 0.380468 0.200076
0.436500 0.394720 0.197177
0.489021 0.411048 0.191958
0.540581 0.426429 0.186954
0.588373 0.439429 0.182498
0.627344 0.446967 0.177737
0.661341 0.452399 0.173251
0.692683 0.457343 0.168704
0.722621 0.462379 0.164706
0.751217 0.467597 0.160800
0.778317 0.472358 0.155093
0.803433 0.476936 0.150088
0.826627 0.481147 0.145815
0.847776 0.484932 0.142611
0.867216 0.488533 0.140261
0.885130 0.491646 0.143282
0.901549 0.494331 0.160464
0.916960 0.497627 0.179629
0.931365 0.501915 0.201480
0.944823 0.507805 0.226963
0.957336 0.515770 0.256107
0.004517 0.351598 0.246067
0.021729 0.352422 0.245579
0.047181 0.353368 0.244755
0.074556 0.355200 0.242741
0.100984 0.357977 0.239200
0.129824 0.361852 0.234012
0.161501 0.366461 0.226261
0.196841 0.371984 0.216159
0.244968 0.376806 0.214389
0.292485 0.385260 0.215000
0.338933 0.394934 0.214267
0.384955 0.404974 0.212314
0.430457 0.415167 0.209934
0.479286 0.428107 0.205509
0.529168 0.441871 0.199649
0.576745 0.454200 0.194583
0.619745 0.463874 0.190738
0.655390 0.469520 0.186831
0.687434 0.473915 0.182986
0.718074 0.478584 0.179721
0.747341 0.483375 0.176333
0.774929 0.488167 0.173648
0.800565 0.492348 0.169924
0.824125 0.496040 0.165652
0.845640 0.499306 0.162844
0.865446 0.502434 0.160616
0.883726 0.505455 0.159304
0.900603 0.508263 0.165072
0.916075 0.511101 0.184695
0.930510 0.514855 0.206546
0.943908 0.520104 0.231907
0.956359 0.527489 0.261479
0.000000 0.376532 0.260533
0.000000 0.377111 0.260044
0.000000 0.377966 0.259190
0.029603 0.379767 0.257053
0.081209 0.382483 0.253819
0.115511 0.386114 0.248905
0.150088 0.390539 0.241550
0.186587 0.395941 0.231785
0.232456 0.403815 0.225681
0.284062 0.411383 0.226230
0.332647 0.419654 0.226261
0.379461 0.428473 0.224338
0.425422 0.437659 0.221836
0.470771 0.446784 0.219028
0.518975 0.458900 0.213901
0.566186 0.470527 0.207919
0.609400 0.479469 0.203799
0.648402 0.486732 0.200320
0.681819 0.491157 0.197024
0.712642 0.495094 0.194095
0.742214 0.499214 0.191226
0.770077 0.503380 0.188571
0.796017 0.507256 0.186740
0.819974 0.510826 0.185000
0.842008 0.513695 0.182101
0.862242 0.516411 0.180056
0.880949 0.519066 0.179171
0.898375 0.521813 0.179355
0.914458 0.524559 0.188724
0.929107 0.527886 0.211215
0.942718 0.532769 0.237125
0.955352 0.539818 0.267369
0.000000 0.402350 0.275944
0.000000 0.403174 0.275303
0.000000 0.410315 0.278294
0.000000 0.412024 0.276036
0.025666 0.414649 0.272831
0.094179 0.417884 0.267765
0.135775 0.424567 0.262028
0.177005 0.432166 0.253727
0.220951 0.440192 0.242405
0.278172 0.447272 0.242100
0.330968 0.454719 0.242435
0.380652 0.462470 0.241123
0.428168 0.470375 0.238621
0.474434 0.478340 0.235569
0.519463 0.486275 0.231907
0.566278 0.496407 0.226017
0.609247 0.504143 0.220493
0.647730 0.509819 0.217075
0.682460 0.514000 0.214542
0.713710 0.517235 0.211551
0.742672 0.520043 0.209415
0.770230 0.523156 0.207004
0.795926 0.525994 0.205417
0.819425 0.528649 0.204440
0.840818 0.530846 0.204166
0.860563 0.532677 0.202487
0.878935 0.534325 0.201053
0.896147 0.536309 0.201022
0.912474 0.538598 0.202243
0.927550 0.541497 0.216434
0.941283 0.545769 0.242588
0.954040 0.552361 0.272953
0.000000 0.431037 0.292638
0.000000 0.432868 0.292821
0.000000 0.435035 0.292790
0.000000 0.438422 0.291997
0.000000 0.442939 0.289860
0.060182 0.448249 0.285954
0.116976 0.454170 0.280034
0.162875 0.460487 0.272099
0.209110 0.467414 0.261112
0.263279 0.473732 0.254337
0.319799 0.479988 0.254429
0.371740 0.486793 0.254307
0.420233 0.493660 0.251987
0.467018 0.500633 0.248844
0.512261 0.507561 0.245151
0.556420 0.514763 0.240818
0.599603 0.521996 0.235630
0.638880 0.527214 0.230564
0.674342 0.530938 0.227817
0.706996 0.534264 0.225711
0.736965 0.536950 0.223941
0.765011 0.539544 0.222507
0.791287 0.542138 0.221439
0.815335 0.544457 0.220920
0.837247 0.546349 0.221164
0.857359 0.548119 0.221378
0.876005 0.549798 0.221836
0.893553 0.551354 0.222324
0.910155 0.553338 0.223606
0.925841 0.555688 0.226993
0.939910 0.559411 0.248447
0.952758 0.565667 0.279637
0.000000 0.462928 0.311406
0.000000 0.464790 0.311711
0.000000 0.466926 0.311711
0.000000 0.470100 0.310765
0.000000 0.474098 0.308232
0.000000 0.478492 0.304295
0.089143 0.483497 0.298375
0.145663 0.488960 0.290471
0.195499 0.495003 0.279820
0.245274 0.501244 0.267643
0.306615 0.506615 0.267430
0.361578 0.512444 0.267155
0.412177 0.518456 0.266087
0.460090 0.524681 0.262974
0.505791 0.530632 0.259495
0.549737 0.536461 0.255558
0.592279 0.542199 0.250980
0.631891 0.546838 0.246372
0.668055 0.550134 0.242039
0.701259 0.552667 0.240055
0.731777 0.555016 0.239109
0.760220 0.557122 0.238132
0.786893 0.559319 0.237675
0.811398 0.561120 0.237949
0.833707 0.562585 0.238224
0.854124 0.563897 0.239109
0.873014 0.565270 0.240574
0.890623 0.566918 0.243503
0.907378 0.568536 0.245487
0.923217 0.570611 0.249088
0.938201 0.573327 0.254582
0.951232 0.579004 0.286198
0.000000 0.494392 0.330083
0.000000 0.496284 0.330449
0.000000 0.498390 0.330205
0.000000 0.501305 0.329259
0.000000 0.504906 0.326879
0.000000 0.508812 0.322728
0.011017 0.513024 0.316716
0.121767 0.517937 0.309056
0.179324 0.523064 0.298955
0.232303 0.528649 0.287144
0.291142 0.533806 0.280797
0.349950 0.538659 0.280461
0.402930 0.543664 0.280003
0.452003 0.548821 0.277623
0.498695 0.554070 0.274449
0.543389 0.559411 0.270939
0.586786 0.564874 0.267765
0.627832 0.569818 0.263645
0.665187 0.572992 0.260349
0.699733 0.575525 0.257603
0.731472 0.577539 0.256931
0.760281 0.579217 0.257237
0.786801 0.580499 0.257816
0.811704 0.581964 0.259007
0.834318 0.583124 0.260288
0.854856 0.584070 0.262333
0.873747 0.585016 0.265049
0.891325 0.586297 0.268772
0.907836 0.587945 0.273747
0.923430 0.589960 0.279026
0.938231 0.592401 0.285252
0.951873 0.596643 0.301671
0.000000 0.531640 0.352117
0.000000 0.532799 0.351904
0.000000 0.534112 0.351476
0.000000 0.536156 0.350042
0.000000 0.538842 0.347173
0.000000 0.542077 0.342718
0.000000 0.545830 0.336767
0.087434 0.550103 0.329320
0.160494 0.554986 0.319707
0.219028 0.560143 0.308873
0.275090 0.565393 0.297368
0.339300 0.569482 0.297398
0.395758 0.573571 0.297124
0.446998 0.577722 0.296239
0.494606 0.582055 0.293278
0.540124 0.586389 0.290074
0.583764 0.590814 0.286687
0.625818 0.595544 0.283207
0.663905 0.598138 0.279973
0.698329 0.599420 0.277104
0.730037 0.600153 0.274571
0.758694 0.600488 0.274388
0.784390 0.600305 0.275151
0.807767 0.599847 0.276188
0.830472 0.600336 0.278050
0.851347 0.600855 0.280156
0.870542 0.601526 0.283299
0.888365 0.602441 0.287694
0.905058 0.603876 0.293248
0.920714 0.605921 0.300450
0.935485 0.608789 0.309545
0.949645 0.612146 0.319371
0.000000 0.563531 0.370886
0.000000 0.564691 0.370764
0.000000 0.565972 0.370367
0.000000 0.567895 0.368841
0.000000 0.570184 0.365850
0.000000 0.572747 0.361608
0.000000 0.575830 0.355566
0.000000 0.579278 0.348028
0.136080 0.583337 0.338872
0.202457 0.587640 0.328740
0.261936 0.592096 0.317540
0.324498 0.595819 0.312688
0.383825 0.599115 0.312657
0.437598 0.602533 0.312383
0.486641 0.606256 0.310704
0.532952 0.610010 0.307683
0.577142 0.613947 0.304662
0.619623 0.618128 0.301732
0.660761 0.622522 0.298711
0.696254 0.623560 0.296361
0.728511 0.623713 0.294224
0.757931 0.623255 0.292790
0.784054 0.622370 0.293919
0.807248 0.621027 0.295384
0.825589 0.617090 0.294072
0.846769 0.617151 0.296666
0.866331 0.617487 0.300359
0.884520 0.618128 0.305028
0.901457 0.619318 0.311162
0.917357 0.621088 0.318517
0.932403 0.623987 0.328923
0.946532 0.628107 0.342107
0.000000 0.599847 0.392584
0.000000 0.601099 0.392554
0.000000 0.602106 0.392035
0.000000 0.603449 0.390234
0.000000 0.605035 0.386938
0.000000 0.606897 0.382483
0.000000 0.609216 0.376257
0.000000 0.611658 0.368811
0.104646 0.614466 0.359899
0.185397 0.617517 0.349950
0.249790 0.620600 0.339666
0.309850 0.623621 0.330694
0.372717 0.625788 0.330236
0.428046 0.628107 0.329686
0.478340 0.630304 0.329046
0.524865 0.632807 0.325933
0.568963 0.635615 0.322728
0.611383 0.638849 0.319707
0.652583 0.642664 0.316899
0.692470 0.646693 0.314336
0.725338 0.646296 0.312413
0.755215 0.645228 0.311437
0.781796 0.643397 0.310735
0.805020 0.640955 0.312078
0.825376 0.638148 0.313664
0.843626 0.635309 0.315312
0.863249 0.634974 0.319432
0.881407 0.635096 0.324346
0.898405 0.635828 0.330541
0.914366 0.637354 0.338659
0.929503 0.640070 0.349676
0.943725 0.644221 0.363775
0.000000 0.629053 0.410040
0.000000 0.630213 0.409766
0.000000 0.631189 0.409277
0.000000 0.632319 0.407446
0.000000 0.633722 0.404211
0.000000 0.635309 0.399878
0.000000 0.637232 0.393927
0.000000 0.639490 0.386816
0.034546 0.642084 0.378698
0.164584 0.644831 0.369909
0.235874 0.647608 0.360510
0.299077 0.650324 0.352300
0.361944 0.652430 0.349493
0.419684 0.654383 0.349279
0.471687 0.656428 0.348791
0.519554 0.658625 0.347509
0.564355 0.661128 0.344915
0.607355 0.663966 0.341894
0.648829 0.667262 0.339422
0.689082 0.671046 0.337285
0.726497 0.673640 0.335424
0.756435 0.671504 0.334386
0.783078 0.668635 0.333989
0.806516 0.665126 0.333959
0.826932 0.661402 0.335821
0.844938 0.657618 0.338018
0.861051 0.653925 0.340429
0.879301 0.653651 0.346014
0.896330 0.654108 0.353155
0.912383 0.655512 0.362219
0.927489 0.658228 0.374304
0.941619 0.662409 0.389868
0.000000 0.659419 0.427893
0.000000 0.660243 0.427680
0.000000 0.660853 0.426978
0.000000 0.661616 0.424933
0.000000 0.662531 0.421576
0.000000 0.663722 0.417212
0.000000 0.665156 0.411658
0.000000 0.666926 0.404822
0.000000 0.669062 0.397162
0.138827 0.671412 0.388922
0.220706 0.673793 0.380865
0.288304 0.676265 0.373663
0.351263 0.678370 0.369451
0.411200 0.680018 0.369696
0.464576 0.681636 0.369360
0.513542 0.683345 0.369207
0.558953 0.685389 0.366888
0.602014 0.687678 0.364538
0.643549 0.690486 0.362188
0.683864 0.693599 0.360082
0.722713 0.696986 0.358373
0.756954 0.697658 0.357275
0.783627 0.693782 0.357183
0.807156 0.689357 0.357214
0.827878 0.684565 0.357458
0.845884 0.679927 0.359930
0.861967 0.675532 0.362860
0.876371 0.671412 0.365698
0.893156 0.671199 0.372992
0.909300 0.672419 0.383093
0.924437 0.674952 0.395666
0.938567 0.679042 0.411994
0.000000 0.687648 0.444465
0.000000 0.688258 0.444251
0.000000 0.688808 0.443397
0.000000 0.689570 0.441535
0.000000 0.690547 0.438605
0.000000 0.692103 0.434638
0.000000 0.694240 0.429725
0.000000 0.696773 0.424109
0.000000 0.699702 0.417792
0.109804 0.702907 0.411383
0.209415 0.705989 0.405554
0.283970 0.708888 0.400793
0.351080 0.711238 0.399084
0.412390 0.713100 0.399908
0.467109 0.714687 0.400763
0.516655 0.716121 0.400793
0.562768 0.717647 0.400855
0.605676 0.719478 0.398566
0.646967 0.721553 0.396765
0.686793 0.723964 0.395056
0.725093 0.726528 0.393683
0.761868 0.729213 0.392676
0.791440 0.726864 0.392218
0.814176 0.720912 0.392828
0.834257 0.714870 0.393408
0.851957 0.708888 0.394324
0.867521 0.703548 0.397589
0.881468 0.698634 0.401007
0.894072 0.694331 0.404913
0.909087 0.694514 0.414801
0.923766 0.696925 0.429053
0.937377 0.701106 0.446754
0.000000 0.723445 0.465949
0.000000 0.723873 0.465461
0.000000 0.724147 0.464698
0.000000 0.724575 0.462593
0.000000 0.725277 0.459480
0.000000 0.726162 0.455482
0.000000 0.727504 0.450660
0.000000 0.729122 0.444953
0.000000 0.730983 0.438972
0.060304 0.732967 0.432868
0.194766 0.734798 0.427436
0.275669 0.736446 0.423499
0.345617 0.737667 0.422553
0.409644 0.738430 0.425055
0.464118 0.739376 0.425666
