data/fiter_cube/12544332/1022701/file.cube
# Created by Adobe Lightroom plugin Export LUT (1.24.0)
# www.johnrellis.com/lightroom/exportlut.htm
# Preset: 城市青橙纪实夜景 _05 云集
# Color profile: C:\Program Files (x86)\Common Files\Adobe\Color\Profiles\Recommended\AdobeRGB1998.icc
LUT_3D_SIZE 8
DOMAIN_MIN 0.000000 0.000000 0.000000
DOMAIN_MAX 0.903226 0.903226 0.903226
0.114870 0.114870 0.114870
0.184329 0.130068 0.119387
0.313359 0.165621 0.121798
0.479408 0.219425 0.111269
0.654688 0.285985 0.087739
0.774563 0.335241 0.077394
0.860990 0.371923 0.099733
0.924437 0.403784 0.155886
0.112459 0.147463 0.129244
0.177157 0.157595 0.128817
0.304631 0.186618 0.122683
0.467323 0.236393 0.111910
0.639887 0.297154 0.088716
0.761074 0.341985 0.076722
0.853239 0.377356 0.096529
0.920775 0.408270 0.153231
0.111360 0.201755 0.160525
0.156130 0.209812 0.154391
0.290349 0.239017 0.147768
0.460151 0.287694 0.129763
0.634882 0.344640 0.093172
0.759854 0.381659 0.075776
0.858244 0.411566 0.103670
0.923644 0.435248 0.164492
0.092500 0.281407 0.205783
0.134554 0.288060 0.198459
0.268223 0.307591 0.185245
0.455207 0.361700 0.172457
0.639796 0.413855 0.151339
0.761410 0.439368 0.124971
0.854551 0.460334 0.111543
0.920012 0.474067 0.173861
0.000000 0.376532 0.260533
0.081209 0.382483 0.253819
0.232456 0.403815 0.225681
0.425422 0.437659 0.221836
0.609400 0.479469 0.203799
0.742214 0.499214 0.191226
0.842008 0.513695 0.182101
0.914458 0.524559 0.188724
0.000000 0.494392 0.330083
0.000000 0.504906 0.326879
0.179324 0.523064 0.298955
0.402930 0.543664 0.280003
0.586786 0.564874 0.267765
0.731472 0.577539 0.256931
0.834318 0.583124 0.260288
0.907836 0.587945 0.273747
0.000000 0.629053 0.410040
0.000000 0.633722 0.404211
0.034546 0.642084 0.378698
0.361944 0.652430 0.349493
0.564355 0.661128 0.344915
0.726497 0.673640 0.335424
0.826932 0.661402 0.335821
0.896330 0.654108 0.353155
0.000000 0.751736 0.482246
0.000000 0.753292 0.476295
0.000000 0.758541 0.457313
0.342229 0.764004 0.446509
0.551843 0.759121 0.445472
0.712642 0.765682 0.445960
0.836790 0.764828 0.449653
0.896544 0.739132 0.460853
0.103731 0.130007 0.158877
0.169986 0.141970 0.157870
0.293309 0.170687 0.147036
0.455268 0.227054 0.136934
0.629816 0.293797 0.107820
0.753048 0.343420 0.076600
0.848600 0.376989 0.094240
0.917906 0.405371 0.149020
0.101259 0.156924 0.167300
0.166079 0.166079 0.166079
0.287724 0.190646 0.158663
0.450935 0.239750 0.142947
0.623377 0.302373 0.115023
0.746853 0.350896 0.079316
0.842863 0.382666 0.092531
0.914061 0.409552 0.146181
0.110567 0.208927 0.186893
0.157046 0.219333 0.188510
0.280583 0.242008 0.181094
0.444556 0.284611 0.166476
0.615808 0.337713 0.138979
0.743740 0.379217 0.110140
0.844022 0.412299 0.096773
0.915923 0.434516 0.155245
0.091341 0.285222 0.226963
0.135409 0.293553 0.224521
0.262974 0.312596 0.211185
0.437263 0.354498 0.199771
0.610437 0.399664 0.182162
0.737942 0.428260 0.157137
0.839231 0.453956 0.136110
0.912566 0.472114 0.163973
0.000000 0.382025 0.280583
0.077638 0.387274 0.275120
0.224338 0.407813 0.249882
0.414405 0.433845 0.242985
0.592096 0.470680 0.225315
0.728328 0.493294 0.214054
0.833188 0.510765 0.203891
0.909239 0.523278 0.199710
0.000000 0.494423 0.344579
0.000000 0.500008 0.339757
0.173068 0.516625 0.316320
0.390967 0.538079 0.295659
0.577050 0.561120 0.285771
0.725002 0.576440 0.276463
0.829129 0.583032 0.279393
0.903655 0.587884 0.287877
0.000000 0.621698 0.418097
0.000000 0.623529 0.411292
0.000000 0.633387 0.388891
0.348577 0.646876 0.360052
0.556146 0.657649 0.358160
0.718837 0.670466 0.347997
0.820127 0.658412 0.345159
0.891203 0.651759 0.359136
0.000000 0.746883 0.489815
0.000000 0.749355 0.484596
0.000000 0.755367 0.466682
0.328893 0.761837 0.454322
0.554803 0.763790 0.465431
0.711604 0.767727 0.462348
0.833951 0.765255 0.460212
0.893828 0.738918 0.467445
0.048402 0.165469 0.237736
0.117983 0.167269 0.238682
0.271458 0.189487 0.238346
0.444282 0.209689 0.205997
0.622950 0.284825 0.196750
0.748043 0.344518 0.186770
0.847837 0.389288 0.168826
0.919341 0.421454 0.155093
0.077272 0.191501 0.245090
0.130434 0.192691 0.245426
0.267094 0.209018 0.242649
0.436530 0.230259 0.214878
0.613062 0.296330 0.204105
0.741939 0.350958 0.190829
0.843503 0.394018 0.171756
0.917205 0.426307 0.154360
0.048768 0.242191 0.264744
0.120607 0.245640 0.264622
0.259617 0.259617 0.259617
0.431006 0.290684 0.245182
0.608637 0.340581 0.228733
0.738979 0.382849 0.210086
0.840970 0.418616 0.191958
0.915129 0.446082 0.176608
0.000000 0.306065 0.288731
0.096193 0.314336 0.291356
0.237797 0.335729 0.287297
0.426246 0.369329 0.280461
0.601068 0.408789 0.269230
0.733394 0.436591 0.247044
0.837400 0.462440 0.229618
0.912200 0.482429 0.217136
0.000000 0.396429 0.334722
0.000000 0.405005 0.336004
0.207218 0.429511 0.331365
0.404822 0.454170 0.318395
0.585779 0.483833 0.304479
0.721218 0.503868 0.296147
0.828275 0.520562 0.282353
0.906157 0.533043 0.273045
0.000000 0.507469 0.395575
0.000000 0.514000 0.394568
0.148470 0.530388 0.383032
0.367803 0.548882 0.358007
0.563531 0.568078 0.351019
0.712673 0.581415 0.341711
0.820493 0.590967 0.344305
0.899443 0.599420 0.350469
0.000000 0.631922 0.464485
0.000000 0.634546 0.460151
0.000000 0.642298 0.443000
0.327184 0.652918 0.417731
0.542718 0.661952 0.413245
0.708949 0.676143 0.404303
0.815427 0.668116 0.402808
0.888914 0.665370 0.417517
0.000000 0.750149 0.526787
0.000000 0.751034 0.521294
0.000000 0.756313 0.504753
0.290562 0.764920 0.491707
0.543847 0.765164 0.506065
0.702724 0.769986 0.505150
0.828122 0.771176 0.502403
0.889860 0.747463 0.508721
0.000000 0.223789 0.347295
0.000000 0.222934 0.349981
0.203586 0.215183 0.351019
0.410468 0.252659 0.349248
0.601373 0.248966 0.294163
0.731868 0.332738 0.285832
0.834714 0.390661 0.279423
0.911223 0.429389 0.266636
0.000000 0.247196 0.357488
0.000000 0.243961 0.358068
0.200473 0.233524 0.357336
0.409766 0.270390 0.354406
0.597375 0.270756 0.301884
0.727871 0.344274 0.291966
0.831968 0.397864 0.283513
0.910185 0.433967 0.268498
0.000000 0.291020 0.371893
0.000000 0.290990 0.372137
0.195590 0.290501 0.370733
0.401678 0.319005 0.366827
0.588220 0.334783 0.329107
0.726131 0.389288 0.320073
0.835325 0.432837 0.309941
0.911376 0.458869 0.289036
0.000000 0.358495 0.398871
0.000000 0.359747 0.398077
0.173556 0.368841 0.398077
0.392065 0.392065 0.392065
0.573236 0.418250 0.372290
0.714534 0.448096 0.354070
0.826444 0.475929 0.336645
0.906645 0.496864 0.319615
0.000000 0.435035 0.428107
0.000000 0.439094 0.428504
0.140780 0.454566 0.429603
0.368322 0.480537 0.423957
0.565240 0.503777 0.413550
0.706142 0.524437 0.405158
0.819577 0.539940 0.384833
0.900450 0.551110 0.367926
0.000000 0.531640 0.474739
0.000000 0.541100 0.478950
0.000000 0.555322 0.475593
0.333257 0.573297 0.461738
0.546105 0.588495 0.452155
0.699428 0.599695 0.440833
0.810025 0.610986 0.440314
0.892302 0.618616 0.434546
0.000000 0.644038 0.532464
0.000000 0.647883 0.530999
0.000000 0.657862 0.522057
0.278294 0.669062 0.503288
0.524407 0.676081 0.499062
0.693141 0.688106 0.491524
0.805112 0.683375 0.484657
0.881407 0.683558 0.493904
0.000000 0.759976 0.589715
0.000000 0.762234 0.587274
0.000000 0.766598 0.572107
0.168551 0.771572 0.550042
0.511742 0.770199 0.558434
0.685908 0.773678 0.564904
0.817319 0.779965 0.560296
0.882933 0.759457 0.564141
0.000000 0.297612 0.476478
0.000000 0.293889 0.478096
0.000000 0.276280 0.478798
0.344549 0.288945 0.480079
0.557671 0.337591 0.472816
0.713344 0.319707 0.403021
0.820401 0.409827 0.403723
0.898955 0.467475 0.408087
0.000000 0.312963 0.482490
0.000000 0.309819 0.484291
0.000000 0.294499 0.483986
0.343053 0.303685 0.483772
0.554711 0.350225 0.474861
0.711574 0.332830 0.406317
0.819303 0.419471 0.408820
0.898436 0.472816 0.410559
0.000000 0.352178 0.494942
0.000000 0.350683 0.495247
0.000000 0.343999 0.496071
0.331090 0.346441 0.493690
0.544915 0.389136 0.481514
0.700862 0.382300 0.423468
0.813748 0.447974 0.422217
0.895964 0.488167 0.415045
0.000000 0.408759 0.513085
0.000000 0.409339 0.514031
0.000000 0.411078 0.515160
0.317357 0.418402 0.511894
0.535576 0.451240 0.499306
0.691615 0.458686 0.458900
0.809628 0.496437 0.447211
0.896117 0.516686 0.423743
0.000000 0.483406 0.541466
0.000000 0.484810 0.541711
0.000000 0.488991 0.539788
0.296971 0.500786 0.534508
0.521386 0.521386 0.521386
0.678950 0.537926 0.499367
0.802518 0.555810 0.478676
0.890684 0.568231 0.457038
0.000000 0.558129 0.565179
0.000000 0.560204 0.564965
0.000000 0.566644 0.562127
0.253391 0.582086 0.557702
0.488350 0.595911 0.540612
0.669856 0.614252 0.536858
0.792874 0.632624 0.534844
0.882292 0.638849 0.517449
0.000000 0.656764 0.611109
0.000000 0.658961 0.610101
0.000000 0.666743 0.605921
0.159487 0.677577 0.593866
0.454627 0.684932 0.573602
0.660487 0.694484 0.573632
0.787228 0.697444 0.564080
0.870451 0.701015 0.566522
0.000000 0.763333 0.660822
0.000000 0.764858 0.658686
0.000000 0.769253 0.649104
0.000000 0.778470 0.631586
0.397375 0.778408 0.607599
0.653285 0.776394 0.623926
0.793393 0.783719 0.619562
0.872099 0.770596 0.619135
0.000000 0.373358 0.609216
0.000000 0.369055 0.609552
0.000000 0.354925 0.611841
0.215671 0.340856 0.612207
0.496651 0.385168 0.602808
0.673304 0.441718 0.581537
0.798886 0.459266 0.542138
0.880156 0.534203 0.551324
0.000000 0.381598 0.607935
0.000000 0.377600 0.607904
0.000000 0.365423 0.610620
0.215152 0.352300 0.609705
0.492256 0.392889 0.601099
0.669490 0.448615 0.581445
0.796841 0.464179 0.542504
0.879149 0.537438 0.551965
0.000000 0.416327 0.620081
0.000000 0.413550 0.619989
0.000000 0.404578 0.619837
0.218418 0.396643 0.617487
0.488289 0.428931 0.608057
0.665095 0.480171 0.589471
0.794461 0.487770 0.550164
0.877745 0.554376 0.559564
0.000000 0.464271 0.632227
0.000000 0.462470 0.631373
0.000000 0.459113 0.630732
0.216312 0.461219 0.630793
0.483009 0.486915 0.623224
0.662409 0.531456 0.606989
0.792782 0.532403 0.568170
0.877317 0.582696 0.572076
0.000000 0.520836 0.643214
0.000000 0.520775 0.643122
0.000000 0.521019 0.642206
0.180850 0.525841 0.639429
0.450385 0.541009 0.631708
0.648615 0.577417 0.617456
0.783383 0.584039 0.586694
0.875273 0.609735 0.575769
0.000000 0.586053 0.658564
0.000000 0.587732 0.659419
0.000000 0.590600 0.658106
0.116457 0.598199 0.654719
0.421820 0.613245 0.647333
0.636774 0.636774 0.636774
0.776181 0.651789 0.619562
0.872068 0.661280 0.601190
0.000000 0.669581 0.691737
0.000000 0.671748 0.692164
0.000000 0.676661 0.690700
0.000000 0.686976 0.687343
0.373266 0.702663 0.679225
0.612238 0.709255 0.658595
0.767483 0.718379 0.652308
0.860166 0.727657 0.651179
0.000000 0.765225 0.736263
0.000000 0.767391 0.735225
0.000000 0.775204 0.732418
0.000000 0.787411 0.726284
0.247410 0.789914 0.702144
0.572351 0.785611 0.679622
0.762905 0.789273 0.689021
0.858946 0.786618 0.685725
0.000000 0.433295 0.720638
0.000000 0.433326 0.720363
0.000000 0.421393 0.720180
0.000000 0.410803 0.718807
0.416724 0.439887 0.711788
0.632441 0.499855 0.701381
0.764736 0.554986 0.678859
0.856382 0.597742 0.666102
0.000000 0.444038 0.721920
0.000000 0.441230 0.721767
0.000000 0.430121 0.721431
0.000000 0.420020 0.719387
0.416876 0.448920 0.712856
0.632258 0.508049 0.702754
0.764370 0.561120 0.680812
0.856291 0.602228 0.668086
0.000000 0.468696 0.725216
0.000000 0.465888 0.725124
0.000000 0.457313 0.724697
0.000000 0.450721 0.722469
0.414923 0.477577 0.716152
0.629236 0.531395 0.706172
0.761898 0.578973 0.685786
0.855283 0.614008 0.672206
0.000000 0.506767 0.731258
0.000000 0.504631 0.730861
0.000000 0.498787 0.730343
0.000000 0.495430 0.728054
0.397406 0.515831 0.722072
0.621851 0.565484 0.712032
0.758083 0.606806 0.694026
0.854429 0.632898 0.678401
0.000000 0.556054 0.739315
0.000000 0.555047 0.739254
0.000000 0.551965 0.738643
0.000000 0.549371 0.736660
0.351995 0.561883 0.731258
0.606439 0.605127 0.721096
0.753841 0.642908 0.705928
0.854002 0.659022 0.686519
0.000000 0.612573 0.749569
0.000000 0.613031 0.749325
0.000000 0.612665 0.748653
0.000000 0.614252 0.746731
0.298344 0.623804 0.742367
0.571832 0.650507 0.733394
0.747311 0.686641 0.720363
0.851804 0.699855 0.702846
0.000000 0.672572 0.761013
0.000000 0.674891 0.760678
0.000000 0.677089 0.759976
0.000000 0.682216 0.758389
0.253025 0.694514 0.754879
0.546319 0.716060 0.748165
0.738216 0.738186 0.738186
0.848142 0.749264 0.724727
0.000000 0.745754 0.788968
0.000000 0.747951 0.788815
0.000000 0.755673 0.788022
0.000000 0.765194 0.786831
0.000000 0.779568 0.783658
0.483528 0.797726 0.775937
0.717494 0.798672 0.755795
0.843168 0.805325 0.756039
0.000000 0.480751 0.818357
0.000000 0.484871 0.817960
0.000000 0.481056 0.817411
0.000000 0.479988 0.815549
0.384771 0.524254 0.809537
0.610864 0.586023 0.801266
0.756802 0.636072 0.793423
0.838987 0.683070 0.772580
0.000000 0.487007 0.818845
0.000000 0.490913 0.818479
0.000000 0.486915 0.817899
0.000000 0.486091 0.816037
0.382452 0.528862 0.810117
0.610803 0.590845 0.801755
0.756313 0.640162 0.794034
0.838834 0.686091 0.773709
0.000000 0.504265 0.820310
0.000000 0.507836 0.820005
0.000000 0.505882 0.819425
0.000000 0.504936 0.817502
0.368170 0.542535 0.811887
0.609033 0.605890 0.803403
0.753994 0.652857 0.795743
0.838041 0.695491 0.776944
0.000000 0.527062 0.823178
0.000000 0.530266 0.822904
0.000000 0.535698 0.822049
0.000000 0.532982 0.820462
0.325536 0.562005 0.815366
0.601953 0.628260 0.806332
0.749142 0.672480 0.798734
0.836820 0.710323 0.782223
0.000000 0.567681 0.827024
0.000000 0.569421 0.826780
0.000000 0.574914 0.826047
0.000000 0.567407 0.825162
0.196445 0.584558 0.821012
0.569604 0.645747 0.811948
0.740505 0.695369 0.803525
0.835355 0.730739 0.789731
0.000000 0.617182 0.831876
0.000000 0.618769 0.831724
0.000000 0.624018 0.831113
0.000000 0.624323 0.830259
0.000000 0.624750 0.827848
0.493019 0.664454 0.820035
0.726375 0.723323 0.809873
0.833280 0.756161 0.799252
0.000000 0.671870 0.837644
0.000000 0.673396 0.837522
0.000000 0.678523 0.837064
0.000000 0.685542 0.836149
0.000000 0.689906 0.834226
0.416846 0.712154 0.828794
0.690669 0.752102 0.819913
0.830838 0.787778 0.811582
0.000000 0.729702 0.844419
0.000000 0.731289 0.844327
0.000000 0.736599 0.843961
0.000000 0.746670 0.843107
0.000000 0.756558 0.841520
0.369787 0.776242 0.837369
0.665583 0.804013 0.831479
0.826810 0.826780 0.826780
