data/fiter_cube/12544332/1022701/file.cube
# Created by Adobe Lightroom plugin Export LUT (1.24.0)
# www.johnrellis.com/lightroom/exportlut.htm
# Preset: 城市青橙纪实夜景 _05 云集
# Color profile: C:\Program Files (x86)\Common Files\Adobe\Color\Profiles\Recommended\AdobeRGB1998.icc
LUT_3D_SIZE 5
DOMAIN_MIN 0.000000 0.000000 0.000000
DOMAIN_MAX 0.903226 0.903226 0.903226
0.114870 0.114870 0.114870
0.277256 0.155123 0.122438
0.565087 0.251469 0.100832
0.799435 0.345708 0.079011
0.924437 0.403784 0.155886
0.111421 0.186282 0.151156
0.258946 0.215946 0.142489
0.556390 0.305730 0.102510
0.790799 0.379675 0.078248
0.925200 0.428626 0.164279
0.062226 0.327062 0.231846
0.210056 0.346471 0.204349
0.540581 0.426429 0.186954
0.778317 0.472358 0.155093
0.916960 0.497627 0.179629
0.000000 0.531640 0.352117
0.087434 0.550103 0.329320
0.494606 0.582055 0.293278
0.758694 0.600488 0.274388
0.905058 0.603876 0.293248
0.000000 0.751736 0.482246
0.000000 0.756924 0.462745
0.455207 0.756985 0.443305
0.748623 0.767758 0.446448
0.896544 0.739132 0.460853
0.076020 0.154025 0.213748
0.242069 0.175479 0.214786
0.536522 0.252110 0.181033
0.773129 0.354498 0.152468
0.917082 0.415686 0.151034
0.080262 0.218021 0.236851
0.232944 0.232944 0.232944
0.527977 0.299718 0.206821
0.768856 0.381445 0.171206
0.916167 0.436896 0.156252
0.000000 0.343450 0.292546
0.191012 0.365820 0.286809
0.509728 0.421363 0.266209
0.757443 0.470466 0.241093
0.911650 0.504234 0.222141
0.000000 0.543359 0.403906
0.000000 0.561028 0.392126
0.479530 0.589258 0.358770
0.747921 0.605768 0.339269
0.899199 0.613214 0.351659
0.000000 0.753689 0.518395
0.000000 0.758907 0.501427
0.447974 0.765072 0.490639
0.742214 0.772213 0.494087
0.892638 0.747555 0.502281
0.000000 0.260594 0.411566
0.037018 0.245457 0.414343
0.487190 0.293767 0.412818
0.752560 0.348699 0.342290
0.906035 0.444282 0.335912
0.000000 0.309209 0.429297
0.075044 0.301854 0.428748
0.479316 0.340398 0.422614
0.744808 0.388464 0.362097
0.905425 0.463294 0.345464
0.000000 0.420630 0.470039
0.000000 0.427100 0.470375
0.457496 0.457496 0.457496
0.729885 0.496925 0.422705
0.899413 0.530816 0.389471
0.000000 0.570794 0.532036
0.000000 0.581659 0.530327
0.406256 0.609491 0.511070
0.717556 0.630213 0.498482
0.883207 0.643610 0.489296
0.000000 0.759487 0.622400
0.000000 0.766140 0.613458
0.295476 0.774807 0.576013
0.706783 0.775601 0.591424
0.877195 0.763363 0.588006
0.000000 0.387335 0.634180
0.000000 0.375250 0.637415
0.345953 0.369543 0.634577
0.696407 0.468269 0.605280
0.874022 0.545892 0.578332
0.000000 0.418463 0.641718
0.000000 0.408576 0.642145
0.338323 0.403296 0.637110
0.689662 0.492592 0.609339
0.871336 0.558068 0.581781
0.000000 0.497719 0.657557
0.000000 0.494911 0.656794
0.311070 0.499336 0.650752
0.677913 0.564477 0.629267
0.869139 0.604242 0.599268
0.000000 0.611475 0.687678
0.000000 0.612390 0.685115
0.248325 0.626246 0.679347
0.662623 0.662623 0.662623
0.865324 0.681056 0.630426
0.000000 0.760800 0.750362
0.000000 0.769406 0.748684
0.000000 0.793362 0.742092
0.613214 0.789181 0.699947
0.854856 0.790494 0.702266
0.000000 0.480751 0.818357
0.000000 0.483345 0.817594
0.171817 0.493629 0.813260
0.651789 0.598993 0.799252
0.838987 0.683070 0.772580
0.000000 0.499123 0.819791
0.000000 0.502007 0.818997
0.147738 0.511070 0.814847
0.650202 0.613275 0.800931
0.838224 0.692439 0.775845
0.000000 0.545769 0.825010
0.000000 0.551476 0.824247
0.000000 0.555688 0.820920
0.637049 0.651392 0.806760
0.836149 0.719905 0.785733
0.000000 0.630396 0.833097
0.000000 0.635523 0.832578
0.000000 0.638331 0.830686
0.547601 0.686305 0.819791
0.832822 0.763516 0.802090
0.000000 0.729702 0.844419
0.000000 0.734798 0.844083
0.000000 0.751522 0.842496
0.462348 0.783017 0.835966
0.826810 0.826780 0.826780
