data/fiter_cube/55192441/1023185/file.cube
# Created by Adobe Lightroom plugin Export LUT (1.17.0)
# www.johnrellis.com/lightroom/exportlut.htm
# Preset: 清新轻盈通透人像_03 云集
# Color profile: C:\Program Files (x86)\Common Files\Adobe\Color\Profiles\Recommended\AdobeRGB1998.icc
LUT_3D_SIZE 8
DOMAIN_MIN 0.000000 0.000000 0.000000
DOMAIN_MAX 0.903226 0.903226 0.903226
0.000000 0.000000 0.000000
0.194705 0.000000 0.000000
0.566278 0.000000 0.000000
0.754543 0.000000 0.000000
0.870573 0.000000 0.000000
0.973663 0.000000 0.000000
1.000000 0.180880 0.173404
1.000000 0.266361 0.262058
0.000000 0.201877 0.000000
0.211887 0.214969 0.000000
0.550103 0.258122 0.000000
0.740810 0.216678 0.000000
0.859129 0.178653 0.000000
0.960723 0.186374 0.000000
1.000000 0.235782 0.164462
1.000000 0.294713 0.255863
0.000000 0.571283 0.000000
0.211460 0.566979 0.000000
0.540246 0.547967 0.000000
0.736263 0.480049 0.000000
0.859403 0.421180 0.000000
0.960235 0.397833 0.113130
1.000000 0.407752 0.237949
1.000000 0.422644 0.308721
0.000000 0.746700 0.000000
0.000000 0.741726 0.000000
0.434882 0.732204 0.000000
0.714748 0.724727 0.000000
0.871031 0.659327 0.111177
0.960204 0.604364 0.240421
1.000000 0.572961 0.303441
1.000000 0.553552 0.349645
0.000000 0.864836 0.000000
0.005829 0.862181 0.000000
0.377539 0.856107 0.000000
0.608606 0.847471 0.000000
0.815518 0.825864 0.182040
0.938384 0.768002 0.271733
1.000000 0.718837 0.342992
1.000000 0.684962 0.392554
0.123201 0.946593 0.213748
0.228641 0.950072 0.228885
0.385687 0.945037 0.231571
0.554253 0.937163 0.238529
0.730098 0.922210 0.273991
0.894774 0.905241 0.329107
1.000000 0.863279 0.387030
1.000000 0.812497 0.434394
0.292088 1.000000 0.339513
0.327367 1.000000 0.342596
0.416052 1.000000 0.340185
0.538109 1.000000 0.342077
0.669490 0.991730 0.343206
0.818112 0.978759 0.379156
0.954803 0.965118 0.418891
1.000000 0.928222 0.456489
0.387091 1.000000 0.424598
0.404334 1.000000 0.424201
0.461860 1.000000 0.425299
0.551446 1.000000 0.432197
0.641749 1.000000 0.414008
0.759365 1.000000 0.430426
0.883696 1.000000 0.465248
0.997498 1.000000 0.492561
0.000000 0.000000 0.191897
0.194125 0.000000 0.191379
0.548150 0.000000 0.200931
0.737728 0.000000 0.196170
0.852689 0.093935 0.218418
0.949096 0.209781 0.265049
1.000000 0.280095 0.312444
1.000000 0.332311 0.353460
0.000000 0.202518 0.198581
0.200351 0.203372 0.192081
0.544335 0.203250 0.189578
0.731807 0.208682 0.196506
0.847135 0.230350 0.220615
0.942718 0.272007 0.264744
1.000000 0.310582 0.305058
1.000000 0.348516 0.344427
0.000000 0.558129 0.205234
0.050324 0.559289 0.099062
0.533013 0.540826 0.136812
0.723018 0.479408 0.214267
0.841672 0.440894 0.249668
0.938415 0.430732 0.292943
1.000000 0.436500 0.335485
1.000000 0.449836 0.375402
0.000000 0.733974 0.160128
0.000000 0.731930 0.118746
0.431525 0.724575 0.116579
0.696132 0.705135 0.206210
0.838376 0.643671 0.280949
0.930449 0.601556 0.334783
1.000000 0.577295 0.367651
1.000000 0.564355 0.399756
0.065919 0.855406 0.256870
0.180056 0.852964 0.231144
0.398566 0.845274 0.228550
0.605737 0.832761 0.241917
0.800443 0.810025 0.296452
0.921355 0.760006 0.351232
1.000000 0.720058 0.403479
1.000000 0.691005 0.437842
0.218784 0.936492 0.314061
0.273869 0.935454 0.314885
0.405280 0.931273 0.315404
0.561639 0.925658 0.321172
0.729824 0.913970 0.348272
0.890532 0.900359 0.394965
0.997467 0.861295 0.438178
1.000000 0.813840 0.471595
0.322911 1.000000 0.386908
0.347326 1.000000 0.384009
0.429969 0.997314 0.383459
0.547539 0.993225 0.388739
0.674983 0.986023 0.392523
0.817288 0.973419 0.419715
0.949310 0.959258 0.449470
1.000000 0.923735 0.477852
0.407294 1.000000 0.455909
0.425055 1.000000 0.457191
0.479133 1.000000 0.458900
0.564294 1.000000 0.465736
0.661189 1.000000 0.468513
0.768063 1.000000 0.473854
0.885557 1.000000 0.495583
0.996246 1.000000 0.515404
0.000000 0.000000 0.548425
0.247593 0.000000 0.543603
0.542779 0.000000 0.533959
0.727565 0.063691 0.477607
0.836973 0.316289 0.484138
0.929931 0.443610 0.535393
1.000000 0.476356 0.546380
1.000000 0.498970 0.554040
0.000000 0.197086 0.553857
0.168063 0.172610 0.546044
0.538445 0.199893 0.529107
0.715999 0.301335 0.488838
0.828794 0.400427 0.503960
0.924132 0.462623 0.530968
1.000000 0.487068 0.540185
1.000000 0.507622 0.549645
0.000000 0.554559 0.542199
0.120027 0.551812 0.538598
0.528222 0.531884 0.518700
0.701534 0.529656 0.521813
0.826108 0.538323 0.531731
0.921904 0.544244 0.538567
1.000000 0.550591 0.545953
1.000000 0.557671 0.554101
0.000000 0.733394 0.464759
0.208316 0.729610 0.473091
0.490394 0.718593 0.491371
0.699611 0.705653 0.510887
0.825284 0.676356 0.540002
0.917723 0.658350 0.551049
0.997253 0.646906 0.558465
1.000000 0.638148 0.565637
0.196933 0.849668 0.456733
0.315099 0.846006 0.473762
0.488899 0.837613 0.497566
0.639704 0.831479 0.495308
0.805722 0.813046 0.521508
0.911376 0.775998 0.541772
0.988495 0.751858 0.566430
1.000000 0.730983 0.576989
0.333318 0.930022 0.482643
0.395544 0.927367 0.499855
0.497108 0.921874 0.511131
0.609888 0.916167 0.508598
0.745357 0.906493 0.515373
0.886290 0.894438 0.542016
0.984924 0.864500 0.566125
1.000000 0.831632 0.590143
0.429633 0.997070 0.528344
0.465583 0.994324 0.540368
0.515435 0.990753 0.533501
0.601007 0.985992 0.531121
0.704891 0.979431 0.528649
0.829160 0.969665 0.544335
0.950774 0.959411 0.567803
1.000000 0.929656 0.588220
0.500938 1.000000 0.572259
0.519280 1.000000 0.577173
0.542779 1.000000 0.563104
0.614771 1.000000 0.570703
0.695064 1.000000 0.569818
0.787472 1.000000 0.571252
0.894347 1.000000 0.586847
0.996368 1.000000 0.600946
0.000000 0.000000 0.714839
0.196017 0.000000 0.714504
0.460700 0.000000 0.703426
0.704707 0.081270 0.694606
0.827085 0.320348 0.641779
0.917998 0.441077 0.637964
0.991089 0.520745 0.653864
1.000000 0.577020 0.673487
0.000000 0.180941 0.721675
0.187350 0.190677 0.718379
0.474159 0.234501 0.704097
0.702632 0.299016 0.693019
0.822995 0.404456 0.649775
0.912352 0.484932 0.645747
0.986481 0.545922 0.659388
1.000000 0.593835 0.678065
0.000000 0.482307 0.719478
0.260472 0.492470 0.717067
0.513664 0.515801 0.700008
0.694728 0.531548 0.686671
0.813474 0.568292 0.672450
0.907836 0.601770 0.678065
0.986847 0.635279 0.693477
1.000000 0.641199 0.690272
0.116457 0.720027 0.707332
0.292454 0.718013 0.705562
0.521294 0.710536 0.699153
0.692164 0.695003 0.684871
0.805020 0.693812 0.686824
0.898558 0.693477 0.687404
0.979553 0.694026 0.689021
1.000000 0.694301 0.690578
0.290288 0.846738 0.650568
0.368902 0.841855 0.653834
0.532219 0.830777 0.665858
0.674037 0.822568 0.672633
0.806394 0.811307 0.678462
0.899870 0.791440 0.689540
0.976837 0.779965 0.695369
1.000000 0.766659 0.695094
0.388525 0.929381 0.628687
0.444648 0.930114 0.641382
0.558556 0.920684 0.660609
0.665217 0.913146 0.669032
0.768460 0.907286 0.664942
0.888548 0.894774 0.676997
0.975616 0.870939 0.686549
1.000000 0.849210 0.701106
0.458137 0.993622 0.629755
0.492500 0.992035 0.638941
0.579339 0.986847 0.661646
0.661067 0.982361 0.669490
0.744167 0.977173 0.665766
0.844968 0.968902 0.668086
0.951507 0.958526 0.679255
1.000000 0.932128 0.689540
0.526055 1.000000 0.649653
0.548547 1.000000 0.656947
0.609796 1.000000 0.675593
0.667231 1.000000 0.679011
0.732479 1.000000 0.676204
0.809720 1.000000 0.673884
0.903685 1.000000 0.683284
0.996094 1.000000 0.694453
0.000000 0.000000 0.826963
0.164584 0.000000 0.826169
0.409918 0.000000 0.818296
0.622522 0.212650 0.803342
0.812406 0.330510 0.802457
0.908385 0.442176 0.759884
0.983734 0.519768 0.745937
1.000000 0.575891 0.744625
0.000000 0.212314 0.828367
0.226993 0.229435 0.827909
0.441657 0.274998 0.819089
0.632746 0.336492 0.802029
0.809934 0.405737 0.800443
0.905577 0.486854 0.763241
0.981567 0.547845 0.750668
1.000000 0.594324 0.748714
0.301549 0.486885 0.828367
0.383948 0.504295 0.825132
0.517449 0.519188 0.815518
0.661769 0.536156 0.801602
0.801968 0.555444 0.793637
0.894041 0.587854 0.767758
0.973236 0.617670 0.759884
1.000000 0.646509 0.758968
0.333715 0.661463 0.826047
0.402136 0.666773 0.824491
0.552544 0.682216 0.820920
0.685786 0.687739 0.806058
0.798123 0.686976 0.790829
0.887907 0.698207 0.779080
0.966064 0.711818 0.778286
1.000000 0.727291 0.781582
0.369787 0.826078 0.814054
0.425849 0.825162 0.813382
0.554894 0.820523 0.809415
0.681178 0.812558 0.801938
0.792508 0.795224 0.785641
0.881254 0.792081 0.785672
0.960418 0.790707 0.785519
1.000000 0.788449 0.784695
0.423346 0.915618 0.760708
0.462989 0.913329 0.762722
0.560266 0.905303 0.766293
0.668971 0.896849 0.770138
0.770352 0.888975 0.768582
0.879881 0.884123 0.776028
0.961669 0.872862 0.787442
1.000000 0.862058 0.792538
0.486244 0.986694 0.738918
0.512016 0.984588 0.741848
0.584283 0.979370 0.750576
0.679103 0.973144 0.763790
0.766537 0.967803 0.769406
0.850645 0.962860 0.765713
0.947753 0.953063 0.772396
1.000000 0.930510 0.775723
0.534325 1.000000 0.727810
0.552636 1.000000 0.731167
0.608362 1.000000 0.741756
0.696681 1.000000 0.765621
0.766323 1.000000 0.772763
0.831357 1.000000 0.768917
0.910765 1.000000 0.771115
0.994202 0.997528 0.778195
0.000000 0.000000 0.915679
0.192416 0.070741 0.914580
0.394598 0.177249 0.908293
0.585840 0.288457 0.900938
0.749966 0.377386 0.890105
0.895903 0.446632 0.886168
0.976226 0.522057 0.849943
1.000000 0.577905 0.828550
0.195834 0.260594 0.910735
0.271458 0.273411 0.909209
0.431037 0.313603 0.903929
0.599786 0.373266 0.896574
0.751217 0.431189 0.885191
0.891905 0.483589 0.882444
0.973053 0.545617 0.849638
1.000000 0.593591 0.829648
0.409796 0.516625 0.910063
0.439704 0.519493 0.908598
0.528985 0.530327 0.904112
0.647211 0.547723 0.896269
0.766018 0.565454 0.882841
0.888670 0.585595 0.880034
0.968688 0.617609 0.853819
1.000000 0.649897 0.837430
0.455146 0.655451 0.914519
0.492866 0.661952 0.912230
0.590082 0.680049 0.906401
0.690761 0.692256 0.900420
0.786984 0.693904 0.888487
0.889952 0.697871 0.882292
0.965332 0.714229 0.863493
1.000000 0.730556 0.851682
0.467964 0.778622 0.903136
0.502251 0.781430 0.902678
0.590478 0.788296 0.901244
0.697810 0.796841 0.899138
0.793820 0.795529 0.886687
0.879454 0.788724 0.872984
0.954833 0.795560 0.864500
1.000000 0.804501 0.861234
0.482033 0.902525 0.891112
0.512779 0.903136 0.891905
0.589837 0.901457 0.890654
0.689082 0.897734 0.887694
0.785519 0.890105 0.881071
0.875273 0.877409 0.869718
0.951141 0.877226 0.872282
1.000000 0.875944 0.872526
0.524285 0.983154 0.854582
0.546654 0.982422 0.855894
0.608942 0.977996 0.857542
0.694759 0.971740 0.860929
0.784817 0.964416 0.864836
0.867308 0.957488 0.866300
0.947295 0.950561 0.865385
1.000000 0.936675 0.869413
0.557214 1.000000 0.821042
0.572747 1.000000 0.822385
0.623041 1.000000 0.827451
0.699275 1.000000 0.837675
0.784146 1.000000 0.851286
0.859129 1.000000 0.861570
0.921477 1.000000 0.859922
0.992767 0.994873 0.863310
0.158816 0.161196 0.976196
0.238468 0.186679 0.976287
0.394141 0.250492 0.973419
0.556573 0.329442 0.968750
0.705104 0.401434 0.961120
0.837613 0.461219 0.953552
0.959472 0.511254 0.949889
1.000000 0.565881 0.912932
0.256138 0.295415 0.971771
0.307225 0.308446 0.971740
0.429572 0.343389 0.969085
0.571832 0.392340 0.964050
0.709255 0.443214 0.956512
0.835355 0.487770 0.948608
0.954284 0.527733 0.944884
1.000000 0.573358 0.909606
0.432380 0.512871 0.969207
0.455238 0.515984 0.968475
0.525170 0.526116 0.965606
0.625116 0.543420 0.961059
0.733761 0.562371 0.953735
0.842405 0.580865 0.946227
0.953613 0.600977 0.944823
1.000000 0.634791 0.914397
0.517388 0.653437 0.968505
0.540398 0.658656 0.966979
0.603510 0.671748 0.963378
0.674952 0.675990 0.959808
0.759884 0.679286 0.953491
0.851743 0.683162 0.945708
0.952972 0.694026 0.945159
1.000000 0.714473 0.919493
0.524559 0.750179 0.964324
0.545586 0.752773 0.963409
0.609430 0.761776 0.961669
0.697536 0.775265 0.958160
0.778744 0.779904 0.951415
0.856535 0.775326 0.942260
0.945953 0.777584 0.939239
1.000000 0.793484 0.922667
0.533684 0.854398 0.957427
0.553368 0.855558 0.957214
0.614252 0.859312 0.956481
0.700587 0.865721 0.955749
0.792996 0.873167 0.954498
0.873777 0.874968 0.947845
0.944579 0.868833 0.939422
1.000000 0.875486 0.930785
0.547753 0.962737 0.951995
0.566644 0.962799 0.952239
0.622675 0.961883 0.951781
0.702388 0.960388 0.951202
0.788754 0.957122 0.949126
0.871702 0.952178 0.945586
0.941070 0.942473 0.937407
0.995544 0.941253 0.938170
0.572381 1.000000 0.913909
0.587274 1.000000 0.914244
0.639368 1.000000 0.916869
0.710262 1.000000 0.919402
0.791196 1.000000 0.923613
0.872068 1.000000 0.930816
0.938689 0.996460 0.938354
0.990936 0.992065 0.937194
0.223392 0.224613 1.000000
0.272496 0.240421 1.000000
0.389258 0.283055 1.000000
0.527733 0.345373 1.000000
0.662776 0.408850 1.000000
0.787076 0.464088 1.000000
0.902281 0.512810 1.000000
1.000000 0.549218 0.999237
0.292790 0.319615 1.000000
0.328923 0.329778 1.000000
0.424170 0.357214 1.000000
0.546288 0.400183 1.000000
0.671504 0.447974 1.000000
0.789975 0.491646 1.000000
0.901640 0.531029 1.000000
1.000000 0.561303 0.997498
0.432685 0.497780 1.000000
0.452003 0.501427 1.000000
0.509728 0.510369 1.000000
0.601190 0.532372 1.000000
0.700740 0.553735 1.000000
0.801907 0.573419 1.000000
0.903532 0.592767 0.997498
1.000000 0.611597 0.995544
0.541405 0.644373 1.000000
0.553765 0.645991 1.000000
0.590906 0.648127 1.000000
0.653346 0.653986 1.000000
0.730831 0.660761 1.000000
0.816342 0.667018 0.998016
0.907378 0.674952 0.995087
1.000000 0.687129 0.993744
0.549371 0.724117 1.000000
0.566766 0.727993 1.000000
0.616632 0.737697 1.000000
0.689998 0.753414 0.999969
0.755856 0.756588 0.997467
0.829221 0.757443 0.994385
0.910277 0.759701 0.991302
0.997864 0.771725 0.991241
0.557244 0.812467 1.000000
0.571405 0.813779 0.999847
0.618280 0.818845 0.998596
0.690883 0.828580 0.997131
0.776364 0.843076 0.994934
0.852811 0.853574 0.992432
0.921324 0.855192 0.990478
0.995483 0.863981 0.990570
0.572503 0.907378 0.996429
0.585901 0.907836 0.996155
0.630121 0.909606 0.995270
0.700771 0.913787 0.994324
0.785336 0.920623 0.993103
0.871824 0.931304 0.992004
0.939025 0.939696 0.989990
0.990082 0.935760 0.986908
0.595026 1.000000 0.992920
0.607141 1.000000 0.992706
0.648829 1.000000 0.992218
0.716060 0.999817 0.991669
0.795377 0.997711 0.990875
0.874540 0.995117 0.989868
0.942718 0.992065 0.988647
0.987427 0.987915 0.986053
