data/fiter_cube/55192441/1023185/file.cube
# Created by Adobe Lightroom plugin Export LUT (1.17.0)
# www.johnrellis.com/lightroom/exportlut.htm
# Preset: 清新轻盈通透人像_03 云集
# Color profile: C:\Program Files (x86)\Common Files\Adobe\Color\Profiles\Recommended\AdobeRGB1998.icc
LUT_3D_SIZE 5
DOMAIN_MIN 0.000000 0.000000 0.000000
DOMAIN_MAX 0.903226 0.903226 0.903226
0.000000 0.000000 0.000000
0.497658 0.000000 0.000000
0.816312 0.000000 0.000000
0.996155 0.080140 0.058625
1.000000 0.266361 0.262058
0.000000 0.508568 0.000000
0.484596 0.491615 0.000000
0.801907 0.385260 0.000000
0.986816 0.351507 0.135775
1.000000 0.395666 0.304723
0.000000 0.809689 0.000000
0.330480 0.800809 0.000000
0.773068 0.783261 0.000000
0.968780 0.675227 0.277440
1.000000 0.618616 0.368841
0.194369 0.967864 0.259861
0.356786 0.964813 0.266087
0.628962 0.951812 0.277714
0.912169 0.922606 0.356268
1.000000 0.841611 0.438880
0.387091 1.000000 0.424598
0.443580 1.000000 0.424292
0.587396 1.000000 0.411170
0.791379 1.000000 0.439551
0.997498 1.000000 0.492561
0.000000 0.000000 0.477150
0.477607 0.000000 0.469734
0.785519 0.223941 0.423255
0.952544 0.400427 0.477790
1.000000 0.453437 0.501427
0.000000 0.492592 0.481300
0.469368 0.473243 0.459174
0.770932 0.471107 0.463691
0.947936 0.490089 0.484596
1.000000 0.513573 0.509972
0.000000 0.796414 0.394415
0.414710 0.783932 0.424262
0.752590 0.760128 0.452918
0.936736 0.700038 0.508354
1.000000 0.672084 0.538170
0.370489 0.956298 0.477974
0.471412 0.952972 0.489876
0.668177 0.942382 0.487495
0.908690 0.917449 0.520287
1.000000 0.853513 0.562921
0.497444 1.000000 0.558038
0.522332 1.000000 0.544671
0.644312 1.000000 0.546044
0.811734 1.000000 0.553765
0.997498 1.000000 0.586267
0.000000 0.000000 0.775204
0.369512 0.000000 0.767391
0.759396 0.237186 0.749386
0.933715 0.464088 0.696407
1.000000 0.576410 0.707240
0.196597 0.425574 0.779049
0.454536 0.456519 0.766201
0.755367 0.499092 0.746792
0.922606 0.574487 0.714107
1.000000 0.638087 0.726253
0.276616 0.777066 0.764675
0.490730 0.770626 0.759121
0.745052 0.747921 0.737728
0.909941 0.746090 0.740047
1.000000 0.745388 0.741634
0.428229 0.943359 0.693233
0.537285 0.934417 0.705837
0.721950 0.923308 0.723873
0.904051 0.909514 0.730220
1.000000 0.871550 0.742397
0.525811 1.000000 0.684565
0.590845 1.000000 0.702022
0.716945 1.000000 0.725856
0.837919 1.000000 0.718532
0.994629 0.998535 0.732784
0.025635 0.049042 0.929015
0.342351 0.168124 0.925658
0.658991 0.341527 0.913573
0.911528 0.462715 0.901823
1.000000 0.572534 0.847868
0.368719 0.457862 0.924407
0.472328 0.473610 0.920867
0.690028 0.516472 0.908080
0.904906 0.562188 0.895964
1.000000 0.623651 0.850950
0.469123 0.705531 0.921447
0.565118 0.720272 0.919310
0.733700 0.735195 0.904845
0.893248 0.729671 0.885924
1.000000 0.756680 0.866697
0.506523 0.921569 0.910307
0.576867 0.918608 0.907805
0.738827 0.912718 0.903380
0.892729 0.894743 0.887633
1.000000 0.890959 0.887541
0.561944 1.000000 0.844236
0.613397 1.000000 0.848875
0.746029 1.000000 0.864561
0.883116 1.000000 0.884764
0.992096 0.993957 0.882139
0.223392 0.224613 1.000000
0.356603 0.269871 1.000000
0.596490 0.377996 1.000000
0.816617 0.476814 1.000000
1.000000 0.549218 0.999237
0.400885 0.456306 1.000000
0.469734 0.470375 1.000000
0.639460 0.512230 1.000000
0.825132 0.557794 1.000000
1.000000 0.598260 0.996612
0.544762 0.682338 1.000000
0.596704 0.694453 1.000000
0.704433 0.705196 1.000000
0.841032 0.709071 0.994324
0.999512 0.727535 0.992248
0.564660 0.837522 0.999969
0.610742 0.841642 0.998779
0.738674 0.857511 0.996216
0.875761 0.876493 0.991424
0.994079 0.882689 0.989563
0.595026 1.000000 0.992920
0.635554 1.000000 0.992340
0.755093 0.998871 0.991333
0.893065 0.994385 0.989593
0.987427 0.987915 0.986053
