data/fiter_cube/55192441/1023185/file.cube
# Created by Adobe Lightroom plugin Export LUT (1.17.0)
# www.johnrellis.com/lightroom/exportlut.htm
# Preset: 清新轻盈通透人像_03 云集
# Color profile: C:\Program Files (x86)\Common Files\Adobe\Color\Profiles\Recommended\AdobeRGB1998.icc
LUT_3D_SIZE 32
DOMAIN_MIN 0.0 0.0 0.0
DOMAIN_MAX 1.0 1.0 1.0
0.000000 0.000000 0.000000
0.014923 0.000000 0.000000
0.054475 0.000000 0.000000
0.098817 0.000000 0.000000
0.194705 0.000000 0.000000
0.311498 0.000000 0.000000
0.414618 0.000000 0.000000
0.497658 0.000000 0.000000
0.566278 0.000000 0.000000
0.624140 0.000000 0.000000
0.674495 0.000000 0.000000
0.717952 0.000000 0.000000
0.754543 0.000000 0.000000
0.786526 0.000000 0.000000
0.816312 0.000000 0.000000
0.844266 0.000000 0.000000
0.870573 0.000000 0.000000
0.895079 0.000000 0.000000
0.918944 0.000000 0.000000
0.948150 0.000000 0.000000
0.973663 0.000000 0.000000
0.996155 0.080140 0.058625
1.000000 0.123201 0.111482
1.000000 0.155581 0.146365
1.000000 0.180880 0.173404
1.000000 0.203830 0.197574
1.000000 0.225376 0.219730
1.000000 0.245975 0.241062
1.000000 0.266361 0.262058
1.000000 0.286931 0.283085
1.000000 0.307805 0.304509
1.000000 0.328740 0.325872
0.000000 0.015625 0.000000
0.014832 0.017548 0.000000
0.053651 0.017823 0.000000
0.098787 0.023987 0.000000
0.193698 0.049409 0.000000
0.308751 0.065095 0.000000
0.411200 0.058991 0.000000
0.493660 0.030243 0.000000
0.562188 0.000000 0.000000
0.620386 0.000000 0.000000
0.670558 0.000000 0.000000
0.714290 0.000000 0.000000
0.751034 0.000000 0.000000
0.783047 0.000000 0.000000
0.812711 0.000000 0.000000
0.840696 0.000000 0.000000
0.867002 0.000000 0.000000
0.891630 0.000000 0.000000
0.916014 0.000000 0.000000
0.944305 0.000000 0.000000
0.969421 0.015656 0.000000
0.991791 0.092348 0.027802
1.000000 0.128298 0.101808
1.000000 0.156924 0.137758
1.000000 0.180880 0.165591
1.000000 0.202884 0.190036
1.000000 0.222904 0.211917
1.000000 0.243992 0.234623
1.000000 0.263859 0.255680
1.000000 0.284062 0.277012
1.000000 0.304265 0.298100
1.000000 0.325017 0.319677
0.000000 0.054139 0.000000
0.013123 0.055970 0.000000
0.053376 0.056031 0.000000
0.098878 0.065278 0.000000
0.192844 0.092500 0.000000
0.306706 0.114046 0.000000
0.407843 0.120485 0.000000
0.489967 0.116365 0.000000
0.558648 0.107973 0.000000
0.616968 0.094331 0.000000
0.667445 0.079011 0.000000
0.711452 0.057984 0.000000
0.748531 0.006470 0.000000
0.780667 0.000000 0.000000
0.810422 0.000000 0.000000
0.838437 0.000000 0.000000
0.864775 0.000000 0.000000
0.889464 0.000000 0.000000
0.914458 0.000000 0.000000
0.942138 0.017945 0.000000
0.967071 0.081422 0.000000
0.989441 0.114046 0.017426
1.000000 0.142306 0.098695
1.000000 0.166506 0.134554
1.000000 0.188296 0.162814
1.000000 0.207889 0.186770
1.000000 0.227390 0.209445
1.000000 0.247013 0.231662
1.000000 0.266148 0.252964
1.000000 0.285924 0.274540
1.000000 0.305455 0.295567
1.000000 0.325475 0.317021
0.000000 0.102724 0.000000
0.015564 0.104799 0.000000
0.064637 0.107118 0.000000
0.109682 0.111391 0.000000
0.195834 0.143648 0.000000
0.307317 0.176608 0.000000
0.406531 0.190341 0.000000
0.487984 0.191165 0.000000
0.555901 0.185550 0.000000
0.614099 0.176486 0.000000
0.664363 0.165927 0.000000
0.708431 0.154360 0.000000
0.745541 0.142672 0.000000
0.777707 0.131014 0.000000
0.807523 0.119478 0.000000
0.835508 0.110048 0.000000
0.861936 0.103395 0.000000
0.886625 0.101320 0.000000
0.912383 0.105745 0.000000
0.938842 0.117433 0.000000
0.963043 0.132876 0.000000
0.985138 0.150759 0.008667
1.000000 0.169986 0.095125
1.000000 0.188876 0.132631
1.000000 0.207004 0.161471
1.000000 0.224918 0.187381
1.000000 0.242527 0.210605
1.000000 0.260899 0.233616
1.000000 0.278630 0.255100
1.000000 0.296300 0.275853
1.000000 0.313970 0.296239
1.000000 0.331762 0.316289
0.000000 0.201877 0.000000
0.000000 0.204044 0.000000
0.081178 0.206516 0.000000
0.144503 0.210605 0.000000
0.211887 0.214969 0.000000
0.304997 0.239963 0.000000
0.401984 0.259190 0.000000
0.482246 0.262821 0.000000
0.550103 0.258122 0.000000
0.608209 0.250126 0.000000
0.658747 0.239689 0.000000
0.703212 0.228458 0.000000
0.740810 0.216678 0.000000
0.773373 0.205173 0.000000
0.803616 0.194461 0.000000
0.832151 0.185733 0.000000
0.859129 0.178653 0.000000
0.884215 0.174258 0.000000
0.911498 0.174472 0.000000
0.937163 0.178958 0.000000
0.960723 0.186374 0.000000
0.982513 0.196658 0.028626
1.000000 0.208743 0.100069
1.000000 0.222080 0.135714
1.000000 0.235782 0.164462
1.000000 0.249943 0.189670
1.000000 0.264591 0.212863
1.000000 0.279393 0.234806
1.000000 0.294713 0.255863
1.000000 0.310307 0.276341
1.000000 0.325933 0.296239
1.000000 0.342077 0.316106
0.000000 0.318578 0.000000
0.000000 0.319982 0.000000
0.071931 0.320836 0.000000
0.161532 0.322484 0.000000
0.241733 0.323369 0.000000
0.319005 0.323644 0.000000
0.401984 0.330907 0.000000
0.480507 0.334874 0.000000
0.547326 0.329870 0.000000
0.605188 0.320775 0.000000
0.655604 0.309606 0.000000
0.700099 0.297307 0.000000
0.737758 0.284306 0.000000
0.770565 0.271336 0.000000
0.800961 0.260014 0.000000
0.829740 0.250065 0.000000
0.856962 0.242008 0.000000
0.883604 0.236667 0.000000
0.911162 0.235233 0.000000
0.936431 0.236088 0.000000
0.959899 0.239872 0.000000
0.981811 0.245731 0.069398
1.000000 0.286717 0.176577
1.000000 0.298314 0.204837
1.000000 0.309270 0.228214
1.000000 0.319890 0.249088
1.000000 0.330602 0.267979
1.000000 0.341436 0.286137
1.000000 0.352605 0.303349
1.000000 0.364202 0.320378
1.000000 0.376226 0.337194
1.000000 0.388312 0.353521
0.000000 0.433204 0.000000
0.000000 0.433143 0.000000
0.000000 0.433051 0.000000
0.159609 0.432959 0.000000
0.251377 0.432654 0.000000
0.338506 0.429267 0.000000
0.419226 0.425147 0.000000
0.493721 0.419379 0.000000
0.558831 0.410803 0.000000
0.615442 0.398535 0.000000
0.665126 0.384741 0.000000
0.708309 0.369696 0.000000
0.744686 0.354009 0.000000
0.776608 0.338964 0.000000
0.806332 0.325475 0.000000
0.834165 0.313909 0.000000
0.860655 0.304326 0.000000
0.890288 0.299229 0.000000
0.917632 0.296513 0.000000
0.943359 0.296483 0.000000
0.967987 0.300023 0.069001
0.991547 0.306249 0.123384
1.000000 0.315312 0.163302
1.000000 0.325597 0.196658
1.000000 0.336248 0.225010
1.000000 0.345678 0.248234
1.000000 0.354894 0.268467
1.000000 0.363622 0.286564
1.000000 0.372351 0.303441
1.000000 0.381811 0.319982
1.000000 0.391241 0.335698
1.000000 0.401373 0.351629
0.000000 0.508568 0.000000
0.000000 0.508232 0.000000
0.000000 0.507591 0.000000
0.130526 0.506523 0.000000
0.235660 0.504967 0.000000
0.323095 0.502159 0.000000
0.406592 0.497017 0.000000
0.484596 0.491615 0.000000
0.554131 0.481361 0.000000
0.610498 0.467140 0.000000
0.660243 0.451301 0.000000
0.703334 0.434546 0.000000
0.739895 0.417090 0.000000
0.772030 0.400305 0.000000
0.801907 0.385260 0.000000
0.829923 0.372137 0.000000
0.859739 0.362799 0.000000
0.888334 0.355871 0.000000
0.914458 0.350744 0.000000
0.939422 0.348180 0.000000
0.963592 0.348547 0.090211
0.986816 0.351507 0.135775
1.000000 0.356664 0.171420
1.000000 0.363256 0.202792
1.000000 0.370092 0.229221
1.000000 0.376837 0.251835
1.000000 0.382910 0.270909
1.000000 0.388922 0.288029
1.000000 0.395666 0.304723
1.000000 0.402533 0.320378
1.000000 0.410285 0.336278
1.000000 0.418372 0.351690
0.000000 0.571283 0.000000
0.000000 0.570794 0.000000
0.000000 0.570275 0.000000
0.077455 0.568841 0.000000
0.211460 0.566979 0.000000
0.301518 0.564263 0.000000
0.385534 0.559869 0.000000
0.465003 0.554192 0.000000
0.540246 0.547967 0.000000
0.607263 0.537560 0.000000
0.656672 0.518730 0.000000
0.699733 0.499458 0.000000
0.736263 0.480049 0.000000
0.768429 0.461341 0.000000
0.798337 0.444678 0.000000
0.829374 0.431800 0.000000
0.859403 0.421180 0.000000
0.886687 0.412085 0.000000
0.911955 0.404791 0.000000
0.936400 0.399939 0.057649
0.960235 0.397833 0.113130
0.983215 0.397925 0.151522
1.000000 0.400153 0.184390
1.000000 0.403723 0.212863
1.000000 0.407752 0.237949
1.000000 0.411353 0.258976
1.000000 0.414923 0.276951
1.000000 0.418494 0.293248
1.000000 0.422644 0.308721
1.000000 0.427405 0.323766
1.000000 0.432807 0.338659
1.000000 0.438636 0.353155
0.000000 0.623957 0.000000
0.000000 0.623438 0.000000
0.000000 0.622736 0.000000
0.000000 0.621302 0.000000
0.180362 0.619257 0.000000
0.277470 0.616541 0.000000
0.358984 0.613245 0.000000
0.439796 0.607782 0.000000
0.515312 0.601862 0.000000
0.586969 0.595575 0.000000
0.652216 0.585931 0.000000
0.694728 0.562829 0.000000
0.731594 0.541070 0.000000
0.764157 0.520623 0.000000
0.798306 0.505241 0.000000
0.829831 0.491676 0.000000
0.859251 0.479255 0.000000
0.886107 0.468299 0.000000
0.911009 0.459388 0.022797
0.934874 0.452430 0.101839
0.957885 0.447669 0.139651
0.979828 0.444923 0.170871
1.000000 0.443549 0.197940
1.000000 0.443610 0.222690
1.000000 0.444282 0.244663
1.000000 0.445289 0.264073
1.000000 0.446571 0.281132
1.000000 0.448432 0.297246
1.000000 0.451148 0.313176
1.000000 0.454383 0.328374
1.000000 0.458473 0.343481
1.000000 0.462928 0.358251
0.000000 0.667628 0.000000
0.000000 0.667262 0.000000
0.000000 0.666743 0.000000
0.000000 0.665522 0.000000
0.143160 0.663752 0.000000
0.250370 0.661555 0.000000
0.334661 0.658869 0.000000
0.411902 0.655207 0.000000
0.488289 0.649622 0.000000
0.559991 0.643641 0.000000
0.627863 0.637018 0.000000
0.691066 0.628412 0.000000
0.729610 0.604150 0.000000
0.764981 0.583276 0.000000
0.797665 0.564904 0.000000
0.828153 0.548852 0.000000
0.856565 0.534508 0.000000
0.882750 0.522118 0.000000
0.907286 0.511009 0.091646
0.930938 0.502098 0.130007
0.953796 0.495491 0.161593
0.975769 0.490547 0.188937
0.996521 0.487465 0.214237
1.000000 0.485298 0.236698
1.000000 0.483864 0.257053
1.000000 0.482460 0.274357
1.000000 0.481422 0.289952
1.000000 0.481086 0.304784
1.000000 0.481483 0.319249
1.000000 0.482582 0.333349
1.000000 0.484596 0.347570
1.000000 0.487312 0.361913
0.000000 0.705867 0.000000
0.000000 0.705592 0.000000
0.000000 0.705043 0.000000
0.000000 0.703975 0.000000
0.095613 0.702449 0.000000
0.222568 0.700404 0.000000
0.309392 0.698024 0.000000
0.385321 0.695094 0.000000
0.459510 0.690761 0.000000
0.531151 0.685267 0.000000
0.600305 0.680751 0.000000
0.667323 0.676814 0.000000
0.751949 0.691585 0.000000
0.787320 0.665675 0.000000
0.820249 0.644526 0.000000
0.849973 0.625544 0.000000
0.876860 0.608637 0.095613
0.901274 0.593652 0.142885
0.923827 0.580743 0.177157
0.945678 0.569787 0.202731
0.966674 0.560388 0.224125
0.986572 0.552911 0.244511
1.000000 0.546441 0.262547
1.000000 0.541222 0.279698
1.000000 0.536736 0.295201
1.000000 0.532799 0.309331
1.000000 0.529290 0.322026
1.000000 0.526207 0.333684
1.000000 0.524010 0.345373
1.000000 0.522667 0.357153
1.000000 0.522210 0.369360
1.000000 0.522423 0.381445
0.000000 0.746700 0.000000
0.000000 0.746334 0.000000
0.000000 0.745449 0.000000
0.000000 0.743923 0.000000
0.000000 0.741726 0.000000
0.198245 0.738979 0.000000
0.287694 0.736141 0.000000
0.363500 0.733150 0.000000
0.434882 0.732204 0.000000
0.509056 0.730678 0.000000
0.580407 0.729030 0.000000
0.649073 0.727138 0.000000
0.714748 0.724727 0.000000
0.777066 0.721187 0.000000
0.813199 0.698695 0.000000
0.843839 0.678279 0.000000
0.871031 0.659327 0.111177
0.895323 0.642206 0.155673
0.917845 0.627375 0.189487
0.939452 0.614771 0.216648
0.960204 0.604364 0.240421
0.980285 0.594812 0.257969
0.999023 0.586603 0.274479
1.000000 0.579400 0.289677
1.000000 0.572961 0.303441
1.000000 0.567163 0.315984
1.000000 0.561944 0.327703
1.000000 0.557458 0.338933
1.000000 0.553552 0.349645
1.000000 0.550805 0.361242
1.000000 0.548730 0.372625
1.000000 0.547570 0.384710
0.000000 0.775387 0.000000
0.000000 0.775051 0.000000
0.000000 0.774350 0.000000
0.000000 0.773342 0.000000
0.000000 0.772427 0.000000
0.176822 0.771206 0.000000
0.269139 0.770016 0.000000
0.345281 0.768795 0.000000
0.415229 0.767697 0.000000
0.483558 0.766567 0.000000
0.553643 0.764401 0.000000
0.620813 0.762203 0.000000
0.684901 0.759518 0.000000
0.745724 0.755856 0.000000
0.802762 0.751003 0.000000
0.837034 0.729244 0.066285
0.864286 0.708248 0.126375
0.888884 0.689113 0.164981
0.911589 0.672389 0.198489
0.933349 0.658137 0.225620
0.954314 0.646113 0.249424
0.974365 0.635889 0.270451
0.993286 0.626612 0.287785
1.000000 0.617975 0.301457
1.000000 0.610101 0.314183
1.000000 0.602838 0.325872
1.000000 0.596094 0.336461
1.000000 0.590143 0.346654
1.000000 0.584985 0.357122
1.000000 0.580743 0.367803
1.000000 0.577478 0.379156
1.000000 0.574914 0.390814
0.000000 0.809689 0.000000
0.000000 0.809628 0.000000
0.000000 0.809049 0.000000
0.000000 0.808042 0.000000
0.000000 0.806424 0.000000
0.165560 0.804501 0.000000
0.256260 0.802579 0.000000
0.330480 0.800809 0.000000
0.398199 0.799374 0.000000
0.462837 0.798367 0.000000
0.528771 0.796750 0.000000
0.594629 0.794430 0.000000
0.657435 0.791653 0.000000
0.716945 0.788052 0.000000
0.773068 0.783261 0.000000
0.825193 0.777096 0.094392
0.858000 0.756558 0.146639
0.882719 0.735531 0.179019
0.905852 0.716823 0.205600
0.927642 0.700832 0.233249
0.948669 0.687129 0.256992
0.968780 0.675227 0.277440
0.987793 0.664729 0.295415
1.000000 0.655512 0.312139
1.000000 0.646601 0.324956
1.000000 0.638331 0.335973
1.000000 0.630854 0.346838
1.000000 0.624323 0.357855
1.000000 0.618616 0.368841
1.000000 0.613825 0.380346
1.000000 0.609918 0.392432
1.000000 0.606714 0.405005
0.000000 0.839902 0.000000
0.000000 0.839902 0.000000
0.000000 0.839567 0.000000
0.000000 0.838743 0.000000
0.000000 0.837461 0.000000
0.166629 0.835966 0.000000
0.251621 0.834440 0.000000
0.322515 0.832975 0.000000
0.387823 0.831479 0.000000
0.449500 0.830106 0.000000
0.509026 0.828580 0.000000
0.572168 0.825406 0.000000
0.632410 0.821530 0.000000
0.689845 0.816953 0.000000
0.744076 0.811643 0.079744
0.795285 0.805570 0.125856
0.843656 0.798978 0.159121
0.876219 0.780972 0.192020
0.899779 0.760616 0.219211
0.922606 0.743404 0.242100
0.944274 0.728542 0.265263
0.964813 0.715633 0.287083
0.984192 0.704067 0.305852
1.000000 0.693690 0.322301
1.000000 0.684291 0.337438
1.000000 0.675776 0.351293
1.000000 0.667262 0.361517
1.000000 0.659632 0.371801
1.000000 0.652796 0.382391
1.000000 0.646540 0.392798
1.000000 0.641016 0.403754
1.000000 0.636072 0.414801
0.000000 0.864836 0.000000
0.000000 0.864652 0.000000
0.000000 0.864164 0.000000
0.000000 0.863371 0.000000
0.005829 0.862181 0.000000
0.172854 0.860746 0.000000
0.249912 0.859220 0.000000
0.316167 0.857664 0.000000
0.377539 0.856107 0.000000
0.436103 0.854582 0.000000
0.492866 0.853056 0.000000
0.549554 0.851041 0.000000
0.608606 0.847471 0.000000
0.664668 0.843168 0.082246
0.717861 0.838102 0.125582
0.767880 0.832273 0.156130
0.815518 0.825864 0.182040
0.860868 0.819394 0.204532
0.893828 0.804044 0.229191
0.916350 0.784390 0.252293
0.938384 0.768002 0.271733
0.959289 0.753506 0.290959
0.978882 0.740688 0.310369
0.997436 0.729274 0.327611
1.000000 0.718837 0.342992
1.000000 0.709377 0.357275
1.000000 0.700801 0.370581
1.000000 0.692744 0.382238
1.000000 0.684962 0.392554
1.000000 0.677852 0.403082
1.000000 0.671290 0.413703
1.000000 0.665400 0.424933
0.000000 0.887968 0.000000
0.000000 0.888182 0.000000
0.000000 0.902861 0.106264
0.059358 0.902068 0.105501
0.154391 0.900725 0.105287
0.219455 0.899016 0.104189
0.278660 0.896971 0.104524
0.334417 0.894835 0.104311
0.388922 0.892729 0.107790
0.442298 0.890654 0.113619
0.494362 0.888518 0.119112
0.545586 0.886137 0.126009
0.598932 0.882444 0.144259
0.652705 0.877623 0.168429
0.703761 0.872221 0.190036
0.752285 0.866270 0.208774
0.798642 0.859861 0.226688
0.842802 0.853178 0.243046
0.885130 0.846464 0.258640
0.917937 0.833158 0.276646
0.938659 0.813352 0.294804
0.959167 0.796994 0.310735
0.978607 0.782254 0.325811
0.996582 0.769070 0.342260
1.000000 0.756771 0.356329
1.000000 0.745357 0.368719
1.000000 0.734829 0.380072
1.000000 0.725246 0.391119
1.000000 0.716701 0.402319
1.000000 0.708614 0.412787
1.000000 0.700954 0.422919
1.000000 0.693812 0.433509
0.000000 0.912535 0.131319
0.000000 0.914244 0.138766
0.000000 0.915831 0.145480
0.114443 0.916838 0.151644
0.178134 0.917052 0.156039
0.233371 0.916228 0.158267
0.284947 0.914702 0.158541
0.335302 0.912810 0.159365
0.385260 0.910948 0.161288
0.434424 0.908965 0.164096
0.483375 0.906950 0.167422
0.531548 0.904723 0.171542
0.578943 0.902007 0.175814
0.630243 0.897673 0.192264
0.679866 0.892638 0.209415
0.727352 0.887053 0.225498
0.772824 0.881132 0.240421
0.816403 0.874998 0.254978
0.858457 0.868864 0.269749
0.899138 0.862974 0.284001
0.932738 0.852354 0.300053
0.953063 0.833524 0.317693
0.973022 0.817990 0.332433
0.991730 0.803677 0.346044
1.000000 0.790524 0.360723
1.000000 0.778347 0.373785
1.000000 0.767025 0.385748
1.000000 0.756649 0.397284
1.000000 0.747250 0.408972
1.000000 0.738643 0.420844
1.000000 0.730526 0.432593
1.000000 0.722377 0.442725
0.000000 0.929961 0.177310
0.077699 0.931395 0.183291
0.114778 0.932799 0.188174
0.158694 0.933684 0.192752
0.204257 0.933867 0.195956
0.249149 0.933135 0.197543
0.294072 0.931792 0.198245
0.338903 0.930144 0.198550
0.384283 0.928466 0.199771
0.429938 0.926635 0.201602
0.475685 0.924804 0.204807
0.520989 0.922759 0.207797
0.565606 0.920256 0.210361
0.610956 0.917113 0.215793
0.659205 0.912444 0.229984
0.705470 0.907347 0.243442
0.749935 0.901884 0.255955
0.792844 0.896239 0.268956
0.834409 0.890593 0.281865
0.874784 0.885191 0.295171
0.913878 0.879973 0.308812
0.948241 0.871946 0.323766
0.967864 0.853635 0.340368
0.986877 0.838529 0.354040
1.000000 0.824247 0.366064
1.000000 0.810971 0.378271
1.000000 0.798734 0.390539
1.000000 0.787442 0.402228
1.000000 0.777066 0.414008
1.000000 0.767453 0.425788
1.000000 0.758389 0.437568
1.000000 0.749722 0.449348
0.123201 0.946593 0.213748
0.142794 0.947875 0.218051
0.163272 0.949157 0.222324
0.193240 0.949920 0.226169
0.228641 0.950072 0.228885
0.265873 0.949371 0.230289
0.304417 0.948211 0.230564
0.344274 0.946685 0.230747
0.385687 0.945037 0.231571
0.427527 0.943297 0.232853
0.469795 0.941466 0.234379
0.512261 0.939483 0.236820
0.554253 0.937163 0.238529
0.596155 0.934569 0.240604
0.640497 0.930999 0.248508
0.685908 0.926665 0.260929
0.730098 0.922210 0.273991
0.772946 0.917784 0.287022
0.814633 0.913451 0.300603
0.855314 0.909239 0.314824
0.894774 0.905241 0.329107
0.933135 0.901366 0.343511
0.968292 0.895750 0.357885
0.986999 0.877989 0.374090
1.000000 0.863279 0.387030
1.000000 0.849271 0.398505
1.000000 0.836027 0.409827
1.000000 0.823880 0.422370
1.000000 0.812497 0.434394
1.000000 0.801785 0.446235
1.000000 0.791653 0.458228
1.000000 0.782162 0.469825
0.194369 0.967864 0.259861
0.203677 0.968353 0.261662
0.214267 0.968627 0.263157
0.233341 0.968597 0.264286
0.258915 0.968170 0.264988
0.288792 0.967254 0.265446
0.321538 0.966125 0.265476
0.356786 0.964813 0.266087
0.393927 0.963531 0.267063
0.432441 0.962158 0.268589
0.471717 0.960723 0.271061
0.511315 0.959014 0.273167
0.550774 0.956939 0.274998
0.589990 0.954528 0.276493
0.628962 0.951812 0.277714
0.672206 0.947906 0.287144
0.714839 0.943694 0.297978
0.756466 0.939391 0.308904
0.796933 0.935149 0.320409
0.836423 0.930907 0.332097
0.874846 0.926726 0.344182
0.912169 0.922606 0.356268
0.948363 0.918456 0.368353
0.983062 0.914000 0.379919
1.000000 0.895933 0.393805
1.000000 0.881071 0.405158
1.000000 0.867063 0.415900
1.000000 0.853819 0.426307
1.000000 0.841611 0.438880
1.000000 0.829984 0.450874
1.000000 0.818997 0.462776
1.000000 0.808835 0.474159
0.227512 0.982483 0.285435
0.234867 0.982940 0.287327
0.243595 0.983307 0.288792
0.259434 0.983276 0.290013
0.280583 0.982849 0.290745
0.305577 0.981994 0.290654
0.333867 0.980865 0.290471
0.364752 0.979583 0.290349
0.398444 0.978241 0.290990
0.433509 0.976867 0.292027
0.469825 0.975433 0.293675
0.506706 0.973816 0.295598
0.543694 0.971954 0.297032
0.581018 0.969787 0.298619
0.618097 0.967407 0.299840
0.656275 0.964630 0.302861
0.697932 0.960937 0.312932
0.738674 0.957153 0.323339
0.778500 0.953368 0.334447
0.817350 0.949645 0.345739
0.855314 0.945922 0.357427
0.892332 0.942290 0.369299
0.928283 0.938659 0.381292
0.963195 0.935027 0.392767
0.994781 0.928771 0.395361
1.000000 0.911498 0.407843
1.000000 0.896513 0.418982
1.000000 0.882597 0.429328
1.000000 0.869352 0.439582
1.000000 0.856931 0.451453
1.000000 0.845426 0.463661
1.000000 0.834836 0.475502
0.270634 0.999969 0.320806
0.276829 1.000000 0.322728
0.283452 1.000000 0.323796
0.295018 1.000000 0.324254
0.311192 0.999786 0.323949
0.331182 0.998810 0.323186
0.354467 0.997528 0.322118
0.380713 0.996033 0.320989
0.409522 0.994385 0.320073
0.440284 0.992706 0.319707
0.472511 0.990875 0.319493
0.505882 0.989014 0.319768
0.539971 0.986938 0.320104
0.574365 0.984619 0.320104
0.608820 0.981964 0.319829
0.643397 0.979126 0.319432
0.680720 0.975647 0.323461
0.719966 0.971862 0.332006
0.758724 0.968231 0.341466
0.796994 0.964843 0.352239
0.834470 0.961578 0.363775
0.871000 0.958251 0.375280
0.906401 0.954742 0.386328
0.940673 0.951019 0.396643
0.973724 0.947082 0.406226
1.000000 0.943114 0.415015
1.000000 0.927733 0.425818
1.000000 0.912291 0.435767
1.000000 0.898222 0.445258
1.000000 0.884855 0.455177
1.000000 0.872496 0.466163
1.000000 0.861295 0.478126
0.292088 1.000000 0.339513
0.297551 1.000000 0.341314
0.303380 1.000000 0.342443
0.313329 1.000000 0.342870
0.327367 1.000000 0.342596
0.344976 1.000000 0.341955
0.365942 1.000000 0.341283
0.389654 1.000000 0.340520
0.416052 1.000000 0.340185
0.444648 1.000000 0.340307
0.474556 1.000000 0.340520
0.506004 1.000000 0.341283
0.538109 1.000000 0.342077
0.570581 0.999084 0.342596
0.603357 0.996796 0.342901
0.636255 0.994324 0.342779
0.669490 0.991730 0.343206
0.706844 0.988434 0.349981
0.744442 0.985107 0.358831
0.781613 0.981903 0.368658
0.818112 0.978759 0.379156
0.853788 0.975586 0.389685
0.888487 0.972259 0.399908
0.922118 0.968811 0.409583
0.954803 0.965118 0.418891
0.986481 0.961334 0.427558
1.000000 0.957488 0.436103
1.000000 0.943755 0.446204
1.000000 0.928222 0.456489
1.000000 0.914214 0.466285
1.000000 0.901061 0.476692
1.000000 0.889006 0.487098
0.316655 1.000000 0.361151
0.321019 1.000000 0.362402
0.325353 1.000000 0.362860
0.333379 1.000000 0.362768
0.344884 1.000000 0.362005
0.359747 1.000000 0.360937
0.377813 1.000000 0.359808
0.398871 1.000000 0.358770
0.422797 1.000000 0.358282
0.448798 1.000000 0.358251
0.476600 1.000000 0.358556
0.505943 1.000000 0.359564
0.536095 1.000000 0.360388
0.566918 1.000000 0.361212
0.597742 1.000000 0.361425
0.628901 1.000000 0.361456
0.660395 1.000000 0.361517
0.693080 1.000000 0.363287
0.729519 0.999268 0.371130
0.765591 0.996216 0.379950
0.801114 0.993225 0.389349
0.835996 0.990143 0.399390
0.869932 0.986999 0.408972
0.902983 0.983703 0.418311
0.935088 0.980255 0.427008
0.966369 0.976623 0.435462
0.996918 0.972992 0.443702
1.000000 0.969329 0.451637
1.000000 0.957061 0.461189
1.000000 0.941405 0.471504
1.000000 0.927581 0.481300
1.000000 0.914916 0.491218
0.334813 1.000000 0.377539
0.338231 1.000000 0.378332
0.342107 1.000000 0.378790
0.349126 1.000000 0.378698
0.359991 1.000000 0.378546
0.374304 1.000000 0.378790
0.392218 1.000000 0.379675
0.413184 1.000000 0.381140
0.436927 1.000000 0.383520
0.462440 1.000000 0.386206
0.489662 1.000000 0.389441
0.517784 1.000000 0.392554
0.546532 1.000000 0.395514
0.575555 1.000000 0.397833
0.604700 1.000000 0.399512
0.633631 1.000000 0.400092
0.662989 1.000000 0.400610
0.692622 1.000000 0.401282
0.724941 1.000000 0.405707
0.759182 1.000000 0.413336
0.792966 1.000000 0.421759
0.826200 1.000000 0.430396
0.858640 1.000000 0.438788
0.890318 1.000000 0.446967
0.921263 0.997864 0.454994
0.951537 0.994354 0.462623
0.981140 0.990784 0.470069
1.000000 0.987182 0.477577
1.000000 0.983673 0.485145
1.000000 0.972473 0.494209
1.000000 0.956512 0.504448
1.000000 0.942779 0.513817
0.371130 1.000000 0.409827
0.373663 1.000000 0.410254
0.376501 1.000000 0.410407
0.381781 1.000000 0.409827
0.390326 1.000000 0.409186
0.401617 1.000000 0.408606
0.416022 1.000000 0.408331
0.432990 1.000000 0.408270
0.452674 1.000000 0.408881
0.474525 1.000000 0.410010
0.497841 1.000000 0.411139
0.522576 1.000000 0.412451
0.548302 1.000000 0.413825
0.574640 1.000000 0.414954
