data/fiter_cube/26597975/1022847/file.cube
# Created by Adobe Lightroom plugin Export LUT (1.17.0)
# www.johnrellis.com/lightroom/exportlut.htm
# Preset:  城市电影胶片_03 云集
# Color profile: C:\Program Files (x86)\Common Files\Adobe\Color\Profiles\Recommended\AdobeRGB1998.icc
LUT_3D_SIZE 5
DOMAIN_MIN 0.000000 0.000000 0.000000
DOMAIN_MAX 0.903226 0.903226 0.903226
0.088167 0.089509 0.083345
0.766506 0.000000 0.000000
1.000000 0.377050 0.483528
1.000000 0.898070 0.891051
1.000000 0.973114 0.964843
0.180514 0.181704 0.185916
0.861295 0.420569 0.000000
1.000000 0.631495 0.421363
1.000000 0.906828 0.880339
1.000000 0.978027 0.968627
0.927642 0.922911 0.916472
0.923125 0.918456 0.912535
1.000000 0.946136 0.666224
1.000000 0.951507 0.875334
1.000000 0.982330 0.968170
0.992126 0.989105 0.982818
0.992523 0.989593 0.983459
0.999329 0.993835 0.978851
1.000000 0.987671 0.950225
1.000000 0.990173 0.972747
0.997650 0.996399 0.993652
0.997711 0.996429 0.993774
0.997681 0.996429 0.993744
1.000000 0.997986 0.992279
1.000000 0.996948 0.989899
0.099947 0.105379 0.106081
0.211276 0.129732 0.165682
1.000000 0.719234 0.781369
1.000000 0.941070 0.935088
1.000000 0.980285 0.973449
0.234104 0.241825 0.255528
0.770962 0.447181 0.233677
1.000000 0.814603 0.757168
1.000000 0.944884 0.929900
1.000000 0.981811 0.973968
0.937224 0.932280 0.924926
0.938903 0.933928 0.926390
1.000000 0.952667 0.779049
1.000000 0.962860 0.915496
1.000000 0.986481 0.975921
0.993011 0.990173 0.984253
0.993408 0.990661 0.984924
0.998718 0.994202 0.981994
1.000000 0.990204 0.964446
1.000000 0.991882 0.978668
0.997803 0.996612 0.994049
0.997833 0.996643 0.994110
0.998077 0.996979 0.994659
1.000000 0.998199 0.993530
1.000000 0.997406 0.991577
0.176272 0.293187 0.454932
0.295079 0.312169 0.344854
0.928923 0.624079 0.787991
1.000000 0.962951 0.963745
1.000000 0.987091 0.982940
0.515129 0.609613 0.740658
0.729946 0.738399 0.771115
1.000000 0.904692 0.927642
1.000000 0.981415 0.976471
1.000000 0.991302 0.987335
0.958526 0.953460 0.944549
0.977020 0.972412 0.963409
1.000000 0.979461 0.948882
1.000000 0.987793 0.977630
1.000000 0.993225 0.988464
0.994049 0.991485 0.986053
0.994842 0.992493 0.987549
0.997253 0.994598 0.987732
1.000000 0.994141 0.982666
1.000000 0.994812 0.987915
0.997955 0.996796 0.994354
0.998230 0.997253 0.995117
0.998352 0.997406 0.995392
0.999756 0.998383 0.994995
1.000000 0.997894 0.993469
0.761501 0.831785 0.919036
0.800931 0.833585 0.893736
0.746761 0.750362 0.771817
0.992432 0.942931 0.954986
1.000000 0.988037 0.985779
0.882444 0.915831 0.952148
0.921630 0.930327 0.944823
0.867613 0.864805 0.866300
0.996948 0.966857 0.969177
1.000000 0.990295 0.987671
0.966766 0.967559 0.965637
0.980621 0.978729 0.973693
0.986206 0.982300 0.974334
0.999542 0.992981 0.989502
1.000000 0.995483 0.993164
0.994781 0.992401 0.987427
0.995575 0.993439 0.988952
0.996979 0.995361 0.992004
0.999878 0.995972 0.990387
1.000000 0.997040 0.994324
0.998016 0.996887 0.994537
0.998230 0.997253 0.995117
0.998810 0.998108 0.996612
0.999115 0.998444 0.996857
1.000000 0.998596 0.995941
0.971160 0.976104 0.981964
0.975128 0.977203 0.980072
0.976135 0.972686 0.966827
0.971466 0.966644 0.957458
0.996429 0.987610 0.984619
0.975189 0.979614 0.984253
0.984161 0.984436 0.984314
0.983429 0.980377 0.974884
0.978119 0.973571 0.964660
0.997162 0.989563 0.986694
0.983581 0.985290 0.986114
0.987549 0.988006 0.987549
0.994110 0.992401 0.989105
0.991547 0.988403 0.981872
0.998535 0.994141 0.991821
0.994751 0.993378 0.990326
0.995605 0.994263 0.991333
0.997192 0.996094 0.993744
0.998016 0.996918 0.994537
0.999603 0.997955 0.996826
0.998138 0.997070 0.994842
0.998322 0.997345 0.995300
0.998810 0.998138 0.996643
0.999329 0.998932 0.998108
0.999939 0.999298 0.998352
