data/fiter_cube/26597975/1022847/file.cube
# Created by Adobe Lightroom plugin Export LUT (1.17.0)
# www.johnrellis.com/lightroom/exportlut.htm
# Preset:  城市电影胶片_03 云集
# Color profile: C:\Program Files (x86)\Common Files\Adobe\Color\Profiles\Recommended\AdobeRGB1998.icc
LUT_3D_SIZE 8
DOMAIN_MIN 0.000000 0.000000 0.000000
DOMAIN_MAX 0.903226 0.903226 0.903226
0.088167 0.089509 0.083345
0.153017 0.083070 0.087770
0.975525 0.000000 0.000000
1.000000 0.000000 0.211490
1.000000 0.649500 0.679347
1.000000 0.871580 0.866606
1.000000 0.943664 0.934600
1.000000 0.973114 0.964843
0.101381 0.102693 0.096468
0.178073 0.126162 0.081758
0.912627 0.000000 0.000000
1.000000 0.000000 0.165774
1.000000 0.606409 0.601617
1.000000 0.842039 0.829221
1.000000 0.933562 0.922332
1.000000 0.970428 0.961334
0.241215 0.249912 0.265110
0.249363 0.259312 0.276280
1.000000 0.599969 0.000000
1.000000 0.662745 0.086610
1.000000 0.751461 0.590356
1.000000 0.884367 0.838987
1.000000 0.954925 0.937896
1.000000 0.977874 0.967834
0.833860 0.832547 0.839261
0.828641 0.827543 0.835142
0.986664 0.923674 0.730129
1.000000 0.914336 0.441047
1.000000 0.908415 0.640864
1.000000 0.936767 0.864103
1.000000 0.965942 0.940856
1.000000 0.981079 0.968688
0.964904 0.959899 0.950774
0.964508 0.959503 0.950378
0.966400 0.961425 0.952270
1.000000 0.982330 0.905303
1.000000 0.963012 0.791958
1.000000 0.957458 0.815000
1.000000 0.972045 0.931548
1.000000 0.984405 0.968872
0.989166 0.985626 0.978332
0.990356 0.986999 0.980041
0.990570 0.987274 0.980407
0.996277 0.991333 0.977386
1.000000 0.991302 0.959869
1.000000 0.984680 0.934447
1.000000 0.983856 0.938018
1.000000 0.989410 0.972778
0.995544 0.993408 0.988922
0.995636 0.993561 0.989136
0.995636 0.993561 0.989105
0.995819 0.993774 0.989471
0.999329 0.995850 0.986389
1.000000 0.995178 0.980652
1.000000 0.993103 0.975189
1.000000 0.992920 0.976471
0.997650 0.996399 0.993652
0.997681 0.996399 0.993683
0.997742 0.996490 0.993805
0.997894 0.996735 0.994263
0.998291 0.996948 0.993622
1.000000 0.997894 0.992523
1.000000 0.997711 0.991485
1.000000 0.996948 0.989899
0.091402 0.094057 0.089265
0.105653 0.100160 0.097078
0.849027 0.000000 0.102235
1.000000 0.000000 0.377630
1.000000 0.696834 0.723873
1.000000 0.869657 0.866819
1.000000 0.941802 0.933410
1.000000 0.971954 0.963867
0.103456 0.105043 0.098939
0.164553 0.128115 0.101228
0.868406 0.000000 0.076020
1.000000 0.282322 0.349706
1.000000 0.690028 0.686671
1.000000 0.860075 0.849699
1.000000 0.934417 0.924071
1.000000 0.968688 0.959716
0.262303 0.273930 0.293797
0.284092 0.298222 0.323125
0.988006 0.576654 0.000000
1.000000 0.663264 0.267338
1.000000 0.768612 0.637598
1.000000 0.885832 0.844846
1.000000 0.947753 0.930144
1.000000 0.975006 0.964569
0.787533 0.788632 0.803128
0.798215 0.798703 0.811398
0.973999 0.909667 0.724544
1.000000 0.897948 0.427008
1.000000 0.886900 0.588830
1.000000 0.920836 0.833738
1.000000 0.957549 0.928283
1.000000 0.978088 0.964569
0.964416 0.959411 0.950286
0.963073 0.958038 0.948943
0.963134 0.958099 0.949004
1.000000 0.979370 0.894957
1.000000 0.958801 0.774350
1.000000 0.953979 0.805997
1.000000 0.970214 0.928222
1.000000 0.983368 0.967163
0.988159 0.984497 0.976928
0.988312 0.984649 0.977173
0.988678 0.985077 0.977661
0.995544 0.990173 0.975067
1.000000 0.990814 0.958404
1.000000 0.985016 0.937499
1.000000 0.983917 0.939117
1.000000 0.989014 0.972045
0.994995 0.992676 0.987823
0.994903 0.992584 0.987671
0.994965 0.992706 0.987823
0.995361 0.993194 0.988586
0.999207 0.995605 0.985809
1.000000 0.994903 0.979797
1.000000 0.992523 0.972961
1.000000 0.992096 0.973480
0.997528 0.996185 0.993347
0.997589 0.996246 0.993439
0.997650 0.996368 0.993622
0.997833 0.996643 0.994110
0.998383 0.997192 0.994232
0.999969 0.998016 0.993011
1.000000 0.997742 0.991577
1.000000 0.996857 0.989624
0.105318 0.113680 0.120790
0.118471 0.119875 0.116396
0.300999 0.149477 0.226596
1.000000 0.430915 0.673610
1.000000 0.878416 0.892363
1.000000 0.952056 0.946471
1.000000 0.974151 0.967193
1.000000 0.984344 0.978271
0.134035 0.145296 0.161166
0.174685 0.176028 0.181003
0.680110 0.130922 0.382361
1.000000 0.659693 0.744228
1.000000 0.887114 0.889158
1.000000 0.946654 0.939178
1.000000 0.971649 0.963867
1.000000 0.983551 0.977081
0.340948 0.359838 0.396643
0.461189 0.480964 0.530327
0.957366 0.666072 0.419959
1.000000 0.819150 0.715053
1.000000 0.910277 0.876982
1.000000 0.952209 0.935637
1.000000 0.973602 0.963012
1.000000 0.984375 0.976928
0.873808 0.870726 0.871305
0.896208 0.892332 0.889738
0.969909 0.940337 0.865507
1.000000 0.937194 0.750912
1.000000 0.939879 0.840879
1.000000 0.961761 0.928679
1.000000 0.977844 0.962737
1.000000 0.986328 0.977508
0.972869 0.968078 0.958923
0.973632 0.968872 0.959747
0.975525 0.970825 0.961761
1.000000 0.984955 0.941802
1.000000 0.974884 0.897276
1.000000 0.971679 0.907591
1.000000 0.981323 0.958495
1.000000 0.988403 0.977539
0.990143 0.986755 0.979736
0.990356 0.986999 0.980072
0.990631 0.987335 0.980499
0.995148 0.990723 0.978759
1.000000 0.992035 0.968627
1.000000 0.988098 0.956146
1.000000 0.987396 0.957549
1.000000 0.991669 0.979736
0.995697 0.993652 0.989258
0.995666 0.993591 0.989227
0.995636 0.993561 0.989136
0.995789 0.993744 0.989441
0.998871 0.995789 0.987488
1.000000 0.995636 0.983825
1.000000 0.994171 0.980346
1.000000 0.994079 0.981231
0.997742 0.996490 0.993805
0.997711 0.996460 0.993774
0.997742 0.996521 0.993866
0.997986 0.996857 0.994476
0.998291 0.997223 0.994690
0.999817 0.998138 0.993774
1.000000 0.998016 0.992828
1.000000 0.997345 0.991363
0.139223 0.190311 0.271458
0.177432 0.205173 0.261295
0.214908 0.220066 0.229892
0.814633 0.403510 0.640986
1.000000 0.854276 0.904387
1.000000 0.953429 0.954467
1.000000 0.978546 0.973785
1.000000 0.986816 0.982086
0.204868 0.303075 0.440345
0.283879 0.337560 0.434394
0.298405 0.314061 0.342168
0.951080 0.591547 0.769284
1.000000 0.899413 0.922820
1.000000 0.962829 0.960204
1.000000 0.981476 0.976196
1.000000 0.988159 0.983429
0.441291 0.498116 0.590784
0.587579 0.623621 0.691127
0.889769 0.804349 0.833433
1.000000 0.934203 0.932280
1.000000 0.966552 0.958831
1.000000 0.980621 0.973266
1.000000 0.988006 0.982300
1.000000 0.991058 0.986481
0.905577 0.901396 0.897581
0.925689 0.920989 0.914763
0.952270 0.946838 0.936736
1.000000 0.959380 0.897856
1.000000 0.970062 0.943114
1.000000 0.981048 0.967803
1.000000 0.987640 0.979583
1.000000 0.991455 0.985962
0.979706 0.975250 0.966430
0.982086 0.977783 0.969207
0.984497 0.980407 0.972137
0.998322 0.989014 0.968688
1.000000 0.985321 0.955261
1.000000 0.985260 0.963104
1.000000 0.989563 0.978729
1.000000 0.992493 0.985931
0.992615 0.989685 0.983581
0.993713 0.991089 0.985504
0.993713 0.991058 0.985473
0.995300 0.992462 0.985412
1.000000 0.994385 0.981933
1.000000 0.992309 0.976074
1.000000 0.991882 0.976959
1.000000 0.994079 0.986481
0.996338 0.994476 0.990570
0.996521 0.994720 0.990936
0.996612 0.994873 0.991211
0.996765 0.995117 0.991547
0.998535 0.996429 0.990875
1.000000 0.996735 0.989014
1.000000 0.995666 0.986389
1.000000 0.995422 0.986236
0.998047 0.996979 0.994659
0.998138 0.997101 0.994903
0.998169 0.997131 0.994934
0.998230 0.997223 0.995087
0.998352 0.997406 0.995392
0.999603 0.998291 0.994842
1.000000 0.998352 0.994263
1.000000 0.997833 0.993164
0.279759 0.439216 0.652644
0.338079 0.450813 0.629999
0.425696 0.448768 0.503166
0.428077 0.448615 0.496529
0.970367 0.787472 0.874601
1.000000 0.949462 0.958587
1.000000 0.979095 0.976684
1.000000 0.987549 0.983978
0.426642 0.565942 0.753109
0.518120 0.606928 0.751339
0.575708 0.592432 0.643244
0.505486 0.523644 0.572869
0.986938 0.843839 0.902922
1.000000 0.960204 0.964050
1.000000 0.982116 0.978912
1.000000 0.988708 0.985077
0.743130 0.799802 0.871336
0.817441 0.851255 0.895781
0.866300 0.866392 0.874174
0.819059 0.786801 0.814847
1.000000 0.950103 0.955596
1.000000 0.979858 0.976104
1.000000 0.988373 0.984192
1.000000 0.991455 0.987793
0.906157 0.908629 0.911589
0.928344 0.927428 0.925109
0.970275 0.965393 0.956207
0.994903 0.977996 0.966430
1.000000 0.985748 0.977966
1.000000 0.989776 0.983856
1.000000 0.992462 0.988067
1.000000 0.994110 0.990692
0.980987 0.976593 0.967895
0.983642 0.979461 0.971099
0.989166 0.985626 0.978332
0.994995 0.990082 0.979004
1.000000 0.988373 0.971466
1.000000 0.990112 0.979706
1.000000 0.992645 0.986389
1.000000 0.994415 0.990204
0.992065 0.989044 0.982727
0.992706 0.989807 0.983703
0.994110 0.991547 0.986175
0.994354 0.991852 0.986633
0.999115 0.994568 0.985138
1.000000 0.993683 0.982513
1.000000 0.994110 0.985534
1.000000 0.995483 0.990539
0.996338 0.994507 0.990600
0.996490 0.994690 0.990906
0.996979 0.995361 0.992004
0.997101 0.995575 0.992309
0.997803 0.996216 0.992401
1.000000 0.997192 0.991424
1.000000 0.996399 0.989441
1.000000 0.996185 0.989471
0.997955 0.996796 0.994354
0.998016 0.996887 0.994507
0.998230 0.997223 0.995087
0.998474 0.997589 0.995697
0.998505 0.997620 0.995789
0.999268 0.998291 0.995666
1.000000 0.998566 0.995239
1.000000 0.998138 0.994263
0.715023 0.798550 0.904021
0.749599 0.811612 0.900084
0.772213 0.797421 0.855497
0.737728 0.741878 0.764858
0.735500 0.739803 0.763149
0.991547 0.931365 0.948547
1.000000 0.978912 0.978454
1.000000 0.988525 0.986053
0.773434 0.838437 0.918029
0.808957 0.852781 0.914763
0.811612 0.830503 0.874357
0.768734 0.770962 0.788693
0.751034 0.754360 0.775113
0.993896 0.940124 0.953491
1.000000 0.980743 0.979583
1.000000 0.989197 0.986572
0.902770 0.927214 0.953429
0.918456 0.936278 0.956054
0.937499 0.939879 0.945251
0.910521 0.906188 0.901762
0.864897 0.861906 0.863951
0.997955 0.971771 0.972107
1.000000 0.987549 0.984680
1.000000 0.991852 0.989075
0.954955 0.959228 0.961791
0.962127 0.964385 0.964599
0.979828 0.978210 0.973816
0.983551 0.979370 0.970977
0.993774 0.982574 0.978027
0.999359 0.991028 0.987427
1.000000 0.993744 0.990814
1.000000 0.994934 0.992493
0.982818 0.979583 0.972473
0.985321 0.981994 0.974823
0.990692 0.987488 0.980804
0.994202 0.991669 0.986358
0.998077 0.992615 0.986450
0.999725 0.994293 0.990021
1.000000 0.995605 0.992584
1.000000 0.996521 0.994324
0.993256 0.990478 0.984680
0.993896 0.991302 0.985809
0.995117 0.992859 0.988067
0.996307 0.994415 0.990478
0.997986 0.995636 0.990356
0.999939 0.995178 0.988403
1.000000 0.995911 0.991516
1.000000 0.996796 0.993957
0.996704 0.994995 0.991394
0.996887 0.995270 0.991821
0.997284 0.995850 0.992767
0.997803 0.996612 0.994018
0.997894 0.996735 0.994263
0.999451 0.997711 0.993957
1.000000 0.997314 0.992737
1.000000 0.997345 0.993561
0.998016 0.996887 0.994537
0.998077 0.996979 0.994690
0.998260 0.997284 0.995209
0.998596 0.997772 0.996063
0.998749 0.998016 0.996490
0.998840 0.998138 0.996612
1.000000 0.998810 0.996368
1.000000 0.998505 0.995666
0.904356 0.930114 0.961273
0.914427 0.934142 0.960021
0.917571 0.928557 0.948425
0.918395 0.916045 0.916106
0.879057 0.875792 0.875608
0.912352 0.907958 0.903288
0.994720 0.971160 0.972107
1.000000 0.987732 0.985931
0.913603 0.936584 0.963531
0.929503 0.944427 0.963531
0.929931 0.938323 0.953216
0.926085 0.923583 0.922789
0.888670 0.885069 0.883543
0.912871 0.908476 0.903746
0.995270 0.972259 0.972930
1.000000 0.988159 0.986236
0.947204 0.960632 0.974090
0.955627 0.964508 0.973846
0.968017 0.969421 0.971160
0.963012 0.959686 0.954742
0.940154 0.935180 0.927550
0.941772 0.936767 0.928985
0.997223 0.981994 0.980133
0.999969 0.990936 0.988678
0.971832 0.975433 0.977691
0.975036 0.977508 0.978637
0.983886 0.983734 0.982055
0.987549 0.984802 0.979492
0.980072 0.975647 0.966888
0.985748 0.975708 0.970062
0.998627 0.990509 0.987610
0.999939 0.993927 0.991669
0.984741 0.983795 0.980316
0.986206 0.984924 0.981201
0.990082 0.988312 0.984070
0.993683 0.991791 0.987701
0.993866 0.991241 0.985718
0.997070 0.992218 0.988556
0.999390 0.995209 0.992767
1.000000 0.996307 0.994476
0.993591 0.991272 0.986297
0.994049 0.991791 0.986938
0.995270 0.993225 0.988800
0.996582 0.994842 0.991119
0.997436 0.996063 0.993103
0.998901 0.996582 0.993622
0.999756 0.997314 0.995270
1.000000 0.997986 0.996612
0.996796 0.995087 0.991547
0.996918 0.995300 0.991882
0.997345 0.995880 0.992828
0.997833 0.996612 0.994079
0.998322 0.997345 0.995300
0.998932 0.997925 0.995575
0.999878 0.997833 0.994842
1.000000 0.998108 0.996155
0.998016 0.996887 0.994537
0.998077 0.997009 0.994720
0.998322 0.997375 0.995331
0.998627 0.997833 0.996155
0.998932 0.998322 0.997009
0.999115 0.998596 0.997467
0.999664 0.998993 0.997436
1.000000 0.998901 0.996979
0.971160 0.976104 0.981964
0.975067 0.978180 0.981964
0.975250 0.976776 0.979095
0.975982 0.974517 0.972778
0.974243 0.969512 0.960388
0.968414 0.963500 0.954314
0.980926 0.976532 0.967864
0.996429 0.987610 0.984619
0.972076 0.976928 0.982483
0.976287 0.979217 0.982605
0.978027 0.979004 0.980377
0.978058 0.976501 0.974395
0.976287 0.971649 0.962615
0.970367 0.965515 0.956329
0.981689 0.977356 0.968750
0.996612 0.988067 0.985107
0.975677 0.980255 0.984833
0.979095 0.981994 0.984863
0.985718 0.985473 0.984619
0.985718 0.983917 0.980835
0.984192 0.980072 0.971801
0.978820 0.974304 0.965454
0.985595 0.981598 0.973541
0.997345 0.990112 0.987243
0.979614 0.982940 0.985718
0.982300 0.984588 0.986358
0.988251 0.988586 0.988190
0.992309 0.990753 0.987793
0.991516 0.988556 0.982605
0.988525 0.984894 0.977478
0.990173 0.986816 0.979828
0.998169 0.992859 0.990295
0.987518 0.987793 0.986877
0.988556 0.988617 0.987427
0.991089 0.990539 0.988769
0.993744 0.992798 0.990661
0.995666 0.994018 0.990723
0.994598 0.992187 0.987060
0.994629 0.991669 0.986694
0.998901 0.995392 0.993378
0.993530 0.992279 0.989380
0.993896 0.992645 0.989715
0.994934 0.993683 0.990845
0.996216 0.995026 0.992401
0.997284 0.996246 0.994079
0.997711 0.996460 0.993805
0.998138 0.996246 0.993896
0.999481 0.997559 0.996246
0.996887 0.995544 0.992615
0.997009 0.995697 0.992828
0.997375 0.996155 0.993530
0.997894 0.996826 0.994537
0.998413 0.997528 0.995666
0.998840 0.998169 0.996704
0.999420 0.998596 0.997498
0.999878 0.998962 0.998260
0.998138 0.997070 0.994842
0.998169 0.997162 0.994965
0.998352 0.997436 0.995453
0.998657 0.997894 0.996246
0.998962 0.998383 0.997101
0.999268 0.998840 0.997925
0.999451 0.999115 0.998444
0.999939 0.999298 0.998352
