data/fiter_cube/26597975/1022847/file.cube
# Created by Adobe Lightroom plugin Export LUT (1.17.0)
# www.johnrellis.com/lightroom/exportlut.htm
# Preset:  城市电影胶片_03 云集
# Color profile: C:\Program Files (x86)\Common Files\Adobe\Color\Profiles\Recommended\AdobeRGB1998.icc
LUT_3D_SIZE 32
DOMAIN_MIN 0.0 0.0 0.0
DOMAIN_MAX 1.0 1.0 1.0
0.088167 0.089509 0.083345
0.088167 0.089509 0.083345
0.093751 0.089479 0.083803
0.108278 0.089937 0.085939
0.153017 0.083070 0.087770
0.265599 0.000000 0.086275
0.479835 0.000000 0.071870
0.766506 0.000000 0.000000
0.975525 0.000000 0.000000
1.000000 0.000000 0.000000
1.000000 0.000000 0.000000
1.000000 0.000000 0.126253
1.000000 0.000000 0.211490
1.000000 0.000000 0.342931
1.000000 0.377050 0.483528
1.000000 0.538262 0.594690
1.000000 0.649500 0.679347
1.000000 0.729763 0.743191
1.000000 0.789578 0.793240
1.000000 0.836210 0.834440
1.000000 0.871580 0.866606
1.000000 0.898070 0.891051
1.000000 0.917540 0.909392
1.000000 0.932341 0.923552
1.000000 0.943664 0.934600
1.000000 0.952941 0.943816
1.000000 0.960754 0.951751
1.000000 0.967407 0.958709
1.000000 0.973114 0.964843
1.000000 0.977905 0.970184
1.000000 0.981933 0.974823
1.000000 0.985382 0.978973
0.088167 0.089509 0.083345
0.088533 0.089479 0.083345
0.093965 0.089723 0.084077
0.108736 0.090730 0.085847
0.153628 0.087343 0.087098
0.261753 0.030854 0.085084
0.467231 0.000000 0.071504
0.746426 0.000000 0.000000
0.961212 0.000000 0.000000
1.000000 0.000000 0.000000
1.000000 0.000000 0.000000
1.000000 0.000000 0.111452
1.000000 0.000000 0.198032
1.000000 0.000000 0.327398
1.000000 0.350713 0.459205
1.000000 0.510430 0.568444
1.000000 0.621851 0.653468
1.000000 0.706050 0.721096
1.000000 0.770077 0.774624
1.000000 0.820829 0.819394
1.000000 0.859251 0.854398
1.000000 0.888701 0.881804
1.000000 0.910185 0.902007
1.000000 0.926635 0.917784
1.000000 0.939208 0.930022
1.000000 0.949371 0.940124
1.000000 0.958007 0.948882
1.000000 0.965332 0.956481
1.000000 0.971527 0.963073
1.000000 0.976715 0.968811
1.000000 0.981018 0.973754
1.000000 0.984680 0.978119
0.089693 0.091005 0.084993
0.089876 0.091554 0.085206
0.095583 0.092409 0.083467
0.110506 0.094453 0.085176
0.154574 0.094209 0.086183
0.259403 0.067994 0.083742
0.455207 0.000000 0.070405
0.727443 0.000000 0.000000
0.948028 0.000000 0.000000
1.000000 0.000000 0.000000
1.000000 0.000000 0.000000
1.000000 0.000000 0.097749
1.000000 0.000000 0.187533
1.000000 0.000000 0.318395
1.000000 0.348028 0.445624
1.000000 0.498939 0.551720
1.000000 0.609522 0.638148
1.000000 0.693751 0.707057
1.000000 0.759976 0.763333
1.000000 0.812772 0.810269
1.000000 0.853208 0.847593
1.000000 0.883909 0.876463
1.000000 0.906676 0.898161
1.000000 0.923705 0.914549
1.000000 0.936919 0.927489
1.000000 0.947539 0.938079
1.000000 0.956573 0.947234
1.000000 0.964263 0.955230
1.000000 0.970703 0.962127
1.000000 0.976165 0.968109
1.000000 0.980560 0.973144
1.000000 0.984344 0.977630
0.094545 0.096071 0.089815
0.095064 0.096529 0.090028
0.098177 0.098238 0.088411
0.117311 0.102022 0.083894
0.160616 0.109834 0.083650
0.264439 0.101015 0.080446
0.453651 0.000000 0.064118
0.717922 0.000000 0.000000
0.937438 0.000000 0.000000
1.000000 0.000000 0.000000
1.000000 0.000000 0.000000
1.000000 0.000000 0.074434
1.000000 0.000000 0.176516
1.000000 0.126284 0.309117
1.000000 0.362768 0.428717
1.000000 0.498878 0.532982
1.000000 0.601801 0.619074
1.000000 0.683803 0.689906
1.000000 0.748440 0.746944
1.000000 0.801694 0.795804
1.000000 0.843473 0.835569
1.000000 0.875883 0.866911
1.000000 0.900664 0.891020
1.000000 0.919768 0.909758
1.000000 0.934752 0.924681
1.000000 0.946593 0.936645
1.000000 0.956359 0.946654
1.000000 0.964324 0.955016
1.000000 0.970825 0.962036
1.000000 0.976165 0.967956
1.000000 0.980468 0.972961
1.000000 0.984161 0.977356
0.101381 0.102693 0.096468
0.101808 0.103120 0.096925
0.102235 0.103548 0.097383
0.118868 0.111086 0.090333
0.178073 0.126162 0.081758
0.263127 0.142428 0.074769
0.438727 0.112673 0.048096
0.688289 0.000000 0.000000
0.912627 0.000000 0.000000
1.000000 0.000000 0.000000
1.000000 0.000000 0.000000
1.000000 0.000000 0.000000
1.000000 0.000000 0.165774
1.000000 0.232578 0.289860
1.000000 0.391211 0.405921
1.000000 0.508934 0.510521
1.000000 0.606409 0.601617
1.000000 0.686427 0.677150
1.000000 0.749722 0.737606
1.000000 0.801144 0.787930
1.000000 0.842039 0.829221
1.000000 0.873899 0.861540
1.000000 0.898772 0.886809
1.000000 0.918273 0.906645
1.000000 0.933562 0.922332
1.000000 0.945861 0.935058
1.000000 0.955779 0.945464
1.000000 0.963867 0.954131
1.000000 0.970428 0.961334
1.000000 0.975799 0.967346
1.000000 0.980194 0.972442
1.000000 0.983948 0.976959
0.113283 0.114443 0.109010
0.114107 0.114961 0.109590
0.114687 0.115511 0.110201
0.123507 0.121462 0.106722
0.176547 0.141604 0.088838
0.317479 0.179477 0.061189
0.441382 0.207523 0.000000
0.677760 0.159548 0.000000
0.898711 0.000000 0.000000
1.000000 0.000000 0.000000
1.000000 0.000000 0.000000
1.000000 0.000000 0.000000
1.000000 0.217502 0.152987
1.000000 0.342565 0.277226
1.000000 0.447913 0.391974
1.000000 0.542779 0.497353
1.000000 0.627619 0.590753
1.000000 0.700618 0.669215
1.000000 0.760342 0.732967
1.000000 0.808804 0.785275
1.000000 0.848112 0.828367
1.000000 0.878996 0.862028
1.000000 0.942626 0.929198
1.000000 0.952392 0.940093
1.000000 0.959991 0.948669
1.000000 0.966125 0.955566
1.000000 0.971191 0.961425
1.000000 0.975525 0.966522
1.000000 0.979217 0.970886
1.000000 0.982422 0.974823
1.000000 0.985138 0.978271
1.000000 0.987579 0.981384
0.141665 0.141787 0.139956
0.142428 0.142336 0.140688
0.143252 0.143191 0.141726
0.145480 0.145449 0.144167
0.203220 0.180941 0.117678
0.357488 0.234287 0.054017
0.626337 0.296117 0.000000
0.770779 0.328008 0.000000
0.936858 0.317540 0.000000
1.000000 0.311131 0.000000
1.000000 0.333928 0.000000
1.000000 0.394995 0.000000
1.000000 0.454871 0.204990
1.000000 0.518547 0.338323
1.000000 0.583337 0.451942
1.000000 0.646509 0.550011
1.000000 0.706172 0.633539
1.000000 0.759457 0.703883
1.000000 0.805783 0.762722
1.000000 0.846098 0.813199
1.000000 0.880461 0.855039
1.000000 0.908232 0.887877
1.000000 0.929442 0.912352
1.000000 0.945098 0.930388
1.000000 0.956298 0.943328
1.000000 0.964141 0.952483
1.000000 0.970062 0.959442
1.000000 0.974701 0.965057
1.000000 0.978607 0.969787
1.000000 0.981872 0.973877
1.000000 0.984680 0.977447
1.000000 0.987182 0.980713
0.180514 0.181704 0.185916
0.181094 0.182498 0.186770
0.182040 0.183444 0.187930
0.184237 0.185885 0.190616
0.214969 0.209110 0.178103
0.356268 0.287938 0.109377
0.635279 0.354711 0.000000
0.861295 0.420569 0.000000
0.947997 0.459815 0.000000
1.000000 0.496956 0.000000
1.000000 0.522271 0.000000
1.000000 0.540093 0.000000
1.000000 0.560998 0.160281
1.000000 0.591882 0.304967
1.000000 0.631495 0.421363
1.000000 0.675319 0.520653
1.000000 0.722957 0.608698
1.000000 0.768276 0.682979
1.000000 0.809934 0.746304
1.000000 0.847440 0.800504
1.000000 0.880003 0.845304
1.000000 0.906828 0.880339
1.000000 0.927855 0.906828
1.000000 0.943481 0.926085
1.000000 0.954864 0.940002
1.000000 0.963012 0.949950
1.000000 0.969116 0.957488
1.000000 0.973938 0.963500
1.000000 0.978027 0.968627
1.000000 0.981415 0.972930
1.000000 0.984314 0.976745
1.000000 0.986877 0.980133
0.241215 0.249912 0.265110
0.242039 0.250889 0.266300
0.243198 0.252293 0.267887
0.245457 0.254856 0.270970
0.249363 0.259312 0.276280
0.378027 0.344427 0.208011
0.610071 0.442084 0.014740
0.912352 0.519280 0.000000
1.000000 0.599969 0.000000
1.000000 0.648035 0.000000
1.000000 0.666102 0.000000
1.000000 0.663386 0.000000
1.000000 0.662745 0.086610
1.000000 0.671321 0.273228
1.000000 0.690150 0.395056
1.000000 0.717494 0.498970
1.000000 0.751461 0.590356
1.000000 0.787655 0.669062
1.000000 0.822232 0.735225
1.000000 0.855222 0.792447
1.000000 0.884367 0.838987
1.000000 0.909178 0.875669
1.000000 0.928923 0.903258
1.000000 0.943877 0.923400
1.000000 0.954925 0.937896
1.000000 0.962951 0.948363
1.000000 0.968994 0.956237
1.000000 0.973846 0.962554
1.000000 0.977874 0.967834
1.000000 0.981231 0.972259
1.000000 0.984161 0.976196
1.000000 0.986755 0.979675
0.327947 0.345922 0.380255
0.328740 0.346838 0.381292
0.329290 0.347387 0.381964
0.331334 0.349615 0.384588
0.334997 0.353521 0.389227
0.406378 0.403052 0.358648
0.655421 0.549950 0.251316
0.898833 0.651392 0.000000
1.000000 0.705592 0.000000
1.000000 0.736446 0.000000
1.000000 0.753231 0.000000
1.000000 0.757809 0.000000
1.000000 0.745937 0.000000
1.000000 0.741207 0.222049
1.000000 0.747127 0.363226
1.000000 0.763485 0.479683
1.000000 0.787564 0.579583
1.000000 0.815457 0.664851
1.000000 0.842893 0.733669
1.000000 0.869352 0.791226
1.000000 0.893095 0.836973
1.000000 0.913512 0.872221
1.000000 0.930297 0.899016
1.000000 0.943633 0.919066
1.000000 0.954070 0.934142
1.000000 0.962005 0.945312
1.000000 0.968292 0.954009
1.000000 0.973419 0.961028
1.000000 0.977691 0.966857
1.000000 0.981231 0.971710
1.000000 0.984283 0.975952
1.000000 0.986908 0.979614
0.445441 0.465644 0.514488
0.449134 0.469276 0.518242
0.454200 0.474159 0.523369
0.465126 0.484779 0.534234
0.480446 0.499580 0.549187
0.499214 0.517571 0.566979
0.712978 0.658412 0.485328
0.906096 0.759823 0.349462
1.000000 0.798123 0.111269
1.000000 0.808560 0.000000
1.000000 0.814481 0.000000
1.000000 0.816983 0.000000
1.000000 0.815457 0.000000
1.000000 0.804196 0.148684
1.000000 0.799344 0.321965
1.000000 0.804501 0.450111
1.000000 0.817777 0.557092
1.000000 0.836698 0.647028
1.000000 0.857603 0.720577
1.000000 0.878904 0.780819
1.000000 0.899504 0.829740
1.000000 0.917693 0.867308
1.000000 0.933104 0.895659
1.000000 0.945617 0.916869
1.000000 0.955261 0.932403
1.000000 0.962799 0.944030
1.000000 0.968719 0.952911
1.000000 0.973632 0.960082
1.000000 0.977752 0.966064
1.000000 0.981231 0.971069
1.000000 0.984283 0.975463
1.000000 0.986877 0.979248
0.634058 0.645014 0.683497
0.636133 0.646937 0.685176
0.638911 0.649561 0.687404
0.644434 0.654688 0.691829
0.653101 0.662837 0.698817
0.664027 0.673060 0.707485
0.752316 0.736385 0.684047
0.905089 0.828946 0.597284
1.000000 0.871366 0.472602
1.000000 0.874662 0.287510
1.000000 0.866972 0.123476
1.000000 0.863920 0.107607
1.000000 0.899809 0.382727
1.000000 0.894499 0.381689
1.000000 0.889220 0.476112
1.000000 0.889006 0.589868
1.000000 0.894133 0.679072
1.000000 0.902220 0.747219
1.000000 0.912139 0.800412
1.000000 0.923064 0.842313
1.000000 0.933898 0.874815
1.000000 0.943877 0.899779
1.000000 0.952544 0.918700
1.000000 0.959869 0.933257
1.000000 0.965972 0.944427
1.000000 0.970916 0.953033
1.000000 0.974945 0.959808
1.000000 0.978332 0.965332
1.000000 0.981262 0.969970
1.000000 0.983886 0.974029
1.000000 0.986236 0.977691
1.000000 0.988373 0.980957
0.833860 0.832547 0.839261
0.834165 0.832792 0.839475
0.832303 0.831022 0.838010
0.830655 0.829435 0.836667
0.828641 0.827543 0.835142
0.827085 0.826078 0.833890
0.828641 0.827543 0.835142
0.919921 0.889006 0.791867
0.986664 0.923674 0.730129
1.000000 0.935821 0.642206
1.000000 0.927520 0.507073
1.000000 0.917815 0.442267
1.000000 0.914336 0.441047
1.000000 0.912840 0.462531
1.000000 0.910094 0.471870
1.000000 0.907713 0.535912
1.000000 0.908415 0.640864
1.000000 0.912596 0.719417
1.000000 0.919402 0.780270
1.000000 0.927764 0.827726
1.000000 0.936767 0.864103
1.000000 0.945525 0.891936
1.000000 0.953368 0.912810
1.000000 0.960174 0.928710
1.000000 0.965942 0.940856
1.000000 0.970703 0.950225
1.000000 0.974701 0.957610
1.000000 0.978119 0.963622
1.000000 0.981079 0.968688
1.000000 0.983764 0.973114
1.000000 0.986145 0.977020
1.000000 0.988312 0.980499
0.891051 0.887358 0.885466
0.891203 0.887480 0.885588
0.889921 0.886259 0.884550
0.888365 0.884764 0.883238
0.886229 0.882689 0.881498
0.884428 0.880949 0.880003
0.884550 0.881071 0.880095
0.916228 0.903960 0.868406
0.970214 0.936950 0.835111
1.000000 0.952636 0.789822
1.000000 0.955383 0.722225
1.000000 0.945037 0.614618
1.000000 0.936645 0.575769
1.000000 0.932219 0.564385
1.000000 0.929717 0.572808
1.000000 0.926116 0.570703
1.000000 0.923461 0.597040
1.000000 0.923949 0.687343
1.000000 0.927672 0.757382
1.000000 0.933562 0.811276
1.000000 0.940795 0.852903
1.000000 0.948241 0.884092
1.000000 0.955200 0.907256
1.000000 0.961456 0.924895
1.000000 0.966796 0.938079
1.000000 0.971313 0.948241
1.000000 0.975158 0.956146
1.000000 0.978424 0.962524
1.000000 0.981323 0.967864
1.000000 0.983978 0.972625
1.000000 0.986389 0.976776
1.000000 0.988525 0.980377
0.927642 0.922911 0.916472
0.927977 0.923186 0.916747
0.927062 0.922332 0.915984
0.925872 0.921141 0.914916
0.924102 0.919432 0.913390
0.922515 0.917845 0.911986
0.922087 0.917449 0.911620
0.923125 0.918456 0.912535
0.962646 0.945922 0.895140
0.991882 0.961944 0.871977
1.000000 0.968322 0.839719
1.000000 0.967071 0.789487
1.000000 0.957336 0.706661
1.000000 0.950652 0.682948
1.000000 0.946136 0.666224
1.000000 0.942962 0.663661
1.000000 0.939330 0.656031
1.000000 0.936553 0.655085
1.000000 0.937194 0.733455
1.000000 0.940551 0.794278
1.000000 0.945586 0.840482
1.000000 0.951507 0.875334
1.000000 0.957305 0.900847
1.000000 0.962921 0.920348
1.000000 0.967864 0.934997
1.000000 0.972229 0.946288
1.000000 0.976013 0.955108
1.000000 0.979370 0.962249
1.000000 0.982330 0.968170
1.000000 0.985016 0.973297
1.000000 0.987366 0.977630
1.000000 0.989441 0.981292
0.951019 0.945953 0.937469
0.951385 0.946288 0.937774
0.951293 0.946227 0.937682
0.951019 0.945953 0.937469
0.950683 0.945617 0.937133
0.950500 0.945434 0.936980
0.950958 0.945861 0.937377
0.951965 0.946868 0.938323
0.964599 0.956451 0.934661
0.985687 0.969909 0.922667
1.000000 0.976349 0.906310
1.000000 0.977844 0.882078
1.000000 0.974609 0.842679
1.000000 0.965484 0.776761
1.000000 0.959991 0.756680
1.000000 0.955413 0.735317
1.000000 0.952300 0.728664
1.000000 0.949371 0.722255
1.000000 0.947417 0.720974
1.000000 0.948577 0.778134
1.000000 0.952056 0.831357
1.000000 0.956634 0.870359
1.000000 0.961456 0.898436
1.000000 0.966155 0.919158
1.000000 0.970550 0.934752
1.000000 0.974456 0.946624
1.000000 0.977844 0.955688
1.000000 0.980865 0.962921
1.000000 0.983612 0.968933
1.000000 0.986023 0.973938
1.000000 0.988098 0.978088
1.000000 0.989960 0.981659
0.964904 0.959899 0.950774
0.964904 0.959930 0.950774
0.964782 0.959777 0.950622
0.964630 0.959655 0.950500
0.964508 0.959503 0.950378
0.964477 0.959472 0.950347
0.964782 0.959777 0.950622
0.965362 0.960418 0.951232
0.966400 0.961425 0.952270
0.981994 0.972625 0.945617
0.994079 0.979461 0.936431
1.000000 0.982422 0.924041
1.000000 0.982330 0.905303
1.000000 0.978820 0.874571
1.000000 0.971374 0.830564
1.000000 0.966979 0.811124
1.000000 0.963012 0.791958
1.000000 0.960296 0.784451
1.000000 0.957977 0.779202
1.000000 0.956542 0.778714
1.000000 0.957458 0.815000
1.000000 0.960449 0.858946
1.000000 0.964202 0.890837
1.000000 0.968200 0.914305
1.000000 0.972045 0.931548
1.000000 0.975647 0.944579
1.000000 0.978882 0.954559
1.000000 0.981781 0.962463
1.000000 0.984405 0.968872
1.000000 0.986725 0.974090
1.000000 0.988739 0.978393
1.000000 0.990509 0.982025
0.975006 0.970306 0.961212
0.975311 0.970581 0.961517
0.983032 0.978790 0.970336
0.982940 0.978729 0.970245
0.982818 0.978576 0.970092
0.982666 0.978393 0.969909
0.982513 0.978271 0.969757
0.982513 0.978241 0.969726
0.982666 0.978424 0.969909
0.986175 0.981140 0.968658
0.992950 0.985595 0.964355
0.998199 0.987945 0.958740
1.000000 0.988647 0.950713
1.000000 0.987762 0.938567
1.000000 0.984741 0.919066
1.000000 0.979614 0.895109
1.000000 0.976440 0.879850
1.000000 0.973297 0.864927
1.000000 0.971038 0.857145
1.000000 0.969207 0.852049
1.000000 0.967987 0.850034
1.000000 0.968322 0.866392
1.000000 0.970550 0.896513
1.000000 0.973175 0.918303
1.000000 0.975738 0.933959
1.000000 0.978241 0.945800
1.000000 0.980621 0.954894
1.000000 0.983001 0.962524
1.000000 0.985260 0.968841
1.000000 0.987396 0.974151
1.000000 0.989288 0.978546
1.000000 0.990906 0.982177
0.983154 0.978943 0.970520
0.983917 0.979767 0.971435
0.984619 0.980529 0.972320
0.985199 0.981170 0.973053
0.985595 0.981628 0.973541
0.985718 0.981781 0.973724
0.985779 0.981811 0.973754
0.985809 0.981842 0.973816
0.985931 0.982025 0.973999
0.986175 0.982269 0.974304
0.991272 0.986023 0.971801
0.995850 0.988708 0.968200
0.999573 0.989990 0.963348
1.000000 0.990143 0.956390
1.000000 0.989014 0.945983
1.000000 0.986114 0.929534
1.000000 0.982025 0.911681
1.000000 0.979370 0.899168
1.000000 0.976837 0.887724
1.000000 0.975097 0.882383
1.000000 0.973816 0.879515
1.000000 0.973144 0.879820
1.000000 0.973327 0.887846
1.000000 0.975341 0.913024
1.000000 0.977478 0.930755
1.000000 0.979675 0.943877
1.000000 0.981903 0.954070
1.000000 0.984070 0.962219
1.000000 0.986175 0.968872
1.000000 0.988098 0.974334
1.000000 0.989868 0.978759
1.000000 0.991424 0.982422
0.986572 0.982696 0.974792
0.987060 0.983246 0.975463
0.987549 0.983795 0.976104
0.987945 0.984253 0.976654
0.988251 0.984588 0.977050
0.988342 0.984710 0.977203
0.988403 0.984771 0.977264
0.988434 0.984802 0.977325
0.988556 0.984955 0.977478
0.988739 0.985138 0.977752
0.990417 0.986511 0.977295
0.994385 0.989258 0.974853
0.997559 0.990845 0.971771
1.000000 0.991547 0.967620
1.000000 0.991363 0.961730
1.000000 0.990173 0.953002
1.000000 0.987518 0.939574
1.000000 0.984405 0.927001
1.000000 0.982238 0.917418
1.000000 0.980316 0.909178
1.000000 0.979004 0.905547
1.000000 0.978210 0.904509
1.000000 0.977874 0.905547
1.000000 0.977813 0.907988
1.000000 0.979431 0.927550
1.000000 0.981201 0.941894
1.000000 0.983124 0.952972
1.000000 0.985046 0.961578
1.000000 0.986938 0.968566
1.000000 0.988739 0.974182
1.000000 0.990356 0.978759
1.000000 0.991791 0.982452
0.989166 0.985626 0.978332
0.989502 0.986023 0.978820
0.989868 0.986419 0.979339
0.990143 0.986755 0.979767
0.990356 0.986999 0.980041
0.990448 0.987091 0.980194
0.990478 0.987152 0.980255
0.990509 0.987182 0.980285
0.990570 0.987274 0.980407
0.990692 0.987396 0.980560
0.990845 0.987579 0.980804
0.993500 0.989593 0.979492
0.996277 0.991333 0.977386
0.998627 0.992309 0.974701
1.000000 0.992676 0.971191
1.000000 0.992370 0.966430
1.000000 0.991302 0.959869
1.000000 0.989197 0.950408
1.000000 0.987152 0.943481
1.000000 0.985840 0.938445
1.000000 0.984680 0.934447
1.000000 0.984070 0.933715
1.000000 0.983734 0.934051
1.000000 0.983703 0.935760
1.000000 0.983856 0.938018
1.000000 0.985016 0.949035
1.000000 0.986481 0.959136
1.000000 0.987976 0.966766
1.000000 0.989410 0.972778
1.000000 0.990753 0.977569
1.000000 0.991974 0.981445
1.000000 0.993133 0.984649
0.992126 0.989105 0.982818
0.992248 0.989227 0.983001
0.992340 0.989349 0.983124
0.992401 0.989441 0.983246
0.992462 0.989502 0.983337
0.992462 0.989532 0.983368
0.992493 0.989532 0.983398
0.992523 0.989593 0.983459
0.992615 0.989685 0.983612
0.992737 0.989837 0.983795
0.992889 0.990021 0.984070
0.993530 0.990600 0.984009
0.995758 0.992218 0.982635
0.997650 0.993286 0.980957
0.999329 0.993835 0.978851
1.000000 0.993957 0.976165
1.000000 0.993622 0.972656
1.000000 0.992706 0.968017
1.000000 0.991089 0.961547
1.000000 0.989654 0.957305
1.000000 0.988617 0.953491
1.000000 0.987671 0.950225
1.000000 0.987091 0.948943
1.000000 0.986664 0.948425
1.000000 0.986633 0.949523
1.000000 0.986786 0.951385
1.000000 0.987610 0.958312
1.000000 0.988922 0.966491
1.000000 0.990173 0.972747
1.000000 0.991363 0.977630
1.000000 0.992493 0.981567
1.000000 0.993530 0.984771
0.993408 0.990692 0.984955
0.993500 0.990784 0.985107
0.993561 0.990906 0.985229
0.993622 0.990967 0.985351
0.993683 0.990997 0.985412
0.993683 0.991028 0.985412
0.993683 0.991028 0.985412
0.993683 0.991058 0.985443
0.993744 0.991119 0.985534
0.993835 0.991211 0.985657
0.993927 0.991333 0.985870
0.994049 0.991485 0.986084
0.995300 0.992462 0.985473
0.996979 0.993591 0.984283
0.998444 0.994324 0.982849
0.999756 0.994690 0.981109
1.000000 0.994720 0.978973
1.000000 0.994385 0.976318
1.000000 0.993622 0.972961
1.000000 0.992340 0.968383
1.000000 0.991394 0.966003
1.000000 0.990661 0.963561
1.000000 0.990051 0.961700
1.000000 0.989654 0.961212
1.000000 0.988617 0.957427
1.000000 0.988647 0.958434
1.000000 0.988830 0.960266
1.000000 0.989471 0.964782
1.000000 0.990600 0.971649
1.000000 0.991730 0.976959
1.000000 0.992798 0.981201
1.000000 0.993805 0.984619
0.994873 0.992554 0.987610
0.994934 0.992645 0.987732
0.994995 0.992706 0.987823
0.994995 0.992706 0.987854
0.994995 0.992706 0.987854
0.994995 0.992676 0.987823
0.994965 0.992676 0.987793
0.994934 0.992645 0.987732
0.994934 0.992615 0.987732
0.994934 0.992645 0.987732
0.994965 0.992676 0.987793
0.994995 0.992706 0.987884
0.995148 0.992859 0.987915
0.996551 0.993896 0.986969
0.997803 0.994629 0.985809
0.998962 0.995087 0.984436
1.000000 0.995270 0.982788
1.000000 0.995209 0.980865
1.000000 0.994873 0.978607
1.000000 0.994202 0.975982
1.000000 0.993164 0.972595
1.000000 0.992523 0.971313
1.000000 0.991943 0.969574
1.000000 0.991394 0.967926
1.000000 0.990997 0.967132
1.000000 0.990692 0.966552
1.000000 0.990723 0.967407
1.000000 0.990936 0.968811
1.000000 0.991363 0.971405
1.000000 0.992309 0.976806
1.000000 0.993256 0.981140
1.000000 0.994202 0.984649
0.995544 0.993408 0.988922
0.995605 0.993500 0.989014
0.995636 0.993530 0.989105
0.995636 0.993561 0.989136
0.995636 0.993561 0.989136
0.995666 0.993530 0.989105
0.995636 0.993530 0.989105
0.995636 0.993530 0.989075
0.995636 0.993561 0.989105
0.995666 0.993561 0.989166
0.995697 0.993622 0.989227
0.995758 0.993683 0.989319
0.995819 0.993774 0.989471
0.996368 0.994232 0.989197
0.997467 0.994995 0.988373
0.998413 0.995514 0.987457
0.999329 0.995850 0.986389
1.000000 0.995972 0.985168
1.000000 0.995911 0.983825
1.000000 0.995666 0.982330
1.000000 0.995178 0.980652
1.000000 0.994415 0.978576
1.000000 0.993927 0.977630
1.000000 0.993500 0.976349
1.000000 0.993103 0.975189
1.000000 0.992798 0.974578
1.000000 0.992554 0.974212
1.000000 0.992676 0.975097
1.000000 0.992920 0.976471
1.000000 0.993317 0.978302
1.000000 0.994079 0.982177
1.000000 0.994873 0.985565
0.996185 0.994293 0.990295
0.996216 0.994354 0.990356
0.996246 0.994385 0.990387
0.996246 0.994385 0.990387
0.996216 0.994354 0.990356
0.996216 0.994324 0.990326
0.996216 0.994324 0.990295
0.996185 0.994293 0.990295
0.996185 0.994293 0.990295
0.996216 0.994324 0.990326
0.996246 0.994385 0.990387
0.996307 0.994446 0.990509
0.996338 0.994537 0.990631
0.996399 0.994598 0.990753
0.997223 0.995239 0.990234
0.998077 0.995789 0.989563
0.998871 0.996185 0.988769
0.999634 0.996429 0.987915
1.000000 0.996521 0.986999
1.000000 0.996460 0.986023
1.000000 0.996246 0.984985
1.000000 0.995850 0.983825
1.000000 0.995300 0.982452
1.000000 0.994903 0.981628
1.000000 0.994537 0.980621
1.000000 0.994202 0.979736
1.000000 0.993988 0.979309
1.000000 0.993805 0.979034
1.000000 0.993957 0.979919
1.000000 0.994232 0.981262
1.000000 0.994629 0.982971
1.000000 0.995239 0.985626
0.996643 0.994934 0.991302
0.996674 0.994965 0.991333
0.996674 0.994995 0.991363
0.996674 0.994995 0.991363
0.996704 0.994995 0.991394
0.996704 0.995026 0.991394
0.996735 0.995056 0.991455
0.996765 0.995117 0.991577
0.996857 0.995209 0.991699
0.996918 0.995300 0.991882
0.997009 0.995422 0.992065
0.997070 0.995544 0.992279
0.997162 0.995666 0.992462
0.997223 0.995758 0.992645
0.997467 0.995972 0.992676
0.998108 0.996490 0.992248
0.998718 0.996857 0.991791
0.999268 0.997131 0.991302
0.999817 0.997314 0.990784
1.000000 0.997375 0.990234
1.000000 0.997345 0.989715
1.000000 0.997192 0.989136
1.000000 0.996948 0.988525
1.000000 0.996582 0.987793
1.000000 0.996338 0.987182
1.000000 0.996063 0.986511
1.000000 0.995850 0.985962
1.000000 0.995697 0.985687
1.000000 0.995575 0.985565
1.000000 0.995727 0.986267
1.000000 0.995972 0.987335
1.000000 0.996338 0.988647
0.997345 0.995911 0.992859
0.997345 0.995941 0.992889
0.997345 0.995941 0.992889
0.997345 0.995941 0.992889
0.997345 0.995911 0.992889
0.997345 0.995911 0.992889
0.997345 0.995941 0.992889
0.997375 0.995941 0.992920
0.997406 0.995972 0.992981
0.997436 0.996033 0.993072
0.997467 0.996094 0.993164
0.997528 0.996155 0.993286
0.997559 0.996216 0.993408
0.997589 0.996307 0.993500
