data/fiter_cube/49007420/1023418/file.cube
# Created by Adobe Lightroom plugin Export LUT (1.17.0)
# www.johnrellis.com/lightroom/exportlut.htm
# Preset: 02 - 日系情绪-春 [云集]
# Color profile: C:\Program Files (x86)\Common Files\Adobe\Color\Profiles\Recommended\AdobeRGB1998.icc
LUT_3D_SIZE 5
DOMAIN_MIN 0.000000 0.000000 0.000000
DOMAIN_MAX 0.903226 0.903226 0.903226
0.088106 0.081056 0.068177
0.185397 0.064302 0.070680
0.532036 0.000000 0.042664
0.846403 0.000000 0.055482
1.000000 0.166049 0.266270
0.081941 0.201114 0.094667
0.191745 0.174624 0.053498
0.531060 0.111360 0.000000
0.854002 0.000000 0.000000
1.000000 0.305364 0.267430
0.000000 0.603174 0.269780
0.209842 0.549065 0.184298
0.598901 0.567132 0.000000
0.870085 0.486885 0.000000
1.000000 0.509514 0.216068
0.317113 0.871763 0.547082
0.474647 0.854978 0.558038
0.591485 0.796109 0.476875
0.855497 0.818692 0.000000
0.998291 0.749325 0.185916
0.644312 0.965789 0.771328
0.703700 0.957458 0.784298
0.739651 0.940734 0.747433
0.819394 0.926909 0.723415
0.963378 0.936004 0.470619
0.095247 0.099092 0.137514
0.203372 0.071473 0.139773
0.527550 0.000000 0.092744
0.835142 0.000000 0.000000
1.000000 0.170230 0.241276
0.080781 0.202243 0.187289
0.227573 0.203006 0.180667
0.539757 0.166873 0.110018
0.841367 0.164065 0.000000
1.000000 0.289220 0.233127
0.000000 0.629267 0.392981
0.282231 0.584863 0.353368
0.583581 0.549371 0.200473
0.852445 0.485542 0.000000
1.000000 0.508751 0.203067
0.300389 0.877836 0.604608
0.469184 0.861601 0.610254
0.622797 0.805905 0.555383
0.851957 0.818479 0.320806
0.997650 0.748348 0.181552
0.628565 0.968688 0.782712
0.691554 0.960235 0.793362
0.774472 0.944121 0.793149
0.831357 0.927916 0.766537
0.964782 0.937469 0.485756
0.056519 0.163607 0.362097
0.238041 0.157931 0.443000
0.609064 0.000000 0.481971
0.870024 0.000000 0.380499
1.000000 0.243503 0.267216
0.129732 0.231327 0.310124
0.228763 0.259403 0.413825
0.619043 0.279057 0.515831
0.860380 0.265751 0.408942
1.000000 0.323278 0.268040
0.000000 0.539269 0.543877
0.208988 0.544671 0.545525
0.611963 0.584436 0.578149
0.843412 0.569543 0.504753
1.000000 0.519036 0.297704
0.000000 0.903868 0.766232
0.369299 0.885801 0.751217
0.685573 0.836301 0.730282
0.840543 0.823697 0.657374
0.985107 0.749325 0.431800
0.573632 0.976959 0.826291
0.645106 0.970031 0.830076
0.786954 0.950408 0.841917
0.846799 0.925475 0.828000
0.947601 0.935912 0.712398
0.000000 0.286473 0.649226
0.236393 0.286870 0.697902
0.668299 0.358709 0.816068
0.867765 0.373388 0.782803
0.983307 0.462898 0.706111
0.144381 0.353979 0.606928
0.237552 0.353491 0.665400
0.643458 0.445472 0.798978
0.859037 0.487434 0.788052
0.975372 0.529686 0.718441
0.000000 0.462348 0.584039
0.187076 0.452613 0.570825
0.523583 0.545953 0.711757
0.840208 0.678492 0.803433
0.959258 0.674769 0.752316
0.160830 0.787289 0.801907
0.304845 0.783841 0.798489
0.569360 0.785550 0.798978
0.828153 0.821988 0.826322
0.947662 0.803464 0.778805
0.514244 0.985229 0.898192
0.583307 0.981933 0.898497
0.743374 0.968627 0.895659
0.871489 0.945006 0.888426
0.939940 0.938506 0.856718
0.418158 0.532616 0.878355
0.468208 0.524529 0.885496
0.681941 0.573358 0.904479
0.889006 0.660670 0.928161
0.957458 0.614740 0.893217
0.432349 0.573816 0.866209
0.467536 0.560632 0.875181
0.668208 0.598383 0.898192
0.880980 0.691310 0.924132
0.953063 0.657923 0.894285
0.276677 0.613184 0.819242
0.350683 0.614221 0.831266
0.592676 0.643397 0.873136
0.853117 0.752590 0.913237
0.945220 0.765988 0.901396
0.373816 0.783932 0.877531
0.400031 0.775448 0.872801
0.480323 0.743862 0.855436
0.758267 0.774929 0.883330
0.943847 0.876860 0.916747
0.559533 0.935088 0.923400
0.587793 0.933654 0.922637
0.682643 0.930999 0.921599
0.806210 0.927855 0.919127
0.939605 0.940124 0.925719
