data/fiter_cube/49007420/1023418/file.cube
# Created by Adobe Lightroom plugin Export LUT (1.17.0)
# www.johnrellis.com/lightroom/exportlut.htm
# Preset: 02 - 日系情绪-春 [云集]
# Color profile: C:\Program Files (x86)\Common Files\Adobe\Color\Profiles\Recommended\AdobeRGB1998.icc
LUT_3D_SIZE 32
DOMAIN_MIN 0.0 0.0 0.0
DOMAIN_MAX 1.0 1.0 1.0
0.088106 0.081056 0.068177
0.090425 0.081300 0.068452
0.093324 0.081422 0.068727
0.100374 0.081331 0.069215
0.112428 0.080568 0.070314
0.130434 0.078706 0.070680
0.154788 0.073823 0.070741
0.185397 0.064302 0.070680
0.221927 0.034852 0.070283
0.264134 0.000000 0.068971
0.312016 0.000000 0.067201
0.364294 0.000000 0.064332
0.419318 0.000000 0.060670
0.475990 0.000000 0.053468
0.532036 0.000000 0.042664
0.586450 0.000000 0.029969
0.638636 0.000000 0.018006
0.687404 0.000000 0.008362
0.731655 0.000000 0.005890
0.773007 0.000000 0.009247
0.811368 0.000000 0.025635
0.846403 0.000000 0.055482
0.879667 0.000000 0.076539
0.914855 0.000000 0.104189
0.942290 0.000000 0.132448
0.964508 0.000000 0.161318
0.983215 0.000000 0.192966
0.999420 0.000000 0.227573
1.000000 0.166049 0.266270
1.000000 0.242985 0.309728
1.000000 0.310430 0.358892
1.000000 0.374975 0.413397
0.088716 0.083253 0.069093
0.090211 0.083009 0.068269
0.093812 0.082643 0.068574
0.100801 0.082887 0.069032
0.112581 0.082216 0.069734
0.130282 0.080537 0.070527
0.154482 0.076234 0.070558
0.184421 0.067872 0.070497
0.220279 0.047242 0.070100
0.261753 0.000000 0.068849
0.308629 0.000000 0.066773
0.360113 0.000000 0.064393
0.414527 0.000000 0.059968
0.470375 0.000000 0.052674
0.525963 0.000000 0.042145
0.579980 0.000000 0.028962
0.631952 0.000000 0.017548
0.681117 0.000000 0.007080
0.725704 0.000000 0.002716
0.767605 0.000000 0.005097
0.806363 0.000000 0.019440
0.841947 0.000000 0.047761
0.876158 0.000000 0.073030
0.910765 0.000000 0.099733
0.938262 0.000000 0.127047
0.960784 0.000000 0.155550
0.980011 0.000000 0.186648
0.996674 0.000000 0.220615
1.000000 0.154391 0.259129
1.000000 0.234409 0.302556
1.000000 0.302739 0.351659
1.000000 0.367651 0.405798
0.089174 0.086366 0.069886
0.090669 0.085481 0.069551
0.093416 0.085664 0.068666
0.101137 0.085115 0.068788
0.112856 0.084810 0.069459
0.130709 0.083406 0.070222
0.154269 0.079866 0.070222
0.183627 0.072724 0.070161
0.219089 0.058656 0.069398
0.260044 0.007416 0.068086
0.306584 0.000000 0.066407
0.357549 0.000000 0.063600
0.411505 0.000000 0.059663
0.467170 0.000000 0.051270
0.522484 0.000000 0.040375
0.576410 0.000000 0.026337
0.628321 0.000000 0.013764
0.677516 0.000000 0.003449
0.722408 0.000000 0.000000
0.764553 0.000000 0.000397
0.803799 0.000000 0.014343
0.839689 0.000000 0.040589
0.874723 0.000000 0.070954
0.908843 0.000000 0.097353
0.936217 0.000000 0.124208
0.958831 0.000000 0.152407
0.978241 0.000000 0.182895
0.995178 0.000000 0.217105
1.000000 0.153323 0.255344
1.000000 0.232486 0.298619
1.000000 0.300511 0.347601
1.000000 0.364965 0.401526
0.090730 0.093812 0.071962
0.092622 0.092988 0.071260
0.094484 0.091188 0.071382
0.100557 0.091646 0.068849
0.114504 0.090883 0.069093
0.132174 0.089631 0.069062
0.155550 0.086946 0.069398
0.184787 0.081575 0.069215
0.219730 0.071077 0.068360
0.260075 0.043793 0.067018
0.305852 0.000000 0.064851
0.356298 0.000000 0.061707
0.409400 0.000000 0.056977
0.464363 0.000000 0.047517
0.519158 0.000000 0.034455
0.572747 0.000000 0.020172
0.624445 0.000000 0.007599
0.673457 0.000000 0.000000
0.718135 0.000000 0.000000
0.760220 0.000000 0.000000
0.799527 0.000000 0.001282
0.835691 0.000000 0.026276
0.872374 0.000000 0.065370
0.906188 0.000000 0.091768
0.934051 0.000000 0.119661
0.957397 0.000000 0.148836
0.977417 0.000000 0.180392
0.994720 0.030640 0.215183
1.000000 0.168246 0.253758
1.000000 0.241123 0.297215
1.000000 0.304967 0.345251
1.000000 0.366766 0.398505
0.091524 0.107485 0.075227
0.094453 0.106111 0.074617
0.095399 0.104036 0.072724
0.100862 0.100893 0.072175
0.112428 0.101778 0.068605
0.133913 0.102235 0.067781
0.157015 0.098116 0.067964
0.185489 0.094545 0.067323
0.219394 0.087617 0.066773
0.258946 0.075380 0.065248
0.303929 0.043854 0.062776
0.353368 0.000000 0.059052
0.405921 0.000000 0.050782
0.460456 0.000000 0.040436
0.515343 0.000000 0.025299
0.569512 0.000000 0.009979
0.621790 0.000000 0.000000
0.671382 0.000000 0.000000
0.716548 0.000000 0.000000
0.758572 0.000000 0.000000
0.797757 0.000000 0.000000
0.833829 0.000000 0.008728
0.871946 0.000000 0.056825
0.904875 0.000000 0.086275
0.932403 0.000000 0.114626
0.955840 0.000000 0.144503
0.975891 0.000000 0.176272
0.993317 0.096986 0.210788
1.000000 0.184360 0.249607
1.000000 0.250187 0.292699
1.000000 0.310735 0.340764
1.000000 0.370428 0.394141
0.090944 0.129000 0.079591
0.094331 0.127687 0.078706
0.096834 0.125032 0.076387
0.102174 0.118776 0.074708
0.111696 0.116121 0.072236
0.130343 0.117800 0.067262
0.161227 0.119905 0.064912
0.189090 0.113741 0.064729
0.222416 0.107546 0.063355
0.261540 0.100099 0.061402
0.305974 0.087221 0.058412
0.354650 0.063752 0.051637
0.406622 0.000000 0.040925
0.460731 0.000000 0.027070
0.515221 0.000000 0.010895
0.569238 0.000000 0.000000
0.621668 0.000000 0.000000
0.671260 0.000000 0.000000
0.716487 0.000000 0.000000
0.758663 0.000000 0.000000
0.797971 0.000000 0.000000
0.836454 0.000000 0.000000
0.903258 0.000000 0.074556
0.933745 0.000000 0.109407
0.957885 0.000000 0.142184
0.977478 0.102480 0.175143
0.993835 0.170504 0.209293
1.000000 0.223972 0.245731
1.000000 0.273167 0.285527
1.000000 0.321874 0.329473
1.000000 0.371160 0.377295
1.000000 0.420996 0.428321
0.087373 0.164340 0.086458
0.091615 0.162387 0.085237
0.097688 0.159823 0.083711
0.100954 0.152651 0.076661
0.114717 0.140932 0.078157
0.131197 0.142397 0.071290
0.159854 0.144869 0.062531
0.203128 0.149508 0.055360
0.237613 0.141512 0.053468
0.277043 0.130251 0.050446
0.323033 0.122805 0.042786
0.373053 0.110689 0.030793
0.425269 0.091493 0.016724
0.478889 0.056916 0.000305
0.532067 0.000000 0.000000
0.583734 0.000000 0.000000
0.634363 0.000000 0.000000
0.682185 0.000000 0.000000
0.726436 0.000000 0.000000
0.768521 0.000000 0.000000
0.808408 0.000000 0.000000
0.853544 0.000000 0.000000
0.893065 0.000000 0.047089
0.925902 0.000000 0.092958
0.952422 0.084504 0.129427
0.973510 0.151308 0.164401
0.990692 0.200717 0.200107
1.000000 0.244450 0.236881
1.000000 0.287297 0.276829
1.000000 0.331151 0.320165
1.000000 0.376684 0.367742
1.000000 0.424109 0.419257
0.081941 0.201114 0.094667
0.087465 0.199222 0.093111
0.095094 0.196536 0.091554
0.102571 0.189609 0.084596
0.114687 0.177676 0.080262
0.131472 0.167056 0.080110
0.155032 0.171145 0.068818
0.191745 0.174624 0.053498
0.244419 0.182620 0.029908
0.283787 0.174197 0.024598
0.326848 0.162081 0.019135
0.374548 0.151125 0.008545
0.426093 0.141787 0.000000
0.478706 0.128573 0.000000
0.531060 0.111360 0.000000
0.582300 0.087465 0.000000
0.632349 0.048127 0.000000
0.679896 0.000000 0.000000
0.723995 0.000000 0.000000
0.765896 0.000000 0.000000
0.811032 0.000000 0.000000
0.854002 0.000000 0.000000
0.891508 0.055512 0.000000
0.923095 0.116335 0.077913
0.949126 0.159823 0.117525
0.970214 0.197665 0.153536
0.987610 0.233036 0.189822
1.000000 0.268345 0.227207
1.000000 0.305364 0.267430
1.000000 0.344396 0.311101
1.000000 0.386328 0.358862
1.000000 0.430793 0.410742
0.073457 0.244511 0.105959
0.081086 0.242588 0.104646
0.090974 0.240116 0.102907
0.104646 0.233768 0.097444
0.111452 0.222690 0.084443
0.134615 0.206668 0.087129
0.154849 0.201633 0.081331
0.185702 0.206973 0.064912
0.230259 0.211582 0.029206
0.293553 0.224063 0.000000
0.337194 0.215427 0.000000
0.383124 0.203098 0.000000
0.429816 0.186740 0.000000
0.481880 0.179660 0.000000
0.533318 0.171115 0.000000
0.583764 0.161227 0.000000
0.633356 0.150637 0.000000
0.680293 0.140444 0.000000
0.723873 0.130739 0.000000
0.770230 0.129061 0.000000
0.814694 0.135134 0.000000
0.855222 0.148714 0.000000
0.890990 0.168399 0.000000
0.921538 0.192264 0.055177
0.946990 0.217716 0.104585
0.967834 0.242924 0.143008
0.985290 0.269291 0.180667
1.000000 0.297368 0.218540
1.000000 0.328344 0.259342
1.000000 0.362280 0.303044
1.000000 0.399878 0.350774
1.000000 0.440711 0.402533
0.059937 0.293400 0.120638
0.071260 0.291356 0.119203
0.083192 0.288975 0.117800
0.106783 0.283268 0.114839
0.115419 0.272465 0.099702
0.134035 0.257359 0.092226
0.159579 0.238193 0.096864
0.184512 0.241398 0.081727
0.222843 0.248051 0.056245
0.274449 0.254215 0.000000
0.347356 0.270939 0.000000
0.393408 0.261875 0.000000
0.440284 0.249790 0.000000
0.487373 0.234318 0.000000
0.536309 0.221988 0.000000
0.587152 0.217502 0.000000
0.636866 0.213138 0.000000
0.684810 0.208957 0.000000
0.733028 0.208865 0.000000
0.777798 0.210208 0.000000
0.819059 0.214725 0.000000
0.856474 0.222660 0.000000
0.889708 0.233677 0.000000
0.918456 0.247684 0.000000
0.943114 0.264256 0.084657
0.963897 0.282353 0.128023
0.981781 0.302708 0.167697
0.997314 0.325933 0.207492
1.000000 0.352605 0.249546
1.000000 0.383154 0.294865
1.000000 0.417639 0.344182
1.000000 0.455879 0.397498
0.017731 0.344518 0.138643
0.049836 0.342870 0.137270
0.071962 0.340490 0.135653
0.101320 0.335363 0.132540
0.119875 0.326055 0.120760
0.129885 0.312474 0.100984
0.162997 0.294163 0.104463
0.188998 0.278782 0.104860
0.220706 0.287022 0.081361
0.266545 0.295445 0.032746
0.324590 0.302922 0.000000
0.406287 0.323888 0.000000
0.452827 0.314092 0.000000
0.499702 0.301762 0.000000
0.545678 0.286992 0.000000
0.591638 0.270329 0.000000
0.644495 0.269902 0.000000
0.693690 0.270359 0.000000
0.738674 0.270390 0.000000
0.780911 0.271672 0.000000
0.820279 0.275364 0.000000
0.856382 0.280888 0.000000
0.888731 0.289128 0.000000
0.916960 0.299290 0.000000
0.941131 0.311192 0.059907
0.961730 0.324254 0.113100
0.979461 0.339361 0.155795
0.995026 0.357549 0.197086
1.000000 0.379431 0.239994
1.000000 0.405402 0.285863
1.000000 0.435828 0.335607
1.000000 0.470466 0.389349
0.000000 0.400916 0.161196
0.000000 0.399512 0.159884
0.049989 0.397162 0.158175
0.093294 0.392493 0.155093
0.125551 0.384344 0.147097
0.137057 0.371832 0.125429
0.161746 0.355474 0.114595
0.196689 0.334630 0.119905
0.225162 0.328679 0.111086
0.264103 0.338537 0.080293
0.316320 0.348150 0.000000
0.380224 0.357061 0.000000
0.503258 0.411566 0.000000
0.555413 0.404120 0.000000
0.606165 0.394171 0.000000
0.653651 0.381384 0.000000
0.696803 0.365148 0.000000
0.737758 0.353918 0.000000
0.777523 0.353124 0.000000
0.814755 0.353643 0.000000
0.848966 0.355108 0.000000
0.879881 0.358221 0.000000
0.907195 0.362402 0.000000
0.931182 0.368139 0.000000
0.952117 0.375341 0.061585
0.970214 0.384070 0.120089
0.985992 0.394690 0.164340
0.999878 0.408026 0.206607
1.000000 0.424872 0.249790
1.000000 0.445808 0.295842
1.000000 0.471138 0.344976
1.000000 0.500938 0.398047
0.000000 0.474647 0.194644
0.000000 0.473243 0.193545
0.000000 0.470314 0.191409
0.082185 0.464759 0.187564
0.134310 0.455970 0.183078
0.148074 0.442725 0.159731
0.160983 0.426795 0.132723
0.202945 0.406500 0.135531
0.237736 0.383642 0.141360
0.273838 0.392523 0.120180
0.325017 0.409247 0.080446
0.391547 0.426734 0.000000
0.470039 0.444007 0.000000
0.575830 0.480934 0.000000
0.625696 0.472663 0.000000
0.670527 0.460029 0.000000
0.710231 0.443732 0.000000
0.745693 0.424872 0.000000
0.778561 0.405127 0.000000
0.813565 0.402380 0.000000
0.846464 0.402136 0.000000
0.876524 0.403204 0.000000
0.903197 0.405158 0.000000
0.926970 0.408270 0.000000
0.947845 0.412696 0.000000
0.966064 0.418402 0.093782
0.982147 0.426062 0.145785
0.996399 0.436316 0.191196
1.000000 0.449989 0.236362
1.000000 0.467811 0.283543
1.000000 0.489906 0.333562
1.000000 0.516777 0.387823
0.000000 0.535302 0.227359
0.000000 0.534173 0.226322
0.000000 0.531884 0.224277
0.072053 0.527398 0.220829
0.133516 0.519951 0.216220
0.161959 0.509209 0.198978
0.176120 0.495979 0.170962
0.205814 0.479713 0.155642
0.250431 0.459724 0.161929
0.286412 0.443519 0.164034
0.330358 0.459907 0.132876
0.388800 0.477180 0.082368
0.459510 0.494026 0.000000
0.538354 0.509361 0.000000
0.641321 0.544823 0.000000
0.683314 0.531487 0.000000
0.719936 0.514519 0.000000
0.752987 0.495583 0.000000
0.783841 0.476112 0.000000
0.813596 0.457130 0.000000
0.843748 0.446265 0.000000
0.873320 0.446082 0.000000
0.899809 0.446509 0.000000
0.923552 0.448096 0.000000
0.944488 0.450416 0.000000
0.962860 0.454078 0.056825
0.979156 0.459297 0.126375
0.993652 0.467079 0.177005
1.000000 0.477913 0.224094
1.000000 0.492958 0.273228
1.000000 0.512108 0.324498
1.000000 0.536126 0.380224
0.000000 0.603174 0.269780
0.000000 0.602167 0.268528
0.000000 0.599756 0.266575
0.072816 0.594690 0.262150
0.139590 0.586999 0.256718
0.182254 0.576684 0.244968
0.196017 0.563653 0.216159
0.209842 0.549065 0.184298
0.258061 0.530510 0.185550
0.300847 0.510094 0.191989
0.338872 0.506188 0.182803
0.389349 0.523033 0.147372
0.451850 0.539513 0.089631
0.523247 0.554650 0.000000
0.598901 0.567132 0.000000
0.692042 0.596002 0.000000
0.729519 0.580896 0.000000
0.760342 0.561517 0.000000
0.789334 0.542077 0.000000
0.817350 0.523033 0.000000
0.844327 0.504784 0.000000
0.870085 0.486885 0.000000
0.896269 0.486000 0.000000
0.919951 0.486122 0.000000
0.941039 0.487129 0.000000
0.959869 0.489296 0.000000
0.976715 0.493385 0.104158
0.991852 0.499977 0.163485
1.000000 0.509514 0.216068
1.000000 0.522972 0.268254
1.000000 0.540642 0.323430
1.000000 0.562585 0.381353
0.000000 0.659846 0.310979
0.000000 0.659297 0.310369
0.000000 0.657710 0.308843
0.090822 0.653895 0.305303
0.153658 0.647822 0.300694
0.209751 0.639796 0.296025
0.223789 0.629694 0.268803
0.237156 0.617945 0.237308
0.267582 0.602960 0.218021
0.316503 0.584131 0.223056
0.356451 0.562737 0.228916
0.397284 0.568902 0.205905
0.449653 0.582422 0.165530
0.510735 0.594507 0.102449
0.577325 0.604669 0.000000
0.646448 0.612726 0.000000
0.731075 0.636683 0.000000
0.766415 0.622248 0.000000
0.794675 0.603265 0.000000
0.822141 0.585229 0.000000
0.848447 0.567773 0.000000
0.873350 0.550683 0.000000
0.896513 0.533806 0.000000
0.919158 0.526329 0.000000
0.940215 0.526238 0.000000
0.959075 0.527245 0.000000
0.975982 0.529839 0.082002
0.991119 0.534569 0.152346
1.000000 0.542016 0.208713
1.000000 0.552728 0.263005
1.000000 0.567102 0.318456
1.000000 0.585687 0.376867
0.000000 0.705440 0.349310
0.000000 0.704524 0.348363
0.060060 0.702846 0.346715
0.119966 0.699550 0.343633
0.173556 0.694362 0.339818
0.225803 0.687587 0.335821
0.252659 0.679133 0.317662
0.264347 0.669154 0.287449
0.276738 0.657527 0.253574
0.324498 0.641566 0.252964
0.368841 0.623163 0.257725
0.405890 0.606134 0.259525
0.450050 0.618708 0.227573
0.502495 0.629938 0.184726
0.561273 0.639429 0.120485
0.623560 0.646693 0.000000
0.687526 0.652522 0.000000
0.765438 0.673213 0.000000
0.799344 0.659907 0.000000
0.825254 0.641535 0.000000
0.850278 0.624170 0.000000
0.874083 0.607202 0.000000
0.896422 0.590570 0.000000
0.917418 0.574426 0.000000
0.937224 0.561242 0.000000
0.956329 0.561242 0.000000
0.973541 0.562646 0.003723
0.989044 0.566003 0.133974
1.000000 0.571801 0.196475
1.000000 0.580682 0.254398
1.000000 0.593072 0.312413
1.000000 0.609308 0.372473
0.074739 0.746670 0.388525
0.098756 0.746487 0.388434
0.164767 0.772091 0.416693
0.196902 0.769100 0.414405
0.237125 0.764248 0.411139
0.281498 0.757626 0.407507
0.317571 0.749416 0.397742
0.325780 0.740444 0.368566
0.334997 0.730129 0.335363
0.360418 0.717403 0.314336
0.405280 0.700923 0.316411
0.443702 0.682185 0.319005
0.477852 0.674067 0.307439
0.520378 0.682643 0.270878
0.569665 0.689967 0.224674
0.624018 0.695735 0.160372
0.681575 0.700130 0.000000
0.740139 0.703609 0.000000
0.809842 0.720027 0.000000
0.840299 0.706264 0.000000
0.862181 0.687221 0.000000
0.883513 0.669154 0.000000
0.903746 0.651728 0.000000
0.922728 0.634638 0.000000
0.940215 0.617700 0.000000
0.956634 0.601373 0.000000
0.972656 0.597223 0.000000
0.987488 0.598047 0.114778
1.000000 0.601617 0.183688
1.000000 0.608270 0.244511
1.000000 0.618433 0.304784
1.000000 0.632166 0.366339
0.156069 0.788540 0.433814
0.173404 0.791012 0.437018
0.192844 0.793118 0.440223
0.223911 0.793484 0.442298
0.262455 0.791592 0.442664
0.304540 0.787045 0.441840
0.349401 0.780362 0.440864
0.358221 0.772946 0.415656
0.366278 0.764706 0.386450
0.375128 0.755215 0.354162
0.414832 0.741421 0.350530
0.454078 0.725551 0.352239
0.486976 0.707271 0.353704
0.520409 0.707942 0.330663
0.561242 0.714717 0.292363
0.607965 0.720302 0.244388
0.659266 0.724727 0.180117
0.713283 0.728237 0.058473
0.768582 0.731350 0.000000
0.833921 0.746975 0.000000
0.863310 0.734768 0.000000
0.884031 0.717250 0.000000
0.903807 0.700404 0.000000
0.922332 0.683772 0.000000
0.939513 0.667384 0.000000
0.955657 0.651484 0.000000
0.970947 0.636500 0.000000
0.985718 0.628748 0.085756
0.999451 0.630976 0.169986
1.000000 0.635950 0.235080
1.000000 0.644099 0.297704
1.000000 0.655634 0.360845
0.203983 0.816373 0.467170
0.218082 0.818326 0.470436
0.234470 0.820035 0.473487
0.260594 0.820157 0.475746
0.294408 0.818479 0.476753
0.332006 0.814603 0.476844
0.373449 0.808713 0.476783
0.393408 0.802396 0.462867
0.400092 0.795621 0.436683
0.407721 0.787808 0.407355
0.428290 0.777859 0.388220
0.466743 0.764431 0.389136
0.500114 0.748867 0.389776
0.528649 0.732815 0.388495
0.561608 0.739315 0.355993
0.600610 0.744747 0.316228
0.644923 0.749233 0.266880
0.693324 0.752834 0.203372
0.744533 0.756008 0.100252
0.796658 0.759152 0.000000
0.857542 0.773709 0.000000
0.885618 0.762875 0.000000
0.904692 0.746365 0.000000
0.922637 0.729976 0.000000
0.939269 0.713802 0.000000
0.954864 0.697993 0.000000
0.969665 0.683040 0.000000
0.983856 0.669551 0.067659
0.997498 0.659144 0.152102
1.000000 0.662501 0.223117
1.000000 0.668727 0.288060
1.000000 0.678126 0.353185
0.250797 0.841581 0.500603
0.262913 0.843137 0.503593
0.276921 0.844572 0.506828
0.299809 0.844633 0.509392
0.329473 0.843015 0.511162
0.363561 0.839506 0.511833
0.400366 0.834440 0.512779
0.430335 0.828458 0.508171
0.435584 0.822782 0.485023
0.441840 0.816342 0.459297
0.448707 0.808988 0.430915
0.480812 0.797879 0.426978
0.513390 0.784695 0.426734
0.542412 0.769894 0.426917
0.568780 0.762203 0.415839
0.600885 0.768154 0.382788
0.639216 0.773617 0.343481
0.682551 0.778622 0.295964
0.729854 0.783261 0.235721
0.779385 0.787625 0.148775
0.829221 0.791867 0.000000
0.886290 0.806180 0.000000
0.912169 0.795804 0.000000
0.929381 0.780179 0.000000
0.945342 0.764645 0.000000
0.960143 0.749416 0.000000
0.974121 0.734768 0.000000
0.987457 0.721401 0.110109
1.000000 0.709773 0.179385
1.000000 0.700404 0.237125
1.000000 0.702266 0.301091
1.000000 0.709621 0.367132
0.317113 0.871763 0.547082
0.324956 0.872068 0.548608
0.334356 0.872007 0.549950
0.351598 0.870939 0.551019
0.375586 0.868650 0.551934
0.404883 0.865049 0.552941
0.438117 0.860502 0.554711
0.474647 0.854978 0.558038
0.481514 0.850675 0.540368
0.487007 0.845823 0.518456
0.493507 0.840360 0.495125
0.509209 0.832731 0.478248
0.539757 0.821988 0.478157
0.567163 0.809812 0.477546
0.591485 0.796109 0.476875
0.615717 0.795468 0.456092
0.645777 0.800473 0.422400
0.681361 0.805020 0.382300
0.721523 0.809079 0.334203
0.765042 0.812711 0.274449
0.810300 0.815824 0.192691
0.855497 0.818692 0.000000
0.906523 0.829618 0.000000
0.930083 0.819272 0.000000
0.945159 0.803677 0.000000
0.959380 0.788602 0.000000
0.972992 0.774289 0.000000
0.985962 0.761074 0.116243
0.998291 0.749325 0.185916
1.000000 0.739376 0.243565
1.000000 0.731807 0.299260
1.000000 0.731777 0.360815
0.362921 0.890532 0.579675
0.370062 0.890806 0.581262
0.378485 0.890806 0.582910
0.394110 0.889799 0.584497
0.415076 0.887724 0.585931
0.440620 0.884520 0.587396
0.470527 0.880308 0.589654
0.503166 0.875273 0.593225
0.519310 0.870878 0.584955
0.523674 0.866850 0.566278
0.528740 0.862303 0.545525
0.534203 0.857023 0.522759
0.558556 0.848417 0.518547
0.584771 0.838346 0.518120
0.608453 0.827176 0.517479
0.629847 0.815030 0.516564
0.653346 0.820218 0.488655
0.681971 0.824979 0.455329
0.715663 0.829282 0.415747
0.753414 0.833219 0.368231
0.794064 0.836606 0.309728
0.836271 0.839628 0.232395
0.878294 0.842222 0.098634
0.924895 0.851102 0.000000
0.943847 0.837766 0.000000
0.957580 0.823087 0.000000
0.970855 0.809079 0.000000
0.983520 0.795895 0.118624
0.995605 0.784115 0.188083
1.000000 0.773922 0.246952
1.000000 0.765835 0.303624
1.000000 0.760342 0.361151
0.424811 0.911315 0.622400
0.431556 0.911559 0.624445
0.438514 0.911376 0.625879
0.451179 0.910155 0.627283
0.468757 0.907927 0.628565
0.490150 0.904845 0.630152
0.514916 0.900847 0.632197
0.542412 0.896117 0.634974
0.564324 0.891234 0.633539
0.566278 0.887572 0.616571
0.568627 0.883330 0.597436
0.571862 0.878691 0.576806
0.582208 0.872435 0.561547
0.604944 0.863615 0.559594
0.625940 0.853605 0.557244
0.645167 0.842588 0.554833
0.663142 0.836088 0.544732
0.684871 0.840146 0.516014
0.711788 0.844297 0.482856
0.743587 0.848447 0.443671
0.779049 0.852201 0.397284
0.817075 0.855375 0.338964
0.856046 0.857786 0.262577
0.894926 0.859403 0.142245
0.937011 0.865965 0.000000
0.958129 0.856931 0.000000
0.970550 0.842924 0.000000
0.982452 0.829709 0.134646
0.993927 0.817716 0.200046
1.000000 0.807095 0.256626
1.000000 0.798520 0.312749
1.000000 0.792203 0.370428
0.466682 0.924163 0.651728
0.472724 0.924346 0.653620
0.479255 0.924102 0.655177
0.490150 0.923033 0.656672
0.505272 0.921080 0.658137
0.524468 0.918395 0.660060
0.546502 0.914977 0.662593
0.571466 0.910918 0.665888
0.598383 0.906340 0.670375
0.602167 0.903410 0.657893
0.604486 0.900237 0.642329
0.607630 0.896727 0.625391
0.611078 0.892699 0.606928
0.628901 0.885985 0.602747
0.648463 0.878111 0.601190
0.666712 0.869352 0.599512
0.683803 0.859831 0.597986
0.700587 0.859007 0.582391
0.721431 0.862974 0.556054
0.746548 0.866850 0.525078
0.775448 0.870451 0.487037
0.807431 0.873533 0.440101
0.841642 0.875944 0.380896
0.877287 0.877623 0.303990
0.913451 0.878630 0.192752
0.951598 0.883543 0.094026
0.971710 0.875242 0.083436
0.983001 0.862394 0.165042
0.993866 0.850553 0.224186
1.000000 0.840055 0.279454
1.000000 0.831174 0.334081
1.000000 0.824277 0.390784
0.512596 0.936584 0.683375
0.517571 0.936522 0.684810
0.522362 0.936156 0.685756
0.531243 0.935027 0.686885
0.543725 0.933196 0.688106
0.559747 0.930694 0.689662
0.578820 0.927581 0.691981
0.600671 0.923949 0.695155
0.624628 0.919890 0.699550
0.635767 0.916808 0.694728
0.637720 0.914336 0.681880
0.640558 0.911620 0.668086
0.643671 0.908507 0.652857
0.651820 0.904112 0.641444
0.669337 0.897673 0.640101
0.686000 0.890562 0.638544
0.701839 0.882780 0.637201
0.716915 0.874510 0.636408
0.732570 0.877836 0.615747
0.751980 0.881468 0.590692
0.775051 0.884916 0.560876
0.801236 0.887968 0.524071
0.830167 0.890471 0.477058
0.861448 0.892332 0.416724
0.894438 0.893523 0.338415
0.928222 0.894072 0.239384
0.963073 0.897856 0.197574
0.982513 0.890288 0.189090
0.992615 0.878355 0.242161
1.000000 0.867857 0.295140
1.000000 0.858671 0.348760
1.000000 0.851225 0.404059
0.551690 0.946471 0.710292
0.555413 0.946349 0.711330
0.559686 0.945983 0.712184
0.567559 0.945037 0.713405
0.579370 0.943511 0.715236
0.594842 0.941527 0.717952
0.613855 0.939269 0.721950
0.635584 0.936645 0.727199
0.659419 0.933745 0.733639
0.678645 0.931151 0.737209
0.682826 0.929931 0.729549
0.687160 0.928496 0.720912
0.691371 0.926665 0.710872
0.695216 0.924407 0.699489
0.708522 0.920073 0.697292
0.722896 0.914794 0.696651
0.736629 0.908965 0.695949
0.749752 0.902800 0.695460
0.762234 0.899199 0.690883
0.775662 0.902342 0.672084
0.792081 0.905364 0.649744
0.811368 0.908080 0.621912
0.833402 0.910338 0.586633
0.858244 0.912108 0.541497
0.885832 0.913329 0.481758
0.915831 0.913970 0.401770
0.946136 0.914214 0.341100
0.977691 0.916594 0.307927
0.995880 0.909453 0.298650
1.000000 0.898344 0.342779
1.000000 0.888975 0.392584
1.000000 0.880980 0.444953
0.609003 0.958343 0.748104
0.611933 0.958129 0.748836
0.614862 0.957733 0.749325
0.620996 0.956817 0.750240
0.630426 0.955352 0.751766
0.642664 0.953521 0.753872
0.657771 0.951293 0.756832
0.675166 0.948730 0.760769
0.694362 0.945922 0.765621
0.714687 0.942870 0.771328
0.717983 0.941436 0.765194
0.720180 0.939971 0.757198
0.722530 0.938262 0.748226
0.724788 0.936217 0.738125
