data/fiter_cube/49007420/1023418/file.cube
# Created by Adobe Lightroom plugin Export LUT (1.17.0)
# www.johnrellis.com/lightroom/exportlut.htm
# Preset: 02 - 日系情绪-春 [云集]
# Color profile: C:\Program Files (x86)\Common Files\Adobe\Color\Profiles\Recommended\AdobeRGB1998.icc
LUT_3D_SIZE 8
DOMAIN_MIN 0.000000 0.000000 0.000000
DOMAIN_MAX 0.903226 0.903226 0.903226
0.088106 0.081056 0.068177
0.112428 0.080568 0.070314
0.221927 0.034852 0.070283
0.419318 0.000000 0.060670
0.638636 0.000000 0.018006
0.811368 0.000000 0.025635
0.942290 0.000000 0.132448
1.000000 0.166049 0.266270
0.091524 0.107485 0.075227
0.112428 0.101778 0.068605
0.219394 0.087617 0.066773
0.405921 0.000000 0.050782
0.621790 0.000000 0.000000
0.797757 0.000000 0.000000
0.932403 0.000000 0.114626
1.000000 0.184360 0.249607
0.073457 0.244511 0.105959
0.111452 0.222690 0.084443
0.230259 0.211582 0.029206
0.429816 0.186740 0.000000
0.633356 0.150637 0.000000
0.814694 0.135134 0.000000
0.946990 0.217716 0.104585
1.000000 0.328344 0.259342
0.000000 0.474647 0.194644
0.134310 0.455970 0.183078
0.237736 0.383642 0.141360
0.470039 0.444007 0.000000
0.710231 0.443732 0.000000
0.846464 0.402136 0.000000
0.947845 0.412696 0.000000
1.000000 0.449989 0.236362
0.000000 0.705440 0.349310
0.173556 0.694362 0.339818
0.276738 0.657527 0.253574
0.450050 0.618708 0.227573
0.687526 0.652522 0.000000
0.850278 0.624170 0.000000
0.937224 0.561242 0.000000
1.000000 0.571801 0.196475
0.250797 0.841581 0.500603
0.329473 0.843015 0.511162
0.435584 0.822782 0.485023
0.513390 0.784695 0.426734
0.639216 0.773617 0.343481
0.829221 0.791867 0.000000
0.945342 0.764645 0.000000
1.000000 0.709773 0.179385
0.466682 0.924163 0.651728
0.505272 0.921080 0.658137
0.598383 0.906340 0.670375
0.611078 0.892699 0.606928
0.683803 0.859831 0.597986
0.775448 0.870451 0.487037
0.913451 0.878630 0.192752
0.993866 0.850553 0.224186
0.644312 0.965789 0.771328
0.663294 0.963134 0.774990
0.720882 0.955047 0.789029
0.752743 0.948577 0.781582
0.762264 0.933745 0.746578
0.807431 0.924010 0.738949
0.867826 0.933684 0.644678
0.963378 0.936004 0.470619
0.093538 0.087892 0.086305
0.114015 0.082460 0.082765
0.216648 0.067048 0.074830
0.401678 0.000000 0.053254
0.616663 0.000000 0.000000
0.792081 0.000000 0.000000
0.926726 0.000000 0.110719
1.000000 0.125826 0.240421
0.091188 0.111696 0.096132
0.122377 0.108949 0.092622
0.224674 0.100221 0.079072
0.401984 0.016938 0.039490
0.612299 0.000000 0.000000
0.787137 0.000000 0.000000
0.918669 0.000000 0.094881
0.999084 0.149691 0.224155
0.054047 0.253941 0.143374
0.136416 0.238499 0.134005
0.241184 0.219547 0.090181
0.424140 0.195041 0.000000
0.619806 0.173251 0.000000
0.797726 0.159274 0.000000
0.925475 0.199405 0.063935
1.000000 0.299199 0.226413
0.000000 0.469581 0.228946
0.130861 0.455634 0.218906
0.255680 0.398627 0.178500
0.451484 0.423651 0.000000
0.667018 0.414466 0.000000
0.809628 0.377417 0.000000
0.924651 0.387976 0.000000
0.998993 0.426886 0.201266
0.000000 0.703944 0.379431
0.164736 0.691493 0.367132
0.306279 0.652430 0.304082
0.441016 0.597192 0.261418
0.663508 0.628473 0.000000
0.831937 0.607965 0.000000
0.925811 0.549279 0.000000
0.996887 0.560388 0.171389
0.231998 0.834501 0.509819
0.297002 0.829282 0.508141
0.436988 0.808591 0.498634
0.505760 0.774075 0.432898
0.632319 0.762753 0.370550
0.824063 0.786954 0.113375
0.941283 0.760159 0.000000
0.996490 0.703334 0.158053
0.435615 0.918303 0.644282
0.468055 0.913298 0.644495
0.570489 0.899382 0.656825
0.608087 0.885893 0.611566
0.680293 0.855558 0.600977
0.769741 0.864073 0.501671
0.905852 0.871824 0.237583
0.989288 0.843381 0.190311
0.626032 0.964599 0.766415
0.648096 0.962280 0.771206
0.709651 0.954192 0.785550
0.753231 0.946777 0.785092
0.774685 0.937072 0.764492
0.812955 0.924834 0.753567
0.867094 0.932464 0.659113
0.962127 0.934081 0.457923
0.094148 0.105379 0.165011
0.130983 0.098024 0.180301
0.251743 0.059113 0.174105
0.447669 0.000000 0.145968
0.641627 0.000000 0.106996
0.805509 0.000000 0.000000
0.937041 0.000000 0.111147
1.000000 0.203616 0.252323
0.110170 0.136507 0.157778
0.136263 0.135988 0.181125
0.257755 0.117647 0.185885
0.442695 0.000000 0.152193
0.635767 0.000000 0.114443
0.803647 0.000000 0.000000
0.931304 0.025940 0.096956
1.000000 0.227115 0.242405
0.067079 0.243381 0.229770
0.128511 0.245090 0.228763
0.276402 0.248905 0.225498
0.456947 0.234531 0.190158
0.652796 0.220920 0.133486
0.815396 0.232639 0.000000
0.931975 0.258213 0.056825
1.000000 0.323339 0.230991
0.000000 0.536553 0.387701
0.000000 0.526177 0.371344
0.316594 0.477119 0.325139
0.491188 0.458412 0.252384
0.688655 0.429419 0.165743
0.826841 0.412390 0.000000
0.934051 0.418921 0.000000
1.000000 0.445716 0.214115
0.000000 0.730861 0.487160
0.000000 0.722438 0.478157
0.367620 0.689662 0.454505
0.494697 0.624567 0.404700
0.688869 0.652949 0.282750
0.838834 0.618494 0.137270
0.930846 0.564904 0.000000
0.999176 0.568200 0.180453
0.187808 0.847807 0.580072
0.277073 0.842527 0.578912
0.450111 0.821256 0.574823
0.543114 0.788052 0.521965
0.647608 0.760037 0.487526
0.820401 0.786404 0.340764
0.936950 0.760311 0.145052
0.998199 0.706813 0.168215
0.431525 0.925780 0.687831
0.468635 0.921294 0.688777
0.568597 0.906828 0.693446
0.655238 0.887633 0.685054
0.699458 0.861234 0.651209
0.777768 0.863523 0.593805
0.904784 0.876463 0.423774
0.993500 0.848844 0.221134
0.611780 0.968231 0.780911
0.629511 0.965515 0.782132
0.693599 0.956878 0.792691
0.775509 0.946624 0.814328
0.784817 0.938628 0.786404
0.822599 0.923735 0.784268
0.870451 0.932616 0.716335
0.961456 0.935668 0.511101
0.078035 0.139223 0.287816
0.117739 0.134859 0.313664
0.316899 0.108217 0.396155
0.487526 0.000000 0.365698
0.688869 0.000000 0.329290
0.828733 0.000000 0.241062
0.931823 0.123873 0.218173
1.000000 0.209354 0.244846
0.119661 0.180484 0.286107
0.138064 0.175021 0.313603
0.309422 0.169345 0.393622
0.493874 0.108339 0.378912
0.687190 0.000000 0.337102
0.823911 0.000000 0.262455
0.928679 0.181216 0.221653
1.000000 0.234257 0.239780
0.113954 0.239902 0.287144
0.149630 0.242679 0.288090
0.272160 0.273411 0.359228
0.500114 0.292668 0.410040
0.691646 0.274327 0.371527
0.825834 0.322911 0.339727
0.938750 0.336034 0.261967
1.000000 0.340032 0.244724
0.000000 0.446204 0.443702
0.007202 0.447761 0.443488
0.275517 0.457282 0.447608
0.513664 0.482856 0.466682
0.687556 0.474464 0.426276
0.823575 0.467720 0.371740
0.930480 0.459266 0.282536
1.000000 0.450599 0.223301
0.000000 0.757412 0.648676
0.000000 0.757443 0.646021
0.290990 0.740780 0.620905
0.564019 0.687922 0.579858
0.702510 0.672694 0.519738
0.833036 0.633722 0.435096
0.928496 0.601221 0.337377
1.000000 0.572564 0.196353
0.000000 0.875914 0.700008
0.221805 0.875120 0.702083
0.433265 0.853513 0.687129
0.619043 0.819242 0.677241
0.692134 0.771633 0.642756
0.822538 0.798581 0.567742
0.925780 0.770565 0.458320
0.998047 0.709010 0.262119
0.395575 0.936522 0.749599
0.442695 0.933196 0.750881
0.559228 0.921416 0.753658
0.685054 0.902281 0.760098
0.738521 0.879942 0.733639
0.795651 0.867887 0.708339
0.898558 0.881071 0.613428
0.984344 0.853727 0.445716
0.602594 0.974792 0.813382
0.624231 0.972625 0.815122
0.682826 0.965209 0.819181
0.762966 0.953399 0.829557
0.810788 0.941619 0.827726
0.835843 0.927794 0.816739
0.875486 0.932464 0.781003
0.953063 0.937346 0.661677
0.000000 0.191165 0.438636
0.076844 0.184634 0.463294
0.288457 0.190127 0.541039
0.600732 0.155520 0.665888
0.715206 0.076783 0.595331
0.851926 0.171145 0.551446
0.938598 0.189517 0.468971
1.000000 0.286748 0.408698
0.112947 0.230655 0.432471
0.124056 0.222843 0.458381
0.285130 0.227268 0.536767
0.589380 0.230137 0.659876
0.715694 0.193515 0.602594
0.849912 0.247166 0.559747
0.936309 0.253758 0.478859
0.999817 0.340734 0.428779
0.131411 0.264347 0.362737
0.162295 0.279667 0.393927
0.267308 0.309575 0.498512
0.548241 0.368841 0.637354
0.710750 0.371801 0.619776
0.836118 0.391028 0.576196
0.925231 0.383062 0.502922
0.989593 0.442359 0.464302
0.061006 0.390845 0.463355
0.128145 0.390875 0.462013
0.251926 0.395727 0.461830
0.468574 0.469734 0.572107
0.706203 0.548272 0.651057
0.822171 0.544366 0.612055
0.906462 0.556664 0.573144
0.991608 0.501244 0.447395
0.000000 0.622644 0.633936
0.000000 0.624262 0.634882
0.270970 0.628351 0.636896
0.487434 0.641169 0.647211
0.691249 0.668757 0.671077
0.807095 0.659937 0.638453
0.904326 0.646754 0.585382
0.986572 0.606897 0.467903
0.000000 0.847318 0.771084
0.000000 0.847532 0.771298
0.332036 0.846586 0.770565
0.552392 0.838956 0.765103
0.711208 0.795956 0.732021
0.810208 0.794644 0.704005
0.903807 0.772488 0.647150
0.978759 0.731014 0.538506
0.319188 0.948516 0.822538
0.371160 0.944732 0.820493
0.503990 0.932738 0.814908
0.645411 0.915007 0.808011
0.759548 0.892027 0.802457
0.804410 0.862455 0.781949
0.889006 0.880613 0.736599
0.964813 0.855436 0.639704
0.552514 0.980865 0.846159
0.574975 0.978546 0.846036
0.641138 0.971069 0.846036
0.734127 0.961761 0.851133
0.811521 0.948150 0.855100
0.845365 0.934630 0.844266
0.878813 0.930175 0.829374
0.944335 0.936767 0.765438
0.000000 0.268589 0.616693
0.000000 0.257481 0.633600
0.291142 0.273533 0.685664
0.551232 0.306126 0.765377
0.791287 0.361120 0.828275
0.849088 0.331701 0.758267
0.930449 0.427710 0.724239
0.989654 0.428962 0.658686
0.096254 0.296635 0.599390
0.117617 0.288457 0.616449
0.280522 0.292973 0.671534
0.537407 0.331609 0.753292
0.785946 0.400305 0.824399
0.844327 0.371038 0.757504
0.926818 0.455909 0.726955
0.986877 0.452125 0.662898
0.138338 0.347082 0.552087
0.175235 0.354498 0.573297
0.274571 0.363867 0.643977
0.512474 0.415503 0.735775
0.778744 0.523888 0.823178
0.839475 0.498665 0.770077
0.919310 0.549065 0.744930
0.979675 0.531579 0.684565
0.096284 0.394018 0.517906
0.136080 0.389960 0.511803
0.234958 0.400244 0.528405
0.456977 0.491524 0.687160
0.743099 0.624292 0.806088
0.837797 0.642084 0.793973
0.911223 0.658350 0.772061
0.970672 0.628473 0.714473
0.000000 0.562799 0.649744
0.083101 0.561639 0.648157
0.242466 0.557824 0.642481
0.392462 0.553857 0.634028
0.635950 0.636011 0.728847
0.822080 0.726986 0.798550
0.895781 0.722896 0.774899
0.954162 0.716243 0.739162
0.000000 0.753933 0.770230
0.161349 0.755978 0.772061
0.320348 0.756252 0.771817
0.488563 0.758267 0.772946
0.651026 0.766262 0.778714
0.807187 0.797971 0.804257
0.886229 0.795407 0.786770
0.955077 0.777188 0.742214
0.326452 0.923613 0.862089
0.371466 0.923491 0.862821
0.481056 0.920989 0.862821
0.614801 0.918944 0.864347
0.741238 0.916228 0.865141
0.830838 0.889433 0.847410
0.887449 0.885466 0.828214
0.949615 0.863493 0.781582
0.510521 0.989990 0.892241
0.532799 0.988556 0.892027
0.606317 0.981323 0.889403
0.701595 0.971191 0.886473
0.787167 0.959014 0.882444
0.858122 0.944610 0.880674
0.887114 0.928649 0.871244
0.940551 0.938384 0.842679
0.173770 0.373877 0.769100
0.200076 0.367834 0.779507
0.347845 0.378180 0.803708
0.549279 0.416968 0.839841
0.749630 0.484016 0.875853
0.878416 0.527703 0.891814
0.915435 0.502586 0.844968
0.968750 0.561334 0.816800
0.190677 0.390417 0.754025
0.213596 0.385290 0.764828
0.330632 0.384894 0.792020
0.534417 0.423987 0.830228
0.739162 0.492927 0.869413
0.872923 0.540703 0.887938
0.909972 0.511986 0.840909
0.964996 0.564202 0.813138
0.211276 0.442908 0.729213
0.250004 0.447242 0.740291
0.326818 0.440131 0.772457
0.512963 0.472999 0.817350
0.725643 0.552239 0.861173
0.870451 0.623011 0.887968
0.907073 0.597772 0.848936
0.961456 0.637659 0.828000
0.113771 0.464332 0.658473
0.155978 0.467964 0.668391
0.279881 0.488136 0.711055
0.463874 0.526207 0.784817
0.694118 0.612238 0.845426
0.870268 0.722560 0.890654
0.903807 0.698085 0.860472
0.955993 0.717678 0.843992
0.035279 0.567285 0.710750
0.108370 0.561456 0.704829
0.206363 0.544396 0.687465
0.307408 0.516655 0.659571
0.594995 0.621241 0.794278
0.832822 0.754208 0.873075
0.895232 0.768551 0.865232
0.948638 0.777462 0.852750
0.158572 0.719020 0.800320
0.195377 0.717189 0.798825
0.286748 0.710750 0.793362
0.397406 0.699184 0.783413
0.515221 0.678523 0.763455
0.747585 0.751034 0.827329
0.893278 0.839597 0.876890
0.942504 0.832029 0.861265
0.331914 0.860105 0.864622
0.359380 0.860349 0.864866
0.434485 0.858854 0.863890
0.537041 0.857298 0.862852
0.650263 0.855009 0.860838
0.769711 0.858640 0.862272
0.882170 0.882261 0.878325
0.937530 0.877440 0.865202
0.507713 0.967407 0.911772
0.525505 0.966766 0.911650
0.588067 0.965362 0.912322
0.669734 0.962676 0.912413
0.759213 0.960082 0.913024
0.843870 0.958892 0.914702
0.902770 0.943511 0.905852
0.940948 0.940978 0.894011
0.418158 0.532616 0.878355
0.430945 0.529015 0.881437
0.493294 0.528496 0.887358
0.615961 0.555138 0.898161
0.746395 0.594079 0.911040
0.862913 0.645624 0.924681
0.931762 0.646448 0.927520
0.957458 0.614740 0.893217
0.418341 0.542351 0.873106
0.431037 0.539208 0.876341
0.483375 0.532494 0.883787
0.607416 0.558709 0.894804
0.741115 0.599390 0.908537
0.859434 0.652705 0.922850
0.929412 0.655756 0.926146
0.955261 0.623041 0.892302
0.421698 0.578637 0.861112
0.443122 0.580560 0.864317
0.475990 0.565026 0.872709
0.592187 0.584833 0.888853
0.731106 0.628321 0.903685
0.851774 0.683925 0.919036
0.925658 0.700160 0.924743
0.951507 0.668696 0.894255
0.337774 0.600671 0.838865
0.364813 0.603510 0.843076
0.448096 0.610651 0.854032
0.558679 0.620142 0.874846
0.705135 0.660609 0.895079
0.838773 0.725277 0.913787
0.922362 0.763272 0.924498
0.947601 0.734401 0.899077
0.258854 0.646143 0.821897
0.272068 0.643641 0.820523
0.304601 0.628443 0.811887
0.445533 0.639521 0.839597
0.636042 0.675593 0.874846
0.805692 0.747311 0.902953
0.918700 0.820523 0.924529
0.943633 0.799527 0.904875
0.335180 0.752468 0.865263
0.342046 0.748989 0.863279
0.368414 0.737789 0.856840
0.412543 0.717128 0.845182
0.466407 0.679255 0.822049
0.731838 0.752132 0.880674
0.902037 0.855955 0.920226
0.943786 0.863981 0.914611
0.461921 0.859739 0.902007
0.470344 0.858610 0.901366
0.499580 0.854734 0.899229
0.550072 0.848417 0.895872
0.613458 0.837308 0.889586
0.681971 0.816373 0.876585
0.839933 0.849302 0.895933
0.943481 0.908995 0.922087
0.559533 0.935088 0.923400
0.567468 0.934569 0.923095
0.597742 0.933318 0.922515
0.650721 0.931884 0.921965
0.716487 0.929961 0.920989
0.787930 0.928099 0.919493
0.861479 0.928161 0.918425
0.939605 0.940124 0.925719
