data/fiter_cube/59424107/1023394/file.cube
# Created by Adobe Lightroom plugin Export LUT (1.17.0)
# www.johnrellis.com/lightroom/exportlut.htm
# Preset: 怀旧和清澈_01 云集
# Color profile: C:\Program Files (x86)\Common Files\Adobe\Color\Profiles\Recommended\AdobeRGB1998.icc
LUT_3D_SIZE 32
DOMAIN_MIN 0.0 0.0 0.0
DOMAIN_MAX 1.0 1.0 1.0
0.065309 0.073732 0.065278
0.067109 0.073854 0.065614
0.069429 0.074281 0.065522
0.076722 0.074983 0.065248
0.090791 0.076417 0.065431
0.115358 0.077516 0.064607
0.150149 0.076600 0.063294
0.193759 0.072023 0.060304
0.246830 0.058686 0.054414
0.309483 0.000000 0.039918
0.379339 0.000000 0.014984
0.451209 0.000000 0.000000
0.520653 0.000000 0.000000
0.583612 0.000000 0.000000
0.639002 0.000000 0.000000
0.687282 0.000000 0.000000
0.729458 0.000000 0.000000
0.768521 0.000000 0.000000
0.801053 0.000000 0.000000
0.829892 0.000000 0.000000
0.855833 0.106294 0.000000
0.879423 0.156252 0.000000
0.900908 0.195010 0.000000
0.920684 0.228550 0.000000
0.939208 0.259281 0.000000
0.956817 0.287907 0.000000
0.973754 0.315129 0.000000
0.990204 0.341558 0.000000
1.000000 0.367041 0.000000
1.000000 0.392401 0.000000
1.000000 0.417639 0.000000
1.000000 0.443030 0.000000
0.064973 0.075319 0.065553
0.066865 0.075410 0.065492
0.069581 0.075746 0.065766
0.076326 0.076875 0.065858
0.090486 0.078584 0.065614
0.115114 0.080049 0.064790
0.149722 0.079957 0.063386
0.193149 0.076509 0.060334
0.245853 0.065156 0.053681
0.308476 0.013550 0.038697
0.377600 0.000000 0.015015
0.449409 0.000000 0.000000
0.518517 0.000000 0.000000
0.581628 0.000000 0.000000
0.637110 0.000000 0.000000
0.685389 0.000000 0.000000
0.727749 0.000000 0.000000
0.766323 0.000000 0.000000
0.798611 0.000000 0.000000
0.827573 0.010376 0.000000
0.853574 0.113497 0.000000
0.877287 0.160555 0.000000
0.898924 0.197726 0.000000
0.918914 0.230747 0.000000
0.937591 0.260777 0.000000
0.955291 0.288975 0.000000
0.972442 0.315892 0.000000
0.988983 0.342382 0.000000
1.000000 0.368048 0.000000
1.000000 0.393072 0.000000
1.000000 0.418128 0.000000
1.000000 0.443427 0.000000
0.064393 0.077150 0.066560
0.065858 0.077333 0.066499
0.068605 0.078004 0.066346
0.075898 0.079408 0.066011
0.090394 0.081697 0.065675
0.114687 0.083833 0.065187
0.149203 0.084474 0.063355
0.192569 0.082002 0.060670
0.245304 0.072938 0.053254
0.307134 0.041932 0.038056
0.376715 0.000000 0.014038
0.448402 0.000000 0.000000
0.517418 0.000000 0.000000
0.580621 0.000000 0.000000
0.635920 0.000000 0.000000
0.684413 0.000000 0.000000
0.727077 0.000000 0.000000
0.764981 0.000000 0.000000
0.797360 0.000000 0.000000
0.826230 0.064790 0.000000
0.852384 0.126406 0.000000
0.876127 0.168338 0.000000
0.897887 0.204501 0.000000
0.917906 0.235538 0.000000
0.936645 0.265293 0.000000
0.954467 0.292912 0.000000
0.971649 0.319371 0.000000
0.988281 0.345312 0.000000
1.000000 0.370428 0.000000
1.000000 0.395300 0.000000
1.000000 0.420050 0.000000
1.000000 0.445014 0.000000
0.063600 0.082063 0.068025
0.065461 0.082490 0.068330
0.066957 0.082979 0.067445
0.073548 0.084413 0.067109
0.089021 0.088350 0.066590
0.114687 0.092714 0.065370
0.149111 0.094697 0.063355
0.192813 0.094179 0.059968
0.245487 0.088838 0.052308
0.307622 0.073823 0.036011
0.376715 0.015320 0.011353
0.448035 0.000000 0.000000
0.516838 0.000000 0.000000
0.579889 0.000000 0.000000
0.635248 0.000000 0.000000
0.683589 0.000000 0.000000
0.726375 0.000000 0.000000
0.763760 0.000000 0.000000
0.795621 0.020294 0.000000
0.824277 0.107454 0.000000
0.850309 0.150484 0.000000
0.874113 0.186526 0.000000
0.896056 0.218448 0.000000
0.916442 0.248356 0.000000
0.935546 0.276219 0.000000
0.953735 0.302922 0.000000
0.971130 0.328435 0.000000
0.987915 0.353704 0.000000
1.000000 0.378027 0.000000
1.000000 0.402014 0.000000
1.000000 0.425971 0.000000
1.000000 0.450141 0.000000
0.061616 0.090394 0.070649
0.062989 0.091157 0.070893
0.065370 0.092073 0.070741
0.069581 0.093935 0.068879
0.083192 0.096437 0.067750
0.110536 0.104494 0.065614
0.147555 0.110689 0.062806
0.192294 0.113069 0.058900
0.245090 0.110964 0.049622
0.307195 0.103426 0.031220
0.376043 0.086458 0.005310
0.447456 0.053071 0.000000
0.515984 0.000000 0.000000
0.578943 0.000000 0.000000
0.634394 0.000000 0.000000
0.682948 0.000000 0.000000
0.726253 0.000000 0.000000
0.763180 0.080385 0.000000
0.794888 0.119905 0.000000
0.823392 0.154208 0.000000
0.849241 0.184665 0.000000
0.873014 0.214389 0.000000
0.894926 0.241917 0.000000
0.915343 0.268284 0.000000
0.934569 0.293950 0.000000
0.952789 0.318120 0.000000
0.970245 0.342260 0.000000
0.987091 0.365484 0.000000
1.000000 0.388647 0.000000
1.000000 0.411658 0.000000
1.000000 0.434516 0.000000
1.000000 0.457984 0.000000
0.056306 0.104311 0.075135
0.058747 0.105196 0.075013
0.061067 0.106477 0.074800
0.066377 0.109194 0.072908
0.074586 0.113130 0.069612
0.099031 0.117189 0.066957
0.140139 0.129183 0.062593
0.187442 0.136446 0.057404
0.246067 0.140810 0.043427
0.308568 0.138064 0.023468
0.377813 0.130556 0.000000
0.448981 0.119387 0.000000
0.517327 0.106142 0.000000
0.579950 0.097932 0.000000
0.635187 0.099641 0.000000
0.683436 0.111055 0.000000
0.726772 0.132326 0.000000
0.763272 0.155062 0.000000
0.794797 0.177890 0.000000
0.823178 0.200839 0.000000
0.849058 0.224918 0.000000
0.872923 0.248783 0.000000
0.905852 0.288853 0.000000
0.925170 0.310735 0.000000
0.943297 0.332036 0.000000
0.960479 0.352758 0.000000
0.976989 0.373205 0.000000
0.992920 0.393530 0.000000
1.000000 0.413916 0.000000
1.000000 0.434546 0.000000
1.000000 0.455573 0.000000
1.000000 0.476997 0.000000
0.039704 0.126528 0.081849
0.041413 0.127657 0.081666
0.046906 0.129274 0.081086
0.055268 0.132845 0.079194
0.063661 0.138216 0.070985
0.085847 0.143679 0.068513
0.123384 0.148470 0.064698
0.179751 0.164248 0.053712
0.239384 0.172824 0.036561
0.312596 0.179873 0.007019
0.387396 0.180575 0.000000
0.458930 0.176944 0.000000
0.526757 0.173617 0.000000
0.587854 0.173770 0.000000
0.641627 0.179141 0.000000
0.690059 0.189731 0.000000
0.732174 0.203799 0.000000
0.767849 0.218936 0.000000
0.798917 0.235996 0.000000
0.827207 0.254032 0.000000
0.853361 0.273564 0.000000
0.877684 0.293950 0.000000
0.900206 0.314855 0.000000
0.921080 0.335363 0.000000
0.940398 0.355413 0.000000
0.958251 0.374426 0.000000
0.975097 0.393347 0.000000
0.991211 0.411810 0.000000
1.000000 0.430304 0.000000
1.000000 0.449470 0.000000
1.000000 0.468940 0.000000
1.000000 0.489235 0.000000
0.006592 0.154818 0.090974
0.009583 0.156161 0.090181
0.013245 0.157931 0.089601
0.022675 0.161685 0.086946
0.048432 0.167575 0.082399
0.065248 0.174899 0.069795
0.103029 0.181369 0.066438
0.152590 0.186038 0.059907
0.223758 0.205447 0.030091
0.294682 0.216281 0.000000
0.376013 0.226596 0.000000
0.460426 0.236576 0.000000
0.528008 0.236912 0.000000
0.588769 0.239902 0.000000
0.642237 0.245121 0.000000
0.691096 0.254765 0.000000
0.731899 0.264958 0.000000
0.766812 0.275700 0.000000
0.797482 0.287510 0.000000
0.825589 0.300908 0.000000
0.851530 0.316106 0.000000
0.875761 0.332586 0.000000
0.898192 0.349401 0.000000
0.919005 0.366735 0.000000
0.938323 0.383459 0.000000
0.956298 0.400000 0.000000
0.973205 0.416358 0.000000
0.989441 0.432685 0.000000
1.000000 0.449714 0.000000
1.000000 0.467018 0.000000
1.000000 0.485176 0.000000
1.000000 0.504082 0.000000
0.000000 0.190738 0.102113
0.000000 0.192172 0.101137
0.000000 0.194186 0.100313
0.000000 0.197971 0.097322
0.000000 0.204410 0.092531
0.029328 0.212039 0.081239
0.072541 0.221530 0.068574
0.127138 0.228458 0.062074
0.188968 0.232273 0.045075
0.275425 0.256352 0.000000
0.355779 0.269780 0.000000
0.440681 0.283452 0.000000
0.523003 0.298161 0.000000
0.590723 0.307683 0.000000
0.645533 0.313603 0.000000
0.692561 0.319921 0.000000
0.732357 0.326543 0.000000
0.766690 0.333440 0.000000
0.796902 0.341253 0.000000
0.824674 0.350744 0.000000
0.850431 0.362280 0.000000
0.874449 0.374609 0.000000
0.896757 0.387762 0.000000
0.917449 0.401495 0.000000
0.936706 0.415198 0.000000
0.954650 0.428626 0.000000
0.971588 0.442695 0.000000
0.987823 0.457038 0.000000
1.000000 0.471962 0.000000
1.000000 0.487495 0.000000
1.000000 0.503868 0.000000
1.000000 0.521386 0.000000
0.000000 0.234592 0.115236
0.000000 0.236118 0.114321
0.000000 0.237858 0.112917
0.000000 0.241886 0.109712
0.000000 0.248356 0.104799
0.000000 0.256504 0.098238
0.000000 0.267033 0.072633
0.087190 0.278599 0.065949
0.159457 0.284428 0.049165
0.232456 0.287602 0.010559
0.332403 0.314519 0.000000
0.417670 0.330053 0.000000
0.501274 0.345708 0.000000
0.579095 0.363409 0.000000
0.646876 0.382208 0.000000
0.694209 0.386725 0.000000
0.733608 0.389868 0.000000
0.767514 0.392981 0.000000
0.797330 0.396918 0.000000
0.824643 0.402441 0.000000
0.849943 0.409827 0.000000
0.873350 0.418036 0.000000
0.895140 0.427100 0.000000
0.915465 0.437110 0.000000
0.934478 0.447852 0.000000
0.952422 0.458869 0.000000
0.969482 0.470558 0.000000
0.985840 0.482734 0.000000
1.000000 0.496010 0.000000
1.000000 0.509880 0.000000
1.000000 0.524956 0.000000
1.000000 0.541161 0.000000
0.000000 0.285405 0.130129
0.000000 0.286748 0.129305
0.000000 0.288823 0.127749
0.000000 0.293126 0.124575
0.000000 0.299596 0.119326
0.000000 0.308141 0.112398
0.000000 0.318791 0.102724
0.000000 0.331731 0.066407
0.113558 0.344152 0.059602
0.200137 0.348211 0.015106
0.283452 0.349676 0.000000
0.392432 0.377234 0.000000
0.479561 0.394659 0.000000
0.559869 0.412207 0.000000
0.629419 0.429084 0.000000
0.688045 0.444221 0.000000
0.733700 0.452247 0.000000
0.767086 0.451484 0.000000
0.796658 0.451514 0.000000
0.823728 0.453498 0.000000
0.848722 0.456886 0.000000
0.872038 0.461769 0.000000
0.893767 0.468055 0.000000
0.913970 0.475227 0.000000
0.932982 0.482948 0.000000
0.950805 0.491493 0.000000
0.967742 0.500603 0.000000
0.984100 0.510826 0.000000
0.999969 0.521874 0.000000
1.000000 0.533898 0.000000
1.000000 0.547234 0.000000
1.000000 0.562005 0.000000
0.000000 0.343908 0.147585
0.000000 0.345098 0.146395
0.000000 0.347112 0.144991
0.000000 0.351110 0.141817
0.000000 0.357641 0.136324
0.000000 0.366064 0.129732
0.000000 0.376501 0.122713
0.000000 0.389166 0.095125
0.008728 0.403113 0.063050
0.153231 0.413855 0.039155
0.249699 0.415686 0.000000
0.341222 0.416266 0.000000
0.471168 0.458839 0.000000
0.554925 0.475868 0.000000
0.626520 0.490608 0.000000
0.686397 0.502434 0.000000
0.735653 0.511589 0.000000
0.776944 0.518975 0.000000
0.806577 0.517082 0.000000
0.832090 0.514427 0.000000
0.855711 0.513787 0.000000
0.877653 0.514672 0.000000
0.898161 0.516960 0.000000
0.917418 0.520317 0.000000
0.935607 0.525048 0.000000
0.952850 0.530510 0.000000
0.969238 0.537011 0.000000
0.985077 0.544610 0.000000
1.000000 0.553246 0.000000
1.000000 0.563195 0.000000
1.000000 0.574456 0.000000
1.000000 0.587335 0.000000
0.000000 0.412055 0.169589
0.000000 0.413336 0.168643
0.000000 0.414771 0.166690
0.000000 0.418189 0.163424
0.000000 0.423713 0.158083
0.000000 0.430762 0.151369
0.000000 0.439948 0.144350
0.000000 0.450813 0.137301
0.000000 0.465064 0.078279
0.084260 0.479103 0.062806
0.207034 0.488960 0.019074
0.314122 0.491279 0.000000
0.410986 0.491157 0.000000
0.522118 0.513298 0.000000
0.601801 0.530327 0.000000
0.665766 0.541466 0.000000
0.718227 0.548913 0.000000
0.761837 0.554711 0.000000
0.799039 0.559625 0.000000
0.830259 0.562799 0.000000
0.853666 0.559075 0.000000
0.875547 0.557214 0.000000
0.895903 0.556878 0.000000
0.915068 0.557855 0.000000
0.933165 0.560174 0.000000
0.950347 0.563500 0.000000
0.966766 0.568017 0.000000
0.982574 0.573693 0.000000
0.998047 0.580591 0.000000
1.000000 0.588983 0.000000
1.000000 0.598749 0.000000
1.000000 0.610224 0.087251
0.000000 0.473884 0.192966
0.000000 0.475013 0.191775
0.000000 0.476509 0.190066
0.000000 0.479377 0.187045
0.000000 0.483955 0.181613
0.000000 0.490211 0.175509
0.000000 0.498482 0.169314
0.000000 0.507988 0.162722
0.000000 0.519677 0.142061
0.000000 0.535790 0.078981
0.146334 0.550591 0.078218
0.269993 0.554589 0.026398
0.376379 0.552911 0.000000
0.469184 0.549035 0.000000
0.568414 0.562921 0.000000
0.643275 0.578119 0.000000
0.699062 0.584497 0.000000
0.745296 0.588800 0.000000
0.784909 0.592523 0.000000
0.819333 0.596368 0.000000
0.849729 0.600488 0.000000
0.873564 0.599756 0.000000
0.893858 0.596948 0.000000
0.912963 0.595911 0.000000
0.931029 0.596033 0.000000
0.948150 0.597375 0.000000
0.964538 0.599908 0.000000
0.980346 0.603845 0.000000
0.995758 0.609186 0.000000
1.000000 0.615869 0.000000
1.000000 0.624323 0.093812
1.000000 0.634363 0.141848
0.000000 0.533410 0.219852
0.000000 0.534508 0.218845
0.000000 0.535515 0.217044
0.000000 0.538079 0.213993
0.000000 0.541802 0.209415
0.000000 0.547265 0.203708
0.000000 0.554376 0.198032
0.000000 0.563653 0.192935
0.000000 0.573602 0.188540
0.000000 0.586389 0.143313
0.052125 0.599725 0.104372
0.214664 0.611658 0.107179
0.335790 0.609369 0.067720
0.436286 0.604700 0.000000
0.521965 0.598108 0.000000
0.609186 0.605921 0.000000
0.678523 0.618616 0.000000
0.727840 0.621820 0.000000
0.769833 0.624353 0.000000
0.806424 0.626978 0.000000
0.838437 0.629938 0.000000
0.866880 0.633173 0.000000
0.891814 0.636469 0.000000
0.910826 0.633356 0.000000
0.928801 0.631556 0.000000
0.945953 0.631281 0.000000
0.962371 0.632349 0.000000
0.978302 0.634913 0.010742
0.993805 0.638849 0.082551
1.000000 0.644434 0.120058
1.000000 0.651606 0.155306
1.000000 0.660639 0.193423
0.000000 0.588464 0.250736
0.000000 0.589593 0.249577
0.000000 0.590661 0.248356
0.000000 0.593225 0.245945
0.000000 0.597223 0.242008
0.000000 0.602441 0.237400
0.000000 0.608698 0.232792
0.000000 0.616175 0.228458
0.000000 0.624353 0.225315
0.000000 0.632929 0.217990
0.000000 0.644984 0.149050
0.167086 0.654688 0.139956
0.288304 0.660304 0.137972
0.398199 0.654505 0.102449
0.489631 0.647181 0.021363
0.566339 0.638911 0.000000
0.643427 0.641810 0.000000
0.708309 0.652918 0.000000
0.753658 0.654902 0.000000
0.792752 0.656916 0.000000
0.826871 0.659022 0.000000
0.856992 0.661433 0.000000
0.883543 0.664271 0.000000
0.907439 0.667567 0.000000
0.927245 0.667811 0.074586
0.944305 0.665949 0.091127
0.960632 0.665431 0.109651
0.976440 0.666438 0.129793
0.991760 0.669001 0.152804
1.000000 0.672908 0.177157
1.000000 0.678584 0.205631
1.000000 0.686275 0.239384
0.000000 0.638819 0.284459
0.000000 0.639521 0.283391
0.000000 0.640436 0.282353
0.000000 0.642359 0.280003
0.000000 0.645472 0.276616
0.000000 0.649439 0.272404
0.000000 0.654383 0.268467
0.000000 0.660151 0.264256
0.000000 0.666377 0.261723
0.000000 0.672816 0.260533
0.000000 0.681025 0.231022
0.090089 0.690730 0.174197
0.246983 0.697047 0.180148
0.355779 0.697780 0.172213
0.453986 0.690394 0.139132
0.535302 0.682185 0.095460
0.604608 0.673274 0.000000
0.673365 0.673152 0.000000
0.735653 0.683833 0.000000
0.777615 0.684993 0.000000
0.813870 0.686305 0.000000
0.845609 0.687831 0.000000
0.873594 0.689784 0.000000
0.898650 0.692134 0.088045
0.921233 0.695094 0.127871
0.941650 0.698634 0.160739
0.958099 0.697200 0.174685
0.973816 0.696895 0.189425
0.989075 0.698085 0.206851
1.000000 0.700923 0.228824
1.000000 0.705409 0.254276
1.000000 0.711971 0.285710
0.000000 0.682612 0.318364
0.000000 0.683375 0.317845
0.000000 0.693477 0.324651
0.000000 0.694881 0.322545
0.000000 0.697078 0.319463
0.000000 0.699916 0.315831
0.000000 0.703395 0.312322
0.000000 0.707424 0.308812
0.000000 0.711940 0.306340
0.000000 0.716487 0.306554
0.000000 0.720424 0.309606
0.116793 0.728206 0.257206
0.216983 0.734432 0.225803
0.327916 0.737881 0.232670
0.424903 0.734249 0.217350
0.509667 0.726070 0.185397
0.581842 0.717342 0.148440
0.644312 0.708339 0.098390
0.705623 0.705623 0.000000
0.764828 0.715541 0.000000
0.802976 0.715694 0.000000
0.836118 0.716121 0.000000
0.865263 0.716823 0.090730
0.891173 0.718166 0.129580
0.914275 0.719905 0.162997
0.935180 0.722316 0.193088
0.954253 0.725277 0.221775
0.971130 0.727108 0.244419
0.986084 0.726986 0.259495
1.000000 0.728511 0.278325
1.000000 0.731868 0.302403
1.000000 0.737270 0.332403
0.000000 0.722774 0.353460
0.000000 0.724331 0.353857
0.000000 0.725978 0.354009
0.000000 0.728267 0.353216
0.000000 0.730861 0.351110
0.000000 0.733486 0.348760
0.000000 0.736416 0.345556
0.000000 0.739590 0.342718
0.000000 0.743221 0.341161
0.000000 0.746639 0.341436
0.000000 0.749630 0.344579
0.156741 0.753445 0.332097
0.192508 0.760525 0.274907
0.297795 0.763882 0.269505
0.390661 0.765866 0.276524
0.476997 0.759731 0.254154
0.551690 0.751583 0.222934
0.616785 0.743038 0.188510
0.674342 0.734585 0.147738
0.730190 0.730678 0.084840
0.787381 0.740475 0.000000
0.822904 0.740414 0.073793
0.853941 0.740658 0.118837
0.881315 0.741329 0.155062
0.905669 0.742519 0.187503
0.927611 0.744228 0.217075
0.947539 0.746670 0.246647
0.965728 0.749996 0.276677
0.982513 0.754238 0.308568
0.997345 0.755673 0.328893
1.000000 0.757992 0.351415
1.000000 0.762295 0.379492
0.000000 0.755337 0.384161
0.000000 0.756710 0.384649
0.000000 0.758236 0.384802
0.000000 0.759945 0.384375
0.000000 0.762112 0.382849
0.000000 0.764279 0.380529
0.000000 0.766629 0.377874
0.000000 0.769192 0.375372
0.000000 0.772030 0.374395
0.000000 0.774685 0.375097
0.000000 0.776974 0.378851
0.160403 0.778317 0.386694
0.228885 0.782895 0.353765
0.270512 0.788418 0.308080
0.368627 0.789731 0.315435
0.448035 0.790311 0.321111
0.524132 0.782803 0.293156
0.590509 0.774990 0.262791
0.649683 0.767086 0.230411
0.702785 0.759274 0.193637
0.753689 0.754452 0.147250
0.808804 0.764126 0.107729
0.841978 0.763851 0.143618
0.871031 0.763912 0.176730
0.896635 0.764462 0.209689
0.919585 0.765621 0.239506
0.940337 0.767391 0.269780
0.959258 0.770077 0.300603
0.976654 0.773739 0.332830
0.992706 0.778408 0.366644
1.000000 0.783291 0.399634
1.000000 0.786374 0.425391
0.000000 0.785031 0.414099
0.000000 0.786191 0.414343
0.000000 0.787533 0.414801
0.000000 0.789090 0.414191
0.000000 0.790799 0.412787
0.000000 0.792599 0.411078
0.000000 0.794491 0.408942
0.000000 0.796536 0.407050
0.000000 0.798672 0.406531
0.000000 0.800687 0.407660
0.000000 0.802213 0.411353
0.097902 0.802823 0.418799
0.266239 0.803311 0.421973
0.291600 0.808621 0.377600
0.349859 0.811856 0.354467
0.431128 0.812467 0.362524
0.501457 0.811215 0.362463
0.567834 0.804501 0.335943
0.627649 0.797635 0.307134
0.681910 0.790738 0.277073
0.731289 0.783963 0.243961
0.778225 0.779019 0.205936
0.831357 0.788479 0.173281
0.862272 0.788144 0.205539
0.889403 0.788235 0.235935
0.913359 0.788876 0.268376
0.934874 0.790188 0.300511
0.954376 0.792355 0.332219
0.972259 0.795468 0.365515
0.988617 0.799619 0.400031
1.000000 0.804898 0.436713
1.000000 0.811063 0.474861
0.000000 0.815579 0.445747
0.000000 0.816190 0.445869
0.000000 0.816800 0.445686
0.000000 0.817685 0.444709
0.000000 0.818814 0.443366
0.000000 0.820035 0.441840
0.000000 0.821500 0.440040
0.000000 0.823178 0.439002
0.000000 0.824949 0.438941
0.000000 0.826535 0.440650
0.000000 0.827512 0.445350
0.000000 0.827634 0.453010
0.264469 0.826658 0.464668
0.333165 0.828489 0.450324
0.354894 0.833158 0.408972
0.422858 0.834165 0.406226
0.490242 0.834348 0.414496
0.551263 0.831601 0.407630
0.608972 0.825376 0.382116
0.662287 0.818906 0.354376
0.711391 0.812436 0.324712
0.756680 0.806027 0.292882
0.799466 0.800412 0.258213
0.850370 0.809232 0.225040
0.879026 0.808774 0.255772
0.904479 0.808865 0.286381
0.927062 0.809689 0.318853
0.947478 0.811337 0.352605
0.966064 0.813993 0.387152
0.983062 0.817624 0.422400
0.998535 0.822416 0.459937
1.000000 0.827878 0.497292
0.000000 0.840238 0.472175
0.000000 0.840818 0.472023
0.000000 0.841398 0.472114
0.000000 0.842130 0.471321
0.000000 0.843046 0.470344
0.000000 0.843992 0.468818
0.000000 0.845121 0.467536
0.000000 0.846433 0.466773
0.000000 0.847623 0.467384
0.000000 0.848722 0.469337
0.000000 0.849241 0.474006
0.000000 0.848936 0.481544
0.240330 0.847562 0.492866
0.368933 0.845274 0.508324
0.390570 0.849180 0.477333
0.416693 0.852873 0.445228
0.483223 0.852811 0.453620
0.540795 0.852964 0.462196
0.594324 0.849271 0.449256
0.645350 0.843656 0.425696
0.693172 0.837919 0.400031
0.738064 0.832181 0.371923
0.780056 0.826444 0.342382
0.819486 0.820798 0.310002
0.867399 0.828031 0.271183
0.894316 0.827726 0.302586
0.918395 0.828061 0.334264
0.939879 0.829252 0.368841
0.959289 0.831418 0.404395
0.977020 0.834623 0.441291
0.993103 0.838773 0.478553
1.000000 0.843839 0.516747
0.000000 0.865476 0.499580
0.000000 0.865995 0.499794
0.000000 0.866392 0.499550
0.000000 0.866911 0.498909
0.000000 0.867491 0.497871
0.000000 0.868162 0.496803
0.000000 0.868925 0.495613
0.000000 0.869627 0.495064
0.000000 0.870329 0.495674
0.000000 0.870726 0.497871
0.000000 0.870542 0.502403
0.000000 0.869566 0.509728
0.220096 0.867674 0.520623
0.356176 0.864866 0.534997
0.426184 0.864195 0.535546
0.442847 0.867674 0.505516
0.479530 0.869474 0.490028
0.535180 0.869200 0.497780
0.585046 0.869322 0.506554
0.632258 0.864866 0.488563
0.677577 0.859953 0.466346
0.720668 0.854917 0.442634
0.761715 0.849729 0.416602
0.800595 0.844388 0.388251
0.837125 0.839048 0.357610
0.882963 0.845609 0.320043
0.909728 0.846677 0.352483
0.932372 0.847349 0.386236
0.952758 0.848875 0.421668
0.971252 0.851621 0.459266
0.987732 0.855100 0.496986
1.000000 0.859648 0.535729
0.000000 0.886320 0.522026
0.000000 0.886748 0.522362
0.000000 0.887114 0.522148
0.000000 0.887541 0.521721
0.000000 0.888029 0.520958
0.000000 0.888609 0.520195
0.000000 0.889189 0.519554
0.000000 0.889830 0.519524
0.000000 0.890318 0.520531
0.000000 0.890532 0.523339
0.000000 0.890135 0.528283
0.000000 0.888945 0.536065
0.202792 0.886748 0.546990
0.347539 0.883757 0.561364
0.448859 0.880339 0.579065
0.478981 0.882109 0.564141
0.494606 0.885313 0.537987
0.538415 0.885832 0.537255
0.585901 0.885710 0.545312
0.629236 0.885313 0.551141
0.670039 0.881102 0.532128
0.709895 0.876738 0.511559
0.748470 0.872221 0.489082
0.785702 0.867582 0.465064
0.821561 0.862821 0.438575
0.855802 0.858152 0.410193
0.898222 0.863371 0.376562
0.925139 0.865660 0.405737
0.946593 0.866850 0.441657
0.965850 0.868956 0.478706
0.982910 0.871855 0.517388
0.998444 0.875914 0.556634
0.000000 0.906706 0.544488
0.000000 0.907012 0.544701
0.000000 0.907256 0.544457
0.000000 0.907530 0.543999
0.000000 0.907836 0.543206
0.000000 0.908232 0.542596
0.000000 0.908598 0.542260
0.000000 0.908995 0.542596
0.000000 0.909300 0.543999
0.000000 0.909209 0.547021
0.000000 0.908568 0.552422
0.000000 0.907103 0.560449
0.184237 0.904631 0.571496
0.340215 0.901396 0.585809
0.444129 0.897734 0.602991
0.514214 0.895354 0.614740
0.527703 0.898222 0.593744
0.544793 0.900938 0.573480
0.589471 0.900664 0.580774
0.630396 0.900664 0.588952
0.667872 0.899626 0.589410
0.703822 0.895903 0.572381
0.739132 0.892088 0.553552
0.773892 0.888121 0.533471
0.807767 0.884123 0.511040
0.840848 0.880034 0.487098
0.873106 0.876005 0.461158
0.912566 0.880400 0.431678
0.939483 0.883635 0.457832
0.959564 0.885039 0.494728
0.977630 0.887388 0.532067
0.993835 0.890898 0.571954
0.000000 0.925505 0.564965
0.000000 0.925719 0.565026
0.000000 0.925933 0.564996
0.000000 0.926177 0.564660
0.000000 0.926543 0.564202
0.000000 0.927001 0.564019
0.000000 0.927611 0.564446
0.000000 0.928252 0.565759
0.000000 0.928710 0.568261
0.000000 0.928832 0.572534
0.000000 0.928222 0.578973
0.000000 0.926635 0.588190
0.189975 0.923980 0.600092
0.347753 0.920562 0.615045
0.452674 0.916716 0.632593
0.534325 0.912902 0.651606
0.568872 0.913085 0.649012
0.580987 0.915801 0.631250
0.605127 0.917296 0.623377
0.642573 0.917144 0.630549
0.677272 0.917235 0.638270
0.709010 0.915709 0.634241
0.739925 0.912566 0.619318
0.770901 0.909361 0.602899
0.801785 0.906065 0.585290
0.832364 0.902678 0.566247
0.862638 0.899382 0.545464
0.892638 0.896147 0.523339
0.928954 0.899748 0.497017
0.955077 0.903258 0.518975
0.973785 0.905058 0.556756
0.990631 0.907897 0.595209
0.000000 0.946227 0.587915
0.000000 0.946349 0.587884
0.000000 0.946441 0.587854
0.000000 0.946593 0.587457
0.000000 0.946777 0.587213
0.000000 0.947021 0.587182
0.000000 0.947326 0.587518
0.000000 0.947570 0.588830
0.000000 0.947601 0.591424
0.000000 0.947173 0.595911
0.000000 0.945953 0.602258
0.000000 0.943816 0.611322
0.184451 0.940612 0.623102
0.347234 0.936736 0.637751
