data/fiter_cube/59424107/1023394/file.cube
# Created by Adobe Lightroom plugin Export LUT (1.17.0)
# www.johnrellis.com/lightroom/exportlut.htm
# Preset: 怀旧和清澈_01 云集
# Color profile: C:\Program Files (x86)\Common Files\Adobe\Color\Profiles\Recommended\AdobeRGB1998.icc
LUT_3D_SIZE 5
DOMAIN_MIN 0.000000 0.000000 0.000000
DOMAIN_MAX 0.903226 0.903226 0.903226
0.065309 0.073732 0.065278
0.193759 0.072023 0.060304
0.639002 0.000000 0.000000
0.879423 0.156252 0.000000
1.000000 0.367041 0.000000
0.006592 0.154818 0.090974
0.152590 0.186038 0.059907
0.642237 0.245121 0.000000
0.875761 0.332586 0.000000
1.000000 0.449714 0.000000
0.000000 0.533410 0.219852
0.000000 0.563653 0.192935
0.521965 0.598108 0.000000
0.866880 0.633173 0.000000
0.993805 0.638849 0.082551
0.000000 0.815579 0.445747
0.000000 0.823178 0.439002
0.354894 0.833158 0.408972
0.756680 0.806027 0.292882
0.966064 0.813993 0.387152
0.000000 0.963653 0.606531
0.000000 0.964782 0.608759
0.446479 0.946075 0.670741
0.719997 0.942596 0.704463
0.897520 0.930388 0.635462
0.041047 0.076570 0.137148
0.207004 0.021820 0.151797
0.598718 0.000000 0.113375
0.858152 0.094423 0.065614
0.998169 0.362676 0.000000
0.000000 0.170718 0.172885
0.174044 0.189487 0.175631
0.610437 0.197086 0.143984
0.857572 0.310796 0.090272
0.995605 0.445075 0.081880
0.000000 0.528161 0.300877
0.000000 0.557855 0.305425
0.525017 0.586206 0.220371
0.854093 0.628260 0.241306
0.985657 0.640894 0.267704
0.000000 0.812314 0.497993
0.000000 0.819181 0.499092
0.450263 0.821042 0.525292
0.756558 0.803799 0.409125
0.959594 0.817014 0.484077
0.000000 0.962493 0.631678
0.000000 0.963622 0.633661
0.448371 0.947051 0.691768
0.732601 0.941314 0.730495
0.898253 0.930663 0.670710
0.000000 0.079683 0.473060
0.119020 0.010071 0.490089
0.654170 0.000000 0.495064
0.830686 0.120882 0.413245
0.976837 0.376196 0.406012
0.000000 0.209354 0.483375
0.000000 0.195224 0.503899
0.632349 0.193423 0.510826
0.814115 0.306676 0.436957
0.974823 0.450324 0.425757
0.000000 0.537774 0.552422
0.000000 0.552575 0.553857
0.555047 0.586603 0.560327
0.810788 0.601434 0.528283
0.964202 0.638666 0.513909
0.000000 0.801114 0.630091
0.000000 0.805570 0.628504
0.475074 0.805295 0.651667
0.759487 0.800412 0.624079
0.946319 0.826963 0.667079
0.000000 0.957702 0.709895
0.000000 0.959472 0.709651
0.324956 0.949310 0.727596
0.754299 0.934295 0.785428
0.897826 0.928435 0.742641
0.000000 0.098207 0.753536
0.000000 0.065644 0.757961
0.601923 0.000000 0.771633
0.851682 0.274968 0.723659
0.955200 0.509239 0.692073
0.000000 0.237278 0.752163
0.000000 0.214878 0.756558
0.580377 0.244480 0.769070
0.839628 0.406134 0.729824
0.948180 0.551843 0.699245
0.000000 0.532006 0.750515
0.000000 0.537224 0.748775
0.504265 0.561822 0.758602
0.804501 0.621729 0.747921
0.930083 0.653315 0.717861
0.000000 0.779721 0.781643
0.000000 0.781613 0.780575
0.432471 0.783597 0.779477
0.769100 0.796994 0.785306
0.929656 0.799283 0.764981
0.000000 0.951171 0.825406
0.000000 0.951995 0.823697
0.224186 0.945037 0.819883
0.727840 0.930205 0.836576
0.901946 0.927489 0.828489
0.000000 0.151675 0.905852
0.000000 0.142458 0.905882
0.552636 0.160311 0.906920
0.832242 0.375647 0.902739
0.956847 0.576471 0.856748
0.000000 0.245701 0.902556
0.000000 0.252506 0.902617
0.535119 0.299138 0.903349
0.821073 0.453559 0.899931
0.952148 0.610468 0.859281
0.000000 0.518334 0.891264
0.000000 0.514763 0.891936
0.455482 0.531334 0.893950
0.788937 0.618585 0.897124
0.942229 0.704616 0.872099
0.000000 0.750942 0.897276
0.000000 0.748440 0.895384
0.259586 0.740963 0.890440
0.714839 0.759335 0.892821
0.929870 0.815244 0.894163
0.000000 0.918669 0.914519
0.000000 0.919310 0.914336
0.000000 0.919188 0.916228
0.669368 0.913451 0.914427
0.908263 0.923064 0.919463
