data/fiter_cube/59424107/1023394/file.cube
# Created by Adobe Lightroom plugin Export LUT (1.17.0)
# www.johnrellis.com/lightroom/exportlut.htm
# Preset: 怀旧和清澈_01 云集
# Color profile: C:\Program Files (x86)\Common Files\Adobe\Color\Profiles\Recommended\AdobeRGB1998.icc
LUT_3D_SIZE 8
DOMAIN_MIN 0.000000 0.000000 0.000000
DOMAIN_MAX 0.903226 0.903226 0.903226
0.065309 0.073732 0.065278
0.090791 0.076417 0.065431
0.246830 0.058686 0.054414
0.520653 0.000000 0.000000
0.729458 0.000000 0.000000
0.855833 0.106294 0.000000
0.939208 0.259281 0.000000
1.000000 0.367041 0.000000
0.061616 0.090394 0.070649
0.083192 0.096437 0.067750
0.245090 0.110964 0.049622
0.515984 0.000000 0.000000
0.726253 0.000000 0.000000
0.849241 0.184665 0.000000
0.934569 0.293950 0.000000
1.000000 0.388647 0.000000
0.000000 0.190738 0.102113
0.000000 0.204410 0.092531
0.188968 0.232273 0.045075
0.523003 0.298161 0.000000
0.732357 0.326543 0.000000
0.850431 0.362280 0.000000
0.936706 0.415198 0.000000
1.000000 0.471962 0.000000
0.000000 0.412055 0.169589
0.000000 0.423713 0.158083
0.000000 0.465064 0.078279
0.410986 0.491157 0.000000
0.718227 0.548913 0.000000
0.853666 0.559075 0.000000
0.933165 0.560174 0.000000
0.998047 0.580591 0.000000
0.000000 0.638819 0.284459
0.000000 0.645472 0.276616
0.000000 0.666377 0.261723
0.246983 0.697047 0.180148
0.604608 0.673274 0.000000
0.813870 0.686305 0.000000
0.921233 0.695094 0.127871
0.989075 0.698085 0.206851
0.000000 0.785031 0.414099
0.000000 0.790799 0.412787
0.000000 0.798672 0.406531
0.266239 0.803311 0.421973
0.501457 0.811215 0.362463
0.731289 0.783963 0.243961
0.889403 0.788235 0.235935
0.972259 0.795468 0.365515
0.000000 0.886320 0.522026
0.000000 0.888029 0.520958
0.000000 0.890318 0.520531
0.202792 0.886748 0.546990
0.494606 0.885313 0.537987
0.670039 0.881102 0.532128
0.821561 0.862821 0.438575
0.946593 0.866850 0.441657
0.000000 0.963653 0.606531
0.000000 0.964111 0.606073
0.000000 0.964721 0.611749
0.184360 0.956817 0.645563
0.599176 0.938293 0.707301
0.691127 0.942351 0.696956
0.795926 0.939208 0.691341
0.897520 0.930388 0.635462
0.064637 0.074830 0.080507
0.093874 0.074403 0.083162
0.229831 0.019898 0.076905
0.492958 0.000000 0.040406
0.713558 0.000000 0.000000
0.841642 0.041901 0.000000
0.930571 0.246525 0.000000
1.000000 0.361547 0.000000
0.059480 0.094209 0.087098
0.087251 0.097780 0.088167
0.231296 0.099519 0.083528
0.496101 0.000000 0.039796
0.713130 0.000000 0.000000
0.839109 0.166964 0.000000
0.927184 0.284184 0.000000
0.998169 0.382879 0.000000
0.000000 0.191104 0.121859
0.011292 0.205142 0.122560
0.196323 0.232547 0.096712
0.512261 0.286412 0.011688
0.717769 0.309239 0.000000
0.839658 0.349737 0.000000
0.927184 0.404669 0.000000
0.997589 0.465705 0.000000
0.000000 0.405798 0.194095
0.000000 0.418860 0.189609
0.045838 0.457496 0.165072
0.406561 0.478614 0.070222
0.702815 0.532769 0.000000
0.839567 0.544427 0.000000
0.923552 0.550408 0.000000
0.992218 0.575280 0.000000
0.000000 0.636469 0.309758
0.000000 0.641718 0.303960
0.000000 0.660182 0.293614
0.262333 0.686641 0.226688
0.598718 0.664698 0.126406
0.807401 0.680354 0.085512
0.916228 0.692714 0.193545
0.984619 0.695552 0.245426
0.000000 0.780484 0.429328
0.000000 0.783322 0.426276
0.000000 0.791348 0.422004
0.282780 0.796231 0.444923
0.505638 0.807126 0.394598
0.729946 0.781796 0.285100
0.886320 0.786587 0.279545
0.968933 0.794736 0.393835
0.000000 0.881712 0.529961
0.000000 0.882353 0.527703
0.000000 0.885283 0.528038
0.197330 0.883024 0.553674
0.508476 0.881071 0.557885
0.670893 0.878538 0.548150
0.818479 0.859983 0.455207
0.942962 0.864286 0.456580
0.000000 0.961395 0.611994
0.000000 0.962219 0.611933
0.000000 0.963043 0.617273
0.169558 0.955596 0.649470
0.603021 0.939269 0.714717
0.696498 0.942046 0.706294
0.796841 0.938537 0.699306
0.896422 0.929320 0.642603
0.003754 0.076875 0.170352
0.082673 0.074037 0.175723
0.266667 0.000000 0.188022
0.486244 0.000000 0.169345
0.696315 0.000000 0.138979
0.830808 0.000000 0.132570
0.924987 0.243900 0.115145
0.998322 0.367163 0.111086
0.000000 0.108217 0.180514
0.064698 0.102144 0.187167
0.254093 0.084932 0.193606
0.471992 0.000000 0.176761
0.694209 0.000000 0.150118
0.828397 0.136782 0.137636
0.922454 0.283299 0.119081
0.996338 0.390417 0.119631
0.000000 0.210056 0.216648
0.000000 0.216739 0.218479
0.220249 0.237339 0.220401
0.486610 0.246159 0.205112
0.702022 0.279606 0.183688
0.829435 0.338048 0.164523
0.920348 0.403845 0.152743
0.993042 0.469886 0.162020
0.000000 0.407538 0.279026
0.000000 0.421210 0.280461
0.115389 0.456977 0.290867
0.432929 0.484871 0.249332
0.706111 0.536278 0.249332
0.829099 0.538201 0.235355
0.916686 0.553063 0.230686
0.987335 0.581689 0.246342
0.000000 0.632868 0.383368
0.000000 0.639704 0.384833
0.000000 0.657984 0.391943
0.338781 0.679561 0.374578
0.611994 0.667994 0.305577
0.805539 0.683497 0.305425
0.908843 0.697749 0.358251
0.977447 0.699733 0.371862
0.000000 0.778134 0.484871
0.000000 0.781033 0.485389
0.000000 0.787808 0.488563
0.305394 0.790585 0.506920
0.534722 0.799893 0.489631
0.730312 0.779202 0.405219
0.880064 0.786709 0.407996
0.962951 0.800656 0.496895
0.000000 0.881163 0.570459
0.000000 0.881987 0.569909
0.000000 0.883726 0.571283
0.221195 0.879881 0.591699
0.561547 0.872740 0.626673
0.684901 0.876585 0.610773
0.819638 0.860258 0.532311
0.940063 0.867002 0.538231
0.000000 0.960662 0.638239
0.000000 0.960967 0.637018
0.000000 0.961578 0.640803
0.128023 0.955016 0.668971
0.595178 0.938720 0.725978
0.708186 0.939818 0.730098
0.802792 0.938109 0.728817
0.897215 0.929625 0.677211
0.000000 0.078706 0.359258
0.000000 0.074311 0.367346
0.248569 0.000000 0.387976
0.546014 0.000000 0.389014
0.705318 0.000000 0.341466
0.801144 0.000000 0.314183
0.907073 0.203861 0.294652
0.986572 0.362799 0.306249
0.000000 0.116243 0.373022
0.000000 0.107820 0.378729
0.238102 0.082887 0.396307
0.538384 0.000000 0.395544
0.698146 0.000000 0.348547
0.801877 0.000000 0.309850
0.905211 0.256413 0.303441
0.985443 0.385748 0.310979
0.000000 0.233066 0.391974
0.000000 0.235447 0.394110
0.178927 0.236728 0.411292
0.509850 0.244724 0.416541
0.674037 0.262242 0.375891
0.805112 0.307408 0.346410
0.905486 0.401282 0.347692
0.983703 0.471809 0.346746
0.000000 0.427649 0.446967
0.000000 0.433387 0.447578
0.000000 0.456153 0.451667
0.457099 0.484871 0.456794
0.669215 0.498085 0.435706
0.801541 0.519310 0.418952
0.898405 0.547906 0.408545
0.975982 0.583612 0.410040
0.000000 0.627680 0.504448
0.000000 0.633204 0.505028
0.000000 0.650629 0.508782
0.399054 0.666041 0.527398
0.623804 0.668940 0.495949
0.797421 0.692073 0.512413
0.891875 0.695033 0.508873
0.965759 0.702449 0.505364
0.000000 0.776242 0.567559
0.000000 0.781003 0.570489
0.000000 0.785946 0.574670
0.329961 0.786923 0.590875
0.579126 0.791318 0.598932
0.735225 0.779629 0.551080
0.872374 0.791135 0.560296
0.954894 0.809995 0.615229
0.000000 0.878508 0.629358
0.000000 0.879820 0.629969
0.000000 0.882109 0.633143
0.223728 0.878538 0.647211
0.588922 0.868315 0.687434
0.707271 0.875334 0.688075
0.821195 0.860014 0.624018
0.935058 0.869047 0.631037
0.000000 0.960388 0.684932
0.000000 0.961089 0.684413
0.000000 0.961913 0.683986
0.000000 0.956237 0.697047
0.570214 0.939391 0.742916
0.732631 0.935027 0.771572
0.811124 0.937652 0.768948
0.898344 0.929625 0.722499
0.000000 0.082338 0.572442
0.000000 0.077485 0.576440
0.178836 0.000000 0.588403
0.515465 0.000000 0.597192
0.730617 0.000000 0.578637
0.823087 0.112245 0.521599
0.889006 0.298344 0.502373
0.963684 0.402472 0.501030
0.000000 0.115480 0.576654
0.000000 0.115816 0.581292
0.164157 0.091463 0.592370
0.511345 0.000000 0.602564
0.725002 0.000000 0.581689
0.818448 0.200473 0.527031
0.885496 0.332830 0.508354
0.963714 0.416968 0.501366
0.000000 0.255619 0.576104
0.000000 0.257206 0.581903
0.041108 0.241703 0.596735
0.488624 0.254643 0.614740
0.704616 0.298497 0.592523
0.800229 0.357549 0.542596
0.872313 0.422858 0.525322
0.960815 0.480049 0.515251
0.000000 0.436652 0.601038
0.000000 0.439948 0.601312
0.000000 0.452857 0.602838
0.424323 0.472999 0.616876
0.672175 0.510338 0.614893
0.772854 0.516777 0.573419
0.870909 0.528222 0.544976
0.959808 0.570031 0.538659
0.000000 0.626276 0.635706
0.000000 0.629450 0.636194
0.000000 0.638941 0.636744
0.374945 0.649989 0.638300
0.631220 0.663661 0.641566
0.767147 0.664912 0.623194
0.869108 0.672480 0.607507
0.952605 0.688197 0.599023
0.000000 0.762539 0.664668
0.000000 0.764889 0.664912
0.000000 0.770047 0.664973
0.305791 0.772702 0.666835
0.592035 0.773587 0.680262
0.737118 0.775418 0.663813
0.865660 0.795865 0.681941
0.945006 0.802121 0.684993
0.000000 0.872282 0.703182
0.000000 0.872953 0.702480
0.000000 0.874449 0.701167
0.184756 0.871763 0.705684
0.552026 0.864683 0.722713
0.719814 0.866880 0.739376
0.821866 0.857816 0.703090
0.930297 0.869749 0.713619
0.000000 0.956115 0.738613
0.000000 0.956512 0.738125
0.000000 0.957031 0.737636
0.000000 0.954894 0.742061
0.489326 0.942321 0.759915
0.739498 0.930175 0.805356
0.819059 0.936889 0.810422
0.898802 0.928344 0.766598
0.000000 0.093874 0.726162
0.000000 0.089387 0.727779
0.075593 0.000000 0.731930
0.483619 0.000000 0.741817
0.705623 0.000000 0.737728
0.833005 0.214389 0.700374
0.899992 0.374640 0.663264
0.954955 0.498512 0.664027
0.000000 0.129580 0.724239
0.000000 0.129000 0.725612
0.000000 0.110201 0.730526
0.474250 0.000000 0.739590
0.699489 0.068391 0.737026
0.828336 0.271183 0.701442
0.896452 0.401709 0.665827
0.952605 0.512016 0.666285
0.000000 0.277134 0.723079
0.000000 0.274784 0.725368
0.000000 0.253788 0.731655
0.449775 0.271092 0.740047
0.684749 0.324895 0.741604
0.816007 0.413672 0.710262
0.886259 0.485328 0.677852
0.945983 0.557671 0.676265
0.000000 0.447822 0.722621
0.000000 0.449012 0.721828
0.000000 0.458595 0.723384
0.405646 0.472969 0.738369
0.661646 0.524437 0.750027
0.798032 0.565606 0.727779
0.871183 0.587304 0.697505
0.936309 0.619226 0.690303
0.000000 0.616632 0.736904
0.000000 0.618555 0.736812
0.000000 0.624689 0.736202
0.352087 0.633814 0.734951
0.607172 0.652155 0.743252
0.772763 0.677943 0.742336
0.848753 0.670100 0.710170
0.933593 0.673152 0.691341
0.000000 0.752651 0.755886
0.000000 0.754665 0.756558
0.000000 0.758083 0.756344
0.293278 0.760342 0.755947
0.570977 0.763516 0.756069
0.745876 0.775021 0.761624
0.847532 0.774472 0.748104
0.934325 0.780484 0.738766
0.000000 0.865904 0.785336
0.000000 0.866941 0.785519
0.000000 0.867796 0.784451
0.170047 0.864958 0.782620
0.531792 0.859312 0.782132
0.723049 0.858152 0.792721
0.827024 0.857816 0.780087
0.930114 0.874998 0.796017
0.000000 0.952514 0.808133
0.000000 0.952728 0.807401
0.000000 0.952941 0.805142
0.000000 0.950072 0.802670
0.442969 0.940642 0.805142
0.689784 0.931395 0.821347
0.825406 0.932891 0.842496
0.901274 0.927794 0.816037
0.000000 0.116762 0.830137
0.000000 0.114107 0.831876
0.000000 0.083040 0.833249
0.453773 0.000000 0.836484
0.680751 0.106569 0.840848
0.827237 0.272038 0.830106
0.901976 0.427588 0.787839
0.957305 0.546441 0.771603
0.000000 0.149722 0.825406
0.000000 0.149416 0.826993
0.000000 0.137606 0.828916
0.442237 0.108736 0.831846
0.670710 0.179049 0.835904
0.818936 0.300755 0.825376
0.896056 0.437629 0.784115
0.952941 0.546319 0.767330
0.000000 0.292607 0.825620
0.000000 0.273106 0.826658
0.000000 0.268009 0.827970
0.422889 0.287419 0.830472
0.654353 0.346532 0.833585
0.807309 0.426001 0.826291
0.889799 0.520287 0.792538
0.949645 0.597375 0.778500
0.000000 0.456611 0.819486
0.000000 0.456916 0.819577
0.000000 0.463142 0.821530
0.384527 0.465949 0.827115
0.627741 0.513146 0.830991
0.790616 0.567437 0.830594
0.880705 0.619226 0.805844
0.943114 0.657801 0.790860
0.000000 0.607538 0.819852
0.000000 0.607019 0.818509
0.000000 0.607324 0.815702
0.297063 0.610224 0.812375
0.574548 0.630488 0.821927
0.761807 0.671107 0.830716
0.864225 0.697566 0.813931
0.932006 0.714687 0.799680
0.000000 0.737209 0.828672
0.000000 0.737789 0.828397
0.000000 0.739071 0.827359
0.225040 0.740230 0.825864
0.526452 0.743099 0.822812
0.721065 0.759640 0.830259
0.851530 0.782650 0.832181
0.919097 0.775296 0.810880
0.000000 0.844816 0.843870
0.000000 0.845853 0.844297
0.000000 0.846616 0.843992
0.102419 0.845945 0.843503
0.498970 0.843290 0.841550
0.694423 0.844785 0.841337
0.832212 0.855406 0.847837
0.919158 0.854795 0.837583
0.000000 0.943420 0.871641
0.000000 0.944091 0.871672
0.000000 0.948089 0.874357
0.000000 0.943755 0.870848
0.419165 0.934936 0.867277
0.663508 0.927825 0.866667
0.817441 0.926574 0.875364
0.905241 0.926970 0.867735
0.000000 0.151675 0.905852
0.000000 0.150484 0.906401
0.092195 0.138186 0.905821
0.441901 0.132815 0.906554
0.648951 0.210239 0.907103
0.802335 0.343999 0.904723
0.907927 0.465156 0.892760
0.956847 0.576471 0.856748
0.000000 0.180972 0.903624
0.000000 0.181460 0.904204
0.020264 0.177432 0.904021
0.433356 0.182467 0.904295
0.642725 0.249790 0.904936
0.797848 0.369299 0.902983
0.904387 0.477790 0.891417
0.954528 0.583124 0.856107
0.000000 0.279240 0.900786
0.000000 0.275334 0.901244
0.000000 0.282841 0.900359
0.412879 0.309422 0.902281
0.627924 0.366461 0.902220
0.787472 0.455787 0.901183
0.897307 0.534813 0.892546
0.950439 0.619471 0.859709
0.000000 0.444709 0.895384
0.000000 0.448676 0.895903
0.000000 0.464332 0.895598
0.361486 0.453010 0.897887
0.599481 0.498787 0.898466
0.770169 0.564111 0.899992
0.885191 0.615137 0.894713
0.945525 0.675196 0.867613
0.000000 0.590814 0.890013
0.000000 0.590845 0.890135
0.000000 0.586694 0.888304
0.225071 0.585077 0.890471
0.540551 0.605982 0.892363
0.733974 0.649287 0.895232
0.865843 0.692012 0.895811
0.939391 0.737087 0.878172
0.000000 0.719539 0.893828
0.000000 0.718410 0.893034
0.000000 0.715236 0.890929
0.000000 0.709957 0.888090
0.432654 0.706569 0.884001
0.682979 0.731533 0.891752
0.847105 0.775326 0.902770
0.932677 0.801053 0.891630
0.000000 0.827817 0.902220
0.000000 0.827451 0.901732
0.000000 0.826078 0.900420
0.000000 0.823941 0.898985
0.386725 0.820981 0.896635
0.631495 0.822080 0.894133
0.806912 0.838529 0.902281
0.921355 0.859739 0.903471
0.000000 0.918669 0.914519
0.000000 0.918730 0.914305
0.000000 0.919646 0.914488
0.000000 0.920134 0.915618
0.358770 0.917357 0.916167
0.622705 0.913756 0.914672
0.785458 0.914397 0.914275
0.908263 0.923064 0.919463
