data/fiter_cube/55192441/1023186/file.cube
# Created by Adobe Lightroom plugin Export LUT (1.17.0)
# www.johnrellis.com/lightroom/exportlut.htm
# Preset: 清新轻盈通透人像_04 云集
# Color profile: C:\Program Files (x86)\Common Files\Adobe\Color\Profiles\Recommended\AdobeRGB1998.icc
LUT_3D_SIZE 32
DOMAIN_MIN 0.0 0.0 0.0
DOMAIN_MAX 1.0 1.0 1.0
0.000000 0.000000 0.000000
0.014923 0.000000 0.000000
0.055512 0.000000 0.000000
0.099458 0.000000 0.000000
0.196445 0.000000 0.000000
0.313939 0.000000 0.000000
0.417182 0.000000 0.000000
0.500008 0.000000 0.000000
0.568536 0.000000 0.000000
0.626307 0.000000 0.000000
0.676539 0.000000 0.000000
0.719814 0.000000 0.000000
0.756222 0.000000 0.000000
0.788235 0.000000 0.000000
0.818021 0.000000 0.000000
0.846036 0.000000 0.000000
0.872313 0.000000 0.000000
0.896788 0.000000 0.000000
0.921202 0.000000 0.000000
0.950103 0.000000 0.000000
0.975341 0.000000 0.000000
0.997620 0.082979 0.055177
1.000000 0.125032 0.110628
1.000000 0.156893 0.145785
1.000000 0.181888 0.172732
1.000000 0.204623 0.196902
1.000000 0.225925 0.218997
1.000000 0.246494 0.240391
1.000000 0.266758 0.261479
1.000000 0.287236 0.282597
1.000000 0.307958 0.303960
1.000000 0.328832 0.325353
0.000458 0.012787 0.001099
0.012177 0.014374 0.000671
0.053651 0.017823 0.000000
0.099397 0.023560 0.000000
0.195560 0.050660 0.000000
0.311192 0.065553 0.000000
0.413703 0.060182 0.000000
0.496071 0.032380 0.000000
0.564508 0.000000 0.000000
0.622522 0.000000 0.000000
0.672663 0.000000 0.000000
0.716152 0.000000 0.000000
0.752773 0.000000 0.000000
0.784756 0.000000 0.000000
0.814481 0.000000 0.000000
0.842466 0.000000 0.000000
0.868742 0.000000 0.000000
0.893339 0.000000 0.000000
0.918151 0.000000 0.000000
0.946197 0.000000 0.000000
0.971099 0.026307 0.000000
0.993286 0.094759 0.023194
1.000000 0.130068 0.100587
1.000000 0.158206 0.137118
1.000000 0.181888 0.164736
1.000000 0.203647 0.189334
1.000000 0.223606 0.211429
1.000000 0.244511 0.233951
1.000000 0.264164 0.254948
1.000000 0.284459 0.276493
1.000000 0.304479 0.297520
1.000000 0.325109 0.319158
0.001160 0.046540 0.004822
0.020661 0.038331 0.012543
0.049256 0.051270 0.000000
0.099458 0.065553 0.000000
0.194675 0.093477 0.000000
0.309148 0.114961 0.000000
0.410346 0.121248 0.000000
0.492409 0.117617 0.000000
0.560876 0.108919 0.000000
0.619104 0.095521 0.000000
0.669520 0.079896 0.000000
0.713313 0.061524 0.000000
0.750271 0.013367 0.000000
0.782406 0.000000 0.000000
0.812131 0.000000 0.000000
0.840177 0.000000 0.000000
0.866514 0.000000 0.000000
0.891142 0.000000 0.000000
0.916564 0.000000 0.000000
0.943999 0.027008 0.000000
0.968719 0.084565 0.000000
0.990936 0.116182 0.011627
1.000000 0.144015 0.097414
1.000000 0.167697 0.133577
1.000000 0.189212 0.161929
1.000000 0.208713 0.186160
1.000000 0.228092 0.208835
1.000000 0.247501 0.230961
1.000000 0.266514 0.252354
1.000000 0.286137 0.273869
1.000000 0.305608 0.294987
1.000000 0.325628 0.316503
0.006836 0.086549 0.011566
0.038849 0.081392 0.024170
0.060151 0.075654 0.040162
0.100618 0.101991 0.000000
0.197818 0.145052 0.000000
0.309850 0.177951 0.000000
0.409003 0.191379 0.000000
0.490272 0.192172 0.000000
0.558190 0.186648 0.000000
0.616236 0.177462 0.000000
0.666438 0.167025 0.000000
0.710323 0.155398 0.000000
0.747250 0.143893 0.000000
0.779416 0.132265 0.000000
0.809232 0.121187 0.000000
0.837278 0.111940 0.000000
0.863676 0.105501 0.000000
0.888334 0.103487 0.000000
0.914427 0.107942 0.000000
0.940642 0.119661 0.000000
0.964660 0.134859 0.000000
0.986603 0.152346 0.003998
1.000000 0.171359 0.094057
1.000000 0.189914 0.131624
1.000000 0.207889 0.160555
1.000000 0.225772 0.186648
1.000000 0.243137 0.210117
1.000000 0.261418 0.233097
1.000000 0.278996 0.254520
1.000000 0.296574 0.275364
1.000000 0.314183 0.295659
1.000000 0.331914 0.315770
0.000000 0.159884 0.005798
0.050935 0.152438 0.020691
0.078370 0.142153 0.042206
0.107301 0.141665 0.049378
0.192477 0.195224 0.000000
0.307317 0.241855 0.000000
0.404425 0.260685 0.000000
0.484535 0.264103 0.000000
0.552331 0.259434 0.000000
0.610346 0.251102 0.000000
0.660761 0.240696 0.000000
0.705043 0.229648 0.000000
0.742550 0.217624 0.000000
0.775082 0.206332 0.000000
0.805325 0.195651 0.000000
0.833890 0.187167 0.000000
0.860899 0.179904 0.000000
0.885954 0.175662 0.000000
0.913481 0.176028 0.000000
0.938933 0.180392 0.000000
0.962341 0.187747 0.000000
0.983948 0.197940 0.024964
1.000000 0.209873 0.098787
1.000000 0.222995 0.134737
1.000000 0.236576 0.163577
1.000000 0.250584 0.188937
1.000000 0.265171 0.212253
1.000000 0.279942 0.234379
1.000000 0.295171 0.255436
1.000000 0.310613 0.275822
1.000000 0.326055 0.295659
1.000000 0.342199 0.315587
0.000000 0.261234 0.000000
0.018738 0.254337 0.000000
0.088838 0.243809 0.001892
0.133242 0.221317 0.066011
0.188388 0.243351 0.012207
0.295689 0.299748 0.000000
0.404456 0.332891 0.000000
0.482856 0.336584 0.000000
0.549615 0.331334 0.000000
0.607385 0.321935 0.000000
0.657649 0.310765 0.000000
0.701991 0.298283 0.000000
0.739498 0.285313 0.000000
0.772274 0.272343 0.000000
0.802701 0.261021 0.000000
0.831540 0.251133 0.000000
0.858732 0.243168 0.000000
0.885679 0.238010 0.000000
0.913054 0.236393 0.000000
0.938170 0.237400 0.000000
0.961517 0.241001 0.000000
0.983276 0.246921 0.068025
1.000000 0.287663 0.176181
1.000000 0.299046 0.204349
1.000000 0.309911 0.227787
1.000000 0.320470 0.248569
1.000000 0.331060 0.267552
1.000000 0.341833 0.285618
1.000000 0.352880 0.302892
1.000000 0.364477 0.319982
1.000000 0.376349 0.336706
1.000000 0.388342 0.352972
0.000000 0.374578 0.000000
0.000000 0.368414 0.000000
0.090211 0.360143 0.000000
0.163455 0.342260 0.063447
0.217472 0.313359 0.128145
0.289433 0.358618 0.000000
0.397070 0.402533 0.000000
0.496040 0.421271 0.000000
0.561028 0.412451 0.000000
0.617517 0.399908 0.000000
0.667140 0.386023 0.000000
0.710140 0.370855 0.000000
0.746365 0.355077 0.000000
0.778317 0.340032 0.000000
0.808042 0.326543 0.000000
0.835904 0.314977 0.000000
0.862394 0.305425 0.000000
0.892393 0.300511 0.000000
0.919524 0.297734 0.000000
0.945068 0.297642 0.000000
0.969574 0.301030 0.067536
0.992950 0.307256 0.122713
1.000000 0.316167 0.162600
1.000000 0.326299 0.196139
1.000000 0.336797 0.224399
1.000000 0.346288 0.247868
1.000000 0.355383 0.268040
1.000000 0.364019 0.286168
1.000000 0.372656 0.302983
1.000000 0.381964 0.319463
1.000000 0.391363 0.335210
1.000000 0.401434 0.351202
0.000000 0.452369 0.000000
0.000000 0.447822 0.000000
0.092287 0.441566 0.000000
0.177310 0.427802 0.084840
0.244572 0.406256 0.146304
0.294408 0.398322 0.168917
0.365393 0.437171 0.014862
0.463996 0.470466 0.000000
0.556329 0.483162 0.000000
0.612604 0.468635 0.000000
0.662257 0.452705 0.000000
0.705196 0.435798 0.000000
0.741604 0.418250 0.000000
0.773709 0.401434 0.000000
0.803586 0.386419 0.000000
0.831662 0.373175 0.000000
0.861875 0.364111 0.000000
0.890288 0.357031 0.000000
0.916258 0.351904 0.000000
0.941100 0.349218 0.000000
0.965118 0.349584 0.089113
0.988220 0.352361 0.134829
1.000000 0.357519 0.170993
1.000000 0.363989 0.202365
1.000000 0.370764 0.228794
1.000000 0.377356 0.251347
1.000000 0.383398 0.270451
1.000000 0.389319 0.287633
1.000000 0.395941 0.304265
1.000000 0.402808 0.319951
1.000000 0.410529 0.335882
1.000000 0.418494 0.351232
0.000000 0.517205 0.024262
0.029633 0.513725 0.066957
0.123079 0.509087 0.093050
0.198825 0.498634 0.133944
0.268376 0.482216 0.182986
0.325902 0.460060 0.236484
0.366888 0.471382 0.214969
0.431647 0.502342 0.106844
0.521202 0.528222 0.000000
0.609247 0.539300 0.000000
0.658656 0.520256 0.000000
0.701534 0.500786 0.000000
0.737972 0.481270 0.000000
0.770138 0.462501 0.000000
0.800046 0.445869 0.000000
0.831510 0.433204 0.000000
0.861387 0.422431 0.000000
0.888579 0.413275 0.000000
0.913695 0.405890 0.000000
0.938079 0.400977 0.054841
0.961730 0.398779 0.112245
0.984588 0.398810 0.150973
1.000000 0.400946 0.183963
1.000000 0.404425 0.212528
1.000000 0.408362 0.237552
1.000000 0.411933 0.258640
1.000000 0.415381 0.276524
1.000000 0.418921 0.292882
1.000000 0.422950 0.308232
1.000000 0.427649 0.323339
1.000000 0.433021 0.338293
1.000000 0.438758 0.352819
0.089143 0.570886 0.135134
0.131746 0.568139 0.146487
0.171298 0.564233 0.160372
0.231174 0.555901 0.188479
0.293858 0.543053 0.226749
0.351049 0.525780 0.271092
0.397772 0.504662 0.318456
0.430060 0.530602 0.262028
0.488716 0.555871 0.168032
0.569024 0.576684 0.000000
0.653956 0.587640 0.000000
0.696529 0.564263 0.000000
0.733272 0.542351 0.000000
0.766262 0.522179 0.000000
0.800351 0.506706 0.000000
0.831846 0.493080 0.000000
0.861173 0.480537 0.000000
0.887968 0.469520 0.000000
0.912749 0.460456 0.017487
0.936492 0.453468 0.100954
0.959380 0.448646 0.138949
0.981170 0.445808 0.170352
1.000000 0.444343 0.197543
1.000000 0.444312 0.222385
1.000000 0.444892 0.244236
1.000000 0.445899 0.263706
1.000000 0.447089 0.280827
1.000000 0.448859 0.297002
1.000000 0.451484 0.312840
1.000000 0.454658 0.327947
1.000000 0.458656 0.343175
1.000000 0.463081 0.357885
0.173739 0.614099 0.201755
0.196201 0.611933 0.209689
0.222751 0.608850 0.220188
0.268315 0.602411 0.241459
0.321935 0.592248 0.271763
0.374517 0.579034 0.307744
0.421546 0.562829 0.347295
0.454383 0.556573 0.364111
0.485756 0.580621 0.307591
0.539239 0.602136 0.224857
0.611444 0.619409 0.025727
0.692744 0.630182 0.000000
0.731594 0.605707 0.000000
0.766964 0.584741 0.000000
0.799619 0.566369 0.000000
0.830076 0.550225 0.000000
0.858427 0.535821 0.000000
0.884520 0.523308 0.000000
0.908965 0.512139 0.090211
0.932525 0.503105 0.129335
0.955261 0.496498 0.161227
0.977111 0.491463 0.188449
0.997772 0.488228 0.213687
1.000000 0.486061 0.236393
1.000000 0.484504 0.256657
1.000000 0.483009 0.274022
1.000000 0.481971 0.289769
1.000000 0.481514 0.304509
1.000000 0.481819 0.318883
1.000000 0.482887 0.333043
1.000000 0.484810 0.347295
1.000000 0.487526 0.361669
0.240970 0.652888 0.262150
0.255650 0.651179 0.268254
0.274754 0.648646 0.276249
0.309117 0.643488 0.292363
0.353155 0.635462 0.316320
0.399145 0.624842 0.345129
0.443091 0.611841 0.377752
0.481361 0.596643 0.412451
0.504662 0.603784 0.401801
0.535515 0.624567 0.349950
0.585962 0.644312 0.280308
0.652735 0.660792 0.166323
0.751919 0.692470 0.000000
0.789425 0.667384 0.000000
0.822263 0.646113 0.000000
0.851896 0.627070 0.000000
0.878691 0.610040 0.094667
0.902983 0.594903 0.142550
0.925444 0.581872 0.176730
0.947173 0.570794 0.202396
0.968048 0.561364 0.223850
0.987823 0.553796 0.244297
1.000000 0.547173 0.262242
1.000000 0.541924 0.279454
1.000000 0.537316 0.295018
1.000000 0.533349 0.309148
1.000000 0.529717 0.321782
1.000000 0.526665 0.333471
1.000000 0.524376 0.345159
1.000000 0.522942 0.356878
1.000000 0.522454 0.369085
1.000000 0.522637 0.381292
0.310002 0.693080 0.326909
0.319982 0.691646 0.331273
0.332921 0.689326 0.336645
0.358343 0.684627 0.348363
0.392401 0.677455 0.365759
0.430274 0.668177 0.387793
0.468879 0.657191 0.413733
0.504936 0.644770 0.442390
0.539330 0.633631 0.476143
0.559380 0.653468 0.448676
0.591730 0.673884 0.407416
0.638575 0.692073 0.350072
0.699947 0.708003 0.263218
0.774563 0.720455 0.040650
0.815091 0.700252 0.000000
0.845670 0.679744 0.000000
0.872770 0.660670 0.110567
0.896971 0.643427 0.155337
0.919432 0.628504 0.189059
0.940917 0.615808 0.216342
0.961578 0.605341 0.240177
0.981537 0.595697 0.257755
1.000000 0.587427 0.274327
1.000000 0.580102 0.289433
1.000000 0.573632 0.303227
1.000000 0.567712 0.315801
1.000000 0.562493 0.327550
1.000000 0.557916 0.338811
1.000000 0.553918 0.349554
1.000000 0.551080 0.361059
1.000000 0.548974 0.372473
1.000000 0.547784 0.384588
0.355077 0.718959 0.370123
0.363104 0.717708 0.373663
0.372869 0.715846 0.377966
0.393957 0.712673 0.388434
0.422980 0.707607 0.403723
0.456703 0.700954 0.423438
0.492256 0.693111 0.446723
0.526970 0.684199 0.472480
0.559197 0.674525 0.500420
0.583459 0.672145 0.515068
0.601831 0.690364 0.485451
0.632044 0.708217 0.446693
0.674922 0.724605 0.393774
0.730587 0.738521 0.315526
0.798154 0.748959 0.177066
0.838804 0.730678 0.065248
0.866026 0.709590 0.126131
0.890501 0.690364 0.164614
0.913146 0.673548 0.198245
0.934813 0.659174 0.225284
0.955688 0.647089 0.249149
0.975616 0.636805 0.270268
0.994446 0.627436 0.287602
1.000000 0.618708 0.301335
1.000000 0.610742 0.314092
1.000000 0.603388 0.325689
1.000000 0.596612 0.336309
1.000000 0.590539 0.346532
1.000000 0.585382 0.357031
1.000000 0.581079 0.367742
1.000000 0.577722 0.379126
1.000000 0.575128 0.390661
0.405249 0.749905 0.418463
0.411566 0.749050 0.421546
0.419074 0.747463 0.424872
0.435248 0.744198 0.432654
0.458167 0.739132 0.444312
0.485420 0.732631 0.459297
0.515312 0.725185 0.477852
0.545892 0.716793 0.498909
0.575463 0.708064 0.522332
0.602808 0.699001 0.547601
0.619684 0.705531 0.544244
0.638605 0.722683 0.516136
0.667475 0.739040 0.479469
0.707088 0.753628 0.429480
0.757687 0.765591 0.357855
0.818875 0.773983 0.242313
0.859617 0.757931 0.147921
0.884337 0.736812 0.178653
0.907378 0.718013 0.205356
0.929107 0.701930 0.233066
0.950011 0.688136 0.256718
0.970062 0.676173 0.277226
0.988952 0.665553 0.295262
1.000000 0.656245 0.311986
1.000000 0.647272 0.324865
1.000000 0.638911 0.335912
1.000000 0.631373 0.346746
1.000000 0.624811 0.357824
1.000000 0.618982 0.368750
1.000000 0.614191 0.380377
1.000000 0.610163 0.392370
1.000000 0.606958 0.404944
0.445502 0.777310 0.457771
0.450935 0.776669 0.460548
0.457069 0.775448 0.463447
0.470436 0.772732 0.469978
0.489662 0.768460 0.479744
0.513298 0.762936 0.492683
0.539391 0.756619 0.508354
0.566888 0.749477 0.526513
0.594202 0.741604 0.546624
0.619959 0.733181 0.568383
0.642817 0.724147 0.590936
0.654108 0.737697 0.571557
0.671778 0.752468 0.542870
0.698299 0.766171 0.506218
0.734188 0.778073 0.457740
0.779965 0.787747 0.390539
0.835996 0.794919 0.289769
0.877440 0.782406 0.202548
0.901305 0.761837 0.218936
0.924041 0.744533 0.242069
0.945617 0.729580 0.265110
0.966064 0.716548 0.286992
0.985321 0.704921 0.305791
1.000000 0.694423 0.322301
1.000000 0.684962 0.337469
1.000000 0.676387 0.351324
1.000000 0.667750 0.361486
1.000000 0.660090 0.371771
1.000000 0.653162 0.382391
1.000000 0.646845 0.392798
1.000000 0.641260 0.403754
1.000000 0.636286 0.414862
0.477729 0.800595 0.489235
0.481575 0.799832 0.491005
0.486824 0.798642 0.493538
0.497841 0.796170 0.498848
0.514092 0.792416 0.507073
0.534325 0.787564 0.517876
0.557214 0.781888 0.531182
0.581811 0.775326 0.546624
0.606897 0.768154 0.564111
0.631220 0.760433 0.583062
0.653498 0.752316 0.602838
0.670192 0.749599 0.612940
0.681605 0.763851 0.591302
0.699367 0.777310 0.563531
0.724636 0.789425 0.527916
0.757931 0.799649 0.481941
0.800259 0.808042 0.419959
0.852110 0.814511 0.330449
0.894652 0.805478 0.245335
0.917784 0.785489 0.252232
0.939727 0.769009 0.271733
0.960540 0.754421 0.290867
0.980011 0.741543 0.310307
0.998474 0.730037 0.327581
1.000000 0.719509 0.342992
1.000000 0.709987 0.357305
1.000000 0.701289 0.370611
1.000000 0.693141 0.382330
1.000000 0.685328 0.392645
1.000000 0.678187 0.403204
1.000000 0.671565 0.413825
1.000000 0.665614 0.425025
0.506767 0.822812 0.517845
0.510735 0.822507 0.519982
0.534630 0.836362 0.541405
0.543664 0.834134 0.545708
0.557000 0.830594 0.552300
0.573541 0.825956 0.560784
0.592798 0.820340 0.571405
0.613550 0.813931 0.583581
0.635248 0.807004 0.597559
0.656733 0.799619 0.612787
0.676967 0.791775 0.628656
0.695094 0.783352 0.644862
0.706233 0.786740 0.641199
0.717739 0.798764 0.619928
0.734737 0.809903 0.593286
0.758114 0.819883 0.559136
0.788907 0.828489 0.515496
0.827787 0.835508 0.458564
0.875456 0.840909 0.378851
0.918303 0.834531 0.296696
0.939971 0.814359 0.294865
0.960357 0.797971 0.310887
0.979706 0.783078 0.325811
0.997559 0.769833 0.342290
1.000000 0.757412 0.356359
1.000000 0.745968 0.368841
1.000000 0.735317 0.380102
1.000000 0.725673 0.391150
1.000000 0.717067 0.402411
1.000000 0.708949 0.412818
1.000000 0.701259 0.423072
1.000000 0.694057 0.433692
0.537377 0.846921 0.548028
0.542657 0.848203 0.551781
0.549096 0.849210 0.556146
0.559197 0.849027 0.562188
0.572534 0.847318 0.569604
0.588067 0.843961 0.577935
0.605432 0.839322 0.587243
0.624231 0.833707 0.597955
0.644129 0.827604 0.610132
0.664027 0.820981 0.623285
0.683406 0.813870 0.637354
0.701381 0.806271 0.651850
0.717281 0.797818 0.666682
0.725551 0.807279 0.652064
0.737484 0.817960 0.631220
0.754452 0.827817 0.605402
0.777218 0.836759 0.572900
0.806607 0.844633 0.531273
0.843656 0.851377 0.478340
0.888823 0.856840 0.405890
0.932738 0.853635 0.323827
0.954253 0.834470 0.317815
0.974121 0.818845 0.332586
0.992706 0.804471 0.346227
1.000000 0.791196 0.360815
1.000000 0.778958 0.373938
1.000000 0.767544 0.385840
1.000000 0.757137 0.397528
1.000000 0.747616 0.409094
1.000000 0.738918 0.420996
1.000000 0.730800 0.432746
1.000000 0.722591 0.443000
0.558190 0.864225 0.568597
0.562890 0.865324 0.571984
0.568353 0.866270 0.575738
0.577081 0.866117 0.580835
0.588769 0.864652 0.587243
0.602441 0.861753 0.594415
0.617945 0.857633 0.602564
0.634882 0.852781 0.611872
0.653040 0.847379 0.622492
0.671656 0.841428 0.634180
0.690181 0.835111 0.646693
0.707912 0.828214 0.659968
0.724147 0.820493 0.673701
0.736629 0.816678 0.680751
0.744503 0.827024 0.662898
0.756771 0.836667 0.642206
0.773831 0.845579 0.617395
0.796201 0.853788 0.586725
0.824704 0.861265 0.547753
0.860197 0.867887 0.498207
0.903044 0.873320 0.432105
0.947906 0.873075 0.350561
0.968963 0.854490 0.340612
0.987884 0.839292 0.354162
1.000000 0.824949 0.366217
1.000000 0.811582 0.378424
1.000000 0.799222 0.390723
1.000000 0.787869 0.402411
1.000000 0.777432 0.414221
1.000000 0.767727 0.425971
1.000000 0.758602 0.437812
1.000000 0.749905 0.449683
0.577295 0.881010 0.587610
0.581353 0.882048 0.590539
0.586175 0.882933 0.593774
0.593866 0.882841 0.598322
0.604181 0.881590 0.603876
0.616266 0.878996 0.610071
0.630060 0.875395 0.617090
0.645350 0.871031 0.625177
0.661952 0.866087 0.634485
0.679164 0.860716 0.644770
0.696712 0.854887 0.656001
0.713985 0.848508 0.668238
0.730251 0.841459 0.680903
0.745174 0.833890 0.694240
0.754360 0.836027 0.691310
0.763088 0.845853 0.673671
0.776211 0.855344 0.653681
0.794186 0.864408 0.630793
0.817258 0.873045 0.603143
0.845914 0.881102 0.568719
0.880613 0.888304 0.524102
0.921965 0.894377 0.465400
0.967559 0.896727 0.386450
0.987945 0.878691 0.374304
1.000000 0.863890 0.387213
1.000000 0.849821 0.398749
1.000000 0.836484 0.410101
1.000000 0.824247 0.422614
1.000000 0.812802 0.434668
1.000000 0.802060 0.446509
1.000000 0.791867 0.458503
1.000000 0.782345 0.470192
0.602136 0.903075 0.612268
0.604822 0.903319 0.613916
0.607904 0.903288 0.615717
0.613703 0.902464 0.618677
0.622065 0.900786 0.622766
0.632441 0.898222 0.627802
0.644678 0.894957 0.633845
0.658656 0.891173 0.641047
0.674128 0.887022 0.649531
0.690639 0.882414 0.659205
0.707729 0.877440 0.669978
0.724697 0.871824 0.681544
0.740932 0.865507 0.693538
0.756008 0.858579 0.705989
0.769650 0.851102 0.718807
0.776120 0.858579 0.706325
0.785183 0.867704 0.688777
0.798398 0.876524 0.668849
0.816098 0.884886 0.646387
0.838590 0.892668 0.620233
0.865873 0.899840 0.587945
0.898497 0.906096 0.546197
0.936950 0.911223 0.490730
0.981567 0.914549 0.413062
1.000000 0.896574 0.394812
1.000000 0.881621 0.405493
1.000000 0.867521 0.416266
1.000000 0.854215 0.426612
1.000000 0.841917 0.439246
1.000000 0.830198 0.451240
1.000000 0.819181 0.463172
1.000000 0.809018 0.474525
0.617914 0.918425 0.628016
0.620325 0.918700 0.629541
0.623163 0.918761 0.631189
0.628443 0.918090 0.633875
0.635828 0.916594 0.637476
0.645075 0.914244 0.641810
0.656123 0.911254 0.647120
0.668818 0.907744 0.653529
0.683162 0.903807 0.661219
0.698634 0.899535 0.670069
0.714839 0.894896 0.679988
0.731167 0.889769 0.690700
0.747097 0.884062 0.701961
0.762356 0.877836 0.713832
0.776455 0.871183 0.726070
0.787503 0.867613 0.732876
0.793790 0.876677 0.717617
0.803555 0.885557 0.700465
0.817197 0.894102 0.681178
0.834989 0.902220 0.659388
0.857176 0.909758 0.634424
0.883818 0.916686 0.604669
0.915129 0.922728 0.566613
0.951720 0.927672 0.515404
0.992004 0.928679 0.437110
1.000000 0.912169 0.412696
1.000000 0.896971 0.419379
1.000000 0.882963 0.429694
1.000000 0.869627 0.440009
1.000000 0.857176 0.451820
1.000000 0.845609 0.464088
1.000000 0.834958 0.476020
0.638178 0.937377 0.648188
0.640497 0.937713 0.649744
0.643000 0.937652 0.651148
0.647425 0.936828 0.653285
0.653773 0.935180 0.656184
0.661860 0.932860 0.659846
0.671717 0.929900 0.664393
0.683040 0.926360 0.669856
0.695857 0.922332 0.676417
0.709773 0.917998 0.684016
0.724453 0.913207 0.692531
0.739590 0.908141 0.701991
0.754696 0.902586 0.712154
0.769284 0.896513 0.722805
0.782895 0.889860 0.733700
0.795377 0.882811 0.745022
0.802823 0.883940 0.742458
0.809262 0.892210 0.726894
0.819272 0.900542 0.709865
0.833188 0.908812 0.691035
0.851011 0.916716 0.669947
0.872740 0.923980 0.645655
0.898375 0.930297 0.617090
0.928038 0.935576 0.580743
0.962188 0.939605 0.531792
1.000000 0.942351 0.463752
1.000000 0.928344 0.433875
1.000000 0.912627 0.436194
1.000000 0.898466 0.445747
1.000000 0.885069 0.455634
1.000000 0.872618 0.466651
1.000000 0.861387 0.478645
0.651606 0.950317 0.661646
0.653742 0.950652 0.663081
0.656092 0.950622 0.664424
0.660151 0.949889 0.666407
0.666041 0.948425 0.669123
0.673579 0.946380 0.672602
0.682795 0.943786 0.676936
0.693446 0.940764 0.682185
0.705623 0.937285 0.688472
0.719020 0.933532 0.695827
0.733120 0.929381 0.704036
0.747921 0.924956 0.713191
0.762783 0.920134 0.722988
0.777279 0.914824 0.733272
0.791073 0.908995 0.743832
0.803983 0.902800 0.754757
0.815854 0.896300 0.766079
0.821195 0.902464 0.755734
0.828397 0.910613 0.740841
0.838834 0.918669 0.724422
0.852628 0.926482 0.706081
0.869871 0.933745 0.685206
0.890562 0.940246 0.661128
0.914885 0.945861 0.632990
0.942901 0.950439 0.598871
0.975128 0.953918 0.553643
1.000000 0.956268 0.490730
1.000000 0.944305 0.457008
1.000000 0.928466 0.456947
1.000000 0.914366 0.466835
1.000000 0.901152 0.477180
1.000000 0.889067 0.487678
0.666926 0.963928 0.676967
0.668818 0.964050 0.678126
0.670649 0.963836 0.679103
0.674159 0.963012 0.680690
0.679255 0.961547 0.682948
0.685939 0.959594 0.685969
0.694270 0.957153 0.689784
0.704128 0.954284 0.694575
0.715480 0.951171 0.700435
0.728023 0.947753 0.707271
0.741482 0.944060 0.715053
0.755703 0.940124 0.723812
0.770138 0.935851 0.733150
0.784390 0.931090 0.742977
0.798032 0.925841 0.753017
0.810971 0.920195 0.763363
0.823056 0.914244 0.774075
0.832761 0.910887 0.780575
0.837705 0.918730 0.767422
0.845335 0.926574 0.752987
0.855863 0.934173 0.736904
0.869383 0.941375 0.718807
0.885893 0.947967 0.698054
0.905638 0.953796 0.674220
0.928679 0.958740 0.646296
0.955261 0.962707 0.613275
0.985809 0.965789 0.570947
1.000000 0.967712 0.512078
1.000000 0.957488 0.474617
1.000000 0.941527 0.472084
1.000000 0.927642 0.481941
1.000000 0.914916 0.491890
0.680354 0.975494 0.690303
0.681880 0.975463 0.691218
0.683589 0.975250 0.692134
0.686824 0.974578 0.693690
0.691859 0.973449 0.696071
0.698604 0.971984 0.699428
0.707240 0.970367 0.703944
0.717494 0.968505 0.709560
0.729305 0.966461 0.716304
0.742306 0.964202 0.724025
0.756191 0.961639 0.732601
0.770596 0.958770 0.741878
0.785153 0.955505 0.751553
0.799435 0.951720 0.761471
0.813199 0.947448 0.771511
0.826047 0.942626 0.781430
0.838224 0.937438 0.791623
0.849516 0.932097 0.802121
0.856565 0.933379 0.801297
0.861784 0.940673 0.788785
0.869352 0.947753 0.774929
0.879362 0.954528 0.759304
0.891875 0.960723 0.741421
0.907103 0.966308 0.720974
0.925261 0.971130 0.697353
0.946593 0.975189 0.669825
0.971374 0.978363 0.637537
0.999603 0.980591 0.598901
1.000000 0.981872 0.547753
1.000000 0.972778 0.509422
1.000000 0.956481 0.505089
1.000000 0.942779 0.514519
0.701839 0.990234 0.711513
0.703059 0.990143 0.712245
0.704433 0.989868 0.712917
0.707179 0.989136 0.714107
0.711513 0.987976 0.716091
0.717342 0.986511 0.718868
0.724758 0.984771 0.722560
0.733577 0.982788 0.727169
0.743832 0.980560 0.732753
0.755276 0.978088 0.739284
0.767514 0.975311 0.746487
0.780423 0.972259 0.754421
0.793606 0.968902 0.762875
0.806851 0.965179 0.771725
