data/fiter_cube/55192441/1023186/file.cube
# Created by Adobe Lightroom plugin Export LUT (1.17.0)
# www.johnrellis.com/lightroom/exportlut.htm
# Preset: 清新轻盈通透人像_04 云集
# Color profile: C:\Program Files (x86)\Common Files\Adobe\Color\Profiles\Recommended\AdobeRGB1998.icc
LUT_3D_SIZE 5
DOMAIN_MIN 0.000000 0.000000 0.000000
DOMAIN_MAX 0.903226 0.903226 0.903226
0.000000 0.000000 0.000000
0.500008 0.000000 0.000000
0.818021 0.000000 0.000000
0.997620 0.082979 0.055177
1.000000 0.266758 0.261479
0.000000 0.452369 0.000000
0.463996 0.470466 0.000000
0.803586 0.386419 0.000000
0.988220 0.352361 0.134829
1.000000 0.395941 0.304265
0.405249 0.749905 0.418463
0.545892 0.716793 0.498909
0.757687 0.765591 0.357855
0.970062 0.676173 0.277226
1.000000 0.618982 0.368750
0.602136 0.903075 0.612268
0.658656 0.891173 0.641047
0.769650 0.851102 0.718807
0.898497 0.906096 0.546197
1.000000 0.841917 0.439246
0.715053 0.999603 0.724636
0.744991 0.993133 0.739864
0.819120 0.969085 0.782040
0.887236 0.963928 0.807034
0.989258 0.993927 0.656428
0.000000 0.000000 0.477089
0.479652 0.000000 0.469612
0.787106 0.227329 0.423407
0.953948 0.401312 0.477546
1.000000 0.453925 0.501122
0.000000 0.494820 0.480995
0.471046 0.473060 0.463569
0.772824 0.472633 0.463722
0.949310 0.491005 0.484321
1.000000 0.514092 0.509758
0.366125 0.768917 0.491463
0.565515 0.737881 0.568139
0.741360 0.746975 0.530938
0.938079 0.700984 0.508049
1.000000 0.672541 0.538079
0.608118 0.910155 0.647913
0.667506 0.899779 0.673610
0.779690 0.861387 0.739742
0.896513 0.903014 0.624323
1.000000 0.853849 0.563043
0.726680 1.000000 0.749569
0.750942 0.996124 0.758511
0.831235 0.976989 0.803952
0.897368 0.964874 0.834348
0.989990 0.994079 0.703243
0.000000 0.000000 0.775113
0.371435 0.000000 0.767208
0.762203 0.240238 0.749355
0.934966 0.466377 0.696101
1.000000 0.578393 0.707515
0.199802 0.427619 0.778958
0.456947 0.458595 0.765957
0.757626 0.501122 0.746609
0.923857 0.576287 0.713985
1.000000 0.640070 0.726802
0.279515 0.779446 0.764370
0.492744 0.772702 0.758755
0.746273 0.747829 0.740719
0.911223 0.747158 0.739864
1.000000 0.746029 0.741482
0.500969 0.938750 0.715267
0.603357 0.925628 0.732906
0.789761 0.892668 0.789914
0.896574 0.900603 0.766995
1.000000 0.871977 0.742306
0.672114 1.000000 0.765591
0.725490 1.000000 0.788113
0.835386 0.990051 0.838987
0.915404 0.961730 0.888731
0.988281 0.991150 0.797940
0.044648 0.058473 0.928832
0.344640 0.170962 0.925414
0.661311 0.343786 0.913176
0.913939 0.464515 0.901518
1.000000 0.574548 0.846952
0.371160 0.459907 0.924193
0.474647 0.475654 0.920592
0.692164 0.518273 0.907713
0.907103 0.563684 0.895659
1.000000 0.625696 0.850217
0.470771 0.707332 0.921141
0.566674 0.721920 0.919005
0.735500 0.736782 0.904448
0.894530 0.731472 0.885130
1.000000 0.758511 0.866514
0.508019 0.923583 0.909880
0.578393 0.920470 0.907347
0.740383 0.914214 0.902861
0.893400 0.894530 0.889342
1.000000 0.891417 0.887297
0.591577 1.000000 0.850126
0.644495 1.000000 0.856565
0.778866 1.000000 0.878630
0.922911 0.987030 0.923369
0.988220 0.989563 0.904204
0.226108 0.226810 1.000000
0.358831 0.272068 1.000000
0.598657 0.379858 1.000000
0.818753 0.478462 1.000000
1.000000 0.550591 0.998840
0.402991 0.458137 1.000000
0.471809 0.472267 1.000000
0.641474 0.513909 1.000000
0.827115 0.559289 1.000000
1.000000 0.599756 0.996216
0.545525 0.683467 1.000000
0.597681 0.695583 1.000000
0.706203 0.706813 0.999664
0.842771 0.710628 0.993866
1.000000 0.729213 0.991852
0.565576 0.839048 0.999664
0.611841 0.843137 0.998474
0.740078 0.858854 0.995911
0.877073 0.877714 0.991119
0.994842 0.883696 0.989044
0.596124 1.000000 0.992523
0.636713 1.000000 0.991974
0.756283 1.000000 0.990997
0.893828 0.995117 0.989288
0.987427 0.987762 0.986267
