data/fiter_cube/55192441/1023186/file.cube
# Created by Adobe Lightroom plugin Export LUT (1.17.0)
# www.johnrellis.com/lightroom/exportlut.htm
# Preset: 清新轻盈通透人像_04 云集
# Color profile: C:\Program Files (x86)\Common Files\Adobe\Color\Profiles\Recommended\AdobeRGB1998.icc
LUT_3D_SIZE 8
DOMAIN_MIN 0.000000 0.000000 0.000000
DOMAIN_MAX 0.903226 0.903226 0.903226
0.000000 0.000000 0.000000
0.196445 0.000000 0.000000
0.568536 0.000000 0.000000
0.756222 0.000000 0.000000
0.872313 0.000000 0.000000
0.975341 0.000000 0.000000
1.000000 0.181888 0.172732
1.000000 0.266758 0.261479
0.000000 0.159884 0.005798
0.192477 0.195224 0.000000
0.552331 0.259434 0.000000
0.742550 0.217624 0.000000
0.860899 0.179904 0.000000
0.962341 0.187747 0.000000
1.000000 0.236576 0.163577
1.000000 0.295171 0.255436
0.000000 0.517205 0.024262
0.268376 0.482216 0.182986
0.521202 0.528222 0.000000
0.737972 0.481270 0.000000
0.861387 0.422431 0.000000
0.961730 0.398779 0.112245
1.000000 0.408362 0.237552
1.000000 0.422950 0.308232
0.310002 0.693080 0.326909
0.392401 0.677455 0.365759
0.539330 0.633631 0.476143
0.699947 0.708003 0.263218
0.872770 0.660670 0.110567
0.961578 0.605341 0.240177
1.000000 0.573632 0.303227
1.000000 0.553918 0.349554
0.477729 0.800595 0.489235
0.514092 0.792416 0.507073
0.606897 0.768154 0.564111
0.681605 0.763851 0.591302
0.800259 0.808042 0.419959
0.939727 0.769009 0.271733
1.000000 0.719509 0.342992
1.000000 0.685328 0.392645
0.577295 0.881010 0.587610
0.604181 0.881590 0.603876
0.661952 0.866087 0.634485
0.730251 0.841459 0.680903
0.776211 0.855344 0.653681
0.880613 0.888304 0.524102
1.000000 0.863890 0.387213
1.000000 0.812802 0.434668
0.651606 0.950317 0.661646
0.666041 0.948425 0.669123
0.705623 0.937285 0.688472
0.762783 0.920134 0.722988
0.815854 0.896300 0.766079
0.852628 0.926482 0.706081
0.942901 0.950439 0.598871
1.000000 0.928466 0.456947
0.715053 0.999603 0.724636
0.724056 0.997589 0.729030
0.754665 0.991180 0.745266
0.802426 0.981048 0.774472
0.844327 0.961242 0.801205
0.881254 0.957305 0.818540
0.916533 0.980987 0.761288
0.989258 0.993927 0.656428
0.000000 0.000000 0.191775
0.194827 0.000000 0.191257
0.550469 0.000000 0.199710
0.739437 0.000000 0.195468
0.854459 0.097230 0.217777
0.950683 0.211307 0.264744
1.000000 0.280888 0.311894
1.000000 0.332738 0.353002
0.000000 0.203220 0.198520
0.201572 0.203311 0.195163
0.546471 0.205600 0.189181
0.733547 0.210636 0.195865
0.848905 0.231571 0.219913
0.944305 0.273167 0.264286
1.000000 0.311345 0.304601
1.000000 0.348974 0.343999
0.000000 0.536889 0.233677
0.289372 0.512383 0.293309
0.519615 0.525841 0.245853
0.724758 0.480751 0.213596
0.843503 0.442176 0.249271
0.939940 0.431739 0.292515
1.000000 0.437232 0.335180
1.000000 0.450294 0.375128
0.315343 0.692561 0.377203
0.404639 0.680110 0.412512
0.549737 0.641596 0.502007
0.683192 0.690089 0.360784
0.840116 0.645014 0.280613
0.931914 0.602564 0.334478
1.000000 0.578027 0.367468
1.000000 0.564782 0.399542
0.491127 0.800778 0.518639
0.519554 0.792477 0.527825
0.607843 0.767025 0.575586
0.677913 0.751522 0.605890
0.786069 0.793240 0.458534
0.922759 0.761105 0.351110
1.000000 0.720821 0.403357
1.000000 0.691432 0.437873
0.575799 0.877409 0.595544
0.596277 0.873259 0.604944
0.654475 0.858457 0.634058
0.724727 0.835935 0.679835
0.773068 0.848325 0.663478
0.876829 0.884062 0.551690
0.998322 0.861967 0.438331
1.000000 0.814206 0.471839
0.644556 0.944823 0.660975
0.656214 0.940856 0.665370
0.697414 0.930846 0.685298
0.757473 0.915801 0.721248
0.813260 0.894072 0.765560
0.849546 0.921416 0.711910
0.937377 0.944671 0.608301
1.000000 0.923980 0.478279
0.710994 0.997772 0.724880
0.721035 0.996216 0.730098
0.752346 0.990082 0.746487
0.800839 0.980285 0.775662
0.850675 0.965545 0.810452
0.885344 0.958160 0.827451
0.916899 0.979980 0.768643
0.988006 0.992554 0.665187
0.000000 0.000000 0.548333
0.248783 0.000000 0.543420
0.545159 0.000000 0.533806
0.729152 0.074983 0.477119
0.838773 0.319402 0.484627
0.931456 0.444587 0.535210
1.000000 0.477089 0.546136
1.000000 0.499519 0.553765
0.000000 0.198917 0.553765
0.170871 0.174655 0.545892
0.540887 0.202823 0.528862
0.717586 0.304021 0.488594
0.830594 0.402960 0.504631
0.925689 0.463569 0.530724
1.000000 0.487831 0.539910
1.000000 0.508110 0.549340
0.000000 0.556939 0.541833
0.126497 0.554253 0.538231
0.529778 0.531701 0.522820
0.703182 0.531121 0.521569
0.827939 0.539574 0.531609
0.923400 0.545220 0.538323
1.000000 0.551324 0.545647
1.000000 0.558160 0.553826
0.123293 0.730251 0.486427
0.338964 0.720546 0.508690
0.577752 0.685573 0.577173
0.691981 0.696345 0.556451
0.827054 0.677638 0.539635
0.919127 0.659388 0.550805
0.998199 0.647669 0.558312
1.000000 0.638605 0.565454
0.441169 0.820829 0.553368
0.504265 0.813565 0.576471
0.625025 0.791653 0.627619
0.708400 0.759243 0.677974
0.794583 0.799954 0.592767
0.912779 0.777096 0.541527
0.989502 0.752560 0.566278
1.000000 0.731441 0.576959
0.566705 0.889158 0.626215
0.598474 0.885100 0.641169
0.663081 0.871489 0.667872
0.734432 0.848264 0.704982
0.783230 0.845701 0.711147
0.874357 0.880461 0.628748
0.985809 0.865171 0.566125
1.000000 0.832029 0.590173
0.650507 0.953338 0.690272
0.669062 0.949859 0.699489
0.706538 0.939849 0.712917
0.764675 0.923491 0.742306
0.820432 0.901823 0.780941
0.856931 0.920745 0.750668
0.940063 0.946532 0.667475
1.000000 0.929931 0.588403
0.720882 1.000000 0.749203
0.731044 0.998566 0.753933
0.755520 0.992889 0.762631
0.806058 0.984253 0.791562
0.855344 0.969757 0.822812
0.894163 0.957427 0.850156
0.922271 0.979675 0.799130
0.988800 0.992828 0.710994
0.000000 0.000000 0.714778
0.197421 0.000000 0.714443
0.462806 0.000000 0.703182
0.707424 0.087892 0.694423
0.828885 0.323430 0.641474
0.919371 0.443458 0.637934
0.991943 0.522850 0.654139
1.000000 0.579034 0.674067
0.000000 0.183200 0.721584
0.190280 0.193118 0.718257
0.476631 0.237186 0.703853
0.705226 0.301457 0.692836
0.824735 0.406928 0.649531
0.913695 0.487098 0.645808
0.987366 0.547906 0.659693
1.000000 0.595850 0.678767
0.000000 0.484535 0.719234
0.263554 0.494697 0.716823
0.515953 0.517784 0.699733
0.696468 0.533837 0.686061
0.815122 0.570153 0.672450
0.909117 0.603449 0.678218
0.987793 0.636164 0.693263
1.000000 0.641871 0.690089
0.123690 0.722560 0.707118
0.295598 0.720424 0.705287
0.523552 0.712612 0.698756
0.693446 0.694942 0.687922
0.806699 0.695155 0.686671
0.899992 0.694545 0.687221
0.980499 0.694881 0.688869
1.000000 0.694911 0.690425
0.348577 0.845121 0.659236
0.421332 0.839689 0.664790
0.580102 0.826505 0.685389
0.723598 0.797147 0.722042
0.800381 0.803952 0.704768
0.901244 0.792508 0.689235
0.977722 0.780789 0.695247
1.000000 0.767208 0.695003
0.509941 0.915587 0.673060
0.555840 0.914427 0.687953
0.649561 0.898833 0.713222
0.749630 0.877470 0.750668
0.812345 0.852232 0.786007
0.879759 0.884398 0.722194
0.976471 0.871702 0.686427
1.000000 0.849638 0.701045
0.614527 0.967315 0.712032
0.637415 0.964935 0.720790
0.703853 0.956115 0.748226
0.777646 0.942229 0.780850
0.837583 0.921904 0.813107
0.873533 0.923857 0.810513
0.942504 0.947753 0.743343
1.000000 0.932433 0.689662
0.699245 1.000000 0.762356
0.714931 1.000000 0.769955
0.761379 1.000000 0.793057
0.811856 0.992096 0.816495
0.862089 0.978149 0.843198
0.905058 0.961822 0.874754
0.930022 0.978820 0.842222
0.989441 0.992645 0.772732
0.000000 0.000000 0.826871
0.166751 0.000000 0.826078
0.412055 0.000000 0.818143
0.624903 0.215640 0.803006
0.815061 0.332860 0.802304
0.909758 0.444556 0.759182
0.984619 0.521874 0.745510
1.000000 0.577966 0.744564
0.025177 0.214603 0.828244
0.229953 0.231876 0.827756
0.444068 0.277440 0.818906
0.635065 0.338720 0.801663
0.812467 0.407843 0.800290
0.906950 0.489082 0.762600
0.982452 0.549859 0.750332
1.000000 0.596368 0.748714
0.303838 0.488869 0.828244
0.386023 0.506157 0.825010
0.519860 0.521324 0.815396
0.663905 0.538048 0.801266
0.804196 0.557214 0.793423
0.895384 0.589624 0.767300
0.974121 0.619471 0.759670
1.000000 0.648524 0.759213
0.336095 0.663600 0.825834
0.404303 0.668879 0.824277
0.554406 0.684077 0.820645
0.687556 0.689326 0.805722
0.799710 0.688716 0.790280
0.889220 0.699916 0.778897
0.966857 0.713619 0.778500
1.000000 0.729122 0.782193
0.372015 0.828336 0.813687
0.427832 0.827359 0.813016
0.556664 0.822477 0.808988
0.682856 0.814237 0.801358
0.793637 0.795102 0.788357
0.882597 0.793301 0.785489
0.961334 0.791592 0.785336
1.000000 0.789120 0.784543
0.440467 0.915709 0.762142
0.482033 0.913085 0.764981
0.583032 0.904265 0.771206
0.699214 0.894133 0.782712
0.809506 0.867948 0.807828
0.874968 0.878050 0.797147
0.962554 0.873594 0.787167
1.000000 0.862547 0.792447
0.548394 0.982208 0.758602
0.570886 0.980102 0.761990
0.646723 0.970825 0.776638
0.747372 0.956420 0.803555
0.834836 0.938537 0.835599
0.886473 0.919585 0.863432
0.940795 0.944701 0.810452
1.000000 0.930846 0.775662
0.643854 1.000000 0.777646
0.660975 1.000000 0.782803
0.714473 1.000000 0.800412
0.794827 1.000000 0.834379
0.859983 0.988647 0.862577
0.909422 0.972351 0.890074
0.936797 0.975860 0.885008
0.988464 0.990875 0.829465
0.000000 0.000000 0.915496
0.195010 0.075288 0.914397
0.396887 0.180148 0.908049
0.588220 0.290959 0.900633
0.752377 0.379553 0.889860
0.898375 0.448463 0.885893
0.977142 0.524254 0.848875
1.000000 0.579919 0.827817
0.199252 0.262821 0.910552
0.274205 0.275639 0.908995
0.433387 0.315862 0.903685
0.602136 0.375433 0.896269
0.753597 0.433082 0.884947
0.894255 0.485359 0.882139
0.973999 0.547601 0.848631
1.000000 0.595636 0.828946
0.412238 0.518700 0.909911
0.442023 0.521538 0.908415
0.531182 0.532311 0.903868
0.649348 0.549615 0.895933
0.768002 0.567041 0.882353
0.890867 0.587121 0.879728
0.969574 0.619471 0.852964
1.000000 0.651911 0.836973
0.456825 0.657252 0.914275
0.494606 0.663752 0.912047
0.591669 0.681666 0.906188
0.692561 0.693874 0.900114
0.788724 0.695399 0.887999
0.891539 0.699550 0.881682
0.966094 0.716060 0.862913
1.000000 0.732418 0.851530
0.469673 0.780545 0.902800
0.503899 0.783322 0.902342
0.592004 0.790036 0.900877
0.699550 0.798459 0.898711
0.795438 0.796963 0.886229
0.880674 0.790372 0.872313
0.955566 0.797086 0.864286
1.000000 0.806027 0.861448
0.483619 0.904570 0.890684
0.514244 0.905150 0.891508
0.591363 0.903349 0.890196
0.690669 0.899382 0.887175
0.786954 0.891386 0.880430
0.876066 0.877226 0.871672
0.951934 0.877989 0.872038
1.000000 0.876432 0.872282
0.526482 0.983703 0.853300
0.548760 0.982971 0.854673
0.614679 0.978210 0.857237
0.709041 0.970794 0.863676
0.805783 0.962097 0.873503
0.895598 0.941527 0.894499
0.943359 0.945769 0.881254
1.000000 0.936950 0.869139
0.598108 1.000000 0.831662
0.613764 1.000000 0.833677
0.664576 1.000000 0.841123
0.742550 1.000000 0.856291
0.834440 1.000000 0.881071
0.909056 0.986542 0.909911
0.948974 0.973449 0.931304
0.988464 0.990021 0.890379
0.162387 0.163760 0.975952
0.241184 0.189120 0.976013
0.396399 0.252781 0.973114
0.558862 0.331426 0.968383
0.707301 0.403418 0.960723
0.839902 0.462989 0.953185
0.961761 0.512902 0.949493
1.000000 0.567956 0.911559
0.258976 0.297551 0.971496
0.309789 0.310674 0.971435
0.431922 0.345495 0.968780
0.574060 0.394446 0.963684
0.711421 0.445075 0.956085
0.837583 0.489570 0.948211
0.956542 0.529290 0.944488
1.000000 0.575402 0.908263
0.434638 0.514794 0.968902
0.457435 0.517876 0.968170
0.527245 0.528008 0.965270
0.627161 0.545251 0.960693
0.735744 0.564050 0.953307
0.844419 0.582452 0.945830
0.955718 0.602411 0.944427
1.000000 0.636835 0.913176
0.518669 0.654871 0.968261
0.541711 0.660090 0.966705
0.605219 0.673365 0.963073
0.676722 0.677577 0.959472
0.761685 0.680842 0.953063
0.853605 0.684718 0.945312
0.954803 0.695613 0.944732
1.000000 0.716426 0.918578
0.525872 0.751766 0.963958
0.546868 0.754360 0.963073
0.610864 0.763333 0.961334
0.699153 0.776852 0.957855
0.780453 0.781491 0.951019
0.858061 0.776730 0.941741
0.947234 0.779141 0.938598
1.000000 0.795163 0.922087
0.534936 0.856168 0.957061
0.554650 0.857298 0.956817
0.615717 0.860990 0.956054
0.702174 0.867277 0.955352
0.794430 0.874510 0.954101
0.874968 0.876036 0.947387
0.945312 0.870085 0.938689
1.000000 0.876677 0.930571
0.549126 0.964630 0.951568
0.568017 0.964660 0.951812
0.624201 0.963592 0.951354
0.703914 0.961913 0.950744
0.790127 0.958373 0.948638
0.872648 0.953033 0.945037
0.941466 0.942260 0.938445
0.995850 0.941558 0.937835
0.574670 1.000000 0.912444
0.589593 1.000000 0.912840
0.641535 1.000000 0.915587
0.712245 1.000000 0.918395
0.799802 1.000000 0.924926
0.884489 1.000000 0.935790
0.955688 0.986603 0.955200
0.988556 0.989380 0.946288
0.226108 0.226810 1.000000
0.274907 0.242588 1.000000
0.391455 0.284977 1.000000
0.529931 0.347356 1.000000
0.664942 0.410681 1.000000
0.789242 0.465736 1.000000
0.904448 0.514427 1.000000
1.000000 0.550591 0.998840
0.295171 0.321538 1.000000
0.331334 0.331823 1.000000
0.426368 0.359136 1.000000
0.548394 0.402045 1.000000
0.673640 0.449744 1.000000
0.792081 0.493263 1.000000
0.903777 0.532555 0.999878
1.000000 0.562707 0.997101
0.434730 0.499550 1.000000
0.454078 0.503288 1.000000
0.511742 0.512169 1.000000
0.603204 0.534081 1.000000
0.702693 0.555413 1.000000
0.803861 0.574975 1.000000
0.905547 0.594202 0.997070
1.000000 0.613123 0.995148
0.543053 0.645960 1.000000
0.555444 0.647578 1.000000
0.592554 0.649683 1.000000
0.654994 0.655512 1.000000
0.732570 0.662287 1.000000
0.818082 0.668513 0.997620
0.909209 0.676539 0.994690
1.000000 0.688777 0.993378
0.550195 0.725368 1.000000
0.567681 0.729213 1.000000
0.617731 0.738979 1.000000
0.691341 0.754696 0.999664
0.757595 0.758206 0.997070
0.830869 0.758999 0.993988
0.911864 0.761288 0.990936
0.999359 0.773373 0.990875
0.558099 0.813962 1.000000
0.572351 0.815244 0.999542
0.619440 0.820279 0.998291
0.692256 0.829984 0.996796
0.777829 0.844450 0.994659
0.854276 0.854917 0.992065
0.922545 0.856382 0.990112
0.996551 0.865263 0.990265
0.573632 0.909056 0.996124
0.587091 0.909514 0.995789
0.631495 0.911223 0.994965
0.702296 0.915312 0.994018
0.786831 0.921965 0.992828
0.873075 0.932341 0.991730
0.939727 0.940307 0.989685
0.990295 0.936492 0.986236
0.596124 1.000000 0.992523
0.608240 1.000000 0.992340
0.649989 1.000000 0.991852
0.717311 1.000000 0.991333
0.796475 0.998871 0.990539
0.875395 0.995911 0.989563
0.943114 0.992493 0.988342
0.987427 0.987762 0.986267
