data/fiter_cube/48671653/1023260/file.cube
# Created by Adobe Lightroom plugin Export LUT (1.17.0)
# www.johnrellis.com/lightroom/exportlut.htm
# Preset: 青橙风光风景_09 云集
# Color profile: C:\Program Files (x86)\Common Files\Adobe\Color\Profiles\Recommended\AdobeRGB1998.icc
LUT_3D_SIZE 32
DOMAIN_MIN 0.0 0.0 0.0
DOMAIN_MAX 1.0 1.0 1.0
0.156405 0.192325 0.226383
0.154177 0.192142 0.226352
0.151064 0.191806 0.226230
0.144167 0.191196 0.226108
0.135958 0.190311 0.225834
0.132784 0.189609 0.225284
0.137453 0.189242 0.224613
0.152438 0.189181 0.223636
0.177340 0.189456 0.222324
0.212192 0.189944 0.220676
0.257481 0.190249 0.218509
0.312993 0.189761 0.215366
0.378180 0.188235 0.211276
0.451637 0.184878 0.205600
0.529747 0.180972 0.198611
0.608942 0.178103 0.189975
0.685573 0.178622 0.179660
0.753658 0.184939 0.168215
0.811307 0.197055 0.156374
0.860960 0.214450 0.143679
0.903319 0.235508 0.130556
0.939696 0.258610 0.116793
0.970855 0.281865 0.103151
0.997620 0.304448 0.089876
1.000000 0.325566 0.077913
1.000000 0.345159 0.069886
1.000000 0.363317 0.066651
1.000000 0.380163 0.072023
1.000000 0.395880 0.083986
1.000000 0.411109 0.101869
1.000000 0.426459 0.123690
1.000000 0.442542 0.149538
0.156374 0.190677 0.225864
0.154604 0.190524 0.226078
0.151247 0.190341 0.226047
0.144594 0.189578 0.225925
0.136568 0.188907 0.225559
0.133089 0.188571 0.225071
0.137514 0.188510 0.224369
0.152163 0.188998 0.223453
0.176761 0.189670 0.222141
0.211429 0.190463 0.220462
0.256382 0.191135 0.218296
0.311833 0.191196 0.215122
0.376867 0.190219 0.211002
0.450233 0.187564 0.205386
0.528374 0.184604 0.198337
0.607660 0.182284 0.189578
0.684169 0.183780 0.179294
0.752529 0.190402 0.167880
0.810422 0.202457 0.155947
0.860166 0.219821 0.143130
0.902708 0.240574 0.129885
0.939178 0.263035 0.116213
0.970428 0.285954 0.102388
0.997284 0.307988 0.089052
1.000000 0.328954 0.077211
1.000000 0.348455 0.068544
1.000000 0.366247 0.065766
1.000000 0.382849 0.071595
1.000000 0.398352 0.083986
1.000000 0.413428 0.101839
1.000000 0.428656 0.123873
1.000000 0.444587 0.149844
0.155978 0.188418 0.225193
0.155550 0.188205 0.225589
0.151797 0.188083 0.225742
0.145083 0.187808 0.225589
0.137087 0.187137 0.225284
0.133516 0.187198 0.224796
0.137545 0.187747 0.224155
0.151644 0.188571 0.223117
0.175906 0.189792 0.221866
0.210300 0.191165 0.220157
0.254917 0.192569 0.217960
0.310094 0.193149 0.214847
0.375006 0.192844 0.210605
0.448280 0.191196 0.204959
0.526207 0.189212 0.197848
0.605798 0.187961 0.189212
0.682521 0.190311 0.178836
0.750942 0.197574 0.167300
0.809262 0.209445 0.155245
0.859159 0.226596 0.142397
0.901884 0.247044 0.129152
0.938506 0.269078 0.115084
0.969848 0.291539 0.101259
0.996826 0.313146 0.087922
1.000000 0.333654 0.075898
1.000000 0.352575 0.067506
1.000000 0.370123 0.065126
1.000000 0.386511 0.070985
1.000000 0.401709 0.083803
1.000000 0.416693 0.101686
1.000000 0.431586 0.123995
1.000000 0.447333 0.150393
0.155215 0.183963 0.223636
0.154910 0.183719 0.224125
0.153933 0.183597 0.224521
0.146059 0.183200 0.224857
0.137942 0.184054 0.224735
0.134371 0.184360 0.224216
0.137636 0.185794 0.223423
0.150881 0.187839 0.222538
0.174289 0.190311 0.221286
0.207858 0.192844 0.219638
0.251926 0.195193 0.217288
0.306584 0.197391 0.214115
0.370977 0.198550 0.209781
0.443732 0.198917 0.204135
0.521935 0.199069 0.197116
0.601556 0.199893 0.188205
0.678676 0.203799 0.177707
0.747677 0.212192 0.166018
0.806455 0.224338 0.153780
0.856870 0.240726 0.140810
0.900114 0.260136 0.127199
0.936980 0.281376 0.113313
0.968597 0.302983 0.099062
0.995758 0.323766 0.085481
1.000000 0.343450 0.073213
1.000000 0.361639 0.064912
1.000000 0.378515 0.062745
1.000000 0.394324 0.069306
1.000000 0.409094 0.083070
1.000000 0.423407 0.101961
1.000000 0.437842 0.124849
1.000000 0.453193 0.151400
0.153933 0.178805 0.221775
0.153658 0.178683 0.222141
0.153292 0.178714 0.222721
0.150484 0.178561 0.223148
0.140688 0.178622 0.223575
0.135256 0.181613 0.223453
0.137942 0.183627 0.222751
0.149538 0.186801 0.221683
0.171847 0.190707 0.220462
0.204288 0.194949 0.218631
0.247288 0.199161 0.216281
0.301122 0.203159 0.212924
0.364874 0.206760 0.208652
0.437201 0.209934 0.202945
0.515099 0.212924 0.195712
0.594812 0.216892 0.186862
0.672511 0.223056 0.176181
0.742336 0.232578 0.164218
0.802121 0.245029 0.151644
0.853391 0.260868 0.138460
0.897185 0.279698 0.124392
0.934630 0.299870 0.109987
0.966644 0.319982 0.095491
0.994110 0.339757 0.081270
1.000000 0.358190 0.068849
1.000000 0.375372 0.060151
1.000000 0.391363 0.059297
1.000000 0.406073 0.067262
1.000000 0.420233 0.082094
1.000000 0.433753 0.102296
1.000000 0.447547 0.125917
1.000000 0.462257 0.153353
0.152285 0.175937 0.220096
0.152010 0.175937 0.220371
0.151888 0.175937 0.220768
0.151308 0.175998 0.221530
0.146761 0.176333 0.221653
0.139101 0.177310 0.222110
0.139254 0.182010 0.221714
0.150301 0.186374 0.220676
0.169711 0.191318 0.219242
0.199863 0.197391 0.217411
0.241367 0.203861 0.214847
0.294011 0.210422 0.211521
0.356542 0.216922 0.207218
0.428412 0.223117 0.201511
0.506065 0.229557 0.194247
0.585962 0.236637 0.185153
0.664240 0.245579 0.174166
0.735256 0.256779 0.161868
0.796109 0.269902 0.148928
0.848539 0.285527 0.135134
0.893187 0.303441 0.120790
0.931395 0.322301 0.105684
0.963989 0.341283 0.090547
0.991882 0.359747 0.075654
1.000000 0.377081 0.062806
1.000000 0.393011 0.050996
1.000000 0.408026 0.050935
1.000000 0.421637 0.064302
1.000000 0.434638 0.081239
1.000000 0.447272 0.102968
1.000000 0.460273 0.127443
1.000000 0.474220 0.155795
0.149508 0.176761 0.218662
0.149264 0.176791 0.218845
0.149233 0.176791 0.218967
0.148745 0.176852 0.219242
0.147921 0.176944 0.219455
0.144930 0.178531 0.219669
0.143435 0.180911 0.219821
0.152163 0.186587 0.219211
0.171481 0.193393 0.217716
0.198917 0.200717 0.215732
0.234470 0.208927 0.213382
0.285252 0.218357 0.209995
0.346685 0.227970 0.205600
0.417487 0.237949 0.199832
0.494850 0.247929 0.192447
0.574945 0.258366 0.183200
0.653681 0.270207 0.172030
0.726284 0.283452 0.159091
0.788571 0.297368 0.145632
0.842344 0.312963 0.131228
0.888151 0.330419 0.116091
0.927245 0.348211 0.100374
0.960510 0.366155 0.084138
0.989044 0.383154 0.067933
1.000000 0.399207 0.050477
1.000000 0.413916 0.035248
1.000000 0.427649 0.038727
1.000000 0.440253 0.060700
1.000000 0.452094 0.080476
1.000000 0.463783 0.103914
1.000000 0.475685 0.129793
1.000000 0.488685 0.159152
0.145205 0.182345 0.217624
0.145205 0.182345 0.217624
0.145052 0.182376 0.217533
0.144869 0.182406 0.217411
0.144717 0.182559 0.217227
0.144594 0.183474 0.217075
0.147189 0.186679 0.216892
0.155062 0.191104 0.216648
0.173861 0.196689 0.215793
0.201572 0.206088 0.213901
0.237247 0.216159 0.211337
0.280461 0.227237 0.208316
0.335210 0.239567 0.204105
0.404730 0.253025 0.198184
0.481453 0.266758 0.190677
0.561639 0.280888 0.181125
0.641047 0.295689 0.169467
0.715175 0.311070 0.156069
0.779141 0.326513 0.141817
0.834714 0.342351 0.126650
0.881956 0.359319 0.110475
0.922148 0.376471 0.093660
0.956298 0.393378 0.075715
0.985534 0.409186 0.057435
1.000000 0.423987 0.028565
1.000000 0.437629 0.015900
1.000000 0.449989 0.024201
1.000000 0.461433 0.055970
1.000000 0.472206 0.080018
1.000000 0.482673 0.105196
1.000000 0.493690 0.132998
1.000000 0.505638 0.163699
0.139559 0.193759 0.217288
0.139651 0.193759 0.217105
0.139498 0.193790 0.216922
0.139681 0.193790 0.216342
0.139590 0.193851 0.215457
0.139864 0.193973 0.214481
0.144411 0.196658 0.214206
0.154940 0.202029 0.213718
0.174075 0.208530 0.212955
0.203311 0.214115 0.211734
0.240726 0.225986 0.209171
0.284550 0.239170 0.205905
0.335851 0.253330 0.201602
0.393317 0.268498 0.196353
0.465949 0.285466 0.188907
0.545983 0.303166 0.179110
0.626154 0.321080 0.167086
0.701930 0.339239 0.153048
0.768063 0.355993 0.137850
0.825498 0.372564 0.121736
0.874418 0.389532 0.104341
0.916045 0.406165 0.085664
0.951324 0.422217 0.065644
0.981292 0.437293 0.032502
1.000000 0.450996 0.003479
1.000000 0.463325 0.000000
1.000000 0.474647 0.008576
1.000000 0.484962 0.048646
1.000000 0.494484 0.079652
1.000000 0.503899 0.107424
1.000000 0.513725 0.136904
1.000000 0.524743 0.168978
0.132204 0.211124 0.217929
0.132296 0.211124 0.217624
0.132479 0.211124 0.217166
0.132601 0.211154 0.216190
0.133089 0.211154 0.214817
0.133547 0.211063 0.212955
0.136110 0.210758 0.211765
0.148775 0.216922 0.211063
0.169497 0.224918 0.209964
0.200992 0.234379 0.208408
0.240665 0.240391 0.206699
0.289372 0.254093 0.203159
0.341070 0.270573 0.198764
0.398993 0.287846 0.193149
0.461646 0.305791 0.186160
0.528466 0.324620 0.177493
0.609125 0.345861 0.164950
0.686549 0.366491 0.150118
0.754910 0.385168 0.134157
0.814664 0.402777 0.116609
0.865751 0.420081 0.097261
0.908843 0.436713 0.076356
0.945403 0.452308 0.048432
0.976440 0.466499 0.002441
1.000000 0.479286 0.000000
1.000000 0.490822 0.000000
1.000000 0.500938 0.000000
1.000000 0.510124 0.041199
1.000000 0.518517 0.080751
1.000000 0.526818 0.110842
1.000000 0.535576 0.141756
1.000000 0.545556 0.175418
0.122591 0.235019 0.219669
0.122805 0.234928 0.219211
0.123018 0.234928 0.218631
0.123323 0.234867 0.217380
0.124178 0.234562 0.215396
0.125246 0.234379 0.212741
0.126528 0.234104 0.209476
0.136263 0.235966 0.208743
0.159213 0.245121 0.207462
0.191653 0.256199 0.205631
0.235874 0.269200 0.202976
0.286290 0.275914 0.200381
0.347173 0.290990 0.195590
0.405615 0.310643 0.189425
0.468482 0.330571 0.181918
0.533654 0.350713 0.172793
0.598596 0.370886 0.161837
0.668574 0.392340 0.147890
0.739803 0.413367 0.130526
0.802182 0.432624 0.111360
0.855589 0.450507 0.090059
0.900603 0.467201 0.065675
0.938628 0.482643 0.016449
0.970794 0.496345 0.000000
0.998199 0.508629 0.000000
1.000000 0.519188 0.000000
1.000000 0.528405 0.000000
1.000000 0.536553 0.036316
1.000000 0.543999 0.082612
1.000000 0.551171 0.114900
1.000000 0.558892 0.148074
1.000000 0.567895 0.183230
0.108949 0.265568 0.222843
0.109224 0.265476 0.222293
0.109651 0.265385 0.221469
0.110506 0.265141 0.219883
0.111757 0.264805 0.217319
0.113771 0.264225 0.213870
0.115755 0.263645 0.209659
0.120577 0.262669 0.206363
0.142000 0.269017 0.205325
0.176669 0.281651 0.203189
0.221622 0.296391 0.200290
0.279149 0.313268 0.195987
0.339757 0.320867 0.192081
0.413092 0.336706 0.185519
0.476081 0.358465 0.177279
0.541070 0.379950 0.167453
0.605737 0.401129 0.155703
0.668116 0.421576 0.142092
0.725368 0.440650 0.126894
0.787869 0.461128 0.106722
0.843961 0.480079 0.082979
0.891112 0.497383 0.049470
0.930846 0.512779 0.000000
0.964416 0.526360 0.000000
0.992920 0.538170 0.000000
1.000000 0.548211 0.000000
1.000000 0.556634 0.000000
1.000000 0.563928 0.033814
1.000000 0.570397 0.085756
1.000000 0.576593 0.120790
1.000000 0.583337 0.155703
1.000000 0.591272 0.192508
0.088319 0.302770 0.227481
0.088838 0.302708 0.226780
0.089448 0.302556 0.225864
0.091157 0.302190 0.223972
0.093355 0.301610 0.220737
0.096071 0.300816 0.216617
0.099550 0.299809 0.211551
0.103090 0.298650 0.205386
0.116365 0.296605 0.203433
0.154299 0.310155 0.201236
0.201450 0.326452 0.197910
0.259586 0.345037 0.193271
0.330022 0.365698 0.186679
0.400214 0.374609 0.180941
0.484382 0.389410 0.172244
0.549371 0.412207 0.161257
0.613581 0.433875 0.148562
0.675044 0.454383 0.133944
0.731289 0.472938 0.117708
0.782834 0.490730 0.099123
0.830747 0.508354 0.076143
0.880491 0.526513 0.024567
0.922118 0.542443 0.000000
0.957275 0.556085 0.000000
0.986999 0.567712 0.000000
1.000000 0.577295 0.000000
1.000000 0.585229 0.000000
1.000000 0.591760 0.037873
1.000000 0.597375 0.090944
1.000000 0.602686 0.128145
1.000000 0.608484 0.164248
1.000000 0.615473 0.203159
0.039948 0.346532 0.233951
0.042573 0.346349 0.233097
0.045655 0.346166 0.232029
0.051331 0.345678 0.229679
0.059358 0.344762 0.225986
0.065583 0.343725 0.221073
0.072236 0.342351 0.215030
0.078614 0.340826 0.207767
0.087739 0.338750 0.200137
0.121035 0.341253 0.199557
0.174228 0.358953 0.195926
0.234653 0.379004 0.191012
0.305058 0.400977 0.184054
0.387701 0.424689 0.174380
0.469306 0.437568 0.164950
0.558312 0.446937 0.154849
0.621851 0.468818 0.140993
0.682460 0.489021 0.125093
0.737575 0.506767 0.107637
0.787991 0.523552 0.086946
0.833280 0.539696 0.061097
0.873228 0.555352 0.000000
0.912383 0.570977 0.000000
0.949310 0.585138 0.000000
0.980438 0.596765 0.000000
1.000000 0.606165 0.000000
1.000000 0.613642 0.000000
1.000000 0.619654 0.047150
1.000000 0.624598 0.097963
1.000000 0.629145 0.136477
1.000000 0.634058 0.174868
1.000000 0.640192 0.215335
0.000000 0.395727 0.242100
0.000000 0.395544 0.241276
0.000000 0.395209 0.240055
0.000000 0.394598 0.237278
0.000000 0.393652 0.233127
0.000000 0.392309 0.227481
0.000000 0.390631 0.220401
0.000000 0.388556 0.211887
0.026612 0.386206 0.202152
0.075685 0.382971 0.196567
0.135164 0.393317 0.194217
0.202426 0.414405 0.189059
0.275303 0.437385 0.181979
0.357488 0.462074 0.172091
0.450172 0.487556 0.158145
0.540856 0.503532 0.143587
0.630793 0.505608 0.132937
0.690211 0.525048 0.115694
0.744137 0.541955 0.096468
0.793423 0.557671 0.073396
0.837461 0.572564 0.027375
0.876463 0.586847 0.000000
0.910979 0.600366 0.000000
0.941558 0.613092 0.000000
0.973175 0.624964 0.000000
1.000000 0.634424 0.000000
1.000000 0.641718 0.000000
1.000000 0.647364 0.059998
1.000000 0.651789 0.106538
1.000000 0.655573 0.146609
1.000000 0.659724 0.186526
1.000000 0.665064 0.228885
0.000000 0.449409 0.252354
0.000000 0.449226 0.251316
0.000000 0.448768 0.250004
0.000000 0.448157 0.246891
0.000000 0.446815 0.242283
0.000000 0.445380 0.235813
0.000000 0.443427 0.227726
0.000000 0.441077 0.218173
0.000000 0.438331 0.206882
0.000000 0.435126 0.194034
0.063844 0.430488 0.192508
0.158846 0.450935 0.187411
0.238804 0.474250 0.180148
0.323156 0.499275 0.170291
0.415045 0.524804 0.156802
0.514580 0.550439 0.137789
0.611261 0.568536 0.115297
0.695125 0.564172 0.105165
0.751064 0.578058 0.084962
0.799008 0.592493 0.058167
0.841855 0.606073 0.000000
0.879789 0.618830 0.000000
0.913420 0.630915 0.000000
0.943236 0.642084 0.000000
0.969818 0.652430 0.000000
0.994232 0.661860 0.000000
1.000000 0.669123 0.000000
1.000000 0.674525 0.070314
1.000000 0.678523 0.116915
1.000000 0.681788 0.158083
1.000000 0.685237 0.199832
1.000000 0.689906 0.244175
0.000000 0.505669 0.264622
0.000000 0.505303 0.263462
0.000000 0.504997 0.262150
0.000000 0.504143 0.258640
0.000000 0.502983 0.253544
0.000000 0.501274 0.246586
0.000000 0.499214 0.237675
0.000000 0.496529 0.226780
0.000000 0.493538 0.214054
0.000000 0.489937 0.199405
0.000000 0.485725 0.187289
0.083101 0.488167 0.186160
0.191592 0.511650 0.178897
0.282780 0.536248 0.169162
0.376532 0.561364 0.156069
0.475349 0.586419 0.138369
0.578637 0.610895 0.112459
0.678035 0.630304 0.074861
0.750820 0.619654 0.069612
0.804776 0.627863 0.029999
0.846372 0.639948 0.000000
0.883177 0.651240 0.000000
0.915892 0.661616 0.000000
0.945006 0.671321 0.000000
0.970916 0.680049 0.000000
0.993988 0.688014 0.000000
1.000000 0.695155 0.000000
1.000000 0.700923 0.082368
1.000000 0.704585 0.128420
1.000000 0.707424 0.171115
1.000000 0.710353 0.214267
1.000000 0.714382 0.260807
0.000000 0.562493 0.279149
0.000000 0.562097 0.277867
0.000000 0.561883 0.276402
0.000000 0.560998 0.272709
0.000000 0.559777 0.267216
0.000000 0.558038 0.259586
0.000000 0.555901 0.249973
0.000000 0.553246 0.238285
0.000000 0.550225 0.224186
0.000000 0.546624 0.207889
0.000000 0.542626 0.189059
0.000000 0.537346 0.182193
0.120424 0.549371 0.177951
0.234257 0.573632 0.168643
0.333898 0.598383 0.156313
0.434730 0.622889 0.139467
0.538079 0.646418 0.115999
0.640772 0.667994 0.080476
0.738613 0.686824 0.000000
0.800381 0.671168 0.000000
0.850950 0.673915 0.000000
0.886656 0.683558 0.000000
0.918456 0.692378 0.000000
0.946777 0.700404 0.000000
0.972015 0.707576 0.000000
0.994507 0.714015 0.000000
1.000000 0.719753 0.066285
1.000000 0.724910 0.105257
1.000000 0.729671 0.141939
1.000000 0.732418 0.185031
1.000000 0.734890 0.229953
1.000000 0.738369 0.278660
0.000000 0.619898 0.296330
0.000000 0.619715 0.295048
0.000000 0.619348 0.293217
0.000000 0.618585 0.289647
0.000000 0.617487 0.283696
0.000000 0.615869 0.275853
0.000000 0.613855 0.265537
0.000000 0.611322 0.252995
0.000000 0.608423 0.238010
0.000000 0.605097 0.220310
0.000000 0.601251 0.199344
0.000000 0.596887 0.175875
0.000000 0.590936 0.176913
0.167636 0.612940 0.168368
0.284977 0.636988 0.156771
0.391516 0.660273 0.141543
0.496193 0.682124 0.121340
0.599237 0.701869 0.092470
0.698604 0.719753 0.021271
0.790677 0.736172 0.000000
0.843442 0.718288 0.000000
0.890196 0.715572 0.000000
0.921019 0.722744 0.000000
0.948547 0.729122 0.000000
0.973114 0.734768 0.003540
0.995026 0.739742 0.065309
1.000000 0.744076 0.099214
1.000000 0.747951 0.132174
1.000000 0.751522 0.166842
1.000000 0.755062 0.204349
1.000000 0.758694 0.246983
1.000000 0.761776 0.297795
0.000000 0.677607 0.316655
0.000000 0.677424 0.315526
0.000000 0.677180 0.313725
0.000000 0.676539 0.309789
0.000000 0.675441 0.303746
0.000000 0.674098 0.295567
0.000000 0.672236 0.284855
0.000000 0.670069 0.271763
0.000000 0.667414 0.255955
0.000000 0.664393 0.237003
0.000000 0.660945 0.214725
0.000000 0.657099 0.188327
0.000000 0.652094 0.170871
0.000000 0.654078 0.169192
0.223423 0.676600 0.158755
0.342931 0.697963 0.145632
0.452125 0.717830 0.128939
0.557061 0.735622 0.106752
0.657496 0.751522 0.074403
0.751003 0.765743 0.000000
0.834775 0.778805 0.000000
0.880461 0.760342 0.000000
0.923644 0.752438 0.016602
0.950317 0.757259 0.049958
0.974182 0.761440 0.077028
0.995514 0.764981 0.102663
1.000000 0.768032 0.129976
1.000000 0.770718 0.159945
1.000000 0.773190 0.192905
1.000000 0.775723 0.229496
1.000000 0.778927 0.271092
1.000000 0.783536 0.319524
0.000000 0.732235 0.340002
0.000000 0.732021 0.338628
0.000000 0.731746 0.336858
0.000000 0.731258 0.333074
0.000000 0.730343 0.326879
0.000000 0.729183 0.318547
0.000000 0.727687 0.307866
0.000000 0.725917 0.294530
0.000000 0.723720 0.278386
0.000000 0.721187 0.259068
0.000000 0.718379 0.236057
0.000000 0.715084 0.208591
0.000000 0.711452 0.175051
0.000000 0.706264 0.168368
0.126223 0.716274 0.163241
0.285222 0.735592 0.152743
0.404517 0.753262 0.140017
0.513603 0.769100 0.123842
0.616022 0.782956 0.103365
0.711299 0.794980 0.075868
0.797269 0.805844 0.001404
0.872557 0.816098 0.000000
0.912505 0.797299 0.012726
0.952117 0.784543 0.096803
0.975219 0.787381 0.114534
0.995941 0.789700 0.136263
1.000000 0.791562 0.160800
1.000000 0.793118 0.188968
1.000000 0.794553 0.220615
1.000000 0.796109 0.256626
1.000000 0.798459 0.298161
1.000000 0.802243 0.346410
0.000000 0.782467 0.365881
0.000000 0.782284 0.364691
0.000000 0.782071 0.362951
0.000000 0.781674 0.359167
0.000000 0.780972 0.353124
0.000000 0.780056 0.344884
0.000000 0.778866 0.334386
0.000000 0.777340 0.321294
0.000000 0.775662 0.305150
0.000000 0.773617 0.285924
0.000000 0.771450 0.263157
0.000000 0.768795 0.235966
0.000000 0.765957 0.202976
0.000000 0.762478 0.170840
0.000000 0.757290 0.170871
0.210788 0.772946 0.163851
0.351415 0.788449 0.154849
0.468116 0.802121 0.144289
0.573968 0.813901 0.131930
0.671534 0.823911 0.117769
0.759915 0.832700 0.101198
0.837400 0.840879 0.082094
0.904906 0.848722 0.057099
0.940185 0.829801 0.100954
0.976196 0.812680 0.149935
0.996246 0.813809 0.169345
1.000000 0.814542 0.192447
1.000000 0.815061 0.219303
1.000000 0.815457 0.250095
1.000000 0.816159 0.285649
1.000000 0.817685 0.326818
1.000000 0.820676 0.374884
0.000000 0.827787 0.394598
0.000000 0.827695 0.393439
0.000000 0.827573 0.391852
0.000000 0.827207 0.388128
0.000000 0.826719 0.382330
0.000000 0.825986 0.374334
0.000000 0.825132 0.364263
0.000000 0.824002 0.351629
0.000000 0.822721 0.336187
0.000000 0.821195 0.317662
0.000000 0.819455 0.295842
0.000000 0.817563 0.269749
0.000000 0.815396 0.238590
0.000000 0.812955 0.199985
0.000000 0.809384 0.181552
0.066346 0.809812 0.179995
0.289738 0.823056 0.174746
0.419745 0.834531 0.168826
0.531273 0.844266 0.162356
0.631830 0.852384 0.155520
0.722499 0.859312 0.148440
0.802487 0.865507 0.141756
0.871733 0.871458 0.135683
0.932494 0.877104 0.130526
0.963928 0.858366 0.155245
0.995758 0.838560 0.201785
1.000000 0.836820 0.225376
1.000000 0.836362 0.251255
1.000000 0.835935 0.281468
1.000000 0.835782 0.316381
1.000000 0.836515 0.356970
1.000000 0.838773 0.404944
0.000000 0.868193 0.425849
0.000000 0.868132 0.424781
0.000000 0.868009 0.423224
0.000000 0.867735 0.419806
0.000000 0.867399 0.414313
0.000000 0.866880 0.407019
0.000000 0.866270 0.397406
0.000000 0.865476 0.385595
0.000000 0.864500 0.370977
0.000000 0.863432 0.353826
0.000000 0.862211 0.333318
0.000000 0.860868 0.309178
0.000000 0.859342 0.280552
0.000000 0.857664 0.246036
0.000000 0.855863 0.203037
0.000000 0.852049 0.201877
0.212375 0.856779 0.200534
0.368017 0.866178 0.198398
0.488075 0.873991 0.196170
0.592615 0.880308 0.194003
0.685695 0.885466 0.192325
0.767971 0.889891 0.190890
0.839109 0.894072 0.190372
0.900969 0.898070 0.190768
0.955779 0.901793 0.191897
0.984161 0.883391 0.209812
1.000000 0.862852 0.255467
1.000000 0.857084 0.284794
1.000000 0.855802 0.314336
1.000000 0.854856 0.348608
1.000000 0.854887 0.388830
1.000000 0.856443 0.436164
0.000000 0.903838 0.459571
0.000000 0.903777 0.458595
0.000000 0.903685 0.457160
0.000000 0.903532 0.453956
0.000000 0.903288 0.449042
0.000000 0.902922 0.442267
0.000000 0.902495 0.433539
0.000000 0.902007 0.422736
0.000000 0.901366 0.409400
0.000000 0.900633 0.393774
0.000000 0.899870 0.375280
0.000000 0.898955 0.353277
0.000000 0.897978 0.327611
0.000000 0.896880 0.297246
0.000000 0.895750 0.260990
0.000000 0.893797 0.234134
0.102510 0.890379 0.233249
0.313024 0.896971 0.234104
0.445228 0.902861 0.235233
0.554772 0.907469 0.236637
0.650507 0.910948 0.238071
0.734676 0.913787 0.240146
0.807614 0.916320 0.242771
0.870359 0.918791 0.246098
0.925628 0.921080 0.249943
0.975219 0.923095 0.254124
1.000000 0.905486 0.267857
1.000000 0.884215 0.313695
1.000000 0.874968 0.348760
1.000000 0.873381 0.382361
1.000000 0.872709 0.421973
1.000000 0.873594 0.468391
0.000000 0.934966 0.495827
0.000000 0.934905 0.494911
0.000000 0.934874 0.493629
0.000000 0.934783 0.490822
0.000000 0.934630 0.486427
0.000000 0.934447 0.480354
0.000000 0.934173 0.472633
0.000000 0.933867 0.462959
0.000000 0.933501 0.451179
0.000000 0.933074 0.437324
0.000000 0.932616 0.420813
0.000000 0.932128 0.401740
0.000000 0.931548 0.379278
0.000000 0.930968 0.353399
0.000000 0.930358 0.322881
0.000000 0.929747 0.286717
0.119661 0.927398 0.277012
0.256718 0.926482 0.277653
0.405707 0.930632 0.281163
0.520592 0.933593 0.284855
0.618616 0.935576 0.288853
0.704036 0.936919 0.293248
0.777951 0.937926 0.298039
0.841367 0.938933 0.303380
0.896696 0.939940 0.308934
0.945953 0.940734 0.314672
0.990814 0.941253 0.320439
1.000000 0.925292 0.332067
1.000000 0.903105 0.376837
1.000000 0.891203 0.417273
1.000000 0.889891 0.455818
1.000000 0.890135 0.501183
0.000000 0.961669 0.534936
0.000000 0.961639 0.534112
0.000000 0.961608 0.532921
0.000000 0.961578 0.530541
0.000000 0.961486 0.526635
0.000000 0.961395 0.521477
0.000000 0.961273 0.514702
0.000000 0.961120 0.506401
0.000000 0.960967 0.496284
0.000000 0.960784 0.484352
0.000000 0.960571 0.470436
0.000000 0.960357 0.454139
0.030030 0.960143 0.435431
0.087831 0.959930 0.413794
0.116945 0.959716 0.388830
0.140475 0.959503 0.359960
0.176272 0.958953 0.332189
0.259892 0.956481 0.332525
0.375769 0.956695 0.335851
0.494575 0.958068 0.341375
0.593256 0.958648 0.347021
0.678462 0.958648 0.353063
0.752071 0.958373 0.359319
0.815213 0.958129 0.365820
0.870024 0.957885 0.372473
0.918456 0.957641 0.379248
0.962280 0.957183 0.385626
1.000000 0.956512 0.391821
1.000000 0.942199 0.401984
1.000000 0.919860 0.444800
1.000000 0.906371 0.490364
1.000000 0.906004 0.534722
0.165927 0.983703 0.577295
0.166964 0.983703 0.576623
0.168063 0.983703 0.575738
0.170169 0.983673 0.573693
0.173342 0.983673 0.570459
0.178164 0.983642 0.566064
0.184085 0.983612 0.560510
0.190311 0.983581 0.553552
0.197879 0.983551 0.545159
0.206119 0.983551 0.535363
0.215366 0.983520 0.523857
0.225162 0.983520 0.510643
0.235294 0.983520 0.495552
0.246098 0.983520 0.478462
