data/fiter_cube/48671653/1023260/file.cube
# Created by Adobe Lightroom plugin Export LUT (1.17.0)
# www.johnrellis.com/lightroom/exportlut.htm
# Preset: 青橙风光风景_09 云集
# Color profile: C:\Program Files (x86)\Common Files\Adobe\Color\Profiles\Recommended\AdobeRGB1998.icc
LUT_3D_SIZE 8
DOMAIN_MIN 0.000000 0.000000 0.000000
DOMAIN_MAX 0.903226 0.903226 0.903226
0.156405 0.192325 0.226383
0.135958 0.190311 0.225834
0.177340 0.189456 0.222324
0.378180 0.188235 0.211276
0.685573 0.178622 0.179660
0.903319 0.235508 0.130556
1.000000 0.325566 0.077913
1.000000 0.395880 0.083986
0.153933 0.178805 0.221775
0.140688 0.178622 0.223575
0.171847 0.190707 0.220462
0.364874 0.206760 0.208652
0.672511 0.223056 0.176181
0.897185 0.279698 0.124392
1.000000 0.358190 0.068849
1.000000 0.420233 0.082094
0.139559 0.193759 0.217288
0.139590 0.193851 0.215457
0.174075 0.208530 0.212955
0.335851 0.253330 0.201602
0.626154 0.321080 0.167086
0.874418 0.389532 0.104341
1.000000 0.450996 0.003479
1.000000 0.494484 0.079652
0.088319 0.302770 0.227481
0.093355 0.301610 0.220737
0.116365 0.296605 0.203433
0.330022 0.365698 0.186679
0.613581 0.433875 0.148562
0.830747 0.508354 0.076143
0.986999 0.567712 0.000000
1.000000 0.597375 0.090944
0.000000 0.505669 0.264622
0.000000 0.502983 0.253544
0.000000 0.493538 0.214054
0.191592 0.511650 0.178897
0.578637 0.610895 0.112459
0.846372 0.639948 0.000000
0.970916 0.680049 0.000000
1.000000 0.704585 0.128420
0.000000 0.732235 0.340002
0.000000 0.730343 0.326879
0.000000 0.723720 0.278386
0.000000 0.711452 0.175051
0.404517 0.753262 0.140017
0.797269 0.805844 0.001404
0.975219 0.787381 0.114534
1.000000 0.794553 0.220615
0.000000 0.903838 0.459571
0.000000 0.903288 0.449042
0.000000 0.901366 0.409400
0.000000 0.897978 0.327611
0.102510 0.890379 0.233249
0.650507 0.910948 0.238071
0.925628 0.921080 0.249943
1.000000 0.874968 0.348760
0.315312 1.000000 0.623651
0.319402 1.000000 0.618219
0.333501 1.000000 0.598260
0.358221 1.000000 0.560021
0.392859 1.000000 0.498909
0.586206 0.996704 0.492226
0.831357 0.988769 0.521202
0.984222 0.981689 0.546899
0.158663 0.191684 0.214603
0.138827 0.194461 0.214267
0.182712 0.175998 0.217502
0.386114 0.150546 0.206394
0.693385 0.102327 0.182650
0.907805 0.186709 0.147189
1.000000 0.302892 0.121218
1.000000 0.387762 0.140597
0.156283 0.180209 0.215366
0.141238 0.179080 0.214603
0.179355 0.179690 0.212894
0.373724 0.180850 0.205173
0.680995 0.178561 0.180484
0.901762 0.244633 0.143160
1.000000 0.339605 0.117098
1.000000 0.413153 0.140597
0.136233 0.194583 0.218265
0.134310 0.198642 0.215671
0.174044 0.208713 0.210575
0.336004 0.246311 0.202457
0.636042 0.306981 0.174380
0.879454 0.374029 0.129305
1.000000 0.440314 0.103151
1.000000 0.490181 0.143008
0.087007 0.308812 0.238285
0.097566 0.310857 0.233280
0.114595 0.306340 0.208530
0.331273 0.366308 0.194705
0.613214 0.430243 0.163729
0.836271 0.504417 0.111452
0.988952 0.563134 0.082521
1.000000 0.595666 0.154330
0.000000 0.516350 0.287266
0.000000 0.513725 0.275608
0.000000 0.503990 0.234409
0.184360 0.512902 0.193393
0.580072 0.611475 0.141329
0.845914 0.639094 0.097414
0.970367 0.679042 0.088563
1.000000 0.704372 0.182620
0.000000 0.738369 0.366247
0.000000 0.736507 0.353552
0.000000 0.729732 0.305669
0.000000 0.717372 0.207523
0.400671 0.753231 0.171267
0.797818 0.805814 0.121065
0.974273 0.788083 0.174960
1.000000 0.795743 0.261845
0.000000 0.904997 0.483406
0.000000 0.904417 0.473335
0.000000 0.902495 0.435218
0.000000 0.899016 0.357183
0.137362 0.891661 0.259068
0.649653 0.910399 0.268956
0.925109 0.920897 0.287327
1.000000 0.876402 0.383856
0.353368 0.999390 0.641169
0.356695 0.999420 0.635889
0.368261 0.999542 0.616571
0.389075 0.999847 0.579767
0.418799 1.000000 0.520989
0.589532 0.995789 0.509636
0.832242 0.988220 0.540337
0.983429 0.981476 0.567376
0.152804 0.190127 0.229129
0.155154 0.189609 0.231540
0.175265 0.181064 0.239200
0.389105 0.070924 0.275395
0.717220 0.000000 0.231815
0.925017 0.000000 0.236576
1.000000 0.229465 0.247318
1.000000 0.376532 0.282567
0.144167 0.185428 0.230808
0.142885 0.180209 0.233646
0.177523 0.171267 0.240238
0.390570 0.080110 0.260319
0.713405 0.000000 0.222354
0.919188 0.000000 0.237522
1.000000 0.282536 0.246372
1.000000 0.404181 0.284031
0.131716 0.196201 0.230655
0.127596 0.198825 0.233280
0.174960 0.208713 0.240940
0.371221 0.224521 0.243870
0.675593 0.248173 0.237583
0.897307 0.318914 0.230747
1.000000 0.410376 0.243839
1.000000 0.486610 0.290043
0.061036 0.311864 0.268650
0.085603 0.318364 0.269871
0.167788 0.335424 0.271244
0.336950 0.368933 0.246098
0.612482 0.421393 0.232578
0.855039 0.492348 0.220218
0.994812 0.551965 0.240269
1.000000 0.596307 0.302129
0.000000 0.526116 0.334112
0.000000 0.531121 0.334203
0.105928 0.539605 0.323735
0.167208 0.519524 0.253025
0.585687 0.613611 0.236454
0.843595 0.638117 0.233860
0.967559 0.677455 0.242557
1.000000 0.706844 0.321752
0.000000 0.749081 0.425757
0.000000 0.750759 0.425940
0.000000 0.750210 0.406195
0.000793 0.737453 0.317601
0.388952 0.752468 0.264286
0.799069 0.805936 0.265354
0.969848 0.791440 0.315984
1.000000 0.801205 0.380560
0.000000 0.908415 0.542473
0.000000 0.907836 0.544457
0.152560 0.905699 0.522301
0.180362 0.902037 0.455055
0.229648 0.896056 0.344091
0.647303 0.908141 0.362066
0.923095 0.920195 0.397955
1.000000 0.881804 0.489235
0.440772 0.995605 0.690761
0.466407 0.994293 0.694026
0.472206 0.994476 0.676783
0.483101 0.994873 0.643915
0.500420 0.995666 0.591974
0.600183 0.992584 0.563745
0.834867 0.986358 0.598535
0.980865 0.980743 0.629114
0.100923 0.186831 0.339940
0.135225 0.182834 0.347478
0.236545 0.161868 0.373022
0.371038 0.073762 0.395544
0.696407 0.000000 0.468849
0.925963 0.000000 0.427131
1.000000 0.000000 0.349065
1.000000 0.316228 0.436255
0.113405 0.182254 0.346197
0.134829 0.177584 0.351965
0.218662 0.154421 0.373114
0.371740 0.064607 0.396033
0.697139 0.000000 0.458991
0.925994 0.000000 0.413092
1.000000 0.000000 0.347021
1.000000 0.409400 0.471901
0.000000 0.218357 0.339635
0.000000 0.210147 0.344701
0.151644 0.190616 0.369543
0.369970 0.158816 0.396155
0.698207 0.000000 0.421088
0.921294 0.000000 0.377081
1.000000 0.384344 0.449744
1.000000 0.532067 0.509178
0.000000 0.312963 0.342199
0.000000 0.318334 0.346807
0.127840 0.338140 0.362219
0.349310 0.374151 0.388373
0.659571 0.419013 0.403876
0.881743 0.484535 0.424231
0.998230 0.560693 0.459510
1.000000 0.626947 0.512688
0.000000 0.541985 0.418860
0.000000 0.547631 0.421393
0.095949 0.564385 0.430304
0.343328 0.580163 0.439979
0.597650 0.618860 0.405707
0.835233 0.642329 0.413031
0.969116 0.686824 0.443732
1.000000 0.724758 0.516564
0.000000 0.762692 0.510094
0.000000 0.764584 0.511101
0.073884 0.769345 0.516136
0.348669 0.769039 0.511681
0.380621 0.749477 0.408026
0.800809 0.806607 0.447852
0.958862 0.800473 0.494087
1.000000 0.813230 0.536126
0.000000 0.914214 0.606928
0.000000 0.913695 0.608881
0.278874 0.910918 0.616846
0.425452 0.905089 0.608728
0.418128 0.899535 0.515770
0.645808 0.903136 0.492958
0.919066 0.919036 0.547997
1.000000 0.891691 0.625635
0.430610 0.997131 0.725429
0.461372 0.995575 0.729244
0.549523 0.990448 0.741970
0.609979 0.986664 0.737850
0.613855 0.987640 0.694087
0.637171 0.987610 0.642878
0.837949 0.983398 0.676234
0.977386 0.979675 0.710353
0.000000 0.179110 0.549371
0.000000 0.170932 0.558160
0.242863 0.124056 0.587823
0.475685 0.000000 0.634150
0.675593 0.000000 0.653346
0.899138 0.000000 0.669886
1.000000 0.000000 0.614130
1.000000 0.000000 0.536706
0.000000 0.172457 0.557855
0.000000 0.163729 0.565820
0.250370 0.115602 0.591363
0.461921 0.000000 0.633112
0.675471 0.000000 0.653346
0.899687 0.000000 0.665522
1.000000 0.000000 0.609155
1.000000 0.000000 0.541588
0.000000 0.198825 0.551354
0.000000 0.177218 0.560632
0.076081 0.159152 0.584863
0.413397 0.000000 0.626978
0.673091 0.000000 0.652247
0.899596 0.000000 0.652155
1.000000 0.000000 0.600397
1.000000 0.307897 0.574243
0.000000 0.349645 0.541192
0.000000 0.345800 0.545800
0.000000 0.332128 0.561059
0.315709 0.326299 0.606714
0.658503 0.321599 0.644678
0.890837 0.340124 0.634607
1.000000 0.476631 0.622766
1.000000 0.651575 0.684047
0.000000 0.532616 0.547692
0.000000 0.538140 0.551995
0.000000 0.557397 0.566339
0.314305 0.589532 0.590509
0.618616 0.629419 0.622766
0.850217 0.677546 0.648341
0.968322 0.728084 0.679713
1.000000 0.769436 0.716121
0.000000 0.781979 0.624720
0.000000 0.784176 0.626795
0.000000 0.789548 0.634028
0.401068 0.792447 0.648096
0.610559 0.787228 0.659297
0.804044 0.809049 0.642542
0.942412 0.813993 0.662043
1.000000 0.833005 0.699001
0.000000 0.922698 0.693233
0.000000 0.922210 0.694911
0.270970 0.919493 0.701656
0.494331 0.912383 0.715358
0.638361 0.902312 0.716884
0.646845 0.893370 0.629877
0.914672 0.917937 0.694392
1.000000 0.903258 0.744869
0.411597 0.999634 0.773281
0.445441 0.998047 0.776242
0.540673 0.992767 0.786069
0.654597 0.985016 0.801083
0.730465 0.979095 0.803525
0.725856 0.980529 0.751156
0.839231 0.979461 0.753841
0.974243 0.978393 0.790829
0.000000 0.166812 0.763851
0.000000 0.154299 0.769131
0.177646 0.071229 0.786191
0.485451 0.000000 0.812985
0.724819 0.000000 0.842741
0.882902 0.000000 0.847471
1.000000 0.000000 0.810575
1.000000 0.000000 0.735897
0.000000 0.157870 0.768490
0.000000 0.144533 0.773220
0.217563 0.023804 0.789303
0.495888 0.000000 0.814939
0.719692 0.000000 0.843168
0.882933 0.000000 0.847623
1.000000 0.000000 0.808713
1.000000 0.000000 0.734096
0.000000 0.158511 0.771756
0.000000 0.149233 0.775662
0.000000 0.094606 0.789151
0.424659 0.000000 0.811948
0.698299 0.000000 0.841794
0.881621 0.000000 0.847440
1.000000 0.000000 0.803799
1.000000 0.000000 0.733272
0.000000 0.339422 0.748623
0.000000 0.325811 0.754147
0.000000 0.276432 0.773739
0.283787 0.257542 0.800809
0.655268 0.253056 0.832059
0.872129 0.239353 0.843198
0.992096 0.312718 0.801572
1.000000 0.460670 0.753323
0.000000 0.556664 0.751308
0.000000 0.554864 0.753536
0.000000 0.549340 0.760800
0.000000 0.540917 0.772488
0.584253 0.572900 0.805478
0.848051 0.620020 0.831022
0.970825 0.667140 0.810605
1.000000 0.743557 0.807706
0.000000 0.758724 0.755367
0.000000 0.761349 0.757290
0.000000 0.769802 0.763821
0.270848 0.782010 0.774411
0.605005 0.795346 0.788693
0.815488 0.818173 0.811093
0.941161 0.847898 0.831785
1.000000 0.871824 0.852079
0.000000 0.930785 0.794003
0.000000 0.930846 0.795224
0.240909 0.929808 0.800137
0.509514 0.923461 0.809567
0.689357 0.914336 0.821134
0.802853 0.904723 0.826322
0.912902 0.917937 0.822232
0.989960 0.915618 0.841184
0.376806 1.000000 0.831693
0.416236 1.000000 0.833585
0.524071 0.996307 0.839994
0.649165 0.988190 0.850217
0.759426 0.979644 0.863523
0.831388 0.973114 0.868894
0.839078 0.973053 0.826261
0.972168 0.976928 0.865293
0.000000 0.157076 0.913176
0.000000 0.143313 0.915099
0.000000 0.014832 0.921599
0.428168 0.000000 0.931945
0.683833 0.000000 0.944793
0.868803 0.000000 0.956054
0.989014 0.000000 0.954925
1.000000 0.000000 0.888396
0.000000 0.150271 0.914611
0.000000 0.135317 0.916442
0.000000 0.000000 0.922698
0.438514 0.000000 0.932769
0.687739 0.000000 0.945373
0.866331 0.000000 0.956390
0.989075 0.000000 0.955077
1.000000 0.000000 0.887205
0.000000 0.132692 0.918242
0.000000 0.113954 0.919951
0.129091 0.000000 0.925719
0.438087 0.000000 0.934447
0.667384 0.000000 0.945647
0.858366 0.000000 0.956878
0.988251 0.000000 0.955138
1.000000 0.000000 0.884123
0.000000 0.253056 0.912749
0.000000 0.228855 0.915007
0.000000 0.194644 0.921538
0.262119 0.139498 0.930602
0.610346 0.000000 0.942046
0.845365 0.088197 0.954040
0.980804 0.000000 0.952087
1.000000 0.147402 0.882780
0.000000 0.521630 0.899748
0.000000 0.513939 0.900603
0.000000 0.486580 0.903441
0.000000 0.444984 0.915312
0.535698 0.479194 0.928618
0.820523 0.570184 0.940734
0.960662 0.605463 0.942626
1.000000 0.639704 0.892363
0.000000 0.739986 0.897032
0.000000 0.738888 0.897642
0.000000 0.735286 0.899657
0.000000 0.730343 0.902434
0.462593 0.729091 0.904906
0.789456 0.780941 0.919341
0.939879 0.822141 0.932952
1.000000 0.845609 0.913268
0.000000 0.906828 0.894865
0.000000 0.907286 0.895323
0.000000 0.908293 0.896818
0.280705 0.907958 0.899077
0.610376 0.906126 0.902251
0.804410 0.910094 0.908263
0.920104 0.923796 0.920684
0.984649 0.939391 0.932769
0.095338 1.000000 0.900572
0.223484 1.000000 0.900938
0.425483 1.000000 0.902556
0.617670 0.993164 0.906676
0.763729 0.983276 0.914672
0.855833 0.976043 0.923888
0.912902 0.970397 0.927642
0.971740 0.975647 0.927733
0.000000 0.157778 0.998688
0.000000 0.149233 0.999023
0.000000 0.083223 1.000000
0.293767 0.000000 1.000000
0.586084 0.000000 1.000000
0.790982 0.000000 1.000000
0.934874 0.000000 1.000000
1.000000 0.000000 1.000000
0.000000 0.157748 0.998871
0.000000 0.146700 0.999329
0.000000 0.078065 1.000000
0.298558 0.000000 1.000000
0.587060 0.000000 1.000000
0.791165 0.000000 1.000000
0.934997 0.000000 1.000000
1.000000 0.000000 1.000000
0.000000 0.154574 0.999786
0.000000 0.143221 1.000000
0.000000 0.071443 1.000000
0.302129 0.000000 1.000000
0.586786 0.000000 1.000000
0.790555 0.000000 1.000000
0.934142 0.000000 1.000000
1.000000 0.000000 1.000000
0.000000 0.157717 1.000000
0.000000 0.149538 1.000000
0.000000 0.088777 1.000000
0.242313 0.000000 1.000000
0.548425 0.000000 1.000000
0.767330 0.000000 1.000000
0.924987 0.000000 1.000000
1.000000 0.000000 1.000000
0.000000 0.427680 0.994354
0.000000 0.411322 0.995270
0.000000 0.353796 0.998260
0.000000 0.292485 1.000000
0.431739 0.286717 1.000000
0.734829 0.336034 1.000000
0.913848 0.480812 1.000000
1.000000 0.485084 0.997711
0.000000 0.670771 0.986511
0.000000 0.665949 0.986847
0.000000 0.649012 0.987976
0.000000 0.620233 0.989563
0.279362 0.609644 0.990967
0.732784 0.698421 0.988464
0.906798 0.780758 0.988128
0.997436 0.800961 0.986481
0.000000 0.856504 0.979004
0.000000 0.855650 0.979126
0.000000 0.852811 0.979431
0.000000 0.848936 0.979400
0.427985 0.848234 0.977905
0.714717 0.857023 0.975189
0.901793 0.900969 0.976898
0.984192 0.926604 0.981170
0.000000 0.986816 0.972290
0.000000 0.986419 0.972259
0.000000 0.984527 0.972076
0.343450 0.979461 0.971374
0.633448 0.972442 0.970275
0.806882 0.969451 0.969787
0.913390 0.971252 0.970916
0.975189 0.977356 0.976165
