data/fiter_cube/48671653/1023260/file.cube
# Created by Adobe Lightroom plugin Export LUT (1.17.0)
# www.johnrellis.com/lightroom/exportlut.htm
# Preset: 青橙风光风景_09 云集
# Color profile: C:\Program Files (x86)\Common Files\Adobe\Color\Profiles\Recommended\AdobeRGB1998.icc
LUT_3D_SIZE 5
DOMAIN_MIN 0.000000 0.000000 0.000000
DOMAIN_MAX 0.903226 0.903226 0.903226
0.156405 0.192325 0.226383
0.152438 0.189181 0.223636
0.529747 0.180972 0.198611
0.939696 0.258610 0.116793
1.000000 0.395880 0.083986
0.145205 0.182345 0.217624
0.155062 0.191104 0.216648
0.481453 0.266758 0.190677
0.922148 0.376471 0.093660
1.000000 0.472206 0.080018
0.000000 0.395727 0.242100
0.000000 0.388556 0.211887
0.450172 0.487556 0.158145
0.876463 0.586847 0.000000
1.000000 0.651789 0.106538
0.000000 0.782467 0.365881
0.000000 0.777340 0.321294
0.000000 0.757290 0.170871
0.837400 0.840879 0.082094
1.000000 0.815457 0.250095
0.315312 1.000000 0.623651
0.328985 1.000000 0.604730
0.374395 1.000000 0.532677
0.661158 0.994690 0.499580
0.984222 0.981689 0.546899
0.156405 0.190616 0.218296
0.153048 0.187137 0.223484
0.555322 0.000000 0.221286
0.953155 0.060243 0.204746
1.000000 0.376532 0.239414
0.141543 0.184604 0.219699
0.155062 0.191104 0.225315
0.521599 0.209323 0.221775
0.935912 0.315465 0.197299
1.000000 0.461372 0.244388
0.000000 0.409522 0.285618
0.111299 0.423346 0.278325
0.455665 0.490028 0.217868
0.874998 0.578668 0.181033
1.000000 0.651270 0.268589
0.000000 0.794156 0.437446
0.000000 0.792599 0.414557
0.000000 0.773220 0.250767
0.837766 0.840665 0.249363
1.000000 0.820554 0.371344
0.431647 0.995941 0.680842
0.438575 0.996094 0.663905
0.464088 0.996826 0.599878
0.669764 0.991882 0.555932
0.981628 0.980957 0.610803
0.000000 0.183566 0.437415
0.203464 0.157961 0.467140
0.523156 0.000000 0.523583
0.951568 0.000000 0.546471
1.000000 0.000000 0.443183
0.000000 0.190921 0.441108
0.099794 0.164736 0.466957
0.522362 0.000000 0.523552
0.951843 0.000000 0.518853
1.000000 0.386175 0.517754
0.000000 0.414862 0.438605
0.000000 0.435309 0.454658
0.483101 0.502617 0.504723
0.903990 0.601099 0.549065
1.000000 0.704189 0.624292
0.000000 0.815457 0.584466
0.000000 0.818570 0.589685
0.490578 0.814054 0.599695
0.837217 0.840848 0.561730
1.000000 0.841855 0.630854
0.422583 0.998260 0.747860
0.519402 0.993103 0.759030
0.672908 0.982727 0.770474
0.691157 0.983398 0.686915
0.975738 0.979034 0.750881
0.000000 0.163607 0.808225
0.000000 0.102724 0.822019
0.607202 0.000000 0.861112
0.916320 0.000000 0.881559
1.000000 0.000000 0.779751
0.000000 0.140383 0.817380
0.011414 0.069612 0.827848
0.577264 0.000000 0.860990
0.915801 0.000000 0.881773
1.000000 0.000000 0.776516
0.000000 0.440406 0.792844
0.000000 0.412512 0.798978
0.423987 0.387335 0.842008
0.896483 0.454841 0.873075
1.000000 0.588464 0.802243
0.000000 0.803647 0.797208
0.000000 0.809751 0.802060
0.455055 0.823392 0.816281
0.847959 0.850950 0.845243
0.995727 0.891875 0.876646
0.364111 1.000000 0.847562
0.486122 0.999145 0.852934
0.707027 0.984710 0.869474
0.853574 0.972045 0.884367
0.971893 0.976562 0.882139
0.000000 0.157778 0.998688
0.000000 0.111757 1.000000
0.456641 0.000000 1.000000
0.832731 0.000000 1.000000
1.000000 0.000000 1.000000
0.000000 0.155032 0.999512
0.000000 0.103944 1.000000
0.460182 0.000000 1.000000
0.832670 0.000000 1.000000
1.000000 0.000000 1.000000
0.000000 0.270695 0.999115
0.000000 0.184634 1.000000
0.310491 0.028321 1.000000
0.799100 0.000000 1.000000
1.000000 0.000000 1.000000
0.000000 0.722347 0.984649
0.000000 0.710964 0.985565
0.000000 0.679194 0.987182
0.788174 0.768765 0.984497
0.993194 0.843259 0.984680
0.000000 0.986816 0.972290
0.000000 0.985229 0.972137
0.508324 0.975830 0.970825
0.838621 0.969543 0.969879
0.975189 0.977356 0.976165
