data/fiter_cube/96471014/1022816/file.cube
# Created by Adobe Lightroom plugin Export LUT (1.17.0)
# www.johnrellis.com/lightroom/exportlut.htm
# Preset: 复古预设3
# Color profile: C:\Program Files (x86)\Common Files\Adobe\Color\Profiles\Recommended\AdobeRGB1998.icc
LUT_3D_SIZE 8
DOMAIN_MIN 0.000000 0.000000 0.000000
DOMAIN_MAX 0.903226 0.903226 0.903226
0.051148 0.090272 0.111269
0.125643 0.098909 0.115572
0.483101 0.000000 0.101747
0.814176 0.000000 0.000000
0.956176 0.249516 0.000000
1.000000 0.332189 0.110811
1.000000 0.389563 0.189792
1.000000 0.437751 0.259800
0.000000 0.143954 0.136080
0.096254 0.143404 0.138521
0.480842 0.172549 0.096986
0.803220 0.220920 0.000000
0.944945 0.311711 0.000000
0.997070 0.363867 0.106081
1.000000 0.408759 0.187839
1.000000 0.452033 0.261967
0.000000 0.399847 0.237583
0.000000 0.401129 0.228275
0.374975 0.394903 0.230869
0.836332 0.521996 0.000000
0.944152 0.496162 0.020478
0.994171 0.488594 0.156161
1.000000 0.503319 0.244297
1.000000 0.524346 0.316320
0.000000 0.748959 0.423407
0.000000 0.749325 0.413733
0.243626 0.754513 0.384985
0.747280 0.746029 0.493080
0.934081 0.718593 0.336614
0.988647 0.653468 0.270237
1.000000 0.624903 0.331273
1.000000 0.620203 0.395880
0.000000 0.906645 0.570428
0.000000 0.904814 0.570214
0.367590 0.888151 0.627924
0.629725 0.880156 0.688014
0.842954 0.858000 0.731685
0.937804 0.814237 0.625177
0.995697 0.749813 0.457221
1.000000 0.729641 0.523003
0.000000 0.968353 0.655543
0.000000 0.967926 0.668452
0.391638 0.948486 0.728206
0.670100 0.927825 0.803586
0.785641 0.917327 0.841398
0.883482 0.906279 0.860349
0.931548 0.883299 0.828519
0.973754 0.844785 0.744198
0.000000 1.000000 0.711666
0.000000 0.996582 0.724300
0.425147 0.976257 0.782162
0.726558 0.949126 0.869688
0.795224 0.942565 0.887419
0.858091 0.936553 0.905364
0.908507 0.931395 0.913787
0.933410 0.919707 0.904051
0.000000 1.000000 0.741482
0.000000 1.000000 0.755550
0.459419 0.994202 0.817655
0.746426 0.967163 0.894713
0.838834 0.954589 0.924041
0.867460 0.952453 0.931609
0.900175 0.949767 0.938811
0.926421 0.947234 0.942931
0.031922 0.090272 0.144350
0.120058 0.090486 0.149905
0.413367 0.000000 0.148348
0.774716 0.023835 0.134371
0.933959 0.254673 0.139895
0.991119 0.340063 0.179416
1.000000 0.399298 0.234409
1.000000 0.447456 0.293004
0.000000 0.140932 0.161349
0.101656 0.147982 0.163424
0.428779 0.168673 0.156649
0.779538 0.219486 0.133974
0.929412 0.317082 0.140230
0.987518 0.374029 0.180941
1.000000 0.418250 0.233677
1.000000 0.459510 0.292546
0.000000 0.378515 0.253147
0.000000 0.379828 0.254337
0.364996 0.379095 0.272801
0.805173 0.495003 0.138369
0.927581 0.488808 0.162875
0.984192 0.490211 0.214481
1.000000 0.503838 0.274174
1.000000 0.527092 0.338476
0.000000 0.717037 0.423682
0.000000 0.718990 0.420447
0.270878 0.726314 0.404089
0.709682 0.703944 0.483680
0.915984 0.698543 0.335210
0.977173 0.644160 0.293034
1.000000 0.620020 0.345556
1.000000 0.619165 0.408667
0.000000 0.899260 0.580560
0.000000 0.896239 0.579950
0.367712 0.878447 0.628840
0.620050 0.868528 0.680568
0.830900 0.844877 0.719692
0.933074 0.808438 0.621088
0.990814 0.749264 0.477516
1.000000 0.730312 0.536950
0.000000 0.963470 0.661067
0.000000 0.960906 0.668513
0.372137 0.943175 0.721492
0.663569 0.923247 0.798917
0.782498 0.914244 0.839689
0.881163 0.904112 0.861479
0.930144 0.882536 0.829801
0.972839 0.843412 0.744137
0.000000 0.997253 0.712703
0.000000 0.993256 0.722103
0.399207 0.974487 0.775753
0.715755 0.947875 0.864500
0.793210 0.941131 0.886381
0.856107 0.935210 0.904265
0.906493 0.929564 0.911986
0.932525 0.917693 0.901061
0.000000 1.000000 0.741451
0.000000 1.000000 0.754910
0.439826 0.994629 0.814603
0.739132 0.967315 0.892332
0.844236 0.954742 0.927153
0.869474 0.952544 0.932982
0.900053 0.949554 0.938994
0.925902 0.946807 0.942596
0.000000 0.089845 0.254398
0.102205 0.086915 0.251560
0.433173 0.000000 0.275914
0.743343 0.000000 0.270512
0.919982 0.269688 0.303777
0.979278 0.402228 0.349126
1.000000 0.467994 0.391730
1.000000 0.512322 0.432532
0.000000 0.144411 0.271519
0.099306 0.145327 0.268101
0.403082 0.117464 0.269871
0.745052 0.167697 0.282200
0.913054 0.332494 0.309026
0.975921 0.427710 0.349645
1.000000 0.482155 0.390967
1.000000 0.523461 0.434852
0.000000 0.365423 0.334783
0.000000 0.373419 0.324163
0.401831 0.391241 0.346288
0.773342 0.466499 0.329595
0.913970 0.506371 0.353124
0.971862 0.530266 0.385473
1.000000 0.552636 0.424506
1.000000 0.576501 0.467994
0.000000 0.714595 0.492531
0.000000 0.718135 0.491585
0.386419 0.709071 0.513146
0.713130 0.706752 0.594781
0.909636 0.706416 0.455482
0.962982 0.671107 0.464729
0.992432 0.659266 0.498299
1.000000 0.662257 0.539910
0.000000 0.892821 0.620996
0.000000 0.890806 0.624170
0.408423 0.872099 0.672175
0.655116 0.864073 0.737484
0.828458 0.846006 0.778317
0.924620 0.818570 0.692500
0.974914 0.772152 0.608972
0.992218 0.758419 0.644129
0.000000 0.960967 0.690486
0.000000 0.957397 0.699519
0.415259 0.938048 0.749111
0.687984 0.916930 0.822263
0.789639 0.910704 0.854276
0.877256 0.901091 0.872801
0.926879 0.885283 0.845762
0.966857 0.852232 0.781369
0.000000 0.996216 0.735225
0.000000 0.991730 0.745418
0.424323 0.972503 0.792905
0.714900 0.947021 0.868009
0.801907 0.939025 0.893767
0.859770 0.934630 0.910277
0.906767 0.929992 0.918639
0.932525 0.921050 0.909697
0.000000 1.000000 0.751125
0.000000 1.000000 0.760464
0.393683 0.996765 0.813199
0.728298 0.968383 0.891173
0.847959 0.953948 0.930022
0.872190 0.952300 0.935180
0.901762 0.949737 0.941527
0.926360 0.947234 0.945220
0.000000 0.079744 0.444099
0.090059 0.058686 0.443336
0.414130 0.000000 0.442634
0.755703 0.000000 0.463905
0.892882 0.160128 0.437079
0.954131 0.436957 0.501305
0.987121 0.536156 0.552209
1.000000 0.589899 0.591669
0.000000 0.139040 0.465827
0.066529 0.133639 0.461463
0.422004 0.000000 0.453040
0.748592 0.000000 0.463722
0.882383 0.297581 0.458564
0.951324 0.468238 0.510155
0.985046 0.551354 0.557000
1.000000 0.597772 0.593408
0.000000 0.362280 0.503166
0.000000 0.357855 0.495338
0.401465 0.346410 0.477089
0.702968 0.395819 0.480171
0.876616 0.508476 0.524346
0.945159 0.582727 0.569238
0.978241 0.630335 0.613947
0.999512 0.649439 0.633234
0.000000 0.686641 0.607019
0.000000 0.687648 0.596796
0.354498 0.676417 0.586236
0.707424 0.692866 0.641840
0.873686 0.702266 0.616144
0.933898 0.702144 0.636286
0.967712 0.706355 0.658320
0.988800 0.714473 0.681910
0.000000 0.886595 0.691707
0.000000 0.882963 0.690089
0.367010 0.864408 0.711788
0.680262 0.851408 0.780087
0.825711 0.845945 0.829221
0.914946 0.827359 0.760983
0.952880 0.801907 0.743008
0.973419 0.792569 0.754726
0.000000 0.959808 0.738613
0.000000 0.957671 0.748013
0.423865 0.937163 0.783688
0.718135 0.912108 0.852995
0.805234 0.909361 0.879026
0.877409 0.902098 0.893767
0.924071 0.890471 0.868376
0.957183 0.865354 0.832029
0.000000 0.994934 0.765225
0.000000 0.990845 0.773861
0.424628 0.972412 0.813596
0.710658 0.948150 0.875151
0.818875 0.937499 0.907561
0.866514 0.934874 0.920195
0.906767 0.930205 0.926482
0.932433 0.923339 0.917052
0.000000 1.000000 0.775051
0.000000 1.000000 0.783169
0.322332 1.000000 0.819211
0.690333 0.972717 0.884977
0.841032 0.954711 0.929412
0.875242 0.952056 0.938079
0.903716 0.949920 0.944884
0.926787 0.947692 0.948516
0.000000 0.000000 0.677821
0.137758 0.000000 0.675227
0.461189 0.000000 0.658991
0.736629 0.000000 0.670069
0.892210 0.000000 0.616083
0.943359 0.395697 0.606744
0.954559 0.627161 0.711604
0.974151 0.697505 0.757595
0.000000 0.114321 0.686824
0.098848 0.086610 0.686030
0.463325 0.000000 0.670283
0.733913 0.000000 0.671229
0.884886 0.112886 0.619196
0.936217 0.455970 0.625696
0.952941 0.641566 0.718563
0.973297 0.703914 0.760555
0.000000 0.348608 0.705867
0.000000 0.340307 0.705653
0.432349 0.322148 0.692134
0.712856 0.310094 0.673762
0.855985 0.440864 0.641627
0.909667 0.601648 0.686671
0.948028 0.680568 0.735409
0.971130 0.720607 0.765316
0.000000 0.648524 0.748440
0.000000 0.644800 0.742489
0.341833 0.631128 0.723232
0.666926 0.626398 0.696193
0.822660 0.682368 0.722560
0.901213 0.721126 0.749447
0.941375 0.744900 0.771206
0.967926 0.754574 0.781125
0.000000 0.860807 0.786038
0.000000 0.859586 0.781888
0.266148 0.847044 0.767147
0.669886 0.821195 0.798856
0.816129 0.831418 0.829343
0.897154 0.821164 0.808469
0.934142 0.813779 0.812924
0.958953 0.810971 0.818448
0.000000 0.950011 0.787167
0.000000 0.946868 0.789029
0.320378 0.929747 0.803372
0.669001 0.904875 0.846250
0.795926 0.899077 0.882322
0.873320 0.898405 0.903624
0.922332 0.889525 0.879973
0.947997 0.874205 0.869291
0.000000 0.992370 0.801999
0.000000 0.988525 0.806363
0.359472 0.971893 0.829862
0.672786 0.948547 0.874479
0.818387 0.933715 0.913146
0.866606 0.933257 0.926024
0.905913 0.929503 0.932586
0.932494 0.923125 0.920989
0.000000 1.000000 0.801877
0.000000 1.000000 0.806760
0.200443 1.000000 0.830564
0.633173 0.977844 0.880278
0.808652 0.958221 0.921752
0.877348 0.951110 0.941283
0.903990 0.949767 0.947631
0.926513 0.947509 0.951080
0.000000 0.000000 0.854612
0.252201 0.000000 0.852323
0.505486 0.000000 0.842466
0.727749 0.000000 0.831907
0.881712 0.000000 0.789181
0.943236 0.279698 0.719966
0.960082 0.566613 0.744686
0.960937 0.730739 0.821317
0.000000 0.000000 0.850675
0.214450 0.000000 0.848051
0.492897 0.000000 0.840360
0.718502 0.000000 0.827207
0.874937 0.000000 0.786343
0.936919 0.349432 0.724910
0.955108 0.593896 0.754452
0.958129 0.742061 0.827359
0.000000 0.319921 0.860227
0.000000 0.315160 0.857359
0.459327 0.297826 0.848844
0.705531 0.292638 0.835660
0.860075 0.348119 0.794644
0.917144 0.536187 0.757595
0.939269 0.682704 0.793973
0.948486 0.784634 0.852567
0.000000 0.613672 0.866758
0.000000 0.608576 0.863035
0.398230 0.601801 0.852781
0.674586 0.615106 0.845182
0.831724 0.637659 0.821286
0.888365 0.716854 0.814847
0.918486 0.783780 0.847501
0.943572 0.819455 0.871275
0.000000 0.823484 0.875486
0.000000 0.821805 0.873869
0.319799 0.813474 0.867155
0.627649 0.800443 0.854215
0.783444 0.792020 0.839780
0.869505 0.816861 0.855924
0.914458 0.831632 0.868681
0.942596 0.840513 0.877073
0.000000 0.940764 0.870115
0.000000 0.938598 0.869261
0.286046 0.925475 0.865232
0.620813 0.904356 0.867460
0.793606 0.886839 0.891325
0.870329 0.893797 0.906554
0.915740 0.886717 0.897856
0.940002 0.880186 0.897185
0.000000 0.990845 0.847044
0.000000 0.987762 0.849638
0.295872 0.972747 0.861204
0.638300 0.950103 0.886870
0.798611 0.933684 0.914122
0.865629 0.931243 0.931212
0.906462 0.930053 0.940154
0.933867 0.923674 0.927398
0.000000 1.000000 0.837247
0.000000 1.000000 0.839841
0.000000 1.000000 0.853300
0.577111 0.981476 0.885954
0.777646 0.960967 0.919799
0.871000 0.950744 0.942443
0.904265 0.949859 0.951263
0.927001 0.947967 0.954833
0.238224 0.000000 0.934386
0.330785 0.000000 0.934478
0.520684 0.000000 0.930205
0.714137 0.000000 0.923827
0.874144 0.000000 0.907744
0.942290 0.000000 0.839170
0.964111 0.460243 0.794369
0.967163 0.677241 0.829496
0.185397 0.000000 0.929656
0.297581 0.000000 0.929656
0.502708 0.000000 0.925780
0.701686 0.000000 0.918639
0.864591 0.000000 0.903014
0.935729 0.069886 0.835782
0.959472 0.473487 0.792142
0.964935 0.680629 0.828672
0.000000 0.273136 0.932525
0.210056 0.267094 0.931243
0.466224 0.248081 0.926452
0.682094 0.239445 0.919066
0.852018 0.273045 0.905638
0.923156 0.394293 0.845853
0.945586 0.600855 0.820554
0.954986 0.743313 0.855741
0.000000 0.552361 0.930449
0.000000 0.550988 0.928618
0.427527 0.560662 0.923003
0.649287 0.567468 0.916869
0.821042 0.580804 0.907439
0.901244 0.629145 0.868467
0.926146 0.734249 0.859586
0.942931 0.806699 0.883970
0.000000 0.759335 0.926085
0.000000 0.756435 0.924315
0.319188 0.750790 0.919036
0.598047 0.751278 0.910582
0.769223 0.753780 0.903197
0.871122 0.767147 0.884794
0.906462 0.816190 0.885740
0.931579 0.855344 0.905760
0.000000 0.905913 0.926696
0.000000 0.904143 0.926024
0.228183 0.896544 0.923400
0.572198 0.885191 0.919127
0.746853 0.872709 0.912383
0.845823 0.865385 0.905486
0.898314 0.881651 0.914519
0.928710 0.889403 0.921202
0.000000 0.984466 0.913512
0.000000 0.981933 0.913207
0.198032 0.970275 0.911955
0.571832 0.951293 0.913298
0.752529 0.933593 0.918029
0.855894 0.922728 0.931670
0.903258 0.926268 0.940276
0.930938 0.919799 0.934234
0.000000 1.000000 0.882261
0.000000 1.000000 0.882383
0.000000 1.000000 0.885649
0.489052 0.986847 0.899931
0.742824 0.963653 0.924193
0.853605 0.951354 0.942077
0.901976 0.948974 0.953094
0.927398 0.948425 0.958831
0.295384 0.000000 0.970825
0.357641 0.000000 0.970581
0.506767 0.000000 0.967864
0.677455 0.000000 0.964477
0.833890 0.000000 0.959319
0.938445 0.000000 0.928252
0.973754 0.244877 0.868986
0.975250 0.595026 0.852537
0.260380 0.000000 0.969390
0.331212 0.000000 0.969146
0.491951 0.000000 0.966674
0.667750 0.000000 0.962860
0.827024 0.000000 0.957641
0.934539 0.000000 0.927886
0.970520 0.292180 0.869718
0.972686 0.610773 0.855131
0.081910 0.185092 0.967987
0.233463 0.175692 0.967468
0.441260 0.134371 0.964355
0.641382 0.107271 0.961639
0.808194 0.141115 0.955566
0.923674 0.268620 0.930205
0.960021 0.452491 0.878721
0.963561 0.675349 0.869444
0.000000 0.443153 0.964965
0.000000 0.452613 0.964141
0.368719 0.454963 0.961028
0.595209 0.462898 0.956939
0.773831 0.486275 0.951110
0.904112 0.534020 0.936431
0.942992 0.631830 0.896544
0.950805 0.756405 0.890593
0.000000 0.664088 0.958862
0.000000 0.663294 0.958587
0.167849 0.659144 0.955779
0.536889 0.677546 0.950561
0.725582 0.692317 0.944793
0.868223 0.711055 0.939666
0.923644 0.767208 0.915953
0.937835 0.825132 0.910948
0.000000 0.832731 0.955047
0.000000 0.830747 0.954406
0.000000 0.824216 0.952300
0.446143 0.818631 0.948302
0.687922 0.824247 0.942382
0.830716 0.840452 0.939788
0.905821 0.853788 0.931579
0.927520 0.878721 0.929290
0.000000 0.954711 0.956023
0.000000 0.953552 0.955779
0.000000 0.947448 0.954772
0.428321 0.934447 0.952453
0.689845 0.921721 0.948730
0.817166 0.912596 0.944640
0.885557 0.904265 0.939940
0.918547 0.914794 0.942382
0.000000 1.000000 0.940551
0.000000 1.000000 0.940063
0.000000 1.000000 0.938933
0.308049 0.993469 0.938476
0.668330 0.968902 0.941283
0.816739 0.952575 0.945861
0.888975 0.944671 0.952544
0.924681 0.946044 0.959258
