data/fiter_cube/96471014/1022816/file.cube
# Created by Adobe Lightroom plugin Export LUT (1.17.0)
# www.johnrellis.com/lightroom/exportlut.htm
# Preset: 复古预设3
# Color profile: C:\Program Files (x86)\Common Files\Adobe\Color\Profiles\Recommended\AdobeRGB1998.icc
LUT_3D_SIZE 32
DOMAIN_MIN 0.0 0.0 0.0
DOMAIN_MAX 1.0 1.0 1.0
0.051148 0.090272 0.111269
0.060578 0.091127 0.111788
0.067109 0.092470 0.112459
0.086854 0.095216 0.113863
0.125643 0.098909 0.115572
0.185336 0.100374 0.115908
0.268223 0.092195 0.114412
0.371038 0.058534 0.110292
0.483101 0.000000 0.101747
0.589929 0.000000 0.088228
0.682155 0.000000 0.068757
0.755917 0.000000 0.024506
0.814176 0.000000 0.000000
0.862150 0.118929 0.000000
0.905882 0.179721 0.000000
0.935241 0.219577 0.000000
0.956176 0.249516 0.000000
0.971984 0.274083 0.000000
0.984436 0.295323 0.053559
0.995087 0.314488 0.086244
1.000000 0.332189 0.110811
1.000000 0.348394 0.133028
1.000000 0.363317 0.153231
1.000000 0.376959 0.172213
1.000000 0.389563 0.189792
1.000000 0.401709 0.207187
1.000000 0.413733 0.224399
1.000000 0.425788 0.242008
1.000000 0.437751 0.259800
1.000000 0.449866 0.278019
1.000000 0.461738 0.296025
1.000000 0.472602 0.312718
0.048066 0.094972 0.113741
0.056489 0.094759 0.114534
0.066957 0.096407 0.113069
0.087007 0.099550 0.114382
0.126070 0.104524 0.115785
0.185214 0.107210 0.116030
0.267308 0.101961 0.114656
0.368536 0.077882 0.110323
0.479255 0.000000 0.101839
0.585840 0.000000 0.088380
0.677668 0.000000 0.068544
0.751675 0.000000 0.024170
0.810269 0.065614 0.000000
0.859312 0.135958 0.000000
0.901915 0.188327 0.000000
0.931212 0.224796 0.000000
0.952453 0.253269 0.000000
0.968688 0.276463 0.000000
0.981598 0.296818 0.043732
0.992645 0.315526 0.081361
1.000000 0.332738 0.106355
1.000000 0.348516 0.128786
1.000000 0.363043 0.149081
1.000000 0.376440 0.168124
1.000000 0.389014 0.185885
1.000000 0.401099 0.203464
1.000000 0.412970 0.220951
1.000000 0.425147 0.238895
1.000000 0.437171 0.256870
1.000000 0.449256 0.275273
1.000000 0.461128 0.293431
1.000000 0.472145 0.310430
0.041382 0.101045 0.116640
0.052033 0.100832 0.117617
0.060975 0.100771 0.118746
0.086397 0.106691 0.115541
0.126314 0.112337 0.116396
0.185641 0.116732 0.116487
0.266758 0.114229 0.114778
0.367010 0.097780 0.110140
0.476905 0.053254 0.101686
0.582727 0.000000 0.088106
0.674861 0.000000 0.067720
0.749020 0.013031 0.020996
0.807889 0.105623 0.000000
0.858061 0.158389 0.000000
0.899657 0.202914 0.000000
0.928801 0.235538 0.000000
0.950195 0.261692 0.000000
0.966644 0.283421 0.000000
0.979828 0.302281 0.038422
0.991119 0.320226 0.079225
1.000000 0.336675 0.104891
1.000000 0.351843 0.127138
1.000000 0.366003 0.147860
1.000000 0.378882 0.166873
1.000000 0.391150 0.184909
1.000000 0.402808 0.202426
1.000000 0.414588 0.220005
1.000000 0.426581 0.238041
1.000000 0.438422 0.256168
1.000000 0.450446 0.274723
1.000000 0.462287 0.293034
1.000000 0.473213 0.310246
0.026001 0.116304 0.123812
0.040772 0.116457 0.125795
0.052003 0.116304 0.125002
0.073335 0.116243 0.127352
0.121614 0.129915 0.121370
0.189303 0.139101 0.116884
0.271153 0.139925 0.114565
0.371008 0.132143 0.109316
0.479408 0.114443 0.099977
0.583917 0.097200 0.085573
0.674464 0.101930 0.063844
0.747829 0.127962 0.010315
0.806058 0.161929 0.000000
0.857542 0.200320 0.000000
0.897459 0.233555 0.000000
0.926055 0.260044 0.000000
0.947417 0.281468 0.000000
0.964019 0.299870 0.000000
0.977325 0.316197 0.034150
0.988708 0.331487 0.077729
0.998596 0.346136 0.103243
1.000000 0.359899 0.125856
1.000000 0.373083 0.146700
1.000000 0.385534 0.166476
1.000000 0.397528 0.185214
1.000000 0.409186 0.203647
1.000000 0.420752 0.221897
1.000000 0.432593 0.240543
1.000000 0.444129 0.258946
1.000000 0.455634 0.277379
1.000000 0.466987 0.295567
1.000000 0.477363 0.312291
0.000000 0.143954 0.136080
0.005005 0.144228 0.137026
0.027283 0.144350 0.138064
0.058076 0.143069 0.135866
0.096254 0.143404 0.138521
0.169100 0.164553 0.128908
0.274937 0.179995 0.113313
0.373938 0.178470 0.107332
0.480842 0.172549 0.096986
0.583093 0.170779 0.081178
0.672450 0.179416 0.055238
0.745052 0.197848 0.000000
0.803220 0.220920 0.000000
0.855833 0.250462 0.000000
0.894347 0.274815 0.000000
0.923064 0.295079 0.000000
0.944945 0.311711 0.000000
0.962005 0.326452 0.000000
0.975647 0.339391 0.042115
0.987152 0.351843 0.080873
0.997070 0.363867 0.106081
1.000000 0.375616 0.128267
1.000000 0.386908 0.149203
1.000000 0.398016 0.169039
1.000000 0.408759 0.187839
1.000000 0.419440 0.206516
1.000000 0.430274 0.225010
1.000000 0.441016 0.243381
1.000000 0.452033 0.261967
1.000000 0.462989 0.280583
1.000000 0.473915 0.298955
1.000000 0.484016 0.316106
0.000000 0.185855 0.153567
0.000000 0.186404 0.153323
0.000000 0.186648 0.152773
0.006744 0.186465 0.149508
0.074342 0.185000 0.149294
0.133669 0.185000 0.152590
0.235386 0.211612 0.139101
0.372595 0.233860 0.110079
0.489784 0.238895 0.089723
0.589715 0.242832 0.070741
0.676295 0.253910 0.022919
0.746975 0.268498 0.000000
0.807584 0.288273 0.000000
0.856718 0.308629 0.000000
0.893584 0.325109 0.000000
0.921721 0.338628 0.000000
0.943481 0.350256 0.000000
0.960662 0.360449 0.000000
0.974456 0.369818 0.058198
0.986145 0.379034 0.088441
0.996216 0.388434 0.113283
1.000000 0.397864 0.135866
1.000000 0.427741 0.189181
1.000000 0.436378 0.208011
1.000000 0.444709 0.225620
1.000000 0.453071 0.242618
1.000000 0.461677 0.259617
1.000000 0.470405 0.276524
1.000000 0.479347 0.293492
1.000000 0.488594 0.310643
1.000000 0.497688 0.327428
1.000000 0.505608 0.342138
0.000000 0.251255 0.179355
0.000000 0.251621 0.178042
0.000000 0.251987 0.176333
0.000000 0.252354 0.174960
0.000000 0.252323 0.161135
0.112520 0.251499 0.169467
0.199710 0.249424 0.174319
0.337652 0.280797 0.155825
0.493080 0.310857 0.108461
0.620569 0.336584 0.010529
0.701015 0.345403 0.000000
0.769955 0.358007 0.000000
0.829831 0.374731 0.000000
0.873533 0.385718 0.000000
0.905669 0.392767 0.000000
0.929900 0.397742 0.000000
0.949157 0.402228 0.000000
0.964660 0.406470 0.035340
0.977600 0.411414 0.082460
0.988952 0.417456 0.109957
0.998993 0.424781 0.135317
1.000000 0.432929 0.159731
1.000000 0.441810 0.183352
1.000000 0.450660 0.205875
1.000000 0.459480 0.226810
1.000000 0.467567 0.245884
1.000000 0.475624 0.264073
1.000000 0.483528 0.281437
1.000000 0.491676 0.298802
1.000000 0.500114 0.316167
1.000000 0.508476 0.333135
1.000000 0.516106 0.348333
0.000000 0.320317 0.206058
0.000000 0.320623 0.204318
0.000000 0.320806 0.202152
0.000000 0.321202 0.198856
0.000000 0.321416 0.192691
0.000000 0.321386 0.183810
0.171511 0.320989 0.192935
0.278477 0.316716 0.199161
0.432563 0.350835 0.179904
0.583001 0.389410 0.120180
0.701869 0.424842 0.000000
0.779232 0.441016 0.000000
0.832425 0.446601 0.000000
0.872648 0.448707 0.000000
0.903258 0.448707 0.000000
0.926970 0.447669 0.000000
0.946044 0.446967 0.000000
0.961639 0.446845 0.058839
0.974731 0.447944 0.091707
0.986206 0.450507 0.118654
0.996368 0.454597 0.143526
1.000000 0.459907 0.167544
1.000000 0.466163 0.190585
1.000000 0.472755 0.212833
1.000000 0.479377 0.233555
1.000000 0.486091 0.252720
1.000000 0.492531 0.270726
1.000000 0.499184 0.288273
1.000000 0.506493 0.306004
1.000000 0.514061 0.323583
1.000000 0.522148 0.341497
1.000000 0.529168 0.357244
0.000000 0.399847 0.237583
0.000000 0.400153 0.235691
0.000000 0.400458 0.233310
0.000000 0.400763 0.229343
0.000000 0.401129 0.228275
0.000000 0.402533 0.208835
0.091554 0.402655 0.216892
0.255955 0.401862 0.222904
0.374975 0.394903 0.230869
0.537621 0.438605 0.216464
0.675929 0.485115 0.151858
0.772824 0.512261 0.036805
0.836332 0.521996 0.000000
0.873777 0.515679 0.000000
0.902647 0.508751 0.000000
0.925475 0.501915 0.000000
0.944152 0.496162 0.020478
0.959564 0.491768 0.078279
0.972564 0.488777 0.107179
0.984009 0.487739 0.132326
0.994171 0.488594 0.156161
1.000000 0.490913 0.179385
1.000000 0.494423 0.202121
1.000000 0.498604 0.223728
1.000000 0.503319 0.244297
1.000000 0.507927 0.263157
1.000000 0.512963 0.281163
1.000000 0.518242 0.298589
1.000000 0.524346 0.316320
1.000000 0.530968 0.334325
1.000000 0.538201 0.352575
1.000000 0.544579 0.368719
0.000000 0.485725 0.273747
0.000000 0.485786 0.271794
0.000000 0.485939 0.269352
0.000000 0.486244 0.265019
0.000000 0.486488 0.262211
0.000000 0.487160 0.255406
0.000000 0.490059 0.229648
0.197330 0.489601 0.251957
0.363958 0.493538 0.262150
0.490730 0.491890 0.275242
0.632319 0.530816 0.267704
0.741512 0.563561 0.203769
0.817288 0.577691 0.131685
0.870848 0.580194 0.000000
0.902068 0.570001 0.000000
0.924804 0.558404 0.000000
0.943420 0.548455 0.072908
0.958679 0.540002 0.103975
0.971435 0.533410 0.129213
0.982544 0.528618 0.152071
0.992309 0.525841 0.173922
1.000000 0.524743 0.195193
1.000000 0.524865 0.215702
1.000000 0.526177 0.235721
1.000000 0.528283 0.255131
1.000000 0.531060 0.273747
1.000000 0.534447 0.291600
1.000000 0.538811 0.309880
1.000000 0.543969 0.328435
1.000000 0.550011 0.347478
1.000000 0.556847 0.366918
1.000000 0.562890 0.384161
0.000000 0.568841 0.313085
0.000000 0.569116 0.311437
0.000000 0.569482 0.309026
0.000000 0.570123 0.305028
0.000000 0.570825 0.301549
0.000000 0.571221 0.303380
0.000000 0.578058 0.282078
0.120729 0.587121 0.279576
0.324590 0.589715 0.301884
0.480690 0.588800 0.313695
0.589868 0.583062 0.328130
0.701839 0.607568 0.329686
0.789029 0.627832 0.267338
0.850126 0.631678 0.204807
0.893858 0.626581 0.133852
0.923278 0.615137 0.071962
0.941436 0.600488 0.103883
0.956390 0.588037 0.129091
0.968994 0.577630 0.151217
0.980011 0.569574 0.172122
0.989715 0.563775 0.192752
0.998291 0.559777 0.212863
1.000000 0.557641 0.233127
1.000000 0.556634 0.252811
1.000000 0.556756 0.271702
1.000000 0.557580 0.289738
1.000000 0.559228 0.307225
1.000000 0.561913 0.324926
1.000000 0.565759 0.343481
1.000000 0.570733 0.362737
1.000000 0.576532 0.382483
1.000000 0.582116 0.400610
0.000000 0.649897 0.357671
0.000000 0.650324 0.356207
0.000000 0.651545 0.354681
0.000000 0.654047 0.352148
0.000000 0.657710 0.350164
0.000000 0.661006 0.352087
0.000000 0.665095 0.349126
0.002686 0.672358 0.321660
0.262882 0.675410 0.344030
0.445228 0.672450 0.361212
0.575952 0.669001 0.375036
0.668757 0.661952 0.391760
0.790188 0.713527 0.455604
0.852567 0.715236 0.389075
0.896056 0.704860 0.325475
0.927703 0.688960 0.262394
0.951720 0.670832 0.196475
0.964935 0.652796 0.198306
0.975189 0.637507 0.213474
0.984375 0.625238 0.229465
0.992523 0.615442 0.245548
0.999786 0.608057 0.262303
1.000000 0.602258 0.278599
1.000000 0.598291 0.295201
1.000000 0.595666 0.311589
1.000000 0.594263 0.327794
1.000000 0.593896 0.343755
1.000000 0.594720 0.360143
1.000000 0.596765 0.377325
1.000000 0.600244 0.395758
1.000000 0.604547 0.414374
1.000000 0.609003 0.432044
0.000000 0.748959 0.423407
0.000000 0.749386 0.422431
0.000000 0.749203 0.420325
0.000000 0.749294 0.417060
0.000000 0.749325 0.413733
0.000000 0.748562 0.413550
0.000000 0.746914 0.421881
0.110445 0.749905 0.402472
0.243626 0.754513 0.384985
0.404852 0.754360 0.428870
0.557641 0.751461 0.446967
0.667536 0.750393 0.468421
0.747280 0.746029 0.493080
0.811704 0.747738 0.519310
0.866880 0.747250 0.457740
0.905425 0.735622 0.397559
0.934081 0.718593 0.336614
0.956115 0.699489 0.275517
0.971252 0.680903 0.242161
0.980438 0.665766 0.255680
0.988647 0.653468 0.270237
0.995972 0.643488 0.285191
1.000000 0.635615 0.300450
1.000000 0.629450 0.315923
1.000000 0.624903 0.331273
1.000000 0.621698 0.346624
1.000000 0.619776 0.362310
1.000000 0.619257 0.378607
1.000000 0.620203 0.395880
1.000000 0.622889 0.415137
1.000000 0.626215 0.433936
1.000000 0.630396 0.452949
0.000000 0.805417 0.468574
0.000000 0.805570 0.467597
0.000000 0.805112 0.465797
0.000000 0.804501 0.462806
0.000000 0.803342 0.459693
0.000000 0.801541 0.459083
0.000000 0.798947 0.465827
0.158114 0.796933 0.469734
0.262974 0.800076 0.449042
0.377356 0.801541 0.460212
0.509483 0.799283 0.499763
0.628473 0.795804 0.519951
0.717891 0.793423 0.542168
0.783658 0.787320 0.565148
0.831876 0.782101 0.593622
0.878111 0.776944 0.532219
0.911833 0.763119 0.470375
0.937774 0.745296 0.409583
0.958556 0.725948 0.350164
0.975738 0.706600 0.292454
0.984588 0.691737 0.299260
0.991974 0.679774 0.312993
0.998474 0.669795 0.326940
1.000000 0.661860 0.341344
1.000000 0.655573 0.355901
1.000000 0.650752 0.370703
1.000000 0.647395 0.385718
1.000000 0.645655 0.401862
1.000000 0.645594 0.419532
1.000000 0.647364 0.439063
1.000000 0.649958 0.458503
1.000000 0.653742 0.478614
0.000000 0.848539 0.507958
0.000000 0.848722 0.507408
0.000000 0.848234 0.505913
0.000000 0.847349 0.503471
0.000000 0.845792 0.501152
0.000000 0.843565 0.501183
0.000000 0.840391 0.507500
0.178653 0.835416 0.524926
0.299443 0.835752 0.516197
0.375555 0.837980 0.505425
0.481697 0.836728 0.541985
0.591058 0.833066 0.574273
0.683772 0.829007 0.593774
0.756191 0.825589 0.613123
0.810391 0.818540 0.631922
0.846311 0.809171 0.658747
0.885283 0.802060 0.602930
0.915221 0.787686 0.543206
0.939452 0.770016 0.483070
0.959472 0.751217 0.425025
0.976349 0.732174 0.369238
0.987701 0.715785 0.344701
0.994232 0.704036 0.356939
1.000000 0.694301 0.370214
1.000000 0.686488 0.383886
1.000000 0.680476 0.398413
1.000000 0.676173 0.413916
1.000000 0.673793 0.431250
1.000000 0.673365 0.450477
1.000000 0.674739 0.471382
1.000000 0.677272 0.492653
1.000000 0.681331 0.515251
0.000000 0.881895 0.542260
0.000000 0.882139 0.542077
0.000000 0.881987 0.541436
0.000000 0.881559 0.540429
0.000000 0.880552 0.540032
0.000000 0.878904 0.542321
0.000000 0.876097 0.550225
0.162936 0.871305 0.567834
0.351659 0.866728 0.585718
0.415839 0.867399 0.577508
0.480476 0.867369 0.580835
0.567285 0.863584 0.625971
0.654017 0.858152 0.644373
0.725612 0.852934 0.658412
0.784024 0.848234 0.672023
0.828824 0.840574 0.685451
0.856168 0.829709 0.711086
0.889616 0.822416 0.662898
0.916594 0.809262 0.610803
0.939300 0.793362 0.557427
0.958801 0.775845 0.502892
0.975494 0.757656 0.449012
0.989868 0.739162 0.395880
0.995636 0.728176 0.407904
1.000000 0.719142 0.420874
1.000000 0.712001 0.435035
1.000000 0.706722 0.450233
1.000000 0.703426 0.467414
1.000000 0.702235 0.487007
1.000000 0.702358 0.506767
1.000000 0.704036 0.527855
1.000000 0.707393 0.550439
0.000000 0.906645 0.570428
0.000000 0.906584 0.570184
0.000000 0.906310 0.569848
0.000000 0.905821 0.569543
0.000000 0.904814 0.570214
0.000000 0.903075 0.573571
0.000000 0.900084 0.582025
0.136934 0.895109 0.598718
0.367590 0.888151 0.627924
0.446479 0.886198 0.632471
0.499123 0.886015 0.631647
0.561517 0.884092 0.651362
0.629725 0.880156 0.688014
0.699611 0.874815 0.699733
0.757107 0.869841 0.710842
0.805295 0.865141 0.721218
0.842954 0.858000 0.731685
0.864103 0.846983 0.755673
0.892912 0.840085 0.715328
0.916960 0.828428 0.671290
0.937804 0.814237 0.625177
0.956207 0.798276 0.576410
0.972595 0.781003 0.525261
0.987030 0.763241 0.473640
0.995697 0.749813 0.457221
1.000000 0.741665 0.470771
1.000000 0.735531 0.485939
1.000000 0.731563 0.503380
1.000000 0.729641 0.523003
1.000000 0.729061 0.542992
1.000000 0.730373 0.564660
1.000000 0.733364 0.587854
0.000000 0.927184 0.596094
0.000000 0.927398 0.596521
0.000000 0.938628 0.613123
0.000000 0.937896 0.614038
0.000000 0.936309 0.616571
0.000000 0.933623 0.621942
0.000000 0.929290 0.632471
0.222568 0.923033 0.650629
0.406470 0.915038 0.679896
0.513970 0.908293 0.707271
0.554406 0.907134 0.706752
0.593256 0.905821 0.710689
0.644953 0.902098 0.735622
0.696284 0.897612 0.757168
0.746578 0.892638 0.764309
0.790066 0.887938 0.771084
0.828183 0.883543 0.777768
0.858488 0.877165 0.784695
0.873899 0.866453 0.803799
0.897276 0.859983 0.772030
0.917754 0.849516 0.736080
0.936095 0.836820 0.697597
0.952880 0.822354 0.655787
0.968200 0.806577 0.610925
0.982330 0.789517 0.562219
0.994385 0.772824 0.518090
0.998199 0.765286 0.529870
1.000000 0.759945 0.544793
1.000000 0.756558 0.561639
1.000000 0.755184 0.580682
1.000000 0.755734 0.601770
1.000000 0.758114 0.624414
0.000000 0.946105 0.622065
0.000000 0.947204 0.624323
0.000000 0.948180 0.626734
0.000000 0.948516 0.629877
0.000000 0.947845 0.634424
0.000000 0.945586 0.641199
0.000000 0.941558 0.652216
0.215457 0.935546 0.669947
0.397345 0.927977 0.697017
0.519799 0.919646 0.730922
0.574456 0.916411 0.741543
0.608667 0.915007 0.744289
0.642634 0.913207 0.751919
0.687831 0.909239 0.777066
0.730922 0.904997 0.789700
0.771847 0.900572 0.795041
0.808133 0.896422 0.800351
0.840482 0.892576 0.805692
0.866758 0.887144 0.811734
0.879301 0.877470 0.829496
0.899535 0.872068 0.804410
0.917571 0.863493 0.776425
0.933959 0.852750 0.745937
0.949126 0.840330 0.712093
0.963317 0.826413 0.674678
0.976623 0.811521 0.634241
0.989105 0.795895 0.591547
0.995056 0.786923 0.586877
0.997620 0.782650 0.601984
0.999481 0.780514 0.619837
1.000000 0.780423 0.640009
1.000000 0.782284 0.662043
0.000000 0.958068 0.639643
0.000000 0.958831 0.641688
0.000000 0.959472 0.644038
0.000000 0.959533 0.647303
0.000000 0.958587 0.652155
0.000000 0.956207 0.659419
0.000000 0.952148 0.670710
0.216098 0.946349 0.687953
0.392706 0.939025 0.713252
0.513115 0.930999 0.744442
0.597009 0.924193 0.772671
0.626886 0.922850 0.774777
0.655146 0.921324 0.778958
0.687800 0.918853 0.791287
0.723842 0.915343 0.811154
0.760189 0.911437 0.817502
0.793820 0.907652 0.821622
0.824308 0.904082 0.825895
0.851987 0.900877 0.830472
0.874693 0.896391 0.835782
0.884855 0.887724 0.851743
0.902220 0.883391 0.832395
0.917906 0.876341 0.810880
0.932250 0.867399 0.787350
0.945708 0.856809 0.760739
0.958495 0.844938 0.731136
0.970611 0.832212 0.699275
0.982147 0.818723 0.665003
0.991058 0.807095 0.641230
0.992920 0.804257 0.657527
0.994049 0.803464 0.676356
0.994293 0.804746 0.697383
0.000000 0.968353 0.655543
0.000000 0.968872 0.657527
0.000000 0.969299 0.659815
0.000000 0.969085 0.663264
0.000000 0.967926 0.668452
0.000000 0.965423 0.676081
0.000000 0.961395 0.687404
0.221195 0.955657 0.704250
0.391638 0.948486 0.728206
0.508721 0.940642 0.756893
0.600061 0.932891 0.787808
0.645441 0.929259 0.800626
0.670100 0.927825 0.803586
0.693782 0.926329 0.808408
0.724483 0.923552 0.822477
0.754513 0.920592 0.837400
0.785641 0.917327 0.841398
0.814115 0.914397 0.845640
0.840177 0.911803 0.850187
0.863981 0.909545 0.855070
0.883482 0.906279 0.860349
0.891936 0.899046 0.873930
0.906279 0.895689 0.860227
0.919493 0.890318 0.844999
0.931548 0.883299 0.828519
0.942870 0.875029 0.810300
0.953643 0.865721 0.790005
0.963928 0.855467 0.767636
0.973754 0.844785 0.744198
0.982940 0.833982 0.720455
0.985351 0.831174 0.729580
0.985443 0.832303 0.748470
0.000000 0.979706 0.675044
0.000000 0.979706 0.676326
0.000000 0.979553 0.677913
0.000000 0.978790 0.680964
0.000000 0.977111 0.686030
0.000000 0.974304 0.693843
0.000000 0.970062 0.705684
0.247440 0.964324 0.722835
0.404059 0.957305 0.746212
0.516197 0.949706 0.773465
0.604608 0.942168 0.802243
0.672419 0.935576 0.828092
0.693477 0.934264 0.830442
0.713649 0.932921 0.833890
0.733150 0.931456 0.838743
0.760250 0.928710 0.851865
0.785000 0.926116 0.861112
0.809964 0.923461 0.864195
0.833158 0.921050 0.867491
0.854673 0.918853 0.870970
0.874449 0.916930 0.874601
0.890898 0.914122 0.878447
0.897826 0.907561 0.888365
0.909514 0.904448 0.878325
0.920867 0.900053 0.866484
0.931304 0.894438 0.854093
0.941100 0.887602 0.840299
0.950347 0.880064 0.825681
0.959106 0.872129 0.810605
0.967285 0.864012 0.795407
0.974640 0.856291 0.781552
0.978790 0.852293 0.780117
0.000000 0.987030 0.687556
0.000000 0.986969 0.688960
0.000000 0.986786 0.690639
0.000000 0.985901 0.693996
0.000000 0.984131 0.699336
0.000000 0.981231 0.707393
0.000000 0.976928 0.719142
0.256413 0.971252 0.735836
0.406775 0.964294 0.758114
0.515496 0.956817 0.783627
0.602197 0.949432 0.810391
0.671656 0.942535 0.835813
0.709773 0.938811 0.848386
0.727626 0.937621 0.851041
0.744686 0.936400 0.854551
0.763760 0.934752 0.861082
0.786069 0.932494 0.871672
0.807340 0.930358 0.877592
0.828397 0.928222 0.880400
0.848112 0.926299 0.883391
0.866453 0.924590 0.886503
0.883391 0.923125 0.889708
0.897612 0.920897 0.893126
0.903502 0.915282 0.900877
0.912444 0.911376 0.891661
0.922332 0.907805 0.882261
0.931518 0.903197 0.872557
0.940063 0.897856 0.862577
0.948028 0.892119 0.852598
0.955383 0.886320 0.843137
0.961822 0.881041 0.835294
0.967041 0.876982 0.830564
0.000000 0.994903 0.702541
0.000000 0.994781 0.704097
0.000000 0.994415 0.705867
0.000000 0.993317 0.709255
0.000000 0.991302 0.714870
0.000000 0.988128 0.723171
0.000000 0.983612 0.735134
0.285344 0.977752 0.751644
0.421180 0.970794 0.772641
0.523095 0.963409 0.796109
0.605524 0.956023 0.820371
0.672236 0.949218 0.843412
0.725887 0.943206 0.863920
0.742824 0.941741 0.866667
0.756924 0.940581 0.868742
0.770504 0.939422 0.871397
0.787991 0.937591 0.878019
0.806210 0.935668 0.886320
0.824674 0.933806 0.889891
0.842832 0.932067 0.892485
0.859983 0.930541 0.895262
0.875883 0.929229 0.898100
0.890593 0.927977 0.900877
0.902892 0.926085 0.903502
0.907683 0.920745 0.909209
0.915679 0.917998 0.903624
0.924285 0.915190 0.896330
0.932250 0.911559 0.889036
0.939574 0.907622 0.882170
0.946288 0.903593 0.876066
0.952117 0.900084 0.871489
0.956817 0.897673 0.869535
0.000000 1.000000 0.711666
0.000000 1.000000 0.713191
0.000000 0.999786 0.715053
0.000000 0.998657 0.718563
0.000000 0.996582 0.724300
0.000000 0.993408 0.732876
0.000000 0.988922 0.745083
0.293004 0.983093 0.761593
0.425147 0.976257 0.782162
0.525719 0.968994 0.804959
0.606928 0.961791 0.828153
0.673365 0.955016 0.850217
0.726558 0.949126 0.869688
0.759487 0.945495 0.881132
0.771847 0.944488 0.882780
0.783719 0.943542 0.884825
0.795224 0.942565 0.887419
0.811551 0.940917 0.894194
0.826780 0.939422 0.900999
0.842832 0.937926 0.903105
0.858091 0.936553 0.905364
0.872435 0.935332 0.907683
0.885679 0.934142 0.909789
0.897978 0.933013 0.911803
0.908507 0.931395 0.913787
0.912474 0.926635 0.918181
0.919066 0.924224 0.914244
0.926543 0.922179 0.908904
0.933410 0.919707 0.904051
0.939574 0.917205 0.900084
0.944976 0.915038 0.897490
0.949310 0.913787 0.896971
0.000000 1.000000 0.720821
0.000000 1.000000 0.722347
0.000000 1.000000 0.723995
0.000000 1.000000 0.727535
0.000000 1.000000 0.733272
0.000000 0.998383 0.741848
0.000000 0.993866 0.753994
0.298955 0.988037 0.770413
0.428504 0.981231 0.790494
0.527123 0.974090 0.812406
0.608026 0.966888 0.834836
0.673823 0.960204 0.855894
0.726741 0.954345 0.874510
0.768826 0.949432 0.890196
0.785306 0.947784 0.894347
0.795621 0.946960 0.895903
0.805631 0.946136 0.897765
0.816556 0.945220 0.900877
0.830655 0.943816 0.906737
0.843778 0.942596 0.911498
0.857206 0.941314 0.913268
0.870054 0.940154 0.915038
0.882109 0.939086 0.916808
0.893462 0.938048 0.918547
0.904082 0.937102 0.920195
0.913237 0.935760 0.921843
0.916594 0.931518 0.925383
0.922057 0.929351 0.922698
0.928557 0.927947 0.918761
0.934508 0.926421 0.915709
0.939696 0.925139 0.913939
0.943908 0.924559 0.913909
0.000000 1.000000 0.727657
0.000000 1.000000 0.729000
0.000000 1.000000 0.730739
0.000000 1.000000 0.734340
0.000000 1.000000 0.740536
0.000000 1.000000 0.749752
0.056703 0.998566 0.762905
0.313878 0.992737 0.780484
0.443030 0.985931 0.801541
0.542199 0.978729 0.824125
0.622675 0.971588 0.846586
0.687465 0.965057 0.867124
0.738979 0.959380 0.884794
0.779263 0.954742 0.899260
0.807279 0.951537 0.909300
0.815824 0.950896 0.910460
0.824033 0.950225 0.911833
0.831876 0.949615 0.913359
0.841581 0.948699 0.916503
0.852537 0.947601 0.920867
0.863066 0.946654 0.923857
0.873838 0.945617 0.925231
0.884092 0.944701 0.926574
0.893797 0.943816 0.927916
0.902983 0.942992 0.929229
0.911681 0.942199 0.930510
0.919280 0.941131 0.931823
0.921904 0.937591 0.934447
0.926116 0.935790 0.932860
0.931426 0.934936 0.930327
0.936187 0.934356 0.929076
0.940124 0.934264 0.929229
0.000000 1.000000 0.737575
0.000000 1.000000 0.738979
0.000000 1.000000 0.740719
0.000000 1.000000 0.744594
0.000000 1.000000 0.751125
0.000000 1.000000 0.760769
0.142489 1.000000 0.774166
0.337011 0.997101 0.791653
0.458076 0.990143 0.811917
0.553429 0.982849 0.833463
0.630610 0.975708 0.854490
0.693019 0.969146 0.873594
0.742733 0.963470 0.889982
0.781521 0.958801 0.903349
