data/fiter_cube/96471014/1022816/file.cube
# Created by Adobe Lightroom plugin Export LUT (1.17.0)
# www.johnrellis.com/lightroom/exportlut.htm
# Preset: 复古预设3
# Color profile: C:\Program Files (x86)\Common Files\Adobe\Color\Profiles\Recommended\AdobeRGB1998.icc
LUT_3D_SIZE 5
DOMAIN_MIN 0.000000 0.000000 0.000000
DOMAIN_MAX 0.903226 0.903226 0.903226
0.051148 0.090272 0.111269
0.371038 0.058534 0.110292
0.905882 0.179721 0.000000
1.000000 0.348394 0.133028
1.000000 0.437751 0.259800
0.000000 0.320317 0.206058
0.278477 0.316716 0.199161
0.903258 0.448707 0.000000
1.000000 0.459907 0.167544
1.000000 0.506493 0.306004
0.000000 0.848539 0.507958
0.178653 0.835416 0.524926
0.810391 0.818540 0.631922
0.987701 0.715785 0.344701
1.000000 0.673365 0.450477
0.000000 0.979706 0.675044
0.247440 0.964324 0.722835
0.733150 0.931456 0.838743
0.890898 0.914122 0.878447
0.959106 0.872129 0.810605
0.000000 1.000000 0.741482
0.335027 1.000000 0.797177
0.805692 0.958282 0.913481
0.875731 0.951751 0.934905
0.926421 0.947234 0.942931
0.000000 0.090455 0.215213
0.331029 0.000000 0.235935
0.859617 0.156497 0.244266
0.991333 0.395514 0.306554
1.000000 0.487648 0.384955
0.000000 0.293584 0.281132
0.298924 0.313298 0.287236
0.863310 0.430823 0.278691
0.986786 0.492012 0.334691
1.000000 0.544121 0.418738
0.000000 0.825376 0.547845
0.246281 0.811093 0.567102
0.781888 0.789120 0.667079
0.969268 0.725032 0.477913
1.000000 0.702663 0.560906
0.000000 0.975616 0.703487
0.326299 0.958373 0.750423
0.749538 0.927062 0.854276
0.888182 0.912078 0.887724
0.955383 0.876616 0.829557
0.000000 1.000000 0.750088
0.291173 1.000000 0.799496
0.807950 0.959075 0.916442
0.879942 0.951873 0.938018
0.926879 0.947662 0.945495
0.000000 0.057465 0.562707
0.356054 0.000000 0.547112
0.840665 0.000000 0.548211
0.947692 0.506889 0.599268
0.990631 0.645258 0.682124
0.000000 0.287449 0.597040
0.337346 0.264561 0.582910
0.810941 0.330053 0.558984
0.940490 0.586847 0.631983
0.987152 0.674617 0.697841
0.000000 0.788571 0.710445
0.000000 0.781918 0.685634
0.772519 0.776394 0.753841
0.923888 0.768215 0.739101
0.972290 0.769192 0.762295
0.000000 0.968292 0.770169
0.248264 0.951629 0.790555
0.773068 0.915099 0.881041
0.885313 0.910124 0.909575
0.949737 0.882567 0.861936
0.000000 1.000000 0.786679
0.000000 1.000000 0.813199
0.759640 0.964324 0.906065
0.882231 0.951141 0.941192
0.926329 0.947326 0.949310
0.111482 0.000000 0.876310
0.448676 0.000000 0.870329
0.813382 0.000000 0.849180
0.949676 0.327062 0.738735
0.962585 0.716854 0.820584
0.000000 0.235843 0.878325
0.401770 0.202823 0.871855
0.798489 0.182620 0.849882
0.931212 0.504814 0.764157
0.953399 0.756558 0.840848
0.000000 0.707454 0.883024
0.235416 0.698604 0.875364
0.728511 0.694606 0.853056
0.882109 0.756039 0.832639
0.938537 0.832914 0.881346
0.000000 0.955047 0.884977
0.060487 0.942565 0.880369
0.710292 0.908141 0.887816
0.879789 0.903532 0.917144
0.936889 0.890471 0.907225
0.000000 1.000000 0.846525
0.000000 1.000000 0.856046
0.689326 0.970825 0.906554
0.882963 0.949889 0.946746
0.927001 0.947997 0.955718
0.295384 0.000000 0.970825
0.465492 0.000000 0.968627
0.758267 0.000000 0.962188
0.949554 0.000000 0.912505
0.975250 0.595026 0.852537
0.167422 0.102968 0.969024
0.411627 0.000000 0.966766
0.737209 0.000000 0.959716
0.938872 0.251743 0.914641
0.966217 0.659174 0.865934
0.000000 0.557366 0.961700
0.155001 0.556573 0.959258
0.661799 0.585657 0.949981
0.903197 0.635828 0.927428
0.944182 0.791958 0.900694
0.000000 0.868650 0.955657
0.000000 0.862882 0.953918
0.590570 0.853605 0.947326
0.850828 0.864408 0.940490
0.925109 0.888121 0.932464
0.000000 1.000000 0.940551
0.000000 1.000000 0.939239
0.532341 0.980774 0.939483
0.838224 0.950072 0.947021
0.924681 0.946044 0.959258
