data/fiter_cube/12544332/1022703/file.cube
# Created by Adobe Lightroom plugin Export LUT (1.24.0)
# www.johnrellis.com/lightroom/exportlut.htm
# Preset: 城市青橙纪实夜景 _07 云集
# Color profile: C:\Program Files (x86)\Common Files\Adobe\Color\Profiles\Recommended\AdobeRGB1998.icc
LUT_3D_SIZE 8
DOMAIN_MIN 0.000000 0.000000 0.000000
DOMAIN_MAX 0.903226 0.903226 0.903226
0.114870 0.114870 0.114870
0.193851 0.125826 0.118135
0.323674 0.150515 0.118532
0.473915 0.187564 0.110170
0.625940 0.232853 0.093141
0.745022 0.271275 0.078523
0.848051 0.303044 0.080415
0.942260 0.332860 0.113985
0.109499 0.154574 0.133883
0.185550 0.161746 0.121523
0.316869 0.179019 0.119417
0.466651 0.211429 0.109895
0.618311 0.251225 0.092226
0.737423 0.284031 0.077699
0.842741 0.312840 0.079011
0.939208 0.341039 0.112947
0.090333 0.217441 0.171817
0.147890 0.225132 0.158572
0.300847 0.245212 0.132662
0.458045 0.277195 0.107942
0.612726 0.308446 0.087282
0.734920 0.330816 0.072724
0.845304 0.352911 0.077516
0.941527 0.374090 0.117067
0.000000 0.302556 0.225620
0.096040 0.309941 0.214328
0.266484 0.324163 0.176577
0.446540 0.353613 0.135531
0.610742 0.388952 0.076387
0.733059 0.400458 0.065309
0.841611 0.411444 0.076844
0.938567 0.424170 0.121828
0.000000 0.397772 0.286046
0.000000 0.404028 0.277134
0.182132 0.421729 0.222995
0.413001 0.438483 0.193240
0.589014 0.461402 0.137301
0.719997 0.475471 0.033783
0.832547 0.480842 0.078920
0.933928 0.487434 0.131044
0.000000 0.504784 0.355322
0.000000 0.512535 0.349645
0.000000 0.528771 0.312352
0.357549 0.542901 0.252659
0.564233 0.554284 0.212100
0.711818 0.556237 0.150332
0.827726 0.559808 0.063447
0.930785 0.561639 0.150698
0.000000 0.626459 0.433204
0.000000 0.630610 0.427558
0.000000 0.641260 0.396979
0.252598 0.653529 0.325933
0.523003 0.656672 0.294469
0.708400 0.664057 0.243290
0.826871 0.646509 0.178988
0.925322 0.638514 0.151003
0.000000 0.748287 0.504051
0.000000 0.750271 0.500725
0.000000 0.758328 0.480262
0.111696 0.769223 0.431586
0.473915 0.768093 0.393042
0.683925 0.772061 0.359350
0.848203 0.772824 0.303685
0.940032 0.738399 0.237369
0.098085 0.135866 0.171878
0.182895 0.144289 0.163912
0.312169 0.171756 0.135225
0.459846 0.220493 0.110079
0.612757 0.258976 0.092287
0.732662 0.288914 0.077607
0.839628 0.314549 0.078370
0.936950 0.339239 0.111299
0.090791 0.168551 0.183200
0.175082 0.175082 0.175082
0.306279 0.194736 0.150210
0.456794 0.237400 0.109590
0.609094 0.273564 0.091341
0.729000 0.300755 0.075898
0.835782 0.323766 0.077333
0.933867 0.346746 0.110384
0.089601 0.228214 0.205203
0.149172 0.238010 0.202090
0.296391 0.252140 0.173220
0.450752 0.282872 0.137148
0.603174 0.320653 0.087495
0.726009 0.341375 0.071717
0.835752 0.359472 0.075563
0.935302 0.377813 0.113954
0.000000 0.310582 0.250706
0.092409 0.318883 0.244816
0.259617 0.332555 0.207340
0.440375 0.354284 0.169406
0.597192 0.384924 0.120912
0.720790 0.403235 0.066194
0.831815 0.414069 0.073976
0.932555 0.425971 0.118318
0.000000 0.405524 0.307256
0.000000 0.411048 0.299931
0.177279 0.427405 0.257206
0.406989 0.440955 0.219699
0.581506 0.459358 0.168948
0.713100 0.473304 0.110475
0.827390 0.483040 0.077638
0.930266 0.488838 0.129366
0.000000 0.508415 0.370886
0.000000 0.513664 0.364813
0.000000 0.528740 0.332586
0.346532 0.543450 0.272526
0.559106 0.555138 0.236057
0.708858 0.556939 0.179507
0.824857 0.560235 0.111299
0.928344 0.562676 0.149203
0.000000 0.624750 0.444251
0.000000 0.627771 0.437690
0.000000 0.638819 0.410376
0.243717 0.652216 0.346319
0.516686 0.656672 0.312963
0.703517 0.663600 0.263706
0.822568 0.645533 0.201999
0.922026 0.637903 0.146761
0.000000 0.746700 0.513054
0.000000 0.749111 0.510246
0.000000 0.757443 0.491157
0.076051 0.768673 0.445014
0.471382 0.772061 0.411017
0.681788 0.774319 0.377417
0.846067 0.774044 0.320714
0.937804 0.738766 0.255039
0.000000 0.179721 0.265751
0.111482 0.172854 0.265049
0.296452 0.189853 0.247196
0.456886 0.212253 0.193118
0.611048 0.273991 0.150301
0.730159 0.326452 0.087831
0.839689 0.346838 0.076844
0.938659 0.360357 0.114107
0.030060 0.207034 0.274144
0.119570 0.203311 0.272435
0.289891 0.214359 0.253544
0.450752 0.233341 0.204685
0.605493 0.286473 0.161135
0.726772 0.333806 0.096590
0.836881 0.354711 0.076173
0.936919 0.367620 0.113954
0.000000 0.265904 0.296605
0.086793 0.267399 0.294102
0.273808 0.273808 0.273808
0.440528 0.293370 0.238010
0.600458 0.328588 0.188998
0.724422 0.363104 0.123018
0.835080 0.385046 0.074983
0.935637 0.394873 0.116121
0.000000 0.336400 0.322606
0.000000 0.343114 0.322271
0.217716 0.358953 0.302190
0.433661 0.371130 0.261601
0.591302 0.394995 0.233341
0.719478 0.414252 0.168002
0.832731 0.434913 0.075410
0.934203 0.440620 0.121828
0.000000 0.422675 0.365423
0.000000 0.430762 0.365087
0.144594 0.449622 0.347234
0.391730 0.461616 0.303288
0.579034 0.472633 0.257542
0.709621 0.482033 0.224094
0.826627 0.494301 0.142580
0.931121 0.500084 0.132723
0.000000 0.523339 0.422126
0.000000 0.529412 0.419867
0.000000 0.544518 0.401190
0.309545 0.558129 0.342748
0.548302 0.566491 0.311559
0.702968 0.564202 0.262181
0.820615 0.566491 0.219883
0.929137 0.571527 0.152621
0.000000 0.635767 0.488441
0.000000 0.639155 0.483955
0.000000 0.648859 0.463203
0.213443 0.660334 0.414527
0.499641 0.664363 0.375158
0.694942 0.671107 0.332280
0.820401 0.653803 0.277714
0.923125 0.646479 0.223117
0.000000 0.751797 0.550042
0.000000 0.753140 0.546288
0.000000 0.760708 0.530755
0.000000 0.773190 0.491890
0.449928 0.776394 0.458961
0.670832 0.778714 0.431617
0.841276 0.781552 0.378790
0.935760 0.745815 0.317266
0.000000 0.241062 0.383032
0.000000 0.234134 0.384741
0.211948 0.210697 0.378912
0.434333 0.246860 0.350683
0.600702 0.254673 0.277745
0.724453 0.314427 0.231357
0.834989 0.359838 0.168185
0.936919 0.382574 0.115084
0.000000 0.262974 0.391852
0.000000 0.256352 0.391791
0.199374 0.229374 0.384802
0.431495 0.266514 0.355932
0.597192 0.274601 0.286259
0.721584 0.326299 0.239536
0.833158 0.367620 0.174960
0.936248 0.388525 0.115511
0.000000 0.312139 0.407202
0.000000 0.309850 0.406714
0.170626 0.296635 0.399664
0.419165 0.321202 0.371435
0.587243 0.333654 0.314977
0.718196 0.368383 0.268925
0.835111 0.397833 0.200076
0.938048 0.413916 0.120302
0.000000 0.383520 0.433997
0.000000 0.384009 0.432776
0.114382 0.387213 0.426734
0.398291 0.398291 0.398291
0.571008 0.413306 0.359625
0.708095 0.427955 0.308019
0.828611 0.443122 0.234470
0.935790 0.456458 0.125826
0.000000 0.460639 0.461799
0.000000 0.463966 0.461280
0.000000 0.476692 0.456886
0.336309 0.491218 0.426642
0.563256 0.495094 0.383429
0.697749 0.504204 0.361089
0.822660 0.508263 0.288640
0.932830 0.512383 0.174716
0.000000 0.548333 0.501793
0.000000 0.555474 0.503471
0.000000 0.569116 0.496529
0.260044 0.582788 0.464790
0.524712 0.587243 0.424872
0.694057 0.582727 0.377661
0.814267 0.584100 0.347631
0.928008 0.583154 0.261509
0.000000 0.650813 0.555840
0.000000 0.654566 0.553948
0.000000 0.664912 0.542351
0.107607 0.676448 0.509575
0.463294 0.680079 0.466804
0.678065 0.684871 0.434119
0.813870 0.668360 0.380682
0.920012 0.660609 0.337346
0.000000 0.763668 0.614405
0.000000 0.765499 0.611414
0.000000 0.771267 0.597681
0.000000 0.781033 0.563378
0.388678 0.785611 0.525383
0.649622 0.785550 0.512657
0.827146 0.790860 0.465248
0.930602 0.757870 0.405402
0.000000 0.309850 0.508049
0.000000 0.303593 0.509087
0.000000 0.273716 0.507622
0.361975 0.276493 0.496254
0.572107 0.320500 0.460334
0.711818 0.318242 0.379492
0.827543 0.373663 0.337407
0.934051 0.404944 0.270024
0.000000 0.325292 0.513298
0.000000 0.319799 0.514183
0.000000 0.293187 0.511864
0.356786 0.290959 0.500008
0.568963 0.334997 0.463447
0.709651 0.334112 0.385931
0.826505 0.383673 0.342931
0.933745 0.411139 0.272831
0.000000 0.366705 0.525292
0.000000 0.363592 0.525170
0.000000 0.348547 0.523644
0.329412 0.333501 0.510704
0.558618 0.379278 0.474098
0.700740 0.380865 0.405737
0.821958 0.415106 0.359838
0.932097 0.430701 0.278996
0.000000 0.426673 0.543816
0.000000 0.425544 0.543633
0.000000 0.420996 0.540856
0.284276 0.412177 0.529137
0.543694 0.445930 0.495094
0.690547 0.451057 0.440406
0.817960 0.464851 0.385382
0.933318 0.462257 0.282048
0.000000 0.499489 0.568170
0.000000 0.500114 0.567834
0.000000 0.501915 0.563928
0.239078 0.507469 0.552422
0.520775 0.520775 0.520775
0.677150 0.527916 0.480903
0.811337 0.528161 0.418982
0.929808 0.520104 0.319524
0.000000 0.574029 0.592126
0.000000 0.576074 0.591760
0.000000 0.582818 0.588647
0.143801 0.598108 0.579919
0.453468 0.605921 0.540337
0.670527 0.605005 0.503349
0.800259 0.611231 0.479866
0.923217 0.600061 0.390295
0.000000 0.666773 0.635309
0.000000 0.669551 0.634730
0.000000 0.680201 0.631983
0.000000 0.691524 0.614588
0.370275 0.696773 0.571038
0.642878 0.696864 0.544671
0.799069 0.687404 0.495216
0.912200 0.681209 0.457252
0.000000 0.774655 0.691493
0.000000 0.776028 0.688746
0.000000 0.781155 0.678645
0.000000 0.791684 0.656184
0.214878 0.797055 0.609400
0.602930 0.793759 0.592340
0.799252 0.798581 0.559014
0.920134 0.773495 0.504784
0.000000 0.377203 0.628351
0.000000 0.372473 0.629450
0.000000 0.351568 0.629603
0.201205 0.317082 0.624994
0.512505 0.362646 0.607355
0.684901 0.413886 0.561608
0.811124 0.425452 0.502892
0.920562 0.473518 0.473823
0.000000 0.387304 0.629450
0.000000 0.382513 0.629786
0.000000 0.363500 0.629450
0.194766 0.330571 0.624628
0.507897 0.372290 0.607630
0.681941 0.423255 0.563409
0.809293 0.433204 0.505425
0.919677 0.478828 0.475837
0.000000 0.421607 0.638697
0.000000 0.417823 0.638361
0.000000 0.403754 0.636988
0.178683 0.379126 0.631769
0.496223 0.407965 0.614832
0.676234 0.458259 0.573571
0.805600 0.464881 0.518883
0.918700 0.499092 0.484382
0.000000 0.470161 0.649561
0.000000 0.467994 0.649012
0.000000 0.461036 0.647578
0.144717 0.449683 0.643854
0.470192 0.461738 0.628748
0.668727 0.512810 0.592645
0.801602 0.515923 0.542229
0.919097 0.530724 0.495247
0.000000 0.529107 0.662379
0.000000 0.528618 0.662226
0.000000 0.526757 0.660761
0.000000 0.524559 0.655848
0.409430 0.525750 0.642420
0.653407 0.568048 0.610193
0.793484 0.570245 0.563684
0.918456 0.565911 0.498360
0.000000 0.595727 0.679622
0.000000 0.596765 0.679866
0.000000 0.598657 0.678218
0.000000 0.603540 0.673396
0.358282 0.614527 0.661738
0.633906 0.633845 0.633875
0.785031 0.640467 0.596887
0.915801 0.628962 0.525444
0.000000 0.677363 0.712367
0.000000 0.679164 0.712642
0.000000 0.684352 0.711360
0.000000 0.695003 0.707362
0.257328 0.713344 0.696223
0.574792 0.718471 0.655329
0.778897 0.715114 0.619471
0.902678 0.715633 0.590204
0.000000 0.775235 0.764584
0.000000 0.777462 0.763516
0.000000 0.785885 0.759670
0.000000 0.801511 0.754818
0.000000 0.813504 0.729976
0.481636 0.811276 0.679774
0.760250 0.809689 0.661769
0.906310 0.795834 0.614771
0.000000 0.438422 0.736934
0.000000 0.434485 0.737026
0.000000 0.419684 0.736812
0.000000 0.396735 0.734707
0.413428 0.411048 0.724971
0.651667 0.469337 0.707912
0.786618 0.524346 0.663813
0.899046 0.558190 0.635340
0.000000 0.446540 0.738216
0.000000 0.442725 0.738247
0.000000 0.428779 0.738003
0.000000 0.406928 0.735500
0.409674 0.419501 0.726131
0.649989 0.478126 0.709133
0.785672 0.530846 0.665858
0.898711 0.562921 0.637171
0.000000 0.472114 0.742428
0.000000 0.468879 0.742397
0.000000 0.457801 0.741909
0.000000 0.439948 0.739437
0.394263 0.447425 0.730526
0.643641 0.506310 0.713344
0.782559 0.552361 0.672938
0.897795 0.578546 0.643305
0.000000 0.512352 0.749630
0.000000 0.509941 0.749386
0.000000 0.502098 0.748836
0.000000 0.490242 0.746273
0.357366 0.490364 0.738369
0.629023 0.543481 0.721096
0.777737 0.585382 0.684321
0.897032 0.603052 0.651911
0.000000 0.563958 0.759365
0.000000 0.562707 0.759274
0.000000 0.558251 0.758663
0.000000 0.550500 0.756313
0.285191 0.547204 0.749630
0.597253 0.584131 0.732692
0.771206 0.627253 0.699641
0.896147 0.639033 0.664973
0.000000 0.623621 0.771969
0.000000 0.623224 0.771878
0.000000 0.622065 0.771267
0.000000 0.620600 0.769253
0.186526 0.621912 0.763790
0.532341 0.637537 0.749813
0.761166 0.679835 0.719631
0.895171 0.685237 0.680934
0.000000 0.686336 0.787320
0.000000 0.688136 0.786801
0.000000 0.689754 0.786252
0.000000 0.693629 0.784665
0.000000 0.702785 0.780331
0.481636 0.722164 0.769497
0.743923 0.743893 0.743923
0.891173 0.746975 0.704555
0.000000 0.764492 0.824369
0.000000 0.766598 0.824063
0.000000 0.774075 0.822782
0.000000 0.784360 0.821378
0.000000 0.799619 0.817899
0.355749 0.823484 0.807279
0.686488 0.828672 0.765469
0.886687 0.825010 0.734768
0.000000 0.501152 0.847135
0.000000 0.498207 0.847135
0.000000 0.488563 0.846860
0.000000 0.478065 0.845274
0.351507 0.499092 0.839414
0.609583 0.552544 0.828244
0.789578 0.602045 0.814542
0.887083 0.649897 0.772854
0.000000 0.507103 0.847868
0.000000 0.504295 0.847868
0.000000 0.494972 0.847593
0.000000 0.484871 0.845945
0.346288 0.504356 0.840208
0.607660 0.557488 0.829068
0.788174 0.606744 0.815335
0.886717 0.653559 0.774228
0.000000 0.526665 0.850340
0.000000 0.524071 0.850340
0.000000 0.515770 0.850004
0.000000 0.506706 0.848447
0.322576 0.521141 0.843107
0.599512 0.573693 0.831876
0.783108 0.622278 0.818112
0.885588 0.665827 0.778927
0.000000 0.555627 0.855009
0.000000 0.556176 0.854673
0.000000 0.548791 0.854459
0.000000 0.540276 0.853117
0.256443 0.546777 0.848447
0.579522 0.597925 0.837278
0.773312 0.646998 0.823148
0.883909 0.685878 0.786862
0.000000 0.596155 0.862211
0.000000 0.597467 0.861753
0.000000 0.594659 0.861021
0.000000 0.581933 0.860136
0.000000 0.582849 0.856352
0.529198 0.622736 0.846036
0.756283 0.676417 0.830900
0.881498 0.713924 0.798337
0.000000 0.646174 0.871489
0.000000 0.647517 0.871122
0.000000 0.651575 0.869749
0.000000 0.644343 0.869047
0.000000 0.636713 0.866606
0.421149 0.654841 0.858549
0.724788 0.710048 0.842313
0.877836 0.750546 0.813626
0.000000 0.702602 0.882750
0.000000 0.703914 0.882444
0.000000 0.708400 0.881376
0.000000 0.711574 0.880003
0.000000 0.711238 0.878141
0.294743 0.721187 0.872648
0.654353 0.751339 0.859373
0.871672 0.797513 0.833524
0.000000 0.763394 0.895842
0.000000 0.764767 0.895628
0.000000 0.769802 0.894804
0.000000 0.779416 0.893187
0.000000 0.786984 0.891722
0.136141 0.802426 0.887846
0.597742 0.830838 0.878721
0.859007 0.859007 0.859007
