data/fiter_cube/12544332/1022703/file.cube
# Created by Adobe Lightroom plugin Export LUT (1.24.0)
# www.johnrellis.com/lightroom/exportlut.htm
# Preset: 城市青橙纪实夜景 _07 云集
# Color profile: C:\Program Files (x86)\Common Files\Adobe\Color\Profiles\Recommended\AdobeRGB1998.icc
LUT_3D_SIZE 32
0.114870 0.114870 0.114870
0.125978 0.116274 0.115267
0.140017 0.117891 0.115724
0.164401 0.121218 0.116793
0.193851 0.125826 0.118135
0.224521 0.131167 0.119051
0.256199 0.136934 0.118929
0.289097 0.143160 0.118746
0.323674 0.150515 0.118532
0.359808 0.158694 0.117220
0.397436 0.167483 0.115328
0.435584 0.177340 0.113252
0.473915 0.187564 0.110170
0.511925 0.198489 0.106935
0.549279 0.209720 0.102876
0.588373 0.221439 0.098116
0.625940 0.232853 0.093141
0.659052 0.243320 0.088746
0.688808 0.253147 0.084627
0.717281 0.262333 0.081453
0.745022 0.271275 0.078523
0.772091 0.279698 0.076692
0.798215 0.287724 0.076478
0.823514 0.295659 0.077119
0.848051 0.303044 0.080415
0.872007 0.310246 0.085512
0.895598 0.317662 0.092103
0.918975 0.325139 0.101564
0.942260 0.332860 0.113985
0.965423 0.341253 0.128573
0.988403 0.350530 0.145754
1.000000 0.361120 0.166720
0.114412 0.119661 0.117128
0.125002 0.121126 0.115724
0.139345 0.122866 0.115938
0.163638 0.126070 0.117220
0.193149 0.130343 0.118349
0.223728 0.135134 0.119112
0.255253 0.140658 0.119234
0.287999 0.146792 0.119265
0.322515 0.153689 0.118471
0.358801 0.161685 0.117159
0.396094 0.170199 0.115541
0.434180 0.179721 0.113313
0.472450 0.190036 0.110231
0.510369 0.200534 0.107057
0.547662 0.211643 0.102815
0.586572 0.223178 0.098360
0.623682 0.234653 0.093019
0.656703 0.244694 0.088777
0.686397 0.254368 0.084749
0.714870 0.263310 0.081361
0.742641 0.272129 0.078492
0.769802 0.280430 0.076692
0.796048 0.288487 0.075776
0.821469 0.296300 0.076753
0.846189 0.303502 0.080110
0.870268 0.310887 0.084504
0.894041 0.317998 0.092073
0.917571 0.325566 0.101228
0.940948 0.333318 0.113039
0.964233 0.341588 0.127596
0.987335 0.350744 0.144900
1.000000 0.361242 0.165591
0.113741 0.126253 0.119966
0.123720 0.127535 0.118410
0.138705 0.129549 0.116762
0.162905 0.132235 0.117464
0.192142 0.135988 0.118654
0.222568 0.140505 0.119448
0.254185 0.145266 0.119417
0.286839 0.151278 0.119265
0.321447 0.157809 0.118715
0.357488 0.165438 0.117433
0.394812 0.173922 0.115389
0.433082 0.183230 0.113161
0.471107 0.193332 0.110567
0.509117 0.203891 0.106905
0.546410 0.214633 0.102937
0.585412 0.225986 0.098024
0.622309 0.237064 0.093294
0.655146 0.247166 0.088563
0.684932 0.256291 0.084627
0.713375 0.265110 0.081605
0.741299 0.273716 0.078767
0.768551 0.281895 0.076326
0.794827 0.289891 0.075746
0.820401 0.297337 0.077150
0.845151 0.304784 0.079377
0.869322 0.311955 0.084504
0.893156 0.319158 0.091737
0.916777 0.326452 0.101228
0.940215 0.334295 0.112978
0.963592 0.342626 0.127321
0.986725 0.351629 0.144686
1.000000 0.362005 0.165316
0.111604 0.140658 0.126650
0.120058 0.141909 0.124483
0.135470 0.142824 0.122835
0.161044 0.144533 0.118532
0.190188 0.147372 0.119203
0.220859 0.151003 0.119814
0.252262 0.155245 0.120027
0.285039 0.160555 0.119722
0.319585 0.166781 0.118990
0.355840 0.173800 0.117525
0.393164 0.182010 0.115511
0.431342 0.190738 0.113313
0.469429 0.200534 0.110262
0.507286 0.210941 0.106630
0.544793 0.221042 0.102693
0.583764 0.232120 0.097749
0.620417 0.242557 0.092653
0.653040 0.252201 0.088289
0.682734 0.260990 0.084443
0.711086 0.269261 0.081300
0.738918 0.277592 0.078248
0.766232 0.285496 0.075898
0.792813 0.293278 0.075227
0.818662 0.300725 0.076204
0.843870 0.307897 0.078981
0.868467 0.315129 0.084199
0.892638 0.322118 0.091371
0.916411 0.329320 0.101106
0.939971 0.337011 0.112856
0.963348 0.345037 0.127474
0.986389 0.353979 0.144686
1.000000 0.364141 0.165347
0.109499 0.154574 0.133883
0.115053 0.155550 0.132479
0.130129 0.156497 0.131655
0.154330 0.158419 0.128084
0.185550 0.161746 0.121523
0.217685 0.165316 0.120882
0.249363 0.169009 0.120943
0.282170 0.173556 0.120302
0.316869 0.179019 0.119417
0.352850 0.186099 0.117556
0.390387 0.193545 0.115358
0.428412 0.202060 0.112947
0.466651 0.211429 0.109895
0.504723 0.220920 0.106264
0.542260 0.230777 0.102296
0.581720 0.241184 0.097566
0.618311 0.251225 0.092226
0.651240 0.260044 0.087892
0.681086 0.268467 0.083436
0.709529 0.276402 0.080323
0.737423 0.284031 0.077699
0.764706 0.291478 0.075776
0.791348 0.298863 0.074861
0.817380 0.306157 0.075807
0.842741 0.312840 0.079011
0.867491 0.319890 0.083589
0.891752 0.326665 0.091127
0.915618 0.333715 0.100862
0.939208 0.341039 0.112947
0.962615 0.348882 0.127382
0.985779 0.357488 0.144472
1.000000 0.367529 0.165164
0.107301 0.168368 0.141512
0.110262 0.169528 0.140383
0.123720 0.170504 0.139681
0.146914 0.172244 0.136416
0.176455 0.174807 0.132448
0.211460 0.180087 0.125093
0.246189 0.185061 0.121401
0.279118 0.189334 0.121126
0.313787 0.194553 0.119661
0.350164 0.200748 0.117861
0.387671 0.208347 0.115358
0.425818 0.216342 0.112947
0.464149 0.224857 0.109499
0.502464 0.233982 0.105806
0.540215 0.242832 0.101411
0.580041 0.252995 0.096742
0.616571 0.262333 0.091432
0.649561 0.270817 0.086763
0.679683 0.278325 0.082948
0.708370 0.285679 0.079500
0.736507 0.292943 0.076844
0.764065 0.299992 0.074495
0.802853 0.311131 0.074647
0.828214 0.317845 0.076448
0.852781 0.324224 0.080201
0.876677 0.330419 0.086305
0.900053 0.336706 0.094697
0.923095 0.343206 0.104799
0.945922 0.350134 0.117433
0.968627 0.357702 0.132296
0.991028 0.366094 0.149783
1.000000 0.375708 0.170901
0.103365 0.183841 0.150515
0.105226 0.184848 0.149783
0.118013 0.185855 0.148684
0.138460 0.188052 0.144594
0.169223 0.190555 0.141054
0.201877 0.193942 0.135988
0.240299 0.200839 0.127962
0.277684 0.207645 0.121035
0.312779 0.212802 0.120058
0.349645 0.218997 0.118105
0.387762 0.226169 0.115084
0.426368 0.233768 0.112337
0.464881 0.242039 0.108949
0.503319 0.250248 0.105013
0.542016 0.259068 0.100465
0.582025 0.268711 0.094850
0.618585 0.277073 0.089723
0.651484 0.284672 0.085389
0.681727 0.291722 0.081117
0.710903 0.298405 0.077760
0.739834 0.305303 0.075044
0.768429 0.312108 0.073091
0.796384 0.318914 0.073610
0.823484 0.325597 0.075044
0.849485 0.331762 0.079561
0.874235 0.338079 0.085328
0.898100 0.344030 0.093965
0.921416 0.350164 0.104616
0.944427 0.356847 0.117037
0.967193 0.363897 0.132052
0.989685 0.371923 0.150057
1.000000 0.381170 0.171054
0.098238 0.199893 0.160494
0.101198 0.200717 0.159670
0.112184 0.201846 0.158541
0.130800 0.204227 0.154940
0.159518 0.206790 0.148928
0.193912 0.209781 0.144961
0.228977 0.214084 0.139254
0.269322 0.222141 0.130617
0.308934 0.230442 0.122225
0.345769 0.236942 0.117250
0.383856 0.243992 0.115175
0.422492 0.251164 0.112001
0.461341 0.258946 0.108339
0.499977 0.266514 0.104433
0.539696 0.275303 0.099550
0.579126 0.284123 0.094057
0.615442 0.291936 0.088777
0.648371 0.298650 0.084260
0.678706 0.304997 0.080079
0.708064 0.311009 0.076814
0.737057 0.317327 0.073793
0.765805 0.323491 0.072358
0.793820 0.329686 0.072023
0.821042 0.335668 0.074739
0.847166 0.341558 0.078309
0.872099 0.347295 0.084901
0.896147 0.352850 0.093385
0.919677 0.358587 0.104128
0.942870 0.364721 0.117067
0.965789 0.371435 0.132448
0.988403 0.379126 0.149966
1.000000 0.388067 0.171084
0.090333 0.217441 0.171817
0.097047 0.218296 0.170993
0.106783 0.219425 0.170230
0.123690 0.221897 0.166262
0.147890 0.225132 0.158572
0.184848 0.227817 0.154055
0.221286 0.231296 0.149294
0.258762 0.236362 0.142306
0.300847 0.245212 0.132662
0.342443 0.254612 0.123690
0.380346 0.262516 0.113527
0.419104 0.269780 0.111421
0.458045 0.277195 0.107942
0.496895 0.284611 0.103700
0.537469 0.293248 0.098207
0.576532 0.301305 0.092866
0.612726 0.308446 0.087282
0.645838 0.314519 0.082765
0.676265 0.320012 0.078706
0.705806 0.325322 0.075593
0.734920 0.330816 0.072724
0.763699 0.336492 0.071046
0.791836 0.342077 0.071229
0.819089 0.347570 0.073365
0.845304 0.352911 0.077516
0.870359 0.357977 0.084382
0.894591 0.363073 0.093233
0.918212 0.368383 0.103822
0.941527 0.374090 0.117067
0.964569 0.380407 0.132662
0.987274 0.387579 0.150668
1.000000 0.396124 0.171847
0.083528 0.236606 0.183810
0.090791 0.237369 0.183200
0.099184 0.238529 0.182254
0.115419 0.240909 0.178500
0.138430 0.244358 0.171328
0.172427 0.247471 0.162905
0.212741 0.250340 0.158999
0.251286 0.254337 0.152773
0.290715 0.260288 0.144442
0.334051 0.269841 0.133669
0.376928 0.279728 0.124147
0.415503 0.287846 0.113436
0.454353 0.295811 0.106691
0.494179 0.303655 0.103120
0.534966 0.312108 0.097505
0.574182 0.319615 0.091524
0.610742 0.326268 0.086122
0.644068 0.331823 0.080629
0.674739 0.336706 0.076844
0.704250 0.341344 0.073426
0.733242 0.346014 0.070924
0.761746 0.350927 0.069947
0.789639 0.355718 0.069856
0.816648 0.360449 0.072511
0.842802 0.365118 0.077028
0.868009 0.369726 0.084016
0.892454 0.374365 0.092988
0.916442 0.379248 0.103822
0.940063 0.384619 0.117464
0.963378 0.390539 0.133303
0.986328 0.397436 0.151614
1.000000 0.405524 0.172915
0.072969 0.256596 0.196963
0.080262 0.257542 0.196139
0.088655 0.258640 0.194858
0.104738 0.261082 0.191409
0.127749 0.264469 0.184726
0.157076 0.268376 0.173098
0.201480 0.271275 0.167849
0.243290 0.274662 0.162600
0.283146 0.279088 0.155795
0.324773 0.286076 0.145815
0.368902 0.295567 0.134218
0.412329 0.305791 0.124422
0.451209 0.313817 0.112581
0.491859 0.323430 0.099916
0.532067 0.331426 0.095979
0.571099 0.338659 0.090425
0.607721 0.344640 0.084810
0.641016 0.349676 0.079316
0.671962 0.353887 0.075319
0.701717 0.357824 0.071656
0.730831 0.362005 0.069551
0.759487 0.366217 0.068025
0.787564 0.370611 0.068757
0.814755 0.374701 0.071687
0.841062 0.378912 0.076051
0.866361 0.382940 0.083894
0.890867 0.387121 0.092988
0.914946 0.391424 0.104433
0.938628 0.396338 0.118074
0.962036 0.401740 0.134249
0.985138 0.408179 0.152773
1.000000 0.415839 0.174166
0.050324 0.278294 0.210575
0.062806 0.278996 0.209659
0.072572 0.280339 0.208438
0.090455 0.282506 0.205264
0.114321 0.286015 0.198795
0.143740 0.290105 0.188449
0.184634 0.293645 0.176333
0.232486 0.296788 0.172824
0.275914 0.300572 0.165957
0.317113 0.305241 0.158145
0.360266 0.312779 0.146883
0.404791 0.322332 0.134646
0.456275 0.337835 0.123995
0.498512 0.347509 0.109926
0.539239 0.357031 0.091585
0.578637 0.364172 0.085542
0.614954 0.369635 0.081300
0.648005 0.373632 0.076173
0.678462 0.376837 0.072328
0.707820 0.379889 0.068544
0.736538 0.383124 0.066804
0.764675 0.386328 0.066285
0.792050 0.389563 0.067842
0.818631 0.392920 0.071382
0.844419 0.396155 0.077028
0.869322 0.399481 0.085451
0.893492 0.402899 0.094942
0.917205 0.406592 0.107332
0.940551 0.410773 0.121035
0.963653 0.415686 0.137636
0.986419 0.421515 0.156130
1.000000 0.428687 0.178347
0.000000 0.302556 0.225620
0.000397 0.303441 0.224735
0.025788 0.304479 0.223453
0.067231 0.306523 0.220157
0.096040 0.309941 0.214328
0.128084 0.313664 0.204227
0.164797 0.317937 0.188510
0.217868 0.320775 0.181521
0.266484 0.324163 0.176577
0.310857 0.328496 0.169009
0.353552 0.333532 0.160372
0.398535 0.341833 0.147982
0.446540 0.353613 0.135531
0.494026 0.365972 0.123415
0.535058 0.374517 0.108278
0.574273 0.382940 0.087892
0.610742 0.388952 0.076387
0.643732 0.392676 0.074159
0.674525 0.395331 0.070100
0.704097 0.397833 0.067536
0.733059 0.400458 0.065309
0.761379 0.403143 0.065400
0.788907 0.405951 0.067140
0.815671 0.408698 0.070649
0.841611 0.411444 0.076844
0.866697 0.414252 0.085176
0.891081 0.417212 0.095338
0.914946 0.420417 0.107759
0.938567 0.424170 0.121828
0.961883 0.428595 0.138369
0.984863 0.433967 0.157626
1.000000 0.440742 0.179995
0.000000 0.325628 0.240208
0.000000 0.326452 0.239292
0.000000 0.327337 0.237858
0.000000 0.329595 0.235142
0.069612 0.332677 0.229587
0.108400 0.336400 0.220493
0.147463 0.340856 0.205966
0.196048 0.344549 0.190158
0.252415 0.347356 0.186618
0.300908 0.351141 0.180117
0.346014 0.355657 0.171603
0.390997 0.362249 0.162356
0.438178 0.372107 0.149722
0.485115 0.382635 0.135897
0.530632 0.393378 0.123110
0.570275 0.400824 0.106416
0.606470 0.407202 0.084901
0.639582 0.411780 0.067170
0.670527 0.414252 0.067475
0.700343 0.416327 0.066285
0.729610 0.418555 0.064088
0.758145 0.420905 0.063874
0.785977 0.423041 0.066438
0.812985 0.425452 0.070405
0.839139 0.427741 0.076783
0.864469 0.430091 0.084962
0.889097 0.432502 0.095796
0.913146 0.435218 0.108736
0.936950 0.438575 0.123293
0.960449 0.442603 0.140322
0.983642 0.447547 0.159731
1.000000 0.453956 0.182406
0.000000 0.349340 0.254948
0.000000 0.350134 0.254337
0.000000 0.351110 0.253147
0.000000 0.353216 0.250309
0.000000 0.356146 0.245090
0.081849 0.359930 0.236667
0.127443 0.364202 0.223545
0.171939 0.368475 0.204227
0.233188 0.371466 0.195743
0.287907 0.374670 0.191684
0.337011 0.379400 0.183719
0.384070 0.385473 0.175448
0.429847 0.392432 0.164981
0.476417 0.401221 0.150912
0.521935 0.410498 0.136019
0.565545 0.419745 0.122255
0.602564 0.425452 0.105440
0.635798 0.429816 0.083528
0.666804 0.433478 0.057374
0.696834 0.435340 0.061067
0.726131 0.437171 0.063325
0.754910 0.439002 0.063447
0.782956 0.440864 0.065705
0.810208 0.442725 0.069581
0.836637 0.444587 0.077241
0.862272 0.446571 0.085969
0.887266 0.448707 0.097200
0.911803 0.451148 0.110292
0.936004 0.454200 0.125338
0.959869 0.457954 0.143130
0.983398 0.462654 0.163058
1.000000 0.468757 0.186679
0.000000 0.373541 0.270329
0.000000 0.374334 0.269627
0.000000 0.375219 0.268498
0.000000 0.377295 0.265934
0.000000 0.380194 0.261082
0.014771 0.383978 0.253361
0.101625 0.388251 0.241794
0.151949 0.392767 0.224613
0.207858 0.396735 0.205997
0.271702 0.400000 0.202548
0.326177 0.404730 0.197330
0.375677 0.409857 0.188907
0.422339 0.415259 0.179263
0.467659 0.421454 0.167361
0.512749 0.428870 0.152132
0.556573 0.436683 0.136385
0.597223 0.443915 0.122438
0.631861 0.448005 0.105135
0.663416 0.451270 0.083009
0.693690 0.454688 0.044221
0.723354 0.456428 0.053010
0.752438 0.458289 0.062043
0.780758 0.459754 0.065034
0.808347 0.461219 0.070558
0.835080 0.462745 0.078126
0.860990 0.464302 0.087739
0.886229 0.465919 0.099367
0.910948 0.468086 0.112612
0.935271 0.470649 0.128695
0.959228 0.473915 0.146426
0.982757 0.478218 0.166873
1.000000 0.483803 0.190341
0.000000 0.397772 0.286046
0.000000 0.398413 0.285283
0.000000 0.399298 0.284154
0.000000 0.401190 0.281529
0.000000 0.404028 0.277134
0.000000 0.407568 0.270207
0.064759 0.411780 0.259678
0.128969 0.416205 0.244450
0.182132 0.421729 0.222995
0.250462 0.425513 0.213870
0.311192 0.429450 0.210117
0.364172 0.433814 0.202670
0.413001 0.438483 0.193240
0.459022 0.443397 0.183139
0.503746 0.449104 0.169558
0.547539 0.455299 0.153658
0.589014 0.461402 0.137301
0.626551 0.466590 0.124056
0.659541 0.469642 0.106477
0.690089 0.472267 0.083436
0.719997 0.475471 0.033783
0.749294 0.476967 0.047883
0.777737 0.478340 0.062837
0.805509 0.479652 0.071321
0.832547 0.480842 0.078920
0.858762 0.482033 0.089357
0.884306 0.483375 0.101259
0.909331 0.485206 0.115114
0.933928 0.487434 0.131044
0.958129 0.490364 0.149508
0.981872 0.494240 0.170687
1.000000 0.499550 0.194949
0.000000 0.422278 0.301762
0.000000 0.422950 0.300999
0.000000 0.426947 0.302129
0.000000 0.428748 0.299748
0.000000 0.431312 0.295354
0.000000 0.434668 0.288670
0.000000 0.439826 0.279667
0.097505 0.445258 0.266667
0.160708 0.450813 0.247684
0.223850 0.455665 0.226993
0.294652 0.458900 0.223423
0.353521 0.462531 0.218418
0.405402 0.466621 0.209384
0.454017 0.470771 0.199069
0.499702 0.475135 0.187655
0.543725 0.479957 0.172549
0.585687 0.484657 0.155978
0.623835 0.488197 0.139803
0.658381 0.491188 0.126467
0.689815 0.493172 0.108461
0.719600 0.495186 0.084047
0.748898 0.497841 0.027192
0.777401 0.498756 0.050660
0.804959 0.499794 0.068360
0.831693 0.500481 0.081971
0.857694 0.501061 0.092470
0.883024 0.501854 0.104036
0.907958 0.503014 0.118624
0.932555 0.504845 0.134554
0.956878 0.507347 0.153170
0.980804 0.510857 0.174868
1.000000 0.515801 0.199405
0.000000 0.448676 0.318914
0.000000 0.449897 0.318578
0.000000 0.451331 0.317967
0.000000 0.453834 0.316228
0.000000 0.457282 0.312810
0.000000 0.461433 0.307134
0.000000 0.465949 0.298650
0.022858 0.470985 0.286717
0.133089 0.476234 0.269780
0.195834 0.481239 0.246433
0.270085 0.484565 0.235447
0.335760 0.487526 0.231205
0.391943 0.490883 0.224399
0.442817 0.494484 0.214206
0.490394 0.498360 0.203098
0.535424 0.502220 0.190860
0.577996 0.505913 0.174746
0.616999 0.508385 0.158053
0.652644 0.510307 0.141939
0.685176 0.511955 0.129244
0.715755 0.513542 0.111391
0.745418 0.515557 0.085817
0.774350 0.518029 0.024079
0.802304 0.518608 0.060060
0.829313 0.519188 0.078096
0.855497 0.519890 0.094911
0.881193 0.520378 0.107607
0.906340 0.521233 0.122133
0.931182 0.522698 0.138613
0.955688 0.524926 0.157717
0.979767 0.528130 0.179629
1.000000 0.532677 0.204623
0.000000 0.476631 0.337072
0.000000 0.477790 0.336797
0.000000 0.479255 0.336248
0.000000 0.481636 0.334600
0.000000 0.484749 0.331060
0.000000 0.488502 0.325658
0.000000 0.492714 0.317784
0.000000 0.497353 0.306645
0.094697 0.502220 0.291234
0.170565 0.507012 0.270329
0.238560 0.511254 0.248020
0.314611 0.513725 0.243931
0.376593 0.516350 0.238956
0.430640 0.519615 0.230045
0.480568 0.522911 0.219242
0.527367 0.526299 0.207431
0.571649 0.529717 0.193820
0.611292 0.531151 0.177920
0.647761 0.531914 0.161318
0.681209 0.532403 0.145449
0.712215 0.533227 0.132479
0.742061 0.534325 0.114656
0.771359 0.536126 0.088045
0.799802 0.538048 0.038148
0.827085 0.538323 0.070741
0.853483 0.538628 0.090486
0.879210 0.539147 0.110506
0.904540 0.539788 0.126162
0.929564 0.540948 0.142824
0.954223 0.542809 0.161929
0.978454 0.545647 0.184604
1.000000 0.549920 0.210208
0.000000 0.504784 0.355322
0.000000 0.505974 0.355108
0.000000 0.507378 0.354589
0.000000 0.509636 0.352911
0.000000 0.512535 0.349645
0.000000 0.516014 0.344396
0.000000 0.519860 0.337011
0.000000 0.524132 0.326543
0.000000 0.528771 0.312352
0.138827 0.533501 0.293584
0.209689 0.537926 0.269474
0.288426 0.540673 0.257023
0.357549 0.542901 0.252659
0.416693 0.545403 0.246189
0.469184 0.548211 0.236149
0.518029 0.551141 0.224765
0.564233 0.554284 0.212100
0.607324 0.556847 0.198306
0.644892 0.556756 0.182437
0.679500 0.556298 0.165835
0.711818 0.556237 0.150332
0.741909 0.556390 0.137392
0.770809 0.556909 0.119478
0.799741 0.558434 0.092805
0.827726 0.559808 0.063447
0.854429 0.559808 0.087037
0.880369 0.559991 0.109041
0.905699 0.560693 0.131380
0.930785 0.561639 0.150698
0.955505 0.563256 0.170596
0.979736 0.565728 0.193118
1.000000 0.569726 0.219883
0.000000 0.536339 0.375799
0.000000 0.537133 0.375341
0.000000 0.538109 0.374701
0.000000 0.539879 0.372778
0.000000 0.542351 0.369329
0.000000 0.545464 0.364233
0.000000 0.549157 0.357122
0.000000 0.553155 0.347509
0.000000 0.557702 0.334447
0.092897 0.562341 0.317357
0.182589 0.566766 0.295476
0.256809 0.570336 0.272129
0.336614 0.571984 0.267918
0.401465 0.573816 0.262760
0.457679 0.575830 0.254459
0.508873 0.578088 0.243595
0.556573 0.580529 0.231968
0.601892 0.583154 0.218753
0.642939 0.584161 0.204135
0.677974 0.582208 0.188113
0.710872 0.580591 0.171420
0.741451 0.579217 0.155550
0.769711 0.578302 0.143099
0.796933 0.577691 0.124971
0.825132 0.578607 0.098390
0.852323 0.579309 0.080507
0.878508 0.579217 0.105409
0.904173 0.579553 0.129122
0.929320 0.580529 0.153353
0.954070 0.582086 0.176242
0.978424 0.584344 0.199741
1.000000 0.588037 0.226780
0.000000 0.565789 0.394812
0.000000 0.566613 0.394446
0.000000 0.567651 0.393835
0.000000 0.569238 0.391882
0.000000 0.571557 0.388556
0.000000 0.574304 0.383703
0.000000 0.577569 0.376593
0.000000 0.581201 0.367376
0.000000 0.585199 0.355077
0.000000 0.589349 0.339574
0.148806 0.593439 0.319799
0.227756 0.597070 0.295933
0.309575 0.598932 0.283146
0.381903 0.600214 0.278721
0.442817 0.601709 0.273014
0.496590 0.603479 0.262852
0.546288 0.605524 0.251682
0.593164 0.607721 0.239078
0.637537 0.610101 0.225986
0.676417 0.609644 0.210971
0.710048 0.606836 0.194888
0.741482 0.604364 0.178286
0.770657 0.602167 0.162325
0.797604 0.600336 0.149630
0.821653 0.597375 0.130770
0.849241 0.598077 0.104189
0.876005 0.598291 0.100221
0.901854 0.598352 0.126314
0.927245 0.598932 0.151766
0.952148 0.600458 0.178958
0.976654 0.602960 0.205997
1.000000 0.606470 0.233738
0.000000 0.597711 0.415686
0.000000 0.598505 0.415259
0.000000 0.599359 0.414466
0.000000 0.600671 0.412543
0.000000 0.602625 0.409064
0.000000 0.604913 0.404028
0.000000 0.607691 0.397314
0.000000 0.610712 0.388495
0.000000 0.614099 0.376593
0.000000 0.617578 0.361852
0.101595 0.620996 0.343908
0.200839 0.624140 0.322240
0.278080 0.626612 0.299901
0.359533 0.627131 0.295384
0.425452 0.627741 0.290257
0.482765 0.628687 0.282658
0.534203 0.629938 0.271916
0.582422 0.631586 0.259892
0.628168 0.633509 0.247105
0.671809 0.635859 0.233280
0.708522 0.633906 0.218173
0.740658 0.630365 0.202182
0.770535 0.626947 0.185245
0.798062 0.623621 0.169467
0.823209 0.620691 0.156252
0.847044 0.617792 0.138857
0.874174 0.618128 0.111879
0.900328 0.617945 0.123110
0.925780 0.618128 0.150759
0.950805 0.619196 0.178958
0.975433 0.621576 0.209232
0.999512 0.625483 0.241855
0.000000 0.626459 0.433204
0.000000 0.627070 0.433204
0.000000 0.627710 0.432929
0.000000 0.628962 0.431037
0.000000 0.630610 0.427558
0.000000 0.632746 0.422919
0.000000 0.635309 0.416358
0.000000 0.638117 0.407843
0.000000 0.641260 0.396979
0.000000 0.644617 0.383429
0.000000 0.647913 0.366979
0.168063 0.650965 0.347753
0.252598 0.653529 0.325933
0.334661 0.654536 0.314214
0.407141 0.655055 0.309270
0.468635 0.655695 0.303624
0.523003 0.656672 0.294469
0.572992 0.658076 0.283024
0.620203 0.659785 0.270878
0.665309 0.661769 0.257542
0.708400 0.664057 0.243290
0.742397 0.660090 0.227939
0.772854 0.655421 0.211856
0.800992 0.650874 0.194888
0.826871 0.646509 0.178988
0.850584 0.642512 0.165805
0.872862 0.638605 0.148470
0.899657 0.638666 0.121553
0.925322 0.638514 0.151003
0.950530 0.639277 0.180453
0.975311 0.641291 0.212131
0.999451 0.644984 0.247288
0.000000 0.655940 0.450782
0.000000 0.656428 0.450690
0.000000 0.656916 0.450324
0.000000 0.657618 0.449348
0.000000 0.658991 0.446326
0.000000 0.660792 0.441596
0.000000 0.662959 0.435187
0.000000 0.665522 0.427008
0.000000 0.668391 0.416785
0.000000 0.671504 0.404273
0.000000 0.674617 0.389319
0.124086 0.677638 0.371801
0.226932 0.680232 0.352422
0.307103 0.682033 0.333745
0.386816 0.682307 0.329412
0.452918 0.682673 0.324071
0.510826 0.683253 0.317754
0.562463 0.684382 0.306981
0.611292 0.685756 0.295201
0.657496 0.687465 0.282719
0.701747 0.689418 0.268742
0.744045 0.691463 0.254002
0.775113 0.685420 0.238712
0.803830 0.679591 0.222446
0.830289 0.673945 0.205203
0.854582 0.668605 0.189364
0.877012 0.663752 0.176242
0.898070 0.658991 0.158572
0.923919 0.658534 0.149172
0.949279 0.658869 0.180911
0.974243 0.660487 0.214054
0.998505 0.663752 0.250187
0.000000 0.684688 0.467506
0.000000 0.685145 0.467292
0.000000 0.685542 0.466987
0.000000 0.686244 0.466163
0.000000 0.687312 0.464546
0.000000 0.689204 0.460365
0.000000 0.691676 0.454719
0.000000 0.694667 0.447333
0.000000 0.697993 0.437903
0.000000 0.701503 0.426612
0.000000 0.705074 0.413336
0.024079 0.708400 0.397772
0.200046 0.711299 0.380865
0.288426 0.713497 0.363989
0.369604 0.714290 0.355138
0.440436 0.714595 0.350164
0.501701 0.715023 0.344762
0.556146 0.715785 0.336767
0.606287 0.716945 0.325505
0.653834 0.718349 0.313146
0.699123 0.719936 0.300420
0.742641 0.721675 0.286351
0.782467 0.721828 0.270939
0.811551 0.714382 0.255222
0.838315 0.707179 0.239139
0.863005 0.700343 0.221744
0.885801 0.693935 0.205814
0.906889 0.688075 0.192233
0.926787 0.682521 0.174502
0.951232 0.681514 0.185183
0.976043 0.682673 0.220371
1.000000 0.685451 0.258305
0.000000 0.718013 0.486885
0.000000 0.718318 0.486641
0.000000 0.718624 0.486213
0.000000 0.719142 0.485237
0.000000 0.720027 0.483772
0.000000 0.721340 0.481666
0.000000 0.723415 0.475868
0.000000 0.725887 0.468574
0.000000 0.728634 0.459571
0.000000 0.731594 0.448768
0.000000 0.734585 0.435920
0.000000 0.737423 0.421698
0.163790 0.739803 0.406409
0.266209 0.741634 0.391272
0.348699 0.742672 0.379034
