data/fiter_cube/12544332/1022703/file.cube
# Created by Adobe Lightroom plugin Export LUT (1.24.0)
# www.johnrellis.com/lightroom/exportlut.htm
# Preset: 城市青橙纪实夜景 _07 云集
# Color profile: C:\Program Files (x86)\Common Files\Adobe\Color\Profiles\Recommended\AdobeRGB1998.icc
LUT_3D_SIZE 5
DOMAIN_MIN 0.000000 0.000000 0.000000
DOMAIN_MAX 0.903226 0.903226 0.903226
0.114870 0.114870 0.114870
0.289097 0.143160 0.118746
0.549279 0.209720 0.102876
0.772091 0.279698 0.076692
0.942260 0.332860 0.113985
0.098238 0.199893 0.160494
0.269322 0.222141 0.130617
0.539696 0.275303 0.099550
0.765805 0.323491 0.072358
0.942870 0.364721 0.117067
0.000000 0.349340 0.254948
0.171939 0.368475 0.204227
0.521935 0.410498 0.136019
0.754910 0.439002 0.063447
0.936004 0.454200 0.125338
0.000000 0.536339 0.375799
0.000000 0.553155 0.347509
0.457679 0.575830 0.254459
0.741451 0.579217 0.155550
0.929320 0.580529 0.153353
0.000000 0.748287 0.504051
0.000000 0.755612 0.488746
0.326879 0.767391 0.403204
0.729030 0.773587 0.347082
0.940032 0.738399 0.237369
0.046632 0.166567 0.239139
0.264836 0.177523 0.224002
0.534447 0.246555 0.146944
0.756649 0.323339 0.072511
0.936614 0.353765 0.112520
0.004669 0.239353 0.265263
0.246555 0.246555 0.246555
0.527428 0.293339 0.177554
0.753567 0.356725 0.069612
0.935882 0.381231 0.114656
0.000000 0.371069 0.322606
0.144442 0.391760 0.305974
0.509606 0.416938 0.230961
0.744869 0.447761 0.143130
0.933501 0.465858 0.126528
0.000000 0.551019 0.426490
0.000000 0.567315 0.409430
0.439246 0.587457 0.326329
0.736507 0.585870 0.242557
0.928649 0.587762 0.152743
0.000000 0.752529 0.539910
0.000000 0.759579 0.527245
0.298466 0.775540 0.455390
0.720760 0.779446 0.404181
0.938079 0.745144 0.301305
0.000000 0.275669 0.446143
0.000000 0.245823 0.446082
0.505730 0.282261 0.406592
0.748684 0.328374 0.293645
0.936675 0.394354 0.159213
0.000000 0.326085 0.462684
0.000000 0.309667 0.459785
0.495308 0.334295 0.419562
0.742184 0.368780 0.316991
0.936828 0.413886 0.168063
0.000000 0.443488 0.503502
0.000000 0.445624 0.500084
0.460304 0.460304 0.460304
0.726986 0.477546 0.382483
0.933837 0.484627 0.221164
0.000000 0.586664 0.559564
0.000000 0.598169 0.556878
0.340520 0.618799 0.510338
0.716213 0.614618 0.438514
0.922271 0.610040 0.346685
0.000000 0.767636 0.650507
0.000000 0.773739 0.640955
0.000000 0.788968 0.583642
0.679835 0.789670 0.544518
0.925170 0.764096 0.451850
0.000000 0.391821 0.654170
0.000000 0.374670 0.655329
0.348058 0.345861 0.645594
0.710109 0.439521 0.586175
0.914427 0.495705 0.518975
0.000000 0.423224 0.660731
0.000000 0.409705 0.660273
0.326207 0.379431 0.650172
0.703609 0.469642 0.594018
0.912139 0.512902 0.525383
0.000000 0.505943 0.677424
0.000000 0.501183 0.676509
0.256443 0.487831 0.667262
0.687922 0.551781 0.620508
0.911437 0.565728 0.542168
0.000000 0.619989 0.707790
0.000000 0.621057 0.705898
0.088441 0.630488 0.698024
0.660914 0.660914 0.660914
0.909331 0.657465 0.571771
0.000000 0.772702 0.780148
0.000000 0.780789 0.777523
0.000000 0.807706 0.769223
0.537102 0.815824 0.700923
0.901701 0.802090 0.643244
0.000000 0.501152 0.847135
0.000000 0.491493 0.847013
0.106233 0.481453 0.843137
0.659846 0.566735 0.824979
0.887083 0.649897 0.772854
0.000000 0.520562 0.849546
0.000000 0.511894 0.849363
0.000000 0.501244 0.845670
0.653285 0.581964 0.827726
0.885954 0.661921 0.777432
0.000000 0.574182 0.858396
0.000000 0.571710 0.857542
0.000000 0.559075 0.854734
0.618982 0.623194 0.837827
0.882811 0.698878 0.792172
0.000000 0.659754 0.874144
0.000000 0.664027 0.872892
0.000000 0.657588 0.870756
0.483406 0.677241 0.858854
0.876646 0.761196 0.818143
0.000000 0.763394 0.895842
0.000000 0.768185 0.895079
0.000000 0.783200 0.892515
0.313848 0.808713 0.886137
0.859007 0.859007 0.859007
