data/fiter_cube/65184230/1022651/file.cube
# Created by Adobe Lightroom plugin Export LUT (1.17.0)
# www.johnrellis.com/lightroom/exportlut.htm
# Preset: ins网红旅拍风景人像_10 云集
# Color profile: C:\Program Files (x86)\Common Files\Adobe\Color\Profiles\Recommended\AdobeRGB1998.icc
LUT_3D_SIZE 32
DOMAIN_MIN 0.0 0.0 0.0
DOMAIN_MAX 1.0 1.0 1.0
0.000000 0.000000 0.000000
0.044709 0.000000 0.001038
0.072938 0.000000 0.002899
0.109194 0.000000 0.004944
0.153780 0.000000 0.006165
0.197116 0.000000 0.007385
0.238224 0.000000 0.007630
0.277165 0.000000 0.008515
0.315496 0.000000 0.007416
0.353429 0.000000 0.005402
0.391791 0.000000 0.003418
0.430243 0.000000 0.000000
0.468788 0.000000 0.000000
0.507774 0.000000 0.000000
0.546654 0.000000 0.000000
0.585412 0.000000 0.000000
0.622889 0.000000 0.000000
0.663142 0.000000 0.000000
0.701747 0.000000 0.000000
0.738003 0.000000 0.000000
0.772366 0.000000 0.007446
0.804990 0.000000 0.015106
0.836027 0.000000 0.028260
0.865721 0.000000 0.041230
0.894408 0.000000 0.055604
0.922271 0.000000 0.064912
0.949706 0.000000 0.074342
0.976776 0.000000 0.083375
1.000000 0.000000 0.093416
1.000000 0.000000 0.105196
1.000000 0.000000 0.117922
1.000000 0.000000 0.132662
0.000000 0.040711 0.020539
0.038636 0.033021 0.012512
0.072999 0.026368 0.007080
0.109560 0.023438 0.005676
0.153414 0.017304 0.007752
0.195987 0.003052 0.008972
0.236698 0.000000 0.009522
0.275456 0.000000 0.009308
0.313420 0.000000 0.008545
0.351232 0.000000 0.005646
0.389441 0.000000 0.002686
0.427802 0.000000 0.000580
0.466194 0.000000 0.000000
0.505058 0.000000 0.000000
0.543816 0.000000 0.000000
0.582757 0.000000 0.000000
0.619989 0.000000 0.000000
0.660090 0.000000 0.000000
0.698421 0.000000 0.000000
0.734493 0.000000 0.000000
0.768826 0.000000 0.005646
0.801541 0.000000 0.014649
0.832792 0.000000 0.025696
0.862730 0.000000 0.038666
0.891600 0.000000 0.053590
0.919677 0.000000 0.063783
0.947387 0.000000 0.072663
0.974670 0.000000 0.081880
1.000000 0.000000 0.092073
1.000000 0.000000 0.104005
1.000000 0.000000 0.116640
1.000000 0.000000 0.131197
0.000000 0.069337 0.046815
0.016327 0.066255 0.027497
0.068727 0.062531 0.028565
0.108675 0.059083 0.016571
0.152590 0.058717 0.009613
0.194827 0.049683 0.010803
0.234806 0.031067 0.010498
0.273259 0.009155 0.010529
0.311101 0.000000 0.008850
0.348882 0.000000 0.006226
0.386877 0.000000 0.003418
0.425238 0.000000 0.000214
0.463752 0.000000 0.000000
0.502434 0.000000 0.000000
0.541070 0.000000 0.000000
0.580133 0.000000 0.000000
0.617395 0.000000 0.000000
0.657771 0.000000 0.000000
0.695705 0.000000 0.000000
0.731838 0.000000 0.000000
0.766262 0.000000 0.004822
0.799252 0.000000 0.013916
0.830564 0.000000 0.024964
0.860685 0.000000 0.037873
0.889738 0.000000 0.052125
0.918029 0.000000 0.063081
0.945861 0.000000 0.071687
0.973358 0.000000 0.081331
1.000000 0.000000 0.091829
1.000000 0.000000 0.102846
1.000000 0.000000 0.116030
1.000000 0.000000 0.130495
0.000000 0.101289 0.073640
0.012848 0.097597 0.067994
0.039765 0.095125 0.055848
0.101381 0.092012 0.058808
0.147860 0.086458 0.044739
0.192538 0.087343 0.014069
0.231754 0.082673 0.013947
0.269749 0.075868 0.012268
0.307378 0.065492 0.009979
0.344976 0.045594 0.007691
0.382696 0.010254 0.003998
0.420813 0.000000 0.002197
0.459174 0.000000 0.001099
0.497719 0.000000 0.000610
0.536584 0.000000 0.000000
0.575402 0.000000 0.000000
0.613550 0.000000 0.000000
0.653742 0.000000 0.000000
0.691249 0.000000 0.000000
0.727047 0.000000 0.000000
0.761532 0.000000 0.006561
0.794675 0.000000 0.013825
0.826474 0.000000 0.024689
0.857206 0.000000 0.036286
0.887053 0.000000 0.051118
0.916014 0.000000 0.062593
0.944427 0.000000 0.071504
0.972290 0.000000 0.080751
0.999725 0.000000 0.090974
1.000000 0.000000 0.102602
1.000000 0.000000 0.115480
1.000000 0.000000 0.130037
0.000000 0.135805 0.098207
0.000000 0.132204 0.092073
0.021851 0.127352 0.085481
0.072023 0.126009 0.064027
0.137484 0.123751 0.071931
0.183658 0.112398 0.065827
0.229221 0.113436 0.026551
0.264286 0.110750 0.014527
0.301427 0.105257 0.011444
0.338506 0.098634 0.010559
0.376104 0.090059 0.007385
0.414099 0.079927 0.005859
0.452094 0.066468 0.005219
0.490639 0.036774 0.003967
0.529564 0.000000 0.002197
0.568597 0.000000 0.000000
0.608881 0.000000 0.000000
0.648615 0.000000 0.000000
0.686122 0.000000 0.000000
0.722225 0.000000 0.003662
0.756893 0.000000 0.009583
0.790249 0.000000 0.015595
0.822385 0.000000 0.023285
0.853574 0.000000 0.035859
0.883787 0.000000 0.049866
0.913268 0.000000 0.061891
0.942016 0.000000 0.070436
0.970184 0.000000 0.079774
0.997955 0.000000 0.090425
1.000000 0.000000 0.102083
1.000000 0.000000 0.114595
1.000000 0.000000 0.129274
0.000000 0.167605 0.120119
0.000000 0.164279 0.114626
0.000000 0.159762 0.107790
0.043091 0.150057 0.096437
0.105776 0.154879 0.075044
0.172122 0.154116 0.084871
0.217838 0.138277 0.083772
0.261173 0.138460 0.057496
0.295140 0.137331 0.015656
0.331426 0.133211 0.014191
0.368566 0.128542 0.012268
0.406287 0.122774 0.011170
0.444251 0.115938 0.011902
0.482765 0.107698 0.008759
0.521447 0.097261 0.006409
0.560967 0.083406 0.005249
0.602930 0.064302 0.004334
0.642451 0.015808 0.003815
0.680018 0.000000 0.003967
0.716732 0.000000 0.007050
0.751919 0.000000 0.009400
0.786069 0.000000 0.017304
0.834714 0.000000 0.036500
0.865476 0.000000 0.050904
0.895018 0.000000 0.061158
0.923674 0.000000 0.070069
0.951568 0.000000 0.078065
0.978912 0.000000 0.088136
1.000000 0.000000 0.097993
1.000000 0.000000 0.109346
1.000000 0.000000 0.122286
1.000000 0.000000 0.136049
0.000000 0.197726 0.140658
0.000000 0.194675 0.136019
0.000000 0.190524 0.129671
0.004608 0.181949 0.118349
0.063935 0.175937 0.096834
0.140444 0.184360 0.087098
0.207706 0.185031 0.099886
0.253422 0.166018 0.104646
0.295537 0.165225 0.078492
0.332464 0.163333 0.041535
0.363073 0.161044 0.018524
0.400732 0.157443 0.018433
0.438544 0.153231 0.017029
0.476905 0.148074 0.015167
0.515648 0.141512 0.014069
0.557397 0.134676 0.010498
0.599329 0.125978 0.008392
0.638972 0.114961 0.006928
0.677150 0.101259 0.008850
0.714931 0.084077 0.010651
0.751675 0.059754 0.014343
0.787716 0.000000 0.022004
0.822416 0.000000 0.030976
0.855894 0.000000 0.044953
0.887785 0.000000 0.058869
0.917998 0.000000 0.067750
0.946990 0.000000 0.076814
0.975006 0.000000 0.086336
1.000000 0.000000 0.096315
1.000000 0.000000 0.107790
1.000000 0.000000 0.120363
1.000000 0.000000 0.134524
0.000000 0.223178 0.158083
0.000000 0.220493 0.153933
0.000000 0.216831 0.148836
0.000000 0.209018 0.138308
0.040894 0.197208 0.124910
0.084443 0.201846 0.090455
0.173526 0.211490 0.100771
0.239689 0.213596 0.116274
0.285832 0.192874 0.127138
0.327276 0.191287 0.100984
0.363806 0.188571 0.073335
0.394202 0.185702 0.030884
0.427192 0.183169 0.023865
0.465400 0.179965 0.022248
0.505547 0.176608 0.020630
0.547509 0.172488 0.016999
0.588708 0.167147 0.013550
0.628321 0.160067 0.012634
0.666468 0.152102 0.011597
0.704799 0.142397 0.012390
0.742306 0.131289 0.016876
0.778988 0.117952 0.022217
0.814450 0.102480 0.030762
0.848631 0.082216 0.042237
0.881224 0.048890 0.055268
0.912200 0.000000 0.065705
0.941894 0.000000 0.073884
0.970703 0.000000 0.083986
0.998840 0.000000 0.094362
1.000000 0.000000 0.105806
1.000000 0.000000 0.118746
1.000000 0.000000 0.133211
0.000000 0.246799 0.174563
0.000000 0.244388 0.171023
0.000000 0.241093 0.166293
0.000000 0.234195 0.157168
0.004211 0.223606 0.144381
0.068452 0.212009 0.129671
0.123384 0.226139 0.102937
0.205234 0.238132 0.115419
0.271183 0.241733 0.133455
0.318853 0.220798 0.151369
0.359808 0.218479 0.124208
0.395789 0.214817 0.096834
0.428077 0.210971 0.064973
0.454780 0.208072 0.030030
0.495155 0.206668 0.027863
0.536004 0.204105 0.025299
0.576928 0.200961 0.020966
0.616541 0.196323 0.016968
0.655207 0.190616 0.015900
0.694057 0.184146 0.015259
0.732387 0.176822 0.016907
0.770016 0.167910 0.020478
0.806271 0.158358 0.027466
0.841184 0.147494 0.038300
0.874571 0.135164 0.051820
0.906401 0.121035 0.062928
0.936858 0.104982 0.072023
0.966369 0.085939 0.081331
0.995148 0.061585 0.091981
1.000000 0.003601 0.103670
1.000000 0.000000 0.116426
1.000000 0.000000 0.131319
0.000000 0.268406 0.189395
0.000000 0.266331 0.186526
0.000000 0.263279 0.182406
0.000000 0.257053 0.174197
0.000000 0.247318 0.162509
0.049226 0.234684 0.148959
0.084810 0.235050 0.125032
0.157992 0.249851 0.115999
0.236820 0.264256 0.130190
0.302129 0.269261 0.150515
0.351934 0.248722 0.175357
0.393042 0.246036 0.147890
0.430396 0.242557 0.120485
0.463783 0.238346 0.090455
0.493263 0.233982 0.048615
0.522942 0.231479 0.031769
0.563989 0.229953 0.025025
0.604364 0.227237 0.021180
0.643580 0.223667 0.019318
0.682979 0.219242 0.017060
0.722103 0.213840 0.015991
0.760098 0.207584 0.019287
0.796811 0.200443 0.022919
0.832273 0.192355 0.033722
0.866331 0.183444 0.045350
0.899016 0.173800 0.058961
0.930541 0.163546 0.068208
0.961089 0.152712 0.078035
0.990936 0.141512 0.089387
1.000000 0.130465 0.101198
1.000000 0.120699 0.114687
1.000000 0.112978 0.130190
0.000000 0.288243 0.203250
0.000000 0.286290 0.200534
0.000000 0.283513 0.196872
0.000000 0.277928 0.189639
0.000000 0.268956 0.178927
0.010132 0.257389 0.166079
0.072572 0.242954 0.152499
0.100313 0.257603 0.117922
0.189273 0.273289 0.129061
0.267399 0.290318 0.145449
0.334508 0.298344 0.168551
0.389227 0.279332 0.201053
0.429999 0.276036 0.172549
0.466133 0.271061 0.143984
0.498848 0.265660 0.113802
0.528832 0.260197 0.077974
0.551232 0.255131 0.033997
0.589227 0.253880 0.024659
0.629175 0.251835 0.022034
0.669276 0.249149 0.017792
0.709499 0.245762 0.015198
0.748714 0.241306 0.015930
0.786648 0.236210 0.017945
0.823209 0.230045 0.024201
0.858366 0.223362 0.038697
0.892088 0.215732 0.052705
0.924468 0.207889 0.063478
0.955871 0.199680 0.073732
0.986481 0.191287 0.085298
1.000000 0.183261 0.097993
1.000000 0.176181 0.111818
1.000000 0.170962 0.127779
0.000000 0.307103 0.216190
0.000000 0.305394 0.214145
0.000000 0.302861 0.210880
0.000000 0.297429 0.204044
0.000000 0.289158 0.194095
0.000000 0.278233 0.181888
0.053681 0.264897 0.168582
0.087007 0.258885 0.151705
0.135683 0.279332 0.127169
0.220279 0.298100 0.142672
0.299870 0.318822 0.161379
0.367895 0.327886 0.186587
0.436683 0.317754 0.230014
0.477852 0.312902 0.201389
0.513725 0.306676 0.171176
0.546197 0.299809 0.139803
0.575647 0.292790 0.104311
0.602258 0.286046 0.056641
0.624872 0.281682 0.022736
0.665858 0.280369 0.017639
0.706661 0.278264 0.012482
0.746395 0.275273 0.012848
0.784604 0.271275 0.015381
0.821500 0.266484 0.022980
0.856992 0.260929 0.033845
0.891112 0.254704 0.050202
0.923888 0.248295 0.062776
0.955627 0.241337 0.073823
0.986450 0.234714 0.085573
1.000000 0.227939 0.097993
1.000000 0.222324 0.112642
1.000000 0.217899 0.128511
0.000000 0.326268 0.229526
0.000000 0.324468 0.227298
0.000000 0.322087 0.224430
0.000000 0.317113 0.218387
0.000000 0.309453 0.209171
0.000000 0.299229 0.197574
0.008728 0.286564 0.184512
0.072602 0.271458 0.170474
0.100832 0.280674 0.147921
0.168276 0.302525 0.139101
0.251774 0.324773 0.157107
0.333989 0.349096 0.177920
0.405066 0.361028 0.205661
0.467903 0.346990 0.246098
0.512078 0.340703 0.223972
0.547936 0.334264 0.193332
0.579522 0.326574 0.162081
0.607752 0.318578 0.128573
0.634241 0.310979 0.087831
0.656001 0.304753 0.032288
0.689876 0.303075 0.008789
0.731197 0.301762 0.004486
0.770809 0.299474 0.003510
0.809171 0.296147 0.009949
0.846036 0.291966 0.016571
0.881498 0.287083 0.032013
0.915618 0.281834 0.052125
0.948577 0.276280 0.066987
0.980591 0.270420 0.079194
1.000000 0.265019 0.093263
1.000000 0.260166 0.107942
1.000000 0.256077 0.124666
0.000000 0.344762 0.242283
0.000000 0.342870 0.240116
0.000000 0.340673 0.237430
0.000000 0.335851 0.231662
0.000000 0.328344 0.223056
0.000000 0.318334 0.212009
0.000000 0.305882 0.198917
0.048981 0.291508 0.185092
0.085023 0.276951 0.170565
0.113802 0.301152 0.141634
0.198642 0.324315 0.150393
0.280980 0.349004 0.169894
0.364416 0.375830 0.192233
0.436469 0.389044 0.221164
0.500481 0.376745 0.262303
0.547509 0.369238 0.246616
0.581506 0.361303 0.215091
0.611536 0.352850 0.184176
0.639307 0.344182 0.151369
0.666590 0.336370 0.113893
0.693904 0.329717 0.059632
0.714809 0.325353 0.000000
0.756252 0.324895 0.000000
0.796262 0.323308 0.000000
0.834775 0.320623 0.000031
0.871733 0.317144 0.012726
0.907286 0.313024 0.031037
0.941619 0.308507 0.055116
0.974853 0.303838 0.070893
1.000000 0.299229 0.086305
1.000000 0.295079 0.103456
1.000000 0.291539 0.121004
0.000000 0.361517 0.253696
0.000000 0.360143 0.252079
0.000000 0.357794 0.249332
0.000000 0.352972 0.243778
0.000000 0.345739 0.235630
0.000000 0.336095 0.225010
0.000000 0.324010 0.212345
0.000000 0.309972 0.198581
0.068391 0.293889 0.184054
0.096681 0.295079 0.167391
0.139071 0.321111 0.143404
0.227207 0.346197 0.161410
0.309667 0.373358 0.182315
0.394568 0.402502 0.205814
0.467689 0.416693 0.236210
0.532616 0.405982 0.277867
0.581750 0.396979 0.269261
0.614069 0.388067 0.237247
0.643519 0.379095 0.206119
0.671962 0.370520 0.174258
0.699794 0.362554 0.138827
0.727413 0.355444 0.094057
0.751888 0.349798 0.015167
0.782193 0.347753 0.000000
0.822507 0.346715 0.000000
0.861265 0.344793 0.000000
0.898741 0.342138 0.004242
0.934874 0.338964 0.032685
0.969848 0.335454 0.061830
1.000000 0.331914 0.079408
1.000000 0.328588 0.098054
1.000000 0.325719 0.117739
0.000000 0.377600 0.264744
0.000000 0.376013 0.262852
0.000000 0.373938 0.260472
0.000000 0.369635 0.255558
0.000000 0.362524 0.247593
0.000000 0.353368 0.237644
0.000000 0.341863 0.225650
0.000000 0.328435 0.212161
0.031769 0.312749 0.197665
0.079530 0.295293 0.182834
0.108125 0.314092 0.163180
0.169986 0.341436 0.152926
0.254734 0.368505 0.172335
0.338018 0.397803 0.194400
0.424414 0.428748 0.218906
0.497871 0.443519 0.250278
0.562676 0.433692 0.292699
0.614191 0.424018 0.291844
0.646265 0.414801 0.259617
0.676539 0.405951 0.228672
0.705470 0.397528 0.197269
0.733730 0.389471 0.163424
0.761746 0.382025 0.123537
0.790127 0.375372 0.060945
0.813260 0.371832 0.000000
0.851499 0.371130 0.000000
0.890776 0.369909 0.000000
0.928557 0.367926 0.000916
0.964904 0.365606 0.038544
0.999847 0.362890 0.070161
1.000000 0.360143 0.091096
1.000000 0.357733 0.112764
0.000000 0.392737 0.274907
0.000000 0.391363 0.273320
0.000000 0.389471 0.271244
0.000000 0.384955 0.266270
0.000000 0.378515 0.259129
0.000000 0.369482 0.249271
0.000000 0.358556 0.237827
0.000000 0.345525 0.224735
0.000000 0.330510 0.210513
0.059754 0.313573 0.195621
0.089113 0.304875 0.180819
0.119509 0.333623 0.157198
0.198611 0.361700 0.162325
0.282078 0.390997 0.183047
0.365911 0.422187 0.206210
0.453956 0.455055 0.231724
0.528313 0.470527 0.264042
0.591943 0.460883 0.307622
0.646632 0.451240 0.315007
0.678767 0.442115 0.282963
0.708949 0.433021 0.251865
0.737850 0.424292 0.220951
0.766171 0.416052 0.188205
0.794644 0.408545 0.151186
0.823667 0.401648 0.102663
0.851408 0.396765 0.003784
0.880766 0.395453 0.000000
0.920531 0.394995 0.000000
0.958679 0.393805 0.000855
0.995178 0.392157 0.051728
1.000000 0.390295 0.081605
1.000000 0.388464 0.105898
0.000000 0.408179 0.285374
0.000000 0.406836 0.283787
0.000000 0.409186 0.284520
0.000000 0.404913 0.279881
0.000000 0.398383 0.272801
0.000000 0.389563 0.263462
0.000000 0.378698 0.252140
0.000000 0.365698 0.239231
0.000000 0.350774 0.224857
0.001221 0.334142 0.209812
0.070100 0.315679 0.194278
0.099611 0.325139 0.179019
0.135561 0.356390 0.153445
0.228031 0.386114 0.173342
0.312078 0.417853 0.195377
0.398047 0.451453 0.219608
0.489265 0.486915 0.246433
0.564050 0.502342 0.280735
0.626032 0.492195 0.325841
0.683650 0.482521 0.342321
0.714809 0.472786 0.310063
0.744411 0.462989 0.278599
0.773068 0.453742 0.247654
0.801389 0.445045 0.215549
0.829862 0.436957 0.180301
0.858976 0.429725 0.138094
0.889220 0.423224 0.071626
0.916472 0.420966 0.000000
0.952087 0.420813 0.000000
0.990143 0.420233 0.007752
1.000000 0.419226 0.066712
1.000000 0.418036 0.096681
0.000000 0.425483 0.297032
0.000000 0.424567 0.295720
0.000000 0.423377 0.294255
0.000000 0.420020 0.290257
0.000000 0.414191 0.283848
0.000000 0.406043 0.275151
0.000000 0.395453 0.264164
0.000000 0.383124 0.251835
0.000000 0.368780 0.237736
0.000000 0.352575 0.222873
0.027893 0.334874 0.207431
0.077974 0.315282 0.191714
0.109743 0.344915 0.175540
0.166415 0.377020 0.161990
0.255161 0.408728 0.182834
0.339910 0.442359 0.205966
0.427741 0.477943 0.231205
0.520592 0.514824 0.259068
0.594415 0.529473 0.295171
0.655055 0.519341 0.341772
0.714076 0.509911 0.367926
0.745205 0.500145 0.335912
0.774929 0.490333 0.304601
0.803861 0.481147 0.274235
0.832547 0.472511 0.243137
0.861692 0.464485 0.209720
0.891752 0.457313 0.171511
0.923125 0.450965 0.121309
0.954467 0.446784 0.038972
0.984985 0.447242 0.000000
1.000000 0.447303 0.030823
1.000000 0.446906 0.083375
0.000000 0.442176 0.308202
0.000000 0.441566 0.307195
0.000000 0.440284 0.305486
0.000000 0.436927 0.301732
0.000000 0.431525 0.295811
0.000000 0.423651 0.287358
0.000000 0.413672 0.277012
0.000000 0.401678 0.264927
0.000000 0.387915 0.251408
0.000000 0.372107 0.236545
0.000000 0.354803 0.221012
0.050813 0.335882 0.205203
0.086763 0.333959 0.190982
0.119966 0.366705 0.170779
0.195651 0.399847 0.171054
0.283055 0.433600 0.193027
0.369238 0.469306 0.217044
0.459358 0.507012 0.243320
0.553552 0.544427 0.272679
0.626429 0.558190 0.310765
0.684718 0.547387 0.359228
0.744228 0.538293 0.395789
0.775265 0.528527 0.364019
0.804990 0.518791 0.333318
0.834165 0.509453 0.303197
0.863371 0.500908 0.273136
0.893126 0.492988 0.241306
0.924041 0.486122 0.206699
0.956420 0.479896 0.164523
0.990143 0.474128 0.102876
1.000000 0.473640 0.054108
1.000000 0.474861 0.063661
0.000000 0.460761 0.320470
0.000000 0.460273 0.319615
0.000000 0.459297 0.318334
0.000000 0.455940 0.314549
0.000000 0.450599 0.308690
0.000000 0.443122 0.300725
0.000000 0.433417 0.290654
0.000000 0.421912 0.278996
0.000000 0.408392 0.265721
0.000000 0.393164 0.251133
0.000000 0.376410 0.235782
0.000000 0.357763 0.219699
0.060761 0.337682 0.203342
0.095827 0.355993 0.189914
0.130709 0.391211 0.164309
0.224430 0.425483 0.180484
0.312596 0.461707 0.203647
0.401587 0.500267 0.228885
0.494453 0.539574 0.256992
0.590021 0.577630 0.288640
0.662470 0.590753 0.329473
0.717647 0.578851 0.381018
0.776730 0.570520 0.429267
0.807858 0.560754 0.397925
0.837949 0.551110 0.367559
0.867674 0.542077 0.338384
0.897551 0.533745 0.309483
0.928313 0.526329 0.280034
0.960235 0.519707 0.248539
0.993286 0.513603 0.212650
1.000000 0.507530 0.166720
1.000000 0.503288 0.112520
0.000000 0.484871 0.336522
0.000000 0.484108 0.335424
0.000000 0.482887 0.334081
0.000000 0.479500 0.330358
0.000000 0.474037 0.324468
0.000000 0.466438 0.316564
0.000000 0.456977 0.306737
0.000000 0.445747 0.295293
0.000000 0.432776 0.282353
0.000000 0.417914 0.267948
0.000000 0.401465 0.252598
0.000000 0.383246 0.236362
0.000000 0.363500 0.219669
0.066773 0.348028 0.203891
0.105379 0.382940 0.189181
0.158114 0.420264 0.169192
0.255528 0.456794 0.191592
0.345922 0.495705 0.215885
0.437934 0.536034 0.242588
0.532433 0.575280 0.272648
0.628534 0.612757 0.306310
0.697505 0.622797 0.350011
0.748043 0.608759 0.403174
0.804959 0.601068 0.463172
0.835813 0.591058 0.431739
0.865965 0.581628 0.402380
0.896147 0.572839 0.373968
0.926787 0.565270 0.347051
0.958312 0.558556 0.320226
0.990845 0.552544 0.292210
1.000000 0.547265 0.262516
1.000000 0.542565 0.229129
0.000000 0.510094 0.353216
0.000000 0.509361 0.352331
0.000000 0.508110 0.350835
0.000000 0.504997 0.347356
0.000000 0.499580 0.341558
0.000000 0.492348 0.333928
0.000000 0.483223 0.324437
0.000000 0.472175 0.313237
0.000000 0.459297 0.300328
0.000000 0.444862 0.286137
0.000000 0.428779 0.270817
0.000000 0.411017 0.254643
0.000000 0.391730 0.237858
0.000000 0.370886 0.220706
0.075227 0.375921 0.206912
0.115572 0.413550 0.187350
0.190951 0.452552 0.179629
0.288365 0.491829 0.203098
0.381720 0.533104 0.228885
0.476234 0.573602 0.257664
0.572107 0.612573 0.289860
0.667475 0.648341 0.326452
0.732479 0.655177 0.373114
0.778500 0.639734 0.428595
0.829343 0.630488 0.490852
0.861357 0.621546 0.467842
0.891936 0.612757 0.439673
0.922728 0.604822 0.413123
0.954040 0.598138 0.388525
0.986175 0.592920 0.365667
1.000000 0.588983 0.343877
1.000000 0.586481 0.323735
0.000000 0.543359 0.375402
0.000000 0.542931 0.374701
0.000000 0.541619 0.373144
0.000000 0.538415 0.369635
0.000000 0.533013 0.363958
0.000000 0.525689 0.356268
0.000000 0.516503 0.346807
0.000000 0.505425 0.335515
0.000000 0.492409 0.322454
0.000000 0.478004 0.308293
0.000000 0.461677 0.292607
0.000000 0.444099 0.276219
0.000000 0.424903 0.259068
0.000000 0.404242 0.241520
0.004669 0.382025 0.223636
0.084260 0.409247 0.210788
0.127016 0.449683 0.184237
0.225071 0.489937 0.191287
0.324041 0.531548 0.215793
0.420020 0.573053 0.243351
0.516289 0.613031 0.274388
0.612207 0.650172 0.309209
0.704860 0.682765 0.348486
0.765225 0.685969 0.397681
0.806088 0.668696 0.454200
0.853910 0.661402 0.518883
0.887053 0.654322 0.507774
0.917693 0.646876 0.482582
0.948760 0.640589 0.459602
0.980438 0.635889 0.439338
1.000000 0.633387 0.422827
1.000000 0.633478 0.411017
0.000000 0.578241 0.398749
0.000000 0.577905 0.398138
0.000000 0.576806 0.396704
0.000000 0.573754 0.393317
0.000000 0.568872 0.388006
0.000000 0.562097 0.380652
0.000000 0.553399 0.371435
0.000000 0.542901 0.360510
0.000000 0.530510 0.347875
0.000000 0.516564 0.333837
0.000000 0.500847 0.318364
0.000000 0.483589 0.301884
0.000000 0.464912 0.284672
0.000000 0.444678 0.266667
0.000000 0.423011 0.248600
0.009857 0.412024 0.232090
0.094118 0.452430 0.215946
0.143771 0.496345 0.181827
0.263890 0.538537 0.205661
0.366278 0.580560 0.232364
0.465126 0.621088 0.262425
0.562585 0.658808 0.296391
0.656306 0.691768 0.334569
0.745266 0.720424 0.376806
0.800595 0.719966 0.428840
0.836240 0.701137 0.486275
0.878843 0.693721 0.550347
0.912352 0.689143 0.551354
0.943206 0.684382 0.531243
0.974304 0.681300 0.514488
1.000000 0.680690 0.502495
1.000000 0.683772 0.497658
0.000000 0.620661 0.427283
0.000000 0.620142 0.426429
0.000000 0.619104 0.425177
0.000000 0.616205 0.421851
0.000000 0.611475 0.416602
0.000000 0.605005 0.409491
0.000000 0.596979 0.400702
0.000000 0.587274 0.390204
0.000000 0.575799 0.378027
0.000000 0.563012 0.364508
0.000000 0.548241 0.349432
0.000000 0.532006 0.333196
0.000000 0.513695 0.315740
0.000000 0.493965 0.297520
0.000000 0.472724 0.278874
0.000000 0.450080 0.259983
0.018372 0.462226 0.245090
0.105013 0.506249 0.221500
0.187442 0.552056 0.197391
0.308049 0.594049 0.223392
0.413825 0.634699 0.252811
0.514031 0.672084 0.285985
0.609857 0.704860 0.323339
0.700740 0.733272 0.364721
0.785092 0.757717 0.409979
0.834562 0.753719 0.464179
0.865202 0.733364 0.520256
0.902800 0.726162 0.583429
0.935332 0.724208 0.596460
0.965850 0.722835 0.582483
0.996185 0.724178 0.573907
1.000000 0.729641 0.573327
0.000000 0.668818 0.459785
0.000000 0.668360 0.458991
0.000000 0.667506 0.457893
0.000000 0.665034 0.454810
0.000000 0.661067 0.450050
0.000000 0.655787 0.443732
0.000000 0.649256 0.435859
0.000000 0.641657 0.426673
0.000000 0.632624 0.415900
0.000000 0.622461 0.403845
0.000000 0.610681 0.390295
0.000000 0.597284 0.375341
0.000000 0.582086 0.359045
0.000000 0.564721 0.341497
0.000000 0.545312 0.322881
0.000000 0.523583 0.303441
0.000000 0.500389 0.283970
0.015991 0.538903 0.266789
0.120058 0.585626 0.230961
0.241489 0.629053 0.221775
0.365484 0.668208 0.251530
0.473732 0.703212 0.285374
0.573693 0.733730 0.323003
0.666773 0.760006 0.364538
0.753048 0.782528 0.410010
0.831388 0.801846 0.458900
0.874052 0.793729 0.512749
0.899168 0.772427 0.566644
0.930419 0.764645 0.626184
0.960357 0.765133 0.649622
0.989532 0.768368 0.644099
1.000000 0.775723 0.646571
0.000000 0.731106 0.502251
0.000000 0.730678 0.501610
0.000000 0.729793 0.500328
0.000000 0.727535 0.497444
0.000000 0.724117 0.492988
0.000000 0.719539 0.487098
0.000000 0.713985 0.479805
0.000000 0.707362 0.471077
0.000000 0.699580 0.460975
0.000000 0.690608 0.449500
0.000000 0.680293 0.436500
0.000000 0.668482 0.422126
0.000000 0.655024 0.406409
0.000000 0.639948 0.389502
