data/fiter_cube/65184230/1022651/file.cube
# Created by Adobe Lightroom plugin Export LUT (1.17.0)
# www.johnrellis.com/lightroom/exportlut.htm
# Preset: ins网红旅拍风景人像_10 云集
# Color profile: C:\Program Files (x86)\Common Files\Adobe\Color\Profiles\Recommended\AdobeRGB1998.icc
LUT_3D_SIZE 8
DOMAIN_MIN 0.000000 0.000000 0.000000
DOMAIN_MAX 0.903226 0.903226 0.903226
0.000000 0.000000 0.000000
0.153780 0.000000 0.006165
0.315496 0.000000 0.007416
0.468788 0.000000 0.000000
0.622889 0.000000 0.000000
0.772366 0.000000 0.007446
0.894408 0.000000 0.055604
1.000000 0.000000 0.093416
0.000000 0.135805 0.098207
0.137484 0.123751 0.071931
0.301427 0.105257 0.011444
0.452094 0.066468 0.005219
0.608881 0.000000 0.000000
0.756893 0.000000 0.009583
0.883787 0.000000 0.049866
0.997955 0.000000 0.090425
0.000000 0.246799 0.174563
0.004211 0.223606 0.144381
0.271183 0.241733 0.133455
0.428077 0.210971 0.064973
0.576928 0.200961 0.020966
0.732387 0.176822 0.016907
0.874571 0.135164 0.051820
0.995148 0.061585 0.091981
0.000000 0.326268 0.229526
0.000000 0.309453 0.209171
0.100832 0.280674 0.147921
0.405066 0.361028 0.205661
0.579522 0.326574 0.162081
0.689876 0.303075 0.008789
0.846036 0.291966 0.016571
0.980591 0.270420 0.079194
0.000000 0.392737 0.274907
0.000000 0.378515 0.259129
0.000000 0.330510 0.210513
0.198611 0.361700 0.162325
0.528313 0.470527 0.264042
0.708949 0.433021 0.251865
0.823667 0.401648 0.102663
0.958679 0.393805 0.000855
0.000000 0.460761 0.320470
0.000000 0.450599 0.308690
0.000000 0.408392 0.265721
0.060761 0.337682 0.203342
0.312596 0.461707 0.203647
0.662470 0.590753 0.329473
0.837949 0.551110 0.367559
0.960235 0.519707 0.248539
0.000000 0.578241 0.398749
0.000000 0.568872 0.388006
0.000000 0.530510 0.347875
0.000000 0.464912 0.284672
0.094118 0.452430 0.215946
0.465126 0.621088 0.262425
0.800595 0.719966 0.428840
0.943206 0.684382 0.531243
0.000000 0.790707 0.543389
0.000000 0.785428 0.535302
0.000000 0.767514 0.507500
0.000000 0.736416 0.460578
0.000000 0.670008 0.386481
0.208255 0.750271 0.260899
0.691066 0.841123 0.423774
0.939605 0.862058 0.612451
0.000000 0.044068 0.141238
0.152529 0.000000 0.137819
0.318456 0.000000 0.131441
0.470863 0.000000 0.132326
0.624903 0.000000 0.128481
0.765164 0.000000 0.128054
0.887449 0.000000 0.132418
0.998260 0.000000 0.146792
0.000000 0.135256 0.140749
0.156497 0.143923 0.138705
0.309239 0.130831 0.132265
0.458595 0.102358 0.129610
0.613886 0.000000 0.126802
0.754574 0.000000 0.125582
0.878813 0.000000 0.129488
0.992493 0.000000 0.143069
0.000000 0.269017 0.214664
0.104036 0.251652 0.189029
0.281559 0.252018 0.183536
0.426886 0.222019 0.124514
0.579278 0.209689 0.121004
0.729183 0.184360 0.120180
0.865873 0.143465 0.124331
0.988220 0.078981 0.140749
0.000000 0.347356 0.259007
0.000000 0.330938 0.238224
0.130343 0.289158 0.180301
0.405859 0.362432 0.233249
0.567742 0.326513 0.185794
0.681910 0.302342 0.106722
0.836362 0.290898 0.109010
0.973449 0.270359 0.127657
0.000000 0.409979 0.296330
0.000000 0.395300 0.279637
0.051789 0.346166 0.228824
0.203494 0.364843 0.178500
0.526818 0.469520 0.282078
0.702327 0.433143 0.264500
0.816648 0.399939 0.127047
0.954467 0.392523 0.098238
0.000000 0.472328 0.334936
0.000000 0.460456 0.321813
0.000000 0.417945 0.277775
0.078126 0.347051 0.213901
0.313024 0.461524 0.214115
0.663172 0.591547 0.344213
0.835538 0.552789 0.376226
0.956634 0.518486 0.255497
0.000000 0.581903 0.406500
0.000000 0.570550 0.394232
0.000000 0.533288 0.354376
0.000000 0.468574 0.290806
0.100465 0.446601 0.222690
0.461067 0.616632 0.268223
0.796445 0.716640 0.435676
0.939361 0.682185 0.531304
0.000000 0.789395 0.547204
0.000000 0.784970 0.539635
0.000000 0.767361 0.511803
0.000000 0.736202 0.464302
0.000000 0.683497 0.397345
0.194125 0.751369 0.264591
0.688167 0.839445 0.426917
0.937499 0.860472 0.615442
0.000000 0.108400 0.322759
0.120607 0.007630 0.300572
0.315740 0.000000 0.280369
0.481514 0.000000 0.278782
0.653437 0.000000 0.271275
0.786160 0.000000 0.266239
0.900206 0.000000 0.261723
1.000000 0.000000 0.263371
0.000000 0.238041 0.323827
0.109987 0.160494 0.302556
0.317082 0.148409 0.277470
0.479408 0.142580 0.273960
0.647028 0.118013 0.266056
0.776089 0.062562 0.261143
0.893248 0.000000 0.257084
1.000000 0.000000 0.259892
0.000000 0.282506 0.292699
0.112490 0.287388 0.292302
0.314031 0.287755 0.277440
0.460334 0.268650 0.259190
0.614466 0.248417 0.253513
0.752560 0.219974 0.248295
0.878477 0.183658 0.246708
0.993469 0.141634 0.251957
0.000000 0.397162 0.343053
0.061311 0.394659 0.334142
0.214328 0.349157 0.276555
0.433204 0.389014 0.317723
0.577050 0.347448 0.249210
0.708034 0.326146 0.224277
0.851957 0.308934 0.226596
0.981018 0.287358 0.236973
0.000000 0.464759 0.368902
0.000000 0.460731 0.360967
0.143252 0.408637 0.302098
0.218570 0.384100 0.228977
0.550622 0.492073 0.349798
0.707973 0.449897 0.311437
0.812222 0.406439 0.197787
0.961334 0.400641 0.208774
0.000000 0.527977 0.400092
0.000000 0.515007 0.385077
0.000000 0.468299 0.334020
0.127230 0.390539 0.259464
0.318395 0.470069 0.249729
0.672267 0.601434 0.395819
0.835294 0.563989 0.408453
0.958129 0.522820 0.285466
0.000000 0.624598 0.456641
0.000000 0.613367 0.443610
0.000000 0.574029 0.399298
0.000000 0.503746 0.327489
0.116670 0.436927 0.249058
0.457679 0.617762 0.293248
0.801511 0.724086 0.478828
0.942962 0.696468 0.559136
0.000000 0.809537 0.579583
0.000000 0.803677 0.570611
0.000000 0.784787 0.540520
0.000000 0.755154 0.491402
0.000000 0.700771 0.419196
0.191714 0.742397 0.306157
0.683711 0.839963 0.444770
0.938384 0.864042 0.639765
0.000000 0.174044 0.529747
0.000000 0.085512 0.507897
0.312810 0.000000 0.426795
0.475013 0.000000 0.421790
0.646540 0.000000 0.424353
0.788022 0.000000 0.411139
0.906371 0.094148 0.405219
1.000000 0.161135 0.410803
0.000000 0.287663 0.528649
0.000000 0.211704 0.509331
0.316075 0.150210 0.431800
0.476570 0.136202 0.420752
0.646571 0.116884 0.421729
0.786130 0.127077 0.408972
0.904265 0.173617 0.405280
1.000000 0.178164 0.404974
0.000000 0.452735 0.532677
0.107179 0.449439 0.525719
0.309056 0.317205 0.451270
0.482399 0.295628 0.418189
0.647364 0.292638 0.414405
0.786862 0.301091 0.409644
0.899077 0.280339 0.402197
1.000000 0.248295 0.394751
0.000000 0.433936 0.450050
0.000000 0.434638 0.447700
0.246799 0.436835 0.437690
0.473884 0.433783 0.417914
0.607965 0.399481 0.380713
0.743832 0.378576 0.373297
0.871489 0.354772 0.368902
0.989471 0.332708 0.371069
0.000000 0.536431 0.485634
0.000000 0.531914 0.476448
0.205447 0.516136 0.445472
0.303014 0.433051 0.353399
0.588159 0.529900 0.458350
0.712337 0.469886 0.372198
0.833005 0.433692 0.323247
0.972381 0.423041 0.335668
0.000000 0.593683 0.493446
0.000000 0.591363 0.487404
0.098726 0.573541 0.458778
0.212100 0.486915 0.363684
0.324956 0.489021 0.307073
0.693721 0.626123 0.486091
0.838010 0.582055 0.455909
0.960693 0.522637 0.317998
0.000000 0.683345 0.537407
0.000000 0.679286 0.530236
0.000000 0.657160 0.498878
0.000000 0.584497 0.413428
0.150576 0.471839 0.305638
0.447547 0.621546 0.332311
0.808469 0.735927 0.544640
0.945922 0.711543 0.591241
0.000000 0.845731 0.641291
0.000000 0.843717 0.635401
0.000000 0.828305 0.607782
0.000000 0.795254 0.550408
0.000000 0.739437 0.468269
0.171695 0.721187 0.367956
0.669490 0.839170 0.468940
0.938842 0.868986 0.675715
0.000000 0.241001 0.720821
0.000000 0.145052 0.708034
0.276066 0.088930 0.649653
0.472450 0.000000 0.561791
0.638758 0.000000 0.567987
0.780667 0.000000 0.553307
0.900206 0.088655 0.538354
1.000000 0.195315 0.536217
0.000000 0.335332 0.719722
0.000000 0.274571 0.708278
0.272770 0.187716 0.653559
0.474952 0.128450 0.562982
0.638941 0.109834 0.566491
0.780331 0.122835 0.551904
0.899596 0.172519 0.538811
1.000000 0.241459 0.538720
0.000000 0.547417 0.732906
0.136416 0.514122 0.715572
0.243839 0.360388 0.670283
0.478340 0.287938 0.562615
0.638544 0.284489 0.560571
0.776333 0.291936 0.547112
0.895506 0.315557 0.541405
0.997467 0.354467 0.547967
0.000000 0.617578 0.703822
0.105684 0.616571 0.699977
0.359106 0.615381 0.686946
0.493141 0.477760 0.593591
0.639582 0.451575 0.555566
0.773312 0.457710 0.551141
0.890715 0.470558 0.556359
0.993225 0.453864 0.549676
0.000000 0.583185 0.605310
0.000000 0.583093 0.603143
0.210269 0.581018 0.592828
0.409674 0.586572 0.572595
0.620172 0.572808 0.554162
0.732509 0.521386 0.499367
0.860655 0.500008 0.493233
0.981323 0.482521 0.494759
0.000000 0.669734 0.625910
0.000000 0.670436 0.622614
0.000000 0.657313 0.596735
0.316258 0.630060 0.549279
0.362066 0.508782 0.415106
0.718563 0.659724 0.595087
0.835996 0.589044 0.494636
0.963287 0.541650 0.427283
0.000000 0.745205 0.643091
0.000000 0.741573 0.636500
0.000000 0.728664 0.612848
0.140566 0.701381 0.565881
0.227481 0.592737 0.433570
0.404211 0.610864 0.369604
0.814908 0.750820 0.622736
0.948638 0.719478 0.615320
0.000000 0.873106 0.714168
0.000000 0.871000 0.708858
0.000000 0.863523 0.689540
0.000000 0.852110 0.653010
0.000000 0.800443 0.559747
0.133242 0.712978 0.438514
0.629267 0.831510 0.486519
0.936980 0.872953 0.716426
0.000000 0.299229 0.853361
0.000000 0.242191 0.846983
0.096162 0.173465 0.817044
0.468269 0.086641 0.755856
0.628443 0.000000 0.702571
0.774044 0.000000 0.691279
0.894102 0.085908 0.669734
0.998138 0.196414 0.656672
0.000000 0.374029 0.850889
0.000000 0.331243 0.844633
0.096132 0.242466 0.817929
0.466926 0.178256 0.756710
0.626947 0.105776 0.700038
0.772427 0.111818 0.688777
0.892699 0.167453 0.668727
0.996826 0.240024 0.657527
0.080476 0.569207 0.856260
0.123262 0.540887 0.850584
0.201419 0.425879 0.828367
0.470649 0.344518 0.769100
0.629114 0.279332 0.699275
0.772183 0.286137 0.686336
0.890867 0.313024 0.669886
0.994141 0.354864 0.663874
0.278080 0.750637 0.873991
0.348241 0.754147 0.872374
0.468208 0.700069 0.844450
0.500938 0.550164 0.792874
0.635065 0.446601 0.700160
0.772854 0.454353 0.686946
0.888579 0.469245 0.678035
0.990387 0.489876 0.678126
0.168856 0.739498 0.821714
0.248325 0.740780 0.820249
0.415839 0.745449 0.814725
0.590509 0.753780 0.804990
0.649195 0.629053 0.721218
0.765621 0.601526 0.685451
0.880644 0.607630 0.687068
0.982635 0.618555 0.695277
0.000000 0.712367 0.739925
0.000000 0.713130 0.739162
0.200046 0.712795 0.733181
0.375616 0.710018 0.719875
0.551202 0.713283 0.696651
0.745357 0.702876 0.686427
0.849851 0.646815 0.628199
0.973663 0.635004 0.632349
0.000000 0.793118 0.762264
0.000000 0.795468 0.761379
0.000000 0.801389 0.755764
0.137942 0.793362 0.728939
0.399420 0.758724 0.669215
0.407202 0.612726 0.486213
0.834073 0.783383 0.725551
0.956329 0.722347 0.638239
0.000000 0.911925 0.813687
0.000000 0.910460 0.809720
0.000000 0.905333 0.795254
0.000000 0.896391 0.767575
0.119997 0.876524 0.714839
0.225101 0.807401 0.579309
0.535760 0.816251 0.496345
0.937194 0.882261 0.773037
0.000000 0.348516 0.943755
0.000000 0.312932 0.940978
0.000000 0.241062 0.928466
0.396551 0.199496 0.898894
0.611292 0.030457 0.841611
0.761501 0.000000 0.821042
0.887602 0.048249 0.798459
0.990784 0.189670 0.774960
0.000000 0.411994 0.944518
0.000000 0.382361 0.941772
0.000000 0.297581 0.930266
0.399847 0.258610 0.900816
0.612360 0.159579 0.844541
0.762875 0.103365 0.822141
0.888579 0.157504 0.799435
0.991363 0.239628 0.776974
0.072847 0.582177 0.944396
0.112276 0.561669 0.941985
0.185214 0.481575 0.932555
0.420600 0.407752 0.906218
0.615229 0.322850 0.851957
0.763058 0.277775 0.821073
0.886625 0.304051 0.798093
0.988464 0.350317 0.779080
0.432349 0.768765 0.950195
0.463874 0.761868 0.946838
0.526421 0.728084 0.935119
0.512810 0.612177 0.915709
0.632959 0.515190 0.866087
0.761959 0.438666 0.818448
0.882536 0.454994 0.797360
0.984344 0.479896 0.784817
0.461219 0.842618 0.945434
0.500175 0.846769 0.945281
0.606561 0.860044 0.945037
0.698177 0.844083 0.934203
0.683101 0.714015 0.893370
0.760464 0.591669 0.817258
0.878935 0.600916 0.801419
0.979583 0.614343 0.796506
0.360449 0.838834 0.913146
0.398535 0.840726 0.912718
0.506188 0.847501 0.911528
0.635554 0.858427 0.910124
0.760952 0.872862 0.909545
0.781308 0.768826 0.846036
0.873320 0.732418 0.806912
0.973693 0.739467 0.811917
0.000000 0.825681 0.858244
0.085756 0.826078 0.857542
0.265599 0.827634 0.855100
0.410742 0.829313 0.849912
0.547021 0.829099 0.839506
0.681819 0.827543 0.817105
0.856321 0.822446 0.809567
0.962371 0.776211 0.763455
0.000000 0.901732 0.889586
0.000000 0.903868 0.889342
0.000000 0.910552 0.887419
0.000000 0.923461 0.884489
0.278264 0.932372 0.870726
0.499794 0.907347 0.815549
0.497108 0.810666 0.632258
0.941802 0.901579 0.849821
0.000000 0.394293 1.000000
0.000000 0.370794 1.000000
0.000000 0.299016 1.000000
0.296574 0.281956 0.992126
0.559991 0.231388 0.972198
0.743526 0.000000 0.938903
0.887938 0.069337 0.936461
0.993774 0.200046 0.903502
0.000000 0.446571 1.000000
0.000000 0.426520 1.000000
0.000000 0.346990 1.000000
0.310979 0.329229 0.992584
0.562737 0.281132 0.973083
0.743771 0.139681 0.939117
0.888273 0.161563 0.936797
0.993744 0.246006 0.904112
0.136904 0.597864 1.000000
0.157931 0.583886 1.000000
0.211215 0.529808 1.000000
0.375525 0.465858 0.993042
0.577478 0.416266 0.974945
0.743496 0.303410 0.941680
0.887602 0.305882 0.936339
0.991791 0.356390 0.904814
0.530724 0.783993 0.998871
0.545342 0.779263 0.997894
0.545403 0.743526 0.996185
0.539910 0.666255 0.991974
0.624811 0.595148 0.977813
0.748043 0.487526 0.947723
0.884947 0.454505 0.934813
0.987884 0.484627 0.906218
0.627314 0.898528 0.999847
0.643030 0.896056 0.999145
0.687984 0.886412 0.996612
0.736049 0.862150 0.991119
0.710994 0.771664 0.983490
0.769711 0.676600 0.958404
0.880888 0.598444 0.933471
0.982696 0.616938 0.909606
0.594049 0.908659 0.992462
0.616602 0.911467 0.992340
0.684718 0.920653 0.992035
0.775814 0.935302 0.992096
0.852110 0.939544 0.990509
0.825467 0.849638 0.974701
0.874662 0.730526 0.931212
0.976287 0.740902 0.914488
0.509209 0.914519 0.979583
0.531334 0.916136 0.979492
0.599237 0.921691 0.979309
0.694850 0.930999 0.979187
0.799802 0.944091 0.979797
0.897826 0.960876 0.982422
0.903899 0.902068 0.958343
0.971405 0.857420 0.923857
0.294835 0.922484 0.958251
0.321996 0.923278 0.958190
0.401160 0.925719 0.957671
0.508293 0.929656 0.956420
0.622827 0.934813 0.954345
0.731502 0.939696 0.950561
0.821836 0.939086 0.939361
0.961151 0.941802 0.934508
