data/fiter_cube/65184230/1022651/file.cube
# Created by Adobe Lightroom plugin Export LUT (1.17.0)
# www.johnrellis.com/lightroom/exportlut.htm
# Preset: ins网红旅拍风景人像_10 云集
# Color profile: C:\Program Files (x86)\Common Files\Adobe\Color\Profiles\Recommended\AdobeRGB1998.icc
LUT_3D_SIZE 5
DOMAIN_MIN 0.000000 0.000000 0.000000
DOMAIN_MAX 0.903226 0.903226 0.903226
0.000000 0.000000 0.000000
0.277165 0.000000 0.008515
0.546654 0.000000 0.000000
0.804990 0.000000 0.015106
1.000000 0.000000 0.093416
0.000000 0.223178 0.158083
0.239689 0.213596 0.116274
0.505547 0.176608 0.020630
0.778988 0.117952 0.022217
0.998840 0.000000 0.094362
0.000000 0.361517 0.253696
0.000000 0.309972 0.198581
0.467689 0.416693 0.236210
0.727413 0.355444 0.094057
0.969848 0.335454 0.061830
0.000000 0.484871 0.336522
0.000000 0.445747 0.295293
0.105379 0.382940 0.189181
0.697505 0.622797 0.350011
0.958312 0.558556 0.320226
0.000000 0.790707 0.543389
0.000000 0.773129 0.516320
0.000000 0.698848 0.420661
0.371252 0.778592 0.296208
0.939605 0.862058 0.612451
0.000000 0.092775 0.274022
0.275822 0.000000 0.245426
0.566278 0.000000 0.235111
0.807004 0.000000 0.226963
1.000000 0.000000 0.229801
0.000000 0.246921 0.255772
0.275944 0.253208 0.244175
0.536828 0.220249 0.224063
0.785275 0.162387 0.216312
0.994293 0.015778 0.223880
0.000000 0.420020 0.333867
0.139254 0.374762 0.278447
0.482277 0.431220 0.308843
0.713405 0.360479 0.182345
0.971466 0.343114 0.196872
0.000000 0.532982 0.391943
0.000000 0.490608 0.345312
0.133852 0.383154 0.225559
0.704341 0.630579 0.398474
0.957580 0.563745 0.346471
0.000000 0.808042 0.572473
0.000000 0.790341 0.543999
0.000000 0.727047 0.450446
0.347570 0.778958 0.307286
0.940337 0.865507 0.636408
0.000000 0.209354 0.634150
0.237949 0.067811 0.565332
0.559777 0.000000 0.497475
0.816251 0.000000 0.479469
1.000000 0.196536 0.476783
0.000000 0.477882 0.645594
0.199374 0.305303 0.580713
0.564111 0.248814 0.494331
0.812894 0.259342 0.476875
1.000000 0.328679 0.490944
0.000000 0.510796 0.530114
0.178531 0.509850 0.520104
0.550103 0.504631 0.486641
0.770809 0.445380 0.434180
0.985809 0.409644 0.432685
0.000000 0.649195 0.559899
0.000000 0.633845 0.533623
0.258213 0.513420 0.388739
0.730312 0.664729 0.546014
0.959075 0.564233 0.393774
0.000000 0.856657 0.673426
0.000000 0.850370 0.654627
0.000000 0.796872 0.553826
0.240238 0.745113 0.363500
0.936858 0.869474 0.692775
0.000000 0.311315 0.877134
0.000000 0.199924 0.856382
0.549310 0.000000 0.753536
0.802853 0.000000 0.718074
0.995514 0.191409 0.685389
0.000000 0.516564 0.878660
0.000000 0.410895 0.861997
0.550866 0.269352 0.761959
0.800504 0.245640 0.713985
0.991882 0.316594 0.688289
0.301579 0.771450 0.881895
0.471778 0.783230 0.879026
0.589899 0.613428 0.802060
0.796231 0.525750 0.712367
0.984222 0.549432 0.709010
0.000000 0.743404 0.772305
0.152804 0.742794 0.766812
0.451637 0.738552 0.745174
0.773526 0.732906 0.717250
0.969665 0.668910 0.663478
0.000000 0.921752 0.841428
0.000000 0.918090 0.829496
0.000000 0.902312 0.780972
0.293553 0.810910 0.589166
0.937224 0.885161 0.789242
0.000000 0.394293 1.000000
0.000000 0.306340 1.000000
0.444923 0.263188 0.983520
0.779812 0.000000 0.938293
0.993774 0.200046 0.903502
0.000000 0.552575 1.000000
0.000000 0.497597 1.000000
0.470588 0.405402 0.984955
0.780087 0.255253 0.938201
0.992218 0.325048 0.904356
0.574670 0.841428 0.999542
0.629725 0.832303 0.996399
0.637324 0.724331 0.987640
0.783688 0.543725 0.941680
0.985504 0.551690 0.907774
0.577325 0.909880 0.989715
0.647364 0.918029 0.989471
0.808743 0.942565 0.989868
0.849210 0.866239 0.971923
0.975067 0.771084 0.916564
0.294835 0.922484 0.958251
0.377844 0.924956 0.957885
0.565393 0.932128 0.955505
0.756313 0.940490 0.948943
0.961151 0.941802 0.934508
