data/fiter_cube/44540723/1023233/file.cube
# Created by Adobe Lightroom plugin Export LUT (1.17.0)
# www.johnrellis.com/lightroom/exportlut.htm
# Preset: 奶油色调低饱和（弱光环境）_04 云集
# Color profile: C:\Program Files (x86)\Common Files\Adobe\Color\Profiles\Recommended\AdobeRGB1998.icc
LUT_3D_SIZE 32
DOMAIN_MIN 0.0 0.0 0.0
DOMAIN_MAX 1.0 1.0 1.0
0.074922 0.071351 0.069123
0.082673 0.072938 0.071015
0.091859 0.075227 0.072999
0.110567 0.081422 0.078584
0.141970 0.087648 0.084779
0.184237 0.092653 0.090547
0.239536 0.094575 0.097047
0.307805 0.091432 0.103700
0.384894 0.080171 0.112215
0.462013 0.067811 0.122835
0.533593 0.069459 0.137026
0.595819 0.099245 0.155459
0.649226 0.140627 0.177768
0.695369 0.185641 0.203983
0.734157 0.231113 0.231693
0.766384 0.273777 0.260410
0.793515 0.313451 0.289586
0.816617 0.350744 0.318486
0.836820 0.384924 0.346899
0.860624 0.425940 0.383185
0.881468 0.462654 0.417639
0.899229 0.495125 0.448951
0.914427 0.523766 0.477211
0.927703 0.549798 0.503197
0.939483 0.573541 0.527398
0.950225 0.596094 0.550622
0.960296 0.618341 0.573999
0.969818 0.640467 0.597406
0.979004 0.662074 0.620752
0.987854 0.683528 0.644099
0.996277 0.704524 0.667414
1.000000 0.725032 0.690455
0.076997 0.079072 0.071717
0.082155 0.079561 0.072938
0.090639 0.082063 0.075288
0.109133 0.089021 0.080873
0.140017 0.096010 0.086732
0.181399 0.102266 0.092317
0.236179 0.106081 0.098573
0.303014 0.105684 0.105592
0.379248 0.100008 0.113710
0.456214 0.093812 0.124178
0.527611 0.097139 0.138399
0.590326 0.118502 0.156283
0.644038 0.154238 0.178744
0.690394 0.195315 0.204227
0.729702 0.237430 0.231296
0.762295 0.278080 0.259892
0.789822 0.316411 0.288609
0.813321 0.352514 0.317174
0.833860 0.385840 0.345373
0.857603 0.425513 0.380987
0.878233 0.460914 0.414099
0.896056 0.492592 0.444984
0.911437 0.520775 0.472938
0.924926 0.546471 0.498756
0.936980 0.570214 0.522972
0.947997 0.592950 0.546441
0.958373 0.615290 0.569818
0.968139 0.637659 0.593713
0.977539 0.659571 0.617273
0.986603 0.681239 0.641016
0.995209 0.702449 0.664485
1.000000 0.723140 0.687831
0.080354 0.088563 0.075319
0.084016 0.087892 0.078248
0.090761 0.089845 0.077852
0.108949 0.096498 0.082918
0.137881 0.105562 0.089601
0.178744 0.113588 0.095033
0.232029 0.119722 0.101015
0.297887 0.122286 0.107729
0.373510 0.120668 0.116030
0.450843 0.118166 0.126741
0.522454 0.123812 0.140841
0.585565 0.142489 0.158846
0.639826 0.172366 0.181064
0.686458 0.209934 0.206271
0.726192 0.248356 0.233280
0.759274 0.286381 0.261204
0.787076 0.323247 0.289860
0.810788 0.357702 0.317998
0.831693 0.389929 0.346044
0.855558 0.428687 0.380987
0.876188 0.462715 0.413703
0.894041 0.493568 0.443885
0.909545 0.521416 0.471748
0.923186 0.546563 0.497322
0.935393 0.570092 0.521386
0.946593 0.592493 0.544762
0.957092 0.614771 0.568200
0.967041 0.637140 0.592126
0.976593 0.659144 0.616022
0.985748 0.680751 0.639734
0.994476 0.701961 0.663294
1.000000 0.722591 0.686610
0.086275 0.109895 0.083131
0.089784 0.109133 0.085542
0.094301 0.108461 0.088350
0.109041 0.113741 0.087007
0.138613 0.123720 0.091707
0.174166 0.134890 0.101442
0.226596 0.145174 0.106966
0.291875 0.152193 0.113893
0.366979 0.155489 0.122164
0.443885 0.158663 0.133028
0.515679 0.166323 0.147127
0.579339 0.182467 0.165316
0.633631 0.208286 0.187472
0.680781 0.239170 0.212497
0.721065 0.272404 0.238437
0.754604 0.306310 0.265843
0.782895 0.339361 0.293858
0.807004 0.370794 0.321324
0.829068 0.402014 0.349889
0.852171 0.436591 0.382757
0.872404 0.468055 0.413703
0.890257 0.497017 0.443061
0.906096 0.523735 0.470436
0.920317 0.548760 0.496315
0.933196 0.572412 0.520897
0.945006 0.595270 0.545129
0.955962 0.617792 0.569207
0.966186 0.640131 0.593439
0.975891 0.661799 0.617151
0.985077 0.683009 0.640589
0.993774 0.703578 0.663691
1.000000 0.723690 0.686580
0.090517 0.143709 0.091035
0.094606 0.142580 0.093233
0.099275 0.141176 0.096407
0.109499 0.141299 0.100343
0.134340 0.149813 0.097139
0.175998 0.162234 0.100191
0.221256 0.174594 0.112215
0.280735 0.187503 0.123751
0.354986 0.196689 0.131777
0.431830 0.205020 0.143069
0.504326 0.214939 0.157015
0.568841 0.230106 0.175723
0.624262 0.251408 0.197665
0.672267 0.277226 0.221836
0.713710 0.305638 0.247379
0.748501 0.334936 0.274235
0.777890 0.363928 0.301610
0.802792 0.391943 0.328618
0.826658 0.421790 0.358099
0.849363 0.452247 0.389136
0.869291 0.480385 0.418402
0.887114 0.506859 0.446448
0.903075 0.531792 0.472755
0.917571 0.555566 0.498146
0.930755 0.578241 0.522484
0.942840 0.600397 0.546471
0.954009 0.622217 0.570367
0.964477 0.643854 0.594324
0.974334 0.664973 0.617762
0.983703 0.685542 0.640955
0.992554 0.705745 0.663966
1.000000 0.725551 0.686763
0.091981 0.189059 0.099733
0.096712 0.187839 0.101991
0.102296 0.185824 0.105440
0.112642 0.181613 0.112856
0.131624 0.186038 0.114168
0.167575 0.196933 0.108980
0.224643 0.213169 0.109499
0.280552 0.225681 0.124971
0.346532 0.240269 0.144137
0.421820 0.253880 0.158450
0.494667 0.266606 0.173312
0.559960 0.281346 0.191714
0.615930 0.300023 0.213138
0.664607 0.321813 0.236606
0.706874 0.345464 0.261082
0.742580 0.370184 0.286961
0.772671 0.394720 0.313268
0.798276 0.418616 0.339330
0.824033 0.446876 0.369848
0.846616 0.473304 0.399115
0.866728 0.498634 0.427436
0.884886 0.522789 0.454353
0.917021 0.576196 0.512322
0.930175 0.597162 0.536065
0.941833 0.616907 0.558618
0.952361 0.635889 0.580407
0.962127 0.654292 0.601465
0.971344 0.672206 0.622187
0.980102 0.690059 0.642725
0.988525 0.707637 0.663081
0.996429 0.725032 0.683467
1.000000 0.742061 0.703670
0.089387 0.254490 0.110933
0.095064 0.252873 0.113710
0.102174 0.250614 0.117494
0.116274 0.246098 0.125948
0.133730 0.239384 0.138796
0.166110 0.250706 0.134157
0.217075 0.263584 0.126833
0.295048 0.281895 0.123598
0.361944 0.293950 0.145357
0.431861 0.309483 0.172061
0.499184 0.327794 0.201968
0.564111 0.343297 0.220218
0.619287 0.359838 0.241032
0.667170 0.377996 0.263157
0.708156 0.396918 0.286046
0.742580 0.415839 0.309972
0.771969 0.434943 0.334051
0.800046 0.457801 0.362005
0.825895 0.482033 0.391363
0.848966 0.505791 0.420203
0.870085 0.529870 0.449042
0.889525 0.553918 0.477607
0.907103 0.577722 0.505547
0.922698 0.600366 0.532097
0.936339 0.621668 0.557092
0.948119 0.641230 0.580316
0.958648 0.659510 0.602075
0.968322 0.676967 0.622644
0.977478 0.694118 0.643000
0.986084 0.711086 0.663294
0.994293 0.727810 0.683284
1.000000 0.744411 0.703304
0.084108 0.318029 0.124758
0.091005 0.316381 0.127626
0.100099 0.314183 0.131533
0.116762 0.309636 0.139956
0.138094 0.302708 0.152712
0.164126 0.300481 0.162631
0.207584 0.312718 0.156283
0.269810 0.325200 0.148226
0.360998 0.343328 0.141878
0.429053 0.354528 0.169375
0.494514 0.369207 0.201144
0.553887 0.387152 0.235538
0.607355 0.405463 0.264591
0.656092 0.421149 0.284947
0.698177 0.436866 0.305913
0.733700 0.452216 0.327855
0.765530 0.469490 0.352026
0.795132 0.489540 0.379126
0.820340 0.508782 0.405097
0.843168 0.528496 0.431403
0.864347 0.548913 0.457862
0.883909 0.570001 0.484718
0.901762 0.591150 0.510765
0.917693 0.611658 0.536126
0.931731 0.631159 0.560204
0.943908 0.649409 0.582788
0.954864 0.666590 0.603906
0.964965 0.683101 0.624109
0.974517 0.699519 0.644190
0.983490 0.715785 0.664088
0.991943 0.731991 0.683986
0.999817 0.748074 0.703944
0.082582 0.383368 0.144839
0.090944 0.381903 0.147738
0.101595 0.380072 0.151766
0.120790 0.376104 0.160220
0.145235 0.369818 0.172946
0.171817 0.361547 0.189425
0.207553 0.365118 0.192691
0.260929 0.376349 0.185306
0.331456 0.387091 0.176852
0.426703 0.404822 0.169192
0.492226 0.413855 0.199405
0.550500 0.426886 0.234318
0.601740 0.443122 0.270603
0.646937 0.461311 0.306950
0.689021 0.475990 0.329900
0.726711 0.490089 0.351019
0.761318 0.506584 0.375433
0.790005 0.522057 0.398901
0.814908 0.537133 0.422095
0.837766 0.553277 0.445777
0.859068 0.570733 0.469917
0.878843 0.588922 0.494606
0.896880 0.607507 0.519097
0.913085 0.625910 0.543053
0.927398 0.643610 0.566033
0.940002 0.660212 0.587671
0.951293 0.676081 0.607996
0.961730 0.691463 0.627680
0.971557 0.706844 0.647089
0.980835 0.722164 0.666499
0.989532 0.737484 0.685908
0.997620 0.752865 0.705379
0.094636 0.445289 0.171695
0.102968 0.443915 0.174441
0.113344 0.442023 0.177829
0.133120 0.438483 0.185946
0.158907 0.433082 0.197879
0.187503 0.425757 0.213169
0.217441 0.416876 0.231846
0.263096 0.425483 0.226139
0.322026 0.434943 0.219028
0.393561 0.443122 0.210819
0.484474 0.458320 0.203220
0.545830 0.466377 0.231662
0.596857 0.477699 0.268315
0.642145 0.491676 0.305058
0.684993 0.509911 0.343359
0.723049 0.529015 0.380011
0.756924 0.542260 0.400916
0.785641 0.554589 0.421637
0.810544 0.567071 0.442512
0.833341 0.580102 0.463416
0.854368 0.594324 0.484901
0.873777 0.609216 0.506615
0.891508 0.624628 0.528405
0.907561 0.640131 0.550103
0.922026 0.655543 0.571221
0.934966 0.670680 0.591791
0.946868 0.685359 0.611536
0.957855 0.700008 0.631006
0.968261 0.714748 0.650416
0.978027 0.729580 0.669734
0.987152 0.744533 0.689174
0.995636 0.759426 0.708705
0.120943 0.498451 0.202426
0.127993 0.497536 0.204623
0.137514 0.496193 0.208164
0.156130 0.493324 0.215244
0.180941 0.488746 0.226017
0.209964 0.482948 0.240269
0.240909 0.475593 0.257420
0.275761 0.471931 0.269322
0.325444 0.479805 0.263157
0.385504 0.487312 0.256626
0.453834 0.493507 0.248783
0.532525 0.503380 0.241032
0.594476 0.514366 0.267552
0.642847 0.527184 0.307164
0.685267 0.541558 0.345708
0.721187 0.556207 0.382635
0.751766 0.570642 0.417243
0.778988 0.583154 0.443153
0.804013 0.593133 0.461128
0.826993 0.604059 0.479683
0.848295 0.616175 0.499184
0.868070 0.629084 0.519127
0.886259 0.642725 0.539727
0.902647 0.656611 0.560021
0.917449 0.670405 0.580163
0.930755 0.683772 0.599298
0.942901 0.696986 0.617884
0.954223 0.710262 0.636286
0.964904 0.723842 0.654810
0.974945 0.737606 0.673426
0.984375 0.751644 0.692378
0.993133 0.765835 0.711543
0.160006 0.546715 0.236881
0.165957 0.546105 0.239139
0.174350 0.544762 0.242191
0.190402 0.542382 0.248356
0.213077 0.538628 0.257847
0.240177 0.533654 0.270665
0.270390 0.527489 0.286137
0.301610 0.520134 0.304204
0.340215 0.521294 0.308354
0.390051 0.527733 0.302373
0.447791 0.533623 0.295811
0.514580 0.542107 0.292088
0.609522 0.571984 0.308446
0.670069 0.585809 0.333654
0.709041 0.595148 0.372747
0.741726 0.604883 0.409033
0.769467 0.614923 0.442664
0.793240 0.625422 0.473457
0.814359 0.636713 0.502129
0.835447 0.645960 0.520226
0.855314 0.655116 0.536248
0.873594 0.665095 0.553063
0.890257 0.675441 0.570092
0.905516 0.686213 0.587396
0.919402 0.697108 0.604303
0.932097 0.707912 0.620844
0.943816 0.718746 0.637049
0.954711 0.729702 0.653162
0.964965 0.741146 0.669612
0.974731 0.752987 0.686458
0.983856 0.765225 0.703761
0.992401 0.777890 0.721614
0.215244 0.597772 0.280522
0.220340 0.596887 0.282383
0.226474 0.595575 0.284733
0.239841 0.592798 0.289677
0.258579 0.588495 0.297002
0.282078 0.583276 0.307530
0.308904 0.577081 0.320623
0.337804 0.570275 0.336278
0.367895 0.563043 0.354528
0.413825 0.572045 0.354650
0.467262 0.581598 0.353735
0.525566 0.590814 0.352850
0.585595 0.599390 0.351385
0.645686 0.606592 0.348486
0.703334 0.620417 0.368261
0.736568 0.627466 0.405097
0.764523 0.634699 0.438544
0.788296 0.642451 0.468818
0.809628 0.651392 0.497597
0.829221 0.661769 0.524895
0.847776 0.672877 0.549798
0.866453 0.681544 0.564904
0.883452 0.690669 0.580438
0.899138 0.700099 0.596216
0.913481 0.709621 0.611780
0.926604 0.719326 0.627161
0.938750 0.729122 0.642451
0.950103 0.739223 0.657923
0.960815 0.749844 0.673732
0.971008 0.760983 0.690150
0.980560 0.772610 0.707179
0.989471 0.784756 0.724849
0.261082 0.632715 0.315221
0.265232 0.632013 0.316625
0.270359 0.630854 0.318608
0.281559 0.628443 0.322972
0.297704 0.624811 0.329198
0.319615 0.621118 0.339330
0.345830 0.617365 0.352361
0.374090 0.613092 0.367773
0.403998 0.608545 0.385473
0.437140 0.607263 0.399023
0.480049 0.614771 0.397864
0.527764 0.622492 0.396674
0.578180 0.629419 0.394720
0.629480 0.635279 0.392035
0.680201 0.639673 0.388037
0.731075 0.649805 0.400366
0.759030 0.654231 0.433112
0.782986 0.659602 0.463722
0.804562 0.666316 0.492287
0.824582 0.674708 0.519677
0.843137 0.684718 0.546502
0.860410 0.695888 0.572503
0.877012 0.705806 0.592157
0.893187 0.714290 0.606561
0.907988 0.722927 0.620935
0.921599 0.731716 0.635340
0.934173 0.740597 0.649775
0.945922 0.749874 0.664454
0.957000 0.759701 0.679622
0.967559 0.770138 0.695552
0.977447 0.781155 0.712215
0.986725 0.792691 0.729580
0.314855 0.669306 0.355169
0.318791 0.669032 0.356756
0.322881 0.667964 0.358160
0.332555 0.666194 0.362158
0.346960 0.663355 0.368170
0.364904 0.659693 0.376165
0.386603 0.655604 0.386511
0.410559 0.650965 0.398932
0.436683 0.646418 0.413855
0.463752 0.641901 0.430884
0.495888 0.644007 0.436774
0.534874 0.650141 0.435737
0.577081 0.655940 0.434241
0.620691 0.660761 0.431647
0.664790 0.664393 0.427863
0.708003 0.666682 0.422644
0.754025 0.674495 0.428809
0.778134 0.677546 0.458961
0.799924 0.682155 0.487221
0.820127 0.688624 0.514733
0.838956 0.696803 0.541497
0.856474 0.706203 0.567437
0.872557 0.716548 0.592309
0.887419 0.727291 0.615778
0.902495 0.735744 0.630671
0.916655 0.743954 0.644312
0.929870 0.752529 0.658350
0.942229 0.761563 0.672877
0.953948 0.771145 0.688045
0.964996 0.781338 0.704067
0.975341 0.792081 0.720729
0.984924 0.803250 0.738064
0.365820 0.700221 0.393072
0.369268 0.699947 0.394629
0.372869 0.699275 0.396063
0.380835 0.697749 0.399329
0.393011 0.695369 0.404486
0.408698 0.692378 0.411536
0.427283 0.688899 0.420294
0.448310 0.685115 0.431342
0.471077 0.681025 0.444190
0.494301 0.676661 0.458442
0.517723 0.671992 0.474189
0.548180 0.675807 0.472938
0.581628 0.679622 0.470344
0.617365 0.682887 0.466957
0.654444 0.685420 0.462837
0.692103 0.687190 0.457649
0.729976 0.688441 0.452033
0.772580 0.695705 0.455360
0.795438 0.698482 0.482795
0.816342 0.703609 0.510643
0.835782 0.710506 0.538109
0.853819 0.718746 0.564630
0.870329 0.727932 0.590021
0.885588 0.737789 0.613977
0.899718 0.747860 0.636408
0.913024 0.757717 0.656214
0.926574 0.765713 0.669429
0.939269 0.774105 0.683192
0.951141 0.783017 0.697688
0.962341 0.792355 0.712795
0.972778 0.802152 0.728542
0.982452 0.812375 0.744900
0.409094 0.724117 0.425422
0.411322 0.723720 0.426337
0.414343 0.723018 0.427619
0.420935 0.721675 0.430243
0.430945 0.719570 0.434638
0.444007 0.716884 0.440558
0.459693 0.713832 0.448219
0.477485 0.710323 0.457343
0.496925 0.706538 0.468116
0.517479 0.702571 0.480476
0.538476 0.698421 0.494087
0.560876 0.696315 0.503929
0.588739 0.699702 0.501762
0.618677 0.702541 0.498848
0.650294 0.704738 0.495125
0.682643 0.706233 0.490547
0.715908 0.707210 0.485237
0.749660 0.708034 0.479561
0.789761 0.715663 0.481758
0.811795 0.718105 0.505516
0.831540 0.723415 0.532799
0.849882 0.730129 0.559380
0.866758 0.738064 0.585077
0.882444 0.746853 0.609613
0.896971 0.756100 0.632502
0.910430 0.765743 0.654292
0.922972 0.775753 0.675288
0.935424 0.784878 0.691981
0.947692 0.793393 0.705959
0.959228 0.802365 0.720699
0.969970 0.811734 0.736080
0.979980 0.821530 0.752193
0.448981 0.745296 0.456092
0.451484 0.745205 0.457343
0.477302 0.756405 0.476722
0.482429 0.755123 0.478828
0.490272 0.753170 0.482338
0.499947 0.750546 0.486580
0.512139 0.747433 0.492439
0.526055 0.743954 0.499489
0.541894 0.740200 0.508141
0.558892 0.736263 0.518181
0.576379 0.732174 0.529229
0.594018 0.727749 0.541344
0.613916 0.727230 0.544244
0.637324 0.729091 0.540826
0.662470 0.730556 0.536797
0.689082 0.731533 0.532036
0.717037 0.732174 0.526848
0.745846 0.732509 0.521294
0.775296 0.732815 0.515343
0.812222 0.740414 0.516320
0.832700 0.742214 0.536126
0.850675 0.747189 0.562097
0.867338 0.753445 0.587427
0.882719 0.760555 0.611292
0.896788 0.768063 0.633265
0.909850 0.776059 0.654292
0.921996 0.784482 0.674311
0.933532 0.793545 0.694087
0.944518 0.803311 0.713863
0.956054 0.811978 0.728725
0.967071 0.820859 0.743587
0.977264 0.830076 0.759060
0.490517 0.766781 0.488716
0.495247 0.767971 0.491920
0.500298 0.768978 0.495186
0.507408 0.769223 0.499214
0.516075 0.768582 0.503777
0.525689 0.766873 0.508659
0.536492 0.764370 0.513939
0.548821 0.761349 0.520195
0.562768 0.758053 0.527886
0.577661 0.754513 0.536553
0.593408 0.750881 0.546471
0.609430 0.746883 0.557061
0.625177 0.742458 0.568292
0.644190 0.743801 0.565911
0.665126 0.745174 0.562036
0.687831 0.746181 0.557885
0.711879 0.746883 0.553094
0.737270 0.747372 0.548119
0.763760 0.747890 0.543145
0.791073 0.748592 0.538231
0.825284 0.755856 0.538842
0.846677 0.758968 0.556878
0.863859 0.764279 0.582605
0.879759 0.770504 0.606867
0.894316 0.777279 0.629603
0.907805 0.784665 0.651179
0.920348 0.792538 0.671901
0.932189 0.801053 0.692134
0.943481 0.810239 0.712306
0.954040 0.820005 0.732570
0.964233 0.829862 0.751492
0.974670 0.838621 0.766445
0.520348 0.782498 0.512657
0.524590 0.783536 0.515618
0.529046 0.784421 0.518517
0.535088 0.784695 0.522118
0.542779 0.784115 0.526268
0.551019 0.782650 0.530419
0.560571 0.780423 0.535210
0.571344 0.777768 0.540734
0.583612 0.774929 0.547539
0.597131 0.771847 0.555413
0.611383 0.768551 0.564233
0.626032 0.765011 0.573907
0.640284 0.761044 0.583764
0.654932 0.758419 0.590448
0.672511 0.759731 0.587213
0.691585 0.760769 0.583307
0.712123 0.761593 0.579004
0.734127 0.762203 0.574517
0.757534 0.762905 0.570092
0.782071 0.763760 0.565820
0.807309 0.764736 0.561852
0.838224 0.771145 0.562799
0.860838 0.775814 0.578454
0.877104 0.781155 0.603204
0.892027 0.787106 0.626246
0.905821 0.793637 0.648219
0.918639 0.800748 0.669093
0.930724 0.808560 0.689693
0.942168 0.817136 0.710231
0.953002 0.826322 0.730709
0.963073 0.835966 0.751095
0.972442 0.845884 0.771206
0.549004 0.797543 0.536065
0.552605 0.798398 0.538567
0.556725 0.799222 0.541344
0.562097 0.799466 0.544610
0.568688 0.799008 0.548302
0.576043 0.797726 0.552117
0.584375 0.795743 0.556390
0.593744 0.793454 0.561273
0.604547 0.790799 0.567224
0.616358 0.787961 0.574029
0.629084 0.785000 0.581903
0.642237 0.781796 0.590417
0.655146 0.778256 0.599207
0.667903 0.774441 0.608331
0.682124 0.773770 0.610498
0.698634 0.775143 0.607538
0.716976 0.776455 0.604578
0.736782 0.777859 0.601709
0.758083 0.779385 0.599084
0.780545 0.781094 0.596582
0.803891 0.782895 0.594324
0.827695 0.784817 0.592309
0.855497 0.790585 0.593744
0.878782 0.796689 0.607263
0.894102 0.802121 0.631128
0.908141 0.808072 0.653437
0.921080 0.814542 0.674739
0.933165 0.821653 0.695430
0.944579 0.829496 0.716182
0.955230 0.837858 0.736690
0.965118 0.846677 0.757015
0.974273 0.855772 0.776913
0.586023 0.816220 0.566766
0.588128 0.816495 0.568170
0.590356 0.816556 0.569543
0.593866 0.816251 0.571527
0.598840 0.815396 0.574212
0.604730 0.813993 0.577173
0.611810 0.812314 0.580835
0.620233 0.810300 0.585260
0.629816 0.808194 0.590692
0.640681 0.805905 0.597131
0.652247 0.803494 0.604364
0.664088 0.800839 0.612055
0.675837 0.797787 0.619959
0.687373 0.794491 0.628077
0.698543 0.790921 0.636378
0.712245 0.791836 0.634546
0.727535 0.793088 0.631861
0.744381 0.794369 0.629206
0.762570 0.795712 0.626673
0.781857 0.797116 0.624201
0.802182 0.798550 0.621790
0.823087 0.800046 0.619471
0.844388 0.801541 0.617121
0.868467 0.805661 0.617304
0.891936 0.812253 0.627832
0.906218 0.817441 0.650507
0.919524 0.823331 0.672175
0.931945 0.829862 0.693385
0.943603 0.837095 0.714473
0.954437 0.844907 0.735286
0.964508 0.853147 0.755856
0.973846 0.861753 0.776181
0.612207 0.829679 0.588952
0.614099 0.829984 0.590295
0.616144 0.830137 0.591669
0.619379 0.829892 0.593469
0.623529 0.829129 0.595697
0.628534 0.827909 0.598199
0.634455 0.826352 0.601282
0.641596 0.824491 0.605035
0.649928 0.822477 0.609613
0.659327 0.820432 0.615259
0.669551 0.818265 0.621546
0.680110 0.815885 0.628351
0.690791 0.813230 0.635431
0.701503 0.810330 0.642878
0.712032 0.807309 0.650538
0.722957 0.805325 0.655848
0.736355 0.806729 0.653834
0.751095 0.808133 0.651789
0.767178 0.809628 0.649866
0.784421 0.811246 0.648035
0.802640 0.812894 0.646326
0.821653 0.814633 0.644770
0.841123 0.816434 0.643397
0.860899 0.818173 0.641871
0.879515 0.818570 0.636896
0.903227 0.826108 0.646418
0.917052 0.831235 0.667933
0.929870 0.837186 0.689509
0.941802 0.843839 0.710780
0.953002 0.851164 0.732082
0.963409 0.859007 0.753262
0.973144 0.867399 0.774441
0.643885 0.845945 0.616388
0.645777 0.846250 0.617762
0.647425 0.846342 0.618860
0.649714 0.845945 0.620081
0.652888 0.845121 0.621637
0.656733 0.843870 0.623468
0.661433 0.842252 0.625727
0.667018 0.840391 0.628473
0.673579 0.838285 0.631922
0.681056 0.836118 0.636133
0.689296 0.833738 0.640925
0.698146 0.831357 0.646448
0.707271 0.828733 0.652369
0.716487 0.825895 0.658564
0.725460 0.822751 0.664820
0.734432 0.819486 0.671473
0.744686 0.818662 0.672755
0.757107 0.819760 0.670558
0.771084 0.821164 0.668757
0.786496 0.822843 0.667353
0.802976 0.824674 0.666285
0.820218 0.826535 0.665309
0.837797 0.828244 0.663966
0.855619 0.829740 0.662409
0.873442 0.831022 0.660395
0.891997 0.832883 0.658961
0.915465 0.841398 0.668421
0.928801 0.846006 0.687648
0.940826 0.851896 0.708949
0.952148 0.858518 0.730373
0.962799 0.865843 0.751827
0.972747 0.873808 0.773465
0.665736 0.857755 0.635676
0.667384 0.858091 0.636835
0.668879 0.858183 0.637842
0.670954 0.857847 0.639002
0.673640 0.857115 0.640375
0.677150 0.856077 0.642054
0.681392 0.854734 0.644221
0.686458 0.853178 0.646815
0.692561 0.851438 0.650141
0.699458 0.849668 0.654139
0.707088 0.847776 0.658747
0.715389 0.845792 0.663966
0.723964 0.843656 0.669581
0.732631 0.841337 0.675410
0.741176 0.838743 0.681422
0.749630 0.835996 0.687617
0.758175 0.833219 0.694270
0.768826 0.834104 0.693111
0.781033 0.835508 0.691768
0.794522 0.837125 0.690639
0.808988 0.838895 0.689784
0.824247 0.840696 0.688991
0.839994 0.842374 0.688045
0.856077 0.843992 0.686915
0.872343 0.845396 0.685573
0.888701 0.846708 0.683894
0.905241 0.848051 0.682338
0.928313 0.857267 0.692073
0.941283 0.861875 0.710292
0.952697 0.867918 0.731960
0.963500 0.874754 0.753872
0.973510 0.882139 0.775784
0.688960 0.870329 0.656489
0.690211 0.870512 0.657435
0.691188 0.870451 0.658045
0.692775 0.870054 0.658839
0.694789 0.869291 0.659754
0.697658 0.868254 0.661067
0.701137 0.866972 0.662684
0.705531 0.865568 0.664942
0.710903 0.864012 0.667872
0.717067 0.862455 0.671473
0.723964 0.860807 0.675715
0.731594 0.859159 0.680568
0.739528 0.857359 0.685817
0.747616 0.855375 0.691310
0.755581 0.853117 0.696895
0.763546 0.850736 0.702754
0.771450 0.848264 0.708827
0.779965 0.846738 0.713252
0.790524 0.848081 0.712062
0.802274 0.849668 0.711116
0.815061 0.851377 0.710475
0.828580 0.853117 0.709895
0.842679 0.854826 0.709255
0.857176 0.856474 0.708522
0.871946 0.857939 0.707515
0.886870 0.859312 0.706325
0.902068 0.860716 0.705135
0.917388 0.862058 0.703914
0.939452 0.871336 0.713344
0.952209 0.876005 0.730953
0.963165 0.882292 0.753170
0.973327 0.889128 0.775326
0.709255 0.881590 0.675013
0.710201 0.881651 0.675715
0.711025 0.881621 0.676265
0.712520 0.881285 0.677028
0.714687 0.880766 0.678187
0.717739 0.880125 0.679896
0.721889 0.879515 0.682429
0.726986 0.878813 0.685542
0.733120 0.878172 0.689509
0.739986 0.877501 0.694118
0.747463 0.876768 0.699245
0.755398 0.875944 0.704829
0.763424 0.874907 0.710597
0.771420 0.873625 0.716335
0.779263 0.872068 0.722133
0.786740 0.870207 0.727749
0.794156 0.868193 0.733577
0.801602 0.866209 0.739681
0.810178 0.866178 0.741909
0.820096 0.867704 0.741238
0.830869 0.869291 0.740749
0.842435 0.870909 0.740414
0.854490 0.872526 0.739925
0.867002 0.874083 0.739406
0.879820 0.875517 0.738735
0.892973 0.876921 0.737942
0.906401 0.878294 0.737179
0.920073 0.879667 0.736385
0.933989 0.881193 0.735927
0.954498 0.890318 0.745235
0.966461 0.894774 0.761929
0.976226 0.900664 0.783658
0.737697 0.896330 0.701595
0.738369 0.896330 0.702083
0.738918 0.896208 0.702388
0.739925 0.895842 0.702846
0.741573 0.895262 0.703639
0.743862 0.894530 0.704860
0.746944 0.893736 0.706569
0.750851 0.892912 0.708888
0.755550 0.892027 0.711788
0.760983 0.891081 0.715328
0.766903 0.890074 0.719234
0.773342 0.888975 0.723659
0.780087 0.887785 0.728359
