data/fiter_cube/44540723/1023233/file.cube
# Created by Adobe Lightroom plugin Export LUT (1.17.0)
# www.johnrellis.com/lightroom/exportlut.htm
# Preset: 奶油色调低饱和（弱光环境）_04 云集
# Color profile: C:\Program Files (x86)\Common Files\Adobe\Color\Profiles\Recommended\AdobeRGB1998.icc
LUT_3D_SIZE 5
DOMAIN_MIN 0.000000 0.000000 0.000000
DOMAIN_MAX 0.903226 0.903226 0.903226
0.074922 0.071351 0.069123
0.307805 0.091432 0.103700
0.734157 0.231113 0.231693
0.899229 0.495125 0.448951
0.979004 0.662074 0.620752
0.084108 0.318029 0.124758
0.269810 0.325200 0.148226
0.698177 0.436866 0.305913
0.883909 0.570001 0.484718
0.974517 0.699519 0.644190
0.314855 0.669306 0.355169
0.410559 0.650965 0.398932
0.664790 0.664393 0.427863
0.856474 0.706203 0.567437
0.953948 0.771145 0.688045
0.586023 0.816220 0.566766
0.620233 0.810300 0.585260
0.698543 0.790921 0.636378
0.823087 0.800046 0.619471
0.943603 0.837095 0.714473
0.757137 0.906889 0.720241
0.769497 0.904143 0.727504
0.800595 0.892912 0.746304
0.855192 0.891325 0.775998
0.931029 0.903075 0.777493
0.000000 0.100435 0.332616
0.327916 0.000000 0.356115
0.714382 0.272343 0.406714
0.879332 0.512932 0.531823
0.970031 0.662776 0.649866
0.000000 0.367651 0.318517
0.351751 0.372290 0.374365
0.700801 0.464179 0.452461
0.868711 0.579583 0.553613
0.964782 0.693904 0.663752
0.326421 0.677790 0.403967
0.492592 0.663539 0.489326
0.665248 0.656519 0.512505
0.844175 0.708614 0.620447
0.950530 0.772030 0.708278
0.606195 0.816861 0.595361
0.653132 0.811032 0.624048
0.719692 0.793515 0.663661
0.825315 0.799832 0.654902
0.941344 0.838773 0.737484
0.766781 0.907164 0.734310
0.778317 0.904509 0.740719
0.815335 0.897856 0.765469
0.862516 0.893523 0.792721
0.933410 0.905028 0.792935
0.000000 0.181704 0.673335
0.121523 0.137484 0.684810
0.714290 0.152163 0.676173
0.857633 0.525475 0.667933
0.963500 0.658137 0.721950
0.185946 0.489967 0.650690
0.296483 0.415808 0.668116
0.713649 0.416205 0.675715
0.854185 0.587640 0.676997
0.962676 0.686213 0.728023
0.304448 0.702480 0.622522
0.470161 0.693812 0.635706
0.713191 0.680293 0.675227
0.850828 0.717159 0.708400
0.951507 0.771786 0.759060
0.559655 0.826902 0.612238
0.628565 0.817990 0.643885
0.760830 0.804593 0.721645
0.836912 0.804654 0.733516
0.938811 0.845243 0.794705
0.742397 0.910613 0.732692
0.769467 0.908415 0.750362
0.829465 0.902098 0.792081
0.871153 0.892607 0.822599
0.934051 0.904204 0.821164
0.000000 0.321874 0.825711
0.000000 0.285832 0.829160
0.631525 0.213321 0.839628
0.865080 0.423194 0.820188
0.945892 0.673030 0.816770
0.297704 0.539208 0.810025
0.323735 0.480995 0.816678
0.640131 0.425513 0.828885
0.858732 0.515679 0.814878
0.942199 0.697108 0.816922
0.502464 0.725246 0.782559
0.575860 0.720729 0.782528
0.677821 0.679927 0.803220
0.849119 0.677241 0.807492
0.943481 0.755856 0.823117
0.561395 0.833951 0.769406
0.613825 0.828305 0.772854
0.732143 0.818509 0.787625
0.853971 0.812985 0.814511
0.946136 0.841855 0.842679
0.698512 0.922301 0.748226
0.727596 0.919493 0.760861
0.804349 0.913024 0.799802
0.888579 0.905058 0.856016
0.940002 0.907774 0.868040
0.200504 0.488930 0.933318
0.284459 0.448219 0.935302
0.587091 0.407416 0.937804
0.832120 0.329992 0.943786
0.955993 0.571771 0.924285
0.416602 0.605982 0.924071
0.424079 0.566888 0.927001
0.607111 0.512108 0.931762
0.828611 0.450355 0.938537
0.953399 0.609308 0.922362
0.628351 0.773159 0.904662
0.653376 0.765469 0.906889
0.665400 0.699184 0.916686
0.820310 0.651362 0.926818
0.949248 0.703059 0.920592
0.665187 0.864714 0.898466
0.688563 0.860502 0.898070
0.756802 0.847776 0.898405
0.822751 0.808530 0.914702
0.948791 0.816342 0.924224
0.706172 0.932311 0.885405
0.724819 0.930419 0.887053
0.784512 0.925444 0.894499
0.866300 0.918883 0.908354
0.953063 0.917510 0.933349
