data/fiter_cube/44540723/1023233/file.cube
# Created by Adobe Lightroom plugin Export LUT (1.17.0)
# www.johnrellis.com/lightroom/exportlut.htm
# Preset: 奶油色调低饱和（弱光环境）_04 云集
# Color profile: C:\Program Files (x86)\Common Files\Adobe\Color\Profiles\Recommended\AdobeRGB1998.icc
LUT_3D_SIZE 8
DOMAIN_MIN 0.000000 0.000000 0.000000
DOMAIN_MAX 0.903226 0.903226 0.903226
0.074922 0.071351 0.069123
0.141970 0.087648 0.084779
0.384894 0.080171 0.112215
0.649226 0.140627 0.177768
0.793515 0.313451 0.289586
0.881468 0.462654 0.417639
0.939483 0.573541 0.527398
0.979004 0.662074 0.620752
0.090517 0.143709 0.091035
0.134340 0.149813 0.097139
0.354986 0.196689 0.131777
0.624262 0.251408 0.197665
0.777890 0.363928 0.301610
0.869291 0.480385 0.418402
0.930755 0.578241 0.522484
0.974334 0.664973 0.617762
0.082582 0.383368 0.144839
0.145235 0.369818 0.172946
0.331456 0.387091 0.176852
0.601740 0.443122 0.270603
0.761318 0.506584 0.375433
0.859068 0.570733 0.469917
0.927398 0.643610 0.566033
0.971557 0.706844 0.647089
0.215244 0.597772 0.280522
0.258579 0.588495 0.297002
0.367895 0.563043 0.354528
0.585595 0.599390 0.351385
0.764523 0.634699 0.438544
0.847776 0.672877 0.549798
0.913481 0.709621 0.611780
0.960815 0.749844 0.673732
0.409094 0.724117 0.425422
0.430945 0.719570 0.434638
0.496925 0.706538 0.468116
0.588739 0.699702 0.501762
0.715908 0.707210 0.485237
0.831540 0.723415 0.532799
0.896971 0.756100 0.632502
0.947692 0.793393 0.705959
0.549004 0.797543 0.536065
0.568688 0.799008 0.548302
0.604547 0.790799 0.567224
0.655146 0.778256 0.599207
0.716976 0.776455 0.604578
0.803891 0.782895 0.594324
0.894102 0.802121 0.631128
0.944579 0.829496 0.716182
0.665736 0.857755 0.635676
0.673640 0.857115 0.640375
0.692561 0.851438 0.650141
0.723964 0.843656 0.669581
0.758175 0.833219 0.694270
0.808988 0.838895 0.689784
0.872343 0.845396 0.685573
0.941283 0.861875 0.710292
0.757137 0.906889 0.720241
0.760678 0.905943 0.722194
0.773922 0.903441 0.730434
0.797177 0.900328 0.746883
0.814603 0.890410 0.757412
0.845670 0.889433 0.775448
0.886320 0.896971 0.777615
0.931029 0.903075 0.777493
0.058137 0.082826 0.151400
0.147280 0.073915 0.161105
0.377935 0.079988 0.190311
0.634852 0.194736 0.270665
0.778622 0.340215 0.354620
0.865904 0.464576 0.446967
0.927825 0.566033 0.535882
0.972351 0.654170 0.621424
0.073121 0.163424 0.147799
0.154940 0.170474 0.174716
0.379004 0.216129 0.220523
0.622309 0.285283 0.286198
0.769467 0.387304 0.365454
0.858518 0.486885 0.451972
0.920867 0.573602 0.533776
0.967529 0.656428 0.617609
0.085054 0.392706 0.181338
0.198520 0.394049 0.246464
0.356420 0.397925 0.264347
0.597528 0.456519 0.348119
0.752468 0.510613 0.416388
0.846983 0.566552 0.488655
0.914672 0.629999 0.564538
0.964111 0.695766 0.642298
0.239811 0.594263 0.312810
0.304631 0.588830 0.344701
0.404242 0.568597 0.393500
0.575280 0.585962 0.386664
0.741695 0.617762 0.454994
0.830014 0.655909 0.545434
0.900572 0.694423 0.603754
0.953704 0.739437 0.667353
0.435462 0.722530 0.452918
0.453529 0.717342 0.459358
0.510796 0.703090 0.485939
0.587610 0.690272 0.515007
0.705592 0.696559 0.495949
0.821256 0.715328 0.542626
0.889769 0.750576 0.636255
0.943359 0.788022 0.703944
0.555352 0.792874 0.545159
0.566796 0.790707 0.550561
0.601984 0.783017 0.568505
0.653437 0.772061 0.600580
0.714900 0.771298 0.611048
0.801846 0.780270 0.604242
0.890532 0.799649 0.639033
0.941131 0.826444 0.717800
0.661128 0.852110 0.633875
0.665644 0.849882 0.635492
0.686122 0.845060 0.646326
0.720394 0.838926 0.667964
0.756741 0.830137 0.694301
0.805722 0.834958 0.690883
0.867369 0.840421 0.684321
0.936400 0.856657 0.707515
0.753902 0.904173 0.718563
0.758450 0.903716 0.721431
0.772274 0.901488 0.730068
0.796017 0.898619 0.746700
0.821958 0.893706 0.766415
0.848966 0.890623 0.781643
0.885893 0.896086 0.779782
0.929320 0.901213 0.777371
0.000000 0.108431 0.404578
0.000000 0.087984 0.422461
0.407996 0.000000 0.423377
0.622248 0.218387 0.426612
0.775082 0.353063 0.470100
0.865324 0.499367 0.543847
0.926085 0.594873 0.606592
0.971466 0.671077 0.666651
0.000000 0.244938 0.395056
0.000000 0.201602 0.414191
0.411170 0.173709 0.424659
0.620630 0.299443 0.434730
0.771817 0.398871 0.476600
0.858488 0.519371 0.545892
0.920867 0.602930 0.605249
0.968383 0.676204 0.666011
0.000000 0.437018 0.375799
0.156130 0.440162 0.392096
0.426795 0.435554 0.434791
0.626001 0.478737 0.472053
0.764523 0.536614 0.522026
0.849210 0.591363 0.570214
0.913329 0.648249 0.622370
0.962676 0.705135 0.677668
0.196994 0.618402 0.355505
0.298802 0.615564 0.394171
0.497658 0.605097 0.492744
0.613123 0.606378 0.508446
0.751125 0.642817 0.565179
0.835752 0.674647 0.610651
0.903105 0.709468 0.652796
0.954650 0.748928 0.700191
0.416999 0.730617 0.469612
0.465980 0.727108 0.494667
0.572290 0.716060 0.554467
0.634394 0.699855 0.589349
0.725399 0.707759 0.576593
0.824430 0.727596 0.615015
0.890135 0.761990 0.682704
0.944213 0.793606 0.728023
0.558740 0.797116 0.563195
0.585626 0.794675 0.579675
0.639887 0.786770 0.612329
0.681483 0.775753 0.635004
0.729366 0.770901 0.649897
0.804715 0.780056 0.643244
0.888212 0.801358 0.675410
0.940795 0.831418 0.744961
0.672847 0.855619 0.652674
0.685389 0.853513 0.660945
0.708400 0.848051 0.673854
0.736751 0.840940 0.689601
0.769192 0.832151 0.711452
0.812711 0.835691 0.714748
0.872251 0.843809 0.711971
0.939025 0.862272 0.737881
0.761593 0.905364 0.731075
0.767422 0.904051 0.735042
0.779141 0.901457 0.741451
0.803891 0.899687 0.758785
0.828275 0.894713 0.776364
0.854337 0.890898 0.795071
0.889525 0.897185 0.794064
0.931853 0.903288 0.792935
0.000000 0.151034 0.602960
0.000000 0.132998 0.611566
0.335149 0.000000 0.629847
0.641108 0.000000 0.612848
0.752316 0.378027 0.592767
0.847410 0.492226 0.618372
0.915801 0.581231 0.653986
0.968200 0.655573 0.695338
0.000000 0.295537 0.600397
0.000000 0.248173 0.608026
0.347356 0.190555 0.625513
0.641932 0.214786 0.613306
0.750790 0.428595 0.598260
0.844968 0.515251 0.621088
0.913420 0.593042 0.654932
0.965881 0.668086 0.700130
0.117037 0.499977 0.574182
0.248081 0.498970 0.576287
0.394385 0.450568 0.603326
0.640406 0.444434 0.611261
0.755947 0.536004 0.615656
0.846921 0.593133 0.642176
0.915618 0.655177 0.680842
0.963531 0.709834 0.719783
0.187228 0.639796 0.559380
0.285466 0.637934 0.566064
0.477485 0.631495 0.587488
0.650660 0.624842 0.619409
0.758236 0.649592 0.641657
0.837308 0.678035 0.666651
0.903014 0.712398 0.697444
0.955230 0.751644 0.734646
0.379156 0.748531 0.512016
0.429877 0.743771 0.528496
0.558740 0.731960 0.581079
0.687434 0.720607 0.652979
0.747250 0.719265 0.659907
0.830381 0.744045 0.693050
0.894377 0.771847 0.727443
0.946532 0.798337 0.758419
0.543603 0.809018 0.583886
0.576501 0.809018 0.601709
0.647639 0.799802 0.639765
0.723445 0.790249 0.686580
0.759854 0.779507 0.707698
0.817502 0.787716 0.700069
0.890501 0.809171 0.728450
0.940826 0.838621 0.781979
0.658961 0.861112 0.658808
0.674006 0.859922 0.667933
0.716762 0.855680 0.694789
0.764370 0.849912 0.726009
0.794125 0.842039 0.743954
0.827420 0.840696 0.753017
0.878172 0.847593 0.747921
0.939605 0.866056 0.772580
0.755612 0.910582 0.736355
0.763699 0.909880 0.741909
0.787564 0.906889 0.758511
0.815274 0.903044 0.777554
0.838437 0.898070 0.792782
0.862791 0.893034 0.812284
0.894224 0.898558 0.814420
0.934813 0.905486 0.814054
0.000000 0.216739 0.725795
0.000000 0.193637 0.729122
0.226078 0.166415 0.735317
0.596948 0.000000 0.747005
0.771786 0.259403 0.728206
0.838010 0.485237 0.702876
0.901366 0.594293 0.722469
0.958251 0.663172 0.750271
0.000000 0.337835 0.720302
0.000000 0.304021 0.725185
0.271092 0.263279 0.732387
0.597620 0.178897 0.743069
0.769772 0.332158 0.726589
0.836179 0.514397 0.704799
0.900908 0.608148 0.724697
0.957763 0.670954 0.751431
0.287083 0.547387 0.699611
0.345708 0.544182 0.703517
0.382788 0.475410 0.715480
0.601373 0.439582 0.731502
0.763088 0.482551 0.721035
0.827695 0.588647 0.707729
0.898039 0.644953 0.728450
0.955505 0.692683 0.752346
0.343999 0.663905 0.691402
0.395941 0.660853 0.691890
0.524956 0.653376 0.694972
0.627588 0.626307 0.714687
0.760525 0.625422 0.719387
0.828733 0.670344 0.720729
0.899290 0.698238 0.737667
0.956329 0.730983 0.758419
0.398810 0.747768 0.671443
0.440223 0.745693 0.674800
0.547356 0.738277 0.684688
0.666377 0.729793 0.701076
0.761105 0.724056 0.720058
0.832456 0.740047 0.734646
0.895567 0.762142 0.754757
0.948241 0.789853 0.780850
0.492531 0.815183 0.606683
0.522087 0.812528 0.616480
0.602716 0.803342 0.646082
0.696712 0.793240 0.689204
0.775753 0.784970 0.735409
0.823270 0.788479 0.744747
0.891569 0.814969 0.777188
0.942077 0.840665 0.810178
0.631250 0.867033 0.668513
0.645655 0.865049 0.675013
0.690089 0.859800 0.696803
0.750210 0.853788 0.730678
0.807004 0.847715 0.767605
0.836728 0.840635 0.785977
0.881132 0.848020 0.780423
0.938415 0.867002 0.805112
0.731838 0.912963 0.734249
0.739590 0.911925 0.738552
0.764981 0.908782 0.753384
0.807797 0.906920 0.782437
0.845029 0.902007 0.808347
0.869841 0.896544 0.825711
0.897032 0.898131 0.834897
0.935729 0.905364 0.833585
0.000000 0.304662 0.811673
0.000000 0.275486 0.813413
0.191562 0.261875 0.814664
0.527977 0.215152 0.821164
0.748745 0.161685 0.828275
0.850797 0.400824 0.805356
0.901640 0.572320 0.788571
0.948211 0.677974 0.806546
0.000000 0.393103 0.803006
0.000000 0.367102 0.804776
0.244999 0.328893 0.808530
0.533806 0.296330 0.815702
0.746090 0.254856 0.824002
0.847318 0.434241 0.802182
0.899351 0.586908 0.787655
0.947326 0.683497 0.806241
0.375463 0.580987 0.789792
0.380499 0.567224 0.791684
0.399969 0.510704 0.799283
0.564569 0.478035 0.807614
0.744411 0.449500 0.817227
0.843565 0.534173 0.799588
0.896269 0.637415 0.790280
0.947021 0.706844 0.809110
0.481300 0.688441 0.771786
0.504356 0.686061 0.773007
0.576898 0.680446 0.780087
0.623621 0.641535 0.795956
0.746670 0.621210 0.809293
0.843473 0.645624 0.801144
0.895201 0.704005 0.797910
0.948608 0.743069 0.815152
0.493233 0.764401 0.771145
0.519402 0.762325 0.771511
0.593927 0.755734 0.772702
0.682887 0.747311 0.775540
0.744656 0.724910 0.790921
0.837034 0.723323 0.795621
0.891722 0.755612 0.799924
0.948638 0.777768 0.815396
0.529625 0.816434 0.748959
0.553307 0.815763 0.751858
0.615198 0.810941 0.757809
0.691585 0.804685 0.767147
0.764675 0.798795 0.778897
0.838071 0.797269 0.797452
0.897215 0.813901 0.813657
0.947692 0.833921 0.833127
0.609308 0.874052 0.710872
0.625086 0.873747 0.714870
0.667903 0.871244 0.724300
0.729335 0.865995 0.746761
0.794553 0.859220 0.778775
0.855314 0.852842 0.817472
0.890074 0.853758 0.822751
0.942596 0.875242 0.850370
0.707179 0.920409 0.744869
0.715389 0.919310 0.748379
0.742428 0.916075 0.760861
0.784726 0.912444 0.783108
0.832578 0.907866 0.811704
0.878202 0.903197 0.844297
0.903746 0.899504 0.862577
0.939269 0.907469 0.860990
0.000000 0.393072 0.876005
0.000000 0.372229 0.877806
0.237156 0.351415 0.879454
0.498054 0.326085 0.882261
0.692287 0.283574 0.886046
0.835416 0.318944 0.884855
0.907744 0.492592 0.866606
0.950042 0.636469 0.856352
0.000000 0.455909 0.870146
0.066468 0.437385 0.871977
0.278355 0.399145 0.874846
0.505791 0.375250 0.877470
0.690852 0.338872 0.881651
0.832303 0.357336 0.881376
0.904356 0.508232 0.863249
0.947417 0.641047 0.853605
0.403937 0.601465 0.860166
0.407233 0.589776 0.861387
0.419379 0.542626 0.865690
0.542626 0.507744 0.870146
0.697383 0.481422 0.874937
0.831479 0.473884 0.878416
0.902434 0.575738 0.862547
0.946929 0.677058 0.856443
0.551537 0.714534 0.846616
0.565942 0.711879 0.847105
0.598901 0.698207 0.850614
0.608392 0.647578 0.859129
0.710384 0.621149 0.866239
0.831327 0.600336 0.875608
0.900694 0.655238 0.862577
0.945434 0.724331 0.859373
0.581231 0.777310 0.834409
0.595331 0.775570 0.833921
0.639796 0.770748 0.833341
0.694148 0.761807 0.840330
0.724300 0.723445 0.853391
0.819242 0.704097 0.865019
0.896452 0.723507 0.859525
0.942382 0.773922 0.861479
0.592035 0.838346 0.837278
0.605554 0.836790 0.837430
0.647120 0.831662 0.838010
0.704524 0.823758 0.839536
0.767666 0.813474 0.841581
0.819699 0.794095 0.856138
0.897337 0.795590 0.862303
0.942901 0.824765 0.868467
0.626184 0.876982 0.819120
0.637812 0.876341 0.820462
0.672328 0.873472 0.823819
0.721767 0.869413 0.829709
0.778653 0.864256 0.837522
0.839048 0.859800 0.848875
0.898955 0.858915 0.865568
0.947387 0.873930 0.880919
0.684016 0.920531 0.787106
0.692042 0.920165 0.788663
0.720150 0.920012 0.795346
0.759915 0.919188 0.804135
0.809964 0.916869 0.820737
0.865385 0.912291 0.851347
0.915526 0.908476 0.887236
0.944884 0.911315 0.894560
0.200504 0.488930 0.933318
0.212589 0.473274 0.934447
0.330266 0.444343 0.935424
0.505638 0.422827 0.936767
0.663661 0.388830 0.938964
0.801114 0.342535 0.942535
0.900877 0.425116 0.938262
0.955993 0.571771 0.924285
0.289525 0.529839 0.929747
0.296208 0.515862 0.930846
0.355962 0.477272 0.932830
0.514885 0.456123 0.934203
0.665736 0.424353 0.936675
0.799893 0.381964 0.940429
0.899321 0.446326 0.936614
0.954589 0.581353 0.922881
0.456764 0.633509 0.921202
0.458869 0.624170 0.922118
0.462623 0.584833 0.924743
0.548943 0.550713 0.928740
0.676722 0.524254 0.931548
0.798734 0.489723 0.935576
0.897063 0.517723 0.934142
0.952453 0.619562 0.921569
0.605097 0.740169 0.910430
0.606043 0.734920 0.911406
0.606744 0.712947 0.913970
0.611627 0.666224 0.919738
0.693233 0.635554 0.924529
0.798734 0.609979 0.929686
0.894713 0.606256 0.932219
0.950530 0.674037 0.921111
0.647211 0.802090 0.898528
0.654749 0.800778 0.899504
0.676539 0.794278 0.901884
0.710964 0.780514 0.907164
0.713741 0.730739 0.915312
0.794186 0.705135 0.922148
0.890440 0.685969 0.930266
0.948516 0.734585 0.920836
0.660639 0.851225 0.896513
0.667750 0.849821 0.896269
0.691951 0.845426 0.895842
0.730465 0.838224 0.895872
0.774228 0.827085 0.900969
0.801785 0.792782 0.914275
0.883421 0.779080 0.926268
0.948882 0.801083 0.923796
0.672572 0.902617 0.901762
0.679225 0.901457 0.901701
0.701472 0.897612 0.901701
0.738338 0.891508 0.902464
0.785580 0.883146 0.903838
0.838956 0.873533 0.906188
0.883848 0.857115 0.919738
0.948882 0.860533 0.925994
0.706172 0.932311 0.885405
0.711696 0.931701 0.885863
0.731136 0.929870 0.887755
0.764248 0.927092 0.891752
0.806424 0.923552 0.897673
0.853941 0.919738 0.905821
0.903838 0.916869 0.917144
0.953063 0.917510 0.933349
