data/fiter_cube/80369196/1023066/file.cube
# Created by Adobe Lightroom plugin Export LUT (1.17.0)
# www.johnrellis.com/lightroom/exportlut.htm
# Preset: Dream Travel_04
# Color profile: C:\Program Files (x86)\Common Files\Adobe\Color\Profiles\Recommended\AdobeRGB1998.icc
LUT_3D_SIZE 8
DOMAIN_MIN 0.000000 0.000000 0.000000
DOMAIN_MAX 0.903226 0.903226 0.903226
0.138796 0.138796 0.138796
0.239506 0.139528 0.139193
0.412360 0.142947 0.141360
0.628321 0.144289 0.138613
0.815091 0.155917 0.145113
0.966125 0.191592 0.178836
1.000000 0.228031 0.216556
1.000000 0.255863 0.246433
0.169741 0.214664 0.168307
0.233310 0.199710 0.148867
0.385290 0.215854 0.143709
0.588128 0.224338 0.142763
0.785611 0.231662 0.147005
0.940337 0.246128 0.173709
1.000000 0.262882 0.208255
1.000000 0.280186 0.239933
0.248112 0.380529 0.241886
0.294285 0.363012 0.264714
0.378424 0.302281 0.168093
0.543938 0.330694 0.155886
0.770779 0.380621 0.155673
0.928985 0.382300 0.182925
1.000000 0.382147 0.224949
1.000000 0.376196 0.255924
0.365576 0.606806 0.351629
0.404181 0.589990 0.365911
0.491096 0.565240 0.398260
0.590661 0.459083 0.202457
0.748562 0.438178 0.180270
0.915404 0.530999 0.196780
1.000000 0.510063 0.230991
1.000000 0.484932 0.258854
0.533654 0.810788 0.518730
0.560815 0.802365 0.530541
0.638544 0.780026 0.577081
0.702846 0.760952 0.504875
0.752895 0.581323 0.233982
0.834989 0.482246 0.198306
0.979767 0.580652 0.222385
1.000000 0.597681 0.255894
0.679133 0.914977 0.668055
0.706325 0.917937 0.688014
0.750637 0.904967 0.712490
0.806027 0.885283 0.753536
0.836790 0.863737 0.587579
0.884398 0.684260 0.277867
0.940795 0.537469 0.218875
1.000000 0.619440 0.253910
0.790860 0.974060 0.783474
0.800961 0.972808 0.789700
0.824125 0.964843 0.801144
0.860136 0.953124 0.824308
0.884428 0.940642 0.824460
0.925719 0.928283 0.656641
0.981506 0.764889 0.332677
1.000000 0.577356 0.227543
0.854063 0.998657 0.849119
0.858366 0.997467 0.851225
0.873716 0.993530 0.859770
0.898619 0.987335 0.876005
0.917662 0.975830 0.886717
0.931273 0.974640 0.856687
0.986145 0.971588 0.720882
1.000000 0.825467 0.401068
0.141573 0.178286 0.208011
0.206607 0.166445 0.204746
0.383978 0.153567 0.199039
0.579492 0.165225 0.223117
0.779904 0.175845 0.229557
0.931060 0.209262 0.247898
1.000000 0.242649 0.268528
1.000000 0.269413 0.287236
0.145510 0.228122 0.217838
0.218875 0.211673 0.208927
0.366339 0.219730 0.213565
0.560967 0.229892 0.220584
0.765560 0.239750 0.226963
0.916350 0.256596 0.242985
1.000000 0.272709 0.260319
1.000000 0.288701 0.278508
0.234440 0.370916 0.262943
0.290959 0.352209 0.283207
0.359045 0.299107 0.221592
0.523857 0.344427 0.218082
0.740383 0.371679 0.224552
0.899931 0.376928 0.241520
1.000000 0.377478 0.264561
1.000000 0.376959 0.287541
0.346990 0.576135 0.359747
0.390784 0.563775 0.376074
0.480323 0.542290 0.426093
0.537926 0.426703 0.243107
0.693111 0.423560 0.223239
0.869749 0.506065 0.237034
0.989197 0.496193 0.260410
1.000000 0.480385 0.284520
0.528710 0.798032 0.529473
0.552880 0.787991 0.537255
0.624445 0.762814 0.573907
0.675837 0.732540 0.513146
0.713375 0.555261 0.261784
0.808957 0.478492 0.229679
0.962982 0.580407 0.254337
1.000000 0.593988 0.283848
0.669856 0.904540 0.666285
0.685664 0.901183 0.673976
0.731655 0.888914 0.698268
0.791684 0.872007 0.741909
0.823697 0.851987 0.598444
0.871702 0.677790 0.304326
0.931579 0.540642 0.246036
1.000000 0.622370 0.278599
0.780423 0.967773 0.776699
0.786130 0.964721 0.778134
0.812192 0.957488 0.791653
0.852903 0.947662 0.818814
0.882109 0.936217 0.828367
0.917845 0.922210 0.663661
0.967864 0.756283 0.345159
1.000000 0.574212 0.241245
0.852628 0.997620 0.849790
0.857908 0.996643 0.852842
0.873686 0.992859 0.861692
0.898985 0.986969 0.878111
0.923949 0.978454 0.896208
0.934783 0.975647 0.868284
0.983734 0.970916 0.732570
1.000000 0.824613 0.415320
0.117128 0.259892 0.343542
0.199863 0.247135 0.302556
0.332006 0.227176 0.323888
0.614710 0.171298 0.280186
0.796445 0.177005 0.336767
0.933104 0.261601 0.398749
1.000000 0.329107 0.422858
1.000000 0.367193 0.435920
0.155703 0.301915 0.365911
0.229160 0.281041 0.326909
0.336889 0.259129 0.322026
0.578607 0.234531 0.304021
0.772671 0.232334 0.353948
0.919036 0.292088 0.388342
1.000000 0.341772 0.410895
1.000000 0.375891 0.427283
0.185946 0.387762 0.363897
0.248051 0.365209 0.347051
0.337591 0.321172 0.314611
0.524010 0.347295 0.333562
0.750759 0.376043 0.358679
0.904143 0.398047 0.381750
1.000000 0.418280 0.405097
1.000000 0.432349 0.422431
0.294316 0.603326 0.432898
0.351293 0.588067 0.431983
0.468666 0.539635 0.452674
0.512108 0.425544 0.333440
0.707820 0.483497 0.341375
0.876646 0.520134 0.369055
0.992218 0.523308 0.397375
1.000000 0.519005 0.418189
0.492866 0.801358 0.558190
0.532433 0.789303 0.570092
0.622797 0.760952 0.606592
0.686671 0.735836 0.616358
0.701747 0.560235 0.354406
0.817594 0.522728 0.331518
0.963439 0.623133 0.374853
1.000000 0.614618 0.404761
0.666773 0.905882 0.691463
0.689906 0.900267 0.703670
0.737240 0.887205 0.725246
0.792782 0.870054 0.757992
0.814420 0.845579 0.666773
0.848966 0.673335 0.385809
0.925811 0.568536 0.331304
1.000000 0.657374 0.384161
0.798703 0.970306 0.808164
0.805325 0.967803 0.810452
0.826688 0.960235 0.818936
0.861021 0.949767 0.837705
0.894347 0.936828 0.862913
0.913359 0.923003 0.723690
0.962615 0.768185 0.435737
1.000000 0.605127 0.325322
0.867613 0.998383 0.871946
0.869780 0.997253 0.872038
0.883055 0.993683 0.878264
0.908354 0.988861 0.894408
0.930785 0.981109 0.909148
0.942260 0.976745 0.896178
0.979339 0.972534 0.780026
1.000000 0.837797 0.497230
0.031464 0.366705 0.504601
0.189395 0.351385 0.469429
0.314397 0.328283 0.357122
0.472969 0.297826 0.459663
0.832303 0.216983 0.375921
0.940795 0.297826 0.444343
1.000000 0.402777 0.524132
1.000000 0.497139 0.597711
0.159426 0.408820 0.531456
0.228916 0.386297 0.494331
0.327672 0.345586 0.379461
0.479225 0.320439 0.461402
0.817777 0.276585 0.400671
0.927794 0.336004 0.461646
1.000000 0.424964 0.535943
1.000000 0.506737 0.600122
0.126741 0.499092 0.576715
0.216312 0.478004 0.558129
0.354406 0.399725 0.446265
0.496071 0.379706 0.459510
0.769436 0.397192 0.463569
0.903624 0.453407 0.531640
0.999054 0.528771 0.597040
1.000000 0.553948 0.607050
0.202457 0.620813 0.577264
0.267552 0.599756 0.559960
0.385931 0.533227 0.505516
0.474708 0.445777 0.433906
0.693446 0.499886 0.479438
0.861692 0.541131 0.523522
0.978882 0.577478 0.564324
1.000000 0.598657 0.589624
0.414984 0.823514 0.644831
0.458839 0.808377 0.639796
0.563867 0.763058 0.630152
0.666926 0.714076 0.651972
0.657893 0.550225 0.455299
0.823758 0.606806 0.486152
0.959228 0.661860 0.542199
1.000000 0.665339 0.570550
0.640436 0.921935 0.729610
0.674983 0.921019 0.744625
0.730709 0.898466 0.757595
0.794675 0.875578 0.783017
0.823514 0.853788 0.765225
0.826780 0.682765 0.502312
0.926818 0.635706 0.471351
1.000000 0.726589 0.542992
0.782315 0.976501 0.819699
0.797177 0.974304 0.827481
0.836545 0.966644 0.848356
0.874784 0.958099 0.867613
0.907713 0.947509 0.887816
0.914702 0.930510 0.807218
0.948547 0.784360 0.548852
1.000000 0.656275 0.446937
0.872251 1.000000 0.888792
0.880552 1.000000 0.894163
0.903166 0.996948 0.908690
0.919188 0.992401 0.915068
0.939574 0.985657 0.926299
0.954345 0.979095 0.932250
0.973541 0.974823 0.839872
1.000000 0.856565 0.598566
0.000000 0.489784 0.682979
0.141573 0.477119 0.659541
0.318059 0.435309 0.562341
0.405554 0.407416 0.414221
0.649287 0.379522 0.630457
0.947021 0.384314 0.542596
1.000000 0.464057 0.572351
1.000000 0.543908 0.635218
0.111727 0.517144 0.696529
0.200534 0.504784 0.676570
0.335790 0.457893 0.583795
0.416968 0.417548 0.419471
0.650965 0.399908 0.629084
0.946502 0.420935 0.543542
1.000000 0.493324 0.590967
1.000000 0.563409 0.648554
0.175113 0.595880 0.745815
0.274846 0.581872 0.722042
0.378271 0.524407 0.641321
0.447089 0.455787 0.476173
0.653193 0.457008 0.620417
0.917540 0.501549 0.576318
0.996887 0.559136 0.633295
1.000000 0.610346 0.680751
0.199344 0.702480 0.768032
0.269505 0.690486 0.757687
0.408850 0.648493 0.721981
0.503593 0.542168 0.587304
0.666712 0.536797 0.609613
0.869200 0.589929 0.632685
0.970001 0.637324 0.687160
1.000000 0.680537 0.731868
0.317723 0.810330 0.756619
0.366796 0.798978 0.748196
0.472328 0.753658 0.712551
0.560082 0.680354 0.652216
0.607477 0.571618 0.556878
0.805234 0.640162 0.621607
0.943725 0.687129 0.673732
1.000000 0.713466 0.704738
0.541955 0.922728 0.778012
0.570947 0.916258 0.777493
0.641474 0.892058 0.770871
0.716915 0.853147 0.760067
0.783658 0.816739 0.771786
0.764401 0.658045 0.573175
0.917479 0.723690 0.625757
1.000000 0.774960 0.682399
0.743465 0.982788 0.838376
0.756832 0.979614 0.841276
0.797757 0.970245 0.851865
0.849393 0.957275 0.868009
0.894743 0.945892 0.887449
0.911101 0.930877 0.869230
0.919615 0.787716 0.632715
0.999390 0.724147 0.582177
0.848997 1.000000 0.891417
0.857023 1.000000 0.895018
0.881712 1.000000 0.906615
0.920043 0.995880 0.928557
0.942290 0.990173 0.938598
0.961425 0.983276 0.950164
0.967590 0.976501 0.893889
1.000000 0.870603 0.681025
0.000000 0.596246 0.823392
0.171359 0.589746 0.809934
0.333959 0.564355 0.753262
0.465553 0.535485 0.642969
0.519799 0.520195 0.569390
0.781888 0.500389 0.763241
0.996857 0.551904 0.717403
1.000000 0.604822 0.684382
0.162509 0.610193 0.823056
0.226169 0.602411 0.809567
0.353796 0.576562 0.757107
0.470497 0.542321 0.649226
0.520226 0.521538 0.564263
0.777920 0.510643 0.757565
0.994720 0.567468 0.716823
1.000000 0.618952 0.694179
0.332647 0.681697 0.855985
0.360479 0.673121 0.844297
0.436408 0.644190 0.799649
0.513817 0.594079 0.699428
0.545617 0.548547 0.571771
0.783658 0.562432 0.757687
0.994079 0.631800 0.727291
1.000000 0.672847 0.733272
0.359289 0.763363 0.898253
0.403845 0.758267 0.889403
0.515404 0.740932 0.857694
0.588190 0.686183 0.778592
0.594507 0.597009 0.603601
0.801541 0.640955 0.766506
0.990204 0.717617 0.759670
1.000000 0.742306 0.785611
0.419532 0.846464 0.888243
0.454810 0.842222 0.884550
0.542718 0.825254 0.870054
0.626795 0.787533 0.839353
0.647150 0.676722 0.713954
0.797055 0.686671 0.743465
0.955077 0.751797 0.780514
1.000000 0.784604 0.816464
0.503410 0.924895 0.874083
0.533684 0.921202 0.872801
0.600153 0.901640 0.859831
0.666865 0.863096 0.830381
0.709102 0.804562 0.780758
0.731411 0.697475 0.683772
0.914702 0.781460 0.768002
1.000000 0.818936 0.811063
0.697505 0.994598 0.891997
0.717098 0.992401 0.894133
0.763821 0.983429 0.896025
0.819791 0.969940 0.897215
0.867674 0.950988 0.894743
0.910216 0.931151 0.903380
0.883543 0.788235 0.712001
0.990906 0.826810 0.749508
0.825803 1.000000 0.911498
0.834195 1.000000 0.913634
0.860868 1.000000 0.920958
0.899199 1.000000 0.933410
0.935515 0.994598 0.946929
0.961913 0.988617 0.958740
0.970336 0.981262 0.947692
0.997589 0.888396 0.766384
0.228611 0.672877 0.907774
0.283635 0.673213 0.902037
0.401526 0.668666 0.874968
0.518578 0.657069 0.816373
0.598016 0.630640 0.697230
0.638605 0.625116 0.705745
0.872618 0.608850 0.857511
1.000000 0.655970 0.819944
0.279850 0.685512 0.908629
0.321508 0.684932 0.902800
0.419593 0.678035 0.876524
0.523003 0.661555 0.817685
0.596551 0.631189 0.699947
0.634913 0.623255 0.698909
0.867277 0.610163 0.851194
1.000000 0.657740 0.816007
0.411048 0.739345 0.926543
0.432105 0.736324 0.920531
0.492103 0.724483 0.896513
0.564904 0.700923 0.843778
0.618555 0.659663 0.734340
0.649958 0.644038 0.702205
0.873289 0.650294 0.854643
1.000000 0.706844 0.828153
0.488228 0.804837 0.953887
0.513817 0.803922 0.949310
0.588037 0.797330 0.928008
0.630304 0.767025 0.886320
0.660853 0.714443 0.794736
0.675013 0.675868 0.707362
0.882963 0.706874 0.860441
1.000000 0.768887 0.842649
0.522454 0.864134 0.960632
0.544610 0.862821 0.958679
0.610224 0.858671 0.952789
0.685359 0.845304 0.932708
0.712978 0.789120 0.865019
0.692653 0.693294 0.695155
0.885344 0.753323 0.857023
1.000000 0.829679 0.857176
0.583185 0.934020 0.957580
0.602686 0.932494 0.956451
0.658412 0.926818 0.952300
0.725032 0.915648 0.944549
0.778470 0.891783 0.928222
0.773434 0.800290 0.833799
0.898619 0.814389 0.860166
1.000000 0.873136 0.890532
0.662989 0.994873 0.952483
0.679011 0.992889 0.952117
0.721675 0.985443 0.949371
0.774533 0.973175 0.943603
0.818631 0.952056 0.929259
0.845609 0.915709 0.898833
0.843229 0.815000 0.803708
0.982513 0.889342 0.881468
0.783291 1.000000 0.943969
0.793484 1.000000 0.945251
0.828031 1.000000 0.950469
0.871946 1.000000 0.955657
0.915465 1.000000 0.960754
0.951110 0.993652 0.965942
0.976196 0.986419 0.973571
0.973693 0.901457 0.840909
0.375677 0.740658 0.966339
0.405768 0.742641 0.963256
0.484627 0.746059 0.949523
0.581720 0.750149 0.921904
0.665675 0.747616 0.868376
0.724025 0.734951 0.762448
0.761593 0.734493 0.830289
0.942535 0.708400 0.932403
0.401770 0.750088 0.967315
0.428229 0.751705 0.964294
0.499245 0.754025 0.951202
0.588006 0.755428 0.923827
0.667536 0.750668 0.871122
0.723293 0.735653 0.766140
0.760128 0.734737 0.827298
0.941497 0.711299 0.930938
0.478370 0.784024 0.974243
0.496071 0.784237 0.971405
0.545892 0.782437 0.959350
0.619593 0.781399 0.936217
0.684230 0.770321 0.887633
0.730282 0.747738 0.787961
0.765866 0.746761 0.826535
0.942596 0.733516 0.930907
0.576471 0.837613 0.986664
0.587976 0.837064 0.984588
0.619257 0.832303 0.975494
0.667048 0.823758 0.956207
0.714473 0.806485 0.916350
0.749264 0.776211 0.830411
0.778714 0.769192 0.827909
0.946624 0.771084 0.933440
0.583307 0.874052 0.997223
0.603815 0.876036 0.996216
0.656367 0.879362 0.991913
0.729274 0.881468 0.980316
0.755398 0.857145 0.951415
0.775448 0.817441 0.883940
0.790677 0.790646 0.822354
0.952026 0.816312 0.937102
0.631952 0.927398 0.995972
0.646326 0.927367 0.995422
0.691341 0.927306 0.993774
0.753140 0.926696 0.991394
0.811063 0.922271 0.984283
0.831357 0.889097 0.947845
0.818875 0.820066 0.823362
0.961334 0.870512 0.944915
0.697108 0.982208 0.994293
0.708736 0.981567 0.993988
0.745205 0.979522 0.992981
0.798398 0.976410 0.991547
0.853819 0.972045 0.989410
0.900420 0.964874 0.985595
0.892729 0.914733 0.940917
0.968444 0.917113 0.949065
0.767788 1.000000 0.989685
0.776333 1.000000 0.989593
0.804990 1.000000 0.989380
0.848051 1.000000 0.989166
0.892729 1.000000 0.988556
0.929747 0.997955 0.986542
0.951751 0.985992 0.978576
0.940795 0.925292 0.919188
