data/fiter_cube/80369196/1023066/file.cube
# Created by Adobe Lightroom plugin Export LUT (1.17.0)
# www.johnrellis.com/lightroom/exportlut.htm
# Preset: Dream Travel_04
# Color profile: C:\Program Files (x86)\Common Files\Adobe\Color\Profiles\Recommended\AdobeRGB1998.icc
LUT_3D_SIZE 32
DOMAIN_MIN 0.0 0.0 0.0
DOMAIN_MAX 1.0 1.0 1.0
0.138796 0.138796 0.138796
0.154879 0.138796 0.138857
0.170718 0.138827 0.139010
0.199557 0.139406 0.139193
0.239506 0.139528 0.139193
0.282383 0.139712 0.139254
0.325566 0.140108 0.139590
0.368231 0.141360 0.140230
0.412360 0.142947 0.141360
0.459937 0.143893 0.141451
0.512840 0.143923 0.140963
0.570825 0.143832 0.139803
0.628321 0.144289 0.138613
0.682460 0.145602 0.138430
0.731594 0.148318 0.139651
0.775570 0.151705 0.141726
0.815091 0.155917 0.145113
0.850675 0.161624 0.150027
0.895842 0.170626 0.158022
0.934417 0.180911 0.168063
0.966125 0.191592 0.178836
0.992401 0.202029 0.189425
1.000000 0.211612 0.199466
1.000000 0.220523 0.208530
1.000000 0.228031 0.216556
1.000000 0.235050 0.224033
1.000000 0.242008 0.231388
1.000000 0.248844 0.238834
1.000000 0.255863 0.246433
1.000000 0.263279 0.254520
1.000000 0.271183 0.263066
1.000000 0.279637 0.272313
0.142214 0.149355 0.142031
0.155154 0.148470 0.139651
0.169924 0.148714 0.139162
0.198123 0.150546 0.139132
0.237369 0.150942 0.139284
0.279301 0.151400 0.139559
0.321904 0.151583 0.139864
0.363775 0.152346 0.140627
0.407141 0.153567 0.141726
0.454017 0.154482 0.141817
0.505608 0.154940 0.141360
0.562463 0.155215 0.140291
0.619593 0.155795 0.139315
0.673610 0.157259 0.139101
0.723079 0.159396 0.139742
0.767483 0.162112 0.142214
0.807401 0.165805 0.145174
0.843595 0.170474 0.149630
0.888609 0.178134 0.157290
0.926696 0.186954 0.166323
0.958556 0.196262 0.176120
0.985382 0.205356 0.186343
1.000000 0.214054 0.195895
1.000000 0.221927 0.204837
1.000000 0.229068 0.212741
1.000000 0.235721 0.220218
1.000000 0.242130 0.227451
1.000000 0.248905 0.235325
1.000000 0.255680 0.242832
1.000000 0.262852 0.250980
1.000000 0.270329 0.259342
1.000000 0.278355 0.268345
0.146944 0.162295 0.146700
0.155337 0.160464 0.149813
0.171176 0.158358 0.140993
0.196933 0.158755 0.140047
0.234684 0.164309 0.139803
0.275975 0.164645 0.139986
0.317754 0.164706 0.140352
0.359167 0.165255 0.141390
0.402106 0.166140 0.142123
0.448280 0.166690 0.142367
0.499214 0.167544 0.141726
0.555352 0.168673 0.140780
0.612696 0.169345 0.139864
0.666926 0.170932 0.139864
0.716762 0.173037 0.140536
0.761746 0.174838 0.142397
0.802029 0.178317 0.145480
0.838804 0.182010 0.149477
0.884184 0.188724 0.157015
0.921904 0.196506 0.165713
0.954040 0.204471 0.175113
0.981262 0.212345 0.184878
1.000000 0.220218 0.194278
1.000000 0.227024 0.202976
1.000000 0.233646 0.210971
1.000000 0.239445 0.218326
1.000000 0.245609 0.225772
1.000000 0.251865 0.233433
1.000000 0.258152 0.241062
1.000000 0.264988 0.249119
1.000000 0.272099 0.257542
1.000000 0.279759 0.266453
0.158694 0.184146 0.157809
0.166232 0.181674 0.161471
0.173007 0.181125 0.162692
0.199985 0.176852 0.144167
0.231876 0.172549 0.141817
0.271458 0.188418 0.140749
0.312474 0.188540 0.141543
0.353521 0.188785 0.142550
0.395850 0.188846 0.142641
0.441260 0.189548 0.142855
0.491096 0.190677 0.142428
0.546075 0.192386 0.141665
0.602960 0.194522 0.140963
0.657252 0.196262 0.140902
0.707851 0.197635 0.141299
0.753353 0.199619 0.143130
0.794308 0.201541 0.146120
0.834440 0.204593 0.150118
0.877531 0.209873 0.156954
0.914153 0.215305 0.164889
0.945983 0.221164 0.173617
0.973541 0.227207 0.182864
0.997284 0.233341 0.191989
1.000000 0.239292 0.200961
1.000000 0.244938 0.209140
1.000000 0.250401 0.217319
1.000000 0.255955 0.225162
1.000000 0.261875 0.233280
1.000000 0.267521 0.241093
1.000000 0.273289 0.248966
1.000000 0.279423 0.256992
1.000000 0.285679 0.265202
0.169741 0.214664 0.168307
0.177462 0.212100 0.171328
0.185245 0.208743 0.175601
0.200137 0.210544 0.170687
0.233310 0.199710 0.148867
0.263737 0.186038 0.144930
0.303349 0.206180 0.144320
0.343664 0.215763 0.143587
0.385290 0.215854 0.143709
0.429358 0.216831 0.143984
0.477821 0.218570 0.143740
0.531212 0.221347 0.143374
0.588128 0.224338 0.142763
0.643183 0.226932 0.142336
0.695216 0.228733 0.142763
0.742702 0.230472 0.144045
0.785611 0.231662 0.147005
0.830472 0.234867 0.151339
0.872618 0.238437 0.157900
0.908782 0.242313 0.165408
0.940337 0.246128 0.173709
0.968048 0.250370 0.182376
0.992187 0.254551 0.191196
1.000000 0.258671 0.199924
1.000000 0.262882 0.208255
1.000000 0.267002 0.216281
1.000000 0.271336 0.224338
1.000000 0.275547 0.232120
1.000000 0.280186 0.239933
1.000000 0.284916 0.247684
1.000000 0.289708 0.255589
1.000000 0.295140 0.263798
0.182620 0.251072 0.180240
0.190402 0.248783 0.183261
0.199039 0.245396 0.187137
0.212528 0.238499 0.195529
0.236820 0.244358 0.176394
0.268620 0.223789 0.151949
0.295048 0.200046 0.148653
0.334539 0.220615 0.147311
0.375891 0.242832 0.145357
0.419348 0.245945 0.145571
0.466743 0.248508 0.145602
0.519005 0.252140 0.145327
0.575433 0.256504 0.144686
0.631220 0.259922 0.144167
0.684138 0.262547 0.144289
0.732967 0.264225 0.145724
0.777371 0.265476 0.148287
0.826749 0.269139 0.152987
0.868254 0.271702 0.159426
0.904662 0.274083 0.166720
0.936828 0.276585 0.175113
0.965332 0.279088 0.183963
1.000000 0.301762 0.215610
1.000000 0.304723 0.225193
1.000000 0.307042 0.233677
1.000000 0.309209 0.241581
1.000000 0.311528 0.248783
1.000000 0.313817 0.255955
1.000000 0.316533 0.262943
1.000000 0.319585 0.270146
1.000000 0.322942 0.277317
1.000000 0.326543 0.284611
0.202762 0.299565 0.198795
0.210452 0.297124 0.201755
0.219791 0.293950 0.205753
0.235904 0.287510 0.214450
0.251987 0.281804 0.218662
0.285527 0.286687 0.184604
0.311528 0.253727 0.156008
0.332555 0.216922 0.152132
0.374548 0.239597 0.151095
0.420081 0.264805 0.149569
0.470222 0.285557 0.147768
0.524346 0.290806 0.147158
0.581598 0.296330 0.146426
0.637110 0.300328 0.145815
0.688991 0.302770 0.146273
0.736172 0.303899 0.147829
0.787869 0.307164 0.151308
0.835782 0.309972 0.156680
0.876951 0.311955 0.163882
0.914244 0.313695 0.172641
0.948363 0.316258 0.182681
0.979309 0.319005 0.193942
1.000000 0.322271 0.205844
1.000000 0.325292 0.217594
1.000000 0.328038 0.228397
1.000000 0.329747 0.237705
1.000000 0.331182 0.245823
1.000000 0.332341 0.253239
1.000000 0.333593 0.260258
1.000000 0.335271 0.267247
1.000000 0.337041 0.274022
1.000000 0.339361 0.281163
0.223392 0.339025 0.218357
0.230289 0.336919 0.221012
0.238743 0.334081 0.224582
0.254307 0.328222 0.232303
0.272343 0.319554 0.244053
0.288823 0.318700 0.229892
0.326055 0.318853 0.191623
0.344366 0.277348 0.161563
0.359655 0.230045 0.156680
0.403326 0.253971 0.155734
0.451789 0.281010 0.154391
0.506035 0.311192 0.151400
0.563470 0.326329 0.149386
0.619379 0.332036 0.148562
0.672175 0.335698 0.148806
0.726406 0.339940 0.149966
0.779599 0.343999 0.153170
0.825376 0.345708 0.158267
0.865904 0.346654 0.164584
0.903349 0.347326 0.172915
0.937987 0.348455 0.182528
0.969635 0.349798 0.193057
0.997467 0.351385 0.204288
1.000000 0.352728 0.215549
1.000000 0.353582 0.225925
1.000000 0.353918 0.235203
1.000000 0.353765 0.243229
1.000000 0.353429 0.250401
1.000000 0.353552 0.257633
1.000000 0.353674 0.264408
1.000000 0.354406 0.271427
1.000000 0.355383 0.278386
0.248112 0.380529 0.241886
0.254215 0.378637 0.244236
0.261906 0.376135 0.247501
0.276371 0.370764 0.254337
0.294285 0.363012 0.264714
0.311040 0.353216 0.277897
0.329229 0.355627 0.242618
0.367620 0.351995 0.200595
0.378424 0.302281 0.168093
0.387732 0.243687 0.161074
0.434180 0.269444 0.160678
0.486213 0.298405 0.158999
0.543938 0.330694 0.155886
0.603296 0.362768 0.151705
0.662348 0.370825 0.151583
0.720058 0.377447 0.152621
0.770779 0.380621 0.155673
0.815549 0.381903 0.160067
0.856016 0.381964 0.166476
0.893828 0.381994 0.174075
0.928985 0.382300 0.182925
0.961303 0.382452 0.193027
0.989868 0.382635 0.203983
1.000000 0.382635 0.214786
1.000000 0.382147 0.224949
1.000000 0.380804 0.234043
1.000000 0.379309 0.241855
1.000000 0.377630 0.248997
1.000000 0.376196 0.255924
1.000000 0.375067 0.262608
1.000000 0.374243 0.269444
1.000000 0.373846 0.276127
0.274754 0.425757 0.266972
0.280034 0.423926 0.269078
0.286717 0.421515 0.271672
0.300175 0.416449 0.277623
0.317296 0.409003 0.286717
0.335088 0.399603 0.298405
0.348791 0.393530 0.295384
0.371771 0.393133 0.254704
0.410285 0.385809 0.209659
0.413642 0.328344 0.175021
0.415381 0.257298 0.165469
0.464668 0.284611 0.164981
0.519982 0.315435 0.163394
0.587640 0.353216 0.160281
0.652857 0.390631 0.156588
0.711482 0.413306 0.155245
0.762478 0.417151 0.157778
0.808042 0.418524 0.162387
0.848936 0.418616 0.168673
0.886778 0.417945 0.176028
0.921569 0.417060 0.184329
0.953063 0.415839 0.193698
0.981140 0.414191 0.203128
1.000000 0.412360 0.213016
1.000000 0.410224 0.222293
1.000000 0.407691 0.231052
1.000000 0.405005 0.238926
1.000000 0.402502 0.246403
1.000000 0.400244 0.253941
1.000000 0.398199 0.261173
1.000000 0.396612 0.268437
1.000000 0.395331 0.275608
0.300145 0.473610 0.290837
0.304906 0.472084 0.292668
0.311376 0.469947 0.295140
0.324102 0.465431 0.300542
0.341070 0.458595 0.308843
0.359808 0.450111 0.319768
0.377722 0.440009 0.333257
0.391424 0.438025 0.309911
0.418830 0.434119 0.266667
0.452674 0.419257 0.219760
0.452216 0.356878 0.182193
0.450599 0.277684 0.169894
0.505821 0.305028 0.169497
0.570245 0.340795 0.167544
0.634028 0.377203 0.164675
0.693965 0.412390 0.162264
0.748226 0.445045 0.160739
0.794491 0.451698 0.164248
0.836149 0.451789 0.169955
0.874876 0.451118 0.176577
0.910674 0.449989 0.184604
0.943359 0.448280 0.193423
0.972564 0.446235 0.202945
0.998230 0.443641 0.212589
1.000000 0.440558 0.221805
1.000000 0.436896 0.230198
1.000000 0.433051 0.237827
1.000000 0.429267 0.245151
1.000000 0.425727 0.252323
1.000000 0.422461 0.259312
1.000000 0.419593 0.266453
1.000000 0.417182 0.273594
0.327153 0.530114 0.315831
0.331823 0.528771 0.317571
0.338048 0.526696 0.319951
0.350317 0.522545 0.324865
0.367590 0.516320 0.332708
0.387182 0.508171 0.343114
0.407202 0.498573 0.356085
0.424567 0.488777 0.366857
0.441169 0.487800 0.324132
0.474922 0.483436 0.278965
0.509026 0.464790 0.231693
0.508141 0.398138 0.190860
0.536126 0.329778 0.177676
0.595209 0.349767 0.176120
0.662318 0.388647 0.175235
0.723323 0.425116 0.174777
0.776547 0.458106 0.175387
0.822965 0.487617 0.177584
0.863279 0.508141 0.182254
0.898650 0.504906 0.190188
0.930785 0.500969 0.198764
0.959686 0.496620 0.208011
0.985290 0.491737 0.216983
1.000000 0.486671 0.225956
1.000000 0.481361 0.234501
1.000000 0.475837 0.242405
1.000000 0.470130 0.249546
1.000000 0.464607 0.256138
1.000000 0.459358 0.262486
1.000000 0.454505 0.268864
1.000000 0.450141 0.275334
1.000000 0.446204 0.281956
0.365576 0.606806 0.351629
0.370031 0.605402 0.353185
0.375708 0.602655 0.354986
0.387488 0.597528 0.359197
0.404181 0.589990 0.365911
0.423621 0.580560 0.375036
0.444923 0.570489 0.387335
0.470680 0.565545 0.406470
0.491096 0.565240 0.398260
0.519463 0.567102 0.351202
0.561700 0.562310 0.300694
0.593622 0.534691 0.248692
0.590661 0.459083 0.202457
0.576104 0.359594 0.181674
0.626307 0.365179 0.179629
0.691432 0.403449 0.179538
0.748562 0.438178 0.180270
0.798032 0.469337 0.181918
0.841794 0.497597 0.185275
0.881041 0.523430 0.189731
0.915404 0.530999 0.196780
0.945892 0.526635 0.205325
0.972869 0.521538 0.214115
0.996979 0.516014 0.222782
1.000000 0.510063 0.230991
1.000000 0.503807 0.238590
1.000000 0.497414 0.245762
1.000000 0.491127 0.252506
1.000000 0.484932 0.258854
1.000000 0.479316 0.265446
1.000000 0.474006 0.271946
1.000000 0.469245 0.278782
0.399298 0.663935 0.384039
0.404211 0.663294 0.385992
0.409918 0.661738 0.388159
0.422126 0.658778 0.393194
0.439673 0.653925 0.400855
0.461036 0.647761 0.411475
0.485298 0.641047 0.425574
0.510582 0.633814 0.443091
0.536187 0.626673 0.464942
0.551812 0.627619 0.425940
0.582513 0.625147 0.371588
0.624994 0.615991 0.314916
0.648829 0.578332 0.259800
0.640650 0.496407 0.210452
0.619867 0.391882 0.186343
0.657008 0.380438 0.182895
0.717250 0.416480 0.183627
0.770047 0.449195 0.185306
0.817227 0.479255 0.187991
0.859678 0.506950 0.191775
0.897948 0.532341 0.196902
0.931792 0.555383 0.203067
0.960510 0.550988 0.211673
0.986236 0.545434 0.220157
1.000000 0.539269 0.228336
1.000000 0.532555 0.236088
1.000000 0.525566 0.243107
1.000000 0.518639 0.249973
1.000000 0.511894 0.256565
1.000000 0.505486 0.263249
1.000000 0.499519 0.270207
1.000000 0.493904 0.277195
0.445899 0.725734 0.429816
0.450233 0.725124 0.431800
0.455024 0.723201 0.433387
0.465644 0.719509 0.437537
0.481056 0.713710 0.443885
0.500114 0.706600 0.452857
0.522545 0.699001 0.465522
0.546685 0.691188 0.481514
0.571832 0.683864 0.501274
0.592554 0.679133 0.509453
0.607416 0.679652 0.452918
0.639185 0.674525 0.392187
0.680690 0.661921 0.329351
0.696834 0.615625 0.270787
0.685206 0.529717 0.218570
0.659571 0.421973 0.191104
0.684871 0.394293 0.186160
0.741085 0.428473 0.187625
0.791470 0.460121 0.190036
0.837064 0.489509 0.193423
0.878202 0.516533 0.197848
0.914794 0.541100 0.203189
0.946715 0.563165 0.209384
0.974609 0.573877 0.216922
0.998840 0.567773 0.225284
1.000000 0.561181 0.233249
1.000000 0.554253 0.241093
1.000000 0.547356 0.249027
1.000000 0.540520 0.256626
1.000000 0.533989 0.264561
1.000000 0.527733 0.272648
1.000000 0.521782 0.281041
0.492439 0.773922 0.476844
0.496651 0.773587 0.479011
0.501183 0.772366 0.480842
0.510887 0.769497 0.484993
0.525109 0.764981 0.491402
0.543206 0.759487 0.500359
0.564263 0.753506 0.512230
0.587457 0.747097 0.527092
0.611536 0.740444 0.544915
0.635157 0.733730 0.565362
0.646540 0.730861 0.544366
0.661555 0.727352 0.483650
0.690486 0.717372 0.414374
0.728145 0.699763 0.343328
0.735134 0.644495 0.280888
0.720516 0.556481 0.225864
0.693324 0.448646 0.195621
0.708736 0.406073 0.188907
0.763760 0.439948 0.191257
0.813809 0.471595 0.194614
0.859068 0.500877 0.198764
0.899260 0.527672 0.204227
0.934264 0.551598 0.210391
0.964904 0.573083 0.217136
0.991394 0.592157 0.224643
1.000000 0.591455 0.233036
1.000000 0.584405 0.241276
1.000000 0.577111 0.249424
1.000000 0.569787 0.257694
1.000000 0.562463 0.265537
1.000000 0.555230 0.273472
1.000000 0.548211 0.281346
0.533654 0.810788 0.518730
0.536553 0.810117 0.519951
0.540276 0.808743 0.521508
0.548486 0.806210 0.524895
0.560815 0.802365 0.530541
0.576715 0.797543 0.538323
0.595514 0.792172 0.548699
0.616419 0.786221 0.561578
0.638544 0.780026 0.577081
0.660792 0.773739 0.594965
0.682155 0.767391 0.614801
0.686641 0.766354 0.566857
0.702846 0.760952 0.504875
0.731197 0.749233 0.432349
0.767361 0.730037 0.356146
0.768032 0.669154 0.291081
0.752895 0.581323 0.233982
0.725643 0.474617 0.200839
0.732845 0.417975 0.191653
0.786343 0.451240 0.194583
0.834989 0.482246 0.198306
0.878569 0.510796 0.203037
0.916869 0.536584 0.208743
0.950561 0.559869 0.215366
0.979767 0.580652 0.222385
1.000000 0.599207 0.230167
1.000000 0.612390 0.238468
1.000000 0.605158 0.247196
1.000000 0.597681 0.255894
1.000000 0.590051 0.264530
1.000000 0.582422 0.272984
1.000000 0.574914 0.281712
0.574487 0.843534 0.560540
0.578149 0.843595 0.562768
0.618189 0.868467 0.602106
0.624720 0.866300 0.604852
0.634424 0.862791 0.609094
0.646601 0.858152 0.614649
0.661219 0.852628 0.622034
0.677668 0.846616 0.631312
0.695827 0.840238 0.642969
0.714565 0.833860 0.656764
0.732845 0.827237 0.672023
0.743526 0.822019 0.669123
0.746059 0.818082 0.615564
0.760189 0.809628 0.550042
0.786038 0.795315 0.472724
0.820401 0.774380 0.385870
0.816129 0.707546 0.312352
0.801114 0.618677 0.248692
0.773617 0.510735 0.209995
0.772335 0.438300 0.196933
0.822690 0.470314 0.200839
0.868193 0.500023 0.205661
0.908415 0.527001 0.211215
0.943297 0.551171 0.217502
0.973144 0.572473 0.224094
0.998840 0.591333 0.231052
1.000000 0.608087 0.238010
1.000000 0.623194 0.245701
1.000000 0.625422 0.253819
1.000000 0.617365 0.262608
1.000000 0.609277 0.271458
1.000000 0.601129 0.280217
0.621546 0.876890 0.608698
0.628199 0.879423 0.614435
0.635737 0.881621 0.620508
0.645594 0.882506 0.627344
0.657160 0.881712 0.634424
0.669551 0.878904 0.641077
0.683009 0.874723 0.648127
0.697841 0.869627 0.656397
0.714260 0.864225 0.666621
0.731258 0.858518 0.678370
0.748348 0.852628 0.691737
0.764492 0.846372 0.706020
0.767208 0.842679 0.680446
0.771633 0.837644 0.626825
0.786526 0.828183 0.561242
0.812192 0.813321 0.483375
0.845518 0.792081 0.395209
0.838102 0.723262 0.320684
0.825010 0.637171 0.255497
0.799802 0.532738 0.214511
0.793027 0.448310 0.198398
0.843015 0.480232 0.202884
0.887480 0.509514 0.208164
0.926329 0.535851 0.214206
0.959594 0.559228 0.220798
0.988281 0.579950 0.227695
1.000000 0.598352 0.234928
1.000000 0.614832 0.242832
1.000000 0.629725 0.251316
1.000000 0.643091 0.260594
1.000000 0.636194 0.269841
1.000000 0.627558 0.279057
0.651148 0.897002 0.639185
0.657038 0.898985 0.644251
0.663539 0.900786 0.649561
0.672023 0.901457 0.655482
0.682124 0.900725 0.661707
0.692927 0.898375 0.667567
0.704799 0.894804 0.673854
0.718013 0.890501 0.681117
0.732723 0.885893 0.690028
0.748287 0.880919 0.700374
0.764157 0.875761 0.712154
0.779446 0.870268 0.724788
0.792447 0.864195 0.735622
0.790249 0.861723 0.692103
0.796170 0.855863 0.638605
0.811795 0.845945 0.573388
0.837705 0.831296 0.495552
0.866911 0.807126 0.407874
0.861234 0.740261 0.330877
0.850645 0.657160 0.263401
0.827909 0.555840 0.219547
0.816556 0.459724 0.199954
0.865446 0.491279 0.205051
0.908232 0.519768 0.210819
0.944976 0.545098 0.217227
0.976532 0.567559 0.223880
1.000000 0.587488 0.230930
1.000000 0.605341 0.238743
1.000000 0.621424 0.247257
1.000000 0.635828 0.256474
1.000000 0.648524 0.266148
1.000000 0.653498 0.276127
0.679133 0.914977 0.668055
0.684321 0.916594 0.672541
0.690089 0.918059 0.677302
0.697566 0.918578 0.682551
0.706325 0.917937 0.688014
0.715755 0.915892 0.693172
0.726070 0.912840 0.698573
0.737636 0.909117 0.704829
0.750637 0.904967 0.712490
0.764462 0.900511 0.721340
0.778836 0.895842 0.731411
0.792966 0.890806 0.742336
0.806027 0.885283 0.753536
0.811460 0.881254 0.745632
0.811276 0.878294 0.702541
0.819181 0.872618 0.650355
0.836790 0.863737 0.587579
0.864408 0.851041 0.512657
0.891905 0.826291 0.428077
0.890349 0.763241 0.348699
0.884398 0.684260 0.277867
0.866697 0.586603 0.229465
0.858244 0.490333 0.207126
0.900359 0.509697 0.211398
0.940795 0.537469 0.218875
0.974914 0.561822 0.226841
1.000000 0.583368 0.235294
1.000000 0.602411 0.244266
1.000000 0.619440 0.253910
1.000000 0.634455 0.264164
1.000000 0.647730 0.274907
1.000000 0.659297 0.286229
0.719051 0.937743 0.709194
0.721889 0.938170 0.711421
0.724849 0.938323 0.713527
0.729458 0.937774 0.716243
0.735683 0.936492 0.719600
0.743069 0.934386 0.723354
0.751919 0.931701 0.727901
0.762234 0.928679 0.733608
0.773953 0.925414 0.740627
0.786770 0.921904 0.748898
0.800076 0.918181 0.758175
0.813230 0.914031 0.768002
0.825498 0.909392 0.777920
0.836698 0.904265 0.787991
0.836362 0.901915 0.763882
0.837736 0.898833 0.721981
0.846769 0.893370 0.671382
0.865019 0.884977 0.610254
0.892851 0.873198 0.536767
0.916991 0.846281 0.452827
0.917052 0.784787 0.368200
0.912871 0.707301 0.291325
0.897917 0.612055 0.237034
0.889464 0.516655 0.212345
0.923156 0.520928 0.213504
0.960876 0.547326 0.221103
0.993072 0.570764 0.229618
1.000000 0.591638 0.238682
1.000000 0.610071 0.248447
1.000000 0.626337 0.258793
1.000000 0.640558 0.269596
1.000000 0.652949 0.280888
0.742550 0.950622 0.733425
0.745052 0.950988 0.735470
0.747829 0.951202 0.737514
0.751980 0.950744 0.740047
0.757321 0.949615 0.742947
0.763607 0.947753 0.746059
0.771054 0.945373 0.749783
0.779812 0.942596 0.754421
0.790005 0.939605 0.760342
0.801205 0.936431 0.767330
0.813077 0.933043 0.775326
0.825071 0.929381 0.783932
0.836545 0.925292 0.792782
0.847410 0.920897 0.801938
0.855680 0.916716 0.806760
0.853422 0.915618 0.773556
0.856809 0.912871 0.733303
0.867582 0.908110 0.684627
0.887053 0.900755 0.626032
0.915770 0.890349 0.555138
0.937530 0.862333 0.473701
0.940154 0.803586 0.387427
0.939147 0.729061 0.306035
0.928923 0.637598 0.246036
0.914672 0.539269 0.215885
0.942168 0.529686 0.213382
0.978302 0.555352 0.221347
1.000000 0.578058 0.230137
1.000000 0.598138 0.239628
1.000000 0.615900 0.249729
1.000000 0.631525 0.260807
1.000000 0.645045 0.272374
0.773648 0.965667 0.765591
0.776028 0.966003 0.767544
0.778164 0.966033 0.769070
0.781155 0.965423 0.770718
0.785061 0.964233 0.772549
0.789822 0.962463 0.774685
0.795621 0.960204 0.777249
0.802396 0.957549 0.780392
0.810300 0.954498 0.784451
0.819211 0.951293 0.789487
0.828702 0.947784 0.795224
0.838682 0.944182 0.801846
0.848692 0.940246 0.808957
0.858152 0.935943 0.816251
0.866819 0.931243 0.823575
0.868986 0.928222 0.813901
0.867643 0.926574 0.780423
0.872099 0.923583 0.740352
0.884031 0.919066 0.692714
0.904631 0.912596 0.636011
0.934142 0.903410 0.567681
0.953521 0.874144 0.488502
0.957641 0.817502 0.401404
0.958221 0.744747 0.315618
0.950195 0.655940 0.250004
0.943359 0.563989 0.221500
0.965606 0.541192 0.215000
0.998871 0.565393 0.223178
1.000000 0.586816 0.232120
1.000000 0.605829 0.242100
1.000000 0.622614 0.253025
1.000000 0.637110 0.264500
0.790860 0.974060 0.783474
0.792996 0.974334 0.785245
0.794919 0.974334 0.786618
0.797543 0.973846 0.788083
0.800961 0.972808 0.789700
0.805264 0.971344 0.791684
0.810544 0.969482 0.794186
0.816770 0.967285 0.797238
0.824125 0.964843 0.801144
0.832395 0.962219 0.805966
0.841245 0.959380 0.811368
0.850675 0.956359 0.817624
0.860136 0.953124 0.824308
0.869200 0.949615 0.831113
0.877775 0.945739 0.838010
0.885618 0.941619 0.845060
0.884428 0.940642 0.824460
0.885161 0.939574 0.793118
0.891417 0.937438 0.755673
0.904601 0.933837 0.710780
0.925719 0.928283 0.656641
0.955352 0.920195 0.590417
0.972351 0.889738 0.512657
0.978241 0.835386 0.424628
0.981506 0.764889 0.332677
0.977539 0.679042 0.259648
0.972869 0.589502 0.229038
0.991516 0.554253 0.218112
1.000000 0.577356 0.227543
1.000000 0.597894 0.238163
1.000000 0.615839 0.249699
1.000000 0.631189 0.261570
0.809354 0.982208 0.802609
0.810910 0.982300 0.803830
0.812161 0.982116 0.804654
0.814084 0.981567 0.805570
0.816709 0.980591 0.806638
0.820188 0.979248 0.808072
0.824552 0.977539 0.809934
0.829953 0.975616 0.812528
0.836393 0.973480 0.815946
0.843778 0.971221 0.820157
0.851835 0.968750 0.825071
0.860533 0.966186 0.830808
0.869322 0.963409 0.836881
0.877897 0.960327 0.843137
0.885954 0.957000 0.849393
0.893523 0.953399 0.855711
0.898680 0.950378 0.857176
0.897002 0.950439 0.832212
0.899351 0.949767 0.802426
0.907012 0.948150 0.766842
0.921050 0.945159 0.723812
0.942626 0.940337 0.671443
0.972320 0.933043 0.606989
0.987152 0.901610 0.531182
0.994568 0.849424 0.443000
1.000000 0.781155 0.346624
0.999817 0.698360 0.266880
0.997253 0.611780 0.234562
1.000000 0.564691 0.218784
1.000000 0.586786 0.229343
1.000000 0.605951 0.240452
1.000000 0.622248 0.252049
0.823209 0.988190 0.817014
0.824308 0.988159 0.817838
0.825376 0.988006 0.818509
0.827176 0.987549 0.819425
0.829892 0.986816 0.820768
0.833646 0.985870 0.822782
0.838682 0.984802 0.825711
0.844785 0.983581 0.829465
0.851926 0.982269 0.834073
0.859831 0.980835 0.839384
0.868223 0.979248 0.845212
0.876890 0.977478 0.851347
0.885435 0.975494 0.857603
0.893614 0.973236 0.863767
0.901335 0.970672 0.869718
0.908354 0.967803 0.875425
0.914885 0.964752 0.881193
0.916686 0.963775 0.873869
0.916716 0.964385 0.851713
0.920348 0.964355 0.825101
0.928649 0.963409 0.792905
0.942779 0.961273 0.753475
0.963897 0.957458 0.704494
0.993164 0.951568 0.643641
1.000000 0.920500 0.571588
1.000000 0.871489 0.483772
1.000000 0.805966 0.381445
1.000000 0.726009 0.290379
1.000000 0.643366 0.254276
1.000000 0.584039 0.232059
1.000000 0.603784 0.244846
1.000000 0.620294 0.257572
0.844480 0.995178 0.839078
0.845243 0.995087 0.839597
0.845914 0.994934 0.839963
0.847196 0.994476 0.840482
0.849210 0.993774 0.841337
0.852018 0.992889 0.842649
0.855741 0.991821 0.844541
0.860288 0.990600 0.847013
0.865690 0.989197 0.850156
0.871855 0.987671 0.853941
0.878447 0.985962 0.858061
0.885405 0.984100 0.862638
0.892515 0.982055 0.867430
0.899565 0.979858 0.872374
