data/fiter_cube/80369196/1023066/file.cube
# Created by Adobe Lightroom plugin Export LUT (1.17.0)
# www.johnrellis.com/lightroom/exportlut.htm
# Preset: Dream Travel_04
# Color profile: C:\Program Files (x86)\Common Files\Adobe\Color\Profiles\Recommended\AdobeRGB1998.icc
LUT_3D_SIZE 5
DOMAIN_MIN 0.000000 0.000000 0.000000
DOMAIN_MAX 0.903226 0.903226 0.903226
0.138796 0.138796 0.138796
0.368231 0.141360 0.140230
0.731594 0.148318 0.139651
0.992401 0.202029 0.189425
1.000000 0.255863 0.246433
0.223392 0.339025 0.218357
0.344366 0.277348 0.161563
0.672175 0.335698 0.148806
0.969635 0.349798 0.193057
1.000000 0.353552 0.257633
0.445899 0.725734 0.429816
0.546685 0.691188 0.481514
0.685206 0.529717 0.218570
0.914794 0.541100 0.203189
1.000000 0.540520 0.256626
0.719051 0.937743 0.709194
0.762234 0.928679 0.733608
0.836362 0.901915 0.763882
0.912871 0.707301 0.291325
1.000000 0.610071 0.248447
0.854063 0.998657 0.849119
0.868711 0.994751 0.856779
0.904234 0.980499 0.876036
0.937407 0.975341 0.832639
1.000000 0.825467 0.401068
0.126589 0.234745 0.303593
0.298436 0.207858 0.291814
0.691707 0.161349 0.295689
0.953063 0.251682 0.356023
1.000000 0.325261 0.384344
0.173037 0.345617 0.324865
0.308629 0.294347 0.288487
0.647944 0.329198 0.314244
0.936736 0.363470 0.348302
1.000000 0.393469 0.383490
0.400305 0.710811 0.468818
0.523033 0.665309 0.505425
0.612177 0.490517 0.315862
0.886107 0.566094 0.326024
1.000000 0.559197 0.379828
0.728969 0.934508 0.739803
0.772183 0.926024 0.762112
0.850095 0.899779 0.811795
0.894316 0.706355 0.380865
1.000000 0.637232 0.344366
0.868620 0.999054 0.870726
0.881407 0.995575 0.876707
0.918822 0.984955 0.898863
0.944396 0.977417 0.869200
1.000000 0.838621 0.486244
0.000000 0.431647 0.600153
0.290227 0.383703 0.487892
0.561242 0.332616 0.544793
0.971160 0.358801 0.490822
1.000000 0.518975 0.615167
0.146456 0.528832 0.663020
0.332036 0.457160 0.557855
0.578454 0.398779 0.548089
0.940826 0.461189 0.548760
1.000000 0.585046 0.660792
0.233616 0.726192 0.675257
0.385657 0.668177 0.628077
0.542046 0.507897 0.493843
0.870726 0.607446 0.590509
1.000000 0.662806 0.653956
0.654963 0.943145 0.771572
0.712825 0.923888 0.779355
0.826017 0.886778 0.815305
0.841184 0.708675 0.559106
1.000000 0.744503 0.589807
0.859037 1.000000 0.886931
0.886412 0.999664 0.902800
0.930846 0.991089 0.926909
0.957610 0.979522 0.934081
1.000000 0.860746 0.634211
0.065736 0.610864 0.841093
0.302953 0.593835 0.799954
0.516197 0.547417 0.610712
0.803830 0.524346 0.785885
1.000000 0.610132 0.689265
0.301061 0.671290 0.862913
0.396735 0.650599 0.826871
0.538842 0.578241 0.649775
0.802152 0.564843 0.779385
1.000000 0.656153 0.721767
0.393835 0.801999 0.906889
0.497597 0.790555 0.894591
0.622248 0.697658 0.773526
0.805661 0.659632 0.767575
1.000000 0.763668 0.801846
0.557366 0.949889 0.901427
0.614252 0.932708 0.889982
0.717556 0.875883 0.847471
0.758846 0.725948 0.712673
0.997955 0.833280 0.825345
0.816770 1.000000 0.918181
0.846952 1.000000 0.925353
0.915099 0.999756 0.944366
0.967498 0.988922 0.964538
0.991974 0.891264 0.784237
0.375677 0.740658 0.966339
0.461707 0.745022 0.954040
0.626520 0.750179 0.899657
0.731350 0.733120 0.739132
0.942535 0.708400 0.932403
0.458656 0.774411 0.972412
0.518029 0.775051 0.961486
0.646906 0.770382 0.911894
0.736660 0.738125 0.742275
0.942931 0.728328 0.931640
0.563287 0.852018 0.993957
0.632563 0.858244 0.987243
0.712123 0.839841 0.952972
0.760922 0.779599 0.820066
0.948608 0.791745 0.934539
0.652461 0.942504 0.995880
0.696040 0.942077 0.994415
0.798550 0.939666 0.990387
0.848569 0.896635 0.946929
0.962737 0.881712 0.945739
0.767788 1.000000 0.989685
0.796017 1.000000 0.989410
0.870909 1.000000 0.988952
0.937011 0.995697 0.985473
0.940795 0.925292 0.919188
