data/fiter_cube/15997792/1023463/file.cube
# Created by Adobe Lightroom plugin Export LUT (1.17.0)
# www.johnrellis.com/lightroom/exportlut.htm
# Preset: 日系A通透明亮[云集]-4
# Color profile: C:\Program Files (x86)\Common Files\Adobe\Color\Profiles\Recommended\AdobeRGB1998.icc
LUT_3D_SIZE 8
DOMAIN_MIN 0.000000 0.000000 0.000000
DOMAIN_MAX 0.903226 0.903226 0.903226
0.000000 0.000000 0.000000
0.112825 0.037873 0.018128
0.309148 0.000000 0.023041
0.527764 0.000000 0.000000
0.710964 0.000000 0.000000
0.852934 0.000000 0.000000
0.951995 0.176364 0.000000
1.000000 0.279362 0.000000
0.000000 0.106813 0.068177
0.096407 0.118532 0.029511
0.301976 0.098238 0.000000
0.515801 0.000000 0.000000
0.700282 0.000000 0.000000
0.839750 0.112245 0.000000
0.941985 0.215061 0.000000
1.000000 0.299962 0.000000
0.000000 0.270329 0.117403
0.021607 0.279179 0.099855
0.276921 0.298375 0.000000
0.523613 0.296971 0.000000
0.705592 0.293706 0.000000
0.842924 0.314549 0.000000
0.949523 0.353338 0.000000
1.000000 0.392737 0.000000
0.000000 0.486549 0.201419
0.000000 0.489967 0.191012
0.262303 0.490791 0.145418
0.517357 0.533715 0.000000
0.734920 0.539055 0.000000
0.850431 0.502892 0.000000
0.945830 0.500084 0.000000
1.000000 0.503990 0.000000
0.000000 0.681178 0.328222
0.000000 0.682826 0.321538
0.258671 0.686915 0.275120
0.492409 0.684443 0.234501
0.691249 0.699886 0.000000
0.843015 0.684382 0.000000
0.934081 0.646937 0.000000
1.000000 0.626062 0.000000
0.000000 0.814115 0.455787
0.067414 0.819547 0.461280
0.336736 0.817563 0.459998
0.492348 0.810819 0.408789
0.653559 0.804349 0.342504
0.809689 0.810636 0.181735
0.933776 0.799344 0.000000
1.000000 0.761379 0.000000
0.155306 0.907195 0.562249
0.243076 0.906981 0.566217
0.409796 0.901518 0.576776
0.533227 0.896361 0.560082
0.653254 0.886168 0.525994
0.770230 0.884916 0.452064
0.893675 0.887785 0.301884
0.998627 0.876921 0.000000
0.303075 0.971283 0.641169
0.356909 0.969451 0.646632
0.492897 0.963867 0.667445
0.636103 0.957366 0.699916
0.685328 0.950072 0.657343
0.775540 0.945037 0.633478
0.861357 0.948760 0.562188
0.960510 0.950103 0.405615
0.000000 0.058503 0.126101
0.108217 0.065553 0.118807
0.296544 0.000000 0.110780
0.510063 0.000000 0.090089
0.695949 0.000000 0.000000
0.834165 0.050050 0.000000
0.938140 0.190311 0.000000
1.000000 0.276585 0.000000
0.000000 0.114015 0.131167
0.105837 0.127504 0.132357
0.296635 0.119448 0.117372
0.507774 0.075593 0.085786
0.691859 0.067506 0.000000
0.828000 0.151827 0.000000
0.930816 0.226993 0.000000
1.000000 0.296178 0.000000
0.000000 0.268833 0.174228
0.104982 0.281132 0.178439
0.284459 0.299718 0.138643
0.512810 0.291234 0.052796
0.692714 0.289555 0.000000
0.827115 0.310491 0.000000
0.933104 0.348333 0.000000
1.000000 0.384894 0.000000
0.000000 0.476600 0.254520
0.029877 0.482216 0.252567
0.275761 0.488808 0.215976
0.501640 0.515343 0.129793
0.704616 0.511803 0.000000
0.824949 0.480415 0.000000
0.927581 0.484352 0.000000
1.000000 0.495247 0.000000
0.000000 0.677699 0.376684
0.000000 0.677760 0.369848
0.273442 0.680262 0.328923
0.486732 0.670344 0.290166
0.675502 0.684108 0.157778
0.829038 0.671260 0.000000
0.924376 0.637110 0.000000
1.000000 0.620661 0.000000
0.000000 0.806210 0.481300
0.099825 0.806455 0.480232
0.334325 0.805264 0.477760
0.490364 0.801389 0.438178
0.649012 0.797208 0.384405
0.805051 0.806882 0.256352
0.928557 0.795499 0.000000
1.000000 0.757076 0.000000
0.159182 0.899351 0.572351
0.235813 0.897398 0.572686
0.400732 0.893370 0.582055
0.533806 0.890227 0.574151
0.652735 0.881987 0.545861
0.766476 0.880400 0.478920
0.887083 0.882658 0.341436
0.992096 0.871824 0.009857
0.296666 0.967926 0.647089
0.351934 0.966613 0.652857
0.488350 0.961486 0.672541
0.636866 0.954986 0.706905
0.697932 0.952056 0.679896
0.780148 0.945830 0.653315
0.860899 0.947662 0.583062
0.957519 0.948333 0.437018
0.000000 0.092470 0.301274
0.125643 0.104982 0.301396
0.326055 0.117617 0.287602
0.533715 0.058534 0.269322
0.695888 0.000000 0.237430
0.832822 0.158816 0.220066
0.938384 0.244297 0.178378
1.000000 0.307134 0.092592
0.000000 0.144991 0.299809
0.128176 0.163088 0.303349
0.317906 0.185428 0.292729
0.519554 0.152468 0.271763
0.691463 0.137514 0.240909
0.826841 0.205631 0.215457
0.933074 0.270726 0.170993
1.000000 0.326818 0.079866
0.000000 0.282261 0.313909
0.094881 0.291203 0.314061
0.303044 0.312779 0.313268
0.513970 0.304814 0.279881
0.696986 0.312840 0.247745
0.826871 0.334356 0.211276
0.930632 0.367285 0.161379
1.000000 0.400031 0.023285
0.000000 0.489998 0.400763
0.091920 0.495766 0.401678
0.319127 0.507622 0.394476
0.517266 0.527276 0.343664
0.704250 0.510704 0.259617
0.826261 0.491249 0.202609
0.928099 0.496223 0.144350
1.000000 0.505821 0.000000
0.000000 0.680140 0.492012
0.089967 0.681971 0.492927
0.340459 0.684474 0.489754
0.510521 0.682033 0.455055
0.683040 0.692470 0.380743
0.825437 0.672023 0.274113
0.921233 0.636103 0.134615
1.000000 0.623529 0.000000
0.000000 0.806027 0.564172
0.193393 0.806027 0.566369
0.378637 0.803464 0.568750
0.522881 0.799771 0.550744
0.656977 0.793118 0.514794
0.798245 0.803922 0.431250
0.919188 0.792447 0.312139
1.000000 0.757229 0.094087
0.235172 0.899413 0.633204
0.296178 0.897704 0.634882
0.435096 0.892485 0.641169
0.583337 0.886290 0.655177
0.669154 0.880491 0.621607
0.771878 0.879149 0.578485
0.884977 0.884916 0.488960
0.988983 0.875181 0.341924
0.315984 0.966735 0.684047
0.359472 0.964935 0.686030
0.489845 0.959594 0.700618
0.638880 0.954253 0.730861
0.715450 0.950469 0.723171
0.789242 0.945586 0.702144
0.864164 0.947509 0.651667
0.954589 0.949584 0.548425
0.000000 0.140658 0.524773
0.125216 0.156680 0.531731
0.376471 0.221653 0.543511
0.559686 0.224277 0.519280
0.722347 0.247349 0.490089
0.822354 0.252262 0.447120
0.915709 0.300603 0.420020
1.000000 0.357580 0.385595
0.000000 0.198337 0.526207
0.135683 0.211887 0.531121
0.374670 0.267704 0.543694
0.555627 0.276799 0.523339
0.716030 0.287755 0.493446
0.815518 0.281559 0.446937
0.912902 0.323461 0.418036
1.000000 0.370611 0.379339
0.000000 0.300420 0.508995
0.000000 0.303746 0.507622
0.327306 0.349737 0.528771
0.538811 0.396185 0.531151
0.696437 0.386725 0.500908
0.809689 0.381842 0.460853
0.918364 0.417395 0.435218
1.000000 0.437568 0.382116
0.000000 0.484352 0.543816
0.000000 0.488991 0.543664
0.300725 0.503410 0.543359
0.513420 0.526207 0.543603
0.679622 0.512657 0.504540
0.805264 0.508843 0.466499
0.911376 0.515648 0.426154
1.000000 0.525689 0.372839
0.000000 0.685328 0.622919
0.156619 0.686000 0.623590
0.376043 0.688472 0.623774
0.546654 0.688777 0.616358
0.681086 0.694881 0.578607
0.809323 0.668391 0.500816
0.909361 0.642847 0.430182
0.995789 0.633967 0.365454
0.199039 0.810666 0.671351
0.281224 0.813840 0.675868
0.431556 0.809110 0.675349
0.577142 0.804532 0.675135
0.681514 0.799100 0.653254
0.796353 0.807187 0.607538
0.905547 0.792477 0.526848
0.990723 0.756527 0.398199
0.306645 0.897337 0.709987
0.356451 0.896635 0.712032
0.477180 0.893584 0.717464
0.606348 0.889372 0.724239
0.701717 0.884886 0.716060
0.785397 0.880888 0.689387
0.881468 0.886656 0.633600
0.977569 0.876005 0.539666
0.380682 0.965332 0.746914
0.416175 0.964355 0.748775
0.508995 0.960601 0.752987
0.633326 0.954803 0.765408
0.746639 0.948974 0.784146
0.802335 0.945892 0.763058
0.869322 0.947112 0.730892
0.950927 0.950683 0.664607
0.055512 0.212863 0.698207
0.202945 0.227726 0.701625
0.409918 0.282841 0.709071
0.605768 0.392523 0.719631
0.732174 0.388922 0.691005
0.835416 0.443580 0.660700
0.908751 0.454383 0.633478
0.977996 0.492592 0.624628
0.088441 0.259159 0.694881
0.210086 0.272984 0.699489
0.409461 0.321874 0.707851
0.607294 0.432532 0.721157
0.727779 0.420539 0.691463
0.831662 0.465309 0.663355
0.906126 0.470130 0.635431
0.976379 0.501640 0.624598
0.000000 0.338842 0.675196
0.125856 0.352911 0.680598
0.374945 0.399939 0.694881
0.591150 0.497627 0.713313
0.712337 0.504143 0.691707
0.815366 0.518364 0.665034
0.895140 0.509300 0.635309
0.971679 0.523705 0.616541
0.000000 0.481880 0.678035
0.000000 0.483558 0.676326
0.275151 0.489235 0.672206
0.535729 0.552636 0.692317
0.693751 0.602808 0.696132
0.795315 0.587121 0.668116
0.882322 0.562799 0.630304
0.975769 0.566583 0.596643
0.000000 0.647700 0.701625
0.103182 0.649897 0.701350
0.333074 0.655512 0.699123
0.519097 0.666072 0.696468
0.664057 0.678889 0.692622
0.780056 0.661158 0.658625
0.883635 0.651606 0.623713
0.975006 0.647578 0.583459
0.195499 0.794522 0.744015
0.270329 0.794583 0.744472
0.429267 0.793301 0.745418
0.583337 0.794186 0.748898
0.684321 0.790585 0.736049
0.785031 0.798703 0.713893
0.886717 0.781003 0.656947
0.973907 0.754482 0.589075
0.384619 0.892119 0.787228
0.417884 0.890745 0.786831
0.509483 0.887510 0.786404
0.616876 0.884642 0.786038
0.714168 0.882261 0.782803
0.791287 0.878111 0.767880
0.875547 0.884276 0.733761
0.963958 0.871092 0.666133
0.434913 0.958556 0.808255
0.460975 0.957488 0.808469
0.535790 0.954376 0.809293
0.636103 0.952911 0.813626
0.734371 0.948882 0.817350
0.813504 0.945769 0.818357
0.873350 0.945006 0.798032
0.946532 0.949676 0.754147
0.270665 0.309361 0.814145
0.326452 0.322850 0.815091
0.467445 0.372503 0.818173
0.631617 0.472602 0.824552
0.755734 0.549126 0.823056
0.835874 0.548913 0.795285
0.910491 0.609186 0.778775
0.969299 0.623835 0.766995
0.269718 0.339239 0.807462
0.323308 0.351019 0.808682
0.462348 0.395972 0.812680
0.625055 0.487160 0.819181
0.751614 0.566003 0.819974
0.831540 0.562768 0.793820
0.907652 0.617304 0.778744
0.967529 0.628962 0.766659
0.243748 0.416144 0.801205
0.301884 0.426184 0.802121
0.448493 0.464942 0.806332
0.617609 0.543450 0.814481
0.751736 0.630640 0.821347
0.825345 0.616236 0.796902
0.902068 0.650599 0.783627
0.963958 0.651728 0.769131
0.000000 0.485084 0.780789
0.074250 0.484291 0.778347
0.354223 0.518212 0.786130
0.582757 0.598260 0.803616
0.746944 0.692988 0.822202
0.819913 0.688533 0.805112
0.895293 0.696895 0.790982
0.959838 0.684047 0.770840
0.055818 0.632929 0.789395
0.171725 0.634180 0.788571
0.332494 0.637964 0.785306
0.487800 0.643732 0.779751
0.682460 0.698390 0.795499
0.801022 0.740261 0.801755
0.877653 0.724392 0.780667
0.950317 0.702571 0.752865
0.217350 0.761044 0.801907
0.274937 0.763210 0.802670
0.404303 0.766354 0.801511
0.542748 0.771511 0.799466
0.664393 0.778103 0.796597
0.775998 0.790005 0.795987
0.867979 0.775113 0.769039
0.955840 0.766445 0.741848
0.362829 0.885924 0.842832
0.402319 0.885954 0.843473
0.502586 0.884092 0.843442
0.621698 0.883146 0.844938
0.731838 0.884764 0.848569
0.803586 0.881895 0.838193
0.874479 0.884581 0.818296
0.954650 0.867094 0.768124
0.499702 0.954772 0.870634
0.522148 0.953826 0.870939
0.582788 0.951324 0.870573
0.660456 0.949371 0.869718
0.740444 0.947570 0.867735
0.819211 0.946471 0.867002
0.881407 0.944976 0.860288
0.945525 0.950439 0.834226
0.412665 0.418647 0.890074
0.446326 0.432136 0.891142
0.538354 0.472541 0.891203
0.659998 0.545892 0.891997
0.774044 0.639460 0.893339
0.848997 0.664790 0.888212
0.903960 0.666346 0.864652
0.960967 0.718990 0.855467
0.407111 0.434577 0.884855
0.440131 0.446662 0.885893
0.532067 0.484138 0.886503
0.653040 0.551904 0.887358
0.768063 0.641291 0.889189
0.843717 0.668330 0.884306
0.898772 0.666621 0.860716
0.957366 0.716487 0.851652
0.401556 0.494423 0.881804
0.433204 0.503166 0.881987
0.525994 0.534417 0.882292
0.648005 0.592096 0.884092
0.764004 0.669459 0.886931
0.842863 0.707179 0.885313
0.897490 0.701747 0.865110
0.957519 0.744289 0.858732
0.297276 0.538140 0.872587
0.344182 0.545830 0.872343
0.478462 0.581659 0.873655
0.623041 0.635065 0.877958
0.752255 0.703761 0.883818
0.844511 0.762142 0.889525
0.895995 0.749874 0.872099
0.955871 0.774014 0.865354
0.187289 0.624842 0.863279
0.229679 0.623651 0.861540
0.335973 0.621576 0.857145
0.503990 0.641901 0.857816
0.700710 0.715145 0.870298
0.832639 0.794858 0.886076
0.887114 0.788418 0.872923
0.950652 0.799283 0.867002
0.268009 0.746548 0.868711
0.303197 0.747158 0.868132
0.398413 0.749172 0.866148
0.511223 0.751919 0.863249
0.619593 0.751125 0.857755
0.785489 0.799649 0.871702
0.882628 0.837644 0.880186
0.944549 0.826200 0.865599
0.367010 0.848661 0.879179
0.395972 0.849638 0.879545
0.474128 0.851164 0.879026
0.574273 0.854276 0.878569
0.676570 0.857816 0.876829
0.774807 0.863951 0.875456
0.863218 0.873625 0.875486
0.940215 0.860899 0.853361
0.443091 0.940856 0.904631
0.465736 0.941314 0.905272
0.540764 0.945037 0.909697
0.635004 0.946715 0.912444
0.736141 0.945434 0.913146
0.830503 0.947448 0.917815
0.890227 0.948119 0.912902
0.946349 0.951507 0.899535
0.544030 0.542870 0.945922
0.563348 0.551873 0.945953
0.618921 0.577447 0.944213
0.701503 0.625147 0.942809
0.787655 0.687404 0.941222
0.863523 0.756832 0.940520
0.915038 0.753353 0.936980
0.955200 0.756924 0.917113
0.540581 0.551659 0.943725
0.559808 0.560204 0.943816
0.616022 0.585046 0.942504
0.698054 0.629877 0.941009
0.784939 0.690455 0.939696
0.861540 0.758541 0.939330
0.912963 0.756283 0.935668
0.953552 0.758785 0.916197
0.530694 0.582818 0.940459
0.549493 0.589593 0.940368
0.605463 0.609949 0.938842
0.693080 0.654261 0.939239
0.780972 0.708309 0.938293
0.858610 0.770352 0.938262
0.910857 0.775723 0.935515
0.952056 0.775296 0.917815
0.473915 0.609308 0.937102
0.504448 0.620325 0.937163
0.577173 0.644129 0.936126
0.671778 0.680873 0.936126
0.769314 0.730953 0.936522
0.853819 0.788907 0.938170
0.909941 0.807950 0.937530
0.951385 0.803464 0.922301
0.291417 0.629999 0.929778
0.334936 0.635462 0.930236
0.447364 0.652064 0.930022
0.592248 0.688319 0.931243
0.731197 0.743343 0.932158
0.836576 0.800900 0.935576
0.907958 0.842832 0.939757
0.950683 0.837522 0.928313
0.319921 0.738369 0.929961
0.339940 0.737606 0.929107
0.401740 0.735592 0.926848
0.487098 0.731563 0.923980
0.612329 0.738582 0.922637
0.797147 0.810147 0.931609
0.907988 0.879454 0.945006
0.951690 0.877714 0.937438
0.386786 0.836759 0.934600
0.404517 0.836698 0.934112
0.460090 0.836698 0.932860
0.542901 0.838010 0.931640
0.636774 0.839811 0.929931
0.730739 0.840970 0.927489
0.871275 0.881559 0.937499
0.948821 0.912566 0.943389
0.462287 0.916869 0.943023
0.477546 0.916838 0.942779
0.528466 0.917388 0.942412
0.606928 0.919402 0.942504
0.696132 0.922728 0.942596
0.784695 0.928008 0.942870
0.866972 0.935729 0.943877
0.940246 0.945312 0.945647
