data/fiter_cube/15997792/1023463/file.cube
# Created by Adobe Lightroom plugin Export LUT (1.17.0)
# www.johnrellis.com/lightroom/exportlut.htm
# Preset: 日系A通透明亮[云集]-4
# Color profile: C:\Program Files (x86)\Common Files\Adobe\Color\Profiles\Recommended\AdobeRGB1998.icc
LUT_3D_SIZE 5
DOMAIN_MIN 0.000000 0.000000 0.000000
DOMAIN_MAX 0.903226 0.903226 0.903226
0.000000 0.000000 0.000000
0.256687 0.000000 0.026520
0.627893 0.000000 0.000000
0.882139 0.000000 0.000000
1.000000 0.279362 0.000000
0.000000 0.223758 0.103090
0.226749 0.248661 0.008789
0.620661 0.235019 0.000000
0.875517 0.281804 0.000000
1.000000 0.370611 0.000000
0.000000 0.586481 0.257969
0.188998 0.594720 0.208347
0.620172 0.632105 0.000000
0.870481 0.586389 0.000000
1.000000 0.563592 0.000000
0.000000 0.844419 0.489357
0.302953 0.843778 0.492683
0.580011 0.831571 0.433082
0.833951 0.832883 0.215366
1.000000 0.791867 0.000000
0.303075 0.971283 0.641169
0.455299 0.965515 0.660578
0.643915 0.952605 0.667292
0.796811 0.945342 0.622156
0.960510 0.950103 0.405615
0.000000 0.082795 0.246128
0.265385 0.098054 0.235142
0.608331 0.000000 0.199588
0.858213 0.153353 0.145937
1.000000 0.292943 0.000000
0.000000 0.235203 0.259953
0.251316 0.261936 0.259770
0.608789 0.251286 0.204990
0.855436 0.297337 0.134127
1.000000 0.372656 0.000000
0.000000 0.587732 0.406867
0.264866 0.596246 0.402106
0.603418 0.613245 0.298589
0.850797 0.568231 0.094331
1.000000 0.564050 0.000000
0.120516 0.840696 0.570916
0.355261 0.839353 0.577630
0.601282 0.829343 0.548333
0.827909 0.830716 0.409094
1.000000 0.790066 0.000061
0.319463 0.969482 0.676631
0.463386 0.963867 0.692012
0.678645 0.953948 0.721492
0.808225 0.945678 0.683467
0.957305 0.951232 0.526421
0.000000 0.174685 0.623102
0.334295 0.227726 0.634272
0.657313 0.302342 0.616876
0.850278 0.351812 0.555352
0.989319 0.420539 0.520378
0.000000 0.289494 0.603723
0.302922 0.335821 0.622187
0.643854 0.420935 0.622858
0.834958 0.419745 0.559258
0.990021 0.459449 0.511833
0.000000 0.574334 0.633387
0.249607 0.582544 0.630793
0.595911 0.610071 0.627070
0.818753 0.588373 0.564874
0.987915 0.588617 0.489479
0.279759 0.833585 0.727993
0.422370 0.828672 0.725765
0.646815 0.823789 0.723171
0.816556 0.827909 0.674006
0.978485 0.784298 0.517357
0.402319 0.961120 0.775814
0.496803 0.958465 0.779782
0.686000 0.951263 0.791501
0.822141 0.944152 0.785122
0.947570 0.949157 0.707973
0.302037 0.330846 0.832425
0.443580 0.376715 0.835691
0.705867 0.546258 0.844022
0.853849 0.578820 0.813535
0.966278 0.648707 0.791501
0.292668 0.411505 0.823392
0.432349 0.447517 0.826658
0.697383 0.587915 0.837797
0.845884 0.622553 0.813626
0.961517 0.665766 0.791653
0.000000 0.553063 0.800137
0.256443 0.553521 0.795407
0.631830 0.647303 0.813413
0.825223 0.716152 0.814176
0.952178 0.713069 0.790372
0.269230 0.787991 0.825345
0.390509 0.788663 0.822812
0.608820 0.796536 0.819699
0.799130 0.812467 0.817075
0.949920 0.788968 0.769741
0.489357 0.953918 0.880797
0.561547 0.951751 0.881987
0.709560 0.948760 0.883818
0.840177 0.947417 0.880430
0.945220 0.950347 0.851194
0.544030 0.542870 0.945922
0.601770 0.568994 0.944671
0.745357 0.655055 0.942046
0.877470 0.763119 0.940124
0.955200 0.756924 0.917113
0.536889 0.575769 0.941985
0.594720 0.598077 0.941070
0.740017 0.674464 0.939452
0.876158 0.781216 0.938994
0.953033 0.771511 0.917876
0.400732 0.615503 0.933898
0.494789 0.636652 0.933501
0.699702 0.710506 0.933104
0.864775 0.807706 0.936919
0.950652 0.819028 0.924651
0.343847 0.767361 0.932311
0.404883 0.766232 0.930266
0.551843 0.761624 0.925505
0.814817 0.827543 0.932250
0.950896 0.886046 0.938720
0.462287 0.916869 0.943023
0.512474 0.917144 0.942473
0.651118 0.920928 0.942565
0.805997 0.929717 0.943053
0.940246 0.945312 0.945647
