data/fiter_cube/15997792/1023463/file.cube
# Created by Adobe Lightroom plugin Export LUT (1.17.0)
# www.johnrellis.com/lightroom/exportlut.htm
# Preset: 日系A通透明亮[云集]-4
# Color profile: C:\Program Files (x86)\Common Files\Adobe\Color\Profiles\Recommended\AdobeRGB1998.icc
LUT_3D_SIZE 32
DOMAIN_MIN 0.0 0.0 0.0
DOMAIN_MAX 1.0 1.0 1.0
0.000000 0.000000 0.000000
0.021271 0.004608 0.002319
0.048310 0.010498 0.005432
0.077424 0.025116 0.011170
0.112825 0.037873 0.018128
0.157870 0.026429 0.023438
0.206271 0.000000 0.027497
0.256687 0.000000 0.026520
0.309148 0.000000 0.023041
0.363256 0.000000 0.014282
0.418647 0.000000 0.000458
0.473884 0.000000 0.000000
0.527764 0.000000 0.000000
0.579522 0.000000 0.000000
0.627893 0.000000 0.000000
0.671595 0.000000 0.000000
0.710964 0.000000 0.000000
0.746700 0.000000 0.000000
0.782925 0.000000 0.000000
0.820066 0.000000 0.000000
0.852934 0.000000 0.000000
0.882139 0.000000 0.000000
0.907897 0.102052 0.000000
0.930968 0.144533 0.000000
0.951995 0.176364 0.000000
0.971557 0.204318 0.000000
0.990265 0.230289 0.000000
1.000000 0.255131 0.000000
1.000000 0.279362 0.000000
1.000000 0.303563 0.000000
1.000000 0.327947 0.073182
1.000000 0.352667 0.125429
0.000000 0.025757 0.009857
0.014252 0.031525 0.003540
0.045777 0.036988 0.000122
0.076997 0.050233 0.004730
0.112612 0.058045 0.011902
0.157046 0.048280 0.017456
0.205173 0.017517 0.021576
0.254948 0.000000 0.021820
0.306950 0.000000 0.018433
0.360876 0.000000 0.010712
0.415656 0.000000 0.000000
0.470527 0.000000 0.000000
0.524132 0.000000 0.000000
0.575708 0.000000 0.000000
0.623987 0.000000 0.000000
0.667720 0.000000 0.000000
0.707179 0.000000 0.000000
0.743099 0.000000 0.000000
0.779416 0.000000 0.000000
0.815824 0.000000 0.000000
0.848417 0.000000 0.000000
0.877592 0.003632 0.000000
0.903563 0.103853 0.000000
0.926970 0.144442 0.000000
0.948333 0.176028 0.000000
0.968261 0.203738 0.000000
0.987335 0.229313 0.000000
1.000000 0.254307 0.000000
1.000000 0.278416 0.000000
1.000000 0.302586 0.000000
1.000000 0.326940 0.063813
1.000000 0.351476 0.119600
0.000000 0.056519 0.021180
0.010651 0.058930 0.017273
0.035309 0.061677 0.007416
0.075654 0.067811 0.000000
0.112001 0.069795 0.004089
0.156619 0.065583 0.010651
0.203952 0.049500 0.014893
0.253361 0.002838 0.016266
0.305211 0.000000 0.012787
0.358709 0.000000 0.005066
0.413428 0.000000 0.000000
0.468177 0.000000 0.000000
0.521752 0.000000 0.000000
0.573327 0.000000 0.000000
0.621576 0.000000 0.000000
0.665461 0.000000 0.000000
0.705013 0.000000 0.000000
0.740963 0.000000 0.000000
0.777554 0.000000 0.000000
0.813443 0.000000 0.000000
0.845975 0.000000 0.000000
0.875212 0.055360 0.000000
0.901305 0.114565 0.000000
0.924834 0.151095 0.000000
0.946319 0.181003 0.000000
0.966430 0.207248 0.000000
0.985687 0.232242 0.000000
1.000000 0.256565 0.000000
1.000000 0.280339 0.000000
1.000000 0.304326 0.000000
1.000000 0.328191 0.053712
1.000000 0.352392 0.115236
0.000000 0.080262 0.050477
0.007568 0.082307 0.046357
0.031983 0.082521 0.042420
0.068574 0.086976 0.017975
0.109224 0.093385 0.000000
0.156649 0.089937 0.000000
0.203830 0.082002 0.000000
0.253025 0.068208 0.000793
0.304326 0.027802 0.000000
0.357641 0.000000 0.000000
0.411841 0.000000 0.000000
0.466255 0.000000 0.000000
0.519493 0.000000 0.000000
0.570703 0.000000 0.000000
0.618982 0.000000 0.000000
0.662867 0.000000 0.000000
0.702419 0.000000 0.000000
0.738399 0.000000 0.000000
0.775143 0.000000 0.000000
0.809964 0.000000 0.000000
0.841886 0.008789 0.000000
0.870939 0.097414 0.000000
0.897429 0.136110 0.000000
0.921660 0.166995 0.000000
0.944030 0.194003 0.000000
0.964935 0.218936 0.000000
0.984802 0.242741 0.000000
1.000000 0.265995 0.000000
1.000000 0.288609 0.000000
1.000000 0.311192 0.000000
1.000000 0.333928 0.031006
1.000000 0.356909 0.108919
0.000000 0.106813 0.068177
0.000610 0.108492 0.066621
0.020111 0.110292 0.062013
0.062593 0.111666 0.057801
0.096407 0.118532 0.029511
0.149599 0.124422 0.000000
0.200717 0.119173 0.000000
0.250980 0.109621 0.000000
0.301976 0.098238 0.000000
0.354742 0.082338 0.000000
0.408606 0.057252 0.000000
0.462715 0.000000 0.000000
0.515801 0.000000 0.000000
0.567102 0.000000 0.000000
0.615686 0.000000 0.000000
0.660090 0.000000 0.000000
0.700282 0.000000 0.000000
0.736599 0.000000 0.000000
0.774258 0.000000 0.000000
0.808438 0.075715 0.000000
0.839750 0.112245 0.000000
0.868589 0.141909 0.000000
0.894987 0.168154 0.000000
0.919402 0.192203 0.000000
0.941985 0.215061 0.000000
0.963165 0.236759 0.000000
0.983215 0.258122 0.000000
1.000000 0.279026 0.000000
1.000000 0.299962 0.000000
1.000000 0.320928 0.000000
1.000000 0.342199 0.000000
1.000000 0.364050 0.098360
0.000000 0.138796 0.078981
0.000000 0.140932 0.077516
0.002838 0.143252 0.074952
0.047150 0.144839 0.068421
0.087282 0.148165 0.061799
0.133028 0.155825 0.030640
0.194614 0.162814 0.000000
0.248020 0.156954 0.000000
0.301274 0.148165 0.000000
0.354314 0.138796 0.000000
0.407996 0.129152 0.000000
0.461952 0.118624 0.000000
0.514702 0.108248 0.000000
0.565881 0.099306 0.000000
0.614405 0.094484 0.000000
0.658900 0.095155 0.000000
0.699184 0.101076 0.000000
0.737209 0.112856 0.000000
0.774319 0.129824 0.000000
0.808164 0.148226 0.000000
0.839445 0.167269 0.000000
0.868437 0.186923 0.000000
0.919646 0.236393 0.000000
0.941985 0.254002 0.000000
0.962280 0.270756 0.000000
0.981140 0.286839 0.000000
0.998901 0.303044 0.000000
1.000000 0.319188 0.000000
1.000000 0.335882 0.000000
1.000000 0.353033 0.000000
1.000000 0.370825 0.026612
1.000000 0.389044 0.110994
0.000000 0.181674 0.091218
0.000000 0.183352 0.089723
0.000000 0.185824 0.087404
0.007568 0.188937 0.079164
0.079927 0.190066 0.074617
0.125795 0.195377 0.062287
0.180972 0.203403 0.020722
0.250614 0.212772 0.000000
0.307347 0.206058 0.000000
0.363561 0.198642 0.000000
0.418799 0.190524 0.000000
0.473243 0.185306 0.000000
0.525750 0.180636 0.000000
0.576135 0.177005 0.000000
0.623285 0.175509 0.000000
0.665919 0.176242 0.000000
0.704860 0.178958 0.000000
0.745052 0.187289 0.000000
0.781949 0.198245 0.000000
0.816281 0.210849 0.000000
0.848783 0.226078 0.000000
0.879423 0.242496 0.000000
0.907683 0.259861 0.000000
0.933318 0.276860 0.000000
0.956359 0.293187 0.000000
0.976837 0.308232 0.000000
0.995544 0.322789 0.000000
1.000000 0.337072 0.000000
1.000000 0.351751 0.000000
1.000000 0.367102 0.000000
1.000000 0.383001 0.000000
1.000000 0.399725 0.090181
0.000000 0.223758 0.103090
0.000000 0.225193 0.101747
0.000000 0.227146 0.100038
0.000000 0.231052 0.095308
0.063386 0.232273 0.086122
0.118013 0.232761 0.080476
0.167514 0.240360 0.062470
0.226749 0.248661 0.008789
0.301488 0.261601 0.000000
0.359747 0.255344 0.000000
0.416449 0.248692 0.000000
0.471046 0.241947 0.000000
0.523095 0.236393 0.000000
0.573510 0.234623 0.000000
0.620661 0.235019 0.000000
0.663386 0.235538 0.000000
0.704311 0.238224 0.000000
0.743984 0.243717 0.000000
0.779599 0.250523 0.000000
0.813138 0.259098 0.000000
0.845182 0.269810 0.000000
0.875517 0.281804 0.000000
0.903624 0.295140 0.000000
0.929259 0.308476 0.000000
0.952422 0.321508 0.000000
0.973205 0.333806 0.000000
0.992157 0.345830 0.000000
1.000000 0.357916 0.000000
1.000000 0.370611 0.000000
1.000000 0.383978 0.000000
1.000000 0.398230 0.000000
1.000000 0.413214 0.057923
0.000000 0.270329 0.117403
0.000000 0.271458 0.116487
0.000000 0.273198 0.114961
0.000000 0.276524 0.111757
0.021607 0.279179 0.099855
0.108675 0.279515 0.094606
0.162295 0.280858 0.086152
0.214847 0.289677 0.061860
0.276921 0.298375 0.000000
0.356176 0.315526 0.000000
0.414954 0.309728 0.000000
0.470954 0.303136 0.000000
0.523613 0.296971 0.000000
0.572808 0.291203 0.000000
0.619043 0.289006 0.000000
0.662440 0.289525 0.000000
0.705592 0.293706 0.000000
0.743862 0.298131 0.000000
0.778470 0.301701 0.000000
0.811398 0.307103 0.000000
0.842924 0.314549 0.000000
0.872923 0.323156 0.000000
0.900816 0.333013 0.000000
0.926360 0.343236 0.000000
0.949523 0.353338 0.000000
0.970397 0.362860 0.000000
0.989563 0.372412 0.000000
1.000000 0.382269 0.000000
1.000000 0.392737 0.000000
1.000000 0.404059 0.000000
1.000000 0.416205 0.000000
1.000000 0.429236 0.000000
0.000000 0.320104 0.133791
0.000000 0.321050 0.132998
0.000000 0.322240 0.131533
0.000000 0.325078 0.128389
0.000000 0.328588 0.118257
0.096925 0.328893 0.109651
0.156802 0.328710 0.103029
0.209842 0.332158 0.089601
0.265476 0.341314 0.059083
0.329198 0.350286 0.000000
0.410834 0.369848 0.000000
0.469306 0.364782 0.000000
0.523156 0.358465 0.000000
0.573144 0.352575 0.000000
0.620081 0.347906 0.000000
0.665583 0.345769 0.000000
0.707362 0.347234 0.000000
0.744930 0.349065 0.000000
0.779110 0.351904 0.000000
0.811521 0.356146 0.000000
0.842069 0.360296 0.000000
0.870848 0.365515 0.000000
0.897704 0.371557 0.000000
0.922484 0.378302 0.000000
0.945342 0.385138 0.000000
0.966308 0.392279 0.000000
0.985901 0.399695 0.000000
1.000000 0.407782 0.000000
1.000000 0.416663 0.000000
1.000000 0.426307 0.000000
1.000000 0.436927 0.000000
1.000000 0.448371 0.000000
0.000000 0.370245 0.151980
0.000000 0.371160 0.151095
0.000000 0.372320 0.149783
0.000000 0.374762 0.147066
0.000000 0.378210 0.142458
0.080079 0.380102 0.126223
0.149813 0.380194 0.120119
0.207980 0.379889 0.112215
0.261173 0.386053 0.092256
0.319432 0.395331 0.049958
0.383886 0.404211 0.000000
0.464820 0.424079 0.000000
0.523278 0.421332 0.000000
0.576043 0.416419 0.000000
0.625635 0.412604 0.000000
0.669154 0.407691 0.000000
0.708064 0.402258 0.000000
0.743404 0.398413 0.000000
0.777005 0.398352 0.000000
0.808988 0.400122 0.000000
0.839475 0.403571 0.000000
0.868284 0.407324 0.000000
0.895109 0.411200 0.000000
0.919921 0.415442 0.000000
0.942748 0.420050 0.000000
0.963745 0.424720 0.000000
0.983307 0.429877 0.000000
1.000000 0.435767 0.000000
1.000000 0.442542 0.000000
1.000000 0.450202 0.000000
1.000000 0.458808 0.000000
1.000000 0.468391 0.000000
0.000000 0.423194 0.172976
0.000000 0.423987 0.172061
0.000000 0.424933 0.171084
0.000000 0.426947 0.168338
0.000000 0.430060 0.163851
0.054932 0.433234 0.145815
0.141146 0.433478 0.138705
0.203555 0.433326 0.131319
0.262089 0.432624 0.122164
0.315709 0.441535 0.094789
0.375555 0.450568 0.034150
0.440162 0.459266 0.000000
0.546868 0.504051 0.000000
0.609247 0.507500 0.000000
0.657343 0.500664 0.000000
0.698970 0.492134 0.000000
0.735531 0.483162 0.000000
0.768032 0.474372 0.000000
0.797757 0.466438 0.000000
0.826993 0.462806 0.000000
0.855222 0.462379 0.000000
0.881682 0.463142 0.000000
0.906340 0.464393 0.000000
0.929107 0.465034 0.000000
0.950256 0.466194 0.000000
0.970001 0.467872 0.000000
0.988525 0.470130 0.000000
1.000000 0.473060 0.000000
1.000000 0.477028 0.000000
1.000000 0.481941 0.000000
1.000000 0.487922 0.000000
1.000000 0.494972 0.000000
0.000000 0.486549 0.201419
0.000000 0.487190 0.200687
0.000000 0.487373 0.199008
0.000000 0.488411 0.196109
0.000000 0.489967 0.191012
0.074678 0.492042 0.183963
0.132052 0.492317 0.161593
0.200931 0.491432 0.154208
0.262303 0.490791 0.145418
0.320134 0.492775 0.131441
0.378393 0.503990 0.099763
0.446082 0.519036 0.018891
0.517357 0.533715 0.000000
0.599634 0.557610 0.000000
0.657221 0.560021 0.000000
0.698878 0.550195 0.000000
0.734920 0.539055 0.000000
0.766781 0.527886 0.000000
0.795956 0.517723 0.000000
0.823789 0.509361 0.000000
0.850431 0.502892 0.000000
0.876799 0.501122 0.000000
0.901427 0.500664 0.000000
0.924559 0.500847 0.000000
0.945830 0.500084 0.000000
0.965728 0.499947 0.000000
0.984497 0.500420 0.000000
1.000000 0.501793 0.000000
1.000000 0.503990 0.000000
1.000000 0.507347 0.000000
1.000000 0.511742 0.000000
1.000000 0.517174 0.000000
0.000000 0.537072 0.228214
0.000000 0.537469 0.227298
0.000000 0.537743 0.225834
0.000000 0.538476 0.222904
0.000000 0.539544 0.217929
0.045838 0.541131 0.211368
0.117464 0.542809 0.185489
0.193698 0.541863 0.178286
0.258152 0.541466 0.170230
0.321324 0.544152 0.161746
0.381262 0.551873 0.143740
0.443030 0.564630 0.109041
0.507897 0.576593 0.024353
0.573266 0.587304 0.000000
0.644617 0.603662 0.000000
0.698390 0.605890 0.000000
0.733822 0.592859 0.000000
0.765133 0.579858 0.000000
0.793973 0.567742 0.000000
0.821469 0.557580 0.000000
0.847868 0.549187 0.000000
0.873045 0.542412 0.000000
0.897063 0.537377 0.000000
0.920409 0.536126 0.000000
0.942168 0.535210 0.000000
0.962280 0.533379 0.000000
0.981231 0.532311 0.000000
0.999329 0.531975 0.000000
1.000000 0.532738 0.000000
1.000000 0.534600 0.000000
1.000000 0.537469 0.000000
1.000000 0.541344 0.000000
0.000000 0.586481 0.257969
0.000000 0.586908 0.257420
0.000000 0.586969 0.255802
0.000000 0.587488 0.252873
0.000000 0.588220 0.248234
0.000000 0.589899 0.242283
0.138857 0.593164 0.232670
0.188998 0.594720 0.208347
0.257664 0.595544 0.201480
0.321721 0.596521 0.193454
0.383795 0.597803 0.184054
0.441413 0.606104 0.160647
0.500633 0.615961 0.124422
0.560754 0.624811 0.060426
0.620172 0.632105 0.000000
0.681270 0.641566 0.000000
0.733425 0.645441 0.000000
0.764279 0.630762 0.000000
0.792721 0.617090 0.000000
0.819760 0.605188 0.000000
0.845701 0.594995 0.000000
0.870481 0.586389 0.000000
0.893980 0.578973 0.000000
0.916442 0.572747 0.000000
0.938170 0.569055 0.000000
0.958984 0.567254 0.000000
0.978485 0.565087 0.000000
0.997192 0.563897 0.000000
1.000000 0.563592 0.000000
1.000000 0.564385 0.000000
1.000000 0.566094 0.000000
1.000000 0.568658 0.000000
0.000000 0.636683 0.293004
0.000000 0.637415 0.292638
0.000000 0.637873 0.291508
0.000000 0.638880 0.289403
0.000000 0.640253 0.285954
0.000000 0.642115 0.281102
0.147127 0.644373 0.275242
0.188571 0.646754 0.245457
0.259586 0.646632 0.238834
0.323674 0.646448 0.231144
0.384741 0.645960 0.222080
0.443366 0.645624 0.211032
0.496010 0.652461 0.182437
0.550195 0.658686 0.144808
0.604486 0.663935 0.087129
0.657984 0.668208 0.000000
0.711147 0.672816 0.000000
0.763058 0.679408 0.000000
0.791684 0.664912 0.000000
0.818967 0.652216 0.000000
0.844999 0.641077 0.000000
0.869749 0.631220 0.000000
0.893187 0.622553 0.000000
0.915465 0.614984 0.000000
0.936797 0.608362 0.000000
0.957305 0.602655 0.000000
0.977173 0.599603 0.000000
0.996033 0.597040 0.000000
1.000000 0.595331 0.000000
1.000000 0.594507 0.000000
1.000000 0.594415 0.000000
1.000000 0.595178 0.000000
0.000000 0.681178 0.328222
0.000000 0.681453 0.327581
0.000000 0.681544 0.326757
0.000000 0.682124 0.324620
0.000000 0.682826 0.321538
0.000000 0.683864 0.317449
0.151461 0.685176 0.312413
0.210208 0.686763 0.296696
0.258671 0.686915 0.275120
0.322026 0.686030 0.267735
0.381811 0.684993 0.259464
0.439307 0.683680 0.249943
0.492409 0.684443 0.234501
0.541985 0.689570 0.204990
0.592187 0.693874 0.167391
0.642023 0.697200 0.114443
0.691249 0.699886 0.000000
0.739467 0.702358 0.000000
0.790494 0.710628 0.000000
0.817380 0.696712 0.000000
0.843015 0.684382 0.000000
0.867460 0.673335 0.000000
0.890623 0.663447 0.000000
0.912840 0.654719 0.000000
0.934081 0.646937 0.000000
0.954589 0.640101 0.000000
0.974487 0.634180 0.000000
0.993561 0.628901 0.000000
1.000000 0.626062 0.000000
1.000000 0.624079 0.000000
1.000000 0.622827 0.000000
1.000000 0.622309 0.000000
0.000000 0.720272 0.362585
0.000000 0.720882 0.362493
0.000000 0.738033 0.378454
0.000000 0.738186 0.376867
0.000000 0.738308 0.374365
0.089326 0.738308 0.370977
0.181857 0.738308 0.367041
0.249302 0.738308 0.362432
0.278660 0.738766 0.330449
0.338750 0.736904 0.322972
0.395727 0.734829 0.314519
0.450416 0.732387 0.304845
0.502312 0.729335 0.293675
0.549096 0.729976 0.272709
0.594354 0.732692 0.241520
0.640131 0.734829 0.203342
0.686030 0.736355 0.154421
0.731167 0.737575 0.073396
0.775479 0.738705 0.000000
0.823667 0.746670 0.000000
0.847929 0.732509 0.000000
0.871214 0.719753 0.000000
0.893462 0.708248 0.000000
0.914641 0.697749 0.000000
0.934783 0.687984 0.000000
0.954223 0.679255 0.000000
0.973175 0.671412 0.000000
0.991852 0.664637 0.000000
1.000000 0.657527 0.000000
1.000000 0.653651 0.000000
1.000000 0.651148 0.000000
1.000000 0.649287 0.000000
0.000000 0.758877 0.399542
0.000000 0.761135 0.401465
0.000000 0.763333 0.403143
0.000000 0.765377 0.404089
0.000000 0.766781 0.403876
0.110323 0.767330 0.402258
0.192721 0.767330 0.399573
0.257572 0.767025 0.396612
0.296666 0.767422 0.377203
0.340368 0.766140 0.359777
0.394537 0.763943 0.351690
0.446479 0.761532 0.342748
0.496376 0.758480 0.332280
0.543908 0.755001 0.320104
0.585840 0.756374 0.294682
0.628107 0.758053 0.262882
0.670863 0.759335 0.224887
0.713771 0.760342 0.177615
0.756497 0.761318 0.110170
0.798581 0.762539 0.000000
0.844694 0.770413 0.000000
0.868956 0.758419 0.000000
0.891203 0.746334 0.000000
0.912383 0.735164 0.000000
0.932525 0.724758 0.000000
0.951965 0.715297 0.000000
0.970947 0.706722 0.000000
0.989624 0.699153 0.000000
1.000000 0.692164 0.000000
1.000000 0.685176 0.000000
1.000000 0.679683 0.000000
1.000000 0.676661 0.000000
0.000000 0.787655 0.428382
0.000000 0.789517 0.430274
0.000000 0.791470 0.431952
0.000000 0.793088 0.433082
0.000000 0.794217 0.433265
0.134524 0.794491 0.432319
0.207279 0.794217 0.430854
0.268620 0.793729 0.429206
0.325811 0.793210 0.427985
0.346380 0.793362 0.396582
0.396948 0.791226 0.389349
0.446021 0.788846 0.380926
0.493263 0.785885 0.371069
0.538811 0.782589 0.360082
0.581903 0.779538 0.345617
0.620417 0.780972 0.317845
0.660090 0.782040 0.285374
0.700404 0.782864 0.247959
0.740993 0.783688 0.202640
0.781613 0.784695 0.142428
0.821530 0.785824 0.000000
0.865263 0.793118 0.000000
0.889525 0.783139 0.000000
0.910552 0.771450 0.000000
0.930541 0.760403 0.000000
0.949859 0.750149 0.000000
0.968627 0.740810 0.000000
0.987182 0.732479 0.000000
1.000000 0.725032 0.000000
1.000000 0.717769 0.000000
1.000000 0.710780 0.000000
1.000000 0.703944 0.000000
0.000000 0.814115 0.455787
0.000000 0.815732 0.457557
0.000000 0.817380 0.459388
0.000000 0.818723 0.460578
0.067414 0.819547 0.461280
0.160311 0.819638 0.461097
0.224369 0.819181 0.460426
0.281743 0.818418 0.459846
0.336736 0.817563 0.459998
0.363165 0.817655 0.438758
0.402594 0.816037 0.425910
0.448066 0.813626 0.418006
0.492348 0.810819 0.408789
0.535546 0.807736 0.398596
0.577569 0.804318 0.387182
0.616510 0.802823 0.369696
0.653559 0.804349 0.342504
0.691829 0.805844 0.311528
0.730953 0.807340 0.275975
0.770443 0.808927 0.234287
0.809689 0.810636 0.181735
0.848264 0.812375 0.100679
0.889738 0.819028 0.000000
0.913756 0.810636 0.000000
0.933776 0.799344 0.000000
0.952911 0.788724 0.000000
0.971527 0.778775 0.000000
0.989807 0.769680 0.000000
1.000000 0.761379 0.000000
1.000000 0.753597 0.000000
1.000000 0.745846 0.000000
1.000000 0.738277 0.000000
0.000000 0.844419 0.489357
0.000000 0.845060 0.490211
0.000000 0.845548 0.490822
0.000000 0.845823 0.491310
0.129885 0.845762 0.491524
0.193423 0.845274 0.491646
0.249546 0.844633 0.491890
0.302953 0.843778 0.492683
0.355474 0.842893 0.494545
0.401617 0.842100 0.493568
0.418982 0.842252 0.468269
0.460334 0.840146 0.461341
0.500877 0.837644 0.453071
0.540856 0.834775 0.443732
0.580011 0.831571 0.433082
0.618555 0.828122 0.421393
0.653376 0.827756 0.400824
0.688106 0.828855 0.373327
0.723995 0.829923 0.342565
0.760616 0.830930 0.307103
0.797421 0.831907 0.265812
0.833951 0.832883 0.215366
0.869780 0.833829 0.146365
0.908476 0.839109 0.000000
0.931701 0.831540 0.000000
0.950744 0.820462 0.000000
0.969268 0.810117 0.000000
0.987549 0.800626 0.000000
1.000000 0.791867 0.000000
1.000000 0.783627 0.000000
1.000000 0.775570 0.000000
1.000000 0.767758 0.000000
0.000000 0.866056 0.513420
0.000000 0.866636 0.514366
0.015595 0.867124 0.515190
0.112673 0.867247 0.515953
0.168887 0.867094 0.516625
0.220584 0.866453 0.517144
0.270848 0.865507 0.517998
0.320378 0.864408 0.519432
0.370245 0.863218 0.522118
0.419409 0.861906 0.526146
0.435554 0.862333 0.504753
0.470069 0.860594 0.496376
0.506981 0.858305 0.488930
0.543908 0.855772 0.480476
0.580468 0.852934 0.471046
0.616785 0.849973 0.460609
0.652705 0.846860 0.449317
0.684352 0.847837 0.426398
0.717433 0.848966 0.399908
0.751583 0.850095 0.369879
0.786374 0.851164 0.335454
0.821408 0.852232 0.295628
0.856138 0.853239 0.247715
0.890318 0.854185 0.185275
0.924315 0.856168 0.083680
0.947326 0.849699 0.000000
0.965911 0.839109 0.000000
0.984161 0.829282 0.000000
1.000000 0.820188 0.000000
1.000000 0.811612 0.000000
1.000000 0.803464 0.000000
1.000000 0.795468 0.000000
0.103334 0.889952 0.542138
0.122683 0.890501 0.543236
0.142397 0.890745 0.544030
0.175204 0.890562 0.544701
0.214481 0.889982 0.545403
0.256840 0.889006 0.546258
0.301122 0.887694 0.547509
0.346319 0.886107 0.549401
0.392309 0.884306 0.552422
0.438361 0.882383 0.556847
0.471443 0.881041 0.552941
0.486275 0.880430 0.532738
0.518547 0.878111 0.525353
0.551232 0.875456 0.516930
0.583886 0.872435 0.507347
0.616663 0.869261 0.496773
0.649561 0.865965 0.485420
0.681544 0.863676 0.471473
0.711177 0.864714 0.447913
0.742611 0.865873 0.421942
0.775174 0.867094 0.392859
0.808286 0.868193 0.359106
0.841337 0.869078 0.319585
0.874083 0.869657 0.271519
0.906188 0.869993 0.210086
0.941222 0.873960 0.131014
0.963897 0.868254 0.000000
0.981872 0.857908 0.000000
0.999725 0.848356 0.000000
1.000000 0.839353 0.000000
1.000000 0.830869 0.000000
1.000000 0.822477 0.000000
0.155306 0.907195 0.562249
0.168124 0.907652 0.563317
0.183352 0.907836 0.564202
0.209293 0.907622 0.565179
0.243076 0.906981 0.566217
0.281254 0.906004 0.567712
0.322515 0.904753 0.569726
0.365484 0.903227 0.572625
0.409796 0.901518 0.576776
0.454108 0.899718 0.582238
0.496986 0.897856 0.588281
0.504234 0.898314 0.566186
0.533227 0.896361 0.560082
0.562799 0.894163 0.552911
0.592706 0.891661 0.544884
0.622827 0.888975 0.535760
0.653254 0.886168 0.525994
0.683955 0.883421 0.515679
0.712764 0.882597 0.500114
0.740780 0.883757 0.477424
0.770230 0.884916 0.452064
0.800687 0.885924 0.423224
0.831601 0.886778 0.389349
0.862669 0.887419 0.349493
0.893675 0.887785 0.301884
0.924407 0.887938 0.242100
0.958343 0.891691 0.169284
0.980743 0.886717 0.039277
0.998627 0.876921 0.000000
1.000000 0.867704 0.000000
1.000000 0.858793 0.000000
1.000000 0.849882 0.000000
0.200076 0.924498 0.583276
0.210178 0.924712 0.584192
0.221439 0.924681 0.584863
0.242771 0.924254 0.585718
0.271855 0.923430 0.586877
0.306371 0.922301 0.588617
0.344335 0.920867 0.591058
0.384924 0.919249 0.594507
0.427222 0.917449 0.599329
0.469276 0.915648 0.605097
0.510674 0.913756 0.611688
0.534386 0.913115 0.606043
0.548608 0.912657 0.591211
0.575250 0.910735 0.585138
0.602167 0.908598 0.577996
0.629572 0.906188 0.570001
0.657435 0.903685 0.561212
0.685695 0.901183 0.551995
0.714443 0.898833 0.542412
0.740352 0.899138 0.525170
0.766720 0.900298 0.503136
0.794308 0.901366 0.478065
0.822751 0.902251 0.448920
0.851835 0.902953 0.415137
0.881254 0.903410 0.374914
0.910826 0.903655 0.326787
0.940459 0.903807 0.267613
0.973510 0.907317 0.195224
0.995758 0.903014 0.095308
1.000000 0.893614 0.000000
1.000000 0.884398 0.000000
1.000000 0.875212 0.000000
0.232700 0.939605 0.601221
0.240818 0.939666 0.601984
0.250980 0.939605 0.602686
0.269932 0.939208 0.603845
0.297429 0.938506 0.605646
0.330541 0.937621 0.608453
0.368353 0.936675 0.612512
0.409155 0.935576 0.618036
0.451301 0.934417 0.624750
0.493416 0.933196 0.632563
0.534661 0.931945 0.641230
0.574517 0.930602 0.650507
0.577874 0.931823 0.631312
0.601678 0.930571 0.627039
0.625788 0.929015 0.621729
0.649958 0.927123 0.615106
0.674678 0.925078 0.607813
0.699855 0.922972 0.599969
0.725673 0.920928 0.591852
0.751705 0.919097 0.583093
0.774350 0.920165 0.564935
0.798367 0.921172 0.544091
0.823453 0.922026 0.519677
0.849546 0.922728 0.491035
0.876402 0.923217 0.457160
0.903960 0.923522 0.417334
0.932128 0.923674 0.369329
0.960662 0.923735 0.310735
0.991852 0.926146 0.240787
1.000000 0.922576 0.152651
1.000000 0.912963 0.000000
1.000000 0.903227 0.000000
0.279728 0.957855 0.625696
0.286564 0.957824 0.626398
0.294774 0.957580 0.627070
0.311345 0.957031 0.628290
0.335637 0.956146 0.630304
0.365759 0.954955 0.633356
0.400153 0.953613 0.637507
0.437079 0.952117 0.642664
0.475654 0.950500 0.649012
0.514672 0.948791 0.656336
0.553033 0.947021 0.664363
0.590417 0.945220 0.673152
0.605798 0.945068 0.666102
0.618616 0.944610 0.655634
