data/fiter_cube/55192441/1023192/file.cube
# Created by Adobe Lightroom plugin Export LUT (1.17.0)
# www.johnrellis.com/lightroom/exportlut.htm
# Preset: 清新轻盈通透人像_10 云集
# Color profile: C:\Program Files (x86)\Common Files\Adobe\Color\Profiles\Recommended\AdobeRGB1998.icc
LUT_3D_SIZE 32
DOMAIN_MIN 0.0 0.0 0.0
DOMAIN_MAX 1.0 1.0 1.0
0.000000 0.000000 0.000000
0.005432 0.000000 0.000000
0.029847 0.000000 0.000000
0.069245 0.000000 0.000000
0.105776 0.000000 0.000000
0.164645 0.000000 0.000000
0.238376 0.000000 0.000000
0.315251 0.000000 0.000000
0.387945 0.000000 0.000000
0.452491 0.000000 0.000000
0.509819 0.000000 0.000000
0.560418 0.000000 0.000000
0.604822 0.000000 0.000000
0.644038 0.000000 0.000000
0.679072 0.000000 0.000000
0.710048 0.000000 0.000000
0.737301 0.000000 0.000000
0.763088 0.000000 0.000000
0.793637 0.000000 0.000000
0.821927 0.000000 0.000000
0.848844 0.000000 0.000000
0.874510 0.000000 0.000000
0.898528 0.000000 0.000000
0.921324 0.000000 0.000000
0.943084 0.000000 0.000000
0.964355 0.000000 0.000000
0.985809 0.000000 0.000000
1.000000 0.000000 0.000000
1.000000 0.000000 0.000000
1.000000 0.000000 0.000000
1.000000 0.000000 0.000000
1.000000 0.000000 0.000000
0.000000 0.006012 0.000000
0.005615 0.007294 0.000000
0.029572 0.006897 0.000000
0.069337 0.007446 0.000000
0.105348 0.008484 0.000000
0.163363 0.011322 0.000000
0.235752 0.014343 0.000000
0.311589 0.008209 0.000000
0.383886 0.000000 0.000000
0.448554 0.000000 0.000000
0.505699 0.000000 0.000000
0.556268 0.000000 0.000000
0.600732 0.000000 0.000000
0.640070 0.000000 0.000000
0.675105 0.000000 0.000000
0.706264 0.000000 0.000000
0.733761 0.000000 0.000000
0.760189 0.000000 0.000000
0.789487 0.000000 0.000000
0.817014 0.000000 0.000000
0.843412 0.000000 0.000000
0.868894 0.000000 0.000000
0.892912 0.000000 0.000000
0.915831 0.000000 0.000000
0.937804 0.000000 0.000000
0.959411 0.000000 0.000000
0.981262 0.000000 0.000000
1.000000 0.000000 0.000000
1.000000 0.000000 0.000000
1.000000 0.000000 0.000000
1.000000 0.000000 0.000000
1.000000 0.000000 0.000000
0.000000 0.028870 0.000000
0.005188 0.029725 0.000000
0.028962 0.030488 0.000000
0.069062 0.032258 0.000000
0.105013 0.039307 0.000000
0.162356 0.057374 0.000000
0.233341 0.066926 0.000000
0.308537 0.071870 0.000000
0.380591 0.072236 0.000000
0.445197 0.067079 0.000000
0.502495 0.059846 0.000000
0.553246 0.038788 0.000000
0.597925 0.011322 0.000000
0.637476 0.000000 0.000000
0.672541 0.000000 0.000000
0.704005 0.000000 0.000000
0.731594 0.000000 0.000000
0.758694 0.000000 0.000000
0.787228 0.000000 0.000000
0.814298 0.000000 0.000000
0.840543 0.000000 0.000000
0.865904 0.000000 0.000000
0.889952 0.000000 0.000000
0.912932 0.000000 0.000000
0.934997 0.000000 0.000000
0.956756 0.000000 0.000000
0.978759 0.000000 0.000000
1.000000 0.000000 0.000000
1.000000 0.000000 0.000000
1.000000 0.000000 0.000000
1.000000 0.000000 0.000000
1.000000 0.012604 0.000000
0.000000 0.068360 0.000000
0.004913 0.069032 0.000000
0.030030 0.069245 0.000000
0.069978 0.069368 0.000000
0.105959 0.076234 0.000000
0.163119 0.091859 0.000000
0.233310 0.107637 0.000000
0.307622 0.118837 0.000000
0.378759 0.124758 0.000000
0.442908 0.125795 0.000000
0.499763 0.124056 0.000000
0.550286 0.119600 0.000000
0.594903 0.113771 0.000000
0.634363 0.107149 0.000000
0.669581 0.098970 0.000000
0.701137 0.091096 0.000000
0.728908 0.081819 0.000000
0.757046 0.072999 0.000000
0.784237 0.064088 0.000000
0.810208 0.050507 0.000000
0.835691 0.030030 0.000000
0.860685 0.012329 0.000000
0.884977 0.000244 0.000000
0.908659 0.000000 0.000000
0.931823 0.000000 0.000000
0.954650 0.000000 0.000000
0.977478 0.000000 0.000000
1.000000 0.000092 0.000000
1.000000 0.017212 0.000000
1.000000 0.041871 0.000000
1.000000 0.065278 0.000000
1.000000 0.081514 0.000000
0.000000 0.104005 0.000000
0.003235 0.104738 0.000000
0.034333 0.105867 0.000000
0.076265 0.107149 0.000000
0.109987 0.108980 0.000000
0.162448 0.125673 0.000000
0.231266 0.146883 0.000000
0.303899 0.163180 0.000000
0.374090 0.173220 0.000000
0.437629 0.177981 0.000000
0.494514 0.178164 0.000000
0.545190 0.175845 0.000000
0.590082 0.171389 0.000000
0.629969 0.165805 0.000000
0.665705 0.159396 0.000000
0.697963 0.152865 0.000000
0.726467 0.145266 0.000000
0.756283 0.139437 0.000000
0.782803 0.132784 0.000000
0.808286 0.126314 0.000000
0.833188 0.120455 0.000000
0.857816 0.115663 0.000000
0.881956 0.111055 0.000000
0.905730 0.107485 0.000000
0.929107 0.104280 0.000000
0.952239 0.102449 0.000000
0.975250 0.101747 0.000000
0.998169 0.102205 0.000000
1.000000 0.104585 0.000000
1.000000 0.108675 0.000000
1.000000 0.114351 0.000000
1.000000 0.122469 0.000000
0.000000 0.162966 0.000000
0.000000 0.163973 0.000000
0.038483 0.164675 0.000000
0.088441 0.166384 0.000000
0.130007 0.168246 0.000000
0.171969 0.170504 0.000000
0.233433 0.188876 0.000000
0.304662 0.209079 0.000000
0.373480 0.221866 0.000000
0.436347 0.228275 0.000000
0.492653 0.229892 0.000000
0.543023 0.228061 0.000000
0.587701 0.224033 0.000000
0.627680 0.218418 0.000000
0.663508 0.212284 0.000000
0.696071 0.205356 0.000000
0.726772 0.198459 0.000000
0.756252 0.192264 0.000000
0.782315 0.185580 0.000000
0.807675 0.179507 0.000000
0.832731 0.173983 0.000000
0.857664 0.168887 0.000000
0.914641 0.178225 0.000000
0.937285 0.176059 0.000000
0.958831 0.174411 0.000000
0.979767 0.173098 0.000000
1.000000 0.173007 0.000000
1.000000 0.173526 0.000000
1.000000 0.175357 0.000000
1.000000 0.178317 0.000000
1.000000 0.182315 0.000000
1.000000 0.187503 0.000000
0.000000 0.249485 0.000000
0.000000 0.249851 0.000000
0.025086 0.250309 0.000000
0.102998 0.251713 0.000000
0.154879 0.253544 0.000000
0.206821 0.254063 0.000000
0.257237 0.254917 0.000000
0.321569 0.268132 0.000000
0.389014 0.281315 0.000000
0.450294 0.287388 0.000000
0.505486 0.288304 0.000000
0.554711 0.285710 0.000000
0.598016 0.280430 0.000000
0.636530 0.273381 0.000000
0.671046 0.265690 0.000000
0.701839 0.257542 0.000000
0.735500 0.251194 0.000000
0.763790 0.243809 0.000000
0.790005 0.236820 0.000000
0.816342 0.230503 0.000000
0.843442 0.225620 0.000000
0.871183 0.221530 0.000000
0.898772 0.218814 0.000000
0.925383 0.216648 0.000000
0.950439 0.215183 0.000000
0.973541 0.213657 0.000000
0.995270 0.212619 0.000000
1.000000 0.212100 0.000000
1.000000 0.212039 0.000000
1.000000 0.213107 0.000000
1.000000 0.214755 0.000000
1.000000 0.217746 0.000000
0.000000 0.323400 0.000000
0.000000 0.323461 0.000000
0.000000 0.323644 0.000000
0.101656 0.323888 0.000000
0.162173 0.324559 0.000000
0.218326 0.324620 0.000000
0.273167 0.323827 0.000000
0.326574 0.323522 0.000000
0.387427 0.330205 0.000000
0.447852 0.336797 0.000000
0.502434 0.337987 0.000000
0.551171 0.335210 0.000000
0.594354 0.329656 0.000000
0.632807 0.322210 0.000000
0.667414 0.313848 0.000000
0.703273 0.307042 0.000000
0.734340 0.299107 0.000000
0.761288 0.290440 0.000000
0.786648 0.282383 0.000000
0.812436 0.275364 0.000000
0.838987 0.269627 0.000000
0.866300 0.264927 0.000000
0.893553 0.261448 0.000000
0.920012 0.258518 0.000000
0.945098 0.255924 0.000000
0.968383 0.253696 0.000000
0.990387 0.251530 0.000000
1.000000 0.249577 0.000000
1.000000 0.248569 0.000000
1.000000 0.248051 0.000000
1.000000 0.248569 0.000000
1.000000 0.249790 0.000000
0.000000 0.391760 0.000000
0.000000 0.391730 0.000000
0.000000 0.391699 0.000000
0.090547 0.391455 0.000000
0.162020 0.391394 0.000000
0.220920 0.390875 0.000000
0.279271 0.389471 0.000000
0.335241 0.387701 0.000000
0.389868 0.385992 0.000000
0.447456 0.387915 0.000000
0.501427 0.388861 0.000000
0.549645 0.385412 0.000000
0.592554 0.379278 0.000000
0.630854 0.370886 0.000000
0.670497 0.364569 0.000000
0.704372 0.356146 0.000000
0.733730 0.346349 0.000000
0.759762 0.336492 0.000000
0.784573 0.327276 0.000000
0.809964 0.319463 0.000000
0.836149 0.313054 0.000000
0.863127 0.307683 0.000000
0.890074 0.303410 0.000000
0.916289 0.299870 0.000000
0.941283 0.296605 0.000000
0.964599 0.293187 0.000000
0.986786 0.290227 0.000000
1.000000 0.287480 0.000000
1.000000 0.285313 0.000000
1.000000 0.283818 0.000000
1.000000 0.283055 0.000000
1.000000 0.282780 0.000000
0.000000 0.451820 0.000000
0.000000 0.451545 0.000000
0.000000 0.451209 0.000000
0.068116 0.450660 0.000000
0.154421 0.449958 0.000000
0.217868 0.448890 0.000000
0.275975 0.447578 0.000000
0.334386 0.445075 0.000000
0.390265 0.442756 0.000000
0.444800 0.440314 0.000000
0.499336 0.438941 0.000000
0.546960 0.434485 0.000000
0.592584 0.429511 0.000000
0.634607 0.422950 0.000000
0.672267 0.414588 0.000000
0.705135 0.404639 0.000000
0.734096 0.393805 0.000000
0.759945 0.382727 0.000000
0.784634 0.372656 0.000000
0.809567 0.363745 0.000000
0.834897 0.356237 0.000000
0.860563 0.349828 0.000000
0.886229 0.344274 0.000000
0.911315 0.339391 0.000000
0.935668 0.334997 0.000000
0.959014 0.330968 0.000000
0.981628 0.327245 0.000000
1.000000 0.324102 0.000000
1.000000 0.321538 0.000000
1.000000 0.319585 0.000000
1.000000 0.318334 0.000000
1.000000 0.317510 0.000000
0.000000 0.502159 0.000000
0.000000 0.502007 0.000000
0.000000 0.501793 0.000000
0.000000 0.501335 0.000000
0.140841 0.500633 0.000000
0.209201 0.499855 0.000000
0.269139 0.499001 0.000000
0.327276 0.497261 0.000000
0.384771 0.494606 0.000000
0.440223 0.491798 0.000000
0.495613 0.490608 0.000000
0.551965 0.490669 0.000000
0.596155 0.482948 0.000000
0.636133 0.473762 0.000000
0.672145 0.463447 0.000000
0.703914 0.451820 0.000000
0.732113 0.439490 0.000000
0.757504 0.427314 0.000000
0.781979 0.416022 0.000000
0.806668 0.406165 0.000000
0.831846 0.397864 0.000000
0.857420 0.390753 0.000000
0.883055 0.384802 0.000000
0.908141 0.379339 0.000000
0.932464 0.374334 0.000000
0.955718 0.369451 0.000000
0.978241 0.365026 0.000000
1.000000 0.361059 0.000000
1.000000 0.357702 0.000000
1.000000 0.354833 0.000000
1.000000 0.352697 0.000000
1.000000 0.351080 0.000000
0.000000 0.548577 0.000000
0.000000 0.548425 0.000000
0.000000 0.548119 0.000000
0.000000 0.547662 0.000000
0.122042 0.547051 0.000000
0.197086 0.546227 0.000000
0.259434 0.545312 0.000000
0.316716 0.544305 0.000000
0.375555 0.542565 0.000000
0.434607 0.543145 0.000000
0.491890 0.542931 0.000000
0.547448 0.541741 0.000000
0.629297 0.564782 0.000000
0.667201 0.549828 0.000000
0.700526 0.534447 0.000000
0.729366 0.518334 0.000000
0.755093 0.502403 0.000000
0.779294 0.487709 0.000000
0.802670 0.474464 0.000000
0.826413 0.462959 0.000000
0.850340 0.452918 0.000000
0.874327 0.444282 0.000000
0.897917 0.436347 0.000000
0.921111 0.429419 0.000000
0.943725 0.423041 0.000000
0.965637 0.417090 0.000000
0.986877 0.411475 0.000000
1.000000 0.406348 0.000000
1.000000 0.401801 0.000000
1.000000 0.397864 0.000000
1.000000 0.394629 0.044923
1.000000 0.391760 0.082338
0.000000 0.599786 0.000000
0.000000 0.599542 0.000000
0.000000 0.598779 0.000000
0.000000 0.597559 0.000000
0.098390 0.595819 0.000000
0.184390 0.594598 0.000000
0.250645 0.595331 0.000000
0.310704 0.596094 0.000000
0.369604 0.596948 0.000000
0.429969 0.597253 0.000000
0.489204 0.597925 0.000000
0.547570 0.598474 0.000000
0.604730 0.598444 0.000000
0.659144 0.596368 0.000000
0.693812 0.579828 0.000000
0.723842 0.563378 0.000000
0.749935 0.546410 0.000000
0.774105 0.530480 0.000000
0.797482 0.516167 0.000000
0.820890 0.503655 0.000000
0.844602 0.492958 0.000000
0.868498 0.483406 0.000000
0.891966 0.474769 0.000000
0.915160 0.467018 0.000000
0.937774 0.459815 0.000000
0.959747 0.453162 0.000000
0.981231 0.446876 0.000000
1.000000 0.441199 0.000000
1.000000 0.435920 0.000000
1.000000 0.431556 0.000000
1.000000 0.427619 0.052644
1.000000 0.424262 0.085512
0.000000 0.640497 0.000000
0.000000 0.640497 0.000000
0.000000 0.640101 0.000000
0.000000 0.639490 0.000000
0.059541 0.638453 0.000000
0.168185 0.637263 0.000000
0.237705 0.636439 0.000000
0.298528 0.635798 0.000000
0.355535 0.635645 0.000000
0.413703 0.635370 0.000000
0.472023 0.634913 0.000000
0.529046 0.634485 0.000000
0.584375 0.633448 0.000000
0.637842 0.631281 0.000000
0.688716 0.627527 0.000000
0.718105 0.607660 0.000000
0.744289 0.589410 0.000000
0.768551 0.572351 0.000000
0.792050 0.556909 0.000000
0.815549 0.543542 0.000000
0.839322 0.532036 0.000000
0.863218 0.522087 0.000000
0.886778 0.512963 0.000000
0.910124 0.504662 0.000000
0.932952 0.496956 0.000000
0.955138 0.489662 0.000000
0.976806 0.482856 0.000000
0.998199 0.476539 0.000000
1.000000 0.470954 0.000000
1.000000 0.466041 0.013306
1.000000 0.461738 0.070832
1.000000 0.457893 0.095949
0.000000 0.677943 0.000000
0.000000 0.677943 0.000000
0.000000 0.677333 0.000000
0.000000 0.676234 0.000000
0.000000 0.674556 0.000000
0.149111 0.672602 0.000000
0.222232 0.670985 0.000000
0.283970 0.669581 0.000000
0.340856 0.668757 0.000000
0.395544 0.668544 0.000000
0.453040 0.667506 0.000000
0.508995 0.666499 0.000000
0.563226 0.664942 0.000000
0.615473 0.662470 0.000000
0.665583 0.658656 0.000000
0.713558 0.654139 0.000000
0.739284 0.632349 0.000000
0.763668 0.614069 0.000000
0.787259 0.597559 0.000000
0.810697 0.583154 0.000000
0.834348 0.570703 0.000000
0.858152 0.559869 0.000000
0.881621 0.550256 0.000000
0.904967 0.541619 0.000000
0.928008 0.533410 0.000000
0.950713 0.525902 0.000000
0.973144 0.519036 0.000000
0.995392 0.512902 0.000000
1.000000 0.507439 0.017029
1.000000 0.502708 0.073304
1.000000 0.498573 0.100099
1.000000 0.494759 0.122591
0.000000 0.708431 0.000000
0.000000 0.708522 0.000000
0.000000 0.708217 0.000000
0.000000 0.707454 0.000000
0.000000 0.706233 0.000000
0.128145 0.704860 0.000000
0.207187 0.703548 0.000000
0.270146 0.702419 0.000000
0.327398 0.701411 0.000000
0.381353 0.700465 0.000000
0.435004 0.699092 0.000000
0.489693 0.696712 0.000000
0.542016 0.693751 0.000000
0.592645 0.690120 0.000000
0.641077 0.685664 0.000000
0.687465 0.680385 0.000000
0.731838 0.674525 0.000000
0.758236 0.654871 0.000000
0.782498 0.637781 0.000000
0.806790 0.622919 0.000000
0.831022 0.610040 0.000000
0.855222 0.598779 0.000000
0.879118 0.588769 0.000000
0.902739 0.579706 0.000000
0.925963 0.571527 0.000000
0.948943 0.563958 0.000000
0.971649 0.556725 0.000000
0.994110 0.550286 0.034333
1.000000 0.544396 0.078523
1.000000 0.538994 0.100465
1.000000 0.533989 0.120180
1.000000 0.529229 0.138399
0.000000 0.733211 0.000000
0.000000 0.733059 0.000000
0.000000 0.732631 0.000000
0.000000 0.731868 0.000000
0.000000 0.730770 0.000000
0.103517 0.729488 0.000000
0.190219 0.728237 0.000000
0.254612 0.726955 0.000000
0.311498 0.725795 0.000000
0.364813 0.724727 0.000000
0.415991 0.723751 0.000000
0.468666 0.721889 0.000000
0.520653 0.719265 0.000000
0.570581 0.715877 0.000000
0.618463 0.711696 0.000000
0.664149 0.706600 0.000000
0.708064 0.700862 0.000000
0.750393 0.694972 0.000000
0.777310 0.677089 0.000000
0.801572 0.661250 0.000000
0.825925 0.647517 0.000000
0.850217 0.635492 0.000000
0.874235 0.624811 0.000000
0.898070 0.615320 0.000000
0.921599 0.606744 0.000000
0.944823 0.598962 0.000000
0.967864 0.591974 0.020661
0.990753 0.585443 0.075776
1.000000 0.579370 0.099275
1.000000 0.573816 0.119142
1.000000 0.568536 0.136599
1.000000 0.563531 0.154025
0.000000 0.757473 0.000000
0.000000 0.757748 0.000000
0.000000 0.774807 0.000000
0.000000 0.774044 0.000000
0.000000 0.772732 0.000000
0.095644 0.771084 0.000000
0.185214 0.769162 0.000000
0.249546 0.767208 0.000000
0.306462 0.765347 0.000000
0.359319 0.763668 0.000000
0.409827 0.762020 0.000000
0.458686 0.760159 0.000000
0.510246 0.756558 0.000000
0.559655 0.752499 0.000000
0.606958 0.747738 0.000000
0.652216 0.742367 0.000000
0.695735 0.736446 0.000000
0.737514 0.730159 0.000000
0.777859 0.723812 0.000000
0.805142 0.707362 0.000000
0.828702 0.691707 0.000000
0.852628 0.678309 0.000000
0.876280 0.666407 0.000000
0.899474 0.655756 0.000000
0.921965 0.645686 0.000000
0.944182 0.636500 0.000000
0.966155 0.628077 0.066651
0.988220 0.620630 0.096498
1.000000 0.614099 0.118318
1.000000 0.607996 0.135073
1.000000 0.602319 0.150973
1.000000 0.596765 0.166690
0.000000 0.785092 0.000000
0.000000 0.787198 0.000000
0.000000 0.789212 0.000000
0.000000 0.790646 0.000000
0.000000 0.791165 0.000000
0.072938 0.790555 0.000000
0.171664 0.789181 0.000000
0.236454 0.787503 0.000000
0.292821 0.785916 0.000000
0.344518 0.784329 0.000000
0.394171 0.782742 0.000000
0.441901 0.781064 0.000000
0.489845 0.778408 0.000000
0.538659 0.774533 0.000000
0.585382 0.770077 0.000000
0.630243 0.765011 0.000000
0.673365 0.759487 0.000000
0.714961 0.753719 0.000000
0.755367 0.747921 0.000000
0.794766 0.742336 0.000000
0.823087 0.728267 0.000000
0.847105 0.713893 0.000000
0.871275 0.701656 0.000000
0.894987 0.690547 0.000000
0.917937 0.680293 0.000000
0.940551 0.670863 0.000427
0.962921 0.662257 0.077424
0.985290 0.654536 0.106233
1.000000 0.647791 0.128450
1.000000 0.641749 0.148775
1.000000 0.635920 0.165591
1.000000 0.629969 0.180179
0.000000 0.805753 0.000000
0.000000 0.807645 0.000000
0.000000 0.809506 0.000000
0.000000 0.810849 0.000000
0.000000 0.811368 0.000000
0.044404 0.810849 0.000000
0.160311 0.809659 0.000000
0.225345 0.808194 0.000000
0.280919 0.806760 0.000000
0.332158 0.805295 0.000000
0.380774 0.803922 0.000000
0.427527 0.802396 0.000000
0.472786 0.800351 0.000000
0.519921 0.797116 0.000000
0.566278 0.792966 0.000000
0.610773 0.788266 0.000000
0.653651 0.783139 0.000000
0.695094 0.777798 0.000000
0.735409 0.772457 0.000000
0.774838 0.767330 0.000000
0.813352 0.762387 0.000000
0.842771 0.750637 0.000000
0.866819 0.737026 0.000000
0.890837 0.725551 0.000000
0.914214 0.714748 0.000000
0.936980 0.704860 0.016876
0.959472 0.695796 0.084199
0.981903 0.687678 0.112673
1.000000 0.680507 0.135103
1.000000 0.674067 0.155032
1.000000 0.668025 0.173007
1.000000 0.662043 0.190463
0.000000 0.826566 0.000000
0.000000 0.828367 0.000000
0.000000 0.830137 0.000000
0.000000 0.831388 0.000000
0.000000 0.831876 0.000000
0.009857 0.831449 0.000000
0.151522 0.830381 0.000000
0.216037 0.829007 0.000000
0.271000 0.827543 0.000000
0.321294 0.826108 0.000000
0.368780 0.824704 0.000000
0.414496 0.823178 0.000000
0.458778 0.821286 0.000000
0.502281 0.819089 0.000000
0.548547 0.815427 0.000000
0.593133 0.811521 0.000000
0.636500 0.807553 0.000000
0.678676 0.803586 0.000000
0.719936 0.799710 0.000000
0.760464 0.796048 0.000000
0.800107 0.792599 0.000000
0.839017 0.789212 0.000000
0.869657 0.779599 0.000000
0.893950 0.766903 0.000000
0.918029 0.756252 0.060273
0.941375 0.746151 0.098329
0.964111 0.736812 0.126864
0.986572 0.728359 0.150179
1.000000 0.720729 0.169955
1.000000 0.713680 0.188052
1.000000 0.706935 0.205112
1.000000 0.700526 0.221256
0.000000 0.855131 0.000000
0.000000 0.855894 0.000000
0.000000 0.856443 0.000000
0.000000 0.856596 0.000000
0.000000 0.856321 0.000000
0.024262 0.855467 0.000000
0.149844 0.854429 0.000000
0.212863 0.853300 0.000000
0.266423 0.852262 0.000000
0.315709 0.851255 0.000000
0.362371 0.850278 0.000000
0.407416 0.849058 0.000000
0.450874 0.847410 0.000000
0.493050 0.845426 0.000000
0.536187 0.842618 0.000000
0.580621 0.838865 0.000000
0.623590 0.834989 0.000000
0.665461 0.831052 0.000000
0.706294 0.827176 0.000000
0.746242 0.823331 0.000000
0.785245 0.819547 0.000000
0.823392 0.815793 0.000000
0.860624 0.812009 0.000000
0.890684 0.802853 0.000000
0.914000 0.789853 0.076722
0.937499 0.779446 0.109957
0.960632 0.769772 0.133394
0.983398 0.760983 0.154665
1.000000 0.752987 0.175540
1.000000 0.745541 0.193668
1.000000 0.738552 0.210605
1.000000 0.732143 0.226200
0.000000 0.875822 0.000000
0.000000 0.876585 0.000000
0.000000 0.877195 0.000000
0.000000 0.877379 0.000000
0.000000 0.877134 0.000000
0.032776 0.876310 0.000000
0.147707 0.875212 0.000000
0.208194 0.873991 0.000000
0.260380 0.872801 0.000000
0.308293 0.871763 0.000000
0.353887 0.870726 0.000000
0.397681 0.869566 0.000000
0.440101 0.868070 0.000000
0.481697 0.866331 0.000000
0.522179 0.864347 0.000000
0.565362 0.861387 0.000000
0.608240 0.858061 0.000000
0.650111 0.854673 0.000000
0.691005 0.851316 0.000000
0.731044 0.848051 0.000000
0.770291 0.844877 0.000000
0.808743 0.841764 0.000000
0.846342 0.838682 0.000000
0.883055 0.835538 0.031800
0.908904 0.823178 0.071077
0.931792 0.810452 0.111421
0.955261 0.800565 0.135622
0.978363 0.791501 0.155032
1.000000 0.783139 0.173068
1.000000 0.775601 0.192386
1.000000 0.768826 0.210147
1.000000 0.762722 0.226841
0.000000 0.902312 0.000000
0.000000 0.903166 0.000000
0.000000 0.903593 0.000000
0.000000 0.903471 0.000000
0.000000 0.902831 0.000000
0.080781 0.901732 0.000000
0.156924 0.900328 0.000000
0.211917 0.898650 0.000000
0.260502 0.896910 0.000000
0.305821 0.895232 0.000000
0.349157 0.893462 0.000000
0.391150 0.891783 0.000000
0.432166 0.889952 0.000000
0.472114 0.887785 0.000000
0.511162 0.885252 0.000000
0.550011 0.882414 0.000000
0.592035 0.878599 0.000000
0.633143 0.874968 0.000000
0.673610 0.871733 0.000000
0.713558 0.868925 0.000000
0.752895 0.866300 0.000000
0.791379 0.863615 0.000000
0.828794 0.860685 0.000000
0.865080 0.857389 0.038148
0.900145 0.853727 0.091005
0.929900 0.846067 0.120577
0.952331 0.833402 0.146242
0.975189 0.823667 0.163912
0.997742 0.814817 0.179355
1.000000 0.806790 0.194858
1.000000 0.799832 0.212314
1.000000 0.793820 0.229221
0.000000 0.921447 0.000000
0.000000 0.922240 0.000000
0.000000 0.922667 0.000000
0.000000 0.922576 0.000000
0.000000 0.921996 0.000000
0.090639 0.921050 0.000000
0.159396 0.919890 0.000000
0.211490 0.918517 0.000000
0.258305 0.917174 0.000000
0.302281 0.915862 0.000000
0.344396 0.914519 0.000000
0.385748 0.913237 0.000000
0.425849 0.911803 0.000000
0.465064 0.910094 0.000000
0.503502 0.908019 0.000000
0.541314 0.905760 0.000000
0.580621 0.902953 0.000000
0.621607 0.899779 0.000000
0.661891 0.896849 0.000000
0.701656 0.894224 0.000000
0.740719 0.891752 0.000000
0.779019 0.889220 0.000000
0.816403 0.886534 0.026032
0.852689 0.883604 0.089021
0.888060 0.880339 0.117556
0.922362 0.876860 0.139010
0.952331 0.870207 0.159609
0.974517 0.857908 0.180331
0.997101 0.848844 0.195926
1.000000 0.840665 0.210666
1.000000 0.833341 0.225681
1.000000 0.827085 0.241276
0.000000 0.942443 0.000000
0.000000 0.942931 0.000000
0.000000 0.943053 0.000000
0.000000 0.942718 0.000000
0.000000 0.941924 0.000000
0.104585 0.940887 0.000000
0.163668 0.939605 0.000000
0.212345 0.938262 0.000000
0.256962 0.936980 0.000000
0.299229 0.935790 0.000000
0.340276 0.934600 0.000000
0.380377 0.933532 0.000000
0.419562 0.932341 0.000000
0.458076 0.930877 0.000000
0.495613 0.929046 0.000000
0.532586 0.926940 0.000000
0.569146 0.924743 0.000000
0.608789 0.921935 0.000000
0.648798 0.919158 0.000000
0.688197 0.916686 0.000000
0.727016 0.914366 0.000000
0.765103 0.912016 0.000000
0.802304 0.909545 0.071717
0.838621 0.906889 0.105867
0.873991 0.903960 0.129641
0.908476 0.900786 0.148898
0.942260 0.897581 0.166476
0.972564 0.892027 0.183139
0.994049 0.880034 0.201694
1.000000 0.871336 0.216617
1.000000 0.863798 0.230594
1.000000 0.857389 0.244602
0.000000 0.961303 0.000000
0.000000 0.961578 0.000000
0.000000 0.961669 0.000000
0.000000 0.961456 0.000000
0.003510 0.961028 0.000000
0.118868 0.960571 0.000000
0.173251 0.960327 0.000000
0.219913 0.960235 0.000000
0.263767 0.960296 0.000000
0.305547 0.960418 0.000000
0.346227 0.960601 0.000000
0.385809 0.960662 0.000000
0.424445 0.960449 0.000000
0.462318 0.959838 0.000000
0.499245 0.958709 0.000000
0.535271 0.957061 0.000000
0.571008 0.955169 0.000000
0.606928 0.953216 0.000000
0.646540 0.950622 0.000000
0.685481 0.948211 0.069184
0.723812 0.945922 0.101686
0.761440 0.943603 0.126894
0.798215 0.941100 0.147066
0.834165 0.938445 0.164797
0.869322 0.935607 0.180667
0.903746 0.932555 0.194949
0.937530 0.929473 0.208286
0.970520 0.926360 0.220951
1.000000 0.921935 0.234165
1.000000 0.909575 0.250278
1.000000 0.900572 0.263890
1.000000 0.893034 0.276463
0.000000 0.987121 0.065003
0.000000 0.987243 0.067384
0.000000 0.987121 0.067842
0.061036 0.986725 0.064332
0.113741 0.986114 0.060182
0.156558 0.985382 0.054383
0.196597 0.984649 0.047242
0.235325 0.984009 0.044099
0.273533 0.983368 0.044770
0.311498 0.982788 0.051209
0.348699 0.982147 0.054932
0.385565 0.981476 0.060426
0.422004 0.980621 0.063661
0.457954 0.979553 0.064851
