data/fiter_cube/55192441/1023192/file.cube
# Created by Adobe Lightroom plugin Export LUT (1.17.0)
# www.johnrellis.com/lightroom/exportlut.htm
# Preset: 清新轻盈通透人像_10 云集
# Color profile: C:\Program Files (x86)\Common Files\Adobe\Color\Profiles\Recommended\AdobeRGB1998.icc
LUT_3D_SIZE 8
DOMAIN_MIN 0.000000 0.000000 0.000000
DOMAIN_MAX 0.903226 0.903226 0.903226
0.000000 0.000000 0.000000
0.105776 0.000000 0.000000
0.387945 0.000000 0.000000
0.604822 0.000000 0.000000
0.737301 0.000000 0.000000
0.848844 0.000000 0.000000
0.943084 0.000000 0.000000
1.000000 0.000000 0.000000
0.000000 0.104005 0.000000
0.109987 0.108980 0.000000
0.374090 0.173220 0.000000
0.590082 0.171389 0.000000
0.726467 0.145266 0.000000
0.833188 0.120455 0.000000
0.929107 0.104280 0.000000
1.000000 0.104585 0.000000
0.000000 0.391760 0.000000
0.162020 0.391394 0.000000
0.389868 0.385992 0.000000
0.592554 0.379278 0.000000
0.733730 0.346349 0.000000
0.836149 0.313054 0.000000
0.941283 0.296605 0.000000
1.000000 0.285313 0.000000
0.000000 0.599786 0.000000
0.098390 0.595819 0.000000
0.369604 0.596948 0.000000
0.604730 0.598444 0.000000
0.749935 0.546410 0.000000
0.844602 0.492958 0.000000
0.937774 0.459815 0.000000
1.000000 0.435920 0.000000
0.000000 0.733211 0.000000
0.000000 0.730770 0.000000
0.311498 0.725795 0.000000
0.520653 0.719265 0.000000
0.708064 0.700862 0.000000
0.825925 0.647517 0.000000
0.921599 0.606744 0.000000
1.000000 0.579370 0.099275
0.000000 0.826566 0.000000
0.000000 0.831876 0.000000
0.271000 0.827543 0.000000
0.458778 0.821286 0.000000
0.636500 0.807553 0.000000
0.800107 0.792599 0.000000
0.918029 0.756252 0.060273
1.000000 0.720729 0.169955
0.000000 0.921447 0.000000
0.000000 0.921996 0.000000
0.258305 0.917174 0.000000
0.425849 0.911803 0.000000
0.580621 0.902953 0.000000
0.740719 0.891752 0.000000
0.888060 0.880339 0.117556
0.997101 0.848844 0.195926
0.000000 1.000000 0.109499
0.132052 1.000000 0.106996
0.277317 1.000000 0.106874
0.420966 1.000000 0.119631
0.547448 0.987518 0.000000
0.693172 0.982208 0.108309
0.839689 0.974670 0.189059
0.974243 0.963134 0.236820
0.000000 0.000000 0.090883
0.101411 0.000000 0.094118
0.370031 0.000000 0.105409
0.589929 0.000000 0.019776
0.725521 0.000000 0.000000
0.826963 0.000000 0.000000
0.921996 0.000000 0.039796
1.000000 0.000000 0.093263
0.000000 0.097871 0.091554
0.108034 0.103853 0.089509
0.371405 0.117037 0.069001
0.585443 0.105257 0.000000
0.722683 0.092439 0.000000
0.820035 0.095430 0.000000
0.912139 0.105074 0.000000
1.000000 0.121004 0.073548
0.000000 0.377874 0.109895
0.073640 0.382544 0.000000
0.385107 0.378820 0.000000
0.584558 0.361517 0.000000
0.720821 0.330510 0.000000
0.818601 0.304112 0.000000
0.915831 0.292027 0.066072
1.000000 0.288579 0.116152
0.000000 0.587793 0.000000
0.000000 0.587823 0.000000
0.348455 0.587518 0.000000
0.581994 0.574670 0.000000
0.721645 0.522942 0.000000
0.815122 0.476143 0.016144
0.910674 0.449287 0.102968
1.000000 0.433143 0.143069
0.000000 0.728206 0.000000
0.000000 0.724727 0.000000
0.297246 0.717433 0.000000
0.507744 0.705776 0.000000
0.692836 0.685176 0.000000
0.809659 0.635431 0.000000
0.906706 0.600855 0.147250
1.000000 0.577813 0.191409
0.000000 0.817197 0.000000
0.000000 0.816373 0.000000
0.264958 0.812741 0.000000
0.452247 0.808743 0.000000
0.630213 0.798337 0.000000
0.794614 0.786862 0.100649
0.910124 0.752041 0.188815
0.999969 0.718044 0.234806
0.000000 0.909117 0.000000
0.000000 0.906737 0.000000
0.259098 0.903655 0.000000
0.424903 0.901396 0.000000
0.578210 0.895689 0.000000
0.735714 0.884092 0.127962
0.878782 0.871061 0.189151
0.986419 0.840299 0.235233
0.083742 0.998230 0.184482
0.160739 0.998199 0.186282
0.289372 0.996826 0.187259
0.427161 0.995727 0.195560
0.560998 0.991302 0.195285
0.698573 0.983215 0.206760
0.839322 0.972564 0.243870
0.970794 0.959777 0.274723
0.000000 0.000000 0.345800
0.168582 0.000000 0.342809
0.380255 0.000000 0.347143
0.592615 0.000000 0.325475
0.727626 0.000000 0.312749
0.822171 0.215396 0.345769
0.918090 0.254459 0.354437
1.000000 0.272648 0.358862
0.000000 0.128969 0.351476
0.097383 0.076448 0.346258
0.382788 0.000000 0.340520
0.586145 0.000000 0.316747
0.719783 0.183780 0.324712
0.815549 0.253025 0.339757
0.911406 0.277623 0.346715
1.000000 0.292729 0.353338
0.000000 0.380957 0.348241
0.000000 0.385260 0.344610
0.386847 0.373724 0.326726
0.583551 0.371313 0.334569
0.718929 0.373602 0.341985
0.813901 0.373968 0.347326
0.909056 0.375372 0.352819
1.000000 0.375982 0.357885
0.000000 0.593896 0.316167
0.000000 0.596155 0.302190
0.338689 0.591394 0.277928
0.587915 0.577935 0.310918
0.717403 0.539910 0.347692
0.810819 0.514488 0.360815
0.907134 0.500420 0.366644
0.999725 0.489357 0.370489
0.000000 0.724117 0.278508
0.000000 0.722164 0.280674
0.321233 0.716396 0.277012
0.517510 0.708339 0.278416
0.698024 0.689326 0.318486
0.805173 0.647333 0.347417
0.899504 0.625238 0.375097
0.994018 0.608392 0.382879
0.000000 0.812650 0.290166
0.182467 0.810910 0.304204
0.320531 0.807492 0.291386
0.474372 0.802029 0.286320
0.635431 0.791836 0.301671
0.788632 0.780514 0.339971
0.899626 0.753567 0.371008
0.993469 0.732448 0.398169
0.222049 0.905669 0.343389
0.234257 0.904967 0.326604
0.330419 0.900877 0.315740
0.458656 0.896483 0.310857
0.592737 0.890715 0.304936
0.741665 0.881376 0.332036
0.880766 0.872984 0.365393
0.986847 0.848997 0.391852
0.262516 0.993225 0.366278
0.264927 0.992798 0.349615
0.346624 0.990692 0.346868
0.464057 0.991577 0.354986
0.581964 0.987274 0.351202
0.709071 0.981079 0.354376
0.844388 0.971771 0.377722
0.971527 0.960815 0.398840
0.000000 0.000000 0.547051
0.164981 0.000000 0.547570
0.370733 0.000000 0.537865
0.579522 0.000000 0.530602
0.716213 0.000000 0.488075
0.808225 0.236027 0.478431
0.897520 0.339269 0.498817
0.987091 0.401862 0.525292
0.000000 0.062379 0.556878
0.072908 0.000000 0.554284
0.365728 0.000000 0.541772
0.580682 0.000000 0.529778
0.713283 0.188296 0.493080
0.802762 0.301244 0.486244
0.892302 0.375006 0.505394
0.985534 0.411658 0.521569
0.000000 0.356939 0.556420
0.000000 0.348028 0.555077
0.363561 0.349462 0.540215
0.577142 0.373938 0.527245
0.704524 0.412024 0.515251
0.798917 0.455451 0.526146
0.898680 0.478035 0.538109
0.991089 0.472358 0.531273
0.000000 0.595697 0.549218
0.000000 0.593378 0.545800
0.362158 0.582452 0.534478
0.578393 0.566857 0.527489
0.695338 0.560845 0.532616
0.791073 0.556817 0.532647
0.890379 0.553735 0.532769
0.987304 0.548455 0.531304
0.000000 0.723232 0.488350
0.108309 0.719173 0.488411
0.370855 0.709041 0.495155
0.544579 0.701320 0.500298
0.697292 0.687922 0.518364
0.794369 0.666041 0.534020
0.890196 0.656886 0.540185
0.984771 0.644404 0.535943
0.147005 0.814115 0.463813
0.247898 0.816312 0.475685
0.402747 0.807095 0.493202
0.527581 0.800992 0.494789
0.656336 0.794217 0.494148
0.790219 0.781827 0.514488
0.892485 0.762295 0.526787
0.984527 0.749722 0.541436
0.257084 0.903014 0.470069
0.307469 0.902159 0.478462
0.424903 0.898253 0.501579
0.515099 0.896757 0.493111
0.626398 0.892271 0.486854
0.755001 0.883391 0.494759
0.881071 0.873228 0.511772
0.981079 0.852934 0.523613
0.338598 0.991852 0.498939
0.370733 0.991089 0.506096
0.454047 0.987396 0.524285
0.508782 0.987335 0.499214
0.609583 0.983368 0.493904
0.720638 0.978698 0.488869
0.849332 0.970153 0.504784
0.971099 0.960845 0.520165
0.000000 0.000000 0.676753
0.136233 0.000000 0.676234
0.337438 0.000000 0.669551
0.524285 0.000000 0.658595
0.703792 0.000000 0.650752
0.799588 0.237064 0.608026
0.891630 0.337133 0.601892
0.983062 0.401160 0.612024
0.000000 0.000671 0.679774
0.066438 0.000000 0.679866
0.333440 0.000000 0.672419
0.527947 0.075990 0.659480
0.701411 0.188266 0.649104
0.797147 0.303624 0.611780
0.889708 0.376928 0.607660
0.981384 0.427131 0.616785
0.000000 0.326024 0.682582
0.107973 0.334173 0.679866
0.361242 0.349248 0.672023
0.543175 0.371771 0.657954
0.692378 0.397223 0.643519
0.785122 0.437720 0.618860
0.880461 0.472023 0.620661
0.973785 0.495613 0.627710
0.000000 0.533104 0.679286
0.135561 0.534661 0.677577
0.382635 0.542382 0.673091
0.563256 0.552819 0.658534
0.685481 0.561608 0.643610
0.777981 0.573236 0.638361
0.875029 0.581781 0.642573
0.971893 0.580865 0.642847
0.000000 0.712490 0.665217
0.189517 0.710231 0.663447
0.392584 0.700893 0.656275
0.558007 0.686885 0.646509
0.682063 0.672602 0.640894
0.773983 0.667750 0.643122
0.873533 0.663203 0.641291
0.971862 0.655543 0.637476
0.199100 0.799252 0.605554
0.265934 0.797177 0.607263
0.403143 0.788876 0.610986
0.540642 0.779477 0.618036
0.649500 0.774319 0.611078
0.778195 0.769375 0.626978
0.879545 0.762051 0.639734
0.974243 0.754513 0.643183
0.289311 0.895415 0.594385
0.328099 0.893309 0.596979
0.429480 0.888243 0.606378
0.545434 0.883330 0.619379
0.635706 0.882139 0.607630
0.752224 0.876707 0.605890
0.874022 0.865995 0.617029
0.971038 0.847929 0.620325
0.343938 0.983276 0.595270
0.371252 0.981994 0.598383
0.448371 0.978515 0.608057
0.553185 0.978729 0.627161
0.621363 0.977783 0.605463
0.725582 0.973358 0.598932
0.846647 0.965728 0.604059
0.966308 0.956359 0.613642
0.000000 0.000000 0.776150
0.112947 0.000000 0.775082
0.308751 0.000000 0.768612
0.485817 0.000000 0.762570
0.651331 0.118074 0.753506
0.791836 0.240726 0.739040
0.887083 0.339178 0.714199
0.980285 0.402045 0.709957
0.000000 0.044526 0.772335
0.088808 0.042054 0.770809
0.310124 0.073335 0.765713
0.488808 0.144961 0.758175
0.649805 0.222477 0.748348
0.787198 0.297276 0.735409
0.883391 0.373053 0.714046
0.977600 0.424506 0.711025
0.156863 0.347265 0.777584
0.226535 0.349737 0.775570
0.370733 0.360723 0.769711
0.521691 0.380865 0.759731
0.659480 0.404425 0.746304
0.783108 0.434699 0.734829
0.879362 0.471046 0.721309
0.974121 0.497383 0.720058
0.213993 0.516716 0.782986
0.280613 0.521233 0.780941
0.428565 0.538537 0.773159
0.564569 0.555871 0.764858
0.677668 0.563256 0.749477
0.783841 0.572869 0.740902
0.878996 0.582696 0.735042
0.973053 0.586084 0.732479
0.238376 0.662257 0.768948
0.297215 0.663935 0.768307
0.429419 0.668574 0.765743
0.564752 0.673457 0.761685
0.676112 0.667140 0.746456
0.772854 0.666072 0.733730
0.869566 0.666804 0.733242
0.965789 0.666163 0.734127
0.267704 0.799893 0.754238
0.319463 0.799680 0.754726
0.434852 0.794064 0.751217
0.557885 0.785031 0.745418
0.661524 0.773037 0.735561
0.771878 0.762264 0.730465
0.870756 0.759670 0.735592
0.968261 0.753017 0.733791
0.338201 0.893126 0.722438
0.371740 0.892973 0.724605
0.456489 0.888914 0.727382
0.557305 0.883848 0.730404
0.652644 0.878843 0.728023
0.748989 0.874846 0.714107
0.872374 0.863798 0.719356
0.967559 0.849668 0.725795
0.369055 0.979706 0.706050
0.391852 0.978485 0.707179
0.459785 0.975280 0.711360
0.549340 0.973083 0.717861
0.641352 0.970275 0.719875
0.724331 0.969146 0.702754
0.841184 0.963531 0.700832
0.962921 0.953429 0.708919
0.000000 0.000000 0.862699
0.103395 0.000000 0.863371
0.291875 0.000000 0.860319
0.457710 0.000000 0.854948
0.612238 0.157595 0.844297
0.755367 0.245182 0.836973
0.875608 0.320104 0.822293
0.969055 0.384253 0.804288
0.000000 0.076814 0.858732
0.111666 0.086427 0.859068
0.298711 0.115480 0.856016
0.461982 0.168521 0.849393
0.612085 0.231815 0.838407
0.750515 0.288365 0.830320
0.868315 0.345739 0.815702
0.962402 0.397223 0.798978
0.199985 0.343389 0.862089
0.248569 0.346197 0.860990
0.364569 0.355779 0.856504
0.499153 0.373419 0.849363
0.629511 0.393927 0.837461
0.754696 0.417060 0.828855
0.867887 0.448127 0.818051
0.963775 0.478553 0.807370
0.300816 0.512444 0.866728
0.340276 0.517052 0.864256
0.441993 0.532036 0.858183
0.545037 0.537377 0.851743
0.653620 0.541650 0.840360
0.762509 0.548058 0.830320
0.868376 0.560510 0.822416
0.963561 0.568933 0.814817
0.308751 0.637842 0.861448
0.344640 0.639490 0.860105
0.441474 0.646204 0.857664
0.555169 0.653590 0.853330
0.658595 0.650690 0.841215
0.757534 0.645075 0.824491
0.860868 0.647791 0.817929
0.959869 0.653223 0.816617
0.325841 0.764797 0.852659
0.358679 0.765408 0.852354
0.447456 0.767025 0.851438
0.553338 0.768338 0.850858
0.654414 0.764126 0.849485
0.761898 0.753323 0.837217
0.862333 0.751003 0.823819
0.958251 0.752438 0.824796
0.349004 0.891814 0.846738
0.377874 0.891783 0.847196
0.456367 0.889097 0.846098
0.551141 0.884459 0.843656
0.646998 0.876799 0.838132
0.751675 0.865446 0.830106
0.860899 0.852171 0.823484
0.956725 0.845823 0.825834
0.383001 0.972442 0.811887
0.404181 0.971832 0.812558
0.470283 0.971710 0.816495
0.551019 0.969848 0.818784
0.641260 0.966888 0.819760
0.743648 0.962585 0.822568
0.839353 0.959136 0.813870
0.957458 0.949187 0.815640
0.000000 0.000000 0.944366
0.096437 0.000000 0.944488
0.274632 0.000000 0.941772
0.431556 0.000000 0.938781
0.581323 0.155673 0.933257
0.719814 0.233829 0.925170
0.852964 0.296483 0.923247
0.961486 0.354314 0.906920
0.000000 0.088533 0.942260
0.118502 0.098146 0.942351
0.285313 0.123384 0.939940
0.438849 0.170443 0.936217
0.585016 0.227573 0.930632
0.720089 0.279759 0.922545
0.850340 0.326360 0.919982
0.958282 0.374426 0.904265
0.191806 0.324224 0.940246
0.236515 0.327489 0.939849
0.342596 0.334844 0.936553
0.474678 0.356451 0.934966
0.603479 0.376806 0.928832
0.726436 0.396582 0.919921
0.849424 0.418677 0.917174
0.955444 0.446815 0.903532
0.314519 0.496040 0.939849
0.348852 0.502525 0.939513
0.417304 0.504265 0.936858
0.516594 0.510124 0.933745
0.626184 0.516320 0.928466
0.736568 0.520684 0.920500
0.850431 0.526848 0.916838
0.954345 0.539422 0.905608
0.317754 0.610864 0.941436
0.349615 0.614160 0.941375
0.430640 0.620264 0.938811
0.531029 0.626429 0.935149
0.633814 0.627405 0.928893
0.737606 0.623743 0.920745
0.846616 0.621363 0.915373
0.953674 0.630640 0.908324
0.329107 0.731106 0.936950
0.354467 0.731472 0.936278
0.428260 0.732967 0.934997
0.524620 0.734585 0.934539
0.625177 0.731991 0.934234
0.736294 0.729519 0.928435
0.847105 0.727199 0.920714
0.954223 0.735073 0.914061
0.351263 0.855772 0.935424
0.373632 0.855589 0.935119
0.440375 0.855100 0.934508
0.529900 0.854582 0.934936
0.629084 0.852964 0.936126
0.743313 0.852781 0.938293
0.850248 0.843687 0.929931
0.947723 0.838132 0.915007
0.370153 0.978607 0.933715
0.389075 0.977905 0.933410
0.447791 0.976349 0.933074
0.529870 0.974762 0.933349
0.626642 0.970855 0.932250
0.735348 0.962921 0.928985
0.846860 0.952056 0.924895
0.944488 0.939055 0.921294
