data/fiter_cube/55192441/1023192/file.cube
# Created by Adobe Lightroom plugin Export LUT (1.17.0)
# www.johnrellis.com/lightroom/exportlut.htm
# Preset: 清新轻盈通透人像_10 云集
# Color profile: C:\Program Files (x86)\Common Files\Adobe\Color\Profiles\Recommended\AdobeRGB1998.icc
LUT_3D_SIZE 5
DOMAIN_MIN 0.000000 0.000000 0.000000
DOMAIN_MAX 0.903226 0.903226 0.903226
0.000000 0.000000 0.000000
0.315251 0.000000 0.000000
0.679072 0.000000 0.000000
0.874510 0.000000 0.000000
1.000000 0.000000 0.000000
0.000000 0.323400 0.000000
0.326574 0.323522 0.000000
0.667414 0.313848 0.000000
0.866300 0.264927 0.000000
1.000000 0.248569 0.000000
0.000000 0.677943 0.000000
0.283970 0.669581 0.000000
0.665583 0.658656 0.000000
0.858152 0.559869 0.000000
1.000000 0.507439 0.017029
0.000000 0.855131 0.000000
0.212863 0.853300 0.000000
0.536187 0.842618 0.000000
0.823392 0.815793 0.000000
1.000000 0.752987 0.175540
0.000000 1.000000 0.109499
0.241062 1.000000 0.105013
0.477272 0.989654 0.000000
0.730831 0.980591 0.133608
0.974243 0.963134 0.236820
0.000000 0.000000 0.269474
0.306828 0.000000 0.280674
0.664179 0.000000 0.248844
0.843809 0.146853 0.276127
1.000000 0.210971 0.293767
0.000000 0.307897 0.281651
0.321721 0.308965 0.262760
0.660151 0.303960 0.266148
0.839811 0.309667 0.281773
1.000000 0.322026 0.302770
0.000000 0.667994 0.228153
0.245823 0.660945 0.185092
0.645350 0.636591 0.231601
0.831449 0.565209 0.305547
1.000000 0.539605 0.334203
0.115206 0.846464 0.274937
0.283177 0.845609 0.260472
0.549340 0.836057 0.252964
0.818173 0.810269 0.308721
0.995850 0.760250 0.361242
0.225467 0.999573 0.323766
0.316960 0.997375 0.320928
0.516686 0.992370 0.319127
0.743313 0.981323 0.329870
0.974792 0.964019 0.377417
0.000000 0.000000 0.619959
0.306310 0.000000 0.612970
0.649165 0.000000 0.597131
0.827054 0.267857 0.542687
0.984985 0.402502 0.567498
0.000000 0.273259 0.628656
0.291722 0.277226 0.617212
0.646021 0.328313 0.595331
0.816129 0.419165 0.563409
0.981201 0.484596 0.589319
0.000000 0.661494 0.613672
0.308659 0.651179 0.604150
0.635981 0.625299 0.589471
0.805325 0.617578 0.594171
0.979126 0.608576 0.591150
0.212100 0.833005 0.536278
0.372564 0.824186 0.546960
0.592615 0.815671 0.559564
0.809873 0.801511 0.575799
0.975555 0.774105 0.588647
0.335424 0.985962 0.542687
0.427527 0.983978 0.560143
0.567224 0.981964 0.554314
0.752041 0.973236 0.543816
0.967102 0.957000 0.564935
0.000000 0.000000 0.793515
0.257267 0.000000 0.790372
0.557946 0.000000 0.778073
0.810727 0.262211 0.757870
0.976135 0.394568 0.731289
0.079866 0.279942 0.794644
0.304814 0.294011 0.790219
0.576013 0.341161 0.773678
0.802731 0.402258 0.753079
0.969207 0.465187 0.734615
0.234287 0.577813 0.793057
0.388159 0.589105 0.790005
0.613245 0.604700 0.770413
0.788113 0.606317 0.746395
0.963043 0.614496 0.747219
0.302373 0.826139 0.780789
0.412940 0.818967 0.775570
0.607568 0.804807 0.766079
0.793484 0.783993 0.752438
0.963348 0.772519 0.752956
0.373632 0.978210 0.732967
0.444617 0.975891 0.737392
0.596887 0.972381 0.745632
0.754879 0.968353 0.732296
0.961181 0.951873 0.733303
0.000000 0.000000 0.944366
0.234165 0.000000 0.942504
0.507652 0.102602 0.936461
0.753475 0.251225 0.924010
0.961486 0.354314 0.906920
0.148531 0.273991 0.941741
0.294621 0.286137 0.939605
0.532189 0.326329 0.933043
0.755734 0.372930 0.919005
0.957275 0.428077 0.904753
0.313085 0.550835 0.940581
0.403876 0.560845 0.937804
0.578180 0.571801 0.929778
0.761959 0.570184 0.915465
0.953246 0.583490 0.906096
0.339818 0.764309 0.938048
0.414588 0.765286 0.936767
0.577630 0.765469 0.936400
0.764370 0.757595 0.928893
0.952483 0.759731 0.913848
0.370153 0.978607 0.933715
0.429999 0.976745 0.933074
0.576318 0.973693 0.933440
0.763302 0.960571 0.928099
0.944488 0.939055 0.921294
