data/fiter_cube/96471014/1022822/file.cube
# Created by Adobe Lightroom plugin Export LUT (1.17.0)
# www.johnrellis.com/lightroom/exportlut.htm
# Preset: 古风系-复古庄重
# Color profile: C:\Program Files (x86)\Common Files\Adobe\Color\Profiles\Recommended\AdobeRGB1998.icc
LUT_3D_SIZE 5
DOMAIN_MIN 0.000000 0.000000 0.000000
DOMAIN_MAX 0.903226 0.903226 0.903226
0.000000 0.000000 0.000000
0.188785 0.000000 0.000000
0.477790 0.000000 0.000000
0.850553 0.000000 0.000000
1.000000 0.069184 0.000000
0.000000 0.178561 0.000000
0.178958 0.182559 0.000000
0.482033 0.243015 0.000000
0.852689 0.286534 0.000000
1.000000 0.279149 0.000000
0.000000 0.400305 0.000000
0.176913 0.402899 0.000000
0.439399 0.452247 0.000000
0.842374 0.574670 0.000000
1.000000 0.547631 0.000000
0.000000 0.707973 0.000000
0.143465 0.709621 0.000000
0.441932 0.714900 0.000000
0.764675 0.787686 0.000000
1.000000 0.793942 0.003937
0.000000 0.974090 0.000000
0.000000 0.973205 0.000000
0.416144 0.970153 0.000000
0.689448 0.969055 0.000000
0.956115 0.970947 0.000000
0.000000 0.000000 0.166903
0.176669 0.000000 0.167514
0.448493 0.000000 0.187716
0.839567 0.000000 0.188266
1.000000 0.000000 0.204379
0.000000 0.179141 0.166567
0.174258 0.178927 0.164492
0.460090 0.212406 0.183413
0.842527 0.242100 0.185855
1.000000 0.272557 0.207370
0.000000 0.402808 0.157076
0.144564 0.407538 0.132692
0.433326 0.446632 0.152438
0.843900 0.566857 0.172976
1.000000 0.552117 0.228305
0.000000 0.711177 0.000000
0.000000 0.714199 0.000000
0.427375 0.718441 0.000000
0.763149 0.786130 0.000000
1.000000 0.797879 0.241733
0.000000 0.976379 0.000000
0.000000 0.975463 0.000000
0.394049 0.971954 0.000000
0.682429 0.968841 0.000000
0.958068 0.970611 0.151064
0.074952 0.000000 0.340978
0.203128 0.000000 0.341619
0.403479 0.000000 0.341863
0.748501 0.000000 0.387243
1.000000 0.000000 0.409094
0.000000 0.171389 0.343053
0.170657 0.156619 0.343572
0.406714 0.150607 0.342382
0.770077 0.000000 0.383948
1.000000 0.326390 0.430488
0.000000 0.408820 0.338964
0.105623 0.411841 0.338811
0.403876 0.413703 0.331762
0.814328 0.524651 0.401190
1.000000 0.611658 0.478065
0.000000 0.715145 0.342016
0.000000 0.719356 0.328985
0.363195 0.727687 0.282292
0.758145 0.775509 0.339513
1.000000 0.826688 0.515373
0.000000 0.977447 0.287755
0.000000 0.978393 0.265629
0.312169 0.977295 0.215915
0.662776 0.967712 0.220127
0.965454 0.968902 0.411719
0.157626 0.000000 0.578180
0.268101 0.000000 0.578790
0.480720 0.000000 0.580346
0.723323 0.000000 0.581964
0.985626 0.000000 0.574945
0.000000 0.139040 0.581720
0.212619 0.123262 0.582116
0.467048 0.026398 0.582818
0.725978 0.000000 0.583398
0.991394 0.000000 0.575433
0.000000 0.439002 0.582879
0.000000 0.421607 0.584741
0.388952 0.371344 0.587457
0.729488 0.378363 0.583734
1.000000 0.485298 0.605493
0.000000 0.727596 0.579492
0.000000 0.729915 0.579919
0.322728 0.735256 0.579553
0.718624 0.724147 0.571191
0.998413 0.854185 0.747158
0.000000 0.979278 0.543542
0.000000 0.979919 0.536126
0.281376 0.978820 0.517082
0.685298 0.965301 0.539757
0.970886 0.965240 0.683436
0.094179 0.000000 0.883543
0.247044 0.000000 0.883818
0.475715 0.000000 0.884611
0.719600 0.000000 0.885649
0.977539 0.000000 0.886748
0.000000 0.082918 0.885283
0.173159 0.022004 0.885496
0.453803 0.000000 0.886046
0.712367 0.000000 0.886809
0.977325 0.000000 0.887388
0.000000 0.384009 0.888548
0.000000 0.355932 0.889708
0.358251 0.339818 0.890074
0.690394 0.349493 0.889036
0.974365 0.345953 0.887999
0.000000 0.691707 0.887449
0.000000 0.683772 0.888304
0.195926 0.658595 0.890501
0.676081 0.679347 0.887968
0.960815 0.714839 0.883482
0.000000 0.973785 0.884825
0.000000 0.973785 0.885100
0.130861 0.972686 0.885557
0.665248 0.963806 0.884886
0.947662 0.946715 0.884459
