data/fiter_cube/96471014/1022822/file.cube
# Created by Adobe Lightroom plugin Export LUT (1.17.0)
# www.johnrellis.com/lightroom/exportlut.htm
# Preset: 古风系-复古庄重
# Color profile: C:\Program Files (x86)\Common Files\Adobe\Color\Profiles\Recommended\AdobeRGB1998.icc
LUT_3D_SIZE 32
DOMAIN_MIN 0.0 0.0 0.0
DOMAIN_MAX 1.0 1.0 1.0
0.000000 0.000000 0.000000
0.010864 0.000000 0.000000
0.030488 0.000000 0.000397
0.064424 0.000000 0.000000
0.089601 0.000000 0.000000
0.123049 0.000000 0.000000
0.157382 0.000000 0.000000
0.188785 0.000000 0.000000
0.220645 0.000000 0.000000
0.255833 0.000000 0.000000
0.292760 0.000000 0.000000
0.329778 0.000000 0.000000
0.372656 0.000000 0.000000
0.423011 0.000000 0.000000
0.477790 0.000000 0.000000
0.531853 0.000000 0.000000
0.586847 0.000000 0.000000
0.643488 0.000000 0.000000
0.700099 0.000000 0.000000
0.754665 0.000000 0.000000
0.804196 0.000000 0.000000
0.850553 0.000000 0.000000
0.893400 0.000000 0.000000
0.932128 0.000000 0.000000
0.966125 0.000000 0.000000
0.995361 0.000000 0.000000
1.000000 0.010803 0.000000
1.000000 0.051179 0.000000
1.000000 0.069184 0.000000
1.000000 0.084199 0.000000
1.000000 0.097536 0.000000
1.000000 0.109743 0.000000
0.000000 0.012024 0.000000
0.010193 0.011231 0.000000
0.029877 0.012665 0.000000
0.064027 0.013275 0.000000
0.089265 0.015045 0.000000
0.122927 0.017853 0.000000
0.157259 0.018891 0.000000
0.188663 0.018982 0.000000
0.220523 0.017792 0.000000
0.256016 0.016815 0.000000
0.292821 0.015473 0.000000
0.329900 0.013672 0.000000
0.372656 0.008392 0.000000
0.423316 0.007507 0.000000
0.477852 0.000000 0.000000
0.532036 0.000000 0.000000
0.586908 0.000000 0.000000
0.643549 0.000000 0.000000
0.700191 0.000000 0.000000
0.754696 0.000000 0.000000
0.804288 0.000000 0.000000
0.850492 0.000000 0.000000
0.893339 0.000000 0.000000
0.932158 0.005463 0.000000
0.966125 0.025086 0.000000
0.995300 0.047272 0.000000
1.000000 0.060914 0.000000
1.000000 0.075227 0.000000
1.000000 0.085817 0.000000
1.000000 0.096773 0.000000
1.000000 0.108370 0.000000
1.000000 0.119295 0.000000
0.000000 0.032258 0.000000
0.011475 0.032197 0.000000
0.029725 0.031464 0.000000
0.063264 0.033509 0.000000
0.089021 0.037446 0.000000
0.122896 0.044831 0.000000
0.157137 0.048829 0.000000
0.188418 0.050904 0.000000
0.220645 0.051301 0.000000
0.255985 0.053437 0.000000
0.292760 0.053346 0.000000
0.329931 0.053620 0.000000
0.372839 0.053681 0.000000
0.423438 0.054810 0.000000
0.477974 0.053773 0.000000
0.532158 0.051087 0.000000
0.587030 0.049134 0.000000
0.643732 0.046387 0.000000
0.700618 0.048035 0.000000
0.754818 0.052338 0.000000
0.804410 0.053040 0.000000
0.850645 0.058503 0.000000
0.893462 0.064271 0.000000
0.932219 0.068055 0.000000
0.966125 0.073671 0.000000
0.995331 0.080201 0.000000
1.000000 0.087526 0.000000
1.000000 0.095979 0.000000
1.000000 0.103456 0.000000
1.000000 0.112184 0.000000
1.000000 0.121065 0.000000
1.000000 0.130373 0.000000
0.000000 0.064851 0.000000
0.011170 0.064820 0.000000
0.031037 0.064942 0.000000
0.063294 0.064393 0.000000
0.087098 0.066682 0.001190
0.122438 0.074189 0.000000
0.156649 0.078248 0.000000
0.188205 0.080415 0.000000
0.220554 0.081514 0.000000
0.256046 0.083894 0.000000
0.292790 0.085206 0.000000
0.330053 0.087098 0.000000
0.373053 0.088869 0.000000
0.423682 0.091859 0.000000
0.478462 0.094667 0.000000
0.532586 0.097139 0.000000
0.587518 0.098268 0.000000
0.644129 0.100710 0.000000
0.700862 0.103151 0.000000
0.755093 0.106020 0.000000
0.804654 0.107942 0.000000
0.850858 0.109957 0.000000
0.893614 0.111238 0.000000
0.932250 0.114626 0.000000
0.966186 0.116640 0.000000
0.995300 0.119356 0.000000
1.000000 0.123079 0.000000
1.000000 0.127321 0.000000
1.000000 0.133211 0.000000
1.000000 0.138247 0.000000
1.000000 0.144594 0.000000
1.000000 0.151461 0.000000
0.000000 0.089479 0.000000
0.008545 0.089418 0.000000
0.030762 0.089662 0.000000
0.065278 0.090028 0.000000
0.089174 0.090883 0.000000
0.118715 0.096498 0.000000
0.154726 0.104158 0.000000
0.187930 0.107973 0.000000
0.220249 0.110231 0.000000
0.255985 0.113619 0.000000
0.292790 0.116274 0.000000
0.330236 0.118807 0.000000
0.373571 0.122316 0.000000
0.424292 0.127077 0.000000
0.478950 0.132448 0.000000
0.533104 0.136446 0.000000
0.588098 0.140475 0.000000
0.644678 0.144594 0.000000
0.701442 0.148074 0.000000
0.755642 0.151705 0.000000
0.804898 0.154055 0.000000
0.851194 0.156008 0.000000
0.893889 0.157870 0.000000
0.932403 0.158999 0.000000
0.966186 0.159823 0.000000
0.995239 0.161044 0.000000
1.000000 0.162753 0.000000
1.000000 0.164584 0.000000
1.000000 0.167422 0.000000
1.000000 0.170809 0.000000
1.000000 0.174655 0.000000
1.000000 0.178866 0.000000
0.000000 0.120974 0.000000
0.003906 0.121065 0.000000
0.030365 0.121126 0.000000
0.068025 0.121553 0.000000
0.094697 0.122377 0.000000
0.121126 0.123568 0.000000
0.149996 0.126955 0.000000
0.183902 0.133272 0.000000
0.218784 0.138308 0.000000
0.256077 0.143099 0.000000
0.292851 0.146975 0.000000
0.330480 0.150088 0.000000
0.373968 0.155337 0.000000
0.425116 0.162295 0.000000
0.479927 0.169192 0.000000
0.533928 0.175326 0.000000
0.588952 0.180575 0.000000
0.645441 0.186313 0.000000
0.702113 0.191348 0.000000
0.756222 0.195468 0.000000
0.805478 0.198001 0.000000
0.851591 0.200381 0.000000
0.894163 0.201633 0.000000
0.932555 0.202274 0.000000
0.966278 0.202609 0.000000
0.995148 0.202365 0.000000
1.000000 0.202548 0.000000
1.000000 0.202853 0.000000
1.000000 0.203922 0.000000
1.000000 0.205509 0.000000
1.000000 0.207553 0.000000
1.000000 0.209842 0.000000
0.000000 0.151308 0.000000
0.000000 0.151308 0.000000
0.024262 0.151492 0.000000
0.067842 0.151522 0.000000
0.095460 0.151766 0.000000
0.123354 0.152651 0.000000
0.151003 0.153994 0.000000
0.178500 0.155795 0.000000
0.213352 0.162325 0.000000
0.252110 0.170108 0.000000
0.292424 0.177096 0.000000
0.330724 0.181888 0.000000
0.374701 0.188357 0.000000
0.426246 0.197024 0.000000
0.480934 0.205875 0.000000
0.534813 0.213443 0.000000
0.589685 0.220615 0.000000
0.646632 0.227604 0.000000
0.703182 0.233982 0.000000
0.756985 0.238529 0.000000
0.806119 0.241581 0.000000
0.852110 0.243412 0.000000
0.894499 0.244724 0.000000
0.932799 0.244816 0.000000
0.966308 0.244266 0.000000
0.995056 0.243107 0.000000
1.000000 0.242374 0.000000
1.000000 0.241947 0.000000
1.000000 0.241215 0.000000
1.000000 0.241398 0.000000
1.000000 0.241733 0.000000
1.000000 0.242618 0.000000
0.000000 0.178561 0.000000
0.000000 0.178714 0.000000
0.015808 0.178714 0.000000
0.065217 0.178714 0.000000
0.094392 0.178714 0.000000
0.122072 0.178988 0.000000
0.150484 0.180697 0.000000
0.178958 0.182559 0.000000
0.207553 0.185000 0.000000
0.245701 0.194247 0.000000
0.286107 0.203098 0.000000
0.327550 0.211093 0.000000
0.375677 0.221683 0.000000
0.427314 0.232090 0.000000
0.482033 0.243015 0.000000
0.536034 0.251926 0.000000
0.590936 0.260227 0.000000
0.647913 0.268437 0.000000
0.704463 0.275608 0.000000
0.757900 0.281010 0.000000
0.806851 0.284367 0.000000
0.852689 0.286534 0.000000
0.894926 0.287297 0.000000
0.933043 0.286992 0.000000
0.966308 0.286015 0.000000
0.994965 0.284428 0.000000
1.000000 0.282444 0.000000
1.000000 0.280674 0.000000
1.000000 0.279149 0.000000
1.000000 0.277958 0.000000
1.000000 0.277073 0.000000
1.000000 0.276463 0.000000
0.000000 0.205905 0.000000
0.000000 0.205844 0.000000
0.005829 0.205966 0.000000
0.060792 0.205997 0.000000
0.092653 0.206058 0.000000
0.120821 0.206271 0.000000
0.149264 0.207523 0.000000
0.178805 0.210300 0.000000
0.208896 0.213535 0.000000
0.239475 0.217136 0.000000
0.278874 0.227329 0.000000
0.320195 0.236912 0.000000
0.368261 0.249607 0.000000
0.425513 0.265812 0.000000
0.483375 0.280369 0.000000
0.537285 0.290623 0.000000
0.592309 0.300267 0.000000
0.649714 0.309728 0.000000
0.705928 0.317693 0.000000
0.759091 0.323369 0.000000
0.807736 0.326940 0.000000
0.853422 0.328923 0.000000
0.895476 0.329961 0.000000
0.933318 0.329381 0.000000
0.966369 0.327794 0.000000
0.994781 0.325475 0.000000
1.000000 0.322667 0.000000
1.000000 0.319951 0.000000
1.000000 0.317174 0.000000
1.000000 0.315038 0.000000
1.000000 0.312779 0.000000
1.000000 0.310796 0.005798
0.000000 0.235233 0.000000
0.000000 0.235233 0.000000
0.000000 0.235325 0.000000
0.053895 0.235386 0.000000
0.090364 0.235477 0.000000
0.120089 0.235874 0.000000
0.148775 0.236118 0.000000
0.178653 0.238834 0.000000
0.209598 0.242710 0.000000
0.241032 0.246891 0.000000
0.272465 0.250584 0.000000
0.311925 0.260624 0.000000
0.359014 0.274754 0.000000
0.415229 0.293217 0.000000
0.476417 0.312200 0.000000
0.537530 0.328618 0.000000
0.594263 0.340490 0.000000
0.651484 0.351049 0.000000
0.707668 0.359777 0.000000
0.760311 0.365942 0.000000
0.808804 0.369787 0.000000
0.854246 0.371893 0.000000
0.896025 0.372290 0.000000
0.933623 0.371527 0.000000
0.966400 0.369451 0.000000
0.994568 0.366400 0.000000
1.000000 0.362829 0.000000
1.000000 0.359289 0.000000
1.000000 0.355627 0.000000
1.000000 0.352300 0.000000
1.000000 0.348943 0.000000
1.000000 0.345800 0.025971
0.000000 0.265721 0.000000
0.000000 0.265751 0.000000
0.000000 0.265904 0.000000
0.039765 0.265843 0.000000
0.086305 0.265995 0.000000
0.118563 0.266178 0.000000
0.148318 0.266392 0.000000
0.177432 0.267002 0.000000
0.208530 0.270695 0.000000
0.240391 0.274998 0.000000
0.272892 0.279789 0.000000
0.305608 0.284184 0.000000
0.349096 0.297642 0.000000
0.404303 0.318120 0.000000
0.465431 0.339971 0.000000
0.526421 0.358770 0.000000
0.588952 0.375982 0.000000
0.653376 0.392309 0.000000
0.709560 0.401862 0.000000
0.761776 0.408515 0.000000
0.809995 0.412421 0.000000
0.855100 0.414405 0.000000
0.896727 0.414862 0.000000
0.933928 0.413825 0.000000
0.966400 0.411048 0.000000
0.994354 0.407233 0.000000
1.000000 0.403204 0.000000
1.000000 0.398688 0.000000
1.000000 0.394202 0.000000
1.000000 0.389654 0.000000
1.000000 0.385290 0.000000
1.000000 0.381109 0.049073
0.000000 0.295445 0.000000
0.000000 0.295506 0.000000
0.000000 0.295506 0.000000
0.017914 0.295384 0.000000
0.081300 0.295659 0.000000
0.115755 0.295720 0.000000
0.146914 0.295995 0.000000
0.176425 0.296086 0.000000
0.206516 0.298222 0.000000
0.239017 0.302983 0.000000
0.272435 0.308507 0.000000
0.307378 0.315251 0.000000
0.343511 0.322606 0.000000
0.392493 0.340490 0.000000
0.453285 0.365026 0.000000
0.514305 0.386450 0.000000
0.576898 0.406043 0.000000
0.641871 0.424933 0.000000
0.706538 0.441321 0.000000
0.763302 0.451301 0.000000
0.811368 0.455146 0.000000
0.856138 0.457374 0.000000
0.897337 0.457649 0.000000
0.934234 0.455970 0.000000
0.966369 0.452735 0.000000
0.994018 0.448432 0.000000
1.000000 0.443397 0.000000
1.000000 0.438025 0.000000
1.000000 0.432624 0.000000
1.000000 0.427283 0.000000
1.000000 0.421881 0.008392
1.000000 0.416510 0.064149
0.000000 0.326268 0.000000
0.000000 0.326329 0.000000
0.000000 0.326329 0.000000
0.000000 0.326513 0.000000
0.074769 0.326574 0.000000
0.111910 0.326940 0.000000
0.144991 0.327245 0.000000
0.175540 0.327672 0.000000
0.205722 0.328099 0.000000
0.238254 0.332891 0.000000
0.273167 0.339849 0.000000
0.309483 0.347753 0.000000
0.347692 0.357061 0.000000
0.388373 0.367681 0.000000
0.440162 0.387304 0.000000
0.501305 0.411658 0.000000
0.563989 0.433692 0.000000
0.628656 0.454749 0.000000
0.694148 0.473762 0.000000
0.755459 0.487861 0.000000
0.810758 0.497047 0.000000
0.857176 0.500328 0.000000
0.898070 0.500267 0.000000
0.934508 0.498421 0.000000
0.966247 0.494606 0.000000
0.993652 0.489418 0.000000
1.000000 0.483619 0.000000
1.000000 0.477485 0.000000
1.000000 0.470954 0.000000
1.000000 0.464668 0.000000
1.000000 0.458320 0.035096
1.000000 0.451942 0.073610
0.000000 0.361181 0.000000
0.000000 0.361212 0.000000
0.000000 0.361334 0.000000
0.000000 0.361517 0.000000
0.064912 0.361669 0.000000
0.108248 0.362066 0.000000
0.143771 0.362615 0.000000
0.175967 0.363317 0.000000
0.207614 0.363989 0.000000
0.238712 0.365423 0.000000
0.274693 0.373449 0.000000
0.312505 0.382757 0.000000
0.351904 0.393103 0.000000
0.393286 0.404334 0.000000
0.436591 0.416449 0.000000
0.487648 0.434333 0.000000
0.549584 0.458808 0.000000
0.614252 0.482094 0.000000
0.680629 0.503960 0.000000
0.743740 0.520958 0.000000
0.800381 0.532189 0.000000
0.852293 0.539513 0.000000
0.898772 0.543389 0.000000
0.934813 0.540734 0.000000
0.966125 0.536370 0.000000
0.993164 0.530358 0.000000
1.000000 0.523766 0.000000
1.000000 0.516686 0.000000
1.000000 0.509453 0.000000
1.000000 0.502068 0.000000
1.000000 0.494697 0.058198
1.000000 0.487343 0.083833
0.000000 0.400305 0.000000
0.000000 0.400336 0.000000
0.000000 0.400458 0.000000
0.000000 0.400732 0.000000
0.042695 0.401160 0.000000
0.103548 0.401556 0.000000
0.142367 0.402167 0.000000
0.176913 0.402899 0.000000
0.210269 0.403754 0.000000
0.242649 0.404730 0.000000
0.276585 0.409064 0.000000
0.314824 0.418738 0.000000
0.354833 0.429236 0.000000
0.396307 0.440528 0.000000
0.439399 0.452247 0.000000
0.484260 0.464576 0.000000
0.535363 0.481697 0.000000
0.598779 0.506828 0.000000
0.665919 0.531701 0.000000
0.730831 0.552117 0.000000
0.789090 0.565667 0.000000
0.842374 0.574670 0.000000
0.890318 0.579767 0.000000
0.932067 0.581079 0.000000
0.965881 0.577905 0.000000
0.992615 0.571160 0.000000
1.000000 0.563806 0.000000
1.000000 0.555840 0.000000
1.000000 0.547631 0.000000
1.000000 0.539300 0.019562
1.000000 0.531060 0.070954
1.000000 0.522728 0.092531
0.000000 0.442115 0.000000
0.000000 0.442145 0.000000
0.000000 0.442329 0.000000
0.000000 0.442451 0.000000
0.003082 0.442786 0.000000
0.096590 0.443275 0.000000
0.139742 0.443763 0.000000
0.177554 0.444312 0.000000
0.212589 0.445075 0.000000
0.245975 0.445991 0.000000
0.278721 0.446815 0.000000
0.315862 0.454047 0.000000
0.355505 0.464179 0.000000
0.396979 0.475196 0.000000
0.439918 0.487068 0.000000
0.485023 0.499825 0.000000
0.531762 0.513054 0.000000
0.583581 0.529656 0.000000
0.650141 0.556817 0.000000
0.716915 0.580926 0.000000
0.776822 0.597284 0.000000
0.831479 0.608392 0.000000
0.880888 0.615045 0.000000
0.924041 0.617334 0.000000
0.960449 0.615686 0.000000
0.990997 0.611200 0.000000
1.000000 0.603479 0.000000
1.000000 0.594781 0.000000
1.000000 0.585626 0.000000
1.000000 0.576440 0.051972
1.000000 0.567285 0.083803
1.000000 0.558251 0.103670
0.000000 0.483223 0.000000
0.000000 0.483345 0.000000
0.000000 0.483284 0.000000
0.000000 0.483436 0.000000
0.000000 0.483742 0.000000
0.086641 0.484108 0.000000
0.135866 0.484535 0.000000
0.175723 0.484962 0.000000
0.212619 0.485542 0.000000
0.247501 0.486213 0.000000
0.281559 0.487037 0.000000
0.315068 0.488136 0.000000
0.355077 0.498329 0.000000
0.396612 0.509483 0.000000
0.439643 0.521355 0.000000
0.484321 0.534081 0.000000
0.531212 0.547906 0.000000
0.580621 0.562646 0.000000
0.634760 0.580468 0.000000
0.701472 0.607141 0.000000
0.763577 0.626917 0.000000
0.819883 0.640375 0.000000
0.870756 0.648768 0.000000
0.915435 0.652430 0.000000
0.953216 0.651545 0.000000
0.984771 0.647272 0.000000
1.000000 0.640955 0.000000
1.000000 0.633387 0.000000
1.000000 0.623407 0.005035
1.000000 0.613519 0.070069
1.000000 0.603449 0.095155
1.000000 0.593652 0.115480
0.000000 0.523827 0.000000
0.000000 0.523827 0.000000
0.000000 0.523919 0.000000
0.000000 0.524010 0.000000
0.000000 0.524254 0.000000
0.072541 0.524529 0.000000
0.129397 0.525048 0.000000
0.172793 0.525444 0.000000
0.211826 0.526024 0.000000
0.248203 0.526696 0.000000
0.283391 0.527459 0.000000
0.317662 0.528344 0.000000
0.353918 0.532647 0.000000
0.395666 0.543999 0.000000
0.438941 0.556329 0.000000
0.484138 0.569757 0.000000
0.531548 0.584344 0.000000
0.580896 0.599420 0.000000
0.632197 0.614923 0.000000
0.686885 0.632136 0.000000
0.749111 0.654353 0.000000
0.807095 0.670497 0.000000
0.859800 0.681025 0.000000
0.906096 0.686244 0.000000
0.945342 0.686305 0.000000
0.978058 0.682612 0.000000
1.000000 0.676326 0.000000
1.000000 0.668635 0.000000
1.000000 0.660060 0.027039
1.000000 0.650416 0.086336
1.000000 0.639704 0.109682
1.000000 0.629114 0.128542
0.000000 0.565942 0.000000
0.000000 0.565972 0.000000
0.000000 0.566003 0.000000
0.000000 0.566186 0.000000
0.000000 0.566491 0.000000
0.036927 0.566766 0.000000
0.121370 0.567224 0.000000
0.168643 0.567773 0.000000
0.210056 0.568414 0.000000
0.248203 0.569146 0.000000
0.284611 0.570001 0.000000
0.320531 0.571038 0.000000
0.355596 0.572229 0.000000
0.395392 0.580591 0.000000
0.439368 0.593622 0.000000
0.484993 0.607538 0.000000
0.532097 0.621881 0.000000
0.581048 0.636896 0.000000
0.631678 0.651911 0.000000
0.683162 0.666438 0.000000
0.735805 0.680751 0.000000
0.793484 0.698604 0.000000
0.847929 0.711604 0.000000
0.895995 0.718685 0.000000
0.936858 0.720058 0.000000
0.970947 0.716945 0.000000
0.999664 0.710842 0.000000
1.000000 0.703151 0.000000
1.000000 0.694392 0.021637
1.000000 0.684993 0.092073
1.000000 0.675288 0.123812
1.000000 0.664454 0.143435
0.000000 0.611231 0.000000
0.000000 0.611353 0.000000
0.000000 0.611444 0.000000
0.000000 0.611658 0.000000
0.000000 0.611933 0.000000
0.000000 0.612390 0.000000
0.109682 0.612818 0.000000
0.162875 0.613581 0.000000
0.207584 0.614252 0.000000
0.248051 0.615076 0.000000
0.286503 0.616144 0.000000
0.323735 0.617243 0.000000
0.360113 0.618494 0.000000
0.396033 0.619989 0.000000
0.440040 0.632624 0.000000
0.485603 0.646174 0.000000
0.532616 0.660273 0.000000
0.580529 0.674098 0.000000
0.629480 0.687617 0.000000
0.679164 0.700710 0.000000
0.729549 0.713405 0.000000
0.780972 0.726040 0.000000
0.835233 0.740383 0.000000
0.885039 0.749630 0.000000
0.927764 0.752621 0.000000
0.963317 0.750362 0.000000
0.993133 0.744747 0.000000
1.000000 0.737087 0.000000
1.000000 0.728237 0.017670
1.000000 0.718624 0.096010
1.000000 0.708522 0.128176
1.000000 0.698268 0.153750
0.000000 0.659510 0.000000
0.000000 0.659632 0.000000
0.000000 0.659693 0.000000
0.000000 0.659876 0.000000
0.000000 0.660090 0.000000
0.000000 0.660487 0.000000
0.091157 0.660945 0.000000
0.155489 0.661646 0.000000
0.203861 0.662318 0.000000
0.246921 0.663203 0.000000
0.287266 0.664149 0.000000
0.325994 0.665309 0.000000
0.363958 0.666468 0.000000
0.401282 0.667720 0.000000
0.440345 0.672267 0.000000
0.485481 0.684871 0.000000
0.531304 0.697383 0.000000
0.578058 0.709804 0.000000
0.625757 0.722103 0.000000
0.674098 0.734035 0.000000
0.723201 0.745754 0.000000
0.772854 0.757076 0.000000
0.823575 0.768582 0.000000
0.873655 0.779141 0.000000
0.917967 0.783871 0.000000
0.955077 0.782864 0.000000
0.986145 0.777768 0.000000
1.000000 0.770352 0.000000
1.000000 0.761440 0.012604
1.000000 0.751644 0.097810
1.000000 0.741268 0.132998
1.000000 0.731044 0.160098
0.000000 0.707973 0.000000
0.000000 0.707973 0.000000
0.000000 0.708064 0.000000
0.000000 0.708248 0.000000
0.000000 0.708431 0.000000
0.000000 0.708736 0.000000
0.061189 0.709133 0.000000
0.143465 0.709621 0.000000
0.197665 0.710231 0.000000
0.243839 0.710750 0.000000
0.286168 0.711513 0.000000
0.326757 0.712306 0.000000
0.366003 0.713069 0.000000
0.404089 0.714015 0.000000
0.441932 0.714900 0.000000
0.483619 0.722072 0.000000
0.528679 0.733211 0.000000
0.574609 0.744533 0.000000
0.621210 0.755764 0.000000
0.668513 0.766751 0.000000
0.716487 0.777493 0.000000
0.764675 0.787686 0.000000
0.813016 0.797482 0.000000
0.862150 0.807309 0.000000
0.907988 0.813993 0.000000
0.946349 0.814237 0.000000
0.978729 0.809964 0.000000
1.000000 0.802853 0.000000
1.000000 0.793942 0.003937
1.000000 0.784085 0.099580
1.000000 0.773739 0.138094
1.000000 0.763546 0.165957
0.000000 0.753384 0.000000
0.000000 0.753353 0.000000
0.000000 0.753445 0.000000
0.000000 0.753597 0.000000
0.000000 0.753750 0.000000
0.000000 0.753964 0.000000
0.000000 0.754269 0.000000
0.128084 0.754513 0.000000
0.189090 0.755001 0.000000
0.238682 0.755367 0.000000
0.283391 0.755886 0.000000
0.325109 0.756405 0.000000
0.365362 0.757015 0.000000
0.404608 0.757626 0.000000
0.443061 0.758358 0.000000
0.481147 0.759030 0.000000
0.525231 0.768460 0.000000
0.570489 0.778744 0.000000
0.616205 0.788846 0.000000
0.662440 0.798795 0.000000
0.709071 0.808377 0.000000
0.755856 0.817441 0.000000
0.802670 0.826017 0.000000
0.849180 0.833860 0.000000
0.895903 0.841398 0.000000
0.937682 0.844663 0.000000
0.970825 0.841215 0.000000
0.999268 0.834623 0.000000
1.000000 0.825925 0.002045
1.000000 0.816007 0.101320
1.000000 0.805753 0.141848
1.000000 0.795651 0.171420
0.000000 0.796536 0.000000
0.000000 0.796567 0.000000
0.000000 0.796597 0.000000
0.000000 0.796750 0.000000
0.000000 0.796841 0.000000
0.000000 0.797024 0.000000
0.000000 0.797208 0.000000
0.107240 0.797421 0.000000
0.178073 0.797696 0.000000
0.231357 0.797971 0.000000
0.278264 0.798306 0.000000
0.321874 0.798734 0.000000
0.363439 0.799161 0.000000
0.403540 0.799649 0.000000
0.442756 0.800168 0.000000
0.481331 0.800656 0.000000
0.520836 0.803189 0.000000
0.565454 0.812284 0.000000
0.610529 0.821317 0.000000
0.655695 0.829984 0.000000
0.701106 0.838315 0.000000
0.746426 0.846067 0.000000
0.791653 0.853300 0.000000
0.836515 0.859709 0.000000
0.880674 0.865354 0.000000
0.924468 0.870603 0.000000
0.963287 0.871672 0.000000
0.992096 0.865507 0.000000
1.000000 0.857206 0.003876
1.000000 0.847440 0.105715
1.000000 0.837186 0.145266
1.000000 0.827207 0.176730
0.000000 0.837980 0.000000
0.000000 0.837980 0.000000
0.000000 0.838010 0.000000
0.000000 0.838041 0.000000
0.000000 0.838132 0.000000
0.000000 0.838224 0.000000
0.000000 0.838346 0.000000
0.076905 0.838468 0.000000
0.164370 0.838651 0.000000
0.222141 0.838865 0.000000
0.271489 0.839139 0.000000
0.316991 0.839292 0.000000
0.359808 0.839597 0.000000
0.400855 0.839811 0.000000
0.440925 0.840116 0.000000
0.479957 0.840421 0.000000
0.518425 0.840696 0.000000
0.560021 0.845151 0.000000
0.603937 0.852781 0.000000
0.648157 0.860136 0.000000
0.692256 0.867002 0.000000
0.736263 0.873350 0.000000
0.779873 0.879088 0.000000
0.823117 0.884154 0.000000
0.865721 0.888670 0.000000
0.907713 0.892424 0.000000
0.948882 0.895628 0.000000
0.985657 0.895659 0.000000
1.000000 0.887572 0.010468
1.000000 0.878111 0.110689
1.000000 0.867948 0.151614
1.000000 0.857969 0.182040
0.000000 0.877104 0.000000
0.000000 0.877104 0.000000
0.000000 0.877134 0.000000
0.000000 0.877165 0.000000
0.000000 0.877165 0.000000
0.000000 0.877256 0.000000
0.000000 0.877287 0.000000
0.000000 0.877317 0.000000
0.147280 0.877348 0.000000
0.211032 0.877409 0.000000
0.263523 0.877440 0.000000
0.310582 0.877531 0.000000
0.354620 0.877592 0.000000
0.396582 0.877653 0.000000
0.437140 0.877684 0.000000
0.476844 0.877684 0.000000
0.515679 0.877684 0.000000
0.554131 0.877623 0.000000
0.596704 0.882963 0.000000
0.639704 0.888792 0.000000
0.682582 0.894194 0.000000
0.725216 0.899077 0.000000
0.767514 0.903502 0.000000
0.809293 0.907378 0.000000
0.850584 0.910765 0.000000
0.891325 0.913573 0.000000
0.931334 0.915892 0.000000
0.970245 0.917723 0.000000
1.000000 0.917235 0.000000
1.000000 0.907713 0.114015
1.000000 0.897673 0.156680
1.000000 0.887785 0.188266
0.000000 0.913146 0.000000
0.000000 0.913146 0.000000
0.000000 0.913146 0.000000
0.000000 0.913115 0.000000
0.000000 0.913085 0.000000
0.000000 0.913054 0.000000
0.000000 0.912993 0.000000
0.000000 0.912963 0.000000
0.126406 0.912840 0.000000
0.198764 0.912749 0.000000
0.253971 0.912657 0.000000
0.302556 0.912535 0.000000
0.347723 0.912352 0.000000
0.390387 0.912200 0.000000
0.431617 0.911925 0.000000
0.471626 0.911650 0.000000
0.510918 0.911345 0.000000
0.549371 0.910948 0.000000
0.588251 0.911406 0.000000
0.630304 0.915801 0.000000
0.672145 0.919799 0.000000
0.713558 0.923461 0.000000
0.754788 0.926696 0.000000
0.795346 0.929534 0.000000
0.835508 0.931945 0.000000
0.875242 0.933898 0.000000
0.914366 0.935363 0.000000
0.952544 0.936431 0.000000
0.989197 0.937133 0.000000
1.000000 0.936431 0.000000
1.000000 0.926085 0.154299
1.000000 0.916258 0.194553
0.000000 0.945373 0.000000
0.000000 0.945373 0.000000
0.000000 0.945342 0.000000
0.000000 0.945312 0.000000
0.000000 0.945190 0.000000
0.000000 0.945098 0.000000
0.000000 0.944945 0.000000
0.000000 0.944793 0.000000
0.099123 0.944610 0.000000
0.183688 0.944366 0.000000
0.242893 0.944091 0.000000
0.293462 0.943755 0.000000
0.339574 0.943420 0.000000
0.382971 0.943023 0.000000
