data/fiter_cube/96471014/1022822/file.cube
# Created by Adobe Lightroom plugin Export LUT (1.17.0)
# www.johnrellis.com/lightroom/exportlut.htm
# Preset: 古风系-复古庄重
# Color profile: C:\Program Files (x86)\Common Files\Adobe\Color\Profiles\Recommended\AdobeRGB1998.icc
LUT_3D_SIZE 8
DOMAIN_MIN 0.000000 0.000000 0.000000
DOMAIN_MAX 0.903226 0.903226 0.903226
0.000000 0.000000 0.000000
0.089601 0.000000 0.000000
0.220645 0.000000 0.000000
0.372656 0.000000 0.000000
0.586847 0.000000 0.000000
0.804196 0.000000 0.000000
0.966125 0.000000 0.000000
1.000000 0.069184 0.000000
0.000000 0.089479 0.000000
0.089174 0.090883 0.000000
0.220249 0.110231 0.000000
0.373571 0.122316 0.000000
0.588098 0.140475 0.000000
0.804898 0.154055 0.000000
0.966186 0.159823 0.000000
1.000000 0.167422 0.000000
0.000000 0.205905 0.000000
0.092653 0.206058 0.000000
0.208896 0.213535 0.000000
0.368261 0.249607 0.000000
0.592309 0.300267 0.000000
0.807736 0.326940 0.000000
0.966369 0.327794 0.000000
1.000000 0.317174 0.000000
0.000000 0.326268 0.000000
0.074769 0.326574 0.000000
0.205722 0.328099 0.000000
0.347692 0.357061 0.000000
0.563989 0.433692 0.000000
0.810758 0.497047 0.000000
0.966247 0.494606 0.000000
1.000000 0.470954 0.000000
0.000000 0.483223 0.000000
0.000000 0.483742 0.000000
0.212619 0.485542 0.000000
0.355077 0.498329 0.000000
0.531212 0.547906 0.000000
0.763577 0.626917 0.000000
0.953216 0.651545 0.000000
1.000000 0.623407 0.005035
0.000000 0.659510 0.000000
0.000000 0.660090 0.000000
0.203861 0.662318 0.000000
0.363958 0.666468 0.000000
0.531304 0.697383 0.000000
0.723201 0.745754 0.000000
0.917967 0.783871 0.000000
1.000000 0.761440 0.012604
0.000000 0.837980 0.000000
0.000000 0.838132 0.000000
0.164370 0.838651 0.000000
0.359808 0.839597 0.000000
0.518425 0.840696 0.000000
0.692256 0.867002 0.000000
0.865721 0.888670 0.000000
1.000000 0.887572 0.010468
0.000000 0.974090 0.000000
0.000000 0.973816 0.000000
0.058900 0.972930 0.000000
0.330236 0.971313 0.000000
0.496162 0.968780 0.000000
0.649531 0.967468 0.000000
0.806821 0.972015 0.000000
0.956115 0.970947 0.000000
0.000000 0.000000 0.085695
0.088716 0.000000 0.086122
0.215305 0.000000 0.091554
0.364904 0.000000 0.095674
0.579095 0.000000 0.091249
0.799619 0.000000 0.070069
0.964599 0.000000 0.059571
1.000000 0.050904 0.092561
0.000000 0.090150 0.086549
0.089052 0.091951 0.085786
0.215274 0.101930 0.093080
0.365759 0.112978 0.097871
0.580285 0.124056 0.090669
0.800565 0.129946 0.066224
0.964691 0.139315 0.055360
1.000000 0.162783 0.094942
0.000000 0.206943 0.085695
0.078157 0.207919 0.075471
0.207492 0.212833 0.088289
0.365789 0.248264 0.103670
0.585565 0.292088 0.087434
0.803891 0.317144 0.044465
0.964935 0.320867 0.046082
1.000000 0.316228 0.101228
0.000000 0.327489 0.059174
0.040864 0.328313 0.043580
0.203189 0.329351 0.048737
0.346014 0.355566 0.080293
0.563500 0.431525 0.072114
0.809415 0.492836 0.000000
0.964874 0.491341 0.044953
1.000000 0.470649 0.111543
0.000000 0.484932 0.000000
0.000000 0.485420 0.000000
0.204746 0.487007 0.000000
0.351171 0.496895 0.000000
0.529747 0.546502 0.000000
0.764187 0.625910 0.000000
0.953674 0.650446 0.000000
1.000000 0.624170 0.134493
0.000000 0.661189 0.000000
0.000000 0.661677 0.000000
0.188266 0.663783 0.000000
0.358282 0.667720 0.000000
0.527947 0.696345 0.000000
0.722621 0.745174 0.000000
0.918578 0.783566 0.000000
1.000000 0.762509 0.137911
0.000000 0.839139 0.000000
0.000000 0.839292 0.000000
0.134920 0.839719 0.000000
0.351080 0.840543 0.000000
0.514855 0.841428 0.000000
0.690608 0.866667 0.000000
0.865873 0.888548 0.000000
1.000000 0.887633 0.133730
0.000000 0.974762 0.000000
0.000000 0.974487 0.000000
0.000000 0.973571 0.000000
0.320684 0.971862 0.000000
0.491768 0.969238 0.000000
0.647120 0.967376 0.000000
0.806180 0.972015 0.000000
0.956664 0.970855 0.000000
0.000000 0.000000 0.190799
0.099184 0.000000 0.191135
0.204166 0.000000 0.191379
0.334142 0.000000 0.200565
0.550042 0.000000 0.220798
0.786618 0.000000 0.217807
0.959625 0.000000 0.223911
1.000000 0.000000 0.238285
0.000000 0.089204 0.191775
0.081941 0.082795 0.191989
0.204562 0.088258 0.191318
0.339147 0.085939 0.201236
0.557366 0.000000 0.214847
0.787716 0.000000 0.217319
0.959747 0.000000 0.223484
1.000000 0.149752 0.239384
0.000000 0.207156 0.190249
0.068025 0.207889 0.190188
0.201968 0.207370 0.187503
0.350835 0.230472 0.204227
0.565698 0.254429 0.213077
0.791653 0.273655 0.215000
0.960204 0.291936 0.223453
1.000000 0.316014 0.243656
0.000000 0.328832 0.187411
0.000000 0.329870 0.184237
0.188052 0.332189 0.173007
0.339666 0.349157 0.187869
0.562768 0.421912 0.207034
0.798184 0.470283 0.212009
0.960327 0.479561 0.226719
1.000000 0.477546 0.255222
0.000000 0.486244 0.180819
0.000000 0.487770 0.172213
0.162264 0.491402 0.144656
0.335821 0.493294 0.145083
0.523644 0.540459 0.168368
0.766567 0.621118 0.183200
0.954589 0.650233 0.232609
1.000000 0.634730 0.277958
0.000000 0.663172 0.143648
0.000000 0.664881 0.123629
0.098390 0.668605 0.066682
0.336492 0.671748 0.053773
0.515312 0.691463 0.059632
0.720089 0.742519 0.110811
0.920348 0.782925 0.198581
1.000000 0.769253 0.280858
0.000000 0.841154 0.000000
0.000000 0.842130 0.000000
0.000000 0.843320 0.000000
0.318822 0.843687 0.000000
0.501305 0.843961 0.000000
0.683925 0.865110 0.000000
0.866606 0.888060 0.100862
1.000000 0.888304 0.264836
0.000000 0.976501 0.000000
0.000000 0.976806 0.000000
0.000000 0.975921 0.000000
0.283299 0.973907 0.000000
0.474800 0.970947 0.000000
0.637171 0.967041 0.000000
0.804959 0.971710 0.000000
0.958740 0.970489 0.192782
0.043153 0.000000 0.287419
0.112581 0.000000 0.287602
0.215427 0.000000 0.288060
0.326421 0.000000 0.287663
0.477913 0.000000 0.303685
0.727871 0.000000 0.339330
0.936919 0.000000 0.345708
1.000000 0.150515 0.369451
0.000000 0.074281 0.288792
0.090303 0.072236 0.288823
0.212894 0.071778 0.288457
0.327214 0.064820 0.287816
0.485145 0.000000 0.304753
0.734798 0.000000 0.336950
0.940154 0.000000 0.345830
1.000000 0.240513 0.377752
0.000000 0.205783 0.288182
0.000000 0.201816 0.288579
0.191775 0.191257 0.288640
0.328191 0.198856 0.286870
0.509911 0.191196 0.306828
0.757961 0.178347 0.329442
0.948425 0.272221 0.356268
1.000000 0.365942 0.382818
0.000000 0.330327 0.285374
0.000000 0.331060 0.285405
0.176333 0.333349 0.284611
0.324498 0.332311 0.279942
0.539696 0.384894 0.310613
0.773892 0.433448 0.335973
0.948974 0.476112 0.364477
1.000000 0.513085 0.395514
0.000000 0.488685 0.292515
0.000000 0.490120 0.290013
0.132204 0.494148 0.279973
0.306676 0.497658 0.258366
0.510643 0.525872 0.279728
0.766934 0.614038 0.328405
0.948852 0.655543 0.381659
1.000000 0.661402 0.419501
0.000000 0.665705 0.285740
0.000000 0.667231 0.280919
0.000000 0.672175 0.260838
0.278202 0.678309 0.223209
0.487526 0.680537 0.223087
0.715541 0.735470 0.273045
0.922332 0.783230 0.348241
1.000000 0.789120 0.437537
0.000000 0.842588 0.257969
0.000000 0.843473 0.250553
0.000000 0.846525 0.218173
0.236637 0.849180 0.168795
0.473793 0.848203 0.167636
0.672145 0.860655 0.197635
0.868956 0.886381 0.286381
1.000000 0.890623 0.406439
0.000000 0.977050 0.206088
0.000000 0.977356 0.195651
0.000000 0.978332 0.151034
0.193881 0.977478 0.097963
0.444984 0.973693 0.098756
0.624598 0.968566 0.099977
0.805325 0.970397 0.216464
0.962799 0.969635 0.337224
0.101961 0.000000 0.398657
0.149172 0.000000 0.398840
0.248936 0.000000 0.399207
0.365118 0.000000 0.399237
0.488106 0.000000 0.399145
0.655695 0.000000 0.416297
0.881254 0.000000 0.445991
1.000000 0.000000 0.452369
0.047700 0.055695 0.399847
0.126955 0.042878 0.399847
0.242039 0.000000 0.399969
0.363256 0.000000 0.399695
0.488899 0.000000 0.399329
0.656733 0.000000 0.414862
0.885863 0.000000 0.445136
1.000000 0.000000 0.455421
0.000000 0.202731 0.400732
0.000000 0.192844 0.401312
0.202884 0.179477 0.401526
0.353307 0.178500 0.400610
0.491524 0.165408 0.399390
0.660090 0.091951 0.408637
0.899992 0.119265 0.446937
1.000000 0.316564 0.471138
0.000000 0.349310 0.398505
0.000000 0.346441 0.398779
0.143862 0.334661 0.399756
0.313664 0.311040 0.400031
0.492866 0.319768 0.396399
0.703487 0.341802 0.420661
0.920928 0.427558 0.466346
1.000000 0.562554 0.530877
0.000000 0.491737 0.394141
0.000000 0.492714 0.394141
0.111757 0.495521 0.393805
0.292760 0.499611 0.391485
0.486305 0.495308 0.385534
0.746670 0.580774 0.445014
0.930785 0.649042 0.507103
1.000000 0.696712 0.559564
0.000000 0.669062 0.401038
0.000000 0.670680 0.399420
0.000000 0.675380 0.392126
0.253117 0.681880 0.376623
0.463905 0.684871 0.358465
0.705776 0.720211 0.398077
0.921660 0.789090 0.509178
1.000000 0.818662 0.597803
0.000000 0.844663 0.392218
0.000000 0.845579 0.388678
0.000000 0.848478 0.374548
0.196536 0.851896 0.350958
0.436805 0.852903 0.326818
0.649500 0.849638 0.331212
0.871855 0.882414 0.432349
1.000000 0.896605 0.560327
0.000000 0.977905 0.359655
0.000000 0.978210 0.355016
0.000000 0.979004 0.339117
0.140505 0.979004 0.316411
0.414405 0.976349 0.299992
0.616175 0.970001 0.304143
0.805142 0.967620 0.357885
0.968017 0.967987 0.490028
0.149783 0.000000 0.535210
0.189303 0.000000 0.535546
0.287144 0.000000 0.536095
0.406561 0.000000 0.537011
0.536095 0.000000 0.537835
0.674434 0.000000 0.538811
0.843015 0.000000 0.552453
0.997284 0.000000 0.549310
0.116426 0.000000 0.536522
0.167819 0.000000 0.536645
0.277165 0.000000 0.537133
0.401862 0.000000 0.537896
0.534752 0.000000 0.538689
0.675380 0.000000 0.539422
0.843809 0.000000 0.551202
0.998840 0.000000 0.549340
0.000000 0.175235 0.540093
0.000000 0.172488 0.540124
0.225528 0.162661 0.540337
0.380468 0.146548 0.540581
0.528985 0.123598 0.540703
0.678584 0.000000 0.540917
0.846098 0.000000 0.546502
1.000000 0.000000 0.552789
0.000000 0.354803 0.540124
0.000000 0.347784 0.540887
0.076814 0.322484 0.542748
0.319432 0.293736 0.543847
0.512383 0.296849 0.542657
0.681819 0.289677 0.541497
0.847868 0.272221 0.539300
1.000000 0.398169 0.569512
0.000000 0.518975 0.539055
0.000000 0.517113 0.539483
0.000000 0.508782 0.540856
0.251743 0.489601 0.542687
0.470253 0.467842 0.542443
0.681666 0.478889 0.538048
0.876432 0.532616 0.564599
1.000000 0.665675 0.638849
0.000000 0.680446 0.536645
0.000000 0.681331 0.536889
0.000000 0.683986 0.537194
0.227207 0.687739 0.536919
0.445441 0.689204 0.533379
0.673548 0.680751 0.527764
0.905303 0.778653 0.641474
1.000000 0.828946 0.713100
0.000000 0.847471 0.533471
0.000000 0.848325 0.531792
0.000000 0.851011 0.525689
0.164126 0.853910 0.515618
0.421363 0.855039 0.501640
0.651270 0.849485 0.505180
0.869322 0.872770 0.584405
0.996094 0.909270 0.720729
0.000000 0.978973 0.504356
0.000000 0.979217 0.501762
0.000000 0.979797 0.493019
0.113680 0.979553 0.480568
0.408209 0.976837 0.470039
0.633326 0.968292 0.488472
0.804623 0.960479 0.504082
0.970916 0.965850 0.645167
0.161135 0.000000 0.711086
0.203128 0.000000 0.711299
0.305089 0.000000 0.711788
0.428809 0.000000 0.712581
0.562158 0.000000 0.713588
0.703548 0.000000 0.714656
0.852689 0.000000 0.715969
0.984070 0.000000 0.692287
0.125399 0.000000 0.712032
0.178378 0.000000 0.712154
0.291814 0.000000 0.712642
0.421210 0.000000 0.713405
0.558526 0.000000 0.714290
0.702327 0.000000 0.715267
0.853178 0.000000 0.716365
0.984253 0.000000 0.691402
0.000000 0.156863 0.715053
0.000000 0.152804 0.715145
0.230350 0.137118 0.715480
0.391913 0.103670 0.715938
0.544671 0.000000 0.716487
0.697444 0.000000 0.717159
0.854643 0.000000 0.717922
0.984497 0.000000 0.688838
0.000000 0.333227 0.717403
0.000000 0.323430 0.717891
0.000000 0.284550 0.719722
0.317632 0.275669 0.719875
0.513512 0.268070 0.719814
0.688716 0.270603 0.719265
0.855772 0.244511 0.719142
0.983856 0.244480 0.684932
0.000000 0.516106 0.717372
0.000000 0.511498 0.717800
0.000000 0.493141 0.719600
0.186709 0.459693 0.722011
0.458442 0.444190 0.722530
0.673304 0.459022 0.720638
0.854276 0.459266 0.718624
0.980041 0.475685 0.683742
0.000000 0.686854 0.716823
0.000000 0.685206 0.717220
0.000000 0.679194 0.718318
0.112856 0.668238 0.719936
0.398535 0.650141 0.721462
0.651209 0.651728 0.719265
0.847166 0.670558 0.714351
0.978851 0.732570 0.733516
0.000000 0.854185 0.715602
0.000000 0.854612 0.715785
0.000000 0.855924 0.716182
0.000000 0.857389 0.716609
0.388037 0.858122 0.716609
0.638087 0.852110 0.712703
0.838773 0.840330 0.710353
0.984405 0.912444 0.832914
0.000000 0.980194 0.674098
0.000000 0.980346 0.672816
0.000000 0.980652 0.668544
0.000000 0.980163 0.661769
0.392279 0.976928 0.655818
0.635004 0.967254 0.667018
0.824094 0.955322 0.698207
0.968231 0.962737 0.787747
0.094179 0.000000 0.883543
0.158785 0.000000 0.883604
0.278630 0.000000 0.883879
0.408789 0.000000 0.884367
0.543816 0.000000 0.884916
0.683833 0.000000 0.885527
0.827878 0.000000 0.886168
0.977539 0.000000 0.886748
0.000000 0.000000 0.884092
0.123659 0.000000 0.884123
0.263462 0.000000 0.884398
0.400336 0.000000 0.884794
0.539208 0.000000 0.885313
0.681483 0.000000 0.885832
0.826841 0.000000 0.886442
0.977508 0.000000 0.886992
0.000000 0.133394 0.885863
0.000000 0.128481 0.885924
0.193912 0.109041 0.886076
0.368139 0.056489 0.886381
0.521752 0.000000 0.886717
0.672145 0.000000 0.887083
0.823331 0.000000 0.887388
0.977203 0.000000 0.887449
0.000000 0.280461 0.888579
0.000000 0.275853 0.888701
0.000000 0.269780 0.888792
0.291752 0.260136 0.888914
0.486122 0.250004 0.888914
0.656672 0.248020 0.888670
0.818082 0.248569 0.888151
0.975769 0.220493 0.887999
0.000000 0.476600 0.888457
0.000000 0.470741 0.888792
0.000000 0.450446 0.889921
0.082795 0.420203 0.891356
0.434913 0.425757 0.890806
0.636194 0.436713 0.889799
0.811826 0.457465 0.888273
0.971832 0.460487 0.887480
0.000000 0.650050 0.887724
0.000000 0.647120 0.888029
0.000000 0.636835 0.888945
0.000000 0.619654 0.890318
0.358465 0.600641 0.891508
0.624842 0.626947 0.889067
0.812375 0.657069 0.886412
0.963409 0.669154 0.884489
0.000000 0.814267 0.886503
0.000000 0.813199 0.886748
0.000000 0.809445 0.887327
0.000000 0.803311 0.888121
0.342077 0.796017 0.888762
0.601892 0.797482 0.887877
0.816159 0.820005 0.884581
0.953216 0.835996 0.881498
0.000000 0.973785 0.884825
0.000000 0.973785 0.884916
0.000000 0.973724 0.885161
0.000000 0.973327 0.885466
0.342718 0.971283 0.885557
0.610132 0.965667 0.885069
0.813870 0.956481 0.883879
0.947662 0.946715 0.884459
