data/fiter_cube/87192323/1023451/file.cube
# Created by Adobe Lightroom plugin Export LUT (1.17.0)
# www.johnrellis.com/lightroom/exportlut.htm
# Preset: 日系清新自然_02 云集
# Color profile: C:\Program Files (x86)\Common Files\Adobe\Color\Profiles\Recommended\AdobeRGB1998.icc
LUT_3D_SIZE 5
DOMAIN_MIN 0.000000 0.000000 0.000000
DOMAIN_MAX 0.903226 0.903226 0.903226
0.000000 0.000000 0.000000
0.267582 0.089906 0.000000
0.611200 0.218845 0.000000
0.899382 0.323308 0.000000
1.000000 0.381689 0.000000
0.000000 0.249088 0.101289
0.247593 0.256229 0.042298
0.604517 0.352270 0.000000
0.894957 0.416571 0.000000
1.000000 0.446113 0.000000
0.000000 0.532189 0.224613
0.169619 0.530144 0.180667
0.546197 0.565850 0.134096
0.878538 0.627466 0.000000
1.000000 0.619562 0.000000
0.000000 0.803708 0.338048
0.000000 0.804318 0.291875
0.426886 0.796078 0.299290
0.798123 0.826352 0.245182
1.000000 0.815915 0.089296
0.126680 1.000000 0.471351
0.290288 1.000000 0.486061
0.458015 1.000000 0.469795
0.692958 0.999756 0.495338
0.963806 0.995178 0.426490
0.000000 0.025879 0.283818
0.247013 0.000000 0.277958
0.604974 0.000000 0.225467
0.898772 0.271153 0.221653
1.000000 0.348394 0.094942
0.000000 0.271397 0.298131
0.243076 0.251286 0.289250
0.597986 0.308629 0.265293
0.893767 0.385229 0.228183
1.000000 0.423285 0.121096
0.000000 0.538964 0.338720
0.213657 0.536980 0.339452
0.544091 0.562982 0.313237
0.876463 0.622522 0.249546
1.000000 0.610925 0.184390
0.000000 0.805905 0.412329
0.182925 0.804257 0.414740
0.443854 0.798306 0.391424
0.798947 0.825803 0.372503
1.000000 0.816831 0.300786
0.081178 1.000000 0.504387
0.307408 1.000000 0.529656
0.488472 1.000000 0.529961
0.704860 0.997681 0.556451
0.965118 0.994324 0.507164
0.000000 0.072847 0.573663
0.183383 0.000000 0.570336
0.537865 0.000000 0.560327
0.853605 0.000000 0.532158
1.000000 0.259617 0.487465
0.000000 0.328008 0.578027
0.047547 0.243687 0.578271
0.539513 0.214755 0.565820
0.860746 0.222232 0.535729
1.000000 0.466804 0.561028
0.000000 0.581323 0.592584
0.112001 0.574029 0.589746
0.530114 0.537835 0.575555
0.859617 0.610254 0.595056
1.000000 0.627405 0.564935
0.000000 0.815457 0.579339
0.140749 0.813260 0.581811
0.524498 0.801175 0.610956
0.802914 0.820981 0.617762
1.000000 0.829221 0.590539
0.000000 1.000000 0.613581
0.263035 1.000000 0.624323
0.572076 0.999359 0.679927
0.741543 0.992889 0.692592
0.970153 0.991913 0.681178
0.000000 0.116335 0.820951
0.000000 0.080201 0.819333
0.509575 0.000000 0.813260
0.813626 0.000000 0.800229
1.000000 0.000000 0.740139
0.000000 0.334295 0.821073
0.000000 0.254307 0.821653
0.494240 0.217807 0.815335
0.812924 0.169009 0.801938
1.000000 0.242069 0.744320
0.000000 0.615991 0.820981
0.000000 0.605768 0.820035
0.448402 0.521691 0.818875
0.804074 0.518090 0.804166
1.000000 0.580743 0.773190
0.000000 0.847257 0.826352
0.000000 0.843412 0.825406
0.494331 0.828031 0.821744
0.793210 0.796292 0.811826
1.000000 0.854978 0.840482
0.000000 1.000000 0.775509
0.226444 1.000000 0.779843
0.530327 1.000000 0.797848
0.800961 0.990936 0.843137
0.978241 0.989258 0.851957
0.000000 0.164126 1.000000
0.000000 0.148135 1.000000
0.399420 0.055421 0.999329
0.757504 0.000000 0.994293
1.000000 0.000000 0.978912
0.000000 0.321233 1.000000
0.000000 0.271733 1.000000
0.382086 0.246220 0.998688
0.750698 0.199100 0.993194
1.000000 0.175021 0.978332
0.000000 0.618128 0.994934
0.000000 0.605432 0.994690
0.349279 0.508202 0.996674
0.735592 0.503105 0.990600
1.000000 0.507195 0.978210
0.000000 0.832029 0.992523
0.000000 0.828794 0.991791
0.462776 0.820340 0.989807
0.731350 0.774197 0.988739
0.994354 0.783078 0.980896
0.000000 1.000000 0.992157
0.194095 1.000000 0.991699
0.514061 1.000000 0.990631
0.777981 1.000000 0.988373
0.982513 0.982757 0.984039
