data/fiter_cube/87192323/1023451/file.cube
# Created by Adobe Lightroom plugin Export LUT (1.17.0)
# www.johnrellis.com/lightroom/exportlut.htm
# Preset: 日系清新自然_02 云集
# Color profile: C:\Program Files (x86)\Common Files\Adobe\Color\Profiles\Recommended\AdobeRGB1998.icc
LUT_3D_SIZE 32
DOMAIN_MIN 0.0 0.0 0.0
DOMAIN_MAX 1.0 1.0 1.0
0.000000 0.000000 0.000000
0.035309 0.003601 0.000000
0.067445 0.007141 0.000000
0.099641 0.016327 0.000000
0.140139 0.034668 0.000000
0.182193 0.059022 0.000000
0.224857 0.073915 0.000000
0.267582 0.089906 0.000000
0.311223 0.106081 0.000000
0.356237 0.123323 0.000000
0.403601 0.141238 0.000000
0.452888 0.160769 0.000000
0.504265 0.179568 0.000000
0.557855 0.199283 0.000000
0.611200 0.218845 0.000000
0.662531 0.237552 0.000000
0.711086 0.255253 0.000000
0.755245 0.271275 0.000000
0.795102 0.285832 0.000000
0.832212 0.299199 0.000000
0.866850 0.311711 0.000000
0.899382 0.323308 0.000000
0.929747 0.334112 0.000000
0.958007 0.344060 0.000000
0.984344 0.353185 0.000000
1.000000 0.361486 0.000000
1.000000 0.369085 0.000000
1.000000 0.375860 0.000000
1.000000 0.381689 0.000000
1.000000 0.385992 0.000000
1.000000 0.386267 0.000000
1.000000 0.385321 0.000000
0.000000 0.034943 0.006897
0.032288 0.035615 0.002747
0.067292 0.042298 0.000000
0.099886 0.052918 0.000000
0.140261 0.064851 0.000000
0.182040 0.076387 0.000000
0.224826 0.088533 0.000000
0.267521 0.102388 0.000000
0.311009 0.117098 0.000000
0.356176 0.132998 0.000000
0.403418 0.150088 0.000000
0.452766 0.167422 0.000000
0.504051 0.185824 0.000000
0.557641 0.205051 0.000000
0.611078 0.224094 0.000000
0.662318 0.242435 0.000000
0.710842 0.259709 0.000000
0.755062 0.275547 0.000000
0.794949 0.289708 0.000000
0.832029 0.302861 0.000000
0.866697 0.315160 0.000000
0.899229 0.326421 0.000000
0.929595 0.337041 0.000000
0.957916 0.346746 0.000000
0.984253 0.355749 0.000000
1.000000 0.363958 0.000000
1.000000 0.371313 0.000000
1.000000 0.377996 0.000000
1.000000 0.383795 0.000000
1.000000 0.388220 0.000000
1.000000 0.388373 0.000000
1.000000 0.387335 0.000000
0.000244 0.066499 0.014862
0.024537 0.065949 0.013275
0.064363 0.066682 0.007416
0.099855 0.073091 0.000000
0.140261 0.083284 0.000000
0.182162 0.093629 0.000000
0.224674 0.104829 0.000000
0.267216 0.116762 0.000000
0.310796 0.130098 0.000000
0.355840 0.144228 0.000000
0.403052 0.159792 0.000000
0.452461 0.176364 0.000000
0.503807 0.193759 0.000000
0.557366 0.212497 0.000000
0.610742 0.231174 0.000000
0.662135 0.248844 0.000000
0.710628 0.265934 0.000000
0.754788 0.281346 0.000000
0.794736 0.294987 0.000000
0.831785 0.307774 0.000000
0.866514 0.319738 0.000000
0.899077 0.330694 0.000000
0.929442 0.341131 0.000000
0.957763 0.350500 0.000000
0.984131 0.359289 0.000000
1.000000 0.367193 0.000000
1.000000 0.374456 0.000000
1.000000 0.380957 0.000000
1.000000 0.386572 0.000000
1.000000 0.391211 0.000000
1.000000 0.391211 0.000000
1.000000 0.390082 0.000000
0.000427 0.097932 0.035035
0.022705 0.097963 0.029053
0.057557 0.097017 0.031617
0.096376 0.099641 0.015503
0.140047 0.108949 0.000000
0.181888 0.121035 0.000000
0.224155 0.130373 0.000000
0.266758 0.140505 0.000000
0.310277 0.151644 0.000000
0.355352 0.164187 0.000000
0.402533 0.178408 0.000000
0.451942 0.193759 0.000000
0.503166 0.210422 0.000000
0.556695 0.227970 0.000000
0.610224 0.245548 0.000000
0.661555 0.262638 0.000000
0.710079 0.278660 0.000000
0.754299 0.293126 0.000000
0.794217 0.306096 0.000000
0.831266 0.318120 0.000000
0.866087 0.329412 0.000000
0.898650 0.339818 0.000000
0.929107 0.349615 0.000000
0.957458 0.358526 0.000000
0.983856 0.366796 0.000000
1.000000 0.374304 0.000000
1.000000 0.381140 0.000000
1.000000 0.387366 0.000000
1.000000 0.392645 0.000000
1.000000 0.397070 0.000000
1.000000 0.397345 0.000000
1.000000 0.395911 0.000000
0.000000 0.135378 0.059754
0.011902 0.135378 0.048219
0.052705 0.134829 0.048402
0.088014 0.134279 0.048310
0.133761 0.138338 0.023285
0.181277 0.147707 0.000000
0.223545 0.159243 0.000000
0.265873 0.170260 0.000000
0.309483 0.179934 0.000000
0.354498 0.191226 0.000000
0.401648 0.203952 0.000000
0.450996 0.217960 0.000000
0.502251 0.233280 0.000000
0.555779 0.249882 0.000000
0.609216 0.266514 0.000000
0.660517 0.282536 0.000000
0.709163 0.297276 0.000000
0.753384 0.310735 0.000000
0.793423 0.322606 0.000000
0.830564 0.333623 0.000000
0.865415 0.343908 0.000000
0.898070 0.353643 0.000000
0.928588 0.362524 0.000000
0.956970 0.370764 0.000000
0.983429 0.378302 0.000000
1.000000 0.385199 0.000000
1.000000 0.391485 0.000000
1.000000 0.396979 0.000000
1.000000 0.401892 0.000000
1.000000 0.405829 0.000000
1.000000 0.406806 0.000000
1.000000 0.404974 0.000000
0.000000 0.173434 0.073182
0.000000 0.173678 0.066590
0.025330 0.173342 0.057313
0.080110 0.171847 0.059480
0.122438 0.172976 0.053407
0.171695 0.177523 0.024842
0.222293 0.186984 0.000000
0.264744 0.198093 0.000000
0.308141 0.210513 0.000000
0.353246 0.221744 0.000000
0.400427 0.233524 0.000000
0.449683 0.246464 0.000000
0.500938 0.260716 0.000000
0.554528 0.276249 0.000000
0.607965 0.291966 0.000000
0.659358 0.306706 0.000000
0.708003 0.320500 0.000000
0.752224 0.332830 0.000000
0.792203 0.343481 0.000000
0.829526 0.353399 0.000000
0.864469 0.362676 0.000000
0.897276 0.371252 0.000000
0.927825 0.379278 0.000000
0.956298 0.386603 0.000000
0.982818 0.393317 0.000000
1.000000 0.399390 0.000000
1.000000 0.404944 0.000000
1.000000 0.409766 0.000000
1.000000 0.414038 0.000000
1.000000 0.417456 0.000000
1.000000 0.419226 0.000000
1.000000 0.416846 0.000000
0.000000 0.211612 0.086763
0.000000 0.211582 0.082399
0.000000 0.211673 0.066316
0.068635 0.210422 0.066499
0.109285 0.208652 0.068696
0.158267 0.211795 0.060456
0.209659 0.216892 0.028382
0.263066 0.226200 0.000000
0.306493 0.237491 0.000000
0.351659 0.250614 0.000000
0.398810 0.265415 0.000000
0.448066 0.277745 0.000000
0.499306 0.291234 0.000000
0.552972 0.306004 0.000000
0.606439 0.320745 0.000000
0.657801 0.334630 0.000000
0.706447 0.347448 0.000000
0.750790 0.358434 0.000000
0.790829 0.368017 0.000000
0.828214 0.376715 0.000000
0.863310 0.384955 0.000000
0.896208 0.392462 0.000000
0.926879 0.399451 0.000000
0.955474 0.405646 0.000000
0.982055 0.411475 0.000000
1.000000 0.416571 0.000000
1.000000 0.421271 0.000000
1.000000 0.425360 0.000000
1.000000 0.428779 0.000000
1.000000 0.431647 0.000000
1.000000 0.433539 0.000000
1.000000 0.431403 0.000000
0.000000 0.249088 0.101289
0.000000 0.249119 0.098451
0.000000 0.249210 0.087129
0.038209 0.248600 0.075166
0.101137 0.246983 0.077668
0.142153 0.245670 0.079561
0.195010 0.250645 0.068116
0.247593 0.256229 0.042298
0.304173 0.265934 0.000000
0.349523 0.278202 0.000000
0.396704 0.292393 0.000000
0.445960 0.308141 0.000000
0.497383 0.323766 0.000000
0.550958 0.338079 0.000000
0.604517 0.352270 0.000000
0.655848 0.365301 0.000000
0.704616 0.377173 0.000000
0.748836 0.387091 0.000000
0.789029 0.395575 0.000000
0.826627 0.403143 0.000000
0.861906 0.410132 0.000000
0.894957 0.416571 0.000000
0.925719 0.422492 0.000000
0.954437 0.427680 0.000000
0.981140 0.432380 0.000000
1.000000 0.436652 0.000000
1.000000 0.440284 0.000000
1.000000 0.443458 0.000000
1.000000 0.446113 0.000000
1.000000 0.448127 0.000000
1.000000 0.449409 0.000000
1.000000 0.448249 0.000000
0.000000 0.286809 0.117769
0.000000 0.286809 0.115206
0.000000 0.286900 0.108431
0.000000 0.286839 0.087190
0.089296 0.285466 0.089540
0.134035 0.283635 0.092744
0.179171 0.284672 0.091493
0.232517 0.290318 0.079011
0.286412 0.296513 0.060761
0.345373 0.306645 0.000000
0.394049 0.320745 0.000000
0.443275 0.335760 0.000000
0.494820 0.352575 0.000000
0.548669 0.371008 0.000000
0.602167 0.385779 0.000000
0.653559 0.398260 0.000000
0.702235 0.409186 0.000000
0.746670 0.418250 0.000000
0.786984 0.425513 0.000000
0.824735 0.432044 0.000000
0.860197 0.438087 0.000000
0.893462 0.443305 0.000000
0.924376 0.448066 0.000000
0.953216 0.452308 0.000000
0.980011 0.455940 0.000000
1.000000 0.459083 0.000000
1.000000 0.461830 0.000000
1.000000 0.463996 0.000000
1.000000 0.465736 0.000000
1.000000 0.466865 0.000000
1.000000 0.467475 0.000000
1.000000 0.466987 0.000000
0.000000 0.325200 0.134798
0.000000 0.325292 0.132937
0.000000 0.325292 0.129061
0.000000 0.325536 0.107393
0.071412 0.324620 0.102663
0.126131 0.323003 0.105745
0.167330 0.321080 0.109682
0.217411 0.324773 0.104097
0.271458 0.331273 0.091585
0.326574 0.338231 0.073152
0.388159 0.350072 0.018555
0.440101 0.364538 0.000000
0.491646 0.380865 0.000000
0.545342 0.398688 0.000000
0.599115 0.416602 0.000000
0.650752 0.432654 0.000000
0.699519 0.443030 0.000000
0.744045 0.451057 0.000000
0.784543 0.457496 0.000000
0.822507 0.462928 0.000000
0.858274 0.467903 0.000000
0.891661 0.472175 0.000000
0.922789 0.475868 0.000000
0.951751 0.478981 0.000000
0.978729 0.481636 0.000000
1.000000 0.483742 0.000000
1.000000 0.485481 0.000000
1.000000 0.486671 0.000000
1.000000 0.487373 0.000000
1.000000 0.487617 0.000000
1.000000 0.487282 0.000000
1.000000 0.486152 0.000000
0.000000 0.364538 0.152712
0.000000 0.364569 0.151095
0.000000 0.364630 0.148989
0.000000 0.364813 0.132479
0.024994 0.364385 0.117159
0.114839 0.363043 0.119966
0.161501 0.361364 0.123445
0.201022 0.359625 0.127199
0.256443 0.366247 0.117556
0.311650 0.373571 0.104982
0.368200 0.381445 0.086458
0.432441 0.394995 0.045655
0.487831 0.410132 0.000000
0.541619 0.427680 0.000000
0.595300 0.445075 0.000000
0.646998 0.461006 0.000000
0.696254 0.475410 0.000000
0.740993 0.485451 0.000000
0.781796 0.490913 0.000000
0.820066 0.495552 0.000000
0.856016 0.499519 0.000000
0.889616 0.502708 0.000000
0.920958 0.505455 0.000000
0.950072 0.507530 0.000000
0.977203 0.509148 0.000000
1.000000 0.510246 0.000000
1.000000 0.510948 0.000000
1.000000 0.511192 0.000000
1.000000 0.510918 0.000000
1.000000 0.510185 0.000000
1.000000 0.508904 0.000000
1.000000 0.506981 0.000000
0.000000 0.404822 0.170871
0.000000 0.404852 0.169589
0.000000 0.404852 0.168032
0.000000 0.404944 0.156527
0.000000 0.405219 0.132113
0.099641 0.403937 0.134524
0.153292 0.402502 0.137545
0.196414 0.400671 0.141146
0.240879 0.401648 0.141482
0.296818 0.409247 0.131380
0.353338 0.417395 0.117922
0.411261 0.426154 0.099275
0.478065 0.441260 0.064179
0.537133 0.457191 0.000000
0.591058 0.474403 0.000000
0.642847 0.489845 0.000000
0.692195 0.503807 0.000000
0.737392 0.515160 0.000000
0.778622 0.524651 0.000000
0.817288 0.529442 0.000000
0.853483 0.532433 0.000000
0.887327 0.534752 0.000000
0.918853 0.536492 0.000000
0.948211 0.537652 0.000000
0.975494 0.538262 0.000000
1.000000 0.538415 0.000000
1.000000 0.538079 0.000000
1.000000 0.537346 0.000000
1.000000 0.536126 0.000000
1.000000 0.534386 0.000000
1.000000 0.532158 0.000000
1.000000 0.529259 0.000000
0.000000 0.446082 0.188968
0.000000 0.446204 0.187961
0.000000 0.446204 0.186557
0.000000 0.446265 0.178775
0.000000 0.446662 0.155398
0.075776 0.445869 0.148531
0.142397 0.444495 0.151339
0.189975 0.442878 0.154665
0.231144 0.441016 0.158633
0.281315 0.445228 0.154482
0.338262 0.453559 0.144167
0.396185 0.462593 0.130251
0.455848 0.472328 0.111421
0.521965 0.486122 0.079225
0.586023 0.504021 0.000000
0.638209 0.519524 0.000000
0.687770 0.532982 0.000000
0.733120 0.543786 0.000000
0.774807 0.552544 0.000000
0.813993 0.560296 0.000000
0.850675 0.566522 0.000000
0.884764 0.567956 0.000000
0.916533 0.568811 0.000000
0.946075 0.568994 0.000000
0.973571 0.568688 0.000000
0.999084 0.567864 0.000000
1.000000 0.566644 0.000000
1.000000 0.564935 0.000000
1.000000 0.562737 0.000000
1.000000 0.560052 0.000000
1.000000 0.556817 0.000000
1.000000 0.552911 0.000000
0.000000 0.488685 0.207156
0.000000 0.488685 0.206058
0.000000 0.488777 0.204807
0.000000 0.488869 0.200565
0.000000 0.489052 0.180148
0.003388 0.488838 0.162539
0.127352 0.487587 0.165042
0.181338 0.486000 0.168032
0.226169 0.484199 0.171481
0.265965 0.482368 0.175418
0.322911 0.490150 0.167422
0.381109 0.499489 0.156283
0.440467 0.509453 0.141817
0.501640 0.519738 0.122316
0.565057 0.530480 0.093690
0.632776 0.549248 0.000000
0.682734 0.562646 0.000000
0.728481 0.573114 0.000000
0.770596 0.581292 0.000000
0.810208 0.588464 0.000000
0.847318 0.594629 0.000000
0.881865 0.599847 0.000000
0.913970 0.602075 0.000000
0.943755 0.601434 0.000000
0.971435 0.600214 0.000000
0.997131 0.598505 0.000000
1.000000 0.596277 0.000000
1.000000 0.593683 0.000000
1.000000 0.590570 0.000000
1.000000 0.586999 0.000000
1.000000 0.582818 0.000000
1.000000 0.577935 0.000000
0.000000 0.532189 0.224613
0.000000 0.532158 0.223911
0.000000 0.532189 0.222660
0.000000 0.532250 0.220157
0.000000 0.532433 0.202914
0.000000 0.532830 0.175692
0.105074 0.531609 0.178073
0.169619 0.530144 0.180667
0.218814 0.528527 0.183902
0.262089 0.526726 0.187381
0.306249 0.527306 0.188540
0.365362 0.536400 0.179416
0.424445 0.545953 0.167819
0.484565 0.555840 0.153140
0.546197 0.565850 0.134096
0.609277 0.575830 0.106966
0.677028 0.592401 0.027741
0.723293 0.602747 0.000000
0.765957 0.610712 0.000000
0.806027 0.617365 0.000000
0.843534 0.622919 0.000000
0.878538 0.627466 0.000000
0.911009 0.631159 0.000000
0.941161 0.633997 0.000000
0.969085 0.632593 0.000000
0.994965 0.630030 0.000000
1.000000 0.627008 0.000000
1.000000 0.623499 0.000000
1.000000 0.619562 0.000000
1.000000 0.615045 0.000000
1.000000 0.609949 0.000000
1.000000 0.604089 0.000000
0.000000 0.575372 0.241794
0.000000 0.575433 0.241123
0.000000 0.575372 0.239933
0.000000 0.575372 0.237736
0.000000 0.575555 0.224674
0.000000 0.575891 0.199985
0.068208 0.575219 0.190738
0.153628 0.573907 0.193179
0.209140 0.572290 0.196170
0.255650 0.570550 0.199374
0.297642 0.568597 0.202976
0.348150 0.572381 0.200595
0.407294 0.581323 0.191287
0.466865 0.590692 0.179721
0.527153 0.600244 0.165225
0.588678 0.609888 0.146365
0.651240 0.619196 0.121035
0.716335 0.631586 0.079408
0.760800 0.640314 0.000000
0.801511 0.646754 0.000000
0.839445 0.651850 0.000000
0.874846 0.655818 0.000000
0.907713 0.658869 0.000000
0.938231 0.660975 0.000000
0.966461 0.662409 0.000000
0.992615 0.662379 0.000000
1.000000 0.658473 0.000000
1.000000 0.654200 0.000000
1.000000 0.649409 0.000000
1.000000 0.644068 0.000000
1.000000 0.638056 0.000000
1.000000 0.631281 0.000000
0.000000 0.616938 0.258579
0.000000 0.616968 0.257725
0.000000 0.616968 0.256840
0.000000 0.616968 0.254734
0.000000 0.617029 0.245426
0.000000 0.617334 0.223667
0.000000 0.617243 0.203922
0.133608 0.615869 0.205905
0.196841 0.614343 0.208560
0.247166 0.612634 0.211551
0.291752 0.610803 0.215030
0.332555 0.608789 0.218753
0.389136 0.615625 0.212802
0.448341 0.624414 0.203433
0.507836 0.633417 0.191806
0.567620 0.642267 0.177859
0.628260 0.650874 0.160281
0.689631 0.659174 0.137026
0.752865 0.669306 0.106569
0.796414 0.676265 0.036255
0.835019 0.681147 0.000000
0.870878 0.684688 0.000000
0.904112 0.687129 0.000000
0.934997 0.688685 0.000000
0.963592 0.689387 0.000000
0.990021 0.689418 0.000000
1.000000 0.688838 0.000000
1.000000 0.685573 0.000000
1.000000 0.679957 0.000000
1.000000 0.673854 0.000000
1.000000 0.667018 0.000000
1.000000 0.659358 0.000000
0.000000 0.656886 0.274662
0.000000 0.656855 0.273960
0.000000 0.656886 0.273198
0.000000 0.656794 0.271183
0.000000 0.656855 0.265263
0.000000 0.657099 0.245945
0.000000 0.657465 0.218479
0.106508 0.656275 0.218692
0.181918 0.654871 0.221347
0.237003 0.653285 0.224094
0.284184 0.651575 0.227237
0.327031 0.649683 0.230808
0.370001 0.649165 0.233188
0.429603 0.657343 0.225467
0.488350 0.665614 0.216251
0.547051 0.673823 0.204959
0.606226 0.681910 0.191501
0.665736 0.689693 0.174990
0.725765 0.697047 0.153658
0.787839 0.706416 0.127260
0.830045 0.710567 0.084901
0.866514 0.713832 0.004242
0.900267 0.715846 0.000000
0.931518 0.716884 0.000000
0.960418 0.716976 0.000000
0.987182 0.716396 0.000000
1.000000 0.715114 0.000000
1.000000 0.713222 0.000000
1.000000 0.710719 0.000000
1.000000 0.704280 0.000000
1.000000 0.696651 0.000000
1.000000 0.688197 0.000000
0.000000 0.695460 0.290440
0.000000 0.695460 0.289830
0.000000 0.695460 0.289128
0.000000 0.695430 0.287572
0.000000 0.695338 0.284825
0.000000 0.695613 0.267582
0.000000 0.696010 0.243320
0.066194 0.695491 0.232303
0.165011 0.694240 0.234623
0.225315 0.692805 0.237278
0.275486 0.691249 0.240116
0.320531 0.689509 0.243503
0.362097 0.687739 0.247257
0.410590 0.690028 0.246342
0.469184 0.697597 0.238865
0.527214 0.705104 0.229831
0.585168 0.712551 0.219059
0.643122 0.719753 0.206302
0.701503 0.726650 0.190860
0.760128 0.733150 0.171267
0.821042 0.741817 0.147311
0.861723 0.743038 0.113405
0.896025 0.744808 0.080476
0.927794 0.745388 0.000000
0.957061 0.745022 0.000000
0.984161 0.743862 0.000000
1.000000 0.741970 0.000000
1.000000 0.739437 0.000000
1.000000 0.736263 0.000000
1.000000 0.732326 0.000000
1.000000 0.726864 0.000000
1.000000 0.717647 0.000000
0.000000 0.732815 0.306157
0.000000 0.732815 0.305791
0.000000 0.732815 0.305150
0.000000 0.732753 0.303807
0.000000 0.732631 0.301884
0.000000 0.732906 0.288579
0.000000 0.733242 0.267277
0.000000 0.733333 0.246647
0.145968 0.732235 0.248814
0.213138 0.730892 0.251255
0.266423 0.729519 0.254185
0.313298 0.727962 0.257237
0.356329 0.726284 0.260746
0.396735 0.724544 0.264714
0.450416 0.729213 0.260960
0.508019 0.736049 0.253544
0.564996 0.742885 0.244633
0.621820 0.749508 0.234531
0.678645 0.755825 0.222293
0.735561 0.761837 0.207553
0.792599 0.767330 0.189761
0.852293 0.775540 0.167819
0.891447 0.773800 0.138857
0.923644 0.774166 0.114504
0.953460 0.773373 0.082612
0.980896 0.771725 0.008087
1.000000 0.769284 0.000000
1.000000 0.766171 0.000000
1.000000 0.762387 0.000000
1.000000 0.757839 0.000000
1.000000 0.752438 0.000000
1.000000 0.746029 0.000000
0.000000 0.768917 0.322057
0.000000 0.768887 0.321660
0.000000 0.768856 0.321172
0.000000 0.768826 0.320165
0.000000 0.768673 0.318761
0.000000 0.768826 0.309392
0.000000 0.769223 0.290593
0.000000 0.769711 0.265507
0.126040 0.768826 0.263981
0.200900 0.767636 0.266423
0.257267 0.766323 0.269078
0.305974 0.764950 0.272190
0.350317 0.763424 0.275547
0.391791 0.761807 0.279301
0.432013 0.760494 0.282841
0.489387 0.766690 0.276738
0.545769 0.772824 0.269566
0.601556 0.778836 0.261265
0.657008 0.784573 0.251255
0.712398 0.789975 0.239719
0.767697 0.795041 0.225864
0.823056 0.799619 0.209201
0.881743 0.807370 0.188479
0.919280 0.802884 0.162905
0.949523 0.801846 0.142519
0.977417 0.799832 0.118257
1.000000 0.796933 0.088228
1.000000 0.793332 0.009430
1.000000 0.788937 0.000000
1.000000 0.783810 0.000000
1.000000 0.777798 0.000000
1.000000 0.770687 0.000000
0.000000 0.803708 0.338048
0.000000 0.803708 0.337804
0.000000 0.803647 0.337407
0.000000 0.803586 0.336797
0.000000 0.803464 0.335943
0.000000 0.803464 0.330266
0.000000 0.803861 0.313664
0.000000 0.804318 0.291875
0.105928 0.804044 0.280400
0.189853 0.802976 0.282658
0.248966 0.801816 0.285466
0.299413 0.800504 0.288365
0.344762 0.799130 0.291600
0.386999 0.797604 0.295323
0.426886 0.796078 0.299290
0.471809 0.796933 0.300145
0.527581 0.802365 0.294255
0.582452 0.807736 0.287205
0.636713 0.812863 0.279118
0.690700 0.817716 0.269566
0.744503 0.822232 0.258457
0.798123 0.826352 0.245182
0.851682 0.830014 0.229679
0.909422 0.837552 0.209873
0.945312 0.830320 0.186313
0.973632 0.828061 0.168429
0.999725 0.824796 0.147646
1.000000 0.820737 0.122896
1.000000 0.815915 0.089296
1.000000 0.810208 0.000000
1.000000 0.803586 0.000000
1.000000 0.795834 0.000000
0.000000 0.837186 0.354345
0.000000 0.837186 0.354253
0.000000 0.837125 0.354070
0.000000 0.837003 0.353796
0.000000 0.836851 0.353460
0.000000 0.836698 0.351324
0.000000 0.837125 0.336706
0.000000 0.837552 0.317601
0.089021 0.837888 0.298161
0.181643 0.836881 0.300420
0.242771 0.835782 0.303044
0.294102 0.834592 0.306004
0.339971 0.833310 0.309209
0.382910 0.831907 0.312779
0.423255 0.830503 0.316716
0.461860 0.828977 0.320928
0.510704 0.831540 0.319066
0.564752 0.836210 0.313237
0.617975 0.840696 0.306493
0.670619 0.844999 0.298650
0.722866 0.848997 0.289433
0.774929 0.852628 0.278782
0.826780 0.855863 0.266209
0.878508 0.858640 0.251133
0.935424 0.866087 0.231662
0.969207 0.856016 0.212955
0.996124 0.852750 0.192813
1.000000 0.848386 0.173953
1.000000 0.843076 0.151431
1.000000 0.836881 0.124208
1.000000 0.829770 0.080751
1.000000 0.821317 0.000000
0.000000 0.869291 0.371160
0.000000 0.869261 0.371191
0.000000 0.869169 0.371160
0.000000 0.869078 0.371283
0.000000 0.868894 0.371496
0.000000 0.868620 0.372168
0.000000 0.868925 0.360021
0.067079 0.869413 0.343297
0.100526 0.869932 0.322118
0.177890 0.869261 0.319677
0.239628 0.868284 0.322332
0.290990 0.867185 0.325139
0.337224 0.865995 0.328374
0.380194 0.864683 0.331945
0.420630 0.863340 0.335821
0.459388 0.861967 0.340032
0.496590 0.860502 0.344671
0.548943 0.864286 0.340124
0.600977 0.868193 0.334417
0.652338 0.871885 0.327672
0.703151 0.875334 0.320012
0.753567 0.878477 0.310948
0.803830 0.881254 0.300450
0.853849 0.883604 0.288121
0.903624 0.885557 0.273564
0.956939 0.890471 0.255314
0.991119 0.880064 0.242832
1.000000 0.875975 0.216373
1.000000 0.870390 0.198734
1.000000 0.863798 0.177890
1.000000 0.856138 0.153506
1.000000 0.847013 0.117922
0.000000 0.900023 0.388647
0.000000 0.899992 0.388769
0.000000 0.899931 0.388952
0.000000 0.899779 0.389441
0.000000 0.899565 0.390234
0.004852 0.899229 0.391760
0.092958 0.899351 0.383825
0.114565 0.899809 0.369360
0.135012 0.900328 0.351080
0.180911 0.900237 0.340887
0.241001 0.899321 0.343420
0.291722 0.898283 0.346288
0.337438 0.897185 0.349584
0.379889 0.895995 0.353002
0.420142 0.894743 0.357061
0.458595 0.893462 0.361273
0.495705 0.892119 0.365942
0.535637 0.891966 0.368414
0.586419 0.895262 0.363500
0.636286 0.898375 0.357794
0.685573 0.901274 0.351080
0.734463 0.903899 0.343359
0.782956 0.906218 0.334264
0.831235 0.908202 0.323674
0.879332 0.909758 0.311559
0.927214 0.910857 0.297063
0.976959 0.913390 0.279576
1.000000 0.904051 0.267552
1.000000 0.897673 0.239841
1.000000 0.890776 0.223453
1.000000 0.882506 0.203708
1.000000 0.872862 0.179721
0.000000 0.929473 0.407080
0.000000 0.929412 0.407324
0.000000 0.929351 0.407721
0.000000 0.929198 0.408576
0.000000 0.928923 0.410040
0.098054 0.928527 0.412360
0.142214 0.928466 0.408728
0.156283 0.928862 0.396094
0.171298 0.929351 0.380468
0.192020 0.929808 0.363989
0.248417 0.928923 0.366583
0.296910 0.928008 0.369604
0.341253 0.926970 0.372747
0.382910 0.925872 0.376471
0.422278 0.924743 0.380468
0.460273 0.923552 0.384833
0.496895 0.922301 0.389532
0.532403 0.920989 0.394659
0.575128 0.921935 0.394446
0.623285 0.924498 0.389349
0.670832 0.926848 0.383520
0.717952 0.928954 0.376745
0.764645 0.930816 0.368780
0.811032 0.932341 0.359716
0.857267 0.933501 0.348943
0.903319 0.934234 0.336522
0.949187 0.934539 0.322210
0.995880 0.935271 0.304875
1.000000 0.926848 0.291905
1.000000 0.917540 0.263737
1.000000 0.908904 0.247440
1.000000 0.898741 0.228489
0.000000 0.957641 0.426764
0.000000 0.957580 0.427131
0.000000 0.957488 0.427649
0.000000 0.957305 0.428931
0.079011 0.956939 0.431128
0.146426 0.956512 0.434302
0.187655 0.956146 0.434852
0.198245 0.956573 0.423987
0.209934 0.957031 0.410742
0.222477 0.957610 0.394659
0.263066 0.957122 0.392340
0.308293 0.956268 0.395422
0.350317 0.955322 0.398749
0.390234 0.954314 0.402472
0.428504 0.953216 0.406653
0.465370 0.952117 0.411048
0.501213 0.950958 0.416022
0.536034 0.949737 0.421241
0.570031 0.948516 0.427008
0.614282 0.950072 0.423804
0.659724 0.951904 0.418555
0.704738 0.953521 0.412512
0.749325 0.954864 0.405371
0.793698 0.955962 0.397101
0.837888 0.956664 0.387732
0.881834 0.957031 0.376776
0.925750 0.957000 0.363928
0.969512 0.956542 0.349126
1.000000 0.955627 0.331548
1.000000 0.947509 0.317082
1.000000 0.935058 0.287846
1.000000 0.924529 0.272251
0.000000 0.984375 0.447944
0.000000 0.984283 0.448524
0.035706 0.984192 0.449317
0.100496 0.983948 0.451026
0.147524 0.983551 0.453864
0.191867 0.983001 0.458045
0.234195 0.982361 0.462989
0.242374 0.982727 0.453834
0.251804 0.983154 0.442573
0.262394 0.983703 0.429267
0.286137 0.983734 0.421149
0.327031 0.982910 0.424384
0.365972 0.982025 0.427832
0.403479 0.981079 0.431800
