data/fiter_cube/87192323/1023451/file.cube
# Created by Adobe Lightroom plugin Export LUT (1.17.0)
# www.johnrellis.com/lightroom/exportlut.htm
# Preset: 日系清新自然_02 云集
# Color profile: C:\Program Files (x86)\Common Files\Adobe\Color\Profiles\Recommended\AdobeRGB1998.icc
LUT_3D_SIZE 8
DOMAIN_MIN 0.000000 0.000000 0.000000
DOMAIN_MAX 0.903226 0.903226 0.903226
0.000000 0.000000 0.000000
0.140139 0.034668 0.000000
0.311223 0.106081 0.000000
0.504265 0.179568 0.000000
0.711086 0.255253 0.000000
0.866850 0.311711 0.000000
0.984344 0.353185 0.000000
1.000000 0.381689 0.000000
0.000000 0.135378 0.059754
0.133761 0.138338 0.023285
0.309483 0.179934 0.000000
0.502251 0.233280 0.000000
0.709163 0.297276 0.000000
0.865415 0.343908 0.000000
0.983429 0.378302 0.000000
1.000000 0.401892 0.000000
0.000000 0.286809 0.117769
0.089296 0.285466 0.089540
0.286412 0.296513 0.060761
0.494820 0.352575 0.000000
0.702235 0.409186 0.000000
0.860197 0.438087 0.000000
0.980011 0.455940 0.000000
1.000000 0.465736 0.000000
0.000000 0.446082 0.188968
0.000000 0.446662 0.155398
0.231144 0.441016 0.158633
0.455848 0.472328 0.111421
0.687770 0.532982 0.000000
0.850675 0.566522 0.000000
0.973571 0.568688 0.000000
1.000000 0.562737 0.000000
0.000000 0.616938 0.258579
0.000000 0.617029 0.245426
0.196841 0.614343 0.208560
0.389136 0.615625 0.212802
0.628260 0.650874 0.160281
0.835019 0.681147 0.000000
0.963592 0.689387 0.000000
1.000000 0.679957 0.000000
0.000000 0.768917 0.322057
0.000000 0.768673 0.318761
0.126040 0.768826 0.263981
0.350317 0.763424 0.275547
0.545769 0.772824 0.269566
0.767697 0.795041 0.225864
0.949523 0.801846 0.142519
1.000000 0.788937 0.000000
0.000000 0.900023 0.388647
0.000000 0.899565 0.390234
0.135012 0.900328 0.351080
0.337438 0.897185 0.349584
0.495705 0.892119 0.365942
0.685573 0.901274 0.351080
0.879332 0.909758 0.311559
1.000000 0.897673 0.239841
0.126680 1.000000 0.471351
0.203830 1.000000 0.478981
0.298405 1.000000 0.476936
0.389593 1.000000 0.461036
0.524041 1.000000 0.480018
0.653834 0.999176 0.500267
0.809171 0.999817 0.474159
0.963806 0.995178 0.426490
0.000000 0.008820 0.154147
0.134829 0.000000 0.150698
0.310399 0.000000 0.114321
0.502007 0.144961 0.109773
0.710353 0.227176 0.000000
0.867033 0.291752 0.000000
0.984955 0.338262 0.000000
1.000000 0.369055 0.000000
0.000000 0.149111 0.164004
0.133974 0.138430 0.159152
0.305974 0.160708 0.140414
0.499916 0.210758 0.112001
0.708309 0.275669 0.007202
0.865476 0.327276 0.000000
0.983978 0.365393 0.000000
1.000000 0.390356 0.000000
0.000000 0.290501 0.187472
0.121157 0.288975 0.191775
0.285740 0.296086 0.174319
0.492378 0.347051 0.121584
0.700984 0.397772 0.045075
0.860014 0.428077 0.000000
0.980255 0.447730 0.000000
1.000000 0.457679 0.000000
0.000000 0.448280 0.240665
0.084108 0.447974 0.239597
0.240177 0.444312 0.220340
0.455146 0.471565 0.197421
0.686458 0.530724 0.121645
0.850156 0.561242 0.000000
0.973419 0.564141 0.000000
1.000000 0.558312 0.000000
0.000000 0.618250 0.298100
0.000000 0.618128 0.293126
0.202579 0.616541 0.254337
0.388251 0.614801 0.260258
0.627985 0.650477 0.224887
0.834195 0.680476 0.155001
0.963134 0.688685 0.051942
1.000000 0.677668 0.000000
0.000000 0.769528 0.350439
0.000000 0.769284 0.347997
0.136782 0.769863 0.298894
0.355413 0.764370 0.308812
0.545800 0.772244 0.306828
0.767910 0.794888 0.273655
0.948699 0.801938 0.215976
1.000000 0.788968 0.142641
0.000000 0.900328 0.408026
0.000000 0.899840 0.409674
0.189548 0.899565 0.390723
0.345281 0.897368 0.375525
0.501244 0.892241 0.390692
0.686824 0.900847 0.380194
0.879667 0.909636 0.346868
1.000000 0.897887 0.287114
0.119844 1.000000 0.481971
0.199924 1.000000 0.489174
0.328405 1.000000 0.503532
0.401190 1.000000 0.480781
0.531853 1.000000 0.498512
0.658015 0.998505 0.519280
0.811276 0.999359 0.495766
0.964202 0.994903 0.452644
0.000000 0.033783 0.325139
0.083742 0.000000 0.323400
0.284916 0.000000 0.318608
0.473335 0.000000 0.310063
0.704616 0.000000 0.263279
0.864714 0.236912 0.287724
0.983978 0.306249 0.257267
1.000000 0.342748 0.194064
0.000000 0.177615 0.329046
0.000000 0.135683 0.329076
0.285557 0.126375 0.322698
0.478645 0.089021 0.307317
0.704250 0.189944 0.299626
0.862943 0.283268 0.289464
0.982849 0.337713 0.259342
1.000000 0.367071 0.197971
0.000000 0.312413 0.340490
0.060304 0.308049 0.338598
0.280369 0.289250 0.330480
0.482460 0.315282 0.320226
0.695247 0.360327 0.308385
0.857206 0.400549 0.292973
0.978790 0.429053 0.266972
1.000000 0.441932 0.211490
0.000000 0.457130 0.347753
0.000000 0.456397 0.348455
0.268040 0.451911 0.353643
0.451911 0.466987 0.342992
0.680964 0.520897 0.312566
0.846952 0.544335 0.297795
0.971557 0.552575 0.279362
1.000000 0.548974 0.234073
0.000000 0.624018 0.385351
0.000000 0.623560 0.385199
0.247745 0.621118 0.386053
0.393347 0.615045 0.370611
0.626764 0.647822 0.360388
0.830838 0.678126 0.330541
0.960967 0.687251 0.299016
1.000000 0.672114 0.263340
0.000000 0.772610 0.422034
0.000000 0.772091 0.422827
0.236881 0.770077 0.426093
0.373816 0.767391 0.401801
0.546838 0.769406 0.407080
0.768521 0.793912 0.393835
0.945586 0.802518 0.363775
1.000000 0.790097 0.321202
0.000000 0.901915 0.463294
0.000000 0.901305 0.465705
0.260685 0.898833 0.476783
0.374731 0.897765 0.454292
0.521965 0.892454 0.466499
0.692378 0.898894 0.466926
0.881163 0.909117 0.448707
1.000000 0.898985 0.409674
0.062257 1.000000 0.515526
0.169009 1.000000 0.520287
0.346441 1.000000 0.547936
0.441627 1.000000 0.543755
0.557519 1.000000 0.555596
0.673732 0.996582 0.575677
0.818540 0.997711 0.561212
0.965606 0.994049 0.529992
0.000000 0.062501 0.489937
0.000000 0.026398 0.488869
0.272068 0.000000 0.484871
0.448493 0.000000 0.479194
0.636133 0.000000 0.479591
0.839353 0.000000 0.443610
0.979736 0.141299 0.417670
1.000000 0.358434 0.446937
0.000000 0.186282 0.492531
0.000000 0.141085 0.492592
0.263920 0.120363 0.488136
0.449378 0.085969 0.481605
0.640589 0.000000 0.479927
0.841917 0.000000 0.443030
0.977661 0.264683 0.443488
1.000000 0.378485 0.445686
0.000000 0.348425 0.498085
0.000000 0.341466 0.497444
0.217716 0.280858 0.496315
0.449836 0.273442 0.487953
0.656214 0.265141 0.480629
0.847654 0.315465 0.462898
0.971527 0.433417 0.488502
1.000000 0.448005 0.447395
0.000000 0.488655 0.509483
0.000000 0.486183 0.508446
0.231418 0.476020 0.504356
0.442512 0.451423 0.494148
0.664942 0.490608 0.498604
0.837095 0.528710 0.501274
0.964477 0.552789 0.492195
1.000000 0.553399 0.456977
0.000000 0.631098 0.502007
0.000000 0.631281 0.502281
0.225528 0.630884 0.503899
0.433265 0.622156 0.513695
0.623377 0.639429 0.512718
0.822110 0.675349 0.504265
0.954314 0.685389 0.496437
1.000000 0.674037 0.470710
0.000000 0.778592 0.520287
0.000000 0.778012 0.520775
0.224002 0.775570 0.524285
0.432044 0.769100 0.541192
0.558831 0.763241 0.534752
0.770047 0.790738 0.540490
0.939208 0.805692 0.527825
1.000000 0.796719 0.496132
0.000000 0.905272 0.542809
0.000000 0.904662 0.544518
0.248844 0.902068 0.552789
0.449287 0.895811 0.579248
0.560540 0.892363 0.572442
0.703975 0.894469 0.580621
0.884520 0.907958 0.578912
1.000000 0.902281 0.557092
0.000000 1.000000 0.576226
0.140963 1.000000 0.579583
0.315831 1.000000 0.593927
0.500328 1.000000 0.634028
0.596277 0.998962 0.635676
0.702022 0.994751 0.650141
0.830106 0.995087 0.648829
0.968383 0.992645 0.631281
0.000000 0.084688 0.651759
0.000000 0.069276 0.650935
0.220706 0.000000 0.648066
0.455207 0.000000 0.642481
0.623621 0.000000 0.635645
0.780056 0.000000 0.618280
0.945556 0.000000 0.588830
1.000000 0.128969 0.546746
0.000000 0.186954 0.653315
0.000000 0.151308 0.653071
0.202335 0.125917 0.650019
0.451179 0.054597 0.644404
0.624048 0.000000 0.636896
0.779934 0.000000 0.618341
0.946563 0.000000 0.590448
1.000000 0.216953 0.552972
0.000000 0.378027 0.655055
0.000000 0.364691 0.654963
0.089082 0.280735 0.655543
0.433204 0.265751 0.649317
0.624414 0.248661 0.640803
0.783352 0.245182 0.620783
0.949218 0.306645 0.601129
1.000000 0.388464 0.580133
0.000000 0.522911 0.659785
0.000000 0.519005 0.659358
0.166842 0.503410 0.657435
0.390173 0.441016 0.655268
0.621454 0.438361 0.645716
0.797543 0.462074 0.636194
0.951995 0.521050 0.636072
1.000000 0.614160 0.664576
0.000000 0.666072 0.667079
0.000000 0.664424 0.666468
0.159365 0.657893 0.664088
0.410590 0.643732 0.659144
0.612177 0.618463 0.649622
0.806943 0.666255 0.669520
0.942962 0.697749 0.677333
1.000000 0.699825 0.657862
0.000000 0.781827 0.638239
0.000000 0.781674 0.638025
0.200229 0.780697 0.638422
0.421271 0.777066 0.646876
0.607568 0.766293 0.665553
0.770626 0.783597 0.673396
0.931090 0.811856 0.677638
1.000000 0.807919 0.661982
0.000000 0.910185 0.640864
0.000000 0.909575 0.641901
0.224918 0.907012 0.646998
0.434730 0.901213 0.661280
0.612818 0.892058 0.688930
0.716762 0.887144 0.687984
0.889220 0.906249 0.699702
1.000000 0.907073 0.689235
0.000000 1.000000 0.654841
0.074220 1.000000 0.657221
0.296666 1.000000 0.667109
0.468910 1.000000 0.686793
0.640040 0.997040 0.726040
0.732296 0.993439 0.729793
0.841825 0.992004 0.736690
0.972198 0.991119 0.731014
0.000000 0.109438 0.789425
0.000000 0.099458 0.788907
0.087404 0.030579 0.787076
0.413092 0.000000 0.783505
0.615778 0.000000 0.778042
0.778347 0.000000 0.769497
0.911894 0.000000 0.739528
1.000000 0.000000 0.703365
0.000000 0.184543 0.790188
0.000000 0.165347 0.789944
0.000000 0.143526 0.788052
0.406317 0.089082 0.784360
0.614618 0.000000 0.778805
0.778286 0.000000 0.770138
0.911559 0.000000 0.739864
1.000000 0.094514 0.704921
0.000000 0.387060 0.789578
0.000000 0.364813 0.789944
0.000000 0.285313 0.790646
0.380835 0.269627 0.786831
0.610498 0.248569 0.781186
0.777584 0.230869 0.772244
0.909850 0.240543 0.741787
1.000000 0.318883 0.713039
0.000000 0.547875 0.789822
0.000000 0.541466 0.789700
0.132692 0.515923 0.789364
0.333928 0.437201 0.790036
0.594354 0.433356 0.784024
0.774258 0.431220 0.775021
0.905303 0.439704 0.748013
1.000000 0.509178 0.733486
0.000000 0.677974 0.792813
0.000000 0.675807 0.792538
0.099092 0.667964 0.791470
0.386572 0.654536 0.789090
0.571130 0.608026 0.786801
0.767971 0.608392 0.778225
0.914092 0.637690 0.770871
1.000000 0.688899 0.772274
0.000000 0.814054 0.796902
0.000000 0.812894 0.796597
0.117769 0.808438 0.795407
0.396674 0.799283 0.793027
0.590417 0.784970 0.789120
0.759792 0.763363 0.781674
0.922148 0.813382 0.810117
1.000000 0.827543 0.809079
0.000000 0.910399 0.759396
0.000000 0.910033 0.759609
0.220798 0.908385 0.760769
0.425269 0.904845 0.764157
0.599512 0.899260 0.775570
0.758145 0.888945 0.796231
0.893309 0.902831 0.808072
1.000000 0.915221 0.811887
0.000000 1.000000 0.749386
0.000000 1.000000 0.750729
0.270634 1.000000 0.756069
0.449287 1.000000 0.767300
0.616327 1.000000 0.787381
0.770169 0.992187 0.820035
0.854154 0.987884 0.823423
0.976959 0.989624 0.828550
0.000000 0.136690 0.907744
0.000000 0.130404 0.907897
0.000000 0.102785 0.906554
0.349798 0.000000 0.904173
0.574762 0.000000 0.900664
0.756588 0.000000 0.895903
0.910552 0.000000 0.885100
1.000000 0.000000 0.843839
0.000000 0.186709 0.906462
0.000000 0.182559 0.906523
0.000000 0.165713 0.905303
0.340581 0.128603 0.902861
0.569726 0.000000 0.899107
0.753597 0.000000 0.893980
0.907561 0.000000 0.883055
1.000000 0.000000 0.842313
0.000000 0.378424 0.906157
0.000000 0.357397 0.906493
0.000000 0.292912 0.906737
0.312230 0.279240 0.904204
0.558129 0.259281 0.899992
0.751247 0.238407 0.894896
0.906981 0.227512 0.884855
1.000000 0.255985 0.845823
0.000000 0.552148 0.904875
0.000000 0.546075 0.904631
0.111055 0.522362 0.904112
0.268894 0.437354 0.905974
0.543114 0.432349 0.901762
0.750210 0.430671 0.896666
0.904601 0.430274 0.887541
1.000000 0.442634 0.851621
0.000000 0.687007 0.903197
0.000000 0.684657 0.902647
0.006348 0.677363 0.901579
0.377203 0.658595 0.900633
0.526085 0.597375 0.900999
0.738918 0.598444 0.895445
0.896544 0.598749 0.887297
1.000000 0.607477 0.859617
0.000000 0.810300 0.903746
0.000000 0.809079 0.903593
0.096284 0.804898 0.902922
0.379522 0.798123 0.901854
0.569757 0.788418 0.899657
0.726497 0.753933 0.898161
0.891173 0.755184 0.891295
1.000000 0.780911 0.880705
0.000000 0.936828 0.906432
0.000000 0.936217 0.906493
0.165499 0.932860 0.905943
0.400397 0.926818 0.905028
0.582635 0.916747 0.902922
0.743893 0.903380 0.899870
0.884764 0.886381 0.894896
0.997620 0.924926 0.919310
0.000000 1.000000 0.864927
0.013245 1.000000 0.865232
0.283116 1.000000 0.867399
0.451759 1.000000 0.870573
0.609644 1.000000 0.875975
0.755123 0.997528 0.887968
0.887999 0.987213 0.909850
0.982025 0.988067 0.917479
0.000000 0.164126 1.000000
0.000000 0.159762 1.000000
0.000000 0.142275 1.000000
0.261753 0.101717 1.000000
0.511589 0.000000 0.998108
0.710323 0.000000 0.995117
0.873777 0.000000 0.991791
1.000000 0.000000 0.978912
0.000000 0.204959 1.000000
0.000000 0.201724 1.000000
0.000000 0.188907 1.000000
0.251774 0.163668 0.999603
0.507500 0.117311 0.997498
0.707637 0.000000 0.994446
0.872221 0.000000 0.990906
1.000000 0.000000 0.978149
0.000000 0.367254 0.999939
0.000000 0.348363 1.000000
0.000000 0.299474 1.000000
0.218845 0.289158 0.999573
0.496010 0.272618 0.997192
0.700710 0.251591 0.993774
0.869718 0.234684 0.990082
1.000000 0.231144 0.977935
0.000000 0.553368 0.996033
0.000000 0.546807 0.996277
0.000000 0.504387 0.997314
0.170352 0.433326 0.998993
0.482856 0.428504 0.996612
0.693050 0.424170 0.993164
0.867430 0.421363 0.989258
1.000000 0.421088 0.978332
0.000000 0.686549 0.993622
0.000000 0.683497 0.993774
0.089326 0.672328 0.993469
0.375677 0.655207 0.992950
0.475776 0.585107 0.994690
0.685389 0.584985 0.991150
0.865080 0.587243 0.987152
1.000000 0.590753 0.978515
0.000000 0.802731 0.992126
0.000000 0.801511 0.991882
0.068635 0.797879 0.991119
0.358038 0.792325 0.990082
0.552087 0.781704 0.988800
0.685298 0.737881 0.989868
0.861814 0.743008 0.986664
0.996216 0.747677 0.980529
0.000000 0.917967 0.991852
0.000000 0.917174 0.991638
0.161166 0.914458 0.991058
0.387121 0.910338 0.990265
0.565515 0.905241 0.988952
0.725521 0.899870 0.987274
0.858305 0.877928 0.986847
0.987945 0.879301 0.981384
0.000000 1.000000 0.992157
0.000000 1.000000 0.991974
0.247379 1.000000 0.991608
0.430823 1.000000 0.991058
0.593774 1.000000 0.990112
0.742916 1.000000 0.988769
0.876677 0.994842 0.986938
0.982513 0.982757 0.984039
