data/fiter_cube/25649002/1023280/file.cube
# Created by Adobe Lightroom plugin Export LUT (1.17.0)
# www.johnrellis.com/lightroom/exportlut.htm
# Preset: 高级电影质感情绪胶片_10 云集
# Color profile: C:\Program Files (x86)\Common Files\Adobe\Color\Profiles\Recommended\AdobeRGB1998.icc
LUT_3D_SIZE 32
DOMAIN_MIN 0.0 0.0 0.0
DOMAIN_MAX 1.0 1.0 1.0
0.067170 0.076387 0.088075
0.071107 0.077241 0.088533
0.075441 0.078676 0.089174
0.088411 0.082216 0.091066
0.117556 0.087648 0.092500
0.160037 0.092592 0.093263
0.211032 0.097047 0.093019
0.268284 0.100465 0.092012
0.329931 0.103426 0.090181
0.389288 0.108248 0.087861
0.444587 0.117861 0.086213
0.494026 0.133700 0.085939
0.537682 0.155550 0.087098
0.575677 0.181735 0.091432
0.608881 0.210788 0.098146
0.637537 0.241001 0.106996
0.662928 0.272282 0.119478
0.684443 0.302708 0.133944
0.702144 0.331212 0.150423
0.718013 0.359167 0.168948
0.733150 0.386908 0.188052
0.747372 0.414313 0.209049
0.760586 0.441108 0.231998
0.772915 0.466896 0.255497
0.784176 0.491524 0.280034
0.794400 0.515496 0.305638
0.803677 0.538659 0.331579
0.811978 0.561212 0.358099
0.819181 0.583368 0.385809
0.825345 0.605066 0.414038
0.830533 0.626215 0.442267
0.834623 0.646876 0.470741
0.068360 0.078309 0.089326
0.070314 0.079042 0.090333
0.076814 0.080903 0.088716
0.094118 0.084565 0.089113
0.126131 0.090791 0.090852
0.170169 0.096132 0.091341
0.221653 0.100649 0.090822
0.278691 0.104433 0.089509
0.338720 0.107576 0.087526
0.396948 0.113039 0.085237
0.450599 0.122835 0.083253
0.499062 0.138399 0.082643
0.541375 0.159792 0.084352
0.578485 0.186038 0.088838
0.611048 0.214450 0.095338
0.639155 0.244083 0.104799
0.663996 0.274601 0.116945
0.684779 0.304051 0.132204
0.702296 0.331945 0.148287
0.718105 0.359289 0.165896
0.733120 0.386664 0.185336
0.747189 0.413794 0.206332
0.760433 0.440406 0.228916
0.772671 0.466072 0.252964
0.783963 0.490822 0.277531
0.794278 0.514641 0.303105
0.803647 0.537743 0.328740
0.811887 0.560479 0.355901
0.819181 0.582574 0.383398
0.825406 0.604364 0.411810
0.830533 0.625605 0.440497
0.834684 0.646235 0.469032
0.070130 0.081117 0.091310
0.071565 0.082490 0.093324
0.073671 0.082856 0.093263
0.095216 0.089296 0.089815
0.138521 0.097444 0.088106
0.184939 0.103273 0.088441
0.236088 0.107424 0.087587
0.293034 0.111116 0.085847
0.352056 0.114473 0.083131
0.407233 0.120119 0.081056
0.459144 0.130098 0.078889
0.506188 0.145754 0.077882
0.547051 0.166751 0.080079
0.583001 0.192325 0.084932
0.614649 0.220127 0.091859
0.641810 0.248569 0.101472
0.666072 0.278630 0.114351
0.686275 0.307042 0.129488
0.703334 0.334234 0.145937
0.718898 0.361059 0.163943
0.733822 0.387945 0.182986
0.747799 0.414771 0.204105
0.760830 0.441047 0.227024
0.773007 0.466499 0.251011
0.784298 0.491066 0.275669
0.794583 0.514672 0.300664
0.803861 0.537804 0.327031
0.812070 0.560449 0.354192
0.819333 0.582574 0.381933
0.825589 0.604181 0.410040
0.830747 0.625330 0.438788
0.834867 0.646021 0.467445
0.073365 0.087892 0.095766
0.076661 0.090669 0.098756
0.079103 0.092622 0.100282
0.084718 0.093874 0.099580
0.130922 0.108705 0.092287
0.205570 0.125185 0.084199
0.271183 0.128939 0.078340
0.325902 0.130495 0.075868
0.379767 0.132998 0.072908
0.431098 0.138277 0.069978
0.478859 0.148196 0.067353
0.521843 0.162997 0.066835
0.559899 0.183352 0.069093
0.593439 0.207187 0.074403
0.622858 0.233097 0.083162
0.648341 0.259983 0.093904
0.670985 0.287846 0.107942
0.689937 0.314458 0.123659
0.706111 0.340124 0.140780
0.721096 0.365606 0.159182
0.735500 0.391485 0.178805
0.749294 0.417365 0.199435
0.762142 0.443122 0.222721
0.774258 0.468238 0.246921
0.785428 0.492531 0.271855
0.795590 0.516197 0.297856
0.804776 0.539117 0.324285
0.812985 0.561608 0.351598
0.820096 0.583551 0.379583
0.826200 0.604974 0.407965
0.831296 0.625757 0.436439
0.835294 0.646235 0.465278
0.079561 0.102022 0.101930
0.083772 0.105898 0.105959
0.089509 0.111879 0.111727
0.098726 0.119448 0.114870
0.108309 0.115419 0.109499
0.169528 0.134524 0.097047
0.278050 0.162905 0.075898
0.360143 0.172335 0.060273
0.421698 0.172183 0.036500
0.466102 0.174105 0.029175
0.507622 0.181064 0.024384
0.544854 0.193362 0.025360
0.578515 0.210666 0.033814
0.608392 0.231235 0.051637
0.635157 0.254276 0.065583
0.658259 0.278202 0.080385
0.678584 0.303105 0.097597
0.696071 0.327123 0.114809
0.711238 0.350744 0.132845
0.725521 0.374609 0.152255
0.739254 0.398871 0.172335
0.752499 0.423407 0.193454
0.764950 0.447852 0.216678
0.776638 0.472084 0.241245
0.787442 0.495735 0.266819
0.797360 0.518791 0.292973
0.806332 0.541192 0.319585
0.814206 0.563256 0.347356
0.821195 0.584710 0.375341
0.827146 0.605829 0.403998
0.832090 0.626459 0.432746
0.836057 0.646601 0.461616
0.089540 0.126223 0.111513
0.094575 0.131716 0.116304
0.102541 0.139406 0.123445
0.117617 0.152712 0.133547
0.135470 0.162875 0.135866
0.143984 0.148989 0.124056
0.209903 0.165927 0.106203
0.343908 0.205783 0.066896
0.442237 0.229465 0.000000
0.498177 0.230777 0.000000
0.543328 0.233585 0.000000
0.574365 0.239933 0.000000
0.602533 0.251133 0.000000
0.628260 0.266697 0.000000
0.650904 0.284276 0.003418
0.671015 0.303929 0.052522
0.688899 0.324529 0.078462
0.704158 0.344976 0.100893
0.718196 0.365881 0.121645
0.731716 0.387579 0.142489
0.744747 0.410071 0.163760
0.757321 0.432929 0.186343
0.773983 0.466011 0.220005
0.784573 0.488472 0.245335
0.794339 0.510307 0.270817
0.803128 0.531548 0.297246
0.811032 0.552453 0.324071
0.818112 0.572930 0.351293
0.824338 0.593133 0.378912
0.829618 0.613123 0.407355
0.834012 0.632624 0.435523
0.837522 0.651728 0.463691
0.106111 0.164614 0.126711
0.112337 0.170504 0.132174
0.121889 0.179416 0.140536
0.145693 0.199313 0.160769
0.169253 0.219944 0.170840
0.189700 0.222751 0.165377
0.192355 0.194827 0.145449
0.253971 0.204410 0.122560
0.395361 0.251408 0.072206
0.501152 0.284459 0.000000
0.565606 0.303929 0.000000
0.602106 0.305180 0.000000
0.632715 0.309117 0.000000
0.652766 0.315648 0.000000
0.670741 0.325689 0.000000
0.687709 0.339544 0.000000
0.702388 0.354528 0.031678
0.715785 0.370794 0.078706
0.728542 0.388403 0.105989
0.741054 0.407538 0.131106
0.753536 0.427985 0.154421
0.765438 0.449378 0.179904
0.776883 0.471168 0.205692
0.787411 0.493233 0.233066
0.797086 0.514672 0.260349
0.805692 0.535454 0.287785
0.813291 0.555779 0.315587
0.820096 0.575586 0.343267
0.826047 0.595209 0.371466
0.831113 0.614588 0.400031
0.835355 0.633600 0.428595
0.838712 0.652338 0.457252
0.130190 0.212863 0.147707
0.137270 0.219394 0.153841
0.147494 0.228336 0.162600
0.172244 0.248722 0.183383
0.204562 0.275761 0.204776
0.241062 0.306706 0.220920
0.254002 0.290929 0.200687
0.247562 0.248173 0.172274
0.297246 0.245212 0.145815
0.436164 0.297612 0.093202
0.544884 0.337774 0.000000
0.608576 0.365423 0.000000
0.645228 0.372717 0.000000
0.668971 0.371801 0.000000
0.689326 0.373327 0.000000
0.702663 0.378882 0.000000
0.715023 0.387457 0.000000
0.726772 0.398596 0.002075
0.738186 0.411963 0.076722
0.749447 0.427375 0.109255
0.760678 0.444495 0.138033
0.771664 0.462928 0.165255
0.782223 0.482216 0.192172
0.791958 0.502068 0.220462
0.800931 0.521843 0.248905
0.808927 0.541375 0.277409
0.816129 0.560449 0.305394
0.822507 0.579339 0.333715
0.828122 0.598138 0.362585
0.832944 0.616754 0.391424
0.836973 0.635279 0.420752
0.840116 0.653559 0.449989
0.163546 0.273625 0.176577
0.171267 0.280034 0.182986
0.182071 0.289342 0.192081
0.207126 0.309148 0.212894
0.248142 0.339574 0.247379
0.282628 0.367956 0.265110
0.324315 0.398901 0.285466
0.322942 0.362799 0.243778
0.308751 0.308659 0.204807
0.337499 0.287419 0.174411
0.471595 0.344579 0.124147
0.572778 0.386175 0.000000
0.636957 0.414221 0.000000
0.679530 0.434241 0.000000
0.698054 0.429603 0.000000
0.714412 0.427192 0.000000
0.729244 0.427314 0.000000
0.739467 0.432715 0.000000
0.749264 0.440864 0.000000
0.759243 0.451911 0.075746
0.769253 0.465187 0.114015
0.779110 0.480171 0.145846
0.788571 0.496529 0.175845
0.797421 0.513787 0.205783
0.805539 0.531548 0.235538
0.812833 0.549218 0.265110
0.819486 0.566827 0.293858
0.825437 0.584466 0.322820
0.830716 0.602167 0.351843
0.835172 0.619959 0.381659
0.838895 0.637720 0.411566
0.841794 0.655421 0.441596
0.205539 0.342229 0.212436
0.213352 0.348302 0.219120
0.224369 0.356054 0.228305
0.248844 0.373236 0.249485
0.288151 0.399115 0.284672
0.327703 0.427008 0.314519
0.366003 0.456031 0.336828
0.393835 0.467811 0.340826
0.387304 0.428504 0.292515
0.367529 0.369512 0.243015
0.374456 0.329107 0.205966
0.501274 0.388312 0.159335
0.595575 0.430488 0.094667
0.660060 0.457282 0.000000
0.697017 0.473182 0.000000
0.721767 0.479683 0.000000
0.736141 0.475715 0.000000
0.749508 0.474128 0.000000
0.761837 0.474922 0.000000
0.770199 0.480903 0.000000
0.778805 0.489754 0.075471
0.787320 0.500786 0.119326
0.795560 0.513512 0.153994
0.803342 0.527550 0.186221
0.810483 0.542718 0.218357
0.817136 0.558282 0.248905
0.823209 0.574273 0.279179
0.828702 0.590570 0.309209
0.833494 0.607263 0.339757
0.837675 0.624079 0.370336
0.841093 0.641108 0.401312
0.843748 0.658167 0.432197
0.253605 0.408698 0.254887
0.261265 0.413428 0.261723
0.272129 0.420172 0.271366
0.294987 0.433936 0.291966
0.329778 0.454719 0.323949
0.372473 0.480568 0.363073
0.405524 0.504601 0.384070
0.442573 0.530785 0.408301
0.453925 0.524498 0.393439
0.443885 0.485969 0.341863
0.420478 0.426551 0.286442
0.408453 0.369848 0.240665
0.527642 0.430060 0.199252
0.614618 0.470008 0.147341
0.674983 0.492927 0.065217
0.711025 0.506462 0.000000
0.739620 0.519738 0.000000
0.754971 0.519158 0.000000
0.766690 0.516350 0.000000
0.777981 0.515648 0.000000
0.788602 0.517510 0.000000
0.795895 0.524315 0.075776
0.803006 0.533471 0.125032
0.809781 0.544396 0.163210
0.816129 0.556725 0.197879
0.821927 0.569970 0.231510
0.827390 0.583856 0.262760
0.832242 0.598444 0.294255
0.836637 0.613581 0.325689
0.840421 0.629145 0.357092
0.843534 0.645075 0.388830
0.845884 0.661311 0.420874
0.306249 0.469306 0.303136
0.312932 0.473152 0.309361
0.322515 0.478370 0.318212
0.342168 0.489204 0.336370
0.371984 0.505241 0.364538
0.409430 0.525566 0.400519
0.443153 0.546593 0.428687
0.474098 0.568048 0.450324
0.506859 0.590692 0.473945
0.503716 0.570489 0.440986
0.492622 0.534569 0.389197
0.467964 0.478187 0.330846
0.445441 0.415473 0.282994
0.556115 0.474678 0.247257
0.635492 0.510918 0.204196
0.689570 0.529961 0.150790
0.727962 0.542596 0.093202
0.754421 0.554772 0.072816
0.775235 0.564080 0.051453
0.785183 0.560479 0.065553
0.794827 0.558587 0.072236
0.804196 0.558587 0.076387
0.812680 0.560479 0.087709
0.818112 0.567620 0.138857
0.823239 0.576471 0.179141
0.828122 0.586908 0.215183
0.832639 0.598199 0.248692
0.836790 0.610498 0.281224
0.840482 0.623743 0.314000
0.843748 0.637507 0.345708
0.846311 0.652003 0.378485
0.848295 0.666926 0.411383
0.360021 0.524254 0.353918
0.365728 0.527001 0.359319
0.373693 0.530846 0.366857
0.390082 0.538811 0.382666
0.414771 0.550774 0.406592
0.445441 0.566247 0.437171
0.479194 0.584375 0.470863
0.504540 0.601709 0.489357
0.532036 0.620203 0.510399
0.557031 0.635706 0.528344
0.547845 0.611261 0.486946
0.536400 0.578119 0.436225
0.511772 0.525994 0.377264
0.481361 0.458625 0.318578
0.572290 0.503807 0.286595
0.645686 0.537713 0.251225
0.696193 0.555566 0.208164
0.736782 0.568017 0.149416
0.762661 0.579614 0.133913
0.783963 0.590936 0.123995
0.797299 0.594141 0.123384
0.805783 0.591821 0.128115
0.813962 0.591028 0.131563
0.821897 0.591577 0.133944
0.828885 0.594079 0.144656
0.833097 0.601587 0.186435
0.837003 0.610651 0.224521
0.840574 0.620966 0.260349
0.843900 0.632166 0.294041
0.846708 0.644556 0.328466
0.848997 0.657710 0.362371
0.850706 0.671534 0.396674
0.405676 0.566308 0.398322
0.410864 0.568750 0.403326
0.417090 0.571405 0.409522
0.430701 0.577569 0.422980
0.450721 0.586908 0.443244
0.476234 0.599207 0.469337
0.505699 0.614191 0.500359
0.530999 0.629053 0.523613
0.553674 0.643793 0.542016
0.576837 0.658991 0.562127
0.588617 0.662440 0.563592
0.579736 0.640284 0.523308
0.568994 0.610498 0.474159
0.544518 0.561517 0.415320
0.513787 0.497963 0.354192
0.586755 0.529503 0.323644
0.653956 0.560632 0.294133
0.701595 0.578271 0.259434
0.741299 0.591455 0.213077
0.770138 0.602533 0.180270
0.790219 0.613611 0.175784
0.806790 0.623743 0.171420
0.814847 0.622126 0.175204
0.822110 0.620844 0.178439
0.829038 0.620874 0.181491
0.835813 0.621942 0.183688
0.841520 0.625116 0.195285
0.844633 0.633082 0.234836
0.847410 0.642481 0.272709
0.849912 0.653071 0.308324
0.851835 0.664790 0.344671
0.853208 0.677455 0.380987
0.447242 0.602564 0.440192
0.451362 0.604334 0.444404
0.456550 0.606653 0.449683
0.467872 0.611597 0.461463
0.484260 0.618799 0.478553
0.505364 0.628290 0.500847
0.529473 0.639429 0.526970
0.554437 0.651728 0.554284
0.572869 0.663478 0.570062
0.591882 0.675868 0.586908
0.611109 0.689204 0.604089
0.613367 0.683894 0.592370
0.604547 0.663203 0.554711
0.594690 0.636194 0.507164
0.572351 0.591730 0.449897
0.542016 0.531792 0.387549
0.598901 0.551568 0.357702
0.660853 0.580560 0.333318
0.706661 0.598779 0.304814
0.745480 0.613031 0.267735
0.776944 0.623987 0.222660
0.795712 0.634607 0.220188
0.811124 0.644282 0.218479
0.822141 0.649683 0.219059
0.828519 0.648066 0.222690
0.834775 0.647669 0.225162
0.840787 0.648432 0.228183
0.846586 0.650355 0.231876
0.851072 0.654719 0.248020
0.853117 0.663600 0.287663
0.854765 0.673762 0.326268
0.855772 0.685145 0.365515
0.483803 0.632837 0.478645
0.487190 0.634180 0.482155
0.491249 0.635767 0.486549
0.500420 0.639551 0.496315
0.514000 0.645075 0.511009
0.531334 0.652308 0.530022
0.551293 0.660945 0.552361
0.573022 0.670863 0.577386
0.590845 0.681209 0.595422
0.606806 0.692256 0.609308
0.623163 0.704250 0.623529
0.639796 0.716976 0.637720
0.634333 0.703151 0.616022
0.624475 0.682002 0.581109
0.614771 0.656703 0.535332
0.594507 0.616175 0.480262
0.566674 0.561212 0.418921
0.609400 0.570550 0.388190
0.667048 0.598444 0.369177
0.711971 0.617853 0.346166
0.749630 0.633143 0.316075
0.780606 0.644770 0.277165
0.800778 0.654627 0.261662
0.815091 0.663905 0.261540
0.826810 0.672358 0.262577
0.833799 0.673518 0.265568
0.839322 0.672938 0.268894
0.844633 0.673640 0.273350
0.849699 0.675380 0.278111
0.854459 0.678096 0.284459
0.857572 0.683711 0.305577
0.858274 0.693568 0.347601
0.514214 0.656489 0.511925
0.516838 0.657527 0.514672
0.520195 0.658747 0.518395
0.527703 0.661555 0.526696
0.538964 0.665858 0.539239
0.553277 0.671504 0.555474
0.569848 0.678401 0.574517
0.587793 0.686763 0.595300
0.605982 0.696681 0.615869
0.619471 0.706661 0.627497
0.633692 0.717617 0.639551
0.648310 0.729213 0.651911
0.660426 0.737850 0.660548
0.651698 0.719814 0.634760
0.641627 0.698665 0.602594
0.631220 0.674006 0.560632
0.613001 0.637018 0.507927
0.588037 0.587152 0.448585
0.619013 0.587976 0.416999
0.673182 0.615198 0.402625
0.716976 0.635370 0.383734
0.753384 0.651484 0.359533
0.783017 0.663691 0.327886
0.805142 0.672786 0.298344
0.818296 0.681910 0.300816
0.829068 0.690059 0.303593
0.837552 0.696468 0.306889
0.842466 0.696040 0.311315
0.847105 0.696712 0.316960
0.851530 0.698482 0.323430
0.855558 0.701411 0.332219
0.859129 0.705348 0.343603
0.540612 0.676112 0.541711
0.542840 0.676936 0.544244
0.550439 0.681331 0.552972
0.556603 0.683558 0.560021
0.565698 0.687037 0.570397
0.577142 0.691798 0.583581
0.590539 0.697932 0.599023
0.605463 0.705440 0.616175
0.621271 0.714473 0.634424
0.634546 0.723995 0.647456
0.646754 0.733730 0.657954
0.659480 0.744045 0.669215
0.672358 0.754665 0.681056
0.677485 0.755428 0.679683
0.669123 0.737606 0.653864
0.659266 0.716640 0.624048
0.648310 0.692256 0.585901
0.630671 0.657527 0.536675
0.608637 0.612390 0.479408
0.629755 0.606226 0.446784
0.680751 0.632776 0.436072
0.723140 0.653620 0.420905
0.757961 0.670222 0.401617
0.785855 0.682673 0.375982
0.808194 0.691402 0.342809
0.821256 0.699702 0.339635
0.830991 0.707485 0.343572
0.838956 0.714534 0.347875
0.844419 0.717617 0.353735
0.848447 0.718471 0.360815
0.852110 0.720455 0.369909
0.855344 0.723507 0.381140
0.565026 0.694240 0.569940
0.567285 0.695308 0.572534
0.570275 0.696742 0.575982
0.575830 0.699123 0.582330
0.583703 0.702632 0.591333
0.593561 0.707118 0.602655
0.604944 0.712764 0.615808
0.617609 0.719600 0.630426
0.631342 0.727840 0.646235
0.645319 0.736965 0.662196
0.656184 0.745846 0.671962
0.667506 0.755184 0.682429
0.678950 0.764889 0.693416
0.690150 0.774716 0.704707
0.689998 0.768765 0.694331
0.682216 0.751278 0.668482
0.672969 0.730861 0.639704
0.662196 0.707271 0.604883
0.644465 0.673854 0.560143
0.624750 0.632654 0.505638
0.637995 0.620996 0.471809
0.687251 0.647944 0.464607
0.728359 0.669429 0.452888
0.761532 0.686488 0.437873
0.787808 0.699245 0.417304
0.808927 0.708553 0.390661
0.823575 0.716060 0.374640
0.832395 0.723842 0.380713
0.839445 0.731044 0.388098
0.845090 0.737758 0.396643
0.848478 0.739315 0.406470
0.851377 0.741421 0.417334
0.584894 0.710475 0.592798
0.586816 0.711513 0.595026
0.589319 0.712795 0.597864
0.593927 0.715023 0.603143
0.600610 0.718257 0.610834
0.608850 0.722377 0.620325
0.618524 0.727504 0.631495
0.629358 0.733730 0.644007
0.641474 0.741115 0.658198
0.654536 0.749477 0.674098
0.665736 0.757961 0.686183
0.675715 0.766445 0.695796
0.685756 0.775143 0.705928
0.695613 0.784054 0.716426
0.705165 0.793088 0.727077
0.701045 0.781308 0.708461
0.694148 0.764462 0.683009
0.685817 0.744808 0.654627
0.675593 0.722072 0.622400
0.658320 0.690120 0.582055
0.639277 0.651514 0.531456
0.646235 0.635523 0.496315
0.694087 0.662959 0.491920
0.733669 0.684932 0.483223
0.765103 0.702296 0.471839
0.789761 0.715450 0.455909
0.809445 0.725185 0.434943
0.825467 0.732113 0.409339
0.833249 0.740047 0.418036
0.839414 0.747311 0.427649
0.844114 0.754330 0.439338
0.847349 0.758755 0.450965
0.602686 0.726375 0.613123
0.604242 0.727260 0.614954
0.606348 0.728450 0.617365
0.610224 0.730495 0.621881
0.615808 0.733394 0.628290
0.622797 0.737179 0.636347
0.631006 0.741787 0.645899
0.640589 0.747372 0.657191
0.651301 0.753902 0.670222
0.663050 0.761410 0.684993
0.674861 0.769650 0.700038
0.683589 0.777249 0.708919
0.692409 0.785122 0.718227
0.701076 0.793210 0.727871
0.709468 0.801419 0.737758
0.715755 0.806912 0.743648
0.710811 0.793179 0.722103
0.705013 0.777279 0.697658
0.697932 0.758816 0.670100
0.689052 0.737301 0.639460
0.672724 0.707118 0.603693
0.654231 0.670863 0.558007
0.655970 0.651453 0.522179
0.702449 0.679530 0.520348
0.740230 0.701930 0.514702
0.769528 0.719509 0.506523
0.792294 0.732998 0.494942
0.810300 0.743221 0.479744
0.824949 0.750668 0.460609
0.833646 0.757839 0.459754
0.838621 0.765194 0.472206
0.842161 0.771817 0.485389
0.619715 0.742947 0.632715
0.620905 0.743618 0.634058
0.622400 0.744411 0.635767
0.625452 0.746090 0.639307
0.629999 0.748623 0.644709
0.636011 0.751919 0.651789
0.643275 0.756039 0.660487
0.651850 0.761044 0.671046
0.661494 0.766934 0.683192
0.671992 0.773709 0.696925
0.683040 0.781338 0.712001
0.691981 0.788693 0.723049
0.699611 0.795804 0.731594
0.707118 0.803128 0.740444
0.714412 0.810575 0.749386
0.721340 0.818112 0.758419
0.723934 0.818204 0.756863
0.719783 0.805081 0.736110
0.714961 0.790005 0.712551
0.709071 0.772488 0.685756
0.701534 0.752163 0.655879
0.686366 0.723323 0.623011
0.668574 0.689143 0.581964
0.665217 0.666346 0.545953
0.710140 0.694697 0.546075
0.745785 0.717250 0.542870
0.773159 0.735073 0.537377
0.794125 0.748989 0.529625
0.810605 0.759762 0.519310
0.823697 0.767910 0.506645
0.833219 0.774014 0.497383
0.836942 0.781369 0.511894
0.633417 0.757290 0.648524
0.634485 0.757931 0.649775
0.635798 0.758724 0.651362
0.638514 0.760189 0.654658
0.642603 0.762448 0.659602
0.647883 0.765347 0.666102
0.654414 0.769039 0.674189
0.661952 0.773434 0.683833
0.670558 0.778714 0.695125
0.679866 0.784695 0.707790
0.689631 0.791562 0.721736
0.699123 0.798825 0.735653
0.705745 0.805264 0.743465
0.712306 0.811978 0.751522
0.718624 0.818753 0.759762
0.724727 0.825681 0.768063
0.730434 0.832639 0.776364
0.730526 0.828153 0.768399
0.727260 0.815854 0.748959
0.723384 0.801694 0.726467
0.718715 0.785336 0.700862
0.712703 0.766445 0.672053
0.699489 0.739315 0.641016
0.683009 0.707332 0.604547
0.674617 0.681025 0.568383
0.717739 0.709560 0.570306
0.751369 0.732387 0.569451
0.776791 0.750454 0.566644
0.795865 0.764920 0.562707
0.810513 0.776181 0.557031
0.821805 0.784512 0.549523
0.830533 0.790890 0.542138
0.647150 0.771939 0.665034
0.648035 0.772488 0.666163
0.649226 0.773129 0.667628
0.651575 0.774441 0.670619
0.655207 0.776394 0.675166
0.659785 0.778866 0.681086
0.665492 0.782040 0.688502
0.672145 0.785946 0.697383
0.679622 0.790494 0.707668
0.687770 0.795804 0.719295
0.696315 0.801785 0.731991
0.704952 0.808469 0.745571
0.711757 0.814786 0.755367
0.717342 0.820706 0.762600
0.722774 0.826810 0.769924
0.727962 0.833005 0.777340
0.732937 0.839231 0.784817
0.737606 0.845487 0.792294
0.736080 0.837278 0.779049
0.733516 0.825742 0.760678
0.730526 0.812558 0.739528
0.726986 0.797391 0.715297
0.722438 0.779934 0.687892
0.711238 0.754391 0.657893
0.696468 0.724453 0.624567
0.688746 0.700435 0.593378
0.726467 0.725551 0.594507
0.757534 0.748409 0.595789
0.780606 0.766720 0.595605
0.797452 0.781033 0.594476
0.810025 0.792355 0.592493
0.819272 0.801450 0.591363
0.658595 0.784421 0.679347
0.659419 0.784939 0.680476
0.660487 0.785550 0.681849
0.662562 0.786679 0.684596
0.665766 0.788388 0.688808
0.669917 0.790707 0.694392
0.674983 0.793545 0.701320
0.680934 0.797055 0.709621
0.687617 0.801205 0.719203
0.694850 0.806027 0.730037
0.702419 0.811490 0.741848
0.710170 0.817594 0.754543
0.717494 0.824125 0.767117
0.722255 0.829526 0.773648
0.726955 0.835080 0.780362
0.731472 0.840726 0.787137
0.735775 0.846403 0.793973
0.739864 0.852110 0.800839
0.742977 0.855955 0.805051
0.741268 0.846708 0.790311
0.739406 0.836118 0.773251
0.737270 0.823972 0.753567
0.734768 0.810056 0.730892
0.731594 0.794034 0.704982
0.722744 0.770474 0.676600
0.710872 0.743160 0.645472
0.704372 0.721431 0.618463
0.735836 0.742672 0.619043
0.763973 0.765408 0.622248
0.784176 0.783200 0.623774
0.798734 0.797574 0.625513
0.809018 0.809293 0.628229
0.669520 0.796597 0.693751
0.670253 0.797055 0.694759
0.671168 0.797543 0.695949
0.672938 0.798489 0.698421
0.675715 0.799985 0.702266
0.679347 0.801999 0.707393
0.683864 0.804562 0.713832
0.689113 0.807706 0.721523
0.695064 0.811460 0.730495
0.701472 0.815824 0.740505
0.708156 0.820798 0.751492
0.714931 0.826322 0.763210
0.721675 0.832425 0.775509
0.726833 0.838010 0.784298
0.730861 0.843015 0.790372
0.734737 0.848112 0.796536
0.738460 0.853269 0.802762
0.741970 0.858457 0.809049
0.745327 0.863645 0.815335
0.746792 0.863951 0.814542
0.745632 0.855528 0.800900
0.744411 0.845884 0.785183
0.743069 0.834897 0.767086
0.741512 0.822385 0.746334
0.739498 0.807828 0.722438
0.732937 0.786465 0.695949
0.724178 0.761868 0.666712
0.719692 0.742611 0.642512
0.744778 0.759518 0.642023
0.769589 0.781735 0.646723
0.787076 0.799588 0.651087
0.799069 0.814206 0.656641
0.679316 0.807889 0.707210
0.679927 0.808255 0.708064
0.680690 0.808682 0.709224
0.682307 0.809567 0.711513
0.684840 0.810971 0.715236
0.688167 0.812863 0.720119
0.692287 0.815366 0.726345
0.697078 0.818357 0.733761
0.702480 0.821988 0.742367
0.708248 0.826139 0.751919
0.714229 0.830838 0.762356
0.720302 0.836027 0.773404
0.726284 0.841703 0.785000
0.731868 0.847654 0.796475
0.735256 0.852201 0.802060
0.738552 0.856779 0.807645
0.741695 0.861418 0.813291
0.744686 0.866056 0.818967
0.747494 0.870726 0.824674
0.750057 0.875364 0.830350
0.750576 0.872892 0.825620
0.749935 0.865446 0.813291
0.749294 0.856962 0.799130
0.748745 0.847318 0.782895
0.748165 0.836393 0.764279
0.747311 0.823606 0.742916
0.742916 0.804532 0.718654
0.737087 0.782620 0.691615
0.734768 0.765621 0.669184
0.754299 0.779446 0.669001
0.775113 0.801328 0.676570
0.789059 0.819028 0.684749
0.689387 0.819883 0.721859
0.689906 0.820188 0.722652
0.690547 0.820584 0.723659
0.691981 0.821347 0.725826
0.694179 0.822538 0.729213
0.697047 0.824247 0.733730
0.700587 0.826383 0.739376
0.704707 0.829038 0.746151
0.709346 0.832181 0.753994
0.714351 0.835874 0.762753
0.719509 0.839994 0.772274
0.724788 0.844633 0.782437
0.730007 0.849668 0.793057
0.734981 0.855100 0.804044
