data/fiter_cube/25649002/1023280/file.cube
# Created by Adobe Lightroom plugin Export LUT (1.17.0)
# www.johnrellis.com/lightroom/exportlut.htm
# Preset: 高级电影质感情绪胶片_10 云集
# Color profile: C:\Program Files (x86)\Common Files\Adobe\Color\Profiles\Recommended\AdobeRGB1998.icc
LUT_3D_SIZE 8
DOMAIN_MIN 0.000000 0.000000 0.000000
DOMAIN_MAX 0.903226 0.903226 0.903226
0.067170 0.076387 0.088075
0.117556 0.087648 0.092500
0.329931 0.103426 0.090181
0.537682 0.155550 0.087098
0.662928 0.272282 0.119478
0.733150 0.386908 0.188052
0.784176 0.491524 0.280034
0.819181 0.583368 0.385809
0.079561 0.102022 0.101930
0.108309 0.115419 0.109499
0.421698 0.172183 0.036500
0.578515 0.210666 0.033814
0.678584 0.303105 0.097597
0.739254 0.398871 0.172335
0.787442 0.495735 0.266819
0.821195 0.584710 0.375341
0.163546 0.273625 0.176577
0.248142 0.339574 0.247379
0.308751 0.308659 0.204807
0.636957 0.414221 0.000000
0.729244 0.427314 0.000000
0.769253 0.465187 0.114015
0.805539 0.531548 0.235538
0.830716 0.602167 0.351843
0.360021 0.524254 0.353918
0.414771 0.550774 0.406592
0.532036 0.620203 0.510399
0.511772 0.525994 0.377264
0.696193 0.555566 0.208164
0.797299 0.594141 0.123384
0.828885 0.594079 0.144656
0.843900 0.632166 0.294041
0.514214 0.656489 0.511925
0.538964 0.665858 0.539239
0.605982 0.696681 0.615869
0.660426 0.737850 0.660548
0.613001 0.637018 0.507927
0.716976 0.635370 0.383734
0.818296 0.681910 0.300816
0.847105 0.696712 0.316960
0.602686 0.726375 0.613123
0.615808 0.733394 0.628290
0.651301 0.753902 0.670222
0.692409 0.785122 0.718227
0.710811 0.793179 0.722103
0.672724 0.707118 0.603693
0.740230 0.701930 0.514702
0.824949 0.750668 0.460609
0.658595 0.784421 0.679347
0.665766 0.788388 0.688808
0.687617 0.801205 0.719203
0.717494 0.824125 0.767117
0.735775 0.846403 0.793973
0.739406 0.836118 0.773251
0.722744 0.770474 0.676600
0.763973 0.765408 0.622248
0.697566 0.830259 0.734401
0.701808 0.832700 0.741329
0.715267 0.841581 0.764614
0.733577 0.857633 0.801389
0.746242 0.874174 0.829801
0.754330 0.889555 0.849149
0.756039 0.875151 0.822385
0.756588 0.835203 0.758114
0.069337 0.085817 0.119173
0.140688 0.078401 0.133639
0.281010 0.151583 0.163272
0.510613 0.214420 0.178408
0.644373 0.311498 0.202670
0.717739 0.408911 0.251499
0.772915 0.502464 0.324559
0.812253 0.588891 0.414099
0.078279 0.113527 0.121309
0.133547 0.150607 0.161868
0.372869 0.193362 0.156771
0.553185 0.252293 0.165713
0.662257 0.337316 0.191897
0.725917 0.421607 0.241947
0.776974 0.507347 0.314946
0.814298 0.590204 0.405066
0.168307 0.277409 0.195163
0.256748 0.344945 0.274266
0.337133 0.347936 0.269322
0.636561 0.436255 0.129580
0.714015 0.441108 0.139498
0.756680 0.479103 0.208927
0.795193 0.539055 0.290135
0.823972 0.606622 0.385229
0.361517 0.520470 0.366430
0.416663 0.547845 0.419104
0.532921 0.617334 0.525353
0.514824 0.534905 0.409094
0.692927 0.563378 0.262730
0.787655 0.594659 0.211795
0.820188 0.598566 0.230411
0.837858 0.636255 0.338201
0.515312 0.654719 0.518425
0.538384 0.663539 0.543328
0.602899 0.693080 0.616083
0.660334 0.737331 0.666957
0.612238 0.639124 0.521416
0.715908 0.639796 0.406714
0.814511 0.686061 0.342748
0.843351 0.698543 0.352026
0.601129 0.723903 0.613886
0.612634 0.729610 0.627008
0.647700 0.749935 0.667781
0.690639 0.782284 0.718593
0.711421 0.794461 0.728054
0.672938 0.708888 0.611017
0.740261 0.704891 0.525597
0.823423 0.752560 0.475593
0.656245 0.781857 0.677913
0.662898 0.785306 0.686458
0.685023 0.798337 0.716670
0.715846 0.821775 0.765316
0.735348 0.845426 0.794675
0.739437 0.836881 0.776608
0.721950 0.770291 0.679133
0.763485 0.765469 0.624567
0.695918 0.828733 0.732723
0.700343 0.831296 0.739742
0.714015 0.840238 0.763088
0.732662 0.856443 0.799893
0.746578 0.874815 0.831693
0.754421 0.889982 0.850614
0.756039 0.875975 0.824735
0.756252 0.835294 0.759670
0.008331 0.120333 0.254765
0.124269 0.107729 0.305150
0.434546 0.097139 0.319310
0.421454 0.315618 0.329747
0.576898 0.386786 0.356725
0.678737 0.468208 0.391821
0.745510 0.541009 0.437537
0.794491 0.614862 0.498299
0.129793 0.198215 0.252262
0.161776 0.211765 0.312169
0.425574 0.233677 0.343359
0.438239 0.350622 0.350835
0.600610 0.409033 0.362219
0.687770 0.478309 0.390326
0.750454 0.545830 0.433295
0.796994 0.616968 0.493568
0.169223 0.309453 0.276860
0.235447 0.343114 0.313298
0.395270 0.434211 0.411292
0.586664 0.466896 0.376654
0.666163 0.489662 0.374090
0.721065 0.523552 0.389899
0.769558 0.571862 0.425727
0.806424 0.629969 0.481941
0.336431 0.501030 0.367773
0.390967 0.529473 0.416693
0.522454 0.603693 0.540795
0.540185 0.575402 0.498756
0.698787 0.604974 0.413001
0.766384 0.613581 0.392187
0.797482 0.624872 0.410834
0.821073 0.658259 0.460853
0.498604 0.643824 0.513634
0.525475 0.654322 0.541283
0.593133 0.684871 0.613947
0.657771 0.732815 0.678523
0.620783 0.657160 0.573297
0.721248 0.664759 0.485512
0.805844 0.706416 0.459754
0.832395 0.709255 0.452735
0.594110 0.717983 0.612726
0.606836 0.724147 0.627070
0.642145 0.744350 0.667109
0.688289 0.777493 0.723995
0.716396 0.803128 0.751064
0.676143 0.717098 0.635096
0.743008 0.718074 0.563592
0.817441 0.764034 0.537652
0.652552 0.778653 0.677913
0.659541 0.782284 0.686732
0.681361 0.794919 0.715602
0.712093 0.817594 0.761959
0.734829 0.844083 0.798978
0.741268 0.842954 0.791714
0.723568 0.776272 0.695277
0.766140 0.774380 0.643397
0.692409 0.826230 0.730312
0.696376 0.828397 0.736324
0.710475 0.837156 0.759304
0.730190 0.853666 0.796506
0.746334 0.874113 0.834134
0.754421 0.890410 0.853910
0.756313 0.879728 0.833768
0.756191 0.838804 0.769162
0.000031 0.204074 0.439399
0.142947 0.204990 0.469978
0.437873 0.145113 0.551934
0.618555 0.323278 0.506615
0.588647 0.439277 0.460182
0.593500 0.503471 0.484749
0.693599 0.569604 0.527123
0.763363 0.638178 0.577264
0.200778 0.309697 0.442664
0.217166 0.299443 0.472480
0.431769 0.275700 0.550652
0.612604 0.387884 0.518486
0.577142 0.461616 0.469947
0.609339 0.514244 0.491096
0.700343 0.574975 0.528222
0.766690 0.640253 0.575402
0.265293 0.419226 0.438361
0.312535 0.436896 0.455787
0.423621 0.483467 0.527886
0.580835 0.516106 0.540856
0.558190 0.526818 0.508415
0.656031 0.557031 0.515282
0.725551 0.601587 0.538354
0.778866 0.653712 0.574273
0.334936 0.518761 0.454658
0.372778 0.531365 0.472206
0.474708 0.571832 0.526848
0.569787 0.620874 0.590509
0.669429 0.628901 0.559594
0.715816 0.628199 0.543633
0.759426 0.644953 0.545342
0.795682 0.678553 0.569146
0.462379 0.624720 0.501823
0.490089 0.631891 0.523064
0.563409 0.664057 0.593408
0.640772 0.712520 0.675013
0.633387 0.680629 0.631037
0.731685 0.701411 0.582177
0.787778 0.718471 0.570306
0.812955 0.722438 0.566003
0.577630 0.706020 0.605035
0.591394 0.712612 0.619562
0.627222 0.732204 0.658167
0.676600 0.765530 0.716457
0.719173 0.808499 0.771878
0.683711 0.732113 0.670283
0.750149 0.740322 0.616876
0.809201 0.780117 0.613245
0.642237 0.770535 0.672694
0.649470 0.774380 0.681300
0.672084 0.787381 0.709377
0.704036 0.809720 0.753933
0.732998 0.840238 0.802762
0.744656 0.854276 0.815549
0.725826 0.785275 0.719265
0.769863 0.787564 0.670954
0.687465 0.822538 0.728634
0.691554 0.824826 0.734493
0.704372 0.832639 0.753628
0.724086 0.847684 0.787442
0.744045 0.870268 0.831479
0.754086 0.890074 0.857389
0.756832 0.886046 0.847654
0.756069 0.844114 0.783139
0.211765 0.328405 0.571405
0.256596 0.331609 0.586114
0.410101 0.329747 0.629389
0.612421 0.356115 0.659754
0.693690 0.493660 0.616327
0.674128 0.551751 0.573541
0.654871 0.598077 0.585534
0.714778 0.659510 0.636133
0.294316 0.406928 0.569451
0.305364 0.397589 0.584405
0.421515 0.397253 0.626001
0.608148 0.411719 0.660639
0.689570 0.520470 0.621607
0.668299 0.562646 0.577508
0.649409 0.602686 0.588098
0.719600 0.661677 0.636713
0.370855 0.490455 0.537163
0.396857 0.506004 0.555016
0.453712 0.526055 0.610529
0.594995 0.531670 0.663294
0.677638 0.588647 0.637568
0.647242 0.590997 0.587579
0.648463 0.616846 0.596918
0.735225 0.669123 0.637415
0.405585 0.579370 0.564721
0.429175 0.585412 0.572198
0.497169 0.605005 0.596521
0.577325 0.637842 0.645624
0.645411 0.648859 0.646143
0.630152 0.632715 0.612665
0.699947 0.651148 0.618158
0.760586 0.686244 0.637537
0.465461 0.633539 0.571405
0.483955 0.638148 0.579736
0.538018 0.653010 0.606287
0.603113 0.681025 0.648066
0.648859 0.705715 0.681666
0.721248 0.713863 0.657618
0.754025 0.709407 0.641108
0.786893 0.723690 0.642786
0.550469 0.691310 0.600702
0.561852 0.695064 0.609094
0.595422 0.707759 0.635279
0.646784 0.738186 0.688014
0.701534 0.782773 0.756039
0.691127 0.748379 0.708125
0.760891 0.766812 0.672755
0.800320 0.786709 0.671168
0.624048 0.755947 0.661219
0.630823 0.759426 0.668635
0.653315 0.771725 0.693935
0.686946 0.793423 0.735592
0.722072 0.824582 0.788113
0.746517 0.862364 0.834501
0.728054 0.795743 0.746365
0.774411 0.804593 0.705562
0.677241 0.814420 0.721859
0.681270 0.816526 0.727108
0.694453 0.824033 0.745052
0.714443 0.838499 0.775265
0.736110 0.859556 0.815488
0.752590 0.886442 0.857511
0.757565 0.894652 0.864469
0.755642 0.849912 0.798734
0.354589 0.456123 0.659388
0.376318 0.457923 0.665888
0.451575 0.460365 0.687556
0.584283 0.457862 0.724788
0.693904 0.511040 0.725856
0.740932 0.597314 0.695308
0.736751 0.635676 0.664790
0.736965 0.675593 0.674739
0.391028 0.497261 0.655085
0.399817 0.492683 0.661799
0.461738 0.494301 0.683314
0.581201 0.492714 0.720424
0.691829 0.533318 0.727230
0.738552 0.608637 0.697444
0.733669 0.640284 0.665553
0.734127 0.678431 0.675959
0.454078 0.567834 0.637537
0.467964 0.573480 0.646387
0.495338 0.573236 0.672419
0.577966 0.578637 0.710170
0.684321 0.596246 0.731014
0.732784 0.643061 0.705837
0.723812 0.655756 0.669245
0.724483 0.688502 0.680903
0.481178 0.614069 0.629572
0.493904 0.616907 0.632563
0.533776 0.627710 0.643641
0.584802 0.652399 0.692805
0.674067 0.662043 0.737636
0.723049 0.687098 0.717220
0.705562 0.676844 0.674403
0.705806 0.701045 0.686671
0.511223 0.671473 0.648554
0.522637 0.673243 0.651606
0.556634 0.679896 0.662318
0.601038 0.692714 0.681270
0.650935 0.715724 0.721248
0.697322 0.720668 0.718044
0.680659 0.698909 0.682826
0.743313 0.723995 0.698482
0.554131 0.700130 0.649073
0.562829 0.702541 0.653498
0.588312 0.710262 0.667079
0.624353 0.724758 0.689479
0.668482 0.750118 0.724086
0.702541 0.771786 0.754055
0.753597 0.777859 0.733394
0.779232 0.776364 0.720974
0.608057 0.748806 0.671534
0.613947 0.751400 0.675929
0.632624 0.759640 0.690150
0.661128 0.773892 0.713954
0.701259 0.800534 0.761410
0.737057 0.841917 0.820859
0.732113 0.811490 0.780148
0.778439 0.829679 0.755734
0.662196 0.804166 0.712612
0.666529 0.805478 0.716793
0.679988 0.812650 0.733181
0.700984 0.826017 0.761135
0.725093 0.846281 0.798978
0.746609 0.874144 0.844175
0.758297 0.903380 0.880430
0.755520 0.858793 0.819364
0.467994 0.562097 0.726223
0.479683 0.563867 0.731289
0.516716 0.563500 0.745327
0.589044 0.561364 0.769741
0.691341 0.559838 0.800168
0.739528 0.612573 0.776394
0.770321 0.665797 0.755337
0.774868 0.706203 0.742031
0.478920 0.577142 0.719783
0.486305 0.576593 0.724941
0.519371 0.576501 0.739376
0.586236 0.574640 0.764004
0.686702 0.570672 0.796506
0.735958 0.616510 0.773526
0.767849 0.666438 0.752682
0.772580 0.703761 0.738125
0.527062 0.630030 0.710140
0.535027 0.632654 0.715755
0.540887 0.622400 0.730892
0.590326 0.623102 0.756283
0.675990 0.621393 0.789609
0.732937 0.646723 0.779202
0.764767 0.689906 0.760037
0.769192 0.718410 0.744778
0.545220 0.653315 0.685023
0.550713 0.655543 0.688746
0.570886 0.666346 0.707942
0.597436 0.672145 0.742550
0.660731 0.676509 0.779294
0.731258 0.690364 0.793118
0.760067 0.724544 0.772152
0.762600 0.735958 0.750973
0.558556 0.692317 0.695644
0.563287 0.692409 0.696315
0.580163 0.694270 0.700526
0.606836 0.698604 0.709743
0.646204 0.717617 0.755703
0.718196 0.731319 0.795560
0.751553 0.754421 0.779446
0.750607 0.751034 0.753017
0.576074 0.735042 0.712093
0.580896 0.735836 0.713710
0.596826 0.738735 0.719478
0.623072 0.744472 0.730220
0.656977 0.753353 0.746059
0.699825 0.776303 0.784085
0.736385 0.785214 0.785397
0.727230 0.768887 0.758419
0.607324 0.758663 0.712459
0.612116 0.760372 0.715206
0.626398 0.764767 0.723049
0.649775 0.773098 0.737118
0.679744 0.785641 0.757565
0.713466 0.808621 0.788846
0.737209 0.831754 0.817624
0.770108 0.836637 0.802121
0.649561 0.799863 0.730220
0.653101 0.801297 0.732815
0.666773 0.808194 0.744198
0.685908 0.817868 0.760647
0.708827 0.831693 0.783505
0.734554 0.854582 0.821714
0.754330 0.890043 0.870481
0.755581 0.871122 0.844572
0.550835 0.641779 0.787076
0.556542 0.641810 0.789883
0.574914 0.638514 0.797391
0.614923 0.634791 0.812284
0.676875 0.629358 0.832303
0.740352 0.639460 0.844785
0.768704 0.682185 0.823087
0.784329 0.731594 0.807614
0.553491 0.648035 0.783352
0.558434 0.647822 0.786252
0.575891 0.645197 0.794308
0.613489 0.641199 0.809079
0.674006 0.636286 0.829557
0.738399 0.644221 0.843687
0.767422 0.684657 0.822385
0.783566 0.733486 0.807553
0.577966 0.678828 0.774411
0.578149 0.676295 0.777279
0.580804 0.666316 0.785885
0.614130 0.666133 0.803220
0.668147 0.662470 0.824369
0.733639 0.665461 0.843229
0.764370 0.700740 0.824765
0.781338 0.746395 0.811673
0.585260 0.696803 0.755032
0.589410 0.698634 0.758999
0.602869 0.702754 0.771176
0.615961 0.697444 0.791592
0.659754 0.698268 0.815366
0.725154 0.700893 0.843015
0.760037 0.727993 0.831022
0.778012 0.768734 0.820066
0.594903 0.719722 0.745754
0.598291 0.720089 0.746883
0.607324 0.718776 0.748165
0.623224 0.723079 0.763455
0.651545 0.730770 0.797971
0.705959 0.738338 0.831052
0.755886 0.758633 0.842344
0.773526 0.792905 0.828611
0.605615 0.755825 0.757443
0.607874 0.755398 0.757565
0.616388 0.754543 0.758938
0.631952 0.754025 0.762631
0.655055 0.754513 0.769589
0.692683 0.775051 0.812985
0.748013 0.800351 0.852384
0.768307 0.823606 0.841215
0.622919 0.795468 0.773953
0.625238 0.795743 0.774777
0.633753 0.796933 0.777890
0.650416 0.799100 0.783719
0.674220 0.803586 0.793454
0.702846 0.812406 0.808560
0.732143 0.831876 0.839750
0.759609 0.848234 0.847776
0.653712 0.817014 0.775113
0.655818 0.817380 0.776059
0.663813 0.819455 0.780270
0.678645 0.824399 0.789151
0.698390 0.832364 0.802609
0.720333 0.844450 0.820951
0.742031 0.864378 0.846921
0.755856 0.887510 0.873381
