data/fiter_cube/25649002/1023280/file.cube
# Created by Adobe Lightroom plugin Export LUT (1.17.0)
# www.johnrellis.com/lightroom/exportlut.htm
# Preset: 高级电影质感情绪胶片_10 云集
# Color profile: C:\Program Files (x86)\Common Files\Adobe\Color\Profiles\Recommended\AdobeRGB1998.icc
LUT_3D_SIZE 5
DOMAIN_MIN 0.000000 0.000000 0.000000
DOMAIN_MAX 0.903226 0.903226 0.903226
0.067170 0.076387 0.088075
0.268284 0.100465 0.092012
0.608881 0.210788 0.098146
0.747372 0.414313 0.209049
0.819181 0.583368 0.385809
0.130190 0.212863 0.147707
0.247562 0.248173 0.172274
0.689326 0.373327 0.000000
0.771664 0.462928 0.165255
0.828122 0.598138 0.362585
0.447242 0.602564 0.440192
0.554437 0.651728 0.554284
0.572351 0.591730 0.449897
0.795712 0.634607 0.220188
0.851072 0.654719 0.248020
0.619715 0.742947 0.632715
0.651850 0.761044 0.671046
0.714412 0.810575 0.749386
0.686366 0.723323 0.623011
0.810605 0.759762 0.519310
0.697566 0.830259 0.734401
0.711177 0.838651 0.757290
0.741543 0.866606 0.820371
0.755795 0.892302 0.852415
0.756588 0.835203 0.758114
0.041596 0.107576 0.211032
0.361364 0.062867 0.265354
0.526604 0.325536 0.307134
0.707454 0.471107 0.366613
0.799619 0.606500 0.474159
0.136995 0.248753 0.229404
0.330419 0.362554 0.348760
0.627832 0.429664 0.317357
0.735561 0.509331 0.358251
0.808988 0.619074 0.460883
0.434455 0.589990 0.448249
0.541711 0.640406 0.555932
0.581781 0.613306 0.517449
0.784848 0.659327 0.388647
0.834104 0.674647 0.411627
0.615625 0.738277 0.634485
0.647669 0.756374 0.671809
0.713527 0.808133 0.756161
0.688991 0.730465 0.644068
0.807767 0.768521 0.558892
0.694179 0.827756 0.731991
0.708095 0.836088 0.754513
0.740291 0.865171 0.818875
0.756069 0.894194 0.857786
0.756497 0.838682 0.767514
0.129152 0.263706 0.513420
0.342138 0.260197 0.577081
0.662348 0.420050 0.567895
0.613794 0.538170 0.527459
0.742092 0.649805 0.610651
0.313603 0.430488 0.485298
0.394842 0.465461 0.561761
0.646876 0.531243 0.591119
0.614588 0.565423 0.545006
0.755520 0.658747 0.609827
0.406256 0.584527 0.519341
0.484901 0.609308 0.557458
0.614588 0.668452 0.641810
0.726375 0.673610 0.602838
0.790799 0.701930 0.608240
0.585046 0.714321 0.617365
0.617578 0.730983 0.651392
0.697078 0.786191 0.746914
0.698146 0.752285 0.698726
0.801450 0.791897 0.650629
0.682643 0.818540 0.725246
0.695949 0.826261 0.743954
0.730190 0.853239 0.801205
0.755337 0.893278 0.863127
0.755734 0.846281 0.789853
0.384436 0.483772 0.675563
0.444892 0.486488 0.694667
0.651331 0.484749 0.753933
0.749630 0.615900 0.711330
0.749111 0.682551 0.689601
0.463996 0.571984 0.661738
0.483680 0.565789 0.683467
0.639185 0.570123 0.745998
0.744106 0.645594 0.717800
0.741970 0.689662 0.691127
0.508843 0.648432 0.649989
0.541283 0.654871 0.658198
0.616785 0.683772 0.713802
0.724025 0.708553 0.729335
0.711116 0.712490 0.699397
0.570794 0.715785 0.666590
0.591791 0.721859 0.677455
0.649348 0.745235 0.714046
0.712795 0.786984 0.770565
0.776883 0.790158 0.740597
0.657099 0.804227 0.714382
0.670314 0.809171 0.726467
0.709255 0.831662 0.774838
0.748928 0.878325 0.851377
0.755489 0.861418 0.825071
0.550835 0.641779 0.787076
0.568536 0.639429 0.794827
0.643427 0.632288 0.821775
0.750759 0.648798 0.843412
0.784329 0.731594 0.807614
0.571740 0.670985 0.777981
0.575586 0.662135 0.786923
0.639490 0.657343 0.815274
0.745937 0.667079 0.842130
0.782071 0.743191 0.810849
0.590906 0.703395 0.741390
0.598596 0.706752 0.752132
0.632319 0.712245 0.793210
0.731777 0.720027 0.843168
0.775906 0.779904 0.823819
0.611231 0.767453 0.763180
0.619471 0.766873 0.764614
0.648524 0.767300 0.772457
0.703487 0.788540 0.818814
0.766690 0.830411 0.843626
0.653712 0.817014 0.775113
0.661158 0.818723 0.778805
0.688075 0.828000 0.795315
0.725856 0.848447 0.826566
0.755856 0.887510 0.873381
