data/fiter_cube/89350833/1022871/file.cube
# Created by Adobe Lightroom plugin Export LUT (1.24.0)
# www.johnrellis.com/lightroom/exportlut.htm
# Preset: 婚礼接亲预设[余晖]-1 妆后人像
# Color profile: C:\Windows\System32\Spool\Drivers\Color\AppleRGB.icc
LUT_3D_SIZE 8
DOMAIN_MIN 0.000000 0.000000 0.000000
DOMAIN_MAX 0.903226 0.903226 0.903226
0.006104 0.073671 0.079744
0.040650 0.071656 0.076143
0.204074 0.065187 0.072023
0.514702 0.000000 0.061555
0.750393 0.000000 0.045533
0.884398 0.070466 0.045075
0.988556 0.228580 0.107790
1.000000 0.339605 0.214176
0.025116 0.090608 0.096864
0.052705 0.107393 0.081209
0.355261 0.168643 0.030640
0.628016 0.174258 0.000000
0.794827 0.193057 0.000000
0.907500 0.237308 0.000000
0.984375 0.300908 0.070649
1.000000 0.374762 0.188052
0.212039 0.267796 0.271214
0.198489 0.255192 0.259312
0.353948 0.368444 0.137972
0.712459 0.441688 0.000000
0.877501 0.480079 0.000000
0.952789 0.471595 0.000000
1.000000 0.490150 0.113283
1.000000 0.513725 0.240269
0.534997 0.537316 0.567651
0.522759 0.527794 0.555169
0.513634 0.542260 0.521080
0.680415 0.622339 0.440375
0.845670 0.625940 0.380713
0.935271 0.638636 0.369055
1.000000 0.649104 0.352911
1.000000 0.637873 0.356725
0.661616 0.636622 0.700984
0.656031 0.632136 0.695003
0.646967 0.624964 0.685389
0.666407 0.659663 0.661585
0.764096 0.697841 0.605341
0.872404 0.698390 0.558679
0.941680 0.714168 0.558404
0.995117 0.726131 0.555840
0.746914 0.707546 0.789212
0.751308 0.711452 0.793576
0.746090 0.706813 0.788388
0.739895 0.704280 0.780545
0.761990 0.737057 0.756283
0.830137 0.766049 0.725185
0.907256 0.769131 0.700221
0.958068 0.782437 0.698299
0.814878 0.771359 0.854582
0.815000 0.771481 0.854704
0.811460 0.767910 0.851438
0.807645 0.764126 0.847898
0.805386 0.772396 0.838193
0.827237 0.797574 0.822171
0.875395 0.819699 0.801205
0.927733 0.820523 0.780179
0.865446 0.825193 0.899382
0.864958 0.824674 0.898955
0.864500 0.824125 0.898558
0.865354 0.825132 0.899290
0.856840 0.815610 0.892058
0.861479 0.833677 0.885832
0.881010 0.854490 0.875700
0.913848 0.869505 0.859586
0.002594 0.071656 0.078218
0.051362 0.066194 0.095857
0.190372 0.050202 0.089174
0.467872 0.000000 0.092683
0.717861 0.000000 0.080293
0.866300 0.109834 0.069062
0.966033 0.222019 0.079622
1.000000 0.310307 0.167605
0.028779 0.096345 0.102724
0.076631 0.121340 0.114168
0.304448 0.139071 0.108309
0.577874 0.140505 0.091829
0.763729 0.175265 0.072053
0.882261 0.235569 0.068788
0.963317 0.293889 0.083925
1.000000 0.354528 0.150332
0.231052 0.285130 0.287755
0.237675 0.291234 0.293553
0.370520 0.372839 0.199649
0.694972 0.441199 0.154482
0.838987 0.459327 0.139071
0.915648 0.452399 0.153811
0.979187 0.465644 0.184634
1.000000 0.490394 0.229007
0.515526 0.522118 0.547784
0.507195 0.515618 0.539422
0.494331 0.519890 0.513420
0.644251 0.591638 0.421057
0.807950 0.595300 0.370397
0.905028 0.614832 0.373693
0.974151 0.625696 0.369238
1.000000 0.618585 0.376593
0.659510 0.634913 0.698695
0.652552 0.629358 0.691310
0.640436 0.619776 0.678431
0.650324 0.645228 0.651209
0.746914 0.681971 0.594079
0.856962 0.686519 0.559899
0.929290 0.705806 0.566888
0.985168 0.719814 0.566400
0.741695 0.702968 0.783993
0.740200 0.701656 0.782467
0.735988 0.698024 0.778225
0.731228 0.694087 0.773342
0.754177 0.729274 0.752255
0.825223 0.760891 0.726162
0.901213 0.764889 0.704494
0.952483 0.777554 0.700557
0.806760 0.763272 0.847044
0.804227 0.760769 0.844694
0.800656 0.757259 0.841367
0.798489 0.755154 0.839322
0.798398 0.764157 0.832944
0.820127 0.790066 0.816953
0.868162 0.810941 0.793515
0.921996 0.810605 0.770565
0.861906 0.821286 0.896391
0.861936 0.821286 0.896422
0.861418 0.820706 0.895964
0.862425 0.821836 0.896818
0.861479 0.820798 0.896025
0.862608 0.834073 0.888060
0.879545 0.852659 0.875853
0.912352 0.867552 0.859403
0.033692 0.098817 0.111940
0.055879 0.119387 0.127840
0.340764 0.000000 0.259068
0.621759 0.000000 0.208133
0.698360 0.000000 0.168978
0.830381 0.116304 0.211826
0.936950 0.264225 0.255802
1.000000 0.355169 0.299290
0.082826 0.151217 0.169680
0.125216 0.184146 0.196262
0.427039 0.000000 0.291325
0.569909 0.000000 0.209659
0.705287 0.157839 0.224613
0.844663 0.257511 0.249699
0.935393 0.333318 0.277043
1.000000 0.397009 0.313054
0.242161 0.303563 0.304387
0.310277 0.356359 0.356970
0.453040 0.420844 0.366400
0.674250 0.457008 0.379034
0.790555 0.462745 0.374640
0.874601 0.473701 0.374975
0.942901 0.490791 0.383246
0.998871 0.513787 0.401434
0.551751 0.550378 0.584894
0.568261 0.563256 0.602106
0.564721 0.560510 0.598413
0.667201 0.610407 0.548180
0.803647 0.631556 0.548394
0.889738 0.652216 0.555749
0.942412 0.642451 0.541497
0.989044 0.637903 0.531945
0.674983 0.647303 0.715114
0.680415 0.651728 0.720882
0.673762 0.646326 0.713802
0.676326 0.660060 0.698024
0.760891 0.695766 0.661128
0.855131 0.704494 0.644831
0.920897 0.722408 0.651026
0.974701 0.735622 0.648157
0.752651 0.712612 0.794919
0.755703 0.715297 0.797940
0.750088 0.710292 0.792325
0.743099 0.704219 0.785397
0.758022 0.730587 0.768765
0.825803 0.762081 0.747616
0.897978 0.770779 0.738125
0.948882 0.786435 0.740505
0.816770 0.773251 0.856321
0.817411 0.773892 0.856931
0.812680 0.769162 0.852567
0.808286 0.764767 0.848478
0.804807 0.766171 0.842679
0.824491 0.793606 0.829679
0.873259 0.817624 0.813016
0.927092 0.820310 0.799191
0.865171 0.824887 0.899138
0.865965 0.825803 0.899809
0.865019 0.824704 0.899016
0.866758 0.826688 0.900511
0.865660 0.825467 0.899565
0.866728 0.836332 0.894560
0.882567 0.855863 0.883726
0.914641 0.871122 0.868894
0.114595 0.172702 0.200137
0.155612 0.208713 0.230228
0.263371 0.202243 0.327733
0.678706 0.000000 0.490822
0.862852 0.000000 0.403754
0.897215 0.000000 0.326513
0.922606 0.129915 0.325353
0.951843 0.339025 0.403662
0.196201 0.253025 0.282689
0.243442 0.291356 0.312139
0.345495 0.319188 0.397833
0.710414 0.000000 0.516258
0.837797 0.000000 0.412329
0.859892 0.127016 0.349798
0.876524 0.297704 0.378820
0.951812 0.391180 0.428687
0.266545 0.337377 0.356237
0.311864 0.369299 0.389075
0.474586 0.489143 0.507652
0.694575 0.383948 0.538903
0.735958 0.404211 0.471168
0.804227 0.454322 0.487922
0.891844 0.493965 0.513115
0.960235 0.518212 0.523186
0.541100 0.548730 0.581262
0.568872 0.567071 0.606287
0.609308 0.595270 0.645319
0.678187 0.617700 0.637140
0.774777 0.632044 0.643519
0.841642 0.626764 0.630091
0.902922 0.626307 0.620813
0.958434 0.629541 0.614954
0.691981 0.661128 0.732998
0.695247 0.663813 0.736416
0.703578 0.670649 0.745052
0.699611 0.669825 0.739193
0.768643 0.702785 0.718105
0.854551 0.722438 0.721767
0.915465 0.739590 0.726833
0.958953 0.733242 0.710170
0.766140 0.724758 0.808225
0.772366 0.730465 0.814298
0.776303 0.734066 0.818112
0.770535 0.728786 0.812528
0.774594 0.742184 0.801236
0.832639 0.770138 0.782742
0.898283 0.781186 0.778134
0.946136 0.795651 0.780392
0.821530 0.778073 0.860685
0.823636 0.780240 0.862577
0.828031 0.784756 0.866575
0.825681 0.782345 0.864469
0.820493 0.777066 0.859770
0.832578 0.800595 0.848478
0.877592 0.823362 0.832395
0.928130 0.828183 0.823667
0.869535 0.829862 0.902831
0.871275 0.831846 0.904295
0.875273 0.836454 0.907652
0.875273 0.836454 0.907622
0.873381 0.834226 0.906035
0.872374 0.838315 0.902953
0.885954 0.859373 0.893492
0.917693 0.875853 0.881071
0.261265 0.304967 0.343023
0.306645 0.342962 0.373144
0.395117 0.422431 0.434363
0.550103 0.272862 0.567803
0.842466 0.000000 0.653162
0.983307 0.000000 0.578973
0.999634 0.000000 0.497261
1.000000 0.214664 0.480934
0.332097 0.370459 0.406561
0.374609 0.403540 0.434333
0.457191 0.472175 0.493751
0.580011 0.381048 0.603021
0.840543 0.114504 0.666255
0.955383 0.000000 0.585840
0.969940 0.197940 0.517266
0.991028 0.316533 0.505425
0.408484 0.445289 0.484291
0.460914 0.481422 0.521263
0.541497 0.539818 0.581109
0.620233 0.529564 0.654200
0.814481 0.398566 0.677913
0.870024 0.387427 0.596216
0.900267 0.413947 0.553521
0.930297 0.457649 0.554284
0.512230 0.535515 0.574609
0.533593 0.548791 0.591608
0.576959 0.575586 0.627192
0.665003 0.630854 0.705989
0.756558 0.582818 0.686397
0.782925 0.568505 0.642969
0.846555 0.576318 0.639918
0.918608 0.587335 0.642329
0.666712 0.645655 0.711879
0.679957 0.654932 0.724208
0.707729 0.674952 0.750179
0.722957 0.686885 0.765011
0.769650 0.701869 0.755520
0.836912 0.712917 0.758267
0.886168 0.705501 0.744564
0.935943 0.701442 0.732387
0.759670 0.718868 0.801846
0.761929 0.720912 0.804074
0.765377 0.724025 0.807462
0.771878 0.729976 0.813809
0.766812 0.728023 0.807126
0.827512 0.763882 0.801663
0.895598 0.786007 0.810086
0.942931 0.800229 0.812406
0.822324 0.778897 0.861418
0.822568 0.779141 0.861631
0.824918 0.781582 0.863767
0.832578 0.789456 0.870665
0.830320 0.787137 0.868650
0.832731 0.798337 0.859861
0.876249 0.821958 0.845731
0.925536 0.828672 0.838895
0.866758 0.826688 0.900511
0.868070 0.828153 0.901579
0.871000 0.831510 0.904051
0.878935 0.840665 0.910643
0.879667 0.841550 0.911284
0.877256 0.838712 0.909300
0.885740 0.858366 0.900725
0.917082 0.875334 0.888487
0.450507 0.463905 0.515892
0.479683 0.486488 0.536400
0.534081 0.530510 0.575708
0.596612 0.561303 0.641718
0.728939 0.394690 0.730404
0.923186 0.139590 0.764950
1.000000 0.000000 0.712398
1.000000 0.000000 0.641047
0.477089 0.487922 0.541588
0.502586 0.506615 0.558862
0.557977 0.550103 0.600610
0.617609 0.590784 0.659419
0.725307 0.453681 0.733669
0.907652 0.269718 0.763607
1.000000 0.000000 0.711666
1.000000 0.228855 0.650019
0.544579 0.546929 0.609766
0.566491 0.561700 0.624750
0.612268 0.594720 0.658839
0.665309 0.638880 0.705318
0.734646 0.561028 0.756588
0.884642 0.456367 0.776486
0.967437 0.400275 0.726375
0.994385 0.432776 0.681086
0.533776 0.550988 0.611780
0.565362 0.570825 0.634943
0.640742 0.621729 0.694667
0.704707 0.670283 0.748806
0.758694 0.655116 0.792691
0.876402 0.588891 0.799222
0.913237 0.571008 0.749142
0.947753 0.566400 0.715602
0.648981 0.638392 0.707790
0.656855 0.643458 0.714351
0.674128 0.654475 0.728695
0.697200 0.669154 0.748013
0.761776 0.711482 0.804440
0.823667 0.671992 0.784176
0.847288 0.654200 0.750179
0.897459 0.659480 0.747860
0.743801 0.710109 0.791348
0.752804 0.717250 0.799374
0.767788 0.729122 0.812375
0.789212 0.746792 0.830961
0.797116 0.753811 0.838010
0.835752 0.771603 0.836423
0.889006 0.784390 0.841184
0.928130 0.775937 0.828885
0.833188 0.790158 0.871244
0.835874 0.792996 0.873655
0.839658 0.796994 0.877043
0.844968 0.802670 0.881712
0.849882 0.807980 0.885985
0.844175 0.803128 0.880461
0.881804 0.828580 0.871214
0.929839 0.842954 0.872404
0.870878 0.831388 0.903960
0.871763 0.832395 0.904723
0.874571 0.835630 0.907042
0.880461 0.842466 0.911955
0.886564 0.849607 0.916899
0.886564 0.849668 0.916930
0.888945 0.859892 0.911986
0.919310 0.878996 0.902190
0.575097 0.563592 0.636439
0.593194 0.577295 0.649866
0.625177 0.602411 0.673426
0.664729 0.636622 0.706477
0.704005 0.606195 0.756222
0.820676 0.461524 0.811612
0.965423 0.279850 0.828794
1.000000 0.000000 0.790158
0.585168 0.572961 0.646845
0.601862 0.585260 0.659022
0.632837 0.609155 0.681880
0.671412 0.641871 0.713954
0.707362 0.622705 0.758724
0.812619 0.494057 0.808743
0.951843 0.339483 0.824155
1.000000 0.000000 0.785489
0.617578 0.601801 0.681300
0.631037 0.611170 0.690700
0.659876 0.632227 0.711910
0.697658 0.663020 0.742550
0.730068 0.668482 0.778775
0.811490 0.574273 0.819852
0.934386 0.476600 0.833982
1.000000 0.333379 0.801205
0.629084 0.617151 0.699855
0.647181 0.629267 0.713558
0.676661 0.649042 0.734249
0.719753 0.682124 0.767849
0.761837 0.720790 0.803983
0.816007 0.651972 0.836851
0.922850 0.582116 0.846677
0.992157 0.530907 0.813596
0.640528 0.633783 0.713039
0.641993 0.633753 0.713313
0.646174 0.634028 0.714961
0.715785 0.682765 0.770840
0.768826 0.726009 0.812711
0.813504 0.712245 0.846250
0.910582 0.658045 0.852049
0.949920 0.641596 0.819547
0.728176 0.702998 0.786984
0.731624 0.705287 0.789670
0.739895 0.710842 0.795987
0.752499 0.719478 0.805661
0.768002 0.729946 0.817502
0.826688 0.778012 0.866026
0.879484 0.741512 0.854185
0.906859 0.722988 0.828824
0.804135 0.766690 0.849760
0.808438 0.770535 0.853330
0.818112 0.779049 0.861112
0.832670 0.792477 0.872862
0.850584 0.809567 0.887144
0.860288 0.819394 0.894957
0.885496 0.832059 0.892607
0.925200 0.838987 0.892210
0.871519 0.832792 0.904845
0.874540 0.835935 0.907225
0.881163 0.843259 0.912505
0.886687 0.849760 0.917021
0.892668 0.856962 0.921874
0.898833 0.864378 0.926757
0.897215 0.862455 0.925505
0.921874 0.883482 0.919127
0.672816 0.641657 0.734188
0.681849 0.648463 0.740505
0.697505 0.660822 0.750607
0.721431 0.681697 0.768307
0.746212 0.706905 0.788571
0.785153 0.641352 0.830747
0.891386 0.516594 0.872313
1.000000 0.364111 0.880949
0.676631 0.645563 0.738643
0.685115 0.651942 0.744503
0.701991 0.665034 0.755703
0.725704 0.685389 0.772976
0.751339 0.710933 0.793851
0.785916 0.655451 0.831998
0.885405 0.539239 0.870756
0.995880 0.404242 0.879118
0.688258 0.657160 0.752529
0.696193 0.662867 0.757687
0.713191 0.675532 0.768582
0.739651 0.697719 0.788144
0.765103 0.722469 0.808072
0.791714 0.689021 0.838163
0.878111 0.591608 0.873075
0.980957 0.488411 0.880888
0.695186 0.666957 0.764584
0.703517 0.672602 0.770047
0.723049 0.686488 0.782467
0.751186 0.708797 0.802121
0.780636 0.735958 0.824369
0.804929 0.734005 0.850004
0.873564 0.656245 0.880552
0.968811 0.576898 0.887999
0.671656 0.656794 0.752560
0.685512 0.665827 0.762356
0.716670 0.686976 0.784268
0.748898 0.710079 0.805997
0.786099 0.741360 0.832364
0.820981 0.777523 0.860166
0.868040 0.718227 0.887510
0.957641 0.658106 0.896147
0.730373 0.707698 0.800076
0.730159 0.706935 0.799527
0.730098 0.705257 0.798489
0.731136 0.703365 0.797971
0.781949 0.741665 0.835080
0.831815 0.787533 0.871733
0.872648 0.788083 0.902068
0.950195 0.739895 0.908324
0.805234 0.773617 0.858915
0.806699 0.774655 0.859892
0.810086 0.777157 0.862150
0.815885 0.781430 0.866056
0.822904 0.786465 0.870726
0.830655 0.791379 0.875608
0.881407 0.843534 0.912718
0.928923 0.807950 0.910124
0.855802 0.821378 0.896178
0.857664 0.823117 0.897551
0.862730 0.827939 0.901152
0.871153 0.836301 0.907286
0.883055 0.848539 0.915953
0.897429 0.864012 0.926390
0.910063 0.878264 0.935576
0.924743 0.887968 0.935882
