data/fiter_cube/89350833/1022871/file.cube
# Created by Adobe Lightroom plugin Export LUT (1.24.0)
# www.johnrellis.com/lightroom/exportlut.htm
# Preset: 婚礼接亲预设[余晖]-1 妆后人像
# Color profile: C:\Windows\System32\Spool\Drivers\Color\AppleRGB.icc
LUT_3D_SIZE 5
DOMAIN_MIN 0.000000 0.000000 0.000000
DOMAIN_MAX 0.903226 0.903226 0.903226
0.006104 0.073671 0.079744
0.147219 0.070741 0.073213
0.649744 0.000000 0.053834
0.919677 0.121035 0.055604
1.000000 0.339605 0.214176
0.148959 0.208652 0.214908
0.263981 0.293217 0.113741
0.814694 0.423957 0.000000
0.969482 0.428443 0.000000
1.000000 0.488960 0.243107
0.607446 0.593835 0.643397
0.582879 0.574640 0.617426
0.728206 0.664424 0.535454
0.919646 0.673548 0.468482
1.000000 0.691218 0.447547
0.771725 0.729854 0.813657
0.768032 0.726467 0.810086
0.763851 0.734188 0.795895
0.843870 0.781643 0.749020
0.949981 0.791836 0.720668
0.865446 0.825193 0.899382
0.864439 0.824094 0.898528
0.857053 0.815824 0.892210
0.865019 0.839292 0.883757
0.913848 0.869505 0.859586
0.021302 0.086549 0.097017
0.233310 0.000000 0.198215
0.588708 0.000000 0.140352
0.867552 0.152804 0.182254
1.000000 0.330907 0.240726
0.165957 0.231540 0.236088
0.346929 0.332891 0.280125
0.733852 0.385626 0.277440
0.899901 0.419928 0.286259
1.000000 0.477363 0.333806
0.611994 0.597406 0.648219
0.608850 0.594934 0.644862
0.709163 0.648188 0.576196
0.890074 0.675868 0.568780
0.990082 0.694453 0.576074
0.780392 0.737881 0.822049
0.778042 0.735744 0.819821
0.770169 0.734524 0.808072
0.843076 0.781491 0.768307
0.944640 0.795682 0.750759
0.869749 0.830137 0.903044
0.868589 0.828794 0.902037
0.867369 0.827420 0.900999
0.870359 0.843412 0.892454
0.916747 0.874022 0.871092
0.181125 0.233280 0.267765
0.294347 0.337591 0.345190
0.774594 0.000000 0.578637
0.949737 0.000000 0.427802
0.985626 0.257420 0.416571
0.322789 0.374884 0.406195
0.458564 0.474098 0.498543
0.781857 0.315831 0.619715
0.857847 0.357000 0.487465
0.929625 0.474189 0.532006
0.609949 0.601251 0.652216
0.655329 0.632197 0.694911
0.726772 0.661433 0.700710
0.850187 0.669673 0.695979
0.946166 0.668177 0.680446
0.783627 0.740932 0.825193
0.787198 0.744289 0.828580
0.787961 0.745083 0.829374
0.844450 0.783627 0.806332
0.938415 0.802457 0.799771
0.866331 0.826200 0.900114
0.870573 0.831022 0.903716
0.875944 0.837186 0.908202
0.873533 0.841062 0.902770
0.916075 0.873716 0.882444
0.474922 0.483650 0.539544
0.538384 0.533227 0.584741
0.641108 0.542260 0.691707
0.932769 0.169162 0.778714
1.000000 0.000000 0.673640
0.540307 0.541314 0.604364
0.593256 0.579370 0.642573
0.676600 0.618647 0.724605
0.899870 0.410437 0.782620
1.000000 0.347265 0.692744
0.575219 0.583520 0.646326
0.594202 0.592859 0.659480
0.722011 0.685115 0.765469
0.871489 0.605310 0.796872
0.930541 0.592676 0.731930
0.763882 0.728084 0.811093
0.777127 0.738643 0.822293
0.812467 0.769009 0.852415
0.849058 0.786893 0.851774
0.924681 0.787350 0.841733
0.871458 0.832059 0.904448
0.876341 0.837644 0.908507
0.886564 0.849607 0.916899
0.889647 0.853300 0.919402
0.918822 0.878508 0.904631
0.672816 0.641657 0.734188
0.692683 0.656947 0.747341
0.734066 0.693904 0.778317
0.804776 0.617914 0.841306
1.000000 0.364111 0.880949
0.687190 0.655634 0.750637
0.707118 0.670344 0.763607
0.750179 0.707668 0.795315
0.806912 0.661982 0.846799
0.985504 0.472724 0.882017
0.689479 0.665705 0.763180
0.714351 0.682307 0.779507
0.764614 0.721126 0.813504
0.815091 0.738125 0.858427
0.962402 0.615351 0.890684
0.753658 0.727565 0.818936
0.755184 0.727443 0.819333
0.759884 0.727169 0.821103
0.845640 0.802426 0.883391
0.947723 0.756100 0.909789
0.855802 0.821378 0.896178
0.861143 0.826413 0.899992
0.876829 0.842100 0.911437
0.901488 0.868437 0.929290
0.924743 0.887968 0.935882
