data/fiter_cube/89350833/1022871/file.cube
# Created by Adobe Lightroom plugin Export LUT (1.24.0)
# www.johnrellis.com/lightroom/exportlut.htm
# Preset: 婚礼接亲预设[余晖]-1 妆后人像
# Color profile: C:\Windows\System32\Spool\Drivers\Color\AppleRGB.icc
LUT_3D_SIZE 32
DOMAIN_MIN 0.0 0.0 0.0
DOMAIN_MAX 1.0 1.0 1.0
0.006104 0.073671 0.079744
0.000000 0.073091 0.079255
0.000000 0.071870 0.078065
0.018738 0.071229 0.076936
0.040650 0.071656 0.076143
0.067292 0.072206 0.075349
0.101991 0.072450 0.074464
0.147219 0.070741 0.073213
0.204074 0.065187 0.072023
0.273228 0.052796 0.070253
0.351415 0.025086 0.068025
0.434424 0.000000 0.065278
0.514702 0.000000 0.061555
0.586938 0.000000 0.058015
0.649744 0.000000 0.053834
0.704097 0.000000 0.049653
0.750393 0.000000 0.045533
0.789548 0.000000 0.042512
0.823331 0.000000 0.041169
0.853300 0.000000 0.041260
0.884398 0.070466 0.045075
0.919677 0.121035 0.055604
0.947753 0.162112 0.070100
0.970214 0.197208 0.087739
0.988556 0.228580 0.107790
1.000000 0.257084 0.130465
1.000000 0.284520 0.155276
1.000000 0.311681 0.182956
1.000000 0.339605 0.214176
1.000000 0.368627 0.250248
1.000000 0.398962 0.290654
1.000000 0.430762 0.335912
0.003296 0.071351 0.077485
0.002106 0.071015 0.077852
0.000000 0.071412 0.078096
0.023011 0.072694 0.076692
0.045594 0.074189 0.075654
0.073060 0.075807 0.074617
0.109071 0.076478 0.073548
0.155306 0.075563 0.072053
0.212955 0.070893 0.070558
0.282139 0.059907 0.068360
0.359716 0.039155 0.065736
0.440925 0.000000 0.062440
0.519280 0.000000 0.058534
0.589563 0.000000 0.054322
0.650690 0.000000 0.049897
0.703944 0.000000 0.044953
0.749203 0.000000 0.040436
0.787900 0.000000 0.036927
0.821164 0.000000 0.035126
0.850645 0.043305 0.035248
0.882841 0.086793 0.039368
0.916014 0.128603 0.049622
0.942657 0.164492 0.063203
0.964324 0.196048 0.079652
0.982330 0.224552 0.098482
0.997742 0.251102 0.119417
1.000000 0.277195 0.142489
1.000000 0.303349 0.169009
1.000000 0.330510 0.199435
1.000000 0.359075 0.234104
1.000000 0.388983 0.273655
1.000000 0.420447 0.317967
0.002564 0.070893 0.076936
0.002564 0.070893 0.076936
0.007141 0.072328 0.076204
0.028717 0.076631 0.075349
0.059632 0.084535 0.073426
0.092409 0.088380 0.071809
0.133394 0.090120 0.070039
0.184115 0.090150 0.067750
0.246586 0.087007 0.065217
0.318975 0.078889 0.061952
0.396948 0.065705 0.058076
0.475257 0.046937 0.053407
0.548608 0.021912 0.047883
0.613336 0.000000 0.041901
0.669306 0.000000 0.035248
0.718013 0.000000 0.028321
0.759548 0.031189 0.021210
0.795193 0.053864 0.015595
0.826474 0.075624 0.011902
0.854795 0.098329 0.011322
0.889372 0.130312 0.022950
0.919585 0.162081 0.036774
0.943999 0.190372 0.053742
0.964416 0.216739 0.071626
0.981476 0.241245 0.091035
0.996368 0.264103 0.112184
1.000000 0.287541 0.135744
1.000000 0.311406 0.162051
1.000000 0.336706 0.192477
1.000000 0.363775 0.226871
1.000000 0.392584 0.266361
1.000000 0.422919 0.310674
0.011414 0.077211 0.083375
0.011414 0.077211 0.083375
0.008698 0.078126 0.082368
0.026947 0.084627 0.077180
0.060090 0.091890 0.073487
0.106874 0.104402 0.069093
0.173831 0.118074 0.062257
0.234379 0.120424 0.057893
0.303471 0.119600 0.052827
0.379400 0.116701 0.045624
0.455329 0.111940 0.037049
0.526604 0.105715 0.028077
0.591302 0.102327 0.014923
0.647669 0.101595 0.000000
0.696803 0.104768 0.000000
0.738949 0.110475 0.000000
0.775326 0.119020 0.000000
0.807187 0.128939 0.000000
0.835080 0.139803 0.000000
0.865782 0.157595 0.000000
0.896330 0.179904 0.000000
0.922698 0.202640 0.000000
0.945190 0.224582 0.034211
0.964752 0.245975 0.058503
0.981903 0.266850 0.081422
0.997040 0.287907 0.105653
1.000000 0.309545 0.131380
1.000000 0.331762 0.160128
1.000000 0.354986 0.191745
1.000000 0.379583 0.226902
1.000000 0.405188 0.265537
1.000000 0.431922 0.307408
0.025116 0.090608 0.096864
0.024781 0.090486 0.096773
0.024720 0.089937 0.096315
0.025238 0.095674 0.090944
0.052705 0.107393 0.081209
0.102174 0.116732 0.073121
0.166537 0.133333 0.065339
0.252018 0.150698 0.052949
0.355261 0.168643 0.030640
0.433387 0.170596 0.007660
0.503960 0.169863 0.000000
0.569512 0.171084 0.000000
0.628016 0.174258 0.000000
0.679622 0.178805 0.000000
0.724697 0.184848 0.000000
0.762295 0.188510 0.000000
0.794827 0.193057 0.000000
0.823209 0.198520 0.000000
0.852293 0.208194 0.000000
0.881621 0.222354 0.000000
0.907500 0.237308 0.000000
0.930419 0.252750 0.000000
0.950500 0.268467 0.000000
0.968383 0.284459 0.040986
0.984375 0.300908 0.070649
0.998657 0.317693 0.098268
1.000000 0.335821 0.126131
1.000000 0.354681 0.155947
1.000000 0.374762 0.188052
1.000000 0.396277 0.223239
1.000000 0.419165 0.261631
1.000000 0.443397 0.303288
0.047639 0.112825 0.119387
0.047425 0.112490 0.119112
0.046601 0.111666 0.118379
0.045075 0.111543 0.116274
0.053620 0.126833 0.103426
0.096040 0.145113 0.087709
0.165164 0.154971 0.073579
0.250340 0.177127 0.059113
0.351659 0.200107 0.035950
0.457496 0.224338 0.000000
0.556115 0.250187 0.000000
0.618433 0.254704 0.000000
0.668482 0.254368 0.000000
0.712520 0.255741 0.000000
0.750881 0.257603 0.000000
0.784421 0.260288 0.000000
0.813962 0.263493 0.000000
0.845151 0.271489 0.000000
0.873716 0.280735 0.000000
0.898558 0.288670 0.000000
0.921080 0.297734 0.000000
0.941497 0.308263 0.000000
0.996521 0.371435 0.064790
1.000000 0.384222 0.102266
1.000000 0.396948 0.134920
1.000000 0.409735 0.166476
1.000000 0.422766 0.197391
1.000000 0.436927 0.229557
1.000000 0.451881 0.262699
1.000000 0.468360 0.298253
1.000000 0.485756 0.335332
1.000000 0.503899 0.373541
0.097780 0.160281 0.167056
0.096864 0.159365 0.166201
0.095216 0.157748 0.164584
0.092622 0.155337 0.162173
0.089967 0.165927 0.150851
0.114382 0.191531 0.128359
0.181460 0.220645 0.099672
0.275242 0.230808 0.073487
0.386694 0.258061 0.042664
0.491554 0.286839 0.000000
0.584375 0.313695 0.000000
0.663233 0.337774 0.000000
0.726955 0.356878 0.000000
0.765133 0.355200 0.000000
0.794400 0.349218 0.000000
0.823941 0.347875 0.000000
0.854917 0.351415 0.000000
0.881498 0.354986 0.000000
0.905608 0.359777 0.000000
0.928466 0.366766 0.000000
0.950500 0.375677 0.000000
0.971130 0.386328 0.000000
0.988922 0.397772 0.000000
1.000000 0.410010 0.071260
1.000000 0.422522 0.114839
1.000000 0.434089 0.152102
1.000000 0.445289 0.185946
1.000000 0.456825 0.219089
1.000000 0.469490 0.253208
1.000000 0.483131 0.288090
1.000000 0.498054 0.324773
1.000000 0.514153 0.362921
0.148959 0.208652 0.214908
0.148104 0.207889 0.214084
0.145480 0.205356 0.211673
0.142184 0.202304 0.208713
0.138033 0.198123 0.204685
0.140841 0.226505 0.181003
0.180423 0.259312 0.151308
0.263981 0.293217 0.113741
0.361120 0.300877 0.079225
0.476265 0.326116 0.040040
0.568170 0.352728 0.000000
0.646204 0.375219 0.000000
0.709682 0.392309 0.000000
0.766506 0.409003 0.000000
0.814694 0.423957 0.000000
0.845365 0.423560 0.000000
0.869108 0.419318 0.000000
0.890593 0.416480 0.000000
0.910948 0.415869 0.000000
0.930907 0.417639 0.000000
0.950500 0.421851 0.000000
0.969482 0.428443 0.000000
0.987274 0.436347 0.000000
1.000000 0.444648 0.044556
1.000000 0.453254 0.097108
1.000000 0.461372 0.137545
1.000000 0.469734 0.173251
1.000000 0.478584 0.207950
1.000000 0.488960 0.243107
1.000000 0.500328 0.278477
1.000000 0.513237 0.316106
1.000000 0.527214 0.354192
0.212039 0.267796 0.271214
0.211032 0.266758 0.270268
0.208255 0.264286 0.267887
0.204135 0.260441 0.264286
0.198489 0.255192 0.259312
0.192660 0.265049 0.246067
0.208164 0.299443 0.216617
0.261875 0.334722 0.181247
0.353948 0.368444 0.137972
0.445045 0.372625 0.097688
0.560052 0.396155 0.063172
0.644892 0.422431 0.024445
0.712459 0.441688 0.000000
0.765866 0.455268 0.000000
0.808835 0.465003 0.000000
0.845518 0.472877 0.000000
0.877501 0.480079 0.000000
0.899168 0.477333 0.000000
0.917052 0.472602 0.000000
0.934966 0.470832 0.000000
0.952789 0.471595 0.000000
0.970123 0.474647 0.027497
0.986664 0.479530 0.063691
1.000000 0.484688 0.090547
1.000000 0.490150 0.113283
1.000000 0.494759 0.132021
1.000000 0.500084 0.169741
1.000000 0.506249 0.205081
1.000000 0.513725 0.240269
1.000000 0.522423 0.275639
1.000000 0.532769 0.312749
1.000000 0.544335 0.350256
0.282475 0.331273 0.332250
0.280980 0.329961 0.330938
0.277592 0.326909 0.328008
0.272923 0.322850 0.323980
0.266911 0.317449 0.318761
0.259892 0.311131 0.312688
0.258762 0.338659 0.289250
0.291478 0.377874 0.261112
0.360937 0.416876 0.228031
0.459327 0.450874 0.187411
0.542138 0.454444 0.148043
0.642298 0.467170 0.122805
0.705623 0.482338 0.107820
0.756710 0.493385 0.097353
0.798703 0.501640 0.090455
0.835111 0.508690 0.082582
0.867338 0.514977 0.074006
0.895872 0.520989 0.065003
0.921935 0.527214 0.057252
0.940948 0.526574 0.065614
0.956390 0.523369 0.083223
0.971283 0.522240 0.100740
0.985351 0.522332 0.117647
0.998535 0.523308 0.133791
1.000000 0.524956 0.149233
1.000000 0.526513 0.163088
1.000000 0.528588 0.176181
1.000000 0.532006 0.197360
1.000000 0.537560 0.234073
1.000000 0.544823 0.271763
1.000000 0.553582 0.310063
1.000000 0.563592 0.349035
0.351110 0.390295 0.392187
0.350713 0.389899 0.391730
0.350195 0.389441 0.391272
0.349310 0.388678 0.390478
0.347753 0.387396 0.389136
0.345159 0.385260 0.386877
0.343236 0.392859 0.380133
0.356939 0.428870 0.356115
0.396857 0.462257 0.328038
0.462165 0.491676 0.294408
0.546166 0.516381 0.254246
0.613672 0.516136 0.214389
0.693629 0.516472 0.189883
0.743252 0.525933 0.180087
0.785092 0.532647 0.171054
0.820706 0.538750 0.167910
0.852445 0.544152 0.164248
0.880858 0.549187 0.160037
0.906950 0.554528 0.156497
0.931090 0.560204 0.154299
0.953399 0.566155 0.153323
0.969879 0.566400 0.159792
0.983001 0.564172 0.172000
0.995392 0.562890 0.183993
1.000000 0.562127 0.195041
1.000000 0.561791 0.205539
1.000000 0.561791 0.216037
1.000000 0.562799 0.226871
1.000000 0.564691 0.239017
1.000000 0.569482 0.272007
1.000000 0.576165 0.310491
1.000000 0.584222 0.349401
0.436622 0.459815 0.470283
0.435737 0.459083 0.469429
0.434638 0.458228 0.468391
0.432532 0.456580 0.466438
0.429541 0.454170 0.463569
0.426398 0.451637 0.460639
0.422309 0.448371 0.456764
0.423255 0.467933 0.442176
0.442267 0.497169 0.419226
0.481605 0.523705 0.393011
0.539239 0.546593 0.362219
0.609827 0.565301 0.326360
0.712184 0.604761 0.372564
0.769314 0.599054 0.348730
0.807645 0.602686 0.339178
0.839506 0.606134 0.330419
0.866972 0.608942 0.324498
0.891386 0.611749 0.320531
0.913909 0.614588 0.316655
0.934936 0.617609 0.313115
0.954345 0.620905 0.310094
0.972442 0.624048 0.306645
0.989075 0.626734 0.301823
1.000000 0.624994 0.301732
1.000000 0.620813 0.304356
1.000000 0.617334 0.307225
1.000000 0.614527 0.310796
1.000000 0.612482 0.315068
1.000000 0.611505 0.320745
1.000000 0.611597 0.327916
1.000000 0.613794 0.348028
1.000000 0.619135 0.383886
0.534997 0.537316 0.567651
0.533715 0.536339 0.566369
0.531273 0.534417 0.563836
0.527611 0.531548 0.560082
0.522759 0.527794 0.555169
0.516991 0.523278 0.549310
0.511711 0.519127 0.543938
0.506981 0.517693 0.537774
0.513634 0.542260 0.521080
0.535485 0.565698 0.503166
0.572198 0.587213 0.484901
0.621942 0.606287 0.464485
0.680415 0.622339 0.440375
0.727443 0.623255 0.414221
0.778225 0.619837 0.395727
0.816556 0.622309 0.387060
0.845670 0.625940 0.380713
0.871427 0.628779 0.374243
0.894316 0.632105 0.372869
0.915557 0.635279 0.370611
0.935271 0.638636 0.369055
0.953674 0.641871 0.366705
0.970672 0.644678 0.363561
0.986603 0.647120 0.359197
1.000000 0.649104 0.352911
1.000000 0.647089 0.350469
1.000000 0.643183 0.351476
1.000000 0.639979 0.353185
1.000000 0.637873 0.356725
1.000000 0.636866 0.362127
1.000000 0.636683 0.368444
1.000000 0.638331 0.382483
0.574975 0.568505 0.609155
0.573938 0.567712 0.608057
0.571191 0.565545 0.605188
0.567407 0.562585 0.601190
0.562493 0.558770 0.596094
0.557000 0.554467 0.590326
0.551751 0.550378 0.584894
0.546929 0.546593 0.579919
0.545953 0.555718 0.571099
0.556451 0.576562 0.557244
0.579126 0.596399 0.542992
0.612573 0.614405 0.527977
0.655177 0.630243 0.510430
0.704768 0.643549 0.488411
0.745693 0.644495 0.463203
0.787930 0.639948 0.442542
0.824643 0.640223 0.431952
0.851286 0.643854 0.426032
0.875608 0.647242 0.421180
0.897337 0.650874 0.420264
0.917296 0.654688 0.420691
0.935943 0.658320 0.420356
0.953216 0.661341 0.418494
0.969329 0.664210 0.416236
0.984527 0.666499 0.411933
0.998749 0.668299 0.406500
1.000000 0.669581 0.398993
1.000000 0.667720 0.395636
1.000000 0.664515 0.396277
1.000000 0.662440 0.399329
1.000000 0.661402 0.404181
1.000000 0.661372 0.410529
0.607446 0.593835 0.643397
0.606744 0.593317 0.642664
0.604608 0.591577 0.640345
0.601099 0.588891 0.636652
0.596796 0.585504 0.632136
0.591791 0.581598 0.626764
0.587030 0.577844 0.621759
0.582879 0.574640 0.617426
0.579614 0.572076 0.613977
0.583429 0.588952 0.604242
0.596643 0.607080 0.593866
0.618891 0.624201 0.583154
0.649104 0.639673 0.570825
0.685908 0.653132 0.555413
0.728206 0.664424 0.535454
0.763119 0.664973 0.511437
0.798428 0.659998 0.489998
0.833982 0.659174 0.478309
0.858274 0.662928 0.473762
0.880644 0.666316 0.469520
0.901122 0.669856 0.467750
0.919646 0.673548 0.468482
0.936919 0.676875 0.467933
0.953216 0.679896 0.466651
0.968505 0.682582 0.464210
0.982940 0.684962 0.460975
0.996704 0.687129 0.457008
1.000000 0.689204 0.452705
1.000000 0.691218 0.447547
1.000000 0.690944 0.447700
1.000000 0.689662 0.451972
1.000000 0.689204 0.457649
0.637018 0.617029 0.674769
0.637110 0.617151 0.674922
0.636042 0.616297 0.673762
0.634180 0.614771 0.671717
0.631525 0.612726 0.668910
0.628504 0.610346 0.665736
0.625635 0.608087 0.662684
0.622980 0.606012 0.659876
0.620752 0.604242 0.657465
0.619989 0.608423 0.653285
0.625849 0.623590 0.644617
0.638056 0.637995 0.634943
0.656794 0.651270 0.623621
0.681605 0.663111 0.609949
0.712093 0.673426 0.593591
0.747402 0.682033 0.573297
0.777890 0.682612 0.551232
0.807980 0.677821 0.531670
0.842893 0.677150 0.521782
0.865690 0.681636 0.519493
0.886687 0.685939 0.518181
0.906157 0.689845 0.516808
0.923369 0.693812 0.518334
0.939544 0.697353 0.519005
0.954742 0.700435 0.518181
0.969055 0.703243 0.516808
0.982666 0.705837 0.514763
0.995758 0.708217 0.511803
1.000000 0.710506 0.508812
1.000000 0.712642 0.504906
1.000000 0.714565 0.500175
1.000000 0.714260 0.499489
0.661616 0.636622 0.700984
0.661219 0.636286 0.700557
0.660090 0.635401 0.699336
0.658259 0.633936 0.697383
0.656031 0.632136 0.695003
0.653590 0.630213 0.692439
0.651148 0.628229 0.689815
0.648951 0.626520 0.687495
0.646967 0.624964 0.685389
0.645228 0.623560 0.683528
0.646784 0.633478 0.677882
0.653956 0.646937 0.670314
0.666407 0.659663 0.661585
0.683772 0.671168 0.651209
0.706020 0.681361 0.638544
0.732937 0.690150 0.623285
0.764096 0.697841 0.605341
0.791562 0.698909 0.586114
0.817288 0.694301 0.568322
0.850675 0.694026 0.560143
0.872404 0.698390 0.558679
0.891905 0.702785 0.557946
0.910033 0.706722 0.557031
0.926482 0.710567 0.557580
0.941680 0.714168 0.558404
0.956023 0.717464 0.558618
0.969665 0.720546 0.558221
0.982605 0.723415 0.557153
0.995117 0.726131 0.555840
1.000000 0.728725 0.553948
1.000000 0.731228 0.551720
1.000000 0.733425 0.548394
0.686000 0.656245 0.726711
0.686366 0.656580 0.727138
0.710597 0.676509 0.752377
0.709224 0.675380 0.750942
0.707271 0.673732 0.748928
0.704860 0.671717 0.746395
0.702174 0.669520 0.743648
0.699580 0.667384 0.740963
0.697078 0.665309 0.738338
0.694850 0.663478 0.735988
0.693080 0.663691 0.733120
0.695430 0.674830 0.726375
0.701381 0.685237 0.718441
0.711330 0.694942 0.709255
0.725307 0.703670 0.698543
0.743374 0.711513 0.686122
0.765377 0.718379 0.671962
0.791135 0.724453 0.655848
0.814298 0.725185 0.639033
0.834775 0.719966 0.622309
0.863615 0.719722 0.614099
0.884367 0.722255 0.610651
0.901518 0.725887 0.608911
0.917601 0.729061 0.606744
0.932464 0.731746 0.604608
0.946136 0.734463 0.603662
0.959106 0.736934 0.602380
0.971618 0.739437 0.601099
0.983825 0.742123 0.600031
0.995575 0.744900 0.599237
1.000000 0.747616 0.598138
1.000000 0.750057 0.596521
0.716182 0.681178 0.758083
0.718135 0.682795 0.760098
0.719722 0.684169 0.761715
0.720455 0.684810 0.762509
0.720394 0.684749 0.762417
0.719142 0.683650 0.761105
0.717281 0.682094 0.759213
0.715053 0.680232 0.756924
0.713100 0.678553 0.754879
0.711177 0.676997 0.752956
0.709407 0.675502 0.751125
0.709133 0.680598 0.747189
0.712215 0.690578 0.740566
0.718502 0.699947 0.733059
0.728145 0.708583 0.724208
0.741360 0.716426 0.714168
0.758206 0.723598 0.702785
0.778714 0.730159 0.689937
0.802609 0.736233 0.676081
0.824430 0.737881 0.661921
0.842832 0.733181 0.647364
0.869322 0.733700 0.641016
0.890410 0.735714 0.637873
0.906523 0.739467 0.636500
0.921538 0.742611 0.634699
0.935668 0.745388 0.632654
0.948699 0.748165 0.632013
0.961151 0.750942 0.631525
0.973144 0.753811 0.631312
0.984802 0.756741 0.631098
0.996002 0.759670 0.630945
1.000000 0.762387 0.630304
0.731136 0.693874 0.773373
0.732906 0.695369 0.775143
0.734340 0.696620 0.776547
0.735195 0.697322 0.777432
0.735348 0.697505 0.777646
0.734554 0.696742 0.776761
0.733089 0.695552 0.775326
0.731350 0.694057 0.773556
0.729732 0.692683 0.771939
0.728115 0.691279 0.770260
0.726589 0.689998 0.768734
0.724971 0.688594 0.767086
0.725765 0.697383 0.761746
0.729305 0.706325 0.755428
0.735592 0.714687 0.748104
0.744839 0.722377 0.739681
0.757198 0.729488 0.730251
0.772946 0.736110 0.719783
0.791867 0.742336 0.708400
0.814054 0.748318 0.696254
0.834531 0.750484 0.683742
0.851621 0.747005 0.671717
0.875364 0.747250 0.665705
0.896605 0.748592 0.662287
0.911589 0.752316 0.661341
0.925719 0.755459 0.659815
0.939025 0.758297 0.658076
0.951659 0.761105 0.657130
0.963561 0.764218 0.657618
0.975067 0.767422 0.658289
0.986206 0.770565 0.658869
0.996826 0.773648 0.659358
0.746914 0.707546 0.789212
0.748592 0.709041 0.790890
0.750057 0.710323 0.792355
0.751064 0.711208 0.793332
0.751308 0.711452 0.793576
0.750637 0.710811 0.792905
0.749355 0.709651 0.791623
0.747707 0.708248 0.790005
0.746090 0.706813 0.788388
0.744381 0.705318 0.786679
0.742794 0.703944 0.785092
0.741115 0.702480 0.783383
0.739895 0.704280 0.780545
0.741482 0.712917 0.775387
0.745480 0.721187 0.769467
0.752193 0.729152 0.763088
0.761990 0.737057 0.756283
0.774746 0.744533 0.749081
0.790494 0.751919 0.741512
0.809079 0.759091 0.733639
0.830137 0.766049 0.725185
0.849821 0.769680 0.716518
0.865782 0.767666 0.707820
0.886595 0.768002 0.702907
0.907256 0.769131 0.700221
0.921050 0.772946 0.699825
0.933989 0.776211 0.699153
0.946288 0.779324 0.698604
0.958068 0.782437 0.698299
0.969024 0.785733 0.699672
0.979553 0.788968 0.700801
0.989563 0.791958 0.701686
0.771725 0.729854 0.813657
0.772244 0.730312 0.814145
0.772457 0.730495 0.814359
0.772244 0.730312 0.814145
0.771603 0.729763 0.813565
0.770535 0.728786 0.812528
0.769284 0.727626 0.811307
0.768032 0.726467 0.810086
0.766903 0.725429 0.808957
0.765866 0.724514 0.807950
0.764858 0.723568 0.806943
0.763760 0.722560 0.805875
0.762325 0.721248 0.804471
0.762020 0.726497 0.800870
0.763851 0.734188 0.795895
0.767849 0.741604 0.790494
0.774289 0.748867 0.784604
0.783261 0.755856 0.778470
0.794858 0.762722 0.771847
0.808927 0.769314 0.764858
0.825284 0.775631 0.757259
0.843870 0.781643 0.749020
0.861295 0.784756 0.740383
0.875242 0.782254 0.731289
0.892973 0.781308 0.725002
0.912810 0.781643 0.721340
0.926055 0.785031 0.720760
0.938262 0.788479 0.720607
0.949981 0.791836 0.720668
0.961120 0.795193 0.721157
0.971557 0.798581 0.722530
0.981384 0.801999 0.724269
0.785306 0.742519 0.826780
0.785794 0.742977 0.827237
0.785977 0.743130 0.827420
0.785794 0.742977 0.827237
0.785275 0.742458 0.826749
0.784329 0.741604 0.825834
0.783230 0.740566 0.824765
0.782101 0.739498 0.823728
0.781064 0.738521 0.822721
0.780179 0.737697 0.821836
0.779355 0.736934 0.821073
0.778439 0.736080 0.820188
0.777310 0.734981 0.819059
0.776120 0.734585 0.817563
0.776699 0.742031 0.813535
0.779049 0.749294 0.809079
0.783474 0.756466 0.804318
0.790097 0.763424 0.799344
0.798947 0.770291 0.794003
0.810056 0.776944 0.788357
0.823331 0.783444 0.782467
0.838621 0.789670 0.776150
0.855711 0.795621 0.769223
0.872160 0.799161 0.761868
0.883604 0.795346 0.751247
0.899168 0.793881 0.744778
0.917784 0.794736 0.741939
0.931334 0.797543 0.741482
0.942870 0.801236 0.741909
0.953887 0.804868 0.742763
0.964385 0.808560 0.744137
0.974243 0.812070 0.745724
0.804746 0.761288 0.845212
0.805234 0.761746 0.845640
0.805234 0.761746 0.845640
0.804746 0.761288 0.845212
0.803891 0.760433 0.844388
0.802670 0.759243 0.843259
0.801266 0.757870 0.841947
0.799741 0.756374 0.840513
0.798215 0.754879 0.839048
0.796750 0.753445 0.837644
0.795132 0.751949 0.836149
0.793729 0.750546 0.834806
0.792142 0.749050 0.833341
0.790463 0.747433 0.831693
0.789090 0.749355 0.828794
0.789487 0.755703 0.824338
0.791684 0.762081 0.819699
0.795956 0.768582 0.814969
0.802548 0.775296 0.810483
0.811490 0.782132 0.805997
0.822385 0.788815 0.801419
0.835019 0.795224 0.796292
0.849119 0.801083 0.790433
0.864591 0.806271 0.783566
0.879515 0.809293 0.775784
0.890959 0.807034 0.767910
0.904417 0.804807 0.761013
0.921660 0.805753 0.758328
0.935607 0.807919 0.757565
0.946532 0.811856 0.758755
0.957000 0.815854 0.760403
0.966827 0.819883 0.762600
0.814878 0.771359 0.854582
0.815457 0.771969 0.855131
0.815702 0.772183 0.855344
0.815518 0.772030 0.855192
0.815000 0.771481 0.854704
0.814298 0.770748 0.854032
0.813382 0.769833 0.853208
0.812436 0.768887 0.852323
0.811460 0.767910 0.851438
0.810575 0.767025 0.850584
0.809567 0.766079 0.849699
0.808682 0.765133 0.848814
0.807645 0.764126 0.847898
0.806455 0.762966 0.846769
0.805051 0.761532 0.845457
0.804440 0.766293 0.842130
0.805386 0.772396 0.838193
0.808011 0.778531 0.834134
0.812528 0.784817 0.830167
0.818997 0.791226 0.826230
0.827237 0.797574 0.822171
0.837156 0.803708 0.817807
0.848539 0.809476 0.812985
0.861326 0.814847 0.807462
0.875395 0.819699 0.801205
0.889403 0.822934 0.794400
0.899962 0.821256 0.787900
0.911681 0.818784 0.781491
0.927733 0.820523 0.780179
0.941772 0.822324 0.779782
0.951843 0.826535 0.781765
0.961334 0.830716 0.784024
0.827726 0.784482 0.866331
0.828031 0.784817 0.866606
0.828000 0.784756 0.866575
0.827634 0.784390 0.866239
0.826993 0.783719 0.865660
0.826139 0.782834 0.864897
0.825223 0.781857 0.864042
0.824186 0.780850 0.863127
0.823270 0.779873 0.862272
0.822446 0.779049 0.861540
0.821683 0.778256 0.860838
0.821012 0.777584 0.860227
0.820310 0.776852 0.859556
0.819455 0.775967 0.858793
0.818326 0.774807 0.857755
0.817136 0.774777 0.856229
0.817044 0.780545 0.852720
0.818357 0.786343 0.849180
0.821286 0.792294 0.845640
0.825956 0.798459 0.842161
0.832273 0.804562 0.838651
0.840146 0.810605 0.834958
0.849363 0.816434 0.831022
0.859983 0.821897 0.826596
0.871824 0.826963 0.821592
0.884825 0.831601 0.815976
0.897917 0.834989 0.809934
0.907591 0.833494 0.804074
0.917784 0.830838 0.798062
0.932403 0.832822 0.797238
0.946410 0.834073 0.796841
0.955657 0.838346 0.799130
0.838102 0.795315 0.875608
0.838193 0.795407 0.875700
0.838163 0.795377 0.875669
0.837980 0.795193 0.875517
0.837736 0.794919 0.875303
0.837583 0.794766 0.875120
0.837705 0.794888 0.875242
0.837949 0.795163 0.875486
0.838437 0.795682 0.875914
0.839078 0.796353 0.876493
0.839780 0.797116 0.877134
0.840482 0.797818 0.877745
0.840970 0.798367 0.878141
0.841123 0.798550 0.878294
0.840940 0.798337 0.878172
0.840269 0.797604 0.877562
0.839658 0.800015 0.875731
0.839994 0.805478 0.872862
0.841764 0.811093 0.870085
0.844785 0.816800 0.867308
0.849241 0.822507 0.864469
0.854887 0.828153 0.861479
0.861662 0.833433 0.858122
0.869596 0.838407 0.854337
0.878569 0.843015 0.850065
0.888609 0.847227 0.845365
0.899748 0.851164 0.840208
0.911254 0.854154 0.834684
0.919585 0.852811 0.829801
0.928374 0.850614 0.824918
0.940459 0.851896 0.824063
0.952422 0.853513 0.824399
0.855772 0.814389 0.891081
0.855863 0.814511 0.891173
0.855711 0.814328 0.891051
0.855375 0.814023 0.890776
0.854948 0.813565 0.890410
0.854520 0.813046 0.890013
0.854154 0.812619 0.889708
0.853880 0.812345 0.889464
0.853727 0.812192 0.889342
0.853696 0.812161 0.889311
0.853696 0.812100 0.889311
0.853696 0.812161 0.889311
0.853605 0.812039 0.889220
0.853330 0.811734 0.888975
0.852811 0.811185 0.888548
