data/fiter_cube/69180065/1023049/file.cube
# Created by Adobe Lightroom plugin Export LUT (1.17.0)
# www.johnrellis.com/lightroom/exportlut.htm
# Preset: 室内文艺胶片_02 云集
# Color profile: C:\Program Files (x86)\Common Files\Adobe\Color\Profiles\Recommended\AdobeRGB1998.icc
LUT_3D_SIZE 8
DOMAIN_MIN 0.000000 0.000000 0.000000
DOMAIN_MAX 0.903226 0.903226 0.903226
0.016266 0.022370 0.020478
0.151034 0.050568 0.042176
0.327245 0.000000 0.065888
0.494942 0.000000 0.081056
0.636805 0.103395 0.117159
0.750851 0.208042 0.166354
0.848905 0.292607 0.220371
0.942626 0.363836 0.280705
0.060182 0.147829 0.061006
0.128634 0.150027 0.065675
0.327489 0.146151 0.017731
0.489662 0.138155 0.063935
0.630945 0.173983 0.104372
0.743954 0.243046 0.154513
0.842222 0.312871 0.208621
0.938537 0.377234 0.269993
0.089601 0.302770 0.085206
0.151858 0.287266 0.110567
0.264805 0.295354 0.099519
0.479957 0.315648 0.000000
0.631922 0.319341 0.000855
0.744076 0.351110 0.116670
0.846799 0.393957 0.184268
0.943145 0.435187 0.250370
0.158053 0.444800 0.143801
0.200198 0.432990 0.160037
0.281559 0.396338 0.205234
0.404486 0.433967 0.164920
0.603845 0.484108 0.074403
0.739773 0.482979 0.000000
0.844022 0.494545 0.108003
0.941131 0.512932 0.194064
0.234867 0.576745 0.206119
0.264256 0.568658 0.216098
0.336034 0.542535 0.247654
0.410895 0.522210 0.270024
0.522393 0.547936 0.222538
0.682826 0.595911 0.153017
0.820676 0.604395 0.051881
0.933928 0.604913 0.113161
0.311742 0.684718 0.267216
0.335821 0.682673 0.276463
0.394232 0.664637 0.299199
0.459449 0.633417 0.334661
0.527886 0.630091 0.328557
0.625238 0.651911 0.281254
0.768978 0.699641 0.224949
0.912993 0.714595 0.157321
0.394965 0.783047 0.341466
0.411261 0.780453 0.348119
0.456245 0.767849 0.366461
0.515007 0.747341 0.397986
0.567163 0.718227 0.436133
0.634791 0.733303 0.406653
0.723110 0.752560 0.357946
0.864744 0.799802 0.308446
0.483864 0.879789 0.440101
0.494881 0.877592 0.444831
0.530571 0.870603 0.462654
0.583124 0.859800 0.494209
0.632593 0.838071 0.525109
0.685817 0.829557 0.553704
0.753353 0.849699 0.526390
0.839872 0.868284 0.482063
0.000000 0.043610 0.161929
0.142000 0.069215 0.152743
0.317449 0.084749 0.162295
0.480262 0.132235 0.196048
0.624842 0.166903 0.214054
0.737911 0.233433 0.240513
0.836759 0.303288 0.275029
0.933104 0.369635 0.322179
0.000000 0.174350 0.157473
0.148531 0.164858 0.159426
0.316991 0.173037 0.169833
0.480537 0.181888 0.184817
0.622858 0.210147 0.204410
0.734798 0.263310 0.231205
0.832120 0.321996 0.265415
0.929046 0.381415 0.311650
0.037812 0.319371 0.128511
0.177310 0.308263 0.181552
0.278935 0.303990 0.184298
0.479133 0.314458 0.149081
0.623377 0.326268 0.168978
0.733639 0.355627 0.202884
0.833310 0.393286 0.242679
0.932341 0.434913 0.292576
0.151919 0.454353 0.180026
0.217411 0.444465 0.212589
0.299046 0.410101 0.246067
0.405768 0.432380 0.218723
0.594415 0.474372 0.163729
0.726314 0.474250 0.153201
0.830289 0.488258 0.187930
0.930785 0.509728 0.243748
0.244022 0.583917 0.245945
0.272984 0.575433 0.253391
0.344366 0.548394 0.278050
0.413855 0.520104 0.299596
0.519280 0.543999 0.256596
0.678340 0.590875 0.201999
0.814786 0.598932 0.153994
0.927886 0.601617 0.180392
0.313817 0.686183 0.294011
0.335302 0.681239 0.299901
0.394446 0.663508 0.319677
0.460945 0.633600 0.352026
0.527642 0.628107 0.350408
0.624720 0.651331 0.307469
0.767330 0.697688 0.257023
0.909697 0.711025 0.200076
0.392432 0.780911 0.358190
0.407263 0.776791 0.362280
0.453498 0.764858 0.379583
0.513725 0.745754 0.409766
0.567285 0.717952 0.446418
0.632532 0.730404 0.420783
0.718959 0.748531 0.373053
0.859464 0.794858 0.324559
0.481056 0.878264 0.449561
0.492744 0.876555 0.454780
0.528893 0.869841 0.471870
0.582086 0.859159 0.501915
0.637659 0.842954 0.539208
0.688472 0.830869 0.566033
0.752712 0.848631 0.535851
0.837644 0.866056 0.490578
0.000000 0.075380 0.357397
0.093599 0.091371 0.346899
0.313420 0.128817 0.332525
0.492439 0.172976 0.343847
0.629267 0.204135 0.356481
0.737026 0.267338 0.377569
0.831022 0.355871 0.420203
0.927520 0.414099 0.453437
0.000000 0.188052 0.354925
0.118685 0.181735 0.348302
0.312688 0.205661 0.331487
0.485420 0.226810 0.344396
0.623865 0.245579 0.354864
0.728603 0.316747 0.388739
0.828061 0.367956 0.411017
0.925689 0.422736 0.445563
0.000000 0.360815 0.338018
0.113985 0.354376 0.337072
0.314366 0.330053 0.332860
0.476905 0.336706 0.339269
0.619745 0.355718 0.352087
0.728786 0.384222 0.367803
0.827604 0.419593 0.390509
0.925780 0.460334 0.425391
0.000000 0.497902 0.278660
0.163455 0.490669 0.292546
0.337713 0.463722 0.347570
0.435065 0.455634 0.344549
0.612665 0.480903 0.316350
0.728145 0.484535 0.326787
0.827695 0.500542 0.351934
0.927276 0.523369 0.387854
0.161410 0.613519 0.288060
0.223606 0.608057 0.303197
0.370855 0.583917 0.369085
0.445014 0.540398 0.393744
0.537896 0.560754 0.361608
0.689174 0.597894 0.325048
0.817502 0.596765 0.307042
0.926970 0.604150 0.327245
0.252140 0.707179 0.316167
0.307286 0.702113 0.344671
0.412360 0.683558 0.398993
0.481270 0.653040 0.420417
0.539055 0.633967 0.426581
0.629114 0.656031 0.389868
0.770138 0.698756 0.351476
0.913054 0.708858 0.313970
0.371038 0.795224 0.394781
0.404273 0.790768 0.416144
0.464820 0.777493 0.444129
0.524346 0.756924 0.464271
0.577813 0.728420 0.490211
0.636988 0.733028 0.477546
0.722621 0.752926 0.439185
0.865385 0.799069 0.401587
0.474800 0.885771 0.484535
0.494423 0.882689 0.498177
0.530602 0.875212 0.510826
0.586053 0.865293 0.537499
0.642084 0.848356 0.568048
0.693080 0.831113 0.598901
0.755398 0.849760 0.572686
0.839902 0.868284 0.532555
0.000000 0.102907 0.546593
0.000000 0.120638 0.541070
0.309453 0.181918 0.518334
0.483589 0.207309 0.509422
0.636622 0.265995 0.522301
0.739223 0.319005 0.526085
0.830320 0.374121 0.536339
0.922240 0.428809 0.555932
0.000000 0.200534 0.546532
0.000000 0.205356 0.541039
0.317937 0.240055 0.519921
0.483131 0.257328 0.508721
0.635096 0.306493 0.522759
0.735012 0.346288 0.525231
0.826688 0.392432 0.535027
0.920043 0.441535 0.554833
0.000000 0.376684 0.535180
0.071015 0.370642 0.532860
0.307988 0.349950 0.521538
0.479408 0.367803 0.505150
0.625177 0.401038 0.521386
0.727535 0.424567 0.526909
0.824002 0.456489 0.539849
0.914855 0.515557 0.577783
0.000000 0.541527 0.515587
0.000000 0.537163 0.514519
0.292912 0.520714 0.509850
0.475319 0.488930 0.501061
0.607263 0.496254 0.506065
0.713771 0.509697 0.513725
0.814847 0.529076 0.526909
0.916442 0.554345 0.548302
0.000000 0.657771 0.449256
0.138521 0.653407 0.452064
0.328496 0.634546 0.464942
0.491554 0.599023 0.510246
0.564263 0.585870 0.500114
0.705348 0.605249 0.477333
0.816220 0.605463 0.482063
0.919921 0.616022 0.501946
0.197452 0.738857 0.433143
0.254063 0.737026 0.442359
0.378149 0.721309 0.467048
0.512749 0.692470 0.523949
0.566461 0.650782 0.534783
0.642908 0.670527 0.505669
0.779751 0.703822 0.478248
0.915190 0.704036 0.459907
0.305272 0.816983 0.447089
0.338567 0.814298 0.455940
0.426581 0.804105 0.484627
0.543359 0.782010 0.547417
0.600183 0.752926 0.562036
0.649104 0.740780 0.560021
0.728389 0.758938 0.526574
0.871092 0.800687 0.496529
0.405188 0.904356 0.490974
0.426703 0.902464 0.499397
0.509514 0.892912 0.547173
0.590875 0.878538 0.591394
0.648829 0.860502 0.612299
0.701320 0.838743 0.638178
0.759426 0.851102 0.623926
0.842985 0.870634 0.590387
0.000000 0.146883 0.692683
0.000000 0.161440 0.689540
0.310857 0.206821 0.676722
0.488075 0.279454 0.654994
0.624659 0.296971 0.655665
0.739223 0.375494 0.657191
0.834806 0.441291 0.660548
0.922545 0.487709 0.670283
0.000000 0.223880 0.691096
0.000000 0.233188 0.688746
0.317937 0.260960 0.676722
0.489754 0.315251 0.654963
0.623072 0.333074 0.654322
0.737667 0.403052 0.657282
0.832944 0.459052 0.661280
0.921263 0.500084 0.670741
0.000000 0.403235 0.683589
0.147707 0.400671 0.681788
0.308659 0.373205 0.673976
0.493660 0.409277 0.656031
0.616785 0.426398 0.648768
0.730404 0.476234 0.655116
0.824826 0.508324 0.660792
0.915831 0.534508 0.669032
0.000000 0.555413 0.672419
0.059815 0.550683 0.671015
0.313085 0.534386 0.666773
0.483589 0.514488 0.656336
0.609583 0.530327 0.642084
0.720180 0.560510 0.653620
0.814572 0.569665 0.656977
0.910979 0.581537 0.662684
0.000000 0.685695 0.653407
0.000000 0.682399 0.652369
0.301274 0.669551 0.648554
0.468513 0.647456 0.641871
0.596918 0.615442 0.629328
0.700710 0.619562 0.631403
0.802762 0.627893 0.637049
0.906920 0.641138 0.648035
0.100099 0.764096 0.578241
0.188388 0.761440 0.580102
0.339574 0.750973 0.586053
0.483101 0.731380 0.598901
0.600427 0.696407 0.627008
0.659449 0.685573 0.615991
0.794644 0.705318 0.598993
0.913146 0.704341 0.601770
0.244877 0.841917 0.558587
0.287877 0.838773 0.562036
0.394507 0.828672 0.574792
0.510826 0.811978 0.598474
0.618341 0.784054 0.638422
0.663630 0.746151 0.642023
0.735225 0.764309 0.614923
0.878264 0.798428 0.591241
0.354955 0.919219 0.564080
0.380285 0.917113 0.568750
0.453132 0.910033 0.585107
0.547539 0.900664 0.615442
0.650385 0.879667 0.663569
0.709041 0.854643 0.679347
0.762448 0.850462 0.678798
0.844419 0.870359 0.649287
0.000000 0.198917 0.799008
0.000000 0.210605 0.796902
0.317784 0.246036 0.788540
0.495125 0.310063 0.776577
0.618799 0.393194 0.761135
0.729152 0.407385 0.761105
0.832883 0.481270 0.762783
0.926116 0.554925 0.769619
0.000000 0.257694 0.795499
0.000000 0.265080 0.793454
0.322026 0.290654 0.786160
0.495552 0.343511 0.774624
0.617517 0.418616 0.758358
0.726680 0.429572 0.758846
0.830991 0.498177 0.762173
0.924590 0.564508 0.769650
0.089967 0.418982 0.792752
0.147372 0.405493 0.791867
0.329747 0.402441 0.786313
0.501762 0.438544 0.774807
0.620905 0.491859 0.757290
0.723873 0.498756 0.756527
0.828519 0.552575 0.763363
0.922026 0.596857 0.771359
0.128786 0.561425 0.786343
0.216312 0.559380 0.784848
0.376867 0.556573 0.780972
0.501640 0.545373 0.775723
0.628229 0.577722 0.760464
0.722164 0.586511 0.755245
0.827695 0.623346 0.766781
0.919463 0.640803 0.772183
0.098573 0.686854 0.772671
0.195224 0.684291 0.772061
0.350439 0.675013 0.769772
0.494545 0.660822 0.765957
0.613092 0.645258 0.757076
0.712093 0.655665 0.745571
0.819028 0.679713 0.759945
0.911711 0.679927 0.761288
0.106050 0.792050 0.754635
0.195102 0.790341 0.754818
0.341009 0.781949 0.753201
0.479133 0.767666 0.749874
0.594537 0.747677 0.743526
0.697688 0.718624 0.731319
0.800198 0.721828 0.734066
0.905882 0.727993 0.740017
0.235569 0.861814 0.690028
0.278630 0.860960 0.691249
0.381537 0.856352 0.694057
0.498268 0.846250 0.702541
0.604700 0.829831 0.712093
0.702602 0.794583 0.730098
0.755703 0.779568 0.712825
0.898344 0.798856 0.697292
0.274540 0.942931 0.659205
0.310216 0.940917 0.661463
0.404120 0.934386 0.669825
0.514519 0.924498 0.685603
0.616907 0.909606 0.705226
0.719844 0.883635 0.739101
0.772732 0.852140 0.745602
0.850828 0.873198 0.719936
0.000000 0.248356 0.884367
0.089357 0.258274 0.883482
0.331456 0.290867 0.878843
0.494728 0.351476 0.870756
0.620905 0.434455 0.858244
0.721889 0.496162 0.847715
0.821897 0.507103 0.847959
0.918700 0.570459 0.850736
0.000000 0.293889 0.882597
0.120882 0.301335 0.881682
0.336095 0.327977 0.877256
0.496254 0.380926 0.868864
0.621027 0.454108 0.856596
0.720851 0.511742 0.845670
0.819547 0.520226 0.845853
0.916625 0.578759 0.849302
0.078584 0.416266 0.881743
0.161593 0.410559 0.880980
0.350744 0.429664 0.876310
0.504112 0.466072 0.868284
0.626246 0.517296 0.856413
0.723720 0.566247 0.844480
0.819333 0.569177 0.845609
0.917174 0.616144 0.851591
0.283696 0.577966 0.876127
0.324834 0.578393 0.875212
0.410437 0.572137 0.873777
0.509819 0.564996 0.868406
0.632593 0.596643 0.857511
0.728634 0.635554 0.843870
0.819547 0.632563 0.845640
0.917845 0.666621 0.853880
0.249760 0.683711 0.868345
0.291844 0.681941 0.867826
0.398596 0.676997 0.866575
0.525139 0.675410 0.864073
0.622797 0.666285 0.858732
0.729427 0.689998 0.845396
0.816831 0.693355 0.842741
0.918029 0.722316 0.854948
0.239506 0.790402 0.859068
0.281621 0.788693 0.858824
0.386572 0.783230 0.858091
0.504387 0.774472 0.857115
0.613886 0.761837 0.855467
0.719173 0.748531 0.849607
0.815000 0.757321 0.840330
0.918029 0.778836 0.854368
0.239384 0.888548 0.845975
0.278782 0.887205 0.846128
0.378210 0.881865 0.845762
0.490547 0.873289 0.845212
0.598657 0.860838 0.843320
0.702480 0.843076 0.838865
0.798672 0.811948 0.824582
0.904448 0.813504 0.826566
0.293797 0.949035 0.778561
0.322118 0.948333 0.779263
0.403662 0.946807 0.782498
0.502525 0.943694 0.786893
0.604334 0.937530 0.795224
0.705074 0.925353 0.806180
0.803922 0.892424 0.822873
0.864836 0.880552 0.805020
0.070771 0.300542 0.962371
0.188724 0.309514 0.961639
0.351019 0.341558 0.958160
0.497658 0.401648 0.952392
0.621637 0.478096 0.943908
0.728389 0.557244 0.932952
0.819547 0.593286 0.928008
0.911101 0.595972 0.929015
0.106294 0.335454 0.961486
0.201663 0.343603 0.960754
0.356603 0.372168 0.957427
0.500175 0.426062 0.951598
0.623041 0.495277 0.943297
0.729152 0.568536 0.932494
0.819394 0.602960 0.927153
0.910307 0.604334 0.928283
0.159060 0.430488 0.960357
0.230808 0.436561 0.959503
0.370550 0.457221 0.956115
0.508751 0.496773 0.951110
0.629114 0.549065 0.943053
0.733059 0.605249 0.932586
0.821042 0.636286 0.926482
0.910216 0.634333 0.927977
0.348547 0.591791 0.956359
0.357549 0.585595 0.956756
0.401953 0.569360 0.955535
0.515831 0.582818 0.951202
0.634699 0.616999 0.943938
0.738003 0.655604 0.934386
0.824460 0.684138 0.926696
0.911254 0.678859 0.928618
0.331243 0.684108 0.952270
0.361913 0.684749 0.952209
0.446479 0.686854 0.951385
0.549340 0.691005 0.950439
0.626581 0.680964 0.946441
0.737148 0.707057 0.937346
0.827543 0.736782 0.926909
0.912963 0.731624 0.929625
0.309300 0.782040 0.946838
0.338170 0.780972 0.946654
0.419104 0.777676 0.946258
0.519188 0.772305 0.946227
0.629114 0.769375 0.946014
0.727230 0.764767 0.943175
0.832700 0.788907 0.932952
0.917113 0.792233 0.932555
0.292699 0.882322 0.941497
0.321691 0.881193 0.941405
0.401953 0.877226 0.941192
0.503349 0.871061 0.941314
0.610559 0.863005 0.941650
0.719783 0.853208 0.942412
0.825589 0.844388 0.940551
0.918791 0.853971 0.933043
0.276005 0.984436 0.931365
0.304601 0.983368 0.931365
0.384649 0.979828 0.931579
0.487495 0.974090 0.932158
0.595666 0.966094 0.933013
0.704860 0.955474 0.933684
0.811215 0.941161 0.933135
0.907073 0.911864 0.921508
