data/fiter_cube/69180065/1023049/file.cube
# Created by Adobe Lightroom plugin Export LUT (1.17.0)
# www.johnrellis.com/lightroom/exportlut.htm
# Preset: 室内文艺胶片_02 云集
# Color profile: C:\Program Files (x86)\Common Files\Adobe\Color\Profiles\Recommended\AdobeRGB1998.icc
LUT_3D_SIZE 32
DOMAIN_MIN 0.0 0.0 0.0
DOMAIN_MAX 1.0 1.0 1.0
0.016266 0.022370 0.020478
0.057984 0.025391 0.022278
0.078553 0.032136 0.026703
0.108766 0.046540 0.034180
0.151034 0.050568 0.042176
0.196231 0.047639 0.053803
0.241306 0.036713 0.059724
0.284886 0.019867 0.063325
0.327245 0.000000 0.065888
0.368658 0.000000 0.067720
0.410559 0.000000 0.071382
0.452949 0.000000 0.075532
0.494942 0.000000 0.081056
0.534508 0.000000 0.088380
0.571008 0.021088 0.096742
0.604913 0.073487 0.106844
0.636805 0.103395 0.117159
0.666377 0.130251 0.127657
0.693263 0.154726 0.139132
0.723232 0.182437 0.153017
0.750851 0.208042 0.166354
0.776944 0.231357 0.179934
0.801663 0.253300 0.193729
0.825559 0.273564 0.207004
0.848905 0.292607 0.220371
0.872007 0.310826 0.234379
0.895232 0.328557 0.248478
0.918700 0.346197 0.263828
0.942626 0.363836 0.280705
0.967010 0.381842 0.299321
0.991852 0.400427 0.320470
1.000000 0.420203 0.344884
0.022797 0.060334 0.026398
0.049134 0.061372 0.027649
0.078706 0.066102 0.019409
0.110597 0.067842 0.024201
0.152651 0.069581 0.032166
0.197024 0.067994 0.045136
0.241581 0.063661 0.055818
0.284672 0.058076 0.059815
0.326635 0.039887 0.063050
0.367895 0.019593 0.065858
0.409461 0.000000 0.069276
0.451423 0.000000 0.074006
0.493263 0.000000 0.078706
0.532708 0.012177 0.086366
0.569177 0.059632 0.095003
0.603052 0.086671 0.105531
0.634943 0.112093 0.115480
0.664546 0.136294 0.126406
0.691737 0.159945 0.137423
0.721279 0.185824 0.150637
0.748562 0.210300 0.164614
0.774441 0.232975 0.178195
0.799161 0.254398 0.191073
0.823056 0.274296 0.204807
0.846464 0.293004 0.218173
0.869688 0.311131 0.231540
0.893065 0.328771 0.245914
0.916686 0.346349 0.261814
0.940764 0.363958 0.278111
0.965301 0.381750 0.297215
0.990265 0.400275 0.317754
1.000000 0.419776 0.341894
0.031220 0.080354 0.032258
0.057130 0.077333 0.045289
0.071412 0.081880 0.037659
0.109682 0.088655 0.020844
0.154208 0.087434 0.020508
0.198611 0.086091 0.032349
0.242435 0.082429 0.046235
0.284611 0.078706 0.054902
0.326238 0.071748 0.059937
0.367437 0.063783 0.062959
0.408667 0.054536 0.066590
0.450416 0.045808 0.071229
0.492195 0.048219 0.077119
0.531640 0.063386 0.084657
0.567956 0.081361 0.093507
0.601984 0.101442 0.103548
0.633692 0.123629 0.113924
0.663416 0.145418 0.124666
0.691035 0.167636 0.136110
0.720119 0.191958 0.149142
0.747311 0.215000 0.162814
0.773159 0.237034 0.175967
0.797818 0.257755 0.189517
0.821744 0.277043 0.202792
0.845151 0.295476 0.216312
0.868437 0.313237 0.229496
0.891875 0.330602 0.244266
0.915587 0.348058 0.259922
0.939818 0.365270 0.276219
0.964416 0.383062 0.294987
0.989410 0.401251 0.315709
1.000000 0.420539 0.340124
0.049622 0.110597 0.048798
0.065461 0.108339 0.059083
0.075807 0.105470 0.066041
0.096895 0.113436 0.056611
0.148043 0.125154 0.028534
0.199039 0.120089 0.016175
0.244755 0.115602 0.020539
0.286137 0.111513 0.038117
0.327092 0.106600 0.046723
0.367712 0.101442 0.052766
0.408453 0.097414 0.060304
0.449958 0.095003 0.065492
0.491249 0.096071 0.072389
0.530388 0.103151 0.080140
0.566735 0.113375 0.089082
0.600610 0.128237 0.099397
0.632288 0.145510 0.110079
0.661891 0.163516 0.120912
0.690028 0.183474 0.133150
0.718410 0.204837 0.146242
0.745205 0.225681 0.159579
0.770809 0.245731 0.172519
0.795499 0.265385 0.185733
0.819730 0.284062 0.199496
0.843626 0.301915 0.212924
0.867369 0.319310 0.227176
0.891203 0.336309 0.241581
0.915221 0.353277 0.257542
0.939513 0.370184 0.274022
0.964141 0.387274 0.292790
0.989014 0.405005 0.313634
1.000000 0.423499 0.337133
0.060182 0.147829 0.061006
0.071138 0.145418 0.065522
0.082734 0.141878 0.070893
0.099428 0.140169 0.075227
0.128634 0.150027 0.065675
0.184024 0.165255 0.039155
0.239689 0.160586 0.007874
0.284916 0.152377 0.012482
0.327489 0.146151 0.017731
0.367285 0.142000 0.029755
0.407752 0.138308 0.041444
0.448676 0.136812 0.053803
0.489662 0.138155 0.063935
0.528710 0.142031 0.072206
0.564965 0.150027 0.082765
0.598962 0.161013 0.092897
0.630945 0.173983 0.104372
0.660731 0.189029 0.115175
0.689723 0.206424 0.128054
0.717586 0.224704 0.141085
0.743954 0.243046 0.154513
0.769375 0.261143 0.168032
0.794003 0.278843 0.181277
0.818265 0.296178 0.194888
0.842222 0.312871 0.208621
0.866178 0.329107 0.223056
0.890074 0.345281 0.237613
0.914183 0.361212 0.253635
0.938537 0.377234 0.269993
0.963195 0.393530 0.288731
0.988220 0.410407 0.309239
1.000000 0.428229 0.332921
0.064149 0.187289 0.065339
0.075135 0.185061 0.068757
0.087465 0.181827 0.073243
0.106325 0.175204 0.082612
0.127810 0.177340 0.081331
0.162173 0.187533 0.069032
0.219577 0.204379 0.043091
0.275364 0.202274 0.008331
0.323339 0.191318 0.000000
0.366033 0.185122 0.002136
0.408209 0.181033 0.005219
0.448768 0.179110 0.021851
0.489265 0.179568 0.040131
0.527977 0.182223 0.060029
0.564111 0.187869 0.071778
0.598016 0.195895 0.083345
0.629877 0.206668 0.095949
0.659998 0.218906 0.107973
0.689631 0.233982 0.121767
0.717281 0.249424 0.134463
0.743587 0.265324 0.148836
0.769039 0.281346 0.162844
0.808316 0.310277 0.185580
0.832303 0.325658 0.200107
0.855711 0.340215 0.214298
0.878874 0.354284 0.228794
0.901946 0.368200 0.243565
0.925109 0.382116 0.259556
0.948547 0.396490 0.276280
0.972381 0.411261 0.295537
0.996521 0.426642 0.315984
1.000000 0.443030 0.339483
0.069154 0.229252 0.068727
0.080507 0.226841 0.071809
0.092714 0.224094 0.076478
0.113375 0.218051 0.085847
0.135561 0.208835 0.098085
0.161410 0.216953 0.089662
0.198611 0.226902 0.075654
0.256565 0.244938 0.048737
0.311986 0.244175 0.009186
0.363836 0.236606 0.000000
0.408606 0.227878 0.000000
0.452186 0.225589 0.000000
0.494331 0.224826 0.000000
0.532341 0.226108 0.020325
0.567803 0.229587 0.048402
0.600732 0.235660 0.069520
0.632074 0.243687 0.083742
0.663691 0.254948 0.097871
0.693111 0.267582 0.113802
0.720974 0.281132 0.128206
0.748074 0.295293 0.143587
0.774685 0.310491 0.158419
0.800900 0.325597 0.173922
0.826627 0.340337 0.189487
0.851652 0.354559 0.204715
0.875792 0.368139 0.220493
0.899443 0.381170 0.235996
0.922942 0.394079 0.251804
0.946654 0.407233 0.268986
0.970611 0.420874 0.287846
0.994842 0.435157 0.308537
1.000000 0.450355 0.331487
0.076875 0.266667 0.074922
0.087282 0.264744 0.077974
0.099275 0.262181 0.082002
0.119722 0.256870 0.090455
0.143465 0.248692 0.102358
0.165652 0.243259 0.110780
0.194064 0.252354 0.100008
0.231754 0.261723 0.086275
0.288792 0.280339 0.063569
0.343297 0.281926 0.024933
0.396857 0.278264 0.000000
0.444739 0.270603 0.000000
0.488533 0.267613 0.000000
0.529137 0.267918 0.000000
0.566033 0.269749 0.000000
0.598932 0.273594 0.026764
0.631373 0.280278 0.062745
0.663020 0.289525 0.081239
0.691646 0.299199 0.099275
0.719051 0.310155 0.115663
0.745785 0.322057 0.131807
0.772183 0.334600 0.147951
0.798245 0.347601 0.163241
0.823819 0.360479 0.179355
0.848905 0.372900 0.195254
0.873167 0.384894 0.211307
0.897002 0.396490 0.226780
0.920714 0.408087 0.243229
0.944671 0.420142 0.260441
0.968841 0.432441 0.278996
0.993347 0.445716 0.299657
1.000000 0.459693 0.322728
0.089601 0.302770 0.085206
0.098360 0.301213 0.088106
0.109133 0.299046 0.091829
0.128603 0.294469 0.099550
0.151858 0.287266 0.110567
0.175113 0.278141 0.124239
0.197818 0.278141 0.124788
0.227298 0.286717 0.113771
0.264805 0.295354 0.099519
0.317632 0.311711 0.079103
0.374517 0.319158 0.051240
0.428565 0.318791 0.000000
0.479957 0.315648 0.000000
0.523033 0.309636 0.000000
0.560845 0.310765 0.000000
0.597101 0.313787 0.000000
0.631922 0.319341 0.000855
0.662501 0.325902 0.051423
0.690517 0.333165 0.078492
0.717556 0.341558 0.098177
0.744076 0.351110 0.116670
0.770352 0.361303 0.133974
0.796231 0.372351 0.151064
0.821775 0.383307 0.168032
0.846799 0.393957 0.184268
0.871183 0.404120 0.200504
0.895201 0.414282 0.216281
0.919036 0.424567 0.233280
0.943145 0.435187 0.250370
0.967468 0.446357 0.269078
0.992096 0.458167 0.289799
1.000000 0.470924 0.312779
0.104891 0.337865 0.098329
0.112490 0.336492 0.101045
0.121950 0.334417 0.104067
0.139559 0.330297 0.111025
0.161776 0.324041 0.120974
0.185031 0.315496 0.133303
0.206851 0.305364 0.147707
0.229953 0.311284 0.140475
0.260075 0.319463 0.128664
0.297063 0.327916 0.114595
0.346319 0.341741 0.095216
0.405035 0.354711 0.070832
0.459174 0.357733 0.023041
0.510491 0.357641 0.000000
0.554559 0.354925 0.000000
0.593683 0.354833 0.000000
0.628901 0.359258 0.000000
0.661341 0.363775 0.000000
0.690242 0.368750 0.029572
0.716915 0.374701 0.073060
0.743008 0.382025 0.096345
0.768704 0.389929 0.116518
0.794034 0.398322 0.134554
0.819120 0.406958 0.153201
0.843931 0.415656 0.169924
0.868284 0.424445 0.186801
0.892576 0.433295 0.203342
0.916869 0.442298 0.220890
0.941405 0.451820 0.238682
0.966217 0.461830 0.258000
0.991272 0.472602 0.278782
1.000000 0.484230 0.301854
0.121096 0.371771 0.112276
0.127596 0.370520 0.114382
0.135775 0.368963 0.117525
0.151980 0.365026 0.123659
0.172580 0.359411 0.133181
0.195346 0.351659 0.144015
0.217655 0.342504 0.157382
0.237919 0.336004 0.166079
0.262272 0.343694 0.156191
0.292943 0.351781 0.144656
0.329076 0.359869 0.130282
0.374914 0.371618 0.111269
0.436164 0.390295 0.087373
0.490883 0.397070 0.058808
0.541222 0.400031 0.000000
0.585595 0.400061 0.000000
0.623011 0.397803 0.000000
0.655756 0.400305 0.000000
0.685512 0.403693 0.000000
0.714015 0.407813 0.015259
0.741024 0.412818 0.063752
0.766659 0.418830 0.091615
0.792081 0.425574 0.113802
0.817166 0.432563 0.134737
0.842069 0.439673 0.153140
0.866545 0.446784 0.171023
0.890837 0.454231 0.189090
0.915221 0.461860 0.206516
0.939879 0.470008 0.224949
0.964813 0.478767 0.244694
0.990082 0.488167 0.265812
1.000000 0.498451 0.288731
0.138674 0.406073 0.127657
0.144259 0.405127 0.129763
0.151797 0.403357 0.132235
0.165805 0.399969 0.137545
0.185275 0.394629 0.145907
0.206760 0.387701 0.155978
0.228672 0.378882 0.167849
0.249302 0.368872 0.180941
0.269657 0.368048 0.182437
0.295018 0.375799 0.172396
0.325872 0.383978 0.160433
0.363378 0.393683 0.146273
0.417060 0.413703 0.131411
0.481056 0.437659 0.107790
0.533318 0.445655 0.083314
0.580835 0.450202 0.038880
0.624628 0.452155 0.000000
0.660151 0.450080 0.000000
0.691188 0.447761 0.000000
0.719203 0.450416 0.000000
0.746426 0.453254 0.041505
0.772976 0.456672 0.069764
0.798398 0.460456 0.091402
0.822904 0.465187 0.115999
0.847135 0.470100 0.137972
0.871214 0.475410 0.158083
0.895109 0.480873 0.176944
0.919127 0.486793 0.194919
0.943359 0.493233 0.214267
0.967987 0.500298 0.234195
0.992889 0.508141 0.255344
1.000000 0.516808 0.278874
0.158053 0.444800 0.143801
0.163058 0.443702 0.145418
0.169711 0.441779 0.147799
0.182376 0.438422 0.152590
0.200198 0.432990 0.160037
0.220523 0.425727 0.168704
0.241672 0.417151 0.179599
0.262455 0.407324 0.191897
0.281559 0.396338 0.205234
0.304173 0.403204 0.200015
0.332403 0.413062 0.190524
0.366064 0.423407 0.178805
0.404486 0.433967 0.164920
0.446540 0.443946 0.147494
0.509117 0.469795 0.124514
0.558495 0.478737 0.102815
0.603845 0.484108 0.074403
0.645106 0.486610 0.002319
0.680781 0.485634 0.000000
0.711391 0.482918 0.000000
0.739773 0.482979 0.000000
0.766598 0.485542 0.040528
0.792874 0.488258 0.071382
0.818936 0.491157 0.088075
0.844022 0.494545 0.108003
0.868223 0.498482 0.132540
0.892363 0.502831 0.153689
0.916594 0.507591 0.173770
0.941131 0.512932 0.194064
0.966064 0.518975 0.214847
0.991363 0.525597 0.236881
1.000000 0.533165 0.260655
0.175509 0.478370 0.158328
0.180331 0.477333 0.160159
0.186130 0.475715 0.161837
0.197757 0.472633 0.166415
0.214054 0.467597 0.172702
0.233494 0.461372 0.181125
0.254520 0.454200 0.191318
0.275669 0.445655 0.202762
0.295750 0.435767 0.215610
0.314794 0.428901 0.224735
0.338994 0.438056 0.216464
0.367987 0.447517 0.206546
0.401221 0.457069 0.194583
0.437903 0.466255 0.180331
0.476997 0.474800 0.163241
0.534752 0.499458 0.140780
0.581567 0.508629 0.120455
0.624567 0.514672 0.096864
0.663752 0.517449 0.065309
0.700069 0.518059 0.000000
0.730892 0.516075 0.000000
0.760128 0.513756 0.000000
0.786831 0.515831 0.045197
0.813230 0.518181 0.074067
0.839414 0.520592 0.089479
0.865202 0.522972 0.104829
0.890227 0.525872 0.124544
0.914702 0.529625 0.148013
0.939513 0.533959 0.170626
0.964782 0.538933 0.192966
0.990417 0.544610 0.215885
1.000000 0.550958 0.239902
0.195651 0.513268 0.174380
0.199741 0.512596 0.176059
0.204623 0.511284 0.177768
0.215396 0.508476 0.181491
0.230838 0.503960 0.187228
0.248936 0.498116 0.194644
0.268894 0.491066 0.203830
0.289281 0.482765 0.214389
0.309270 0.473518 0.225742
0.328130 0.463020 0.238346
0.347784 0.462287 0.240452
0.372747 0.470832 0.231693
0.401740 0.479561 0.221683
0.434028 0.488045 0.209384
0.468879 0.495979 0.194949
0.504997 0.503258 0.177920
0.558343 0.526757 0.156405
0.602838 0.536431 0.138308
0.644190 0.542931 0.117403
0.682246 0.546563 0.092409
0.717891 0.547997 0.053071
0.750362 0.547295 0.000000
0.779355 0.545312 0.011872
0.807340 0.544396 0.046784
0.833890 0.546410 0.074678
0.860288 0.548486 0.091615
0.886625 0.550744 0.105928
0.913054 0.553185 0.120424
0.939055 0.556420 0.141085
0.964935 0.560662 0.167300
0.991211 0.565484 0.192172
1.000000 0.570916 0.218357
0.215885 0.546624 0.190799
0.219333 0.546014 0.192203
0.223911 0.544823 0.193301
0.233951 0.542107 0.196780
0.247745 0.538354 0.202121
0.265080 0.532891 0.208682
0.283970 0.526452 0.216953
0.303899 0.519036 0.226719
0.323735 0.510338 0.237308
0.342504 0.500481 0.248600
0.359625 0.489601 0.260838
0.380621 0.494087 0.255772
0.405493 0.501488 0.246677
0.433417 0.508751 0.235782
0.464057 0.515831 0.223606
0.496559 0.522637 0.208896
0.530114 0.529107 0.191928
0.578210 0.549859 0.171511
0.623468 0.562737 0.154482
0.663722 0.570123 0.136141
0.701198 0.574731 0.115267
0.736721 0.577173 0.087434
0.770626 0.577600 0.025971
0.800290 0.576013 0.034180
0.829191 0.573877 0.056336
0.856596 0.574548 0.076936
0.883391 0.576471 0.095308
0.910246 0.578607 0.110597
0.937316 0.580896 0.124575
0.964599 0.583307 0.138521
0.991455 0.586572 0.161044
1.000000 0.590845 0.189151
0.234867 0.576745 0.206119
0.238102 0.576013 0.207156
0.242496 0.574731 0.208377
0.251286 0.572290 0.211154
0.264256 0.568658 0.216098
0.280247 0.563745 0.222049
0.297887 0.557763 0.229282
0.316808 0.550713 0.238041
0.336034 0.542535 0.247654
0.354894 0.533440 0.258457
0.372320 0.523369 0.269688
0.388830 0.515312 0.278019
0.410895 0.522210 0.270024
0.435554 0.528985 0.260472
0.462928 0.535515 0.249516
0.491890 0.541802 0.236790
0.522393 0.547936 0.222538
0.554101 0.554009 0.205814
0.598901 0.572992 0.186496
0.643641 0.588006 0.169741
0.682826 0.595911 0.153017
0.719722 0.601129 0.134279
0.754879 0.604059 0.111910
0.788907 0.605188 0.079774
0.820676 0.604395 0.051881
0.850004 0.602594 0.065003
0.878904 0.600885 0.076936
0.906310 0.602838 0.095979
0.933928 0.604913 0.113161
0.961761 0.607202 0.127718
0.989837 0.609552 0.142733
1.000000 0.611933 0.158206
0.254154 0.605524 0.221134
0.257328 0.605097 0.222293
0.267735 0.613062 0.228794
0.275975 0.610834 0.231540
0.287968 0.607141 0.235538
0.302464 0.602380 0.240970
0.319280 0.596399 0.247471
0.337163 0.589319 0.254978
0.355688 0.581353 0.263920
0.374029 0.572503 0.273747
0.391455 0.562799 0.284092
0.407172 0.551965 0.294957
0.424262 0.548913 0.296666
0.446113 0.554864 0.287785
0.470192 0.560754 0.277531
0.496101 0.566491 0.266239
0.523705 0.572198 0.253208
0.552514 0.577844 0.238773
0.582300 0.583490 0.222477
0.623529 0.599969 0.204074
0.667262 0.616236 0.187228
0.705470 0.624170 0.172427
0.741726 0.629541 0.155184
0.776638 0.632685 0.135744
0.810452 0.633783 0.109468
0.843534 0.633173 0.069154
0.872831 0.631220 0.074434
0.901946 0.629053 0.083711
0.930541 0.628748 0.097169
0.958770 0.630732 0.114687
0.987243 0.632868 0.131655
1.000000 0.635035 0.147707
0.274937 0.635309 0.237736
0.278599 0.635828 0.239170
0.283116 0.635981 0.241032
0.291325 0.635126 0.244205
0.302800 0.632776 0.248447
0.316991 0.628931 0.253605
0.333013 0.623713 0.259556
0.350225 0.617456 0.266789
0.368078 0.610193 0.274693
0.385992 0.602136 0.283940
0.403296 0.592920 0.293675
0.419257 0.582971 0.303868
0.433722 0.571893 0.314519
0.452155 0.574273 0.309850
0.473671 0.579767 0.300359
0.497139 0.585260 0.290135
0.522057 0.590692 0.278508
0.548394 0.596033 0.265660
0.575952 0.601495 0.251408
0.604517 0.606958 0.235447
0.642725 0.621485 0.218051
0.686671 0.639673 0.202029
0.724453 0.648188 0.188174
0.760708 0.654108 0.172946
0.795834 0.657649 0.154726
0.830198 0.659297 0.131991
0.863890 0.659419 0.100008
0.895537 0.658137 0.079469
0.925536 0.656489 0.089265
0.955627 0.654688 0.100191
0.984771 0.656092 0.117281
1.000000 0.658076 0.135317
0.293095 0.660334 0.252262
0.296605 0.660853 0.253788
0.300633 0.661067 0.255497
0.308141 0.660304 0.258366
0.319066 0.658198 0.262242
0.332250 0.654719 0.266941
0.347295 0.650111 0.272618
0.363684 0.644343 0.278965
0.380896 0.638025 0.286564
0.398566 0.630701 0.294957
0.415869 0.622522 0.304204
0.432105 0.613550 0.314122
0.446998 0.603388 0.324254
0.460822 0.594720 0.332189
0.480079 0.599847 0.323583
0.500969 0.604974 0.313756
0.523644 0.609979 0.303319
0.547539 0.615015 0.291539
0.572930 0.620172 0.278721
0.599481 0.625391 0.264744
0.626886 0.630701 0.249210
0.662562 0.643549 0.232731
0.706783 0.663386 0.217197
0.744381 0.672236 0.204807
0.780728 0.678401 0.190616
0.816251 0.682368 0.173983
0.851041 0.684596 0.153262
0.885374 0.685298 0.126467
0.919371 0.684627 0.084321
0.950164 0.683375 0.093751
0.980987 0.681819 0.105043
1.000000 0.680812 0.118990
0.311742 0.684718 0.267216
0.314794 0.685084 0.268437
0.318578 0.685328 0.270176
0.325628 0.684627 0.272923
0.335821 0.682673 0.276463
0.348089 0.679561 0.280919
0.362097 0.675502 0.286046
0.377691 0.670527 0.292271
0.394232 0.664637 0.299199
0.411292 0.658076 0.307134
0.428107 0.650629 0.315648
0.444495 0.642512 0.325231
0.459449 0.633417 0.334661
0.473335 0.623499 0.344915
0.488106 0.620081 0.346715
0.507195 0.624994 0.338109
0.527886 0.630091 0.328557
0.550225 0.635370 0.318242
0.573999 0.640742 0.306981
0.599054 0.646204 0.294652
0.625238 0.651911 0.281254
0.652369 0.657618 0.266331
0.686030 0.668971 0.250431
0.731044 0.690425 0.235813
0.768978 0.699641 0.224949
0.805936 0.706264 0.212467
0.842191 0.710689 0.198032
0.877775 0.713405 0.180392
0.912993 0.714595 0.157321
0.947784 0.714382 0.124910
0.980621 0.713069 0.108339
1.000000 0.711452 0.120150
0.333867 0.712093 0.285985
0.336248 0.712032 0.286961
0.339422 0.711727 0.287968
0.345464 0.710658 0.290257
0.354437 0.708614 0.293431
0.365850 0.705592 0.297276
0.379065 0.701869 0.302220
0.393805 0.697383 0.307958
0.409705 0.692287 0.314641
0.426429 0.686488 0.322454
0.443000 0.680018 0.330755
0.459297 0.672786 0.339971
0.474586 0.664729 0.349401
0.488716 0.655909 0.359197
0.501457 0.646143 0.369390
0.517388 0.647578 0.365179
0.535943 0.652216 0.355993
0.556146 0.657008 0.346258
0.577752 0.661982 0.335943
0.600641 0.667018 0.324193
0.624750 0.672145 0.311833
0.649836 0.677302 0.298100
0.675837 0.682429 0.283268
0.706844 0.691554 0.267338
0.752529 0.714229 0.252781
0.790768 0.723598 0.242771
0.828244 0.730648 0.231724
0.865171 0.735714 0.218479
0.901579 0.739071 0.202976
0.937499 0.740841 0.182528
0.973022 0.741085 0.154696
1.000000 0.739742 0.113130
0.353155 0.735134 0.302373
0.355230 0.735195 0.303380
0.358038 0.735103 0.304601
0.363897 0.734035 0.306645
0.372107 0.732235 0.309758
0.382727 0.729488 0.313268
0.394995 0.726131 0.317845
0.408911 0.721981 0.323186
0.424140 0.717220 0.329625
0.439979 0.711971 0.336950
0.456062 0.706142 0.345281
0.471901 0.699733 0.354040
0.487160 0.692470 0.363134
0.501579 0.684474 0.372869
0.514794 0.675898 0.382879
0.527306 0.668208 0.391241
0.544152 0.672724 0.383093
0.562554 0.677394 0.374029
0.582422 0.682216 0.364355
0.603662 0.687221 0.353735
0.626093 0.692317 0.342565
0.649714 0.697475 0.330205
0.674403 0.702602 0.316777
0.699947 0.707729 0.301671
0.726833 0.713008 0.283543
0.772152 0.735561 0.270268
0.812711 0.747097 0.260990
0.850919 0.754726 0.251316
0.888579 0.760433 0.239902
0.925750 0.764431 0.226291
0.962554 0.766842 0.207858
0.999115 0.767788 0.183017
0.375525 0.761013 0.323156
0.377661 0.761074 0.324285
0.380438 0.760830 0.325414
0.385595 0.759731 0.327092
0.392981 0.757900 0.329778
0.402472 0.755367 0.333043
0.413947 0.752010 0.337133
0.426673 0.748104 0.342138
0.440803 0.743557 0.348058
0.455573 0.738491 0.354681
0.470680 0.732876 0.362280
0.485939 0.726802 0.370611
0.500786 0.720089 0.379553
0.514946 0.712764 0.388830
0.528130 0.704646 0.398230
0.540337 0.695979 0.407904
0.553277 0.692561 0.410010
0.569665 0.696742 0.401648
0.587671 0.701289 0.392584
0.607202 0.706203 0.382879
0.628168 0.711269 0.372442
0.650233 0.716396 0.361242
0.673274 0.721401 0.348730
0.697230 0.726192 0.334813
0.722072 0.730739 0.319524
0.749020 0.736202 0.302678
0.795193 0.758877 0.290898
0.837308 0.772305 0.282292
0.876005 0.780423 0.274418
0.914336 0.786679 0.264652
0.952331 0.791348 0.253056
0.990143 0.794553 0.238071
0.394965 0.783047 0.341466
0.396979 0.783230 0.342687
0.399512 0.783047 0.343816
0.404211 0.782071 0.345495
0.411261 0.780453 0.348119
0.420020 0.778134 0.351324
0.430823 0.775204 0.355383
0.442939 0.771786 0.360327
0.456245 0.767849 0.366461
0.470558 0.763394 0.372992
0.485267 0.758511 0.380621
0.500206 0.753201 0.389044
0.515007 0.747341 0.397986
0.529259 0.740902 0.407080
0.542748 0.733883 0.416541
0.555474 0.726314 0.426215
0.567163 0.718227 0.436133
0.581262 0.719326 0.432776
0.597589 0.723751 0.424537
0.615503 0.728450 0.416052
0.634791 0.733303 0.406653
0.655268 0.738277 0.396185
0.676814 0.743191 0.384802
0.699428 0.747951 0.372107
0.723110 0.752560 0.357946
0.747799 0.756954 0.342321
0.773678 0.761227 0.324956
0.820645 0.784024 0.315129
0.864744 0.799802 0.308446
0.904265 0.808652 0.302892
0.943633 0.815885 0.296391
0.982605 0.821439 0.288212
0.415991 0.806363 0.363165
0.417914 0.806332 0.363989
0.419928 0.806027 0.364843
0.424353 0.805081 0.366461
0.430488 0.803494 0.368688
0.438666 0.801328 0.371832
0.448402 0.798642 0.375708
0.459754 0.795468 0.380560
0.472480 0.791867 0.386175
0.485939 0.787961 0.392798
0.500023 0.783627 0.400183
0.514641 0.778927 0.408362
0.529198 0.773800 0.417090
0.543420 0.768154 0.426276
0.557031 0.761929 0.435615
0.570001 0.755245 0.445136
0.582208 0.748074 0.454841
0.593866 0.741573 0.463630
0.608667 0.745785 0.456306
0.624964 0.750301 0.448493
0.642695 0.755032 0.440101
0.661677 0.759884 0.430854
0.681788 0.764736 0.420813
0.703059 0.769467 0.409430
0.725399 0.774105 0.396796
0.748898 0.778531 0.382727
0.773678 0.782834 0.366918
0.799649 0.787015 0.349310
0.845945 0.808896 0.340978
0.892210 0.827451 0.336767
0.932738 0.837400 0.334600
0.972869 0.845548 0.331670
0.436622 0.828855 0.385077
0.438117 0.828824 0.385840
0.440192 0.828550 0.386847
0.443915 0.827756 0.388190
0.449958 0.826444 0.390753
0.457801 0.824826 0.394141
0.467506 0.822873 0.398413
0.478828 0.820645 0.403906
0.491402 0.818143 0.410468
0.504936 0.815366 0.417945
0.519249 0.812253 0.426123
0.533959 0.808682 0.434852
0.548699 0.804685 0.444160
0.563226 0.800168 0.453681
0.577264 0.795071 0.463416
0.590631 0.789334 0.473030
0.603357 0.783291 0.483101
0.615473 0.776883 0.493294
0.627955 0.774655 0.497017
0.642695 0.779049 0.489998
0.658778 0.783658 0.482673
0.676234 0.788357 0.474525
0.694820 0.792996 0.465583
0.714687 0.797635 0.455451
0.735714 0.802213 0.444221
0.758083 0.806577 0.431830
0.781643 0.810880 0.417914
0.806485 0.815122 0.402441
0.832731 0.819425 0.385382
0.878477 0.840665 0.379309
0.927031 0.862211 0.379004
0.967987 0.872923 0.380896
0.462287 0.855985 0.414649
0.463539 0.855894 0.415167
0.465309 0.855528 0.415961
0.468727 0.854734 0.417304
0.474128 0.853452 0.419593
0.481147 0.851835 0.422461
0.489876 0.849912 0.426520
0.500023 0.847623 0.431281
0.511559 0.845121 0.436988
0.524102 0.842313 0.443793
0.537346 0.839170 0.451209
0.551141 0.835721 0.459266
0.565179 0.831907 0.467842
0.579217 0.827695 0.476997
