data/fiter_cube/69180065/1023049/file.cube
# Created by Adobe Lightroom plugin Export LUT (1.17.0)
# www.johnrellis.com/lightroom/exportlut.htm
# Preset: 室内文艺胶片_02 云集
# Color profile: C:\Program Files (x86)\Common Files\Adobe\Color\Profiles\Recommended\AdobeRGB1998.icc
LUT_3D_SIZE 5
DOMAIN_MIN 0.000000 0.000000 0.000000
DOMAIN_MAX 0.903226 0.903226 0.903226
0.016266 0.022370 0.020478
0.284886 0.019867 0.063325
0.571008 0.021088 0.096742
0.776944 0.231357 0.179934
0.942626 0.363836 0.280705
0.076875 0.266667 0.074922
0.231754 0.261723 0.086275
0.566033 0.269749 0.000000
0.772183 0.334600 0.147951
0.944671 0.420142 0.260441
0.195651 0.513268 0.174380
0.289281 0.482765 0.214389
0.468879 0.495979 0.194949
0.750362 0.547295 0.000000
0.939055 0.556420 0.141085
0.333867 0.712093 0.285985
0.393805 0.697383 0.307958
0.501457 0.646143 0.369390
0.649836 0.677302 0.298100
0.901579 0.739071 0.202976
0.483864 0.879789 0.440101
0.519585 0.872679 0.456825
0.604913 0.846494 0.504326
0.700801 0.834531 0.547967
0.839872 0.868284 0.482063
0.000000 0.069459 0.307439
0.270603 0.107027 0.288090
0.561212 0.171511 0.308507
0.756710 0.290990 0.357458
0.927428 0.397040 0.413611
0.000000 0.316381 0.294194
0.274662 0.291051 0.291356
0.551751 0.306462 0.305180
0.755276 0.361517 0.335943
0.928038 0.438514 0.394507
0.132540 0.547021 0.247715
0.321691 0.521141 0.321691
0.480507 0.503044 0.317571
0.744503 0.538354 0.267887
0.930663 0.560082 0.318822
0.314641 0.727993 0.338872
0.409613 0.712642 0.387396
0.518975 0.661891 0.430182
0.652827 0.680720 0.379095
0.902159 0.736385 0.308995
0.486488 0.885527 0.485420
0.522515 0.878294 0.498573
0.614130 0.856443 0.543603
0.706844 0.836942 0.585046
0.842069 0.870390 0.524254
0.000000 0.123720 0.627466
0.250919 0.175845 0.610803
0.558282 0.247929 0.586847
0.765255 0.369482 0.596887
0.922057 0.456611 0.614954
0.000000 0.352575 0.619837
0.254826 0.325689 0.609796
0.555993 0.366552 0.584985
0.755245 0.439429 0.596094
0.918273 0.499153 0.616083
0.000000 0.620233 0.591058
0.236362 0.605829 0.586236
0.540337 0.555871 0.569726
0.731472 0.570031 0.578271
0.911192 0.599908 0.601862
0.185550 0.774075 0.501610
0.338354 0.760372 0.515923
0.563897 0.716793 0.582330
0.669429 0.697932 0.562860
0.908019 0.726314 0.522179
0.381445 0.910063 0.523430
0.453132 0.903990 0.545830
0.619593 0.878538 0.627161
0.715938 0.838499 0.662196
0.842069 0.869078 0.616999
0.000000 0.210147 0.819486
0.263828 0.244633 0.813443
0.561730 0.361212 0.793729
0.751980 0.431617 0.783017
0.924163 0.560906 0.789883
0.000000 0.363012 0.816159
0.279759 0.370550 0.811185
0.565515 0.446021 0.791623
0.747555 0.496101 0.779171
0.921324 0.596429 0.790677
0.151736 0.623255 0.801633
0.329015 0.615167 0.799405
0.560967 0.601099 0.788724
0.738369 0.626825 0.770687
0.915679 0.671077 0.790127
0.160433 0.818112 0.779599
0.317052 0.809812 0.777340
0.540215 0.786740 0.772366
0.722194 0.741970 0.754604
0.903929 0.747341 0.759915
0.272068 0.946166 0.687343
0.366339 0.942412 0.693019
0.560845 0.925994 0.716548
0.740688 0.886229 0.760250
0.852781 0.873869 0.738918
0.070771 0.300542 0.962371
0.311345 0.330785 0.959258
0.562249 0.439033 0.948486
0.752316 0.576013 0.929931
0.911101 0.595972 0.929015
0.147951 0.403723 0.960876
0.331273 0.426276 0.957824
0.569146 0.503624 0.947570
0.755398 0.609308 0.929717
0.910521 0.625757 0.928313
0.349706 0.640070 0.954162
0.437568 0.644709 0.953185
0.574090 0.634821 0.948302
0.761196 0.688502 0.932372
0.911772 0.703975 0.928893
0.307622 0.807492 0.946014
0.393896 0.804013 0.945647
0.569177 0.793912 0.945678
0.752071 0.784817 0.942504
0.917784 0.807462 0.932891
0.276005 0.984436 0.931365
0.361334 0.980896 0.931426
0.541253 0.970397 0.932555
0.731899 0.952361 0.933776
0.907073 0.911864 0.921508
