data/fiter_cube/12898295/1023041/file.cube
# Created by Adobe Lightroom plugin Export LUT (1.17.0)
# www.johnrellis.com/lightroom/exportlut.htm
# Preset: 经典婚礼摄影_03 云集
# Color profile: C:\Program Files (x86)\Common Files\Adobe\Color\Profiles\Recommended\AdobeRGB1998.icc
LUT_3D_SIZE 5
DOMAIN_MIN 0.000000 0.000000 0.000000
DOMAIN_MAX 0.903226 0.903226 0.903226
0.000000 0.000000 0.000000
0.148104 0.000000 0.045075
0.556085 0.000000 0.000000
0.850278 0.003937 0.020935
0.989837 0.360632 0.262425
0.034363 0.117098 0.082185
0.121309 0.129213 0.075471
0.529076 0.162875 0.000000
0.837827 0.266209 0.000000
0.993500 0.427283 0.241032
0.000000 0.403510 0.189181
0.102327 0.401190 0.161929
0.455085 0.468910 0.174105
0.811917 0.537499 0.120699
0.976318 0.577874 0.260899
0.223423 0.682063 0.392706
0.303075 0.684474 0.399451
0.375891 0.660670 0.306584
0.712490 0.707362 0.399237
0.937652 0.764157 0.492195
0.560479 0.871794 0.651118
0.589044 0.870726 0.656428
0.606256 0.860624 0.616022
0.695033 0.865537 0.592126
0.900999 0.896605 0.694850
0.026276 0.024414 0.102754
0.116365 0.017365 0.115938
0.505791 0.000000 0.176699
0.812070 0.124178 0.229160
0.971710 0.365423 0.322423
0.025330 0.107668 0.127932
0.129641 0.136965 0.150729
0.498207 0.158785 0.176181
0.805661 0.271031 0.227268
0.969299 0.426673 0.331548
0.000000 0.389685 0.236637
0.172396 0.403418 0.250645
0.426154 0.438331 0.244083
0.789853 0.514214 0.224216
0.963439 0.581567 0.364782
0.243290 0.677272 0.429908
0.323217 0.680232 0.440345
0.407294 0.662806 0.374060
0.707088 0.702602 0.446784
0.933593 0.762997 0.526757
0.557885 0.868986 0.660426
0.586755 0.867918 0.665583
0.647761 0.869963 0.665187
0.699641 0.869291 0.616510
0.903960 0.899931 0.713680
0.000000 0.054932 0.315007
0.175692 0.000000 0.350652
0.467292 0.000000 0.382940
0.794003 0.246098 0.483467
0.942443 0.507317 0.594934
0.000000 0.122286 0.319310
0.172519 0.164889 0.359045
0.474342 0.198611 0.411566
0.780850 0.364019 0.503655
0.942779 0.534783 0.595239
0.000000 0.369879 0.378424
0.157229 0.391547 0.395392
0.457649 0.461799 0.458442
0.761440 0.538293 0.522332
0.940978 0.618616 0.587060
0.279210 0.669184 0.524315
0.349218 0.667475 0.529381
0.511955 0.675990 0.553155
0.704829 0.701228 0.570428
0.930144 0.757778 0.607782
0.550500 0.856107 0.689876
0.581567 0.858701 0.697078
0.658839 0.864317 0.710689
0.707271 0.861570 0.670008
0.895354 0.891722 0.739040
0.110292 0.109743 0.602411
0.276921 0.064515 0.622522
0.566247 0.093904 0.670192
0.757656 0.231388 0.659083
0.931426 0.510216 0.706905
0.144961 0.198795 0.601343
0.275059 0.209689 0.616236
0.561486 0.280339 0.670863
0.749203 0.355840 0.664088
0.924773 0.552422 0.713924
0.000000 0.355749 0.572900
0.138094 0.362371 0.577478
0.503868 0.474434 0.645502
0.734249 0.563012 0.686427
0.918334 0.662531 0.743557
0.192813 0.636133 0.639582
0.287907 0.638300 0.641291
0.491432 0.657313 0.659449
0.709682 0.705074 0.704433
0.919097 0.762722 0.753780
0.562585 0.847623 0.751217
0.596399 0.850065 0.756466
0.668727 0.858579 0.770626
0.756191 0.869322 0.780179
0.892424 0.889342 0.794858
0.417548 0.349584 0.825254
0.479744 0.348974 0.828916
0.641535 0.355688 0.842344
0.817319 0.413977 0.859190
0.915038 0.477974 0.822873
0.433783 0.355840 0.829038
0.491371 0.355962 0.832639
0.642420 0.399786 0.842771
0.816068 0.496040 0.860014
0.912566 0.534203 0.828092
0.294163 0.446998 0.818753
0.406439 0.478676 0.822660
0.618860 0.553613 0.835386
0.801724 0.632136 0.859525
0.909209 0.658228 0.845579
0.360998 0.669337 0.820615
0.401373 0.667384 0.820401
0.512688 0.658473 0.820462
0.750546 0.724392 0.850217
0.911406 0.791745 0.876402
0.528862 0.849668 0.852476
0.553521 0.850401 0.853452
0.630915 0.854734 0.858122
0.746304 0.865324 0.868376
0.904601 0.901396 0.901518
