data/fiter_cube/12898295/1023041/file.cube
# Created by Adobe Lightroom plugin Export LUT (1.17.0)
# www.johnrellis.com/lightroom/exportlut.htm
# Preset: 经典婚礼摄影_03 云集
# Color profile: C:\Program Files (x86)\Common Files\Adobe\Color\Profiles\Recommended\AdobeRGB1998.icc
LUT_3D_SIZE 8
DOMAIN_MIN 0.000000 0.000000 0.000000
DOMAIN_MAX 0.903226 0.903226 0.903226
0.000000 0.000000 0.000000
0.069703 0.008667 0.023957
0.191775 0.000000 0.047547
0.434607 0.000000 0.020478
0.654719 0.000000 0.000000
0.820066 0.000000 0.000000
0.918730 0.216434 0.129244
0.989837 0.360632 0.262425
0.024018 0.057343 0.055421
0.063630 0.060700 0.053162
0.183474 0.062959 0.040986
0.408209 0.000000 0.009400
0.632044 0.000000 0.000000
0.799954 0.051423 0.000000
0.903868 0.230655 0.090913
0.982422 0.362249 0.236057
0.027955 0.145571 0.091920
0.055238 0.150423 0.085389
0.149722 0.162203 0.081971
0.398749 0.210147 0.000000
0.642145 0.232944 0.000000
0.800992 0.284337 0.000000
0.913603 0.364416 0.122957
0.990356 0.441016 0.231083
0.000000 0.301793 0.146181
0.044343 0.304967 0.146120
0.118746 0.302647 0.118868
0.354620 0.375372 0.134127
0.644465 0.454322 0.098604
0.807248 0.468696 0.000000
0.906371 0.491951 0.143862
0.982635 0.531518 0.252201
0.000000 0.491005 0.235721
0.085176 0.491768 0.235599
0.148104 0.489174 0.202335
0.254307 0.473884 0.170840
0.532891 0.539574 0.218479
0.742885 0.589654 0.239506
0.877989 0.607385 0.212863
0.971832 0.628199 0.276066
0.169802 0.639734 0.349493
0.212589 0.651087 0.361669
0.292119 0.650690 0.363531
0.312963 0.633112 0.291386
0.452949 0.629908 0.274205
0.681422 0.677516 0.357122
0.837156 0.717830 0.435401
0.948333 0.741848 0.447791
0.359289 0.767147 0.497322
0.379461 0.768734 0.501640
0.425513 0.764492 0.502586
0.437812 0.759792 0.457954
0.478553 0.743191 0.405524
0.630793 0.755215 0.434546
0.792660 0.786099 0.520989
0.906767 0.817533 0.603571
0.560479 0.871794 0.651118
0.568627 0.871183 0.652277
0.599023 0.871000 0.658991
0.637690 0.874205 0.663691
0.621118 0.859892 0.605035
0.666651 0.861997 0.584222
0.798886 0.880827 0.643397
0.900999 0.896605 0.694850
0.013031 0.012696 0.064668
0.059419 0.009979 0.065461
0.164920 0.000000 0.082551
0.389868 0.000000 0.089876
0.620935 0.000000 0.086915
0.788540 0.000000 0.105592
0.895567 0.197391 0.153964
0.976715 0.333043 0.230777
0.019837 0.052399 0.071839
0.064668 0.061982 0.078798
0.167117 0.063844 0.086275
0.383551 0.000000 0.088716
0.611322 0.000000 0.084077
0.778592 0.044038 0.100191
0.884092 0.218845 0.143313
0.968200 0.337987 0.215763
0.038880 0.136416 0.105379
0.072999 0.147860 0.112978
0.150210 0.161624 0.108583
0.384619 0.198367 0.080018
0.612665 0.215457 0.073121
0.774746 0.265324 0.096315
0.885801 0.337316 0.154726
0.972015 0.420600 0.240635
0.000000 0.286595 0.159304
0.069581 0.294377 0.163699
0.131624 0.300084 0.144778
0.323095 0.343023 0.154208
0.591272 0.406958 0.126375
0.766751 0.430274 0.081239
0.876951 0.461341 0.159854
0.964660 0.510674 0.254124
0.026917 0.481636 0.249668
0.099641 0.480812 0.248753
0.175265 0.479988 0.231662
0.239536 0.450080 0.182376
0.503197 0.511742 0.224979
0.721218 0.568841 0.243473
0.863340 0.591547 0.220035
0.960052 0.616144 0.285832
0.165652 0.624811 0.350683
0.194736 0.625910 0.352361
0.273655 0.627588 0.355688
0.305699 0.615839 0.296666
0.437324 0.614405 0.278569
0.673396 0.669917 0.366155
0.830106 0.711177 0.439551
0.941131 0.733059 0.444312
0.333196 0.750912 0.483803
0.345464 0.748287 0.481849
0.397620 0.746670 0.485603
0.428473 0.746426 0.455329
0.470619 0.733486 0.405829
0.617121 0.743709 0.427863
0.779873 0.773526 0.509667
0.896361 0.805295 0.588708
0.541955 0.862791 0.640345
0.553429 0.863523 0.643763
0.586481 0.863981 0.651820
0.634546 0.867735 0.663264
0.639857 0.868345 0.627649
0.674342 0.865263 0.597986
0.794888 0.877470 0.642481
0.895689 0.891142 0.690181
0.025666 0.029938 0.124392
0.068635 0.022797 0.131258
0.151888 0.004822 0.143435
0.390326 0.000000 0.187137
0.616541 0.000000 0.226200
0.787716 0.134829 0.272709
0.894377 0.286320 0.318669
0.974212 0.394324 0.373877
0.021515 0.061097 0.132876
0.072023 0.070405 0.142824
0.155550 0.071321 0.153353
0.377264 0.000000 0.191928
0.608026 0.000000 0.223941
0.778134 0.173861 0.264164
0.886534 0.297307 0.307500
0.969787 0.401465 0.366064
0.010315 0.134981 0.154299
0.066377 0.144869 0.161898
0.164096 0.174899 0.184054
0.375036 0.198550 0.202518
0.617670 0.238010 0.232639
0.775265 0.302403 0.265049
0.882261 0.377356 0.309483
0.966033 0.454475 0.370397
0.004883 0.292363 0.209842
0.087648 0.305180 0.220188
0.194797 0.333318 0.242710
0.347051 0.361303 0.243961
0.611994 0.418769 0.238285
0.769162 0.446571 0.263859
0.877684 0.487404 0.317784
0.962310 0.537438 0.384771
0.070619 0.481209 0.297826
0.127749 0.485328 0.303655
0.235538 0.495552 0.317632
0.296513 0.483040 0.275151
0.524193 0.528832 0.315862
0.729213 0.579828 0.336492
0.865843 0.597223 0.319097
0.955596 0.628199 0.398383
0.187198 0.625971 0.393713
0.219974 0.627710 0.398230
0.299535 0.628992 0.405646
0.351598 0.624323 0.371862
0.432380 0.605982 0.328344
0.667445 0.664424 0.418402
0.825467 0.710262 0.484535
0.941100 0.737392 0.496315
0.355169 0.754208 0.517815
0.370001 0.752621 0.518151
0.416419 0.748867 0.519677
0.483772 0.746181 0.522148
0.491310 0.733577 0.455146
0.614496 0.740444 0.461921
0.784115 0.778347 0.553124
0.903441 0.816464 0.629236
0.543511 0.861845 0.653559
0.549310 0.860472 0.652827
0.580133 0.859556 0.658442
0.639429 0.866056 0.678340
0.649592 0.866575 0.649195
0.682643 0.864988 0.622431
0.795071 0.877989 0.659205
0.898772 0.894652 0.709621
0.000000 0.049134 0.236728
0.072389 0.030335 0.251133
0.201816 0.000000 0.284764
0.353002 0.000000 0.291051
0.606500 0.000000 0.348302
0.769650 0.186831 0.410010
0.868681 0.365454 0.479896
0.953277 0.453132 0.517235
0.000000 0.078798 0.253819
0.079072 0.080781 0.263066
0.205570 0.081422 0.293950
0.357427 0.016358 0.301640
0.607935 0.060456 0.360662
0.763088 0.235782 0.415106
0.863920 0.378271 0.477699
0.951598 0.458198 0.512047
0.000000 0.139284 0.249393
0.014832 0.144869 0.255894
0.189151 0.189120 0.296727
0.356664 0.214389 0.324224
0.604334 0.278233 0.393896
0.759640 0.374578 0.455024
0.872404 0.456184 0.499336
0.955657 0.512474 0.527245
0.000000 0.283238 0.293431
0.000000 0.292760 0.300755
0.186435 0.323674 0.325536
0.364599 0.373754 0.369604
0.587488 0.416663 0.405524
0.747127 0.464515 0.441688
0.861143 0.516930 0.482521
0.950774 0.570184 0.526055
0.104860 0.488594 0.381048
0.159945 0.492836 0.386084
0.267918 0.503899 0.403265
0.398627 0.523491 0.431220
0.541436 0.543450 0.436622
0.736965 0.589105 0.453559
0.857847 0.613916 0.483650
0.947204 0.648066 0.532067
0.229068 0.638239 0.468971
0.268925 0.647120 0.480964
0.345129 0.646113 0.487770
0.443946 0.648615 0.499702
0.480537 0.629877 0.445258
0.677180 0.674128 0.511833
0.828702 0.718990 0.559655
0.942138 0.740780 0.562097
0.375494 0.754238 0.562158
0.394476 0.755215 0.565728
0.447974 0.756466 0.574243
0.519890 0.757321 0.584741
0.553460 0.751339 0.554437
0.618738 0.743618 0.522789
0.787198 0.782193 0.608118
0.906615 0.821775 0.666835
0.561364 0.864622 0.685481
0.570764 0.865293 0.687709
0.595850 0.865385 0.691005
0.639521 0.866667 0.698695
0.681422 0.867094 0.697810
0.697139 0.865934 0.661830
0.791653 0.877073 0.681086
0.900847 0.897215 0.734676
0.000000 0.062470 0.399115
0.078706 0.037568 0.412177
0.234958 0.000000 0.441627
0.430488 0.000000 0.487556
0.572900 0.000000 0.477913
0.761257 0.207645 0.530358
0.861418 0.374395 0.569848
0.939727 0.509270 0.626764
0.000000 0.092195 0.408148
0.094301 0.093843 0.419959
0.239109 0.092317 0.447730
0.434546 0.086091 0.493690
0.575525 0.077302 0.486610
0.758694 0.261265 0.536950
0.859251 0.402594 0.576440
0.938079 0.524376 0.631617
0.000000 0.151461 0.393683
0.000000 0.172091 0.408270
0.226078 0.209659 0.441749
0.423926 0.253819 0.497017
0.572076 0.275669 0.503960
0.742702 0.372290 0.548028
0.848386 0.471290 0.590478
0.930785 0.563043 0.641382
0.000000 0.277104 0.405524
0.000000 0.282902 0.410529
0.172427 0.303593 0.428809
0.391913 0.382330 0.491737
0.565881 0.434363 0.529046
0.729427 0.498421 0.574884
0.839017 0.564233 0.618769
0.931823 0.606348 0.644404
0.000000 0.452583 0.460426
0.011139 0.458442 0.464973
0.221347 0.475074 0.478553
0.383398 0.503868 0.504021
0.541283 0.541497 0.539239
0.712245 0.581323 0.573602
0.834928 0.621973 0.607111
0.931579 0.658991 0.636042
0.201907 0.610956 0.519341
0.239017 0.614252 0.523491
0.337987 0.622461 0.534874
0.451545 0.634424 0.554253
0.544305 0.641169 0.565789
0.669764 0.666865 0.584405
0.828550 0.715145 0.619501
0.934203 0.739284 0.642817
0.395270 0.748928 0.610590
0.409369 0.748104 0.611322
0.456733 0.747829 0.616602
0.526055 0.750332 0.626978
0.597955 0.752651 0.634821
0.619440 0.737758 0.584741
0.781308 0.776822 0.652857
0.905821 0.817716 0.694392
0.552941 0.852995 0.704677
0.560204 0.852689 0.705318
0.584985 0.852689 0.708156
0.635645 0.861540 0.722377
0.682124 0.864012 0.726314
0.710903 0.864225 0.705623
0.773892 0.867918 0.695399
0.895567 0.892119 0.753811
0.079103 0.098634 0.575372
0.157046 0.087251 0.582391
0.300603 0.000000 0.599023
0.473487 0.000000 0.627924
0.633295 0.083680 0.655116
0.733852 0.193301 0.634943
0.855283 0.389227 0.660792
0.935485 0.517723 0.695308
0.114199 0.115511 0.571099
0.167025 0.115358 0.575494
0.295140 0.114931 0.591791
0.466407 0.128267 0.622400
0.630060 0.176699 0.654078
0.728481 0.241276 0.633845
0.851621 0.412329 0.662226
0.932952 0.529870 0.697108
0.105776 0.218357 0.567071
0.163577 0.223972 0.571649
0.290562 0.239109 0.589166
0.466682 0.280430 0.627497
0.635767 0.347021 0.666102
0.725551 0.374090 0.646357
0.847074 0.494026 0.677852
0.929473 0.578180 0.710445
0.000000 0.285008 0.541650
0.000000 0.286839 0.542657
0.204623 0.319890 0.572503
0.451392 0.415534 0.626612
0.636042 0.499947 0.678859
0.727565 0.520439 0.672389
0.844236 0.595148 0.705745
0.927886 0.644526 0.732082
0.000000 0.446906 0.567834
0.023621 0.450233 0.569970
0.217899 0.460853 0.577173
0.364294 0.478096 0.590600
0.567864 0.552483 0.642390
0.706447 0.607324 0.675471
0.828641 0.658167 0.712856
0.920043 0.696986 0.741604
0.133547 0.596918 0.601190
0.184634 0.602106 0.605890
0.292576 0.610193 0.613153
0.420264 0.623255 0.625452
0.548302 0.641657 0.642817
0.682063 0.677882 0.677058
0.821622 0.718410 0.713344
0.924681 0.748470 0.737636
0.366583 0.739437 0.664942
0.391119 0.742061 0.668574
0.455604 0.745632 0.675013
0.547295 0.753597 0.688075
0.633234 0.763149 0.703517
0.694057 0.765316 0.707027
0.786496 0.782132 0.716854
0.917388 0.821958 0.743801
0.569177 0.850278 0.743313
0.575708 0.849973 0.743740
0.598962 0.850156 0.746395
0.639307 0.854490 0.754147
0.684779 0.859495 0.760647
0.736477 0.865293 0.764828
0.762631 0.862425 0.730312
0.893919 0.890776 0.786587
0.233921 0.179232 0.705959
0.272831 0.175601 0.709529
0.379919 0.158083 0.719631
0.517998 0.144625 0.735958
0.659693 0.225528 0.757290
0.763577 0.263951 0.763729
0.829129 0.347112 0.732906
0.923583 0.500633 0.753323
0.255985 0.177676 0.708370
0.290745 0.173892 0.711574
0.386694 0.171328 0.719997
0.515282 0.196170 0.733486
0.656703 0.268528 0.755581
0.761318 0.305943 0.763302
0.826688 0.374609 0.733700
0.921630 0.514824 0.754604
0.259129 0.267460 0.705623
0.290105 0.270634 0.707912
0.382971 0.283574 0.716243
0.513756 0.317479 0.732906
0.651698 0.380499 0.754574
0.759487 0.423255 0.767269
0.824674 0.463661 0.743008
0.920348 0.570489 0.766110
0.002686 0.318029 0.690272
0.152987 0.329473 0.693294
0.347173 0.388403 0.706386
0.494911 0.432288 0.725154
0.638056 0.491615 0.750301
0.758114 0.551934 0.774533
0.821988 0.568597 0.757656
0.919127 0.639368 0.782010
0.000000 0.452522 0.681605
0.110567 0.452522 0.681605
0.229557 0.452674 0.682460
0.377234 0.469459 0.696040
0.596582 0.563012 0.734127
0.747219 0.642420 0.776303
0.817502 0.655970 0.771817
0.916930 0.705959 0.799069
0.194919 0.602441 0.701076
0.224918 0.603296 0.701686
0.306493 0.605829 0.703731
0.409735 0.609522 0.707454
0.520470 0.613916 0.712581
0.697383 0.681666 0.754330
0.814206 0.733608 0.788052
0.915435 0.771420 0.817624
0.326879 0.725368 0.727871
0.346288 0.726375 0.728847
0.404669 0.729000 0.731655
0.487831 0.734127 0.736904
0.584985 0.742397 0.744991
0.685817 0.757565 0.759304
0.792905 0.787900 0.787747
0.914733 0.823697 0.819608
0.505058 0.835691 0.775967
0.516991 0.836423 0.777127
0.556756 0.839902 0.782101
0.614740 0.845640 0.789670
0.684871 0.855161 0.801205
0.756405 0.867735 0.816220
0.808225 0.874510 0.820188
0.894347 0.891356 0.831968
0.417548 0.349584 0.825254
0.437140 0.349554 0.826474
0.498878 0.349401 0.830350
0.590600 0.352636 0.837858
0.693751 0.360510 0.847288
0.797116 0.405982 0.858213
0.870512 0.408667 0.858244
0.915038 0.477974 0.822873
0.423194 0.350500 0.826047
0.442115 0.350469 0.827176
0.502312 0.350774 0.831205
0.592035 0.353582 0.838346
0.693904 0.363653 0.847501
0.795529 0.430518 0.857664
0.868925 0.433387 0.858030
0.913787 0.494789 0.823911
0.434058 0.369146 0.828733
0.451881 0.372503 0.829862
0.507744 0.382971 0.832822
0.593256 0.406470 0.838712
0.691188 0.444007 0.846250
0.791531 0.501274 0.857084
0.865507 0.509300 0.859525
0.911681 0.549767 0.829587
0.387762 0.441932 0.824613
0.422187 0.456947 0.825834
0.494911 0.479530 0.828885
0.582055 0.500114 0.834745
0.682887 0.534508 0.843839
0.784329 0.584619 0.856718
0.861692 0.602472 0.863554
0.909972 0.621454 0.839567
0.264775 0.496651 0.809445
0.291234 0.498970 0.811124
0.369512 0.506615 0.816312
0.515770 0.550408 0.825864
0.656367 0.604974 0.837766
0.767544 0.650904 0.854154
0.857969 0.687709 0.869718
0.909056 0.696101 0.852903
0.336858 0.636896 0.816770
0.350256 0.636011 0.816617
0.393378 0.632959 0.816281
0.457801 0.626184 0.816129
0.553429 0.625452 0.820462
0.731289 0.700923 0.846738
0.853269 0.763882 0.877562
0.910857 0.773342 0.871489
0.429358 0.753964 0.831388
0.439368 0.753841 0.831418
0.473030 0.753384 0.831693
0.527398 0.753048 0.832731
0.595483 0.752071 0.834318
0.671321 0.749050 0.836454
0.812192 0.797147 0.865354
0.913878 0.845121 0.892149
0.528862 0.849668 0.852476
0.536187 0.849821 0.852720
0.561608 0.850736 0.853819
0.604395 0.853025 0.856321
0.660151 0.856870 0.860288
0.727565 0.863127 0.866331
0.807187 0.874418 0.876646
0.904601 0.901396 0.901518
