data/fiter_cube/12898295/1023041/file.cube
# Created by Adobe Lightroom plugin Export LUT (1.17.0)
# www.johnrellis.com/lightroom/exportlut.htm
# Preset: 经典婚礼摄影_03 云集
# Color profile: C:\Program Files (x86)\Common Files\Adobe\Color\Profiles\Recommended\AdobeRGB1998.icc
LUT_3D_SIZE 32
DOMAIN_MIN 0.0 0.0 0.0
DOMAIN_MAX 1.0 1.0 1.0
0.000000 0.000000 0.000000
0.011231 0.000397 0.002930
0.026368 0.001312 0.005707
0.050843 0.003815 0.013458
0.069703 0.008667 0.023957
0.087953 0.012329 0.032868
0.113588 0.009491 0.039826
0.148104 0.000000 0.045075
0.191775 0.000000 0.047547
0.244144 0.000000 0.047608
0.304112 0.000000 0.043519
0.368994 0.000000 0.034730
0.434607 0.000000 0.020478
0.497963 0.000000 0.002106
0.556085 0.000000 0.000000
0.608057 0.000000 0.000000
0.654719 0.000000 0.000000
0.696468 0.000000 0.000000
0.740383 0.000000 0.000000
0.784421 0.000000 0.000000
0.820066 0.000000 0.000000
0.850278 0.003937 0.020935
0.876005 0.126070 0.073274
0.898589 0.176516 0.101778
0.918730 0.216434 0.129244
0.937407 0.252567 0.157259
0.955291 0.287907 0.188113
0.972717 0.323613 0.222568
0.989837 0.360632 0.262425
1.000000 0.399634 0.307897
1.000000 0.440986 0.359258
1.000000 0.485359 0.416297
0.003906 0.007294 0.007965
0.010376 0.008576 0.007691
0.027680 0.008057 0.007263
0.052430 0.009369 0.011872
0.070527 0.014221 0.021271
0.088197 0.018128 0.030213
0.112978 0.017151 0.037110
0.146487 0.005554 0.042481
0.189029 0.000000 0.045380
0.240177 0.000000 0.045533
0.299016 0.000000 0.041566
0.362463 0.000000 0.032441
0.427283 0.000000 0.018738
0.490333 0.000000 0.001007
0.548486 0.000000 0.000000
0.600763 0.000000 0.000000
0.647608 0.000000 0.000000
0.690028 0.000000 0.000000
0.734707 0.000000 0.000000
0.778042 0.000000 0.000000
0.813443 0.000000 0.000000
0.843687 0.000000 0.000000
0.869749 0.118776 0.061219
0.892729 0.169284 0.092592
0.913359 0.209354 0.120119
0.932525 0.245884 0.148531
0.951019 0.281346 0.179507
0.968933 0.317388 0.213962
0.986542 0.354498 0.253696
1.000000 0.393713 0.299138
1.000000 0.435126 0.350439
1.000000 0.479377 0.407446
0.007050 0.016968 0.017914
0.012146 0.018463 0.017639
0.023987 0.017670 0.018494
0.051362 0.019959 0.017548
0.070924 0.023407 0.021576
0.088258 0.027527 0.028351
0.112520 0.027008 0.034211
0.145205 0.016541 0.039643
0.186923 0.000000 0.042603
0.237064 0.000000 0.042817
0.294865 0.000000 0.038911
0.357885 0.000000 0.029755
0.422431 0.000000 0.015106
0.485298 0.000000 0.000000
0.543511 0.000000 0.000000
0.596094 0.000000 0.000000
0.643214 0.000000 0.000000
0.685878 0.000000 0.000000
0.731777 0.000000 0.000000
0.774380 0.000000 0.000000
0.809812 0.000000 0.000000
0.840146 0.013764 0.000000
0.866361 0.122927 0.048890
0.889525 0.170596 0.085542
0.910430 0.209781 0.113893
0.929839 0.245151 0.142794
0.948608 0.280247 0.173861
0.966827 0.315892 0.208621
0.984710 0.352880 0.248234
1.000000 0.391760 0.293523
1.000000 0.433021 0.345220
1.000000 0.476936 0.402075
0.016022 0.034668 0.038941
0.020905 0.036164 0.039765
0.026429 0.037690 0.037354
0.046052 0.037934 0.037903
0.068299 0.044038 0.036316
0.089693 0.048341 0.030793
0.113375 0.048096 0.035584
0.145632 0.040681 0.038666
0.186221 0.021118 0.039185
0.235142 0.000000 0.037964
0.291630 0.000000 0.032593
0.353460 0.000000 0.023133
0.416968 0.000000 0.009491
0.479225 0.000000 0.000000
0.537407 0.000000 0.000000
0.590204 0.000000 0.000000
0.637568 0.000000 0.000000
0.680476 0.000000 0.000000
0.727932 0.000000 0.000000
0.768826 0.000000 0.000000
0.803494 0.000000 0.000000
0.833616 0.071382 0.000000
0.860472 0.134981 0.018097
0.884764 0.178866 0.071443
0.906981 0.216281 0.103975
0.927672 0.251469 0.135592
0.947326 0.286259 0.168643
0.966125 0.321447 0.204105
0.984222 0.357366 0.244358
1.000000 0.395117 0.289891
1.000000 0.434821 0.340703
1.000000 0.477211 0.397070
0.024018 0.057343 0.055421
0.028534 0.059022 0.056794
0.031769 0.059815 0.053346
0.042512 0.060060 0.052277
0.063630 0.060700 0.053162
0.082399 0.064485 0.050660
0.110933 0.067079 0.043824
0.144472 0.066621 0.040833
0.183474 0.062959 0.040986
0.230533 0.049531 0.039490
0.285252 0.007416 0.033997
0.345586 0.000000 0.024384
0.408209 0.000000 0.009400
0.470375 0.000000 0.000000
0.529290 0.000000 0.000000
0.583337 0.000000 0.000000
0.632044 0.000000 0.000000
0.678279 0.000000 0.000000
0.726345 0.000000 0.000000
0.766079 0.000000 0.000000
0.799954 0.051423 0.000000
0.829709 0.118898 0.000000
0.856535 0.161563 0.010803
0.881102 0.197604 0.064027
0.903868 0.230655 0.090913
0.925017 0.262821 0.124636
0.945068 0.295140 0.159213
0.964141 0.328008 0.195773
0.982422 0.362249 0.236057
1.000000 0.398474 0.281804
1.000000 0.436988 0.333165
1.000000 0.478218 0.389532
0.029786 0.072602 0.065095
0.034485 0.073487 0.065339
0.039063 0.074769 0.065583
0.046021 0.074861 0.062104
0.061158 0.074800 0.061433
0.077363 0.076448 0.062074
0.101320 0.081331 0.061006
0.137179 0.087037 0.053864
0.183169 0.089693 0.041627
0.229496 0.087526 0.038087
0.282811 0.081025 0.032746
0.341955 0.067475 0.021118
0.403540 0.026093 0.006409
0.465278 0.000000 0.000000
0.524346 0.000000 0.000000
0.578729 0.000000 0.000000
0.628016 0.000000 0.000000
0.680079 0.000000 0.000000
0.726070 0.005280 0.000000
0.765103 0.090700 0.000000
0.798886 0.131563 0.000000
0.828916 0.165957 0.000000
0.892119 0.256107 0.089204
0.913848 0.282811 0.114809
0.933379 0.307897 0.138430
0.951537 0.331884 0.161837
0.968383 0.357305 0.195010
0.984558 0.384466 0.233005
1.000000 0.413642 0.274784
1.000000 0.445350 0.321019
1.000000 0.479744 0.371984
1.000000 0.516625 0.426215
0.034333 0.093812 0.073762
0.038514 0.095064 0.074311
0.045441 0.096468 0.074434
0.048951 0.097475 0.070741
0.060395 0.096590 0.069154
0.075288 0.098268 0.068544
0.098665 0.102083 0.069184
0.131746 0.109590 0.068421
0.179049 0.119722 0.060761
0.236332 0.125978 0.044556
0.298528 0.127138 0.022644
0.358679 0.123629 0.008148
0.419959 0.117189 0.000000
0.480323 0.109407 0.000000
0.537041 0.101656 0.000000
0.588617 0.097932 0.000000
0.641108 0.105715 0.000000
0.694392 0.126619 0.000000
0.738491 0.150027 0.000000
0.777157 0.175387 0.000000
0.812131 0.203464 0.000000
0.844511 0.232853 0.000000
0.874174 0.263005 0.067323
0.900877 0.291997 0.100252
0.924468 0.319249 0.128756
0.945037 0.343938 0.155245
0.963592 0.367285 0.181094
0.980682 0.391882 0.215915
0.996979 0.419226 0.259129
1.000000 0.448798 0.305760
1.000000 0.481270 0.356939
1.000000 0.516747 0.412207
0.034363 0.117098 0.082185
0.038758 0.118044 0.082338
0.043946 0.119387 0.082734
0.051850 0.121675 0.081453
0.059358 0.120607 0.076356
0.069062 0.118837 0.073976
0.091432 0.123262 0.074434
0.121309 0.129213 0.075471
0.161166 0.138155 0.075563
0.215763 0.152255 0.065553
0.279576 0.161837 0.045502
0.349340 0.166690 0.005921
0.413031 0.166415 0.000000
0.472724 0.164370 0.000000
0.529076 0.162875 0.000000
0.584375 0.164920 0.000000
0.641779 0.175784 0.000000
0.691096 0.188968 0.000000
0.733242 0.204196 0.000000
0.771054 0.222080 0.000000
0.805631 0.242985 0.000000
0.837827 0.266209 0.000000
0.867491 0.291081 0.061372
0.894377 0.315648 0.095125
0.918364 0.339300 0.124056
0.939361 0.361303 0.151400
0.958434 0.382361 0.177066
0.976379 0.403388 0.203403
0.993500 0.427283 0.241032
1.000000 0.454902 0.289158
1.000000 0.485603 0.341344
1.000000 0.519341 0.397559
0.027955 0.145571 0.091920
0.032166 0.146456 0.092042
0.037018 0.147829 0.092348
0.050904 0.150576 0.092683
0.055238 0.150423 0.085389
0.067903 0.147860 0.082582
0.082277 0.146517 0.080293
0.112642 0.154025 0.081147
0.149722 0.162203 0.081971
0.196292 0.173312 0.084230
0.258274 0.190799 0.071443
0.327306 0.202701 0.048585
0.398749 0.210147 0.000000
0.467903 0.213687 0.000000
0.529137 0.217166 0.000000
0.589319 0.224460 0.000000
0.642145 0.232944 0.000000
0.688746 0.242924 0.000000
0.729488 0.254185 0.000000
0.766659 0.267887 0.000000
0.800992 0.284337 0.000000
0.832914 0.303075 0.000000
0.862547 0.323308 0.056855
0.889433 0.344152 0.093111
0.913603 0.364416 0.122957
0.934936 0.383398 0.149599
0.954345 0.402014 0.175906
0.972625 0.420905 0.202365
0.990356 0.441016 0.231083
1.000000 0.464851 0.272709
1.000000 0.493050 0.325689
1.000000 0.524559 0.382727
0.014832 0.178164 0.102693
0.020203 0.178836 0.103029
0.026642 0.179904 0.103059
0.042939 0.182437 0.103029
0.056062 0.183749 0.099092
0.065309 0.181064 0.092012
0.079164 0.177615 0.088533
0.101411 0.179049 0.087068
0.138369 0.188693 0.088319
0.182193 0.199222 0.089387
0.235325 0.211460 0.094087
0.302495 0.231144 0.078767
0.375158 0.245945 0.055482
0.455024 0.260563 0.000000
0.529992 0.271427 0.000000
0.591974 0.279423 0.000000
0.643336 0.286900 0.000000
0.689021 0.295384 0.000000
0.728969 0.304173 0.000000
0.765164 0.314702 0.000000
0.798215 0.326848 0.000000
0.828641 0.340703 0.000000
0.856992 0.355962 0.048127
0.883024 0.371984 0.088533
0.906859 0.388373 0.118441
0.928557 0.404669 0.145632
0.948669 0.421302 0.172366
0.967803 0.438911 0.200168
0.986358 0.457923 0.229953
1.000000 0.478614 0.262547
1.000000 0.503838 0.310246
1.000000 0.533959 0.370092
0.000000 0.211917 0.114199
0.005219 0.212680 0.114229
0.012482 0.213748 0.114412
0.030701 0.216007 0.114778
0.059266 0.219547 0.114809
0.060334 0.217227 0.102693
0.077485 0.213718 0.099031
0.093629 0.209537 0.094728
0.125765 0.215793 0.094453
0.169375 0.227848 0.096254
0.220920 0.241764 0.098421
0.286961 0.260746 0.104646
0.362615 0.284489 0.091157
0.440070 0.302983 0.066316
0.513756 0.316686 0.000000
0.579889 0.327123 0.000000
0.638544 0.335607 0.000000
0.684169 0.342046 0.000000
0.723720 0.348760 0.000000
0.759731 0.356603 0.000000
0.792874 0.366217 0.000000
0.823484 0.377173 0.000000
0.852110 0.389868 0.039551
0.878447 0.403326 0.087709
0.902525 0.417060 0.118502
0.924376 0.430671 0.145785
0.944640 0.444831 0.172946
0.963867 0.460029 0.200198
0.982574 0.476936 0.229923
1.000000 0.495613 0.262089
1.000000 0.516472 0.297917
1.000000 0.543053 0.352758
0.000000 0.249851 0.127321
0.000000 0.250645 0.127504
0.000000 0.251682 0.127657
0.016144 0.253574 0.127932
0.052308 0.256779 0.128054
0.063325 0.256992 0.120424
0.074372 0.253574 0.111208
0.093172 0.249241 0.106538
0.111604 0.245029 0.101472
0.158206 0.261509 0.104280
0.213077 0.279973 0.107942
0.276371 0.298863 0.111696
0.392981 0.356847 0.131624
0.474189 0.381048 0.121218
0.548180 0.399298 0.096223
0.612787 0.411780 0.062684
0.668971 0.420264 0.000000
0.716304 0.424933 0.000000
0.755337 0.427039 0.000000
0.786770 0.430121 0.000000
0.815763 0.434760 0.000000
0.842985 0.441077 0.045716
0.868162 0.448524 0.089570
0.891722 0.457221 0.120058
0.913481 0.466560 0.147433
0.933623 0.476722 0.173739
0.952392 0.487465 0.199466
0.970336 0.499397 0.225895
0.987793 0.513024 0.254643
1.000000 0.528740 0.286076
1.000000 0.546715 0.320623
1.000000 0.567193 0.358862
0.000000 0.301793 0.146181
0.000000 0.302251 0.146365
0.000000 0.302617 0.146242
0.000000 0.303471 0.146120
0.044343 0.304967 0.146120
0.071809 0.308446 0.143801
0.073060 0.307256 0.128786
0.096498 0.304967 0.123995
0.118746 0.302647 0.118868
0.148470 0.305303 0.115023
0.208347 0.327153 0.120424
0.277623 0.350927 0.126619
0.354620 0.375372 0.134127
0.436530 0.399145 0.146853
0.516197 0.423926 0.144198
0.585138 0.442390 0.123384
0.644465 0.454322 0.098604
0.694850 0.461067 0.065309
0.737972 0.464393 0.000000
0.776089 0.466316 0.000000
0.807248 0.468696 0.000000
0.834806 0.472816 0.017975
0.860319 0.478126 0.083986
0.884215 0.484596 0.115694
0.906371 0.491951 0.143862
0.926940 0.500114 0.170291
0.946197 0.509148 0.196658
0.964599 0.519463 0.223575
0.982635 0.531518 0.252201
1.000000 0.545861 0.284184
1.000000 0.562524 0.319188
1.000000 0.581842 0.357977
0.000000 0.352575 0.166506
0.000000 0.353307 0.166842
0.000000 0.353765 0.166842
0.000000 0.354986 0.167025
0.040772 0.356878 0.167239
0.080720 0.359716 0.167575
0.084962 0.358007 0.153689
0.098482 0.354284 0.142214
0.122438 0.350103 0.135897
0.145388 0.346380 0.129122
0.187930 0.355261 0.128603
0.255009 0.378241 0.135500
0.328771 0.401678 0.143679
0.406622 0.424445 0.153109
0.483803 0.444648 0.166903
0.555993 0.465675 0.170840
0.617762 0.481270 0.152041
0.671168 0.491188 0.131777
0.717311 0.496986 0.110536
0.757839 0.500542 0.087648
0.794156 0.502922 0.059571
0.827146 0.504906 0.000000
0.853269 0.508537 0.078218
0.877745 0.513451 0.113161
0.900420 0.519280 0.142428
0.921447 0.525780 0.170199
0.941222 0.533288 0.196994
0.960082 0.542138 0.223941
0.978515 0.552850 0.253361
0.996796 0.565850 0.285985
1.000000 0.581201 0.321477
1.000000 0.599329 0.360998
0.000000 0.403510 0.189181
0.000000 0.404273 0.189548
0.000000 0.404181 0.189273
0.000000 0.404517 0.189242
0.050050 0.404883 0.188968
0.086885 0.405829 0.188632
0.103792 0.405493 0.181643
0.102327 0.401190 0.161929
0.127108 0.396521 0.155215
0.150851 0.392126 0.147799
0.174685 0.387945 0.140047
0.232029 0.404120 0.144228
0.303777 0.426795 0.152956
0.379217 0.448737 0.162844
0.455085 0.468910 0.174105
0.525536 0.485328 0.188327
0.591211 0.503136 0.199405
0.647272 0.516838 0.182101
0.696223 0.525689 0.165560
0.739223 0.531273 0.149905
0.777462 0.534936 0.135348
0.811917 0.537499 0.120699
0.843503 0.539391 0.104982
0.871031 0.542016 0.110445
0.894347 0.546441 0.141634
0.916258 0.552026 0.169863
0.936980 0.558923 0.198795
0.956909 0.567407 0.228763
0.976318 0.577874 0.260899
0.995483 0.590600 0.295598
1.000000 0.605737 0.333654
1.000000 0.623560 0.375647
0.000000 0.450233 0.212589
0.000000 0.451026 0.213077
0.000000 0.451331 0.212955
0.007019 0.451728 0.212955
0.067659 0.452430 0.213046
0.099489 0.453742 0.213169
0.128908 0.455909 0.213657
0.124880 0.452461 0.193179
0.137697 0.448127 0.179568
0.161593 0.442939 0.171420
0.185153 0.437415 0.162631
0.210025 0.431983 0.153597
0.279942 0.451942 0.162325
0.352178 0.471138 0.172244
0.424903 0.489113 0.183322
0.495399 0.505608 0.195041
0.559808 0.519371 0.209506
0.621210 0.535760 0.228122
0.674220 0.549615 0.214450
0.720790 0.559045 0.202426
0.761868 0.565454 0.191562
0.798428 0.569818 0.181888
0.831693 0.573083 0.172824
0.862333 0.575677 0.163607
0.890654 0.577783 0.154116
0.913848 0.581933 0.177432
0.935058 0.587732 0.207279
0.955291 0.595087 0.237736
0.974914 0.604211 0.270390
0.994049 0.615351 0.305394
1.000000 0.628595 0.342962
1.000000 0.644465 0.383825
0.000000 0.491005 0.235721
0.000000 0.491188 0.235630
0.000000 0.491127 0.235599
0.052552 0.491402 0.235538
0.085176 0.491768 0.235599
0.113191 0.492592 0.235874
0.141543 0.494148 0.236271
0.150668 0.492958 0.224582
0.148104 0.489174 0.202335
0.170962 0.484108 0.194095
0.194003 0.478767 0.185275
0.216953 0.472816 0.175326
0.254307 0.473884 0.170840
0.325658 0.492439 0.181369
0.397253 0.509728 0.192721
0.466926 0.525170 0.205142
0.532891 0.539574 0.218479
0.593988 0.553185 0.233646
0.650385 0.567468 0.259892
0.699458 0.580560 0.248875
0.742885 0.589654 0.239506
0.781369 0.595880 0.231846
0.816159 0.600488 0.224949
0.848234 0.604273 0.218784
0.877989 0.607385 0.212863
0.905577 0.610132 0.207553
0.930755 0.613367 0.209751
0.951690 0.619898 0.242283
0.971832 0.628199 0.276066
0.991485 0.638422 0.312200
1.000000 0.650874 0.350896
1.000000 0.665827 0.392737
0.041413 0.531212 0.261387
0.059205 0.532280 0.262211
0.104128 0.564324 0.286168
0.118654 0.564202 0.286076
0.137911 0.563745 0.285740
0.160037 0.563195 0.285313
0.184543 0.562646 0.284703
0.204654 0.561700 0.280156
0.197055 0.557244 0.254948
0.206790 0.551751 0.238041
0.227390 0.545312 0.227085
0.248417 0.538170 0.215244
0.269322 0.529686 0.202182
0.320012 0.534813 0.203250
0.391913 0.549737 0.215732
0.461067 0.563470 0.229191
0.526146 0.576318 0.243717
0.586511 0.588739 0.259373
0.642695 0.601007 0.276158
0.691402 0.611017 0.309667
0.734676 0.621515 0.300572
0.773342 0.628840 0.293584
0.808499 0.634150 0.287480
0.840574 0.638239 0.281987
0.869932 0.640864 0.275975
0.897093 0.642939 0.270726
0.922698 0.644770 0.265995
0.947204 0.647059 0.263066
0.968902 0.652369 0.282261
0.988739 0.661250 0.318517
1.000000 0.672541 0.357794
1.000000 0.686275 0.399939
0.102937 0.576806 0.295384
0.112154 0.580957 0.298833
0.123049 0.585077 0.302342
0.138857 0.588678 0.305486
0.158267 0.591211 0.307774
0.179416 0.592065 0.308751
0.202243 0.592187 0.308904
0.226871 0.591974 0.308782
0.226841 0.589075 0.290196
0.222232 0.584894 0.265110
0.241367 0.579004 0.254246
0.260960 0.572595 0.242557
0.280522 0.564843 0.229374
0.299748 0.555932 0.215000
0.362951 0.566217 0.223362
0.432105 0.579217 0.236759
0.497444 0.591455 0.251408
0.558343 0.603388 0.267063
0.615015 0.615167 0.284123
0.668025 0.626978 0.302861
0.713252 0.636194 0.340307
0.754482 0.647059 0.337072
0.791531 0.655055 0.332799
0.825376 0.661189 0.329320
0.856291 0.665675 0.325719
0.884825 0.669276 0.322576
0.911589 0.672358 0.320348
0.937041 0.675624 0.319921
0.961791 0.679591 0.321965
0.986084 0.684474 0.326635
1.000000 0.694636 0.365606
1.000000 0.707271 0.407874
0.135958 0.608484 0.321447
0.144259 0.612116 0.324956
0.153262 0.615869 0.328283
0.166873 0.619013 0.331426
0.183871 0.621271 0.333654
0.202762 0.622034 0.334752
0.223606 0.622004 0.335119
0.246372 0.621729 0.335180
0.258976 0.620539 0.326818
0.251041 0.617151 0.301183
0.259342 0.612604 0.284154
0.277470 0.606836 0.272496
0.295476 0.599939 0.259556
0.313970 0.592035 0.245457
0.337835 0.585138 0.232883
0.407324 0.597589 0.246647
0.472969 0.609308 0.261326
0.534295 0.620447 0.277134
0.591241 0.631464 0.294316
0.644526 0.642664 0.313329
0.694057 0.653864 0.333898
0.736110 0.662745 0.372290
0.774868 0.673274 0.377081
0.810208 0.681666 0.375128
0.842374 0.688045 0.373114
0.872068 0.692958 0.371221
0.899718 0.697200 0.370550
0.925933 0.701381 0.371649
0.951263 0.706111 0.375372
0.976013 0.711635 0.381750
1.000000 0.718135 0.390875
1.000000 0.727504 0.414221
0.169802 0.639734 0.349493
0.176822 0.643122 0.352911
0.185489 0.646387 0.356359
0.197452 0.649195 0.359442
0.212589 0.651087 0.361669
0.229648 0.651637 0.362799
0.248234 0.651453 0.363073
0.269047 0.651026 0.363287
0.292119 0.650690 0.363531
0.285039 0.647791 0.340398
0.280339 0.644556 0.315801
0.296452 0.639246 0.304265
0.312963 0.633112 0.291386
0.330205 0.626154 0.277562
0.347692 0.618311 0.262272
0.385107 0.617731 0.257939
0.452949 0.629908 0.274205
0.516533 0.641810 0.292210
0.575402 0.653712 0.311986
0.630426 0.665614 0.333776
0.681422 0.677516 0.357122
0.728389 0.689296 0.381781
0.766964 0.697810 0.421241
0.803616 0.708766 0.434394
0.837156 0.717830 0.435401
0.867765 0.724910 0.436622
0.896086 0.730739 0.438575
0.922759 0.736202 0.441932
0.948333 0.741848 0.447791
0.973144 0.748074 0.455756
0.997528 0.755154 0.466499
1.000000 0.763851 0.480964
0.223423 0.682063 0.392706
0.228031 0.683436 0.394537
0.233097 0.684535 0.396002
0.241550 0.685237 0.397101
0.253269 0.685573 0.397986
0.267338 0.685298 0.398566
0.283879 0.684871 0.398901
0.303075 0.684474 0.399451
0.324773 0.684321 0.400397
0.330510 0.683345 0.388739
0.323156 0.681544 0.364355
0.329900 0.678126 0.347784
0.344762 0.673182 0.335515
0.360021 0.667323 0.321660
0.375891 0.660670 0.306584
0.392370 0.653223 0.290196
0.441810 0.657221 0.295140
0.505028 0.667475 0.313329
0.563256 0.677607 0.332860
0.617182 0.687587 0.354009
0.666773 0.697536 0.376257
0.712490 0.707362 0.399237
0.754513 0.716976 0.422370
0.788998 0.723781 0.458076
0.822721 0.733791 0.475288
0.854429 0.742794 0.477211
0.883818 0.750423 0.480507
0.911406 0.757351 0.485298
0.937652 0.764157 0.492195
0.962982 0.771267 0.501122
0.987854 0.779232 0.513024
1.000000 0.788785 0.528527
0.262119 0.709529 0.423651
0.266545 0.710842 0.425513
0.271275 0.711940 0.427008
0.279149 0.712642 0.428321
0.289403 0.712825 0.429328
0.301701 0.712398 0.429694
0.316258 0.711635 0.429969
0.332830 0.710842 0.430243
0.352239 0.710323 0.431189
0.368566 0.709773 0.428779
0.361425 0.708309 0.407141
0.356847 0.706325 0.384161
0.369787 0.702266 0.372656
0.383429 0.697536 0.359808
0.398047 0.692256 0.345708
0.413397 0.686427 0.330388
0.429694 0.680262 0.314366
0.489754 0.688411 0.330236
0.548791 0.697841 0.350500
0.602930 0.707301 0.372168
0.652979 0.716732 0.394842
0.699092 0.726162 0.418463
0.741604 0.735683 0.442237
0.780789 0.745052 0.465736
0.807034 0.745388 0.488106
0.838834 0.755245 0.510155
0.869474 0.764889 0.514336
0.898070 0.773434 0.519982
0.925109 0.781552 0.527642
0.951141 0.789761 0.537499
0.976959 0.799252 0.551171
1.000000 0.809903 0.567895
0.319341 0.744228 0.467292
0.323857 0.745541 0.469306
0.327977 0.746273 0.470588
0.333867 0.746365 0.471290
0.341680 0.745876 0.471412
0.351446 0.744930 0.471260
0.362951 0.743587 0.470893
0.376471 0.742031 0.470466
0.392065 0.740444 0.470192
0.409522 0.739071 0.470344
0.407019 0.737057 0.454566
0.398199 0.735073 0.430976
0.401678 0.731655 0.414374
0.411933 0.726986 0.401312
0.422980 0.721553 0.386755
0.434821 0.715541 0.370703
0.448127 0.709285 0.354009
0.471473 0.705745 0.343572
0.530571 0.713985 0.363195
0.585473 0.722866 0.384833
0.636194 0.731899 0.407874
0.682856 0.740963 0.431098
0.725460 0.749691 0.454078
0.764279 0.757900 0.475959
0.799588 0.765560 0.496529
0.828183 0.770382 0.525048
0.857816 0.779965 0.551324
0.886778 0.789700 0.556664
0.914244 0.798795 0.563989
0.940887 0.808164 0.574334
0.967193 0.818448 0.587884
0.993530 0.829862 0.604547
0.359289 0.767147 0.497322
0.363348 0.768399 0.499245
0.367285 0.769070 0.500542
0.372534 0.769162 0.501335
0.379461 0.768734 0.501640
0.388159 0.767910 0.501793
0.398688 0.766812 0.501915
0.411078 0.765652 0.502098
0.425513 0.764492 0.502586
0.441810 0.763546 0.503746
0.449897 0.762387 0.497719
0.442725 0.761288 0.478401
0.437812 0.759792 0.457954
0.446784 0.756374 0.446937
0.456336 0.752346 0.434241
0.466835 0.747890 0.420386
0.478553 0.743191 0.405524
0.492012 0.738552 0.390112
0.526177 0.739467 0.390845
0.580591 0.747189 0.412238
0.630793 0.755215 0.434546
0.676936 0.763424 0.457191
0.719142 0.771359 0.479255
0.757565 0.778897 0.500481
0.792660 0.786099 0.520989
0.824735 0.792874 0.540246
0.850767 0.797024 0.565972
0.878538 0.806668 0.595483
0.906767 0.817533 0.603571
0.934112 0.828367 0.614405
0.960937 0.839597 0.627832
0.987762 0.851865 0.644038
0.406409 0.792782 0.532555
0.409583 0.793576 0.534020
0.412146 0.793851 0.534783
0.416144 0.793545 0.535027
0.421332 0.792782 0.534844
0.428168 0.791684 0.534661
0.436774 0.790463 0.534417
0.447456 0.789181 0.534569
0.460121 0.788052 0.535180
0.474739 0.787198 0.536645
0.490761 0.786404 0.538262
0.485389 0.785824 0.522515
0.478828 0.785214 0.503532
0.481758 0.783200 0.490333
0.489570 0.780117 0.479316
0.498329 0.776516 0.467140
0.508019 0.772610 0.453742
0.519554 0.768856 0.440040
0.533013 0.765499 0.426459
0.575494 0.769589 0.437537
0.625238 0.776761 0.458869
0.670893 0.784024 0.480568
0.712673 0.791196 0.501640
0.750790 0.798123 0.522393
0.785550 0.804654 0.542168
0.817319 0.810849 0.560876
0.846647 0.816922 0.578759
0.870695 0.820615 0.601160
0.897002 0.830289 0.633021
0.924987 0.842466 0.643702
0.952300 0.854643 0.656489
0.979553 0.867582 0.672023
0.448585 0.815579 0.564904
0.451026 0.816037 0.565850
0.453376 0.816281 0.566522
0.456977 0.816159 0.567071
0.462379 0.815854 0.567651
0.469947 0.815610 0.568750
0.480354 0.815793 0.570947
0.493019 0.816281 0.573968
0.507836 0.817136 0.577874
0.524468 0.818204 0.582727
0.542229 0.819394 0.587884
0.549004 0.820737 0.584039
0.546197 0.822019 0.571160
0.544518 0.822629 0.557366
0.552026 0.821378 0.549859
0.559350 0.819364 0.540459
0.567437 0.816983 0.530083
0.576776 0.814603 0.519036
0.588037 0.812589 0.508141
0.601038 0.810971 0.497292
0.647333 0.816495 0.516564
0.690120 0.822232 0.536492
0.729091 0.827848 0.555810
0.764614 0.833280 0.574273
0.797055 0.838560 0.591699
0.826993 0.843839 0.608301
0.854765 0.849027 0.624140
0.880705 0.854124 0.639185
0.902220 0.857176 0.657435
0.926055 0.865934 0.688258
0.953277 0.878935 0.700435
0.980468 0.892454 0.715053
0.516411 0.849180 0.616480
0.518120 0.849424 0.617182
0.519463 0.849332 0.617365
0.521904 0.848966 0.617456
0.525872 0.848325 0.617609
0.531304 0.847684 0.618036
0.538781 0.847166 0.619074
0.547936 0.846860 0.620722
0.558984 0.846738 0.623072
0.571496 0.846830 0.625940
0.584833 0.846921 0.628992
0.596002 0.847257 0.629938
0.592401 0.847807 0.618280
0.588159 0.848234 0.604364
