data/fiter_cube/37639453/1023444/file.cube
# Created by Adobe Lightroom plugin Export LUT (1.17.0)
# www.johnrellis.com/lightroom/exportlut.htm
# Preset: 油管牛人_10 云集
# Color profile: C:\Program Files (x86)\Common Files\Adobe\Color\Profiles\Recommended\AdobeRGB1998.icc
LUT_3D_SIZE 8
DOMAIN_MIN 0.000000 0.000000 0.000000
DOMAIN_MAX 0.903226 0.903226 0.903226
0.028626 0.033387 0.048890
0.072450 0.042512 0.054231
0.164645 0.037232 0.059388
0.372320 0.000000 0.034730
0.620844 0.000000 0.000000
0.822202 0.000000 0.000000
0.927764 0.106630 0.000000
0.994537 0.267124 0.096620
0.030915 0.070771 0.059205
0.068147 0.074159 0.062165
0.158267 0.082399 0.059846
0.352636 0.011170 0.036805
0.599908 0.000000 0.000000
0.800717 0.000000 0.000000
0.914214 0.150729 0.000000
0.987915 0.282170 0.079988
0.000000 0.150973 0.065278
0.054658 0.155520 0.073884
0.142794 0.176242 0.067597
0.366583 0.211398 0.000000
0.624598 0.215854 0.000000
0.809873 0.253574 0.000000
0.925933 0.321569 0.000000
0.993072 0.388373 0.119631
0.000000 0.307530 0.047120
0.000000 0.308629 0.052064
0.117037 0.300359 0.080323
0.349981 0.388098 0.013672
0.671504 0.465553 0.000000
0.828244 0.467781 0.000000
0.922515 0.476631 0.000000
0.986572 0.500816 0.139864
0.000000 0.509361 0.000000
0.000000 0.510094 0.000000
0.083619 0.510735 0.101717
0.270024 0.484321 0.081331
0.572259 0.580163 0.000000
0.795132 0.625849 0.000000
0.905364 0.618647 0.007263
0.976806 0.620844 0.174380
0.000000 0.693355 0.000000
0.000000 0.705013 0.000000
0.000000 0.700160 0.113558
0.312566 0.674861 0.150301
0.472206 0.648005 0.108644
0.730434 0.727260 0.155337
0.889616 0.758755 0.238621
0.964721 0.746426 0.296422
0.000000 0.833494 0.120211
0.000000 0.834684 0.125216
0.000000 0.827359 0.171206
0.379400 0.809232 0.284977
0.496681 0.779629 0.229679
0.649714 0.779934 0.219913
0.832242 0.825345 0.320500
0.941558 0.842924 0.434546
0.000000 0.925750 0.266941
0.000000 0.924376 0.273991
0.185214 0.919951 0.305760
0.485389 0.905882 0.444007
0.575036 0.883024 0.425788
0.662501 0.870390 0.381445
0.793545 0.881743 0.434607
0.907378 0.901671 0.542657
0.034363 0.040681 0.077241
0.071138 0.041962 0.080018
0.152682 0.032410 0.083589
0.341497 0.000000 0.089082
0.589105 0.000000 0.071473
0.788479 0.000000 0.038819
0.906554 0.012818 0.066651
0.982269 0.248478 0.134615
0.029053 0.072816 0.081300
0.067750 0.075654 0.086397
0.152071 0.082307 0.090364
0.339239 0.021241 0.088685
0.582635 0.000000 0.069734
0.779019 0.000000 0.024048
0.896330 0.120424 0.044465
0.975250 0.262181 0.121096
0.003662 0.149996 0.088136
0.049470 0.158267 0.093904
0.144228 0.176822 0.099153
0.352667 0.202060 0.084504
0.597192 0.199374 0.052674
0.782986 0.228672 0.000000
0.901274 0.290318 0.054292
0.978882 0.366339 0.143160
0.000000 0.299657 0.091279
0.000000 0.304753 0.091646
0.122530 0.304875 0.113313
0.322850 0.361334 0.099763
0.613123 0.415625 0.000000
0.787106 0.426581 0.000000
0.897276 0.445350 0.051972
0.973053 0.480385 0.155520
0.000000 0.508080 0.079072
0.000000 0.506706 0.072969
0.079316 0.505608 0.134646
0.263279 0.471534 0.119600
0.541161 0.551202 0.097841
0.773434 0.603235 0.074159
0.892790 0.603632 0.106508
0.968200 0.609918 0.196506
0.000000 0.681697 0.078065
0.000000 0.682338 0.072908
0.000000 0.680140 0.121340
0.302647 0.661158 0.177218
0.458991 0.634516 0.141543
0.723873 0.720577 0.192142
0.883421 0.752560 0.265232
0.958892 0.739712 0.309850
0.000000 0.819364 0.147494
0.000000 0.816434 0.144594
0.000000 0.812589 0.160403
0.367742 0.799344 0.295872
0.490181 0.772976 0.247501
0.638605 0.770077 0.231357
0.822446 0.816068 0.322606
0.934386 0.834226 0.426123
0.000000 0.919921 0.271824
0.000000 0.919554 0.280552
0.159792 0.915892 0.310307
0.467109 0.903410 0.436347
0.594354 0.888579 0.465431
0.668879 0.873106 0.408759
0.790524 0.879362 0.442451
0.903807 0.898283 0.543145
0.021241 0.050965 0.143160
0.070222 0.047669 0.155276
0.177249 0.000000 0.170687
0.385565 0.000000 0.178286
0.610101 0.000000 0.178317
0.795529 0.000000 0.213504
0.909361 0.146914 0.239719
0.981506 0.302159 0.284520
0.013519 0.080476 0.146395
0.061799 0.080873 0.158755
0.171084 0.076814 0.173800
0.367407 0.000000 0.179263
0.595209 0.000000 0.192081
0.786160 0.000000 0.208743
0.902403 0.181552 0.231662
0.977935 0.316136 0.277745
0.000000 0.168582 0.167910
0.000000 0.175418 0.174563
0.155550 0.190127 0.192721
0.357641 0.199954 0.197848
0.615717 0.203983 0.206760
0.789853 0.242283 0.215793
0.900725 0.311894 0.238193
0.974853 0.392309 0.284886
0.000000 0.328191 0.176425
0.000000 0.334874 0.182284
0.129671 0.352483 0.200931
0.357214 0.384619 0.219547
0.635218 0.424781 0.219669
0.793881 0.436072 0.227878
0.899382 0.463020 0.256260
0.971038 0.503014 0.305882
0.000000 0.528344 0.193484
0.000000 0.532006 0.197818
0.000000 0.538903 0.210239
0.316442 0.519280 0.236942
0.571099 0.573816 0.245426
0.780117 0.609674 0.261021
0.891691 0.609216 0.277714
0.963684 0.620966 0.334600
0.000000 0.695369 0.214878
0.000000 0.696651 0.218814
0.000000 0.694911 0.225132
0.338872 0.679500 0.292638
0.465705 0.635859 0.241337
0.721126 0.717159 0.305119
0.876493 0.749264 0.371588
0.954467 0.745144 0.415717
0.000000 0.829099 0.265507
0.000000 0.827115 0.266758
0.000000 0.820981 0.271916
0.355138 0.807218 0.344305
0.508415 0.779690 0.340215
0.638392 0.768643 0.310674
0.825345 0.820096 0.417517
0.933440 0.841123 0.521172
0.000000 0.921477 0.341650
0.000000 0.919615 0.342840
0.166873 0.914885 0.365759
0.443824 0.906920 0.453071
0.611933 0.888518 0.528374
0.677852 0.874784 0.473152
0.790738 0.879057 0.494484
0.903990 0.900298 0.595911
0.000000 0.058900 0.257176
0.001068 0.052308 0.275883
0.220462 0.000000 0.333074
0.421241 0.000000 0.340093
0.667048 0.000000 0.355047
0.804440 0.000000 0.351843
0.897032 0.116091 0.373236
0.963897 0.354406 0.440436
0.000000 0.086244 0.267704
0.000000 0.086824 0.282475
0.209201 0.062165 0.334630
0.419684 0.000000 0.345342
0.661524 0.000000 0.358465
0.796201 0.000000 0.353491
0.890288 0.189334 0.379095
0.962554 0.365637 0.436408
0.000000 0.168246 0.257755
0.000000 0.170748 0.264378
0.150179 0.187930 0.319280
0.406287 0.194491 0.360418
0.643397 0.192752 0.373816
0.788846 0.253056 0.385657
0.893339 0.373785 0.433478
0.964508 0.447944 0.460456
0.000000 0.341894 0.319127
0.000000 0.349798 0.326879
0.106233 0.373480 0.352331
0.384009 0.399969 0.395087
0.615229 0.414069 0.402167
0.775479 0.440345 0.413397
0.884611 0.482368 0.435065
0.959014 0.535088 0.471412
0.000000 0.568872 0.355413
0.000000 0.573907 0.360235
0.117830 0.576715 0.375616
0.372320 0.580133 0.405554
0.596338 0.593744 0.428779
0.779538 0.616846 0.449714
0.881987 0.623682 0.467048
0.952789 0.642847 0.498604
0.000000 0.727504 0.376593
0.000000 0.735470 0.388403
0.081331 0.729488 0.398077
0.359106 0.720363 0.417395
0.534844 0.685084 0.425879
0.732143 0.728786 0.470344
0.870207 0.754116 0.522759
0.945953 0.754208 0.546929
0.000000 0.839048 0.402686
0.000000 0.839170 0.407630
0.111788 0.836545 0.420874
0.365484 0.828244 0.442786
0.567742 0.803647 0.504234
0.645716 0.773190 0.431556
0.825986 0.823453 0.539635
0.927611 0.843595 0.615198
0.000000 0.926604 0.459358
0.000000 0.925933 0.463874
0.244083 0.921599 0.474189
0.430457 0.912657 0.506615
0.627771 0.893187 0.601099
0.696132 0.878264 0.571862
0.788266 0.877043 0.562432
0.903014 0.901701 0.660517
0.000000 0.060548 0.416236
0.000000 0.048371 0.433906
0.219852 0.000000 0.487709
0.495064 0.000000 0.555871
0.684810 0.000000 0.558129
0.829221 0.000000 0.544732
0.905638 0.178592 0.533654
0.962158 0.381750 0.563622
0.000000 0.093141 0.419196
0.000000 0.092042 0.437629
0.208408 0.053559 0.489631
0.494759 0.000000 0.561120
0.680476 0.000000 0.559564
0.825315 0.000000 0.547784
0.902617 0.237705 0.539269
0.959472 0.406744 0.569268
0.000000 0.178347 0.396948
0.000000 0.182773 0.418738
0.140383 0.190341 0.471443
0.474281 0.191287 0.567163
0.662226 0.189151 0.562158
0.804532 0.257084 0.550561
0.888640 0.359045 0.550774
0.949096 0.470253 0.581079
0.000000 0.316594 0.417121
0.000000 0.319097 0.422278
0.000397 0.328649 0.441718
0.373022 0.375891 0.532586
0.640314 0.420203 0.579065
0.779904 0.456703 0.573419
0.869413 0.505425 0.581994
0.937682 0.572839 0.613367
0.000000 0.539696 0.503105
0.000000 0.544976 0.508659
0.000000 0.558038 0.524926
0.357977 0.576684 0.554864
0.598718 0.593530 0.592584
0.749935 0.604303 0.594842
0.857725 0.625391 0.604395
0.935058 0.654383 0.621881
0.000000 0.712520 0.518303
0.000000 0.715816 0.522850
0.152163 0.722621 0.536248
0.404944 0.723476 0.558221
0.563012 0.709133 0.574029
0.726650 0.724575 0.605921
0.857206 0.750729 0.641505
0.932158 0.757259 0.656245
0.000000 0.846433 0.545342
0.000000 0.844511 0.546990
0.228977 0.839384 0.555444
0.416907 0.831540 0.572107
0.562921 0.818509 0.589746
0.673701 0.787381 0.584771
0.820279 0.820432 0.640009
0.918975 0.838865 0.686152
0.064485 0.923033 0.567498
0.158083 0.921630 0.569604
0.300359 0.917113 0.577386
0.459327 0.913481 0.602808
0.586328 0.902068 0.624109
0.717403 0.881804 0.672511
0.774807 0.868803 0.618891
0.897795 0.898528 0.713649
0.000000 0.054444 0.600702
0.000000 0.020600 0.612451
0.253330 0.000000 0.646937
0.528832 0.000000 0.711971
0.721859 0.000000 0.741909
0.825071 0.000000 0.704952
0.913756 0.252262 0.686885
0.963104 0.431891 0.687221
0.000000 0.099184 0.588647
0.000000 0.093996 0.599603
0.230900 0.014343 0.637140
0.510552 0.000000 0.701900
0.712459 0.000000 0.736019
0.818723 0.000000 0.702174
0.909941 0.291417 0.687343
0.960113 0.450141 0.688777
0.000000 0.186191 0.581109
0.000000 0.189517 0.592432
0.166476 0.197238 0.632166
0.475013 0.198703 0.694636
0.703914 0.227481 0.740230
0.810330 0.293919 0.709224
0.900359 0.416785 0.699550
0.952544 0.521324 0.702663
0.000000 0.301671 0.522484
0.000000 0.301884 0.527123
0.000000 0.328832 0.587304
0.394812 0.373449 0.672786
0.691798 0.465095 0.750271
0.800595 0.499458 0.729397
0.886839 0.564294 0.724178
0.942290 0.614649 0.725399
0.000000 0.497200 0.587366
0.000000 0.498695 0.590417
0.000000 0.502434 0.600153
0.280522 0.505028 0.616999
0.580713 0.564050 0.695247
0.769955 0.627222 0.730587
0.861479 0.655909 0.728450
0.925353 0.682887 0.732815
0.000000 0.701869 0.656214
0.000000 0.706233 0.661280
0.000000 0.710811 0.669734
0.342535 0.715328 0.683711
0.564508 0.718990 0.702785
0.738705 0.737453 0.737423
0.841855 0.749111 0.743160
0.918883 0.763607 0.750820
0.000000 0.835691 0.671168
0.000000 0.837369 0.675380
0.296757 0.837980 0.684932
0.492348 0.838926 0.705074
0.635279 0.836545 0.726864
0.721401 0.821653 0.730983
0.823392 0.825864 0.746487
0.915373 0.842435 0.770840
0.302403 0.924437 0.689143
0.331518 0.922911 0.690730
0.416754 0.918242 0.697383
0.526116 0.912535 0.711025
0.624689 0.904692 0.723079
0.711635 0.894072 0.732235
0.786435 0.873503 0.725216
0.895293 0.897917 0.776730
0.000000 0.046113 0.742702
0.076661 0.000122 0.750362
0.312047 0.000000 0.770626
0.528008 0.000000 0.802914
0.727474 0.000000 0.838010
0.840635 0.000000 0.839933
0.899443 0.271031 0.794553
0.959136 0.452338 0.782925
0.000000 0.105257 0.735622
0.000000 0.098085 0.743099
0.292302 0.027008 0.763943
0.513298 0.000000 0.795865
0.717159 0.000000 0.832395
0.834409 0.127962 0.835996
0.894652 0.295842 0.791836
0.955779 0.460670 0.780636
0.000000 0.199771 0.727016
0.000000 0.200778 0.733425
0.229007 0.201358 0.754116
0.480110 0.205692 0.787564
0.695766 0.263737 0.825345
0.826047 0.324254 0.835935
0.889189 0.417517 0.798581
0.951415 0.540612 0.792599
0.000000 0.320684 0.690333
0.000000 0.321386 0.698421
0.000000 0.316838 0.728084
0.401251 0.352026 0.768002
0.653803 0.424323 0.811856
0.812955 0.506126 0.836759
0.879881 0.557092 0.809689
0.944244 0.631769 0.807187
0.000000 0.461036 0.670466
0.000000 0.457679 0.669764
0.000000 0.445777 0.669520
0.212955 0.455451 0.706783
0.557366 0.523033 0.777462
0.790616 0.638972 0.832853
0.864591 0.662562 0.816037
0.932433 0.709590 0.817868
0.000000 0.657862 0.724544
0.000000 0.657343 0.725246
0.000000 0.654566 0.727626
0.217258 0.647578 0.731838
0.445136 0.633448 0.736263
0.711269 0.700374 0.798764
0.851408 0.761807 0.828519
0.919341 0.779690 0.828733
0.000000 0.826596 0.776242
0.000000 0.826963 0.777615
0.000000 0.826108 0.780606
0.352392 0.823819 0.786099
0.547112 0.819028 0.793606
0.704738 0.818479 0.806882
0.828977 0.831662 0.831968
0.905791 0.837858 0.834287
0.217716 0.906950 0.770413
0.263920 0.906615 0.771908
0.390967 0.906615 0.779873
0.528283 0.904906 0.791226
0.658808 0.903807 0.807980
0.760250 0.903624 0.826658
0.815488 0.894011 0.826474
0.895354 0.898863 0.839841
0.227970 0.111757 0.856626
0.276799 0.105348 0.859434
0.400916 0.075715 0.866484
0.557122 0.055177 0.879759
0.713497 0.154238 0.895964
0.842344 0.290013 0.909209
0.920439 0.358618 0.907286
0.951995 0.478920 0.863279
0.204074 0.149081 0.853147
0.257115 0.146181 0.856016
0.388403 0.132479 0.863676
0.548302 0.131777 0.876890
0.707515 0.199741 0.893553
0.839475 0.323095 0.907805
0.917205 0.381872 0.905669
0.949859 0.492073 0.862913
0.050111 0.234531 0.845151
0.169863 0.235294 0.847837
0.338933 0.235630 0.855558
0.521508 0.255436 0.871366
0.690394 0.313817 0.888426
0.833066 0.428107 0.905577
0.909300 0.469032 0.903655
0.945190 0.550103 0.865843
0.000000 0.333989 0.828733
0.000000 0.327977 0.832578
0.196323 0.339452 0.842252
0.454170 0.367773 0.859037
0.654322 0.430640 0.878843
0.812650 0.537041 0.898833
0.898192 0.580072 0.902281
0.939055 0.630945 0.872190
0.000000 0.457496 0.785672
0.000000 0.457923 0.790860
0.000000 0.455970 0.805844
0.278019 0.459297 0.832944
0.569665 0.512322 0.859861
0.771969 0.613214 0.886015
0.883513 0.679286 0.900450
0.931640 0.712917 0.880217
0.000000 0.637873 0.808347
0.000000 0.634058 0.807370
0.000000 0.620569 0.804715
0.000000 0.593103 0.800839
0.360998 0.573449 0.813779
0.692256 0.666011 0.863737
0.871031 0.773648 0.902373
0.925811 0.791409 0.892088
0.000000 0.800198 0.839658
0.000000 0.798611 0.839353
0.000000 0.793240 0.838590
0.235752 0.783963 0.838254
0.428901 0.769284 0.837339
0.586389 0.747890 0.835172
0.805966 0.801724 0.877043
0.917082 0.851560 0.900542
0.016358 0.919280 0.868925
0.141787 0.918456 0.869047
0.283146 0.915770 0.869718
0.430152 0.910979 0.871366
0.568566 0.904479 0.873869
0.693935 0.897826 0.877867
0.803677 0.894774 0.885618
0.902647 0.905608 0.905943
