data/fiter_cube/37639453/1023444/file.cube
# Created by Adobe Lightroom plugin Export LUT (1.17.0)
# www.johnrellis.com/lightroom/exportlut.htm
# Preset: 油管牛人_10 云集
# Color profile: C:\Program Files (x86)\Common Files\Adobe\Color\Profiles\Recommended\AdobeRGB1998.icc
LUT_3D_SIZE 5
DOMAIN_MIN 0.000000 0.000000 0.000000
DOMAIN_MAX 0.903226 0.903226 0.903226
0.028626 0.033387 0.048890
0.132265 0.048066 0.059724
0.502342 0.000000 0.000000
0.856199 0.000000 0.000000
0.994537 0.267124 0.096620
0.013733 0.124361 0.064790
0.117525 0.142977 0.067323
0.492988 0.160555 0.000000
0.848386 0.224125 0.000000
0.995880 0.367712 0.122072
0.000000 0.397498 0.000000
0.030335 0.406043 0.089143
0.476204 0.496529 0.000000
0.842954 0.548180 0.000000
0.981170 0.558984 0.151858
0.000000 0.740688 0.000000
0.000000 0.740932 0.071077
0.402350 0.698543 0.158022
0.761105 0.756710 0.196323
0.959075 0.772580 0.329778
0.000000 0.925750 0.266941
0.089418 0.921324 0.293950
0.535241 0.888945 0.445502
0.685420 0.867399 0.370245
0.907378 0.901671 0.542657
0.031861 0.049073 0.119661
0.137057 0.028565 0.139376
0.476173 0.000000 0.144778
0.820645 0.000000 0.171054
0.979126 0.273320 0.233799
0.000000 0.136202 0.140230
0.123262 0.151797 0.158236
0.477028 0.148592 0.163149
0.819455 0.199710 0.172854
0.977356 0.359960 0.243137
0.000000 0.416388 0.154726
0.000000 0.428290 0.166232
0.452247 0.469917 0.188266
0.819242 0.522606 0.187045
0.971130 0.561425 0.286992
0.000000 0.746456 0.204868
0.000000 0.747646 0.213870
0.429023 0.710567 0.274205
0.758297 0.753750 0.309331
0.952178 0.772610 0.419654
0.000000 0.925811 0.332769
0.125551 0.921141 0.355993
0.569329 0.896727 0.521508
0.698329 0.872862 0.445686
0.907439 0.903563 0.595209
0.000000 0.059846 0.334142
0.157473 0.000000 0.390356
0.563348 0.000000 0.449287
0.841581 0.000000 0.446723
0.961791 0.363470 0.501213
0.000000 0.149386 0.327092
0.098817 0.156252 0.383276
0.557092 0.111421 0.465339
0.824674 0.218357 0.459388
0.951690 0.466651 0.540307
0.000000 0.442969 0.412390
0.000000 0.460334 0.431281
0.499580 0.499947 0.497566
0.793210 0.533196 0.512230
0.946960 0.600275 0.554498
0.000000 0.767880 0.463416
0.000000 0.761318 0.470222
0.473945 0.747311 0.506065
0.757778 0.755856 0.555352
0.934600 0.775326 0.606714
0.000000 0.923064 0.507988
0.226108 0.920531 0.521172
0.511864 0.906859 0.565179
0.714900 0.874205 0.600641
0.898741 0.898314 0.680964
0.000000 0.050263 0.630610
0.194430 0.000000 0.664881
0.645686 0.000000 0.762631
0.845151 0.000000 0.728206
0.961852 0.430457 0.709834
0.000000 0.162539 0.618097
0.106233 0.163302 0.652857
0.611688 0.146944 0.748775
0.833310 0.265751 0.728847
0.953033 0.492012 0.716152
0.000000 0.376745 0.563928
0.000000 0.373541 0.570581
0.468849 0.443519 0.693660
0.801205 0.553368 0.740261
0.933043 0.643122 0.743496
0.000000 0.741604 0.694270
0.000000 0.740993 0.697169
0.454200 0.744533 0.717769
0.763638 0.763790 0.763851
0.913268 0.779812 0.769772
0.315038 0.922454 0.713619
0.426459 0.920195 0.724147
0.600366 0.910613 0.746426
0.743099 0.894621 0.760830
0.894224 0.897154 0.791165
0.227970 0.111757 0.856626
0.365179 0.085359 0.864103
0.636622 0.094514 0.887694
0.862516 0.306828 0.908751
0.951995 0.478920 0.863279
0.133150 0.212833 0.848539
0.317693 0.211490 0.856657
0.615839 0.247745 0.881682
0.854978 0.409705 0.905913
0.946929 0.535302 0.865476
0.000000 0.401648 0.810208
0.000000 0.397436 0.823606
0.509026 0.436622 0.858518
0.828305 0.601923 0.897765
0.935210 0.671138 0.875639
0.000000 0.684596 0.818509
0.000000 0.674434 0.816434
0.219059 0.632715 0.810727
0.721614 0.702113 0.865690
0.923644 0.806943 0.894072
0.016358 0.919280 0.868925
0.247013 0.916625 0.869474
0.500877 0.907927 0.872557
0.722957 0.896513 0.879332
0.902647 0.905608 0.905943
