data/fiter_cube/37639453/1023444/file.cube
# Created by Adobe Lightroom plugin Export LUT (1.17.0)
# www.johnrellis.com/lightroom/exportlut.htm
# Preset: 油管牛人_10 云集
# Color profile: C:\Program Files (x86)\Common Files\Adobe\Color\Profiles\Recommended\AdobeRGB1998.icc
LUT_3D_SIZE 32
DOMAIN_MIN 0.0 0.0 0.0
DOMAIN_MAX 1.0 1.0 1.0
0.028626 0.033387 0.048890
0.036225 0.034455 0.049470
0.046326 0.035065 0.050874
0.060273 0.038697 0.051881
0.072450 0.042512 0.054231
0.087495 0.047700 0.056977
0.106935 0.049592 0.058961
0.132265 0.048066 0.059724
0.164645 0.037232 0.059388
0.204196 0.014252 0.058900
0.252811 0.000000 0.055238
0.309819 0.000000 0.048859
0.372320 0.000000 0.034730
0.437781 0.000000 0.016236
0.502342 0.000000 0.000000
0.563806 0.000000 0.000000
0.620844 0.000000 0.000000
0.672572 0.000000 0.000000
0.729549 0.000000 0.000000
0.780789 0.000000 0.000000
0.822202 0.000000 0.000000
0.856199 0.000000 0.000000
0.884092 0.000000 0.000000
0.907530 0.000000 0.000000
0.927764 0.106630 0.000000
0.945892 0.155764 0.000000
0.962860 0.195468 0.000000
0.978973 0.231662 0.059174
0.994537 0.267124 0.096620
1.000000 0.302983 0.131807
1.000000 0.340368 0.168826
1.000000 0.380194 0.210788
0.028565 0.040375 0.050080
0.036164 0.041444 0.050660
0.046448 0.042054 0.051240
0.059846 0.044709 0.052338
0.072480 0.048829 0.054627
0.086885 0.052399 0.057435
0.106142 0.054444 0.059205
0.131075 0.052522 0.059602
0.162509 0.045930 0.059724
0.201480 0.025940 0.058808
0.248783 0.000000 0.055329
0.304448 0.000000 0.049287
0.365911 0.000000 0.035889
0.430518 0.000000 0.018219
0.494636 0.000000 0.000000
0.556023 0.000000 0.000000
0.613092 0.000000 0.000000
0.665522 0.000000 0.000000
0.722591 0.000000 0.000000
0.773159 0.000000 0.000000
0.814664 0.000000 0.000000
0.849149 0.000000 0.000000
0.877623 0.000000 0.000000
0.901793 0.000000 0.000000
0.922698 0.100038 0.000000
0.941497 0.150393 0.000000
0.959075 0.190494 0.000000
0.975677 0.227146 0.037415
0.991669 0.262760 0.088746
1.000000 0.298711 0.124727
1.000000 0.335821 0.161563
1.000000 0.375219 0.202609
0.029297 0.048890 0.051942
0.035279 0.048951 0.054261
0.044434 0.049561 0.054017
0.059663 0.051392 0.054292
0.071962 0.055177 0.055756
0.086458 0.058686 0.058595
0.105562 0.059876 0.059388
0.129946 0.059571 0.059754
0.160769 0.054902 0.059907
0.199069 0.040558 0.059022
0.245853 0.006134 0.055695
0.300908 0.000000 0.049805
0.362097 0.000000 0.036652
0.426246 0.000000 0.019348
0.490089 0.000000 0.000000
0.551598 0.000000 0.000000
0.608545 0.000000 0.000000
0.661341 0.000000 0.000000
0.719081 0.000000 0.000000
0.769070 0.000000 0.000000
0.810575 0.000000 0.000000
0.845396 0.000000 0.000000
0.874296 0.000000 0.000000
0.898802 0.000000 0.000000
0.920012 0.104768 0.000000
0.939086 0.152590 0.000000
0.956939 0.191897 0.000000
0.973846 0.227848 0.022705
0.990112 0.262943 0.083955
1.000000 0.298589 0.120607
1.000000 0.335271 0.158358
1.000000 0.374243 0.199313
0.029816 0.060395 0.054932
0.039063 0.060639 0.059144
0.045289 0.061128 0.059449
0.057313 0.062470 0.059205
0.071077 0.064881 0.059052
0.086580 0.066835 0.059205
0.105409 0.067994 0.059571
0.129793 0.068177 0.059907
0.160250 0.066987 0.059968
0.198062 0.062715 0.058961
0.243870 0.045563 0.055421
0.298314 0.000000 0.049317
0.358404 0.000000 0.037140
0.421790 0.000000 0.019806
0.485420 0.000000 0.000000
0.546624 0.000000 0.000000
0.603601 0.000000 0.000000
0.656306 0.000000 0.000000
0.714626 0.000000 0.000000
0.762905 0.000000 0.000000
0.803799 0.000000 0.000000
0.838712 0.000000 0.000000
0.868498 0.000000 0.000000
0.894255 0.055726 0.000000
0.916899 0.122408 0.000000
0.937133 0.166415 0.000000
0.955810 0.203281 0.000000
0.973205 0.237919 0.020264
0.989563 0.271458 0.083833
1.000000 0.305364 0.120485
1.000000 0.340398 0.156802
1.000000 0.377478 0.197086
0.030915 0.070771 0.059205
0.036713 0.071199 0.060395
0.045960 0.071382 0.062898
0.056123 0.071443 0.062745
0.068147 0.074159 0.062165
0.083497 0.077546 0.061311
0.103822 0.080140 0.060578
0.128450 0.081666 0.060334
0.158267 0.082399 0.059846
0.195254 0.081147 0.058747
0.240116 0.076448 0.055543
0.293217 0.063661 0.048432
0.352636 0.011170 0.036805
0.415686 0.000000 0.019043
0.479469 0.000000 0.000000
0.541619 0.000000 0.000000
0.599908 0.000000 0.000000
0.657038 0.000000 0.000000
0.713741 0.000000 0.000000
0.760678 0.000000 0.000000
0.800717 0.000000 0.000000
0.835264 0.000000 0.000000
0.865049 0.017548 0.000000
0.891203 0.108339 0.000000
0.914214 0.150729 0.000000
0.934905 0.186923 0.000000
0.953826 0.219547 0.000000
0.971405 0.250706 0.009888
0.987915 0.282170 0.079988
1.000000 0.314092 0.117403
1.000000 0.347448 0.154391
1.000000 0.382940 0.194736
0.030304 0.082673 0.061860
0.033875 0.083497 0.061707
0.042939 0.084016 0.064149
0.056031 0.084535 0.065583
0.065553 0.085206 0.065309
0.079622 0.089845 0.064332
0.100191 0.095277 0.062776
0.126162 0.099153 0.061250
0.158450 0.102113 0.059388
0.195102 0.103273 0.058259
0.239872 0.102235 0.053498
0.292576 0.097047 0.046387
0.351324 0.085512 0.033173
0.413977 0.062531 0.015564
0.477852 0.000000 0.000000
0.540124 0.000000 0.000000
0.598413 0.000000 0.000000
0.660304 0.000000 0.000000
0.714900 0.000000 0.000000
0.761044 0.000000 0.000000
0.800931 0.000000 0.000000
0.835630 0.082856 0.000000
0.902068 0.190005 0.000000
0.923461 0.216648 0.000000
0.942016 0.241550 0.000000
0.958679 0.265080 0.000000
0.973968 0.288548 0.067567
0.988403 0.312535 0.100954
1.000000 0.337957 0.131838
1.000000 0.365209 0.163821
1.000000 0.394476 0.198337
1.000000 0.426398 0.237034
0.023499 0.102815 0.063569
0.027100 0.103456 0.063447
0.035279 0.104158 0.064546
0.053620 0.105592 0.068452
0.065553 0.105226 0.068269
0.077394 0.107942 0.067567
0.097902 0.115816 0.066041
0.127230 0.125093 0.063783
0.162325 0.130404 0.060639
0.205325 0.134951 0.055299
0.255406 0.136782 0.046662
0.311192 0.135042 0.034699
0.371435 0.129366 0.020020
0.434302 0.119844 0.000000
0.496498 0.107057 0.000000
0.555688 0.092287 0.000000
0.614893 0.081056 0.000000
0.679164 0.087312 0.000000
0.731502 0.101839 0.000000
0.777096 0.123812 0.000000
0.817716 0.150607 0.000000
0.853849 0.179141 0.000000
0.885283 0.208133 0.000000
0.911955 0.235447 0.000000
0.934478 0.260929 0.000000
0.953338 0.284031 0.000000
0.969818 0.306004 0.057404
0.984894 0.327947 0.094697
0.999207 0.351202 0.126772
1.000000 0.376074 0.158267
1.000000 0.403143 0.192844
1.000000 0.433021 0.230961
0.013733 0.124361 0.064790
0.017151 0.125063 0.064607
0.023102 0.125917 0.064393
0.044282 0.127443 0.069032
0.062440 0.127626 0.071015
0.074403 0.127291 0.070436
0.091432 0.132418 0.069337
0.117525 0.142977 0.067323
0.154635 0.155642 0.063416
0.197391 0.162966 0.058381
0.249119 0.168490 0.046998
0.308904 0.171328 0.026703
0.369116 0.169863 0.009308
0.431312 0.166049 0.000000
0.492988 0.160555 0.000000
0.552209 0.154147 0.000000
0.619257 0.156222 0.000000
0.678462 0.162509 0.000000
0.728298 0.171908 0.000000
0.772549 0.185916 0.000000
0.812528 0.203616 0.000000
0.848386 0.224125 0.000000
0.879789 0.246006 0.000000
0.906706 0.267948 0.000000
0.929503 0.288731 0.000000
0.948821 0.308568 0.000000
0.965728 0.327459 0.034852
0.981201 0.346746 0.088197
0.995880 0.367712 0.122072
1.000000 0.390326 0.154025
1.000000 0.415412 0.188846
1.000000 0.443275 0.227024
0.000000 0.150973 0.065278
0.000824 0.151553 0.065126
0.005310 0.152560 0.064424
0.022675 0.154025 0.068269
0.054658 0.155520 0.073884
0.071168 0.154391 0.073426
0.086336 0.152956 0.072938
0.109621 0.162417 0.070832
0.142794 0.176242 0.067597
0.189334 0.192905 0.061433
0.241764 0.202121 0.048341
0.301518 0.208072 0.027131
0.366583 0.211398 0.000000
0.432044 0.211398 0.000000
0.493233 0.209140 0.000000
0.560662 0.210971 0.000000
0.624598 0.215854 0.000000
0.680079 0.221988 0.000000
0.727718 0.229404 0.000000
0.770687 0.239872 0.000000
0.809873 0.253574 0.000000
0.845182 0.269566 0.000000
0.876219 0.286839 0.000000
0.903014 0.304448 0.000000
0.925933 0.321569 0.000000
0.945434 0.337621 0.000000
0.962554 0.353552 0.024079
0.978271 0.370214 0.084871
0.993072 0.388373 0.119631
1.000000 0.408576 0.152163
1.000000 0.431159 0.186648
1.000000 0.456611 0.224765
0.000000 0.182254 0.065003
0.000000 0.182681 0.064851
0.000000 0.183261 0.063752
0.000000 0.184878 0.066011
0.029938 0.186648 0.074159
0.064424 0.186038 0.076326
0.083009 0.184024 0.075685
0.101747 0.182925 0.074952
0.132418 0.196963 0.071717
0.173465 0.213809 0.066468
0.229343 0.232975 0.056794
0.291752 0.244358 0.029755
0.356786 0.250736 0.000000
0.424689 0.254795 0.000000
0.501518 0.261814 0.000000
0.570611 0.266972 0.000000
0.632013 0.273014 0.000000
0.685359 0.278904 0.000000
0.731258 0.285588 0.000000
0.772396 0.293584 0.000000
0.809567 0.303349 0.000000
0.842832 0.314763 0.000000
0.872343 0.326940 0.000000
0.898131 0.339788 0.000000
0.920684 0.352850 0.000000
0.940398 0.365911 0.000000
0.958129 0.379522 0.003296
0.974487 0.394293 0.078920
0.989899 0.410773 0.117006
1.000000 0.429328 0.151217
1.000000 0.450599 0.187564
1.000000 0.474556 0.226322
0.000000 0.215549 0.063874
0.000000 0.216129 0.063203
0.000000 0.216709 0.062074
0.000000 0.218326 0.062226
0.000000 0.220249 0.070802
0.048310 0.221469 0.079194
0.076570 0.219333 0.078309
0.098726 0.216770 0.077363
0.123171 0.219425 0.075654
0.161257 0.236790 0.071077
0.211154 0.256138 0.063416
0.276677 0.277134 0.040436
0.350591 0.292973 0.000000
0.426856 0.304173 0.000000
0.501640 0.312627 0.000000
0.571771 0.320317 0.000000
0.634668 0.327001 0.000000
0.685573 0.331701 0.000000
0.730037 0.336370 0.000000
0.770169 0.342199 0.000000
0.806760 0.349706 0.000000
0.839811 0.358404 0.000000
0.869261 0.368383 0.000000
0.895048 0.378424 0.000000
0.917601 0.388556 0.000000
0.937346 0.398749 0.000000
0.955047 0.409491 0.000000
0.971405 0.421698 0.078370
0.986908 0.435492 0.116030
1.000000 0.451606 0.150729
1.000000 0.470466 0.186679
1.000000 0.492256 0.225711
0.000000 0.254002 0.060151
0.000000 0.254398 0.059510
0.000000 0.255131 0.058686
0.000000 0.256382 0.055879
0.000000 0.258244 0.065400
0.000275 0.260624 0.078645
0.065553 0.259068 0.080812
0.093660 0.256168 0.079774
0.118624 0.252659 0.078065
0.150271 0.260838 0.075288
0.197421 0.281102 0.068238
0.262119 0.307591 0.052674
0.387304 0.369848 0.000000
0.481727 0.394263 0.000000
0.558038 0.405127 0.000000
0.625696 0.413794 0.000000
0.682826 0.419318 0.000000
0.730587 0.421698 0.000000
0.769467 0.422156 0.000000
0.803372 0.423285 0.000000
0.834134 0.425605 0.000000
0.861814 0.429114 0.000000
0.886351 0.433204 0.000000
0.908324 0.438056 0.000000
0.927977 0.443641 0.000000
0.945586 0.450050 0.000000
0.961578 0.457038 0.076722
0.976532 0.465705 0.110689
0.990784 0.476081 0.142367
1.000000 0.489204 0.174624
1.000000 0.504845 0.209110
1.000000 0.523827 0.246708
0.000000 0.307530 0.047120
0.000000 0.307958 0.046509
0.000000 0.307897 0.043153
0.000000 0.308263 0.039063
0.000000 0.308629 0.052064
0.000000 0.309270 0.071656
0.029999 0.308659 0.083558
0.085206 0.304479 0.081941
0.117037 0.300359 0.080323
0.146517 0.298070 0.078523
0.194491 0.320409 0.072755
0.263218 0.353033 0.060517
0.349981 0.388098 0.013672
0.448615 0.422461 0.000000
0.543816 0.450050 0.000000
0.613367 0.460121 0.000000
0.671504 0.465553 0.000000
0.719539 0.467353 0.000000
0.760922 0.467567 0.000000
0.797757 0.467903 0.000000
0.828244 0.467781 0.000000
0.855924 0.468849 0.000000
0.880552 0.470710 0.000000
0.902708 0.473213 0.000000
0.922515 0.476631 0.000000
0.940398 0.480537 0.000000
0.956725 0.485725 0.069245
0.972015 0.492348 0.108034
0.986572 0.500816 0.139864
1.000000 0.511894 0.173129
1.000000 0.525780 0.207675
1.000000 0.542992 0.246372
0.000000 0.350164 0.028321
0.000000 0.350378 0.025696
0.000000 0.350256 0.023529
0.000000 0.350500 0.018433
0.000000 0.350744 0.023651
0.000000 0.351110 0.061036
0.000000 0.351995 0.083162
0.070192 0.351049 0.085054
0.112215 0.350134 0.083009
0.148074 0.349065 0.080354
0.182315 0.347509 0.077943
0.245579 0.378027 0.068360
0.324224 0.411139 0.044099
0.415259 0.444831 0.000000
0.512108 0.477638 0.000000
0.599145 0.503471 0.000000
0.658442 0.508782 0.000000
0.707393 0.510094 0.000000
0.749813 0.509758 0.000000
0.787503 0.509361 0.000000
0.821378 0.509300 0.000000
0.850736 0.509178 0.000000
0.875547 0.509056 0.000000
0.898009 0.509850 0.000000
0.918090 0.511223 0.000000
0.936217 0.513451 0.000000
0.952850 0.516594 0.071321
0.968353 0.521355 0.108614
0.983185 0.528191 0.142275
0.997589 0.537377 0.174838
1.000000 0.549462 0.210422
1.000000 0.564965 0.249332
0.000000 0.397498 0.000000
0.000000 0.398383 0.000000
0.000000 0.398718 0.000000
0.000000 0.400061 0.000000
0.000000 0.401556 0.000000
0.000000 0.403388 0.029450
0.000000 0.405524 0.073060
0.030335 0.406043 0.089143
0.105135 0.403235 0.086671
0.147311 0.400427 0.084047
0.185336 0.397284 0.080964
0.227939 0.401129 0.075868
0.300908 0.432746 0.063386
0.385229 0.465034 0.024109
0.476204 0.496529 0.000000
0.565728 0.526329 0.000000
0.646021 0.550988 0.000000
0.696132 0.551995 0.000000
0.739376 0.551171 0.000000
0.777737 0.549920 0.000000
0.812100 0.549096 0.000000
0.842954 0.548180 0.000000
0.870237 0.547143 0.000000
0.893156 0.546227 0.000000
0.913603 0.545983 0.000000
0.932250 0.546746 0.000000
0.949523 0.548974 0.075715
0.965728 0.552880 0.116609
0.981170 0.558984 0.151858
0.996094 0.567468 0.186343
1.000000 0.578882 0.223880
1.000000 0.593561 0.265629
0.000000 0.456886 0.000000
0.000000 0.457862 0.000000
0.000000 0.458228 0.000000
0.000000 0.459083 0.000000
0.000000 0.460029 0.000000
0.000000 0.461372 0.000000
0.000000 0.463111 0.056336
0.000000 0.465248 0.092897
0.097292 0.461769 0.093294
0.147890 0.457404 0.089815
0.190219 0.451850 0.085512
0.228885 0.445441 0.080659
0.280125 0.454047 0.073487
0.357214 0.483192 0.058869
0.440955 0.511955 0.011688
0.526665 0.539879 0.000000
0.609125 0.567468 0.000000
0.683223 0.590997 0.000000
0.728695 0.590997 0.000000
0.769162 0.590295 0.000000
0.804868 0.589410 0.000000
0.836728 0.588312 0.000000
0.864775 0.587030 0.000000
0.889799 0.585595 0.000000
0.911742 0.584253 0.000000
0.930571 0.583551 0.023163
0.947906 0.584253 0.093172
0.964172 0.586694 0.130373
0.979614 0.590997 0.164614
0.994385 0.597528 0.198672
1.000000 0.606714 0.235569
1.000000 0.618952 0.275334
0.000000 0.509361 0.000000
0.000000 0.509514 0.000000
0.000000 0.509453 0.000000
0.000000 0.509697 0.000000
0.000000 0.510094 0.000000
0.000000 0.510735 0.000000
0.000000 0.511681 0.014862
0.000000 0.512535 0.082368
0.083619 0.510735 0.101717
0.144503 0.505455 0.097505
0.191043 0.499550 0.092988
0.232303 0.492531 0.087221
0.270024 0.484321 0.081331
0.331334 0.500023 0.072541
0.410498 0.527794 0.057984
0.492287 0.554406 0.014740
0.572259 0.580163 0.000000
0.647517 0.604944 0.000000
0.715450 0.626551 0.000000
0.758267 0.627253 0.000000
0.795132 0.625849 0.000000
0.827634 0.624201 0.000000
0.856535 0.622309 0.000000
0.882322 0.620417 0.000000
0.905364 0.618647 0.007263
0.926238 0.617151 0.063569
0.944518 0.616571 0.102724
0.961089 0.617792 0.139528
0.976806 0.620844 0.174380
0.991791 0.626062 0.209049
1.000000 0.633906 0.245945
1.000000 0.644800 0.287144
0.000000 0.560143 0.000000
0.000000 0.561120 0.000000
0.000000 0.596094 0.000000
0.000000 0.595911 0.000000
0.000000 0.595422 0.000000
0.000000 0.594690 0.000000
0.000000 0.593225 0.000000
0.000000 0.591791 0.078584
0.095521 0.589960 0.122316
0.163943 0.583062 0.118257
0.214084 0.574975 0.112245
0.257816 0.565606 0.104372
0.296849 0.554650 0.096315
0.332189 0.541894 0.087129
0.405127 0.564141 0.079377
0.484047 0.589044 0.069184
0.560113 0.612360 0.059480
0.631495 0.634119 0.046357
0.698238 0.654841 0.043519
0.757443 0.672114 0.070710
0.796139 0.672389 0.071595
0.827909 0.668757 0.070802
0.855924 0.665156 0.083436
0.880797 0.661463 0.097261
0.902831 0.657557 0.110048
0.922820 0.654047 0.122988
0.941253 0.651240 0.136355
0.958556 0.649683 0.153536
0.973999 0.650690 0.185611
0.989014 0.654200 0.219699
1.000000 0.660456 0.257115
1.000000 0.669612 0.297490
0.000000 0.616968 0.000000
0.000000 0.621546 0.000000
0.000000 0.626154 0.000000
0.000000 0.629999 0.000000
0.000000 0.632654 0.000000
0.000000 0.633417 0.000000
0.000000 0.632563 0.000000
0.000000 0.630884 0.067536
0.012543 0.628931 0.116732
0.163272 0.624018 0.133791
0.215518 0.616358 0.127413
0.260899 0.607446 0.119387
0.301152 0.596857 0.110903
0.337194 0.584405 0.100099
0.375494 0.575494 0.089387
0.451270 0.599359 0.084901
0.525536 0.621576 0.080934
0.595941 0.642573 0.079286
0.662379 0.662745 0.081453
0.724605 0.682246 0.089479
0.779629 0.698329 0.111208
0.817929 0.701015 0.121736
0.847379 0.697475 0.125154
0.873259 0.693721 0.134951
0.896056 0.689662 0.146761
0.916716 0.685969 0.159213
0.935698 0.682979 0.172457
0.953521 0.680995 0.186923
0.970520 0.680568 0.205020
0.986267 0.682429 0.232761
1.000000 0.687190 0.269688
1.000000 0.694759 0.310246
0.000000 0.656580 0.000000
0.000000 0.660426 0.000000
0.000000 0.664485 0.000000
0.000000 0.667720 0.000000
0.000000 0.669856 0.000000
0.000000 0.670344 0.000000
0.000000 0.669520 0.000000
0.000000 0.667842 0.059113
0.000000 0.665766 0.113405
0.166720 0.662715 0.153780
0.219913 0.655543 0.146242
0.265873 0.647364 0.138064
0.306950 0.637659 0.128908
0.344152 0.626368 0.117952
0.377691 0.613153 0.105776
0.423774 0.612116 0.096407
0.496315 0.633417 0.095705
0.565393 0.653559 0.097688
0.631281 0.672999 0.102388
0.693385 0.691829 0.111818
0.751125 0.709926 0.125826
0.802182 0.724971 0.150149
0.839078 0.729030 0.166903
0.865934 0.725032 0.172305
0.889494 0.720699 0.180606
0.910521 0.716609 0.192905
0.929808 0.713039 0.205661
0.947875 0.710567 0.219944
0.965057 0.709621 0.237430
0.981598 0.710323 0.258091
0.997620 0.712825 0.282200
1.000000 0.718715 0.321172
0.000000 0.693355 0.000000
0.000000 0.696834 0.000000
0.000000 0.700252 0.000000
0.000000 0.703151 0.000000
0.000000 0.705013 0.000000
0.000000 0.705318 0.000000
0.000000 0.704524 0.000000
0.000000 0.702571 0.054139
0.000000 0.700160 0.113558
0.148714 0.696956 0.155489
0.226139 0.691463 0.168460
0.271550 0.683925 0.160433
0.312566 0.674861 0.150301
0.350439 0.664790 0.139040
0.385229 0.653315 0.126986
0.417151 0.640620 0.112673
0.472206 0.648005 0.108644
0.542168 0.668879 0.114229
0.608942 0.689113 0.123873
0.671687 0.708644 0.137942
0.730434 0.727260 0.155337
0.784695 0.744808 0.176913
0.831357 0.758450 0.205447
0.865660 0.762966 0.230167
0.889616 0.758755 0.238621
0.910918 0.754360 0.248051
0.930022 0.750576 0.262577
0.947814 0.747799 0.278202
0.964721 0.746426 0.296422
0.980865 0.746548 0.317510
0.996460 0.748562 0.341955
1.000000 0.752712 0.370184
0.000000 0.740688 0.000000
0.000000 0.742184 0.000000
0.000000 0.743221 0.000000
0.000000 0.743862 0.000000
0.000000 0.744076 0.000000
0.000000 0.743557 0.000000
0.000000 0.742672 0.000000
0.000000 0.740932 0.071077
0.000000 0.738827 0.123781
0.142763 0.736080 0.166018
0.246555 0.732326 0.201419
0.290471 0.725826 0.193027
0.330724 0.717922 0.182712
0.367895 0.708858 0.171084
0.402350 0.698543 0.158022
0.434638 0.687098 0.143587
0.464302 0.674800 0.127871
0.525505 0.688350 0.131930
0.590204 0.706813 0.143130
0.651301 0.724453 0.158114
0.708400 0.741115 0.175448
0.761105 0.756710 0.196323
0.809537 0.771054 0.218845
0.850858 0.781827 0.246342
0.882353 0.786007 0.275700
0.904082 0.781552 0.284367
0.923919 0.777401 0.294682
0.942046 0.774319 0.310674
0.959075 0.772580 0.329778
0.975311 0.772244 0.351110
0.990906 0.773678 0.375708
1.000000 0.777462 0.404700
0.000000 0.771572 0.012482
0.000000 0.772885 0.015229
0.000000 0.774075 0.019471
0.000000 0.774685 0.021027
0.000000 0.774685 0.015534
0.000000 0.773983 0.008820
0.000000 0.772885 0.000427
0.000000 0.771023 0.083742
0.000000 0.768643 0.132509
0.127718 0.765652 0.173617
0.242863 0.761898 0.212222
0.302770 0.756497 0.222049
0.341161 0.749599 0.211795
0.377539 0.741695 0.200290
0.411902 0.732845 0.187594
0.444190 0.723079 0.173526
0.474556 0.712703 0.158541
0.504997 0.703151 0.143313
0.569482 0.721004 0.156466
0.630213 0.737972 0.172824
0.687282 0.754086 0.192081
0.740139 0.769192 0.214115
0.788602 0.783108 0.238743
0.832700 0.795773 0.264408
0.865934 0.800412 0.281102
0.895628 0.805020 0.314824
0.916045 0.800931 0.325322
0.934844 0.797543 0.338109
0.952270 0.795315 0.355749
0.968719 0.794644 0.377905
0.984558 0.795773 0.403418
1.000000 0.799496 0.434241
0.000000 0.809171 0.092439
0.000000 0.810483 0.094301
0.000000 0.811215 0.095979
0.000000 0.811276 0.096559
0.000000 0.810605 0.095369
0.000000 0.809323 0.093996
0.000000 0.807614 0.092775
0.000000 0.805173 0.112886
0.000000 0.801724 0.153750
0.133089 0.797726 0.191135
0.245548 0.792935 0.227481
0.323186 0.787289 0.257206
0.358007 0.780606 0.246128
0.390997 0.773037 0.233921
0.422492 0.764218 0.219883
0.452522 0.754635 0.204776
0.481056 0.744350 0.188235
0.508629 0.733974 0.171786
0.545586 0.731167 0.163577
0.606348 0.747646 0.180545
0.663508 0.763394 0.200595
0.716548 0.777951 0.222904
0.764920 0.791012 0.247318
0.808835 0.802579 0.272251
0.848386 0.812802 0.297490
0.882414 0.820462 0.324102
0.909880 0.825284 0.363745
0.928618 0.821347 0.374884
0.946197 0.818509 0.389532
0.962860 0.817075 0.408759
0.978759 0.817929 0.434577
0.994446 0.821225 0.466133
0.000000 0.833494 0.120211
0.000000 0.834653 0.123384
0.000000 0.835325 0.124788
0.000000 0.835325 0.125582
0.000000 0.834684 0.125216
0.000000 0.833646 0.125704
0.000000 0.832181 0.126650
0.000000 0.830320 0.133608
0.000000 0.827359 0.171206
0.135897 0.823941 0.207645
0.249180 0.819730 0.243473
0.333227 0.814725 0.279667
0.379400 0.809232 0.284977
0.410224 0.803067 0.273259
0.440070 0.795987 0.260044
0.468879 0.788083 0.245365
0.496681 0.779629 0.229679
0.523949 0.770962 0.213779
0.550622 0.762234 0.196963
0.593622 0.765682 0.198734
0.649714 0.779934 0.219913
0.701869 0.793179 0.243442
0.749538 0.805142 0.268223
0.792935 0.815793 0.294255
0.832242 0.825345 0.320500
0.867735 0.833860 0.346929
0.898924 0.840818 0.374029
0.923491 0.844968 0.416297
0.941558 0.842924 0.434546
0.958251 0.841337 0.452918
0.974456 0.841886 0.477150
0.990051 0.844999 0.509422
0.000000 0.858793 0.153567
0.000000 0.859464 0.155062
0.000000 0.859678 0.156497
0.000000 0.859281 0.156771
0.000000 0.858335 0.157229
0.000000 0.857053 0.157992
0.000000 0.855467 0.159457
0.000000 0.853635 0.161898
0.000000 0.850858 0.191989
0.147066 0.847532 0.226383
0.256474 0.843534 0.261448
0.338842 0.838987 0.297398
0.402502 0.833829 0.324651
0.430426 0.828733 0.313481
0.457618 0.822873 0.300694
0.484260 0.816281 0.286595
0.510491 0.809110 0.271366
0.536492 0.801724 0.255680
0.562493 0.794278 0.239750
0.588128 0.786954 0.222843
0.635401 0.794644 0.235416
0.686824 0.806729 0.259251
0.734005 0.817624 0.284916
0.777066 0.827420 0.311284
0.816098 0.836210 0.338231
0.851347 0.844144 0.364843
0.883482 0.851469 0.392065
0.912718 0.858244 0.419257
0.934417 0.861570 0.462745
0.952117 0.861540 0.488380
0.968383 0.861753 0.511803
0.984344 0.864073 0.539727
0.000000 0.879789 0.181827
0.000000 0.880156 0.183688
0.000000 0.880278 0.184543
0.000000 0.880003 0.185855
0.000000 0.879484 0.187808
0.000000 0.878904 0.190829
0.000000 0.878538 0.196017
0.000000 0.878111 0.203311
0.000000 0.877043 0.227634
0.195071 0.875181 0.264042
0.293889 0.872587 0.301640
0.373510 0.869261 0.339971
0.442329 0.865080 0.378210
0.477577 0.861418 0.382574
0.501640 0.857450 0.371893
0.524956 0.852689 0.359197
0.548150 0.847318 0.344823
0.571527 0.841733 0.329961
0.595483 0.836088 0.314733
0.619562 0.830411 0.298711
0.643580 0.824765 0.282994
0.691615 0.833921 0.307561
0.736110 0.842618 0.334295
0.776761 0.850523 0.361883
0.813535 0.857725 0.389380
0.846952 0.864256 0.416693
0.877379 0.870390 0.444343
0.905028 0.876188 0.471809
0.930449 0.881834 0.499702
0.949828 0.885496 0.543328
0.966613 0.887510 0.573724
0.982391 0.889616 0.598657
0.000000 0.907927 0.234073
0.000000 0.908049 0.235233
0.000000 0.907897 0.235996
0.000000 0.907378 0.237278
0.000000 0.906493 0.239261
0.000000 0.905486 0.242557
0.000000 0.904356 0.247807
0.000000 0.903136 0.254551
0.120577 0.901396 0.270268
0.240970 0.898497 0.303075
0.325353 0.894926 0.337133
0.397101 0.890806 0.372351
0.460212 0.886137 0.407965
0.508171 0.881437 0.432105
