data/fiter_cube/65184230/1022649/file.cube
# Created by Adobe Lightroom plugin Export LUT (1.17.0)
# www.johnrellis.com/lightroom/exportlut.htm
# Preset: ins网红旅拍风景人像_08 云集
# Color profile: C:\Program Files (x86)\Common Files\Adobe\Color\Profiles\Recommended\AdobeRGB1998.icc
LUT_3D_SIZE 8
DOMAIN_MIN 0.000000 0.000000 0.000000
DOMAIN_MAX 0.903226 0.903226 0.903226
0.114870 0.114870 0.114870
0.177768 0.111208 0.113588
0.334020 0.092042 0.106081
0.562249 0.000000 0.076936
0.822599 0.000000 0.000000
0.963104 0.000000 0.000000
1.000000 0.000000 0.000000
1.000000 0.000000 0.000000
0.103700 0.171969 0.129549
0.175357 0.168185 0.110994
0.325658 0.156374 0.103243
0.541650 0.145510 0.073213
0.794827 0.098878 0.000000
0.940063 0.000000 0.000000
1.000000 0.000000 0.000000
1.000000 0.000000 0.000000
0.000000 0.345922 0.192447
0.000000 0.333989 0.194919
0.334661 0.311040 0.078218
0.586358 0.322698 0.000000
0.803220 0.311376 0.000000
0.945769 0.273625 0.000000
1.000000 0.225223 0.000000
1.000000 0.164096 0.000000
0.000000 0.658839 0.330175
0.000000 0.644221 0.329107
0.000000 0.622095 0.000000
0.632258 0.582025 0.000000
0.842985 0.531792 0.000000
0.961639 0.454627 0.000000
1.000000 0.399298 0.000000
1.000000 0.343420 0.000000
0.000000 0.861082 0.428595
0.000000 0.855436 0.430304
0.000000 0.841855 0.440620
0.356237 0.822538 0.000000
0.817807 0.752621 0.000000
0.943206 0.644099 0.000000
1.000000 0.555016 0.000000
1.000000 0.487526 0.000000
0.000000 0.968811 0.491157
0.000000 0.973114 0.499153
0.000000 0.965972 0.511620
0.000000 0.956878 0.425330
0.553857 0.923857 0.000000
0.938628 0.866148 0.000000
1.000000 0.738643 0.000000
1.000000 0.644007 0.000000
0.000000 1.000000 0.542992
0.000000 1.000000 0.547906
0.000000 1.000000 0.560632
0.000000 1.000000 0.588312
0.000000 1.000000 0.324437
0.679286 0.983917 0.094423
1.000000 0.937896 0.000000
1.000000 0.801663 0.000000
0.000000 1.000000 0.588556
0.000000 1.000000 0.592523
0.000000 1.000000 0.608820
0.220005 1.000000 0.643275
0.351507 1.000000 0.665187
0.420203 1.000000 0.390784
0.771115 1.000000 0.259800
1.000000 0.983764 0.000000
0.110567 0.115602 0.146639
0.171878 0.109499 0.148989
0.317205 0.091890 0.135622
0.533227 0.000000 0.122042
0.783474 0.000000 0.077607
0.929839 0.000000 0.000000
1.000000 0.000000 0.000000
1.000000 0.000000 0.000000
0.115358 0.167086 0.132662
0.177646 0.162814 0.142275
0.318853 0.159091 0.136904
0.530266 0.145266 0.117708
0.772488 0.092531 0.068574
0.919677 0.000000 0.000000
1.000000 0.000000 0.000000
1.000000 0.000000 0.000000
0.063172 0.329717 0.198093
0.106264 0.320409 0.205539
0.335027 0.301427 0.120974
0.558251 0.303349 0.096529
0.772122 0.297154 0.000000
0.921660 0.263462 0.000000
1.000000 0.215366 0.000000
1.000000 0.153109 0.000000
0.000000 0.610407 0.317388
0.000000 0.601740 0.320806
0.000000 0.586877 0.132387
0.582330 0.528527 0.000000
0.789303 0.493874 0.000000
0.924926 0.434974 0.000000
1.000000 0.387549 0.000000
1.000000 0.336278 0.000000
0.000000 0.849241 0.431739
0.000000 0.841764 0.432563
0.000000 0.824338 0.440986
0.353857 0.796078 0.000000
0.790494 0.722194 0.000000
0.924285 0.628290 0.000000
1.000000 0.545800 0.000000
1.000000 0.483009 0.000000
0.000000 0.958862 0.493812
0.000000 0.957275 0.497383
0.000000 0.950530 0.509697
0.000000 0.943114 0.438788
0.552178 0.913695 0.000000
0.935851 0.860075 0.000000
1.000000 0.733577 0.000000
1.000000 0.639765 0.000000
0.000000 1.000000 0.544671
0.000000 1.000000 0.546960
0.000000 1.000000 0.560235
0.000000 1.000000 0.589837
0.128206 1.000000 0.352850
0.677790 0.978454 0.144442
1.000000 0.930907 0.000000
1.000000 0.796170 0.000000
0.000000 1.000000 0.592950
0.000000 1.000000 0.597986
0.000000 1.000000 0.614832
0.258915 1.000000 0.649805
0.418189 1.000000 0.693629
0.446998 1.000000 0.429114
0.772793 1.000000 0.289891
1.000000 0.981994 0.000000
0.088167 0.117678 0.239445
0.169100 0.109895 0.233219
0.324010 0.078218 0.244144
0.547723 0.000000 0.231113
0.800809 0.000000 0.196811
0.940093 0.000000 0.185275
1.000000 0.000000 0.175113
1.000000 0.000000 0.168246
0.120211 0.186862 0.240116
0.178866 0.163790 0.232395
0.326604 0.150607 0.231968
0.548882 0.060761 0.209934
0.784848 0.000000 0.192721
0.930541 0.000000 0.178805
1.000000 0.000000 0.167544
1.000000 0.000000 0.162203
0.112001 0.327947 0.205203
0.182864 0.319524 0.234043
0.348608 0.296635 0.213748
0.572869 0.298405 0.209384
0.793668 0.285649 0.187167
0.932311 0.251774 0.171054
1.000000 0.205570 0.161624
1.000000 0.145388 0.158114
0.000000 0.616205 0.343297
0.000000 0.615778 0.358892
0.182193 0.588586 0.304906
0.601526 0.519402 0.167819
0.805417 0.486854 0.161837
0.935302 0.435004 0.157107
1.000000 0.387976 0.154147
1.000000 0.337530 0.155886
0.000000 0.842679 0.455665
0.000000 0.840269 0.461006
0.000000 0.824704 0.478981
0.383917 0.802243 0.224949
0.805447 0.717647 0.048280
0.930755 0.624384 0.095094
1.000000 0.540490 0.137819
1.000000 0.485267 0.151156
0.000000 0.956298 0.522942
0.000000 0.954162 0.529351
0.000000 0.945586 0.546532
0.180941 0.934356 0.525689
0.567742 0.906889 0.235904
0.930236 0.843809 0.000000
1.000000 0.727382 0.066804
1.000000 0.638422 0.152895
0.000000 1.000000 0.584314
0.000000 1.000000 0.588464
0.104677 1.000000 0.602167
0.281529 1.000000 0.630732
0.329107 1.000000 0.475685
0.691341 0.976013 0.294255
1.000000 0.930358 0.000000
1.000000 0.798154 0.106538
0.198154 1.000000 0.635187
0.206271 1.000000 0.636500
0.281834 1.000000 0.652186
0.406470 1.000000 0.689631
0.513573 1.000000 0.730861
0.514763 1.000000 0.525536
0.785763 1.000000 0.403418
1.000000 0.982361 0.194461
0.000000 0.119783 0.382330
0.160555 0.109773 0.376623
0.321904 0.074098 0.355352
0.551080 0.000000 0.396765
0.785428 0.000000 0.382696
0.929076 0.000000 0.328710
1.000000 0.000000 0.317540
1.000000 0.000000 0.316320
0.000000 0.191318 0.392554
0.160006 0.166415 0.383642
0.332189 0.140719 0.358587
0.563745 0.000000 0.392584
0.786069 0.000000 0.366674
0.925414 0.000000 0.318395
1.000000 0.000000 0.314183
1.000000 0.000000 0.311528
0.054719 0.372778 0.397253
0.174014 0.352239 0.387610
0.351080 0.290135 0.357549
0.572717 0.273075 0.355535
0.791897 0.248722 0.337163
0.932921 0.247532 0.331426
1.000000 0.240055 0.334417
1.000000 0.195438 0.323186
0.000000 0.617395 0.342931
0.143130 0.605188 0.361456
0.348974 0.564080 0.429999
0.603754 0.502007 0.329625
0.795071 0.469459 0.335973
0.927367 0.437293 0.327611
1.000000 0.399054 0.323888
1.000000 0.358465 0.322240
0.000000 0.842954 0.480720
0.171542 0.833341 0.499489
0.326482 0.815915 0.539757
0.443183 0.795926 0.414252
0.811093 0.697322 0.302892
0.932738 0.620783 0.321416
1.000000 0.554986 0.331182
1.000000 0.503410 0.329503
0.276555 0.950439 0.590631
0.347021 0.951141 0.614069
0.383581 0.943908 0.626490
0.464790 0.929015 0.656886
0.618555 0.908659 0.442451
0.932097 0.828641 0.297276
1.000000 0.727352 0.316503
1.000000 0.644739 0.343969
0.411017 1.000000 0.667872
0.418952 1.000000 0.671473
0.450233 1.000000 0.684474
0.511376 0.999695 0.710170
0.547417 0.993286 0.660853
0.727138 0.974578 0.483864
1.000000 0.920470 0.319799
1.000000 0.800137 0.322301
0.537377 1.000000 0.737423
0.537163 1.000000 0.737667
0.532158 1.000000 0.736263
0.562005 1.000000 0.750301
0.623957 1.000000 0.779934
0.619898 1.000000 0.660365
0.808927 1.000000 0.550561
1.000000 0.979492 0.384771
0.000000 0.123690 0.584924
0.106081 0.105898 0.577417
0.353765 0.000000 0.539818
0.538933 0.000000 0.532647
0.777371 0.000000 0.557610
0.920165 0.000000 0.508263
1.000000 0.000000 0.476387
1.000000 0.202823 0.492805
0.000000 0.181125 0.592096
0.052644 0.169070 0.586389
0.357366 0.118135 0.547692
0.547753 0.000000 0.535149
0.777951 0.000000 0.549310
0.920317 0.000000 0.503471
1.000000 0.000000 0.479957
1.000000 0.270695 0.503807
0.000000 0.424018 0.615625
0.136294 0.393194 0.604608
0.350134 0.292638 0.563348
0.567529 0.254215 0.532921
0.776516 0.223819 0.522423
0.912169 0.246494 0.490791
1.000000 0.326024 0.499031
1.000000 0.367315 0.513939
0.000000 0.660578 0.622583
0.000000 0.643519 0.611688
0.361120 0.577996 0.574395
0.588678 0.496040 0.520928
0.779568 0.488136 0.514580
0.910246 0.477119 0.508476
1.000000 0.463996 0.508812
1.000000 0.433814 0.500114
0.027039 0.831815 0.473671
0.202548 0.826169 0.493874
0.426551 0.797726 0.568261
0.567285 0.758816 0.634699
0.790372 0.673884 0.489021
0.910002 0.619806 0.506737
1.000000 0.581659 0.502037
1.000000 0.543114 0.497230
0.293736 0.940276 0.585412
0.359625 0.935424 0.606134
0.518212 0.915648 0.669917
0.592096 0.900908 0.706600
0.645197 0.885130 0.594629
0.913542 0.802640 0.477485
1.000000 0.733730 0.510826
1.000000 0.674586 0.522057
0.495125 1.000000 0.697292
0.533013 0.998169 0.713954
0.636378 0.986542 0.764401
0.654841 0.984070 0.775540
0.683772 0.976867 0.791318
0.759335 0.965637 0.642084
0.995392 0.902983 0.495521
1.000000 0.805417 0.496529
0.630488 1.000000 0.778378
0.652644 1.000000 0.789670
0.704189 1.000000 0.817105
0.707149 1.000000 0.820554
0.711238 1.000000 0.823484
0.731106 1.000000 0.795590
0.830838 1.000000 0.679713
1.000000 0.971008 0.542931
0.000000 0.131624 0.780423
0.000000 0.110903 0.775021
0.354406 0.000000 0.753933
0.573053 0.000000 0.718929
0.768917 0.000000 0.714717
0.913176 0.000000 0.666590
1.000000 0.000000 0.619287
1.000000 0.213138 0.606622
0.000000 0.189609 0.774746
0.000000 0.176120 0.769253
0.343877 0.114412 0.749111
0.566003 0.000000 0.708949
0.763912 0.000000 0.705379
0.909148 0.000000 0.659663
1.000000 0.000000 0.618097
1.000000 0.269078 0.611231
0.000000 0.436622 0.791897
0.000000 0.393194 0.786252
0.316625 0.308324 0.764248
0.573724 0.234012 0.716548
0.775540 0.200870 0.701900
0.909239 0.243168 0.654353
1.000000 0.330022 0.631739
1.000000 0.426917 0.641199
0.000000 0.671321 0.803616
0.182925 0.657832 0.797757
0.423346 0.611688 0.777646
0.595331 0.506584 0.735744
0.791348 0.498177 0.705348
0.907622 0.526879 0.678340
0.989471 0.565332 0.683009
1.000000 0.606775 0.702937
0.000000 0.848814 0.750149
0.195010 0.842161 0.748440
0.426551 0.814633 0.741238
0.624323 0.753933 0.721706
0.769711 0.692073 0.695827
0.890105 0.683040 0.692164
0.977325 0.677913 0.698970
1.000000 0.671748 0.705409
0.339849 0.944762 0.596155
0.400946 0.941894 0.619226
0.547478 0.925689 0.684535
0.694820 0.896849 0.762203
0.745632 0.872770 0.777432
0.895872 0.805722 0.677790
0.979583 0.767849 0.700618
1.000000 0.738216 0.697841
0.540063 1.000000 0.715358
0.576562 0.998840 0.733211
0.664454 0.988556 0.778561
0.762539 0.974273 0.833707
0.795560 0.967041 0.853666
0.804013 0.960082 0.786587
0.978820 0.896391 0.681392
1.000000 0.837034 0.696223
0.648585 1.000000 0.785855
0.667567 1.000000 0.795804
0.725063 1.000000 0.827024
0.800870 1.000000 0.870848
0.821164 1.000000 0.883909
0.822354 1.000000 0.885130
0.859037 1.000000 0.799496
1.000000 0.963897 0.700069
0.000000 0.146578 0.894652
0.000000 0.132326 0.894255
0.291112 0.000458 0.883848
0.541466 0.000000 0.863859
0.739651 0.000000 0.845212
0.906859 0.000000 0.819181
0.993652 0.000000 0.745907
1.000000 0.148440 0.707179
0.000000 0.196902 0.888487
0.000000 0.186862 0.887755
0.274083 0.138643 0.877501
0.531609 0.000000 0.855436
0.730617 0.000000 0.834623
0.896818 0.000000 0.807828
0.985687 0.000000 0.737392
1.000000 0.178561 0.702541
0.000000 0.407965 0.897490
0.000000 0.371069 0.895750
0.234653 0.314244 0.884733
0.522850 0.255741 0.861997
0.732113 0.154604 0.835111
0.898772 0.143709 0.805051
0.985473 0.270451 0.743709
1.000000 0.386877 0.725338
0.198306 0.654139 0.907073
0.273045 0.644434 0.902800
0.425879 0.608728 0.889586
0.541009 0.512627 0.872282
0.737942 0.436774 0.838163
0.899718 0.459602 0.809354
0.979278 0.520226 0.767941
1.000000 0.575341 0.765103
0.220493 0.832425 0.898741
0.296788 0.825650 0.895995
0.472480 0.805356 0.888731
0.646418 0.772610 0.876371
0.732753 0.666560 0.835874
0.879850 0.657038 0.807492
0.962097 0.685054 0.790829
1.000000 0.718471 0.805661
0.333074 0.952422 0.827298
0.386542 0.948638 0.829435
0.524895 0.934752 0.836851
0.667536 0.911650 0.847410
0.775967 0.871824 0.848386
0.869169 0.818631 0.826383
0.954650 0.818448 0.828641
1.000000 0.820829 0.840360
0.533562 1.000000 0.708492
0.567163 1.000000 0.725002
0.653590 0.992554 0.770047
0.753933 0.979004 0.827115
0.837430 0.961364 0.876585
0.873960 0.945159 0.897307
0.956603 0.898283 0.821378
1.000000 0.867430 0.831205
0.648829 1.000000 0.783169
0.667720 1.000000 0.793210
0.730190 1.000000 0.828092
0.802640 1.000000 0.870542
0.869505 1.000000 0.911406
0.902342 0.995544 0.932464
0.892790 0.995148 0.898589
1.000000 0.958556 0.826108
0.000000 0.157778 0.966613
0.000000 0.146883 0.966094
0.174380 0.088411 0.960204
0.466957 0.000000 0.951659
0.679866 0.000000 0.936187
0.860380 0.000000 0.931670
0.994568 0.000000 0.890593
1.000000 0.000000 0.815091
0.000000 0.200656 0.964660
0.000000 0.192752 0.964141
0.142733 0.155581 0.958740
0.458045 0.000000 0.949218
0.674067 0.000000 0.933440
0.856565 0.000000 0.928313
0.991180 0.000000 0.887327
1.000000 0.140322 0.815122
0.000000 0.370489 0.964233
0.000000 0.339117 0.964080
0.000000 0.298466 0.958129
0.437812 0.261173 0.951537
0.662684 0.157137 0.934813
0.851316 0.000000 0.925933
0.987793 0.113588 0.886381
1.000000 0.338384 0.822263
0.000000 0.604242 0.963928
0.202487 0.603632 0.962982
0.303136 0.556420 0.959411
0.444099 0.481392 0.953552
0.653834 0.422736 0.938537
0.845365 0.371527 0.926360
0.982361 0.428717 0.892607
1.000000 0.523919 0.839414
0.210819 0.775875 0.962737
0.292821 0.775021 0.962799
0.456306 0.769192 0.960357
0.594446 0.743893 0.952819
0.674128 0.662043 0.941070
0.831327 0.594232 0.922271
0.970123 0.642420 0.904021
1.000000 0.682399 0.863554
0.301549 0.935607 0.958953
0.353735 0.931640 0.958282
0.491402 0.918914 0.956512
0.642145 0.899351 0.954406
0.774716 0.876463 0.951019
0.842649 0.811398 0.935485
0.954467 0.796628 0.915404
1.000000 0.814878 0.895201
0.499825 1.000000 0.893523
0.527611 1.000000 0.896452
0.607752 1.000000 0.906340
0.711421 0.993805 0.922057
0.807980 0.978424 0.938354
0.879698 0.957885 0.948455
0.933349 0.899870 0.919951
0.990265 0.905455 0.921111
0.618585 1.000000 0.779171
0.635981 1.000000 0.785428
0.693263 1.000000 0.807919
0.776059 1.000000 0.853086
0.855375 1.000000 0.901488
0.915801 0.994018 0.939574
0.950072 0.984314 0.960845
0.988525 0.962066 0.928832
