data/fiter_cube/65184230/1022649/file.cube
# Created by Adobe Lightroom plugin Export LUT (1.17.0)
# www.johnrellis.com/lightroom/exportlut.htm
# Preset: ins网红旅拍风景人像_08 云集
# Color profile: C:\Program Files (x86)\Common Files\Adobe\Color\Profiles\Recommended\AdobeRGB1998.icc
LUT_3D_SIZE 32
DOMAIN_MIN 0.0 0.0 0.0
DOMAIN_MAX 1.0 1.0 1.0
0.114870 0.114870 0.114870
0.120546 0.114565 0.114748
0.127260 0.114260 0.114778
0.147494 0.113252 0.114412
0.177768 0.111208 0.113588
0.211948 0.108248 0.112520
0.248997 0.104585 0.110903
0.289372 0.099275 0.108858
0.334020 0.092042 0.106081
0.383398 0.081544 0.101991
0.438422 0.064271 0.096559
0.498390 0.011566 0.088777
0.562249 0.000000 0.076936
0.625513 0.000000 0.060578
0.694240 0.000000 0.009735
0.767788 0.000000 0.000000
0.822599 0.000000 0.000000
0.866209 0.000000 0.000000
0.902342 0.000000 0.000000
0.934539 0.000000 0.000000
0.963104 0.000000 0.000000
0.988312 0.000000 0.000000
1.000000 0.000000 0.000000
1.000000 0.000000 0.000000
1.000000 0.000000 0.000000
1.000000 0.000000 0.000000
1.000000 0.000000 0.000000
1.000000 0.000000 0.000000
1.000000 0.000000 0.000000
1.000000 0.000000 0.000000
1.000000 0.000000 0.000000
1.000000 0.000000 0.000000
0.114412 0.119692 0.115908
0.120272 0.119631 0.114748
0.127596 0.118379 0.114626
0.147677 0.118288 0.114199
0.177554 0.117128 0.113313
0.211246 0.114992 0.112215
0.247837 0.111604 0.110658
0.287358 0.107515 0.108614
0.331243 0.101472 0.105898
0.380011 0.093233 0.101869
0.433845 0.080812 0.096590
0.492836 0.060121 0.088746
0.555688 0.000000 0.077577
0.618494 0.000000 0.061677
0.687739 0.000000 0.012726
0.758602 0.000000 0.000000
0.812497 0.000000 0.000000
0.856168 0.000000 0.000000
0.892912 0.000000 0.000000
0.925902 0.000000 0.000000
0.955352 0.000000 0.000000
0.981415 0.000000 0.000000
1.000000 0.000000 0.000000
1.000000 0.000000 0.000000
1.000000 0.000000 0.000000
1.000000 0.000000 0.000000
1.000000 0.000000 0.000000
1.000000 0.000000 0.000000
1.000000 0.000000 0.000000
1.000000 0.000000 0.000000
1.000000 0.000000 0.000000
1.000000 0.000000 0.000000
0.113588 0.125734 0.117433
0.114656 0.125856 0.115785
0.127199 0.125704 0.114626
0.148013 0.125093 0.113985
0.177462 0.124514 0.113069
0.210758 0.123049 0.111940
0.246616 0.120485 0.110384
0.285649 0.117098 0.108370
0.329076 0.112367 0.105684
0.377173 0.106142 0.101686
0.430610 0.097108 0.096132
0.489052 0.083650 0.088594
0.551537 0.061646 0.077455
0.614221 0.000000 0.061189
0.684932 0.000000 0.011109
0.753567 0.000000 0.000000
0.806699 0.000000 0.000000
0.850217 0.000000 0.000000
0.887388 0.000000 0.000000
0.920928 0.000000 0.000000
0.951080 0.000000 0.000000
0.977691 0.000000 0.000000
1.000000 0.000000 0.000000
1.000000 0.000000 0.000000
1.000000 0.000000 0.000000
1.000000 0.000000 0.000000
1.000000 0.000000 0.000000
1.000000 0.000000 0.000000
1.000000 0.000000 0.000000
1.000000 0.000000 0.000000
1.000000 0.000000 0.000000
1.000000 0.000000 0.000000
0.110323 0.144411 0.122011
0.111818 0.143679 0.123018
0.113741 0.144350 0.115816
0.147951 0.143954 0.113161
0.178714 0.141451 0.112154
0.211551 0.138705 0.111208
0.246891 0.137148 0.109590
0.285496 0.134951 0.107515
0.328191 0.132143 0.104524
0.375830 0.128206 0.100679
0.428443 0.122957 0.094972
0.486091 0.115541 0.087007
0.547753 0.105501 0.075563
0.609796 0.091005 0.059144
0.683009 0.065064 0.001801
0.748379 0.000000 0.000000
0.800137 0.000000 0.000000
0.843076 0.000000 0.000000
0.879973 0.000000 0.000000
0.913451 0.000000 0.000000
0.943816 0.000000 0.000000
0.971038 0.000000 0.000000
0.995178 0.000000 0.000000
1.000000 0.000000 0.000000
1.000000 0.000000 0.000000
1.000000 0.000000 0.000000
1.000000 0.000000 0.000000
1.000000 0.000000 0.000000
1.000000 0.000000 0.000000
1.000000 0.000000 0.000000
1.000000 0.000000 0.000000
1.000000 0.000000 0.000000
0.103700 0.171969 0.129549
0.105409 0.171084 0.130312
0.108034 0.169558 0.131319
0.123354 0.170321 0.114717
0.175357 0.168185 0.110994
0.211154 0.164309 0.109255
0.246036 0.159609 0.108309
0.283787 0.157504 0.106111
0.325658 0.156374 0.103243
0.372290 0.155093 0.099214
0.423957 0.152895 0.093416
0.480690 0.149966 0.085145
0.541650 0.145510 0.073213
0.606897 0.138918 0.051209
0.679377 0.129793 0.000000
0.742733 0.116762 0.000000
0.794827 0.098878 0.000000
0.838499 0.076204 0.000000
0.876097 0.022675 0.000000
0.909728 0.000000 0.000000
0.940063 0.000000 0.000000
0.967407 0.000000 0.000000
0.991852 0.000000 0.000000
1.000000 0.000000 0.000000
1.000000 0.000000 0.000000
1.000000 0.000000 0.000000
1.000000 0.000000 0.000000
1.000000 0.000000 0.000000
1.000000 0.000000 0.000000
1.000000 0.000000 0.000000
1.000000 0.000000 0.000000
1.000000 0.000000 0.000000
0.092805 0.205509 0.139925
0.094514 0.204593 0.140658
0.097169 0.202945 0.141146
0.102419 0.200870 0.135897
0.145357 0.200351 0.111910
0.207187 0.196658 0.107271
0.247166 0.192172 0.105165
0.284703 0.187930 0.103334
0.326360 0.183749 0.100923
0.372564 0.184237 0.096590
0.423713 0.184695 0.090211
0.479866 0.184756 0.081178
0.540215 0.183780 0.067933
0.611719 0.183139 0.028992
0.679957 0.179446 0.000000
0.741299 0.172641 0.000000
0.792691 0.162814 0.000000
0.836454 0.150820 0.000000
0.874479 0.136751 0.000000
0.908659 0.120119 0.000000
0.939513 0.099825 0.000000
0.967376 0.072663 0.000000
1.000000 0.010040 0.000000
1.000000 0.000000 0.000000
1.000000 0.000000 0.000000
1.000000 0.000000 0.000000
1.000000 0.000000 0.000000
1.000000 0.000000 0.000000
1.000000 0.000000 0.000000
1.000000 0.000000 0.000000
1.000000 0.000000 0.000000
1.000000 0.000000 0.000000
0.066957 0.251896 0.155764
0.070130 0.250553 0.156069
0.073548 0.249027 0.156527
0.081971 0.245518 0.157778
0.095155 0.245274 0.120485
0.179690 0.240574 0.106538
0.250004 0.234958 0.100099
0.295964 0.230289 0.096559
0.339361 0.227329 0.093721
0.387915 0.224002 0.089235
0.441444 0.224033 0.081697
0.499641 0.226566 0.069673
0.572992 0.232120 0.032868
0.646021 0.234714 0.000000
0.711208 0.233097 0.000000
0.765774 0.227512 0.000000
0.812222 0.219150 0.000000
0.852689 0.208988 0.000000
0.889067 0.197574 0.000000
0.923033 0.185061 0.000000
0.954864 0.171939 0.000000
0.984253 0.157290 0.000000
1.000000 0.141024 0.000000
1.000000 0.122499 0.000000
1.000000 0.100679 0.000000
1.000000 0.071870 0.000000
1.000000 0.000000 0.000000
1.000000 0.000000 0.000000
1.000000 0.000000 0.000000
1.000000 0.000000 0.000000
1.000000 0.000000 0.000000
1.000000 0.000000 0.000000
0.000000 0.295720 0.172183
0.000000 0.294469 0.172335
0.002625 0.292729 0.172702
0.032502 0.289128 0.173556
0.066896 0.284337 0.169528
0.121614 0.284062 0.106935
0.216892 0.276738 0.100221
0.289433 0.270329 0.091615
0.339300 0.265965 0.086458
0.387152 0.265446 0.081178
0.440772 0.264744 0.073213
0.509422 0.267308 0.055329
0.579706 0.274754 0.000000
0.646387 0.278050 0.000000
0.707546 0.277684 0.000000
0.760098 0.273228 0.000000
0.805783 0.266209 0.000000
0.846098 0.257267 0.000000
0.882689 0.247593 0.000000
0.916930 0.236881 0.000000
0.949035 0.225650 0.000000
0.978698 0.213596 0.000000
1.000000 0.200809 0.000000
1.000000 0.186679 0.000000
1.000000 0.171603 0.000000
1.000000 0.155520 0.000000
1.000000 0.137301 0.000000
1.000000 0.116304 0.000000
1.000000 0.091402 0.000000
1.000000 0.052155 0.000000
1.000000 0.000000 0.000000
1.000000 0.000000 0.000000
0.000000 0.345922 0.192447
0.000000 0.344701 0.192599
0.000000 0.343084 0.192935
0.000000 0.339361 0.193668
0.000000 0.333989 0.194919
0.036561 0.331579 0.152499
0.166171 0.327245 0.100221
0.259190 0.318242 0.091096
0.334661 0.311040 0.078218
0.395331 0.312016 0.066346
0.454841 0.317784 0.043275
0.519860 0.321965 0.000000
0.586358 0.322698 0.000000
0.649561 0.321660 0.000000
0.707668 0.321691 0.000000
0.758480 0.317876 0.000000
0.803220 0.311376 0.000000
0.843137 0.303258 0.000000
0.879515 0.293919 0.000000
0.913725 0.284031 0.000000
0.945769 0.273625 0.000000
0.975402 0.262455 0.000000
1.000000 0.250767 0.000000
1.000000 0.238315 0.000000
1.000000 0.225223 0.000000
1.000000 0.211002 0.000000
1.000000 0.196292 0.000000
1.000000 0.180575 0.000000
1.000000 0.164096 0.000000
1.000000 0.146212 0.000000
1.000000 0.126650 0.000000
1.000000 0.104036 0.000000
0.000000 0.402777 0.216526
0.000000 0.401465 0.216617
0.000000 0.399634 0.216709
0.000000 0.396002 0.217227
0.000000 0.390478 0.217929
0.000000 0.383917 0.213687
0.000000 0.383398 0.109194
0.215152 0.377020 0.087861
0.312413 0.371191 0.072663
0.396002 0.366735 0.034546
0.460487 0.365850 0.000000
0.522820 0.371801 0.000000
0.586633 0.374517 0.000000
0.648646 0.372595 0.000000
0.707546 0.365820 0.000000
0.759243 0.361975 0.000000
0.804746 0.356329 0.000000
0.844938 0.348486 0.000000
0.881010 0.339452 0.000000
0.914275 0.329564 0.000000
0.944976 0.318975 0.000000
0.973022 0.307866 0.000000
0.998352 0.296056 0.000000
1.000000 0.283848 0.000000
1.000000 0.271122 0.000000
1.000000 0.257939 0.000000
1.000000 0.244327 0.000000
1.000000 0.230320 0.000000
1.000000 0.215946 0.000000
1.000000 0.201114 0.000000
1.000000 0.186038 0.000000
1.000000 0.170047 0.000000
0.000000 0.463325 0.242802
0.000000 0.462196 0.242893
0.000000 0.460670 0.243046
0.000000 0.457343 0.243473
0.000000 0.453315 0.244541
0.000000 0.451240 0.247593
0.000000 0.451606 0.200931
0.111177 0.451728 0.078798
0.274540 0.443153 0.057404
0.373724 0.432258 0.000061
0.459541 0.424445 0.000000
0.526360 0.420996 0.000000
0.588067 0.425208 0.000000
0.648463 0.425086 0.000000
0.706172 0.420661 0.000000
0.757534 0.410651 0.000000
0.802792 0.398657 0.000000
0.842527 0.391058 0.000000
0.878325 0.381842 0.000000
0.911376 0.371954 0.000000
0.942046 0.361486 0.000000
0.970153 0.350500 0.000000
0.995636 0.339025 0.000000
1.000000 0.326940 0.000000
1.000000 0.314336 0.000000
1.000000 0.301244 0.000000
1.000000 0.287999 0.000000
1.000000 0.274479 0.000000
1.000000 0.260807 0.000000
1.000000 0.246952 0.000000
1.000000 0.233127 0.000000
1.000000 0.219028 0.000000
0.000000 0.544488 0.278569
0.000000 0.544030 0.278935
0.000000 0.543023 0.279301
0.000000 0.541222 0.280186
0.000000 0.538384 0.281590
0.000000 0.534234 0.283391
0.000000 0.529137 0.282414
0.000000 0.529778 0.164920
0.191104 0.523522 0.005737
0.338689 0.511803 0.000000
0.439765 0.497597 0.000000
0.529198 0.487892 0.000000
0.660151 0.530266 0.000000
0.718776 0.526238 0.000000
0.768978 0.514794 0.000000
0.812528 0.498451 0.000000
0.850645 0.478981 0.000000
0.884215 0.457282 0.000000
0.913939 0.441260 0.000000
0.941558 0.428107 0.000000
0.967163 0.414832 0.000000
0.990661 0.401434 0.000000
1.000000 0.387854 0.000000
1.000000 0.374304 0.000000
1.000000 0.360571 0.000000
1.000000 0.346777 0.000000
1.000000 0.332921 0.000000
1.000000 0.319097 0.000000
1.000000 0.305303 0.000000
1.000000 0.291569 0.000000
1.000000 0.278080 0.000000
1.000000 0.264408 0.000000
0.000000 0.658839 0.330175
0.000000 0.657954 0.330388
0.000000 0.655299 0.329900
0.000000 0.650843 0.329534
0.000000 0.644221 0.329107
0.000000 0.636103 0.329015
0.000000 0.627832 0.329900
0.000000 0.622766 0.278111
0.000000 0.622095 0.000000
0.270848 0.612299 0.000000
0.418860 0.601801 0.000000
0.530510 0.589563 0.000000
0.632258 0.582025 0.000000
0.700923 0.567010 0.000000
0.757046 0.562158 0.000000
0.803464 0.549432 0.000000
0.842985 0.531792 0.000000
0.877073 0.511345 0.000000
0.907683 0.489448 0.000000
0.935882 0.468055 0.000000
0.961639 0.454627 0.000000
0.985382 0.440955 0.000000
1.000000 0.427192 0.000000
1.000000 0.413306 0.000000
1.000000 0.399298 0.000000
1.000000 0.385260 0.000000
1.000000 0.371283 0.000000
1.000000 0.357336 0.000000
1.000000 0.343420 0.000000
1.000000 0.329870 0.000000
1.000000 0.316442 0.000000
1.000000 0.302892 0.000000
0.000000 0.724300 0.360754
0.000000 0.723445 0.360876
0.000000 0.721187 0.360540
0.000000 0.717037 0.360174
0.000000 0.710719 0.359655
0.000000 0.703120 0.359503
0.000000 0.695552 0.360266
0.000000 0.688075 0.362188
0.000000 0.686641 0.242527
0.000000 0.683711 0.000000
0.340734 0.673335 0.000000
0.481483 0.661830 0.000000
0.591577 0.647456 0.000000
0.691859 0.636683 0.000000
0.749142 0.609735 0.000000
0.796170 0.598474 0.000000
0.835691 0.581842 0.000000
0.870115 0.562310 0.000000
0.901183 0.541161 0.000000
0.929839 0.519402 0.000000
0.956512 0.497078 0.000000
0.980804 0.479622 0.000000
1.000000 0.465553 0.000000
1.000000 0.451453 0.000000
1.000000 0.437232 0.000000
1.000000 0.422919 0.000000
1.000000 0.408637 0.000000
1.000000 0.394476 0.000000
1.000000 0.380499 0.000000
1.000000 0.366796 0.000000
1.000000 0.353277 0.000000
1.000000 0.339727 0.000000
0.000000 0.778775 0.386969
0.000000 0.778378 0.387304
0.000000 0.776425 0.387030
0.000000 0.772793 0.386725
0.000000 0.767239 0.386419
0.000000 0.760678 0.386358
0.000000 0.754116 0.387304
0.000000 0.747799 0.389319
0.000000 0.744137 0.346685
0.000000 0.744228 0.176699
0.193362 0.738277 0.000000
0.404883 0.727382 0.000000
0.538445 0.714168 0.000000
0.645777 0.697566 0.000000
0.743313 0.683833 0.000000
0.790402 0.646693 0.000000
0.830686 0.631189 0.000000
0.865019 0.611872 0.000000
0.895995 0.591150 0.000000
0.924681 0.569757 0.000000
0.951324 0.547814 0.000000
0.975982 0.525475 0.000000
0.998383 0.502953 0.000000
1.000000 0.488502 0.000000
1.000000 0.473976 0.000000
1.000000 0.459541 0.000000
1.000000 0.445136 0.000000
1.000000 0.431006 0.000000
1.000000 0.417090 0.000000
1.000000 0.403449 0.000000
1.000000 0.389837 0.000000
1.000000 0.376287 0.000000
0.000000 0.824643 0.409796
0.000000 0.824582 0.410285
0.000000 0.823728 0.410407
0.000000 0.821561 0.410803
0.000000 0.818173 0.411414
0.000000 0.814145 0.412482
0.000000 0.810025 0.414374
0.000000 0.805844 0.417273
0.000000 0.801572 0.421180
0.000000 0.800534 0.319402
0.000000 0.799863 0.000000
0.286259 0.787991 0.000000
0.462898 0.773495 0.000000
0.588037 0.756466 0.000000
0.689876 0.736690 0.000000
0.782986 0.720333 0.000000
0.823392 0.676967 0.000000
0.859556 0.659480 0.000000
0.891447 0.639460 0.000000
0.920958 0.618738 0.000000
0.948241 0.597559 0.000000
0.973388 0.575677 0.000000
0.996155 0.553216 0.000000
1.000000 0.530327 0.000000
1.000000 0.511345 0.000000
1.000000 0.496498 0.000000
1.000000 0.481758 0.000000
1.000000 0.467323 0.000000
1.000000 0.453010 0.000000
1.000000 0.438911 0.000000
1.000000 0.424750 0.000000
1.000000 0.410895 0.000000
0.000000 0.861082 0.428595
0.000000 0.860655 0.428809
0.000000 0.859709 0.428992
0.000000 0.857969 0.429450
0.000000 0.855436 0.430304
0.000000 0.852323 0.431678
0.000000 0.849027 0.433814
0.000000 0.845487 0.436713
0.000000 0.841855 0.440620
0.000000 0.839261 0.411078
0.000000 0.838834 0.272770
0.000000 0.835233 0.000000
0.356237 0.822538 0.000000
0.512047 0.807523 0.000000
0.629938 0.789853 0.000000
0.727504 0.769528 0.000000
0.817807 0.752621 0.000000
0.853574 0.704921 0.000000
0.886442 0.685939 0.000000
0.915892 0.665248 0.000000
0.943206 0.644099 0.000000
0.968414 0.622461 0.000000
0.991455 0.600275 0.000000
1.000000 0.577813 0.000000
1.000000 0.555016 0.000000
1.000000 0.532006 0.000000
1.000000 0.516777 0.000000
1.000000 0.502068 0.000000
1.000000 0.487526 0.000000
1.000000 0.473060 0.000000
1.000000 0.458747 0.000000
1.000000 0.444556 0.000000
0.000000 0.894316 0.446540
0.000000 0.894652 0.447211
0.000000 0.919066 0.462226
0.000000 0.917662 0.462928
0.000000 0.915373 0.463996
0.000000 0.912352 0.465461
0.000000 0.908751 0.467506
0.000000 0.904906 0.470283
0.000000 0.900938 0.474220
0.000000 0.896941 0.479316
0.000000 0.895048 0.397253
0.000000 0.893523 0.220829
0.189029 0.884611 0.000000
0.426001 0.869841 0.000000
0.567651 0.853056 0.000000
0.679896 0.834195 0.000000
0.775540 0.813321 0.000000
0.864134 0.795651 0.000000
0.894469 0.741756 0.000000
0.922637 0.719539 0.000000
0.948089 0.696498 0.000000
0.971954 0.673548 0.000000
0.993927 0.650416 0.000000
1.000000 0.627161 0.000000
1.000000 0.603571 0.000000
1.000000 0.579980 0.000000
1.000000 0.556390 0.000000
1.000000 0.536492 0.000000
1.000000 0.521386 0.000000
1.000000 0.506462 0.000000
1.000000 0.491798 0.000000
1.000000 0.477211 0.000000
0.000000 0.928344 0.466163
0.000000 0.930938 0.468208
0.000000 0.933318 0.470375
0.000000 0.934783 0.472786
0.000000 0.934997 0.475257
0.000000 0.933593 0.477577
0.000000 0.931151 0.480110
0.000000 0.928099 0.483131
0.000000 0.924926 0.487221
0.000000 0.921477 0.492287
0.000000 0.918486 0.476661
0.000000 0.917418 0.360662
0.000000 0.915679 0.108675
0.288243 0.903502 0.000000
0.473335 0.888731 0.000000
0.602686 0.872068 0.000000
0.708766 0.853788 0.000000
0.800717 0.834012 0.000000
0.887419 0.817472 0.000000
0.915953 0.762387 0.000000
0.942351 0.739986 0.000000
0.966735 0.717372 0.000000
0.989288 0.694514 0.000000
1.000000 0.671412 0.000000
1.000000 0.648066 0.000000
1.000000 0.624720 0.000000
1.000000 0.601373 0.000000
1.000000 0.578271 0.000000
1.000000 0.555230 0.000000
1.000000 0.539300 0.000000
1.000000 0.524224 0.000000
1.000000 0.509331 0.000000
0.000000 0.949615 0.478920
0.000000 0.951629 0.480812
0.000000 0.953582 0.482765
0.000000 0.954742 0.484993
0.000000 0.954894 0.487373
0.000000 0.953796 0.489784
0.000000 0.951812 0.492439
0.000000 0.949310 0.495644
0.000000 0.946654 0.499733
0.000000 0.943786 0.504814
0.000000 0.940703 0.511040
0.000000 0.939117 0.452094
0.000000 0.937926 0.319249
0.000000 0.933959 0.064179
0.357610 0.921050 0.000000
0.515557 0.906523 0.000000
0.635187 0.890501 0.000000
0.736233 0.873136 0.000000
0.825650 0.854765 0.000000
0.910704 0.839567 0.000000
0.937743 0.783230 0.000000
0.962402 0.760647 0.000000
0.985290 0.737881 0.000000
1.000000 0.714839 0.000000
1.000000 0.691432 0.000000
1.000000 0.668025 0.000000
1.000000 0.644709 0.000000
1.000000 0.621546 0.000000
1.000000 0.598505 0.000000
1.000000 0.575647 0.000000
1.000000 0.555901 0.000000
1.000000 0.540612 0.000000
0.000000 0.968811 0.491157
0.000000 0.970459 0.492836
0.000000 0.972045 0.494636
0.000000 0.973022 0.496803
0.000000 0.973114 0.499153
0.000000 0.972168 0.501579
0.000000 0.970489 0.504265
0.000000 0.968353 0.507469
0.000000 0.965972 0.511620
0.000000 0.963378 0.516686
0.000000 0.960571 0.522728
0.000000 0.957610 0.522820
0.000000 0.956878 0.425330
0.000000 0.955840 0.271519
0.176333 0.949187 0.090883
0.412909 0.937072 0.000000
0.553857 0.923857 0.000000
0.666743 0.909758 0.000000
0.764950 0.894865 0.000000
0.853696 0.879179 0.000000
0.938628 0.866148 0.000000
0.965454 0.809079 0.000000
0.988006 0.785611 0.000000
1.000000 0.762295 0.000000
1.000000 0.738643 0.000000
1.000000 0.714870 0.000000
1.000000 0.691096 0.000000
1.000000 0.667445 0.000000
1.000000 0.644007 0.000000
1.000000 0.620844 0.000000
1.000000 0.597833 0.000000
1.000000 0.575555 0.000000
0.000000 0.992370 0.508049
0.000000 0.992889 0.508995
0.000000 0.993225 0.509941
0.000000 0.993133 0.511345
0.000000 0.992523 0.513207
0.000000 0.991394 0.515373
0.000000 0.989899 0.518151
0.000000 0.988190 0.521691
0.000000 0.986358 0.526177
0.000000 0.984405 0.531731
0.000000 0.982208 0.538354
0.000000 0.979583 0.545922
0.000000 0.977905 0.509117
0.000000 0.977447 0.403326
0.000000 0.976684 0.223239
0.285313 0.967620 0.130251
0.464179 0.956085 0.036744
0.591669 0.943572 0.000000
0.698085 0.930266 0.000000
0.792569 0.916045 0.000000
0.878691 0.900999 0.000000
0.961334 0.887999 0.000000
0.986145 0.829068 0.000000
1.000000 0.804044 0.000000
1.000000 0.779965 0.000000
1.000000 0.756039 0.000000
1.000000 0.731991 0.000000
1.000000 0.708248 0.000000
1.000000 0.684718 0.000000
1.000000 0.661463 0.000000
1.000000 0.638788 0.000000
1.000000 0.617151 0.000000
0.000000 1.000000 0.518944
0.000000 1.000000 0.519890
0.000000 1.000000 0.520897
0.000000 1.000000 0.522362
0.000000 1.000000 0.524193
0.000000 1.000000 0.526360
0.000000 1.000000 0.529076
0.000000 1.000000 0.532464
0.000000 1.000000 0.536919
0.000000 0.999207 0.542382
0.000000 0.997162 0.548913
0.000000 0.994781 0.556420
0.000000 0.991943 0.564752
0.000000 0.991669 0.490547
0.000000 0.991547 0.375677
0.000000 0.990112 0.195682
0.354803 0.980377 0.154482
0.506065 0.969757 0.093538
0.623499 0.958343 0.000000
0.724666 0.946166 0.000000
0.815946 0.933257 0.000000
0.900237 0.919554 0.000000
0.981323 0.907500 0.000000
1.000000 0.848325 0.000000
1.000000 0.819211 0.000000
1.000000 0.794919 0.000000
1.000000 0.770840 0.000000
1.000000 0.747036 0.000000
1.000000 0.723537 0.000000
1.000000 0.700496 0.000000
1.000000 0.678279 0.000000
1.000000 0.657435 0.000000
0.000000 1.000000 0.533745
0.000000 1.000000 0.534813
0.000000 1.000000 0.535760
0.000000 1.000000 0.536980
0.000000 1.000000 0.538598
0.000000 1.000000 0.540642
0.000000 1.000000 0.543206
0.000000 1.000000 0.546441
0.000000 1.000000 0.550469
0.000000 1.000000 0.555474
0.000000 1.000000 0.561425
0.000000 1.000000 0.568475
0.000000 1.000000 0.576501
0.000000 1.000000 0.560571
0.000000 1.000000 0.472786
0.000000 1.000000 0.346929
0.198642 0.999756 0.213169
0.407874 0.990234 0.172702
0.541192 0.980224 0.118807
0.650568 0.969726 0.000000
0.747066 0.958618 0.000000
0.835142 0.946715 0.000000
0.917021 0.933837 0.000000
0.995727 0.921813 0.000000
1.000000 0.863798 0.000000
1.000000 0.834806 0.000000
1.000000 0.810239 0.000000
1.000000 0.785977 0.000000
1.000000 0.762295 0.000000
1.000000 0.739284 0.000000
1.000000 0.717342 0.000000
1.000000 0.696986 0.000000
0.000000 1.000000 0.542992
0.000000 1.000000 0.544091
0.000000 1.000000 0.545006
0.000000 1.000000 0.546288
0.000000 1.000000 0.547906
0.000000 1.000000 0.550072
0.000000 1.000000 0.552819
0.000000 1.000000 0.556268
0.000000 1.000000 0.560632
0.000000 1.000000 0.566033
0.000000 1.000000 0.572290
0.000000 1.000000 0.579797
0.000000 1.000000 0.588312
0.000000 1.000000 0.597681
0.000000 1.000000 0.550500
0.000000 1.000000 0.458869
0.000000 1.000000 0.324437
0.298833 1.000000 0.241825
0.458137 1.000000 0.205203
0.577417 0.993622 0.160800
0.679286 0.983917 0.094423
0.770993 0.973388 0.000000
0.855650 0.961944 0.000000
0.934966 0.949584 0.000000
1.000000 0.937896 0.000000
1.000000 0.881468 0.000000
1.000000 0.850126 0.000000
1.000000 0.825589 0.000000
1.000000 0.801663 0.000000
1.000000 0.778561 0.000000
1.000000 0.756680 0.000000
1.000000 0.736660 0.000000
0.000000 1.000000 0.553735
0.000000 1.000000 0.554620
0.000000 1.000000 0.555352
0.000000 1.000000 0.556390
0.000000 1.000000 0.557916
0.000000 1.000000 0.559899
0.000000 1.000000 0.562524
0.000000 1.000000 0.565972
0.000000 1.000000 0.570367
0.000000 1.000000 0.575769
0.000000 1.000000 0.582269
0.000000 1.000000 0.590021
0.000000 1.000000 0.598779
0.000000 1.000000 0.608545
0.152895 1.000000 0.613550
0.143740 1.000000 0.541039
0.141085 1.000000 0.445655
0.147066 1.000000 0.302556
0.366918 1.000000 0.267002
0.500145 1.000000 0.232273
0.608362 1.000000 0.191318
0.703731 0.994659 0.137209
0.790921 0.984680 0.000000
0.872343 0.973816 0.000000
0.949401 0.962066 0.000000
1.000000 0.950805 0.000000
1.000000 0.896330 0.000000
1.000000 0.863127 0.000000
1.000000 0.838834 0.000000
1.000000 0.815640 0.000000
1.000000 0.793759 0.000000
1.000000 0.774014 0.000000
0.000000 1.000000 0.562768
0.000000 1.000000 0.563500
0.000000 1.000000 0.564233
0.000000 1.000000 0.565362
0.000000 1.000000 0.567132
0.000000 1.000000 0.569726
0.000000 1.000000 0.573358
0.000000 1.000000 0.578027
0.000000 1.000000 0.583948
0.000000 1.000000 0.591058
0.000000 1.000000 0.599420
0.000000 1.000000 0.609003
0.088167 1.000000 0.619623
0.192050 1.000000 0.631098
0.255863 1.000000 0.642969
0.280156 1.000000 0.622522
0.269627 1.000000 0.550774
0.261112 1.000000 0.456947
0.301762 1.000000 0.351965
0.441047 1.000000 0.322332
0.550256 1.000000 0.290074
0.645838 1.000000 0.253452
0.733181 1.000000 0.209262
0.815061 0.999695 0.151186
0.892943 0.989502 0.000000
0.967712 0.978424 0.000000
1.000000 0.967559 0.000000
1.000000 0.914672 0.000000
1.000000 0.879698 0.000000
1.000000 0.855375 0.000000
1.000000 0.832944 0.000000
1.000000 0.812833 0.000000
0.000000 1.000000 0.579370
0.000000 1.000000 0.580011
0.000000 1.000000 0.580591
0.000000 1.000000 0.581598
0.000000 1.000000 0.583276
0.000000 1.000000 0.585687
0.000000 1.000000 0.588952
0.000000 1.000000 0.593194
0.000000 1.000000 0.598535
0.000000 1.000000 0.605066
0.000000 1.000000 0.612634
0.009918 1.000000 0.621363
0.164950 1.000000 0.631250
0.230930 1.000000 0.641840
