data/fiter_cube/65184230/1022649/file.cube
# Created by Adobe Lightroom plugin Export LUT (1.17.0)
# www.johnrellis.com/lightroom/exportlut.htm
# Preset: ins网红旅拍风景人像_08 云集
# Color profile: C:\Program Files (x86)\Common Files\Adobe\Color\Profiles\Recommended\AdobeRGB1998.icc
LUT_3D_SIZE 5
DOMAIN_MIN 0.000000 0.000000 0.000000
DOMAIN_MAX 0.903226 0.903226 0.903226
0.114870 0.114870 0.114870
0.289372 0.099275 0.108858
0.694240 0.000000 0.009735
0.988312 0.000000 0.000000
1.000000 0.000000 0.000000
0.000000 0.295720 0.172183
0.289433 0.270329 0.091615
0.707546 0.277684 0.000000
0.978698 0.213596 0.000000
1.000000 0.091402 0.000000
0.000000 0.778775 0.386969
0.000000 0.747799 0.389319
0.743313 0.683833 0.000000
0.975982 0.525475 0.000000
1.000000 0.417090 0.000000
0.000000 0.992370 0.508049
0.000000 0.988190 0.521691
0.000000 0.976684 0.223239
0.961334 0.887999 0.000000
1.000000 0.684718 0.000000
0.000000 1.000000 0.588556
0.000000 1.000000 0.603113
0.264378 1.000000 0.650660
0.520989 1.000000 0.364263
1.000000 0.983764 0.000000
0.097963 0.117067 0.208804
0.277989 0.092805 0.214633
0.677028 0.000000 0.174929
0.957671 0.000000 0.141268
1.000000 0.000000 0.121828
0.116548 0.278660 0.182345
0.295628 0.254643 0.191073
0.682063 0.251286 0.167941
0.955535 0.189792 0.129061
1.000000 0.028779 0.117281
0.000000 0.748501 0.398718
0.000000 0.721492 0.410010
0.704067 0.626612 0.010559
0.955749 0.502983 0.079347
1.000000 0.414221 0.108797
0.000000 0.986328 0.539086
0.000000 0.981048 0.558312
0.205386 0.967895 0.377783
0.960815 0.877958 0.000000
1.000000 0.681209 0.083528
0.129580 1.000000 0.627619
0.232639 1.000000 0.642878
0.434974 1.000000 0.700557
0.573297 1.000000 0.477668
1.000000 0.984070 0.164767
0.000000 0.122042 0.480476
0.296757 0.069520 0.445594
0.676997 0.000000 0.484871
0.952605 0.000000 0.413550
1.000000 0.101137 0.416358
0.000000 0.349889 0.500999
0.298283 0.252262 0.462623
0.687648 0.176455 0.456031
0.947417 0.195377 0.406592
1.000000 0.235019 0.413642
0.000000 0.739010 0.408606
0.319799 0.705348 0.475776
0.709926 0.593957 0.400885
0.945678 0.519768 0.413489
1.000000 0.452644 0.409247
0.351904 0.966278 0.621424
0.488167 0.951781 0.672969
0.573083 0.936126 0.693111
0.948882 0.842679 0.395636
1.000000 0.687312 0.421149
0.626001 1.000000 0.777035
0.627771 1.000000 0.778927
0.641962 1.000000 0.787900
0.680964 1.000000 0.683833
1.000000 0.974456 0.454688
0.000000 0.133852 0.806332
0.269871 0.001953 0.791958
0.662654 0.000000 0.749264
0.934234 0.000000 0.685939
1.000000 0.186954 0.628840
0.000000 0.350683 0.812619
0.213016 0.266606 0.797116
0.664424 0.122744 0.744442
0.929137 0.152499 0.676020
1.000000 0.355566 0.644953
0.000000 0.758633 0.818723
0.360510 0.726345 0.806485
0.667597 0.568383 0.729061
0.905547 0.586877 0.690394
1.000000 0.653681 0.730312
0.408392 0.966308 0.633387
0.540276 0.951019 0.690608
0.761166 0.907561 0.808957
0.913695 0.831449 0.717250
1.000000 0.769772 0.729427
0.650752 1.000000 0.786404
0.712306 1.000000 0.819608
0.839689 1.000000 0.894072
0.848905 1.000000 0.900877
1.000000 0.961852 0.732113
0.000000 0.157778 0.966613
0.000000 0.111513 0.961944
0.577356 0.000000 0.945129
0.905791 0.000000 0.931975
1.000000 0.000000 0.815091
0.000000 0.309117 0.965911
0.000000 0.268864 0.961730
0.560510 0.162722 0.944305
0.899596 0.000000 0.927337
1.000000 0.297917 0.820920
0.151431 0.693324 0.964446
0.353521 0.678035 0.960143
0.564080 0.570520 0.945830
0.880583 0.480354 0.921874
1.000000 0.605219 0.850034
0.355840 0.976593 0.960510
0.492195 0.963134 0.959258
0.731472 0.925475 0.956634
0.869963 0.834928 0.931701
0.999847 0.839261 0.901244
0.618585 1.000000 0.779171
0.675502 1.000000 0.800656
0.817624 1.000000 0.878172
0.927428 0.991547 0.946929
0.988525 0.962066 0.928832
