data/fiter_cube/26597975/1022853/file.cube
# Created by Adobe Lightroom plugin Export LUT (1.17.0)
# www.johnrellis.com/lightroom/exportlut.htm
# Preset:  城市电影胶片_09 云集
# Color profile: C:\Program Files (x86)\Common Files\Adobe\Color\Profiles\Recommended\AdobeRGB1998.icc
LUT_3D_SIZE 5
DOMAIN_MIN 0.000000 0.000000 0.000000
DOMAIN_MAX 0.903226 0.903226 0.903226
0.096712 0.093263 0.087190
0.092042 0.092927 0.086763
0.162264 0.072969 0.082368
0.604669 0.000000 0.014435
1.000000 0.000000 0.000000
0.092714 0.089631 0.084108
0.093416 0.090394 0.084932
0.149386 0.099336 0.083284
0.601526 0.000000 0.023072
1.000000 0.000000 0.000000
0.153994 0.147524 0.138949
0.157961 0.151431 0.142855
0.176272 0.169589 0.161990
0.383124 0.277501 0.207614
1.000000 0.717983 0.231144
0.444221 0.457008 0.487129
0.466407 0.479927 0.510826
0.503960 0.517906 0.549218
0.375982 0.384558 0.408606
0.793606 0.736599 0.650355
0.935851 0.930022 0.923766
0.937011 0.931182 0.924865
0.922637 0.917113 0.911742
0.904479 0.899504 0.895598
0.846738 0.850248 0.840940
0.096956 0.094759 0.106508
0.107271 0.101564 0.107790
0.123293 0.118013 0.109712
0.191836 0.185397 0.179171
1.000000 0.000000 0.457801
0.097230 0.108034 0.128817
0.111238 0.116365 0.136812
0.155612 0.148684 0.140902
0.218448 0.212894 0.210239
1.000000 0.000000 0.428473
0.154726 0.159335 0.167422
0.167147 0.173312 0.185397
0.231724 0.234714 0.246891
0.483253 0.316899 0.330114
1.000000 0.584924 0.470008
0.582635 0.595148 0.623957
0.621729 0.632715 0.658961
0.669520 0.678096 0.700221
0.651087 0.660639 0.684443
0.857939 0.818723 0.771756
0.955871 0.949981 0.942901
0.956817 0.950958 0.943847
0.963500 0.957733 0.950561
0.961303 0.955505 0.948333
0.887175 0.882902 0.880613
0.147036 0.258427 0.593957
0.222232 0.291203 0.612421
0.392554 0.392859 0.634485
0.531640 0.532555 0.601099
0.618067 0.629236 0.655726
0.177401 0.346715 0.713527
0.249454 0.363012 0.705226
0.415595 0.435309 0.692988
0.575891 0.568322 0.664576
0.672908 0.681300 0.703090
0.084108 0.459724 0.785916
0.167727 0.474464 0.788724
0.428382 0.563958 0.817075
0.709255 0.706813 0.823484
0.823209 0.822110 0.826871
0.592493 0.723476 0.869200
0.610010 0.731350 0.869688
0.731411 0.805722 0.895842
0.858122 0.883391 0.921233
0.951812 0.942077 0.936980
0.980194 0.977203 0.973266
0.983948 0.980468 0.975891
0.987579 0.983703 0.978393
0.988891 0.985229 0.980255
0.981750 0.977050 0.970825
0.796262 0.800076 0.971527
0.823697 0.821378 0.971466
0.879057 0.865354 0.969055
0.926818 0.909056 0.963836
0.976593 0.968872 0.970794
0.818906 0.831083 0.974365
0.833890 0.840116 0.973205
0.881102 0.873259 0.970397
0.926452 0.910918 0.965148
0.975738 0.967742 0.970520
0.840085 0.877440 0.979736
0.860349 0.887846 0.978882
0.898558 0.906859 0.976928
0.935454 0.928496 0.972198
0.980804 0.974060 0.976013
0.886076 0.931426 0.985687
0.887449 0.931395 0.985077
0.910582 0.941955 0.984955
0.959777 0.964965 0.984863
0.987366 0.983062 0.983856
0.980865 0.984039 0.990814
0.981994 0.984741 0.990875
0.985962 0.987243 0.991150
0.990387 0.989929 0.990509
0.995148 0.993896 0.992584
0.984924 0.982696 0.994842
0.985809 0.983490 0.994842
0.988586 0.986084 0.994842
0.991302 0.988586 0.994568
0.993957 0.991333 0.993988
0.986206 0.984375 0.995178
0.987030 0.985107 0.995209
0.989014 0.986755 0.995026
0.991424 0.988891 0.994690
0.994079 0.991516 0.994141
0.988861 0.987976 0.996063
0.989044 0.988037 0.996002
0.990326 0.988891 0.995789
0.992309 0.990417 0.995422
0.994842 0.992767 0.994995
0.989960 0.990509 0.997101
0.990387 0.990753 0.997070
0.992187 0.991974 0.996979
0.994110 0.993256 0.996857
0.996307 0.995026 0.996551
0.992462 0.993408 0.997620
0.992615 0.993500 0.997589
0.993622 0.994293 0.997742
0.995087 0.995453 0.997955
0.997498 0.997345 0.998291
