data/fiter_cube/26597975/1022853/file.cube
# Created by Adobe Lightroom plugin Export LUT (1.17.0)
# www.johnrellis.com/lightroom/exportlut.htm
# Preset:  城市电影胶片_09 云集
# Color profile: C:\Program Files (x86)\Common Files\Adobe\Color\Profiles\Recommended\AdobeRGB1998.icc
LUT_3D_SIZE 32
DOMAIN_MIN 0.0 0.0 0.0
DOMAIN_MAX 1.0 1.0 1.0
0.096712 0.093263 0.087190
0.096712 0.093263 0.087190
0.095735 0.093416 0.087190
0.093812 0.093446 0.087251
0.092195 0.093446 0.087282
0.091157 0.093599 0.087312
0.090913 0.093355 0.087037
0.092042 0.092927 0.086763
0.094514 0.092226 0.086183
0.098726 0.091188 0.085847
0.105653 0.089876 0.085176
0.115206 0.087861 0.084718
0.127382 0.084901 0.083864
0.143130 0.080201 0.083192
0.162264 0.072969 0.082368
0.185794 0.061219 0.081300
0.214694 0.021485 0.080201
0.250370 0.000000 0.078462
0.294194 0.000000 0.076234
0.369757 0.000000 0.070893
0.480140 0.000000 0.059052
0.604669 0.000000 0.014435
0.732387 0.000000 0.000000
0.848966 0.000000 0.000000
0.942992 0.000000 0.000000
1.000000 0.000000 0.000000
1.000000 0.000000 0.000000
1.000000 0.000000 0.000000
1.000000 0.000000 0.000000
1.000000 0.000000 0.000000
1.000000 0.000000 0.000000
1.000000 0.000000 0.000000
0.096712 0.093263 0.087190
0.096712 0.093263 0.087190
0.096101 0.093080 0.087221
0.094209 0.092836 0.087282
0.092287 0.092866 0.087343
0.091249 0.093019 0.087343
0.090974 0.093080 0.087068
0.092134 0.092622 0.086488
0.094209 0.091981 0.086213
0.098482 0.091249 0.085573
0.104799 0.090059 0.085176
0.113680 0.088228 0.084443
0.125490 0.085695 0.083864
0.140475 0.081392 0.083223
0.158755 0.075227 0.082429
0.181064 0.064576 0.081453
0.208347 0.034089 0.080446
0.242283 0.000000 0.078828
0.284092 0.000000 0.076783
0.356603 0.000000 0.071931
0.456916 0.000000 0.061891
0.572229 0.000000 0.028779
0.694697 0.000000 0.000000
0.812467 0.000000 0.000000
0.912871 0.000000 0.000000
0.991882 0.000000 0.000000
1.000000 0.000000 0.000000
1.000000 0.000000 0.000000
1.000000 0.000000 0.000000
1.000000 0.000000 0.000000
1.000000 0.000000 0.000000
1.000000 0.000000 0.000000
0.096223 0.092775 0.086671
0.095949 0.092531 0.086702
0.095613 0.092592 0.086702
0.095064 0.092409 0.086427
0.092866 0.091890 0.086824
0.091829 0.092073 0.086854
0.091188 0.092164 0.086580
0.091951 0.092073 0.086275
0.094270 0.091981 0.085908
0.098146 0.091310 0.085573
0.104280 0.090181 0.084901
0.112856 0.088716 0.084443
0.124300 0.086305 0.083864
0.138857 0.082216 0.082948
0.156649 0.076417 0.082155
0.178317 0.066926 0.081483
0.204990 0.043519 0.080507
0.237766 0.000000 0.078981
0.278782 0.000000 0.077028
0.350744 0.000000 0.072328
0.446326 0.000000 0.063142
0.557763 0.000000 0.034638
0.676661 0.000000 0.000000
0.793820 0.000000 0.000000
0.896239 0.000000 0.000000
0.979461 0.000000 0.000000
1.000000 0.000000 0.000000
1.000000 0.000000 0.000000
1.000000 0.000000 0.000000
1.000000 0.000000 0.000000
1.000000 0.000000 0.000000
1.000000 0.000000 0.000000
0.094697 0.091615 0.085664
0.094453 0.091371 0.085389
0.094484 0.091066 0.085420
0.094179 0.091127 0.085420
0.093874 0.090883 0.085451
0.092622 0.090791 0.085481
0.091585 0.090669 0.085817
0.092256 0.090852 0.085512
0.094179 0.091127 0.085420
0.097993 0.091066 0.085023
0.104036 0.090242 0.084627
0.112337 0.089143 0.084108
0.123323 0.087190 0.083528
0.137331 0.083680 0.082887
0.154574 0.078645 0.082094
0.175601 0.070436 0.081422
0.201236 0.053559 0.080507
0.232853 0.001831 0.079011
0.272496 0.000000 0.077455
0.342748 0.000000 0.072999
0.429328 0.000000 0.065400
0.531762 0.000000 0.044678
0.646418 0.000000 0.000000
0.766873 0.000000 0.000000
0.877958 0.000000 0.000000
0.970184 0.000000 0.000000
1.000000 0.000000 0.000000
1.000000 0.000000 0.000000
1.000000 0.000000 0.000000
1.000000 0.000000 0.000000
1.000000 0.000000 0.000000
1.000000 0.000000 0.000000
0.093477 0.090394 0.084627
0.093477 0.090394 0.084627
0.093172 0.090120 0.084657
0.093172 0.090120 0.084657
0.093233 0.090120 0.084352
0.092897 0.089876 0.084688
0.092226 0.089998 0.084718
0.092226 0.089998 0.084718
0.093477 0.090394 0.084627
0.096925 0.090669 0.084504
0.102907 0.090761 0.083986
0.111299 0.089967 0.083467
0.121859 0.088502 0.083162
0.135348 0.085908 0.082490
0.152071 0.081605 0.082002
0.172793 0.074830 0.081300
0.198428 0.062531 0.080323
0.230014 0.021607 0.079133
0.276432 0.000000 0.077150
0.343053 0.000000 0.073091
0.424537 0.000000 0.065888
0.521416 0.000000 0.048798
0.631464 0.000000 0.002289
0.750484 0.000000 0.000000
0.863676 0.000000 0.000000
0.959655 0.000000 0.000000
1.000000 0.000000 0.000000
1.000000 0.000000 0.000000
1.000000 0.000000 0.000000
1.000000 0.000000 0.000000
1.000000 0.000000 0.000000
1.000000 0.000000 0.000000
0.092714 0.089631 0.084108
0.092714 0.089631 0.084108
0.092714 0.089631 0.084108
0.092470 0.089387 0.083833
0.092470 0.089387 0.083833
0.092470 0.089387 0.083833
0.092470 0.089387 0.083833
0.092103 0.089448 0.083833
0.092775 0.089631 0.083803
0.095521 0.090364 0.083650
0.100923 0.091157 0.083406
0.109041 0.091341 0.083101
0.120516 0.090639 0.082734
0.134676 0.088899 0.082277
0.151247 0.085512 0.081727
0.171878 0.079896 0.081270
0.197452 0.070100 0.080537
0.230930 0.042023 0.079194
0.282841 0.000000 0.076997
0.348455 0.000000 0.073060
0.429816 0.000000 0.065858
0.527459 0.000000 0.048127
0.868132 0.000000 0.000000
0.962860 0.000000 0.000000
1.000000 0.000000 0.000000
1.000000 0.000000 0.000000
1.000000 0.000000 0.000000
1.000000 0.000000 0.000000
1.000000 0.000000 0.000000
1.000000 0.000000 0.000000
1.000000 0.000000 0.000000
1.000000 0.000000 0.000000
0.092103 0.089448 0.083833
0.092103 0.089448 0.083833
0.092103 0.089448 0.083833
0.092470 0.089387 0.083833
0.092470 0.089387 0.083833
0.092470 0.089387 0.083833
0.092470 0.089387 0.083833
0.092409 0.089693 0.083803
0.092775 0.089631 0.083803
0.094911 0.090150 0.083680
0.100496 0.091829 0.083680
0.109773 0.094087 0.083131
0.121767 0.094392 0.082643
0.137728 0.093660 0.082277
0.157534 0.090822 0.081819
0.180667 0.085878 0.081147
0.208713 0.076753 0.080110
0.255253 0.045350 0.078584
0.314580 0.000000 0.075898
0.392187 0.000000 0.070649
0.494484 0.000000 0.059083
0.623133 0.000000 0.011536
0.768368 0.000000 0.000000
0.900633 0.000000 0.000000
0.997253 0.000000 0.000000
1.000000 0.000000 0.000000
1.000000 0.000000 0.000000
1.000000 0.000000 0.000000
1.000000 0.000000 0.000000
1.000000 0.000000 0.000000
1.000000 0.000000 0.000000
1.000000 0.000000 0.000000
0.092714 0.089631 0.084108
0.092714 0.089631 0.084108
0.092714 0.089631 0.084108
0.092958 0.089876 0.084382
0.093172 0.090120 0.084657
0.093416 0.090394 0.084932
0.093477 0.090394 0.084627
0.093416 0.090394 0.084932
0.093996 0.090883 0.084871
0.094881 0.091310 0.084810
0.096986 0.091829 0.084993
0.104311 0.094240 0.084840
0.115877 0.097261 0.084413
0.131106 0.099641 0.083833
0.149386 0.099336 0.083284
0.174716 0.097108 0.082643
0.211826 0.090517 0.081483
0.257908 0.074128 0.079774
0.312688 0.007019 0.077058
0.385595 0.000000 0.072358
0.480812 0.000000 0.062257
0.601526 0.000000 0.023072
0.741360 0.000000 0.000000
0.873838 0.000000 0.000000
0.976410 0.000000 0.000000
1.000000 0.000000 0.000000
1.000000 0.000000 0.000000
1.000000 0.000000 0.000000
1.000000 0.000000 0.000000
1.000000 0.000000 0.000000
1.000000 0.000000 0.000000
1.000000 0.135622 0.000000
0.093935 0.090883 0.085176
0.094209 0.091127 0.085145
0.094179 0.091127 0.085420
0.094392 0.091371 0.085695
0.094911 0.091859 0.085908
0.095705 0.092287 0.086427
0.096132 0.093080 0.086915
0.096193 0.092775 0.086946
0.096193 0.092775 0.086946
0.096712 0.093538 0.086854
0.098329 0.094667 0.087007
0.100343 0.095155 0.087190
0.109071 0.098207 0.087770
0.123201 0.102541 0.087404
0.145266 0.108553 0.086946
0.172183 0.110842 0.086397
0.206241 0.109041 0.085206
0.249821 0.101808 0.083406
0.307012 0.082277 0.080629
0.382574 0.000000 0.074891
0.475898 0.000000 0.064912
0.592065 0.000000 0.029999
0.727077 0.000000 0.000000
0.858183 0.000000 0.000000
0.962646 0.000000 0.000000
1.000000 0.000000 0.000000
1.000000 0.000000 0.000000
1.000000 0.000000 0.000000
1.000000 0.000000 0.000000
1.000000 0.000000 0.000000
1.000000 0.198337 0.000000
1.000000 0.275212 0.000000
0.096651 0.093263 0.087465
0.096925 0.093507 0.087434
0.096925 0.093507 0.087434
0.097414 0.093965 0.087678
0.097871 0.094423 0.088197
0.098543 0.095125 0.088960
0.099794 0.096010 0.089662
0.100710 0.096956 0.090394
0.100465 0.096712 0.090394
0.100496 0.096712 0.090120
0.101167 0.097658 0.090578
0.103639 0.099916 0.091127
0.107668 0.101778 0.091920
0.116732 0.105135 0.093690
0.136080 0.111574 0.093660
0.162875 0.119539 0.093172
0.199313 0.128786 0.092103
0.242435 0.128664 0.090211
0.298375 0.122408 0.087678
0.371221 0.104250 0.082551
0.464332 0.036286 0.072450
0.578424 0.000000 0.045747
0.709895 0.000000 0.000000
0.833707 0.000000 0.000000
0.938231 0.000000 0.000000
1.000000 0.000000 0.000000
1.000000 0.000000 0.000000
1.000000 0.000000 0.000000
1.000000 0.158267 0.000000
1.000000 0.260075 0.000000
1.000000 0.328710 0.000000
1.000000 0.380468 0.000000
0.100710 0.096956 0.090394
0.100679 0.096925 0.090669
0.100923 0.097169 0.090639
0.101350 0.097627 0.091127
0.102052 0.098299 0.091585
0.102968 0.099184 0.092287
0.104311 0.100252 0.093477
0.106050 0.101961 0.094850
0.107729 0.103670 0.096468
0.108186 0.103853 0.096681
0.108400 0.104036 0.096895
0.109194 0.105379 0.097261
0.112551 0.108431 0.098116
0.117922 0.111696 0.099123
0.125277 0.113954 0.101106
0.147250 0.121736 0.102144
0.178836 0.131746 0.101778
0.221897 0.143923 0.100923
0.278386 0.154696 0.097932
0.346441 0.153506 0.093599
0.434150 0.144930 0.085939
0.543511 0.123201 0.070039
0.671809 0.069429 0.008301
0.804318 0.000000 0.000000
0.918303 0.000000 0.000000
1.000000 0.000000 0.000000
1.000000 0.154177 0.000000
1.000000 0.241093 0.000000
1.000000 0.314702 0.000000
1.000000 0.376318 0.000000
1.000000 0.426551 0.000000
1.000000 0.466590 0.000000
0.106874 0.102815 0.095766
0.107088 0.103029 0.096010
0.107515 0.103456 0.096223
0.108156 0.104097 0.096651
0.109224 0.104860 0.097536
0.110903 0.106264 0.098878
0.112703 0.108095 0.100618
0.115084 0.110231 0.102480
0.117739 0.112917 0.104952
0.119844 0.114748 0.106569
0.119417 0.114595 0.106355
0.119112 0.114015 0.105959
0.133333 0.128115 0.118257
0.139712 0.134920 0.120607
0.149905 0.142153 0.122835
0.160983 0.145846 0.125856
0.192355 0.157534 0.131044
0.246006 0.175814 0.131044
0.318120 0.198611 0.129061
0.412757 0.229526 0.123537
0.523491 0.256229 0.111513
0.642054 0.267216 0.093019
0.766598 0.278660 0.051850
0.880278 0.295903 0.000000
0.969116 0.323766 0.000000
1.000000 0.362066 0.000000
1.000000 0.404761 0.000000
1.000000 0.447700 0.000000
1.000000 0.487922 0.000000
1.000000 0.524163 0.000000
1.000000 0.554650 0.000000
1.000000 0.579248 0.000000
0.123629 0.118379 0.110109
0.123812 0.118563 0.110292
0.124025 0.118715 0.110292
0.124392 0.118868 0.110689
0.124910 0.119631 0.111025
0.125978 0.120455 0.112001
0.127504 0.122042 0.113497
0.129824 0.124422 0.115694
0.133272 0.127718 0.118898
0.137881 0.131960 0.123232
0.140810 0.134737 0.125887
0.141390 0.135348 0.126558
0.141878 0.135622 0.126864
0.142916 0.137240 0.127443
0.151308 0.146395 0.131685
0.163485 0.156344 0.135683
0.177432 0.163210 0.139528
0.200931 0.171389 0.148074
0.259586 0.193515 0.149691
0.338720 0.221958 0.149722
0.441779 0.259709 0.146365
0.569665 0.310216 0.136477
0.701381 0.352026 0.116609
0.822293 0.379248 0.087495
0.923827 0.410132 0.010681
0.997284 0.446174 0.000000
1.000000 0.486580 0.000000
1.000000 0.527794 0.000000
1.000000 0.567376 0.000000
1.000000 0.603601 0.000000
1.000000 0.633387 0.000000
1.000000 0.657588 0.000000
0.137453 0.131502 0.122713
0.137606 0.131655 0.122866
0.137606 0.131655 0.122866
0.137728 0.131807 0.123049
0.138064 0.132143 0.123201
0.138674 0.132753 0.123873
0.140383 0.134279 0.125368
0.142580 0.136568 0.127687
0.146090 0.139956 0.131014
0.150881 0.144503 0.135805
0.157198 0.150637 0.142000
0.158968 0.152499 0.143984
0.159274 0.152773 0.144106
0.158236 0.151705 0.142977
0.157076 0.151003 0.141482
0.165896 0.161379 0.146242
0.178470 0.172061 0.150454
0.195102 0.182010 0.155215
0.215488 0.189181 0.162448
0.272801 0.212894 0.172122
0.360327 0.248173 0.175509
0.473365 0.294072 0.176455
0.608179 0.351965 0.171420
0.755093 0.424170 0.158724
0.876493 0.481422 0.140352
0.962951 0.520714 0.121645
1.000000 0.561486 0.102724
1.000000 0.602777 0.090822
1.000000 0.642298 0.092744
1.000000 0.678035 0.110903
1.000000 0.707240 0.141451
1.000000 0.730312 0.173861
0.153994 0.147524 0.138949
0.154543 0.148074 0.139376
0.154147 0.147677 0.138949
0.154147 0.147677 0.138949
0.154147 0.147677 0.138949
0.154421 0.147951 0.139223
0.155734 0.149294 0.140536
0.157961 0.151431 0.142855
0.161685 0.155093 0.146639
0.166842 0.160281 0.152041
0.173556 0.166903 0.158999
0.181552 0.174929 0.167666
0.180972 0.174502 0.167208
0.179507 0.172793 0.165408
0.176272 0.169589 0.161990
0.172427 0.166018 0.157565
0.182040 0.177676 0.162753
0.195651 0.190066 0.167849
0.215488 0.204074 0.174136
0.237461 0.213443 0.182315
0.287877 0.235721 0.200504
0.383124 0.277501 0.207614
0.502770 0.329808 0.212772
0.645411 0.395575 0.214389
0.793271 0.473548 0.211154
0.915831 0.557824 0.207401
0.995361 0.628382 0.208255
1.000000 0.674861 0.215061
1.000000 0.717983 0.231144
1.000000 0.754910 0.257786
1.000000 0.783627 0.292973
1.000000 0.804685 0.332372
0.174228 0.167605 0.159884
0.174929 0.168338 0.160494
0.175174 0.168429 0.160769
0.175601 0.168887 0.161257
0.176059 0.169345 0.161746
0.177157 0.170504 0.162997
0.179294 0.172549 0.165164
0.182437 0.175692 0.168612
0.186618 0.180087 0.173373
0.191928 0.185489 0.179294
0.198337 0.191897 0.186465
0.205325 0.199161 0.194644
0.209598 0.203830 0.199832
0.205417 0.199374 0.194736
0.200015 0.193698 0.188540
0.193210 0.186862 0.180819
0.186923 0.180697 0.173556
0.198093 0.194675 0.180484
0.214725 0.210697 0.188327
0.239963 0.230472 0.198306
0.268956 0.247349 0.211398
0.315618 0.269718 0.234684
0.417060 0.317876 0.253483
0.550408 0.380957 0.265629
0.704280 0.457923 0.275639
0.849332 0.543450 0.285283
0.957061 0.633082 0.298955
1.000000 0.718257 0.321782
1.000000 0.784726 0.353063
1.000000 0.817014 0.382300
1.000000 0.840665 0.416449
1.000000 0.857755 0.453742
0.196750 0.190433 0.184787
0.196841 0.190524 0.184878
0.196963 0.190616 0.185000
0.197238 0.190921 0.185306
0.198001 0.191745 0.186252
0.199252 0.193027 0.187594
0.201511 0.195407 0.190280
0.204654 0.198611 0.193942
0.208988 0.203159 0.199039
0.214511 0.208865 0.205631
0.221378 0.215946 0.213779
0.228916 0.223972 0.223087
0.236454 0.232090 0.232456
0.236851 0.232486 0.232883
0.230167 0.225406 0.224704
0.221744 0.216495 0.214389
0.212528 0.206760 0.203189
0.203769 0.197757 0.192691
0.216861 0.214481 0.201755
0.236393 0.234470 0.212589
0.265293 0.258976 0.226017
0.300572 0.282750 0.242435
0.343847 0.303838 0.264073
0.440894 0.353613 0.299962
0.585748 0.425696 0.318822
0.745876 0.510674 0.337530
0.886473 0.602808 0.358648
0.980835 0.695338 0.386694
1.000000 0.777218 0.424659
1.000000 0.838590 0.471412
1.000000 0.879850 0.524468
1.000000 0.898894 0.570214
0.226383 0.221286 0.220005
0.227817 0.222812 0.221714
0.274022 0.272862 0.280125
0.274235 0.273045 0.280308
0.274357 0.273167 0.280461
0.274357 0.273167 0.280461
0.274907 0.273777 0.281224
0.276738 0.275883 0.283604
0.280125 0.279576 0.287999
0.285344 0.285222 0.294560
0.291386 0.291844 0.302342
0.298009 0.299138 0.310826
0.303655 0.305425 0.318120
0.308568 0.310826 0.324437
0.298009 0.299138 0.310826
0.283604 0.283421 0.292424
0.268559 0.266880 0.273136
0.253239 0.250156 0.253544
0.238773 0.234745 0.235264
0.255955 0.257206 0.248447
0.280400 0.283360 0.263218
0.316503 0.315404 0.281559
0.361883 0.348669 0.303349
0.411963 0.375982 0.329015
0.497108 0.419043 0.374456
0.648890 0.496315 0.399115
0.803403 0.582940 0.421210
0.924987 0.672969 0.447883
0.999664 0.760067 0.484230
1.000000 0.831205 0.532372
1.000000 0.880491 0.588190
1.000000 0.911894 0.645747
0.274449 0.273381 0.280705
0.281651 0.281254 0.289860
0.289006 0.289281 0.299382
0.296147 0.297124 0.308446
0.301823 0.303410 0.315709
0.305028 0.306859 0.319799
0.306920 0.308995 0.322240
0.309087 0.311467 0.325078
0.312810 0.315496 0.329839
0.317632 0.320775 0.335973
0.323613 0.327306 0.343511
0.330175 0.334539 0.351873
0.335912 0.340856 0.359045
0.340154 0.345556 0.364416
0.339117 0.344396 0.363134
0.322606 0.326268 0.342229
0.305058 0.307012 0.319982
0.288029 0.288243 0.298039
0.271550 0.270115 0.276860
0.257450 0.255070 0.258640
0.277684 0.281743 0.275242
0.307225 0.313725 0.295293
0.348821 0.352026 0.318547
0.402502 0.393774 0.345037
0.459022 0.428016 0.374640
0.541009 0.470344 0.417731
0.685023 0.546868 0.463600
0.841093 0.642206 0.496101
0.951446 0.737392 0.536004
1.000000 0.819730 0.586206
1.000000 0.878202 0.643519
1.000000 0.915160 0.701595
0.311223 0.313756 0.327794
0.318822 0.322087 0.337499
0.326696 0.330785 0.347509
0.333959 0.338781 0.356664
0.340246 0.345647 0.364569
0.343420 0.349096 0.368475
0.345892 0.351843 0.371588
0.348058 0.354192 0.374334
0.351690 0.358190 0.378851
0.356695 0.363714 0.385077
0.362982 0.370550 0.392859
0.369726 0.377752 0.400977
0.375006 0.383551 0.407446
0.379339 0.388190 0.412665
0.381720 0.390814 0.415503
0.369909 0.378027 0.401282
0.350317 0.356634 0.377111
0.330816 0.335271 0.352667
0.311864 0.314427 0.328618
0.294285 0.295079 0.306065
0.281041 0.281102 0.288396
0.305974 0.313451 0.309911
0.341161 0.351965 0.335210
0.388739 0.396582 0.363073
0.450202 0.445716 0.392859
0.513970 0.486702 0.426215
0.589929 0.525872 0.464149
0.723934 0.602472 0.532860
0.875944 0.703853 0.575494
0.969848 0.797696 0.626246
1.000000 0.868193 0.683253
1.000000 0.913481 0.740932
0.354559 0.361273 0.382361
0.362921 0.370397 0.392737
0.371588 0.379828 0.403296
0.379400 0.388342 0.412787
0.386023 0.395483 0.420752
0.389532 0.399237 0.424903
0.391791 0.401617 0.427527
0.393713 0.403723 0.429847
0.396887 0.407141 0.433600
0.401434 0.412024 0.438941
0.406897 0.417853 0.445289
0.412940 0.424201 0.452216
0.417945 0.429511 0.457923
0.422400 0.434211 0.462959
0.425574 0.437537 0.466529
0.425422 0.437446 0.466407
0.407172 0.418097 0.445594
0.388739 0.398352 0.423926
0.370397 0.378515 0.401831
0.353063 0.359686 0.380529
0.336065 0.341009 0.359258
0.327031 0.332525 0.346349
0.361913 0.376257 0.377600
0.409613 0.428016 0.413123
0.471748 0.485603 0.450202
0.550530 0.548821 0.488808
0.633051 0.605310 0.531762
0.721614 0.658076 0.580041
0.833066 0.731228 0.655756
0.937224 0.818692 0.718349
0.993072 0.887114 0.771756
1.000000 0.929442 0.821012
0.444221 0.457008 0.487129
0.449165 0.462196 0.492470
0.453223 0.466346 0.496834
0.457038 0.470283 0.500908
0.459937 0.473274 0.504021
0.461555 0.474922 0.505669
0.463355 0.476814 0.507652
0.466407 0.479927 0.510826
0.470680 0.484260 0.515282
0.477241 0.490944 0.522057
0.484596 0.498421 0.529656
0.491890 0.505730 0.537041
0.497566 0.511437 0.542779
0.501640 0.515557 0.546899
0.503960 0.517906 0.549218
0.505180 0.519097 0.550378
0.490944 0.504814 0.536126
0.467109 0.480629 0.511559
0.444465 0.457282 0.487373
0.421637 0.433417 0.462135
0.398474 0.408850 0.435462
0.375982 0.384558 0.408606
0.368536 0.378912 0.397040
0.406378 0.425452 0.428779
0.459113 0.481117 0.465522
0.527550 0.543786 0.504631
0.614557 0.613458 0.546807
0.705135 0.678096 0.594965
0.793606 0.736599 0.650355
0.881254 0.799466 0.718959
0.955077 0.869261 0.793637
0.996094 0.922393 0.841123
0.508446 0.522332 0.553643
0.514061 0.527947 0.559167
0.519219 0.533104 0.564233
0.523491 0.537316 0.568414
0.526513 0.540337 0.571344
0.527306 0.541100 0.572137
0.528008 0.541802 0.572808
0.529412 0.543175 0.574090
0.532982 0.546715 0.577569
0.538109 0.551751 0.582452
0.544671 0.558221 0.588739
0.551720 0.565148 0.595422
0.556970 0.570275 0.600305
0.561517 0.574731 0.604578
0.564843 0.577935 0.607630
0.566827 0.579828 0.609461
0.563073 0.576226 0.605982
0.539849 0.553491 0.584131
0.516503 0.530388 0.561578
0.492683 0.506584 0.537896
0.468330 0.481849 0.512810
0.443946 0.456794 0.486854
0.419043 0.430762 0.459236
0.420813 0.436469 0.457038
0.444404 0.466835 0.469551
0.502922 0.526970 0.508171
0.579339 0.595972 0.551110
0.672297 0.670649 0.597833
0.765988 0.740078 0.651453
0.848722 0.799344 0.709865
0.915068 0.850614 0.771115
0.968566 0.906950 0.847562
0.622278 0.633265 0.659419
0.629206 0.639887 0.665522
0.633600 0.644068 0.669368
0.635737 0.646082 0.671168
0.635737 0.646082 0.671168
0.634150 0.644587 0.669825
0.631617 0.642145 0.667628
0.628962 0.639643 0.665278
0.627497 0.638239 0.663996
0.627344 0.638087 0.663874
0.627893 0.638605 0.664363
0.630030 0.640650 0.666224
0.631617 0.642145 0.667628
0.631769 0.642298 0.667720
0.629358 0.640009 0.665644
0.626032 0.636866 0.662745
0.621881 0.632868 0.659083
0.599023 0.610986 0.638788
0.574029 0.586816 0.616083
0.550896 0.564324 0.594598
0.528130 0.541955 0.572900
0.503655 0.517601 0.548913
0.477089 0.490791 0.521935
0.447333 0.460273 0.490517
0.457404 0.475959 0.495430
0.502800 0.527947 0.527642
0.569848 0.594629 0.569360
0.652247 0.667292 0.614679
0.745785 0.741939 0.665034
0.834195 0.809476 0.720119
0.901976 0.862303 0.778470
0.950164 0.903716 0.834623
0.690608 0.697932 0.718013
0.697261 0.704219 0.723568
0.701228 0.707881 0.726864
0.703304 0.709895 0.728603
0.703090 0.709682 0.728420
0.702144 0.708797 0.727626
0.700710 0.707424 0.726436
0.699306 0.706081 0.725246
0.699153 0.705989 0.725154
0.700710 0.707424 0.726436
0.702632 0.709224 0.728023
0.706142 0.712551 0.730983
0.709010 0.715236 0.733333
0.710872 0.716976 0.734920
0.710292 0.716426 0.734401
0.708522 0.714778 0.732967
0.706081 0.712459 0.730892
0.691951 0.699184 0.719112
0.668879 0.677455 0.699672
0.645594 0.655451 0.679744
0.622278 0.633265 0.659419
0.596826 0.608881 0.636805
0.567498 0.580529 0.610101
0.536004 0.549676 0.580468
0.501061 0.515007 0.546349
0.528557 0.549981 0.565240
0.581567 0.607202 0.599603
0.658839 0.681086 0.647089
0.746334 0.756100 0.697932
0.833982 0.826474 0.751247
0.904509 0.883146 0.805905
0.950072 0.921965 0.857023
0.769802 0.772061 0.783230
0.773922 0.775937 0.786618
0.775692 0.777554 0.788052
0.775601 0.777462 0.787961
0.774044 0.776028 0.786679
0.771389 0.773526 0.784543
0.768704 0.771054 0.782345
0.766812 0.769284 0.780819
0.765805 0.768338 0.779995
0.767025 0.769467 0.780972
0.769192 0.771511 0.782742
0.772732 0.774838 0.785641
0.775875 0.777737 0.788205
0.777981 0.779721 0.789914
0.777890 0.779629 0.789853
0.776059 0.777920 0.788357
0.773434 0.775479 0.786221
0.765103 0.767666 0.779416
0.744198 0.748135 0.762356
0.724117 0.729366 0.745846
0.702388 0.709010 0.727840
0.679408 0.687404 0.708583
0.652369 0.661891 0.685573
0.622034 0.633021 0.659205
0.586999 0.599420 0.627985
0.549828 0.563226 0.593439
0.599817 0.621637 0.628840
0.656092 0.679561 0.663600
0.735866 0.753140 0.712459
0.819638 0.824033 0.764492
0.892241 0.883085 0.816312
0.944366 0.926787 0.864347
0.827665 0.826322 0.830533
0.829801 0.828336 0.832273
0.831052 0.829526 0.833341
0.831571 0.830045 0.833768
0.831662 0.830106 0.833860
0.832670 0.831083 0.834684
0.835843 0.834043 0.837308
0.840452 0.838437 0.841154
0.846586 0.844266 0.846281
0.853819 0.851102 0.852323
0.861570 0.858457 0.858824
0.869017 0.865537 0.865080
0.875303 0.871519 0.870451
0.879759 0.875761 0.874235
0.882292 0.878202 0.876402
0.882261 0.878172 0.876371
0.881315 0.877256 0.875578
0.878141 0.874266 0.872862
0.865690 0.862394 0.862303
0.852476 0.849851 0.851194
0.837980 0.836088 0.839109
0.821530 0.820584 0.825498
0.801297 0.801541 0.808896
0.777127 0.778927 0.789212
0.748013 0.751736 0.765499
0.713771 0.719692 0.737301
0.699397 0.709133 0.723232
0.749813 0.763699 0.755123
0.800412 0.813016 0.785611
0.863737 0.869200 0.828031
0.918334 0.915404 0.869474
0.957183 0.948333 0.905241
0.906340 0.901305 0.897246
0.907134 0.902068 0.897948
0.907256 0.902190 0.898070
0.906737 0.901701 0.897581
0.905882 0.900877 0.896849
0.905333 0.900328 0.896361
0.905241 0.900237 0.896300
0.905943 0.900908 0.896880
0.907408 0.902342 0.898192
0.909575 0.904417 0.900084
0.911711 0.906523 0.902007
0.914183 0.908904 0.904173
0.916289 0.910948 0.906065
0.917845 0.912444 0.907439
