data/fiter_cube/26597975/1022853/file.cube
# Created by Adobe Lightroom plugin Export LUT (1.17.0)
# www.johnrellis.com/lightroom/exportlut.htm
# Preset:  城市电影胶片_09 云集
# Color profile: C:\Program Files (x86)\Common Files\Adobe\Color\Profiles\Recommended\AdobeRGB1998.icc
LUT_3D_SIZE 8
DOMAIN_MIN 0.000000 0.000000 0.000000
DOMAIN_MAX 0.903226 0.903226 0.903226
0.096712 0.093263 0.087190
0.092195 0.093446 0.087282
0.094514 0.092226 0.086183
0.127382 0.084901 0.083864
0.214694 0.021485 0.080201
0.480140 0.000000 0.059052
0.942992 0.000000 0.000000
1.000000 0.000000 0.000000
0.093477 0.090394 0.084627
0.093233 0.090120 0.084352
0.093477 0.090394 0.084627
0.121859 0.088502 0.083162
0.198428 0.062531 0.080323
0.424537 0.000000 0.065888
0.863676 0.000000 0.000000
1.000000 0.000000 0.000000
0.093935 0.090883 0.085176
0.094911 0.091859 0.085908
0.096193 0.092775 0.086946
0.109071 0.098207 0.087770
0.206241 0.109041 0.085206
0.475898 0.000000 0.064912
0.962646 0.000000 0.000000
1.000000 0.000000 0.000000
0.123629 0.118379 0.110109
0.124910 0.119631 0.111025
0.133272 0.127718 0.118898
0.141878 0.135622 0.126864
0.177432 0.163210 0.139528
0.441779 0.259709 0.146365
0.923827 0.410132 0.010681
1.000000 0.567376 0.000000
0.196750 0.190433 0.184787
0.198001 0.191745 0.186252
0.208988 0.203159 0.199039
0.236454 0.232090 0.232456
0.212528 0.206760 0.203189
0.265293 0.258976 0.226017
0.585748 0.425696 0.318822
1.000000 0.777218 0.424659
0.354559 0.361273 0.382361
0.386023 0.395483 0.420752
0.396887 0.407141 0.433600
0.417945 0.429511 0.457923
0.407172 0.418097 0.445594
0.336065 0.341009 0.359258
0.471748 0.485603 0.450202
0.833066 0.731228 0.655756
0.690608 0.697932 0.718013
0.703090 0.709682 0.728420
0.699153 0.705989 0.725154
0.709010 0.715236 0.733333
0.706081 0.712459 0.730892
0.622278 0.633265 0.659419
0.501061 0.515007 0.546349
0.746334 0.756100 0.697932
0.935851 0.930022 0.923766
0.935698 0.929900 0.923644
0.938476 0.932647 0.926238
0.947021 0.941100 0.934264
0.925597 0.919982 0.914397
0.910216 0.905058 0.900664
0.876707 0.872892 0.871641
0.846738 0.850248 0.840940
0.092409 0.089387 0.084138
0.092409 0.089387 0.084138
0.092714 0.089631 0.084108
0.098329 0.094911 0.088716
0.138369 0.093904 0.103029
0.315648 0.000000 0.126772
0.786435 0.000000 0.128756
1.000000 0.000000 0.000000
0.091798 0.089754 0.085328
0.092287 0.089937 0.086152
0.095186 0.091798 0.086183
0.100465 0.096712 0.090394
0.147463 0.093050 0.105074
0.321538 0.000000 0.121828
0.728176 0.000000 0.106020
1.000000 0.000000 0.000000
0.094148 0.091676 0.086824
0.095888 0.093874 0.089418
0.102113 0.099275 0.093629
0.118410 0.107729 0.102358
0.196811 0.087556 0.105165
0.387823 0.000000 0.101320
0.801083 0.000000 0.061372
1.000000 0.000000 0.000000
0.126131 0.120638 0.112184
0.130220 0.124544 0.115877
0.140200 0.134127 0.125399
0.157076 0.150484 0.141848
0.168429 0.158633 0.143130
0.371740 0.215702 0.150790
0.790555 0.210941 0.120729
1.000000 0.392615 0.000000
0.211582 0.205753 0.202029
0.210697 0.204837 0.200992
0.218173 0.212711 0.209964
0.235935 0.231510 0.231815
0.236088 0.231662 0.231968
0.258213 0.254551 0.234684
0.569696 0.419867 0.326055
1.000000 0.757412 0.428351
0.357671 0.364721 0.386267
0.362554 0.370031 0.392279
0.376104 0.384741 0.408759
0.408179 0.419165 0.446723
0.438361 0.450996 0.480781
0.389227 0.398840 0.424475
0.476875 0.493416 0.472908
0.821012 0.722957 0.661372
0.653407 0.662867 0.686458
0.644923 0.654841 0.679164
0.652888 0.662348 0.686030
0.686305 0.693904 0.714412
0.705348 0.711788 0.730312
0.651331 0.660914 0.684688
0.515770 0.529686 0.560876
0.699123 0.713039 0.665126
0.927245 0.921630 0.915923
0.929870 0.924193 0.918303
0.934447 0.928679 0.922484
0.944945 0.939025 0.932311
0.948760 0.942840 0.935943
0.934264 0.928496 0.922332
0.889891 0.885466 0.882933
0.829892 0.832853 0.828763
0.103243 0.102876 0.129397
0.107668 0.105348 0.130220
0.121492 0.114046 0.130373
0.134798 0.126833 0.125246
0.156954 0.150362 0.141695
0.196841 0.190524 0.184878
0.301701 0.303288 0.315618
0.970092 0.000000 0.580041
0.104952 0.109560 0.143038
0.109651 0.111635 0.142672
0.123751 0.118502 0.140352
0.142275 0.132967 0.137545
0.162661 0.156130 0.147738
0.195010 0.188571 0.182742
0.292485 0.293217 0.303899
0.971435 0.000000 0.560662
0.101595 0.124880 0.168765
0.105104 0.129183 0.176303
0.127169 0.142733 0.191379
0.169741 0.165133 0.199344
0.207858 0.201816 0.197604
0.229313 0.224399 0.223606
0.393133 0.306889 0.372839
1.000000 0.000000 0.561089
0.133974 0.157198 0.197635
0.139925 0.166049 0.212619
0.155581 0.185336 0.241764
0.188235 0.217899 0.280644
0.260777 0.267826 0.321599
0.305913 0.307988 0.321080
0.653010 0.315221 0.496284
1.000000 0.000000 0.484504
0.205997 0.222843 0.254154
0.211093 0.229587 0.263828
0.232151 0.254490 0.296208
0.282078 0.305058 0.348699
0.357275 0.376989 0.416480
0.433967 0.446387 0.475929
0.778317 0.580713 0.545006
1.000000 0.761776 0.637171
0.477272 0.492866 0.526177
0.489052 0.505425 0.539849
0.521416 0.536492 0.568933
0.558770 0.572015 0.601984
0.597070 0.609155 0.637049
0.640345 0.650507 0.675196
0.587671 0.604334 0.622278
0.919646 0.853056 0.806668
0.796689 0.797238 0.805173
0.795987 0.796567 0.804593
0.794675 0.795315 0.803494
0.807340 0.807187 0.813840
0.820401 0.819455 0.824552
0.833921 0.832242 0.835721
0.776730 0.778561 0.788907
0.812467 0.818845 0.793606
0.953338 0.947478 0.940429
0.951446 0.945556 0.938567
0.952911 0.946990 0.939971
0.964019 0.958282 0.951110
0.966552 0.960876 0.953735
0.967224 0.961639 0.954498
0.948760 0.942840 0.935943
0.890440 0.885985 0.883391
0.121126 0.168032 0.352819
0.134005 0.178317 0.371557
0.180117 0.205631 0.399451
0.250767 0.250431 0.416724
0.305211 0.294072 0.388922
0.357214 0.364172 0.385657
0.381842 0.390936 0.415686
0.548577 0.562036 0.592401
0.115267 0.201877 0.441230
0.133761 0.209537 0.448585
0.187137 0.229282 0.451850
0.262364 0.269718 0.455299
0.315373 0.305852 0.414954
0.369299 0.377417 0.400580
0.386908 0.396399 0.421729
0.549523 0.562982 0.593317
0.044739 0.242344 0.512963
0.098573 0.251530 0.518883
0.170932 0.267216 0.521355
0.263584 0.301671 0.517662
0.359014 0.361456 0.517449
0.467048 0.470039 0.536187
0.522484 0.536370 0.567468
0.660487 0.669551 0.692531
0.000000 0.313085 0.601221
0.000000 0.315373 0.599390
0.022644 0.331640 0.607813
0.247257 0.384131 0.637507
0.401465 0.448402 0.650019
0.531121 0.531823 0.644190
0.599725 0.611658 0.639429
0.743313 0.747311 0.761624
0.213107 0.411780 0.646754
0.220676 0.413733 0.646052
0.260777 0.441352 0.668452
0.351537 0.513573 0.728145
0.449470 0.577020 0.763180
0.618494 0.663478 0.789242
0.772976 0.774289 0.786862
0.898558 0.831205 0.862638
0.441535 0.567468 0.721981
0.486976 0.608453 0.756313
0.517357 0.630121 0.769223
0.589654 0.681453 0.798245
0.677729 0.740597 0.824704
0.770230 0.803250 0.852079
0.862608 0.867613 0.879240
0.979736 0.942626 0.921782
0.830594 0.850980 0.876555
0.841032 0.859159 0.882139
0.867216 0.879271 0.894865
0.904723 0.907836 0.912596
0.937224 0.933837 0.930266
0.955413 0.949523 0.942443
0.954406 0.948516 0.941466
0.902617 0.898589 0.893217
0.982208 0.977600 0.971405
0.982513 0.977935 0.971771
0.982086 0.977447 0.971252
0.982391 0.977783 0.971618
0.983825 0.979400 0.973419
0.984863 0.980560 0.974762
0.984405 0.980041 0.974182
0.967041 0.961425 0.954284
0.294560 0.392370 0.792477
0.328038 0.412207 0.804013
0.387182 0.440650 0.803769
0.487739 0.500725 0.811551
0.593500 0.575952 0.810941
0.669398 0.644678 0.790127
0.772976 0.768063 0.796017
0.814725 0.814145 0.819883
0.333013 0.434272 0.823819
0.376135 0.461799 0.839963
0.429023 0.484535 0.836301
0.498970 0.517418 0.823697
0.597772 0.583917 0.818235
0.682918 0.658473 0.804044
0.785519 0.778103 0.808927
0.821103 0.820127 0.825132
0.379187 0.506950 0.867185
0.404273 0.519188 0.869688
0.440742 0.526055 0.858244
0.513359 0.554925 0.847990
0.606073 0.607050 0.838163
0.692073 0.671870 0.824002
0.801358 0.788571 0.830350
0.822354 0.821317 0.826169
0.336522 0.553552 0.886564
0.358373 0.558495 0.884916
0.446571 0.592035 0.888029
0.569909 0.648280 0.893309
0.663233 0.689754 0.888365
0.761135 0.751156 0.882231
0.850553 0.834958 0.877379
0.853147 0.850431 0.851743
0.382910 0.639673 0.909545
0.398566 0.646754 0.911009
0.438270 0.662837 0.912566
0.510948 0.695033 0.917174
0.667384 0.751888 0.918730
0.796414 0.811826 0.918059
0.882902 0.870878 0.911986
0.909911 0.904784 0.900389
0.571740 0.738064 0.915435
0.581445 0.742824 0.916320
0.599695 0.749722 0.915526
0.650904 0.775692 0.920104
0.716091 0.809232 0.924712
0.819211 0.869230 0.940948
0.919127 0.924956 0.952331
0.966339 0.960693 0.953521
0.840085 0.892271 0.948547
0.841032 0.892271 0.948028
0.852354 0.897795 0.948425
0.877775 0.911437 0.950744
0.905577 0.925933 0.951446
0.937224 0.945708 0.957977
0.959655 0.960662 0.963500
0.980011 0.975677 0.969909
0.969085 0.970947 0.973419
0.970001 0.971527 0.973571
0.973938 0.974121 0.974548
0.984314 0.982361 0.980011
0.989899 0.986969 0.983001
0.992584 0.989776 0.985901
0.992920 0.990234 0.986450
0.991424 0.988312 0.984070
0.785061 0.789883 0.969940
0.794156 0.796658 0.969818
0.799741 0.796689 0.965667
0.832303 0.820493 0.962768
0.866423 0.847684 0.958434
0.900450 0.879362 0.954101
0.940520 0.924102 0.955932
0.971527 0.964172 0.962737
0.746395 0.760464 0.964050
0.751522 0.762997 0.963317
0.771908 0.774960 0.961059
0.810544 0.801999 0.958648
0.853727 0.836271 0.955566
0.894285 0.873503 0.952453
0.938567 0.922057 0.955413
0.970764 0.963256 0.962219
0.803250 0.822568 0.972473
0.802090 0.819974 0.971221
0.813107 0.824063 0.968780
0.842130 0.841825 0.966308
0.873594 0.863249 0.962615
0.907134 0.891173 0.959289
0.946807 0.932433 0.961608
0.973816 0.966461 0.965850
0.833707 0.864988 0.976715
0.835325 0.864714 0.975769
0.846983 0.869261 0.974853
0.884459 0.893217 0.975616
0.913909 0.912200 0.974334
0.936309 0.927886 0.971771
0.962524 0.952422 0.972045
0.979553 0.973022 0.972107
0.777768 0.858366 0.978882
0.788907 0.862913 0.978698
0.822324 0.876982 0.978088
0.870390 0.900023 0.977539
0.912840 0.922576 0.976562
0.935332 0.934051 0.974548
0.962036 0.954314 0.973938
0.978943 0.972381 0.971832
0.813199 0.892882 0.979797
0.825284 0.898894 0.980468
0.839689 0.905150 0.980499
0.859678 0.913939 0.980438
0.882780 0.923522 0.980011
0.938170 0.948791 0.980255
0.970886 0.968383 0.981018
0.985290 0.980255 0.979828
0.930114 0.953948 0.984314
0.933989 0.955993 0.984680
0.938140 0.957977 0.984649
0.945464 0.961547 0.984649
0.953735 0.965667 0.984436
0.963378 0.970642 0.984070
0.974792 0.977478 0.985168
0.988067 0.986084 0.986816
0.978668 0.982147 0.988861
0.978698 0.982116 0.988739
0.979431 0.982483 0.988525
0.982208 0.984161 0.988647
0.984985 0.985718 0.988281
0.988342 0.987640 0.987610
0.992645 0.991272 0.989868
0.995392 0.993866 0.991852
0.932128 0.928801 0.987152
0.936584 0.932860 0.987335
0.942138 0.937255 0.986938
0.951720 0.945403 0.986511
0.960449 0.952819 0.985595
0.968933 0.960632 0.984497
0.976562 0.968475 0.983429
0.987915 0.982635 0.986206
0.926390 0.924102 0.986481
0.930602 0.927764 0.986633
0.936889 0.932647 0.986267
0.945647 0.939544 0.985565
0.955413 0.947601 0.984558
0.964752 0.955932 0.983307
0.973480 0.964752 0.982116
0.986999 0.981445 0.985473
0.941772 0.941405 0.988128
0.942870 0.942077 0.988006
0.945953 0.943908 0.987518
0.952697 0.948699 0.986847
0.959930 0.954009 0.985809
0.968627 0.961456 0.984833
0.977386 0.970184 0.984314
0.988708 0.983825 0.987121
0.955230 0.956970 0.989929
0.954681 0.956207 0.989654
0.956237 0.956725 0.989166
0.962158 0.960723 0.988800
0.968200 0.964813 0.988098
0.975494 0.970703 0.987579
0.982147 0.976837 0.987182
0.990326 0.986175 0.988861
0.955200 0.961334 0.990692
0.955749 0.961486 0.990509
0.959869 0.963806 0.990173
0.966461 0.967803 0.989990
0.971557 0.970611 0.989624
0.978241 0.975341 0.989197
0.984039 0.980041 0.988800
0.991394 0.987823 0.990112
0.949798 0.964202 0.992370
0.951537 0.964996 0.992340
0.957244 0.967651 0.992157
0.965881 0.972076 0.991974
0.975128 0.977264 0.991852
0.983673 0.982879 0.991913
0.987945 0.985748 0.991669
0.992889 0.990173 0.991882
0.966613 0.975860 0.992981
0.967590 0.976379 0.993042
0.969574 0.977478 0.993072
0.972778 0.979309 0.993194
0.976196 0.981201 0.993256
0.980285 0.983642 0.993408
0.988647 0.988525 0.993561
0.994049 0.992370 0.993652
0.985809 0.988098 0.994537
0.986023 0.988220 0.994568
0.987457 0.989227 0.994842
0.988769 0.990143 0.994995
0.990173 0.991119 0.995087
0.991852 0.992279 0.995148
0.993622 0.993561 0.995056
0.995819 0.995361 0.995758
0.984924 0.982696 0.994842
0.985351 0.983124 0.994903
0.986084 0.983734 0.994812
0.987762 0.985321 0.994873
0.989319 0.986725 0.994781
0.990906 0.988190 0.994598
0.992523 0.989807 0.994385
0.993957 0.991333 0.993988
0.984955 0.982818 0.994842
0.985382 0.983246 0.994903
0.986236 0.983978 0.994873
0.987762 0.985412 0.994873
0.989227 0.986694 0.994751
0.990784 0.988098 0.994568
0.992370 0.989654 0.994324
0.993835 0.991180 0.993896
0.986511 0.984802 0.995270
0.986786 0.985046 0.995300
0.987182 0.985290 0.995178
0.988556 0.986511 0.995178
0.989776 0.987518 0.995026
0.991119 0.988647 0.994781
0.992645 0.990082 0.994568
0.994049 0.991516 0.994141
0.987976 0.986816 0.995789
0.988220 0.986999 0.995789
0.988617 0.987243 0.995697
0.989532 0.988006 0.995636
0.990692 0.988891 0.995514
0.991943 0.989899 0.995331
0.993286 0.991119 0.995117
0.994629 0.992370 0.994720
0.989929 0.989349 0.996368
0.990051 0.989441 0.996368
0.990112 0.989380 0.996307
0.990509 0.989532 0.996216
0.991455 0.990173 0.996063
0.992584 0.990997 0.995880
0.993866 0.992096 0.995697
0.995209 0.993317 0.995392
0.989837 0.990112 0.996887
0.989929 0.990173 0.996887
0.990387 0.990478 0.996796
0.991424 0.991180 0.996765
0.992615 0.992004 0.996735
0.993591 0.992645 0.996674
0.994965 0.993774 0.996643
0.996185 0.994781 0.996368
0.988922 0.990600 0.997498
0.989044 0.990661 0.997467
0.989532 0.990906 0.997436
0.990600 0.991547 0.997406
0.992096 0.992493 0.997375
0.993896 0.993744 0.997375
0.995697 0.995087 0.997406
0.996918 0.996002 0.997223
0.992462 0.993408 0.997620
0.992493 0.993408 0.997589
0.992706 0.993561 0.997620
0.993256 0.994018 0.997681
0.993988 0.994568 0.997772
0.994842 0.995239 0.997894
0.995911 0.996094 0.998077
0.997498 0.997345 0.998291
