data/fiter_cube/39179523/1023432/file.cube
# Created by Adobe Lightroom plugin Export LUT (1.17.0)
# www.johnrellis.com/lightroom/exportlut.htm
# Preset: 日系大师人物肖像_06 云集
# Color profile: C:\Program Files (x86)\Common Files\Adobe\Color\Profiles\Recommended\AdobeRGB1998.icc
LUT_3D_SIZE 5
DOMAIN_MIN 0.000000 0.000000 0.000000
DOMAIN_MAX 0.903226 0.903226 0.903226
0.010254 0.033143 0.042451
0.178836 0.000000 0.029908
0.548669 0.000000 0.000000
0.785763 0.000000 0.000000
0.958801 0.000000 0.000000
0.000000 0.182162 0.038544
0.171817 0.201328 0.010529
0.544396 0.161929 0.000000
0.782040 0.082918 0.000000
0.960174 0.190249 0.000000
0.000000 0.511711 0.000000
0.188479 0.502068 0.042267
0.532403 0.547875 0.000000
0.772763 0.512505 0.000000
0.947723 0.506706 0.000000
0.152529 0.733211 0.197147
0.288060 0.727443 0.215946
0.518822 0.704738 0.269383
0.733852 0.737362 0.180301
0.937621 0.748836 0.124025
0.404425 0.904082 0.401221
0.462074 0.900145 0.412360
0.601831 0.884367 0.442908
0.758633 0.885985 0.474830
0.922271 0.914794 0.386511
0.000000 0.036591 0.225467
0.172519 0.000000 0.232700
0.553857 0.000000 0.237125
0.769192 0.000000 0.249668
0.944091 0.097871 0.269841
0.000000 0.197238 0.235019
0.174624 0.206760 0.236545
0.539361 0.184146 0.237400
0.766690 0.200076 0.253635
0.942535 0.274479 0.274907
0.000000 0.525383 0.214908
0.210971 0.519341 0.269444
0.523888 0.536217 0.262821
0.757107 0.519188 0.266758
0.937346 0.529198 0.294102
0.128359 0.737575 0.299138
0.323156 0.729671 0.355077
0.529076 0.707240 0.384131
0.729854 0.735134 0.349889
0.929900 0.752529 0.333776
0.419013 0.904021 0.474983
0.472694 0.900145 0.482582
0.612970 0.889982 0.512474
0.762234 0.886687 0.540215
0.920500 0.915953 0.476722
0.000000 0.039094 0.598627
0.027436 0.006744 0.608026
0.569116 0.047913 0.626276
0.787228 0.335332 0.628351
0.933898 0.382300 0.609491
0.000000 0.209171 0.590326
0.150423 0.242222 0.597986
0.564538 0.314427 0.621424
0.771176 0.420630 0.624231
0.927367 0.431464 0.602777
0.000000 0.543206 0.586908
0.117098 0.545953 0.586023
0.527672 0.546990 0.586297
0.732387 0.556359 0.589105
0.916197 0.577020 0.593622
0.000000 0.749325 0.540185
0.282017 0.741421 0.551690
0.552148 0.721950 0.600183
0.720485 0.734401 0.603693
0.911254 0.760037 0.599359
0.343114 0.910338 0.580896
0.426184 0.907347 0.595453
0.607507 0.895445 0.640955
0.755917 0.880186 0.659358
0.909178 0.912200 0.635248
0.000000 0.104768 0.805661
0.119478 0.136294 0.809445
0.551873 0.294102 0.821897
0.776699 0.435798 0.829282
0.939361 0.603143 0.856718
0.000000 0.275761 0.799222
0.248814 0.304570 0.803006
0.564965 0.415991 0.814511
0.770108 0.514641 0.823636
0.936339 0.635645 0.856657
0.000000 0.496193 0.780514
0.244053 0.511589 0.778958
0.566003 0.586206 0.790433
0.755428 0.645930 0.810910
0.926909 0.690242 0.841581
0.093782 0.744839 0.778622
0.299351 0.742397 0.776974
0.538476 0.739284 0.775784
0.717739 0.738766 0.775937
0.904570 0.744961 0.774624
0.289372 0.922667 0.775051
0.383642 0.919493 0.777066
0.558190 0.912688 0.778988
0.731624 0.899962 0.777401
0.901335 0.911467 0.777615
0.216098 0.241642 0.955871
0.356237 0.279240 0.955779
0.596551 0.406256 0.955261
0.795285 0.567346 0.954803
0.930968 0.618097 0.956817
0.305577 0.370916 0.952117
0.405127 0.398260 0.952056
0.611780 0.488533 0.952117
0.796719 0.607568 0.953002
0.929961 0.648768 0.955962
0.330449 0.554589 0.943267
0.432807 0.577111 0.943053
0.618341 0.625208 0.944884
0.793118 0.689754 0.949645
0.929137 0.731563 0.954894
0.266789 0.737911 0.936736
0.360723 0.739559 0.936004
0.538567 0.740169 0.935088
0.759731 0.774746 0.943023
0.930907 0.836637 0.955108
0.326940 0.925963 0.935149
0.396429 0.924712 0.934874
0.543481 0.922301 0.934905
0.714321 0.919158 0.934783
0.904356 0.916686 0.934112
