data/fiter_cube/39179523/1023432/file.cube
# Created by Adobe Lightroom plugin Export LUT (1.17.0)
# www.johnrellis.com/lightroom/exportlut.htm
# Preset: 日系大师人物肖像_06 云集
# Color profile: C:\Program Files (x86)\Common Files\Adobe\Color\Profiles\Recommended\AdobeRGB1998.icc
LUT_3D_SIZE 8
DOMAIN_MIN 0.000000 0.000000 0.000000
DOMAIN_MAX 0.903226 0.903226 0.903226
0.010254 0.033143 0.042451
0.077180 0.017151 0.041047
0.227115 0.000000 0.021332
0.449287 0.000000 0.000000
0.630488 0.000000 0.000000
0.759731 0.000000 0.000000
0.860380 0.000000 0.000000
0.958801 0.000000 0.000000
0.002411 0.087678 0.043793
0.072206 0.091768 0.036744
0.223789 0.072908 0.006073
0.441352 0.000000 0.000000
0.623438 0.000000 0.000000
0.752682 0.000000 0.000000
0.852567 0.000000 0.000000
0.953582 0.000000 0.000000
0.000000 0.225132 0.029755
0.066529 0.222019 0.045136
0.217502 0.248661 0.000000
0.447028 0.248936 0.000000
0.627955 0.211856 0.000000
0.754330 0.184360 0.000000
0.858732 0.196139 0.000000
0.957855 0.242649 0.000000
0.000000 0.420905 0.000000
0.000000 0.416846 0.000000
0.224033 0.404211 0.052674
0.440558 0.463172 0.000000
0.642817 0.466072 0.000000
0.755734 0.430640 0.000000
0.854551 0.415473 0.000000
0.952331 0.426673 0.000000
0.000000 0.590967 0.020508
0.000000 0.588006 0.055329
0.251102 0.578729 0.100710
0.422797 0.579522 0.116854
0.600641 0.611475 0.000000
0.741299 0.601678 0.000000
0.842344 0.580102 0.000000
0.944060 0.583337 0.000000
0.097322 0.707607 0.164492
0.171878 0.709102 0.175479
0.303593 0.701320 0.195224
0.447028 0.687434 0.226993
0.572656 0.692592 0.215061
0.708034 0.712795 0.147707
0.837827 0.722805 0.020600
0.939757 0.719387 0.106050
0.263157 0.803037 0.279179
0.294224 0.802213 0.284428
0.377020 0.795377 0.296666
0.485847 0.785245 0.320409
0.593683 0.771328 0.351690
0.695644 0.790036 0.321111
0.811643 0.811307 0.264988
0.932128 0.830503 0.175051
0.404425 0.904082 0.401221
0.422339 0.902770 0.404334
0.479927 0.899138 0.416663
0.565240 0.894347 0.440986
0.648829 0.880705 0.459724
0.737545 0.881468 0.480659
0.826078 0.899413 0.449805
0.922271 0.914794 0.386511
0.000000 0.034882 0.101656
0.068086 0.027619 0.100679
0.222263 0.000000 0.104341
0.438605 0.000000 0.099672
0.621210 0.000000 0.091188
0.748806 0.000000 0.093294
0.847990 0.000000 0.105684
0.948699 0.000000 0.118898
0.000000 0.089265 0.104250
0.069337 0.092531 0.104707
0.222049 0.081971 0.104921
0.437964 0.000000 0.098695
0.618830 0.000000 0.089845
0.745510 0.000000 0.091432
0.842496 0.000000 0.101503
0.943450 0.000000 0.113405
0.000000 0.229618 0.096925
0.063050 0.231449 0.114229
0.220676 0.248264 0.106386
0.442237 0.246891 0.087068
0.620600 0.215824 0.078920
0.744625 0.197421 0.087800
0.843839 0.208194 0.105409
0.945892 0.253574 0.122560
0.000000 0.421332 0.081117
0.000000 0.419623 0.118990
0.231846 0.409583 0.140902
0.430182 0.450568 0.090547
0.622583 0.449928 0.011780
0.739986 0.422095 0.073976
0.838834 0.410468 0.106661
0.940703 0.426093 0.128511
0.000000 0.592218 0.150729
0.049348 0.588434 0.155795
0.257847 0.577325 0.175174
0.420478 0.570397 0.188846
0.590845 0.601129 0.123903
0.732052 0.595056 0.080385
0.833555 0.576959 0.124086
0.936370 0.581842 0.150454
0.117739 0.704555 0.218875
0.177646 0.702724 0.223392
0.304479 0.695277 0.238254
0.445380 0.682704 0.264836
0.570672 0.687770 0.261753
0.705043 0.709926 0.217685
0.832761 0.720150 0.174319
0.933959 0.717281 0.193942
0.264805 0.797086 0.308202
0.291814 0.794553 0.310002
0.374243 0.788724 0.321447
0.483345 0.780362 0.344427
0.591272 0.768154 0.374121
0.691646 0.785306 0.350103
0.805295 0.805875 0.301091
0.924865 0.825071 0.230564
0.402350 0.900298 0.418189
0.421057 0.899626 0.421973
0.478553 0.896361 0.433845
0.563439 0.891936 0.456611
0.654780 0.884611 0.484962
0.739773 0.882261 0.502586
0.824399 0.897917 0.469825
0.918944 0.912413 0.410010
0.000000 0.035584 0.284245
0.000000 0.039216 0.286717
0.227665 0.000000 0.294011
0.476478 0.000000 0.313207
0.638025 0.000000 0.294499
0.746761 0.000000 0.302586
0.844602 0.051484 0.316899
0.944884 0.175326 0.326452
0.000000 0.093416 0.284733
0.000000 0.100038 0.286290
0.227298 0.102510 0.292454
0.464607 0.000000 0.308019
0.628443 0.000000 0.291112
0.742489 0.000000 0.302586
0.840574 0.141909 0.313390
0.941985 0.215457 0.323796
0.000000 0.245640 0.289769
0.000000 0.250004 0.290440
0.225254 0.256809 0.291325
0.445594 0.253788 0.292180
0.623468 0.255467 0.299596
0.740841 0.269413 0.307927
0.838376 0.294530 0.317784
0.939452 0.331029 0.327184
0.000000 0.444099 0.269444
0.000000 0.444984 0.274693
0.248966 0.442969 0.309087
0.443091 0.459358 0.308446
0.622919 0.463020 0.306767
0.736141 0.449073 0.316014
0.835142 0.450263 0.326909
0.936370 0.467384 0.336065
0.000000 0.604059 0.269566
0.000000 0.603235 0.282048
0.285069 0.594842 0.335088
0.444007 0.576257 0.352148
0.597711 0.607324 0.331731
0.727260 0.602136 0.325261
0.827787 0.593225 0.336797
0.930755 0.600824 0.346929
0.000000 0.712062 0.300725
0.139315 0.710475 0.315404
0.334356 0.700771 0.370855
0.460822 0.687282 0.384619
0.576257 0.684565 0.390661
0.700771 0.707607 0.371862
0.824125 0.720699 0.359167
0.928191 0.725521 0.370031
0.241520 0.803952 0.371984
0.302403 0.800473 0.397040
0.400122 0.792386 0.424048
0.497047 0.782620 0.436591
0.596765 0.770047 0.454963
0.693141 0.783566 0.448615
0.804257 0.807645 0.423590
0.923003 0.829892 0.391211
0.401953 0.902434 0.476844
0.432227 0.899779 0.491249
0.485389 0.895872 0.498512
0.568536 0.892760 0.517906
0.656153 0.885222 0.538231
0.741238 0.880522 0.559350
0.823941 0.897642 0.536767
0.917266 0.913664 0.495094
0.000000 0.039002 0.505119
0.000000 0.031464 0.510399
0.207736 0.000000 0.520775
0.471260 0.000000 0.530968
0.664790 0.150027 0.551904
0.759182 0.218235 0.526696
0.843717 0.267369 0.515312
0.933104 0.297978 0.508324
0.000000 0.105592 0.506554
0.000000 0.110964 0.509911
0.222019 0.125734 0.519219
0.470466 0.120821 0.529564
0.661585 0.233921 0.555077
0.752926 0.262303 0.525292
0.838102 0.294896 0.512596
0.929778 0.316289 0.504173
0.000000 0.237064 0.497688
0.000000 0.243320 0.497658
0.226627 0.276768 0.505669
0.462013 0.312139 0.520439
0.642237 0.361425 0.544030
0.738674 0.368811 0.523247
0.829862 0.381140 0.513390
0.928222 0.410407 0.517998
0.000000 0.453925 0.502098
0.000000 0.457008 0.502373
0.207431 0.463081 0.503532
0.445869 0.466346 0.505577
0.608179 0.471290 0.506828
0.719051 0.479530 0.510033
0.820066 0.492622 0.515007
0.924437 0.510674 0.519310
0.000000 0.626184 0.478065
0.000000 0.623621 0.479347
0.249699 0.616388 0.487221
0.465187 0.604303 0.516564
0.598688 0.612848 0.517754
0.715602 0.612726 0.518853
0.817319 0.614008 0.522637
0.920989 0.623804 0.524743
0.000000 0.723903 0.460060
0.122347 0.724239 0.469825
0.320043 0.715908 0.490150
0.487984 0.702052 0.532280
0.590753 0.686213 0.539208
0.699062 0.710842 0.534539
0.814664 0.726162 0.532433
0.919005 0.735683 0.534966
0.218509 0.810910 0.480323
0.268040 0.809598 0.488289
0.384680 0.804257 0.512383
0.519829 0.793271 0.556512
0.610803 0.780850 0.565057
0.698085 0.784329 0.567712
0.800748 0.809018 0.556176
0.915526 0.832059 0.542473
0.359838 0.910918 0.535821
0.386328 0.909941 0.541833
0.459419 0.905669 0.558404
0.571923 0.896880 0.599634
0.656550 0.888975 0.611414
0.740688 0.881132 0.627680
0.821836 0.896635 0.619165
0.913725 0.914519 0.595117
0.000000 0.049653 0.674281
0.000000 0.049470 0.677119
0.175998 0.059358 0.683742
0.464668 0.142977 0.694484
0.646754 0.203891 0.703120
0.764675 0.368750 0.704097
0.854856 0.443488 0.708766
0.934661 0.459632 0.699397
0.000000 0.124422 0.672663
0.000000 0.131106 0.676051
0.208530 0.152895 0.682490
0.469368 0.217044 0.691951
0.644343 0.269413 0.700862
0.761959 0.406683 0.705653
0.851835 0.463386 0.708736
0.932647 0.473213 0.698451
0.000000 0.259098 0.662837
0.000000 0.274510 0.664607
0.247837 0.304448 0.670619
0.477821 0.363165 0.683986
0.634577 0.405310 0.691737
0.750698 0.497292 0.706722
0.839567 0.512291 0.702876
0.924712 0.506981 0.689479
0.000000 0.426947 0.656886
0.000000 0.432166 0.656397
0.223209 0.447517 0.655756
0.467170 0.489570 0.665217
0.620508 0.531090 0.678676
0.732052 0.576349 0.697627
0.821530 0.562768 0.683558
0.915648 0.543450 0.662623
0.000000 0.615076 0.655482
0.000000 0.615778 0.655482
0.239963 0.615717 0.654566
0.448859 0.614649 0.653864
0.593774 0.613367 0.652827
0.698909 0.615961 0.652552
0.802518 0.621698 0.653223
0.909361 0.630732 0.653193
0.000000 0.731411 0.624445
0.000000 0.729458 0.625177
0.290043 0.721614 0.627100
0.463691 0.710628 0.633265
0.595911 0.697566 0.649836
0.691585 0.708614 0.655085
0.803525 0.726680 0.658137
0.909758 0.736995 0.657649
0.186801 0.818204 0.611627
0.242496 0.816129 0.614130
0.367132 0.810269 0.623163
0.495857 0.802335 0.637934
0.612360 0.791135 0.659846
0.695399 0.778408 0.662745
0.793576 0.806882 0.660914
0.906371 0.829068 0.655787
0.329473 0.912749 0.633936
0.357305 0.911345 0.636561
0.435096 0.907256 0.644892
0.535363 0.904692 0.659663
0.640894 0.895659 0.679011
0.729793 0.886046 0.686152
0.813901 0.892790 0.687739
0.907347 0.912413 0.675807
0.000000 0.093385 0.784421
0.000000 0.101381 0.785672
0.202365 0.133516 0.788449
0.456977 0.218112 0.796048
0.633875 0.347051 0.804868
0.753201 0.400702 0.807248
0.856229 0.517601 0.821653
0.939940 0.589380 0.836271
0.000000 0.159976 0.779965
0.000000 0.167971 0.780941
0.234958 0.198337 0.784482
0.464027 0.271305 0.792233
0.633722 0.384710 0.801083
0.749722 0.429755 0.804135
0.853849 0.535973 0.821103
0.938262 0.596948 0.834989
0.000000 0.307652 0.774624
0.043671 0.315679 0.775692
0.304692 0.344945 0.779751
0.487922 0.401770 0.786893
0.639338 0.483558 0.796139
0.744778 0.515404 0.800015
0.850523 0.591760 0.823026
0.935027 0.622705 0.832090
0.000000 0.424994 0.763912
0.000000 0.435279 0.763973
0.321508 0.472541 0.766445
0.502831 0.523735 0.775906
0.643427 0.582116 0.789090
0.740261 0.608942 0.796475
0.849729 0.657069 0.826139
0.930724 0.656153 0.823819
0.000000 0.579065 0.757992
0.000000 0.581811 0.757717
0.297765 0.589929 0.756649
0.465644 0.602228 0.755428
0.615991 0.636713 0.764950
0.723384 0.667567 0.780911
0.835233 0.699397 0.809598
0.918578 0.675471 0.792416
0.000000 0.718044 0.753475
0.132906 0.718624 0.754116
0.320836 0.717494 0.753628
0.472480 0.715663 0.752834
0.593042 0.713771 0.751736
0.693721 0.714626 0.752712
0.799741 0.718837 0.753658
0.907317 0.724392 0.753201
0.173465 0.829313 0.748257
0.234531 0.828885 0.749630
0.359899 0.825498 0.751736
0.489601 0.819059 0.753048
0.597833 0.811215 0.750851
0.696620 0.800198 0.750027
0.792660 0.809995 0.751827
0.905699 0.827115 0.752010
0.299443 0.920714 0.747280
0.329778 0.919371 0.747921
0.413184 0.915557 0.750179
0.514092 0.911406 0.753475
0.605707 0.906706 0.750301
0.710109 0.897795 0.754971
0.804501 0.888853 0.759609
0.902922 0.912016 0.756649
0.000000 0.153292 0.876036
0.000000 0.164218 0.877073
0.285649 0.204379 0.879179
0.480079 0.284947 0.882628
0.637232 0.396704 0.886076
0.756832 0.492317 0.889494
0.847471 0.532799 0.891417
0.934569 0.605768 0.901549
0.000000 0.211704 0.873777
0.069337 0.221408 0.874693
0.309941 0.256809 0.876768
0.487831 0.326665 0.879820
0.638941 0.425299 0.883635
0.756283 0.513024 0.887510
0.845151 0.547753 0.889525
0.932921 0.614282 0.900542
0.173465 0.349096 0.869535
0.232547 0.356786 0.870085
0.365881 0.384833 0.871855
0.512657 0.436530 0.875120
0.648432 0.507164 0.879667
0.759701 0.577630 0.885405
0.843931 0.598077 0.888609
0.932982 0.650446 0.901946
0.209476 0.468513 0.861173
0.269932 0.478676 0.861082
0.400916 0.509087 0.862486
0.529992 0.545037 0.867094
0.654780 0.594049 0.873686
0.761990 0.646174 0.883360
0.842649 0.656886 0.887602
0.932799 0.701839 0.903380
0.114137 0.572930 0.851377
0.194278 0.575921 0.850828
0.337621 0.585687 0.849485
0.499733 0.615869 0.852720
0.635004 0.653101 0.862242
0.750423 0.695338 0.875792
0.837675 0.715480 0.883482
0.932067 0.760159 0.904204
0.177157 0.704036 0.848600
0.233097 0.704982 0.848386
0.355322 0.707973 0.847745
0.481544 0.712093 0.847135
0.590234 0.713588 0.846799
0.717372 0.737453 0.859678
0.829953 0.775998 0.876951
0.928557 0.808652 0.898497
0.238254 0.820798 0.847562
0.278782 0.820584 0.847623
0.379034 0.819425 0.847379
0.491066 0.817929 0.847166
0.590478 0.816220 0.846769
0.688472 0.814939 0.846494
0.794339 0.814420 0.846372
0.903227 0.817105 0.845884
0.285863 0.924010 0.850217
0.315801 0.923461 0.850431
0.399207 0.922515 0.851896
0.496590 0.920897 0.852781
0.589990 0.919005 0.850645
0.690089 0.913939 0.844602
0.796994 0.903380 0.842283
0.899809 0.912261 0.844541
0.216098 0.241642 0.955871
0.267582 0.252720 0.955993
0.390021 0.292058 0.955688
0.529412 0.362463 0.955474
0.659754 0.452522 0.954986
0.770962 0.545678 0.954681
0.856107 0.598230 0.955505
0.930968 0.618097 0.956817
0.252140 0.287297 0.954406
0.295048 0.297398 0.954559
0.405127 0.332311 0.954376
0.536614 0.394629 0.954101
0.662745 0.475380 0.953826
0.771695 0.560510 0.953826
0.855772 0.608820 0.954833
0.930236 0.626825 0.956237
0.321111 0.401587 0.950835
0.352026 0.409094 0.950866
0.440162 0.434455 0.950652
0.556420 0.480934 0.951141
0.672084 0.540581 0.951324
0.774075 0.603693 0.952087
0.856291 0.643427 0.953918
0.929564 0.657862 0.955627
0.361578 0.518486 0.945678
0.387762 0.523766 0.945892
0.464668 0.541070 0.946044
0.569604 0.572473 0.946807
0.676814 0.612757 0.948150
0.773678 0.654780 0.950439
0.857542 0.694331 0.953155
0.929381 0.704707 0.955230
0.277775 0.592493 0.940459
0.319127 0.598016 0.940581
0.425299 0.615473 0.940520
0.546197 0.640986 0.941650
0.658137 0.667842 0.944213
0.764401 0.704219 0.947692
0.858061 0.751247 0.952056
0.929320 0.760647 0.954803
0.256901 0.706844 0.936767
0.290745 0.707607 0.936461
0.380224 0.709895 0.935698
0.486305 0.712032 0.935027
0.602838 0.719448 0.937072
0.738491 0.752743 0.943206
0.853391 0.801602 0.950500
0.930816 0.821897 0.955230
0.288914 0.823239 0.935149
0.317021 0.823178 0.934966
0.395148 0.822904 0.934508
0.491890 0.822171 0.934234
0.584955 0.818814 0.934356
0.685176 0.813993 0.934813
0.824979 0.840452 0.942931
0.929931 0.878996 0.953735
0.326940 0.925963 0.935149
0.349584 0.925536 0.935027
0.415900 0.924376 0.934844
0.500786 0.922972 0.934844
0.588891 0.921477 0.934905
0.688197 0.919615 0.934813
0.794125 0.917906 0.934630
0.904356 0.916686 0.934112
