data/fiter_cube/39179523/1023432/file.cube
# Created by Adobe Lightroom plugin Export LUT (1.17.0)
# www.johnrellis.com/lightroom/exportlut.htm
# Preset: 日系大师人物肖像_06 云集
# Color profile: C:\Program Files (x86)\Common Files\Adobe\Color\Profiles\Recommended\AdobeRGB1998.icc
LUT_3D_SIZE 32
DOMAIN_MIN 0.0 0.0 0.0
DOMAIN_MAX 1.0 1.0 1.0
0.010254 0.033143 0.042451
0.010254 0.033143 0.042451
0.010254 0.033143 0.042451
0.052003 0.026001 0.041901
0.077180 0.017151 0.041047
0.102968 0.005188 0.039368
0.137118 0.000000 0.035737
0.178836 0.000000 0.029908
0.227115 0.000000 0.021332
0.280308 0.000000 0.009461
0.336950 0.000000 0.000000
0.393988 0.000000 0.000000
0.449287 0.000000 0.000000
0.501274 0.000000 0.000000
0.548669 0.000000 0.000000
0.591577 0.000000 0.000000
0.630488 0.000000 0.000000
0.665949 0.000000 0.000000
0.697505 0.000000 0.000000
0.730800 0.000000 0.000000
0.759731 0.000000 0.000000
0.785763 0.000000 0.000000
0.811124 0.000000 0.000000
0.835966 0.000000 0.000000
0.860380 0.000000 0.000000
0.884703 0.000000 0.000000
0.909178 0.000000 0.000000
0.933837 0.000000 0.000000
0.958801 0.000000 0.000000
0.984253 0.000000 0.000000
1.000000 0.000000 0.000000
1.000000 0.000000 0.000000
0.010254 0.033143 0.042451
0.010254 0.033143 0.042451
0.010254 0.033143 0.042451
0.053010 0.025788 0.041901
0.076936 0.023163 0.040558
0.102846 0.018189 0.038331
0.136599 0.003998 0.034607
0.177859 0.000000 0.028870
0.225956 0.000000 0.020447
0.278843 0.000000 0.008515
0.334966 0.000000 0.000000
0.391577 0.000000 0.000000
0.446723 0.000000 0.000000
0.498665 0.000000 0.000000
0.546075 0.000000 0.000000
0.589014 0.000000 0.000000
0.627955 0.000000 0.000000
0.663478 0.000000 0.000000
0.695308 0.000000 0.000000
0.728511 0.000000 0.000000
0.757229 0.000000 0.000000
0.783017 0.000000 0.000000
0.808194 0.000000 0.000000
0.832975 0.000000 0.000000
0.857450 0.000000 0.000000
0.881865 0.000000 0.000000
0.906523 0.000000 0.000000
0.931365 0.000000 0.000000
0.956512 0.000000 0.000000
0.982116 0.000000 0.000000
1.000000 0.000000 0.000000
1.000000 0.000000 0.000000
0.010101 0.034363 0.042359
0.009766 0.036744 0.042176
0.010803 0.038941 0.041962
0.051911 0.045991 0.040284
0.076875 0.044373 0.038849
0.102541 0.038422 0.036713
0.136172 0.023224 0.033112
0.177249 0.000000 0.027405
0.224887 0.000000 0.018982
0.277470 0.000000 0.006958
0.333379 0.000000 0.000000
0.390051 0.000000 0.000000
0.445106 0.000000 0.000000
0.497047 0.000000 0.000000
0.544427 0.000000 0.000000
0.587549 0.000000 0.000000
0.626490 0.000000 0.000000
0.662043 0.000000 0.000000
0.694057 0.000000 0.000000
0.727352 0.000000 0.000000
0.755917 0.000000 0.000000
0.781552 0.000000 0.000000
0.806668 0.000000 0.000000
0.831418 0.000000 0.000000
0.855863 0.000000 0.000000
0.880308 0.000000 0.000000
0.905028 0.000000 0.000000
0.929992 0.000000 0.000000
0.955291 0.000000 0.000000
0.980957 0.000000 0.000000
1.000000 0.000000 0.000000
1.000000 0.000000 0.000000
0.005707 0.068788 0.042359
0.006500 0.069581 0.043214
0.014099 0.069947 0.044038
0.049287 0.071168 0.039551
0.076387 0.070558 0.034821
0.102571 0.067506 0.032868
0.136446 0.061158 0.029328
0.177401 0.040803 0.023438
0.224826 0.000000 0.014557
0.277165 0.000000 0.002014
0.332616 0.000000 0.000000
0.389014 0.000000 0.000000
0.443702 0.000000 0.000000
0.495369 0.000000 0.000000
0.542809 0.000000 0.000000
0.585840 0.000000 0.000000
0.624842 0.000000 0.000000
0.660395 0.000000 0.000000
0.693263 0.000000 0.000000
0.725582 0.000000 0.000000
0.753719 0.000000 0.000000
0.779019 0.000000 0.000000
0.804135 0.000000 0.000000
0.829099 0.000000 0.000000
0.854093 0.000000 0.000000
0.879118 0.000000 0.000000
0.904265 0.000000 0.000000
0.929503 0.000000 0.000000
0.954864 0.000000 0.000000
0.980529 0.000000 0.000000
1.000000 0.000000 0.000000
1.000000 0.000000 0.000000
0.002411 0.087678 0.043793
0.002106 0.088319 0.043610
0.014862 0.088045 0.046601
0.047364 0.086885 0.050385
0.072206 0.091768 0.036744
0.101686 0.093172 0.025818
0.135714 0.090181 0.021912
0.176730 0.084718 0.015442
0.223789 0.072908 0.006073
0.275669 0.041199 0.000000
0.330602 0.000000 0.000000
0.386755 0.000000 0.000000
0.441352 0.000000 0.000000
0.493050 0.000000 0.000000
0.540734 0.000000 0.000000
0.584100 0.000000 0.000000
0.623438 0.000000 0.000000
0.659174 0.000000 0.000000
0.693507 0.000000 0.000000
0.725093 0.000000 0.000000
0.752682 0.000000 0.000000
0.777707 0.000000 0.000000
0.802548 0.000000 0.000000
0.827543 0.000000 0.000000
0.852567 0.000000 0.000000
0.877684 0.000000 0.000000
0.902922 0.000000 0.000000
0.928191 0.000000 0.000000
0.953582 0.000000 0.000000
0.979187 0.000000 0.000000
1.000000 0.000000 0.000000
1.000000 0.091157 0.000000
0.000000 0.111849 0.041779
0.000580 0.111818 0.043763
0.013703 0.111360 0.045777
0.044984 0.110323 0.050629
0.069734 0.112520 0.047395
0.096590 0.119814 0.026764
0.135592 0.124849 0.008179
0.176974 0.122347 0.003265
0.223941 0.117769 0.000000
0.275792 0.108125 0.000000
0.330724 0.091798 0.000000
0.386419 0.062654 0.000000
0.440711 0.000000 0.000000
0.492470 0.000000 0.000000
0.540002 0.000000 0.000000
0.583398 0.000000 0.000000
0.622827 0.000000 0.000000
0.658595 0.000000 0.000000
0.694179 0.000000 0.000000
0.725277 0.000000 0.000000
0.752651 0.000000 0.000000
0.777676 0.000000 0.000000
0.819974 0.000000 0.000000
0.844877 0.000000 0.000000
0.869322 0.000000 0.000000
0.893462 0.000000 0.000000
0.917449 0.000000 0.000000
0.941405 0.000000 0.000000
0.965545 0.000000 0.000000
0.990021 0.095155 0.000000
1.000000 0.140963 0.000000
1.000000 0.177554 0.000000
0.000000 0.145052 0.036500
0.000000 0.144625 0.038636
0.009491 0.144289 0.041718
0.042298 0.143282 0.047639
0.072602 0.141665 0.054505
0.096895 0.149386 0.041657
0.132204 0.159060 0.017914
0.181216 0.168276 0.000000
0.230137 0.165896 0.000000
0.283207 0.161837 0.000000
0.338811 0.154421 0.000000
0.394812 0.141512 0.000000
0.448859 0.123690 0.000000
0.499733 0.099275 0.000000
0.546166 0.063996 0.000000
0.588281 0.000000 0.000000
0.626764 0.000000 0.000000
0.664546 0.000000 0.000000
0.699580 0.000000 0.000000
0.730404 0.000000 0.000000
0.758175 0.000000 0.000000
0.784634 0.000000 0.000000
0.811429 0.000000 0.000000
0.838193 0.000000 0.000000
0.864439 0.000000 0.000000
0.889708 0.000000 0.000000
0.914336 0.024231 0.000000
0.938598 0.093538 0.000000
0.962951 0.128695 0.000000
0.987457 0.159579 0.000000
1.000000 0.188022 0.000000
1.000000 0.215366 0.000000
0.000000 0.182162 0.038544
0.000000 0.181827 0.040650
0.000000 0.181399 0.042725
0.030274 0.180362 0.047730
0.071138 0.178744 0.053010
0.098451 0.179782 0.054566
0.129580 0.190066 0.037446
0.171817 0.201328 0.010529
0.228550 0.213870 0.000000
0.281956 0.211551 0.000000
0.337774 0.207065 0.000000
0.393561 0.199954 0.000000
0.447395 0.190127 0.000000
0.498054 0.176761 0.000000
0.544396 0.161929 0.000000
0.586450 0.145907 0.000000
0.626215 0.130770 0.000000
0.664790 0.117159 0.000000
0.698512 0.104128 0.000000
0.728664 0.092836 0.000000
0.755947 0.084901 0.000000
0.782040 0.082918 0.000000
0.808560 0.089052 0.000000
0.835080 0.101350 0.000000
0.861173 0.116457 0.000000
0.886503 0.134005 0.000000
0.911254 0.151553 0.000000
0.935698 0.170230 0.000000
0.960174 0.190249 0.000000
0.984833 0.210758 0.000000
1.000000 0.232364 0.000000
1.000000 0.253941 0.000000
0.000000 0.225132 0.029755
0.000000 0.224796 0.030884
0.000000 0.224521 0.033936
0.006317 0.223423 0.038209
0.066529 0.222019 0.045136
0.100099 0.219547 0.052277
0.131319 0.224704 0.044831
0.169009 0.236271 0.016510
0.217502 0.248661 0.000000
0.279850 0.262577 0.000000
0.337377 0.261051 0.000000
0.393286 0.255680 0.000000
0.447028 0.248936 0.000000
0.497475 0.240757 0.000000
0.543450 0.230503 0.000000
0.586481 0.220279 0.000000
0.627955 0.211856 0.000000
0.665095 0.203647 0.000000
0.697841 0.195865 0.000000
0.727413 0.189242 0.000000
0.754330 0.184360 0.000000
0.780179 0.181979 0.000000
0.806455 0.183597 0.000000
0.832761 0.188540 0.000000
0.858732 0.196139 0.000000
0.884031 0.205142 0.000000
0.908812 0.216159 0.000000
0.933288 0.228489 0.000000
0.957855 0.242649 0.000000
0.982544 0.258305 0.000000
1.000000 0.275059 0.000000
1.000000 0.292699 0.000000
0.000000 0.271519 0.011048
0.000000 0.271214 0.013245
0.000000 0.270726 0.015442
0.000000 0.269780 0.019654
0.054780 0.268223 0.026825
0.098054 0.265934 0.036805
0.134676 0.262730 0.049653
0.169772 0.273014 0.022950
0.213382 0.285374 0.000000
0.266880 0.298161 0.000000
0.332647 0.312291 0.000000
0.391699 0.311711 0.000000
0.445624 0.305730 0.000000
0.496040 0.298741 0.000000
0.544305 0.292912 0.000000
0.589197 0.287358 0.000000
0.629664 0.279881 0.000000
0.666041 0.272557 0.000000
0.698085 0.265568 0.000000
0.727016 0.258946 0.000000
0.753262 0.253513 0.000000
0.778439 0.250004 0.000000
0.803983 0.249058 0.000000
0.829587 0.251225 0.000000
0.855161 0.255314 0.000000
0.880430 0.261357 0.000000
0.905394 0.269169 0.000000
0.930266 0.278782 0.000000
0.955230 0.290074 0.000000
0.980316 0.302922 0.000000
1.000000 0.317205 0.000000
1.000000 0.332280 0.000000
0.000000 0.318639 0.000000
0.000000 0.318517 0.000000
0.000000 0.318090 0.000000
0.000000 0.317235 0.000000
0.023774 0.315770 0.005219
0.093172 0.313817 0.017121
0.134981 0.311040 0.032685
0.173129 0.311711 0.036194
0.213107 0.323522 0.000000
0.261753 0.336278 0.000000
0.318944 0.348974 0.000000
0.385840 0.362615 0.000000
0.445441 0.363897 0.000000
0.498421 0.358953 0.000000
0.546502 0.353338 0.000000
0.589837 0.347387 0.000000
0.629206 0.341222 0.000000
0.664759 0.334539 0.000000
0.696376 0.326665 0.000000
0.724971 0.319341 0.000000
0.751003 0.313054 0.000000
0.776181 0.308598 0.000000
0.801694 0.306828 0.000000
0.827298 0.307256 0.000000
0.852842 0.309789 0.000000
0.878050 0.313756 0.000000
0.902953 0.319280 0.000000
0.927764 0.326482 0.000000
0.952697 0.335393 0.000000
0.977844 0.345617 0.000000
1.000000 0.357305 0.000000
1.000000 0.370367 0.000000
0.000000 0.367163 0.000000
0.000000 0.366949 0.000000
0.000000 0.366522 0.000000
0.000000 0.365759 0.000000
0.000000 0.364416 0.000000
0.086641 0.362554 0.000000
0.133852 0.360113 0.013977
0.176608 0.356878 0.035920
0.216403 0.362341 0.017334
0.260929 0.374334 0.000000
0.312963 0.386938 0.000000
0.374823 0.401984 0.000000
0.461067 0.432776 0.000000
0.519707 0.435615 0.000000
0.566461 0.428473 0.000000
0.608392 0.420874 0.000000
0.646052 0.413306 0.000000
0.679377 0.405280 0.000000
0.708583 0.396948 0.000000
0.735164 0.388098 0.000000
0.759731 0.379889 0.000000
0.784329 0.374243 0.000000
0.809049 0.370642 0.000000
0.833860 0.369360 0.000000
0.858640 0.369940 0.000000
0.883207 0.372045 0.000000
0.907500 0.375494 0.000000
0.931640 0.380224 0.000000
0.955901 0.386603 0.000000
0.980468 0.394415 0.000000
1.000000 0.403723 0.000000
1.000000 0.414160 0.000000
0.000000 0.420905 0.000000
0.000000 0.420661 0.000000
0.000000 0.420020 0.000000
0.000000 0.418677 0.000000
0.000000 0.416846 0.000000
0.080293 0.414343 0.000000
0.133791 0.411475 0.000000
0.179751 0.407996 0.023438
0.224033 0.404211 0.052674
0.267979 0.417548 0.003418
0.319158 0.432563 0.000000
0.377234 0.448035 0.000000
0.440558 0.463172 0.000000
0.506401 0.477516 0.000000
0.563165 0.482765 0.000000
0.605249 0.474647 0.000000
0.642817 0.466072 0.000000
0.675837 0.456794 0.000000
0.704921 0.447395 0.000000
0.731319 0.438636 0.000000
0.755734 0.430640 0.000000
0.780331 0.423590 0.000000
0.804959 0.419013 0.000000
0.829801 0.416358 0.000000
0.854551 0.415473 0.000000
0.879179 0.416083 0.000000
0.903593 0.418219 0.000000
0.927855 0.421790 0.000000
0.952331 0.426673 0.000000
0.977111 0.433234 0.000000
1.000000 0.441108 0.000000
1.000000 0.450294 0.000000
0.000000 0.465339 0.000000
0.000000 0.464973 0.000000
0.000000 0.464424 0.000000
0.000000 0.463203 0.000000
0.000000 0.461402 0.000000
0.074861 0.459785 0.000000
0.134310 0.458412 0.000000
0.183261 0.456489 0.023407
0.230289 0.454139 0.056672
0.275486 0.455695 0.063661
0.321508 0.468696 0.007172
0.373541 0.482307 0.000000
0.430243 0.495644 0.000000
0.489570 0.508324 0.000000
0.549218 0.520134 0.000000
0.601648 0.525139 0.000000
0.638911 0.515496 0.000000
0.671778 0.505394 0.000000
0.700923 0.494942 0.000000
0.727352 0.485176 0.000000
0.751949 0.476326 0.000000
0.776486 0.469978 0.000000
0.801266 0.465034 0.000000
0.826200 0.461463 0.000000
0.851072 0.459632 0.000000
0.875792 0.459297 0.000000
0.900359 0.460212 0.000000
0.924804 0.462623 0.000000
0.949432 0.466529 0.000000
0.974395 0.471992 0.000000
0.999664 0.478828 0.000000
1.000000 0.486946 0.000000
0.000000 0.511711 0.000000
0.000000 0.511650 0.000000
0.000000 0.511131 0.000000
0.000000 0.510246 0.000000
0.000000 0.508812 0.000000
0.077607 0.506859 0.000000
0.138643 0.504662 0.009400
0.188479 0.502068 0.042267
0.235752 0.499336 0.066316
0.282231 0.496345 0.082979
0.326452 0.501915 0.076631
0.373327 0.513817 0.035157
0.424262 0.525719 0.000000
0.477974 0.537163 0.000000
0.532403 0.547875 0.000000
0.586450 0.557488 0.000000
0.635401 0.562768 0.000000
0.668086 0.551690 0.000000
0.697108 0.540368 0.000000
0.723598 0.529625 0.000000
0.748165 0.519860 0.000000
0.772763 0.512505 0.000000
0.797513 0.507317 0.000000
0.822416 0.504234 0.000000
0.847501 0.501732 0.000000
0.872526 0.500786 0.000000
0.897520 0.501244 0.000000
0.922545 0.503288 0.000000
0.947723 0.506706 0.000000
0.973175 0.511803 0.000000
0.998962 0.518120 0.000000
1.000000 0.525597 0.000000
0.000000 0.554345 0.000000
0.000000 0.554314 0.000000
0.000000 0.553979 0.000000
0.000000 0.553155 0.000000
0.000000 0.551751 0.000000
0.088869 0.549981 0.019562
0.147402 0.547997 0.048707
0.197086 0.545586 0.068116
0.244297 0.542687 0.082887
0.290074 0.539391 0.097078
0.335393 0.535393 0.110994
0.377417 0.544305 0.096223
0.422370 0.554040 0.071351
0.470069 0.563561 0.000000
0.518944 0.572778 0.000000
0.568505 0.581384 0.000000
0.618067 0.589624 0.000000
0.663294 0.594263 0.000000
0.693385 0.583581 0.000000
0.720241 0.572442 0.000000
0.745205 0.562188 0.000000
0.770169 0.554345 0.000000
0.795224 0.548608 0.000000
0.820401 0.544884 0.000000
0.845609 0.542992 0.000000
0.870787 0.542443 0.000000
0.896025 0.542260 0.000000
0.921172 0.543603 0.000000
0.946410 0.546319 0.000000
0.971862 0.550286 0.000000
0.997498 0.555474 0.000000
1.000000 0.561791 0.022797
0.000000 0.590967 0.020508
0.000000 0.590692 0.022675
0.000000 0.590265 0.028168
0.000000 0.589380 0.040040
0.000000 0.588006 0.055329
0.103761 0.586267 0.067018
0.157900 0.584161 0.077363
0.205386 0.581628 0.088838
0.251102 0.578729 0.100710
0.295872 0.575341 0.112886
0.340124 0.571557 0.125734
0.382116 0.570764 0.132021
0.422797 0.579522 0.116854
0.465858 0.588098 0.095918
0.510216 0.596399 0.062287
0.555169 0.604211 0.000000
0.600641 0.611475 0.000000
0.646143 0.618311 0.000000
0.687800 0.622004 0.000000
0.716274 0.612543 0.000000
0.741299 0.601678 0.000000
0.766354 0.593133 0.000000
0.791531 0.586816 0.000000
0.816892 0.582605 0.000000
0.842344 0.580102 0.000000
0.867735 0.579217 0.000000
0.893126 0.579797 0.000000
0.918547 0.581201 0.000000
0.944060 0.583337 0.000000
0.969726 0.586847 0.000000
0.995666 0.591394 0.016754
1.000000 0.597070 0.058869
0.000000 0.624537 0.076234
0.000000 0.624598 0.077882
0.000000 0.636072 0.093019
0.000000 0.635096 0.096132
0.084352 0.633631 0.100587
0.137972 0.631525 0.106386
0.184237 0.628931 0.113985
0.227909 0.625971 0.121767
0.271122 0.622614 0.130983
0.314275 0.618891 0.141299
0.356481 0.614771 0.152163
0.397711 0.610101 0.163424
0.435676 0.612268 0.161257
0.473823 0.619409 0.147463
0.513146 0.626184 0.129702
0.553338 0.632563 0.105776
0.594202 0.638514 0.068910
0.635309 0.644007 0.000000
0.676600 0.649165 0.000000
0.714717 0.651728 0.000000
0.741726 0.643519 0.000000
0.766690 0.634363 0.000000
0.791775 0.627375 0.000000
0.816922 0.622309 0.000000
0.841825 0.618708 0.000000
0.866697 0.616663 0.000000
0.891539 0.615930 0.000000
0.916472 0.616815 0.000000
0.941772 0.619135 0.000000
0.967498 0.622004 0.011872
0.993561 0.625940 0.054566
1.000000 0.630854 0.074830
0.000000 0.657984 0.110597
0.000000 0.659205 0.113375
0.000000 0.660273 0.116243
0.059388 0.660792 0.120455
0.113802 0.660426 0.125063
0.157656 0.659083 0.130770
0.199008 0.656977 0.136416
0.239628 0.654292 0.143313
0.280491 0.651240 0.151247
0.321141 0.647822 0.160189
0.361761 0.643946 0.169680
0.401465 0.639673 0.180026
0.439765 0.634791 0.190707
0.474128 0.640040 0.181460
0.509453 0.645869 0.168399
0.545861 0.651392 0.152346
0.583062 0.656641 0.131991
0.620874 0.661616 0.104799
0.659144 0.666377 0.061616
0.697627 0.671046 0.000000
0.734340 0.674220 0.000000
0.762783 0.669490 0.000000
0.788174 0.662318 0.000000
0.813565 0.656977 0.000000
0.838804 0.653162 0.000000
0.863981 0.650782 0.000000
0.889067 0.649775 0.000000
0.914214 0.650202 0.000000
0.939666 0.652125 0.018830
0.965454 0.655390 0.058991
0.991547 0.659571 0.075898
1.000000 0.663905 0.090394
0.000000 0.683955 0.137728
0.034730 0.684932 0.140108
0.073030 0.685847 0.142702
0.106905 0.686213 0.145907
0.143252 0.685847 0.150210
0.179110 0.684627 0.154788
0.215854 0.682673 0.159823
0.253147 0.680201 0.165805
0.291295 0.677455 0.172732
0.329778 0.674311 0.180423
0.368475 0.670863 0.189242
0.406409 0.666957 0.198489
0.443214 0.662440 0.208286
0.477546 0.660182 0.213565
0.509331 0.665248 0.203098
0.542199 0.670100 0.190860
0.575982 0.674708 0.175937
0.610620 0.679133 0.158572
0.645869 0.683406 0.136355
0.681880 0.687892 0.107240
0.718532 0.692653 0.056489
0.755245 0.697627 0.000000
0.785000 0.696040 0.000000
0.810605 0.690547 0.000000
0.835996 0.686427 0.000000
0.861295 0.683680 0.000000
0.886473 0.682277 0.000000
0.911742 0.682216 0.032685
0.937255 0.683650 0.064759
0.963104 0.686336 0.079988
0.989288 0.690242 0.092622
1.000000 0.694972 0.103761
0.097322 0.707607 0.164492
0.108766 0.708461 0.166445
0.122408 0.709224 0.169009
0.144594 0.709468 0.172061
0.171878 0.709102 0.175479
0.202365 0.707942 0.179507
0.234501 0.706142 0.183963
0.268284 0.703883 0.188907
0.303593 0.701320 0.195224
0.339483 0.698390 0.202213
0.375769 0.695155 0.209781
0.411902 0.691493 0.218235
0.447028 0.687434 0.226993
0.480964 0.683040 0.236301
0.511559 0.683772 0.235447
0.541527 0.688167 0.225834
0.572656 0.692592 0.215061
0.604944 0.697169 0.202426
0.638331 0.702052 0.187442
0.672816 0.707271 0.169650
0.708034 0.712795 0.147707
0.743984 0.718563 0.117922
0.780789 0.725124 0.069459
0.811887 0.726650 0.000000
0.837827 0.722805 0.020600
0.863401 0.720211 0.064607
0.888823 0.718654 0.080873
0.914153 0.718410 0.094728
0.939757 0.719387 0.106050
0.965545 0.721645 0.116854
0.991547 0.724880 0.127077
1.000000 0.728908 0.135927
0.152529 0.733211 0.197147
0.159121 0.733455 0.198337
0.167117 0.733547 0.199619
0.182559 0.733242 0.201602
0.204013 0.732448 0.204196
0.229374 0.731136 0.207462
0.257481 0.729458 0.211215
0.288060 0.727443 0.215946
0.320287 0.725216 0.221530
0.353918 0.722652 0.227970
0.388067 0.719875 0.235447
0.422156 0.716670 0.243534
0.455421 0.713039 0.251804
0.487648 0.709041 0.260472
0.518822 0.704738 0.269383
0.546258 0.708064 0.262791
0.574670 0.712306 0.253635
0.604456 0.716854 0.243198
0.635340 0.721645 0.231113
0.667384 0.726680 0.216922
0.700282 0.731899 0.200259
0.733852 0.737362 0.180301
0.767971 0.742916 0.154788
0.803525 0.749569 0.120058
0.835111 0.753109 0.073762
0.860807 0.750240 0.090394
0.886381 0.748592 0.102876
0.911925 0.748104 0.113832
0.937621 0.748836 0.124025
0.963470 0.750637 0.133150
0.989563 0.753414 0.141848
1.000000 0.757015 0.150393
0.189609 0.754849 0.222995
0.195071 0.755123 0.224063
0.201694 0.755306 0.225437
0.214420 0.755001 0.227329
0.232395 0.754299 0.229648
0.254276 0.753017 0.232486
0.279088 0.751369 0.235874
0.306462 0.749386 0.239994
0.336156 0.747189 0.245060
0.367102 0.744778 0.250950
0.398962 0.742123 0.257694
0.430884 0.739162 0.265141
0.462318 0.735897 0.272831
0.493233 0.732296 0.281193
0.523186 0.728389 0.289799
0.551507 0.726406 0.294804
0.577874 0.730800 0.287053
0.605524 0.735470 0.278447
0.634485 0.740383 0.268711
0.664576 0.745571 0.257176
0.695644 0.751003 0.244205
0.727565 0.756588 0.228855
0.760067 0.762356 0.210819
0.793057 0.768154 0.188327
0.825010 0.772549 0.152193
0.856901 0.777493 0.111910
0.882994 0.776089 0.119051
0.908659 0.775448 0.128511
0.934447 0.775906 0.137270
0.960479 0.777432 0.145663
0.986816 0.779965 0.153719
1.000000 0.783505 0.162081
0.231144 0.780606 0.254215
0.235782 0.780972 0.255497
0.241154 0.781003 0.256626
0.251377 0.780606 0.257969
0.266361 0.779660 0.259739
0.284855 0.778286 0.262028
0.306554 0.776486 0.264652
0.330846 0.774350 0.268040
0.357305 0.771908 0.272099
0.385229 0.769314 0.277134
0.414130 0.766415 0.282780
0.443427 0.763424 0.289036
0.472847 0.760128 0.296025
0.501793 0.756527 0.303319
0.530053 0.752590 0.310857
0.557610 0.748470 0.318853
0.582910 0.748928 0.318151
0.608179 0.753262 0.310185
0.634943 0.758053 0.301396
0.663172 0.763241 0.291783
0.692470 0.768765 0.281071
0.722591 0.774411 0.268559
0.753292 0.779965 0.253635
0.784360 0.785397 0.235416
0.815549 0.790585 0.213321
0.848112 0.796719 0.184298
0.880064 0.802609 0.149477
0.906676 0.802884 0.146822
0.932372 0.802914 0.153719
0.958373 0.804044 0.160800
0.984802 0.806332 0.167910
1.000000 0.809567 0.176028
0.263157 0.803037 0.279179
0.267216 0.803372 0.280400
0.272007 0.803494 0.281376
0.281041 0.803098 0.282872
0.294224 0.802213 0.284428
0.310704 0.800992 0.286595
0.330388 0.799374 0.289403
0.352636 0.797482 0.292668
0.377020 0.795377 0.296666
0.403113 0.793118 0.301549
0.430121 0.790677 0.307164
0.457984 0.788052 0.313451
0.485847 0.785245 0.320409
0.513573 0.782101 0.327642
0.540826 0.778683 0.335210
0.567529 0.775051 0.343267
0.593683 0.771328 0.351690
0.617273 0.774929 0.346136
0.642115 0.779599 0.338598
0.668299 0.784726 0.330358
0.695644 0.790036 0.321111
0.723842 0.795499 0.310430
0.752682 0.800900 0.297856
0.782010 0.806210 0.282872
0.811643 0.811307 0.264988
0.841520 0.816220 0.243320
0.871641 0.821042 0.216648
0.904601 0.828489 0.184421
0.932128 0.830503 0.175051
0.958160 0.831449 0.181216
0.984771 0.833616 0.188571
1.000000 0.836545 0.195834
0.297398 0.827329 0.307042
0.300847 0.827543 0.307866
0.304845 0.827451 0.308598
0.312444 0.826932 0.309789
0.323705 0.825986 0.311040
0.338262 0.824704 0.312718
0.355718 0.823117 0.315099
0.375799 0.821317 0.318151
0.398199 0.819333 0.321904
0.422156 0.817288 0.326513
0.447456 0.815061 0.331884
0.473671 0.812833 0.338262
0.500175 0.810330 0.344915
0.526757 0.807584 0.352270
0.552911 0.804562 0.359533
0.578637 0.801297 0.367254
0.603937 0.797910 0.375463
0.628107 0.796384 0.380560
0.651026 0.800870 0.373785
0.675227 0.805722 0.366400
0.700649 0.810849 0.358190
0.726955 0.816068 0.348882
0.753994 0.821225 0.338018
0.781552 0.826291 0.325231
0.809506 0.831205 0.309911
0.837797 0.835904 0.291844
0.866423 0.840513 0.270298
0.895354 0.844999 0.243900
0.928008 0.852781 0.212589
0.956542 0.856352 0.196933
0.983215 0.858305 0.202945
1.000000 0.860960 0.209415
0.329747 0.850950 0.333806
0.332433 0.851041 0.334569
0.335973 0.850980 0.335180
0.342748 0.850584 0.336187
0.353185 0.849882 0.337774
0.366857 0.849027 0.340063
0.383642 0.848173 0.343359
0.403052 0.847227 0.347509
0.424750 0.846250 0.352667
0.448157 0.845243 0.358556
0.472786 0.844083 0.365332
0.498268 0.842771 0.372473
0.524041 0.841215 0.380133
0.549767 0.839261 0.388037
0.575219 0.836973 0.396002
0.600061 0.834287 0.403845
0.624537 0.831418 0.412146
0.648554 0.828611 0.420844
0.670893 0.829862 0.421454
0.693019 0.834348 0.414984
0.716274 0.839017 0.407782
0.740475 0.843778 0.399542
0.765347 0.848478 0.389899
0.790829 0.853117 0.378607
0.816800 0.857603 0.365454
0.843198 0.861936 0.349920
0.870054 0.866178 0.331548
0.897337 0.870329 0.309789
0.925170 0.874510 0.284184
0.957458 0.882414 0.254612
0.986664 0.887053 0.233494
1.000000 0.889158 0.239048
0.371588 0.879820 0.371008
0.373907 0.879850 0.371588
0.376684 0.879637 0.372107
0.382452 0.879149 0.372839
0.391333 0.878355 0.374060
0.403021 0.877379 0.375860
0.417548 0.876280 0.378454
0.434424 0.875120 0.381659
0.453498 0.873838 0.385779
0.474403 0.872465 0.390845
0.496498 0.870970 0.396307
0.519707 0.869383 0.402625
0.543481 0.867582 0.409339
0.567559 0.865568 0.416480
