data/fiter_cube/29797953/1022865/file.cube
# Created by Adobe Lightroom plugin Export LUT (1.17.0)
# www.johnrellis.com/lightroom/exportlut.htm
# Preset: 电影灰蓝色_10 云集
# Color profile: C:\Program Files (x86)\Common Files\Adobe\Color\Profiles\Recommended\AdobeRGB1998.icc
LUT_3D_SIZE 5
DOMAIN_MIN 0.000000 0.000000 0.000000
DOMAIN_MAX 0.903226 0.903226 0.903226
0.069123 0.076112 0.088075
0.127810 0.089174 0.091188
0.405646 0.094362 0.077943
0.669001 0.183688 0.028473
0.804471 0.374334 0.106844
0.079377 0.108400 0.111543
0.129000 0.132570 0.102419
0.446723 0.191470 0.061677
0.680171 0.265049 0.000000
0.808988 0.416632 0.111025
0.173526 0.354498 0.268467
0.291020 0.379706 0.321721
0.450111 0.398810 0.161074
0.696681 0.443641 0.000000
0.818906 0.533867 0.130282
0.488289 0.626093 0.522423
0.541131 0.631220 0.546197
0.629969 0.638880 0.610315
0.675319 0.614069 0.342992
0.805631 0.598352 0.159335
0.658900 0.759457 0.686610
0.678676 0.763455 0.698604
0.730434 0.775265 0.737850
0.765377 0.781552 0.776699
0.798795 0.757687 0.552819
0.076020 0.090730 0.119753
0.141176 0.083314 0.144228
0.378576 0.124727 0.156100
0.648280 0.214511 0.164828
0.793423 0.391058 0.208072
0.088838 0.122652 0.139406
0.134157 0.158938 0.173770
0.422187 0.204318 0.167910
0.662013 0.283696 0.169100
0.797147 0.428168 0.214267
0.168673 0.383093 0.310918
0.293950 0.405554 0.346899
0.450721 0.418433 0.256291
0.692470 0.473518 0.188693
0.809995 0.542016 0.245701
0.491066 0.633021 0.538933
0.543053 0.637598 0.558892
0.633143 0.645747 0.615259
0.672023 0.621759 0.405249
0.803464 0.614252 0.261357
0.655756 0.761685 0.690578
0.675685 0.765469 0.701534
0.729335 0.778714 0.739498
0.769070 0.786313 0.780392
0.797910 0.761288 0.575616
0.096956 0.156649 0.256382
0.130953 0.139620 0.324285
0.478676 0.000000 0.357488
0.630671 0.241154 0.327611
0.761654 0.442969 0.401251
0.188846 0.218265 0.231327
0.195621 0.245670 0.310979
0.470344 0.215976 0.380224
0.614099 0.336706 0.365637
0.767056 0.467536 0.406104
0.244083 0.367651 0.369238
0.306279 0.396246 0.393652
0.459449 0.463600 0.453986
0.653681 0.498390 0.426947
0.783536 0.554986 0.431769
0.473396 0.650782 0.588617
0.524651 0.651820 0.594720
0.621393 0.656947 0.618463
0.664851 0.643153 0.537499
0.798001 0.662287 0.469062
0.646540 0.769436 0.709285
0.664576 0.772457 0.715755
0.715480 0.782193 0.738918
0.773617 0.795346 0.784939
0.793820 0.768338 0.626429
0.227695 0.302800 0.457252
0.248844 0.291417 0.495186
0.492653 0.168795 0.600122
0.687251 0.308782 0.558160
0.774380 0.470771 0.544762
0.329595 0.379248 0.441138
0.324620 0.372534 0.482063
0.476448 0.305699 0.587579
0.680232 0.377234 0.566400
0.768582 0.493263 0.549584
0.426368 0.449805 0.452674
0.448585 0.462196 0.461280
0.504753 0.514855 0.537560
0.662470 0.520745 0.592035
0.749630 0.560662 0.568994
0.519158 0.600885 0.587366
0.540124 0.608515 0.594965
0.594354 0.630854 0.617334
0.655756 0.657710 0.645136
0.773648 0.671931 0.614771
0.637446 0.766262 0.733883
0.651209 0.772946 0.741268
0.694850 0.792660 0.762631
0.761044 0.804593 0.783047
0.790982 0.783200 0.699886
0.505577 0.533715 0.652003
0.509056 0.524559 0.665339
0.562463 0.485634 0.709926
0.721279 0.415412 0.761929
0.803799 0.542351 0.717006
0.542229 0.569146 0.641871
0.534508 0.557610 0.656306
0.567071 0.527001 0.702113
0.716182 0.458076 0.762814
0.801785 0.562585 0.720790
0.591913 0.591180 0.581292
0.592218 0.600885 0.603174
0.598383 0.613489 0.670466
0.688685 0.570916 0.754757
0.796689 0.615320 0.732326
0.639765 0.662104 0.659693
0.643671 0.663203 0.660243
0.653223 0.663508 0.658076
0.666865 0.679408 0.700099
0.789120 0.689784 0.752560
0.671199 0.744259 0.739559
0.677089 0.747311 0.742794
0.697658 0.758267 0.754421
0.734981 0.779385 0.776669
0.791348 0.808835 0.807858
