data/fiter_cube/29797953/1022865/file.cube
# Created by Adobe Lightroom plugin Export LUT (1.17.0)
# www.johnrellis.com/lightroom/exportlut.htm
# Preset: 电影灰蓝色_10 云集
# Color profile: C:\Program Files (x86)\Common Files\Adobe\Color\Profiles\Recommended\AdobeRGB1998.icc
LUT_3D_SIZE 8
DOMAIN_MIN 0.000000 0.000000 0.000000
DOMAIN_MAX 0.903226 0.903226 0.903226
0.069123 0.076112 0.088075
0.084840 0.080262 0.089387
0.151705 0.092622 0.091218
0.305303 0.100374 0.085542
0.497017 0.093202 0.067414
0.641474 0.158358 0.035370
0.734218 0.261997 0.047364
0.804471 0.374334 0.106844
0.072847 0.084565 0.095247
0.083772 0.089845 0.094087
0.160342 0.109499 0.090333
0.316106 0.123598 0.083314
0.504265 0.127565 0.064057
0.641230 0.182895 0.026276
0.733211 0.276463 0.036927
0.803708 0.383124 0.104860
0.083314 0.124910 0.122042
0.100771 0.134157 0.134524
0.155428 0.157382 0.106722
0.347662 0.198856 0.074159
0.542168 0.233310 0.015503
0.659419 0.273930 0.000000
0.742763 0.343328 0.025513
0.809506 0.428351 0.110842
0.124575 0.256840 0.204685
0.153567 0.266545 0.217411
0.239353 0.281743 0.270634
0.343511 0.313756 0.135103
0.536950 0.309148 0.005585
0.687037 0.417090 0.000000
0.753414 0.441657 0.010193
0.815335 0.494209 0.120211
0.260349 0.453651 0.346227
0.295171 0.458869 0.358373
0.397894 0.473823 0.405402
0.476112 0.479164 0.465095
0.533013 0.470680 0.198795
0.641413 0.411688 0.000000
0.750790 0.511223 0.051911
0.823575 0.577752 0.147585
0.446693 0.597375 0.488991
0.470100 0.601434 0.499245
0.527489 0.607324 0.525780
0.591638 0.612482 0.569818
0.614496 0.617792 0.583062
0.653590 0.590112 0.311437
0.719295 0.506676 0.043549
0.811704 0.600092 0.164401
0.582544 0.687709 0.603662
0.593225 0.688991 0.609216
0.622583 0.692378 0.625452
0.660609 0.699489 0.652644
0.688228 0.701808 0.678645
0.695186 0.706813 0.654322
0.727718 0.676173 0.437293
0.783291 0.590204 0.134188
0.658900 0.759457 0.686610
0.664942 0.760616 0.690089
0.684901 0.764889 0.702724
0.715358 0.772885 0.725460
0.745113 0.777859 0.751522
0.762264 0.780453 0.771298
0.766293 0.785061 0.723690
0.798795 0.757687 0.552819
0.072419 0.081819 0.098451
0.086061 0.080140 0.102907
0.146181 0.095003 0.107698
0.295262 0.108492 0.109407
0.487617 0.109773 0.101656
0.629847 0.166842 0.095521
0.726833 0.266209 0.102876
0.798947 0.375982 0.141909
0.074983 0.087160 0.101228
0.084291 0.095491 0.110048
0.154604 0.111910 0.111086
0.307988 0.128878 0.109071
0.496742 0.138735 0.100404
0.632746 0.191165 0.093904
0.726833 0.280797 0.101106
0.798245 0.384314 0.140139
0.082429 0.134615 0.133761
0.103426 0.146120 0.146120
0.159152 0.168521 0.131106
0.349035 0.210758 0.104463
0.530907 0.234379 0.092744
0.650111 0.275395 0.088014
0.735073 0.342901 0.101534
0.803555 0.427405 0.146059
0.125307 0.266392 0.218143
0.157259 0.277501 0.231174
0.249821 0.296574 0.281071
0.341009 0.318395 0.164340
0.528954 0.314061 0.086824
0.675715 0.410285 0.071901
0.745754 0.438209 0.104616
0.809659 0.492348 0.155978
0.267308 0.460639 0.358984
0.299626 0.464637 0.368841
0.394598 0.477089 0.407050
0.477058 0.481422 0.464820
0.528069 0.471229 0.226078
0.638544 0.416632 0.075288
0.747921 0.515770 0.119966
0.819364 0.577111 0.185122
0.446693 0.598016 0.493324
0.466438 0.599878 0.500420
0.522850 0.605585 0.524865
0.589380 0.611963 0.568566
0.616114 0.617609 0.591180
0.651698 0.591821 0.332555
0.718410 0.511315 0.104799
0.809689 0.603296 0.197635
0.579583 0.686549 0.603449
0.589197 0.687098 0.607752
0.619135 0.690608 0.623804
0.657282 0.698268 0.649989
0.687678 0.701869 0.678126
0.695003 0.706508 0.658717
0.725124 0.675593 0.447028
0.781155 0.591211 0.159335
0.656794 0.758816 0.686336
0.663050 0.760159 0.689937
0.683162 0.764523 0.702388
0.713832 0.772519 0.724727
0.746761 0.780331 0.754025
0.763546 0.782162 0.772732
0.766567 0.785519 0.727504
0.797543 0.757565 0.557946
0.077211 0.095399 0.132021
0.082338 0.090791 0.149905
0.173281 0.082765 0.166354
0.297398 0.098665 0.161074
0.469245 0.143893 0.180545
0.616419 0.207309 0.190799
0.717861 0.297795 0.203159
0.791867 0.400427 0.236576
0.097444 0.112490 0.128511
0.096407 0.118746 0.150179
0.169955 0.110750 0.173892
0.289342 0.144778 0.179019
0.477394 0.169375 0.185580
0.619471 0.226444 0.192020
0.718502 0.311101 0.203494
0.792081 0.409125 0.236851
0.097505 0.144167 0.160922
0.111086 0.156191 0.172122
0.164370 0.193393 0.206516
0.333104 0.223880 0.199222
0.512902 0.252110 0.198459
0.637171 0.298619 0.199893
0.725673 0.365270 0.211124
0.795651 0.445319 0.243900
0.099702 0.298650 0.267063
0.142123 0.309148 0.275090
0.255589 0.333837 0.304814
0.356237 0.351904 0.258000
0.541344 0.364691 0.204807
0.663783 0.420874 0.216739
0.737148 0.453986 0.229679
0.802609 0.506615 0.260441
0.259068 0.479255 0.390997
0.298344 0.484260 0.400214
0.397955 0.495705 0.428351
0.493812 0.503960 0.478370
0.534264 0.493874 0.319463
0.644251 0.453132 0.200473
0.746090 0.545006 0.255467
0.811948 0.584894 0.289525
0.446082 0.607233 0.512139
0.468086 0.609125 0.518914
0.524254 0.613825 0.538537
0.588251 0.619806 0.572595
0.625818 0.624598 0.610468
0.648737 0.600824 0.398291
0.718257 0.532158 0.213748
0.807858 0.621729 0.297856
0.580011 0.691615 0.614008
0.590082 0.692317 0.618097
0.618799 0.695186 0.631189
0.655482 0.701442 0.652705
0.689357 0.706600 0.681209
0.700221 0.711269 0.679561
0.723323 0.681941 0.489967
0.782559 0.607538 0.246433
0.653712 0.761440 0.690913
0.659144 0.762203 0.693446
0.679377 0.766140 0.704585
0.711025 0.774228 0.725887
0.746456 0.783474 0.755612
0.766049 0.786069 0.775540
0.769192 0.788968 0.742489
0.796689 0.761196 0.580499
0.085878 0.128969 0.205661
0.086763 0.125734 0.226261
0.178927 0.088014 0.302068
0.372107 0.019165 0.287663
0.505974 0.101747 0.261265
0.582574 0.243931 0.291966
0.693355 0.331121 0.313664
0.774044 0.425238 0.344305
0.122896 0.163699 0.207004
0.115846 0.160189 0.228000
0.171023 0.130465 0.298711
0.370306 0.107179 0.295659
0.501152 0.151522 0.270329
0.584161 0.266453 0.299931
0.695003 0.344579 0.317082
0.775051 0.432502 0.344671
0.156497 0.194400 0.213687
0.169986 0.205295 0.222660
0.203708 0.243595 0.276707
0.362341 0.229252 0.322026
0.481971 0.275273 0.311376
0.605402 0.333196 0.323674
0.705531 0.397436 0.335210
0.780972 0.466255 0.354803
0.170321 0.280735 0.290715
0.189364 0.292668 0.301091
0.255161 0.329259 0.332555
0.363592 0.379583 0.377661
0.520867 0.404761 0.357733
0.633692 0.433326 0.353979
0.716976 0.470436 0.356268
0.788022 0.519738 0.371649
0.257359 0.484749 0.435523
0.288304 0.494697 0.444862
0.381292 0.517632 0.467903
0.487037 0.523827 0.486549
0.537469 0.521416 0.434363
0.646784 0.513085 0.364935
0.733608 0.566766 0.394629
0.798764 0.591974 0.400885
0.440131 0.622522 0.547265
0.463508 0.624964 0.552453
0.519768 0.627344 0.563226
0.583429 0.631189 0.582635
0.632013 0.635615 0.615381
0.646815 0.616999 0.485206
0.717494 0.569482 0.353124
0.804654 0.650721 0.422553
0.575128 0.698756 0.630579
0.585626 0.699702 0.633936
0.615229 0.702754 0.644282
0.651820 0.708339 0.660243
0.690059 0.714717 0.685878
0.712459 0.720638 0.713558
0.720394 0.691096 0.547051
0.782193 0.631464 0.357458
0.650721 0.767361 0.702785
0.656306 0.768307 0.705043
0.674006 0.771206 0.712367
0.703731 0.777066 0.727718
0.740017 0.786069 0.752926
0.768765 0.791867 0.779019
0.774563 0.794705 0.766476
0.795407 0.766445 0.611505
0.115084 0.189944 0.312871
0.115145 0.186374 0.331151
0.168612 0.166690 0.391302
0.399207 0.000000 0.463569
0.560327 0.105806 0.422431
0.642390 0.231052 0.391974
0.694362 0.329168 0.393713
0.746609 0.460487 0.452216
0.162295 0.227817 0.313512
0.152926 0.220768 0.331273
0.181247 0.200992 0.388983
0.397253 0.097353 0.468238
0.557366 0.163210 0.428046
0.638819 0.259800 0.398108
0.690761 0.351080 0.402502
0.748135 0.466957 0.454078
0.236088 0.264683 0.274876
0.243473 0.279362 0.297307
0.255802 0.302861 0.372442
0.370733 0.253574 0.464607
0.546715 0.283513 0.445197
0.624903 0.336461 0.415686
0.677424 0.412634 0.428687
0.753231 0.487709 0.458320
0.277592 0.332219 0.346960
0.291875 0.340520 0.353552
0.337285 0.366796 0.374243
0.398322 0.414618 0.425452
0.531029 0.416175 0.471717
0.601953 0.438758 0.450050
0.684871 0.480262 0.456458
0.765286 0.524346 0.463996
0.330938 0.446937 0.440284
0.347204 0.453773 0.446174
0.396582 0.474159 0.464179
0.462928 0.502831 0.489967
0.532952 0.531701 0.518059
0.630488 0.544976 0.494301
0.706905 0.559930 0.486580
0.779477 0.587884 0.486061
0.435737 0.598596 0.556359
0.452125 0.603510 0.561852
0.499886 0.618524 0.578668
0.562737 0.637720 0.600397
0.616815 0.637842 0.608392
0.641596 0.630701 0.563470
0.714748 0.615534 0.494911
0.797147 0.670771 0.527733
0.564935 0.707240 0.656245
0.574670 0.707607 0.657679
0.603693 0.709438 0.662837
0.640589 0.713558 0.671443
0.677943 0.718837 0.684199
0.713008 0.724636 0.711879
0.716426 0.700404 0.602350
0.781338 0.661280 0.471717
0.642573 0.772854 0.718715
0.647883 0.773495 0.720089
0.665309 0.775937 0.725002
0.693263 0.781399 0.735134
0.727810 0.788052 0.750912
0.767575 0.797452 0.780270
0.784543 0.802365 0.797147
0.793210 0.771817 0.644282
0.198001 0.277806 0.430426
0.199313 0.273686 0.442969
0.235691 0.259770 0.484810
0.379400 0.201694 0.550256
0.581750 0.122499 0.581292
0.668788 0.271397 0.535302
0.724117 0.380499 0.515007
0.769528 0.459724 0.519280
0.240146 0.309483 0.426429
0.233890 0.302556 0.438849
0.254551 0.287968 0.480476
0.377356 0.239506 0.545098
0.577935 0.174655 0.581476
0.665888 0.296880 0.537621
0.721553 0.394263 0.517479
0.767544 0.466651 0.520806
0.322454 0.365026 0.401495
0.327642 0.372229 0.417884
0.329808 0.373297 0.466773
0.385687 0.345342 0.531945
0.569390 0.293767 0.586786
0.659052 0.373907 0.548425
0.714168 0.439063 0.527672
0.761898 0.490822 0.527337
0.379858 0.400549 0.405005
0.387579 0.405097 0.408057
0.412909 0.421118 0.418524
0.447242 0.465187 0.504051
0.546014 0.433631 0.587335
0.649531 0.470161 0.566491
0.702632 0.498787 0.543114
0.749569 0.539208 0.547021
0.433448 0.479988 0.481361
0.442115 0.484047 0.484749
0.468879 0.497169 0.495369
0.505455 0.515770 0.510094
0.542779 0.544579 0.541558
0.634943 0.553613 0.584039
0.682551 0.556878 0.558373
0.748592 0.588495 0.565209
0.486244 0.573754 0.560082
0.495155 0.577417 0.563653
0.520836 0.587640 0.573663
0.557183 0.602777 0.588617
0.595209 0.619684 0.605188
0.636927 0.637232 0.623682
0.702632 0.643030 0.601465
0.774868 0.656794 0.592187
0.565454 0.678706 0.649592
0.573449 0.681361 0.652796
0.596796 0.689815 0.662745
0.628809 0.705318 0.679713
0.664576 0.726528 0.701076
0.701839 0.727962 0.706661
0.715297 0.713741 0.659480
0.783413 0.704768 0.598810
0.636896 0.772580 0.735592
0.641108 0.774441 0.737697
0.655665 0.781186 0.745205
0.681666 0.787839 0.752987
0.715236 0.793393 0.761044
0.753841 0.800778 0.776120
0.790219 0.809384 0.804929
0.791562 0.780606 0.687434
0.339300 0.393774 0.542779
0.339940 0.389532 0.550683
0.361303 0.378271 0.577081
0.433143 0.346746 0.619165
0.574975 0.264317 0.667842
0.688869 0.300298 0.669276
0.735958 0.416846 0.623987
0.790768 0.508232 0.624262
0.366735 0.416846 0.539117
0.363012 0.410864 0.547204
0.375097 0.398505 0.573693
0.437140 0.370184 0.615900
0.571160 0.299443 0.665217
0.686671 0.324071 0.669703
0.734585 0.430518 0.625910
0.789609 0.515465 0.625849
0.428901 0.465492 0.520836
0.433295 0.469093 0.531823
0.424292 0.457130 0.560143
0.453498 0.437476 0.604303
0.559258 0.393164 0.655970
0.679072 0.392432 0.671199
0.730159 0.472480 0.632441
0.785672 0.538384 0.630915
0.472877 0.474830 0.468025
0.475532 0.481849 0.479377
0.486824 0.503929 0.518883
0.499214 0.517601 0.580072
0.547051 0.496712 0.637873
0.666224 0.477333 0.674220
0.723354 0.529625 0.643061
0.779355 0.570520 0.637507
0.518364 0.532799 0.530022
0.521904 0.534539 0.531121
0.532769 0.539635 0.534081
0.546685 0.545312 0.535241
0.570611 0.579370 0.604761
0.644495 0.561761 0.674525
0.715236 0.589837 0.656764
0.769986 0.606439 0.643458
0.561578 0.600916 0.596979
0.565332 0.602533 0.598383
0.577569 0.607599 0.602808
0.594903 0.614557 0.608576
0.613428 0.621118 0.613092
0.634577 0.637934 0.634302
0.705898 0.648798 0.672663
0.754116 0.643549 0.647089
0.598352 0.664790 0.653834
0.602014 0.666224 0.655329
0.613825 0.671046 0.660334
0.631556 0.679194 0.668788
0.653223 0.690700 0.680690
0.678798 0.705013 0.695430
0.709804 0.718685 0.710170
0.775601 0.722194 0.685084
0.637720 0.743954 0.724178
0.641169 0.745937 0.726253
0.653010 0.752712 0.733577
0.673213 0.764797 0.746487
0.701991 0.782742 0.765377
0.739864 0.807309 0.790646
0.780423 0.813535 0.800931
0.790768 0.794461 0.744533
0.505577 0.533715 0.652003
0.504875 0.530205 0.656092
0.511894 0.521630 0.669734
0.537041 0.502159 0.693965
0.599420 0.462287 0.728084
0.702998 0.399573 0.764218
0.763272 0.464057 0.746273
0.803799 0.542351 0.717006
0.517601 0.545800 0.649104
0.515160 0.541558 0.653315
0.518425 0.532189 0.667231
0.540307 0.514275 0.691585
0.598718 0.477638 0.725978
0.701442 0.414496 0.764462
0.762905 0.474098 0.747860
0.803189 0.548638 0.718166
0.552483 0.578180 0.638300
0.550317 0.575799 0.642634
0.542626 0.564477 0.657679
0.552148 0.549767 0.682856
0.596979 0.522484 0.718318
0.692866 0.467353 0.761776
0.761807 0.505577 0.753445
0.801175 0.568719 0.722011
0.575891 0.591424 0.605737
0.577050 0.594049 0.612207
0.582238 0.601923 0.634241
0.579461 0.596460 0.665309
0.598444 0.579156 0.703365
0.673610 0.544701 0.750027
0.756283 0.551110 0.758816
0.798337 0.598199 0.728298
0.606897 0.608789 0.600092
0.607568 0.608667 0.599451
0.609155 0.607599 0.596307
0.609827 0.618982 0.622248
0.616968 0.630671 0.676753
0.652522 0.613703 0.730343
0.745083 0.600946 0.763424
0.794949 0.633722 0.736934
0.633783 0.651392 0.648249
0.634943 0.651667 0.648341
0.638483 0.652308 0.648157
0.643061 0.651972 0.646113
0.646204 0.648219 0.638666
0.656001 0.668544 0.694301
0.725673 0.654994 0.767727
0.790494 0.677302 0.748867
0.654810 0.695979 0.694545
0.656275 0.696590 0.695155
0.661097 0.698543 0.697047
0.669245 0.701564 0.699886
0.680018 0.704891 0.702693
0.691096 0.706050 0.702235
0.704372 0.717189 0.722103
0.783871 0.732113 0.765896
0.671199 0.744259 0.739559
0.672938 0.745174 0.740505
0.679103 0.748348 0.743893
0.690181 0.754208 0.750149
0.706508 0.763149 0.759579
0.728542 0.775631 0.772732
0.757137 0.792416 0.790249
0.791348 0.808835 0.807858
