data/fiter_cube/29797953/1022865/file.cube
# Created by Adobe Lightroom plugin Export LUT (1.17.0)
# www.johnrellis.com/lightroom/exportlut.htm
# Preset: 电影灰蓝色_10 云集
# Color profile: C:\Program Files (x86)\Common Files\Adobe\Color\Profiles\Recommended\AdobeRGB1998.icc
LUT_3D_SIZE 32
DOMAIN_MIN 0.0 0.0 0.0
DOMAIN_MAX 1.0 1.0 1.0
0.069123 0.076112 0.088075
0.070954 0.076204 0.088014
0.072938 0.076967 0.088228
0.077577 0.078340 0.088869
0.084840 0.080262 0.089387
0.094759 0.082734 0.090333
0.109133 0.085573 0.090791
0.127810 0.089174 0.091188
0.151705 0.092622 0.091218
0.180972 0.096101 0.090730
0.216159 0.099031 0.089723
0.257603 0.100679 0.088045
0.305303 0.100374 0.085542
0.355749 0.097932 0.081941
0.405646 0.094362 0.077943
0.453101 0.092012 0.072969
0.497017 0.093202 0.067414
0.540215 0.100740 0.061250
0.577874 0.115511 0.053529
0.611231 0.135378 0.044678
0.641474 0.158358 0.035370
0.669001 0.183688 0.028473
0.693324 0.209873 0.027466
0.714900 0.235935 0.032898
0.734218 0.261997 0.047364
0.751858 0.288060 0.062379
0.769162 0.315343 0.075135
0.786709 0.344121 0.089693
0.804471 0.374334 0.106844
0.822477 0.405768 0.127382
0.840848 0.438025 0.151980
0.859556 0.471168 0.181643
0.069337 0.076783 0.088594
0.070649 0.077302 0.088533
0.073152 0.078004 0.088411
0.077852 0.079377 0.088808
0.085023 0.081239 0.089601
0.095247 0.083955 0.090242
0.109773 0.086671 0.090944
0.128359 0.090211 0.091096
0.152132 0.093904 0.091096
0.181460 0.097566 0.090547
0.216770 0.100649 0.089540
0.257969 0.102815 0.087800
0.305547 0.102571 0.085298
0.355779 0.100557 0.081971
0.405432 0.097597 0.077638
0.452705 0.095827 0.072999
0.496498 0.097169 0.067445
0.539483 0.104433 0.061372
0.576745 0.118288 0.053407
0.609979 0.137392 0.043824
0.640131 0.159854 0.034821
0.667689 0.184695 0.028107
0.692134 0.210391 0.026276
0.713802 0.236423 0.031556
0.733272 0.262303 0.045136
0.750973 0.288243 0.061006
0.768368 0.315221 0.073762
0.785916 0.343999 0.088930
0.803708 0.373938 0.105837
0.821805 0.405402 0.126375
0.840208 0.437537 0.150454
0.858946 0.470558 0.180209
0.069764 0.078096 0.089601
0.070893 0.078248 0.090394
0.072663 0.079438 0.089448
0.078004 0.080720 0.088991
0.085512 0.082795 0.089479
0.095979 0.085420 0.090364
0.110628 0.088685 0.090761
0.129244 0.092378 0.091157
0.153231 0.096132 0.090852
0.182589 0.099855 0.090547
0.217777 0.103334 0.089479
0.259281 0.105440 0.087678
0.306737 0.105623 0.085145
0.356909 0.104097 0.081727
0.406287 0.101625 0.077363
0.453498 0.100160 0.072328
0.497139 0.101991 0.067018
0.539849 0.109377 0.060914
0.576715 0.122744 0.052705
0.609735 0.141329 0.043030
0.639857 0.163058 0.033051
0.667384 0.187442 0.026368
0.691798 0.212772 0.024537
0.713497 0.238285 0.028931
0.732937 0.263890 0.043702
0.750668 0.289494 0.060517
0.768032 0.316381 0.073365
0.785641 0.344976 0.088045
0.803433 0.374823 0.105379
0.821500 0.406012 0.125704
0.839933 0.438025 0.149935
0.858671 0.470924 0.179568
0.071290 0.080934 0.092103
0.072694 0.081361 0.093111
0.073243 0.081544 0.094148
0.076875 0.083436 0.091798
0.085756 0.085023 0.090120
0.097871 0.089723 0.090242
0.112703 0.092988 0.090883
0.131838 0.096834 0.090944
0.155978 0.100984 0.090822
0.185641 0.104982 0.090150
0.221164 0.108888 0.088960
0.262913 0.111604 0.087251
0.310369 0.112551 0.084504
0.360235 0.111879 0.080964
0.409400 0.110140 0.076448
0.456001 0.109957 0.071565
0.499458 0.112215 0.066072
0.541527 0.119692 0.059846
0.577630 0.132509 0.050935
0.609949 0.149874 0.040070
0.639734 0.170596 0.030274
0.666987 0.193698 0.024048
0.691402 0.218265 0.022126
0.713222 0.243351 0.027283
0.732845 0.268498 0.040558
0.750729 0.293858 0.059510
0.768215 0.320500 0.073091
0.785855 0.348730 0.088075
0.803647 0.378271 0.105379
0.821653 0.408972 0.125765
0.839933 0.440436 0.149966
0.858579 0.472755 0.179232
0.072847 0.084565 0.095247
0.073854 0.085023 0.095949
0.075502 0.085695 0.097414
0.076631 0.085756 0.099123
0.083772 0.089845 0.094087
0.096834 0.091646 0.091218
0.113771 0.098573 0.090913
0.135561 0.105318 0.090547
0.160342 0.109499 0.090333
0.190402 0.114137 0.089479
0.226322 0.118288 0.088350
0.268345 0.121706 0.086397
0.316106 0.123598 0.083314
0.365576 0.123690 0.079530
0.414191 0.123415 0.075013
0.460456 0.124117 0.069825
0.504265 0.127565 0.064057
0.545129 0.135256 0.056916
0.580285 0.147524 0.046937
0.612116 0.163455 0.035920
0.641230 0.182895 0.026276
0.668147 0.204868 0.019898
0.692134 0.228183 0.018311
0.713771 0.252171 0.023560
0.733211 0.276463 0.036927
0.751034 0.300999 0.058473
0.768429 0.326909 0.072023
0.786007 0.354284 0.087312
0.803708 0.383124 0.104860
0.821653 0.413153 0.125460
0.839902 0.443946 0.149508
0.858488 0.475807 0.178927
0.074342 0.089479 0.098878
0.075746 0.090181 0.099550
0.077272 0.090791 0.100923
0.080293 0.092042 0.103639
0.081697 0.092653 0.104952
0.093782 0.098939 0.096223
0.111818 0.100526 0.091890
0.134554 0.109651 0.091249
0.165042 0.121218 0.089601
0.197574 0.128206 0.088441
0.234379 0.132815 0.086976
0.277317 0.136538 0.084657
0.324956 0.139132 0.081453
0.373999 0.140108 0.077546
0.421912 0.141024 0.072572
0.467414 0.142733 0.066896
0.511131 0.147189 0.060670
0.550408 0.155276 0.050477
0.584649 0.166629 0.039490
0.615686 0.181735 0.028138
0.644282 0.199985 0.019165
0.670680 0.220645 0.013703
0.702815 0.252873 0.015564
0.722927 0.275395 0.026337
0.740963 0.298009 0.045838
0.757839 0.321141 0.064302
0.774685 0.345739 0.078218
0.791653 0.371679 0.094240
0.808835 0.399145 0.112093
0.826291 0.427649 0.133059
0.844022 0.456977 0.157748
0.862119 0.487221 0.187228
0.076692 0.097261 0.104250
0.077943 0.097902 0.105104
0.079408 0.099001 0.106111
0.083345 0.101015 0.109682
0.087526 0.101320 0.113832
0.091157 0.105226 0.111574
0.109010 0.113405 0.099001
0.132143 0.112673 0.092378
0.162051 0.124544 0.091005
0.200565 0.138949 0.088502
0.248417 0.154635 0.084169
0.292973 0.158511 0.081392
0.340826 0.161044 0.077852
0.389044 0.162631 0.073274
0.435584 0.164096 0.067994
0.479774 0.166659 0.061860
0.522972 0.172183 0.052003
0.560388 0.180392 0.039673
0.593286 0.191745 0.027802
0.623529 0.206332 0.017517
0.651759 0.224002 0.008972
0.677852 0.244022 0.004822
0.701198 0.265476 0.007477
0.722072 0.287358 0.017762
0.740688 0.309606 0.038819
0.757839 0.331945 0.061707
0.774746 0.355657 0.077211
0.791745 0.380713 0.093233
0.808804 0.406989 0.111452
0.826139 0.434302 0.132601
0.843809 0.462654 0.157107
0.861814 0.492012 0.186618
0.079377 0.108400 0.111543
0.080568 0.109194 0.112306
0.082551 0.110353 0.113680
0.086854 0.112947 0.116884
0.093996 0.115419 0.123201
0.098512 0.115053 0.128481
0.105837 0.123751 0.119387
0.129000 0.132570 0.102419
0.155642 0.126925 0.092958
0.193210 0.141268 0.090303
0.239628 0.158145 0.086702
0.297154 0.176608 0.079835
0.354070 0.188602 0.072541
0.401373 0.189914 0.067323
0.446723 0.191470 0.061677
0.491188 0.194888 0.051301
0.531731 0.200198 0.037720
0.567224 0.207706 0.024353
0.598596 0.217990 0.013001
0.627680 0.230961 0.004334
0.654994 0.247013 0.000000
0.680171 0.265049 0.000000
0.702846 0.284459 0.000000
0.723171 0.304479 0.009735
0.741421 0.324865 0.030884
0.758358 0.345739 0.059693
0.775143 0.368017 0.075593
0.791958 0.391638 0.092195
0.808988 0.416632 0.111025
0.826230 0.442664 0.132296
0.843809 0.469947 0.156893
0.861753 0.498238 0.186374
0.083314 0.124910 0.122042
0.084627 0.125948 0.122896
0.086732 0.127291 0.124269
0.091829 0.129946 0.127810
0.100771 0.134157 0.134524
0.109651 0.135012 0.142184
0.114839 0.135134 0.149660
0.126802 0.149386 0.129793
0.155428 0.157382 0.106722
0.183993 0.143679 0.093019
0.229953 0.160952 0.088808
0.284886 0.179568 0.083162
0.347662 0.198856 0.074159
0.411841 0.219211 0.060121
0.461585 0.225772 0.044526
0.504265 0.228702 0.029419
0.542168 0.233310 0.015503
0.575677 0.239780 0.003082
0.605371 0.248325 0.000000
0.633234 0.259770 0.000000
0.659419 0.273930 0.000000
0.683558 0.289799 0.000000
0.705379 0.306920 0.000000
0.725032 0.324865 0.000824
0.742763 0.343328 0.025513
0.759426 0.362371 0.056733
0.776028 0.383032 0.074586
0.792660 0.405035 0.092042
0.809506 0.428351 0.110842
0.826627 0.453010 0.132570
0.844053 0.478859 0.157351
0.861845 0.505852 0.186618
0.088716 0.147738 0.136080
0.090761 0.148836 0.137148
0.093233 0.150027 0.138643
0.099123 0.153048 0.142153
0.108583 0.157473 0.148592
0.122316 0.161563 0.159579
0.131533 0.161471 0.167636
0.137392 0.162264 0.177066
0.155703 0.182071 0.141787
0.188571 0.187716 0.111635
0.219120 0.167422 0.092653
0.271458 0.182193 0.086183
0.332769 0.201968 0.078706
0.397925 0.222782 0.066804
0.462074 0.245670 0.039063
0.518395 0.268894 0.000000
0.554101 0.271855 0.000000
0.585565 0.276585 0.000000
0.613703 0.283421 0.000000
0.640131 0.292576 0.000000
0.664942 0.304356 0.000000
0.687617 0.317601 0.000000
0.708217 0.332189 0.000000
0.726955 0.347478 0.000000
0.744045 0.363439 0.016632
0.760433 0.380621 0.052003
0.776883 0.399451 0.073030
0.793423 0.419837 0.091432
0.810178 0.441749 0.111452
0.827237 0.464973 0.133272
0.844572 0.489509 0.158419
0.862333 0.515312 0.188083
0.096742 0.176486 0.154147
0.098726 0.177615 0.155306
0.101930 0.179019 0.156832
0.108461 0.181949 0.160616
0.119478 0.186557 0.167025
0.135012 0.192477 0.177584
0.150759 0.194461 0.189334
0.161563 0.194614 0.199832
0.168551 0.201053 0.198947
0.193149 0.221378 0.155612
0.229343 0.223178 0.117861
0.258824 0.195193 0.092866
0.318303 0.205539 0.082063
0.383673 0.226596 0.071901
0.447364 0.248997 0.055177
0.506004 0.273503 0.013489
0.557214 0.300175 0.000000
0.595087 0.317296 0.000000
0.621698 0.321355 0.000000
0.646754 0.328161 0.000000
0.670314 0.337285 0.000000
0.691829 0.347967 0.000000
0.711543 0.359991 0.000000
0.729549 0.372869 0.000000
0.746090 0.386542 0.009766
0.762203 0.401648 0.049226
0.778317 0.418402 0.072938
0.794583 0.436835 0.092226
0.811124 0.456855 0.112520
0.827939 0.478309 0.134524
0.845121 0.501213 0.159884
0.862730 0.525536 0.189303
0.107973 0.212039 0.176516
0.110445 0.213107 0.177615
0.114046 0.214572 0.179232
0.121523 0.217624 0.183108
0.133700 0.222232 0.189456
0.150362 0.228244 0.199008
0.173404 0.233951 0.215000
0.188724 0.234012 0.225895
0.201175 0.234653 0.239200
0.209445 0.247196 0.223056
0.240238 0.266636 0.170993
0.280583 0.264622 0.124910
0.316686 0.233371 0.092592
0.377295 0.235172 0.075288
0.442267 0.257939 0.060731
0.501732 0.282628 0.026154
0.553826 0.309270 0.000000
0.597833 0.336919 0.000000
0.635554 0.365179 0.000000
0.661006 0.374701 0.000000
0.682063 0.380011 0.000000
0.701472 0.387091 0.000000
0.719295 0.395575 0.000000
0.735805 0.405188 0.000000
0.751369 0.416052 0.014252
0.766934 0.428840 0.057191
0.782528 0.443183 0.078614
0.798306 0.459236 0.097841
0.814328 0.476997 0.118410
0.830716 0.496345 0.140475
0.847410 0.517235 0.165805
0.864714 0.539666 0.195163
0.124575 0.256840 0.204685
0.127382 0.257877 0.205875
0.131319 0.259220 0.207492
0.140017 0.262058 0.211276
0.153567 0.266545 0.217411
0.171664 0.272190 0.226688
0.196231 0.278904 0.241001
0.221103 0.281498 0.256931
0.239353 0.281743 0.270634
0.254002 0.283116 0.287114
0.265507 0.303746 0.252171
0.303685 0.322545 0.191012
0.343511 0.313756 0.135103
0.364843 0.267430 0.093904
0.419989 0.259129 0.069551
0.482673 0.283330 0.044617
0.536950 0.309148 0.005585
0.583215 0.336248 0.000000
0.623072 0.364202 0.000000
0.658106 0.392615 0.000000
0.687037 0.417090 0.000000
0.705440 0.420905 0.000000
0.722408 0.426459 0.000000
0.738155 0.433204 0.000000
0.753414 0.441657 0.010193
0.768673 0.452094 0.056855
0.784024 0.464302 0.079469
0.799527 0.478401 0.099886
0.815335 0.494209 0.120211
0.831510 0.511833 0.142977
0.848051 0.530999 0.168093
0.865202 0.551873 0.197543
0.145174 0.304448 0.234836
0.148653 0.305486 0.236149
0.152712 0.306767 0.237766
0.162264 0.309453 0.241489
0.177096 0.313420 0.247562
0.197086 0.318730 0.256565
0.222416 0.324865 0.269535
0.256596 0.330541 0.290166
0.280095 0.331609 0.304601
0.301061 0.333898 0.321416
0.316899 0.337285 0.340276
0.326543 0.359808 0.282414
0.364538 0.373327 0.211826
0.399054 0.357549 0.146609
0.411963 0.303319 0.096956
0.458961 0.283360 0.063294
0.517845 0.308629 0.024811
0.566857 0.334874 0.000000
0.609003 0.362585 0.000000
0.646174 0.390997 0.000000
0.678401 0.418830 0.000000
0.705684 0.444678 0.000000
0.725887 0.458625 0.000000
0.741024 0.462745 0.000000
0.755978 0.468818 0.009827
0.770962 0.477028 0.059968
0.786007 0.487160 0.082765
0.801266 0.499214 0.102937
0.816800 0.513176 0.123995
0.832761 0.528893 0.146548
0.849088 0.546380 0.171908
0.866056 0.565515 0.201114
0.173526 0.354498 0.268467
0.177157 0.355413 0.269810
0.181735 0.356359 0.271458
0.192233 0.358648 0.275242
0.208316 0.362066 0.281498
0.230655 0.367346 0.291173
0.257939 0.373358 0.303990
0.291020 0.379706 0.321721
0.322911 0.382818 0.340642
0.345800 0.383948 0.355749
0.364874 0.386206 0.372686
0.376410 0.392432 0.380621
0.386175 0.411536 0.312230
0.421820 0.419989 0.234867
0.450111 0.398810 0.161074
0.457923 0.340764 0.102083
0.493965 0.307347 0.056794
0.548516 0.333501 0.009216
0.593530 0.360540 0.000000
0.632898 0.388891 0.000000
0.667414 0.417212 0.000000
0.696681 0.443641 0.000000
0.721523 0.467689 0.000000
0.743130 0.489998 0.000000
0.758816 0.497017 0.015198
0.773526 0.503166 0.064607
0.788418 0.511376 0.087770
0.803494 0.521630 0.108827
0.818906 0.533867 0.130282
0.834714 0.547967 0.152987
0.850919 0.563836 0.178683
0.867796 0.581384 0.207858
0.213382 0.406012 0.307073
0.217441 0.406958 0.308598
0.222629 0.407904 0.310277
0.233799 0.410101 0.314366
0.250828 0.413275 0.320745
0.273045 0.417395 0.329656
0.299229 0.422217 0.341100
0.328985 0.427649 0.355657
0.366033 0.432441 0.377264
0.389197 0.432929 0.390784
0.409277 0.433967 0.405554
0.425177 0.435889 0.421668
0.430243 0.444465 0.410681
0.440589 0.457527 0.340551
0.472328 0.461158 0.259525
0.494514 0.436255 0.178286
0.499275 0.377356 0.110231
0.524498 0.330602 0.048219
0.575891 0.358343 0.000000
0.618463 0.386419 0.000000
0.655482 0.415167 0.000000
0.687098 0.442481 0.000000
0.713771 0.467384 0.000000
0.736599 0.490028 0.000000
0.757717 0.512139 0.036713
0.776883 0.530938 0.074281
0.791440 0.537163 0.096345
0.806241 0.545464 0.117159
0.821317 0.555779 0.138399
0.836759 0.567834 0.160891
0.852628 0.581659 0.186130
0.869169 0.597314 0.214511
0.260349 0.453651 0.346227
0.263981 0.454200 0.347387
0.268803 0.454902 0.349096
0.279362 0.456550 0.352575
0.295171 0.458869 0.358373
0.315496 0.461952 0.366247
0.339849 0.465614 0.376349
0.366918 0.469703 0.388861
0.397894 0.473823 0.405402
0.427008 0.475868 0.422919
0.446906 0.476234 0.436011
0.463539 0.477272 0.450172
0.476112 0.479164 0.465095
0.476753 0.488685 0.436988
0.487495 0.497047 0.367224
0.515648 0.497292 0.285405
0.533013 0.470680 0.198795
0.536248 0.412940 0.122286
0.552483 0.354040 0.038788
0.601282 0.383124 0.000000
0.641413 0.411688 0.000000
0.675624 0.439887 0.000000
0.704463 0.465675 0.000000
0.728939 0.489052 0.000885
0.750790 0.511223 0.051911
0.771847 0.533562 0.081178
0.791989 0.555901 0.105043
0.808774 0.569360 0.126864
0.823575 0.577752 0.147585
0.838743 0.588067 0.170016
0.854398 0.600092 0.194614
0.870756 0.613977 0.222263
0.308782 0.496132 0.384039
0.312505 0.496681 0.385321
0.325597 0.504295 0.393439
0.335058 0.505394 0.396735
0.349340 0.506950 0.401801
0.367346 0.508995 0.408545
0.388830 0.511437 0.417243
0.412696 0.514214 0.427863
0.438300 0.517418 0.440803
0.468269 0.520195 0.459480
0.487282 0.520287 0.471382
0.502922 0.520562 0.483436
0.515496 0.521324 0.496071
0.524620 0.522759 0.509331
0.522118 0.531456 0.466285
0.532555 0.535821 0.397742
0.557244 0.533623 0.315770
0.570886 0.506249 0.225559
0.572900 0.450752 0.139834
0.585565 0.388128 0.035767
0.627314 0.410315 0.000000
0.664668 0.438666 0.000000
0.695644 0.465095 0.000000
0.721736 0.489143 0.009674
0.744320 0.511162 0.061494
0.765835 0.533440 0.086488
0.786496 0.555688 0.109865
0.806424 0.577783 0.133608
0.825772 0.599603 0.158450
0.840818 0.608820 0.180606
0.856229 0.619013 0.204379
0.872282 0.631037 0.230930
0.359319 0.535241 0.422309
0.363409 0.536370 0.424201
0.368597 0.537652 0.426337
0.377905 0.539239 0.430121
0.391180 0.541009 0.435157
0.407630 0.542901 0.441474
0.426520 0.544915 0.449226
0.447395 0.547143 0.458595
0.469673 0.549767 0.469795
0.493599 0.552361 0.483925
0.516106 0.553735 0.499062
0.530938 0.553826 0.509545
0.543481 0.554253 0.520714
0.553399 0.555077 0.532372
0.559960 0.556664 0.542870
0.556359 0.564172 0.488685
0.566888 0.566094 0.422339
0.589227 0.562432 0.341985
0.600519 0.535180 0.251713
0.602472 0.483192 0.159243
0.613825 0.422736 0.052857
0.648646 0.434180 0.000000
0.683619 0.461738 0.000000
0.712215 0.486641 0.001556
0.736263 0.509422 0.059205
0.758663 0.531884 0.086397
0.780209 0.554559 0.110933
0.800931 0.577142 0.135653
0.820951 0.599481 0.161471
0.840360 0.621271 0.189059
0.858213 0.638544 0.215824
0.874022 0.648829 0.241367
0.404425 0.567742 0.456458
0.408118 0.568750 0.458198
0.412696 0.569757 0.460212
0.420600 0.571069 0.463386
0.432136 0.572534 0.467964
0.446265 0.574029 0.473548
0.462470 0.575677 0.480323
0.480323 0.577600 0.488411
0.499428 0.579858 0.498177
0.519005 0.582330 0.509361
0.541833 0.584527 0.525231
0.556786 0.584833 0.535668
0.568872 0.585016 0.545464
0.579004 0.585565 0.555840
0.586755 0.586419 0.566552
0.588708 0.589227 0.563165
0.587304 0.594049 0.511009
0.597742 0.594202 0.447364
0.618372 0.589654 0.369207
0.627924 0.562921 0.279759
0.630152 0.514336 0.182345
0.639490 0.456519 0.075807
0.668788 0.457374 0.000000
0.701228 0.483711 0.000000
0.727596 0.507134 0.043915
0.750881 0.529839 0.082368
0.773312 0.552789 0.109041
0.794858 0.575891 0.135042
0.815640 0.598718 0.162051
0.835782 0.621149 0.190616
0.855436 0.642756 0.220005
0.874846 0.663691 0.251133
0.446693 0.597375 0.488991
0.449775 0.598199 0.490517
0.453590 0.599145 0.492348
0.460395 0.600244 0.495247
0.470100 0.601434 0.499245
0.481941 0.602686 0.504143
0.495705 0.604028 0.510124
0.510948 0.605554 0.517296
0.527489 0.607324 0.525780
0.544549 0.609369 0.535607
0.562921 0.611353 0.548028
0.580499 0.612482 0.561212
0.591638 0.612482 0.569818
0.601282 0.612726 0.578790
0.609155 0.613367 0.588098
0.615167 0.614374 0.597528
0.614496 0.617792 0.583062
0.614923 0.620905 0.533928
0.625422 0.620233 0.473487
0.644831 0.615625 0.398749
0.653590 0.590112 0.311437
0.656886 0.545464 0.211765
0.664912 0.490242 0.100923
0.689204 0.481697 0.022644
0.719295 0.506676 0.043549
0.744198 0.529412 0.076967
0.767605 0.552911 0.107454
0.790036 0.576593 0.135744
0.811704 0.600092 0.164401
0.832517 0.623041 0.194369
0.852842 0.645228 0.225498
0.872862 0.666712 0.257877
0.488289 0.626093 0.522423
0.490517 0.626459 0.523400
0.493141 0.626825 0.524559
0.498482 0.627436 0.526787
0.506340 0.628168 0.530114
0.516289 0.628992 0.534417
0.527947 0.630060 0.539727
0.541131 0.631220 0.546197
0.555444 0.632776 0.553918
0.570550 0.634485 0.562860
0.585626 0.636439 0.572869
0.602594 0.638025 0.586145
0.613794 0.638361 0.594873
0.622522 0.638514 0.602502
0.629969 0.638880 0.610315
0.636042 0.639551 0.618402
0.640558 0.640528 0.626673
0.638178 0.643732 0.603296
0.639673 0.645319 0.557671
0.649622 0.643763 0.499794
0.667536 0.638819 0.428351
0.675319 0.614069 0.342992
0.679164 0.572778 0.242954
0.686213 0.520012 0.128817
0.706477 0.502739 0.055604
0.734585 0.526635 0.071870
0.759426 0.549950 0.097963
0.783047 0.574121 0.128389
0.805631 0.598352 0.159335
0.827390 0.622156 0.191348
0.848447 0.645075 0.224063
0.869230 0.667384 0.258030
0.522484 0.648737 0.550835
0.524376 0.649073 0.551720
0.526665 0.649439 0.552880
0.531273 0.649866 0.554925
0.537926 0.650446 0.557855
0.546380 0.651087 0.561761
0.556420 0.651881 0.566583
0.567742 0.652827 0.572412
0.580041 0.654078 0.579309
0.592828 0.655543 0.587060
0.605737 0.657191 0.595666
0.619226 0.658839 0.605921
0.631983 0.659968 0.616571
0.639948 0.660029 0.623102
0.646937 0.660304 0.629877
0.652888 0.660853 0.636896
0.657710 0.661646 0.644099
0.661341 0.662745 0.651484
0.658137 0.665583 0.621332
0.660487 0.666255 0.579370
0.670130 0.664332 0.525017
0.686946 0.659419 0.457130
0.694209 0.635889 0.375006
0.699001 0.598016 0.276188
0.704768 0.546868 0.158053
0.722225 0.522301 0.074678
0.749752 0.546349 0.090394
0.774807 0.570672 0.118318
0.798642 0.595392 0.149599
0.821439 0.620111 0.184024
0.843473 0.644099 0.219028
0.865171 0.667353 0.255100
0.555840 0.670008 0.579522
0.557519 0.670344 0.580377
0.559442 0.670558 0.581353
0.563195 0.670863 0.583124
0.568719 0.671260 0.585687
0.575616 0.671717 0.589014
0.583886 0.672267 0.593194
0.593194 0.672999 0.598169
0.603326 0.673976 0.603876
0.613947 0.675196 0.610437
0.624689 0.676661 0.617670
0.635370 0.678370 0.625513
0.647486 0.679927 0.635767
0.655848 0.680415 0.642664
0.662165 0.680476 0.648249
0.667842 0.680751 0.654200
0.672755 0.681239 0.660517
0.676814 0.682033 0.667292
0.678706 0.683558 0.668788
0.676295 0.685695 0.637415
0.679377 0.685695 0.598901
0.688594 0.683375 0.548577
0.704189 0.678340 0.484077
0.710536 0.655360 0.405280
0.715663 0.620111 0.308385
0.722164 0.572869 0.191012
0.738064 0.542382 0.093904
0.765927 0.567468 0.110842
0.791257 0.592584 0.140017
0.815305 0.617823 0.173495
0.838407 0.642908 0.211429
0.861051 0.667231 0.249943
0.582544 0.687709 0.603662
0.583886 0.688014 0.604456
0.585534 0.688258 0.605341
0.588617 0.688594 0.606867
0.593225 0.688991 0.609216
0.599023 0.689570 0.612207
0.606043 0.690272 0.615930
0.613947 0.691218 0.620325
0.622583 0.692378 0.625452
0.631739 0.693812 0.631250
0.641108 0.695521 0.637568
0.650507 0.697505 0.644404
0.660609 0.699489 0.652644
0.670893 0.701015 0.661738
0.677211 0.701167 0.667048
0.683040 0.701381 0.672694
0.688228 0.701808 0.678645
0.692714 0.702510 0.685023
0.696437 0.703548 0.691768
0.696498 0.705409 0.685237
0.695186 0.706813 0.654322
0.698848 0.706233 0.618769
0.707637 0.703456 0.572747
0.721706 0.697932 0.512078
0.727718 0.676173 0.437293
0.733120 0.643275 0.343236
0.739376 0.598718 0.227115
0.755093 0.563958 0.113527
0.783291 0.590204 0.134188
0.809171 0.616327 0.165438
0.833707 0.642206 0.202121
0.857450 0.667689 0.243900
0.605921 0.705898 0.626642
0.607019 0.706172 0.627283
0.608240 0.706355 0.627985
0.610773 0.706630 0.629297
0.614496 0.707088 0.631220
0.619379 0.707637 0.633814
0.625238 0.708431 0.637018
0.631952 0.709438 0.640864
0.639429 0.710719 0.645350
0.647303 0.712245 0.650385
0.655604 0.714076 0.656031
0.664393 0.716121 0.662409
0.673396 0.718318 0.669490
0.684108 0.720241 0.679103
0.691768 0.721004 0.685878
0.697505 0.721218 0.691096
0.702754 0.721523 0.696651
0.707454 0.722072 0.702510
0.711513 0.722927 0.708736
0.714809 0.724056 0.715297
0.713497 0.725978 0.701198
0.713100 0.726833 0.670802
0.717189 0.725856 0.636683
0.725826 0.722927 0.594781
0.738521 0.717006 0.538811
0.744472 0.696529 0.467811
0.750301 0.665919 0.377142
0.756802 0.624231 0.262974
0.772519 0.586023 0.133700
0.801114 0.613519 0.158755
0.827695 0.640528 0.192721
0.852934 0.666896 0.233524
0.625269 0.723537 0.647333
0.626123 0.723751 0.647822
0.627192 0.723964 0.648463
0.629328 0.724331 0.649592
0.632624 0.724849 0.651392
0.636927 0.725612 0.653834
0.642237 0.726711 0.656916
0.648341 0.728054 0.660670
0.655299 0.729702 0.665095
0.662989 0.731624 0.670253
0.671260 0.733761 0.676112
0.679927 0.736049 0.682673
0.688808 0.738491 0.689815
0.698451 0.740841 0.698299
0.708339 0.742855 0.707668
0.714015 0.743008 0.712551
0.719265 0.743343 0.717647
0.724025 0.743771 0.723049
0.728267 0.744472 0.728756
0.731930 0.745388 0.734737
0.734859 0.746548 0.740932
0.732448 0.748318 0.720180
0.732784 0.748775 0.690639
0.737331 0.747555 0.657069
0.745815 0.744564 0.618555
0.757351 0.738430 0.568139
0.763363 0.719173 0.501183
0.769711 0.690883 0.414954
0.776944 0.652583 0.304143
0.795438 0.618769 0.172885
0.822629 0.641413 0.192721
0.850156 0.669001 0.229618
0.643793 0.742763 0.668513
0.644434 0.742916 0.668940
0.645319 0.743069 0.669398
0.647181 0.743404 0.670405
0.650019 0.743923 0.671992
0.653864 0.744594 0.674189
0.658656 0.745541 0.676997
0.664302 0.746731 0.680476
0.670771 0.748165 0.684657
0.677943 0.749844 0.689509
0.685664 0.751705 0.694972
0.693782 0.753811 0.701045
0.702174 0.756039 0.707759
0.710719 0.758389 0.714961
