data/fiter_cube/21023058/1023009/file.cube
# Created by Adobe Lightroom plugin Export LUT (1.17.0)
# www.johnrellis.com/lightroom/exportlut.htm
# Preset: 温暖焦糖婚礼婚纱_05 云集
# Color profile: C:\Program Files (x86)\Common Files\Adobe\Color\Profiles\Recommended\AdobeRGB1998.icc
LUT_3D_SIZE 5
DOMAIN_MIN 0.000000 0.000000 0.000000
DOMAIN_MAX 0.903226 0.903226 0.903226
0.033082 0.037049 0.024231
0.148043 0.075959 0.062654
0.514488 0.179446 0.133394
0.753750 0.447059 0.336736
0.885435 0.673060 0.606073
0.071901 0.099825 0.063661
0.109804 0.107057 0.077638
0.477028 0.229709 0.102144
0.742916 0.460487 0.312108
0.881498 0.673335 0.594293
0.157290 0.360540 0.163241
0.222385 0.367010 0.178561
0.386450 0.368719 0.250462
0.691676 0.542473 0.352636
0.871763 0.686305 0.562158
0.407568 0.630335 0.399298
0.421668 0.636652 0.405402
0.544366 0.606867 0.441566
0.658808 0.635889 0.526513
0.830655 0.759335 0.662074
0.683497 0.799710 0.648951
0.688838 0.803250 0.654505
0.717678 0.811337 0.675319
0.785336 0.799802 0.711421
0.846616 0.828031 0.771633
0.104311 0.084504 0.157565
0.176669 0.111238 0.132570
0.564721 0.268345 0.250523
0.758785 0.466987 0.360388
0.888792 0.680262 0.614130
0.051637 0.142000 0.152621
0.216007 0.200778 0.189273
0.535698 0.305425 0.224949
0.748379 0.476814 0.335760
0.885893 0.682002 0.604913
0.062593 0.387884 0.238132
0.266819 0.443153 0.287633
0.455146 0.432258 0.339605
0.702296 0.551965 0.367956
0.875120 0.691188 0.570428
0.374182 0.641779 0.435218
0.390448 0.648310 0.440986
0.573846 0.631739 0.487434
0.661189 0.636103 0.528069
0.835080 0.761440 0.663203
0.677668 0.802182 0.654017
0.684535 0.805112 0.658320
0.716091 0.809171 0.672816
0.784665 0.798459 0.710201
0.846647 0.827634 0.771389
0.416724 0.282078 0.568017
0.499031 0.310460 0.533288
0.585199 0.420264 0.488472
0.782406 0.591669 0.598932
0.893187 0.719753 0.691768
0.381994 0.388830 0.591821
0.493141 0.405646 0.565789
0.596338 0.477516 0.515312
0.778836 0.612299 0.608240
0.891386 0.719020 0.682582
0.129030 0.504570 0.537957
0.336004 0.532616 0.550958
0.626703 0.600214 0.581933
0.755367 0.624201 0.569635
0.884062 0.721218 0.649500
0.208286 0.674403 0.570001
0.359625 0.685054 0.578241
0.638636 0.708614 0.618860
0.724514 0.700893 0.645167
0.855680 0.772091 0.679164
0.644709 0.815244 0.690852
0.653193 0.816953 0.691341
0.699062 0.823484 0.700649
0.797696 0.814694 0.737209
0.849729 0.829557 0.774990
0.672145 0.582330 0.767849
0.697871 0.587793 0.756222
0.747585 0.619287 0.719844
0.778988 0.668086 0.702693
0.893553 0.788968 0.801877
0.669429 0.614649 0.772854
0.695277 0.620386 0.763638
0.749966 0.642969 0.730617
0.781704 0.684382 0.711482
0.894347 0.792569 0.803616
0.597559 0.680262 0.782406
0.646540 0.685542 0.780545
0.744045 0.699825 0.762387
0.787228 0.722835 0.732509
0.895750 0.798123 0.801907
0.481178 0.717037 0.742428
0.542138 0.724758 0.745724
0.675013 0.747951 0.755428
0.803433 0.782193 0.772091
0.889220 0.799344 0.766629
0.566491 0.832914 0.780301
0.576135 0.835660 0.780880
0.651637 0.843870 0.784146
0.811521 0.853666 0.800534
0.873228 0.855100 0.828397
0.822477 0.773953 0.883970
0.831052 0.773251 0.880797
0.855222 0.777310 0.870085
0.875395 0.791928 0.852018
0.891661 0.819669 0.848661
0.819547 0.773404 0.883970
0.828000 0.775082 0.881285
0.852873 0.782589 0.871763
0.874907 0.796750 0.852934
0.891783 0.823117 0.850431
0.804837 0.797208 0.890013
0.813260 0.796597 0.887999
0.843015 0.800107 0.879576
0.875090 0.811215 0.862150
0.894499 0.837736 0.859190
0.744503 0.818357 0.887510
0.757687 0.820798 0.887541
0.802609 0.829984 0.889036
0.869322 0.839719 0.882902
0.899504 0.861936 0.874113
0.711238 0.848692 0.877806
0.709743 0.848966 0.877043
0.743740 0.855772 0.878965
0.829679 0.871855 0.885130
0.907256 0.894316 0.894713
