data/fiter_cube/21023058/1023009/file.cube
# Created by Adobe Lightroom plugin Export LUT (1.17.0)
# www.johnrellis.com/lightroom/exportlut.htm
# Preset: 温暖焦糖婚礼婚纱_05 云集
# Color profile: C:\Program Files (x86)\Common Files\Adobe\Color\Profiles\Recommended\AdobeRGB1998.icc
LUT_3D_SIZE 8
DOMAIN_MIN 0.000000 0.000000 0.000000
DOMAIN_MAX 0.903226 0.903226 0.903226
0.033082 0.037049 0.024231
0.074556 0.060670 0.044709
0.187259 0.081544 0.067445
0.404303 0.122072 0.102327
0.603540 0.257359 0.177707
0.729152 0.412085 0.299443
0.815915 0.545586 0.454780
0.885435 0.673060 0.606073
0.056245 0.065583 0.044923
0.067201 0.067323 0.051942
0.176242 0.096803 0.062959
0.396216 0.145571 0.095521
0.600275 0.273167 0.170809
0.728878 0.421851 0.296574
0.816190 0.551049 0.454017
0.885679 0.675929 0.605982
0.077821 0.120851 0.070222
0.087465 0.123964 0.072694
0.135134 0.130282 0.091035
0.333288 0.215518 0.106630
0.567559 0.304082 0.134371
0.711604 0.434577 0.263951
0.806455 0.552941 0.429603
0.880888 0.674952 0.591974
0.119203 0.261418 0.119844
0.124147 0.269505 0.121706
0.203098 0.252232 0.140658
0.289067 0.275029 0.180514
0.493233 0.392645 0.235538
0.676692 0.479347 0.264958
0.792996 0.566033 0.392554
0.875303 0.680873 0.573999
0.213046 0.454566 0.220890
0.219120 0.459388 0.223270
0.291722 0.455940 0.238621
0.379614 0.416236 0.267582
0.478096 0.457099 0.330846
0.619684 0.549950 0.425849
0.766049 0.629297 0.467384
0.865080 0.699580 0.563012
0.366339 0.600946 0.363378
0.368902 0.601221 0.362921
0.395239 0.609888 0.374548
0.484291 0.582483 0.392493
0.553368 0.569970 0.432197
0.626398 0.603143 0.489815
0.719051 0.672053 0.587488
0.837919 0.749752 0.641047
0.533623 0.711940 0.508141
0.536248 0.712856 0.509361
0.547906 0.717739 0.515953
0.586694 0.714748 0.530632
0.646113 0.699306 0.554528
0.694972 0.699397 0.589166
0.744076 0.723018 0.635218
0.808316 0.773281 0.713924
0.683497 0.799710 0.648951
0.685176 0.800778 0.650660
0.690486 0.804318 0.656214
0.699367 0.810208 0.665492
0.738827 0.807370 0.684016
0.776944 0.800900 0.705196
0.811978 0.808652 0.735134
0.846616 0.828031 0.771633
0.065095 0.061891 0.068208
0.078340 0.067140 0.064271
0.218601 0.096284 0.091981
0.417029 0.145113 0.114412
0.606500 0.271427 0.177096
0.733120 0.422583 0.303838
0.818997 0.552544 0.460609
0.887755 0.678157 0.611597
0.052796 0.072694 0.067567
0.087892 0.085756 0.076356
0.205783 0.115084 0.089174
0.405768 0.162936 0.107210
0.600488 0.282109 0.168826
0.730709 0.428626 0.298222
0.818662 0.556756 0.458778
0.888060 0.681086 0.611658
0.065675 0.130190 0.086732
0.101900 0.153719 0.100618
0.163668 0.154818 0.116701
0.352728 0.229618 0.118929
0.571832 0.312169 0.135195
0.715297 0.441932 0.267948
0.810666 0.560723 0.437812
0.883879 0.681025 0.599329
0.100008 0.277409 0.142763
0.123995 0.292149 0.150851
0.238773 0.295018 0.178897
0.310430 0.293584 0.199924
0.506218 0.403998 0.243748
0.684962 0.489723 0.276371
0.798062 0.573754 0.402899
0.878508 0.686824 0.581842
0.194369 0.463966 0.242557
0.201083 0.468971 0.244785
0.319829 0.485756 0.280613
0.400366 0.433356 0.291661
0.484535 0.461891 0.336431
0.626154 0.555322 0.430030
0.769467 0.632959 0.472297
0.867704 0.702937 0.567834
0.357427 0.607507 0.379156
0.362280 0.609583 0.380682
0.405158 0.618799 0.396521
0.499001 0.593439 0.412970
0.557427 0.572320 0.435584
0.628382 0.604303 0.491615
0.722011 0.674342 0.588800
0.840269 0.751858 0.643610
0.531975 0.716579 0.517296
0.535821 0.718135 0.519341
0.547082 0.722438 0.524834
0.592950 0.716915 0.536400
0.648798 0.699886 0.556786
0.697322 0.701015 0.591730
0.746365 0.725032 0.638117
0.811429 0.776394 0.718044
0.685084 0.801175 0.651270
0.686763 0.801877 0.652399
0.691951 0.805325 0.657771
0.700526 0.811063 0.666773
0.737453 0.805905 0.682216
0.776547 0.800198 0.704555
0.812619 0.809140 0.735897
0.847562 0.828885 0.772946
0.125887 0.096529 0.206668
0.165896 0.097719 0.183993
0.229709 0.137514 0.171298
0.496345 0.233066 0.270085
0.640314 0.350927 0.321111
0.738338 0.455085 0.377539
0.818723 0.555108 0.462654
0.888579 0.679622 0.613672
0.110628 0.128054 0.233036
0.170352 0.134798 0.216556
0.245609 0.169528 0.192447
0.501152 0.272282 0.289036
0.636286 0.363226 0.318883
0.736385 0.460273 0.372930
0.818112 0.558343 0.459785
0.888396 0.681392 0.612573
0.030213 0.180789 0.200900
0.105776 0.200443 0.214267
0.281376 0.262028 0.249760
0.465766 0.312718 0.262669
0.612787 0.384131 0.289738
0.723629 0.470283 0.346227
0.811612 0.563470 0.440711
0.885588 0.683772 0.603510
0.000000 0.302403 0.232395
0.073243 0.328435 0.246006
0.302098 0.396704 0.297307
0.410986 0.388128 0.325383
0.566827 0.455695 0.325444
0.698421 0.500298 0.319219
0.799130 0.574853 0.405249
0.880034 0.688502 0.585718
0.107301 0.481636 0.311528
0.140688 0.489357 0.317876
0.344701 0.525719 0.366613
0.474647 0.506920 0.395850
0.535882 0.510918 0.420508
0.650385 0.576349 0.458625
0.772793 0.633356 0.472084
0.870756 0.702937 0.568353
0.315282 0.618677 0.421454
0.319402 0.621057 0.423713
0.412848 0.633783 0.448341
0.542901 0.635004 0.485786
0.591394 0.601587 0.490669
0.644465 0.619165 0.518120
0.728634 0.678004 0.588006
0.843992 0.752651 0.643488
0.510765 0.722255 0.535546
0.514244 0.723720 0.537285
0.527062 0.728267 0.542107
0.616968 0.735439 0.579400
0.664210 0.712184 0.583124
0.701137 0.702998 0.597314
0.746456 0.724025 0.637507
0.813657 0.778256 0.721401
0.676295 0.804318 0.658137
0.678828 0.805234 0.659449
0.686000 0.808255 0.663722
0.696773 0.812497 0.669764
0.738155 0.805814 0.682643
0.776761 0.799710 0.704463
0.812741 0.808896 0.735775
0.847593 0.828519 0.772702
0.301671 0.196750 0.471839
0.344091 0.197330 0.452216
0.424964 0.241459 0.404547
0.489021 0.316320 0.391760
0.666651 0.460456 0.491707
0.760830 0.545647 0.542931
0.826413 0.613825 0.580529
0.892363 0.699123 0.651667
0.298955 0.238621 0.479072
0.343053 0.244541 0.466987
0.433600 0.276066 0.423743
0.494575 0.342779 0.404639
0.667140 0.471168 0.496132
0.758419 0.548363 0.540307
0.825284 0.615290 0.578149
0.892088 0.699611 0.649256
0.174960 0.349004 0.501884
0.259037 0.352300 0.502037
0.436561 0.373114 0.480812
0.514427 0.420264 0.445380
0.667201 0.500999 0.505852
0.747127 0.553185 0.525139
0.817716 0.613886 0.561517
0.888731 0.698177 0.636591
0.000000 0.400214 0.443549
0.128298 0.415106 0.450813
0.335027 0.458503 0.471626
0.538903 0.512566 0.496681
0.642878 0.531121 0.487892
0.730251 0.565454 0.497414
0.808713 0.620478 0.537285
0.884276 0.701625 0.618585
0.000000 0.502953 0.438453
0.000000 0.519799 0.452003
0.317418 0.560998 0.485969
0.545312 0.594995 0.521294
0.612970 0.586877 0.537713
0.701564 0.621759 0.532525
0.790738 0.646113 0.524193
0.876799 0.708217 0.588128
0.208652 0.635584 0.502434
0.214176 0.636500 0.501762
0.395575 0.652796 0.521447
0.566369 0.671687 0.557153
0.644251 0.653712 0.572961
0.686519 0.661799 0.593225
0.757443 0.705348 0.625971
0.852293 0.754330 0.644587
0.469734 0.733059 0.576287
0.473304 0.734035 0.576684
0.487007 0.737453 0.578119
0.606775 0.744015 0.607263
0.692073 0.740322 0.636744
0.723079 0.722469 0.641321
0.759884 0.737209 0.664912
0.820920 0.783413 0.725338
0.656703 0.809812 0.674372
0.659052 0.810391 0.674891
0.668025 0.812619 0.676692
0.682918 0.816922 0.681178
0.748104 0.821714 0.711574
0.783108 0.807919 0.718624
0.813107 0.808743 0.735836
0.848264 0.828428 0.773129
0.510552 0.376562 0.640955
0.530632 0.379400 0.632197
0.582666 0.407385 0.608331
0.618891 0.448798 0.568688
0.657557 0.504997 0.562524
0.762387 0.619501 0.636225
0.835447 0.672206 0.675715
0.894408 0.742916 0.732692
0.509026 0.405737 0.643519
0.528344 0.409796 0.636286
0.581750 0.429999 0.613916
0.622858 0.468757 0.574975
0.659724 0.517906 0.568383
0.762356 0.623774 0.638148
0.834806 0.674983 0.676753
0.894041 0.742794 0.730739
0.478279 0.478187 0.660700
0.505974 0.482307 0.654841
0.574884 0.493965 0.636561
0.634638 0.518669 0.600855
0.667170 0.557488 0.587610
0.763210 0.638453 0.645319
0.832731 0.686427 0.681544
0.893156 0.742763 0.723812
0.367071 0.546685 0.650538
0.405524 0.553155 0.652216
0.509392 0.571221 0.655818
0.632959 0.585107 0.639551
0.677333 0.611017 0.615412
0.762264 0.655177 0.649805
0.825101 0.688685 0.667964
0.890745 0.739864 0.705409
0.253269 0.582788 0.609583
0.303899 0.588067 0.611963
0.433234 0.605524 0.620264
0.574243 0.633265 0.632990
0.690394 0.665431 0.647059
0.747372 0.666621 0.630976
0.812436 0.688746 0.636439
0.885100 0.741970 0.680934
0.098238 0.641871 0.587671
0.200015 0.651637 0.596216
0.383642 0.674952 0.618219
0.556725 0.700252 0.644068
0.692439 0.716030 0.661860
0.733669 0.710292 0.672206
0.792050 0.732631 0.667597
0.871763 0.762875 0.673915
0.393957 0.749905 0.650141
0.399908 0.750973 0.649989
0.457069 0.754421 0.651270
0.590539 0.759915 0.661677
0.701625 0.768276 0.684260
0.753262 0.754086 0.694789
0.786282 0.764309 0.713649
0.845762 0.804868 0.750301
0.627039 0.820768 0.711543
0.630030 0.821378 0.711696
0.640497 0.823423 0.711727
0.657527 0.825589 0.709346
0.729732 0.830869 0.726772
0.797116 0.829191 0.753323
0.825467 0.821286 0.763485
0.854002 0.833982 0.784726
0.640528 0.541009 0.742794
0.650843 0.540826 0.738308
0.681025 0.554559 0.726741
0.715724 0.575921 0.704829
0.730312 0.595605 0.677424
0.758053 0.639704 0.677272
0.834989 0.728756 0.743130
0.894072 0.778042 0.788449
0.643091 0.555840 0.745541
0.652888 0.558984 0.742306
0.682277 0.569421 0.730770
0.717311 0.587793 0.709377
0.733211 0.606348 0.682185
0.759274 0.646448 0.680781
0.835569 0.731136 0.744625
0.894347 0.779232 0.788968
0.634730 0.594171 0.752224
0.645289 0.596338 0.749508
0.676875 0.603174 0.739071
0.716335 0.616236 0.719722
0.739590 0.634546 0.694148
0.761563 0.665126 0.690150
0.836240 0.737026 0.747768
0.894682 0.781643 0.789029
0.589685 0.634241 0.759701
0.607446 0.637842 0.759182
0.658656 0.650233 0.755184
0.708858 0.656397 0.737240
0.745785 0.670008 0.711391
0.764981 0.691341 0.703853
0.836667 0.744472 0.750454
0.894621 0.785763 0.788205
0.522576 0.667933 0.745663
0.540978 0.671321 0.746212
0.597314 0.683467 0.748470
0.669612 0.702419 0.752987
0.745357 0.710018 0.742000
0.773526 0.724605 0.724697
0.838193 0.753231 0.751369
0.893370 0.788418 0.778561
0.445197 0.694636 0.719539
0.467323 0.696803 0.720211
0.535363 0.705501 0.723629
0.623957 0.720424 0.729641
0.707393 0.739773 0.738491
0.782956 0.761135 0.748623
0.825223 0.756832 0.729183
0.887602 0.785855 0.746883
0.331609 0.732113 0.694087
0.344945 0.734279 0.695064
0.450568 0.748775 0.708888
0.573510 0.770199 0.729763
0.686244 0.786984 0.747127
0.781857 0.799252 0.758602
0.818235 0.797238 0.770596
0.871336 0.823026 0.776883
0.575433 0.832883 0.770016
0.578363 0.833799 0.770413
0.589380 0.836515 0.770504
0.611475 0.838987 0.765499
0.706538 0.842649 0.769100
0.795193 0.848783 0.785397
0.842039 0.840146 0.799557
0.868833 0.850187 0.818692
0.746883 0.678584 0.828519
0.752743 0.679072 0.826841
0.768460 0.680323 0.819181
0.790005 0.688838 0.806607
0.809354 0.702205 0.788205
0.812955 0.708309 0.768124
0.835691 0.738582 0.771847
0.891112 0.816403 0.832456
0.744350 0.676234 0.826230
0.749844 0.678248 0.824887
0.765377 0.682612 0.818326
0.787503 0.690578 0.806088
0.807279 0.702724 0.787472
0.811032 0.708522 0.766720
0.833219 0.737423 0.769619
0.889647 0.814817 0.830472
0.741604 0.696376 0.831662
0.746456 0.697108 0.829923
0.762142 0.699580 0.823484
0.785794 0.705379 0.812131
0.807858 0.714809 0.794247
0.814817 0.722103 0.774228
0.835691 0.748104 0.776242
0.891600 0.820829 0.835050
0.728695 0.723384 0.840391
0.734066 0.723568 0.838743
0.751705 0.724331 0.832883
0.780056 0.728481 0.823087
0.808316 0.735378 0.807309
0.822538 0.744900 0.788174
0.839963 0.765194 0.787198
0.893919 0.827115 0.839475
0.677363 0.745602 0.838376
0.685664 0.745815 0.837675
0.713649 0.747585 0.836362
0.756985 0.753750 0.835172
0.798520 0.757443 0.821866
0.826688 0.766384 0.801358
0.841642 0.781643 0.796292
0.895659 0.832303 0.841855
0.633875 0.759213 0.824094
0.643000 0.760983 0.824460
0.671870 0.766842 0.825864
0.714290 0.776608 0.829068
0.765408 0.789639 0.834165
0.826200 0.796292 0.827512
0.849180 0.808621 0.814725
0.898192 0.838132 0.842679
0.574853 0.779141 0.807401
0.586847 0.780880 0.808225
0.622187 0.785580 0.809964
0.672633 0.793698 0.813352
0.730037 0.804349 0.817807
0.794339 0.819272 0.824857
0.856779 0.837888 0.834623
0.892332 0.837461 0.822049
0.573724 0.820066 0.806149
0.572839 0.820432 0.805539
0.573602 0.823362 0.805142
0.599756 0.829038 0.805905
0.688930 0.848966 0.824063
0.778775 0.862608 0.837308
0.858762 0.870024 0.845670
0.886900 0.870603 0.857572
0.822477 0.773953 0.883970
0.825406 0.774136 0.883268
0.833738 0.772976 0.879667
0.847562 0.774075 0.873808
0.862516 0.781094 0.865476
0.873716 0.791257 0.853635
0.875212 0.792752 0.841978
0.891661 0.819669 0.848661
0.820981 0.772488 0.883391
0.823941 0.772732 0.882689
0.832517 0.771878 0.879301
0.846067 0.774716 0.873655
0.861418 0.781613 0.865446
0.873045 0.791501 0.853635
0.874632 0.793088 0.841703
0.891173 0.819760 0.848386
0.817807 0.775143 0.884215
0.820493 0.775753 0.883513
0.828702 0.776699 0.880369
0.843992 0.781827 0.876036
0.860075 0.787442 0.867979
0.872892 0.795926 0.856321
0.875578 0.798856 0.844694
0.891722 0.824002 0.850767
0.810117 0.788022 0.887999
0.813260 0.788693 0.887449
0.822599 0.789609 0.884764
0.838651 0.792752 0.880308
0.857359 0.797696 0.873136
0.873350 0.805295 0.862608
0.878630 0.810330 0.851408
0.893492 0.832547 0.856046
0.790005 0.801602 0.890532
0.794736 0.802884 0.890562
0.809171 0.806394 0.889952
0.826169 0.806577 0.886717
0.849271 0.809751 0.880003
0.871031 0.815854 0.870359
0.882170 0.824155 0.859678
0.896056 0.844358 0.863432
0.750332 0.814939 0.888273
0.754025 0.815610 0.888212
0.767300 0.818326 0.888334
0.794003 0.821592 0.888426
0.831388 0.827268 0.888182
0.864591 0.832792 0.881926
0.887785 0.844144 0.872313
0.898955 0.858457 0.872068
0.715724 0.826505 0.882048
0.719905 0.827054 0.882048
0.734707 0.829252 0.882292
0.761257 0.834195 0.883452
0.797574 0.842161 0.885618
0.840726 0.854276 0.889433
0.886625 0.864500 0.888304
0.901946 0.874327 0.881651
0.711238 0.848692 0.877806
0.710597 0.848661 0.877501
0.709560 0.849210 0.876921
0.722805 0.852323 0.877501
0.767239 0.859922 0.880735
0.817075 0.869261 0.884215
0.866758 0.880888 0.888579
0.907256 0.894316 0.894713
