data/fiter_cube/21023058/1023009/file.cube
# Created by Adobe Lightroom plugin Export LUT (1.17.0)
# www.johnrellis.com/lightroom/exportlut.htm
# Preset: 温暖焦糖婚礼婚纱_05 云集
# Color profile: C:\Program Files (x86)\Common Files\Adobe\Color\Profiles\Recommended\AdobeRGB1998.icc
LUT_3D_SIZE 32
DOMAIN_MIN 0.0 0.0 0.0
DOMAIN_MAX 1.0 1.0 1.0
0.033082 0.037049 0.024231
0.039918 0.040528 0.027008
0.049714 0.044526 0.029664
0.061646 0.053071 0.036927
0.074556 0.060670 0.044709
0.091676 0.065827 0.051392
0.116030 0.070741 0.058747
0.148043 0.075959 0.062654
0.187259 0.081544 0.067445
0.233860 0.087709 0.073762
0.287419 0.094850 0.081270
0.345220 0.105348 0.090517
0.404303 0.122072 0.102327
0.461402 0.147066 0.116426
0.514488 0.179446 0.133394
0.561852 0.217105 0.153567
0.603540 0.257359 0.177707
0.640101 0.297948 0.204288
0.672450 0.337255 0.233463
0.702113 0.375555 0.264927
0.729152 0.412085 0.299443
0.753750 0.447059 0.336736
0.776181 0.480690 0.375860
0.796719 0.513451 0.415595
0.815915 0.545586 0.454780
0.834684 0.577691 0.493141
0.852659 0.609644 0.530999
0.869596 0.641566 0.568566
0.885435 0.673060 0.606073
0.899962 0.703365 0.642298
0.912963 0.732387 0.677638
0.924041 0.760525 0.712825
0.035828 0.041199 0.027070
0.038178 0.041932 0.028046
0.047425 0.047242 0.029511
0.061036 0.054139 0.036866
0.074128 0.061250 0.043549
0.090913 0.066835 0.051270
0.115480 0.071656 0.057954
0.147402 0.077272 0.062562
0.186740 0.083436 0.067292
0.233555 0.089693 0.073243
0.287419 0.097353 0.080720
0.345922 0.108034 0.090455
0.404974 0.125277 0.101930
0.462470 0.150149 0.116152
0.515648 0.182681 0.133394
0.563104 0.220462 0.153872
0.604669 0.260716 0.178012
0.641230 0.300877 0.204929
0.673487 0.339910 0.233890
0.703243 0.378241 0.265995
0.730190 0.414496 0.300847
0.754696 0.449226 0.338201
0.777066 0.482765 0.377325
0.797482 0.515282 0.417029
0.816648 0.547326 0.456031
0.835294 0.579187 0.494453
0.853208 0.611078 0.532219
0.870146 0.642908 0.569696
0.885863 0.674250 0.607080
0.900359 0.704433 0.643336
0.913298 0.733364 0.678614
0.924254 0.761440 0.713741
0.039612 0.047364 0.029694
0.042939 0.048646 0.031647
0.046632 0.049042 0.032593
0.059174 0.056458 0.037812
0.073121 0.062409 0.043397
0.089845 0.067933 0.050355
0.114137 0.073213 0.056977
0.145998 0.079194 0.062013
0.185550 0.085573 0.066407
0.232486 0.092317 0.072724
0.286412 0.100404 0.079896
0.344945 0.111757 0.089357
0.404303 0.128695 0.101167
0.461860 0.153750 0.115206
0.515282 0.185794 0.132540
0.563104 0.223392 0.153079
0.604639 0.263157 0.177188
0.641321 0.303227 0.204196
0.673762 0.342321 0.233738
0.703304 0.380041 0.265782
0.730373 0.416205 0.300816
0.754879 0.450660 0.338109
0.777218 0.483986 0.377478
0.797635 0.516411 0.416999
0.816831 0.548302 0.456275
0.835538 0.580102 0.494667
0.853422 0.611841 0.532372
0.870329 0.643641 0.570062
0.886046 0.674922 0.607416
0.900481 0.705043 0.643641
0.913420 0.733883 0.678981
0.924407 0.761959 0.714137
0.048585 0.058320 0.036927
0.049317 0.058839 0.037903
0.053132 0.058961 0.038819
0.058503 0.059388 0.041779
0.067597 0.064820 0.046571
0.086488 0.070405 0.050172
0.110872 0.076387 0.055085
0.142184 0.082856 0.060578
0.181491 0.089998 0.065095
0.228367 0.097688 0.070771
0.282414 0.106477 0.078035
0.341100 0.118410 0.087129
0.400885 0.135622 0.098909
0.459052 0.160098 0.112978
0.513237 0.191531 0.130159
0.561273 0.228244 0.150729
0.603357 0.267460 0.175051
0.640406 0.307286 0.202396
0.673182 0.345861 0.232273
0.703090 0.383276 0.264469
0.730312 0.419135 0.299687
0.754940 0.453315 0.337804
0.777279 0.486275 0.377050
0.797635 0.518151 0.416724
0.816770 0.549645 0.455787
0.835325 0.581018 0.494026
0.853178 0.612451 0.531731
0.870054 0.644038 0.569268
0.885832 0.675166 0.606714
0.900359 0.705257 0.643153
0.913359 0.734279 0.678645
0.924437 0.762387 0.714107
0.056245 0.065583 0.044923
0.056123 0.066011 0.044831
0.058595 0.066621 0.046754
0.062715 0.065980 0.049134
0.067201 0.067323 0.051942
0.076600 0.072541 0.056947
0.101778 0.081941 0.058747
0.136355 0.089052 0.059358
0.176242 0.096803 0.062959
0.222782 0.105837 0.067994
0.276860 0.115785 0.075227
0.335760 0.128206 0.084291
0.396216 0.145571 0.095521
0.454963 0.169558 0.109285
0.509453 0.200076 0.126253
0.557885 0.235233 0.146731
0.600275 0.273167 0.170809
0.637690 0.311803 0.198245
0.670802 0.349462 0.228000
0.701259 0.386358 0.260960
0.728878 0.421851 0.296574
0.753902 0.455604 0.334905
0.776516 0.488350 0.374792
0.797055 0.519860 0.414679
0.816190 0.551049 0.454017
0.834897 0.582177 0.492653
0.852811 0.613367 0.530480
0.869841 0.644831 0.568414
0.885679 0.675929 0.605982
0.900267 0.706050 0.642695
0.913329 0.734981 0.678462
0.924437 0.763119 0.714046
0.062043 0.074098 0.051789
0.062501 0.074434 0.051698
0.062837 0.075135 0.052369
0.066651 0.074952 0.054658
0.072297 0.074769 0.058412
0.077821 0.077089 0.061128
0.087251 0.082612 0.065309
0.120577 0.096529 0.065370
0.163088 0.107668 0.065461
0.212924 0.115633 0.065278
0.267216 0.126375 0.070954
0.326299 0.139773 0.079255
0.387152 0.157107 0.089845
0.446937 0.180545 0.103670
0.502586 0.209659 0.120516
0.551812 0.243351 0.140810
0.595209 0.279698 0.164828
0.633204 0.316899 0.191897
0.666926 0.353582 0.222080
0.697932 0.389776 0.255161
0.726131 0.424475 0.291386
0.751583 0.457649 0.329747
0.767880 0.479683 0.357763
0.789609 0.511772 0.399054
0.809659 0.543236 0.439918
0.829007 0.574670 0.479774
0.847684 0.606348 0.519036
0.865476 0.638209 0.557946
0.882048 0.670069 0.596796
0.897337 0.700954 0.634760
0.911070 0.730678 0.671595
0.922850 0.759457 0.708125
0.066804 0.084565 0.058900
0.066743 0.084901 0.058869
0.067475 0.085725 0.059174
0.069581 0.086397 0.059907
0.076692 0.085389 0.062409
0.082826 0.085969 0.065126
0.090669 0.089265 0.067964
0.100832 0.094362 0.072938
0.140139 0.113497 0.074708
0.189578 0.129274 0.074586
0.246342 0.141268 0.074098
0.307652 0.150423 0.073304
0.368841 0.167056 0.082185
0.429969 0.189212 0.095003
0.487465 0.216709 0.110964
0.539391 0.248753 0.131014
0.584710 0.283696 0.154696
0.624292 0.319524 0.181796
0.659113 0.355322 0.211765
0.690883 0.390204 0.244877
0.719600 0.423682 0.280125
0.745449 0.455879 0.318212
0.768673 0.486702 0.357580
0.789853 0.516930 0.398230
0.809445 0.546960 0.438514
0.828611 0.577386 0.478096
0.847318 0.608423 0.517296
0.865171 0.640009 0.556603
0.881865 0.671656 0.595789
0.897276 0.702419 0.634119
0.911101 0.732082 0.671351
0.922942 0.760800 0.708125
0.071901 0.099825 0.063661
0.072114 0.100587 0.063996
0.072786 0.101289 0.064302
0.073091 0.103304 0.064851
0.081514 0.101991 0.067109
0.090578 0.100465 0.070100
0.099245 0.102419 0.073487
0.109804 0.107057 0.077638
0.121126 0.111788 0.083253
0.167025 0.136904 0.089204
0.224826 0.158206 0.088533
0.288884 0.175265 0.087984
0.354284 0.189822 0.087221
0.418189 0.203922 0.087098
0.477028 0.229709 0.102144
0.530571 0.260258 0.121889
0.577295 0.293614 0.145541
0.618219 0.328283 0.173220
0.653925 0.362493 0.203372
0.686580 0.396399 0.236912
0.716304 0.429206 0.273198
0.742916 0.460487 0.312108
0.766720 0.490822 0.352331
0.788388 0.520439 0.393652
0.808316 0.549981 0.434882
0.827726 0.580102 0.475166
0.846616 0.610712 0.515038
0.864683 0.641962 0.554620
0.881498 0.673335 0.594293
0.897063 0.703975 0.633082
0.910979 0.733547 0.670710
0.922942 0.762203 0.707881
0.077821 0.120851 0.070222
0.078431 0.121431 0.070497
0.078523 0.122438 0.070710
0.079652 0.124178 0.070771
0.087465 0.123964 0.072694
0.098695 0.121950 0.076112
0.109804 0.119692 0.080568
0.121584 0.124392 0.085298
0.135134 0.130282 0.091035
0.148348 0.135103 0.097230
0.197757 0.165011 0.109041
0.264164 0.192630 0.107668
0.333288 0.215518 0.106630
0.400946 0.235233 0.106142
0.463203 0.253666 0.107088
0.519005 0.272465 0.110475
0.567559 0.304082 0.134371
0.609979 0.337102 0.162112
0.647089 0.370001 0.193088
0.680812 0.402655 0.226902
0.711604 0.434577 0.263951
0.739223 0.465156 0.303471
0.763821 0.494759 0.344945
0.786099 0.524010 0.387518
0.806455 0.552941 0.429603
0.826230 0.582574 0.470832
0.845426 0.612879 0.511528
0.863798 0.643732 0.551659
0.880888 0.674952 0.591974
0.896635 0.705501 0.631403
0.910765 0.735012 0.669581
0.922850 0.763638 0.707179
0.085420 0.147921 0.078981
0.085908 0.148531 0.079194
0.086244 0.149660 0.079316
0.087404 0.151492 0.079591
0.094423 0.152895 0.081056
0.108156 0.149508 0.084535
0.122072 0.146914 0.089296
0.134920 0.145815 0.094850
0.149844 0.152010 0.100893
0.166934 0.159670 0.108370
0.184176 0.166903 0.116213
0.233921 0.198520 0.134768
0.306798 0.233066 0.132509
0.378546 0.260655 0.131258
0.445411 0.283879 0.131228
0.504753 0.304784 0.133486
0.555718 0.324956 0.138125
0.599603 0.346105 0.148714
0.638056 0.377569 0.179690
0.673213 0.409003 0.214328
0.705684 0.440223 0.252781
0.734585 0.470375 0.293614
0.760372 0.499519 0.336309
0.783627 0.528252 0.380377
0.804593 0.556786 0.423865
0.824735 0.585840 0.466133
0.844266 0.615625 0.507652
0.862821 0.646052 0.548455
0.880125 0.676783 0.589227
0.896086 0.707057 0.629145
0.910369 0.736385 0.667781
0.922606 0.764858 0.705867
0.095094 0.181704 0.090669
0.095430 0.182437 0.090791
0.096101 0.183291 0.090883
0.097139 0.185458 0.091249
0.102449 0.189975 0.093202
0.118837 0.185397 0.095857
0.135103 0.180148 0.099947
0.150881 0.176333 0.106050
0.166262 0.177951 0.113039
0.184390 0.185733 0.120455
0.204562 0.194675 0.129702
0.226047 0.204501 0.139864
0.273564 0.236332 0.166140
0.350561 0.276677 0.163302
0.422614 0.308080 0.161990
0.486793 0.333654 0.163210
0.541680 0.355749 0.166567
0.588190 0.375799 0.172793
0.628809 0.394903 0.182040
0.665370 0.417090 0.201114
0.699123 0.447059 0.240055
0.729366 0.476204 0.281865
0.756222 0.504723 0.326238
0.780179 0.532525 0.371008
0.801846 0.560418 0.416175
0.822507 0.588891 0.459724
0.842466 0.618128 0.502312
0.861448 0.648157 0.544091
0.879118 0.678737 0.585809
0.895384 0.708858 0.626551
0.909941 0.738125 0.665980
0.922423 0.766537 0.704707
0.106935 0.221347 0.104860
0.107240 0.221927 0.104982
0.107637 0.222904 0.105226
0.108949 0.225010 0.105684
0.110903 0.228122 0.106142
0.130404 0.229892 0.110506
0.149477 0.222019 0.113893
0.167391 0.215183 0.119081
0.184604 0.209995 0.126406
0.202701 0.215274 0.134432
0.223941 0.224613 0.143648
0.247135 0.235203 0.154391
0.262852 0.238590 0.161532
0.306249 0.268040 0.191684
0.382818 0.312169 0.193759
0.453193 0.345617 0.192996
0.514366 0.372656 0.194888
0.565698 0.395209 0.199222
0.609705 0.415198 0.206455
0.649378 0.434302 0.217716
0.685481 0.453346 0.232334
0.718349 0.476905 0.262333
0.747341 0.505119 0.307561
0.773007 0.532921 0.354406
0.796078 0.560510 0.401678
0.817502 0.588586 0.447333
0.838193 0.617548 0.491676
0.857969 0.647395 0.534997
0.876402 0.677943 0.578058
0.893309 0.708339 0.620233
0.908446 0.737911 0.660975
0.921477 0.766598 0.700862
0.119203 0.261418 0.119844
0.119600 0.262150 0.120058
0.120455 0.263401 0.120363
0.121828 0.265782 0.120790
0.124147 0.269505 0.121706
0.140475 0.276921 0.126436
0.162875 0.269017 0.130007
0.183474 0.259434 0.133852
0.203098 0.252232 0.140658
0.220768 0.246311 0.148959
0.242008 0.255100 0.158236
0.264530 0.264469 0.168490
0.289067 0.275029 0.180514
0.314488 0.287114 0.194095
0.352514 0.311498 0.223117
0.426123 0.358526 0.236576
0.493233 0.392645 0.235538
0.549157 0.419196 0.237491
0.596704 0.441077 0.242893
0.638880 0.460700 0.252018
0.676692 0.479347 0.264958
0.711208 0.497444 0.281651
0.742031 0.515129 0.302678
0.769162 0.539300 0.343694
0.792996 0.566033 0.392554
0.815000 0.593256 0.439918
0.836210 0.621515 0.485512
0.856443 0.650782 0.529931
0.875303 0.680873 0.573999
0.892546 0.710933 0.617121
0.907988 0.740322 0.658808
0.921263 0.768887 0.699458
0.136324 0.310521 0.139803
0.136965 0.311284 0.140108
0.137728 0.312322 0.140200
0.139193 0.314763 0.140932
0.141665 0.318029 0.141787
0.151278 0.324773 0.145266
0.178744 0.322942 0.150912
0.202579 0.312657 0.154604
0.224094 0.301427 0.159121
0.244846 0.293858 0.167391
0.264225 0.290990 0.176791
0.287266 0.300206 0.187381
0.311833 0.310369 0.199710
0.337591 0.321843 0.213596
0.364416 0.334691 0.229526
0.396918 0.354437 0.256260
0.466529 0.402869 0.282933
0.528679 0.436622 0.281865
0.580713 0.462165 0.284062
0.625910 0.483619 0.290623
0.666102 0.503014 0.301305
0.702266 0.521111 0.315648
0.734463 0.538231 0.334051
0.763210 0.554986 0.356298
0.789273 0.571984 0.381903
0.811917 0.598016 0.430640
0.833707 0.625544 0.477790
0.854459 0.654170 0.523735
0.873808 0.683772 0.568933
0.891478 0.713527 0.613184
0.907286 0.742672 0.655848
0.920897 0.771115 0.697505
0.157290 0.360540 0.163241
0.157961 0.360845 0.163424
0.158694 0.361883 0.163729
0.160525 0.364050 0.164431
0.162936 0.367407 0.165530
0.166598 0.371710 0.167025
0.195895 0.377081 0.174929
0.222385 0.367010 0.178561
0.246525 0.354894 0.182254
0.268772 0.344366 0.188663
0.289220 0.335668 0.197757
0.310338 0.336614 0.208377
0.334508 0.346166 0.220676
0.360052 0.356817 0.234684
0.386450 0.368719 0.250462
0.413397 0.382086 0.268132
0.439338 0.396033 0.290684
0.502892 0.444099 0.330541
0.560571 0.476570 0.329534
0.610101 0.502037 0.333135
0.653223 0.523461 0.340948
0.691676 0.542473 0.352636
0.725551 0.559777 0.368261
0.755550 0.576226 0.387335
0.782559 0.592401 0.410040
0.807279 0.609247 0.435431
0.830686 0.629847 0.469001
0.851957 0.657588 0.516136
0.871763 0.686305 0.562158
0.889860 0.715572 0.607691
0.906065 0.744411 0.651392
0.920104 0.772702 0.693996
0.182834 0.408820 0.190280
0.183230 0.409461 0.190585
0.183993 0.410010 0.190677
0.185733 0.411780 0.191287
0.188540 0.414313 0.192355
0.192294 0.417731 0.193790
0.214023 0.425452 0.201816
0.242161 0.417792 0.205173
0.268193 0.406012 0.208347
0.291112 0.393378 0.212131
0.313970 0.384741 0.221134
0.333928 0.375982 0.231174
0.356939 0.381506 0.243229
0.382208 0.391638 0.257389
0.408148 0.402716 0.273014
0.434089 0.414740 0.290196
0.459724 0.427497 0.308568
0.478950 0.435554 0.325933
0.536248 0.482185 0.378302
0.590814 0.514183 0.378180
0.637507 0.539178 0.382391
0.678798 0.560357 0.390753
0.714748 0.578637 0.402747
0.746334 0.595270 0.418769
0.774472 0.611200 0.437751
0.800046 0.627344 0.460090
0.824613 0.644648 0.485237
0.848203 0.663691 0.513390
0.869383 0.689082 0.554681
0.888090 0.718044 0.601678
0.904967 0.746853 0.646937
0.919432 0.775082 0.690944
0.213046 0.454566 0.220890
0.213840 0.454994 0.220981
0.214359 0.455634 0.221317
0.216312 0.457221 0.222080
0.219120 0.459388 0.223270
0.222721 0.462226 0.224552
0.229953 0.466041 0.227207
0.264683 0.466468 0.235843
0.291722 0.455940 0.238621
0.316258 0.443793 0.241825
0.339422 0.433295 0.248173
0.360967 0.424445 0.257420
0.379614 0.416236 0.267582
0.403906 0.425208 0.281407
0.428473 0.434974 0.296422
0.453559 0.445777 0.312963
0.478096 0.457099 0.330846
0.501854 0.469093 0.349645
0.520409 0.477699 0.366827
0.568292 0.518181 0.422950
0.619684 0.549950 0.425849
0.664424 0.574823 0.430518
0.702998 0.595361 0.439094
0.736507 0.613031 0.451545
0.766049 0.629297 0.467384
0.792569 0.645136 0.486580
0.817899 0.661769 0.508843
0.842100 0.679896 0.534295
0.865080 0.699580 0.563012
0.886412 0.721248 0.595544
0.903807 0.749752 0.642420
0.918608 0.777493 0.687251
0.246464 0.495430 0.253300
0.246952 0.495491 0.253300
0.241978 0.489570 0.248112
0.243778 0.490822 0.248569
0.246525 0.492866 0.250095
0.250370 0.495369 0.251377
0.254734 0.498604 0.253330
0.282994 0.504112 0.263066
0.310216 0.494667 0.265660
0.335729 0.484230 0.268467
0.358862 0.473152 0.272679
0.381567 0.465095 0.281468
0.401831 0.456825 0.291264
0.421546 0.453590 0.302861
0.445380 0.462684 0.317632
0.469306 0.472389 0.333593
0.493111 0.482856 0.350896
0.515984 0.493812 0.368994
0.537987 0.505241 0.387823
0.557183 0.515282 0.405768
0.597498 0.548882 0.454231
0.645502 0.581903 0.468116
0.687984 0.606500 0.473487
0.724086 0.626612 0.482795
0.755734 0.644190 0.495827
0.783780 0.660670 0.512627
0.810147 0.677363 0.532586
0.835386 0.695094 0.555932
0.859129 0.714168 0.582483
0.881285 0.734493 0.612055
0.901488 0.756161 0.644495
0.917815 0.780392 0.683558
0.282048 0.531487 0.286809
0.281773 0.530907 0.286168
0.281834 0.530541 0.285679
0.282689 0.530846 0.285527
0.284733 0.531975 0.286259
0.288029 0.533837 0.287419
0.292393 0.536339 0.289189
0.306584 0.540398 0.294987
0.337377 0.537011 0.301183
0.362615 0.527428 0.303471
0.385748 0.516716 0.305974
0.408759 0.508904 0.313725
0.429755 0.501244 0.322911
0.448463 0.493812 0.332860
0.468208 0.494423 0.345556
0.490730 0.503136 0.360906
0.512871 0.512505 0.377203
0.534752 0.522484 0.394324
0.555627 0.532769 0.411780
0.575830 0.543359 0.429358
0.594873 0.554040 0.446876
0.628473 0.581689 0.487953
0.672694 0.614710 0.510582
0.711788 0.638361 0.516747
0.745296 0.657862 0.526696
0.774807 0.675135 0.540520
0.802213 0.691981 0.557824
0.828214 0.709468 0.578576
0.852811 0.727871 0.602502
0.875822 0.747219 0.629419
0.896849 0.767880 0.659571
0.914611 0.788327 0.691005
0.323369 0.567285 0.324376
0.323064 0.566918 0.323949
0.322972 0.566705 0.323522
0.323796 0.566857 0.323583
0.325689 0.567742 0.324041
0.329015 0.569421 0.325353
0.333013 0.571435 0.327092
0.338140 0.574090 0.329290
0.365789 0.575677 0.337682
0.390478 0.567010 0.339666
0.413458 0.557580 0.342077
0.436011 0.549950 0.348425
0.457374 0.543114 0.357000
0.476326 0.536095 0.366155
0.492836 0.529229 0.375769
0.512200 0.533165 0.389380
0.533043 0.541619 0.404608
0.553704 0.550622 0.420447
0.573541 0.559869 0.436408
0.592798 0.569543 0.452613
0.611383 0.579339 0.468818
0.629480 0.589929 0.485451
0.657862 0.612879 0.520134
0.697627 0.645289 0.550805
0.733700 0.668086 0.558007
0.765042 0.687190 0.569024
0.793576 0.704799 0.583795
0.820706 0.722438 0.601862
0.846311 0.740505 0.623041
0.870207 0.759274 0.647425
0.892027 0.778958 0.674952
0.910369 0.798215 0.704005
0.366339 0.600946 0.363378
0.366155 0.600610 0.362768
0.366186 0.600336 0.362432
0.367010 0.600549 0.362402
0.368902 0.601221 0.362921
0.371618 0.602686 0.364263
0.375586 0.604425 0.365911
0.380346 0.606714 0.368048
0.395239 0.609888 0.374548
0.419409 0.604028 0.377020
0.441352 0.595575 0.378943
0.463416 0.588708 0.384833
0.484291 0.582483 0.392493
0.503105 0.576104 0.400671
0.519921 0.569818 0.409644
0.534447 0.563622 0.418860
0.553368 0.569970 0.432197
0.572381 0.577783 0.446265
0.590997 0.585962 0.460670
0.608881 0.594324 0.475044
0.626398 0.603143 0.489815
0.643214 0.612146 0.504479
0.660060 0.621973 0.520134
0.683436 0.640589 0.549828
0.719051 0.672053 0.587488
0.752743 0.694148 0.595605
0.782742 0.713191 0.607355
0.811124 0.731502 0.622522
0.837919 0.749752 0.641047
0.862974 0.768338 0.662989
0.885618 0.787167 0.687587
0.904906 0.805875 0.714961
0.407568 0.630335 0.399298
0.407752 0.630304 0.399298
0.408057 0.630426 0.399268
0.409155 0.630884 0.399725
0.411139 0.631800 0.400610
0.413886 0.633082 0.401831
0.417548 0.634730 0.403540
0.421668 0.636652 0.405402
0.426490 0.638849 0.407538
0.446906 0.637507 0.412024
0.467628 0.629908 0.413794
0.488746 0.624140 0.419623
0.508843 0.618463 0.426490
0.527398 0.612665 0.433783
0.544366 0.606867 0.441566
0.559442 0.601160 0.449958
0.573205 0.597131 0.458991
0.591180 0.604273 0.472023
0.608850 0.611872 0.485237
0.626093 0.619654 0.498787
0.642786 0.627619 0.512535
0.658808 0.635889 0.526513
0.674281 0.644251 0.540703
0.689601 0.653468 0.555779
0.709041 0.668635 0.581659
0.741115 0.699062 0.624811
0.772915 0.720699 0.633722
0.802670 0.740414 0.646174
0.830655 0.759335 0.662074
0.856840 0.778164 0.681483
0.880125 0.796323 0.703334
0.900175 0.814664 0.729091
0.451209 0.660334 0.437324
0.451270 0.660273 0.437201
0.451667 0.660365 0.437293
0.452583 0.660639 0.437415
0.454292 0.661433 0.438331
0.456886 0.662593 0.439521
0.460029 0.664057 0.441047
0.463874 0.665705 0.442908
0.468147 0.667720 0.445014
0.477058 0.669642 0.448341
0.495949 0.663783 0.450477
0.515862 0.658839 0.455756
0.534936 0.653803 0.461738
0.552941 0.648554 0.468177
0.569574 0.643336 0.475105
0.584771 0.638270 0.482612
0.598322 0.633204 0.490272
0.611719 0.631708 0.499428
0.628046 0.638270 0.511498
0.644038 0.644984 0.523980
0.659571 0.652003 0.536706
0.674464 0.659113 0.549584
0.688869 0.666468 0.562768
0.702632 0.674037 0.576257
0.717403 0.683467 0.592035
0.733547 0.695827 0.613947
0.763333 0.724422 0.656580
0.794156 0.747036 0.670222
0.823453 0.767330 0.683619
0.850736 0.786709 0.700526
0.874601 0.804746 0.720180
0.895354 0.822904 0.744167
0.491707 0.686336 0.471839
0.491554 0.686244 0.471778
0.491798 0.686275 0.471748
0.492897 0.686732 0.472206
0.494575 0.687434 0.473091
0.496925 0.688502 0.474342
0.500008 0.689815 0.475959
0.503502 0.691463 0.477943
0.507866 0.693294 0.480201
0.512474 0.695277 0.482734
0.524041 0.694148 0.485817
0.542626 0.690028 0.490822
0.560662 0.685725 0.496376
0.577874 0.681270 0.502190
0.594202 0.676967 0.508721
0.609430 0.672633 0.515679
0.623194 0.668238 0.522881
0.635554 0.664088 0.530388
0.648585 0.664759 0.539849
0.663325 0.670588 0.551324
0.677577 0.676631 0.563043
0.691463 0.682856 0.575128
0.704952 0.689357 0.587579
0.717891 0.696132 0.600275
0.730343 0.703182 0.613031
0.742580 0.710719 0.626276
0.756985 0.721614 0.645594
0.785702 0.748928 0.685328
0.815610 0.772671 0.704768
0.843687 0.793027 0.719387
0.868528 0.811734 0.737240
0.890227 0.830014 0.759335
0.533623 0.711940 0.508141
0.533562 0.711879 0.508080
0.533806 0.711940 0.508171
0.534691 0.712215 0.508476
0.536248 0.712856 0.509361
0.538354 0.713802 0.510582
0.541039 0.714870 0.512047
0.544244 0.716213 0.513848
0.547906 0.717739 0.515953
0.551141 0.719722 0.519005
0.554803 0.721950 0.522454
0.570275 0.718471 0.525750
0.586694 0.714748 0.530632
0.602716 0.710811 0.535851
0.618128 0.706935 0.541680
0.632624 0.703151 0.547997
0.646113 0.699306 0.554528
0.658442 0.695613 0.561547
0.669398 0.692012 0.568627
0.681727 0.694026 0.578210
0.694972 0.699397 0.589166
0.707759 0.704860 0.600305
0.720241 0.710689 0.611810
0.732357 0.716701 0.623438
0.744076 0.723018 0.635218
0.755489 0.729641 0.647120
0.766567 0.736507 0.658991
0.781949 0.748562 0.678187
0.808316 0.773281 0.713924
0.835599 0.796536 0.737881
0.861631 0.816495 0.753780
0.884459 0.835325 0.773770
0.573999 0.735012 0.543511
0.574090 0.734981 0.543450
0.574304 0.735103 0.543542
0.575280 0.735439 0.544152
0.576654 0.735988 0.544976
0.578668 0.736812 0.546197
0.581079 0.737850 0.547753
0.583673 0.739101 0.549798
0.586328 0.740658 0.552392
0.589319 0.742397 0.555230
0.592676 0.744289 0.558343
0.599298 0.744625 0.561059
0.614038 0.741268 0.565423
0.628809 0.737942 0.570367
0.643061 0.734646 0.575799
0.656733 0.731350 0.581506
0.669581 0.728084 0.587640
0.681575 0.725002 0.594079
0.692317 0.721859 0.600641
0.702083 0.718959 0.607446
0.713497 0.722133 0.616846
0.725338 0.727077 0.627131
0.736904 0.732296 0.637507
0.748287 0.737881 0.648127
0.759487 0.743801 0.658961
0.770565 0.750057 0.669947
0.781399 0.756619 0.681025
0.792111 0.763455 0.692226
0.807492 0.775723 0.710689
0.829984 0.796872 0.742916
0.854917 0.819974 0.771420
0.878904 0.839872 0.789303
0.614221 0.756954 0.579736
0.614313 0.756985 0.579706
0.614557 0.757076 0.579797
0.615290 0.757382 0.580285
0.616297 0.757900 0.581231
0.617548 0.758663 0.582483
0.619013 0.759518 0.583917
0.620783 0.760525 0.585626
0.622675 0.761685 0.587457
0.624903 0.762966 0.589654
0.627375 0.764431 0.592065
0.630243 0.766140 0.594873
0.639277 0.764675 0.597559
0.652308 0.761654 0.601648
0.665187 0.758633 0.606409
0.677882 0.755764 0.611566
0.689937 0.752895 0.617121
0.701350 0.750210 0.622919
0.711940 0.747616 0.629114
0.721614 0.745174 0.635401
0.730373 0.742916 0.641932
0.741299 0.747127 0.651148
0.752346 0.752163 0.660761
0.763272 0.757504 0.670680
0.774136 0.763180 0.680781
0.784848 0.769131 0.691066
0.795438 0.775387 0.701534
0.805447 0.781460 0.711788
0.814969 0.787533 0.722072
0.829465 0.799344 0.740139
0.849271 0.818357 0.770504
0.871824 0.841123 0.802548
0.648707 0.777432 0.613367
0.648798 0.777493 0.613397
0.649042 0.777646 0.613642
0.649592 0.778042 0.614282
0.650538 0.778622 0.615229
0.651789 0.779355 0.616449
0.653254 0.780301 0.617975
0.655024 0.781369 0.619684
0.656916 0.782589 0.621637
0.659144 0.783963 0.623835
0.661494 0.785519 0.626368
0.664302 0.787259 0.629175
0.667323 0.789181 0.632227
0.678462 0.786831 0.635401
