data/filter_cube/10491141/1023211/file.cube
# Created by Adobe Lightroom plugin Export LUT (1.17.0)
# www.johnrellis.com/lightroom/exportlut.htm
# Preset: 莫兰迪丛林_10 云集
# Color profile: C:\Program Files (x86)\Common Files\Adobe\Color\Profiles\Recommended\AdobeRGB1998.icc
LUT_3D_SIZE 5
DOMAIN_MIN 0.000000 0.000000 0.000000
DOMAIN_MAX 0.903226 0.903226 0.903226
0.069123 0.076112 0.088075
0.413123 0.000000 0.052827
0.765316 0.147097 0.000000
0.879332 0.330083 0.000000
0.957244 0.432380 0.000000
0.142824 0.230961 0.160067
0.233280 0.212985 0.148623
0.770626 0.364477 0.000000
0.878874 0.417243 0.000000
0.957366 0.476509 0.000000
0.546777 0.623316 0.486976
0.629358 0.664332 0.567895
0.572930 0.492378 0.334112
0.875303 0.618982 0.000000
0.949950 0.608850 0.000000
0.695338 0.754452 0.662440
0.727108 0.773770 0.703273
0.776608 0.807431 0.744350
0.703334 0.646326 0.517052
0.923674 0.733242 0.371893
0.771450 0.834745 0.761685
0.789090 0.842893 0.784176
0.826688 0.863005 0.825315
0.840238 0.862547 0.818082
0.814786 0.784176 0.694179
0.050660 0.092531 0.176455
0.391150 0.000000 0.186984
0.746853 0.204440 0.126467
0.866728 0.366857 0.000000
0.950835 0.454810 0.000000
0.148348 0.246036 0.198520
0.379614 0.324651 0.253544
0.756405 0.393011 0.146120
0.868925 0.442725 0.000000
0.951629 0.491279 0.000000
0.542199 0.616480 0.496193
0.635096 0.662501 0.591577
0.602319 0.528801 0.392920
0.867033 0.634607 0.237491
0.943603 0.622980 0.198398
0.694636 0.752438 0.665980
0.726497 0.772000 0.706447
0.781338 0.811551 0.758724
0.706264 0.653864 0.537835
0.918975 0.741817 0.441169
0.768307 0.832944 0.759457
0.785946 0.841062 0.781765
0.828153 0.863645 0.829282
0.843198 0.865629 0.826352
0.815793 0.786740 0.701503
0.000000 0.178378 0.458015
0.445686 0.095247 0.534447
0.716945 0.336400 0.441352
0.824247 0.475380 0.423285
0.922057 0.552514 0.417426
0.249271 0.395422 0.456641
0.460334 0.415839 0.530449
0.692958 0.470924 0.481514
0.828885 0.526085 0.438697
0.924163 0.572045 0.416571
0.486824 0.586511 0.484749
0.596155 0.630518 0.574762
0.675288 0.624872 0.546929
0.837583 0.659937 0.504204
0.924804 0.650355 0.451331
0.677333 0.737301 0.656947
0.708370 0.756222 0.693874
0.781888 0.810391 0.776547
0.728481 0.689448 0.602594
0.910124 0.763516 0.575738
0.759030 0.826810 0.754025
0.774533 0.834287 0.772915
0.821988 0.858701 0.828153
0.852384 0.875242 0.849943
0.820035 0.795010 0.720912
0.277104 0.349126 0.644343
0.459876 0.353124 0.668482
0.721279 0.451972 0.666041
0.807218 0.555596 0.611963
0.875059 0.647028 0.643030
0.415991 0.497414 0.632288
0.497200 0.490455 0.659327
0.715358 0.545281 0.673121
0.798001 0.587701 0.620264
0.877256 0.657618 0.645258
0.504906 0.647395 0.630213
0.568566 0.651972 0.643336
0.701472 0.675502 0.694667
0.787839 0.669276 0.651575
0.886839 0.693294 0.652735
0.642084 0.716030 0.643000
0.668055 0.726223 0.663661
0.748470 0.777340 0.753201
0.770871 0.746975 0.694331
0.897795 0.768093 0.681300
0.741054 0.814969 0.742367
0.755215 0.821897 0.759030
0.799344 0.844877 0.808743
0.856596 0.880003 0.866850
0.832242 0.814908 0.760464
0.502525 0.534356 0.765805
0.560723 0.534661 0.776181
0.729305 0.543267 0.811917
0.834043 0.635950 0.773098
0.880339 0.687251 0.741604
0.536919 0.593072 0.754635
0.568292 0.583978 0.766659
0.718013 0.593194 0.804868
0.829892 0.657740 0.776883
0.877409 0.698177 0.745693
0.551781 0.669825 0.724819
0.576043 0.663569 0.726680
0.676539 0.677302 0.780301
0.818540 0.717433 0.793973
0.869810 0.731228 0.760494
0.616480 0.769680 0.743648
0.631739 0.771145 0.749386
0.683436 0.772213 0.766598
0.793332 0.787594 0.821317
0.856748 0.786130 0.790982
0.706172 0.810422 0.740078
0.717647 0.813230 0.748257
0.757412 0.825589 0.779660
0.821744 0.854124 0.839139
0.857206 0.856657 0.839292
