data/filter_cube/10491141/1023211/file.cube
# Created by Adobe Lightroom plugin Export LUT (1.17.0)
# www.johnrellis.com/lightroom/exportlut.htm
# Preset: 莫兰迪丛林_10 云集
# Color profile: C:\Program Files (x86)\Common Files\Adobe\Color\Profiles\Recommended\AdobeRGB1998.icc
LUT_3D_SIZE 8
DOMAIN_MIN 0.000000 0.000000 0.000000
DOMAIN_MAX 0.903226 0.903226 0.903226
0.069123 0.076112 0.088075
0.151766 0.083925 0.085176
0.499641 0.000000 0.005982
0.710658 0.001892 0.000000
0.805173 0.212070 0.000000
0.866117 0.310094 0.000000
0.915221 0.380713 0.000000
0.957244 0.432380 0.000000
0.083101 0.104311 0.104036
0.110231 0.112062 0.106630
0.518059 0.155764 0.000000
0.715236 0.188449 0.000000
0.803861 0.264439 0.000000
0.864256 0.337255 0.000000
0.913970 0.396582 0.000000
0.956451 0.443183 0.000000
0.185885 0.299474 0.194919
0.276432 0.361517 0.249821
0.291264 0.255589 0.168826
0.725643 0.419593 0.000000
0.807340 0.416388 0.000000
0.865263 0.435950 0.000000
0.914885 0.464881 0.000000
0.956481 0.491005 0.000000
0.453956 0.551781 0.399878
0.515557 0.577691 0.455421
0.600305 0.623499 0.503685
0.507652 0.427588 0.277470
0.791501 0.550469 0.000000
0.867491 0.567529 0.000000
0.912840 0.561517 0.000000
0.952911 0.566064 0.000000
0.606683 0.669429 0.554253
0.628809 0.678737 0.580804
0.675166 0.708553 0.627131
0.689845 0.699031 0.601678
0.620813 0.543694 0.386267
0.819059 0.635065 0.249546
0.906157 0.659693 0.118776
0.946319 0.652918 0.120821
0.680720 0.738308 0.644282
0.692683 0.745998 0.659083
0.723537 0.766476 0.695552
0.758267 0.793210 0.727810
0.743709 0.750973 0.658289
0.689357 0.627527 0.490883
0.845823 0.705592 0.428260
0.930602 0.722988 0.335393
0.730953 0.793179 0.708614
0.738338 0.797330 0.718441
0.762234 0.810636 0.749783
0.787625 0.827848 0.775204
0.810147 0.841123 0.791196
0.788663 0.795956 0.712276
0.746731 0.703700 0.593500
0.872740 0.765682 0.567834
0.771450 0.834745 0.761685
0.776761 0.837156 0.768521
0.794797 0.845640 0.791287
0.818967 0.858427 0.819028
0.836240 0.868833 0.833707
0.843168 0.868284 0.829221
0.832670 0.840116 0.773800
0.814786 0.784176 0.694179
0.069947 0.082277 0.110475
0.148104 0.075898 0.115358
0.479225 0.000000 0.084810
0.703029 0.094881 0.000000
0.797299 0.225284 0.000000
0.859586 0.316442 0.000000
0.910704 0.385382 0.000000
0.954345 0.436194 0.000000
0.081147 0.109407 0.111452
0.145083 0.143832 0.134524
0.507713 0.164462 0.079255
0.709529 0.205325 0.000000
0.798672 0.275486 0.000000
0.859861 0.343847 0.000000
0.910063 0.401129 0.000000
0.953582 0.446448 0.000000
0.197665 0.307286 0.215885
0.310307 0.377081 0.294194
0.338140 0.292332 0.202792
0.721614 0.428351 0.000000
0.801358 0.421790 0.000000
0.860349 0.440986 0.000000
0.910185 0.467475 0.000000
0.953521 0.493172 0.000000
0.459052 0.549401 0.411810
0.520989 0.576440 0.467781
0.603326 0.623529 0.519310
0.518914 0.440711 0.299168
0.785855 0.552575 0.050599
0.861021 0.567407 0.000000
0.907927 0.562829 0.000000
0.949828 0.568261 0.000000
0.609857 0.669062 0.561456
0.630365 0.677882 0.585626
0.675471 0.707179 0.631220
0.688960 0.697963 0.607111
0.621820 0.546593 0.396765
0.816983 0.637293 0.276249
0.903258 0.662898 0.180941
0.943542 0.655146 0.176059
0.680446 0.736904 0.645716
0.691005 0.743313 0.658595
0.722194 0.764065 0.695766
0.757290 0.791562 0.728725
0.743313 0.750881 0.661830
0.688746 0.628168 0.496559
0.845151 0.707362 0.440284
0.928557 0.724971 0.358526
0.729366 0.791257 0.707515
0.736202 0.794919 0.716548
0.760098 0.808469 0.747799
0.786801 0.826688 0.775296
0.810636 0.841459 0.793393
0.788296 0.795926 0.714443
0.745174 0.702510 0.594263
0.871885 0.765377 0.570153
0.769802 0.833555 0.760159
0.775265 0.836057 0.767117
0.793362 0.844633 0.789975
0.818601 0.857939 0.819211
0.837186 0.869444 0.835538
0.844236 0.869261 0.831785
0.832822 0.840574 0.775753
0.814115 0.783749 0.694697
0.017151 0.098299 0.210697
0.153262 0.077821 0.252262
0.474769 0.000000 0.220279
0.680323 0.156008 0.197055
0.784726 0.277501 0.160067
0.850004 0.369390 0.130831
0.903807 0.425269 0.082063
0.949493 0.466194 0.000000
0.093568 0.175692 0.223209
0.175631 0.179721 0.268193
0.463142 0.205783 0.253666
0.690181 0.244266 0.202457
0.786313 0.323308 0.162997
0.850523 0.391058 0.127443
0.903655 0.438453 0.074434
0.949279 0.475532 0.000000
0.188937 0.308965 0.239536
0.299779 0.368994 0.319707
0.457282 0.389868 0.305974
0.708217 0.446571 0.236515
0.791806 0.453590 0.195468
0.852781 0.472389 0.152743
0.904417 0.493263 0.099763
0.949554 0.512383 0.000000
0.445502 0.540887 0.418372
0.508690 0.568688 0.471870
0.619287 0.634974 0.568017
0.573968 0.501244 0.378058
0.784360 0.584039 0.278691
0.852354 0.586999 0.239353
0.901396 0.583459 0.204685
0.944945 0.586419 0.172335
0.601495 0.663142 0.560052
0.625666 0.673457 0.587640
0.678584 0.706722 0.645380
0.696681 0.706996 0.635676
0.645930 0.578454 0.448371
0.818387 0.655116 0.365576
0.896666 0.676509 0.322484
0.937163 0.667170 0.306798
0.677363 0.733700 0.646571
0.689113 0.740810 0.660914
0.723781 0.763027 0.704158
0.758602 0.791196 0.737362
0.746273 0.755489 0.678584
0.695735 0.640681 0.523033
0.845518 0.716060 0.481819
0.924010 0.735012 0.434852
0.727779 0.789731 0.708614
0.735012 0.793668 0.718013
0.758358 0.806882 0.748165
0.787594 0.826230 0.780240
0.815061 0.845274 0.804379
0.790463 0.799710 0.727108
0.746883 0.706996 0.606928
0.873869 0.771572 0.591669
0.766629 0.831754 0.757931
0.771389 0.833890 0.763943
0.789517 0.842405 0.786587
0.818570 0.857298 0.821439
0.837675 0.869444 0.838224
0.847318 0.872099 0.839353
0.834379 0.843381 0.784298
0.815122 0.786374 0.702174
0.000000 0.142184 0.378912
0.134249 0.137148 0.413275
0.496620 0.089601 0.422065
0.673335 0.236545 0.374578
0.748623 0.359655 0.362951
0.825010 0.427405 0.338201
0.883818 0.482948 0.326207
0.933959 0.518730 0.311986
0.120974 0.246189 0.394079
0.194156 0.233219 0.424628
0.509148 0.241703 0.436835
0.665522 0.307713 0.388434
0.752407 0.393042 0.370245
0.826108 0.448341 0.343359
0.884092 0.494942 0.328374
0.934295 0.525048 0.309941
0.215091 0.412390 0.402411
0.303044 0.429114 0.424018
0.514397 0.461494 0.472053
0.670832 0.470283 0.435462
0.765164 0.490455 0.395148
0.832212 0.516747 0.365942
0.887907 0.539696 0.343572
0.936156 0.554437 0.315923
0.404913 0.521965 0.416419
0.466468 0.540368 0.456489
0.600519 0.613092 0.574456
0.635218 0.573388 0.484688
0.773342 0.614862 0.450721
0.833433 0.609339 0.418006
0.886717 0.607721 0.384131
0.934417 0.608545 0.350896
0.584161 0.651606 0.554131
0.608148 0.661494 0.579034
0.668116 0.694820 0.645411
0.707362 0.720333 0.671565
0.675044 0.620233 0.520195
0.819974 0.681422 0.478767
0.883787 0.689662 0.459174
0.927001 0.680903 0.435065
0.669062 0.726711 0.643946
0.681147 0.734371 0.658167
0.715908 0.756466 0.700191
0.758663 0.789334 0.747341
0.753933 0.766537 0.708003
0.710567 0.664820 0.567773
0.848844 0.731441 0.541894
0.918303 0.749294 0.523980
0.721523 0.784817 0.705623
0.728847 0.788907 0.714900
0.752407 0.802518 0.744747
0.786984 0.824247 0.785672
0.817258 0.846555 0.813382
0.795773 0.807950 0.749508
0.755489 0.719783 0.628992
0.877287 0.779721 0.619562
0.762966 0.829526 0.756741
0.767758 0.831785 0.762661
0.783352 0.839231 0.781704
0.811093 0.853147 0.814572
0.837278 0.868650 0.841245
0.853086 0.877440 0.852232
0.837308 0.848478 0.798550
0.818509 0.792203 0.714687
0.000000 0.220706 0.522759
0.190860 0.221164 0.541039
0.523339 0.167514 0.595819
0.681819 0.340795 0.543694
0.746792 0.415808 0.497261
0.785946 0.493355 0.496590
0.854276 0.542809 0.495644
0.908782 0.584863 0.503593
0.184695 0.305882 0.526665
0.258976 0.302861 0.543908
0.530144 0.286107 0.595850
0.679225 0.401709 0.551080
0.741329 0.444160 0.503777
0.788357 0.508110 0.501305
0.855253 0.552270 0.498512
0.909300 0.589899 0.504021
0.320012 0.457343 0.512474
0.377935 0.465248 0.524224
0.525170 0.482155 0.585138
0.668116 0.522118 0.569970
0.721309 0.527672 0.532647
0.795926 0.553857 0.515770
0.858427 0.582025 0.506950
0.911345 0.605615 0.503258
0.413642 0.567987 0.521721
0.455940 0.574884 0.533837
0.562432 0.598932 0.573358
0.666438 0.624567 0.595880
0.745022 0.622858 0.568963
0.809628 0.625330 0.542382
0.865537 0.629480 0.520958
0.916655 0.631342 0.497902
0.548943 0.634424 0.541741
0.573816 0.640711 0.559594
0.640772 0.671229 0.624170
0.712093 0.727260 0.700374
0.704463 0.664179 0.596124
0.817472 0.706142 0.584405
0.868193 0.695033 0.557794
0.915801 0.686854 0.530388
0.651575 0.711086 0.632837
0.662501 0.717525 0.644923
0.696376 0.739071 0.683680
0.746181 0.774502 0.742947
0.763333 0.780880 0.743313
0.729030 0.692653 0.615290
0.856199 0.748714 0.601709
0.910430 0.754910 0.595636
0.710475 0.775845 0.698543
0.717342 0.779599 0.706844
0.739925 0.792660 0.734615
0.775448 0.814633 0.777310
0.811704 0.841062 0.814237
0.803647 0.820005 0.778408
0.766079 0.735073 0.655085
0.883024 0.788998 0.650050
0.754940 0.824125 0.751553
0.759426 0.826200 0.757015
0.774594 0.833555 0.775174
0.799954 0.846738 0.804593
0.832334 0.864500 0.840452
0.856504 0.880674 0.861814
0.841855 0.856046 0.817624
0.822873 0.799619 0.730068
0.238468 0.323430 0.625269
0.310765 0.326085 0.634699
0.506676 0.325078 0.662623
0.688350 0.375433 0.675135
0.757534 0.508080 0.628931
0.796231 0.532891 0.591547
0.830381 0.583612 0.595789
0.881865 0.638514 0.623713
0.293980 0.379797 0.622889
0.348638 0.381628 0.631495
0.514458 0.384680 0.659052
0.685481 0.423072 0.673976
0.754360 0.531365 0.632685
0.792599 0.545251 0.594354
0.827146 0.593805 0.600946
0.882383 0.641810 0.624201
0.410559 0.506828 0.606012
0.446967 0.514641 0.618494
0.533593 0.514794 0.650416
0.679500 0.536400 0.676020
0.744137 0.585962 0.642542
0.782467 0.582452 0.604913
0.826017 0.621118 0.613703
0.884977 0.654444 0.627253
0.465522 0.603601 0.608667
0.492195 0.605707 0.613489
0.567773 0.614252 0.630640
0.670375 0.636652 0.681300
0.730007 0.641535 0.653498
0.773648 0.642145 0.631891
0.836057 0.657557 0.628077
0.890288 0.675532 0.631556
0.542565 0.656214 0.605127
0.561608 0.658808 0.611872
0.614405 0.668421 0.633936
0.674647 0.691615 0.671290
0.738247 0.709834 0.678706
0.795773 0.704433 0.657649
0.848844 0.702266 0.642512
0.897765 0.702571 0.631891
0.628504 0.700404 0.626093
0.638788 0.704280 0.634150
0.671473 0.717647 0.663142
0.721004 0.752346 0.719783
0.777737 0.798886 0.782498
0.758175 0.731044 0.674647
0.857511 0.766140 0.676204
0.901274 0.753017 0.655390
0.694911 0.763210 0.687770
0.701747 0.767117 0.695674
0.723659 0.779843 0.721462
0.758053 0.801266 0.762173
0.801175 0.829892 0.810758
0.819211 0.839841 0.817807
0.782925 0.758968 0.695552
0.891356 0.803616 0.696468
0.744472 0.817258 0.744839
0.748684 0.819272 0.749874
0.763241 0.826322 0.766873
0.787503 0.838834 0.794553
0.819516 0.856321 0.829618
0.851225 0.876432 0.861021
0.850614 0.868009 0.843931
0.830106 0.811398 0.753445
0.389197 0.432685 0.698451
0.426825 0.435706 0.704311
0.534630 0.440406 0.721798
0.682918 0.450385 0.752926
0.760983 0.528649 0.723903
0.813199 0.602808 0.699641
0.840482 0.614466 0.668940
0.876707 0.649989 0.675227
0.407355 0.462440 0.692836
0.439887 0.465126 0.698604
0.537102 0.469856 0.716457
0.677668 0.479194 0.747707
0.756985 0.543572 0.722133
0.809140 0.607507 0.697810
0.837003 0.616571 0.667109
0.874296 0.653040 0.675746
0.485512 0.557275 0.681636
0.506126 0.559991 0.688716
0.554070 0.552239 0.707881
0.669123 0.564294 0.740352
0.752163 0.597559 0.727779
0.803464 0.635035 0.703548
0.832670 0.637934 0.674403
0.870237 0.674159 0.688502
0.510521 0.618769 0.666743
0.525475 0.618158 0.668238
0.579522 0.627375 0.684352
0.654353 0.641260 0.726711
0.746487 0.656825 0.739651
0.795163 0.673793 0.714076
0.825498 0.668482 0.685725
0.863920 0.702876 0.705562
0.554528 0.689021 0.676814
0.566003 0.688716 0.678431
0.601862 0.689479 0.685756
0.649409 0.692134 0.700740
0.731899 0.710323 0.751888
0.779843 0.709651 0.722347
0.816251 0.709895 0.705806
0.871580 0.727230 0.715084
0.611719 0.717128 0.668544
0.619898 0.718563 0.672206
0.645075 0.724269 0.684596
0.682979 0.735775 0.706935
0.730587 0.756130 0.741665
0.785702 0.771939 0.755184
0.836545 0.765560 0.737026
0.882261 0.763302 0.730343
0.672450 0.757839 0.685634
0.678462 0.760159 0.690394
0.697353 0.767239 0.705776
0.729030 0.779324 0.734676
0.772976 0.807675 0.784360
0.824430 0.845945 0.837461
0.807279 0.792599 0.753140
0.888334 0.816983 0.760708
0.727199 0.805417 0.731228
0.731258 0.807370 0.735958
0.746181 0.815183 0.753201
0.770016 0.827573 0.780087
0.802365 0.845090 0.815152
0.840299 0.867521 0.854398
0.866667 0.885496 0.876646
0.840696 0.828702 0.787015
0.502525 0.534356 0.765805
0.521019 0.535180 0.769345
0.579156 0.534813 0.779599
0.673610 0.538842 0.799283
0.773129 0.563104 0.812009
0.822934 0.621057 0.779202
0.860624 0.673762 0.761379
0.880339 0.687251 0.741604
0.507744 0.549493 0.761746
0.524895 0.550378 0.765347
0.580011 0.550774 0.776211
0.670619 0.554406 0.795956
0.770352 0.574670 0.810910
0.821103 0.627466 0.779477
0.859281 0.678096 0.762325
0.879179 0.689601 0.742000
0.549310 0.610010 0.750210
0.552575 0.604486 0.754299
0.582727 0.595270 0.766293
0.663874 0.602319 0.788998
0.763668 0.613306 0.811246
0.817014 0.651850 0.783688
0.855589 0.694148 0.767086
0.876432 0.701228 0.746670
0.541192 0.640345 0.725704
0.555352 0.643793 0.730617
0.598474 0.653651 0.747585
0.648310 0.651972 0.775235
0.745388 0.662226 0.808225
0.810941 0.689418 0.793332
0.850095 0.718990 0.775937
0.872496 0.720333 0.755489
0.568048 0.702083 0.729061
0.575647 0.701442 0.730312
0.597284 0.696773 0.732784
0.631006 0.688716 0.740932
0.707179 0.706538 0.788998
0.801663 0.728847 0.808377
0.842100 0.747005 0.786587
0.866972 0.743832 0.766720
0.603479 0.759945 0.742336
0.608606 0.759365 0.743099
0.625727 0.757748 0.746426
0.654353 0.755306 0.753506
0.695033 0.752071 0.765743
0.775448 0.772122 0.814389
0.832242 0.780911 0.801297
0.859770 0.776577 0.785336
0.654688 0.783078 0.734005
0.658747 0.783536 0.735775
0.672663 0.785336 0.742275
0.697047 0.789670 0.755001
0.731136 0.797330 0.774716
0.772671 0.810330 0.801663
0.820035 0.820188 0.820035
0.867277 0.819821 0.812619
0.706172 0.810422 0.740078
0.709499 0.811185 0.742397
0.721614 0.814328 0.751217
0.743374 0.820920 0.768215
0.772793 0.831083 0.792630
0.810880 0.847715 0.828214
0.855344 0.875608 0.871977
0.857206 0.856657 0.839292
