data/filter_cube/10491141/1023211/file.cube
# Created by Adobe Lightroom plugin Export LUT (1.17.0)
# www.johnrellis.com/lightroom/exportlut.htm
# Preset: 莫兰迪丛林_10 云集
# Color profile: C:\Program Files (x86)\Common Files\Adobe\Color\Profiles\Recommended\AdobeRGB1998.icc
LUT_3D_SIZE 32
DOMAIN_MIN 0.0 0.0 0.0
DOMAIN_MAX 1.0 1.0 1.0
0.069123 0.076112 0.088075
0.074342 0.076753 0.087922
0.079957 0.077638 0.087709
0.101686 0.080446 0.086915
0.151766 0.083925 0.085176
0.224643 0.081880 0.080537
0.316838 0.062348 0.071260
0.413123 0.000000 0.052827
0.499641 0.000000 0.005982
0.571160 0.000000 0.000000
0.628443 0.000000 0.000000
0.674495 0.000000 0.000000
0.710658 0.001892 0.000000
0.741451 0.104555 0.000000
0.765316 0.147097 0.000000
0.786282 0.181521 0.000000
0.805173 0.212070 0.000000
0.822293 0.239902 0.000000
0.837736 0.265080 0.000000
0.852293 0.288334 0.000000
0.866117 0.310094 0.000000
0.879332 0.330083 0.000000
0.891844 0.348455 0.000000
0.903777 0.365270 0.000000
0.915221 0.380713 0.000000
0.926238 0.394995 0.000000
0.936889 0.408301 0.000000
0.947234 0.420752 0.000000
0.957244 0.432380 0.000000
0.966979 0.443244 0.000000
0.976226 0.453193 0.000000
0.984771 0.461830 0.000000
0.070314 0.078035 0.089326
0.072175 0.078767 0.090059
0.080140 0.080751 0.088350
0.102541 0.084901 0.087404
0.154482 0.090181 0.085084
0.228397 0.090333 0.079744
0.321813 0.075441 0.069795
0.417609 0.000000 0.048035
0.502739 0.000000 0.000000
0.573297 0.000000 0.000000
0.629633 0.000000 0.000000
0.675135 0.000000 0.000000
0.711147 0.062562 0.000000
0.741238 0.117708 0.000000
0.764797 0.155123 0.000000
0.785550 0.187442 0.000000
0.804288 0.216587 0.000000
0.821408 0.243290 0.000000
0.836851 0.267613 0.000000
0.851408 0.290501 0.000000
0.865263 0.311864 0.000000
0.878508 0.331456 0.000000
0.891081 0.349554 0.000000
0.903075 0.366217 0.000000
0.914549 0.381506 0.000000
0.925628 0.395758 0.000000
0.936370 0.408942 0.000000
0.946715 0.421454 0.000000
0.956817 0.433021 0.000000
0.966583 0.443854 0.000000
0.975891 0.453773 0.000000
0.984466 0.462379 0.000000
0.072206 0.081147 0.091798
0.073854 0.082185 0.093050
0.075929 0.082551 0.092988
0.103029 0.090883 0.088624
0.156283 0.099763 0.085267
0.231357 0.102724 0.079469
0.324712 0.092836 0.069032
0.420111 0.062440 0.045167
0.505180 0.000000 0.000000
0.575219 0.000000 0.000000
0.631312 0.000000 0.000000
0.676539 0.012482 0.000000
0.712276 0.092531 0.000000
0.741665 0.134340 0.000000
0.764889 0.166964 0.000000
0.785428 0.196231 0.000000
0.804105 0.223728 0.000000
0.821073 0.249180 0.000000
0.836515 0.272465 0.000000
0.851072 0.294652 0.000000
0.864958 0.315251 0.000000
0.878172 0.334447 0.000000
0.890776 0.352239 0.000000
0.902770 0.368444 0.000000
0.914275 0.383642 0.000000
0.925353 0.397528 0.000000
0.936095 0.410620 0.000000
0.946502 0.422858 0.000000
0.956603 0.434333 0.000000
0.966400 0.445014 0.000000
0.975708 0.454871 0.000000
0.984283 0.463386 0.000000
0.076020 0.088777 0.096407
0.078859 0.091249 0.099153
0.081453 0.092897 0.099977
0.087587 0.092927 0.098604
0.155642 0.116884 0.086946
0.238163 0.129824 0.078157
0.332677 0.126619 0.065797
0.427253 0.111299 0.034058
0.510491 0.090669 0.000000
0.579034 0.077241 0.000000
0.633845 0.085481 0.000000
0.678157 0.109102 0.000000
0.713710 0.138552 0.000000
0.742245 0.166537 0.000000
0.765133 0.191531 0.000000
0.785519 0.216129 0.000000
0.804013 0.239780 0.000000
0.820951 0.262638 0.000000
0.836271 0.283635 0.000000
0.850736 0.303868 0.000000
0.864500 0.323247 0.000000
0.877684 0.341314 0.000000
0.890318 0.358251 0.000000
0.902403 0.373938 0.000000
0.914031 0.388464 0.000000
0.925231 0.402075 0.000000
0.936065 0.414740 0.000000
0.946471 0.426764 0.000000
0.956603 0.437903 0.000000
0.966369 0.448249 0.000000
0.975616 0.457771 0.000000
0.984131 0.465980 0.000000
0.083101 0.104311 0.104036
0.087678 0.109407 0.108705
0.092195 0.113832 0.111513
0.101015 0.118166 0.111147
0.110231 0.112062 0.106630
0.213809 0.150057 0.085267
0.341833 0.173404 0.057008
0.436744 0.166262 0.008850
0.518059 0.155764 0.000000
0.584161 0.151644 0.000000
0.637385 0.156313 0.000000
0.680354 0.170108 0.000000
0.715236 0.188449 0.000000
0.742733 0.207248 0.000000
0.765164 0.225498 0.000000
0.785397 0.244816 0.000000
0.803861 0.264439 0.000000
0.820706 0.283787 0.000000
0.836057 0.302312 0.000000
0.850523 0.320104 0.000000
0.864256 0.337255 0.000000
0.877501 0.353521 0.000000
0.890135 0.368841 0.000000
0.902312 0.383185 0.000000
0.913970 0.396582 0.000000
0.925170 0.409308 0.000000
0.935943 0.421332 0.000000
0.946380 0.432624 0.000000
0.956451 0.443183 0.000000
0.966186 0.453132 0.000000
0.975433 0.462165 0.000000
0.983978 0.470100 0.000000
0.094606 0.132326 0.115633
0.100526 0.138979 0.121431
0.109133 0.147372 0.128969
0.121767 0.159182 0.133516
0.135531 0.157443 0.126772
0.142184 0.139284 0.117128
0.278630 0.187747 0.083680
0.431403 0.216129 0.000000
0.528466 0.224155 0.000000
0.591730 0.220584 0.000000
0.642817 0.223392 0.000000
0.684504 0.231418 0.000000
0.717708 0.242618 0.000000
0.744045 0.254032 0.000000
0.765988 0.266270 0.000000
0.785916 0.280430 0.000000
0.804196 0.295659 0.000000
0.820890 0.311345 0.000000
0.836149 0.326513 0.000000
0.850523 0.341772 0.000000
0.864256 0.356542 0.000000
0.877470 0.370733 0.000000
0.894957 0.391272 0.000000
0.906706 0.403418 0.000000
0.917937 0.414771 0.000000
0.928771 0.425360 0.000000
0.939178 0.435492 0.000000
0.949279 0.444862 0.000000
0.958953 0.454078 0.000000
0.968322 0.462928 0.000000
0.977142 0.470954 0.000000
0.985290 0.477943 0.000000
0.113802 0.175906 0.134279
0.121645 0.183566 0.141207
0.133028 0.194156 0.151644
0.151125 0.210208 0.161105
0.177829 0.230716 0.168704
0.186954 0.208804 0.146883
0.184665 0.174502 0.131441
0.350469 0.230564 0.085054
0.511467 0.266941 0.000000
0.600549 0.292485 0.000000
0.652735 0.296544 0.000000
0.693141 0.300053 0.000000
0.724117 0.304601 0.000000
0.748836 0.309422 0.000000
0.769955 0.315831 0.000000
0.789120 0.324590 0.000000
0.806790 0.335027 0.000000
0.823056 0.346227 0.000000
0.838041 0.357824 0.000000
0.852354 0.369940 0.000000
0.866178 0.382361 0.000000
0.879637 0.394568 0.000000
0.892515 0.406470 0.000000
0.904875 0.417731 0.000000
0.916594 0.428382 0.000000
0.927703 0.438178 0.000000
0.938262 0.447395 0.000000
0.948425 0.456001 0.000000
0.958251 0.464057 0.000000
0.967742 0.471748 0.000000
0.976654 0.478584 0.000000
0.984924 0.484688 0.000000
0.142824 0.230961 0.160067
0.151705 0.238743 0.167605
0.164858 0.249607 0.178317
0.189761 0.269596 0.194400
0.221347 0.294652 0.205814
0.247593 0.298924 0.200076
0.249393 0.263340 0.169406
0.233280 0.212985 0.148623
0.413703 0.273777 0.093935
0.560266 0.314672 0.000000
0.646143 0.347875 0.000000
0.697353 0.367407 0.000000
0.726467 0.364630 0.000000
0.749996 0.363226 0.000000
0.770626 0.364477 0.000000
0.789425 0.368109 0.000000
0.806821 0.373999 0.000000
0.822843 0.381262 0.000000
0.837705 0.389288 0.000000
0.851865 0.398108 0.000000
0.865568 0.407568 0.000000
0.878874 0.417243 0.000000
0.891691 0.426947 0.000000
0.903990 0.436286 0.000000
0.915648 0.445197 0.000000
0.926726 0.453742 0.000000
0.937316 0.461707 0.000000
0.947509 0.469245 0.000000
0.957366 0.476509 0.000000
0.966888 0.483345 0.000000
0.975799 0.489479 0.000000
0.984161 0.494759 0.000000
0.185885 0.299474 0.194919
0.196201 0.307042 0.202701
0.211032 0.317540 0.214054
0.242954 0.338323 0.236606
0.276432 0.361517 0.249821
0.322911 0.390753 0.268254
0.329076 0.366247 0.236698
0.320836 0.319799 0.195926
0.291264 0.255589 0.168826
0.472602 0.320562 0.111421
0.601953 0.365270 0.000000
0.681270 0.398535 0.000000
0.725643 0.419593 0.000000
0.751705 0.419776 0.000000
0.771847 0.415900 0.000000
0.790280 0.414984 0.000000
0.807340 0.416388 0.000000
0.823148 0.419684 0.000000
0.837736 0.423896 0.000000
0.851713 0.429419 0.000000
0.865263 0.435950 0.000000
0.878416 0.442908 0.000000
0.891112 0.450294 0.000000
0.903288 0.457679 0.000000
0.914885 0.464881 0.000000
0.925902 0.471748 0.000000
0.936492 0.478370 0.000000
0.946654 0.484779 0.000000
0.956481 0.491005 0.000000
0.966033 0.496986 0.000000
0.974914 0.502220 0.000000
0.983246 0.506828 0.000000
0.244358 0.372625 0.238743
0.255467 0.378912 0.246983
0.270878 0.387213 0.258244
0.305577 0.405127 0.284154
0.339727 0.425452 0.301091
0.381170 0.450111 0.319646
0.417212 0.464759 0.327092
0.407691 0.426062 0.277867
0.388922 0.371954 0.227665
0.352514 0.300328 0.191958
0.521477 0.365850 0.135805
0.633692 0.410315 0.000000
0.706355 0.440162 0.000000
0.744045 0.456245 0.000000
0.773190 0.467628 0.000000
0.791470 0.462776 0.000000
0.808408 0.460395 0.000000
0.823972 0.459907 0.000000
0.838315 0.460914 0.000000
0.852018 0.463142 0.000000
0.865293 0.466651 0.000000
0.878111 0.470893 0.000000
0.890501 0.475624 0.000000
0.902373 0.480812 0.000000
0.913848 0.486091 0.000000
0.924804 0.491371 0.000000
0.935363 0.496681 0.000000
0.945586 0.501976 0.000000
0.955505 0.507225 0.000000
0.965087 0.512322 0.000000
0.973938 0.516747 0.000000
0.982300 0.520775 0.000000
0.313268 0.439399 0.289708
0.323827 0.444312 0.297642
0.338201 0.451057 0.308446
0.368353 0.464851 0.331518
0.402747 0.482460 0.353185
0.437385 0.502312 0.370611
0.479194 0.526177 0.392950
0.490089 0.517998 0.374853
0.477211 0.478920 0.320928
0.448920 0.418799 0.262760
0.408850 0.343420 0.217014
0.561059 0.408118 0.164584
0.659174 0.450446 0.077974
0.722255 0.474708 0.000000
0.760098 0.488777 0.000000
0.789059 0.502617 0.000000
0.809171 0.504112 0.000000
0.824399 0.500450 0.000000
0.838499 0.498177 0.000000
0.851987 0.497505 0.000000
0.865049 0.498329 0.000000
0.877714 0.500084 0.000000
0.889952 0.502770 0.000000
0.901732 0.505913 0.000000
0.913054 0.509392 0.000000
0.923919 0.513146 0.000000
0.934417 0.516930 0.000000
0.944579 0.520897 0.000000
0.954437 0.525078 0.000000
0.963928 0.529168 0.000000
0.972778 0.532769 0.000000
0.981140 0.536156 0.000000
0.383490 0.497993 0.342931
0.392462 0.501793 0.349889
0.404730 0.506920 0.359747
0.429694 0.517479 0.379736
0.462165 0.532555 0.404852
0.490089 0.548608 0.420966
0.521935 0.567468 0.440436
0.555688 0.588067 0.462440
0.545342 0.560082 0.417395
0.531395 0.521630 0.360815
0.499092 0.459968 0.298161
0.459205 0.384649 0.244419
0.602655 0.456336 0.203250
0.686763 0.493660 0.136507
0.740841 0.512383 0.000000
0.779873 0.525292 0.000000
0.806851 0.537469 0.000000
0.829465 0.546929 0.000000
0.842802 0.541314 0.000000
0.855650 0.537621 0.000000
0.868101 0.535424 0.000000
0.880156 0.534539 0.000000
0.891844 0.534478 0.000000
0.903136 0.535332 0.000000
0.914092 0.536645 0.000000
0.924620 0.538506 0.000000
0.934813 0.540673 0.000000
0.944732 0.543206 0.000000
0.954345 0.546014 0.000000
0.963561 0.548821 0.000000
0.972198 0.551446 0.000000
0.980407 0.553948 0.000000
0.453956 0.551781 0.399878
0.460883 0.554528 0.405707
0.469917 0.558160 0.413642
0.488655 0.565881 0.430365
0.515557 0.577691 0.455421
0.536614 0.590112 0.469306
0.560601 0.604608 0.485512
0.586297 0.620325 0.504082
0.600305 0.623499 0.503685
0.590173 0.596612 0.457557
0.576837 0.560143 0.400916
0.543969 0.499580 0.336156
0.507652 0.427588 0.277470
0.626062 0.487373 0.236576
0.700984 0.520928 0.180575
0.750851 0.538201 0.098848
0.791501 0.550469 0.000000
0.817319 0.561364 0.000000
0.839384 0.571069 0.000000
0.855283 0.571832 0.000000
0.867491 0.567529 0.000000
0.879393 0.564508 0.000000
0.890867 0.562707 0.000000
0.902037 0.561730 0.000000
0.912840 0.561517 0.000000
0.923308 0.561913 0.000000
0.933440 0.562799 0.000000
0.943297 0.564233 0.000000
0.952911 0.566064 0.000000
0.962005 0.567864 0.000000
0.970642 0.569757 0.000000
0.978820 0.571679 0.000000
0.505547 0.591302 0.446143
0.510887 0.593500 0.451148
0.517479 0.596155 0.457496
0.531548 0.601984 0.471229
0.551812 0.610712 0.491676
0.570855 0.620813 0.507927
0.589288 0.631922 0.521752
0.609339 0.644221 0.537713
0.630152 0.657313 0.555657
0.630304 0.647578 0.534203
0.621241 0.622614 0.488716
0.609308 0.588708 0.432715
0.576379 0.529412 0.367590
0.542931 0.461738 0.306065
0.646967 0.516258 0.271275
0.713222 0.545800 0.223941
0.760098 0.561975 0.160250
0.799069 0.573632 0.000000
0.826780 0.583093 0.000000
0.848142 0.592065 0.000000
0.867063 0.599359 0.000000
0.878752 0.594690 0.000000
0.890043 0.591180 0.000000
0.901061 0.588708 0.000000
0.911711 0.587060 0.000000
0.922057 0.586145 0.000000
0.932097 0.585840 0.000000
0.941894 0.586145 0.000000
0.951446 0.587060 0.000000
0.960449 0.587976 0.000000
0.969024 0.589136 0.000000
0.977173 0.590478 0.000000
0.546777 0.623316 0.486976
0.550683 0.624933 0.491066
0.555627 0.626856 0.496223
0.566430 0.631220 0.507622
0.582177 0.637751 0.524712
0.599207 0.645899 0.542535
0.613581 0.654536 0.554376
0.629358 0.664332 0.567895
0.646143 0.675227 0.582818
0.661891 0.685451 0.595331
0.653712 0.666896 0.560754
0.645502 0.643732 0.516258
0.635004 0.612482 0.461402
0.603540 0.555444 0.396674
0.572930 0.492378 0.334112
0.664515 0.541344 0.304723
0.723537 0.567712 0.264622
0.768185 0.583917 0.211856
0.806058 0.595117 0.131868
0.835996 0.603449 0.000000
0.856718 0.611749 0.000000
0.875303 0.618982 0.000000
0.889189 0.619471 0.000000
0.899992 0.615595 0.000000
0.910521 0.612665 0.000000
0.920775 0.610620 0.000000
0.930755 0.609339 0.000000
0.940520 0.608820 0.000000
0.949950 0.608850 0.000000
0.958892 0.609064 0.000000
0.967437 0.609674 0.000000
0.975494 0.610590 0.000000
0.579797 0.648859 0.522850
0.583001 0.650172 0.526421
0.586908 0.651728 0.530724
0.595422 0.655116 0.540459
0.607935 0.660273 0.555016
0.623407 0.667140 0.573602
0.635035 0.674403 0.583856
0.647913 0.683070 0.595117
0.661891 0.692988 0.607446
0.676722 0.704036 0.620325
0.682094 0.703517 0.616327
0.673518 0.684260 0.583673
0.664881 0.661280 0.540764
0.655085 0.631800 0.486763
0.625635 0.577539 0.422858
0.598383 0.519188 0.360571
0.678859 0.562921 0.335943
0.732540 0.587243 0.301701
0.775631 0.603998 0.257694
0.812741 0.615778 0.195926
0.844785 0.622980 0.091127
0.865202 0.630701 0.063172
0.883207 0.637324 0.009522
0.899229 0.642695 0.000000
0.909575 0.638636 0.000000
0.919677 0.635615 0.000000
0.929534 0.633326 0.000000
0.939147 0.631952 0.000000
0.948333 0.631006 0.000000
0.957122 0.630457 0.000000
0.965484 0.630396 0.000000
0.973388 0.630854 0.017884
0.606683 0.669429 0.554253
0.609003 0.670344 0.557000
0.612146 0.671595 0.560784
0.618891 0.674342 0.568841
0.628809 0.678737 0.580804
0.641321 0.684810 0.596002
0.652613 0.691829 0.607660
0.663325 0.699611 0.616938
0.675166 0.708553 0.627131
0.687953 0.718502 0.637903
0.701442 0.729213 0.649256
0.698482 0.718532 0.632410
0.689845 0.699031 0.601678
0.680629 0.675959 0.561364
0.669947 0.646662 0.509209
0.643977 0.596674 0.447211
0.620813 0.543694 0.386267
0.691127 0.582177 0.365789
0.741146 0.605676 0.337102
0.782895 0.622889 0.299931
0.819059 0.635065 0.249546
0.850553 0.642237 0.177127
0.873106 0.648310 0.135225
0.890532 0.654505 0.126955
0.906157 0.659693 0.118776
0.918120 0.659876 0.114778
0.927825 0.656794 0.114961
0.937316 0.654658 0.117617
0.946319 0.652918 0.120821
0.954955 0.651789 0.126802
0.963165 0.651270 0.135134
0.970916 0.651331 0.147066
0.629267 0.687709 0.581720
0.631342 0.688685 0.584222
0.638209 0.693660 0.592645
0.643519 0.696162 0.598993
0.651362 0.700191 0.608606
0.661280 0.705623 0.620661
0.671962 0.712245 0.632868
0.680720 0.719081 0.640223
0.690669 0.727016 0.648554
0.701717 0.735744 0.657954
0.713558 0.745144 0.668177
0.723323 0.751583 0.674525
0.715541 0.734951 0.649531
0.706691 0.715236 0.620417
0.696925 0.692073 0.582788
0.684565 0.662257 0.533532
0.661830 0.616327 0.473365
0.642603 0.568627 0.414740
0.703456 0.601953 0.397742
0.750973 0.625208 0.373632
0.791196 0.642573 0.342077
0.826200 0.654688 0.300206
0.856962 0.661799 0.243290
0.881468 0.666255 0.189578
0.898100 0.671870 0.186404
0.912963 0.676570 0.183963
0.926177 0.680262 0.182712
0.935241 0.677058 0.184054
0.943999 0.674586 0.186984
0.952483 0.672847 0.192111
0.960540 0.671870 0.200046
0.968048 0.671534 0.211002
0.649683 0.706172 0.606683
0.651728 0.707393 0.609125
0.654322 0.708980 0.612299
0.659144 0.711757 0.618158
0.666041 0.715694 0.626551
0.674617 0.720851 0.636988
0.684718 0.727230 0.649226
0.692958 0.733547 0.656703
0.701839 0.740658 0.664424
0.711574 0.748409 0.673030
0.722164 0.756802 0.682429
0.733394 0.765591 0.692500
0.735958 0.763333 0.687037
0.728328 0.746975 0.661921
0.719600 0.727535 0.633539
0.709712 0.704707 0.598291
0.696010 0.674617 0.552361
0.675227 0.631708 0.494789
0.659297 0.588739 0.439216
0.713497 0.618585 0.425177
0.759213 0.641901 0.405249
0.798245 0.659449 0.378790
0.832242 0.671626 0.344091
0.862211 0.678981 0.297765
0.888823 0.682216 0.234257
0.904845 0.687648 0.234928
0.919158 0.692256 0.236210
0.931731 0.695918 0.237675
0.941558 0.695644 0.240696
0.949798 0.693416 0.246342
0.957641 0.691981 0.254459
0.964965 0.691341 0.265690
0.666163 0.722591 0.626642
0.667842 0.723720 0.628748
0.669978 0.725154 0.631373
0.674006 0.727626 0.636194
0.679835 0.731228 0.643275
0.687251 0.735836 0.652369
0.696345 0.741512 0.663569
0.704952 0.747646 0.673060
0.712856 0.753902 0.680171
0.721584 0.760830 0.688045
0.731075 0.768276 0.696742
0.741115 0.776089 0.705959
0.751522 0.784054 0.715572
0.747829 0.774350 0.699214
0.740352 0.758358 0.674098
0.731868 0.739376 0.645869
0.722103 0.717128 0.612909
0.707515 0.687190 0.570581
0.687587 0.646357 0.516136
0.674556 0.607965 0.464118
0.723842 0.635340 0.452491
0.767666 0.658503 0.436164
0.805509 0.675990 0.414282
0.838407 0.688136 0.385748
0.867582 0.695521 0.347753
0.893584 0.699153 0.297276
0.911284 0.702907 0.280278
0.924743 0.707057 0.283818
0.936645 0.710658 0.288579
0.946929 0.713313 0.294926
0.954528 0.711452 0.303380
0.961608 0.710445 0.315007
0.680720 0.738308 0.644282
0.682124 0.739315 0.646052
0.684016 0.740597 0.648341
0.687526 0.742824 0.652674
0.692683 0.745998 0.659083
0.699336 0.750118 0.667445
0.707362 0.755093 0.677638
0.716518 0.760952 0.689082
0.723537 0.766476 0.695552
0.731350 0.772580 0.702754
0.739803 0.779171 0.710597
0.748836 0.786099 0.719051
0.758267 0.793210 0.727810
0.765530 0.797543 0.732418
0.758877 0.784512 0.710842
0.751705 0.769131 0.686122
0.743709 0.750973 0.658289
0.734401 0.729763 0.627161
0.719478 0.700465 0.588708
0.700404 0.661982 0.538659
0.689357 0.627527 0.490883
0.735378 0.653559 0.481422
0.777462 0.676387 0.468299
0.813993 0.693629 0.450874
0.845823 0.705592 0.428260
0.873930 0.713039 0.397925
0.898772 0.716548 0.357305
0.918029 0.718868 0.328527
0.930602 0.722988 0.335393
0.941558 0.726589 0.343786
0.951049 0.729854 0.354070
0.958282 0.730495 0.367071
0.695338 0.754452 0.662440
0.696498 0.755154 0.663844
0.697932 0.756039 0.665675
0.700893 0.757839 0.669429
0.705379 0.760525 0.675166
0.711299 0.764065 0.682765
0.718563 0.768490 0.692134
0.727108 0.773770 0.703273
0.734524 0.779080 0.711360
0.741543 0.784482 0.717983
0.749203 0.790372 0.725246
0.757412 0.796567 0.732937
0.765988 0.802945 0.740902
0.774868 0.809384 0.749081
0.776608 0.807431 0.744350
0.770077 0.794888 0.723262
0.763180 0.780209 0.699092
0.755673 0.762936 0.671778
0.746944 0.742763 0.641505
0.731746 0.714137 0.606439
0.713283 0.677882 0.560998
0.703334 0.646326 0.517052
0.746670 0.671107 0.508721
0.786648 0.692897 0.497810
0.821836 0.709621 0.483864
0.852293 0.720974 0.465278
0.879179 0.728206 0.440620
0.903014 0.732021 0.408759
0.923674 0.733242 0.371893
0.935302 0.737423 0.382177
0.945220 0.741268 0.394415
0.953491 0.745144 0.409613
0.707698 0.768032 0.678157
0.708705 0.768704 0.679469
0.710018 0.769497 0.681178
0.712734 0.771084 0.684657
0.716793 0.773434 0.689906
0.722103 0.776547 0.696864
0.728664 0.780423 0.705440
0.736385 0.785061 0.715602
0.744533 0.790249 0.725795
0.750820 0.795041 0.731777
0.757748 0.800229 0.738277
0.765164 0.805722 0.745235
0.772946 0.811368 0.752468
0.781094 0.817197 0.759884
0.789395 0.823026 0.767422
0.786343 0.815976 0.754849
0.780179 0.804105 0.734554
0.773678 0.790188 0.711208
0.766751 0.774014 0.684779
0.758846 0.755123 0.655299
0.743893 0.727596 0.623072
0.726406 0.693812 0.582361
0.717739 0.665644 0.543542
0.758480 0.689143 0.536584
0.795590 0.708522 0.525597
0.829313 0.724361 0.513970
0.858640 0.735500 0.499489
0.884398 0.742824 0.480262
0.907073 0.746944 0.455970
0.926970 0.748409 0.426123
0.939208 0.751888 0.429023
0.947814 0.756497 0.446326
0.720241 0.781643 0.694514
0.721187 0.782223 0.695735
0.722347 0.782925 0.697292
0.724727 0.784268 0.700435
0.728328 0.786282 0.705165
0.733120 0.788968 0.711452
0.739010 0.792325 0.719265
0.746029 0.796384 0.728511
0.754147 0.801144 0.739162
0.760433 0.805509 0.745754
0.766567 0.809995 0.751431
0.773190 0.814755 0.757534
0.780240 0.819760 0.763943
0.787564 0.824857 0.770535
0.795041 0.830014 0.777279
0.801205 0.833616 0.781552
0.795499 0.823911 0.764767
0.789639 0.812650 0.745296
0.783658 0.799619 0.722957
0.777279 0.784543 0.697597
0.770352 0.767056 0.669276
0.755978 0.740902 0.638758
0.739467 0.709590 0.602472
0.731594 0.684169 0.568383
0.769436 0.705531 0.561608
0.805051 0.724300 0.553277
0.837461 0.739498 0.544427
0.865507 0.750423 0.533715
0.889860 0.757748 0.519615
0.910979 0.762203 0.502617
0.929076 0.764614 0.483986
0.942199 0.767391 0.479286
0.730953 0.793179 0.708614
0.731777 0.793698 0.709743
0.732906 0.794308 0.711177
0.735012 0.795499 0.714046
0.738338 0.797330 0.718441
0.742733 0.799710 0.724239
0.748196 0.802731 0.731472
0.754665 0.806363 0.739986
0.762234 0.810636 0.749783
0.769558 0.815122 0.758633
0.775143 0.819120 0.763790
0.781216 0.823392 0.769345
0.787625 0.827848 0.775204
0.794308 0.832456 0.781186
0.801175 0.837125 0.787320
0.808164 0.841794 0.793515
0.810147 0.841123 0.791196
0.804959 0.832151 0.775448
0.799680 0.821805 0.757229
0.794278 0.809842 0.736294
0.788663 0.795956 0.712276
0.781888 0.779294 0.685023
0.768673 0.754849 0.655421
0.753567 0.726131 0.622675
0.746731 0.703700 0.593500
0.781857 0.723110 0.587488
0.815305 0.740230 0.580438
0.846250 0.754910 0.574640
0.872740 0.765682 0.567834
0.895384 0.773251 0.559564
0.914519 0.778439 0.550805
0.930236 0.782254 0.543938
0.741421 0.804349 0.722530
0.742214 0.804776 0.723568
0.743160 0.805264 0.724819
0.745113 0.806302 0.727413
0.748104 0.807858 0.731380
0.752102 0.809964 0.736660
0.757107 0.812619 0.743252
0.763149 0.815854 0.751095
0.770138 0.819669 0.760098
0.777920 0.824002 0.770047
0.783597 0.827756 0.775662
0.789120 0.831571 0.780697
0.794949 0.835569 0.785977
0.801053 0.839689 0.791440
0.807309 0.843870 0.796994
0.813718 0.848051 0.802670
0.820188 0.852232 0.808347
0.818723 0.848234 0.800626
0.814023 0.839994 0.785885
0.809201 0.830411 0.768765
0.804318 0.819364 0.749020
0.799313 0.806577 0.726345
0.792905 0.790951 0.700679
0.781094 0.768521 0.672633
0.767941 0.742641 0.642054
0.762264 0.722957 0.617334
0.794736 0.740322 0.611963
0.826017 0.755886 0.606104
0.855131 0.769741 0.602716
0.879911 0.780362 0.599542
0.900572 0.788235 0.596735
0.917327 0.794369 0.595941
0.751278 0.814572 0.735531
0.751949 0.814939 0.736416
0.752804 0.815396 0.737575
0.754635 0.816312 0.739986
0.757473 0.817777 0.743740
0.761288 0.819699 0.748714
0.766110 0.822171 0.754971
0.771847 0.825254 0.762387
0.778531 0.828824 0.770932
0.786038 0.832883 0.780331
0.793027 0.836973 0.788510
0.798184 0.840452 0.793179
0.803555 0.844114 0.798093
0.809201 0.847807 0.803128
0.814969 0.851560 0.808286
0.820768 0.855314 0.813413
0.826566 0.858946 0.818448
0.832212 0.862455 0.823331
0.828061 0.856016 0.811490
0.823880 0.848569 0.797848
0.819699 0.840055 0.782223
0.815549 0.830198 0.764157
0.811398 0.818875 0.743404
0.805600 0.804593 0.719783
0.795499 0.784482 0.693690
0.784543 0.761593 0.665278
0.780545 0.744656 0.643427
0.810422 0.759854 0.638758
0.839109 0.773556 0.634028
0.865690 0.786282 0.632807
0.888182 0.796567 0.633356
0.906188 0.804685 0.636194
0.762051 0.825406 0.749599
0.762631 0.825711 0.750393
0.763424 0.826078 0.751400
0.765072 0.826871 0.753597
0.767697 0.828122 0.756985
0.771206 0.829801 0.761532
0.775601 0.831968 0.767208
0.780911 0.834592 0.773892
0.787015 0.837675 0.781613
0.793912 0.841245 0.790219
0.801419 0.845212 0.799466
0.806577 0.848417 0.804562
0.811337 0.851469 0.808743
0.816251 0.854612 0.813107
