data/fiter_cube/96143635/1022813/file.cube
# Created by Adobe Lightroom plugin Export LUT (1.17.0)
# www.johnrellis.com/lightroom/exportlut.htm
# Preset: 高雅通透灰色调人像_06 云集
# Color profile: C:\Program Files (x86)\Common Files\Adobe\Color\Profiles\Recommended\AdobeRGB1998.icc
LUT_3D_SIZE 32
DOMAIN_MIN 0.0 0.0 0.0
DOMAIN_MAX 1.0 1.0 1.0
0.175479 0.185306 0.154391
0.175479 0.185306 0.154391
0.179629 0.184665 0.154299
0.193576 0.183597 0.153964
0.207950 0.184268 0.153536
0.222843 0.185855 0.153780
0.240269 0.187747 0.154025
0.260533 0.189670 0.154452
0.284215 0.191440 0.154940
0.310735 0.193301 0.155093
0.339635 0.195254 0.155062
0.370184 0.196994 0.154726
0.402319 0.198886 0.153994
0.435401 0.200687 0.153536
0.469245 0.202670 0.152987
0.503502 0.204257 0.151980
0.537804 0.205692 0.151125
0.573693 0.207706 0.149966
0.608545 0.208957 0.148836
0.643610 0.210239 0.147616
0.678126 0.211643 0.146700
0.711055 0.213382 0.145998
0.742184 0.215152 0.146059
0.771817 0.217594 0.146822
0.800931 0.220005 0.148013
0.829770 0.223423 0.150210
0.858274 0.227390 0.153719
0.886229 0.232303 0.158724
0.913817 0.238773 0.165225
0.940978 0.246220 0.174075
0.967834 0.255863 0.185275
0.994415 0.267765 0.199405
0.175479 0.185306 0.154391
0.175479 0.185306 0.154391
0.180606 0.186893 0.154055
0.194369 0.187991 0.153475
0.208347 0.188815 0.153475
0.223331 0.189944 0.154086
0.240848 0.191653 0.154147
0.261234 0.193362 0.154604
0.284916 0.195315 0.155184
0.311315 0.197147 0.155215
0.340154 0.198947 0.155184
0.370825 0.200809 0.154818
0.402777 0.202701 0.154116
0.435828 0.204349 0.153658
0.469642 0.206424 0.152804
0.503746 0.207797 0.152132
0.537987 0.209415 0.151247
0.573663 0.211002 0.150027
0.608331 0.212741 0.148867
0.643153 0.213626 0.147860
0.677668 0.215366 0.146639
0.710475 0.216556 0.146151
0.741604 0.218479 0.146059
0.771267 0.220584 0.146670
0.800412 0.223667 0.148074
0.829252 0.226535 0.150484
0.857755 0.230259 0.154055
0.885740 0.235172 0.159030
0.913390 0.241520 0.165499
0.940581 0.249180 0.174411
0.967437 0.258640 0.185489
0.994049 0.270146 0.199710
0.176028 0.187961 0.154818
0.177493 0.188479 0.155276
0.179812 0.189212 0.155856
0.195102 0.193942 0.153262
0.209049 0.194949 0.153658
0.224247 0.195651 0.154299
0.241672 0.197024 0.154849
0.262028 0.198337 0.155337
0.285740 0.200198 0.155489
0.312200 0.202060 0.155612
0.341039 0.204044 0.155428
0.371679 0.205814 0.154910
0.403571 0.207218 0.154543
0.436774 0.209476 0.153567
0.470375 0.211337 0.152895
0.504448 0.212772 0.152193
0.538811 0.214359 0.151308
0.574212 0.216098 0.149905
0.608759 0.217319 0.148806
0.643488 0.218448 0.147799
0.677821 0.219821 0.146792
0.710628 0.221286 0.146120
0.741665 0.222934 0.146212
0.771298 0.225193 0.146975
0.800381 0.227634 0.148470
0.829221 0.230564 0.150698
0.857694 0.234592 0.154330
0.885710 0.239109 0.159335
0.913329 0.245182 0.166110
0.940520 0.252842 0.174960
0.967346 0.261967 0.186130
0.993927 0.273655 0.200168
0.182132 0.197787 0.160372
0.184207 0.197940 0.160708
0.186984 0.198428 0.161379
0.190555 0.199435 0.163088
0.207340 0.204349 0.157992
0.225742 0.207706 0.155459
0.243503 0.208255 0.156069
0.264317 0.209354 0.156405
0.287907 0.210758 0.156588
0.314427 0.212772 0.156527
0.343420 0.214176 0.156222
0.374090 0.216098 0.155398
0.405798 0.217807 0.154696
0.438911 0.219821 0.153841
0.472480 0.221286 0.153201
0.506462 0.222843 0.152316
0.541009 0.224308 0.151247
0.576013 0.225956 0.150057
0.610071 0.227024 0.149142
0.644526 0.228397 0.147829
0.678614 0.229892 0.146822
0.711177 0.231205 0.146365
0.742184 0.233066 0.146395
0.771664 0.234440 0.147433
0.800931 0.237125 0.148836
0.829831 0.239902 0.151369
0.858335 0.243290 0.155184
0.886351 0.248112 0.160494
0.913878 0.254032 0.167300
0.940917 0.261143 0.176394
0.967620 0.270329 0.187564
0.994049 0.281315 0.202060
0.190188 0.207156 0.167483
0.191501 0.207370 0.167544
0.193515 0.207614 0.168093
0.196902 0.208286 0.168856
0.201083 0.209537 0.170504
0.218387 0.215793 0.166781
0.245640 0.222477 0.159365
0.267643 0.225742 0.158358
0.291539 0.226993 0.158236
0.318212 0.228611 0.157626
0.346960 0.230259 0.156832
0.377569 0.231754 0.156008
0.409400 0.233188 0.155154
0.442329 0.235294 0.154269
0.475776 0.236576 0.153475
0.509758 0.238346 0.152377
0.544579 0.239658 0.151369
0.579156 0.241276 0.150179
0.613062 0.242344 0.149142
0.647211 0.243473 0.148165
0.680812 0.244511 0.147250
0.713039 0.245853 0.146944
0.743709 0.247471 0.147066
0.773098 0.249210 0.148196
0.802152 0.251255 0.149966
0.830961 0.253452 0.152834
0.859281 0.257023 0.156863
0.887144 0.261570 0.162142
0.914519 0.267063 0.169284
0.941436 0.273838 0.178531
0.968017 0.282231 0.190280
0.994324 0.293034 0.204715
0.197299 0.217350 0.173861
0.198550 0.217472 0.174075
0.200076 0.217563 0.174136
0.203616 0.217838 0.174868
0.207858 0.218997 0.175967
0.212833 0.220340 0.177768
0.230320 0.227268 0.175051
0.267582 0.239139 0.163790
0.296086 0.246586 0.160403
0.323369 0.249058 0.159060
0.352239 0.250492 0.158083
0.382788 0.252079 0.156924
0.414466 0.253635 0.155856
0.447303 0.255161 0.154879
0.480659 0.256657 0.153841
0.514702 0.258183 0.152712
0.549493 0.259312 0.151705
0.583703 0.260563 0.150546
0.617243 0.261448 0.149660
0.651087 0.262547 0.148714
0.684321 0.263554 0.147951
0.716121 0.264561 0.147738
0.752285 0.266941 0.148806
0.781125 0.268559 0.150088
0.809598 0.270146 0.152651
0.837736 0.272557 0.155917
0.865385 0.275853 0.160311
0.892546 0.279942 0.166506
0.919249 0.285130 0.174289
0.945617 0.291478 0.184085
0.971557 0.299596 0.196262
0.997314 0.309972 0.211154
0.205325 0.229282 0.180789
0.206485 0.229374 0.181094
0.207950 0.229465 0.181277
0.211246 0.229648 0.181735
0.215824 0.230106 0.182498
0.221103 0.231846 0.184146
0.226841 0.233371 0.186099
0.244541 0.240696 0.185031
0.287572 0.256291 0.172366
0.327520 0.268223 0.163577
0.360113 0.275853 0.160037
0.390631 0.277073 0.158572
0.422461 0.278630 0.157168
0.455146 0.279698 0.156039
0.488319 0.280980 0.154696
0.522911 0.282322 0.153597
0.557244 0.283513 0.152377
0.591180 0.284367 0.151095
0.624445 0.284733 0.150423
0.658137 0.285557 0.149416
0.690913 0.286412 0.149172
0.722683 0.287480 0.149172
0.752834 0.288457 0.150271
0.782101 0.289586 0.152102
0.810910 0.291203 0.154971
0.839139 0.293400 0.158694
0.866728 0.296178 0.163882
0.893706 0.299962 0.170047
0.920195 0.304784 0.178256
0.946288 0.310826 0.188418
0.972045 0.318395 0.200809
0.997589 0.327977 0.215976
0.214603 0.243320 0.189090
0.215671 0.243259 0.189059
0.217014 0.243412 0.189334
0.220218 0.243412 0.189700
0.224857 0.243503 0.190311
0.230350 0.244633 0.191470
0.236790 0.246738 0.193484
0.243565 0.248508 0.196109
0.260441 0.255528 0.197238
0.308659 0.274601 0.182834
0.359686 0.291356 0.168093
0.395544 0.301213 0.163027
0.430121 0.306798 0.159396
0.462623 0.307530 0.157870
0.496559 0.308568 0.156558
0.530571 0.309545 0.155093
0.564172 0.310277 0.153841
0.597467 0.310491 0.152987
0.630243 0.310918 0.152010
0.663294 0.311650 0.151095
0.695430 0.311955 0.150973
0.726375 0.312322 0.151644
0.756039 0.313085 0.152956
0.784848 0.314031 0.155245
0.813291 0.315038 0.158602
0.841245 0.316899 0.162814
0.868528 0.319463 0.168032
0.895171 0.322698 0.174960
0.921447 0.327031 0.183566
0.947295 0.332586 0.193973
0.972778 0.339696 0.207034
0.998077 0.348577 0.222629
0.225803 0.260136 0.198825
0.226993 0.260136 0.199008
0.228367 0.260166 0.199283
0.231327 0.260014 0.199435
0.235935 0.260075 0.200107
0.241764 0.259770 0.200595
0.248173 0.261906 0.202579
0.255650 0.264500 0.204837
0.263371 0.266361 0.208011
0.278172 0.272374 0.212436
0.330632 0.294163 0.196323
0.385779 0.313237 0.179355
0.431250 0.326665 0.168643
0.471687 0.337896 0.162173
0.506004 0.339940 0.159762
0.539330 0.340093 0.158328
0.572473 0.340154 0.156771
0.605249 0.340337 0.155520
0.637507 0.339940 0.154726
0.669581 0.339849 0.154360
0.700893 0.339940 0.154513
0.731106 0.339940 0.155459
0.760037 0.340124 0.157198
0.788479 0.340673 0.160067
0.816526 0.341558 0.163638
0.843992 0.342931 0.168338
0.870909 0.345006 0.174197
0.897215 0.348058 0.181613
0.923064 0.351781 0.190524
0.948577 0.356817 0.201602
0.973754 0.363317 0.214725
0.998718 0.371801 0.230716
0.239353 0.279667 0.211032
0.240513 0.279576 0.211002
0.241794 0.279637 0.211246
0.244663 0.279362 0.211490
0.249088 0.279057 0.211765
0.254765 0.278660 0.212222
0.261265 0.279057 0.213352
0.268864 0.281559 0.215824
0.277684 0.284611 0.218906
0.285740 0.286381 0.222385
0.297917 0.290867 0.229984
0.353552 0.314885 0.213291
0.412177 0.336065 0.194675
0.468574 0.353796 0.176486
0.509636 0.365057 0.169528
0.549340 0.373724 0.163241
0.582269 0.373449 0.161501
0.614405 0.372473 0.160403
0.646143 0.371893 0.159579
0.677180 0.371252 0.159121
0.707454 0.370550 0.159701
0.736477 0.369848 0.161044
0.764645 0.369329 0.163333
0.792386 0.369299 0.166293
0.819913 0.369757 0.170352
0.846952 0.370855 0.175540
0.873411 0.372473 0.181827
0.899382 0.375006 0.189670
0.924987 0.378393 0.199130
0.950134 0.382940 0.210727
0.975036 0.389075 0.224430
0.999695 0.397040 0.240604
0.255161 0.301152 0.225254
0.256016 0.301091 0.225406
0.257359 0.300999 0.225467
0.260227 0.300725 0.225681
0.264378 0.300206 0.225895
0.269841 0.299626 0.226139
0.276280 0.298863 0.226658
0.283665 0.300389 0.228611
0.291966 0.303075 0.231510
0.302007 0.306523 0.235172
0.310704 0.308598 0.239628
0.323247 0.312902 0.247837
0.377539 0.336767 0.233646
0.438788 0.359503 0.213748
0.499947 0.379248 0.191684
0.546502 0.392401 0.180026
0.588312 0.403571 0.172427
0.623926 0.407446 0.168032
0.654810 0.405768 0.167147
0.684840 0.404334 0.166903
0.714107 0.402899 0.167453
0.742306 0.401617 0.169070
0.769802 0.400427 0.171725
0.797116 0.400183 0.175082
0.824155 0.400183 0.179294
0.850645 0.400641 0.184939
0.876555 0.401770 0.191775
0.902007 0.403723 0.200015
0.927123 0.406683 0.209720
0.951812 0.410773 0.221683
0.976287 0.416327 0.235660
1.000000 0.423743 0.252689
0.272953 0.324315 0.241978
0.273899 0.324315 0.242191
0.275181 0.324071 0.242191
0.277653 0.323552 0.242100
0.281682 0.323064 0.242374
0.286717 0.322271 0.242557
0.292821 0.321233 0.242618
0.299901 0.320500 0.243168
0.308263 0.323278 0.246311
0.317754 0.326482 0.249943
0.328252 0.329961 0.254002
0.337285 0.331884 0.258976
0.352331 0.338140 0.269413
0.405035 0.361700 0.258610
0.469154 0.385901 0.237858
0.532341 0.406775 0.214694
0.587823 0.422980 0.194461
0.628992 0.433906 0.187106
0.668421 0.443915 0.179629
0.697658 0.442023 0.178805
0.725216 0.439368 0.179690
0.752102 0.437110 0.181430
0.778683 0.435126 0.184268
0.805020 0.433967 0.187778
0.831205 0.433326 0.192447
0.856870 0.433265 0.198154
0.881987 0.433783 0.205264
0.906676 0.435096 0.213748
0.930968 0.437507 0.224002
0.955077 0.441108 0.235996
0.978882 0.446082 0.250492
1.000000 0.452979 0.267826
0.293248 0.349310 0.261387
0.294133 0.349310 0.261601
0.295232 0.349096 0.261509
0.297673 0.348608 0.261418
0.301457 0.347967 0.261448
0.306157 0.346990 0.261418
0.311955 0.345861 0.261509
0.318486 0.344427 0.261540
0.326146 0.344823 0.262913
0.335302 0.347875 0.266423
0.345647 0.351354 0.270665
0.356939 0.355230 0.275303
0.366308 0.357122 0.280827
0.378607 0.360815 0.289677
0.428260 0.383307 0.282506
0.493629 0.408759 0.262364
0.557855 0.430671 0.239628
0.619409 0.449012 0.213077
0.661402 0.460212 0.203891
0.699153 0.469734 0.197818
0.732204 0.475166 0.194308
0.758297 0.471962 0.195804
0.784207 0.469459 0.198520
0.810056 0.467536 0.202274
0.835569 0.466255 0.206851
0.860624 0.465614 0.212711
0.885161 0.465644 0.219974
0.909300 0.466499 0.228763
0.933196 0.468421 0.238956
0.956786 0.471473 0.251377
0.980102 0.476020 0.266239
1.000000 0.482429 0.283787
0.314672 0.375189 0.282383
0.315526 0.375036 0.282444
0.316503 0.374792 0.282322
0.318761 0.374273 0.282231
0.322057 0.373327 0.282017
0.326329 0.372045 0.281682
0.331640 0.370672 0.281529
0.337804 0.369024 0.281254
0.344366 0.366979 0.280766
0.352911 0.369024 0.283482
0.362646 0.372259 0.287541
0.373388 0.375769 0.291875
0.385107 0.379583 0.296788
0.394354 0.381201 0.302586
0.405707 0.384009 0.311192
0.451423 0.404913 0.308171
0.517876 0.431525 0.288396
0.582330 0.453956 0.266117
0.643793 0.472938 0.240909
0.691859 0.486000 0.223636
0.727840 0.495247 0.219272
0.762051 0.503929 0.215732
0.790219 0.504906 0.216251
0.815457 0.502342 0.219791
0.840360 0.500420 0.224338
0.864714 0.499184 0.230289
0.888731 0.498695 0.237430
0.912352 0.499153 0.246067
0.935637 0.500420 0.256718
0.958709 0.503044 0.269383
0.981537 0.507042 0.284459
1.000000 0.513176 0.302464
0.337194 0.401434 0.304662
0.337804 0.401221 0.304601
0.338598 0.400824 0.304356
0.340642 0.400244 0.304295
0.343603 0.399207 0.303960
0.347601 0.397742 0.303349
0.352331 0.396094 0.302831
0.357946 0.394171 0.302342
0.364080 0.392004 0.301549
0.371221 0.390631 0.301640
0.380438 0.393500 0.305333
0.390723 0.396765 0.309606
0.401892 0.400366 0.314305
0.413916 0.404242 0.319432
0.422950 0.405493 0.325353
0.433204 0.407324 0.333593
0.474281 0.426276 0.334722
0.541527 0.453773 0.315465
0.606653 0.477333 0.294133
0.667628 0.496925 0.270848
0.720546 0.511376 0.245853
0.755123 0.520470 0.243137
0.788724 0.529473 0.241459
0.820981 0.538079 0.240513
0.845182 0.535576 0.244999
0.869047 0.533715 0.250736
0.892485 0.532738 0.257969
0.915618 0.532677 0.266850
0.938415 0.533593 0.277714
0.961028 0.535912 0.290562
0.983368 0.539666 0.305913
1.000000 0.545190 0.324468
0.360174 0.427832 0.328130
0.360845 0.427558 0.327855
0.361669 0.427314 0.327855
0.363470 0.426520 0.327489
0.366278 0.425544 0.327153
0.369970 0.424109 0.326604
0.374334 0.422492 0.325841
0.379553 0.420386 0.325017
0.385260 0.418006 0.324102
0.391547 0.415290 0.322942
0.399329 0.415473 0.324437
0.409033 0.418494 0.328435
0.419471 0.421607 0.332891
0.430671 0.425086 0.337652
0.442664 0.428687 0.342748
0.451179 0.429419 0.348516
0.460548 0.430426 0.356512
0.496742 0.447395 0.361822
0.565209 0.476234 0.343999
0.631403 0.501274 0.324346
0.690669 0.520867 0.303258
0.742672 0.535515 0.279545
0.782010 0.546136 0.269596
0.815000 0.555627 0.269688
0.846525 0.564965 0.270909
0.873808 0.569421 0.274723
0.896574 0.567895 0.281895
0.919066 0.567346 0.290654
0.941222 0.567773 0.301549
0.963195 0.569482 0.314488
0.984833 0.572717 0.329992
1.000000 0.577874 0.348516
0.383795 0.454078 0.352300
0.384314 0.453834 0.352209
0.385016 0.453376 0.351812
0.386603 0.452705 0.351507
0.389258 0.451637 0.351171
0.392554 0.450172 0.350378
0.396521 0.448341 0.349493
0.401343 0.446174 0.348547
0.406592 0.443732 0.347265
0.412360 0.440772 0.345769
0.418463 0.437476 0.344182
0.427466 0.440009 0.347814
0.437415 0.442908 0.351995
0.448096 0.446082 0.356634
0.459388 0.449378 0.361395
0.471290 0.452918 0.366644
0.479622 0.453407 0.372686
0.487953 0.453681 0.380255
0.519463 0.468727 0.390112
0.589441 0.499367 0.374121
0.655207 0.525109 0.356481
0.712490 0.544671 0.337469
0.763241 0.559655 0.316350
0.807675 0.571801 0.298131
0.839750 0.581689 0.300114
0.870176 0.591424 0.303929
0.899077 0.601068 0.308873
0.922087 0.602197 0.317327
0.943664 0.602228 0.328038
0.964996 0.603510 0.341100
0.986084 0.606287 0.356542
1.000000 0.611017 0.375494
0.407996 0.480415 0.377539
0.408576 0.480201 0.377417
0.411902 0.482704 0.379980
0.413367 0.482033 0.379675
0.415503 0.480690 0.378790
0.418463 0.479133 0.377874
0.422065 0.477211 0.376898
0.426246 0.474769 0.375494
0.431128 0.472084 0.374029
0.436469 0.469062 0.372381
0.442023 0.465553 0.370275
0.448768 0.463691 0.370001
0.458167 0.466407 0.374029
0.468238 0.469337 0.378332
0.479042 0.472389 0.383032
0.490517 0.475685 0.388128
0.502525 0.479225 0.393469
0.510613 0.479561 0.399634
0.517937 0.479011 0.406744
0.544671 0.492134 0.421210
0.615564 0.524285 0.407294
0.679408 0.549981 0.391730
0.734493 0.569451 0.375189
0.784634 0.585229 0.356573
0.830686 0.598169 0.335149
0.863920 0.608484 0.333806
0.893095 0.618585 0.339849
0.920714 0.628748 0.347631
0.945892 0.636988 0.357671
0.966583 0.637842 0.370245
0.986999 0.640162 0.385840
1.000000 0.644465 0.404517
0.433875 0.508049 0.404791
0.434638 0.508232 0.405066
0.435676 0.508232 0.405310
0.437415 0.507927 0.405310
0.439612 0.506920 0.404700
0.442451 0.505516 0.403967
0.445899 0.503655 0.402838
0.449775 0.501427 0.401526
0.454414 0.498695 0.399878
0.459236 0.495644 0.397986
0.464515 0.492195 0.395819
0.469978 0.488350 0.393591
0.477852 0.488777 0.395331
0.487617 0.491585 0.399634
0.497963 0.494484 0.404211
0.508873 0.497627 0.408972
0.520470 0.500999 0.414313
0.532586 0.504540 0.419928
0.540673 0.504906 0.426581
0.547631 0.504112 0.433539
0.570459 0.515679 0.451484
0.639765 0.548028 0.440558
0.700954 0.573602 0.427771
0.754818 0.593713 0.413916
0.804257 0.610468 0.398138
0.849516 0.624048 0.379492
0.886503 0.635126 0.369207
0.914580 0.645869 0.378088
0.941161 0.656886 0.388983
0.966247 0.668238 0.402258
0.987671 0.674250 0.417609
1.000000 0.678218 0.436530
0.460029 0.535668 0.433021
0.460853 0.535760 0.433173
0.461769 0.535760 0.433356
0.463294 0.535454 0.433387
0.465431 0.534569 0.432868
0.468086 0.533165 0.431983
0.471168 0.531304 0.430823
0.474830 0.528985 0.429328
0.478981 0.526390 0.427680
0.483589 0.523491 0.425788
0.488655 0.520073 0.423651
0.493690 0.516289 0.421149
0.499062 0.512200 0.418341
0.508385 0.514916 0.422583
0.518425 0.517754 0.427070
0.528923 0.520745 0.431861
0.540032 0.524010 0.436988
0.551812 0.527520 0.442512
0.564141 0.531212 0.448585
0.572076 0.531548 0.455360
0.579217 0.530938 0.462898
0.601282 0.542199 0.481025
0.662959 0.571984 0.476143
0.721736 0.597528 0.466011
0.774960 0.618585 0.454536
0.823545 0.636255 0.441566
0.867582 0.650629 0.426154
0.907774 0.662257 0.408057
0.935027 0.673884 0.419287
0.960510 0.685847 0.433448
0.984436 0.698329 0.449958
1.000000 0.711666 0.470222
0.487709 0.564202 0.463020
0.488380 0.564324 0.463294
0.489296 0.564294 0.463386
0.490669 0.563958 0.463264
0.492622 0.563134 0.462898
0.495003 0.561700 0.461860
0.497932 0.559991 0.460731
0.501213 0.557794 0.459236
0.505150 0.555138 0.457435
0.509361 0.552178 0.455329
0.514000 0.548882 0.453132
0.518853 0.545129 0.450507
0.523796 0.540887 0.447395
0.530480 0.539208 0.447150
0.540063 0.541985 0.451637
0.550347 0.545006 0.456458
0.561212 0.548302 0.461677
0.572717 0.551843 0.467262
0.584833 0.555627 0.473304
0.597406 0.559655 0.479744
0.605249 0.560052 0.487373
0.612482 0.559716 0.495338
0.632563 0.569970 0.513725
0.686427 0.597040 0.514794
0.743618 0.623255 0.507713
0.795987 0.645472 0.499153
0.843320 0.664027 0.489326
0.886168 0.679438 0.477668
0.925292 0.692073 0.463478
0.955566 0.704005 0.465522
0.979797 0.717220 0.483345
1.000000 0.731411 0.504540
0.517815 0.594018 0.496559
0.518242 0.593896 0.496376
0.518791 0.593713 0.496315
0.520012 0.593225 0.496010
0.521599 0.592309 0.495277
0.523735 0.591058 0.494484
0.526360 0.589380 0.493141
0.529503 0.587335 0.491615
0.533043 0.584985 0.489815
0.537163 0.582238 0.487892
0.541527 0.579156 0.485603
0.546166 0.575616 0.482887
0.550958 0.571618 0.479805
0.555718 0.567132 0.476295
0.563897 0.568017 0.478798
0.573632 0.570825 0.483528
0.583948 0.573785 0.488563
0.594781 0.577050 0.494179
0.606073 0.580468 0.500114
0.617792 0.584100 0.506401
0.629877 0.588037 0.513298
0.637049 0.588128 0.521019
0.643641 0.587640 0.529259
0.661219 0.596643 0.547448
0.707820 0.621241 0.553826
0.764126 0.648554 0.549493
0.815274 0.671778 0.543938
0.861326 0.691463 0.537469
0.902953 0.707973 0.529381
0.940887 0.721859 0.519371
0.974121 0.734188 0.512993
0.996948 0.749355 0.535454
0.547601 0.621210 0.530175
0.547967 0.621210 0.530205
0.548577 0.621088 0.530205
0.549615 0.620630 0.529839
0.551049 0.619837 0.529229
0.552850 0.618616 0.528161
0.555138 0.617060 0.526909
0.557855 0.615259 0.525353
0.561089 0.613123 0.523613
0.564721 0.610620 0.521569
0.568750 0.607813 0.519219
0.573022 0.604486 0.516411
0.577478 0.600946 0.513390
0.582086 0.596796 0.509728
0.587243 0.593133 0.506859
0.596368 0.595697 0.511559
0.606073 0.598505 0.516747
0.616205 0.601465 0.522240
0.626825 0.604700 0.528344
0.637781 0.608087 0.534722
0.649073 0.611688 0.541466
0.660487 0.615503 0.548638
0.667079 0.615564 0.556847
0.673335 0.615259 0.565301
0.687892 0.622492 0.581872
0.728908 0.645624 0.592859
0.784451 0.674159 0.591241
0.834165 0.698451 0.588830
0.878721 0.719234 0.585687
0.918883 0.737148 0.581903
0.955261 0.752926 0.577691
0.988220 0.767330 0.574151
0.579492 0.648157 0.567071
0.579919 0.648219 0.567254
0.580346 0.648005 0.567071
0.581201 0.647578 0.566705
0.582269 0.646754 0.565911
0.583764 0.645716 0.564874
0.585626 0.644251 0.563470
0.587823 0.642481 0.561730
0.590478 0.640497 0.559808
0.593500 0.638087 0.557580
0.596857 0.635462 0.555077
0.600549 0.632532 0.552300
0.604547 0.629267 0.549279
0.608606 0.625513 0.545617
0.612909 0.621393 0.541680
0.619135 0.620050 0.541466
0.628016 0.622492 0.546471
0.637293 0.625147 0.551812
0.647028 0.628077 0.557610
0.657191 0.631220 0.563989
0.667597 0.634607 0.570733
0.678248 0.638209 0.577813
0.689113 0.641993 0.585107
0.695094 0.642023 0.593042
0.701015 0.641993 0.601129
0.714809 0.649012 0.616602
0.751247 0.671046 0.631250
0.805264 0.700465 0.632166
0.853239 0.725704 0.632654
0.896147 0.747646 0.632837
0.934508 0.767300 0.633783
0.968994 0.785428 0.636072
0.609857 0.673243 0.602380
0.610254 0.673243 0.602472
0.610651 0.673091 0.602380
0.611383 0.672694 0.602045
0.612329 0.672023 0.601373
0.613672 0.671077 0.600549
0.615259 0.669734 0.599268
0.617151 0.668177 0.597681
0.619471 0.666407 0.596002
0.622187 0.664393 0.594202
0.625116 0.662074 0.591974
0.628443 0.659449 0.589471
0.631983 0.656550 0.586603
0.635676 0.653285 0.583368
0.639551 0.649683 0.579736
0.643519 0.645686 0.575677
0.650935 0.646784 0.578820
0.659541 0.649348 0.583978
0.668544 0.652125 0.589563
0.677974 0.655207 0.595514
0.687709 0.658473 0.601801
0.697658 0.661982 0.608331
0.707912 0.665705 0.615137
0.718349 0.669612 0.622034
0.724117 0.669886 0.629694
0.730007 0.670192 0.637354
0.742550 0.676509 0.650935
0.774716 0.697353 0.668574
0.826902 0.727565 0.671870
0.872953 0.753811 0.675319
0.913878 0.777249 0.679377
0.950164 0.798947 0.685573
0.639918 0.699153 0.637079
0.640223 0.699123 0.637018
0.640497 0.698970 0.636957
0.641047 0.698543 0.636469
0.641871 0.697871 0.635889
0.642969 0.696925 0.635004
0.644373 0.695735 0.633936
0.646082 0.694362 0.632685
0.648157 0.692683 0.631159
0.650538 0.690883 0.629511
0.653193 0.688746 0.627527
0.656184 0.686488 0.625483
0.659358 0.683864 0.623011
0.662776 0.680934 0.620203
0.666285 0.677729 0.617090
0.669978 0.674159 0.613642
0.674342 0.671290 0.611078
0.682277 0.673762 0.615747
0.690669 0.676509 0.620935
0.699458 0.679561 0.626429
0.708614 0.682856 0.632258
0.718074 0.686336 0.638300
0.727749 0.689998 0.644556
0.737697 0.693874 0.651026
0.747677 0.697871 0.657618
0.753384 0.698360 0.664759
0.759335 0.698970 0.672145
0.770840 0.704799 0.684504
0.797971 0.723903 0.704829
0.848020 0.755001 0.710964
0.891936 0.782559 0.717861
0.930632 0.807919 0.726802
0.668513 0.725185 0.669642
0.668727 0.725124 0.669581
0.669001 0.724971 0.669429
0.669551 0.724636 0.669245
0.670314 0.724056 0.668666
0.671473 0.723323 0.668116
0.672938 0.722408 0.667353
0.674739 0.721340 0.666468
0.676905 0.720119 0.665492
0.679377 0.718776 0.664485
0.682094 0.717098 0.663050
0.685084 0.715267 0.661555
0.688289 0.713161 0.659754
0.691615 0.710719 0.657618
0.695064 0.707973 0.655146
0.698604 0.704891 0.652277
0.702266 0.701564 0.649165
0.707881 0.701015 0.649653
0.715724 0.703761 0.654383
0.723995 0.706783 0.659419
0.732570 0.709987 0.664729
0.741451 0.713436 0.670253
0.750607 0.717067 0.675990
0.760006 0.720851 0.682033
0.769589 0.724819 0.688167
0.779110 0.728786 0.694697
0.784726 0.729519 0.701778
0.790494 0.730373 0.709102
0.800931 0.735805 0.720668
0.823178 0.753414 0.743679
0.870634 0.785397 0.752712
0.912016 0.814542 0.763668
0.698024 0.752621 0.702968
0.698238 0.752590 0.702937
0.698451 0.752468 0.702846
0.698909 0.752132 0.702541
0.699611 0.751553 0.702052
0.700526 0.750851 0.701411
0.701839 0.750057 0.700771
0.703395 0.749020 0.699825
0.705257 0.747890 0.698939
0.707424 0.746548 0.697841
0.709865 0.745052 0.696529
0.712551 0.743343 0.695186
0.715480 0.741482 0.693599
0.718624 0.739315 0.691737
