data/fiter_cube/96143635/1022813/file.cube
# Created by Adobe Lightroom plugin Export LUT (1.17.0)
# www.johnrellis.com/lightroom/exportlut.htm
# Preset: 高雅通透灰色调人像_06 云集
# Color profile: C:\Program Files (x86)\Common Files\Adobe\Color\Profiles\Recommended\AdobeRGB1998.icc
LUT_3D_SIZE 8
DOMAIN_MIN 0.000000 0.000000 0.000000
DOMAIN_MAX 0.903226 0.903226 0.903226
0.175479 0.185306 0.154391
0.207950 0.184268 0.153536
0.284215 0.191440 0.154940
0.402319 0.198886 0.153994
0.537804 0.205692 0.151125
0.678126 0.211643 0.146700
0.800931 0.220005 0.148013
0.913817 0.238773 0.165225
0.190188 0.207156 0.167483
0.201083 0.209537 0.170504
0.291539 0.226993 0.158236
0.409400 0.233188 0.155154
0.544579 0.239658 0.151369
0.680812 0.244511 0.147250
0.802152 0.251255 0.149966
0.914519 0.267063 0.169284
0.225803 0.260136 0.198825
0.235935 0.260075 0.200107
0.263371 0.266361 0.208011
0.431250 0.326665 0.168643
0.572473 0.340154 0.156771
0.700893 0.339940 0.154513
0.816526 0.341558 0.163638
0.923064 0.351781 0.190524
0.293248 0.349310 0.261387
0.301457 0.347967 0.261448
0.326146 0.344823 0.262913
0.366308 0.357122 0.280827
0.557855 0.430671 0.239628
0.732204 0.475166 0.194308
0.835569 0.466255 0.206851
0.933196 0.468421 0.238956
0.383795 0.454078 0.352300
0.389258 0.451637 0.351171
0.406592 0.443732 0.347265
0.437415 0.442908 0.351995
0.479622 0.453407 0.372686
0.655207 0.525109 0.356481
0.839750 0.581689 0.300114
0.943664 0.602228 0.328038
0.487709 0.564202 0.463020
0.492622 0.563134 0.462898
0.505150 0.555138 0.457435
0.523796 0.540887 0.447395
0.561212 0.548302 0.461677
0.605249 0.560052 0.487373
0.743618 0.623255 0.507713
0.925292 0.692073 0.463478
0.609857 0.673243 0.602380
0.612329 0.672023 0.601373
0.619471 0.666407 0.596002
0.631983 0.656550 0.586603
0.650935 0.646784 0.578820
0.687709 0.658473 0.601801
0.724117 0.669886 0.629694
0.826902 0.727565 0.671870
0.726192 0.778775 0.734524
0.727657 0.777859 0.733822
0.733059 0.774868 0.731319
0.742916 0.769833 0.727260
0.754543 0.760220 0.718441
0.778317 0.762600 0.725002
0.811917 0.777615 0.747555
0.843717 0.791379 0.773404
0.183658 0.192355 0.169162
0.197360 0.198062 0.173434
0.282841 0.187930 0.174594
0.400488 0.190402 0.169253
0.535271 0.195438 0.165957
0.672389 0.200931 0.162264
0.796445 0.209293 0.164370
0.910674 0.228763 0.180972
0.192477 0.208957 0.176730
0.208560 0.217838 0.183993
0.289952 0.223758 0.177981
0.407691 0.226383 0.171389
0.541985 0.231144 0.167269
0.676753 0.235538 0.163699
0.798306 0.242161 0.166934
0.911315 0.258305 0.185245
0.231144 0.267460 0.211124
0.245365 0.269902 0.215946
0.271183 0.274815 0.222934
0.431312 0.328466 0.189151
0.566918 0.334020 0.177859
0.695644 0.333623 0.174838
0.811093 0.335271 0.182193
0.919402 0.345739 0.206210
0.300816 0.356359 0.275914
0.309880 0.355413 0.277043
0.332647 0.350683 0.276188
0.369726 0.361273 0.292027
0.559503 0.432532 0.252842
0.724392 0.469032 0.216892
0.829679 0.461341 0.225711
0.929595 0.464210 0.253910
0.390936 0.459632 0.365667
0.395819 0.457038 0.364050
0.412116 0.448768 0.359350
0.440497 0.445624 0.361334
0.481117 0.455482 0.380743
0.657893 0.527520 0.364813
0.837949 0.582605 0.317845
0.941009 0.600031 0.342992
0.492439 0.567620 0.473243
0.496193 0.565515 0.471748
0.508202 0.557702 0.466102
0.526513 0.543664 0.455848
0.562982 0.550072 0.468666
0.606897 0.562158 0.494362
0.746242 0.625910 0.514031
0.925933 0.693294 0.471138
0.612360 0.674495 0.608576
0.614069 0.672755 0.606744
0.621210 0.667353 0.601648
0.633661 0.657984 0.592767
0.651820 0.647547 0.583581
0.687984 0.658991 0.605737
0.723751 0.670039 0.632471
0.827878 0.728298 0.673335
0.727535 0.779873 0.738094
0.729152 0.779110 0.737545
0.734432 0.776181 0.735103
0.744106 0.771115 0.730892
0.757168 0.763149 0.723903
0.779568 0.764034 0.728450
0.812284 0.778225 0.749783
0.843626 0.791531 0.774777
0.204837 0.210758 0.200534
0.212833 0.214450 0.203647
0.251743 0.231296 0.221836
0.397498 0.198032 0.246189
0.531395 0.109560 0.206271
0.667933 0.115877 0.199893
0.793484 0.142977 0.206851
0.909056 0.175357 0.224155
0.218326 0.229557 0.214328
0.229374 0.236088 0.218479
0.264561 0.250095 0.233738
0.403540 0.205234 0.234531
0.536889 0.154360 0.199557
0.671992 0.177340 0.204166
0.795682 0.192813 0.211154
0.910338 0.216831 0.229252
0.241703 0.275975 0.242741
0.257389 0.285618 0.251591
0.291875 0.296757 0.261112
0.427131 0.306157 0.235416
0.559625 0.304204 0.226505
0.689876 0.305516 0.224704
0.806943 0.309392 0.231785
0.916777 0.321416 0.252049
0.313848 0.373602 0.313939
0.325628 0.376013 0.316564
0.353185 0.373877 0.318517
0.386694 0.379004 0.328923
0.580987 0.446387 0.297154
0.717281 0.456031 0.277897
0.825345 0.449317 0.281590
0.927062 0.452522 0.302678
0.403021 0.476905 0.399817
0.411810 0.477028 0.401831
0.432227 0.469245 0.400671
0.456001 0.460304 0.395270
0.494942 0.469917 0.413703
0.676936 0.542596 0.398779
0.839963 0.590417 0.373907
0.937407 0.595361 0.391852
0.508232 0.583703 0.507652
0.513878 0.581903 0.508263
0.525872 0.573907 0.502739
0.541558 0.559197 0.489906
0.572778 0.559747 0.495308
0.614282 0.571008 0.519188
0.758053 0.637140 0.536980
0.928496 0.701534 0.510369
0.627314 0.685634 0.636591
0.629175 0.683925 0.635126
0.635004 0.678187 0.629450
0.644892 0.668055 0.618982
0.657984 0.653132 0.603113
0.692927 0.664637 0.623621
0.728298 0.676143 0.648829
0.837827 0.737850 0.686397
0.736446 0.787655 0.754971
0.737270 0.786557 0.753689
0.741756 0.783322 0.750668
0.750820 0.778317 0.746304
0.762417 0.769802 0.738125
0.782345 0.767544 0.738247
0.814725 0.781674 0.758724
0.846067 0.795163 0.782925
0.239384 0.239200 0.261234
0.248295 0.243626 0.264591
0.274418 0.255894 0.272953
0.339422 0.283360 0.304387
0.493904 0.266575 0.353857
0.657282 0.160250 0.335363
0.783383 0.000000 0.289433
0.902586 0.000000 0.270390
0.259617 0.264591 0.279576
0.266606 0.267063 0.281193
0.288365 0.274754 0.286046
0.349371 0.299535 0.314611
0.512108 0.266484 0.355444
0.660273 0.169070 0.325048
0.785885 0.000000 0.269780
0.904265 0.000000 0.275639
0.280278 0.303014 0.306523
0.292851 0.309850 0.311894
0.326024 0.327001 0.321599
0.379614 0.347723 0.346075
0.542535 0.274388 0.330022
0.677699 0.186801 0.270665
0.798886 0.216556 0.284062
0.912108 0.237797 0.301274
0.330480 0.384619 0.363470
0.343053 0.391241 0.370245
0.379217 0.404608 0.383215
0.413245 0.406409 0.384009
0.576196 0.427100 0.355718
0.702174 0.416449 0.341772
0.815122 0.410071 0.341650
0.921630 0.413367 0.356329
0.428840 0.501640 0.464088
0.436408 0.501518 0.463783
0.457893 0.499886 0.461463
0.480629 0.485756 0.450172
0.514885 0.491157 0.462654
0.706844 0.563226 0.450568
0.835477 0.582391 0.441749
0.931609 0.578027 0.450294
0.530327 0.604852 0.559838
0.536614 0.605005 0.560845
0.551568 0.601678 0.558862
0.568078 0.586999 0.547692
0.589593 0.576654 0.538445
0.627649 0.586664 0.559899
0.780301 0.656397 0.573816
0.930297 0.713710 0.572808
0.642634 0.701350 0.670893
0.645869 0.701106 0.671199
0.657618 0.698299 0.673030
0.664820 0.687739 0.661616
0.673976 0.671199 0.643549
0.701686 0.674769 0.651514
0.735500 0.685603 0.672999
0.854215 0.752041 0.704555
0.748074 0.800595 0.778653
0.750027 0.800595 0.778805
0.757656 0.798428 0.779995
0.762570 0.792020 0.772335
0.771969 0.782498 0.762631
0.786526 0.773373 0.753628
0.818479 0.787289 0.772671
0.849760 0.800809 0.795377
0.293828 0.285679 0.349432
0.301549 0.289372 0.351629
0.324498 0.299443 0.356634
0.361486 0.313054 0.365972
0.441871 0.348089 0.407568
0.578912 0.369696 0.472724
0.771511 0.248112 0.479438
0.891478 0.173922 0.462043
0.312322 0.308721 0.364874
0.318578 0.311131 0.366217
0.337957 0.317388 0.368933
0.371221 0.327703 0.375647
0.449195 0.360784 0.415473
0.592737 0.369696 0.477577
0.773129 0.261204 0.477150
0.892973 0.184115 0.456367
0.342687 0.352728 0.397864
0.355291 0.360601 0.401404
0.375586 0.367742 0.404120
0.400122 0.371527 0.404517
0.472694 0.401068 0.441505
0.636866 0.368963 0.485237
0.779385 0.289708 0.461219
0.899046 0.196811 0.425879
0.374975 0.408759 0.436347
0.384741 0.413062 0.439612
0.413977 0.425605 0.448707
0.449805 0.438849 0.454200
0.523491 0.449073 0.482490
0.677302 0.368994 0.445106
0.800137 0.274571 0.377569
0.913085 0.286351 0.390875
0.445594 0.508904 0.515679
0.455451 0.513085 0.520256
0.485725 0.525780 0.534081
0.516686 0.526024 0.530297
0.540764 0.518090 0.521233
0.708705 0.547814 0.502525
0.819821 0.529564 0.486458
0.923796 0.521172 0.487709
0.564294 0.629633 0.630243
0.569360 0.629175 0.629725
0.583581 0.626551 0.626459
0.599115 0.619287 0.616327
0.607385 0.596887 0.590173
0.641535 0.603937 0.605737
0.812650 0.678126 0.615534
0.931762 0.709133 0.622644
0.666865 0.721218 0.719326
0.669673 0.720821 0.719051
0.678248 0.719265 0.717586
0.688441 0.714656 0.711635
0.694697 0.697627 0.693416
0.710597 0.686336 0.682094
0.743893 0.696773 0.700893
0.877989 0.769680 0.725185
0.764248 0.813748 0.809506
0.766079 0.813779 0.809567
0.771756 0.813565 0.809262
0.781125 0.812833 0.808377
0.785855 0.802274 0.796231
0.794705 0.787045 0.779934
0.822477 0.794217 0.789731
0.854002 0.807492 0.810483
0.366125 0.347631 0.461860
0.372290 0.350256 0.462928
0.391272 0.357244 0.465126
0.420264 0.367163 0.468208
0.467659 0.381415 0.480781
0.555077 0.421759 0.527062
0.666377 0.496498 0.605280
0.855894 0.410163 0.641413
0.380865 0.366247 0.473457
0.386053 0.367864 0.474006
0.403021 0.372961 0.475319
0.429297 0.380041 0.476387
0.474098 0.392432 0.487160
0.559899 0.431525 0.532616
0.674342 0.497139 0.609216
0.860441 0.409522 0.639948
0.422034 0.417578 0.509148
0.426001 0.418067 0.508904
0.439338 0.420050 0.508202
0.460548 0.422553 0.506065
0.496925 0.429267 0.510979
0.578210 0.464912 0.553765
0.703517 0.497719 0.621363
0.877440 0.406500 0.633051
0.443824 0.459663 0.547112
0.451667 0.463020 0.548974
0.482124 0.478706 0.554101
0.509728 0.487312 0.553735
0.533257 0.485695 0.549248
0.607568 0.517388 0.588281
0.750851 0.497688 0.630579
0.889097 0.432532 0.619593
0.496834 0.534661 0.595422
0.504051 0.537285 0.597284
0.526238 0.544915 0.602106
0.555901 0.553277 0.606073
0.580163 0.554131 0.598871
0.657679 0.557946 0.623621
0.789914 0.494057 0.593988
0.909789 0.415991 0.541527
0.583825 0.635462 0.674189
0.590753 0.638025 0.676936
0.611261 0.645411 0.684565
0.639796 0.654322 0.693782
0.652308 0.644434 0.678553
0.664942 0.630213 0.662287
0.821042 0.665003 0.658869
0.922972 0.648280 0.646052
0.699733 0.747982 0.777707
0.702785 0.748135 0.777798
0.711452 0.747646 0.776699
0.722652 0.745205 0.772671
0.729976 0.736446 0.760159
0.727565 0.708492 0.727718
0.757015 0.713649 0.738399
0.912474 0.793149 0.756710
0.786831 0.832456 0.847562
0.788602 0.832578 0.847654
0.794400 0.833066 0.847776
0.803037 0.833433 0.846983
0.811032 0.830930 0.841978
0.813596 0.815427 0.824125
0.828641 0.804776 0.813138
0.860929 0.817868 0.831632
0.463447 0.429999 0.605554
0.468544 0.431800 0.606012
0.484382 0.436774 0.606561
0.508843 0.443244 0.606226
0.537194 0.448951 0.602808
0.594324 0.465156 0.619257
0.674464 0.513115 0.658656
0.775723 0.601892 0.736599
0.475349 0.445075 0.613764
0.479774 0.446296 0.613977
0.494087 0.449866 0.613916
0.516655 0.454780 0.612573
0.543572 0.458930 0.608484
0.598169 0.473610 0.623224
0.676661 0.520500 0.661677
0.776944 0.606287 0.738521
0.510796 0.489662 0.639582
0.514061 0.489937 0.639124
0.525444 0.491279 0.637842
0.543755 0.492836 0.634913
0.565911 0.492897 0.628779
0.612879 0.503197 0.638575
0.686488 0.546838 0.674525
0.783902 0.623468 0.747951
0.544030 0.537316 0.671138
0.551202 0.541131 0.671626
0.573785 0.553185 0.673091
0.586572 0.551415 0.668757
0.601923 0.546777 0.660548
0.635584 0.549584 0.662409
0.702693 0.585840 0.695308
0.805905 0.635920 0.761624
0.583093 0.593835 0.704921
0.588006 0.595666 0.705623
0.603357 0.600946 0.707485
0.626947 0.608881 0.707790
0.645747 0.609888 0.700008
0.661280 0.601526 0.690242
0.723812 0.630365 0.721218
0.850706 0.629633 0.769955
0.640650 0.665492 0.746456
0.644556 0.666804 0.747280
0.656947 0.670649 0.749599
0.674311 0.674952 0.751644
0.691493 0.675532 0.749660
0.702541 0.666468 0.734218
0.764492 0.673060 0.754208
0.894377 0.628779 0.750118
0.713283 0.751827 0.806973
0.716945 0.753384 0.808347
0.728817 0.758328 0.812772
0.747158 0.766201 0.819638
0.769772 0.775051 0.827146
0.778256 0.764675 0.813962
0.778347 0.739559 0.787594
0.922179 0.778012 0.794308
0.813352 0.854856 0.887816
0.815244 0.855283 0.888090
0.821592 0.856931 0.889036
0.831205 0.859068 0.889830
0.842161 0.860227 0.889097
0.849882 0.856138 0.882353
0.844633 0.829679 0.854093
0.871641 0.833646 0.860807
0.595453 0.547204 0.751522
0.598810 0.548333 0.751583
0.609583 0.551385 0.751125
0.627100 0.555840 0.750149
0.648585 0.559869 0.747494
0.673884 0.563012 0.744106
0.726223 0.580102 0.758724
0.791257 0.623743 0.788296
0.603876 0.558099 0.755612
0.606928 0.558923 0.755550
0.616846 0.561303 0.755001
0.633051 0.564721 0.753658
0.653223 0.567651 0.750668
0.676722 0.569360 0.746426
0.728115 0.585534 0.760739
0.792660 0.627893 0.790005
0.628901 0.590600 0.769284
0.631220 0.590967 0.769070
0.639063 0.591821 0.768002
0.652461 0.593103 0.766201
0.669184 0.593164 0.762264
0.687221 0.590661 0.755367
0.735378 0.603815 0.768368
0.798154 0.642817 0.796658
0.658778 0.631861 0.790127
0.664240 0.635218 0.790738
0.670802 0.635431 0.789487
0.680812 0.634333 0.786801
0.693690 0.631495 0.781796
0.707668 0.625544 0.773556
0.747158 0.632319 0.781308
0.807767 0.667475 0.808225
0.676051 0.665370 0.813748
0.680262 0.667292 0.814054
0.692683 0.673152 0.814267
0.711299 0.680934 0.813169
0.724269 0.679164 0.808133
0.734249 0.669978 0.798459
0.762325 0.668940 0.798428
0.821561 0.701442 0.824521
0.719448 0.725521 0.841215
0.721828 0.726223 0.841520
0.729732 0.728389 0.842496
0.741329 0.730312 0.843259
0.756893 0.731777 0.841917
0.772152 0.729763 0.833280
0.783200 0.716518 0.821500
0.840238 0.745083 0.845975
0.769497 0.790158 0.871702
0.771664 0.790951 0.872160
0.778775 0.793454 0.873716
0.790402 0.797269 0.876066
0.805020 0.801114 0.878264
0.818723 0.800870 0.877165
0.823392 0.786130 0.861204
0.865293 0.800290 0.873564
0.825376 0.859586 0.908110
0.827359 0.860594 0.908812
0.834318 0.864134 0.911254
0.846555 0.870573 0.915740
0.863432 0.879820 0.922057
0.884031 0.891539 0.929839
0.900389 0.894408 0.930358
0.892607 0.862821 0.904417
