data/fiter_cube/96143635/1022813/file.cube
# Created by Adobe Lightroom plugin Export LUT (1.17.0)
# www.johnrellis.com/lightroom/exportlut.htm
# Preset: 高雅通透灰色调人像_06 云集
# Color profile: C:\Program Files (x86)\Common Files\Adobe\Color\Profiles\Recommended\AdobeRGB1998.icc
LUT_3D_SIZE 5
DOMAIN_MIN 0.000000 0.000000 0.000000
DOMAIN_MAX 0.903226 0.903226 0.903226
0.175479 0.185306 0.154391
0.260533 0.189670 0.154452
0.469245 0.202670 0.152987
0.711055 0.213382 0.145998
0.913817 0.238773 0.165225
0.214603 0.243320 0.189090
0.243565 0.248508 0.196109
0.496559 0.308568 0.156558
0.726375 0.312322 0.151644
0.921447 0.327031 0.183566
0.337194 0.401434 0.304662
0.357946 0.394171 0.302342
0.422950 0.405493 0.325353
0.755123 0.520470 0.243137
0.938415 0.533593 0.277714
0.517815 0.594018 0.496559
0.529503 0.587335 0.491615
0.563897 0.568017 0.478798
0.637049 0.588128 0.521019
0.902953 0.707973 0.529381
0.726192 0.778775 0.734524
0.731228 0.775784 0.732021
0.747280 0.764431 0.722011
0.786374 0.766110 0.730312
0.843717 0.791379 0.773404
0.198795 0.205783 0.190707
0.234287 0.221378 0.206241
0.464118 0.140505 0.194430
0.701808 0.157015 0.189883
0.908934 0.196689 0.211673
0.225956 0.254490 0.220829
0.266056 0.272801 0.236728
0.487709 0.279606 0.207706
0.717128 0.284215 0.204929
0.915587 0.302586 0.231601
0.352148 0.420050 0.342473
0.378912 0.415625 0.345403
0.435004 0.418860 0.358556
0.753994 0.525231 0.304295
0.933928 0.526543 0.328435
0.535088 0.607630 0.531243
0.546380 0.601129 0.526696
0.573877 0.576867 0.504845
0.643000 0.595758 0.544274
0.908690 0.715389 0.553368
0.734371 0.785946 0.750484
0.738827 0.782834 0.747707
0.754635 0.772457 0.738308
0.789670 0.770108 0.740536
0.846067 0.794888 0.781338
0.264591 0.260441 0.302953
0.290501 0.272801 0.310521
0.389715 0.314916 0.354345
0.685237 0.220279 0.412573
0.897734 0.000000 0.357641
0.305150 0.316472 0.343328
0.332586 0.329686 0.349371
0.417273 0.360143 0.383703
0.694179 0.252079 0.392493
0.905455 0.000000 0.315587
0.385412 0.445838 0.437201
0.420539 0.461830 0.454322
0.477150 0.462501 0.452094
0.734585 0.477333 0.415106
0.923125 0.465980 0.419318
0.574609 0.640528 0.618982
0.588098 0.637995 0.617395
0.611414 0.617670 0.596948
0.660883 0.618616 0.608392
0.925170 0.734310 0.623102
0.755093 0.806271 0.792782
0.761288 0.806302 0.793027
0.773617 0.796658 0.783688
0.795743 0.779599 0.766323
0.851316 0.803433 0.801938
0.387091 0.365423 0.493965
0.405768 0.372534 0.496437
0.454627 0.387701 0.498909
0.585321 0.441932 0.559625
0.830900 0.480751 0.678889
0.429297 0.418097 0.528771
0.442939 0.420630 0.528527
0.481727 0.426276 0.524681
0.600732 0.472755 0.577813
0.847227 0.478218 0.677760
0.486397 0.508263 0.598047
0.508965 0.517082 0.602808
0.560418 0.533318 0.601740
0.643458 0.559411 0.630335
0.887663 0.485359 0.655146
0.619348 0.665217 0.710048
0.636316 0.671412 0.716243
0.680110 0.685908 0.730556
0.693202 0.656672 0.694118
0.922332 0.679042 0.682734
0.793057 0.837675 0.857481
0.799100 0.838560 0.858030
0.814542 0.839384 0.856626
0.821469 0.819425 0.831937
0.862974 0.820981 0.837858
0.595453 0.547204 0.751522
0.606165 0.550408 0.751247
0.637507 0.558007 0.749111
0.686610 0.567285 0.747585
0.791257 0.623743 0.788296
0.621576 0.581079 0.765133
0.629847 0.582391 0.764370
0.655207 0.585168 0.760800
0.695491 0.587274 0.755489
0.796506 0.638270 0.794675
0.666255 0.647028 0.801053
0.679042 0.653254 0.801266
0.702266 0.656367 0.797055
0.722621 0.643244 0.781735
0.814023 0.683162 0.815610
0.731838 0.741756 0.848814
0.739498 0.744076 0.849973
0.760189 0.747829 0.851652
0.784878 0.743526 0.840238
0.845731 0.757534 0.852140
0.825376 0.859586 0.908110
0.832059 0.862974 0.910460
0.854459 0.874876 0.918700
0.889555 0.894682 0.931884
0.892607 0.862821 0.904417
