data/fiter_cube/89350833/1022874/file.cube
# Created by Adobe Lightroom plugin Export LUT (1.24.0)
# www.johnrellis.com/lightroom/exportlut.htm
# Preset: 婚礼接亲预设[余晖]-4 饯别哭泣
# Color profile: C:\Windows\System32\Spool\Drivers\Color\AppleRGB.icc
LUT_3D_SIZE 8
DOMAIN_MIN 0.000000 0.000000 0.000000
DOMAIN_MAX 0.903226 0.903226 0.903226
0.055116 0.108461 0.126741
0.087495 0.110323 0.127718
0.259037 0.106416 0.126802
0.657984 0.043488 0.113161
0.939910 0.114076 0.086763
1.000000 0.225193 0.087770
1.000000 0.313481 0.145998
1.000000 0.397192 0.243137
0.052674 0.127993 0.131899
0.074495 0.123842 0.137545
0.322515 0.162295 0.114412
0.694118 0.188449 0.079683
0.943511 0.252384 0.000000
1.000000 0.311162 0.000000
1.000000 0.361364 0.098848
1.000000 0.422156 0.206332
0.000000 0.247288 0.149538
0.089631 0.241611 0.145968
0.202792 0.218723 0.199374
0.643458 0.378851 0.139956
0.979004 0.468177 0.000000
1.000000 0.478126 0.000000
1.000000 0.496498 0.021881
1.000000 0.517540 0.172213
0.000000 0.542931 0.206332
0.103456 0.531914 0.192691
0.375280 0.508568 0.228244
0.558099 0.500511 0.421302
0.809812 0.651057 0.451026
1.000000 0.674647 0.294255
1.000000 0.636500 0.100801
1.000000 0.626001 0.177249
0.241917 0.751614 0.370367
0.298650 0.743557 0.350683
0.436500 0.724910 0.329351
0.644648 0.707240 0.457679
0.732387 0.694789 0.619715
0.835843 0.767880 0.678859
0.974060 0.797269 0.601740
1.000000 0.773617 0.492164
0.509880 0.850736 0.565270
0.534386 0.851957 0.561517
0.585931 0.843381 0.545373
0.676478 0.830259 0.556146
0.787900 0.816129 0.669673
0.830533 0.812070 0.761593
0.874052 0.846891 0.811276
0.963012 0.875242 0.776150
0.684901 0.906065 0.718196
0.688228 0.906249 0.711116
0.708675 0.902281 0.702113
0.740871 0.897124 0.690761
0.809995 0.887144 0.729946
0.865782 0.880369 0.791989
0.888640 0.878264 0.842283
0.904082 0.892332 0.878691
0.790097 0.943145 0.814298
0.789425 0.943450 0.809049
0.800229 0.942535 0.805844
0.819516 0.941680 0.804257
0.836515 0.936553 0.792691
0.888182 0.930632 0.834928
0.919463 0.927184 0.871519
0.931060 0.924743 0.899962
0.055299 0.109529 0.136934
0.081117 0.110719 0.138643
0.219333 0.109499 0.147829
0.595697 0.053681 0.149386
0.904784 0.108522 0.136477
1.000000 0.229160 0.136263
1.000000 0.316228 0.158694
1.000000 0.384558 0.210239
0.055207 0.128267 0.144808
0.087922 0.134493 0.151125
0.282231 0.148745 0.148928
0.649470 0.155886 0.138949
0.921782 0.225132 0.121889
1.000000 0.303807 0.125765
1.000000 0.365057 0.151644
1.000000 0.416266 0.190616
0.030426 0.250767 0.188998
0.104463 0.256443 0.178225
0.229374 0.236973 0.227207
0.670527 0.377447 0.167391
0.951843 0.435798 0.073426
1.000000 0.462318 0.114748
1.000000 0.490333 0.169131
1.000000 0.517967 0.225437
0.050080 0.523400 0.282628
0.130312 0.521721 0.246311
0.362646 0.497444 0.255009
0.535210 0.478035 0.420508
0.797543 0.622889 0.425879
0.997955 0.649775 0.296025
1.000000 0.626703 0.205478
1.000000 0.627314 0.268040
0.337469 0.741817 0.447517
0.332036 0.737301 0.402655
0.448402 0.716670 0.377386
0.634241 0.695308 0.467353
0.722744 0.683497 0.618402
0.836484 0.762966 0.670039
0.973083 0.791287 0.602167
1.000000 0.768154 0.501549
0.544823 0.842313 0.603571
0.542199 0.842374 0.581353
0.588525 0.834958 0.564416
0.667292 0.824063 0.560906
0.784329 0.812192 0.673487
0.829709 0.811307 0.765316
0.876829 0.847776 0.809628
0.963745 0.873289 0.775082
0.691737 0.899718 0.729274
0.687953 0.899199 0.716579
0.703151 0.895964 0.703731
0.736995 0.891569 0.694636
0.804532 0.883696 0.728420
0.862486 0.877226 0.790555
0.885191 0.874449 0.839628
0.902983 0.889799 0.873747
0.794125 0.940429 0.820737
0.794003 0.940887 0.816068
0.800473 0.940642 0.809689
0.819394 0.939879 0.807980
0.841428 0.938140 0.803525
0.889036 0.931487 0.838804
0.919341 0.927123 0.872862
0.930938 0.924651 0.900816
0.053071 0.111086 0.189731
0.112276 0.112184 0.200259
0.256626 0.103975 0.221317
0.640284 0.000000 0.269505
0.879332 0.104036 0.296910
1.000000 0.297368 0.352483
1.000000 0.420691 0.406104
1.000000 0.493996 0.444038
0.025208 0.141299 0.204196
0.109621 0.145113 0.220890
0.295689 0.152468 0.243931
0.627588 0.134615 0.271794
0.886687 0.240879 0.314305
1.000000 0.364111 0.358007
1.000000 0.454292 0.402686
1.000000 0.516686 0.440833
0.000000 0.251896 0.254948
0.123751 0.275639 0.271977
0.316045 0.297887 0.307012
0.721889 0.374640 0.302037
0.920470 0.445808 0.338659
1.000000 0.505882 0.382574
1.000000 0.553979 0.426093
1.000000 0.591211 0.463813
0.124178 0.555413 0.416815
0.270909 0.562158 0.419745
0.429145 0.554650 0.391455
0.600702 0.544274 0.519554
0.846799 0.663447 0.504845
1.000000 0.661494 0.420691
1.000000 0.671565 0.467140
1.000000 0.682277 0.502251
0.398260 0.749203 0.549981
0.467567 0.747066 0.554192
0.531456 0.739315 0.521721
0.662806 0.721859 0.551202
0.751095 0.718837 0.679103
0.862516 0.787839 0.703059
0.979095 0.801511 0.651057
1.000000 0.775448 0.569787
0.590173 0.843442 0.670253
0.622889 0.841703 0.675074
0.641138 0.838285 0.649378
0.689387 0.827787 0.628809
0.791226 0.818082 0.704250
0.836698 0.819852 0.784909
0.890715 0.859068 0.818082
0.970397 0.879210 0.791196
0.718257 0.901518 0.767575
0.734920 0.900023 0.770779
0.735988 0.898711 0.751583
0.760220 0.893706 0.740352
0.807675 0.887083 0.748745
0.867735 0.882261 0.806668
0.892363 0.882567 0.854063
0.915740 0.901457 0.882292
0.802243 0.940612 0.837034
0.813077 0.939849 0.840238
0.815183 0.940307 0.831510
0.830137 0.940398 0.828336
0.849546 0.938781 0.823636
0.891173 0.934264 0.848234
0.922637 0.930541 0.881163
0.934539 0.928679 0.907897
0.023468 0.110689 0.339025
0.152987 0.104768 0.365911
0.411963 0.076326 0.421851
0.651270 0.000000 0.448585
0.918914 0.161379 0.505882
0.999878 0.351843 0.526024
1.000000 0.520226 0.591119
1.000000 0.615869 0.641901
0.000000 0.149905 0.372961
0.132174 0.153048 0.396857
0.434211 0.167941 0.452277
0.675227 0.177432 0.476478
0.898650 0.303258 0.521660
0.976287 0.431098 0.543938
1.000000 0.567956 0.609705
1.000000 0.631037 0.642329
0.000000 0.282139 0.401221
0.020111 0.288396 0.412299
0.406012 0.334539 0.475532
0.692805 0.418891 0.528527
0.852323 0.493782 0.555077
0.945647 0.587793 0.604791
1.000000 0.650874 0.643153
1.000000 0.682277 0.660487
0.062135 0.534203 0.517082
0.249424 0.545922 0.525933
0.497780 0.586786 0.562158
0.650263 0.600458 0.599237
0.864714 0.658503 0.590417
0.951049 0.691218 0.624353
1.000000 0.718074 0.653132
1.000000 0.736873 0.673091
0.451881 0.762966 0.660548
0.510704 0.759915 0.660212
0.615015 0.755245 0.661036
0.685389 0.746426 0.639429
0.775418 0.749264 0.731319
0.892485 0.806729 0.733639
0.992584 0.805173 0.695674
1.000000 0.801328 0.697108
0.623682 0.850645 0.736385
0.656947 0.851102 0.742061
0.707973 0.847196 0.744533
0.738705 0.841917 0.726131
0.804593 0.833158 0.746670
0.850278 0.835752 0.812985
0.909911 0.872923 0.829831
0.981292 0.883055 0.806058
0.725704 0.904234 0.798459
0.740688 0.903685 0.800534
0.773648 0.902037 0.805509
0.791287 0.900359 0.794522
0.815976 0.894713 0.782132
0.874907 0.890318 0.826871
0.899657 0.890898 0.869139
0.928954 0.911955 0.888762
0.797513 0.944213 0.851072
0.808469 0.943816 0.853727
0.835019 0.942504 0.861357
0.846006 0.942809 0.855802
0.861295 0.941039 0.850187
0.891966 0.938048 0.858854
0.926452 0.934874 0.891142
0.939330 0.934081 0.917052
0.000000 0.101900 0.568048
0.214084 0.085939 0.591119
0.498939 0.041657 0.635309
0.748013 0.114839 0.675685
0.894896 0.235843 0.670558
0.991211 0.446876 0.689387
1.000000 0.572412 0.701961
1.000000 0.666011 0.733730
0.000000 0.159243 0.585534
0.185428 0.160220 0.606592
0.499214 0.177676 0.649287
0.752743 0.278233 0.691035
0.884062 0.370153 0.684565
0.969390 0.527947 0.703456
1.000000 0.620111 0.716793
1.000000 0.693935 0.745754
0.000000 0.304479 0.570153
0.020661 0.313970 0.602136
0.462837 0.366217 0.655909
0.738888 0.501244 0.704067
0.851652 0.554345 0.703334
0.929137 0.631708 0.718074
0.971313 0.688563 0.736538
0.996094 0.743618 0.767361
0.000000 0.527672 0.640314
0.182589 0.535332 0.645655
0.427344 0.553491 0.656092
0.694026 0.629816 0.700526
0.825223 0.691096 0.727932
0.896239 0.719173 0.738186
0.953643 0.756222 0.761929
1.000000 0.777340 0.774655
0.375372 0.730037 0.707546
0.455756 0.734463 0.711604
0.597223 0.751553 0.727749
0.726436 0.766323 0.744564
0.791379 0.768887 0.762448
0.910887 0.796811 0.756985
0.965332 0.810971 0.773495
1.000000 0.821073 0.784451
0.629023 0.847501 0.784756
0.655146 0.846281 0.784939
0.703700 0.842863 0.783505
0.759030 0.840208 0.783047
0.794491 0.833402 0.766598
0.856077 0.842893 0.830289
0.929656 0.879728 0.836851
0.996216 0.878965 0.815976
0.732570 0.904814 0.831052
0.744625 0.903624 0.830961
0.773068 0.901732 0.831907
0.811490 0.901549 0.836393
0.833616 0.899351 0.826871
0.875029 0.894285 0.839811
0.904448 0.896391 0.880980
0.941131 0.918578 0.891081
0.795987 0.943145 0.868467
0.804990 0.942870 0.869657
0.824918 0.942260 0.872282
0.854856 0.943053 0.879362
0.872587 0.943053 0.876341
0.889708 0.940978 0.870054
0.928069 0.937896 0.898955
0.942412 0.937530 0.924163
0.158968 0.100496 0.770535
0.313451 0.091218 0.780575
0.559411 0.111360 0.798459
0.786862 0.272251 0.820737
0.913787 0.385046 0.827329
0.967529 0.500237 0.794614
1.000000 0.637873 0.798520
1.000000 0.708797 0.805447
0.101717 0.181033 0.767514
0.286870 0.185885 0.776303
0.548699 0.228824 0.795163
0.773861 0.375799 0.815915
0.895781 0.476204 0.822568
0.950347 0.565545 0.796994
0.990143 0.676204 0.805447
1.000000 0.730465 0.811612
0.000000 0.348058 0.765286
0.231662 0.360052 0.777707
0.530205 0.420844 0.793820
0.752499 0.543114 0.811643
0.868437 0.633234 0.822599
0.923949 0.682033 0.810910
0.968139 0.742763 0.821012
0.994842 0.774960 0.827146
0.000000 0.535546 0.762661
0.174716 0.535760 0.761746
0.440314 0.556420 0.772000
0.718898 0.661463 0.805814
0.853574 0.751583 0.831998
0.908019 0.775143 0.832090
0.950713 0.801328 0.838712
0.980499 0.819944 0.845212
0.342199 0.714107 0.785367
0.414588 0.717739 0.786191
0.545281 0.726558 0.787930
0.670832 0.738766 0.791104
0.815946 0.786252 0.817960
0.889860 0.819638 0.835325
0.932738 0.832029 0.840879
0.970367 0.850828 0.854368
0.567376 0.831357 0.813993
0.608057 0.833951 0.816922
0.680018 0.837339 0.820676
0.759121 0.847471 0.831022
0.830228 0.855192 0.840452
0.870451 0.859464 0.853971
0.946075 0.878386 0.855314
0.982330 0.885161 0.863493
0.738735 0.907927 0.866392
0.758175 0.908690 0.869169
0.794736 0.909728 0.873838
0.828031 0.909361 0.875029
0.859892 0.908598 0.875303
0.878599 0.904051 0.864134
0.914427 0.907683 0.899229
0.959350 0.928771 0.902068
0.803708 0.944762 0.893889
0.811948 0.944396 0.894377
0.831296 0.943999 0.896086
0.857664 0.944488 0.899687
0.883940 0.945037 0.903105
0.901183 0.944915 0.899138
0.929961 0.942779 0.909056
0.947967 0.943755 0.934630
0.290013 0.144686 0.877287
0.402747 0.156619 0.882017
0.594690 0.212589 0.887358
0.775662 0.353429 0.891142
0.899413 0.538476 0.890593
0.966735 0.574609 0.888853
0.989075 0.649317 0.856657
1.000000 0.725917 0.853635
0.270207 0.225681 0.871672
0.388983 0.242313 0.875578
0.585687 0.302342 0.880278
0.764675 0.427161 0.883757
0.886625 0.586511 0.884794
0.952422 0.617456 0.883574
0.978332 0.676234 0.855924
1.000000 0.741024 0.854765
0.245823 0.387518 0.866545
0.372198 0.405615 0.868833
0.575494 0.464363 0.872129
0.750912 0.566247 0.875700
0.868620 0.679591 0.880552
0.930694 0.711757 0.882750
0.961578 0.748714 0.866697
0.990570 0.793301 0.870603
0.036469 0.527947 0.847166
0.261051 0.536858 0.850614
0.521752 0.582696 0.858701
0.724331 0.667659 0.867460
0.850278 0.750118 0.878630
0.915496 0.789944 0.886992
0.949096 0.811215 0.880125
0.979217 0.837736 0.885008
0.306981 0.690791 0.849424
0.366125 0.690822 0.847868
0.480262 0.692042 0.845029
0.626154 0.706142 0.845975
0.812161 0.782254 0.868223
0.901946 0.838682 0.888029
0.938628 0.853513 0.888914
0.969299 0.870756 0.895232
0.521324 0.814878 0.861204
0.556237 0.816251 0.861357
0.628382 0.819883 0.861723
0.710872 0.825956 0.862882
0.786404 0.832975 0.864591
0.882170 0.865965 0.885588
0.933349 0.890715 0.900298
0.961975 0.898161 0.904265
0.678676 0.893248 0.881834
0.699916 0.894194 0.882933
0.743801 0.896117 0.885161
0.797055 0.899870 0.889158
0.848386 0.906554 0.895995
0.896605 0.914580 0.905455
0.922515 0.916716 0.912902
0.970855 0.927764 0.914122
0.786618 0.944060 0.912016
0.799619 0.944305 0.913451
0.829252 0.945495 0.917632
0.864012 0.947326 0.923186
0.891966 0.948730 0.926665
0.915984 0.949920 0.928985
0.931579 0.949157 0.924498
0.954650 0.951232 0.946288
0.410986 0.235843 0.943572
0.487831 0.258091 0.943908
0.628809 0.319829 0.941863
0.770809 0.433265 0.938201
0.878965 0.572381 0.931975
0.946502 0.673762 0.928130
0.991699 0.692073 0.924926
1.000000 0.736263 0.898863
0.408911 0.308782 0.938476
0.486213 0.331395 0.938384
0.626673 0.391028 0.936522
0.765408 0.491920 0.932891
0.871763 0.613825 0.928008
0.939727 0.704952 0.925719
0.983978 0.716060 0.923400
0.999512 0.753292 0.899687
0.402472 0.443915 0.929259
0.479744 0.463630 0.928801
0.618952 0.513970 0.926726
0.756771 0.599451 0.924651
0.859403 0.686854 0.922606
0.929229 0.762966 0.923430
0.970794 0.766903 0.923674
0.988403 0.792508 0.904753
0.289616 0.541680 0.918120
0.395727 0.557183 0.919036
0.591669 0.618585 0.917266
0.735744 0.681483 0.917327
0.843839 0.747616 0.919097
0.917571 0.807553 0.923674
0.958251 0.820432 0.926268
0.978271 0.837827 0.914031
0.265110 0.667872 0.907408
0.324681 0.668269 0.906889
0.451728 0.671351 0.905394
0.664179 0.718654 0.908873
0.813687 0.784634 0.913756
0.901671 0.837949 0.922210
0.947784 0.864439 0.929137
0.970581 0.878355 0.924498
0.465278 0.793149 0.907713
0.497108 0.793301 0.906828
0.565759 0.794278 0.904967
0.649866 0.797360 0.903014
0.740993 0.804898 0.902647
0.877745 0.861692 0.920104
0.943999 0.905180 0.936736
0.966827 0.913787 0.936645
0.635279 0.882292 0.917479
0.655787 0.883085 0.917540
0.700587 0.885252 0.917845
0.757229 0.889403 0.919036
0.812619 0.894285 0.920562
0.861173 0.897887 0.921569
0.928527 0.919646 0.934844
0.964294 0.938781 0.945525
0.745663 0.936736 0.930083
0.758724 0.937102 0.930480
0.788693 0.938231 0.931762
0.827634 0.940581 0.934295
0.867918 0.943908 0.937713
0.906523 0.948180 0.942260
0.941283 0.954681 0.949584
0.960510 0.957824 0.955871
