data/fiter_cube/89350833/1022874/file.cube
# Created by Adobe Lightroom plugin Export LUT (1.24.0)
# www.johnrellis.com/lightroom/exportlut.htm
# Preset: 婚礼接亲预设[余晖]-4 饯别哭泣
# Color profile: C:\Windows\System32\Spool\Drivers\Color\AppleRGB.icc
LUT_3D_SIZE 5
DOMAIN_MIN 0.000000 0.000000 0.000000
DOMAIN_MAX 0.903226 0.903226 0.903226
0.055116 0.108461 0.126741
0.192691 0.110231 0.127687
0.824613 0.060334 0.099733
1.000000 0.249271 0.097841
1.000000 0.397192 0.243137
0.015503 0.203098 0.144442
0.153506 0.183230 0.176455
0.897704 0.400061 0.000000
1.000000 0.445350 0.000000
1.000000 0.496956 0.192416
0.023957 0.665736 0.277195
0.328496 0.630671 0.239506
0.662562 0.611719 0.528069
0.956115 0.742947 0.491676
1.000000 0.680049 0.211063
0.573571 0.870115 0.618952
0.612055 0.864317 0.598993
0.751614 0.845182 0.640681
0.848234 0.832517 0.786709
0.945190 0.884337 0.808621
0.790097 0.943145 0.814298
0.796536 0.942779 0.806394
0.822263 0.937652 0.792660
0.897978 0.929625 0.844816
0.931060 0.924743 0.899962
0.054505 0.110689 0.167910
0.182742 0.111116 0.186221
0.745113 0.000000 0.234440
1.000000 0.297734 0.298619
1.000000 0.450599 0.369574
0.031708 0.203647 0.211490
0.228061 0.235721 0.246311
0.836912 0.343389 0.251896
1.000000 0.460639 0.315435
1.000000 0.546685 0.396796
0.247196 0.659052 0.446571
0.410193 0.649195 0.409857
0.670893 0.622370 0.577234
0.959625 0.740810 0.542016
1.000000 0.717739 0.478065
0.640681 0.865812 0.699733
0.664210 0.863767 0.679866
0.757321 0.848295 0.679164
0.854246 0.839780 0.804807
0.952453 0.889372 0.818509
0.809415 0.942046 0.839658
0.814572 0.942138 0.831968
0.838987 0.940398 0.823087
0.901884 0.933349 0.856657
0.935363 0.929564 0.908446
0.000000 0.106996 0.453651
0.382086 0.063416 0.517876
0.801907 0.086458 0.571130
1.000000 0.435676 0.616632
1.000000 0.652399 0.699153
0.000000 0.250797 0.470985
0.353033 0.282414 0.551202
0.798245 0.436286 0.621637
0.953979 0.594873 0.659968
1.000000 0.711452 0.724422
0.233158 0.643214 0.621424
0.491890 0.672969 0.647028
0.731380 0.697139 0.691981
0.943267 0.754452 0.704158
1.000000 0.783963 0.736477
0.663050 0.867369 0.778378
0.715145 0.863493 0.779660
0.781765 0.857694 0.767422
0.867735 0.855650 0.837400
0.971740 0.893950 0.831754
0.794369 0.942962 0.857725
0.818692 0.942504 0.862028
0.857633 0.942260 0.864469
0.900816 0.937713 0.869902
0.939940 0.934752 0.919341
0.185977 0.105226 0.797971
0.504845 0.112795 0.817655
0.860777 0.395422 0.844480
0.973754 0.538750 0.810727
1.000000 0.711604 0.817197
0.033173 0.302586 0.795193
0.477882 0.357671 0.811246
0.828580 0.581415 0.835782
0.939391 0.669551 0.820066
0.997528 0.762966 0.831113
0.145144 0.612116 0.783108
0.384833 0.616449 0.781888
0.759731 0.715328 0.816281
0.906889 0.796353 0.839658
0.972778 0.834623 0.855558
0.607172 0.851347 0.835782
0.680629 0.853422 0.838224
0.804074 0.866941 0.852537
0.884977 0.875639 0.870512
0.978271 0.894804 0.875120
0.805112 0.944976 0.900145
0.829374 0.945190 0.902831
0.874479 0.946227 0.908568
0.909239 0.946075 0.905821
0.948882 0.944823 0.936645
0.410986 0.235843 0.943572
0.591638 0.299229 0.942504
0.830045 0.502251 0.935271
0.958556 0.678370 0.928099
1.000000 0.736263 0.898863
0.409766 0.413001 0.932403
0.588128 0.470039 0.930510
0.816556 0.624445 0.925536
0.942626 0.751827 0.924529
0.991363 0.784817 0.904295
0.191592 0.595270 0.909789
0.464363 0.620325 0.911589
0.773678 0.733181 0.913359
0.923339 0.833188 0.923705
0.973785 0.857572 0.918395
0.522148 0.821775 0.910887
0.593652 0.823514 0.909422
0.721889 0.829801 0.907286
0.892515 0.878691 0.923705
0.965972 0.920348 0.938811
0.745663 0.936736 0.930083
0.779995 0.937865 0.931365
0.847959 0.942138 0.935882
0.915618 0.949981 0.944121
0.960510 0.957824 0.955871
