data/fiter_cube/89350833/1022874/file.cube
# Created by Adobe Lightroom plugin Export LUT (1.24.0)
# www.johnrellis.com/lightroom/exportlut.htm
# Preset: 婚礼接亲预设[余晖]-4 饯别哭泣
# Color profile: C:\Windows\System32\Spool\Drivers\Color\AppleRGB.icc
LUT_3D_SIZE 32
DOMAIN_MIN 0.0 0.0 0.0
DOMAIN_MAX 1.0 1.0 1.0
0.055116 0.108461 0.126741
0.056306 0.108736 0.126925
0.060700 0.109133 0.127199
0.070649 0.109682 0.127504
0.087495 0.110323 0.127718
0.111330 0.110933 0.127962
0.144930 0.111116 0.127993
0.192691 0.110231 0.127687
0.259037 0.106416 0.126802
0.344915 0.097658 0.125216
0.445869 0.082155 0.122621
0.555474 0.061097 0.118410
0.657984 0.043488 0.113161
0.747799 0.042542 0.106813
0.824613 0.060334 0.099733
0.888365 0.086610 0.092683
0.939910 0.114076 0.086763
0.982055 0.140475 0.082551
1.000000 0.168643 0.080201
1.000000 0.198581 0.081605
1.000000 0.225193 0.087770
1.000000 0.249271 0.097841
1.000000 0.271946 0.111421
1.000000 0.293034 0.127504
1.000000 0.313481 0.145998
1.000000 0.333257 0.166598
1.000000 0.353704 0.189425
1.000000 0.374884 0.215030
1.000000 0.397192 0.243137
1.000000 0.421088 0.274571
1.000000 0.446754 0.309270
1.000000 0.474556 0.347478
0.055116 0.109285 0.127169
0.055970 0.109194 0.127382
0.062013 0.110109 0.126955
0.072877 0.110903 0.127199
0.089998 0.111940 0.127352
0.114076 0.112886 0.127504
0.147982 0.113527 0.127321
0.195621 0.113252 0.126925
0.261784 0.110353 0.125887
0.346715 0.103273 0.123995
0.446326 0.090822 0.121065
0.554131 0.074952 0.116609
0.655573 0.063813 0.110903
0.744228 0.065370 0.104250
0.820645 0.080232 0.096803
0.884306 0.102449 0.089601
0.936065 0.127321 0.083131
0.978454 0.151400 0.078431
1.000000 0.178653 0.075441
1.000000 0.205447 0.076478
1.000000 0.230045 0.082216
1.000000 0.252445 0.091646
1.000000 0.273472 0.104616
1.000000 0.293248 0.119936
1.000000 0.312322 0.137850
1.000000 0.331334 0.157931
1.000000 0.351080 0.180209
1.000000 0.371466 0.205051
1.000000 0.393194 0.233066
1.000000 0.416663 0.264561
1.000000 0.441749 0.298802
1.000000 0.468788 0.336309
0.055085 0.112337 0.128084
0.056580 0.112306 0.128054
0.058869 0.111696 0.129152
0.069306 0.114260 0.128328
0.096620 0.117128 0.126314
0.122469 0.118990 0.126040
0.158053 0.120577 0.125612
0.208042 0.121675 0.124697
0.276280 0.120851 0.123140
0.361852 0.116915 0.120455
0.461646 0.109895 0.116487
0.566613 0.102235 0.110964
0.664515 0.100252 0.104128
0.750301 0.106874 0.096162
0.824308 0.120577 0.087678
0.885740 0.139681 0.079469
0.935973 0.159945 0.072267
0.977356 0.180240 0.066896
1.000000 0.205264 0.063111
1.000000 0.228214 0.064424
1.000000 0.249332 0.070161
1.000000 0.269291 0.080354
1.000000 0.287510 0.094392
1.000000 0.305303 0.110140
1.000000 0.322637 0.128725
1.000000 0.339910 0.148959
1.000000 0.357977 0.171115
1.000000 0.377081 0.196689
1.000000 0.397711 0.225071
1.000000 0.419989 0.256199
1.000000 0.444343 0.291051
1.000000 0.470588 0.328832
0.054353 0.118379 0.129671
0.055879 0.118502 0.129427
0.061189 0.118013 0.129946
0.064973 0.116274 0.132418
0.078035 0.120729 0.131960
0.115450 0.127138 0.127871
0.174472 0.133333 0.123476
0.228794 0.136355 0.121675
0.300511 0.138552 0.118776
0.388190 0.139040 0.114595
0.487739 0.138643 0.108522
0.588800 0.139620 0.100923
0.680903 0.145022 0.092042
0.761746 0.154879 0.082429
0.831876 0.169314 0.071687
0.889677 0.185519 0.061524
0.937530 0.202701 0.052064
0.981323 0.221805 0.043854
1.000000 0.241154 0.039673
1.000000 0.259251 0.041321
1.000000 0.276249 0.049042
1.000000 0.292332 0.061677
1.000000 0.307836 0.077180
1.000000 0.323430 0.095155
1.000000 0.339025 0.115511
1.000000 0.355138 0.137545
1.000000 0.371893 0.161990
1.000000 0.389929 0.188571
1.000000 0.409033 0.217685
1.000000 0.429816 0.249638
1.000000 0.452155 0.284306
1.000000 0.476143 0.321294
0.052674 0.127993 0.131899
0.054353 0.128115 0.131472
0.060578 0.128023 0.131380
0.070069 0.126223 0.133455
0.074495 0.123842 0.137545
0.088655 0.129610 0.138888
0.136385 0.140719 0.132296
0.212284 0.152041 0.124636
0.322515 0.162295 0.114412
0.411963 0.166415 0.108949
0.509361 0.170687 0.101442
0.606531 0.177890 0.091524
0.694118 0.188449 0.079683
0.772030 0.202335 0.065919
0.839261 0.219089 0.049134
0.895445 0.235843 0.028809
0.943511 0.252384 0.000000
0.987152 0.269627 0.000000
1.000000 0.284642 0.000000
1.000000 0.298192 0.000000
1.000000 0.311162 0.000000
1.000000 0.323644 0.029572
1.000000 0.336034 0.052522
1.000000 0.348394 0.076020
1.000000 0.361364 0.098848
1.000000 0.374945 0.122988
1.000000 0.389563 0.148867
1.000000 0.405188 0.176516
1.000000 0.422156 0.206332
1.000000 0.440925 0.239139
1.000000 0.461189 0.273838
1.000000 0.483406 0.311406
0.049744 0.142702 0.134981
0.051881 0.142794 0.134432
0.059693 0.142519 0.134279
0.071046 0.141573 0.134890
0.084230 0.138521 0.139223
0.089509 0.135653 0.145541
0.103792 0.142367 0.150729
0.166842 0.160555 0.140536
0.263798 0.179110 0.128176
0.393225 0.196567 0.111971
0.540337 0.214359 0.089113
0.633722 0.225620 0.075959
0.715633 0.238437 0.061067
0.788144 0.253544 0.041749
0.850950 0.268803 0.010193
0.905272 0.284886 0.000000
0.954131 0.302251 0.000000
0.993164 0.317327 0.000000
1.000000 0.330053 0.000000
1.000000 0.341924 0.000000
1.000000 0.351476 0.000000
1.000000 0.360815 0.000000
1.000000 0.396857 0.049928
1.000000 0.406378 0.082856
1.000000 0.416419 0.112459
1.000000 0.427161 0.141390
1.000000 0.438727 0.170840
1.000000 0.451698 0.201114
1.000000 0.466011 0.232639
1.000000 0.482155 0.266209
1.000000 0.499886 0.301671
1.000000 0.519097 0.338506
0.040131 0.169955 0.139742
0.043763 0.169894 0.138918
0.056001 0.169375 0.138674
0.071138 0.168673 0.138308
0.092592 0.165499 0.142031
0.110109 0.160983 0.149386
0.117769 0.156924 0.159609
0.130861 0.164370 0.173251
0.221775 0.194675 0.156161
0.348302 0.223911 0.135744
0.498146 0.252354 0.108919
0.641474 0.281590 0.071839
0.759854 0.309178 0.000000
0.826230 0.322911 0.000000
0.886046 0.338750 0.000000
0.936950 0.353857 0.000000
0.978088 0.366155 0.000000
1.000000 0.375921 0.000000
1.000000 0.384955 0.000000
1.000000 0.393744 0.000000
1.000000 0.402777 0.000000
1.000000 0.412085 0.000000
1.000000 0.421149 0.000000
1.000000 0.429633 0.033143
1.000000 0.438819 0.079286
1.000000 0.447852 0.115084
1.000000 0.457588 0.147982
1.000000 0.468269 0.180667
1.000000 0.480476 0.213809
1.000000 0.494179 0.248508
1.000000 0.509606 0.284642
1.000000 0.527001 0.322515
0.015503 0.203098 0.144442
0.022980 0.202976 0.143282
0.045533 0.202029 0.143008
0.068147 0.200717 0.142428
0.091920 0.198672 0.142855
0.121614 0.193637 0.150973
0.143069 0.188113 0.161837
0.153506 0.183230 0.176455
0.161044 0.188998 0.202701
0.272801 0.230655 0.179385
0.415778 0.269505 0.151522
0.565698 0.306889 0.116426
0.697780 0.342138 0.070527
0.812375 0.376471 0.000000
0.897704 0.400061 0.000000
0.942748 0.409247 0.000000
0.978759 0.415869 0.000000
1.000000 0.421454 0.000000
1.000000 0.426795 0.000000
1.000000 0.432380 0.000000
1.000000 0.438544 0.000000
1.000000 0.445350 0.000000
1.000000 0.452277 0.000000
1.000000 0.459022 0.000000
1.000000 0.465431 0.027680
1.000000 0.471687 0.081483
1.000000 0.478859 0.120943
1.000000 0.487160 0.157076
1.000000 0.496956 0.192416
1.000000 0.508446 0.228855
1.000000 0.521843 0.266209
1.000000 0.537163 0.305638
0.000000 0.247288 0.149538
0.000000 0.247196 0.147951
0.012726 0.245975 0.147555
0.057710 0.244083 0.146792
0.089631 0.241611 0.145968
0.127596 0.237034 0.151308
0.163210 0.230808 0.163241
0.189303 0.224491 0.178927
0.202792 0.218723 0.199374
0.213413 0.225345 0.234989
0.334142 0.275914 0.215885
0.496193 0.330785 0.181613
0.643458 0.378851 0.139956
0.762966 0.417060 0.088838
0.855161 0.443519 0.000000
0.924804 0.459449 0.000000
0.979004 0.468177 0.000000
1.000000 0.469947 0.000000
1.000000 0.471809 0.000000
1.000000 0.474525 0.000000
1.000000 0.478126 0.000000
1.000000 0.482521 0.000000
1.000000 0.487251 0.000000
1.000000 0.491890 0.000000
1.000000 0.496498 0.021881
1.000000 0.500328 0.057862
1.000000 0.504387 0.092103
1.000000 0.510124 0.133455
1.000000 0.517540 0.172213
1.000000 0.526482 0.210697
1.000000 0.537530 0.249607
1.000000 0.550408 0.289433
0.000000 0.302342 0.155459
0.000000 0.301793 0.153048
0.000000 0.300084 0.152499
0.035065 0.297490 0.151553
0.084596 0.294255 0.150546
0.124636 0.290105 0.149813
0.176242 0.283787 0.163180
0.217929 0.276524 0.180240
0.250675 0.271031 0.202884
0.272984 0.268650 0.233280
0.290898 0.278782 0.281498
0.414191 0.338170 0.273381
0.569696 0.399878 0.232029
0.698787 0.447486 0.187564
0.802853 0.482246 0.138399
0.881956 0.503471 0.083589
0.943572 0.515160 0.000000
0.992065 0.520134 0.000000
1.000000 0.520867 0.000000
1.000000 0.520500 0.000000
1.000000 0.520775 0.000000
1.000000 0.521904 0.000000
1.000000 0.523369 0.000000
1.000000 0.525109 0.000000
1.000000 0.527245 0.018555
1.000000 0.529046 0.057740
1.000000 0.531182 0.082856
1.000000 0.533593 0.104158
1.000000 0.538567 0.146944
1.000000 0.545617 0.189059
1.000000 0.554772 0.230808
1.000000 0.565820 0.273228
0.000000 0.363439 0.163302
0.000000 0.362951 0.159518
0.000000 0.361059 0.158846
0.000000 0.358373 0.157778
0.076417 0.354833 0.156344
0.126955 0.351049 0.154879
0.185092 0.349462 0.162478
0.246921 0.345678 0.182925
0.298039 0.341253 0.208713
0.337255 0.336584 0.240909
0.360479 0.332189 0.279545
0.377173 0.340551 0.334936
0.483162 0.400824 0.342138
0.623377 0.464057 0.298192
0.738460 0.510033 0.252384
0.828458 0.539757 0.206302
0.898100 0.556756 0.159884
0.953124 0.564721 0.110719
0.998108 0.567071 0.049317
1.000000 0.565698 0.000000
1.000000 0.561944 0.000000
1.000000 0.560449 0.000000
1.000000 0.559716 0.000000
1.000000 0.559716 0.000000
1.000000 0.559777 0.026764
1.000000 0.560235 0.065583
1.000000 0.560693 0.090700
1.000000 0.561730 0.112367
1.000000 0.563134 0.131502
1.000000 0.566979 0.167239
1.000000 0.573785 0.211765
1.000000 0.582696 0.256413
0.000000 0.437812 0.175448
0.000000 0.437781 0.171023
0.000000 0.437263 0.169741
0.000000 0.435889 0.168673
0.072816 0.433783 0.167025
0.138369 0.430884 0.165316
0.192355 0.427131 0.162966
0.269017 0.422675 0.185214
0.334661 0.417670 0.213748
0.387701 0.412299 0.247898
0.427314 0.406989 0.288182
0.450416 0.402747 0.334386
0.520134 0.459602 0.442237
0.594385 0.515618 0.469368
0.712825 0.577356 0.424811
0.802976 0.613642 0.380621
0.873106 0.632136 0.335821
0.929137 0.639765 0.291142
0.975433 0.640589 0.246952
1.000000 0.637018 0.202029
1.000000 0.630671 0.155856
1.000000 0.622095 0.102693
1.000000 0.611994 0.015442
1.000000 0.608118 0.056611
1.000000 0.605524 0.087770
1.000000 0.603326 0.112001
1.000000 0.601770 0.132601
1.000000 0.600549 0.150546
1.000000 0.599878 0.166720
1.000000 0.599756 0.182254
1.000000 0.602045 0.211337
1.000000 0.608698 0.256901
0.000000 0.542931 0.206332
0.000000 0.542565 0.200412
0.000000 0.540398 0.197543
0.000000 0.536828 0.195682
0.103456 0.531914 0.192691
0.171237 0.525811 0.189242
0.228977 0.519829 0.185763
0.296941 0.513787 0.195132
0.375280 0.508568 0.228244
0.441260 0.504112 0.267613
0.494057 0.501488 0.312871
0.534020 0.500389 0.365332
0.558099 0.500511 0.421302
0.571344 0.509026 0.484565
0.624537 0.557946 0.529259
0.729641 0.617395 0.490272
0.809812 0.651057 0.451026
0.873350 0.668849 0.412024
0.925505 0.676722 0.373449
0.969574 0.677821 0.334142
1.000000 0.674647 0.294255
1.000000 0.668147 0.252323
1.000000 0.659236 0.208042
1.000000 0.648524 0.159060
1.000000 0.636500 0.100801
1.000000 0.632715 0.121065
1.000000 0.629847 0.141878
1.000000 0.627619 0.160403
1.000000 0.626001 0.177249
1.000000 0.624964 0.193301
1.000000 0.624231 0.207980
1.000000 0.626123 0.235782
0.000000 0.609400 0.238468
0.000000 0.608820 0.233249
0.000000 0.605890 0.227695
0.059846 0.601068 0.224552
0.136202 0.595209 0.220768
0.196933 0.588037 0.216037
0.251530 0.580896 0.211429
0.303563 0.573968 0.206821
0.381903 0.568078 0.234714
0.452888 0.563470 0.273869
0.512139 0.560113 0.318761
0.559228 0.558251 0.368627
0.593530 0.557488 0.421515
0.613367 0.557336 0.474525
0.622034 0.562249 0.530724
0.653529 0.598993 0.585534
0.743832 0.652583 0.550103
0.815244 0.684077 0.515709
0.873106 0.701564 0.482490
0.921599 0.709773 0.449134
0.962676 0.711940 0.415991
0.998749 0.709560 0.381323
1.000000 0.703578 0.344030
1.000000 0.695094 0.303960
1.000000 0.684291 0.259495
1.000000 0.671901 0.211002
1.000000 0.658717 0.156680
1.000000 0.654994 0.173068
1.000000 0.652399 0.190738
1.000000 0.650446 0.207034
1.000000 0.648859 0.221775
1.000000 0.647700 0.235538
0.023957 0.665736 0.277195
0.024079 0.665400 0.271855
0.070344 0.662776 0.265019
0.128847 0.658045 0.261051
0.181430 0.651881 0.256107
0.231632 0.644923 0.250797
0.280949 0.637629 0.245151
0.328496 0.630671 0.239506
0.385992 0.624445 0.246067
0.461128 0.619837 0.285496
0.524895 0.616480 0.330053
0.577569 0.614588 0.378546
0.618402 0.613611 0.428901
0.646815 0.612818 0.479011
0.662562 0.611719 0.528069
0.666926 0.612818 0.576776
0.680629 0.637568 0.637263
0.758755 0.686549 0.606928
0.821683 0.715694 0.578180
0.873716 0.732265 0.549676
0.917876 0.740475 0.521080
0.956115 0.742947 0.491676
0.989929 0.741146 0.460853
1.000000 0.736141 0.428138
1.000000 0.728511 0.392584
1.000000 0.718624 0.353582
1.000000 0.707057 0.310704
1.000000 0.693965 0.262913
1.000000 0.680049 0.211063
1.000000 0.677668 0.228550
1.000000 0.675837 0.245151
1.000000 0.674311 0.260014
0.156588 0.713710 0.323308
0.157198 0.714015 0.318822
0.170504 0.712673 0.312078
0.204898 0.709255 0.308537
0.242710 0.704768 0.303777
0.283238 0.699550 0.298680
0.324804 0.694148 0.293492
0.366827 0.688655 0.287755
0.409064 0.683192 0.282628
0.475563 0.677943 0.310582
0.540307 0.673365 0.353460
0.593805 0.669337 0.398291
0.636255 0.665858 0.443702
0.668330 0.662593 0.489326
0.689876 0.659724 0.533715
0.700923 0.656825 0.576684
0.702693 0.655421 0.617609
0.712490 0.675319 0.672114
0.772885 0.716426 0.656123
0.828885 0.744045 0.633082
0.875486 0.760464 0.610986
0.915496 0.769314 0.588312
0.950347 0.772671 0.564355
0.981720 0.771908 0.538293
1.000000 0.767941 0.510033
1.000000 0.761440 0.479072
1.000000 0.752865 0.445319
1.000000 0.742336 0.407813
1.000000 0.730251 0.366644
1.000000 0.716396 0.319127
1.000000 0.701839 0.269139
1.000000 0.699275 0.282841
0.241917 0.751614 0.370367
0.241825 0.751369 0.366278
0.247013 0.750393 0.358770
0.270298 0.747341 0.355047
0.298650 0.743557 0.350683
0.330419 0.739162 0.345403
0.364385 0.734524 0.340307
0.399847 0.729702 0.334661
0.436500 0.724910 0.329351
0.479408 0.719966 0.331579
0.544732 0.715145 0.372351
0.599573 0.710994 0.414557
0.644648 0.707240 0.457679
0.680018 0.703639 0.500328
0.706111 0.700465 0.542199
0.723445 0.697383 0.582361
0.732387 0.694789 0.619715
0.733455 0.693019 0.654444
0.741543 0.709102 0.701411
0.786313 0.742184 0.697536
0.835843 0.767880 0.678859
0.877562 0.783658 0.660700
0.913573 0.792630 0.642206
0.945434 0.796811 0.622766
0.974060 0.797269 0.601740
1.000000 0.794797 0.578668
1.000000 0.789853 0.553063
1.000000 0.782712 0.524437
1.000000 0.773617 0.492164
1.000000 0.762753 0.456001
1.000000 0.750179 0.415106
1.000000 0.735714 0.367468
0.319890 0.784298 0.421149
0.320989 0.784726 0.418433
0.371496 0.802060 0.445441
0.385840 0.799741 0.441962
0.403540 0.796780 0.437598
0.424109 0.793057 0.431830
0.447272 0.788876 0.425910
0.472541 0.784482 0.419409
0.499580 0.779934 0.412757
0.528161 0.775326 0.406409
0.575647 0.770077 0.426734
0.627497 0.764950 0.465156
0.670436 0.759945 0.503746
0.705165 0.755306 0.541802
0.732052 0.751034 0.578576
0.751522 0.747158 0.612879
0.764065 0.743679 0.644770
0.770382 0.740871 0.674495
0.770840 0.738735 0.702052
0.775906 0.749355 0.738705
0.806332 0.773404 0.741848
0.848081 0.795468 0.726284
0.883818 0.809415 0.711208
0.915221 0.817624 0.695552
0.943389 0.821561 0.678920
0.969055 0.822232 0.660975
0.992889 0.820432 0.641566
1.000000 0.816464 0.620111
1.000000 0.810758 0.596735
1.000000 0.803342 0.570459
1.000000 0.794003 0.540063
1.000000 0.782559 0.504051
0.405188 0.816098 0.482277
0.409369 0.817380 0.482551
0.412757 0.818601 0.478523
0.427802 0.818051 0.478431
0.444617 0.816587 0.476661
0.462470 0.814054 0.472724
0.481727 0.810910 0.467781
0.502525 0.807309 0.461891
0.525261 0.803525 0.455848
0.549523 0.799771 0.450202
0.575799 0.795804 0.445808
0.627710 0.790707 0.482124
0.671138 0.785763 0.518029
0.706996 0.781277 0.553765
0.735927 0.777005 0.587793
0.758053 0.773312 0.619806
0.774289 0.769986 0.649775
0.785061 0.767269 0.677913
0.790768 0.765255 0.704128
0.791775 0.764004 0.728511
0.795834 0.772305 0.759548
0.817502 0.791562 0.769223
0.855009 0.812467 0.756405
0.887327 0.825956 0.743862
0.915801 0.834257 0.730922
0.941466 0.838773 0.717342
0.964996 0.840391 0.702693
0.986877 0.839750 0.687190
1.000000 0.837247 0.670192
1.000000 0.833097 0.651637
1.000000 0.827329 0.630640
1.000000 0.819608 0.605890
0.458289 0.834257 0.523400
0.461646 0.835294 0.523735
0.464576 0.836362 0.520500
0.475471 0.836088 0.519707
0.489235 0.835019 0.518517
0.503471 0.833127 0.515587
0.518853 0.830625 0.510857
0.536004 0.827817 0.506004
0.554803 0.824857 0.501061
0.574731 0.821683 0.495521
0.596094 0.818418 0.490059
0.630549 0.814267 0.503044
0.673457 0.809445 0.536584
0.709560 0.805051 0.569390
0.739315 0.800839 0.600732
0.763027 0.797116 0.630060
0.781460 0.793790 0.657771
0.795041 0.790982 0.683833
0.804227 0.788815 0.708186
0.809415 0.787320 0.731167
0.810605 0.786526 0.752499
0.814176 0.793240 0.779141
0.828672 0.808103 0.793057
0.862333 0.827665 0.782193
0.891447 0.840574 0.771572
0.917418 0.848936 0.760678
0.940887 0.853819 0.749325
0.962371 0.856260 0.737636
0.982544 0.856657 0.725216
1.000000 0.855344 0.711849
1.000000 0.852506 0.697139
1.000000 0.848020 0.680323
0.509880 0.850736 0.565270
0.512963 0.851682 0.565820
0.516075 0.852659 0.563897
0.523491 0.852811 0.562646
0.534386 0.851957 0.561517
0.545769 0.850370 0.558923
0.557885 0.848356 0.554955
0.571221 0.845945 0.550347
0.585931 0.843381 0.545373
0.601831 0.840604 0.539879
0.619104 0.837797 0.534539
0.637293 0.834775 0.528893
0.676478 0.830259 0.556146
0.712245 0.825956 0.586297
0.742367 0.822110 0.615229
0.767269 0.818814 0.643000
0.787900 0.816129 0.669673
0.804044 0.814115 0.694759
0.816342 0.812802 0.718502
0.825162 0.812131 0.740810
0.830533 0.812070 0.761593
0.832639 0.812497 0.780850
0.835874 0.818112 0.803403
0.844694 0.829129 0.819883
0.874052 0.846891 0.811276
0.899840 0.859007 0.802640
0.922759 0.867063 0.793973
0.943694 0.872251 0.785214
0.963012 0.875242 0.776150
0.981018 0.876371 0.766659
0.997864 0.875975 0.756466
1.000000 0.874083 0.745113
0.573571 0.870115 0.618952
0.574670 0.870451 0.618402
0.575158 0.870695 0.615259
0.577539 0.870451 0.611444
0.584558 0.869413 0.609461
0.592370 0.867918 0.606378
0.601587 0.866209 0.602838
0.612055 0.864317 0.598993
0.623957 0.862394 0.595209
0.637293 0.860380 0.591333
0.651545 0.858305 0.587335
0.666712 0.856107 0.583154
0.688991 0.853025 0.588464
0.722683 0.848936 0.615106
0.751614 0.845182 0.640681
0.776028 0.841855 0.665126
0.796536 0.839048 0.688533
0.813260 0.836759 0.710628
0.826658 0.835019 0.731533
0.836790 0.833738 0.751156
0.843931 0.832914 0.769467
0.848234 0.832517 0.786709
0.849760 0.832425 0.802579
0.851682 0.835996 0.820920
0.855253 0.843107 0.838437
0.881529 0.859342 0.830625
0.904875 0.870817 0.823087
0.925963 0.878874 0.815824
0.945190 0.884337 0.808621
0.962951 0.887785 0.801297
0.979278 0.889586 0.793729
0.994537 0.889891 0.785580
0.612482 0.882567 0.653223
0.613275 0.882841 0.652735
0.613672 0.883055 0.650050
0.614527 0.883024 0.646174
0.619989 0.882139 0.644312
0.626368 0.880980 0.641840
0.633814 0.879545 0.638788
0.642267 0.877989 0.635554
0.651942 0.876371 0.632105
0.662989 0.874815 0.629053
0.674952 0.873075 0.625605
0.687556 0.871244 0.621973
0.700557 0.869230 0.617762
0.727657 0.865904 0.634699
0.755856 0.862425 0.657984
0.780179 0.859251 0.680354
0.800961 0.856565 0.701839
0.818448 0.854368 0.722103
0.832792 0.852628 0.741329
0.844297 0.851347 0.759548
0.853208 0.850462 0.776699
0.859556 0.850065 0.792844
0.863493 0.849912 0.807950
0.865080 0.850004 0.821988
0.865507 0.851469 0.836210
0.867765 0.856931 0.852232
0.889189 0.871122 0.848112
0.910491 0.882170 0.841886
0.929778 0.890135 0.835874
0.947356 0.895781 0.830045
0.963439 0.899535 0.824247
0.978210 0.901823 0.818296
0.657710 0.896727 0.693477
0.658473 0.897002 0.693172
0.658564 0.897093 0.690852
0.657801 0.897154 0.686702
0.661250 0.896269 0.684413
0.665614 0.895140 0.681758
0.670649 0.893797 0.678553
0.676570 0.892271 0.674891
0.683497 0.890715 0.671229
0.691402 0.889067 0.667506
0.700069 0.887297 0.663386
0.709804 0.885466 0.659388
0.720089 0.883574 0.655207
0.733700 0.881254 0.654414
0.760098 0.877592 0.674586
0.783261 0.874235 0.693935
0.803555 0.871244 0.712734
0.821042 0.868864 0.731014
0.836118 0.867033 0.748775
0.848753 0.865812 0.765988
0.859007 0.864988 0.782284
0.866880 0.864439 0.797574
0.872374 0.864042 0.811643
0.875639 0.863645 0.824582
0.876738 0.863310 0.836515
0.877592 0.864958 0.849638
0.879210 0.869230 0.863554
0.895781 0.880980 0.862852
0.915282 0.891569 0.857481
0.932982 0.899474 0.852506
0.949126 0.905241 0.847837
0.963775 0.909392 0.843351
0.684901 0.906065 0.718196
0.685847 0.906371 0.718227
0.686183 0.906584 0.716579
0.685908 0.906676 0.713344
0.688228 0.906249 0.711116
0.692256 0.905425 0.709255
0.697017 0.904479 0.707088
0.702419 0.903410 0.704707
0.708675 0.902281 0.702113
0.715694 0.901091 0.699489
0.723445 0.899809 0.696681
0.731899 0.898528 0.693904
0.740871 0.897124 0.690761
0.750179 0.895598 0.687312
0.768185 0.893034 0.695827
0.790402 0.889952 0.713252
0.809995 0.887144 0.729946
0.827207 0.884764 0.746212
0.842130 0.882902 0.761990
0.855009 0.881437 0.777310
0.865782 0.880369 0.791989
0.874449 0.879606 0.805875
0.881102 0.879026 0.818906
0.885801 0.878599 0.830991
0.888640 0.878264 0.842283
0.889708 0.877958 0.852873
0.890410 0.879240 0.864256
0.891569 0.882567 0.876249
0.904082 0.892332 0.878691
0.921782 0.902434 0.874357
0.937743 0.910094 0.870481
0.952087 0.915801 0.866941
0.714260 0.916075 0.744930
0.714626 0.916258 0.744594
0.714565 0.916350 0.742885
0.714076 0.916381 0.739986
0.714809 0.916075 0.737118
0.717861 0.915312 0.735317
0.721553 0.914458 0.733242
0.725917 0.913542 0.731075
0.731075 0.912566 0.728878
0.736965 0.911620 0.726711
0.743557 0.910582 0.724361
0.750912 0.909575 0.722194
0.758694 0.908537 0.719875
0.766842 0.907378 0.717311
0.775296 0.906065 0.714321
0.796109 0.903197 0.729366
0.814908 0.900542 0.744289
0.831693 0.898161 0.758877
0.846525 0.896239 0.773129
0.859525 0.894713 0.787076
0.870665 0.893553 0.800534
0.879973 0.892699 0.813352
0.887480 0.892027 0.825437
0.893278 0.891508 0.836851
0.897429 0.891112 0.847562
0.899931 0.890776 0.857542
0.900938 0.890532 0.866911
0.901396 0.891356 0.876738
0.902190 0.893950 0.887175
0.911131 0.901762 0.891752
0.927123 0.911284 0.888212
0.941375 0.918608 0.885191
0.737942 0.924651 0.766659
0.738125 0.924712 0.766262
0.738094 0.924834 0.764858
0.737789 0.924926 0.762478
0.738125 0.924926 0.759884
0.741421 0.924559 0.759121
0.745785 0.924254 0.758663
0.750942 0.923919 0.758267
0.756802 0.923674 0.757961
0.763424 0.923461 0.758022
0.770474 0.923278 0.757992
0.777829 0.923033 0.757778
0.785428 0.922698 0.757382
0.793027 0.922179 0.756527
0.800595 0.921538 0.755184
0.812253 0.920043 0.758846
0.829374 0.917693 0.771572
0.844816 0.915587 0.783993
0.858671 0.913787 0.796201
0.870970 0.912291 0.808133
0.881743 0.911101 0.819699
0.890929 0.910124 0.830777
0.898528 0.909270 0.841215
0.904662 0.908537 0.851164
0.909300 0.907866 0.860441
0.912535 0.907256 0.869169
0.914488 0.906798 0.877409
0.915221 0.906432 0.885191
0.915435 0.906859 0.893248
0.915831 0.908721 0.901884
0.921202 0.914214 0.907713
0.934966 0.922759 0.904967
0.770169 0.935698 0.795895
0.770291 0.935760 0.795590
0.770077 0.935821 0.794278
0.769650 0.935851 0.792203
0.769039 0.935882 0.789395
0.771145 0.935515 0.788235
0.774105 0.935088 0.787320
0.777646 0.934691 0.786404
0.781827 0.934295 0.785580
0.786557 0.933959 0.784817
0.791714 0.933532 0.783993
0.797238 0.933135 0.783139
0.803098 0.932647 0.782132
0.809049 0.932097 0.780850
0.815213 0.931426 0.779263
