data/fiter_cube/29797953/1022858/file.cube
# Created by Adobe Lightroom plugin Export LUT (1.17.0)
# www.johnrellis.com/lightroom/exportlut.htm
# Preset: 电影灰蓝色_03 云集
# Color profile: C:\Program Files (x86)\Common Files\Adobe\Color\Profiles\Recommended\AdobeRGB1998.icc
LUT_3D_SIZE 5
DOMAIN_MIN 0.000000 0.000000 0.000000
DOMAIN_MAX 0.903226 0.903226 0.903226
0.069123 0.076112 0.088075
0.167727 0.094179 0.090547
0.538720 0.095491 0.051301
0.743557 0.274907 0.026703
0.855741 0.466682 0.174716
0.081544 0.128420 0.134615
0.170565 0.161288 0.100832
0.578546 0.248569 0.000000
0.749477 0.350347 0.003357
0.859312 0.501701 0.184451
0.275425 0.460975 0.405310
0.415351 0.479652 0.428351
0.557305 0.461585 0.157351
0.760678 0.520348 0.049470
0.866697 0.599878 0.218296
0.582574 0.680751 0.636408
0.622065 0.685115 0.643091
0.681544 0.691402 0.672297
0.724788 0.643854 0.356146
0.857450 0.664057 0.259403
0.706569 0.803525 0.774258
0.726314 0.807156 0.778561
0.775570 0.817594 0.797177
0.802609 0.820951 0.817868
0.840970 0.781613 0.561669
0.077272 0.093599 0.128389
0.190249 0.080476 0.158572
0.516564 0.152438 0.173281
0.727199 0.314885 0.196262
0.844236 0.486122 0.276219
0.097780 0.134707 0.162112
0.183352 0.200198 0.192691
0.555688 0.271946 0.187930
0.734646 0.379187 0.204349
0.847166 0.515923 0.284245
0.276524 0.484382 0.456641
0.423346 0.500053 0.458320
0.553948 0.478798 0.268406
0.753231 0.548180 0.245457
0.857481 0.609186 0.320134
0.584253 0.685451 0.650263
0.623041 0.689570 0.653773
0.684291 0.697292 0.676509
0.720424 0.650538 0.417365
0.853788 0.677119 0.346777
0.703334 0.805234 0.779599
0.723262 0.808652 0.782864
0.775753 0.820584 0.800626
0.807187 0.824735 0.824918
0.839811 0.784726 0.582940
0.113832 0.180697 0.302342
0.190524 0.149691 0.389899
0.589685 0.148836 0.397192
0.685725 0.385534 0.403204
0.814969 0.532494 0.464485
0.241703 0.270817 0.281895
0.261540 0.301122 0.376349
0.571069 0.313207 0.422004
0.689906 0.441352 0.426459
0.819547 0.552300 0.468727
0.338476 0.418463 0.450202
0.413214 0.463447 0.479622
0.554376 0.533745 0.485542
0.718135 0.575341 0.482094
0.833341 0.623804 0.491279
0.579400 0.672572 0.676448
0.612085 0.689357 0.680934
0.679866 0.706813 0.684199
0.710231 0.669886 0.545495
0.846067 0.715511 0.527184
0.695033 0.808255 0.798764
0.712093 0.814023 0.801266
0.762478 0.822995 0.805325
0.812284 0.832609 0.828916
0.834867 0.790524 0.630365
0.303166 0.355993 0.510643
0.339239 0.341619 0.552087
0.600153 0.220401 0.646235
0.737545 0.435828 0.586175
0.810147 0.552056 0.586114
0.409400 0.442725 0.494972
0.408362 0.434577 0.539361
0.590845 0.354742 0.645533
0.729366 0.488960 0.595758
0.804044 0.571038 0.592554
0.505730 0.519036 0.521813
0.527733 0.534020 0.531395
0.576013 0.578302 0.601953
0.704860 0.594232 0.619776
0.788022 0.635065 0.622492
0.592981 0.634089 0.648737
0.611017 0.645014 0.655573
0.658045 0.681025 0.683711
0.700282 0.694514 0.661219
0.827604 0.722957 0.652918
0.694453 0.777798 0.808133
0.707698 0.786770 0.814817
0.747280 0.818143 0.824338
0.806577 0.841978 0.833341
0.829282 0.802823 0.701320
0.561089 0.578882 0.684291
0.566461 0.570642 0.699763
0.626123 0.527123 0.750942
0.773709 0.504601 0.785275
0.847196 0.614313 0.739223
0.592065 0.612024 0.674159
0.586999 0.602106 0.690364
0.627314 0.571466 0.742916
0.768490 0.540826 0.786374
0.845609 0.629175 0.742916
0.634852 0.634424 0.623346
0.635462 0.640314 0.636286
0.640894 0.653285 0.710079
0.750179 0.619593 0.791897
0.841093 0.672847 0.755337
0.676692 0.699336 0.707179
0.680995 0.701808 0.708095
0.691768 0.706142 0.706630
0.705806 0.719905 0.747463
0.827970 0.736110 0.773495
0.712673 0.765560 0.789334
0.719234 0.770169 0.792630
0.741817 0.786404 0.804410
0.782925 0.816892 0.827695
0.824155 0.834562 0.821378
