data/fiter_cube/29797953/1022858/file.cube
# Created by Adobe Lightroom plugin Export LUT (1.17.0)
# www.johnrellis.com/lightroom/exportlut.htm
# Preset: 电影灰蓝色_03 云集
# Color profile: C:\Program Files (x86)\Common Files\Adobe\Color\Profiles\Recommended\AdobeRGB1998.icc
LUT_3D_SIZE 8
DOMAIN_MIN 0.000000 0.000000 0.000000
DOMAIN_MAX 0.903226 0.903226 0.903226
0.069123 0.076112 0.088075
0.092378 0.081880 0.089906
0.207828 0.097932 0.089357
0.434882 0.089143 0.071046
0.621149 0.137179 0.015137
0.725338 0.248142 0.007111
0.792111 0.354528 0.088991
0.855741 0.466682 0.174716
0.073762 0.087404 0.099306
0.091829 0.095521 0.094240
0.223667 0.127291 0.086305
0.447761 0.134798 0.064973
0.625208 0.179477 0.000000
0.724483 0.270115 0.000000
0.790951 0.366918 0.085847
0.854917 0.473610 0.173098
0.087465 0.156222 0.157198
0.122957 0.170260 0.167849
0.213931 0.195865 0.103578
0.487587 0.257755 0.000061
0.651698 0.309911 0.000000
0.734951 0.358312 0.000000
0.798703 0.427771 0.093874
0.859648 0.511376 0.185916
0.169833 0.350469 0.311162
0.226719 0.361273 0.316991
0.346899 0.373877 0.359350
0.463630 0.380468 0.125246
0.648859 0.401404 0.000000
0.751369 0.489204 0.000000
0.807553 0.514733 0.112154
0.864042 0.566491 0.204074
0.388556 0.548455 0.488838
0.424353 0.551659 0.491493
0.513298 0.561334 0.509911
0.565759 0.565789 0.541253
0.621912 0.525536 0.203861
0.722103 0.497505 0.008057
0.807126 0.583520 0.144625
0.870268 0.636835 0.238895
0.550988 0.659998 0.611139
0.569818 0.662684 0.614710
0.613703 0.666621 0.623133
0.652522 0.669520 0.639979
0.666163 0.674739 0.616632
0.708583 0.623590 0.324804
0.780392 0.579309 0.140200
0.862333 0.664576 0.262425
0.644251 0.737057 0.700221
0.652369 0.738674 0.701778
0.676692 0.742763 0.706538
0.710353 0.749538 0.719387
0.732967 0.750027 0.735897
0.738888 0.753231 0.678431
0.772091 0.703426 0.447242
0.840452 0.659785 0.236088
0.706569 0.803525 0.774258
0.712612 0.804593 0.775387
0.732448 0.808438 0.780331
0.762234 0.815610 0.791592
0.783841 0.818173 0.800504
0.801266 0.819791 0.817380
0.806668 0.822965 0.746548
0.840970 0.781613 0.561669
0.073152 0.082307 0.100160
0.095521 0.080903 0.106111
0.200412 0.101381 0.111513
0.424475 0.111208 0.108827
0.611627 0.160006 0.099428
0.716396 0.259556 0.104768
0.785214 0.361151 0.138094
0.850278 0.469825 0.207065
0.076143 0.088716 0.104860
0.093507 0.104005 0.114748
0.216464 0.131472 0.115023
0.439704 0.148409 0.106935
0.617762 0.196292 0.097169
0.717891 0.282383 0.103120
0.784970 0.373816 0.136934
0.849516 0.476295 0.205631
0.084199 0.169711 0.180209
0.130159 0.187655 0.187991
0.220981 0.209384 0.134279
0.487648 0.274327 0.094453
0.642145 0.313756 0.085115
0.727962 0.363745 0.102113
0.791257 0.429297 0.143923
0.853758 0.512139 0.216861
0.174136 0.360540 0.330907
0.235691 0.372259 0.335576
0.358862 0.388281 0.369879
0.458808 0.383398 0.163210
0.640864 0.405676 0.078828
0.742489 0.486213 0.109041
0.800046 0.513054 0.161074
0.858457 0.566033 0.233829
0.395789 0.552819 0.499886
0.428779 0.555138 0.500694
0.514519 0.563561 0.514733
0.568475 0.565026 0.551354
0.616968 0.525841 0.234684
0.718959 0.502251 0.110964
0.803586 0.587854 0.192386
0.866117 0.636957 0.269078
0.551049 0.660090 0.614466
0.566949 0.661219 0.615717
0.610376 0.665034 0.622553
0.650935 0.668971 0.638941
0.666163 0.674372 0.622950
0.706477 0.624994 0.345892
0.778805 0.583581 0.178561
0.859983 0.667201 0.289555
0.642145 0.735744 0.700435
0.649500 0.736629 0.701015
0.673915 0.740902 0.705531
0.709010 0.748531 0.718898
0.732479 0.750027 0.735409
0.738125 0.752743 0.682399
0.769436 0.702754 0.456672
0.837888 0.660517 0.256352
0.704494 0.802914 0.774472
0.710780 0.804105 0.775753
0.730770 0.808042 0.780514
0.760800 0.815183 0.791318
0.785306 0.820310 0.802579
0.802487 0.821225 0.818540
0.806516 0.823270 0.749996
0.839658 0.781430 0.566339
0.078584 0.100008 0.144472
0.090608 0.092409 0.171756
0.243137 0.076295 0.185672
0.401984 0.144442 0.197757
0.596094 0.204623 0.206729
0.704952 0.307195 0.225437
0.775723 0.399329 0.253452
0.842557 0.494789 0.305333
0.107851 0.126436 0.143008
0.107973 0.134218 0.173983
0.235538 0.130892 0.195682
0.415625 0.179599 0.206546
0.601495 0.237613 0.212558
0.706477 0.325963 0.227207
0.776028 0.410498 0.254215
0.842618 0.501488 0.305608
0.112276 0.162112 0.193301
0.136324 0.185977 0.213535
0.234257 0.247898 0.230564
0.472786 0.296239 0.228122
0.627070 0.340795 0.229282
0.716548 0.395789 0.239536
0.781216 0.456825 0.265293
0.845426 0.530571 0.313664
0.172854 0.357916 0.379583
0.231571 0.391882 0.390753
0.381750 0.428077 0.402045
0.471229 0.416754 0.272892
0.644709 0.456306 0.240604
0.731106 0.503288 0.266972
0.790616 0.532036 0.289555
0.851011 0.580499 0.331853
0.388891 0.566339 0.534813
0.427985 0.569543 0.533745
0.516869 0.577356 0.535607
0.583520 0.583032 0.564538
0.618677 0.545190 0.333440
0.717891 0.533776 0.254154
0.799313 0.613336 0.322698
0.858518 0.645228 0.362158
0.550317 0.666011 0.631678
0.567987 0.667109 0.631922
0.611170 0.670344 0.634302
0.652857 0.675044 0.644862
0.672053 0.679072 0.648035
0.701839 0.632624 0.411048
0.776028 0.602228 0.284489
0.856687 0.682277 0.377691
0.641566 0.740139 0.711330
0.649378 0.741207 0.711727
0.673213 0.744747 0.713924
0.707271 0.751034 0.722560
0.734249 0.754330 0.738338
0.740536 0.756527 0.701778
0.767086 0.708522 0.498024
0.837461 0.674067 0.334173
0.701320 0.804959 0.780514
0.706783 0.805661 0.780911
0.726986 0.809201 0.784268
0.758083 0.816495 0.793668
0.786831 0.823148 0.806119
0.804868 0.824552 0.820829
0.807645 0.825834 0.763607
0.838560 0.784604 0.587366
0.093843 0.145022 0.239078
0.100404 0.139651 0.268894
0.267582 0.054475 0.359045
0.498116 0.049989 0.322972
0.596368 0.198978 0.302342
0.676204 0.346258 0.345464
0.753933 0.433265 0.371252
0.825864 0.517052 0.410163
0.148318 0.194644 0.242893
0.139315 0.188357 0.273106
0.268223 0.126253 0.368688
0.493782 0.154788 0.333837
0.588922 0.257725 0.323217
0.679072 0.365393 0.351598
0.754879 0.444434 0.374701
0.826719 0.522789 0.410437
0.196933 0.238895 0.260990
0.218906 0.256565 0.274540
0.272038 0.303258 0.344488
0.470405 0.311925 0.364843
0.588342 0.374701 0.370336
0.691432 0.431647 0.376776
0.762417 0.488716 0.393622
0.831693 0.550134 0.420294
0.238651 0.328008 0.367010
0.267918 0.346410 0.379126
0.368170 0.415595 0.429786
0.475746 0.457984 0.411933
0.627588 0.499886 0.410437
0.706966 0.519951 0.409003
0.771389 0.549279 0.415076
0.837461 0.593652 0.436103
0.400793 0.527306 0.559472
0.430335 0.543877 0.561975
0.505669 0.585412 0.570459
0.586023 0.598108 0.572168
0.616724 0.569604 0.448798
0.712154 0.581476 0.419104
0.786007 0.631312 0.452827
0.846342 0.653346 0.463172
0.551171 0.661555 0.651606
0.567651 0.668360 0.654719
0.607141 0.679713 0.657343
0.652705 0.683619 0.657160
0.684199 0.688838 0.678126
0.696925 0.646540 0.495644
0.772122 0.633967 0.418585
0.852201 0.705531 0.486366
0.637049 0.744503 0.728450
0.644526 0.747341 0.729854
0.669184 0.751125 0.729763
0.703548 0.756771 0.732448
0.735836 0.762295 0.743496
0.747189 0.764340 0.734279
0.763180 0.716762 0.552789
0.835233 0.693416 0.432807
0.698085 0.809689 0.793759
0.703731 0.810544 0.793942
0.721523 0.813230 0.794553
0.750942 0.818601 0.798581
0.786099 0.826658 0.810483
0.807645 0.829618 0.823850
0.810056 0.830167 0.785550
0.836759 0.789059 0.616388
0.147860 0.222843 0.366064
0.155703 0.218357 0.388739
0.253483 0.181796 0.459632
0.518425 0.012634 0.508324
0.650690 0.242527 0.462379
0.695949 0.345129 0.432532
0.730312 0.463172 0.469337
0.802365 0.547875 0.512902
0.210697 0.273442 0.368048
0.203220 0.264256 0.389807
0.268132 0.232944 0.457588
0.517235 0.152621 0.512566
0.646204 0.285618 0.468421
0.692134 0.368505 0.439490
0.726772 0.477943 0.477333
0.803616 0.553155 0.514366
0.306310 0.328801 0.335515
0.321477 0.344945 0.353735
0.338628 0.367742 0.441260
0.507256 0.318578 0.522637
0.629023 0.390692 0.484565
0.677211 0.438331 0.464210
0.731167 0.510399 0.491188
0.807828 0.569940 0.517540
0.362829 0.401862 0.420356
0.380255 0.413184 0.427802
0.432380 0.447700 0.451026
0.491554 0.493660 0.504601
0.603113 0.501091 0.509514
0.673152 0.530694 0.508782
0.744137 0.560967 0.512139
0.818021 0.599786 0.521813
0.431189 0.495918 0.519493
0.448035 0.505333 0.525444
0.498543 0.536339 0.546410
0.568872 0.588678 0.587518
0.610407 0.591913 0.545892
0.699336 0.617578 0.546471
0.762661 0.628260 0.539239
0.829953 0.652186 0.540764
0.552422 0.628748 0.651606
0.564965 0.635370 0.655940
0.599512 0.656428 0.667201
0.639155 0.684260 0.672358
0.676905 0.689357 0.671199
0.689296 0.659510 0.571160
0.768032 0.671687 0.543786
0.844846 0.721187 0.576562
0.636530 0.727749 0.736629
0.642725 0.731777 0.737850
0.662715 0.744686 0.742214
0.692470 0.760769 0.747860
0.729030 0.765805 0.747921
0.757534 0.772000 0.768734
0.758083 0.724910 0.605280
0.832639 0.717372 0.533165
0.694362 0.802304 0.801785
0.699001 0.804776 0.802823
0.714321 0.812985 0.806455
0.740688 0.821866 0.809751
0.774563 0.827970 0.812772
0.807187 0.834928 0.825406
0.814817 0.835935 0.813779
0.833707 0.793393 0.647547
0.269444 0.328496 0.485206
0.276951 0.324773 0.499275
0.332128 0.303716 0.545373
0.508354 0.214115 0.613123
0.648280 0.261936 0.596551
0.723293 0.403876 0.564263
0.759030 0.475898 0.547417
0.804288 0.552819 0.572442
0.312963 0.365118 0.481910
0.311559 0.358526 0.496071
0.350042 0.340276 0.540917
0.503838 0.269139 0.608179
0.646113 0.299138 0.598749
0.720394 0.424140 0.567315
0.756313 0.486458 0.550195
0.801846 0.560388 0.575982
0.404028 0.430915 0.456489
0.410590 0.439155 0.475013
0.415198 0.437781 0.527611
0.498909 0.404883 0.595483
0.645197 0.401678 0.613062
0.710903 0.483436 0.578424
0.748562 0.521324 0.561517
0.794705 0.585779 0.588800
0.462867 0.473701 0.474678
0.471168 0.479316 0.478218
0.497414 0.497902 0.490089
0.526574 0.531640 0.569848
0.636378 0.516655 0.627771
0.696620 0.555718 0.596002
0.736019 0.569970 0.580041
0.790188 0.619440 0.605035
0.515526 0.542260 0.552483
0.523796 0.547662 0.556085
0.549035 0.564446 0.567285
0.582666 0.587518 0.582300
0.613062 0.612543 0.612970
0.676448 0.614008 0.611414
0.730007 0.627802 0.608484
0.805966 0.653193 0.613611
0.566461 0.610895 0.626856
0.574517 0.615747 0.629999
0.597070 0.629664 0.638819
0.630335 0.653407 0.656336
0.665339 0.683864 0.682521
0.684230 0.676204 0.641688
0.762264 0.700313 0.641657
0.827970 0.709895 0.633143
0.639948 0.704402 0.727016
0.645319 0.708461 0.730434
0.662196 0.721218 0.741024
0.688502 0.742245 0.758358
0.718013 0.767910 0.764126
0.751888 0.774105 0.763668
0.754604 0.736538 0.660060
0.834195 0.750118 0.636194
0.694026 0.782895 0.809812
0.698207 0.786007 0.810605
0.712245 0.796414 0.813504
0.734554 0.812863 0.818936
0.762783 0.831632 0.826383
0.799771 0.838804 0.828763
0.827695 0.845274 0.846403
0.830442 0.800687 0.689235
0.416449 0.448951 0.589380
0.420996 0.445930 0.597711
0.446967 0.432044 0.624720
0.524407 0.393896 0.665644
0.659144 0.331121 0.705531
0.728359 0.427497 0.671351
0.782010 0.521965 0.652827
0.824582 0.578393 0.650782
0.439307 0.471382 0.586175
0.439857 0.467140 0.594537
0.459083 0.454902 0.621576
0.526604 0.421637 0.662531
0.657313 0.360693 0.705715
0.726772 0.445777 0.673060
0.780636 0.532738 0.655207
0.823514 0.583612 0.652186
0.498848 0.522515 0.567956
0.503288 0.526299 0.579858
0.497993 0.514519 0.609277
0.536492 0.495979 0.651850
0.648096 0.447120 0.703517
0.721492 0.498604 0.678889
0.776455 0.565362 0.663020
0.819974 0.600122 0.656489
0.540185 0.537987 0.527520
0.543206 0.539818 0.528191
0.554070 0.562890 0.570123
0.566308 0.574365 0.630518
0.626734 0.555444 0.685786
0.713008 0.564965 0.688533
0.768063 0.605371 0.671870
0.814267 0.623407 0.661799
0.581872 0.592096 0.592248
0.585321 0.594354 0.593500
0.595880 0.601160 0.596857
0.609247 0.608850 0.598840
0.627222 0.631983 0.656031
0.706508 0.625940 0.705928
0.757504 0.645655 0.680995
0.805509 0.650660 0.666468
0.620111 0.644099 0.652308
0.623438 0.646326 0.653681
0.633997 0.653315 0.658045
0.648707 0.663203 0.664027
0.664515 0.673274 0.669154
0.682429 0.688685 0.691676
0.741268 0.688380 0.690852
0.795682 0.699031 0.687190
0.649348 0.691920 0.708675
0.652461 0.694209 0.710384
0.662959 0.701869 0.716182
0.679744 0.714443 0.725765
0.703944 0.734218 0.741970
0.736904 0.763821 0.768185
0.749599 0.751461 0.723964
0.829648 0.771359 0.723232
0.695979 0.764889 0.792355
0.699367 0.767391 0.794339
0.710903 0.776028 0.801205
0.730343 0.790860 0.813138
0.757748 0.812039 0.830228
0.789334 0.838132 0.840970
0.824491 0.849424 0.845182
0.826291 0.812436 0.745480
0.561089 0.578882 0.684291
0.562127 0.576593 0.688869
0.569482 0.567468 0.704921
0.597559 0.545800 0.732906
0.667353 0.500267 0.771023
0.757046 0.490394 0.787808
0.803067 0.557397 0.756130
0.847196 0.614313 0.739223
0.569512 0.588861 0.681514
0.569787 0.586603 0.686122
0.575341 0.578302 0.702266
0.599939 0.558740 0.730465
0.665644 0.517296 0.768887
0.755459 0.503075 0.788052
0.802152 0.565057 0.757229
0.846708 0.618860 0.740322
0.601312 0.620661 0.670558
0.599237 0.618341 0.675349
0.594110 0.608576 0.692348
0.608179 0.595331 0.721370
0.660273 0.565881 0.761074
0.749935 0.541344 0.789151
0.799069 0.588556 0.761044
0.845121 0.633845 0.744106
0.621057 0.631373 0.637690
0.622095 0.634150 0.644343
0.626703 0.642451 0.667628
0.625116 0.637842 0.703059
0.653498 0.622339 0.745998
0.739681 0.590631 0.791836
0.793973 0.620844 0.767636
0.842679 0.657832 0.750820
0.647456 0.652522 0.646540
0.648157 0.652613 0.646021
0.649928 0.652277 0.643366
0.650813 0.658198 0.657038
0.656580 0.669062 0.718318
0.710384 0.652796 0.776883
0.786221 0.657435 0.777462
0.838315 0.688808 0.759701
0.670985 0.689693 0.694697
0.672206 0.690333 0.694850
0.676020 0.692195 0.695003
0.681117 0.693751 0.693202
0.684871 0.691829 0.685634
0.694423 0.708064 0.740322
0.778500 0.703700 0.795682
0.830564 0.725887 0.770443
0.692988 0.728481 0.744259
0.694606 0.729610 0.744961
0.700069 0.733211 0.747219
0.709163 0.739101 0.750607
0.721126 0.746456 0.754269
0.733333 0.752285 0.754788
0.746944 0.763027 0.775296
0.817136 0.768826 0.782986
0.712673 0.765560 0.789334
0.714626 0.766934 0.790280
0.721431 0.771725 0.793759
0.733608 0.780453 0.800107
0.751431 0.793393 0.809598
0.775235 0.810910 0.822782
0.810605 0.839109 0.846464
0.824155 0.834562 0.821378
