data/fiter_cube/29797953/1022858/file.cube
# Created by Adobe Lightroom plugin Export LUT (1.17.0)
# www.johnrellis.com/lightroom/exportlut.htm
# Preset: 电影灰蓝色_03 云集
# Color profile: C:\Program Files (x86)\Common Files\Adobe\Color\Profiles\Recommended\AdobeRGB1998.icc
LUT_3D_SIZE 32
DOMAIN_MIN 0.0 0.0 0.0
DOMAIN_MAX 1.0 1.0 1.0
0.069123 0.076112 0.088075
0.071351 0.076509 0.087984
0.074159 0.077119 0.088472
0.080629 0.078889 0.089052
0.092378 0.081880 0.089906
0.110201 0.085664 0.090730
0.135256 0.089937 0.090822
0.167727 0.094179 0.090547
0.207828 0.097932 0.089357
0.256352 0.100038 0.087068
0.314275 0.098634 0.083406
0.375372 0.094118 0.077882
0.434882 0.089143 0.071046
0.489998 0.088228 0.063203
0.538720 0.095491 0.051301
0.581476 0.112123 0.033112
0.621149 0.137179 0.015137
0.653925 0.164981 0.002350
0.681239 0.192966 0.000000
0.704738 0.220920 0.000000
0.725338 0.248142 0.007111
0.743557 0.274907 0.026703
0.760159 0.300938 0.055177
0.776272 0.327733 0.072389
0.792111 0.354528 0.088991
0.807858 0.382025 0.106783
0.823728 0.410040 0.126375
0.839689 0.438239 0.148867
0.855741 0.466682 0.174716
0.871855 0.495369 0.204685
0.887999 0.524071 0.238773
0.904021 0.552331 0.276158
0.069612 0.077058 0.089113
0.071351 0.077882 0.088746
0.074372 0.078523 0.088350
0.081178 0.080568 0.088930
0.093141 0.083375 0.090059
0.111299 0.087587 0.090547
0.136507 0.091981 0.090608
0.168826 0.096620 0.090272
0.208774 0.100496 0.089052
0.257542 0.103059 0.086641
0.315190 0.101961 0.082948
0.375952 0.098573 0.077638
0.435218 0.094331 0.070771
0.490059 0.094057 0.062867
0.538628 0.101015 0.050690
0.581445 0.117311 0.032013
0.620417 0.141268 0.014771
0.652918 0.167422 0.001831
0.680140 0.194980 0.000000
0.703670 0.222141 0.000000
0.724300 0.249119 0.005188
0.742641 0.275486 0.023926
0.759213 0.301427 0.052369
0.775357 0.327703 0.071382
0.791226 0.354467 0.087617
0.807034 0.381781 0.105318
0.822965 0.409613 0.124849
0.838987 0.437842 0.147463
0.855070 0.466224 0.173190
0.871244 0.494911 0.203220
0.887449 0.523522 0.237156
0.903502 0.551812 0.274571
0.070314 0.078676 0.090639
0.071321 0.079194 0.091402
0.074220 0.080262 0.089631
0.081575 0.082124 0.089357
0.094087 0.086122 0.089815
0.112795 0.090303 0.090547
0.138064 0.095003 0.090547
0.170474 0.099886 0.090150
0.210758 0.104097 0.088838
0.259464 0.106874 0.086366
0.317113 0.106813 0.082460
0.377783 0.104128 0.076997
0.436652 0.101076 0.069978
0.491218 0.101656 0.061830
0.539513 0.108705 0.048707
0.582300 0.124178 0.029145
0.620752 0.147097 0.012207
0.652796 0.172702 0.000519
0.679927 0.198886 0.000000
0.703365 0.225559 0.000000
0.723995 0.252018 0.003479
0.742336 0.277775 0.021515
0.758907 0.303319 0.050721
0.775021 0.329320 0.070375
0.790921 0.355871 0.087129
0.806729 0.382879 0.104524
0.822629 0.410620 0.124605
0.838651 0.438544 0.146853
0.854795 0.466804 0.172580
0.870970 0.495338 0.202731
0.887175 0.523827 0.236606
0.903227 0.552026 0.273838
0.071717 0.082429 0.094362
0.073579 0.083131 0.095064
0.074708 0.082948 0.095827
0.080415 0.085817 0.092103
0.094697 0.089662 0.090608
0.116030 0.097597 0.090089
0.142092 0.102571 0.090242
0.175113 0.107790 0.089418
0.215763 0.112551 0.087831
0.264988 0.116152 0.085389
0.322759 0.117128 0.081117
0.382879 0.115755 0.075319
0.441016 0.114778 0.068116
0.494789 0.116396 0.059632
0.542229 0.123934 0.044617
0.584955 0.139040 0.024475
0.622248 0.159701 0.007355
0.653651 0.183627 0.000000
0.680201 0.208133 0.000000
0.703273 0.233219 0.000000
0.723720 0.258549 0.000000
0.741878 0.283452 0.018250
0.758511 0.308232 0.048432
0.774716 0.333684 0.069306
0.790768 0.359747 0.086305
0.806729 0.386633 0.104433
0.822721 0.414038 0.124514
0.838834 0.441688 0.147250
0.854948 0.469612 0.173068
0.871092 0.497688 0.202884
0.887175 0.525750 0.236637
0.903166 0.553429 0.273564
0.073762 0.087404 0.099306
0.075105 0.088441 0.099947
0.077516 0.089265 0.101045
0.079408 0.089235 0.102907
0.091829 0.095521 0.094240
0.115175 0.100923 0.091188
0.145480 0.112642 0.089631
0.182223 0.122133 0.087922
0.223667 0.127291 0.086305
0.273655 0.131533 0.083345
0.331273 0.133822 0.078492
0.390631 0.134066 0.072389
0.447761 0.134798 0.064973
0.500237 0.137881 0.054292
0.546746 0.145785 0.034638
0.589075 0.160128 0.014557
0.625208 0.179477 0.000000
0.655879 0.200961 0.000000
0.681849 0.223728 0.000000
0.704494 0.246708 0.000000
0.724483 0.270115 0.000000
0.742397 0.293614 0.014130
0.758877 0.317144 0.045502
0.775021 0.341680 0.068544
0.790951 0.366918 0.085847
0.806882 0.392920 0.104219
0.822873 0.419440 0.124483
0.838895 0.446357 0.147341
0.854917 0.473610 0.173098
0.871000 0.501061 0.203128
0.887083 0.528527 0.236637
0.903044 0.555779 0.273411
0.075441 0.095674 0.106905
0.077485 0.096773 0.107454
0.080140 0.098024 0.108400
0.084596 0.098970 0.110658
0.089204 0.102296 0.109468
0.109926 0.110597 0.096254
0.142611 0.116152 0.091005
0.182040 0.131106 0.088228
0.233982 0.149233 0.083375
0.286534 0.154910 0.079683
0.344213 0.157717 0.074250
0.402411 0.159182 0.067536
0.457923 0.161074 0.058991
0.508843 0.165072 0.042145
0.554162 0.173251 0.020203
0.595209 0.187167 0.001373
0.629847 0.204318 0.000000
0.659480 0.223789 0.000000
0.684596 0.244175 0.000000
0.706661 0.265171 0.000000
0.726253 0.286595 0.000000
0.743801 0.308263 0.009644
0.766537 0.341039 0.058076
0.782193 0.364080 0.076692
0.797635 0.387823 0.094606
0.813016 0.412146 0.113558
0.828458 0.436866 0.134279
0.843900 0.462074 0.157412
0.859434 0.487556 0.183536
0.875029 0.513542 0.213596
0.890623 0.539452 0.246647
0.906004 0.565118 0.282811
0.077852 0.109041 0.118532
0.080232 0.110170 0.118990
0.083619 0.112062 0.119966
0.091249 0.115511 0.123598
0.097536 0.114992 0.127596
0.107332 0.125032 0.117861
0.136660 0.133089 0.098421
0.178866 0.136263 0.089693
0.229557 0.154543 0.085573
0.295018 0.175570 0.077058
0.365270 0.192142 0.065705
0.422095 0.193637 0.056062
0.475257 0.195773 0.038331
0.523583 0.200229 0.016541
0.568078 0.209079 0.000000
0.606409 0.221744 0.000000
0.638880 0.237217 0.000000
0.666804 0.254032 0.000000
0.690639 0.271855 0.000000
0.711788 0.290593 0.000000
0.730922 0.310277 0.000000
0.748348 0.330663 0.009918
0.764950 0.352178 0.049409
0.781247 0.374548 0.073732
0.797208 0.397772 0.093111
0.812863 0.421332 0.113161
0.828397 0.445136 0.134218
0.843839 0.469306 0.157656
0.859312 0.493904 0.183749
0.874815 0.518853 0.213626
0.890349 0.543847 0.246342
0.905699 0.568811 0.282170
0.081544 0.128420 0.134615
0.084291 0.129885 0.135286
0.088441 0.131716 0.136263
0.097414 0.136019 0.139437
0.107820 0.138460 0.143374
0.116701 0.137697 0.151949
0.134585 0.156649 0.127077
0.170565 0.161288 0.100832
0.220432 0.159152 0.087861
0.283024 0.179995 0.080537
0.356603 0.202426 0.068238
0.431189 0.225956 0.037476
0.489387 0.236515 0.004211
0.536431 0.240513 0.000000
0.578546 0.248569 0.000000
0.614069 0.258579 0.000000
0.644678 0.271061 0.000000
0.671077 0.284886 0.000000
0.693812 0.299474 0.000000
0.714107 0.315435 0.000000
0.732570 0.332494 0.000000
0.749477 0.350347 0.003357
0.765835 0.369635 0.044343
0.781888 0.390082 0.073060
0.797665 0.411292 0.092927
0.813199 0.433234 0.113344
0.828550 0.455482 0.134859
0.843931 0.478309 0.158114
0.859312 0.501701 0.184451
0.874784 0.525566 0.213993
0.890227 0.549645 0.246677
0.905577 0.573693 0.282292
0.087465 0.156222 0.157198
0.090883 0.157595 0.157900
0.095979 0.159854 0.158907
0.106691 0.164218 0.161685
0.122957 0.170260 0.167849
0.135653 0.169528 0.173709
0.144503 0.171695 0.181430
0.173098 0.197452 0.138308
0.213931 0.195865 0.103578
0.269291 0.184939 0.084688
0.342321 0.207736 0.073274
0.416663 0.231205 0.053681
0.487587 0.257755 0.000061
0.551507 0.288975 0.000000
0.590112 0.294163 0.000000
0.623072 0.301061 0.000000
0.651698 0.309911 0.000000
0.676539 0.320348 0.000000
0.697902 0.331456 0.000000
0.717281 0.344182 0.000000
0.734951 0.358312 0.000000
0.751339 0.373327 0.000000
0.767391 0.390265 0.040833
0.783139 0.408606 0.072572
0.798703 0.427771 0.093874
0.813993 0.447639 0.114839
0.829221 0.468208 0.136416
0.844388 0.489448 0.159854
0.859648 0.511376 0.185916
0.874998 0.533959 0.215457
0.890349 0.556786 0.247593
0.905577 0.579767 0.282750
0.097414 0.192477 0.186221
0.101656 0.194034 0.186954
0.107424 0.196170 0.187747
0.119936 0.200595 0.190249
0.138979 0.207309 0.195865
0.156130 0.210208 0.200656
0.173922 0.209293 0.212985
0.184360 0.220432 0.204166
0.224094 0.246250 0.150637
0.267460 0.236179 0.106172
0.324041 0.212467 0.079500
0.401343 0.236881 0.062348
0.474342 0.263676 0.020722
0.538842 0.293370 0.000000
0.592676 0.325475 0.000000
0.632868 0.348241 0.000000
0.659846 0.353399 0.000000
0.683009 0.359747 0.000000
0.703059 0.367498 0.000000
0.721248 0.376623 0.000000
0.737972 0.387213 0.000000
0.753658 0.399329 0.000000
0.769192 0.413245 0.038514
0.784451 0.428779 0.072786
0.799619 0.445472 0.094911
0.814694 0.463355 0.115969
0.829770 0.482155 0.137881
0.844907 0.501823 0.161654
0.860075 0.522454 0.188083
0.875364 0.543694 0.217350
0.890684 0.565362 0.249546
0.905882 0.587304 0.284459
0.112367 0.236667 0.221073
0.117037 0.238285 0.221714
0.123812 0.240360 0.222568
0.138033 0.244816 0.224918
0.159335 0.251347 0.229648
0.185153 0.258457 0.237491
0.205783 0.257969 0.245487
0.224949 0.257664 0.261357
0.238651 0.278050 0.228794
0.288457 0.301640 0.163821
0.330877 0.281315 0.109316
0.382361 0.242557 0.071809
0.458473 0.269169 0.038941
0.524254 0.297612 0.000000
0.579797 0.328374 0.000000
0.625940 0.360388 0.000000
0.664424 0.391760 0.000000
0.688930 0.401587 0.000000
0.707759 0.405158 0.000000
0.724971 0.410651 0.000000
0.740841 0.417914 0.000000
0.756161 0.427131 0.000000
0.771420 0.438514 0.038483
0.786435 0.451514 0.074678
0.801266 0.465980 0.097566
0.816068 0.481544 0.119142
0.830869 0.498268 0.141146
0.845762 0.516136 0.164889
0.860746 0.534997 0.191012
0.875853 0.554589 0.220035
0.890990 0.574823 0.251713
0.906065 0.595453 0.286015
0.134493 0.289525 0.262577
0.139773 0.290990 0.263218
0.147372 0.293126 0.263920
0.162814 0.297215 0.265812
0.186770 0.303532 0.269993
0.217502 0.311131 0.277958
0.242771 0.313970 0.283940
0.270451 0.312963 0.298985
0.289036 0.313268 0.317632
0.306554 0.341619 0.256260
0.362127 0.360784 0.180392
0.397040 0.329259 0.114839
0.447822 0.279942 0.059968
0.518975 0.309422 0.000031
0.575860 0.339757 0.000000
0.622827 0.371130 0.000000
0.661891 0.401831 0.000000
0.693324 0.429511 0.000000
0.718288 0.451911 0.000000
0.733700 0.453010 0.000000
0.748379 0.456428 0.000000
0.762905 0.462531 0.000000
0.777340 0.470619 0.059083
0.791653 0.480690 0.085267
0.805905 0.492348 0.107240
0.820157 0.505486 0.128695
0.834470 0.519829 0.150607
0.848844 0.535424 0.173953
0.863371 0.552117 0.199985
0.878080 0.569635 0.228031
0.892821 0.587915 0.258824
0.907591 0.606806 0.292210
0.169833 0.350469 0.311162
0.175631 0.351751 0.311711
0.183749 0.353277 0.312139
0.200961 0.356542 0.313756
0.226719 0.361273 0.316991
0.258854 0.367224 0.323156
0.292668 0.372534 0.331914
0.318395 0.372808 0.340703
0.346899 0.373877 0.359350
0.362402 0.381292 0.367651
0.382971 0.407630 0.290776
0.437171 0.420356 0.202792
0.463630 0.380468 0.125246
0.496895 0.317449 0.042267
0.556970 0.340063 0.000000
0.607263 0.370703 0.000000
0.648859 0.401404 0.000000
0.682704 0.429328 0.000000
0.710262 0.454414 0.000000
0.733516 0.477119 0.000000
0.751369 0.489204 0.000000
0.765591 0.492348 0.002564
0.779629 0.497902 0.063539
0.793576 0.505425 0.090120
0.807553 0.514733 0.112154
0.821500 0.525689 0.133394
0.835569 0.538048 0.155337
0.849699 0.551690 0.178653
0.864042 0.566491 0.204074
0.878599 0.582391 0.231815
0.893248 0.599084 0.261662
0.907836 0.616602 0.294713
0.217044 0.406104 0.357366
0.223026 0.407111 0.357824
0.231083 0.408179 0.358282
0.247471 0.410742 0.359655
0.272557 0.414862 0.362676
0.304417 0.420569 0.368383
0.340673 0.427039 0.377752
0.366674 0.429572 0.383978
0.395056 0.429511 0.398169
0.417914 0.430732 0.416205
0.426307 0.443275 0.400183
0.448737 0.461769 0.320958
0.497292 0.468360 0.226871
0.514672 0.422889 0.139101
0.539605 0.356695 0.036133
0.589593 0.370367 0.000000
0.634150 0.399969 0.000000
0.670649 0.428473 0.000000
0.700435 0.454139 0.000000
0.725429 0.477241 0.000000
0.747189 0.498939 0.000000
0.767758 0.520653 0.018494
0.782345 0.526452 0.072267
0.796017 0.531640 0.097353
0.809659 0.538659 0.119356
0.823301 0.547448 0.140688
0.837095 0.557702 0.162203
0.850980 0.569421 0.185214
0.865110 0.582391 0.210056
0.879454 0.596521 0.237003
0.893919 0.611627 0.266392
0.908354 0.627680 0.298619
0.275425 0.460975 0.405310
0.280888 0.461830 0.405707
0.287968 0.462623 0.406165
0.303227 0.464759 0.407446
0.325658 0.467720 0.409735
0.353613 0.471473 0.413703
0.385290 0.475868 0.420325
0.415351 0.479652 0.428351
0.436896 0.479805 0.435370
0.461646 0.479744 0.450782
0.478767 0.481361 0.467689
0.482551 0.495827 0.429847
0.504723 0.507683 0.350500
0.544518 0.507836 0.254459
0.557305 0.461585 0.157351
0.575341 0.394263 0.050294
0.617273 0.398627 0.000000
0.657252 0.426978 0.000000
0.689540 0.453223 0.000000
0.716487 0.477058 0.000000
0.739406 0.498878 0.000000
0.760678 0.520348 0.049470
0.780850 0.541833 0.082033
0.798642 0.558618 0.107118
0.811948 0.563500 0.128603
0.825376 0.570214 0.149416
0.838956 0.578576 0.170779
0.852689 0.588586 0.193973
0.866697 0.599878 0.218296
0.880919 0.612360 0.244694
0.895262 0.625940 0.273503
0.909575 0.640558 0.305303
0.334264 0.508873 0.449683
0.339147 0.509575 0.450111
0.345281 0.510155 0.450507
0.358312 0.511620 0.451484
0.377661 0.513664 0.453315
0.401862 0.516381 0.456458
0.429175 0.519677 0.461402
0.458198 0.523400 0.469276
0.478035 0.524651 0.474067
0.498970 0.524437 0.484779
0.517235 0.524681 0.498939
0.528985 0.526299 0.514061
0.529808 0.539696 0.457160
0.550408 0.546075 0.378332
0.582483 0.540764 0.282170
0.592187 0.495399 0.178897
0.605554 0.429236 0.069856
0.640589 0.424537 0.000000
0.677241 0.451606 0.000000
0.706691 0.476295 0.000000
0.731350 0.498634 0.006592
0.753414 0.520226 0.064637
0.774319 0.541802 0.091615
0.794217 0.563195 0.115999
0.813199 0.584161 0.140047
0.828122 0.594537 0.161959
0.841398 0.600946 0.182773
0.854856 0.608911 0.204868
0.868589 0.618280 0.228336
0.882475 0.628901 0.253574
0.896483 0.640681 0.281376
0.910521 0.653559 0.311894
0.388556 0.548455 0.488838
0.392309 0.548760 0.489021
0.397375 0.549248 0.489357
0.408362 0.550195 0.490150
0.424353 0.551659 0.491493
0.444556 0.553582 0.493843
0.467262 0.555962 0.497627
0.491524 0.558892 0.503349
0.513298 0.561334 0.509911
0.528130 0.561578 0.514611
0.546471 0.561303 0.526757
0.560052 0.561975 0.539757
0.565759 0.565789 0.541253
0.568231 0.575463 0.480751
0.587579 0.578241 0.404059
0.613947 0.569329 0.309697
0.621912 0.525536 0.203861
0.632044 0.461952 0.090639
0.661646 0.448981 0.000000
0.695186 0.474464 0.000000
0.722103 0.497505 0.008057
0.745113 0.519036 0.067353
0.766781 0.540642 0.095125
0.787442 0.562219 0.120241
0.807126 0.583520 0.144625
0.825925 0.604242 0.169924
0.843565 0.623163 0.195377
0.856779 0.629328 0.216434
0.870268 0.636835 0.238895
0.883940 0.645777 0.263279
0.897734 0.655909 0.289860
0.911498 0.667292 0.319554
0.437232 0.582513 0.524071
0.440589 0.582940 0.524407
0.453529 0.589441 0.531212
0.462196 0.590082 0.531823
0.474922 0.591150 0.532830
0.490639 0.592462 0.534508
0.508812 0.594171 0.537194
0.528435 0.596094 0.541314
0.548791 0.598444 0.547570
0.562310 0.599145 0.551110
0.576776 0.598779 0.558770
0.590295 0.598688 0.569574
0.599664 0.599176 0.580774
0.600305 0.603906 0.565576
0.604089 0.609277 0.507195
0.621576 0.609186 0.433448
0.643427 0.597589 0.341283
0.650477 0.556023 0.234806
0.658442 0.495155 0.116426
0.682673 0.474189 0.007050
0.713100 0.497810 0.018463
0.737606 0.519188 0.066804
0.760006 0.540764 0.097444
0.781308 0.562371 0.123568
0.801450 0.583703 0.149050
0.820706 0.604517 0.174624
0.839139 0.624537 0.200534
0.856870 0.643610 0.226902
0.872129 0.656001 0.250950
0.885496 0.663111 0.273930
0.898955 0.671595 0.299474
0.912474 0.681422 0.328038
0.481758 0.613703 0.557641
0.485267 0.614588 0.558618
0.489754 0.615595 0.559564
0.497719 0.616754 0.560784
0.508904 0.618006 0.562219
0.522423 0.619257 0.563897
0.537865 0.620600 0.566186
0.554559 0.622126 0.569574
0.572198 0.623957 0.574640
0.587427 0.625422 0.579889
0.597253 0.625574 0.582940
0.610224 0.625208 0.591974
0.620203 0.625269 0.601434
0.626734 0.625940 0.611109
0.625055 0.630732 0.583246
0.629877 0.633631 0.527367
0.646326 0.632044 0.456641
0.664942 0.618952 0.367987
0.671870 0.579828 0.263035
0.678981 0.522271 0.142061
0.699306 0.494850 0.050111
0.727535 0.517266 0.065797
0.751247 0.538445 0.091585
0.773434 0.560327 0.120974
0.794461 0.582116 0.148226
0.814603 0.603449 0.174777
0.833768 0.624140 0.201968
0.852171 0.643763 0.229435
0.869902 0.662379 0.257267
0.886839 0.680049 0.285893
0.900298 0.687892 0.310460
0.913512 0.696193 0.337804
0.518151 0.638483 0.585626
0.521141 0.639185 0.586481
0.524834 0.640009 0.587366
0.531456 0.640833 0.588373
0.540764 0.641840 0.589624
0.552087 0.642786 0.591089
0.565179 0.643854 0.593072
0.579278 0.645045 0.595941
0.593957 0.646540 0.599908
0.608606 0.648249 0.605280
0.618097 0.648859 0.608148
0.627771 0.648798 0.613397
0.637598 0.648646 0.621302
0.644923 0.648981 0.629541
0.649531 0.649653 0.637934
0.646662 0.653925 0.600183
0.652186 0.655116 0.547692
0.667689 0.652613 0.479988
0.683864 0.638514 0.395117
0.690852 0.601923 0.292271
0.697597 0.547784 0.170474
0.714809 0.514549 0.076478
0.741512 0.536278 0.089967
0.765042 0.557824 0.114595
0.787045 0.579919 0.143679
0.807980 0.601862 0.172335
0.827970 0.623072 0.201022
0.847105 0.643366 0.229740
0.865476 0.662562 0.258732
0.883055 0.680720 0.288182
0.899748 0.697932 0.318517
0.914519 0.711299 0.348455
0.550988 0.659998 0.611139
0.553491 0.660578 0.611841
0.556573 0.661189 0.612665
0.562097 0.661952 0.613581
0.569818 0.662684 0.614710
0.579187 0.663447 0.615961
0.589776 0.664363 0.617670
0.601404 0.665400 0.619959
0.613703 0.666621 0.623133
0.626093 0.668116 0.627314
0.636774 0.669429 0.631525
0.643610 0.669642 0.633753
0.652522 0.669520 0.639979
0.660121 0.669581 0.646998
0.665705 0.670130 0.654292
0.667506 0.671717 0.653468
0.666163 0.674739 0.616632
0.672358 0.674922 0.568231
0.687160 0.672023 0.504234
0.701259 0.657496 0.424018
0.708583 0.623590 0.324804
0.715480 0.573114 0.203708
0.730526 0.534936 0.100160
0.756924 0.557122 0.114534
0.780392 0.579309 0.140200
0.802426 0.601770 0.170108
0.823301 0.623774 0.201144
0.843198 0.644739 0.231815
0.862333 0.664576 0.262425
0.880552 0.683223 0.293339
0.897765 0.700893 0.325200
0.913787 0.717586 0.358038
0.582574 0.680751 0.636408
0.584192 0.681056 0.636805
0.586236 0.681361 0.637171
0.590326 0.681788 0.637751
0.596277 0.682368 0.638575
0.603784 0.683101 0.639612
0.612421 0.683955 0.641077
0.622065 0.685115 0.643091
0.632349 0.686580 0.645777
0.642908 0.688258 0.649226
0.653376 0.690242 0.653590
0.660365 0.690974 0.655787
0.667262 0.691218 0.659297
0.675135 0.691188 0.665583
0.681544 0.691402 0.672297
0.686183 0.692012 0.679438
0.685725 0.694118 0.668544
0.685756 0.695827 0.633265
0.692195 0.695064 0.588647
0.705959 0.691432 0.528496
0.717983 0.676143 0.452277
0.724788 0.643854 0.356146
0.731167 0.596063 0.236973
0.744747 0.553613 0.120516
0.771054 0.576318 0.136202
0.794553 0.598932 0.162753
0.816617 0.621546 0.193698
0.837491 0.643427 0.226688
0.857450 0.664057 0.259403
0.876493 0.683467 0.292149
0.894438 0.701778 0.325536
0.911162 0.719081 0.359838
0.606348 0.699275 0.658198
0.607721 0.699611 0.658564
0.609400 0.699947 0.658961
0.612726 0.700435 0.659510
0.617609 0.701045 0.660243
0.623713 0.701839 0.661158
0.630915 0.702785 0.662379
0.638911 0.703944 0.663996
0.647639 0.705470 0.666163
0.656855 0.707179 0.669001
0.666590 0.709102 0.672724
0.675319 0.710689 0.676417
0.680964 0.711055 0.678126
0.688350 0.711055 0.683162
0.695277 0.711208 0.689418
0.700801 0.711635 0.696071
0.704768 0.712367 0.703029
0.702846 0.714717 0.682765
0.703944 0.715572 0.648066
0.710719 0.714107 0.606867
0.723720 0.710140 0.551476
0.734127 0.694453 0.479164
0.740780 0.663966 0.387427
0.746883 0.618982 0.270817
0.758724 0.571862 0.139590
0.785000 0.595209 0.157473
0.808774 0.618372 0.185092
0.830991 0.640803 0.216953
0.851865 0.662470 0.252232
0.871824 0.682856 0.287449
0.890684 0.702052 0.322850
0.908202 0.720119 0.359106
0.627771 0.719173 0.680659
0.628901 0.719539 0.681056
0.630304 0.719844 0.681361
0.632929 0.720241 0.681727
0.636835 0.720821 0.682307
0.641840 0.721584 0.682948
0.647852 0.722499 0.683925
0.654841 0.723568 0.685206
0.662745 0.724849 0.686976
0.671229 0.726375 0.689418
0.680232 0.728084 0.692592
0.689509 0.729915 0.696681
0.695674 0.730556 0.698665
0.701289 0.730678 0.701167
0.708309 0.730526 0.706722
0.714260 0.730556 0.712612
0.718868 0.730922 0.718807
0.722042 0.731685 0.725399
0.719051 0.733822 0.696529
0.721065 0.734035 0.662257
0.728176 0.732143 0.623285
0.740536 0.728023 0.572381
0.749508 0.712093 0.504326
0.755917 0.683070 0.416480
0.761776 0.640497 0.302678
0.774655 0.594446 0.164767
0.800015 0.615351 0.180667
0.824033 0.638575 0.209140
0.846281 0.660761 0.242588
0.867155 0.682063 0.280369
0.886900 0.702174 0.318212
0.905333 0.721126 0.356756
0.644251 0.737057 0.700221
0.645228 0.737392 0.700557
0.646479 0.737697 0.700893
0.648798 0.738125 0.701228
0.652369 0.738674 0.701778
0.657008 0.739406 0.702480
0.662684 0.740352 0.703456
0.669245 0.741451 0.704768
0.676692 0.742763 0.706538
0.684840 0.744289 0.708858
0.693385 0.746059 0.711849
0.702358 0.747921 0.715663
0.710353 0.749538 0.719387
0.715297 0.749783 0.720790
0.721462 0.749783 0.724727
0.727749 0.749813 0.730159
0.732967 0.750027 0.735897
0.737026 0.750607 0.741939
0.738247 0.751858 0.741268
0.736172 0.753475 0.712032
0.738888 0.753231 0.678431
0.746273 0.751003 0.640284
0.758114 0.746731 0.593652
0.765743 0.730709 0.530694
0.772091 0.703426 0.447242
0.778042 0.663508 0.337133
0.792355 0.620813 0.197391
0.816129 0.636469 0.205814
0.840452 0.659785 0.236088
0.862791 0.681727 0.272282
0.883604 0.702785 0.312688
0.902953 0.722683 0.354162
0.660334 0.754757 0.719692
0.661219 0.755032 0.719966
0.662257 0.755245 0.720211
0.664424 0.755612 0.720516
0.667659 0.756100 0.720974
0.671962 0.756771 0.721645
0.677241 0.757595 0.722530
0.683406 0.758602 0.723812
0.690425 0.759915 0.725490
0.698116 0.761410 0.727718
0.706325 0.763119 0.730526
0.714870 0.765011 0.734096
0.723598 0.767025 0.738430
0.729397 0.767819 0.740536
0.734035 0.768063 0.742397
0.740505 0.767971 0.747250
0.746059 0.768063 0.752407
0.750668 0.768429 0.757870
0.754177 0.769131 0.763577
0.753719 0.770657 0.755367
0.752529 0.771786 0.727260
0.755856 0.771267 0.694484
0.763516 0.768948 0.656886
0.775174 0.764706 0.613336
0.781643 0.748867 0.555962
0.788113 0.723262 0.476814
0.794675 0.686183 0.370916
0.810300 0.646723 0.230686
0.832578 0.657496 0.231907
0.857206 0.680537 0.263767
0.879484 0.702388 0.303563
0.900053 0.723201 0.346715
0.675563 0.771328 0.738094
0.676326 0.771511 0.738308
0.677333 0.771725 0.738491
0.679316 0.772091 0.738857
0.682460 0.772641 0.739406
0.686641 0.773404 0.740230
0.691859 0.774411 0.741390
0.697963 0.775692 0.742916
0.704921 0.777188 0.744961
0.712520 0.778958 0.747433
0.720638 0.780880 0.750454
0.729122 0.783017 0.754025
0.737697 0.785214 0.758267
0.745480 0.787137 0.762325
0.749935 0.787503 0.763699
0.755123 0.787655 0.766690
0.760922 0.787686 0.771328
0.765866 0.787900 0.776150
0.769924 0.788418 0.781216
0.773007 0.789181 0.786496
0.771176 0.790768 0.772030
0.770748 0.791531 0.745449
0.774472 0.790829 0.713954
0.782406 0.788540 0.677211
0.794217 0.784543 0.634943
0.799741 0.768948 0.583337
0.806363 0.745113 0.509819
0.813779 0.711025 0.409186
0.830411 0.675105 0.274113
0.852140 0.681727 0.265660
0.876860 0.704463 0.300420
0.898680 0.726101 0.344884
0.692226 0.788724 0.757595
0.692897 0.788907 0.757778
0.693782 0.789029 0.757961
0.695644 0.789334 0.758236
0.698543 0.789792 0.758724
0.702419 0.790433 0.759457
0.707210 0.791287 0.760494
0.712856 0.792355 0.761837
0.719265 0.793668 0.763607
0.726345 0.795224 0.765805
0.733944 0.796902 0.768460
0.741878 0.798795 0.771633
0.750027 0.800839 0.775357
0.758206 0.802945 0.779629
