data/fiter_cube/39179523/1023434/file.cube
# Created by Adobe Lightroom plugin Export LUT (1.17.0)
# www.johnrellis.com/lightroom/exportlut.htm
# Preset: 日系大师人物肖像_08 云集
# Color profile: C:\Program Files (x86)\Common Files\Adobe\Color\Profiles\Recommended\AdobeRGB1998.icc
LUT_3D_SIZE 5
DOMAIN_MIN 0.000000 0.000000 0.000000
DOMAIN_MAX 0.903226 0.903226 0.903226
0.069612 0.084504 0.090791
0.300023 0.063386 0.076448
0.727016 0.059785 0.000000
0.950561 0.297185 0.000000
1.000000 0.426551 0.000000
0.000000 0.217777 0.148684
0.263767 0.255924 0.105196
0.709926 0.302068 0.000000
0.940734 0.397345 0.000000
1.000000 0.491585 0.000000
0.000000 0.557397 0.326024
0.108675 0.564508 0.285618
0.685817 0.632563 0.212070
0.922026 0.629328 0.188540
1.000000 0.652735 0.183902
0.000000 0.821012 0.527642
0.000000 0.819394 0.520897
0.522393 0.806790 0.446021
0.880461 0.830594 0.439307
1.000000 0.827756 0.460212
0.000000 0.992370 0.688075
0.000000 0.984924 0.693721
0.621210 0.958007 0.712245
0.799130 0.958648 0.670649
1.000000 0.969543 0.686824
0.000000 0.098482 0.257847
0.304784 0.091035 0.276829
0.707332 0.138125 0.235843
0.925200 0.344213 0.230198
1.000000 0.461494 0.178897
0.000000 0.228214 0.307805
0.270878 0.278904 0.300420
0.698512 0.336645 0.279484
0.918791 0.431861 0.262150
1.000000 0.519554 0.227543
0.000000 0.576349 0.447517
0.183597 0.586816 0.435798
0.663386 0.621149 0.384619
0.899962 0.635676 0.372198
1.000000 0.672663 0.369848
0.000000 0.825437 0.599145
0.091829 0.822446 0.595758
0.555932 0.808743 0.540215
0.871336 0.829923 0.538781
1.000000 0.835111 0.551812
0.000000 0.993683 0.722774
0.000000 0.986145 0.726070
0.645594 0.963348 0.756283
0.805478 0.959991 0.713588
1.000000 0.970916 0.728054
0.000000 0.142794 0.613367
0.281193 0.174136 0.613672
0.743038 0.330297 0.660090
0.909300 0.477516 0.593408
1.000000 0.596460 0.595972
0.000000 0.238651 0.637079
0.325261 0.337224 0.631098
0.722499 0.458564 0.664729
0.890074 0.539818 0.608759
1.000000 0.626825 0.604364
0.000000 0.558892 0.680690
0.236942 0.584680 0.676173
0.659815 0.649073 0.665827
0.873594 0.685054 0.657496
1.000000 0.724086 0.643061
0.000000 0.837827 0.763302
0.168002 0.831998 0.754299
0.633326 0.816770 0.737209
0.854948 0.834562 0.724178
1.000000 0.852262 0.720302
0.000000 0.995514 0.825162
0.000000 0.990478 0.822171
0.595392 0.971618 0.816526
0.804929 0.958679 0.788449
0.993744 0.969390 0.800229
0.223911 0.267704 0.838468
0.403204 0.320104 0.837644
0.656306 0.420722 0.833738
0.917144 0.649805 0.864073
1.000000 0.749783 0.848844
0.200809 0.336461 0.843656
0.438880 0.431647 0.838804
0.663813 0.509026 0.833188
0.907591 0.685939 0.863645
1.000000 0.760128 0.848081
0.000000 0.528191 0.853483
0.355810 0.560327 0.849912
0.683314 0.676600 0.837888
0.882963 0.759426 0.861540
1.000000 0.791226 0.843778
0.000000 0.764950 0.873838
0.346807 0.773709 0.870115
0.647089 0.804166 0.863798
0.844724 0.843320 0.857420
0.996338 0.863554 0.849393
0.000000 0.990143 0.940307
0.082643 0.993103 0.941253
0.582269 0.982269 0.927184
0.818967 0.967651 0.900755
0.982452 0.970672 0.893767
0.503593 0.475776 0.975158
0.583154 0.523705 0.972381
0.721523 0.587396 0.968414
0.867918 0.671992 0.962463
1.000000 0.837400 0.961608
0.468055 0.484718 0.975708
0.584588 0.563073 0.971191
0.727871 0.631678 0.966522
0.865019 0.695827 0.960662
0.999817 0.849027 0.962768
0.257542 0.508354 0.981933
0.403754 0.538506 0.979248
0.728969 0.720668 0.965637
0.858488 0.759945 0.960754
0.995422 0.887907 0.968719
0.171084 0.714351 0.984833
0.353460 0.727047 0.982391
0.621454 0.769039 0.976410
0.852964 0.852384 0.967956
0.989837 0.936645 0.977050
0.000000 0.888182 0.990417
0.275059 0.893156 0.989227
0.606348 0.913451 0.986969
0.819730 0.941161 0.982055
0.973053 0.973236 0.976257
