data/fiter_cube/39179523/1023434/file.cube
# Created by Adobe Lightroom plugin Export LUT (1.17.0)
# www.johnrellis.com/lightroom/exportlut.htm
# Preset: 日系大师人物肖像_08 云集
# Color profile: C:\Program Files (x86)\Common Files\Adobe\Color\Profiles\Recommended\AdobeRGB1998.icc
LUT_3D_SIZE 8
DOMAIN_MIN 0.000000 0.000000 0.000000
DOMAIN_MAX 0.903226 0.903226 0.903226
0.069612 0.084504 0.090791
0.139986 0.082673 0.088716
0.368170 0.015076 0.066743
0.628504 0.000000 0.000000
0.805447 0.149355 0.000000
0.926207 0.272190 0.000000
1.000000 0.362310 0.000000
1.000000 0.426551 0.000000
0.052277 0.125978 0.103883
0.127687 0.136263 0.095094
0.351751 0.142519 0.072389
0.611475 0.140536 0.000000
0.795224 0.212345 0.000000
0.912596 0.298405 0.000000
1.000000 0.377691 0.000000
1.000000 0.440650 0.000000
0.000000 0.259648 0.170108
0.058076 0.269139 0.150088
0.323461 0.306859 0.107118
0.605310 0.335119 0.002441
0.795132 0.371679 0.000000
0.910857 0.411322 0.000000
1.000000 0.468482 0.000000
1.000000 0.509056 0.000000
0.000000 0.465217 0.272435
0.000000 0.468910 0.256199
0.203983 0.479133 0.188235
0.587488 0.539452 0.155093
0.802029 0.563867 0.123079
0.909880 0.563470 0.109010
1.000000 0.583337 0.094331
1.000000 0.601923 0.065827
0.000000 0.643793 0.384436
0.000000 0.646845 0.376135
0.190890 0.653986 0.351415
0.460578 0.663386 0.292851
0.754269 0.700008 0.269841
0.884977 0.689937 0.261112
0.982116 0.696376 0.260777
1.000000 0.705409 0.269139
0.000000 0.788479 0.498604
0.000000 0.794400 0.499947
0.165011 0.790951 0.490669
0.406317 0.787625 0.414954
0.648768 0.785336 0.409644
0.857023 0.806058 0.404822
0.967681 0.806851 0.411353
1.000000 0.806149 0.427283
0.000000 0.894560 0.595727
0.000000 0.894621 0.596216
0.167758 0.886992 0.594568
0.492317 0.875456 0.595636
0.602991 0.869169 0.530877
0.783688 0.878019 0.533806
0.944182 0.897887 0.538231
1.000000 0.888731 0.552911
0.000000 0.992370 0.688075
0.000000 0.990265 0.689204
0.219181 0.982422 0.696834
0.547509 0.970184 0.719722
0.632136 0.961089 0.664027
0.762295 0.956146 0.666316
0.897337 0.964874 0.681605
1.000000 0.969543 0.686824
0.058564 0.085267 0.144442
0.135653 0.093599 0.146090
0.347387 0.074006 0.132204
0.606439 0.042237 0.116243
0.792020 0.168093 0.064790
0.906859 0.274418 0.000000
0.999451 0.362585 0.000000
1.000000 0.429450 0.000000
0.010773 0.124575 0.158663
0.126009 0.143252 0.156588
0.341436 0.154665 0.148379
0.600671 0.159243 0.123690
0.786954 0.226780 0.076844
0.900389 0.305547 0.000000
0.991821 0.379767 0.000000
1.000000 0.442267 0.000000
0.000000 0.268193 0.222110
0.075776 0.281163 0.217533
0.324865 0.311376 0.183322
0.593469 0.337316 0.154696
0.779934 0.372259 0.120180
0.895842 0.411872 0.091035
0.991699 0.462837 0.007080
1.000000 0.508843 0.000000
0.000000 0.464881 0.314519
0.000000 0.471443 0.306706
0.225620 0.483680 0.249516
0.568841 0.524865 0.228855
0.772610 0.543664 0.204715
0.886534 0.548760 0.191531
0.982666 0.572198 0.180179
1.000000 0.599084 0.165164
0.000000 0.648035 0.421698
0.000000 0.649042 0.413733
0.222843 0.651270 0.395758
0.456703 0.651942 0.332769
0.737148 0.685756 0.312749
0.871397 0.681514 0.305425
0.971130 0.691585 0.304997
1.000000 0.704036 0.309087
0.000000 0.783688 0.518791
0.000000 0.783963 0.515190
0.166323 0.781216 0.505394
0.410071 0.779965 0.438178
0.644404 0.779232 0.435706
0.851286 0.802670 0.437446
0.961395 0.804837 0.442267
1.000000 0.804929 0.451118
0.000000 0.886137 0.603601
0.000000 0.883726 0.600885
0.148959 0.877897 0.599329
0.499641 0.867918 0.610254
0.603296 0.864622 0.545495
0.778256 0.872435 0.547265
0.936461 0.891600 0.549279
1.000000 0.884459 0.559808
0.000000 0.988067 0.693050
0.000000 0.986816 0.694759
0.198764 0.979644 0.701778
0.539666 0.968048 0.723110
0.654017 0.963836 0.692439
0.766537 0.957214 0.682216
0.895933 0.963684 0.690822
1.000000 0.967895 0.693111
0.000000 0.102235 0.312566
0.106722 0.108156 0.313329
0.381445 0.090059 0.334508
0.622736 0.052949 0.292851
0.795865 0.231052 0.291081
0.903410 0.352728 0.300511
0.996612 0.429725 0.288273
1.000000 0.482918 0.258640
0.000000 0.132448 0.328405
0.118441 0.163272 0.327153
0.366125 0.180545 0.338323
0.603388 0.188327 0.305577
0.786557 0.283330 0.302373
0.896910 0.374975 0.303899
0.990936 0.443549 0.290654
1.000000 0.495521 0.264195
0.000000 0.272892 0.367010
0.000000 0.288853 0.365454
0.335180 0.336522 0.357824
0.593133 0.366033 0.347417
0.781216 0.418128 0.342321
0.891661 0.463050 0.335302
0.985901 0.510216 0.323735
1.000000 0.549310 0.302525
0.000000 0.498268 0.450263
0.000000 0.506798 0.447364
0.303746 0.516136 0.430243
0.578668 0.545678 0.405890
0.770809 0.569757 0.397162
0.881987 0.581781 0.390356
0.978210 0.608331 0.383062
1.000000 0.632258 0.370062
0.000000 0.666621 0.523461
0.000000 0.669551 0.521538
0.268894 0.672206 0.513298
0.498085 0.671351 0.468879
0.740444 0.699611 0.463935
0.865049 0.697902 0.457618
0.963684 0.710994 0.454231
1.000000 0.724117 0.452430
0.000000 0.792935 0.593988
0.000000 0.792996 0.593103
0.232334 0.788602 0.586786
0.505089 0.779812 0.572045
0.651423 0.778073 0.530266
0.841794 0.801999 0.537469
0.951080 0.810025 0.542535
1.000000 0.816587 0.551873
0.000000 0.893065 0.661402
0.000000 0.890898 0.659968
0.206485 0.883116 0.656123
0.510399 0.871397 0.659022
0.626123 0.865904 0.612604
0.780636 0.872282 0.614710
0.933074 0.895445 0.625971
1.000000 0.893095 0.639033
0.000000 0.990631 0.729824
0.000000 0.988281 0.728389
0.157046 0.980377 0.731807
0.533288 0.970092 0.750088
0.690120 0.960632 0.747982
0.774197 0.957824 0.719753
0.895781 0.964050 0.728176
1.000000 0.969329 0.733181
0.000000 0.123323 0.519219
0.000000 0.135805 0.522515
0.332250 0.153262 0.522728
0.645838 0.218997 0.560388
0.808530 0.322148 0.525872
0.885039 0.411566 0.496437
0.975586 0.494209 0.498665
1.000000 0.547875 0.486793
0.000000 0.161349 0.535882
0.094759 0.195102 0.535180
0.346441 0.219974 0.531945
0.638819 0.286839 0.564019
0.800229 0.362463 0.530083
0.880705 0.435920 0.502739
0.972045 0.508415 0.502403
1.000000 0.556603 0.487434
0.000000 0.273289 0.556359
0.000000 0.289097 0.555657
0.362737 0.365179 0.549340
0.614282 0.427802 0.571435
0.774716 0.461433 0.541192
0.876768 0.523583 0.538689
0.973816 0.577691 0.539757
1.000000 0.606653 0.516564
0.000000 0.469490 0.590509
0.000000 0.481086 0.589197
0.320348 0.517113 0.586694
0.577630 0.565057 0.581689
0.752865 0.590906 0.575402
0.863401 0.616510 0.570245
0.961883 0.646876 0.563928
1.000000 0.671839 0.551659
0.000000 0.684901 0.658320
0.000000 0.692927 0.660853
0.280735 0.696925 0.651820
0.561273 0.697719 0.637812
0.737270 0.713222 0.620600
0.853635 0.720943 0.616480
0.952605 0.737850 0.611475
1.000000 0.751156 0.603388
0.000000 0.812039 0.705013
0.000000 0.814664 0.706477
0.278660 0.806882 0.696651
0.544823 0.796414 0.686580
0.679316 0.788388 0.657038
0.836484 0.810361 0.664546
0.941405 0.823667 0.665431
1.000000 0.832364 0.666835
0.000000 0.901335 0.742031
0.000000 0.900389 0.741451
0.247654 0.894743 0.738430
0.525017 0.884733 0.735470
0.686976 0.874937 0.726589
0.788907 0.876646 0.705287
0.927245 0.899443 0.714839
1.000000 0.900389 0.721523
0.000000 0.996979 0.794308
0.000000 0.995544 0.793668
0.111543 0.988678 0.790036
0.502800 0.976257 0.791287
0.709499 0.962066 0.803372
0.781430 0.960143 0.767971
0.893523 0.964324 0.773129
0.997681 0.970733 0.780636
0.000000 0.168734 0.693477
0.122225 0.188540 0.694392
0.360204 0.215763 0.692836
0.567529 0.273289 0.692897
0.807431 0.437812 0.733791
0.901854 0.537652 0.709010
0.964660 0.581018 0.681086
1.000000 0.647303 0.690333
0.000000 0.206546 0.700343
0.166659 0.241550 0.701289
0.379858 0.275608 0.698634
0.571771 0.323919 0.696590
0.801968 0.468696 0.734401
0.897185 0.556573 0.711757
0.961517 0.593133 0.683986
1.000000 0.654170 0.691737
0.000000 0.284459 0.714595
0.000000 0.302068 0.714229
0.407782 0.406683 0.708492
0.580255 0.447547 0.704829
0.783871 0.548547 0.734920
0.878141 0.601984 0.713039
0.947326 0.629572 0.691432
1.000000 0.672358 0.691157
0.000000 0.458473 0.731685
0.000000 0.470802 0.730404
0.352514 0.509270 0.727443
0.593469 0.583948 0.720882
0.760433 0.644587 0.739437
0.853056 0.662623 0.717311
0.942779 0.686854 0.707820
1.000000 0.707668 0.693385
0.000000 0.632258 0.751980
0.000000 0.638849 0.751278
0.339117 0.657649 0.747311
0.567163 0.686275 0.741970
0.725368 0.717891 0.734890
0.835386 0.732448 0.729366
0.936400 0.751644 0.723354
1.000000 0.767849 0.714321
0.000000 0.776944 0.774441
0.000000 0.781308 0.775692
0.296788 0.793332 0.778653
0.536339 0.800137 0.774838
0.703517 0.793576 0.759121
0.824033 0.810361 0.754818
0.930571 0.830808 0.755947
1.000000 0.840635 0.753140
0.000000 0.906706 0.828153
0.000000 0.904875 0.825986
0.263706 0.899748 0.820157
0.519585 0.891112 0.810513
0.689723 0.881834 0.799496
0.786099 0.875883 0.772335
0.918517 0.899290 0.780514
0.997467 0.902495 0.782345
0.000000 0.997314 0.860716
0.000000 0.995331 0.859007
0.101076 0.988678 0.853513
0.473121 0.981537 0.848783
0.670802 0.968780 0.841154
0.793576 0.960967 0.826902
0.885863 0.962127 0.816861
0.990967 0.969970 0.826535
0.181552 0.248295 0.819364
0.280156 0.276371 0.818479
0.424537 0.308965 0.816831
0.583581 0.368078 0.815335
0.742611 0.455726 0.818479
0.898894 0.616999 0.843656
0.974395 0.702358 0.842069
1.000000 0.731075 0.823697
0.180331 0.275273 0.817563
0.286412 0.308080 0.816098
0.436347 0.351446 0.814511
0.584131 0.399756 0.812009
0.736721 0.475929 0.814450
0.893919 0.628809 0.841855
0.971557 0.707698 0.841398
1.000000 0.733883 0.823026
0.121187 0.340307 0.827665
0.251743 0.368383 0.825803
0.469368 0.461769 0.819944
0.603754 0.504173 0.816342
0.730129 0.550256 0.813291
0.885618 0.676204 0.844816
0.965667 0.731075 0.843748
1.000000 0.748440 0.824338
0.000000 0.463386 0.835538
0.193790 0.475563 0.833738
0.411994 0.518029 0.830198
0.629603 0.621271 0.825071
0.738277 0.654871 0.821958
0.877592 0.736172 0.852049
0.957641 0.765377 0.847044
1.000000 0.769741 0.824155
0.000000 0.607080 0.840177
0.169284 0.614740 0.839414
0.399329 0.639490 0.836576
0.586023 0.678004 0.832334
0.737362 0.732570 0.825254
0.854582 0.777005 0.845579
0.937194 0.783566 0.831083
1.000000 0.796048 0.819028
0.000000 0.737301 0.848997
0.150912 0.742397 0.849424
0.388586 0.754543 0.847044
0.573480 0.773526 0.843137
0.713832 0.795193 0.838102
0.822385 0.820127 0.835386
0.924987 0.835599 0.832975
1.000000 0.847440 0.828092
0.000000 0.863828 0.874998
0.084901 0.865965 0.875303
0.364111 0.872007 0.875090
0.548516 0.886625 0.879301
0.693141 0.898222 0.878935
0.807065 0.894316 0.860716
0.914763 0.905180 0.852506
0.992370 0.911192 0.853117
0.000000 0.999542 0.931151
0.000000 0.997772 0.929351
0.192966 0.992248 0.923583
0.477485 0.985199 0.915404
0.657282 0.975769 0.902953
0.788022 0.966735 0.886839
0.880644 0.960906 0.869078
0.984375 0.970733 0.880827
0.358434 0.350652 0.906157
0.418524 0.385718 0.906035
0.506004 0.414954 0.904356
0.620233 0.462379 0.902098
0.733730 0.520012 0.897856
0.862333 0.615595 0.905913
0.966430 0.736233 0.916960
1.000000 0.813352 0.915709
0.348211 0.362890 0.903197
0.408148 0.395422 0.902892
0.511284 0.441108 0.900633
0.619287 0.481147 0.897795
0.729732 0.532219 0.893492
0.855222 0.619043 0.900633
0.961944 0.735470 0.913603
1.000000 0.809781 0.912688
0.319677 0.406470 0.909972
0.381323 0.433265 0.908507
0.531609 0.516777 0.902922
0.638178 0.558862 0.899260
0.736812 0.594903 0.894591
0.849882 0.660365 0.899687
0.959899 0.762631 0.917418
1.000000 0.829007 0.917967
0.232151 0.469856 0.917998
0.297612 0.481086 0.916258
0.467597 0.539086 0.911101
0.656580 0.646845 0.903471
0.749630 0.678553 0.899229
0.842191 0.713863 0.900328
0.956664 0.802396 0.923461
1.000000 0.851408 0.922698
0.197757 0.594781 0.918669
0.270451 0.601404 0.917052
0.426703 0.625513 0.913329
0.585870 0.664851 0.909117
0.745937 0.741390 0.901366
0.828336 0.760067 0.898253
0.946441 0.834989 0.923857
0.997467 0.869657 0.922820
0.161440 0.717067 0.923369
0.248386 0.721553 0.922728
0.414008 0.736629 0.920592
0.575647 0.761074 0.917754
0.708827 0.788235 0.914031
0.828367 0.827359 0.910033
0.937530 0.879362 0.928862
0.991058 0.887205 0.918456
0.141268 0.829526 0.932677
0.238560 0.832425 0.932738
0.406195 0.840208 0.931212
0.567254 0.853361 0.929107
0.699336 0.868528 0.925444
0.807095 0.886290 0.921843
0.909148 0.909178 0.918578
0.984924 0.918822 0.915953
0.000000 0.935271 0.952422
0.000000 0.936187 0.952087
0.328527 0.941680 0.953033
0.520958 0.948180 0.951629
0.668391 0.961913 0.953185
0.786770 0.974853 0.952148
0.897429 0.967529 0.936919
0.978210 0.972045 0.933562
0.503593 0.475776 0.975158
0.541070 0.503807 0.974182
0.599298 0.530022 0.971832
0.678218 0.565637 0.969787
0.764675 0.610407 0.966705
0.847745 0.659205 0.963104
0.948699 0.741512 0.969512
1.000000 0.837400 0.961608
0.492500 0.477577 0.974243
0.530449 0.504631 0.973297
0.603632 0.547173 0.970428
0.679164 0.578546 0.968109
0.763973 0.619989 0.965240
0.846067 0.665614 0.961730
0.945983 0.743221 0.968048
1.000000 0.838743 0.961273
0.450324 0.483528 0.975708
0.491737 0.508537 0.974517
0.602197 0.582422 0.969207
0.691279 0.629450 0.967468
0.768856 0.660853 0.964508
0.845365 0.694392 0.960906
0.941131 0.758999 0.966857
0.999115 0.852079 0.962982
0.312657 0.472236 0.980926
0.378454 0.498238 0.979889
0.530816 0.574884 0.974762
0.693751 0.682155 0.967681
0.773983 0.714870 0.964843
0.845426 0.737392 0.962371
0.934203 0.786252 0.966613
0.996887 0.875212 0.966705
0.235904 0.567559 0.982086
0.296117 0.576349 0.981781
0.428656 0.600946 0.979187
0.581109 0.646876 0.975097
0.762905 0.757382 0.965850
0.839200 0.779965 0.963195
0.921294 0.814145 0.964843
0.994171 0.902739 0.971435
0.172946 0.683558 0.983062
0.243961 0.687648 0.982147
0.391638 0.702083 0.979553
0.546136 0.727230 0.976104
0.686030 0.760525 0.972351
0.833280 0.832029 0.967193
0.913848 0.860349 0.967407
0.990967 0.930724 0.976257
0.004425 0.792325 0.986053
0.183261 0.794797 0.985412
0.360235 0.803525 0.983429
0.529778 0.820279 0.980896
0.675807 0.842649 0.977905
0.793179 0.866850 0.975525
0.914031 0.914519 0.972076
0.986084 0.954620 0.979339
0.000000 0.888182 0.990417
0.009277 0.889525 0.989960
0.329107 0.895079 0.988952
0.522881 0.906218 0.987793
0.673610 0.920287 0.985687
0.791043 0.936339 0.982879
0.898253 0.956451 0.979461
0.973053 0.973236 0.976257
