data/fiter_cube/39179523/1023434/file.cube
# Created by Adobe Lightroom plugin Export LUT (1.17.0)
# www.johnrellis.com/lightroom/exportlut.htm
# Preset: 日系大师人物肖像_08 云集
# Color profile: C:\Program Files (x86)\Common Files\Adobe\Color\Profiles\Recommended\AdobeRGB1998.icc
LUT_3D_SIZE 32
DOMAIN_MIN 0.0 0.0 0.0
DOMAIN_MAX 1.0 1.0 1.0
0.069612 0.084504 0.090791
0.070100 0.084443 0.090791
0.081147 0.083162 0.090639
0.106722 0.081575 0.090059
0.139986 0.082673 0.088716
0.183993 0.081697 0.086366
0.237705 0.076112 0.082582
0.300023 0.063386 0.076448
0.368170 0.015076 0.066743
0.437873 0.000000 0.045899
0.506676 0.000000 0.001129
0.570642 0.000000 0.000000
0.628504 0.000000 0.000000
0.680598 0.000000 0.000000
0.727016 0.059785 0.000000
0.768521 0.111421 0.000000
0.805447 0.149355 0.000000
0.843442 0.187045 0.000000
0.874205 0.218357 0.000000
0.900755 0.245853 0.000000
0.926207 0.272190 0.000000
0.950561 0.297185 0.000000
0.973388 0.320745 0.000000
0.994751 0.342565 0.000000
1.000000 0.362310 0.000000
1.000000 0.380621 0.000000
1.000000 0.397528 0.000000
1.000000 0.412909 0.000000
1.000000 0.426551 0.000000
1.000000 0.438605 0.000000
1.000000 0.448737 0.000000
1.000000 0.456703 0.000000
0.069612 0.084504 0.090791
0.070039 0.084810 0.090761
0.081209 0.085420 0.090486
0.106081 0.087526 0.089631
0.139071 0.089296 0.088228
0.182437 0.089052 0.085878
0.235660 0.085206 0.082033
0.296971 0.076417 0.075898
0.364508 0.054658 0.066224
0.433997 0.000000 0.044587
0.502434 0.000000 0.001099
0.566339 0.000000 0.000000
0.624201 0.000000 0.000000
0.676356 0.000000 0.000000
0.722927 0.076997 0.000000
0.764614 0.120027 0.000000
0.801785 0.154879 0.000000
0.839658 0.190158 0.000000
0.870237 0.220127 0.000000
0.896544 0.246433 0.000000
0.921813 0.271733 0.000000
0.946197 0.296239 0.000000
0.969146 0.319463 0.000000
0.990784 0.341039 0.000000
1.000000 0.360998 0.000000
1.000000 0.379492 0.000000
1.000000 0.396612 0.000000
1.000000 0.412360 0.000000
1.000000 0.426337 0.000000
1.000000 0.438575 0.000000
1.000000 0.448859 0.000000
1.000000 0.457008 0.000000
0.069001 0.089265 0.091249
0.068513 0.091371 0.091341
0.079957 0.093477 0.089845
0.105074 0.096223 0.088960
0.137942 0.097597 0.087526
0.180819 0.098482 0.085115
0.233341 0.096498 0.081209
0.293950 0.090486 0.074983
0.361181 0.077516 0.065156
0.430396 0.054719 0.043885
0.498909 0.000000 0.004944
0.562982 0.000000 0.000000
0.621118 0.000000 0.000000
0.673457 0.056855 0.000000
0.720150 0.098695 0.000000
0.762112 0.132570 0.000000
0.799435 0.164157 0.000000
0.837339 0.197360 0.000000
0.867857 0.225254 0.000000
0.894072 0.250431 0.000000
0.919341 0.274815 0.000000
0.943786 0.298802 0.000000
0.966827 0.321599 0.000000
0.988617 0.342748 0.000000
1.000000 0.362554 0.000000
1.000000 0.380896 0.000000
1.000000 0.397986 0.000000
1.000000 0.413672 0.000000
1.000000 0.427710 0.000000
1.000000 0.439979 0.000000
1.000000 0.450233 0.000000
1.000000 0.458442 0.000000
0.063905 0.107393 0.095064
0.065064 0.108980 0.094881
0.073945 0.109865 0.091737
0.102083 0.112917 0.089601
0.136172 0.114900 0.087831
0.178866 0.116915 0.085023
0.230808 0.117037 0.080995
0.291417 0.114687 0.075196
0.358068 0.108034 0.066377
0.427100 0.097566 0.050233
0.495247 0.085878 0.013153
0.559380 0.080659 0.000000
0.617273 0.089448 0.000000
0.669764 0.108309 0.000000
0.716701 0.131930 0.000000
0.758816 0.157565 0.000000
0.796872 0.183749 0.000000
0.834531 0.212985 0.000000
0.864469 0.237675 0.000000
0.890257 0.260349 0.000000
0.915129 0.282872 0.000000
0.939452 0.305211 0.000000
0.962890 0.327062 0.000000
0.985351 0.348028 0.000000
1.000000 0.367895 0.000000
1.000000 0.386511 0.000000
1.000000 0.403540 0.000000
1.000000 0.419287 0.000000
1.000000 0.433051 0.000000
1.000000 0.444923 0.000000
1.000000 0.454780 0.000000
1.000000 0.462593 0.000000
0.052277 0.125978 0.103883
0.058564 0.127138 0.103731
0.070558 0.128267 0.102693
0.088777 0.130526 0.099214
0.127687 0.136263 0.095094
0.173922 0.141604 0.091157
0.225711 0.144381 0.086336
0.285527 0.144900 0.080598
0.351751 0.142519 0.072389
0.420447 0.138918 0.061097
0.488716 0.134615 0.030793
0.552911 0.134432 0.000000
0.611475 0.140536 0.000000
0.664363 0.152956 0.000000
0.712093 0.169924 0.000000
0.755001 0.189792 0.000000
0.795224 0.212345 0.000000
0.832364 0.237095 0.000000
0.862303 0.258671 0.000000
0.887999 0.278355 0.000000
0.912596 0.298405 0.000000
0.936797 0.318822 0.000000
0.960235 0.338994 0.000000
0.982879 0.358770 0.000000
1.000000 0.377691 0.000000
1.000000 0.395666 0.000000
1.000000 0.412390 0.000000
1.000000 0.427283 0.000000
1.000000 0.440650 0.000000
1.000000 0.452155 0.000000
1.000000 0.461616 0.000000
1.000000 0.469184 0.000000
0.021454 0.149172 0.114870
0.036103 0.150454 0.114656
0.062745 0.151369 0.115206
0.078492 0.153872 0.107179
0.111086 0.158206 0.105867
0.161776 0.166964 0.100893
0.221195 0.176150 0.094697
0.281163 0.179507 0.088563
0.347265 0.181094 0.080201
0.416175 0.180667 0.069612
0.484474 0.180179 0.049134
0.548913 0.181582 0.004852
0.607568 0.187015 0.000000
0.660883 0.196841 0.000000
0.708919 0.210117 0.000000
0.752255 0.226261 0.000000
0.794278 0.246586 0.000000
0.830808 0.267277 0.000000
0.860777 0.285527 0.000000
0.886656 0.302739 0.000000
0.911498 0.320500 0.000000
0.936034 0.338964 0.000000
0.983459 0.383124 0.000000
1.000000 0.400214 0.000000
1.000000 0.415930 0.000000
1.000000 0.430152 0.000000
1.000000 0.443000 0.000000
1.000000 0.454566 0.000000
1.000000 0.464759 0.000000
1.000000 0.473518 0.000000
1.000000 0.480568 0.000000
1.000000 0.485817 0.000000
0.000000 0.182345 0.130617
0.000000 0.183352 0.130373
0.029816 0.184665 0.129915
0.070527 0.187533 0.124697
0.096284 0.191073 0.113924
0.144564 0.198734 0.110689
0.211795 0.210758 0.103304
0.285832 0.222690 0.094179
0.354192 0.225834 0.085206
0.424537 0.228580 0.073213
0.493538 0.230686 0.054170
0.558007 0.234012 0.007019
0.615991 0.239933 0.000000
0.668299 0.248203 0.000000
0.715145 0.258946 0.000000
0.757107 0.271580 0.000000
0.801083 0.290929 0.000000
0.836545 0.307683 0.000000
0.865965 0.322972 0.000000
0.892332 0.338048 0.000000
0.918791 0.355169 0.000000
0.945403 0.373632 0.000000
0.971221 0.392889 0.000000
0.995575 0.411536 0.000000
1.000000 0.428595 0.000000
1.000000 0.443305 0.000000
1.000000 0.456123 0.000000
1.000000 0.467292 0.000000
1.000000 0.476905 0.000000
1.000000 0.485115 0.000000
1.000000 0.491737 0.000000
1.000000 0.496651 0.000000
0.000000 0.217777 0.148684
0.000000 0.218723 0.148043
0.000000 0.219974 0.146548
0.034363 0.222934 0.141482
0.071260 0.227420 0.121035
0.122377 0.230564 0.120424
0.184329 0.241855 0.114656
0.263767 0.255924 0.105196
0.346746 0.269017 0.093172
0.417456 0.272465 0.081178
0.486824 0.276402 0.065675
0.551598 0.281468 0.027283
0.610040 0.286564 0.000000
0.662715 0.293462 0.000000
0.709926 0.302068 0.000000
0.755581 0.314824 0.000000
0.797757 0.329717 0.000000
0.832486 0.342840 0.000000
0.861753 0.354894 0.000000
0.887999 0.367010 0.000000
0.914305 0.381353 0.000000
0.940734 0.397345 0.000000
0.966522 0.414282 0.000000
0.990997 0.430976 0.000000
1.000000 0.446601 0.000000
1.000000 0.460334 0.000000
1.000000 0.472175 0.000000
1.000000 0.482521 0.000000
1.000000 0.491585 0.000000
1.000000 0.499214 0.000000
1.000000 0.505364 0.000000
1.000000 0.509911 0.000000
0.000000 0.259648 0.170108
0.000000 0.260716 0.168734
0.000000 0.261967 0.166506
0.000000 0.264836 0.161196
0.058076 0.269139 0.150088
0.096468 0.273259 0.129152
0.159030 0.279057 0.127230
0.232578 0.291661 0.119539
0.323461 0.306859 0.107118
0.411292 0.321080 0.091707
0.481331 0.324865 0.077272
0.546532 0.329259 0.055695
0.605310 0.335119 0.002441
0.658289 0.341405 0.000000
0.706874 0.349035 0.000000
0.754238 0.360601 0.000000
0.795132 0.371679 0.000000
0.829374 0.381537 0.000000
0.858457 0.390448 0.000000
0.884703 0.399817 0.000000
0.910857 0.411322 0.000000
0.937224 0.424903 0.000000
0.962951 0.439612 0.000000
0.987366 0.454505 0.000000
1.000000 0.468482 0.000000
1.000000 0.480751 0.000000
1.000000 0.491554 0.000000
1.000000 0.500877 0.000000
1.000000 0.509056 0.000000
1.000000 0.515923 0.000000
1.000000 0.521477 0.000000
1.000000 0.525475 0.000000
0.000000 0.306737 0.192782
0.000000 0.307469 0.191196
0.000000 0.308568 0.188479
0.000000 0.311254 0.182925
0.000000 0.314977 0.174441
0.059815 0.319615 0.146456
0.132235 0.322606 0.139559
0.204532 0.331518 0.135256
0.287999 0.344396 0.125856
0.385626 0.360113 0.110353
0.473854 0.374334 0.092592
0.539544 0.377844 0.076448
0.599115 0.382544 0.052491
0.652857 0.388220 0.000000
0.706142 0.398901 0.000000
0.752712 0.407843 0.000000
0.793484 0.416205 0.000000
0.827756 0.423163 0.000000
0.856809 0.429511 0.000000
0.882780 0.436011 0.000000
0.908476 0.444770 0.000000
0.933959 0.455268 0.000000
0.958892 0.467018 0.000000
0.982727 0.479133 0.000000
1.000000 0.491096 0.000000
1.000000 0.502037 0.000000
1.000000 0.511894 0.000000
1.000000 0.520684 0.000000
1.000000 0.528344 0.000000
1.000000 0.534783 0.000000
1.000000 0.539971 0.000000
1.000000 0.543603 0.000000
0.000000 0.354742 0.216098
0.000000 0.355596 0.214389
0.000000 0.356695 0.211978
0.000000 0.359106 0.206729
0.000000 0.362615 0.198642
0.016754 0.367041 0.185183
0.093996 0.371496 0.152346
0.175265 0.373999 0.152255
0.258122 0.385962 0.145083
0.348821 0.398749 0.134310
0.448493 0.414557 0.116945
0.533257 0.428351 0.097871
0.593500 0.431495 0.082856
0.651911 0.438941 0.063447
0.703609 0.446082 0.016724
0.749264 0.453254 0.000000
0.789548 0.459602 0.000000
0.823606 0.463966 0.000000
0.852689 0.467597 0.000000
0.878752 0.471717 0.000000
0.904448 0.478126 0.000000
0.930053 0.486641 0.000000
0.955169 0.496559 0.000000
0.979156 0.507042 0.000000
1.000000 0.517388 0.000000
1.000000 0.526879 0.000000
1.000000 0.535332 0.000000
1.000000 0.542901 0.000000
1.000000 0.549584 0.000000
1.000000 0.555169 0.000000
1.000000 0.559686 0.000000
1.000000 0.562951 0.000000
0.000000 0.405341 0.241123
0.000000 0.406165 0.239658
0.000000 0.407080 0.237308
0.000000 0.409186 0.232486
0.000000 0.412451 0.225162
0.000000 0.416266 0.215946
0.053773 0.420996 0.183810
0.145663 0.423987 0.168063
0.228183 0.427893 0.166567
0.318120 0.440803 0.157778
0.411810 0.452979 0.146273
0.510185 0.468879 0.128573
0.617700 0.507408 0.118837
0.676539 0.513420 0.108888
0.727687 0.518273 0.098024
0.772030 0.522301 0.086152
0.809201 0.524804 0.074861
0.840055 0.525902 0.065431
0.866331 0.525505 0.059876
0.891447 0.526879 0.052064
0.916289 0.530449 0.037201
0.940612 0.535973 0.023499
0.964111 0.542443 0.002869
0.986572 0.549645 0.000000
1.000000 0.556878 0.000000
1.000000 0.563592 0.000000
1.000000 0.569482 0.000000
1.000000 0.574640 0.000000
1.000000 0.579156 0.000000
1.000000 0.582910 0.000000
1.000000 0.585870 0.000000
1.000000 0.587793 0.000000
0.000000 0.465217 0.272435
0.000000 0.465888 0.270970
0.000000 0.466133 0.268406
0.000000 0.467231 0.263645
0.000000 0.468910 0.256199
0.000000 0.471168 0.247501
0.037964 0.474037 0.233158
0.101137 0.477943 0.188113
0.203983 0.479133 0.188235
0.291478 0.485939 0.184878
0.386206 0.499123 0.176486
0.487221 0.517357 0.168032
0.587488 0.539452 0.155093
0.666346 0.556756 0.143465
0.718990 0.560693 0.136629
0.764218 0.563287 0.129793
0.802029 0.563867 0.123079
0.833219 0.562890 0.117617
0.859861 0.561639 0.114412
0.884947 0.561700 0.111574
0.909880 0.563470 0.109010
0.934386 0.567010 0.106264
0.957977 0.571893 0.103120
0.980621 0.577539 0.099123
1.000000 0.583337 0.094331
1.000000 0.588891 0.088258
1.000000 0.593805 0.082185
1.000000 0.598169 0.075135
1.000000 0.601923 0.065827
1.000000 0.605219 0.054597
1.000000 0.607691 0.024414
1.000000 0.609369 0.000000
0.000000 0.512230 0.298802
0.000000 0.512688 0.297246
0.000000 0.512902 0.295293
0.000000 0.513756 0.290929
0.000000 0.514946 0.284306
0.000000 0.516747 0.276616
0.000000 0.518944 0.268315
0.092775 0.522148 0.233921
0.172152 0.524498 0.209018
0.263828 0.526452 0.209842
0.358709 0.539696 0.207126
0.456397 0.555474 0.201297
0.549645 0.570581 0.194095
0.640681 0.589288 0.182376
0.710201 0.602289 0.173495
0.756008 0.603174 0.167422
0.794095 0.601892 0.162203
0.825834 0.599298 0.158297
0.853086 0.596338 0.155703
0.878386 0.594934 0.153536
0.903502 0.596216 0.151949
0.928222 0.598810 0.150423
0.952148 0.602228 0.148684
0.975128 0.606653 0.146639
0.996735 0.611292 0.144350
1.000000 0.615778 0.141726
1.000000 0.619715 0.138857
1.000000 0.623285 0.135592
1.000000 0.626368 0.133028
1.000000 0.629053 0.130617
1.000000 0.631128 0.127962
1.000000 0.632502 0.124605
0.000000 0.557397 0.326024
0.000000 0.557794 0.324926
0.000000 0.557977 0.323003
0.000000 0.558587 0.319036
0.000000 0.559411 0.313329
0.000000 0.560632 0.306188
0.000000 0.562188 0.298833
0.108675 0.564508 0.285618
0.136812 0.570855 0.235508
0.243626 0.573663 0.235721
0.330907 0.576715 0.237308
0.426825 0.590417 0.233616
0.518212 0.603754 0.228763
0.603235 0.616571 0.222171
0.685817 0.632563 0.212070
0.747341 0.641810 0.204105
0.786648 0.639673 0.199496
0.818753 0.635370 0.195560
0.846403 0.631006 0.193118
0.871946 0.628016 0.191440
0.897215 0.627619 0.189883
0.922026 0.629328 0.188540
0.946075 0.632441 0.186923
0.969329 0.635615 0.186191
0.991333 0.639277 0.184909
1.000000 0.643091 0.183871
1.000000 0.646571 0.183169
1.000000 0.649836 0.183291
1.000000 0.652735 0.183902
1.000000 0.655177 0.185183
1.000000 0.657069 0.186923
1.000000 0.658350 0.188479
0.000000 0.600092 0.353826
0.000000 0.600580 0.352941
0.000000 0.600885 0.351354
0.000000 0.601526 0.348058
0.000000 0.603143 0.343725
0.000000 0.605982 0.338903
0.000000 0.609094 0.333959
0.095033 0.612238 0.329503
0.163699 0.616541 0.296849
0.222171 0.620264 0.265293
0.315282 0.620813 0.266331
0.400458 0.624628 0.266117
0.489143 0.635279 0.262272
0.571588 0.645472 0.257053
0.647913 0.655177 0.250248
0.722469 0.668330 0.240421
0.776944 0.674403 0.233829
0.810971 0.670161 0.230747
0.839628 0.664881 0.228794
0.865904 0.661067 0.227939
0.891783 0.659876 0.227054
0.917174 0.660731 0.226688
0.941711 0.662989 0.226169
0.965270 0.666255 0.225589
0.987579 0.669551 0.225528
1.000000 0.672511 0.225864
1.000000 0.675196 0.226139
1.000000 0.677729 0.227573
1.000000 0.679774 0.229496
1.000000 0.681361 0.231785
1.000000 0.682460 0.234684
1.000000 0.683101 0.237797
0.000000 0.643793 0.384436
0.000000 0.644221 0.383459
0.000000 0.644587 0.382361
0.000000 0.645502 0.379858
0.000000 0.646845 0.376135
0.000000 0.648493 0.371801
0.000000 0.650324 0.367193
0.000000 0.652033 0.362768
0.190890 0.653986 0.351415
0.210361 0.658167 0.302281
0.295506 0.658656 0.293523
0.378149 0.657801 0.294285
0.460578 0.663386 0.292851
0.541741 0.672511 0.289403
0.617060 0.681056 0.284459
0.686397 0.688960 0.278233
0.754269 0.700008 0.269841
0.802182 0.702846 0.264561
0.832334 0.697475 0.262547
0.858854 0.692348 0.261601
0.884977 0.689937 0.261112
0.910613 0.689601 0.260563
0.935424 0.690913 0.260502
0.959350 0.693385 0.260685
0.982116 0.696376 0.260777
1.000000 0.699611 0.261784
1.000000 0.701839 0.263523
1.000000 0.703761 0.265843
1.000000 0.705409 0.269139
1.000000 0.706630 0.273136
1.000000 0.707424 0.277531
1.000000 0.707881 0.283055
0.000000 0.685206 0.415167
0.000000 0.685878 0.414679
0.000000 0.702541 0.426795
0.000000 0.703090 0.424537
0.000000 0.703761 0.421393
0.000000 0.704372 0.417578
0.000000 0.704860 0.413550
0.000000 0.705074 0.409339
0.211612 0.705074 0.405982
0.255802 0.707027 0.373541
0.292515 0.708980 0.334600
0.377386 0.706722 0.334661
0.449500 0.703731 0.334386
0.527489 0.710231 0.331670
0.600336 0.716884 0.327916
0.667536 0.722835 0.323217
0.729732 0.728237 0.317754
0.790097 0.736385 0.310582
0.830991 0.735561 0.306279
0.857969 0.729641 0.304845
0.883757 0.725704 0.303380
0.909178 0.724056 0.302739
0.933898 0.723964 0.302159
0.957427 0.724971 0.302098
0.979492 0.726223 0.301854
1.000000 0.727687 0.301793
1.000000 0.729061 0.302281
1.000000 0.730129 0.304021
1.000000 0.730800 0.307134
1.000000 0.731411 0.311986
1.000000 0.731807 0.317693
1.000000 0.731899 0.324529
0.000000 0.727077 0.448005
0.000000 0.729427 0.449195
0.000000 0.731838 0.450172
0.000000 0.734157 0.450050
0.000000 0.735988 0.448524
0.000000 0.736843 0.445899
0.000000 0.737057 0.442359
0.000000 0.736751 0.438727
0.194583 0.736172 0.435676
0.282811 0.735836 0.424842
0.296910 0.738277 0.378119
0.359533 0.737209 0.361181
0.433204 0.733944 0.360510
0.500053 0.732296 0.359014
0.571740 0.737758 0.356268
0.637812 0.742641 0.352728
0.699153 0.747127 0.348455
0.755856 0.751308 0.343847
0.811551 0.758358 0.338262
0.849454 0.757290 0.335271
0.876158 0.753079 0.334478
0.902068 0.750942 0.334295
0.927245 0.750362 0.334447
0.951324 0.750851 0.334905
0.973907 0.751736 0.335424
0.995026 0.752804 0.336034
1.000000 0.753750 0.337469
1.000000 0.754665 0.340124
1.000000 0.755612 0.344182
1.000000 0.755886 0.349889
1.000000 0.755886 0.356756
1.000000 0.755734 0.365057
0.000000 0.759396 0.474189
0.000000 0.761501 0.475380
0.000000 0.763577 0.476448
0.000000 0.765408 0.476326
0.000000 0.766751 0.475166
0.000000 0.767117 0.472816
0.000000 0.766812 0.469886
0.000000 0.766049 0.466712
0.178378 0.764950 0.463966
0.289952 0.763363 0.461952
0.324102 0.764248 0.431617
0.344335 0.765713 0.388708
0.418952 0.762173 0.387671
0.483223 0.758358 0.386511
0.546838 0.758480 0.384558
0.611780 0.762509 0.382086
0.672084 0.766201 0.378790
0.728084 0.769650 0.375463
0.780301 0.773098 0.372015
0.832181 0.779904 0.367712
0.869078 0.780087 0.365698
0.895384 0.777371 0.365850
0.920958 0.776394 0.366430
0.945403 0.776394 0.367376
0.968383 0.776730 0.368383
0.989776 0.777218 0.369543
1.000000 0.777615 0.371252
1.000000 0.778012 0.374334
1.000000 0.778439 0.379065
1.000000 0.778836 0.385290
1.000000 0.778958 0.393164
1.000000 0.778500 0.402716
0.000000 0.788479 0.498604
0.000000 0.790249 0.499825
0.000000 0.792020 0.500694
0.000000 0.793484 0.500908
0.000000 0.794400 0.499947
0.000000 0.794430 0.498085
0.000000 0.793759 0.495613
0.000000 0.792599 0.492988
0.165011 0.790951 0.490669
0.281651 0.788907 0.489143
0.352087 0.787411 0.479683
0.362799 0.788876 0.437842
0.406317 0.787625 0.414954
0.470466 0.783780 0.413611
0.527306 0.779751 0.412116
0.588739 0.781765 0.410864
0.648768 0.785336 0.409644
0.704585 0.788937 0.408423
0.757259 0.793027 0.407385
0.807065 0.797848 0.406470
0.857023 0.806058 0.404822
0.893675 0.808225 0.404974
0.919310 0.806638 0.406653
0.944335 0.806607 0.409003
0.967681 0.806851 0.411353
0.989075 0.806943 0.414069
1.000000 0.806729 0.417273
1.000000 0.806485 0.421546
1.000000 0.806149 0.427283
1.000000 0.805783 0.434516
1.000000 0.805417 0.443641
1.000000 0.804990 0.454078
0.000000 0.821012 0.527642
0.000000 0.821714 0.528038
0.000000 0.822202 0.528099
0.000000 0.822477 0.527550
0.000000 0.822416 0.526360
0.000000 0.821805 0.524651
0.000000 0.820798 0.522698
0.000000 0.819394 0.520897
0.165255 0.817594 0.519615
0.283696 0.815427 0.519219
0.371252 0.812863 0.520134
0.397711 0.813138 0.493141
0.407080 0.814389 0.450782
0.467201 0.810788 0.447730
0.522393 0.806790 0.446021
0.573480 0.803281 0.444251
0.631525 0.806363 0.443702
0.686366 0.809781 0.442908
0.738064 0.813687 0.442359
0.787137 0.818021 0.441596
0.833585 0.822721 0.440864
0.880461 0.830594 0.439307
0.914977 0.832486 0.439002
0.938476 0.830259 0.439948
0.961913 0.829862 0.442206
0.983581 0.829557 0.445167
1.000000 0.829068 0.448951
1.000000 0.828458 0.453803
1.000000 0.827756 0.460212
1.000000 0.826993 0.468147
1.000000 0.826291 0.477852
1.000000 0.825528 0.488960
0.000000 0.844114 0.548699
0.000000 0.844755 0.549187
0.000000 0.845304 0.549462
0.000000 0.845487 0.549126
0.000000 0.845243 0.548302
0.000000 0.844450 0.546960
0.000000 0.843137 0.545464
0.000000 0.841459 0.544213
0.160372 0.839414 0.543511
0.280858 0.837003 0.543694
0.368322 0.834287 0.545037
0.425635 0.832364 0.538323
0.433722 0.833524 0.501976
0.461616 0.832883 0.476204
0.515618 0.829313 0.474647
0.564843 0.825650 0.472969
0.614527 0.824643 0.471992
0.668574 0.828305 0.472328
0.719875 0.832273 0.472694
0.768551 0.836728 0.473060
0.814847 0.841520 0.473610
0.858854 0.846616 0.474067
0.903319 0.854643 0.473793
0.936217 0.856626 0.474464
0.955016 0.850614 0.469184
0.976989 0.850004 0.472175
0.997131 0.849332 0.476417
1.000000 0.848478 0.481758
1.000000 0.847532 0.488624
1.000000 0.846525 0.497353
1.000000 0.845609 0.507927
1.000000 0.844755 0.520165
0.000000 0.872190 0.575250
0.000000 0.872892 0.575952
0.000000 0.873228 0.576165
0.000000 0.873045 0.575891
0.000000 0.872374 0.575006
0.000000 0.871153 0.573907
0.000000 0.869413 0.572625
0.000000 0.867124 0.571557
0.168704 0.864408 0.570916
0.285496 0.861387 0.571099
0.370764 0.858000 0.572259
0.442847 0.854459 0.574823
0.462531 0.854246 0.550286
0.469093 0.854917 0.512810
0.511803 0.851835 0.503227
0.558984 0.847837 0.500603
0.602716 0.843900 0.498207
0.651331 0.844816 0.497536
0.701625 0.848631 0.498024
0.749905 0.852995 0.499184
0.795956 0.857816 0.500664
0.839658 0.862791 0.501946
0.880949 0.867704 0.502861
0.922728 0.874968 0.502434
0.953033 0.875792 0.502373
0.972137 0.871794 0.502831
0.992218 0.870542 0.506859
1.000000 0.869108 0.512047
1.000000 0.867643 0.518822
1.000000 0.866178 0.527611
1.000000 0.864897 0.538598
1.000000 0.863737 0.551568
0.000000 0.894560 0.595727
0.000000 0.895232 0.596551
0.000000 0.895537 0.596857
0.000000 0.895323 0.596765
0.000000 0.894621 0.596216
0.000000 0.893370 0.595544
0.000000 0.891691 0.594842
0.000000 0.889525 0.594385
0.167758 0.886992 0.594568
0.286473 0.884123 0.595666
0.372076 0.880980 0.597650
0.444648 0.877653 0.600946
0.492317 0.875456 0.595636
0.498268 0.876371 0.563470
0.514611 0.876158 0.535241
0.560266 0.872648 0.533013
0.602991 0.869169 0.530877
0.643091 0.865995 0.529107
0.691554 0.869383 0.530205
0.738705 0.873564 0.531914
0.783688 0.878019 0.533806
0.826535 0.882628 0.535729
0.867033 0.887175 0.537285
0.905364 0.891508 0.538293
0.944182 0.897887 0.538231
0.971771 0.897459 0.538598
0.988403 0.892393 0.539574
1.000000 0.890562 0.545373
1.000000 0.888731 0.552911
1.000000 0.886961 0.562463
1.000000 0.885161 0.573968
1.000000 0.883696 0.587732
0.000000 0.918914 0.618616
0.000000 0.919310 0.619104
0.000000 0.919371 0.619287
0.000000 0.918914 0.619135
0.000000 0.917876 0.618555
0.000000 0.916411 0.618006
0.000000 0.914519 0.617517
0.000000 0.912200 0.617426
0.167941 0.909545 0.618006
0.287236 0.906706 0.619501
0.373754 0.903563 0.621973
0.446387 0.900359 0.625849
0.510124 0.896941 0.630854
0.526390 0.897032 0.609277
0.531853 0.897948 0.576928
0.562829 0.896056 0.563806
0.604059 0.892821 0.561730
0.643000 0.889830 0.560021
0.682704 0.888731 0.559411
0.728481 0.892576 0.561425
0.772366 0.896696 0.563775
0.814176 0.900908 0.566186
0.853727 0.904997 0.568261
0.891112 0.908873 0.570092
0.926574 0.912413 0.571130
0.962524 0.917662 0.571313
0.987366 0.915953 0.572351
1.000000 0.910033 0.573663
1.000000 0.907469 0.580957
1.000000 0.905303 0.590784
1.000000 0.903136 0.602289
1.000000 0.901274 0.616327
0.000000 0.941680 0.639551
0.000000 0.941894 0.639948
0.000000 0.941863 0.640101
0.000000 0.941436 0.640162
0.000000 0.940642 0.640162
0.000000 0.939605 0.640497
0.000000 0.938445 0.641505
0.000000 0.937072 0.643183
0.185031 0.935393 0.645869
0.302953 0.933471 0.649531
0.389960 0.931304 0.654261
0.463355 0.928893 0.660090
0.527520 0.926146 0.666926
0.569146 0.924559 0.664576
0.574853 0.925963 0.637903
0.583612 0.926787 0.609888
0.622187 0.924071 0.608331
0.658839 0.921477 0.606989
0.694118 0.919219 0.606165
0.732876 0.920043 0.607324
0.774258 0.923430 0.610071
0.813687 0.926818 0.612940
0.850919 0.929961 0.615473
0.886137 0.932860 0.617639
0.919554 0.935454 0.619471
0.951263 0.937713 0.620752
0.983490 0.941466 0.621424
1.000000 0.937926 0.622889
1.000000 0.931090 0.624964
1.000000 0.927367 0.633417
1.000000 0.924498 0.645136
1.000000 0.921965 0.659113
0.000000 0.970886 0.668360
0.000000 0.970916 0.668666
0.000000 0.970642 0.668788
0.000000 0.969970 0.668757
0.000000 0.968872 0.668849
0.000000 0.967376 0.669215
0.000000 0.965606 0.670100
0.000000 0.963470 0.671595
0.206882 0.961028 0.674006
0.317754 0.958282 0.677333
0.401648 0.955291 0.681605
0.472999 0.952087 0.686946
0.535668 0.948730 0.693233
0.591516 0.945190 0.700435
