data/fiter_cube/12544332/1022700/file.cube
# Created by Adobe Lightroom plugin Export LUT (1.24.0)
# www.johnrellis.com/lightroom/exportlut.htm
# Preset: 城市青橙纪实夜景 _04 云集
# Color profile: C:\Program Files (x86)\Common Files\Adobe\Color\Profiles\Recommended\AdobeRGB1998.icc
LUT_3D_SIZE 5
DOMAIN_MIN 0.000000 0.000000 0.000000
DOMAIN_MAX 0.903226 0.903226 0.903226
0.087526 0.088136 0.091188
0.246799 0.119387 0.103304
0.499367 0.190677 0.111360
0.771328 0.280247 0.123751
0.941985 0.353613 0.212222
0.076936 0.150912 0.132906
0.231357 0.179141 0.123995
0.492134 0.242222 0.118074
0.768307 0.317784 0.129030
0.940948 0.378241 0.218479
0.000000 0.267948 0.219852
0.165133 0.285740 0.195712
0.465919 0.342260 0.186496
0.759030 0.418433 0.150362
0.937224 0.453498 0.242832
0.000000 0.419348 0.332952
0.000000 0.437507 0.315953
0.429999 0.477455 0.286900
0.746822 0.539483 0.259464
0.930480 0.562921 0.292760
0.000000 0.676112 0.511955
0.000000 0.689204 0.504753
0.316655 0.723781 0.416754
0.774594 0.742580 0.437110
0.929900 0.704829 0.449500
0.000000 0.140536 0.199527
0.219547 0.159762 0.196475
0.480934 0.227817 0.162387
0.762478 0.329808 0.130404
0.940429 0.378698 0.218082
0.000000 0.195041 0.224949
0.207401 0.209628 0.220584
0.473365 0.262882 0.191531
0.760403 0.357610 0.137026
0.939513 0.400488 0.224460
0.000000 0.293034 0.279088
0.101045 0.315801 0.272313
0.453651 0.356451 0.259556
0.751553 0.430030 0.213718
0.936248 0.469490 0.248966
0.000000 0.439521 0.380285
0.000000 0.459602 0.372198
0.418128 0.497475 0.343175
0.739864 0.549706 0.320317
0.929320 0.573907 0.308751
0.000000 0.686488 0.548638
0.000000 0.698665 0.542931
0.251621 0.733486 0.465095
0.761563 0.748836 0.483497
0.924956 0.715541 0.491859
0.000000 0.249973 0.380560
0.000000 0.241306 0.383001
0.437079 0.276585 0.370367
0.746883 0.334844 0.304753
0.936736 0.426825 0.283452
0.000000 0.290745 0.397650
0.000000 0.282902 0.399878
0.429694 0.312016 0.384283
0.741939 0.366613 0.326207
0.936278 0.442023 0.292668
0.000000 0.379858 0.444831
0.000000 0.383276 0.445289
0.405859 0.409949 0.430304
0.729244 0.457832 0.388006
0.932403 0.500267 0.340734
0.000000 0.504570 0.515892
0.000000 0.517205 0.517205
0.237736 0.560571 0.489204
0.713710 0.588739 0.480079
0.919097 0.609766 0.454810
0.000000 0.722469 0.663996
0.000000 0.730739 0.656855
0.000000 0.758328 0.605280
0.711879 0.766476 0.605646
0.909270 0.749050 0.603754
0.000000 0.405005 0.622126
0.000000 0.404974 0.621698
0.144778 0.342504 0.623102
0.698909 0.449409 0.588281
0.908934 0.536767 0.561456
0.000000 0.436835 0.631708
0.000000 0.430945 0.632349
0.078248 0.376776 0.632898
0.694484 0.475959 0.598566
0.907439 0.553429 0.571496
0.000000 0.505638 0.661555
0.000000 0.505058 0.661616
0.000000 0.484535 0.660548
0.681422 0.550958 0.630396
0.905211 0.599420 0.595514
0.000000 0.603693 0.705562
0.000000 0.609888 0.703822
0.000000 0.616938 0.702358
0.656916 0.661036 0.681758
0.900175 0.677607 0.638453
0.000000 0.747250 0.790738
0.000000 0.755947 0.788968
0.000000 0.784604 0.781491
0.456519 0.810452 0.717220
0.884123 0.799588 0.739498
0.000000 0.546502 0.843717
0.000000 0.558038 0.842283
0.000000 0.530694 0.842649
0.628107 0.617426 0.830228
0.867308 0.722347 0.799802
0.000000 0.560052 0.846189
0.000000 0.570611 0.844755
0.000000 0.547967 0.844785
0.617304 0.625177 0.832853
0.866453 0.730190 0.803525
0.000000 0.595026 0.854704
0.000000 0.600519 0.853544
0.000000 0.598688 0.851987
0.539117 0.633112 0.843229
0.864256 0.754238 0.815213
0.000000 0.661738 0.868223
0.000000 0.666926 0.867399
0.000000 0.679103 0.864652
0.287266 0.673182 0.860197
0.860685 0.793912 0.834928
0.000000 0.743130 0.885283
0.000000 0.748257 0.884794
0.000000 0.767666 0.882872
0.000000 0.790890 0.880003
0.852262 0.854368 0.865019
