data/fiter_cube/12544332/1022700/file.cube
# Created by Adobe Lightroom plugin Export LUT (1.24.0)
# www.johnrellis.com/lightroom/exportlut.htm
# Preset: 城市青橙纪实夜景 _04 云集
# Color profile: C:\Program Files (x86)\Common Files\Adobe\Color\Profiles\Recommended\AdobeRGB1998.icc
LUT_3D_SIZE 8
DOMAIN_MIN 0.000000 0.000000 0.000000
DOMAIN_MAX 0.903226 0.903226 0.903226
0.087526 0.088136 0.091188
0.157870 0.100221 0.097841
0.277714 0.126619 0.104768
0.418830 0.165408 0.109834
0.584039 0.217502 0.111940
0.737636 0.268559 0.118746
0.857725 0.312230 0.149599
0.941985 0.353613 0.212222
0.085542 0.113680 0.106844
0.152285 0.126314 0.104067
0.274693 0.148562 0.107332
0.416327 0.184451 0.111757
0.582025 0.232853 0.113863
0.736538 0.280888 0.120394
0.857145 0.321935 0.151186
0.941680 0.361028 0.213993
0.070771 0.165469 0.143618
0.122438 0.173587 0.137057
0.259586 0.198856 0.132448
0.408270 0.235721 0.120424
0.575738 0.278904 0.120058
0.732815 0.320165 0.125887
0.855253 0.353735 0.157076
0.940581 0.386145 0.220768
0.000000 0.231876 0.192905
0.077424 0.238651 0.186557
0.232975 0.253788 0.179904
0.390600 0.290135 0.168795
0.565911 0.339940 0.140749
0.726833 0.378119 0.137545
0.852079 0.403906 0.168490
0.938567 0.427649 0.233677
0.000000 0.305913 0.248112
0.000000 0.312047 0.242832
0.179294 0.328130 0.216770
0.362280 0.348486 0.220401
0.545647 0.397314 0.203952
0.718441 0.443336 0.176883
0.847623 0.466804 0.186557
0.935637 0.482094 0.253910
0.000000 0.393103 0.313848
0.000000 0.398779 0.309789
0.056580 0.416388 0.286839
0.338293 0.436347 0.275792
0.527123 0.469886 0.261234
0.709468 0.512108 0.245335
0.841215 0.535271 0.234287
0.931670 0.545830 0.283604
0.000000 0.513542 0.400519
0.000000 0.518090 0.399420
0.000000 0.537407 0.380438
0.246952 0.563439 0.326085
0.525750 0.585748 0.336858
0.717891 0.610956 0.318822
0.841642 0.613642 0.317967
0.926329 0.615351 0.327703
0.000000 0.676112 0.511955
0.000000 0.679988 0.510216
0.000000 0.694057 0.497780
0.000000 0.715846 0.445319
0.504570 0.726925 0.435767
0.728634 0.739193 0.439368
0.861051 0.724727 0.433265
0.929900 0.704829 0.449500
0.073915 0.108583 0.138247
0.146334 0.117952 0.136355
0.268254 0.147189 0.123690
0.408484 0.196567 0.114229
0.575921 0.244480 0.115175
0.733181 0.289708 0.121065
0.855833 0.327123 0.151888
0.941375 0.362585 0.214176
0.067536 0.132784 0.151247
0.140780 0.142153 0.148867
0.263005 0.164920 0.139223
0.406683 0.207187 0.122713
0.574548 0.256382 0.117037
0.732235 0.300267 0.122621
0.855344 0.335821 0.153140
0.941070 0.369604 0.215885
0.051179 0.179294 0.173800
0.116548 0.190311 0.174777
0.252659 0.208408 0.170382
0.400244 0.242527 0.152895
0.569879 0.294285 0.123507
0.729305 0.334661 0.128420
0.853758 0.365026 0.159274
0.940032 0.393530 0.222751
0.000000 0.242802 0.216648
0.060121 0.250858 0.213779
0.231144 0.264225 0.206973
0.386175 0.295720 0.197238
0.560632 0.342351 0.173068
0.724178 0.387915 0.140108
0.850797 0.412390 0.170626
0.938140 0.433570 0.235630
0.000000 0.315465 0.267765
0.000000 0.321477 0.263584
0.167453 0.337224 0.240299
0.361486 0.356023 0.241703
0.542535 0.400824 0.226780
0.715511 0.445563 0.202365
0.846677 0.472999 0.188724
0.935302 0.486671 0.255985
0.000000 0.400702 0.329686
0.000000 0.406348 0.326329
0.000000 0.423713 0.306554
0.332128 0.443366 0.290379
0.525628 0.474891 0.279850
0.707271 0.515190 0.265263
0.839567 0.538170 0.254917
0.931426 0.549462 0.285557
0.000000 0.519463 0.414710
0.000000 0.524132 0.413428
0.000000 0.543206 0.396551
0.232731 0.568933 0.345739
0.522118 0.590356 0.353063
0.716060 0.614466 0.335180
0.839963 0.616663 0.334752
0.925200 0.618647 0.343755
0.000000 0.679347 0.523156
0.000000 0.683162 0.521630
0.000000 0.696986 0.510155
0.000000 0.718715 0.460700
0.495369 0.729671 0.446540
0.724575 0.741238 0.453803
0.859220 0.727657 0.446906
0.928435 0.708003 0.462562
0.000000 0.152956 0.221683
0.052796 0.153231 0.222049
0.245670 0.175235 0.218143
0.396399 0.199069 0.189151
0.564233 0.258824 0.174441
0.724331 0.322362 0.153262
0.852079 0.361456 0.157443
0.940154 0.385046 0.220066
0.000000 0.175082 0.230106
0.067781 0.174685 0.231113
0.241611 0.192233 0.225498
0.392432 0.214481 0.200076
0.561486 0.269291 0.184360
0.723354 0.329198 0.160159
0.851713 0.368780 0.159243
0.939910 0.391394 0.221897
0.000000 0.217319 0.252049
0.000000 0.219913 0.252049
0.231571 0.234104 0.246525
0.382940 0.256718 0.230289
0.555230 0.300816 0.209415
0.720516 0.353368 0.181155
0.850340 0.393957 0.165194
0.938994 0.413245 0.228641
0.000000 0.269505 0.277928
0.000000 0.275669 0.279423
0.172488 0.294835 0.269932
0.371862 0.313359 0.267765
0.545983 0.351354 0.247868
0.714992 0.395300 0.218723
0.847562 0.433448 0.189090
0.937224 0.450446 0.241611
0.000000 0.335363 0.318181
0.000000 0.342962 0.319677
0.089723 0.363500 0.310277
0.350622 0.378576 0.303899
0.531395 0.413550 0.292576
0.706172 0.454231 0.272862
0.842344 0.483711 0.245487
0.934600 0.500664 0.262150
0.000000 0.419471 0.375677
0.000000 0.426581 0.375982
0.000000 0.446479 0.366918
0.289525 0.467048 0.333837
0.517784 0.492042 0.338781
0.699123 0.525994 0.326604
0.834073 0.548638 0.317998
0.930205 0.560784 0.303807
0.000000 0.536950 0.458564
0.000000 0.541955 0.458228
0.000000 0.560967 0.447639
0.163058 0.586633 0.408057
0.505516 0.605432 0.406043
0.708431 0.626917 0.389227
0.834134 0.627405 0.388067
0.921202 0.630671 0.396124
0.000000 0.689967 0.560845
0.000000 0.693080 0.558404
0.000000 0.706020 0.550378
0.000000 0.727749 0.510124
0.454017 0.739284 0.479530
0.709987 0.747768 0.500084
0.852567 0.737667 0.491463
0.923339 0.719051 0.504936
0.000000 0.213474 0.322881
0.000000 0.215579 0.323003
0.124727 0.195895 0.325811
0.367193 0.240635 0.315526
0.548882 0.251957 0.268406
0.715694 0.318761 0.252293
0.847257 0.376654 0.236423
0.939422 0.413916 0.229191
0.000000 0.233036 0.329259
0.000000 0.230198 0.330510
0.114290 0.211582 0.331762
0.364660 0.253025 0.320287
0.546105 0.265599 0.276097
0.713832 0.328252 0.259709
0.846494 0.383368 0.242649
0.939300 0.418738 0.230930
0.000000 0.267491 0.347021
0.000000 0.267185 0.347936
0.093263 0.262058 0.348608
0.356512 0.289921 0.336370
0.536980 0.307836 0.301671
0.708156 0.359564 0.284031
0.844266 0.406165 0.261936
0.938659 0.437507 0.237583
0.000000 0.320531 0.375311
0.000000 0.321904 0.375799
0.000000 0.326726 0.375006
0.342382 0.346044 0.364111
0.523430 0.369818 0.342840
0.700771 0.408331 0.319615
0.840604 0.444648 0.293675
0.936370 0.470436 0.267033
0.000000 0.379309 0.404791
0.000000 0.382757 0.405707
0.000000 0.395819 0.406714
0.265049 0.419806 0.388373
0.509728 0.438666 0.387457
0.690974 0.472663 0.367834
0.834501 0.499458 0.341375
0.932036 0.517540 0.318364
0.000000 0.453101 0.449226
0.000000 0.457984 0.450355
0.000000 0.476814 0.452888
0.164401 0.504387 0.433845
0.495735 0.521386 0.428016
0.683986 0.547326 0.417334
0.824949 0.568658 0.406958
0.924987 0.579126 0.387823
0.000000 0.564691 0.526818
0.000000 0.569116 0.526726
0.000000 0.586816 0.524865
0.000000 0.612634 0.501122
0.445991 0.630762 0.469734
0.691035 0.648890 0.474159
0.822995 0.647700 0.470863
0.914031 0.653285 0.476661
0.000000 0.709865 0.625086
0.000000 0.712581 0.622950
0.000000 0.721462 0.614038
0.000000 0.740475 0.584771
0.334539 0.756222 0.534813
0.681727 0.757870 0.569329
0.839841 0.754543 0.558892
0.914733 0.737484 0.567926
0.000000 0.289342 0.442298
0.000000 0.292912 0.441566
0.000000 0.276890 0.444831
0.276066 0.270146 0.442359
0.511437 0.315221 0.428290
0.700435 0.313146 0.365759
0.837491 0.390997 0.361089
0.931914 0.444648 0.357733
0.000000 0.305425 0.447059
0.000000 0.303807 0.447486
0.000000 0.289342 0.449653
0.267033 0.277409 0.446937
0.509300 0.325566 0.432136
0.698604 0.325444 0.371984
0.836576 0.398779 0.366583
0.931670 0.449592 0.360845
0.000000 0.336645 0.462135
0.000000 0.335180 0.462989
0.000000 0.326268 0.464302
0.221683 0.303136 0.462013
0.502373 0.358740 0.444800
0.692439 0.365423 0.393317
0.833738 0.425238 0.383886
0.931090 0.465644 0.370031
0.000000 0.382147 0.485237
0.000000 0.381933 0.485878
0.000000 0.379950 0.486976
0.177218 0.373144 0.484627
0.490669 0.411017 0.467445
0.682918 0.426520 0.428443
0.830076 0.466773 0.409735
0.931273 0.489876 0.378454
0.000000 0.443030 0.518151
0.000000 0.444007 0.518364
0.000000 0.446815 0.518334
0.083650 0.453437 0.515038
0.473396 0.477821 0.499794
0.672023 0.499489 0.473518
0.824765 0.523064 0.446174
0.927123 0.538018 0.416754
0.000000 0.513268 0.557244
0.000000 0.515862 0.557214
0.000000 0.523980 0.558068
0.000000 0.541436 0.556359
0.375219 0.566735 0.525780
0.659724 0.580621 0.526543
0.812680 0.599023 0.509422
0.917876 0.606409 0.484321
0.000000 0.609766 0.620844
0.000000 0.612818 0.619898
0.000000 0.623621 0.618555
0.000000 0.645167 0.613489
0.236484 0.667201 0.571160
0.652186 0.674037 0.575158
0.806424 0.677119 0.568139
0.904814 0.684077 0.566857
0.000000 0.735409 0.705013
0.000000 0.738247 0.703792
0.000000 0.746609 0.697139
0.000000 0.759976 0.679286
0.000000 0.775845 0.629206
0.624659 0.771939 0.634302
0.819211 0.776761 0.638209
0.902983 0.762142 0.641749
0.000000 0.380255 0.583978
0.000000 0.385412 0.582788
0.000000 0.374182 0.584710
0.000000 0.337285 0.586328
0.443854 0.373053 0.578180
0.663905 0.415839 0.555138
0.820493 0.424750 0.499702
0.914702 0.513909 0.520928
0.000000 0.392676 0.587457
0.000000 0.395697 0.586358
0.000000 0.383154 0.588495
0.000000 0.349218 0.589593
0.439918 0.379370 0.581537
0.662379 0.424537 0.558312
0.819394 0.434028 0.504479
0.914275 0.519036 0.524071
0.000000 0.423529 0.598322
0.000000 0.421637 0.598627
0.000000 0.411872 0.599908
0.000000 0.386725 0.600244
0.421088 0.398871 0.592889
0.657313 0.453651 0.569482
0.815702 0.464637 0.521050
0.912963 0.536004 0.534356
0.000000 0.462226 0.616175
0.000000 0.461921 0.616510
0.000000 0.456672 0.617731
0.000000 0.442634 0.617639
0.356054 0.425879 0.611933
0.649134 0.499001 0.588220
0.810239 0.511864 0.546990
0.911894 0.561639 0.547631
0.000000 0.513237 0.641047
0.000000 0.515007 0.640467
0.000000 0.513512 0.641169
0.000000 0.509209 0.640497
0.274327 0.501061 0.635462
0.638209 0.555200 0.613642
0.804410 0.569299 0.578454
0.911742 0.593561 0.560571
0.000000 0.573907 0.670466
0.000000 0.576837 0.669398
0.000000 0.579217 0.669276
0.000000 0.583062 0.668299
0.173159 0.592676 0.664027
0.621118 0.625452 0.647120
0.794980 0.639429 0.621241
0.907103 0.646265 0.593591
0.000000 0.650233 0.714321
0.000000 0.653101 0.713588
0.000000 0.661341 0.712184
0.000000 0.671748 0.711330
0.000000 0.692470 0.705837
0.519371 0.713466 0.668086
0.782559 0.715572 0.674311
0.892576 0.723507 0.663783
0.000000 0.746761 0.775601
0.000000 0.749416 0.775021
0.000000 0.758755 0.772457
0.000000 0.775235 0.767117
0.000000 0.801022 0.756619
0.368597 0.805356 0.695583
0.781765 0.796201 0.721981
0.888182 0.791745 0.720150
0.000000 0.475166 0.730800
0.000000 0.479377 0.729885
0.000000 0.477394 0.729580
0.000000 0.451026 0.730831
0.203372 0.411963 0.729763
0.628565 0.522057 0.716121
0.786221 0.564996 0.685420
0.890806 0.604425 0.668482
0.000000 0.483314 0.732387
0.000000 0.487251 0.731594
0.000000 0.483711 0.731472
0.000000 0.458625 0.732509
0.191653 0.420142 0.731411
0.626734 0.527276 0.717891
0.785336 0.570611 0.687709
0.890318 0.609125 0.671046
0.000000 0.505608 0.738277
0.000000 0.509056 0.737484
0.000000 0.504509 0.737453
0.000000 0.483711 0.738247
0.134707 0.446693 0.737209
0.618830 0.542290 0.723781
0.782437 0.589319 0.695521
0.888792 0.624231 0.679500
0.000000 0.536461 0.748226
0.000000 0.539574 0.747494
0.000000 0.538201 0.747036
0.000000 0.523217 0.747494
0.000000 0.497475 0.746181
0.597284 0.563012 0.734035
0.777951 0.618677 0.708278
0.886931 0.648127 0.692348
0.000000 0.576532 0.761746
0.000000 0.579309 0.761105
0.000000 0.582757 0.759976
0.000000 0.573083 0.759915
0.000000 0.556847 0.758297
0.531365 0.579492 0.748989
0.772274 0.655726 0.725154
0.885008 0.679316 0.708797
0.000000 0.624475 0.777981
0.000000 0.626978 0.777432
0.000000 0.635065 0.775479
0.000000 0.631830 0.775448
0.000000 0.626429 0.773983
0.420966 0.632105 0.767208
0.764126 0.701320 0.746426
0.882933 0.717250 0.728298
0.000000 0.677577 0.795590
0.000000 0.679835 0.795163
0.000000 0.688014 0.793545
0.000000 0.693904 0.792691
0.000000 0.699550 0.791684
0.331640 0.716762 0.786740
0.751827 0.755123 0.771817
0.878782 0.764767 0.754360
0.000000 0.744778 0.830320
0.000000 0.747005 0.830137
0.000000 0.754940 0.829343
0.000000 0.769528 0.827665
0.000000 0.785183 0.825925
0.000000 0.811002 0.820066
0.678920 0.823117 0.786923
0.871275 0.823239 0.795468
0.000000 0.546502 0.843717
0.000000 0.549889 0.843320
0.000000 0.560876 0.841886
0.000000 0.542718 0.842557
0.000000 0.519799 0.842191
0.545403 0.585687 0.833616
0.781003 0.688075 0.821805
0.867308 0.722347 0.799802
0.000000 0.551049 0.844419
0.000000 0.554314 0.844022
0.000000 0.565118 0.842557
0.000000 0.547601 0.843198
0.000000 0.525444 0.842832
0.541009 0.588251 0.834409
0.780087 0.691218 0.822507
0.867033 0.724727 0.800961
0.000000 0.563836 0.846983
0.000000 0.566888 0.846586
0.000000 0.577752 0.845121
0.000000 0.563867 0.845487
0.000000 0.543999 0.845060
0.519646 0.594263 0.837430
0.776883 0.701534 0.824857
0.866209 0.732692 0.804715
0.000000 0.580804 0.851713
0.000000 0.583612 0.851316
0.000000 0.593835 0.849882
0.000000 0.590387 0.849393
0.000000 0.573297 0.848997
0.458808 0.598291 0.843229
0.770260 0.716335 0.829129
0.864988 0.745815 0.811063
0.000000 0.612085 0.858122
0.000000 0.613672 0.857786
0.000000 0.619043 0.856657
0.000000 0.624903 0.854765
0.000000 0.609979 0.854673
0.358251 0.617762 0.850553
0.753353 0.726955 0.836088
0.863462 0.763912 0.819974
0.000000 0.651179 0.866056
0.000000 0.652674 0.865782
0.000000 0.657923 0.864836
0.000000 0.666499 0.863066
0.000000 0.658656 0.862211
0.106905 0.653773 0.859525
0.711879 0.736477 0.846159
0.861357 0.787198 0.831540
0.000000 0.695460 0.875212
0.000000 0.696925 0.874998
0.000000 0.702083 0.874296
0.000000 0.711421 0.872892
0.000000 0.717891 0.871489
0.000000 0.716152 0.869749
0.608484 0.754971 0.860227
0.858152 0.816495 0.846220
0.000000 0.743130 0.885283
0.000000 0.744625 0.885130
0.000000 0.750027 0.884611
0.000000 0.760311 0.883604
0.000000 0.776883 0.881895
0.000000 0.786313 0.880797
0.530053 0.817197 0.874449
0.852262 0.854368 0.865019
