data/fiter_cube/12544332/1022700/file.cube
# Created by Adobe Lightroom plugin Export LUT (1.24.0)
# www.johnrellis.com/lightroom/exportlut.htm
# Preset: 城市青橙纪实夜景 _04 云集
# Color profile: C:\Program Files (x86)\Common Files\Adobe\Color\Profiles\Recommended\AdobeRGB1998.icc
LUT_3D_SIZE 32
0.087526 0.088136 0.091188
0.095460 0.089204 0.092012
0.105684 0.090791 0.092927
0.128450 0.094697 0.095216
0.157870 0.100221 0.097841
0.187442 0.106569 0.100252
0.217044 0.112825 0.101961
0.246799 0.119387 0.103304
0.277714 0.126619 0.104768
0.310063 0.134829 0.105776
0.344671 0.144198 0.107362
0.380865 0.154360 0.108705
0.418830 0.165408 0.109834
0.458381 0.177798 0.110689
0.499367 0.190677 0.111360
0.541588 0.203830 0.111604
0.584039 0.217502 0.111940
0.624781 0.230747 0.112673
0.663630 0.243595 0.113893
0.701625 0.256199 0.115602
0.737636 0.268559 0.118746
0.771328 0.280247 0.123751
0.802640 0.291234 0.130495
0.831388 0.302037 0.139040
0.857725 0.312230 0.149599
0.881682 0.322271 0.162020
0.903471 0.332250 0.176852
0.923522 0.342657 0.193301
0.941985 0.353613 0.212222
0.959045 0.365850 0.234012
0.974731 0.380041 0.258701
0.989075 0.396643 0.287816
0.087495 0.090486 0.092927
0.094911 0.092226 0.092592
0.105257 0.093782 0.093233
0.128267 0.098024 0.095460
0.157504 0.103670 0.098329
0.187045 0.109560 0.100465
0.216739 0.115419 0.102235
0.246525 0.121798 0.103304
0.277379 0.128695 0.105013
0.309911 0.137087 0.106477
0.344335 0.146181 0.107576
0.380713 0.156466 0.108705
0.418524 0.167666 0.109987
0.458106 0.179782 0.110872
0.499153 0.192508 0.111543
0.541466 0.205692 0.111971
0.583795 0.219303 0.112093
0.624598 0.232364 0.112581
0.663539 0.245090 0.113802
0.701472 0.257816 0.115724
0.737575 0.269780 0.118685
0.771237 0.281346 0.123507
0.802518 0.292454 0.130434
0.831327 0.303105 0.139010
0.857664 0.313054 0.149874
0.881590 0.323217 0.162539
0.903441 0.333135 0.176699
0.923522 0.343511 0.193362
0.941955 0.354406 0.212314
0.959014 0.366583 0.234195
0.974731 0.380621 0.259098
0.989044 0.397314 0.288090
0.087129 0.094240 0.094972
0.094240 0.095949 0.094636
0.105043 0.097658 0.094453
0.127932 0.102296 0.096162
0.156893 0.107759 0.098726
0.186557 0.113405 0.100862
0.216220 0.118837 0.102388
0.246067 0.125032 0.103944
0.276982 0.132143 0.105165
0.309392 0.140322 0.106600
0.343969 0.149172 0.107942
0.380285 0.159091 0.109285
0.418189 0.170230 0.110323
0.457740 0.182132 0.111421
0.498817 0.194827 0.111849
0.541161 0.207950 0.112276
0.583520 0.221164 0.112428
0.624414 0.234287 0.112886
0.663294 0.246921 0.114321
0.701289 0.259525 0.115816
0.737392 0.271550 0.118929
0.771145 0.283024 0.123934
0.802457 0.294041 0.130648
0.831266 0.304540 0.139223
0.857603 0.314702 0.149874
0.881559 0.324315 0.162631
0.903380 0.334264 0.177005
0.923461 0.344427 0.193790
0.941955 0.355383 0.212650
0.958984 0.367590 0.234318
0.974701 0.381476 0.259220
0.989014 0.398077 0.288273
0.086427 0.103273 0.100252
0.092042 0.104768 0.099763
0.104036 0.106172 0.099336
0.126772 0.110536 0.098695
0.155886 0.116243 0.099947
0.185519 0.121065 0.101839
0.215061 0.126406 0.103609
0.245121 0.132174 0.104646
0.275975 0.138918 0.105867
0.308598 0.146609 0.107301
0.343114 0.155245 0.108400
0.379461 0.165072 0.109712
0.417487 0.176028 0.110903
0.456977 0.187686 0.111757
0.498116 0.200046 0.112398
0.540490 0.212894 0.112795
0.582940 0.226078 0.112886
0.623804 0.238895 0.113375
0.662837 0.251225 0.114565
0.700832 0.263493 0.116060
0.737026 0.275120 0.119783
0.770901 0.286442 0.124361
0.802182 0.297185 0.131258
0.831052 0.307530 0.139773
0.857420 0.317418 0.150546
0.881407 0.327214 0.163058
0.903288 0.336675 0.177707
0.923369 0.346868 0.194400
0.941833 0.357671 0.213199
0.958923 0.369665 0.234897
0.974609 0.383398 0.259983
0.988952 0.399847 0.289006
0.085542 0.113680 0.106844
0.088869 0.115328 0.106172
0.100069 0.116976 0.105776
0.122072 0.120272 0.105287
0.152285 0.126314 0.104067
0.183536 0.132265 0.103609
0.213443 0.137087 0.104860
0.243595 0.142519 0.106111
0.274693 0.148562 0.107332
0.307225 0.155947 0.108492
0.341802 0.164157 0.109773
0.378180 0.173861 0.110811
0.416327 0.184451 0.111757
0.456001 0.195956 0.112520
0.497078 0.207706 0.113191
0.539391 0.220218 0.113558
0.582025 0.232853 0.113863
0.622980 0.245701 0.114015
0.662043 0.257542 0.115450
0.700313 0.269535 0.116884
0.736538 0.280888 0.120394
0.770443 0.291844 0.125307
0.801877 0.302220 0.131991
0.830777 0.312200 0.140475
0.857145 0.321935 0.151186
0.881193 0.331304 0.163668
0.903105 0.340734 0.178256
0.923186 0.350591 0.194919
0.941680 0.361028 0.213993
0.958770 0.372839 0.235691
0.974487 0.386419 0.260838
0.988800 0.402747 0.289921
0.083925 0.125490 0.114626
0.084810 0.126833 0.114290
0.095125 0.128298 0.113344
0.116457 0.131167 0.112093
0.144381 0.135653 0.111208
0.178134 0.143038 0.109010
0.211215 0.149752 0.106905
0.241489 0.154910 0.108125
0.272740 0.160708 0.109255
0.305425 0.167636 0.110414
0.340154 0.175662 0.111391
0.376562 0.185061 0.112367
0.414588 0.194919 0.113527
0.454475 0.205966 0.114046
0.495705 0.217502 0.114626
0.538262 0.229801 0.114687
0.580835 0.242100 0.114961
0.621942 0.254215 0.115145
0.661097 0.265843 0.116304
0.699489 0.277134 0.118166
0.735836 0.288396 0.121157
0.769894 0.299077 0.126009
0.801389 0.309026 0.132662
0.830381 0.318456 0.141787
0.856840 0.327703 0.152468
0.880888 0.336828 0.164950
0.902861 0.345861 0.179690
0.922942 0.355474 0.195987
0.941466 0.365698 0.215244
0.958587 0.377111 0.237095
0.974304 0.390478 0.262089
0.988647 0.406531 0.291356
0.081025 0.137636 0.123232
0.081270 0.138888 0.122560
0.090028 0.140230 0.121889
0.109285 0.143069 0.119661
0.137636 0.146639 0.119692
0.168704 0.152132 0.118013
0.204410 0.160494 0.116030
0.238682 0.168276 0.113069
0.270207 0.174441 0.111910
0.303227 0.181033 0.112795
0.337987 0.188815 0.113497
0.374578 0.197726 0.114199
0.412818 0.207553 0.115023
0.452705 0.217899 0.115755
0.494087 0.229221 0.116243
0.536522 0.240940 0.116518
0.579370 0.253056 0.116060
0.620600 0.264561 0.116640
0.659968 0.275761 0.117525
0.698451 0.286900 0.119112
0.735012 0.297551 0.122469
0.769131 0.307805 0.127260
0.800748 0.317113 0.134401
0.829862 0.326268 0.142916
0.856413 0.335027 0.153658
0.880491 0.343694 0.166354
0.902495 0.352514 0.180697
0.922667 0.361456 0.197726
0.941253 0.371313 0.216831
0.958373 0.382513 0.238682
0.974090 0.395453 0.263767
0.988464 0.411261 0.293095
0.076936 0.150912 0.132906
0.077180 0.151888 0.132448
0.084657 0.153384 0.131685
0.102602 0.156039 0.129152
0.131350 0.159335 0.128145
0.161624 0.163638 0.127840
0.194919 0.170443 0.125551
0.231357 0.179141 0.123995
0.267094 0.187625 0.121035
0.300481 0.195193 0.116884
0.335607 0.203037 0.116274
0.372198 0.211551 0.116915
0.410620 0.221103 0.117433
0.450660 0.231235 0.118074
0.492134 0.242222 0.118074
0.534752 0.253574 0.118288
0.577630 0.265324 0.117983
0.619043 0.276402 0.118532
0.658595 0.287266 0.119326
0.697230 0.297856 0.121065
0.733974 0.307927 0.124178
0.768307 0.317784 0.129030
0.800107 0.326879 0.135683
0.829252 0.335607 0.144289
0.855863 0.343725 0.154971
0.880095 0.351965 0.167971
0.902129 0.360204 0.182437
0.922332 0.368780 0.199313
0.940948 0.378241 0.218479
0.958068 0.388922 0.240604
0.973816 0.401587 0.265995
0.988190 0.417029 0.295354
0.070771 0.165469 0.143618
0.071901 0.166262 0.143221
0.079561 0.167788 0.142336
0.096101 0.170260 0.140230
0.122438 0.173587 0.137057
0.155825 0.177188 0.138094
0.187472 0.182193 0.136965
0.222507 0.189761 0.134035
0.259586 0.198856 0.132448
0.297276 0.208499 0.129549
0.332525 0.216983 0.125002
0.369665 0.226413 0.119997
0.408270 0.235721 0.120424
0.448432 0.245731 0.120546
0.489845 0.256352 0.120912
0.532677 0.267552 0.120607
0.575738 0.278904 0.120058
0.617304 0.289769 0.120302
0.656886 0.300023 0.121492
0.695827 0.310246 0.122713
0.732815 0.320165 0.125887
0.767330 0.329259 0.130739
0.799252 0.337865 0.137453
0.828550 0.346014 0.146242
0.855253 0.353735 0.157076
0.879545 0.361273 0.170077
0.901671 0.369055 0.184512
0.921935 0.377264 0.201297
0.940581 0.386145 0.220768
0.957763 0.396490 0.242924
0.973510 0.408698 0.268437
0.987884 0.423682 0.298039
0.060914 0.181033 0.155123
0.064424 0.181796 0.154726
0.072084 0.183078 0.154086
0.089296 0.185489 0.151888
0.114046 0.188846 0.148440
0.148257 0.192203 0.146975
0.182040 0.196506 0.148074
0.215152 0.202152 0.146151
0.251377 0.210117 0.143160
0.289555 0.219852 0.141299
0.329320 0.230533 0.138033
0.366461 0.239780 0.133913
0.405493 0.250278 0.127108
0.445808 0.260899 0.123842
0.487526 0.271244 0.123903
0.530419 0.282353 0.123507
0.573693 0.293400 0.123079
0.615290 0.303899 0.123079
0.655116 0.314031 0.123720
0.694301 0.323888 0.125063
0.731502 0.333104 0.128359
0.766232 0.341985 0.132845
0.798337 0.349859 0.140139
0.827756 0.357549 0.148775
0.854582 0.364752 0.159426
0.878965 0.371893 0.172000
0.901152 0.379065 0.186893
0.921477 0.386572 0.204013
0.940154 0.395087 0.223514
0.957366 0.404944 0.245731
0.973175 0.416724 0.271397
0.987549 0.431342 0.301366
0.035492 0.197299 0.167605
0.048035 0.198154 0.166934
0.061250 0.199344 0.166110
0.079591 0.201511 0.164370
0.104646 0.204868 0.160555
0.136965 0.208469 0.156039
0.175967 0.211948 0.159121
0.209720 0.216800 0.157870
0.244266 0.223026 0.155550
0.281804 0.231632 0.152560
0.321416 0.242069 0.150515
0.363287 0.253849 0.147127
0.402075 0.263920 0.142519
0.442878 0.274784 0.135378
0.484993 0.287022 0.127535
0.527947 0.297856 0.126894
0.571313 0.308598 0.126223
0.613031 0.319219 0.125887
0.653193 0.328771 0.126314
0.692622 0.338262 0.128084
0.730129 0.347295 0.130831
0.765011 0.355627 0.135561
0.797269 0.363256 0.142336
0.826871 0.370245 0.151339
0.853819 0.376898 0.162112
0.878294 0.383459 0.174746
0.900572 0.390143 0.189761
0.920958 0.397162 0.206638
0.939696 0.405097 0.226444
0.956939 0.414374 0.248875
0.972747 0.425727 0.274571
0.987121 0.439887 0.304845
0.000946 0.214328 0.180148
0.013886 0.215122 0.179568
0.032959 0.216220 0.178897
0.066011 0.218357 0.177066
0.092744 0.221561 0.173617
0.125216 0.225254 0.168490
0.165713 0.228550 0.167208
0.203922 0.232547 0.169650
0.238560 0.237675 0.168032
0.274876 0.244938 0.164706
0.313970 0.254307 0.161776
0.355077 0.265599 0.159731
0.399054 0.278111 0.155764
0.439734 0.289128 0.150484
0.481788 0.300664 0.143191
0.525200 0.313268 0.133700
0.568780 0.324834 0.129946
0.610803 0.334966 0.129366
0.651026 0.344396 0.129885
0.690791 0.353613 0.131319
0.728542 0.362280 0.134279
0.763638 0.370123 0.139040
0.796139 0.377234 0.145449
0.825895 0.383917 0.154086
0.853025 0.390021 0.165072
0.877562 0.396002 0.177768
0.899901 0.402014 0.192782
0.920348 0.408484 0.210147
0.939178 0.415961 0.229801
0.956451 0.424750 0.252476
0.972290 0.435554 0.278569
0.986664 0.449317 0.309087
0.000000 0.231876 0.192905
0.000000 0.232486 0.192477
0.000000 0.233524 0.191745
0.032898 0.235538 0.190066
0.077424 0.238651 0.186557
0.111910 0.242283 0.181277
0.150973 0.245945 0.175784
0.195956 0.249058 0.179873
0.232975 0.253788 0.179904
0.268620 0.259434 0.177676
0.307103 0.267857 0.173739
0.347784 0.278141 0.170993
0.390600 0.290135 0.168795
0.436500 0.303716 0.164309
0.478553 0.315007 0.158877
0.521904 0.327123 0.151461
0.565911 0.339940 0.140749
0.608240 0.351293 0.133608
0.648798 0.360662 0.133639
0.688838 0.369726 0.134737
0.726833 0.378119 0.137545
0.762234 0.385565 0.142153
0.794858 0.392309 0.148867
0.824826 0.398230 0.157626
0.852079 0.403906 0.168490
0.876738 0.409308 0.181552
0.899199 0.414893 0.196597
0.919707 0.420844 0.213718
0.938567 0.427649 0.233677
0.955901 0.435950 0.256535
0.971771 0.446235 0.282872
0.986145 0.459480 0.313664
0.000000 0.249699 0.206271
0.000000 0.250340 0.205875
0.000000 0.251225 0.205020
0.000000 0.253300 0.203464
0.050996 0.256260 0.200015
0.095064 0.259831 0.195193
0.136263 0.263584 0.188602
0.182834 0.267033 0.187289
0.226413 0.270848 0.191989
0.263401 0.276249 0.190127
0.300298 0.282444 0.187533
0.340978 0.291997 0.182986
0.382971 0.303014 0.180758
0.427497 0.315770 0.177584
0.474739 0.329839 0.172976
0.518608 0.341955 0.166842
0.562493 0.354467 0.159060
0.605219 0.365972 0.148745
0.646540 0.377325 0.138094
0.686732 0.386389 0.139040
0.725124 0.394507 0.141634
0.760678 0.401709 0.146181
0.793545 0.407904 0.152743
0.823667 0.413611 0.161501
0.851041 0.418708 0.172396
0.875853 0.423499 0.185397
0.898436 0.428473 0.200381
0.919036 0.433875 0.217777
0.937957 0.440314 0.238071
0.955291 0.448005 0.261112
0.971191 0.457710 0.287602
0.985565 0.470527 0.318791
0.000000 0.267948 0.219852
0.000000 0.268650 0.219364
0.000000 0.269444 0.218692
0.000000 0.271397 0.216953
0.000000 0.274327 0.213840
0.072633 0.277958 0.209110
0.118990 0.281804 0.202426
0.165133 0.285740 0.195712
0.216098 0.288945 0.200565
0.257267 0.293706 0.202640
0.295140 0.299382 0.200137
0.333837 0.306798 0.196933
0.376165 0.317174 0.192172
0.419715 0.328893 0.190005
0.465919 0.342260 0.186496
0.514336 0.356847 0.181216
0.559350 0.369329 0.174624
0.601801 0.380804 0.167544
0.643519 0.391852 0.157076
0.684535 0.403021 0.146395
0.723171 0.411505 0.146029
0.759030 0.418433 0.150362
0.792111 0.424292 0.157107
0.822416 0.429511 0.165743
0.849973 0.434058 0.176638
0.874907 0.438392 0.189609
0.897581 0.442817 0.204990
0.918273 0.447669 0.222568
0.937224 0.453498 0.242832
0.954650 0.460670 0.266056
0.970550 0.469947 0.292943
0.984955 0.482338 0.324437
0.000000 0.286656 0.233799
0.000000 0.287297 0.233188
0.000000 0.288151 0.232547
0.000000 0.290043 0.231022
0.000000 0.292882 0.228153
0.016693 0.296452 0.223667
0.097505 0.300542 0.217136
0.147036 0.304662 0.209384
0.199863 0.308141 0.207523
0.249241 0.312016 0.214176
0.289311 0.317418 0.212863
0.328222 0.323583 0.210422
0.368841 0.332067 0.206455
0.412940 0.343145 0.201266
0.457984 0.355596 0.199252
0.505425 0.369451 0.195315
0.554589 0.384222 0.189395
0.598566 0.396033 0.183169
0.640375 0.407019 0.176120
0.681727 0.417853 0.166720
0.721035 0.427955 0.156039
0.757351 0.435645 0.155337
0.790646 0.441260 0.161685
0.821164 0.445960 0.170596
0.848844 0.450141 0.181430
0.873930 0.453956 0.194369
0.896635 0.457893 0.209903
0.917449 0.462165 0.227726
0.936492 0.467506 0.248142
0.953918 0.474067 0.271733
0.969848 0.482918 0.298955
0.984253 0.494850 0.330938
0.000000 0.305913 0.248112
0.000000 0.306523 0.247715
0.000000 0.307378 0.247013
0.000000 0.309209 0.245670
0.000000 0.312047 0.242832
0.000000 0.315648 0.238682
0.067353 0.319646 0.232639
0.126345 0.323919 0.224887
0.179294 0.328130 0.216770
0.236179 0.331487 0.221653
0.282261 0.336095 0.225650
0.322698 0.341955 0.223239
0.362280 0.348486 0.220401
0.405249 0.358373 0.215702
0.450996 0.370123 0.210330
0.497230 0.383093 0.208377
0.545647 0.397314 0.203952
0.593683 0.411200 0.198215
0.637415 0.422644 0.191806
0.678828 0.433417 0.185061
0.718441 0.443336 0.176883
0.755337 0.452155 0.167300
0.789059 0.458656 0.167117
0.819760 0.463020 0.175845
0.847623 0.466804 0.186557
0.872831 0.470069 0.200046
0.895659 0.473487 0.215457
0.916533 0.477302 0.233371
0.935637 0.482094 0.253910
0.953124 0.488228 0.277897
0.969085 0.496529 0.305394
0.983490 0.507958 0.337743
0.000000 0.325658 0.263005
0.000000 0.326421 0.262669
0.000000 0.327214 0.261967
0.000000 0.328923 0.260655
0.000000 0.331701 0.258061
0.000000 0.335119 0.254124
0.000000 0.339300 0.248508
0.101228 0.343633 0.241032
0.159487 0.348180 0.232090
0.217319 0.352087 0.228672
0.272190 0.355871 0.236088
0.315984 0.361334 0.236393
0.357397 0.367590 0.233768
0.398383 0.374823 0.230716
0.443732 0.386084 0.225010
0.490852 0.398413 0.219821
0.538781 0.412177 0.217197
0.586572 0.425635 0.212833
0.633021 0.438331 0.207401
0.676020 0.449470 0.201175
0.715785 0.459236 0.195193
0.752865 0.467903 0.188632
0.787198 0.475349 0.179904
0.818296 0.480629 0.181643
0.846311 0.483833 0.192630
0.871641 0.486793 0.205966
0.894591 0.489723 0.221408
0.915587 0.493050 0.239536
0.934752 0.497261 0.260410
0.952300 0.502892 0.284550
0.968261 0.510735 0.312627
0.982635 0.521752 0.345495
0.000000 0.346593 0.278691
0.000000 0.347204 0.278325
0.000000 0.348058 0.277928
0.000000 0.349767 0.276555
0.000000 0.352422 0.274235
0.000000 0.355871 0.270603
0.000000 0.359991 0.265354
0.065034 0.364538 0.257939
0.136690 0.369360 0.249058
0.194247 0.373938 0.239933
0.257023 0.377600 0.243961
0.308415 0.382361 0.250126
0.352026 0.388556 0.247593
0.394537 0.395300 0.244633
0.437842 0.403937 0.240330
0.485267 0.415930 0.234501
0.533989 0.429114 0.229526
0.581567 0.442145 0.226474
0.627985 0.454475 0.222385
0.672572 0.465980 0.217166
0.713283 0.475715 0.211856
0.750484 0.484077 0.206851
0.784878 0.491402 0.202182
0.816556 0.497597 0.194888
0.844968 0.501488 0.199008
0.870420 0.503960 0.212161
0.893523 0.506371 0.228061
0.914549 0.509239 0.246403
0.933776 0.512932 0.267613
0.951385 0.518120 0.292027
0.967376 0.525475 0.320195
0.981720 0.536126 0.353887
0.000000 0.368902 0.295659
0.000000 0.369574 0.295323
0.000000 0.370367 0.294682
0.000000 0.372137 0.293553
0.000000 0.374731 0.291325
0.000000 0.378271 0.287938
0.000000 0.382361 0.283024
0.000000 0.386938 0.276341
0.106935 0.392035 0.267308
0.172488 0.397040 0.256870
0.235691 0.401556 0.251469
0.297063 0.405676 0.259495
0.345983 0.411292 0.261814
0.390723 0.418158 0.259007
0.434668 0.425452 0.255589
0.480720 0.435462 0.250797
0.530144 0.448341 0.244327
0.578454 0.460792 0.239994
0.624811 0.472541 0.237186
0.669459 0.483650 0.233036
0.710750 0.493019 0.228489
0.748104 0.500786 0.224247
0.782681 0.507744 0.220432
0.814328 0.513878 0.217136
0.843290 0.518761 0.211978
0.869108 0.521569 0.219486
0.892332 0.523491 0.235416
0.913481 0.525872 0.253910
0.932799 0.529168 0.275181
0.950378 0.533898 0.299870
0.966400 0.540856 0.328740
0.980743 0.551110 0.362921
0.000000 0.393103 0.313848
0.000000 0.393622 0.313481
0.000000 0.394415 0.312993
0.000000 0.396185 0.311772
0.000000 0.398779 0.309789
0.000000 0.402289 0.306554
0.000000 0.406470 0.302129
0.000000 0.411231 0.295445
0.056580 0.416388 0.286839
0.145754 0.421881 0.276219
0.210239 0.427100 0.264897
0.280034 0.431373 0.268315
0.338293 0.436347 0.275792
0.386358 0.442847 0.274052
0.432654 0.450172 0.270848
0.478065 0.458137 0.267185
0.527123 0.469886 0.261234
0.576562 0.481880 0.254948
0.623529 0.493019 0.251102
0.668116 0.503380 0.248508
0.709468 0.512108 0.245335
0.746578 0.519066 0.241917
0.780392 0.524804 0.238468
0.812253 0.530449 0.235874
0.841215 0.535271 0.234287
0.867582 0.539147 0.231266
0.891051 0.541039 0.243259
0.912291 0.543053 0.261936
0.931670 0.545830 0.283604
0.949340 0.550134 0.308690
0.965332 0.556603 0.337926
0.979644 0.566522 0.372656
0.000000 0.419348 0.332952
0.000000 0.419806 0.332860
0.000000 0.420508 0.332525
0.000000 0.422187 0.331273
0.000000 0.424872 0.329412
0.000000 0.428290 0.326635
0.000000 0.432624 0.322057
0.000000 0.437507 0.315953
0.000000 0.442878 0.307744
0.109224 0.448646 0.297124
0.184970 0.454475 0.284642
0.255558 0.459602 0.276982
0.325109 0.464118 0.285771
0.380682 0.470130 0.290410
0.429999 0.477455 0.286900
0.478035 0.485237 0.283391
0.525078 0.493782 0.279301
0.575189 0.505303 0.272862
0.623407 0.515801 0.266545
0.668544 0.525353 0.263767
0.709773 0.533349 0.261967
0.746822 0.539483 0.259464
0.780026 0.544091 0.256992
0.810025 0.547753 0.254856
0.839139 0.552117 0.253788
0.865537 0.555871 0.253544
0.889677 0.558953 0.252720
0.911040 0.560540 0.270726
0.930480 0.562921 0.292760
0.948180 0.566796 0.318059
0.964202 0.572930 0.347875
0.978454 0.582544 0.383520
0.000000 0.447852 0.353704
0.000000 0.448432 0.353643
0.000000 0.448920 0.353368
0.000000 0.450507 0.352697
0.000000 0.453162 0.350896
0.000000 0.456672 0.347997
0.000000 0.461036 0.344030
0.000000 0.465980 0.338140
0.000000 0.471626 0.330236
0.007782 0.477699 0.320012
0.152743 0.483894 0.306981
0.227207 0.489937 0.293126
0.306004 0.494759 0.295689
0.372137 0.500175 0.303929
0.426551 0.507012 0.304265
0.477150 0.514611 0.300725
0.526299 0.522545 0.297002
0.574975 0.531365 0.292210
0.623865 0.541222 0.285954
0.670283 0.549920 0.279759
0.711482 0.556725 0.278721
0.748440 0.561852 0.277684
0.781430 0.565454 0.276371
0.810727 0.567895 0.274968
0.836973 0.569604 0.273442
0.863493 0.572839 0.274174
0.887663 0.575830 0.275303
0.909728 0.578424 0.280217
0.929229 0.580377 0.302464
0.946960 0.583856 0.328252
0.962951 0.589624 0.358709
0.977173 0.598962 0.395026
0.000000 0.479225 0.376226
0.000000 0.479683 0.376135
0.000000 0.480262 0.375921
0.000000 0.481514 0.375677
0.000000 0.484047 0.373999
0.000000 0.487678 0.371557
0.000000 0.492134 0.367468
0.000000 0.497261 0.362036
0.000000 0.503166 0.354376
0.000000 0.509392 0.344182
0.105165 0.516045 0.331304
0.197513 0.522545 0.316442
0.277653 0.528283 0.306401
0.357580 0.533104 0.315557
0.421088 0.538872 0.323186
0.475013 0.545800 0.319554
0.526635 0.553216 0.315984
0.576440 0.560967 0.311925
0.625483 0.569329 0.306798
0.672328 0.576959 0.300938
0.714656 0.582422 0.295720
0.751308 0.586358 0.296147
0.784085 0.588800 0.295903
0.813107 0.590143 0.295537
0.838560 0.590600 0.295109
0.861326 0.590539 0.294713
0.885588 0.593042 0.296757
0.907866 0.595514 0.300084
0.927855 0.598199 0.313146
0.945647 0.601282 0.339239
0.961639 0.606714 0.370336
0.975799 0.615808 0.407446
0.000000 0.513542 0.400519
0.000000 0.513970 0.400458
0.000000 0.514611 0.400336
0.000000 0.515923 0.400092
0.000000 0.518090 0.399420
0.000000 0.521721 0.396857
0.000000 0.526238 0.393103
0.000000 0.531487 0.387732
0.000000 0.537407 0.380438
0.000000 0.543786 0.370764
0.000000 0.550591 0.357763
0.158602 0.557122 0.342382
0.246952 0.563439 0.326085
0.336339 0.567987 0.328099
0.410651 0.572930 0.337346
0.471351 0.578943 0.340246
0.525750 0.585748 0.336858
0.577783 0.592981 0.332952
0.627985 0.600336 0.328985
0.675502 0.606928 0.323644
0.717891 0.610956 0.318822
0.755550 0.613092 0.314855
0.787839 0.614130 0.316808
0.816434 0.614282 0.317601
0.841642 0.613642 0.317967
0.863859 0.612482 0.318212
0.883513 0.610956 0.318517
0.905760 0.613001 0.322362
0.926329 0.615351 0.327703
0.944213 0.619043 0.351202
0.960204 0.624201 0.382879
0.974273 0.633082 0.420874
0.000000 0.551049 0.426856
0.000000 0.551598 0.426825
0.000000 0.552117 0.426612
0.000000 0.553429 0.426368
0.000000 0.555474 0.425879
0.000000 0.558587 0.424353
0.000000 0.562982 0.420508
0.000000 0.568078 0.415320
0.000000 0.573877 0.407874
0.000000 0.580224 0.398444
0.000000 0.586725 0.385718
0.096223 0.593500 0.370397
0.213626 0.599756 0.353246
0.305547 0.605188 0.341802
0.394934 0.609094 0.352148
0.465370 0.613947 0.361517
0.523613 0.620142 0.359899
0.578088 0.626612 0.356329
0.630091 0.633082 0.352605
0.679622 0.639704 0.348516
0.722316 0.641993 0.344121
0.759976 0.642481 0.340246
0.792752 0.641749 0.338293
0.820798 0.640497 0.340826
0.845518 0.638544 0.342626
0.867338 0.636316 0.343725
0.886717 0.633936 0.344976
0.904021 0.631495 0.345892
0.924102 0.633143 0.351446
0.943114 0.635767 0.359442
0.958679 0.641962 0.396185
0.972656 0.650690 0.435523
0.000000 0.590875 0.454505
0.000000 0.591241 0.454383
0.000000 0.591791 0.453956
0.000000 0.593072 0.453773
0.000000 0.595087 0.453132
0.000000 0.597742 0.452338
0.000000 0.601801 0.449348
0.000000 0.606744 0.444038
0.000000 0.612360 0.436805
0.000000 0.618494 0.427405
0.000000 0.624903 0.415229
0.000000 0.631495 0.399847
0.170413 0.637751 0.382544
0.273747 0.643427 0.366247
0.372900 0.647211 0.368811
0.454353 0.650965 0.379370
0.520378 0.655604 0.385931
0.576898 0.660975 0.382635
0.630335 0.666407 0.379034
0.680964 0.671809 0.375586
0.727657 0.675898 0.371893
0.765164 0.674464 0.368444
0.797910 0.671839 0.365911
0.826078 0.668544 0.365576
0.850187 0.665309 0.369024
0.871489 0.661891 0.371740
0.890471 0.658595 0.373510
0.907469 0.655421 0.375280
0.922698 0.652461 0.377295
0.940734 0.653956 0.384710
0.957610 0.658350 0.404639
0.970855 0.668635 0.451026
0.000000 0.632563 0.482765
0.000000 0.633021 0.482734
0.000000 0.633570 0.482551
0.000000 0.634791 0.482094
0.000000 0.636683 0.481453
0.000000 0.639246 0.480446
0.000000 0.642451 0.479225
0.000000 0.647272 0.474067
0.000000 0.652613 0.466804
0.000000 0.658595 0.457710
0.000000 0.664729 0.445655
0.000000 0.670985 0.430671
0.101045 0.676967 0.413581
0.240909 0.682155 0.396582
0.343542 0.686061 0.387640
