data/fiter_cube/23985691/1023004/file.cube
# Created by Adobe Lightroom plugin Export LUT (1.17.0)
# www.johnrellis.com/lightroom/exportlut.htm
# Preset: 日系风光建筑_05 云集
# Color profile: C:\Program Files (x86)\Common Files\Adobe\Color\Profiles\Recommended\AdobeRGB1998.icc
LUT_3D_SIZE 8
DOMAIN_MIN 0.000000 0.000000 0.000000
DOMAIN_MAX 0.903226 0.903226 0.903226
0.031861 0.061250 0.067536
0.081209 0.052552 0.067048
0.281865 0.000000 0.046693
0.570123 0.000000 0.000000
0.783383 0.054292 0.000000
0.924987 0.253056 0.000000
1.000000 0.360388 0.000000
1.000000 0.425544 0.000000
0.024445 0.079377 0.068757
0.073365 0.087648 0.064820
0.269993 0.094087 0.030518
0.556054 0.048981 0.000000
0.774594 0.167330 0.000000
0.913268 0.284215 0.000000
1.000000 0.378851 0.000000
1.000000 0.440833 0.000000
0.000000 0.189761 0.099489
0.000000 0.201724 0.088350
0.239628 0.245640 0.032807
0.550164 0.292119 0.000000
0.773251 0.346014 0.000000
0.911406 0.402289 0.000000
1.000000 0.466773 0.000000
1.000000 0.505180 0.000000
0.000000 0.407843 0.181735
0.000000 0.414282 0.167880
0.110140 0.431098 0.110750
0.520653 0.500175 0.000000
0.777676 0.546715 0.000000
0.910002 0.559777 0.000000
1.000000 0.584497 0.000000
1.000000 0.599176 0.000000
0.000000 0.620081 0.290684
0.000000 0.624201 0.284794
0.000000 0.634943 0.267033
0.383856 0.647425 0.213046
0.722866 0.691951 0.161532
0.887236 0.697292 0.121828
0.996704 0.705623 0.099123
1.000000 0.707454 0.098512
0.000000 0.792752 0.421698
0.000000 0.798489 0.425330
0.000000 0.797696 0.426947
0.334966 0.793820 0.363134
0.610285 0.795285 0.345739
0.852567 0.819059 0.329686
0.981811 0.821378 0.329320
1.000000 0.811704 0.345403
0.000000 0.917754 0.542260
0.000000 0.918151 0.545373
0.000000 0.912566 0.553918
0.417975 0.902434 0.561791
0.560693 0.894560 0.501610
0.772091 0.902983 0.497719
0.952178 0.916869 0.496407
1.000000 0.900053 0.511192
0.000000 1.000000 0.645563
0.000000 1.000000 0.650019
0.087617 1.000000 0.669306
0.514824 0.992859 0.712306
0.618189 0.984497 0.677058
0.741451 0.979980 0.669581
0.892393 0.982574 0.682643
1.000000 0.981537 0.682429
0.014557 0.061555 0.094545
0.080720 0.056336 0.095338
0.269902 0.000000 0.083650
0.553521 0.000000 0.018250
0.773159 0.069795 0.000000
0.909545 0.243046 0.000000
1.000000 0.354345 0.000000
1.000000 0.423865 0.000000
0.000000 0.085359 0.105043
0.072724 0.093568 0.104585
0.265446 0.104402 0.095064
0.548882 0.074830 0.026154
0.768612 0.170169 0.000000
0.903899 0.280644 0.000000
1.000000 0.375006 0.000000
1.000000 0.439094 0.000000
0.000000 0.200839 0.146273
0.000000 0.216617 0.148714
0.245731 0.253178 0.121859
0.542596 0.291814 0.064088
0.761715 0.341833 0.000000
0.899626 0.398444 0.000000
1.000000 0.461067 0.000000
1.000000 0.504814 0.000000
0.000000 0.412757 0.228733
0.000000 0.421973 0.225223
0.140475 0.439734 0.187381
0.508904 0.490730 0.148470
0.753323 0.529625 0.073732
0.890623 0.547326 0.000000
0.999756 0.577295 0.000000
1.000000 0.598871 0.000000
0.000000 0.627222 0.336492
0.000000 0.629603 0.332128
0.049195 0.635676 0.328985
0.383764 0.639185 0.269444
0.709377 0.681178 0.234440
0.875669 0.690730 0.211032
0.988373 0.703120 0.199100
1.000000 0.708003 0.195315
0.000000 0.790524 0.450782
0.000000 0.791470 0.450172
0.000000 0.790890 0.451179
0.346044 0.788510 0.398291
0.607172 0.790616 0.383642
0.847684 0.816831 0.376532
0.976501 0.820493 0.375769
1.000000 0.811948 0.384741
0.000000 0.911925 0.556451
0.000000 0.910277 0.556695
0.000000 0.905974 0.564935
0.440497 0.896208 0.589990
0.564324 0.891356 0.524041
0.767819 0.898985 0.519005
0.946075 0.912932 0.516960
1.000000 0.897887 0.528099
0.000000 1.000000 0.653895
0.000000 1.000000 0.658656
0.024292 1.000000 0.676905
0.509850 0.991760 0.717678
0.634913 0.986114 0.701411
0.745907 0.980285 0.688258
0.891508 0.981781 0.695796
1.000000 0.980529 0.693629
0.000000 0.070863 0.261631
0.000000 0.071595 0.262730
0.304845 0.000000 0.286809
0.575555 0.000000 0.239078
0.780056 0.126375 0.230381
0.909178 0.305211 0.230320
1.000000 0.404669 0.201755
1.000000 0.463844 0.143709
0.000000 0.116762 0.278172
0.000000 0.116854 0.278752
0.290867 0.117861 0.291783
0.557061 0.086122 0.255436
0.771542 0.212833 0.244572
0.903258 0.335729 0.235904
1.000000 0.423499 0.206821
1.000000 0.479255 0.154574
0.000000 0.248417 0.321202
0.000000 0.257328 0.320012
0.257420 0.281590 0.314000
0.546838 0.316350 0.300999
0.765286 0.379400 0.286931
0.897856 0.439979 0.270329
1.000000 0.498848 0.246983
1.000000 0.538293 0.208957
0.000000 0.451789 0.374853
0.000000 0.463050 0.376257
0.219181 0.479774 0.382330
0.523064 0.514366 0.362310
0.753079 0.552758 0.345953
0.887541 0.574823 0.332219
0.995544 0.606806 0.317205
1.000000 0.627283 0.294743
0.000000 0.651301 0.456184
0.000000 0.655604 0.459541
0.151400 0.662074 0.467994
0.433509 0.661402 0.435248
0.714504 0.696162 0.424048
0.869718 0.705135 0.412421
0.980774 0.720058 0.404089
1.000000 0.726131 0.397803
0.000000 0.803006 0.543359
0.000000 0.803830 0.546502
0.000000 0.801511 0.552087
0.439429 0.793423 0.546380
0.613977 0.790829 0.504906
0.839231 0.817746 0.508507
0.965972 0.825772 0.510277
1.000000 0.823056 0.518242
0.000000 0.919890 0.626429
0.000000 0.918395 0.628138
0.000000 0.912169 0.633906
0.461738 0.900694 0.651301
0.595087 0.893309 0.610864
0.769589 0.898985 0.605097
0.941222 0.915892 0.614130
1.000000 0.905211 0.627588
0.000000 1.000000 0.696071
0.000000 1.000000 0.697414
0.000000 1.000000 0.711513
0.510094 0.993347 0.747646
0.670130 0.983398 0.757229
0.759274 0.979767 0.735744
0.891905 0.981628 0.742336
1.000000 0.981476 0.744106
0.000000 0.096803 0.508843
0.000000 0.101961 0.511437
0.230350 0.092226 0.510033
0.607416 0.104585 0.555871
0.799680 0.238315 0.514397
0.893736 0.357641 0.472938
0.994781 0.466804 0.472847
1.000000 0.529778 0.455543
0.000000 0.160891 0.525902
0.000000 0.161837 0.525475
0.239811 0.167666 0.520867
0.599725 0.209995 0.559686
0.790616 0.293706 0.518303
0.889342 0.390509 0.481270
0.991638 0.485176 0.478309
1.000000 0.540551 0.456977
0.000000 0.299901 0.550103
0.000000 0.309575 0.549218
0.244724 0.330846 0.543908
0.571740 0.381140 0.567041
0.761013 0.416815 0.527092
0.883848 0.495369 0.520623
0.990661 0.560754 0.517174
1.000000 0.593347 0.487556
0.000000 0.498604 0.589837
0.000000 0.504875 0.588220
0.214389 0.522454 0.584466
0.525566 0.540032 0.575860
0.735866 0.573785 0.566857
0.869322 0.607538 0.558495
0.978851 0.643336 0.547875
1.000000 0.666529 0.529961
0.000000 0.684779 0.630182
0.000000 0.687221 0.629297
0.177829 0.694606 0.628992
0.511101 0.696193 0.632227
0.712673 0.712642 0.616785
0.857053 0.726955 0.610193
0.967315 0.744778 0.602564
1.000000 0.753292 0.591363
0.000000 0.825956 0.673274
0.000000 0.828611 0.677607
0.174502 0.822751 0.679164
0.499397 0.812741 0.684779
0.644953 0.802152 0.659968
0.833463 0.826810 0.666163
0.953552 0.838712 0.665827
1.000000 0.839963 0.666072
0.000000 0.930114 0.721096
0.000000 0.929351 0.722957
0.143526 0.924224 0.728298
0.488991 0.913909 0.738186
0.659632 0.902495 0.737148
0.776944 0.902068 0.715816
0.933623 0.919341 0.725887
1.000000 0.913054 0.733364
0.000000 1.000000 0.767880
0.000000 1.000000 0.769314
0.000000 1.000000 0.773129
0.489601 0.998352 0.789456
0.704646 0.982879 0.820279
0.776669 0.980102 0.795132
0.891264 0.981384 0.797116
1.000000 0.982422 0.802274
0.000000 0.161379 0.721065
0.000000 0.169375 0.721584
0.180911 0.182773 0.718227
0.522881 0.193545 0.713161
0.800168 0.385901 0.760281
0.912810 0.509392 0.731777
0.979492 0.564416 0.695705
1.000000 0.645808 0.706905
0.000000 0.226444 0.728115
0.000000 0.232273 0.728939
0.209171 0.244999 0.724758
0.524987 0.259495 0.717739
0.794247 0.424842 0.760891
0.907713 0.532219 0.734554
0.976287 0.578607 0.698909
1.000000 0.653498 0.708522
0.000000 0.372686 0.742397
0.000000 0.382757 0.741756
0.250187 0.396674 0.737118
0.525200 0.411719 0.728786
0.774655 0.523674 0.761807
0.887785 0.589166 0.737087
0.962982 0.624445 0.710018
1.000000 0.674800 0.709133
0.000000 0.537743 0.759945
0.000000 0.543633 0.758694
0.258000 0.560693 0.755306
0.530999 0.580407 0.747860
0.746822 0.637659 0.765591
0.858610 0.658808 0.739071
0.957397 0.689631 0.727230
1.000000 0.711818 0.709804
0.000000 0.701076 0.781399
0.000000 0.703700 0.780606
0.231235 0.708919 0.776638
0.523552 0.716152 0.770138
0.704189 0.722957 0.759091
0.838499 0.741817 0.752132
0.949859 0.763027 0.744320
1.000000 0.776608 0.733120
0.000000 0.830411 0.797208
0.000000 0.830106 0.796201
0.209354 0.826780 0.791745
0.511803 0.823087 0.787747
0.688106 0.815213 0.784390
0.822904 0.830106 0.779202
0.941161 0.848173 0.778897
1.000000 0.852720 0.775265
0.000000 0.937896 0.821714
0.000000 0.936431 0.821164
0.228092 0.931945 0.820493
0.507256 0.922820 0.821653
0.680873 0.911742 0.821805
0.777584 0.901976 0.798520
0.925292 0.920500 0.807523
1.000000 0.917845 0.810300
0.000000 1.000000 0.841581
0.000000 1.000000 0.841733
0.153872 1.000000 0.842557
0.483070 1.000000 0.847410
0.676081 0.989319 0.854246
0.798764 0.979919 0.856321
0.887877 0.979614 0.848905
0.994354 0.982208 0.856291
0.000000 0.270329 0.862181
0.000000 0.278752 0.861570
0.231937 0.299718 0.858824
0.516228 0.334020 0.854368
0.729763 0.408911 0.855039
0.909300 0.605585 0.878416
0.982300 0.709987 0.870146
1.000000 0.746395 0.852964
0.000000 0.320195 0.860777
0.000000 0.328130 0.859892
0.255650 0.345708 0.857328
0.516930 0.373602 0.852140
0.723873 0.436042 0.851774
0.904692 0.621332 0.877562
0.979858 0.716884 0.870268
1.000000 0.750301 0.853086
0.000000 0.451759 0.867979
0.000000 0.457160 0.866636
0.324468 0.477211 0.862547
0.535424 0.495674 0.856962
0.715084 0.524804 0.850217
0.895811 0.676753 0.880369
0.973754 0.744381 0.873625
1.000000 0.767147 0.855802
0.000000 0.583124 0.874571
0.000000 0.588251 0.873075
0.357519 0.608087 0.869963
0.569482 0.638422 0.865721
0.717739 0.651850 0.858518
0.885801 0.744289 0.886046
0.964782 0.782528 0.877684
1.000000 0.790372 0.857237
0.000000 0.709285 0.880034
0.000000 0.712367 0.879362
0.343389 0.722133 0.876890
0.563287 0.738705 0.872740
0.715480 0.752956 0.865171
0.862333 0.794919 0.881956
0.946410 0.803952 0.865232
1.000000 0.817777 0.854093
0.000000 0.826780 0.889036
0.000000 0.828550 0.889250
0.333471 0.830838 0.887266
0.552758 0.834470 0.883696
0.705379 0.838437 0.878294
0.824613 0.842557 0.870817
0.934203 0.857572 0.867277
1.000000 0.866941 0.861967
0.000000 0.941344 0.911620
0.000000 0.941405 0.911772
0.317021 0.938994 0.909972
0.543297 0.932769 0.905272
0.700130 0.928313 0.899626
0.817411 0.920470 0.891814
0.922179 0.926085 0.885801
0.998047 0.928832 0.886381
0.000000 1.000000 0.917449
0.000000 1.000000 0.916686
0.272557 1.000000 0.914397
0.519371 1.000000 0.912169
0.682338 0.994629 0.909789
0.811368 0.983825 0.910307
0.890166 0.977966 0.902892
0.989044 0.983093 0.910979
0.000000 0.406226 0.950378
0.116487 0.416571 0.950591
0.359533 0.436683 0.948333
0.550774 0.469337 0.944610
0.714229 0.509026 0.938567
0.870481 0.609186 0.941711
0.974640 0.753109 0.941955
1.000000 0.838468 0.938933
0.000000 0.434333 0.947417
0.162753 0.446876 0.947356
0.369604 0.464881 0.945251
0.550103 0.491218 0.941222
0.709438 0.524956 0.935088
0.863401 0.613977 0.937621
0.970855 0.752895 0.939696
1.000000 0.835660 0.936767
0.136080 0.527520 0.950317
0.240787 0.535149 0.949401
0.423835 0.561883 0.945800
0.574151 0.579858 0.941833
0.715450 0.600885 0.935515
0.857267 0.661860 0.936278
0.968231 0.784146 0.943084
1.000000 0.854734 0.941527
0.194003 0.631861 0.953368
0.273533 0.636591 0.952117
0.437324 0.653864 0.948669
0.610956 0.689509 0.943725
0.728420 0.700130 0.938537
0.848081 0.722560 0.935912
0.964416 0.827817 0.948333
1.000000 0.876524 0.946014
0.152010 0.728267 0.952850
0.244877 0.730587 0.951659
0.419867 0.740719 0.948821
0.591638 0.760128 0.945342
0.726772 0.777951 0.940154
0.830930 0.780392 0.934234
0.955138 0.862638 0.949645
1.000000 0.894347 0.947082
0.120058 0.826108 0.954986
0.230747 0.827604 0.954498
0.413245 0.832944 0.952880
0.585351 0.842679 0.950591
0.718654 0.851957 0.947723
0.834897 0.863798 0.943420
0.947295 0.905089 0.953948
0.996033 0.911101 0.944823
0.136904 0.916289 0.960204
0.241001 0.916991 0.960174
0.415869 0.917998 0.959045
0.582727 0.920500 0.957397
0.713680 0.923461 0.954711
0.829953 0.928191 0.951385
0.920958 0.931334 0.945922
0.991669 0.939147 0.943297
0.000000 1.000000 0.972564
0.085054 1.000000 0.972290
0.365698 1.000000 0.972778
0.551812 1.000000 0.971710
0.698116 0.996887 0.966522
0.827817 0.989349 0.961089
0.918303 0.982300 0.958434
0.985565 0.984497 0.955932
0.386023 0.558740 1.000000
0.423804 0.567803 0.999634
0.507012 0.580682 0.997711
0.621881 0.606409 0.995178
0.738796 0.638636 0.991547
0.846372 0.671809 0.987304
0.956329 0.761166 0.987701
1.000000 0.862791 0.976501
0.385138 0.570306 0.999023
0.430884 0.583764 0.998322
0.515465 0.598810 0.996460
0.624475 0.620691 0.993866
0.738582 0.649958 0.990417
0.844480 0.679835 0.986267
0.953887 0.763424 0.986694
1.000000 0.864439 0.976379
0.383337 0.610407 0.998230
0.427039 0.620844 0.997436
0.541650 0.653651 0.993957
0.644892 0.676295 0.992279
0.745388 0.695125 0.989105
0.843015 0.713893 0.985168
0.949248 0.781735 0.985626
1.000000 0.877409 0.977752
0.339208 0.661189 0.998749
0.391119 0.670008 0.998108
0.520012 0.697475 0.995026
0.664546 0.741817 0.990692
0.752926 0.753597 0.988251
0.842344 0.764767 0.985199
0.942840 0.812100 0.984985
1.000000 0.898650 0.980529
0.315282 0.736721 0.997803
0.362768 0.741115 0.997498
0.478737 0.753048 0.995483
0.612512 0.772335 0.992584
0.754025 0.809628 0.987549
0.838529 0.817929 0.984741
0.931395 0.842283 0.983551
0.998535 0.922881 0.983917
0.286015 0.816617 0.997223
0.331518 0.818051 0.996612
0.451667 0.823941 0.994720
0.592279 0.835355 0.992126
0.717617 0.849302 0.989502
0.845487 0.880064 0.986023
0.925139 0.890990 0.984863
0.996094 0.947295 0.987427
0.260746 0.894499 0.997894
0.310796 0.895109 0.997436
0.436591 0.897581 0.996033
0.584070 0.903532 0.994110
0.712734 0.911681 0.992004
0.833097 0.925841 0.989715
0.928923 0.944366 0.987701
0.992584 0.968505 0.989960
0.232273 0.966033 0.999481
0.288334 0.966033 0.999176
0.427893 0.966583 0.998383
0.586114 0.968719 0.997375
0.717494 0.972107 0.995880
0.835142 0.977050 0.993683
0.925109 0.982727 0.991669
0.983398 0.985840 0.989075
