data/fiter_cube/23985691/1023004/file.cube
# Created by Adobe Lightroom plugin Export LUT (1.17.0)
# www.johnrellis.com/lightroom/exportlut.htm
# Preset: 日系风光建筑_05 云集
# Color profile: C:\Program Files (x86)\Common Files\Adobe\Color\Profiles\Recommended\AdobeRGB1998.icc
LUT_3D_SIZE 32
DOMAIN_MIN 0.0 0.0 0.0
DOMAIN_MAX 1.0 1.0 1.0
0.031861 0.061250 0.067536
0.031861 0.061250 0.067536
0.031861 0.061250 0.067536
0.055879 0.059968 0.067353
0.081209 0.052552 0.067048
0.113283 0.044648 0.066041
0.158572 0.027192 0.063691
0.215640 0.000000 0.059327
0.281865 0.000000 0.046693
0.354040 0.000000 0.020661
0.429114 0.000000 0.000000
0.502281 0.000000 0.000000
0.570123 0.000000 0.000000
0.631922 0.000000 0.000000
0.687648 0.000000 0.000000
0.738155 0.000000 0.000000
0.783383 0.054292 0.000000
0.827390 0.133242 0.000000
0.863096 0.179568 0.000000
0.894865 0.217990 0.000000
0.924987 0.253056 0.000000
0.953368 0.284794 0.000000
0.979492 0.313115 0.000000
1.000000 0.338445 0.000000
1.000000 0.360388 0.000000
1.000000 0.379858 0.000000
1.000000 0.397131 0.000000
1.000000 0.412329 0.000000
1.000000 0.425544 0.000000
1.000000 0.437110 0.000000
1.000000 0.446754 0.000000
1.000000 0.454353 0.000000
0.031861 0.061250 0.067536
0.031861 0.061250 0.067536
0.031861 0.061250 0.067536
0.056886 0.059876 0.067353
0.080720 0.054536 0.066987
0.112490 0.052766 0.065797
0.157321 0.039368 0.063386
0.213504 0.005890 0.058991
0.279210 0.000000 0.045777
0.351263 0.000000 0.019654
0.425727 0.000000 0.000000
0.498787 0.000000 0.000000
0.566583 0.000000 0.000000
0.628412 0.000000 0.000000
0.684230 0.000000 0.000000
0.734859 0.000000 0.000000
0.780240 0.073762 0.000000
0.824094 0.138857 0.000000
0.859617 0.182742 0.000000
0.891142 0.219638 0.000000
0.921233 0.253605 0.000000
0.949737 0.284825 0.000000
0.976074 0.312902 0.000000
1.000000 0.338018 0.000000
1.000000 0.360266 0.000000
1.000000 0.379889 0.000000
1.000000 0.397223 0.000000
1.000000 0.412665 0.000000
1.000000 0.426093 0.000000
1.000000 0.437690 0.000000
1.000000 0.447425 0.000000
1.000000 0.455146 0.000000
0.031861 0.061250 0.067536
0.031861 0.061250 0.067536
0.031861 0.061250 0.067536
0.056886 0.059876 0.067353
0.080262 0.061250 0.066651
0.111543 0.061463 0.065400
0.155734 0.055970 0.062867
0.211643 0.030457 0.058228
0.276921 0.000000 0.044099
0.348455 0.000000 0.017762
0.422919 0.000000 0.000000
0.496101 0.000000 0.000000
0.563989 0.000000 0.000000
0.625971 0.000000 0.000000
0.681849 0.000000 0.000000
0.732723 0.000000 0.000000
0.778256 0.093843 0.000000
0.822080 0.149386 0.000000
0.857542 0.189914 0.000000
0.888945 0.224918 0.000000
0.919127 0.257603 0.000000
0.947723 0.287938 0.000000
0.974243 0.315587 0.000000
0.998627 0.340307 0.000000
1.000000 0.362371 0.000000
1.000000 0.381811 0.000000
1.000000 0.399084 0.000000
1.000000 0.414466 0.000000
1.000000 0.427802 0.000000
1.000000 0.439368 0.000000
1.000000 0.449042 0.000000
1.000000 0.456733 0.000000
0.030488 0.064637 0.067689
0.029999 0.065949 0.067567
0.030488 0.067597 0.067811
0.053773 0.071107 0.066529
0.078889 0.073060 0.065736
0.110048 0.074556 0.064332
0.154238 0.073579 0.061555
0.209689 0.067994 0.055177
0.274479 0.049866 0.039094
0.346044 0.000000 0.011749
0.420111 0.000000 0.000000
0.493050 0.000000 0.000000
0.560906 0.000000 0.000000
0.622797 0.000000 0.000000
0.678920 0.000000 0.000000
0.729854 0.077272 0.000000
0.776303 0.127535 0.000000
0.819516 0.171084 0.000000
0.854551 0.206027 0.000000
0.885496 0.237217 0.000000
0.915496 0.267124 0.000000
0.944091 0.295567 0.000000
0.971038 0.322210 0.000000
0.996063 0.346441 0.000000
1.000000 0.368444 0.000000
1.000000 0.387854 0.000000
1.000000 0.404974 0.000000
1.000000 0.420111 0.000000
1.000000 0.433143 0.000000
1.000000 0.444251 0.000000
1.000000 0.453498 0.000000
1.000000 0.460853 0.000000
0.024445 0.079377 0.068757
0.023957 0.080446 0.068666
0.024414 0.081758 0.068910
0.037751 0.083833 0.066621
0.073365 0.087648 0.064820
0.107424 0.092531 0.062348
0.150912 0.096254 0.059083
0.205753 0.097505 0.049592
0.269993 0.094087 0.030518
0.340948 0.085756 0.001678
0.414832 0.070954 0.000000
0.487831 0.052949 0.000000
0.556054 0.048981 0.000000
0.618341 0.071717 0.000000
0.674952 0.099428 0.000000
0.726528 0.132418 0.000000
0.774594 0.167330 0.000000
0.817472 0.201938 0.000000
0.852537 0.231174 0.000000
0.883482 0.257969 0.000000
0.913268 0.284215 0.000000
0.941863 0.310369 0.000000
0.968872 0.334905 0.000000
0.994110 0.358007 0.000000
1.000000 0.378851 0.000000
1.000000 0.397467 0.000000
1.000000 0.413916 0.000000
1.000000 0.428321 0.000000
1.000000 0.440833 0.000000
1.000000 0.451484 0.000000
1.000000 0.460334 0.000000
1.000000 0.467414 0.000000
0.016358 0.094636 0.069886
0.015473 0.095796 0.070130
0.014649 0.097200 0.069947
0.024048 0.099886 0.066438
0.061952 0.103883 0.065064
0.097810 0.111391 0.060883
0.147860 0.122591 0.051911
0.202579 0.129030 0.038025
0.266636 0.132845 0.015381
0.337530 0.132784 0.000000
0.411505 0.130343 0.000000
0.484443 0.128084 0.000000
0.552728 0.130526 0.000000
0.615351 0.140780 0.000000
0.672175 0.158755 0.000000
0.724056 0.181857 0.000000
0.773526 0.210147 0.000000
0.815946 0.237552 0.000000
0.851072 0.261662 0.000000
0.882231 0.284428 0.000000
0.912230 0.307866 0.000000
0.941161 0.331243 0.000000
0.987274 0.374060 0.000000
1.000000 0.393347 0.000000
1.000000 0.410254 0.000000
1.000000 0.425177 0.000000
1.000000 0.438392 0.000000
1.000000 0.449775 0.000000
1.000000 0.459754 0.000000
1.000000 0.468299 0.000000
1.000000 0.475227 0.000000
1.000000 0.480476 0.000000
0.000000 0.119051 0.076448
0.000000 0.120302 0.076600
0.000000 0.122042 0.076387
0.011933 0.125429 0.075410
0.045380 0.129305 0.070954
0.085206 0.137636 0.067414
0.136446 0.148959 0.060273
0.204654 0.166171 0.038636
0.270756 0.173404 0.011933
0.343267 0.178683 0.000000
0.418250 0.182040 0.000000
0.491554 0.184939 0.000000
0.559380 0.190982 0.000000
0.621241 0.201572 0.000000
0.677180 0.216129 0.000000
0.728206 0.234318 0.000000
0.778988 0.258885 0.000000
0.820615 0.280980 0.000000
0.855375 0.300816 0.000000
0.887114 0.320897 0.000000
0.918364 0.342596 0.000000
0.948821 0.364935 0.000000
0.977478 0.386938 0.000000
1.000000 0.407050 0.000000
1.000000 0.424781 0.000000
1.000000 0.439551 0.000000
1.000000 0.452308 0.000000
1.000000 0.463081 0.000000
1.000000 0.472328 0.000000
1.000000 0.480171 0.000000
1.000000 0.486458 0.000000
1.000000 0.491157 0.000000
0.000000 0.149844 0.085847
0.000000 0.151186 0.085634
0.000000 0.153079 0.085328
0.000000 0.156497 0.085206
0.008820 0.161410 0.074861
0.065370 0.166659 0.073823
0.117281 0.179019 0.067536
0.182895 0.193240 0.055970
0.264622 0.213657 0.015473
0.337316 0.221195 0.000000
0.412604 0.227878 0.000000
0.486091 0.234592 0.000000
0.554253 0.241794 0.000000
0.616297 0.251469 0.000000
0.672602 0.264042 0.000000
0.726528 0.281468 0.000000
0.775845 0.301183 0.000000
0.816861 0.319066 0.000000
0.851591 0.335546 0.000000
0.883207 0.351934 0.000000
0.914427 0.370520 0.000000
0.944854 0.390051 0.000000
0.973632 0.409644 0.000000
1.000000 0.427893 0.000000
1.000000 0.443854 0.000000
1.000000 0.457588 0.000000
1.000000 0.469123 0.000000
1.000000 0.478920 0.000000
1.000000 0.487434 0.000000
1.000000 0.494423 0.000000
1.000000 0.500053 0.000000
1.000000 0.504112 0.000000
0.000000 0.189761 0.099489
0.000000 0.191104 0.099245
0.000000 0.192752 0.098878
0.000000 0.196231 0.097108
0.000000 0.201724 0.088350
0.019226 0.207034 0.077150
0.093385 0.215244 0.073548
0.159579 0.229862 0.063508
0.239628 0.245640 0.032807
0.331945 0.267674 0.000000
0.407721 0.275517 0.000000
0.481636 0.283085 0.000000
0.550164 0.292119 0.000000
0.612451 0.302464 0.000000
0.669917 0.314214 0.000000
0.724849 0.330083 0.000000
0.773251 0.346014 0.000000
0.813962 0.360418 0.000000
0.848569 0.373388 0.000000
0.880217 0.386755 0.000000
0.911406 0.402289 0.000000
0.941833 0.419104 0.000000
0.970642 0.436164 0.000000
0.997131 0.452430 0.000000
1.000000 0.466773 0.000000
1.000000 0.478828 0.000000
1.000000 0.489174 0.000000
1.000000 0.497810 0.000000
1.000000 0.505180 0.000000
1.000000 0.511254 0.000000
1.000000 0.516075 0.000000
1.000000 0.519402 0.000000
0.000000 0.236851 0.116701
0.000000 0.237919 0.116487
0.000000 0.239384 0.115541
0.000000 0.242863 0.111604
0.000000 0.247959 0.104768
0.000000 0.253758 0.081209
0.060334 0.258915 0.079377
0.132143 0.270420 0.072297
0.211063 0.286381 0.053285
0.302525 0.302953 0.000000
0.401068 0.325750 0.000000
0.475471 0.333349 0.000000
0.544640 0.341741 0.000000
0.607599 0.351537 0.000000
0.668635 0.366186 0.000000
0.723079 0.379980 0.000000
0.771511 0.393225 0.000000
0.812284 0.404639 0.000000
0.846921 0.414649 0.000000
0.878416 0.424842 0.000000
0.909270 0.437263 0.000000
0.939025 0.450965 0.000000
0.967285 0.464973 0.000000
0.993408 0.478553 0.000000
1.000000 0.490974 0.000000
1.000000 0.501579 0.000000
1.000000 0.510674 0.000000
1.000000 0.518425 0.000000
1.000000 0.524987 0.000000
1.000000 0.530358 0.000000
1.000000 0.534478 0.000000
1.000000 0.537102 0.000000
0.000000 0.287785 0.136233
0.000000 0.288853 0.135134
0.000000 0.290440 0.133242
0.000000 0.293523 0.129000
0.000000 0.298222 0.122011
0.000000 0.304356 0.108370
0.000000 0.309880 0.086671
0.095827 0.315068 0.083833
0.180972 0.330358 0.070771
0.270817 0.346960 0.033112
0.370001 0.363561 0.000000
0.469490 0.386389 0.000000
0.539300 0.393744 0.000000
0.605982 0.404730 0.000000
0.665888 0.416297 0.000000
0.719661 0.428290 0.000000
0.767636 0.439734 0.000000
0.808347 0.448157 0.000000
0.843168 0.455268 0.000000
0.874784 0.462776 0.000000
0.905699 0.472694 0.000000
0.935668 0.484016 0.000000
0.964111 0.496132 0.000000
0.990417 0.507897 0.000000
1.000000 0.518456 0.000000
1.000000 0.527489 0.000000
1.000000 0.535088 0.000000
1.000000 0.541558 0.000000
1.000000 0.546929 0.000000
1.000000 0.551232 0.000000
1.000000 0.554498 0.000000
1.000000 0.556420 0.000000
0.000000 0.343206 0.156710
0.000000 0.344335 0.155459
0.000000 0.345556 0.153414
0.000000 0.348394 0.149172
0.000000 0.352667 0.142580
0.000000 0.358160 0.135103
0.000000 0.364202 0.098299
0.029816 0.368780 0.095705
0.144503 0.375677 0.090517
0.238560 0.392554 0.072297
0.336339 0.408698 0.020294
0.438575 0.425055 0.000000
0.557916 0.468605 0.000000
0.625574 0.478523 0.000000
0.685573 0.487861 0.000000
0.738857 0.496742 0.000000
0.784421 0.504112 0.000000
0.822446 0.509270 0.000000
0.854887 0.512810 0.000000
0.885771 0.517357 0.000000
0.915679 0.523949 0.000000
0.944244 0.531884 0.000000
0.971069 0.540185 0.000000
0.995880 0.548455 0.000000
1.000000 0.555779 0.000000
1.000000 0.562005 0.000000
1.000000 0.567193 0.000000
1.000000 0.571435 0.000000
1.000000 0.574884 0.000000
1.000000 0.577478 0.000000
1.000000 0.579309 0.000000
1.000000 0.579950 0.000000
0.000000 0.407843 0.181735
0.000000 0.408728 0.180575
0.000000 0.409461 0.178439
0.000000 0.411292 0.174014
0.000000 0.414282 0.167880
0.000000 0.418219 0.161227
0.000000 0.422858 0.145998
0.000000 0.427253 0.113771
0.110140 0.431098 0.110750
0.205509 0.441230 0.101991
0.306950 0.458228 0.082612
0.414343 0.478920 0.035492
0.520653 0.500175 0.000000
0.615991 0.526482 0.000000
0.677455 0.534478 0.000000
0.731472 0.541650 0.000000
0.777676 0.546715 0.000000
0.816129 0.549523 0.000000
0.848997 0.551446 0.000000
0.879942 0.555077 0.000000
0.910002 0.559777 0.000000
0.938842 0.565637 0.000000
0.965881 0.572229 0.000000
0.990997 0.578698 0.000000
1.000000 0.584497 0.000000
1.000000 0.589410 0.000000
1.000000 0.593469 0.000000
1.000000 0.596674 0.000000
1.000000 0.599176 0.000000
1.000000 0.601038 0.000000
1.000000 0.602136 0.000000
1.000000 0.602289 0.000000
0.000000 0.463447 0.205814
0.000000 0.464027 0.204410
0.000000 0.464668 0.202365
0.000000 0.466316 0.198856
0.000000 0.468605 0.193271
0.000000 0.471687 0.187716
0.000000 0.475776 0.182834
0.000000 0.480262 0.140963
0.042329 0.483314 0.132906
0.170230 0.487129 0.129885
0.273869 0.503258 0.120394
0.380926 0.521843 0.103120
0.484627 0.539361 0.075868
0.582422 0.557641 0.000000
0.668757 0.580255 0.000000
0.723690 0.585534 0.000000
0.770230 0.588495 0.000000
0.809201 0.589410 0.000000
0.842649 0.589410 0.000000
0.873960 0.591089 0.000000
0.904326 0.594965 0.000000
0.933440 0.600183 0.000000
0.960876 0.605097 0.000000
0.986358 0.610224 0.000000
1.000000 0.614679 0.000000
1.000000 0.618341 0.000000
1.000000 0.621180 0.000000
1.000000 0.623346 0.000000
1.000000 0.624964 0.000000
1.000000 0.626093 0.000000
1.000000 0.626551 0.000000
1.000000 0.626184 0.000000
0.000000 0.517723 0.231571
0.000000 0.518364 0.230625
0.000000 0.518761 0.228977
0.000000 0.519982 0.225620
0.000000 0.521782 0.221042
0.000000 0.524193 0.216281
0.000000 0.527276 0.212558
0.000000 0.530755 0.198001
0.000000 0.536156 0.160678
0.144625 0.540398 0.158724
0.237766 0.545129 0.155917
0.347021 0.561822 0.145480
0.450629 0.577661 0.130861
0.546807 0.592889 0.110384
0.636408 0.608759 0.076295
0.715053 0.627924 0.000000
0.763058 0.629999 0.000000
0.802457 0.628962 0.000000
0.836393 0.627314 0.000000
0.868009 0.627192 0.000000
0.898589 0.629328 0.000000
0.927947 0.633021 0.000000
0.955596 0.637598 0.000000
0.981415 0.641688 0.000000
1.000000 0.645045 0.000000
1.000000 0.647669 0.000000
1.000000 0.649775 0.000000
1.000000 0.651331 0.000000
1.000000 0.652308 0.000000
1.000000 0.652949 0.000000
1.000000 0.652979 0.000000
1.000000 0.652186 0.000000
0.000000 0.569268 0.259525
0.000000 0.569879 0.258824
0.000000 0.570367 0.257420
0.000000 0.571527 0.254887
0.000000 0.573175 0.251164
0.000000 0.576715 0.248386
0.000000 0.580713 0.246586
0.000000 0.584955 0.246189
0.000000 0.589746 0.204440
0.111452 0.592767 0.191714
0.221408 0.594751 0.189303
0.314061 0.600732 0.184421
0.417609 0.614191 0.174624
0.513329 0.626978 0.161929
0.600641 0.639338 0.144808
0.682338 0.652735 0.120790
0.753445 0.668269 0.088441
0.795010 0.667323 0.069825
0.829923 0.664515 0.048066
0.862303 0.663203 0.009644
0.893584 0.664271 0.000000
0.923522 0.666804 0.000000
0.951659 0.670192 0.000000
0.977752 0.673762 0.000000
1.000000 0.676936 0.000000
1.000000 0.678584 0.000000
1.000000 0.679591 0.000000
1.000000 0.680201 0.000000
1.000000 0.680385 0.000000
1.000000 0.680049 0.000000
1.000000 0.679255 0.000000
1.000000 0.677882 0.000000
0.000000 0.620081 0.290684
0.000000 0.620539 0.289799
0.000000 0.621118 0.288975
0.000000 0.622339 0.287144
0.000000 0.624201 0.284794
0.000000 0.626520 0.282414
0.000000 0.629206 0.281163
0.000000 0.631983 0.280583
0.000000 0.634943 0.267033
0.033326 0.638239 0.224674
0.201846 0.639185 0.222049
0.289342 0.639612 0.218875
0.383856 0.647425 0.213046
0.480446 0.659052 0.204379
0.568109 0.670192 0.193179
0.648066 0.680720 0.179477
0.722866 0.691951 0.161532
0.786130 0.703212 0.142275
0.822873 0.700313 0.134676
0.855589 0.697688 0.128389
0.887236 0.697292 0.121828
0.917479 0.698604 0.115084
0.946014 0.700771 0.108675
0.972564 0.703365 0.103487
0.996704 0.705623 0.099123
1.000000 0.707301 0.096620
1.000000 0.708095 0.095277
1.000000 0.708003 0.096254
1.000000 0.707454 0.098512
1.000000 0.706600 0.101350
1.000000 0.705379 0.103853
1.000000 0.703700 0.106111
0.000000 0.668666 0.323674
0.000000 0.669337 0.323339
0.000000 0.683619 0.332982
0.000000 0.684504 0.331518
0.000000 0.685695 0.329931
0.000000 0.687037 0.328313
0.000000 0.688502 0.327306
0.000000 0.689815 0.326970
0.000000 0.690944 0.327855
0.069520 0.693507 0.285130
0.194766 0.693996 0.266667
0.288823 0.692866 0.263066
0.364599 0.690974 0.258366
0.459968 0.700008 0.252171
0.547051 0.709255 0.244388
0.626093 0.717647 0.234867
0.698451 0.725399 0.224094
0.765682 0.733730 0.210758
0.820768 0.740261 0.197971
0.854246 0.736782 0.193484
0.885649 0.734737 0.188846
0.915709 0.734432 0.185061
0.944091 0.735103 0.181308
0.970306 0.735988 0.178714
0.993957 0.736446 0.176516
1.000000 0.736507 0.174960
1.000000 0.736172 0.174289
1.000000 0.735622 0.174929
1.000000 0.734340 0.177035
1.000000 0.732784 0.180819
1.000000 0.731106 0.185458
1.000000 0.729030 0.190311
0.000000 0.717342 0.359747
0.000000 0.719478 0.360998
0.000000 0.721706 0.361975
0.000000 0.724056 0.362341
0.000000 0.726101 0.362127
0.000000 0.727596 0.361547
0.000000 0.728634 0.360754
0.000000 0.729274 0.360662
0.000000 0.729732 0.361364
0.124758 0.730343 0.347082
0.171328 0.732082 0.300542
0.274174 0.730434 0.296666
0.353155 0.728084 0.292088
0.427192 0.727626 0.286839
0.515099 0.735348 0.281163
0.594263 0.742367 0.274479
0.666377 0.748867 0.266606
0.732509 0.754971 0.257542
0.794400 0.761898 0.247562
0.845884 0.767575 0.237919
0.878355 0.765194 0.234958
0.909026 0.764187 0.232517
0.937957 0.764096 0.230533
0.964691 0.764309 0.229404
0.988830 0.764096 0.228672
1.000000 0.763516 0.228794
1.000000 0.762478 0.229526
1.000000 0.761349 0.231846
1.000000 0.760098 0.235294
1.000000 0.758602 0.240330
1.000000 0.756466 0.246464
1.000000 0.754116 0.253758
0.000000 0.757168 0.391394
0.000000 0.758999 0.392645
0.000000 0.760891 0.393774
0.000000 0.762722 0.394354
0.000000 0.764279 0.394354
0.000000 0.765255 0.394018
0.000000 0.765682 0.393683
0.000000 0.765713 0.393713
0.000000 0.765499 0.394537
0.149081 0.764675 0.396368
0.190036 0.766079 0.354803
0.262028 0.765438 0.331975
0.343145 0.762661 0.327245
0.411414 0.759518 0.322087
0.485573 0.760983 0.317021
0.564874 0.766842 0.312108
0.636927 0.772244 0.306401
0.702907 0.777218 0.300237
0.763912 0.782345 0.293217
0.821927 0.788937 0.285252
0.871519 0.795041 0.277806
0.902586 0.793301 0.276249
0.932006 0.792538 0.275608
0.959136 0.792050 0.275364
0.983642 0.791196 0.275669
1.000000 0.789822 0.276493
1.000000 0.788113 0.277989
1.000000 0.786313 0.281163
1.000000 0.784482 0.285801
1.000000 0.782620 0.291936
1.000000 0.780758 0.299077
1.000000 0.778378 0.307927
0.000000 0.792752 0.421698
0.000000 0.794278 0.422919
0.000000 0.795926 0.424079
0.000000 0.797391 0.424872
0.000000 0.798489 0.425330
0.000000 0.799008 0.425360
0.000000 0.799008 0.425269
0.000000 0.798581 0.425727
0.000000 0.797696 0.426947
0.131167 0.796323 0.429053
0.231632 0.795651 0.415290
0.252903 0.796689 0.367834
0.334966 0.793820 0.363134
0.403418 0.790555 0.357946
0.462989 0.787076 0.352239
0.537591 0.790402 0.348699
0.610285 0.795285 0.345739
0.677058 0.800381 0.342168
0.739101 0.805905 0.338354
0.797208 0.811826 0.334325
0.852567 0.819059 0.329686
0.900420 0.825681 0.325383
0.929625 0.823819 0.325841
0.957153 0.822812 0.327306
0.981811 0.821378 0.329320
1.000000 0.819272 0.332036
1.000000 0.816831 0.335271
1.000000 0.814298 0.339666
1.000000 0.811704 0.345403
1.000000 0.809201 0.352850
1.000000 0.806760 0.361791
1.000000 0.804196 0.371923
0.000000 0.829831 0.456092
0.000000 0.830472 0.456550
0.000000 0.830991 0.456916
0.000000 0.831388 0.457221
0.000000 0.831662 0.457313
0.000000 0.831510 0.457649
0.000000 0.831083 0.458106
0.000000 0.830350 0.459297
0.000000 0.829252 0.461341
0.130220 0.827726 0.464576
0.268040 0.825559 0.469184
0.290623 0.826413 0.430854
0.337530 0.825345 0.405615
0.403754 0.822110 0.400549
0.461769 0.818631 0.394751
0.516503 0.815763 0.388952
0.588952 0.820218 0.386999
0.655604 0.824887 0.384497
0.717433 0.829862 0.382055
0.775265 0.835019 0.379126
0.829313 0.840391 0.375921
0.880919 0.846799 0.371832
0.925383 0.851987 0.368109
0.951324 0.848631 0.368444
0.976165 0.846433 0.370642
0.998322 0.843809 0.373571
1.000000 0.840909 0.377630
1.000000 0.837858 0.382971
1.000000 0.834836 0.389899
1.000000 0.831876 0.398077
1.000000 0.829099 0.408057
1.000000 0.826139 0.419135
0.000000 0.858640 0.483497
0.000000 0.859251 0.484230
0.000000 0.859800 0.484779
0.000000 0.860136 0.485328
0.000000 0.860197 0.485878
0.000000 0.859861 0.486397
0.000000 0.859190 0.487404
0.000000 0.858122 0.488869
0.000000 0.856748 0.491524
0.125643 0.854917 0.495216
0.267491 0.852567 0.500359
0.330541 0.851286 0.488869
0.338750 0.852476 0.443336
0.403296 0.849485 0.438453
0.459785 0.846311 0.433051
0.511101 0.843046 0.427253
0.567712 0.842710 0.423194
0.634577 0.847257 0.422187
0.696559 0.851926 0.421088
0.754330 0.856840 0.419898
0.808438 0.861906 0.418463
0.859129 0.867002 0.416724
0.907561 0.872862 0.414496
0.948821 0.876677 0.412116
0.969574 0.869688 0.407446
0.992065 0.866606 0.410712
1.000000 0.863340 0.415595
1.000000 0.859922 0.421485
1.000000 0.856504 0.428931
1.000000 0.853208 0.438148
1.000000 0.850187 0.449531
1.000000 0.847013 0.461646
0.000000 0.891173 0.515862
0.000000 0.891814 0.516777
0.000000 0.892149 0.517357
0.000000 0.892149 0.517967
0.000000 0.891814 0.518486
0.000000 0.891051 0.519188
0.000000 0.889891 0.520287
0.000000 0.888304 0.521935
0.000000 0.886229 0.524590
0.136599 0.883757 0.528344
0.273564 0.880766 0.533288
0.364446 0.877409 0.539727
0.377447 0.877806 0.504417
0.407874 0.876768 0.477607
0.461402 0.873320 0.471656
0.510369 0.869780 0.465248
0.555962 0.866239 0.458717
0.614191 0.867765 0.456062
0.675837 0.871977 0.455665
0.733547 0.876493 0.455512
0.787533 0.881163 0.455482
0.837949 0.885801 0.455177
0.885039 0.890105 0.454231
0.929992 0.894774 0.452216
0.967285 0.896452 0.449836
0.986877 0.890013 0.450263
1.000000 0.886107 0.454994
1.000000 0.882048 0.461036
1.000000 0.878111 0.468727
1.000000 0.874388 0.478462
1.000000 0.870939 0.490242
1.000000 0.867460 0.503471
0.000000 0.917754 0.542260
0.000000 0.918334 0.543175
0.000000 0.918639 0.543908
0.000000 0.918608 0.544640
0.000000 0.918151 0.545373
0.000000 0.917357 0.546532
0.000000 0.916197 0.548272
0.000000 0.914611 0.550561
0.000000 0.912566 0.553918
0.146487 0.910155 0.558495
0.280430 0.907256 0.564263
0.371221 0.904051 0.571649
0.417975 0.902434 0.561791
0.422339 0.903441 0.521355
0.469795 0.900786 0.513359
0.516716 0.897673 0.507591
0.560693 0.894560 0.501610
0.602136 0.891691 0.495583
0.662165 0.895171 0.495949
0.719020 0.899077 0.496742
0.772091 0.902983 0.497719
0.821653 0.906798 0.498299
0.867765 0.910369 0.498421
0.910887 0.913512 0.497932
0.952178 0.916869 0.496407
0.985595 0.916655 0.494850
1.000000 0.908934 0.495827
1.000000 0.904417 0.502617
1.000000 0.900053 0.511192
1.000000 0.895964 0.521904
1.000000 0.892027 0.534234
1.000000 0.888243 0.548608
0.000000 0.944701 0.569818
0.000000 0.945037 0.570581
0.000000 0.945098 0.571069
0.000000 0.944762 0.571740
0.000000 0.944121 0.572625
0.000000 0.943084 0.573877
0.000000 0.941680 0.575799
0.000000 0.939879 0.578485
0.000000 0.937682 0.582391
0.159945 0.935149 0.587457
0.289647 0.932219 0.593896
0.379309 0.929046 0.601953
0.453376 0.925505 0.611414
0.461463 0.926299 0.580133
0.481422 0.925933 0.554192
0.525475 0.923156 0.548760
0.567102 0.920348 0.543145
0.606836 0.917693 0.537560
0.650202 0.916716 0.533928
0.705837 0.919890 0.535363
0.757748 0.923064 0.536980
0.806119 0.926055 0.538537
0.851133 0.928801 0.539666
0.893126 0.931243 0.540215
0.932616 0.933318 0.539910
0.970611 0.935546 0.538811
1.000000 0.933928 0.537987
1.000000 0.925383 0.539269
1.000000 0.920256 0.547753
1.000000 0.915709 0.558831
1.000000 0.911315 0.571313
1.000000 0.907195 0.586389
0.000000 0.968872 0.594598
0.000000 0.969024 0.595300
0.000000 0.968994 0.595789
0.000000 0.968719 0.596704
0.000000 0.968139 0.598108
0.000000 0.967376 0.600275
0.000000 0.966400 0.603510
0.000000 0.965148 0.607904
0.000000 0.963500 0.613733
0.197330 0.961517 0.620905
0.315801 0.959136 0.629633
0.403357 0.956390 0.639796
0.476661 0.953216 0.651331
0.514580 0.951934 0.645441
0.518059 0.953399 0.613062
0.551598 0.951720 0.603662
0.589380 0.949401 0.598901
0.625788 0.947173 0.594018
0.661250 0.945129 0.589593
0.705226 0.945434 0.588830
0.754269 0.947478 0.591150
0.800046 0.949401 0.593408
0.842588 0.951110 0.595148
0.882383 0.952575 0.596490
0.919768 0.953735 0.597192
0.955169 0.954681 0.597223
0.989532 0.955749 0.596460
1.000000 0.952605 0.596155
1.000000 0.943359 0.598199
1.000000 0.937438 0.607599
1.000000 0.932525 0.620569
1.000000 0.927794 0.635889
0.000000 0.995392 0.624353
0.000000 0.995422 0.624933
0.000000 0.995209 0.625483
0.000000 0.994720 0.626398
0.000000 0.993835 0.627985
0.000000 0.992676 0.630365
0.000000 0.991180 0.633722
0.000000 0.989288 0.638239
0.000000 0.987030 0.644099
0.232975 0.984344 0.651423
0.339635 0.981262 0.660121
0.422675 0.977874 0.670405
0.493385 0.974182 0.682063
0.555779 0.970245 0.695003
