data/fiter_cube/23985691/1023004/file.cube
# Created by Adobe Lightroom plugin Export LUT (1.17.0)
# www.johnrellis.com/lightroom/exportlut.htm
# Preset: 日系风光建筑_05 云集
# Color profile: C:\Program Files (x86)\Common Files\Adobe\Color\Profiles\Recommended\AdobeRGB1998.icc
LUT_3D_SIZE 5
DOMAIN_MIN 0.000000 0.000000 0.000000
DOMAIN_MAX 0.903226 0.903226 0.903226
0.031861 0.061250 0.067536
0.215640 0.000000 0.059327
0.687648 0.000000 0.000000
0.953368 0.284794 0.000000
1.000000 0.425544 0.000000
0.000000 0.149844 0.085847
0.182895 0.193240 0.055970
0.672602 0.264042 0.000000
0.944854 0.390051 0.000000
1.000000 0.487434 0.000000
0.000000 0.517723 0.231571
0.000000 0.530755 0.198001
0.636408 0.608759 0.076295
0.927947 0.633021 0.000000
1.000000 0.652308 0.000000
0.000000 0.829831 0.456092
0.000000 0.830350 0.459297
0.461769 0.818631 0.394751
0.880919 0.846799 0.371832
1.000000 0.834836 0.389899
0.000000 1.000000 0.645563
0.000000 1.000000 0.662470
0.591089 0.983642 0.711086
0.783200 0.980835 0.673487
1.000000 0.981537 0.682429
0.000000 0.065278 0.202365
0.227817 0.000000 0.223545
0.676234 0.000000 0.172671
0.935180 0.307439 0.133486
1.000000 0.446204 0.000000
0.000000 0.194827 0.253513
0.194156 0.220829 0.248814
0.667567 0.285222 0.219242
0.929076 0.411505 0.173648
1.000000 0.508507 0.063691
0.000000 0.545190 0.369970
0.000000 0.561089 0.377844
0.622827 0.604303 0.333471
0.909911 0.639643 0.305760
1.000000 0.671046 0.288640
0.000000 0.837644 0.546868
0.000000 0.836851 0.554742
0.505333 0.823026 0.516686
0.872618 0.847440 0.504540
1.000000 0.842588 0.515312
0.000000 1.000000 0.686122
0.000000 1.000000 0.699977
0.628260 0.985473 0.763729
0.790829 0.980896 0.725429
1.000000 0.982391 0.735256
0.000000 0.123690 0.623713
0.000000 0.137240 0.622339
0.722927 0.252415 0.675074
0.921813 0.434272 0.590997
1.000000 0.584192 0.591547
0.000000 0.296086 0.648981
0.124514 0.314031 0.643977
0.700008 0.414557 0.679255
0.901610 0.513787 0.609949
1.000000 0.617792 0.600244
0.000000 0.611719 0.698756
0.000000 0.622126 0.693812
0.624537 0.641108 0.677943
0.882567 0.686976 0.665431
1.000000 0.725429 0.644678
0.000000 0.858488 0.746151
0.000000 0.855100 0.744503
0.606989 0.839445 0.751400
0.856260 0.854551 0.739742
1.000000 0.863737 0.735653
0.000000 1.000000 0.803433
0.000000 1.000000 0.806699
0.594415 0.993011 0.823728
0.804105 0.978576 0.819608
0.997131 0.981750 0.827115
0.000000 0.298405 0.885130
0.149111 0.322393 0.883452
0.619562 0.385687 0.874907
0.928771 0.647517 0.897826
1.000000 0.769223 0.878294
0.000000 0.432410 0.887968
0.263279 0.455970 0.884733
0.624720 0.494820 0.875456
0.919768 0.691066 0.898528
1.000000 0.782498 0.879515
0.000000 0.649561 0.895384
0.299687 0.663355 0.892363
0.648493 0.703151 0.881865
0.894987 0.777737 0.898344
1.000000 0.817075 0.879088
0.000000 0.855619 0.912230
0.294499 0.856077 0.909545
0.640009 0.861723 0.904082
0.851469 0.867918 0.892973
1.000000 0.885588 0.884733
0.000000 1.000000 0.934813
0.218906 1.000000 0.932494
0.618189 1.000000 0.927062
0.843839 0.983429 0.924773
0.987793 0.983185 0.922881
0.386023 0.558740 1.000000
0.482002 0.576287 0.998260
0.681209 0.622217 0.993530
0.872007 0.680232 0.986297
1.000000 0.862791 0.976501
0.389288 0.600488 0.998718
0.515312 0.636255 0.995666
0.692164 0.671626 0.991333
0.868284 0.709926 0.984649
1.000000 0.874327 0.977539
0.327855 0.697841 0.998291
0.451423 0.711727 0.996216
0.708309 0.774655 0.988556
0.860044 0.789731 0.983337
0.999634 0.910124 0.982055
0.291783 0.838346 0.997955
0.422797 0.843137 0.996185
0.659693 0.860410 0.991882
0.867826 0.897276 0.986023
0.995209 0.952575 0.988037
0.232273 0.966033 0.999481
0.388708 0.966308 0.998596
0.655085 0.970428 0.996857
0.860868 0.978515 0.993133
0.983398 0.985840 0.989075
