data/fiter_cube/89350833/1022879/file.cube
# Created by Adobe Lightroom plugin Export LUT (1.24.0)
# www.johnrellis.com/lightroom/exportlut.htm
# Preset: 婚礼接亲预设[余晖]-9 保证书
# Color profile: C:\Windows\System32\Spool\Drivers\Color\AppleRGB.icc
LUT_3D_SIZE 8
DOMAIN_MIN 0.000000 0.000000 0.000000
DOMAIN_MAX 0.903226 0.903226 0.903226
0.014099 0.056947 0.055695
0.060670 0.062837 0.059968
0.193179 0.058900 0.063539
0.419715 0.000000 0.066316
0.659541 0.000000 0.065492
0.861570 0.130343 0.062684
1.000000 0.261906 0.097139
1.000000 0.352697 0.173648
0.040192 0.083467 0.089876
0.082704 0.098756 0.078431
0.189425 0.111879 0.073671
0.388067 0.122347 0.074983
0.613306 0.151553 0.073060
0.827268 0.226078 0.071778
0.992309 0.317601 0.103151
1.000000 0.391394 0.174533
0.140078 0.175753 0.212406
0.148623 0.184604 0.224033
0.285832 0.240299 0.146731
0.436683 0.254490 0.096864
0.591730 0.315892 0.099428
0.794156 0.387366 0.110719
0.966155 0.460182 0.163729
1.000000 0.506523 0.240818
0.289830 0.344091 0.423011
0.300175 0.356268 0.437140
0.359106 0.402472 0.437140
0.569940 0.494118 0.302922
0.718868 0.495308 0.173220
0.826535 0.532586 0.198734
0.920256 0.573938 0.227481
1.000000 0.605737 0.287602
0.459510 0.531884 0.618372
0.464637 0.537102 0.623133
0.482033 0.554742 0.639033
0.592920 0.618677 0.586114
0.742580 0.658137 0.456062
0.853391 0.635065 0.294560
0.930541 0.654170 0.321965
0.992920 0.679011 0.367529
0.622614 0.689204 0.750332
0.636683 0.702022 0.760311
0.647089 0.711391 0.767575
0.671107 0.729885 0.771450
0.764492 0.768185 0.702449
0.858274 0.778347 0.610651
0.935088 0.753872 0.500572
0.996551 0.753170 0.487129
0.756832 0.807034 0.842374
0.760830 0.810361 0.845029
0.765225 0.814084 0.847959
0.773404 0.820951 0.853422
0.806821 0.838468 0.835355
0.861936 0.854215 0.792233
0.920775 0.853208 0.730556
0.973968 0.830625 0.653895
0.844053 0.878599 0.899901
0.845396 0.879667 0.900786
0.849363 0.882841 0.903380
0.856718 0.888731 0.908141
0.858335 0.889311 0.905730
0.892424 0.905150 0.887266
0.927733 0.913695 0.863706
0.964477 0.911101 0.827207
0.000000 0.064057 0.102632
0.030426 0.065583 0.104463
0.171725 0.054994 0.135836
0.412634 0.000000 0.139040
0.667903 0.000000 0.163699
0.865110 0.097658 0.182773
1.000000 0.234775 0.218906
1.000000 0.334997 0.273106
0.023316 0.097658 0.126040
0.061494 0.116182 0.143801
0.211856 0.109895 0.147860
0.419471 0.115694 0.158846
0.637018 0.142458 0.171206
0.835569 0.214023 0.189456
0.981842 0.299870 0.219516
1.000000 0.377478 0.271702
0.149294 0.185397 0.225040
0.173526 0.211307 0.258732
0.255528 0.253269 0.235813
0.413794 0.271031 0.188540
0.590417 0.320287 0.198764
0.787137 0.376654 0.217563
0.943969 0.437232 0.254948
1.000000 0.490394 0.316106
0.296941 0.352422 0.432715
0.312047 0.370123 0.453040
0.333104 0.394751 0.480446
0.505486 0.467292 0.365270
0.652918 0.465675 0.251530
0.768673 0.505760 0.267491
0.881834 0.551965 0.287022
0.993317 0.588983 0.342046
0.468574 0.541100 0.626764
0.471656 0.544244 0.629603
0.484260 0.556970 0.641016
0.554131 0.600580 0.615198
0.701198 0.641505 0.495064
0.823575 0.622065 0.343053
0.905669 0.647486 0.374914
0.973816 0.673884 0.407233
0.620569 0.687343 0.748867
0.625696 0.692012 0.752499
0.637659 0.702876 0.760952
0.656641 0.719966 0.774228
0.744808 0.761257 0.718990
0.841703 0.776913 0.638514
0.921599 0.752163 0.530724
0.983215 0.751736 0.516228
0.747402 0.799100 0.836057
0.748013 0.799619 0.836484
0.752956 0.803769 0.839780
0.763882 0.812955 0.847074
0.793942 0.831144 0.838651
0.850248 0.849119 0.796536
0.909178 0.847959 0.733852
0.963348 0.823789 0.654017
0.840116 0.875486 0.897368
0.842039 0.877012 0.898619
0.846128 0.880278 0.901274
0.853819 0.886412 0.906279
0.860929 0.892058 0.910887
0.890501 0.905577 0.892515
0.924010 0.913146 0.867460
0.960601 0.910704 0.831327
0.000000 0.080201 0.292668
0.000000 0.075196 0.281834
0.073701 0.079286 0.252140
0.326635 0.000000 0.353948
0.589075 0.000000 0.407202
0.854856 0.000000 0.432410
1.000000 0.000000 0.425299
1.000000 0.371008 0.521935
0.000000 0.169741 0.371221
0.000000 0.152377 0.351598
0.110231 0.128542 0.302770
0.354223 0.109071 0.381079
0.612299 0.072786 0.419623
0.862608 0.081483 0.427192
1.000000 0.278477 0.465614
1.000000 0.426276 0.524834
0.077974 0.252995 0.391363
0.129610 0.277134 0.408484
0.221927 0.328985 0.441657
0.428351 0.307469 0.446509
0.676600 0.355108 0.462379
0.844572 0.409308 0.479866
0.962188 0.467536 0.502892
1.000000 0.523217 0.534569
0.312291 0.370428 0.453376
0.336553 0.398688 0.484810
0.388922 0.457343 0.546441
0.473182 0.517723 0.556542
0.631678 0.526452 0.487343
0.768948 0.557092 0.489479
0.904631 0.590417 0.511711
0.993805 0.620417 0.541985
0.479683 0.552331 0.636896
0.498024 0.570733 0.653132
0.537835 0.609735 0.686397
0.562890 0.633661 0.706111
0.680262 0.676936 0.633783
0.801053 0.657862 0.525231
0.881682 0.675471 0.531395
0.951568 0.697017 0.540093
0.636103 0.701503 0.759884
0.648157 0.712367 0.768338
0.665888 0.728237 0.780636
0.679957 0.740749 0.790311
0.725704 0.767453 0.774411
0.817929 0.787808 0.709285
0.903502 0.764767 0.615808
0.962768 0.770871 0.617731
0.764736 0.813687 0.847654
0.767483 0.815976 0.849485
0.770382 0.818418 0.851408
0.777829 0.824613 0.856382
0.788083 0.833097 0.863188
0.841672 0.855283 0.828550
0.899107 0.859678 0.781125
0.954101 0.839567 0.716243
0.845640 0.879881 0.900938
0.846403 0.880461 0.901427
0.849943 0.883330 0.903746
0.858366 0.890043 0.909239
0.865293 0.895567 0.913756
0.887297 0.907347 0.905058
0.920439 0.916838 0.882750
0.956085 0.916106 0.851133
0.000000 0.114595 0.581750
0.000000 0.098817 0.570001
0.000000 0.095216 0.518791
0.146365 0.087617 0.452949
0.432258 0.013855 0.546136
0.725185 0.000000 0.646571
0.933928 0.000000 0.669703
1.000000 0.200046 0.657923
0.000000 0.241947 0.644373
0.000000 0.210086 0.627344
0.000000 0.163394 0.575708
0.181979 0.142763 0.490364
0.468910 0.133059 0.580316
0.735683 0.118441 0.654841
0.933806 0.180087 0.668666
1.000000 0.295171 0.656580
0.000000 0.456214 0.709407
0.000000 0.465217 0.708156
0.169955 0.400641 0.665339
0.291844 0.318090 0.598077
0.545159 0.327916 0.649317
0.774807 0.360174 0.685634
0.946715 0.423407 0.688167
1.000000 0.501396 0.682704
0.265751 0.509239 0.686824
0.304631 0.524681 0.690852
0.383093 0.559838 0.700923
0.473945 0.605371 0.714321
0.602228 0.553124 0.694972
0.806210 0.574762 0.693477
0.910948 0.641413 0.713100
0.981628 0.673396 0.720882
0.478981 0.574395 0.673274
0.497597 0.585992 0.678462
0.540154 0.614252 0.692042
0.597253 0.665919 0.731991
0.653529 0.710628 0.751888
0.764584 0.708614 0.698878
0.856352 0.719173 0.690547
0.944030 0.734005 0.700130
0.643915 0.708522 0.765347
0.660182 0.723110 0.776669
0.682429 0.742916 0.792020
0.715816 0.772091 0.814786
0.734279 0.787930 0.827237
0.799741 0.809232 0.787839
0.880797 0.789029 0.717586
0.937438 0.795071 0.715663
0.762997 0.812222 0.846464
0.768917 0.817166 0.850431
0.782589 0.828580 0.859556
0.798642 0.841794 0.870115
0.807553 0.849088 0.876005
0.835386 0.863828 0.865171
0.887236 0.870878 0.825376
0.943511 0.852384 0.768002
0.850645 0.883879 0.904204
0.854002 0.886534 0.906371
0.861448 0.892454 0.911254
0.866423 0.896452 0.914458
0.872557 0.901274 0.918425
0.882811 0.908476 0.920684
0.915648 0.920897 0.900816
0.950896 0.922789 0.874174
0.000000 0.185183 0.794766
0.000000 0.162234 0.786007
0.000000 0.130312 0.752651
0.000000 0.120729 0.694545
0.266239 0.101595 0.633875
0.553796 0.073304 0.708614
0.842405 0.013245 0.793729
0.996918 0.162570 0.800961
0.000000 0.315587 0.815976
0.000000 0.285740 0.807950
0.000000 0.213107 0.779751
0.109133 0.193851 0.727413
0.297154 0.164279 0.655146
0.576562 0.172305 0.724697
0.849668 0.178164 0.798062
0.992584 0.263035 0.799466
0.000000 0.548852 0.846464
0.000000 0.536522 0.837736
0.135897 0.471595 0.816922
0.252262 0.382269 0.778622
0.373144 0.318608 0.706538
0.609186 0.336095 0.744930
0.853422 0.361761 0.798459
0.981628 0.425513 0.792355
0.286839 0.669886 0.850858
0.339361 0.683345 0.851926
0.435462 0.711238 0.853758
0.491035 0.653529 0.824491
0.503624 0.549706 0.776272
0.674067 0.537377 0.780819
0.861509 0.562951 0.802609
0.971679 0.612238 0.794888
0.498970 0.697322 0.823880
0.521477 0.706142 0.825193
0.567437 0.724514 0.827543
0.621942 0.747280 0.830777
0.673304 0.768917 0.832486
0.740597 0.717647 0.811002
0.872862 0.742672 0.812894
0.942687 0.781949 0.824796
0.614038 0.712856 0.791592
0.626032 0.719173 0.793454
0.649866 0.730678 0.795438
0.684718 0.749172 0.800290
0.726986 0.781704 0.822324
0.772488 0.816739 0.841276
0.847288 0.815366 0.808255
0.910430 0.818784 0.798032
0.753628 0.804379 0.840238
0.757229 0.807401 0.842649
0.768429 0.816770 0.850126
0.790188 0.834867 0.864561
0.815732 0.855741 0.881376
0.827451 0.865263 0.889067
0.870390 0.877073 0.860807
0.926726 0.859953 0.810788
0.841428 0.876493 0.898222
0.844388 0.878874 0.900114
0.851316 0.884459 0.904662
0.865660 0.895811 0.913970
0.877623 0.905272 0.921691
0.885039 0.911101 0.926513
0.906584 0.921813 0.917784
0.941466 0.925780 0.892607
0.000000 0.282475 0.918944
0.000000 0.259556 0.914794
0.000000 0.197299 0.899840
0.000000 0.190463 0.873045
0.260319 0.163729 0.825284
0.412207 0.128420 0.775845
0.673121 0.137026 0.826322
0.937407 0.158419 0.893187
0.000000 0.394263 0.917510
0.000000 0.369177 0.913481
0.000000 0.305730 0.903044
0.000000 0.266880 0.877958
0.292210 0.231785 0.833097
0.423743 0.188022 0.778744
0.680537 0.211368 0.828855
0.935058 0.240421 0.890532
0.146883 0.618647 0.921508
0.165103 0.598566 0.918303
0.196475 0.543664 0.909789
0.245243 0.456489 0.894194
0.380438 0.400855 0.858488
0.465675 0.323583 0.797910
0.710048 0.361395 0.842161
0.934051 0.398657 0.887480
0.447761 0.774685 0.928099
0.472572 0.768460 0.923980
0.521538 0.752132 0.914336
0.538781 0.708461 0.903380
0.533532 0.625849 0.884703
0.568658 0.529595 0.841428
0.754696 0.544213 0.859068
0.930175 0.579065 0.883116
0.592554 0.802365 0.911711
0.611719 0.808438 0.911833
0.650446 0.821317 0.912352
0.695369 0.837583 0.913756
0.699916 0.800015 0.895415
0.673610 0.715419 0.864012
0.790219 0.699367 0.864897
0.919188 0.723690 0.874876
0.680995 0.812924 0.892363
0.693721 0.818387 0.893614
0.714168 0.826200 0.894102
0.740841 0.836606 0.894926
0.768826 0.847532 0.895384
0.801297 0.861936 0.898009
0.840665 0.829984 0.883513
0.928252 0.851591 0.888731
0.758145 0.831113 0.879576
0.765255 0.834775 0.880827
0.778317 0.840665 0.882017
0.796048 0.848905 0.883665
0.815335 0.857420 0.884550
0.838987 0.874510 0.896605
0.862608 0.890166 0.901640
0.910735 0.884825 0.876036
0.838773 0.874388 0.896483
0.841184 0.876310 0.898039
0.847959 0.881712 0.902464
0.860105 0.891417 0.910369
0.874296 0.902678 0.919554
0.892332 0.916869 0.931212
0.901457 0.923949 0.937072
0.933898 0.932494 0.916838
0.000000 0.366918 0.975372
0.000000 0.351904 0.974640
0.000000 0.303899 0.969421
0.000000 0.275547 0.956847
0.242771 0.253300 0.934325
0.399145 0.207462 0.899443
0.532647 0.158724 0.868254
0.753017 0.187686 0.898283
0.000000 0.455055 0.969787
0.000000 0.440345 0.968872
0.000000 0.393835 0.964294
0.000000 0.342779 0.953918
0.270970 0.313176 0.932494
0.410010 0.258946 0.897978
0.530266 0.202792 0.862913
0.749020 0.231327 0.893126
0.218814 0.640467 0.962554
0.230442 0.626459 0.961364
0.249851 0.587671 0.957824
0.272770 0.520623 0.952117
0.369238 0.466346 0.936004
0.465553 0.399237 0.908690
0.559228 0.322454 0.872923
0.774075 0.364172 0.902281
0.522850 0.789517 0.957946
0.538109 0.785428 0.955413
0.561883 0.770840 0.949859
0.547051 0.727016 0.945586
0.527062 0.654475 0.937865
0.561822 0.583429 0.918700
0.601404 0.471199 0.882902
0.801114 0.517906 0.907378
0.664546 0.859556 0.954681
0.675013 0.862486 0.954223
0.694881 0.863310 0.952239
0.710292 0.848295 0.945556
0.700496 0.811063 0.935851
0.674037 0.743923 0.921874
0.675563 0.648463 0.893278
0.830076 0.670100 0.908537
0.738308 0.871977 0.944121
0.745876 0.874723 0.944335
0.763180 0.881102 0.944945
0.786923 0.890288 0.946166
0.813657 0.901122 0.947997
0.812314 0.876555 0.935973
0.784115 0.815152 0.912261
0.871061 0.803799 0.915557
0.794583 0.882750 0.934661
0.799741 0.884916 0.935027
0.810452 0.889158 0.935546
0.825803 0.895506 0.936553
0.842741 0.902342 0.937377
0.861509 0.910124 0.938445
0.881010 0.918303 0.939422
0.909087 0.895811 0.927489
0.838621 0.892393 0.926024
0.841855 0.893828 0.926268
0.850889 0.898039 0.927428
0.862608 0.903563 0.928954
0.875456 0.909239 0.929961
0.889281 0.914946 0.930144
0.908782 0.929686 0.941772
0.927764 0.940734 0.943145
0.000000 0.449500 1.000000
0.000000 0.439216 1.000000
0.000000 0.404852 1.000000
0.000000 0.367376 1.000000
0.239933 0.353704 0.990356
0.395087 0.320928 0.975280
0.509392 0.261326 0.953979
0.637964 0.209445 0.938750
0.000000 0.519127 1.000000
0.000000 0.509056 1.000000
0.000000 0.477302 1.000000
0.037385 0.426795 0.997833
0.279911 0.407691 0.987671
0.412421 0.368658 0.973449
0.515892 0.302007 0.952422
0.637568 0.243900 0.935882
0.286931 0.663691 0.991333
0.295995 0.654353 0.990875
0.308995 0.626215 0.989563
0.334722 0.583886 0.988190
0.386908 0.534447 0.982361
0.466041 0.481941 0.970550
0.544121 0.405127 0.952758
0.647517 0.330816 0.934844
0.562768 0.799008 0.979980
0.574273 0.796536 0.979095
0.566461 0.776059 0.978119
0.558801 0.743496 0.976837
0.541833 0.688106 0.975036
0.564477 0.632685 0.967010
0.602350 0.551843 0.953735
0.671687 0.454383 0.935973
0.694026 0.875883 0.977539
0.700771 0.874327 0.976776
0.711360 0.867918 0.974517
0.723140 0.855802 0.970825
0.704067 0.821683 0.967559
0.680140 0.768490 0.962554
0.684352 0.703914 0.951385
0.706630 0.596399 0.933623
0.771664 0.905119 0.973266
0.776303 0.906615 0.973266
0.788083 0.910765 0.973419
0.806241 0.916686 0.973877
0.814145 0.905364 0.969696
0.808652 0.881041 0.964080
0.791836 0.837949 0.955505
0.782895 0.764126 0.937438
0.829068 0.918822 0.968261
0.832670 0.920226 0.968444
0.841520 0.923705 0.968994
0.855314 0.929442 0.970153
0.872496 0.936797 0.971893
0.890562 0.944671 0.973754
0.887419 0.927398 0.965606
0.862943 0.881132 0.947448
0.868559 0.927642 0.962402
0.870848 0.928557 0.962493
0.876799 0.931029 0.962951
0.886137 0.935088 0.963867
0.897673 0.940124 0.965057
0.911192 0.946105 0.966522
0.926513 0.953002 0.968383
0.941100 0.959564 0.969818
