data/fiter_cube/89350833/1022879/file.cube
# Created by Adobe Lightroom plugin Export LUT (1.24.0)
# www.johnrellis.com/lightroom/exportlut.htm
# Preset: 婚礼接亲预设[余晖]-9 保证书
# Color profile: C:\Windows\System32\Spool\Drivers\Color\AppleRGB.icc
LUT_3D_SIZE 32
DOMAIN_MIN 0.0 0.0 0.0
DOMAIN_MAX 1.0 1.0 1.0
0.014099 0.056947 0.055695
0.018372 0.057099 0.056031
0.028687 0.058869 0.057008
0.042451 0.060914 0.058595
0.060670 0.062837 0.059968
0.084321 0.063966 0.061128
0.114015 0.064149 0.062013
0.150118 0.062806 0.062898
0.193179 0.058900 0.063539
0.242649 0.052094 0.064302
0.298009 0.040681 0.064912
0.357610 0.022919 0.065614
0.419715 0.000000 0.066316
0.482643 0.000000 0.066651
0.542809 0.000000 0.066468
0.602228 0.000000 0.066072
0.659541 0.000000 0.065492
0.715084 0.038972 0.064057
0.766995 0.070924 0.062928
0.815640 0.100740 0.062165
0.861570 0.130343 0.062684
0.912963 0.165591 0.064607
0.961730 0.202457 0.071534
0.999939 0.234257 0.082429
1.000000 0.261906 0.097139
1.000000 0.286717 0.112337
1.000000 0.309178 0.130953
1.000000 0.331060 0.151217
1.000000 0.352697 0.173648
1.000000 0.374182 0.198978
1.000000 0.396063 0.227848
1.000000 0.418799 0.260227
0.015412 0.058961 0.058137
0.018708 0.059937 0.057954
0.028504 0.062287 0.058595
0.042390 0.064240 0.059968
0.061006 0.066011 0.060914
0.084077 0.067414 0.061860
0.113405 0.067872 0.062715
0.148562 0.067048 0.063569
0.190433 0.064088 0.064179
0.239017 0.058595 0.064912
0.292851 0.050202 0.065644
0.351354 0.037995 0.066529
0.412482 0.021790 0.067140
0.473640 0.000000 0.067292
0.533806 0.000000 0.067018
0.592615 0.000000 0.067048
0.649805 0.030335 0.066255
0.705074 0.056123 0.065126
0.757137 0.082063 0.064027
0.806119 0.108797 0.063264
0.852567 0.136477 0.063172
0.904753 0.170565 0.065766
0.952178 0.204868 0.070649
0.990265 0.234684 0.080720
1.000000 0.260838 0.093385
1.000000 0.284855 0.107820
1.000000 0.306981 0.124727
1.000000 0.328496 0.144045
1.000000 0.349584 0.165957
1.000000 0.370886 0.190555
1.000000 0.392615 0.218540
1.000000 0.414984 0.250034
0.021393 0.065034 0.065705
0.021576 0.065522 0.066499
0.032136 0.068788 0.063478
0.045655 0.070832 0.062501
0.062379 0.074128 0.063172
0.085359 0.075990 0.063783
0.114229 0.076936 0.064515
0.148684 0.076844 0.065278
0.189212 0.075898 0.065827
0.236454 0.072938 0.066682
0.289250 0.068513 0.067659
0.345983 0.062928 0.068360
0.405585 0.057160 0.068879
0.466072 0.053285 0.069062
0.525139 0.053956 0.068910
0.582544 0.061128 0.068727
0.638666 0.073304 0.067659
0.693721 0.090120 0.066621
0.746120 0.110231 0.065400
0.795712 0.133272 0.064729
0.843442 0.158114 0.065126
0.898314 0.191531 0.067628
0.944549 0.222171 0.073304
0.982116 0.249546 0.082490
1.000000 0.273655 0.094820
1.000000 0.295720 0.108980
1.000000 0.316625 0.125277
1.000000 0.337163 0.143404
1.000000 0.357183 0.165164
1.000000 0.377874 0.189578
1.000000 0.398962 0.217014
1.000000 0.420630 0.248600
0.028870 0.072847 0.075807
0.029877 0.073396 0.076661
0.033967 0.076020 0.076509
0.053834 0.081788 0.069551
0.072053 0.082704 0.066133
0.093019 0.086183 0.066926
0.117281 0.090059 0.067659
0.149935 0.092042 0.068360
0.189822 0.092714 0.069123
0.235325 0.092531 0.069795
0.286229 0.091646 0.070649
0.341192 0.090425 0.071290
0.398749 0.089937 0.071687
0.457404 0.090852 0.071809
0.514641 0.094789 0.071290
0.571008 0.101930 0.070680
0.625940 0.112764 0.070192
0.679835 0.127047 0.069062
0.731716 0.144015 0.067597
0.781277 0.163882 0.067018
0.834623 0.189670 0.067262
0.886473 0.217929 0.070069
0.932006 0.245060 0.076326
0.970397 0.270268 0.084871
1.000000 0.292943 0.096986
1.000000 0.314122 0.112032
1.000000 0.334447 0.129580
1.000000 0.354070 0.148836
1.000000 0.373358 0.170260
1.000000 0.392584 0.194095
1.000000 0.412024 0.221164
1.000000 0.431678 0.250278
0.040192 0.083467 0.089876
0.041016 0.084230 0.090700
0.042573 0.085756 0.092622
0.056489 0.091737 0.088106
0.082704 0.098756 0.078431
0.105196 0.098085 0.071077
0.129824 0.101686 0.071656
0.157748 0.106386 0.072816
0.189425 0.111879 0.073671
0.230777 0.115297 0.074220
0.279698 0.117220 0.074647
0.332464 0.119448 0.075105
0.388067 0.122347 0.074983
0.445319 0.126070 0.075105
0.501701 0.132479 0.074800
0.558038 0.140627 0.073976
0.613306 0.151553 0.073060
0.666987 0.165591 0.072145
0.719112 0.181735 0.070893
0.772427 0.201541 0.070832
0.827268 0.226078 0.071778
0.876799 0.251072 0.075227
0.921294 0.274632 0.081819
0.959686 0.297063 0.090883
0.992309 0.317601 0.103151
1.000000 0.336950 0.117586
1.000000 0.355810 0.134585
1.000000 0.373816 0.153231
1.000000 0.391394 0.174533
1.000000 0.409094 0.198001
1.000000 0.427039 0.224765
1.000000 0.445350 0.252934
0.057221 0.098085 0.109255
0.057923 0.098878 0.110323
0.059663 0.100404 0.112276
0.062593 0.102846 0.115541
0.088380 0.113130 0.103548
0.120089 0.121431 0.090639
0.145632 0.120211 0.079927
0.175784 0.122866 0.077119
0.207797 0.128878 0.078279
0.242588 0.135897 0.079194
0.280308 0.144137 0.079652
0.327062 0.150729 0.079774
0.381323 0.155856 0.079713
0.436622 0.162234 0.079622
0.492256 0.170047 0.078889
0.547204 0.179660 0.078096
0.601831 0.191379 0.077485
0.655085 0.204990 0.076600
0.709987 0.222049 0.075715
0.767117 0.243870 0.075868
0.820249 0.266148 0.077943
0.868956 0.288609 0.082765
0.963500 0.351690 0.114412
0.996033 0.370703 0.130709
1.000000 0.387640 0.148379
1.000000 0.403113 0.166415
1.000000 0.417517 0.186038
1.000000 0.431739 0.206943
1.000000 0.445838 0.229831
1.000000 0.460212 0.254185
1.000000 0.475013 0.280613
1.000000 0.490059 0.308659
0.084901 0.122072 0.141451
0.085512 0.122621 0.142214
0.087404 0.124453 0.144594
0.090608 0.127199 0.148287
0.104585 0.134859 0.144320
0.137514 0.148165 0.126986
0.176699 0.158694 0.108461
0.208621 0.158022 0.092714
0.243015 0.157290 0.083040
0.279332 0.165286 0.084443
0.317601 0.174594 0.085389
0.357458 0.185092 0.085878
0.397467 0.196719 0.086152
0.445014 0.206912 0.085664
0.498878 0.216220 0.084565
0.551965 0.227115 0.083497
0.605158 0.239231 0.083345
0.663142 0.256565 0.082612
0.723537 0.278050 0.083497
0.780545 0.300298 0.085725
0.835142 0.323400 0.092134
0.886351 0.346868 0.101259
0.932372 0.369909 0.113832
0.971008 0.390570 0.130648
1.000000 0.408789 0.149935
1.000000 0.424537 0.169467
1.000000 0.438483 0.188937
1.000000 0.451484 0.209506
1.000000 0.464546 0.231785
1.000000 0.477485 0.255650
1.000000 0.490883 0.281010
1.000000 0.504723 0.308690
0.111116 0.146517 0.173953
0.111818 0.147158 0.174746
0.113527 0.148867 0.176974
0.116335 0.151675 0.180697
0.119997 0.155398 0.185580
0.147860 0.169406 0.170169
0.185946 0.184787 0.148653
0.228824 0.196597 0.126375
0.267796 0.198215 0.105715
0.301061 0.192355 0.088045
0.338445 0.201480 0.089876
0.376959 0.211948 0.091066
0.415229 0.223301 0.091737
0.452949 0.235538 0.091737
0.490089 0.248539 0.091218
0.533013 0.261295 0.090303
0.591943 0.278172 0.090028
0.649928 0.296147 0.090333
0.705959 0.314733 0.091493
0.760586 0.334386 0.094484
0.813230 0.354742 0.100008
0.863432 0.375952 0.108858
0.909728 0.396918 0.120729
0.949645 0.415869 0.136233
0.983032 0.432593 0.154635
1.000000 0.447059 0.172854
1.000000 0.459937 0.191989
1.000000 0.471901 0.211856
1.000000 0.483955 0.234073
1.000000 0.495857 0.257603
1.000000 0.508293 0.282200
1.000000 0.521019 0.308995
0.140078 0.175753 0.212406
0.140597 0.176242 0.213016
0.142397 0.178134 0.215549
0.145144 0.181094 0.219394
0.148623 0.184604 0.224033
0.159060 0.192081 0.224216
0.196872 0.210605 0.199924
0.239414 0.227390 0.173892
0.285832 0.240299 0.146731
0.331121 0.245335 0.120943
0.361395 0.235019 0.096956
0.399847 0.243320 0.095399
0.436683 0.254490 0.096864
0.472908 0.266148 0.098085
0.513664 0.282261 0.098756
0.553399 0.298924 0.099275
0.591730 0.315892 0.099428
0.634668 0.332921 0.099763
0.688716 0.350011 0.101045
0.741970 0.368139 0.104616
0.794156 0.387366 0.110719
0.844388 0.407080 0.119844
0.891020 0.426886 0.131655
0.931731 0.444678 0.146059
0.966155 0.460182 0.163729
0.994873 0.473274 0.180972
1.000000 0.485023 0.199832
1.000000 0.495735 0.219303
1.000000 0.506523 0.240818
1.000000 0.517082 0.263127
1.000000 0.528130 0.287205
1.000000 0.539635 0.313634
0.171603 0.209171 0.255955
0.172091 0.209781 0.256748
0.173739 0.211551 0.259037
0.176242 0.214267 0.262516
0.179507 0.217868 0.267155
0.183383 0.222110 0.272648
0.209171 0.237156 0.259098
0.250858 0.256992 0.231022
0.295933 0.274357 0.201389
0.344732 0.288426 0.170748
0.394202 0.296666 0.139590
0.420447 0.284337 0.114107
0.464485 0.292882 0.102907
0.504051 0.307561 0.105928
0.542382 0.322576 0.107912
0.579767 0.337652 0.109895
0.616510 0.353552 0.111543
0.652644 0.369574 0.112734
0.688685 0.386297 0.114839
0.727687 0.403662 0.117220
0.778286 0.421088 0.122988
0.826200 0.438483 0.131838
0.871153 0.455360 0.141970
0.911254 0.470832 0.155428
0.945678 0.484382 0.170199
0.975555 0.496193 0.186313
1.000000 0.507012 0.204318
1.000000 0.517449 0.223545
1.000000 0.527550 0.244419
1.000000 0.537835 0.267857
1.000000 0.548455 0.292393
1.000000 0.559228 0.318822
0.203494 0.244511 0.301244
0.204044 0.245151 0.302037
0.205875 0.247074 0.304509
0.208225 0.249912 0.308080
0.211704 0.253819 0.313024
0.215763 0.258396 0.318761
0.222263 0.264775 0.324437
0.263554 0.287572 0.296635
0.308415 0.308415 0.265721
0.357946 0.328710 0.234714
0.411078 0.346777 0.202487
0.465736 0.359686 0.167178
0.489082 0.346410 0.139132
0.532311 0.349554 0.113649
0.567803 0.362066 0.117586
0.602564 0.375158 0.121157
0.636805 0.388464 0.123903
0.670405 0.402228 0.126406
0.703975 0.416968 0.129824
0.737606 0.432502 0.133150
0.770962 0.448798 0.137179
0.804837 0.465522 0.142794
0.850248 0.481727 0.152804
0.891447 0.496742 0.165103
0.927092 0.509758 0.179568
0.957946 0.520958 0.195499
0.985229 0.531060 0.212680
1.000000 0.540673 0.231083
1.000000 0.550134 0.251957
1.000000 0.559594 0.273930
1.000000 0.569329 0.298924
1.000000 0.579370 0.325750
0.238682 0.284520 0.351415
0.239292 0.285344 0.352300
0.241062 0.287297 0.354742
0.243503 0.290105 0.358221
0.246708 0.293828 0.362829
0.250828 0.298619 0.368627
0.257267 0.306035 0.377661
0.281804 0.323430 0.371496
0.328222 0.349645 0.343542
0.377081 0.373388 0.312383
0.427955 0.393866 0.278233
0.480171 0.410346 0.241459
0.579889 0.463935 0.228458
0.601831 0.449165 0.193454
0.646418 0.446326 0.145998
0.677913 0.456092 0.152682
0.707515 0.465370 0.158358
0.736294 0.475257 0.164096
0.764950 0.485939 0.168978
0.793606 0.497322 0.174411
0.821653 0.509667 0.180636
0.849149 0.522240 0.187167
0.874815 0.534295 0.193301
0.898650 0.545892 0.200778
0.930297 0.555779 0.214633
0.958984 0.564324 0.230442
0.984253 0.572259 0.247501
1.000000 0.579553 0.265721
1.000000 0.586755 0.285557
1.000000 0.594232 0.307195
1.000000 0.601923 0.329931
1.000000 0.610407 0.355901
0.289830 0.344091 0.423011
0.290715 0.345037 0.424140
0.292912 0.347723 0.427253
0.296178 0.351507 0.431678
0.300175 0.356268 0.437140
0.305058 0.361944 0.443702
0.310979 0.368841 0.451606
0.317662 0.376776 0.460487
0.359106 0.402472 0.437140
0.408057 0.428992 0.406928
0.459541 0.453498 0.375586
0.514061 0.475563 0.340551
0.569940 0.494118 0.302922
0.624964 0.507012 0.260990
0.650874 0.496986 0.226047
0.688594 0.489967 0.176699
0.718868 0.495308 0.173220
0.746029 0.503349 0.179721
0.773037 0.512383 0.186404
0.799863 0.522118 0.192386
0.826535 0.532586 0.198734
0.852567 0.543511 0.205203
0.876677 0.554131 0.212680
0.899168 0.564324 0.220371
0.920256 0.573938 0.227481
0.939818 0.583307 0.236179
0.964996 0.591424 0.250767
0.989319 0.598749 0.268772
1.000000 0.605737 0.287602
1.000000 0.613062 0.309728
1.000000 0.620386 0.332891
1.000000 0.628351 0.358465
0.334722 0.396582 0.482460
0.335271 0.397131 0.483101
0.336400 0.398505 0.484596
0.338323 0.400732 0.487007
0.341009 0.403815 0.490364
0.344305 0.407538 0.494423
0.348608 0.412451 0.499702
0.354253 0.418830 0.506493
0.372564 0.432593 0.504051
0.417639 0.458595 0.476631
0.465949 0.483528 0.446906
0.516686 0.506310 0.415259
0.569207 0.526207 0.379950
0.620356 0.541222 0.341711
0.669398 0.550469 0.299016
0.694728 0.540856 0.261723
0.724056 0.529747 0.214572
0.755276 0.530938 0.195254
0.781064 0.538506 0.202762
0.806607 0.547051 0.210300
0.832090 0.556054 0.217441
0.856657 0.565759 0.225406
0.879484 0.574914 0.232639
0.901091 0.583734 0.240421
0.921233 0.592401 0.248783
0.940124 0.600702 0.256992
0.957824 0.608942 0.265721
0.974792 0.617060 0.274907
0.995209 0.624537 0.291264
1.000000 0.631525 0.312108
1.000000 0.638697 0.335729
1.000000 0.646326 0.361456
0.376318 0.443488 0.532341
0.376745 0.443946 0.532799
0.377783 0.445075 0.533959
0.379034 0.446448 0.535393
0.380896 0.448524 0.537499
0.383185 0.450996 0.540063
0.386664 0.454841 0.543938
0.391455 0.460121 0.549279
0.397711 0.466896 0.556085
0.431220 0.488289 0.539940
0.476661 0.513573 0.513756
0.524559 0.537346 0.485725
0.573358 0.558190 0.455360
0.621088 0.574426 0.421210
0.667048 0.585595 0.382849
0.710201 0.591089 0.340002
0.735836 0.582605 0.300572
0.759304 0.569268 0.256199
0.791928 0.566888 0.220737
0.815702 0.573632 0.229252
0.839353 0.581079 0.237186
0.861814 0.588678 0.245365
0.883207 0.596277 0.253635
0.903624 0.603937 0.261875
0.922850 0.611505 0.270634
0.941161 0.619074 0.279576
0.958740 0.626795 0.288945
0.975433 0.634699 0.299809
0.991547 0.642939 0.311772
1.000000 0.651667 0.325750
1.000000 0.659937 0.345892
1.000000 0.667811 0.373144
0.418585 0.489204 0.578058
0.419684 0.490394 0.579217
0.421363 0.492195 0.580957
0.423072 0.493935 0.582666
0.425330 0.496376 0.584955
0.428290 0.499458 0.587945
0.432471 0.503807 0.592126
0.437568 0.509239 0.597223
0.444160 0.516075 0.603662
0.457404 0.526848 0.605493
0.498634 0.550958 0.581384
0.541222 0.572778 0.554833
0.584039 0.591363 0.526177
0.626062 0.606287 0.494759
0.667231 0.617182 0.459693
0.706935 0.623987 0.420935
0.745724 0.626795 0.378271
0.771939 0.620020 0.339422
0.791775 0.606500 0.299260
0.826719 0.601831 0.250034
0.848966 0.608179 0.259800
0.870420 0.614801 0.269841
0.890501 0.621241 0.279423
0.909667 0.627619 0.288762
0.927794 0.634180 0.297917
0.945098 0.640864 0.308019
0.961761 0.647578 0.318181
0.977661 0.654627 0.329168
0.992889 0.661921 0.341344
1.000000 0.669490 0.355383
1.000000 0.677424 0.370123
1.000000 0.685695 0.387060
0.459510 0.531884 0.618372
0.460029 0.532372 0.618799
0.461097 0.533532 0.619837
0.462684 0.535149 0.621332
0.464637 0.537102 0.623133
0.467567 0.540093 0.625849
0.471260 0.543816 0.629236
0.476081 0.548760 0.633661
0.482033 0.554742 0.639033
0.489052 0.561730 0.645228
0.514946 0.578668 0.634485
0.553674 0.600061 0.611658
0.592920 0.618677 0.586114
0.631678 0.633783 0.558099
0.669673 0.645533 0.527153
0.706477 0.653498 0.493294
0.742580 0.658137 0.456062
0.777859 0.659815 0.415930
0.804349 0.654170 0.377966
0.820371 0.640436 0.342931
0.853391 0.635065 0.294560
0.875944 0.637842 0.291508
0.894957 0.643091 0.301823
0.913176 0.648615 0.311955
0.930541 0.654170 0.321965
0.947112 0.659998 0.332555
0.963073 0.666102 0.343114
0.978302 0.672389 0.354803
0.992920 0.679011 0.367529
1.000000 0.686152 0.381598
1.000000 0.693507 0.396979
1.000000 0.701320 0.413611
0.502739 0.575433 0.657191
0.504295 0.576928 0.658534
0.537835 0.609735 0.686397
0.539361 0.611200 0.687617
0.540948 0.612696 0.688869
0.543053 0.614679 0.690517
0.545464 0.617060 0.692500
0.548791 0.620233 0.695125
0.552972 0.624231 0.698421
0.558282 0.629297 0.702541
0.565759 0.635706 0.705684
0.598047 0.654139 0.685756
0.630640 0.670069 0.663722
0.663508 0.683162 0.638819
0.695918 0.693324 0.611353
0.728054 0.700343 0.580346
0.759152 0.704280 0.547051
0.789395 0.705074 0.510613
0.818875 0.703273 0.471992
0.843015 0.696590 0.434272
0.856046 0.682063 0.400824
0.884215 0.674617 0.356298
0.906645 0.672755 0.337591
0.922454 0.676204 0.347692
0.937774 0.679683 0.356420
0.952453 0.683467 0.365545
0.966705 0.687678 0.374975
0.980529 0.692470 0.385626
0.994049 0.698054 0.397955
1.000000 0.704158 0.411444
1.000000 0.711025 0.426947
1.000000 0.718288 0.443824
0.555627 0.626764 0.700465
0.559014 0.629999 0.703090
0.563104 0.633875 0.706294
0.567224 0.637781 0.709438
0.570916 0.641230 0.712276
0.573754 0.643977 0.714473
0.576379 0.646448 0.716457
0.579675 0.649470 0.718898
0.583520 0.653071 0.721798
0.588312 0.657588 0.725399
0.593744 0.662623 0.729397
0.611566 0.674189 0.722652
0.640772 0.689723 0.704005
0.670405 0.702998 0.682826
0.700038 0.713680 0.659297
0.728878 0.721584 0.633906
0.757229 0.726528 0.605127
0.785245 0.728908 0.573877
0.812833 0.728939 0.540215
0.839933 0.726894 0.504936
0.863890 0.720974 0.468788
0.876982 0.708614 0.439643
0.901366 0.700313 0.400183
0.925292 0.695644 0.369574
0.939757 0.698482 0.379644
0.953765 0.701686 0.389349
0.967315 0.705013 0.398810
0.980560 0.709041 0.409186
0.993439 0.713893 0.421180
1.000000 0.719387 0.434607
1.000000 0.725460 0.449805
1.000000 0.732113 0.466194
0.588525 0.657771 0.725551
0.591730 0.660761 0.727901
0.595636 0.664363 0.730770
0.599512 0.667964 0.733608
0.603204 0.671412 0.736324
0.606012 0.673976 0.738369
0.608698 0.676448 0.740322
0.611688 0.679225 0.742519
0.615503 0.682704 0.745235
0.619623 0.686488 0.748196
0.624567 0.691005 0.751736
0.629847 0.695766 0.755459
0.655146 0.710323 0.740078
0.681849 0.723354 0.721950
0.707942 0.733883 0.702113
0.733425 0.741878 0.680476
0.758724 0.747463 0.656428
0.783810 0.750790 0.630243
0.808927 0.751980 0.601373
0.834104 0.751369 0.570367
0.859129 0.748775 0.537163
0.882689 0.743801 0.503258
0.895384 0.732662 0.477028
0.916320 0.723934 0.442939
0.941711 0.716732 0.401617
0.954925 0.719112 0.411810
0.967864 0.721828 0.421515
0.980407 0.725216 0.431861
0.992767 0.729274 0.443671
1.000000 0.734157 0.456855
1.000000 0.739712 0.472053
1.000000 0.745968 0.488624
0.622614 0.689204 0.750332
0.625727 0.692073 0.752560
0.629572 0.695552 0.755276
0.633356 0.699001 0.757961
0.636683 0.702022 0.760311
0.639399 0.704463 0.762203
0.641718 0.706538 0.763821
0.644160 0.708736 0.765499
0.647089 0.711391 0.767575
0.650507 0.714473 0.769955
0.654383 0.717952 0.772671
0.658686 0.721798 0.775631
0.671107 0.729885 0.771450
0.694575 0.742245 0.756222
0.717891 0.752743 0.739559
0.740993 0.761318 0.721675
0.764492 0.768185 0.702449
0.787778 0.773342 0.681971
0.811185 0.776791 0.660029
0.834653 0.778470 0.636530
0.858274 0.778347 0.610651
0.881621 0.776364 0.582910
0.904662 0.772122 0.551781
0.916869 0.762478 0.529534
0.935088 0.753872 0.500572
0.958770 0.746883 0.464912
0.973571 0.746700 0.463478
0.985138 0.749630 0.474861
0.996551 0.753170 0.487129
1.000000 0.757534 0.501061
1.000000 0.762509 0.516014
1.000000 0.768215 0.532738
0.670283 0.732174 0.783688
0.671626 0.733333 0.784573
0.673304 0.734798 0.785702
0.674861 0.736202 0.786831
0.676539 0.737667 0.787930
0.678035 0.739010 0.788998
0.679805 0.740627 0.790219
0.681971 0.742519 0.791684
0.684810 0.744991 0.793637
0.688289 0.748074 0.796048
0.692073 0.751431 0.798642
0.696071 0.754879 0.801328
0.699886 0.758206 0.803922
0.717708 0.768276 0.793271
0.737240 0.777707 0.779629
0.756924 0.785550 0.764614
0.776822 0.791958 0.748348
0.796750 0.796902 0.730800
0.816892 0.800290 0.712093
0.837217 0.802213 0.692012
0.857511 0.802487 0.670069
0.877928 0.801083 0.646113
0.898344 0.797787 0.619593
0.918822 0.792569 0.589532
0.930541 0.783139 0.566857
0.945983 0.774105 0.540948
0.968261 0.767330 0.508476
0.984924 0.765011 0.497169
0.995758 0.768093 0.509545
1.000000 0.771969 0.523369
1.000000 0.776547 0.538445
1.000000 0.781888 0.555230
0.699580 0.757992 0.803769
0.700710 0.758968 0.804501
0.702113 0.760189 0.805478
0.703456 0.761349 0.806394
0.704891 0.762600 0.807370
0.706142 0.763668 0.808194
0.707698 0.765042 0.809262
0.709499 0.766598 0.810483
0.711849 0.768643 0.812070
0.714870 0.771237 0.814115
0.718135 0.774044 0.816342
0.721584 0.777035 0.818662
0.725002 0.779995 0.820981
0.733394 0.785397 0.818631
0.750637 0.794430 0.807584
0.767910 0.802182 0.795468
0.785489 0.808774 0.782315
0.803189 0.814145 0.768093
0.821073 0.818173 0.752651
0.839231 0.820920 0.735866
0.857420 0.822324 0.718135
0.875853 0.822232 0.698634
0.894377 0.820676 0.677577
0.913054 0.817472 0.653895
0.930724 0.810575 0.623316
0.942229 0.801999 0.602136
0.955810 0.793576 0.580224
0.976776 0.787564 0.552728
0.995270 0.783352 0.533288
1.000000 0.786862 0.547448
1.000000 0.791104 0.562676
1.000000 0.796139 0.579187
0.735531 0.788998 0.828122
0.736507 0.789822 0.828763
0.737484 0.790646 0.829404
0.738155 0.791226 0.829862
0.738705 0.791714 0.830228
0.739254 0.792172 0.830594
0.739864 0.792660 0.830991
0.740597 0.793301 0.831479
0.741756 0.794308 0.832303
0.743221 0.795560 0.833280
0.744869 0.796963 0.834379
0.746975 0.798764 0.835782
0.749233 0.800626 0.837308
0.751492 0.802548 0.838804
0.763912 0.809232 0.830686
0.778378 0.816068 0.819974
0.793240 0.822080 0.808713
0.808621 0.827237 0.796506
0.824552 0.831662 0.783810
0.840879 0.835233 0.770382
0.857450 0.837675 0.755795
0.874052 0.838773 0.739956
0.890684 0.838224 0.721981
0.907347 0.836027 0.701656
0.924132 0.832059 0.678645
0.941131 0.826505 0.652888
0.952209 0.818387 0.632471
0.964233 0.810636 0.614038
0.983459 0.804898 0.590265
1.000000 0.799344 0.565667
1.000000 0.803098 0.580133
1.000000 0.807889 0.596887
0.756832 0.807034 0.842374
0.757931 0.807950 0.843107
0.759060 0.808927 0.843870
0.759976 0.809689 0.844480
0.760830 0.810361 0.845029
0.761563 0.811063 0.845548
0.762631 0.811887 0.846250
0.763760 0.812833 0.847013
0.765225 0.814084 0.847959
0.766995 0.815579 0.849180
0.768917 0.817166 0.850431
0.771115 0.818997 0.851896
0.773404 0.820951 0.853422
0.775631 0.822812 0.854917
0.781338 0.826383 0.853147
0.794034 0.832792 0.844480
0.806821 0.838468 0.835355
0.820066 0.843442 0.825254
0.833646 0.847807 0.814969
0.847654 0.851469 0.804044
0.861936 0.854215 0.792233
0.876402 0.855955 0.779385
0.890959 0.856413 0.765042
0.905791 0.855558 0.748836
0.920775 0.853208 0.730556
0.936156 0.849363 0.709712
0.951843 0.844266 0.686824
0.962463 0.836912 0.668330
0.973968 0.830625 0.653895
0.990570 0.825742 0.636469
1.000000 0.821225 0.617670
1.000000 0.823362 0.624475
0.780636 0.826932 0.858213
0.781338 0.827512 0.858701
0.781949 0.828031 0.859098
0.782467 0.828458 0.859434
0.782925 0.828855 0.859739
0.783383 0.829221 0.860075
0.783993 0.829709 0.860441
0.784817 0.830411 0.861021
0.785977 0.831357 0.861784
0.787503 0.832639 0.862791
0.789212 0.834043 0.863920
0.791287 0.835782 0.865324
0.793515 0.837583 0.866728
0.795621 0.839353 0.868162
0.797635 0.841001 0.869505
0.807187 0.846189 0.863706
0.818387 0.851530 0.855924
0.829892 0.856321 0.847654
0.841825 0.860655 0.839048
0.854154 0.864408 0.829984
0.866667 0.867521 0.820493
0.879484 0.869780 0.810056
0.892332 0.871061 0.798734
0.905394 0.871275 0.785977
0.918700 0.870329 0.771664
0.932280 0.868101 0.755398
0.946258 0.864530 0.736965
0.960784 0.859525 0.715846
0.971191 0.852842 0.698451
0.981689 0.847623 0.687190
0.996307 0.843351 0.673793
1.000000 0.839811 0.659510
0.800137 0.843046 0.871122
0.800504 0.843351 0.871397
0.801022 0.843748 0.871702
0.801602 0.844236 0.872099
0.802487 0.844938 0.872679
0.803555 0.845792 0.873381
0.805234 0.847196 0.874479
0.807309 0.848905 0.875853
0.809781 0.850889 0.877470
0.812589 0.853208 0.879332
0.815640 0.855680 0.881315
0.818723 0.858183 0.883330
0.821683 0.860594 0.885283
0.824430 0.862821 0.887114
0.826871 0.864775 0.888701
0.831388 0.867643 0.887663
0.840818 0.872465 0.881682
0.850401 0.876860 0.875395
0.860319 0.880827 0.868803
0.870573 0.884459 0.861875
0.881010 0.887510 0.854551
0.891630 0.889921 0.846677
0.902251 0.891508 0.838010
0.913024 0.892302 0.828397
0.923980 0.892088 0.817533
0.935088 0.890929 0.805447
0.946654 0.888762 0.791714
0.958709 0.885435 0.776181
0.971374 0.881010 0.758724
0.981109 0.875303 0.743893
0.990326 0.871214 0.735805
1.000000 0.868223 0.727779
0.827451 0.865263 0.889067
0.827726 0.865476 0.889250
0.828031 0.865721 0.889464
0.828367 0.865965 0.889647
0.828702 0.866300 0.889891
0.829313 0.866758 0.890288
0.830106 0.867399 0.890806
0.831205 0.868284 0.891539
0.832639 0.869444 0.892485
0.834318 0.870787 0.893584
0.836118 0.872221 0.894743
0.838071 0.873808 0.896025
0.839994 0.875364 0.897276
0.841855 0.876829 0.898466
0.843565 0.878233 0.899596
