data/fiter_cube/89350833/1022879/file.cube
# Created by Adobe Lightroom plugin Export LUT (1.24.0)
# www.johnrellis.com/lightroom/exportlut.htm
# Preset: 婚礼接亲预设[余晖]-9 保证书
# Color profile: C:\Windows\System32\Spool\Drivers\Color\AppleRGB.icc
LUT_3D_SIZE 5
DOMAIN_MIN 0.000000 0.000000 0.000000
DOMAIN_MAX 0.903226 0.903226 0.903226
0.014099 0.056947 0.055695
0.150118 0.062806 0.062898
0.542809 0.000000 0.066468
0.912963 0.165591 0.064607
1.000000 0.352697 0.173648
0.111116 0.146517 0.173953
0.228824 0.196597 0.126375
0.490089 0.248539 0.091218
0.863432 0.375952 0.108858
1.000000 0.483955 0.234073
0.376318 0.443488 0.532341
0.391455 0.460121 0.549279
0.667048 0.585595 0.382849
0.861814 0.588678 0.245365
0.991547 0.642939 0.311772
0.670283 0.732174 0.783688
0.681971 0.742519 0.791684
0.737240 0.777707 0.779629
0.877928 0.801083 0.646113
0.995758 0.768093 0.509545
0.844053 0.878599 0.899901
0.847959 0.881773 0.902495
0.852049 0.884977 0.905089
0.901244 0.908141 0.882139
0.964477 0.911101 0.827207
0.000000 0.074678 0.220218
0.059754 0.076081 0.203738
0.477821 0.000000 0.322698
0.926055 0.000000 0.331518
1.000000 0.358465 0.455421
0.058808 0.200473 0.307774
0.172030 0.261662 0.354345
0.564111 0.268742 0.365850
0.881834 0.370825 0.405921
1.000000 0.485756 0.474586
0.388159 0.456489 0.545617
0.438636 0.510246 0.598260
0.585748 0.584192 0.546380
0.805234 0.598627 0.449226
0.972992 0.657435 0.498756
0.689876 0.749447 0.797086
0.704128 0.761929 0.806851
0.725490 0.780392 0.821317
0.851926 0.810819 0.719356
0.970764 0.783078 0.612848
0.849363 0.882841 0.903380
0.852628 0.885435 0.905486
0.862882 0.893584 0.912139
0.898344 0.911620 0.898253
0.959289 0.917723 0.851194
0.000000 0.145998 0.704128
0.000000 0.109438 0.660914
0.199069 0.092561 0.546075
0.728786 0.000000 0.716884
1.000000 0.183597 0.738216
0.000000 0.458930 0.779934
0.000000 0.384161 0.743923
0.306401 0.268223 0.636561
0.759640 0.296269 0.738979
1.000000 0.421881 0.740810
0.379583 0.608515 0.764523
0.455207 0.639002 0.769924
0.578424 0.695735 0.781674
0.807370 0.658595 0.761349
0.959594 0.733974 0.780209
0.674861 0.736202 0.786831
0.695460 0.754330 0.800900
0.749660 0.800992 0.837583
0.814359 0.831998 0.823056
0.925048 0.814725 0.757809
0.844144 0.878691 0.899992
0.852934 0.885710 0.905699
0.870359 0.899535 0.916991
0.885222 0.910521 0.922972
0.945220 0.922820 0.881102
0.000000 0.299382 0.933257
0.000000 0.236851 0.922698
0.127718 0.195621 0.878508
0.438209 0.132448 0.797147
0.885191 0.163638 0.889036
0.000000 0.560510 0.931212
0.000000 0.504326 0.923644
0.272435 0.392126 0.893523
0.470710 0.279728 0.807858
0.900847 0.333654 0.894133
0.523949 0.800504 0.929137
0.578698 0.807889 0.925780
0.603723 0.746029 0.904143
0.597375 0.583185 0.849729
0.908995 0.623713 0.889555
0.720027 0.836637 0.906310
0.737575 0.842924 0.906157
0.778439 0.859220 0.907805
0.823880 0.878080 0.909789
0.921965 0.859220 0.896696
0.837766 0.876982 0.901701
0.847013 0.881407 0.902647
0.868315 0.897887 0.915648
0.896666 0.920226 0.933989
0.931060 0.933379 0.922057
0.000000 0.449500 1.000000
0.000000 0.415229 1.000000
0.121065 0.362799 0.996368
0.426886 0.309239 0.970794
0.637964 0.209445 0.938750
0.194553 0.627253 0.994873
0.231113 0.597803 0.993408
0.306767 0.517845 0.989075
0.475105 0.437934 0.968322
0.647883 0.312108 0.936889
0.631861 0.840269 0.978119
0.648402 0.831449 0.975128
0.631617 0.781765 0.971008
0.614496 0.679103 0.960876
0.685023 0.520104 0.934112
0.791348 0.910430 0.972534
0.803372 0.914733 0.972808
0.833860 0.926421 0.974395
0.831144 0.894133 0.964324
0.801785 0.796445 0.938598
0.868559 0.927642 0.962402
0.874968 0.930266 0.962799
0.891722 0.937530 0.964477
0.914916 0.947784 0.966979
0.941100 0.959564 0.969818
