data/fiter_cube/96471014/1022821/file.cube
# Created by Adobe Lightroom plugin Export LUT (1.17.0)
# www.johnrellis.com/lightroom/exportlut.htm
# Preset: 古风系-大海故乡
# Color profile: C:\Program Files (x86)\Common Files\Adobe\Color\Profiles\Recommended\AdobeRGB1998.icc
LUT_3D_SIZE 8
DOMAIN_MIN 0.000000 0.000000 0.000000
DOMAIN_MAX 0.903226 0.903226 0.903226
0.000000 0.000000 0.000000
0.079957 0.014130 0.017243
0.164553 0.030945 0.046571
0.259861 0.045441 0.067384
0.357183 0.065431 0.088685
0.455116 0.082460 0.112459
0.571069 0.103304 0.141146
0.701625 0.147494 0.189487
0.002533 0.093660 0.005097
0.093843 0.095766 0.008484
0.191928 0.099855 0.017609
0.283116 0.102205 0.059052
0.377508 0.109529 0.084016
0.472724 0.120089 0.109071
0.584924 0.136416 0.139376
0.710811 0.173678 0.188479
0.000000 0.213260 0.000000
0.100893 0.214817 0.000000
0.214145 0.219913 0.000000
0.342473 0.233310 0.000000
0.449256 0.229740 0.024628
0.534508 0.222782 0.089906
0.630335 0.227390 0.129793
0.741573 0.249912 0.183902
0.000000 0.356237 0.000000
0.096315 0.357458 0.000000
0.229252 0.360967 0.000000
0.357092 0.367010 0.000000
0.492348 0.377356 0.000000
0.623224 0.382483 0.000000
0.700160 0.361608 0.094392
0.792599 0.362951 0.168368
0.000000 0.506676 0.000000
0.074983 0.507195 0.000000
0.234409 0.509239 0.000000
0.369299 0.512383 0.000000
0.501762 0.515679 0.000000
0.627192 0.514000 0.000000
0.743587 0.509422 0.012390
0.857969 0.508995 0.119265
0.000000 0.637659 0.000000
0.047730 0.637751 0.000000
0.230014 0.638117 0.000000
0.365545 0.638605 0.000000
0.495705 0.639246 0.000000
0.623224 0.639918 0.000000
0.745632 0.638025 0.074372
0.868528 0.640620 0.136385
0.000000 0.755398 0.020905
0.082185 0.755428 0.027314
0.233982 0.755673 0.048096
0.364477 0.756130 0.070527
0.491432 0.756802 0.091279
0.616724 0.757931 0.115328
0.741054 0.759701 0.141482
0.871122 0.768734 0.180148
0.092683 0.882078 0.150362
0.151003 0.882261 0.152163
0.261997 0.882811 0.158022
0.382116 0.883970 0.168215
0.504784 0.885679 0.183352
0.628229 0.888151 0.203433
0.752834 0.891386 0.228580
0.879271 0.895262 0.259312
0.000580 0.000946 0.083528
0.090059 0.002075 0.087922
0.166781 0.064698 0.099275
0.256260 0.077363 0.113832
0.353033 0.084504 0.127169
0.449775 0.095216 0.143191
0.564813 0.109194 0.165652
0.696407 0.149630 0.208316
0.000153 0.092195 0.088563
0.093355 0.096498 0.090639
0.183108 0.102754 0.099825
0.277745 0.110018 0.111574
0.372045 0.117433 0.125551
0.466804 0.126223 0.142061
0.578698 0.139345 0.165103
0.705501 0.174868 0.208194
0.000000 0.214328 0.097566
0.092744 0.216556 0.091066
0.214206 0.220981 0.091951
0.343908 0.232456 0.091646
0.441566 0.225589 0.110628
0.527794 0.221225 0.133639
0.624628 0.226596 0.160311
0.736812 0.249668 0.206027
0.000000 0.357397 0.091798
0.078065 0.358923 0.082704
0.225864 0.362310 0.083070
0.357275 0.367834 0.084047
0.493599 0.377203 0.080201
0.623713 0.381628 0.088685
0.695186 0.358831 0.142061
0.788479 0.361761 0.196750
0.000000 0.507836 0.065553
0.024231 0.508476 0.065248
0.228977 0.510338 0.066773
0.367803 0.513085 0.069520
0.501823 0.516136 0.075502
0.627619 0.513939 0.087098
0.743740 0.509270 0.117891
0.854520 0.507286 0.167361
0.000000 0.638270 0.073426
0.000000 0.638392 0.073915
0.225986 0.638605 0.077882
0.364019 0.639033 0.086000
0.495094 0.639521 0.097200
0.623316 0.640101 0.111879
0.745754 0.638117 0.135927
0.868589 0.640955 0.177920
0.000000 0.755612 0.120546
0.077852 0.755673 0.121828
0.233005 0.755856 0.125917
0.364172 0.756252 0.134249
0.491432 0.756924 0.146120
0.616907 0.758022 0.161868
0.741085 0.759792 0.182101
0.871214 0.768948 0.213809
0.098451 0.882078 0.188846
0.154177 0.882261 0.190127
0.263890 0.882841 0.194736
0.383337 0.883940 0.203616
0.505669 0.885679 0.216342
0.628931 0.888151 0.233738
0.753292 0.891386 0.256260
0.879454 0.895293 0.283879
0.000000 0.000000 0.171878
0.091127 0.000000 0.181491
0.204990 0.000000 0.199130
0.308568 0.023377 0.201938
0.358007 0.120241 0.204776
0.420111 0.141573 0.213321
0.536431 0.124086 0.221622
0.674647 0.148928 0.255802
0.000000 0.087129 0.173281
0.081361 0.087160 0.184115
0.208316 0.094484 0.201938
0.299809 0.118196 0.200717
0.349706 0.155154 0.208438
0.437842 0.147707 0.210452
0.551354 0.146944 0.223636
0.684352 0.172854 0.257481
0.000000 0.206607 0.195895
0.080842 0.211734 0.199557
0.212131 0.221256 0.205539
0.317235 0.219516 0.208713
0.408301 0.218112 0.212131
0.498451 0.217990 0.217746
0.600336 0.222080 0.229953
0.717678 0.245182 0.262516
0.000000 0.358892 0.219516
0.043214 0.360723 0.215946
0.212070 0.364935 0.206607
0.356817 0.369146 0.208499
0.495674 0.375250 0.212772
0.598840 0.364233 0.222202
0.675166 0.348974 0.236942
0.772061 0.356023 0.268650
0.000000 0.508812 0.224216
0.000000 0.510033 0.219028
0.209934 0.512779 0.207553
0.361975 0.514885 0.210086
0.501640 0.517174 0.214206
0.628656 0.513512 0.220218
0.743648 0.509483 0.239658
0.841276 0.501427 0.269963
0.000000 0.638819 0.225284
0.000000 0.639155 0.221714
0.214633 0.639887 0.218326
0.359930 0.640009 0.221744
0.493996 0.640284 0.227909
0.623255 0.640528 0.235874
0.745815 0.638453 0.249393
0.868650 0.642267 0.278172
0.000000 0.755886 0.240848
0.077638 0.755978 0.241245
0.233982 0.756191 0.243687
0.365332 0.756558 0.248631
0.492653 0.757137 0.256046
0.617792 0.758206 0.266392
0.741390 0.760006 0.280095
0.871305 0.769711 0.303105
0.108034 0.882200 0.279698
0.164279 0.882261 0.282506
0.272007 0.882750 0.288396
0.388678 0.883848 0.294560
0.509331 0.885588 0.303868
0.631495 0.888060 0.316991
0.754879 0.891356 0.334356
0.879973 0.895384 0.356420
0.000000 0.000000 0.267491
0.087800 0.000000 0.277928
0.209903 0.000000 0.313481
0.343755 0.000000 0.333440
0.480842 0.000000 0.342443
0.513146 0.108522 0.313878
0.559075 0.159030 0.310796
0.635676 0.192020 0.328710
0.000000 0.074769 0.270451
0.065187 0.074495 0.279850
0.204837 0.075196 0.313085
0.346197 0.069429 0.335668
0.472602 0.068696 0.337438
0.504906 0.152895 0.312016
0.550866 0.183352 0.309300
0.632136 0.204074 0.325902
0.000000 0.180270 0.268681
0.000000 0.179416 0.273075
0.180331 0.191653 0.306371
0.351263 0.219638 0.340154
0.440681 0.231540 0.324712
0.473976 0.243198 0.309911
0.541344 0.233310 0.304173
0.673976 0.229557 0.321477
0.000000 0.336034 0.318517
0.000000 0.340642 0.322148
0.197024 0.355474 0.333745
0.354345 0.368811 0.343267
0.463325 0.358679 0.340063
0.545342 0.343450 0.331273
0.630549 0.332860 0.328008
0.736233 0.340703 0.345037
0.000000 0.510369 0.355718
0.000000 0.511315 0.354345
0.201114 0.514031 0.349981
0.355322 0.516197 0.346258
0.500938 0.517632 0.349706
0.627405 0.513603 0.357000
0.728725 0.503563 0.366766
0.813138 0.488502 0.374914
0.000000 0.639368 0.355657
0.000000 0.639643 0.354620
0.211795 0.640375 0.352697
0.360327 0.640406 0.355657
0.494820 0.640467 0.360143
0.623346 0.640803 0.366461
0.745052 0.639216 0.375738
0.868040 0.645777 0.399268
0.000000 0.756069 0.362066
0.083711 0.756130 0.362554
0.239536 0.756283 0.366094
0.373938 0.756222 0.374426
0.497871 0.756954 0.380072
0.620752 0.758114 0.387579
0.742214 0.760189 0.397894
0.871305 0.771023 0.415167
0.117586 0.882414 0.387121
0.169711 0.882475 0.388800
0.279973 0.882750 0.395666
0.400427 0.883391 0.407050
0.517144 0.885191 0.414008
0.636439 0.887785 0.423713
0.757687 0.891295 0.436103
0.880980 0.895567 0.451026
0.000000 0.000000 0.360723
0.078492 0.000000 0.370428
0.197513 0.000000 0.404822
0.352483 0.000000 0.465156
0.489570 0.000000 0.475044
0.622431 0.000000 0.476600
0.677424 0.095857 0.446876
0.735531 0.184421 0.442725
0.000000 0.059876 0.361486
0.028321 0.055177 0.370733
0.188632 0.030457 0.403693
0.348974 0.010254 0.463233
0.491096 0.000000 0.476478
0.623011 0.000000 0.476478
0.671992 0.150271 0.444862
0.730282 0.207950 0.440772
0.000000 0.156863 0.345525
0.000000 0.156924 0.358953
0.152346 0.165682 0.395575
0.334539 0.199100 0.454536
0.495155 0.215366 0.480262
0.620356 0.229099 0.475166
0.650965 0.251926 0.437476
0.710201 0.267643 0.432563
0.000000 0.281865 0.369665
0.000000 0.283146 0.373175
0.118013 0.286229 0.384833
0.301640 0.318151 0.433967
0.498573 0.369635 0.483864
0.575341 0.367620 0.456275
0.604608 0.344396 0.421515
0.664790 0.327092 0.409552
0.000000 0.465583 0.441718
0.000000 0.469520 0.445014
0.168612 0.483284 0.456550
0.340764 0.504387 0.474556
0.499641 0.516320 0.486915
0.595636 0.497932 0.477485
0.663905 0.465675 0.453132
0.758938 0.452918 0.448768
0.000000 0.640009 0.483467
0.000000 0.640223 0.483162
0.213382 0.640528 0.483070
0.364172 0.640284 0.485298
0.500725 0.639399 0.492439
0.624292 0.640406 0.496376
0.742916 0.640620 0.503502
0.859617 0.642298 0.513664
0.000000 0.756283 0.483345
0.096010 0.756344 0.483864
0.245365 0.756344 0.486488
0.381964 0.755917 0.494270
0.506645 0.756130 0.502739
0.624994 0.757778 0.507378
0.743648 0.760281 0.513451
0.872892 0.771481 0.522515
0.131746 0.882689 0.500816
0.179599 0.882780 0.502068
0.286137 0.882994 0.506950
0.404974 0.883574 0.515465
0.518914 0.885466 0.520348
0.637201 0.888243 0.525933
0.758450 0.891875 0.533196
0.882506 0.896147 0.542504
0.000000 0.000000 0.458686
0.059236 0.000000 0.467536
0.186404 0.000000 0.498573
0.326146 0.000000 0.549615
0.489631 0.000000 0.601892
0.622858 0.000000 0.605066
0.741176 0.000000 0.597528
0.837278 0.134005 0.589929
0.000000 0.006226 0.457221
0.000000 0.000000 0.465827
0.174441 0.000000 0.496620
0.320684 0.000000 0.547784
0.489418 0.000000 0.602808
0.623377 0.000000 0.605524
0.741299 0.091463 0.597864
0.833768 0.181704 0.588952
0.000000 0.129519 0.446571
0.000000 0.131167 0.455116
0.121157 0.138369 0.486091
0.300084 0.158511 0.539025
0.488655 0.214603 0.604669
0.624659 0.222782 0.606958
0.741238 0.251225 0.599786
0.820554 0.283177 0.584985
0.000000 0.230869 0.408301
0.000000 0.228305 0.410376
0.000000 0.237034 0.447639
0.252689 0.270176 0.517418
0.470619 0.343359 0.589166
0.625025 0.376745 0.608331
0.740139 0.396307 0.605280
0.793271 0.384009 0.574121
0.000000 0.391791 0.479713
0.000000 0.392737 0.481941
0.000000 0.395392 0.489815
0.216587 0.398138 0.502861
0.422797 0.441016 0.556451
0.624201 0.517601 0.610376
0.693416 0.500298 0.582116
0.739467 0.457649 0.544030
0.000000 0.590326 0.561242
0.000000 0.592737 0.563256
0.120455 0.600793 0.570397
0.316075 0.613764 0.582574
0.485481 0.628107 0.599420
0.624750 0.639155 0.614038
0.708064 0.614710 0.597314
0.788663 0.579644 0.569604
0.000000 0.756435 0.604456
0.114717 0.756466 0.604761
0.254154 0.756313 0.606439
0.387671 0.755856 0.610620
0.510002 0.756161 0.615656
0.625422 0.757870 0.618402
0.745296 0.760464 0.621912
0.876066 0.769223 0.628046
0.149966 0.883024 0.617090
0.192752 0.883085 0.617975
0.294041 0.883330 0.621271
0.406653 0.884184 0.625849
0.517449 0.886320 0.628717
0.629419 0.889891 0.627008
0.755764 0.893156 0.631739
0.884367 0.897002 0.637812
0.000000 0.000000 0.578119
0.000000 0.000000 0.584314
0.177432 0.000000 0.605707
0.309087 0.000000 0.641779
0.460517 0.000000 0.689540
0.615259 0.000000 0.722805
0.744778 0.000000 0.724666
0.869139 0.081849 0.725887
0.000000 0.000000 0.575372
0.000000 0.000000 0.581689
0.161440 0.000000 0.603265
0.301762 0.000000 0.639673
0.457221 0.000000 0.687953
0.615381 0.000000 0.723171
0.744900 0.077668 0.724910
0.869169 0.153079 0.726375
0.000000 0.102113 0.562890
0.000000 0.101350 0.569543
0.074311 0.100343 0.592309
0.273564 0.108858 0.630762
0.444800 0.153262 0.681209
0.615991 0.227939 0.724269
0.744961 0.246128 0.725490
0.869200 0.278630 0.728542
0.000000 0.209720 0.521721
0.000000 0.207095 0.531273
0.000000 0.196811 0.564782
0.202640 0.221378 0.609094
0.416693 0.277195 0.665522
0.618280 0.376867 0.725582
0.744320 0.390875 0.726406
0.869352 0.407324 0.732479
0.000000 0.332891 0.525811
0.000000 0.329686 0.525933
0.000000 0.316838 0.525780
0.000000 0.303319 0.546960
0.342962 0.360876 0.631067
0.599847 0.484688 0.709346
0.743832 0.519951 0.728145
0.870848 0.525536 0.736812
0.000000 0.510857 0.601221
0.000000 0.510338 0.601801
0.000000 0.508232 0.603723
0.000000 0.502190 0.606195
0.277470 0.489387 0.608759
0.531670 0.547631 0.663020
0.744472 0.638544 0.731411
0.832395 0.613123 0.709529
0.000000 0.707027 0.674678
0.000000 0.708156 0.675715
0.000000 0.711910 0.679286
0.270634 0.718318 0.686091
0.445502 0.727749 0.697566
0.601740 0.743404 0.716213
0.746090 0.759762 0.735927
0.836881 0.724666 0.708278
0.127260 0.878416 0.727626
0.179812 0.879210 0.729000
0.293645 0.882017 0.734096
0.407385 0.885039 0.739193
0.515923 0.887388 0.742031
0.626642 0.891051 0.743374
0.747707 0.895018 0.741451
0.886168 0.897795 0.746151
0.000000 0.000000 0.730587
0.000000 0.000000 0.734279
0.170871 0.000000 0.747280
0.307347 0.000000 0.770199
0.449500 0.000000 0.802090
0.607874 0.000000 0.841062
0.752407 0.000000 0.857298
0.881407 0.033936 0.859068
0.000000 0.000000 0.728420
0.000000 0.000000 0.732174
0.149203 0.000000 0.745357
0.297917 0.000000 0.768521
0.444831 0.000000 0.800778
0.606012 0.000000 0.840085
0.752560 0.079500 0.857542
0.881376 0.138827 0.859251
0.000000 0.024323 0.719448
0.000000 0.010468 0.723354
0.000000 0.000000 0.737240
0.260349 0.000000 0.761593
0.426764 0.000000 0.795346
0.598962 0.163851 0.836301
0.753140 0.245243 0.858305
0.881132 0.270573 0.859739
0.000000 0.166079 0.697627
0.000000 0.157107 0.702632
0.000000 0.160067 0.718257
0.150271 0.172122 0.745480
0.385107 0.210208 0.782925
0.582452 0.295872 0.827695
0.754360 0.387182 0.859403
0.880827 0.399451 0.860777
0.000000 0.307805 0.650050
0.000000 0.303899 0.655177
0.000000 0.288426 0.673793
0.000000 0.254032 0.709133
0.274418 0.293126 0.756374
0.542473 0.390661 0.810086
0.754696 0.513481 0.861418
0.881132 0.518059 0.862852
0.000000 0.476509 0.700435
0.000000 0.472694 0.699672
0.000000 0.457618 0.696559
0.000000 0.423743 0.689174
0.000000 0.368170 0.689815
0.430549 0.447730 0.770047
0.730709 0.602655 0.849088
0.882353 0.633631 0.866239
0.000000 0.662715 0.760952
0.000000 0.661524 0.760800
0.000000 0.656672 0.760098
0.000000 0.646235 0.758328
0.000000 0.626795 0.754025
0.306401 0.589776 0.743862
0.623407 0.639673 0.792538
0.883940 0.758877 0.870817
0.000000 0.855924 0.820066
0.000000 0.856291 0.820432
0.000000 0.857389 0.821744
0.163943 0.859159 0.824308
0.376196 0.862089 0.828672
0.537560 0.868040 0.836576
0.709255 0.879484 0.851804
0.887114 0.897551 0.878721
