data/fiter_cube/96471014/1022821/file.cube
# Created by Adobe Lightroom plugin Export LUT (1.17.0)
# www.johnrellis.com/lightroom/exportlut.htm
# Preset: 古风系-大海故乡
# Color profile: C:\Program Files (x86)\Common Files\Adobe\Color\Profiles\Recommended\AdobeRGB1998.icc
LUT_3D_SIZE 32
DOMAIN_MIN 0.0 0.0 0.0
DOMAIN_MAX 1.0 1.0 1.0
0.000000 0.000000 0.000000
0.012634 0.001373 0.001709
0.028992 0.003265 0.004395
0.060243 0.008576 0.010529
0.079957 0.014130 0.017243
0.099825 0.020905 0.025483
0.120485 0.025879 0.033204
0.142245 0.029297 0.039155
0.164553 0.030945 0.046571
0.187655 0.034760 0.052186
0.211521 0.037690 0.058625
0.235599 0.040101 0.062959
0.259861 0.045441 0.067384
0.284337 0.051667 0.072145
0.308843 0.057740 0.077546
0.333043 0.061463 0.082887
0.357183 0.065431 0.088685
0.381231 0.069276 0.094575
0.405066 0.073671 0.100069
0.429664 0.078309 0.106203
0.455116 0.082460 0.112459
0.481941 0.086946 0.118868
0.510246 0.091981 0.125704
0.540307 0.097047 0.133150
0.571069 0.103304 0.141146
0.601953 0.110964 0.150668
0.633753 0.120394 0.161349
0.666896 0.132479 0.174166
0.701625 0.147494 0.189487
0.738613 0.166384 0.208011
0.778347 0.190280 0.230991
0.821408 0.220035 0.259312
0.001495 0.014954 0.000916
0.014343 0.016327 0.001526
0.035554 0.016358 0.000977
0.064179 0.018830 0.006195
0.083467 0.023926 0.013947
0.103151 0.030274 0.022156
0.123842 0.035767 0.029725
0.144961 0.040375 0.036652
0.167117 0.042786 0.045045
0.190249 0.047089 0.050935
0.213901 0.049104 0.057343
0.238010 0.052216 0.062196
0.262364 0.056458 0.066621
0.286595 0.059632 0.071870
0.310887 0.063355 0.076936
0.335088 0.067109 0.082887
0.359228 0.070527 0.088106
0.383215 0.074678 0.093965
0.406897 0.078370 0.100008
0.431403 0.082338 0.105928
0.457008 0.087221 0.111910
0.483711 0.091127 0.118379
0.511772 0.095766 0.125460
0.541924 0.100893 0.132723
0.572381 0.107088 0.141085
0.603265 0.114351 0.150423
0.634943 0.123751 0.161257
0.667842 0.135470 0.174228
0.702541 0.150301 0.189303
0.739467 0.169100 0.208042
0.779141 0.192355 0.230838
0.822049 0.221744 0.259190
0.000427 0.037354 0.002350
0.016205 0.038300 0.001862
0.037201 0.038331 0.002380
0.066621 0.040101 0.003204
0.087984 0.042451 0.008759
0.107820 0.047669 0.016876
0.127810 0.050690 0.026703
0.148806 0.054566 0.033509
0.170993 0.057527 0.040558
0.193851 0.059113 0.048432
0.217472 0.061280 0.054566
0.241245 0.062867 0.060700
0.265324 0.065034 0.065675
0.289677 0.067842 0.070893
0.313817 0.070985 0.076661
0.338018 0.074037 0.082002
0.361944 0.077699 0.087800
0.385809 0.080720 0.093477
0.409491 0.084230 0.099519
0.433906 0.088411 0.105440
0.459266 0.092134 0.111910
0.485878 0.096254 0.118349
0.514061 0.100832 0.125185
0.544091 0.105623 0.132479
0.574334 0.111849 0.140658
0.604852 0.118837 0.150393
0.636500 0.128145 0.161074
0.669306 0.139803 0.173892
0.703822 0.154086 0.189242
0.740536 0.172213 0.207919
0.780087 0.195346 0.230900
0.822965 0.224369 0.259159
0.003082 0.068177 0.003601
0.017304 0.068574 0.004211
0.039490 0.068940 0.004639
0.067933 0.069520 0.005432
0.091432 0.071046 0.006256
0.116670 0.073121 0.006989
0.136904 0.073060 0.015778
0.157473 0.073915 0.024720
0.179019 0.074525 0.032898
0.201694 0.075685 0.040955
0.224796 0.077028 0.049348
0.248417 0.078492 0.057893
0.272190 0.080507 0.063203
0.296239 0.082765 0.068940
0.320195 0.084932 0.074556
0.344213 0.087709 0.080629
0.368048 0.090700 0.086152
0.391638 0.093324 0.092470
0.415015 0.096773 0.098268
0.439307 0.100374 0.104463
0.464454 0.103670 0.110780
0.491066 0.107454 0.117433
0.519097 0.111757 0.124483
0.548516 0.116091 0.132021
0.578454 0.121706 0.140261
0.608545 0.128237 0.150027
0.639734 0.137057 0.160739
0.672175 0.148226 0.173861
0.706538 0.162051 0.188937
0.742977 0.179355 0.207645
0.782284 0.201694 0.230472
0.824887 0.229953 0.258854
0.002533 0.093660 0.005097
0.019226 0.093843 0.006744
0.043000 0.094026 0.006073
0.069947 0.094881 0.007752
0.093843 0.095766 0.008484
0.118044 0.097078 0.008270
0.144717 0.099733 0.007355
0.170993 0.101167 0.008026
0.191928 0.099855 0.017609
0.213840 0.099733 0.027924
0.236393 0.099825 0.038239
0.259739 0.100923 0.048676
0.283116 0.102205 0.059052
0.306706 0.103609 0.065187
0.330327 0.105379 0.071382
0.353948 0.107301 0.077668
0.377508 0.109529 0.084016
0.400671 0.111696 0.090181
0.423865 0.114382 0.096376
0.447761 0.116976 0.102724
0.472724 0.120089 0.109071
0.499031 0.123445 0.115969
0.526726 0.127169 0.123079
0.555718 0.131258 0.130861
0.584924 0.136416 0.139376
0.614405 0.142702 0.149203
0.645075 0.151034 0.159945
0.676967 0.160830 0.172946
0.710811 0.173678 0.188479
0.746792 0.190280 0.207309
0.785672 0.211307 0.230198
0.827909 0.238285 0.258427
0.001801 0.121035 0.006165
0.020111 0.121096 0.006744
0.045045 0.121431 0.005951
0.072084 0.121950 0.006470
0.096254 0.122896 0.006989
0.121218 0.124269 0.007446
0.146365 0.125399 0.007080
0.174563 0.128176 0.003204
0.204379 0.131044 0.000824
0.230472 0.131502 0.003693
0.252537 0.129946 0.016571
0.275090 0.129244 0.030152
0.297917 0.129244 0.044587
0.321019 0.129702 0.058289
0.344121 0.130343 0.065797
0.367193 0.131136 0.072694
0.390173 0.132509 0.079835
0.413001 0.134096 0.086580
0.435676 0.135714 0.093355
0.458991 0.137545 0.100404
0.483680 0.140139 0.107088
0.509636 0.143069 0.114076
0.536980 0.146151 0.121462
0.565087 0.150118 0.129335
0.593317 0.154757 0.138186
0.622095 0.160403 0.147951
0.651881 0.167483 0.159335
0.683101 0.176699 0.172488
0.716365 0.188724 0.187961
0.751919 0.204196 0.206546
0.790249 0.223880 0.229618
0.832090 0.249577 0.257725
0.000000 0.150088 0.002991
0.015839 0.150271 0.003449
0.042145 0.150484 0.002625
0.072724 0.151095 0.003998
0.098268 0.152010 0.003143
0.124147 0.153079 0.003418
0.150484 0.154452 0.002411
0.176577 0.155184 0.000824
0.206302 0.158633 0.000000
0.237491 0.162112 0.000000
0.270024 0.165743 0.000000
0.294530 0.164492 0.000000
0.316686 0.162356 0.017273
0.339086 0.160922 0.035523
0.361547 0.160189 0.053437
0.384131 0.160006 0.064240
0.406409 0.160098 0.072816
0.428626 0.160555 0.080690
0.450629 0.161105 0.088624
0.473579 0.162142 0.096101
0.497658 0.164004 0.103578
0.523095 0.166079 0.110811
0.549676 0.168734 0.118654
0.576593 0.172030 0.126986
0.603876 0.176181 0.136202
0.631617 0.181125 0.146365
0.660548 0.187411 0.157900
0.690974 0.195773 0.171206
0.723415 0.206760 0.186954
0.758267 0.220768 0.205661
0.796048 0.239078 0.228672
0.837278 0.263310 0.256840
0.000000 0.180972 0.000000
0.007446 0.181094 0.000000
0.036316 0.181369 0.000000
0.073060 0.181857 0.000000
0.099702 0.182620 0.000000
0.126772 0.183566 0.000000
0.153964 0.184878 0.000000
0.181613 0.186343 0.000000
0.208560 0.186893 0.000000
0.239689 0.190921 0.000000
0.272221 0.194675 0.000000
0.305699 0.198917 0.000000
0.339330 0.202060 0.000000
0.361089 0.198734 0.000000
0.382696 0.195804 0.018921
0.404364 0.193668 0.043305
0.426093 0.192264 0.061402
0.447456 0.191135 0.071870
0.468879 0.190646 0.080995
0.491127 0.190585 0.089906
0.514549 0.191440 0.098238
0.539391 0.192844 0.106386
0.564691 0.194614 0.114900
0.590265 0.197208 0.123873
0.616052 0.200229 0.133547
0.642847 0.204440 0.144289
0.670802 0.210086 0.156039
0.700313 0.217472 0.169589
0.731868 0.227085 0.185672
0.765866 0.239872 0.204654
0.802945 0.256992 0.227604
0.843473 0.279362 0.255619
0.000000 0.213260 0.000000
0.000183 0.213443 0.000000
0.028840 0.213657 0.000000
0.071870 0.214115 0.000000
0.100893 0.214817 0.000000
0.128969 0.215793 0.000000
0.157259 0.217014 0.000000
0.185428 0.218387 0.000000
0.214145 0.219913 0.000000
0.241886 0.220554 0.000000
0.274510 0.224857 0.000000
0.307958 0.229068 0.000000
0.342473 0.233310 0.000000
0.377569 0.237186 0.000000
0.407691 0.237613 0.000000
0.428595 0.233310 0.000000
0.449256 0.229740 0.024628
0.469886 0.226932 0.052674
0.490364 0.224643 0.068330
0.511833 0.223331 0.079591
0.534508 0.222782 0.089906
0.557977 0.222904 0.099672
0.581537 0.223575 0.109560
0.605768 0.225162 0.119203
0.630335 0.227390 0.129793
0.655665 0.230411 0.141238
0.682490 0.235019 0.153567
0.710964 0.241398 0.167666
0.741573 0.249912 0.183902
0.774746 0.261479 0.203128
0.811002 0.277012 0.226108
0.850706 0.297765 0.254124
0.000000 0.247196 0.000000
0.000000 0.247440 0.000000
0.018921 0.247745 0.000000
0.069917 0.248081 0.000000
0.100832 0.248600 0.000000
0.130587 0.249546 0.000000
0.160037 0.250706 0.000000
0.189120 0.251987 0.000000
0.218631 0.253513 0.000000
0.248386 0.255192 0.000000
0.276921 0.255619 0.000000
0.310491 0.260075 0.000000
0.344884 0.264439 0.000000
0.379644 0.268528 0.000000
0.415045 0.272557 0.000000
0.450690 0.275914 0.000000
0.476051 0.273289 0.000000
0.495399 0.267857 0.000000
0.514885 0.263401 0.034394
0.535363 0.260258 0.063508
0.556695 0.258030 0.077180
0.578241 0.256535 0.090120
0.600275 0.255894 0.101350
0.622766 0.255985 0.113161
0.645869 0.256962 0.124849
0.670100 0.259159 0.136934
0.695644 0.262425 0.150332
0.723079 0.267552 0.164675
0.752621 0.274968 0.181399
0.784848 0.285283 0.200992
0.820218 0.299321 0.223819
0.859007 0.318273 0.251865
0.000000 0.282597 0.000000
0.000000 0.282811 0.000000
0.004944 0.282933 0.000000
0.066804 0.283238 0.000000
0.100557 0.283909 0.000000
0.131838 0.284764 0.000000
0.162509 0.285801 0.000000
0.192416 0.287022 0.000000
0.222782 0.288334 0.000000
0.253117 0.289952 0.000000
0.283726 0.291600 0.000000
0.313970 0.292821 0.000000
0.347082 0.296300 0.000000
0.382116 0.300603 0.000000
0.417395 0.304570 0.000000
0.452674 0.308293 0.000000
0.488045 0.311376 0.000000
0.523186 0.314153 0.000000
0.542412 0.307744 0.000000
0.560967 0.301823 0.007202
0.580163 0.297246 0.052888
0.599908 0.293706 0.074250
0.620325 0.291325 0.089876
0.641169 0.289738 0.104158
0.662867 0.289158 0.117983
0.685664 0.289952 0.131594
0.710079 0.292149 0.145785
0.736385 0.296178 0.161044
0.764889 0.302220 0.178195
0.796078 0.311070 0.197940
0.830472 0.323705 0.221042
0.868254 0.340917 0.249119
0.000000 0.319066 0.000000
0.000000 0.319280 0.000000
0.000000 0.319371 0.000000
0.061524 0.319677 0.000000
0.099184 0.320256 0.000000
0.132235 0.320928 0.000000
0.164248 0.321904 0.000000
0.195315 0.322972 0.000000
0.226291 0.324285 0.000000
0.257481 0.325811 0.000000
0.288670 0.327337 0.000000
0.320165 0.329107 0.000000
0.351568 0.330602 0.000000
0.384497 0.333165 0.000000
0.419623 0.337346 0.000000
0.454932 0.340978 0.000000
0.490089 0.344244 0.000000
0.525109 0.346929 0.000000
0.558618 0.348669 0.000000
0.587488 0.347539 0.000000
0.604730 0.340246 0.000000
0.622736 0.334356 0.035523
0.641260 0.329625 0.072877
0.660731 0.326238 0.091615
0.681117 0.324163 0.108034
0.702541 0.323308 0.123873
0.725643 0.324102 0.139712
0.750851 0.326787 0.155795
0.778195 0.331548 0.173892
0.808377 0.339117 0.194186
0.841642 0.350103 0.217594
0.878386 0.365454 0.245579
0.000000 0.356237 0.000000
0.000000 0.356359 0.000000
0.000000 0.356420 0.000000
0.050996 0.356817 0.000000
0.096315 0.357458 0.000000
0.132021 0.357977 0.000000
0.165316 0.358892 0.000000
0.197421 0.359747 0.000000
0.229252 0.360967 0.000000
0.261112 0.362371 0.000000
0.292821 0.363745 0.000000
0.324834 0.365270 0.000000
0.357092 0.367010 0.000000
0.389532 0.368780 0.000000
0.421912 0.370459 0.000000
0.457252 0.374212 0.000000
0.492348 0.377356 0.000000
0.526909 0.380011 0.000000
0.560052 0.381628 0.000000
0.592187 0.382422 0.000000
0.623224 0.382483 0.000000
0.646143 0.378088 0.000000
0.663264 0.371191 0.021759
0.681117 0.365515 0.071809
0.700160 0.361608 0.094392
0.720424 0.359106 0.113252
0.742428 0.358495 0.131075
0.766323 0.359655 0.149142
0.792599 0.362951 0.168368
0.821622 0.369024 0.189212
0.853758 0.378332 0.212955
0.889311 0.391882 0.241306
0.000000 0.393988 0.000000
0.000000 0.393988 0.000000
0.000000 0.394202 0.000000
0.031159 0.394415 0.000000
0.092714 0.394781 0.000000
0.130678 0.395392 0.000000
0.165805 0.396246 0.000000
0.198978 0.397070 0.000000
0.231662 0.398047 0.000000
0.264195 0.399268 0.000000
0.296391 0.400549 0.000000
0.328923 0.402014 0.000000
0.361456 0.403632 0.000000
0.394171 0.405219 0.000000
0.427161 0.406958 0.000000
0.459297 0.407813 0.000000
0.494270 0.411078 0.000000
0.528923 0.413611 0.000000
0.561669 0.414710 0.000000
0.593317 0.415229 0.000000
0.624140 0.415076 0.000000
0.654200 0.414801 0.000000
0.683772 0.414374 0.000000
0.702419 0.407874 0.009766
0.720089 0.401801 0.071656
0.739132 0.397436 0.098146
0.759884 0.395026 0.119905
0.782712 0.394537 0.140200
0.807858 0.396429 0.160922
0.835752 0.400916 0.182834
0.866667 0.408576 0.207401
0.901030 0.420172 0.235508
0.000000 0.431769 0.000000
0.000000 0.431830 0.000000
0.000000 0.431891 0.000000
0.006348 0.432197 0.000000
0.088808 0.432502 0.000000
0.128695 0.433173 0.000000
0.165042 0.433692 0.000000
0.199802 0.434485 0.000000
0.233066 0.435401 0.000000
0.266331 0.436469 0.000000
0.299321 0.437598 0.000000
0.332067 0.438788 0.000000
0.364965 0.440223 0.000000
0.397986 0.441688 0.000000
0.431220 0.443153 0.000000
0.464485 0.444770 0.000000
0.496376 0.445014 0.000000
0.530541 0.447364 0.000000
0.563165 0.448219 0.000000
0.594720 0.448280 0.000000
0.625208 0.447913 0.000000
0.655055 0.447242 0.000000
0.684382 0.446632 0.000000
0.713466 0.445960 0.000000
0.740627 0.444434 0.001282
0.758541 0.438209 0.074159
0.778195 0.433814 0.103639
0.799924 0.431647 0.127810
0.823972 0.431891 0.150790
0.850614 0.434699 0.174533
0.880339 0.440620 0.199954
0.913390 0.450385 0.228702
0.000000 0.469459 0.000000
0.000000 0.469520 0.000000
0.000000 0.469581 0.000000
0.000000 0.469825 0.000000
0.081941 0.470069 0.000000
0.126314 0.470588 0.000000
0.164096 0.471107 0.000000
0.199832 0.471778 0.000000
0.234043 0.472602 0.000000
0.267948 0.473457 0.000000
0.301274 0.474434 0.000000
0.334539 0.475593 0.000000
0.367773 0.476722 0.000000
0.401099 0.477943 0.000000
0.434333 0.479286 0.000000
0.467750 0.480629 0.000000
0.501091 0.481971 0.000000
0.532219 0.481392 0.000000
0.564630 0.481910 0.000000
0.595911 0.481605 0.000000
0.626337 0.480903 0.000000
0.655909 0.479866 0.000000
0.685115 0.478920 0.000000
0.714107 0.478035 0.000000
0.743008 0.477455 0.001068
0.772366 0.477485 0.039124
0.797116 0.474922 0.078279
0.817807 0.471015 0.110414
0.840726 0.469459 0.137667
0.866209 0.470405 0.163577
0.894682 0.474556 0.190249
0.926329 0.482277 0.220035
0.000000 0.506676 0.000000
0.000000 0.506676 0.000000
0.000000 0.506828 0.000000
0.000000 0.506981 0.000000
0.074983 0.507195 0.000000
0.123293 0.507591 0.000000
0.162692 0.508141 0.000000
0.199283 0.508629 0.000000
0.234409 0.509239 0.000000
0.268711 0.509911 0.000000
0.302464 0.510796 0.000000
0.336126 0.511467 0.000000
0.369299 0.512383 0.000000
0.402625 0.513146 0.000000
0.435706 0.514061 0.000000
0.468727 0.514855 0.000000
0.501762 0.515679 0.000000
0.534813 0.516472 0.000000
0.565881 0.515770 0.000000
0.596948 0.515129 0.000000
0.627192 0.514000 0.000000
0.656794 0.512657 0.000000
0.685847 0.511315 0.000000
0.714656 0.510246 0.000000
0.743587 0.509422 0.012390
0.772885 0.509239 0.052399
0.802945 0.509789 0.073243
0.833982 0.511192 0.089235
0.857969 0.508995 0.119265
0.882292 0.508141 0.149294
0.909453 0.510307 0.178042
0.939666 0.515953 0.209079
0.000000 0.542138 0.000000
0.000000 0.542168 0.000000
0.000000 0.542168 0.000000
0.000000 0.542351 0.000000
0.067811 0.542504 0.000000
0.118898 0.542718 0.000000
0.160372 0.542992 0.000000
0.197787 0.543359 0.000000
0.233738 0.543694 0.000000
0.268528 0.544121 0.000000
0.302159 0.544610 0.000000
0.335882 0.545159 0.000000
0.369238 0.545647 0.000000
0.402350 0.546258 0.000000
0.435370 0.546838 0.000000
0.468299 0.547356 0.000000
0.501091 0.547967 0.000000
0.533776 0.548547 0.000000
0.566430 0.549065 0.000000
0.597925 0.548699 0.000000
0.628016 0.547234 0.000000
0.657465 0.545556 0.000000
0.686549 0.543908 0.000000
0.715358 0.542504 0.000000
0.744106 0.541466 0.025971
0.773404 0.541131 0.063111
0.803464 0.541588 0.080629
0.834501 0.542870 0.096956
0.866606 0.545159 0.111788
0.898711 0.547753 0.130220
0.924590 0.547875 0.162325
0.953277 0.551263 0.195590
0.000000 0.575280 0.000000
0.000000 0.575341 0.000000
0.000000 0.575402 0.000000
0.000000 0.575433 0.000000
0.059388 0.575555 0.000000
0.115877 0.575708 0.000000
0.158511 0.575921 0.000000
0.196353 0.576135 0.000000
0.232456 0.576410 0.000000
0.267002 0.576745 0.000000
0.301274 0.576989 0.000000
0.335088 0.577295 0.000000
0.368261 0.577630 0.000000
0.401343 0.578027 0.000000
0.434241 0.578424 0.000000
0.466896 0.578790 0.000000
0.499641 0.579187 0.000000
0.532128 0.579522 0.000000
0.564538 0.579919 0.000000
0.596765 0.580316 0.000000
0.628748 0.580438 0.000000
0.658137 0.578485 0.000000
0.687098 0.576532 0.000000
0.715938 0.574884 0.000000
0.744717 0.573571 0.038514
0.773983 0.573083 0.070314
0.804044 0.573419 0.088441
0.835080 0.574701 0.104677
0.867216 0.576959 0.119844
0.900572 0.580194 0.135317
0.935058 0.584527 0.152010
0.967041 0.588281 0.178195
0.000000 0.607050 0.000000
0.000000 0.607050 0.000000
0.000000 0.607111 0.000000
0.000000 0.607141 0.000000
0.049866 0.607263 0.000000
0.113924 0.607355 0.000000
0.156435 0.607446 0.000000
0.194919 0.607599 0.000000
0.230961 0.607782 0.000000
0.265965 0.607965 0.000000
0.300023 0.608118 0.000000
0.333745 0.608362 0.000000
0.367102 0.608545 0.000000
0.400031 0.608820 0.000000
0.432776 0.609003 0.000000
0.465339 0.609277 0.000000
0.497749 0.609522 0.000000
0.529992 0.609766 0.000000
0.562158 0.610010 0.000000
0.594263 0.610285 0.000000
0.626154 0.610468 0.000000
0.658198 0.610986 0.000000
0.687587 0.609247 0.000000
0.716365 0.607263 0.026459
0.745205 0.605798 0.060914
0.774624 0.605066 0.076967
0.804654 0.605310 0.095521
0.835691 0.606500 0.112428
0.867857 0.608759 0.128267
0.901152 0.612116 0.144259
0.935668 0.616480 0.160952
0.971191 0.621942 0.179538
0.000000 0.637659 0.000000
0.000000 0.637659 0.000000
0.000000 0.637690 0.000000
0.000000 0.637781 0.000000
0.047730 0.637751 0.000000
0.112490 0.637903 0.000000
0.155764 0.637873 0.000000
0.193881 0.638025 0.000000
0.230014 0.638117 0.000000
0.264897 0.638270 0.000000
0.298955 0.638361 0.000000
0.332372 0.638514 0.000000
0.365545 0.638605 0.000000
0.398352 0.638788 0.000000
0.430915 0.638911 0.000000
0.463386 0.639124 0.000000
0.495705 0.639246 0.000000
0.527764 0.639399 0.000000
0.559777 0.639551 0.000000
0.591547 0.639704 0.000000
0.623224 0.639918 0.000000
0.654841 0.640040 0.001221
0.686885 0.640772 0.022827
0.716762 0.639673 0.057343
0.745632 0.638025 0.074372
0.775051 0.637201 0.089418
0.805264 0.637263 0.103883
0.836332 0.638422 0.119966
0.868528 0.640620 0.136385
0.901884 0.644007 0.152560
0.936339 0.648463 0.170474
0.971801 0.654292 0.189181
0.000000 0.667536 0.000000
0.000000 0.667536 0.000000
0.000000 0.667506 0.000000
0.000000 0.667536 0.000000
0.050568 0.667567 0.000000
0.113222 0.667597 0.000000
0.155642 0.667659 0.000000
0.193545 0.667720 0.000000
0.229465 0.667750 0.000000
0.264073 0.667811 0.000000
0.297948 0.667933 0.000000
0.331456 0.668025 0.000000
0.364385 0.668086 0.000000
0.396918 0.668208 0.000000
0.429450 0.668330 0.000000
0.461677 0.668421 0.000000
0.493721 0.668544 0.000000
0.525628 0.668666 0.000000
0.557427 0.668818 0.000000
0.589014 0.668940 0.013031
0.620600 0.669093 0.033661
0.652064 0.669215 0.052827
0.683314 0.669429 0.066804
0.715206 0.670192 0.075349
0.746059 0.670222 0.088289
0.775509 0.669276 0.102205
0.805753 0.669337 0.115602
0.837003 0.670405 0.129091
0.869230 0.672572 0.144533
0.902617 0.675990 0.161715
0.937041 0.680690 0.179782
0.972412 0.687068 0.199405
0.000000 0.696803 0.000000
0.000000 0.696803 0.000000
0.000000 0.696864 0.000000
0.000000 0.696864 0.000000
0.059815 0.696834 0.000000
0.115419 0.696834 0.000000
0.156802 0.696925 0.000000
0.194125 0.696956 0.000000
0.229801 0.697017 0.000000
0.264164 0.697078 0.000000
0.297978 0.697108 0.000000
0.330877 0.697230 0.000000
0.363531 0.697292 0.000000
0.396124 0.697322 0.000000
0.428229 0.697444 0.000000
0.460395 0.697536 0.000000
0.492195 0.697658 0.015290
0.523857 0.697780 0.030121
0.555505 0.697902 0.052033
0.587030 0.698054 0.063386
0.618463 0.698238 0.071321
0.649775 0.698390 0.080385
0.680903 0.698634 0.088594
0.712032 0.698939 0.096254
0.743648 0.699733 0.104372
0.775937 0.701381 0.114168
0.806241 0.701381 0.127932
0.837522 0.702449 0.140932
0.869871 0.704677 0.155459
0.903349 0.708095 0.170687
0.937774 0.713161 0.189578
0.973022 0.719997 0.209506
0.000000 0.725978 0.000000
0.000000 0.725948 0.000000
0.000000 0.725948 0.000000
0.000000 0.725978 0.000000
0.069520 0.726009 0.000000
0.120150 0.726040 0.000000
0.159731 0.726101 0.000000
0.196414 0.726101 0.000000
0.231327 0.726131 0.000000
0.265171 0.726192 0.000000
0.298436 0.726253 0.000000
0.331121 0.726345 0.007904
0.363500 0.726436 0.017853
0.395758 0.726528 0.031281
0.427771 0.726650 0.046204
0.459510 0.726833 0.059480
0.491310 0.726925 0.066438
0.522881 0.727108 0.073701
0.554467 0.727321 0.080293
0.585840 0.727535 0.086915
0.617029 0.727779 0.094118
0.648280 0.728054 0.101198
0.679469 0.728389 0.108400
0.710475 0.728664 0.115816
0.741451 0.729091 0.122805
0.772732 0.729885 0.130159
0.806760 0.733272 0.139986
0.838102 0.734340 0.153201
0.870512 0.736751 0.167483
0.903990 0.740444 0.182773
0.938476 0.745693 0.199374
0.973693 0.752895 0.220371
0.000000 0.755398 0.020905
0.000000 0.755398 0.018921
0.000000 0.755428 0.020966
0.000000 0.755428 0.023804
0.082185 0.755428 0.027314
0.126680 0.755520 0.029084
0.164584 0.755550 0.037171
0.199802 0.755612 0.042603
0.233982 0.755673 0.048096
0.267308 0.755764 0.055329
0.299840 0.755825 0.061402
0.332311 0.755978 0.065888
0.364477 0.756130 0.070527
0.396460 0.756222 0.074617
0.428229 0.756405 0.080751
0.459815 0.756619 0.085878
0.491432 0.756802 0.091279
0.522911 0.757046 0.096651
0.554223 0.757321 0.103090
0.585565 0.757626 0.108492
0.616724 0.757931 0.115328
0.647913 0.758297 0.122042
0.679042 0.758724 0.127810
0.710018 0.759182 0.135042
0.741054 0.759701 0.141482
0.771939 0.760281 0.148531
0.802884 0.760922 0.155886
0.838682 0.766293 0.166476
0.871122 0.768734 0.180148
0.904631 0.772641 0.195834
0.939117 0.778164 0.212802
0.974334 0.785672 0.232059
0.000000 0.785519 0.072633
0.000000 0.785519 0.073426
0.000000 0.785580 0.072969
0.036500 0.785611 0.074586
0.096651 0.785611 0.075410
0.135561 0.785672 0.076326
0.170993 0.785733 0.078737
0.205020 0.785794 0.080659
0.238254 0.785885 0.083528
0.270665 0.786007 0.085573
0.302831 0.786130 0.089113
0.334752 0.786343 0.093019
0.366583 0.786496 0.096407
0.398322 0.786709 0.100862
0.429847 0.786954 0.104494
0.461219 0.787167 0.109621
0.492683 0.787472 0.114443
0.523980 0.787778 0.119112
0.555322 0.788144 0.124514
0.586419 0.788540 0.129885
0.617609 0.788968 0.135988
0.648707 0.789425 0.141665
0.679805 0.789975 0.148287
0.710842 0.790585 0.154574
0.741817 0.791196 0.161410
0.772824 0.791897 0.168002
0.803799 0.792660 0.175540
0.834684 0.793484 0.183047
0.871824 0.800412 0.193729
0.905364 0.804471 0.209171
0.939849 0.810178 0.226139
0.974914 0.818021 0.246311
0.000000 0.816587 0.100099
0.000000 0.816617 0.100832
0.015595 0.816617 0.100587
0.076081 0.816648 0.101411
0.112917 0.816678 0.102144
0.147097 0.816770 0.103029
0.179873 0.816831 0.104707
0.212192 0.816953 0.106020
0.243992 0.817075 0.108766
0.275792 0.817227 0.111299
0.307347 0.817441 0.113832
0.338750 0.817624 0.117372
0.370092 0.817868 0.120272
0.401373 0.818143 0.123873
0.432685 0.818418 0.128145
0.463996 0.818753 0.131777
0.495247 0.819120 0.136629
0.526360 0.819516 0.140993
0.557549 0.819944 0.146151
0.588678 0.820462 0.151705
0.619745 0.820981 0.156741
0.650874 0.821561 0.162966
0.681910 0.822202 0.169039
0.712917 0.822904 0.174960
0.743954 0.823667 0.182223
0.775113 0.824460 0.188876
0.806271 0.825315 0.196048
0.837369 0.826261 0.203372
0.868132 0.827329 0.211307
0.906157 0.835691 0.222782
0.940612 0.841550 0.240177
0.975616 0.849516 0.260685
0.038422 0.848722 0.125429
0.061982 0.848753 0.125612
0.077790 0.848753 0.125978
0.102144 0.848814 0.126436
0.131014 0.848844 0.127169
0.160525 0.848966 0.128176
0.190768 0.849058 0.129274
0.221012 0.849241 0.130617
0.251774 0.849363 0.132906
0.282628 0.849577 0.135531
0.313420 0.849821 0.137667
0.344305 0.850065 0.140780
0.375189 0.850340 0.143557
0.406195 0.850675 0.147341
