data/fiter_cube/96471014/1022821/file.cube
# Created by Adobe Lightroom plugin Export LUT (1.17.0)
# www.johnrellis.com/lightroom/exportlut.htm
# Preset: 古风系-大海故乡
# Color profile: C:\Program Files (x86)\Common Files\Adobe\Color\Profiles\Recommended\AdobeRGB1998.icc
LUT_3D_SIZE 5
DOMAIN_MIN 0.000000 0.000000 0.000000
DOMAIN_MAX 0.903226 0.903226 0.903226
0.000000 0.000000 0.000000
0.142245 0.029297 0.039155
0.308843 0.057740 0.077546
0.481941 0.086946 0.118868
0.701625 0.147494 0.189487
0.000000 0.180972 0.000000
0.181613 0.186343 0.000000
0.382696 0.195804 0.018921
0.539391 0.192844 0.106386
0.731868 0.227085 0.185672
0.000000 0.431769 0.000000
0.199802 0.434485 0.000000
0.431220 0.443153 0.000000
0.655055 0.447242 0.000000
0.823972 0.431891 0.150790
0.000000 0.667536 0.000000
0.193545 0.667720 0.000000
0.429450 0.668330 0.000000
0.652064 0.669215 0.052827
0.869230 0.672572 0.144533
0.092683 0.882078 0.150362
0.232883 0.882628 0.155642
0.443305 0.884733 0.175021
0.659236 0.888914 0.209323
0.879271 0.895262 0.259312
0.000000 0.000000 0.148653
0.173495 0.000000 0.168460
0.311559 0.107240 0.179232
0.457618 0.117983 0.193729
0.682094 0.149691 0.242588
0.000000 0.175692 0.166934
0.179751 0.187411 0.174166
0.352026 0.188815 0.183383
0.513848 0.192844 0.198184
0.713954 0.224796 0.245853
0.000000 0.433814 0.190463
0.176547 0.437873 0.174350
0.431250 0.444739 0.178012
0.655879 0.445716 0.192050
0.810361 0.426490 0.247257
0.000000 0.668360 0.193698
0.180850 0.668849 0.189639
0.427222 0.669123 0.197879
0.652125 0.669642 0.214389
0.869413 0.673671 0.255039
0.109926 0.882109 0.256077
0.240818 0.882597 0.260960
0.447181 0.884672 0.273136
0.661341 0.888853 0.296971
0.879789 0.895354 0.334966
0.000000 0.000000 0.314702
0.170962 0.000000 0.348882
0.416815 0.000000 0.404456
0.589441 0.048676 0.385595
0.685023 0.190036 0.381109
0.000000 0.141482 0.306523
0.133791 0.145968 0.344549
0.422370 0.179629 0.409400
0.565606 0.214755 0.377539
0.662196 0.242741 0.371954
0.000000 0.401465 0.380652
0.140505 0.415900 0.392432
0.428290 0.444862 0.415869
0.588952 0.412024 0.396948
0.747158 0.395026 0.394690
0.000000 0.669062 0.419287
0.178439 0.669490 0.418769
0.433997 0.668910 0.428260
0.652888 0.669856 0.437812
0.868620 0.678645 0.462989
0.124483 0.882536 0.443549
0.253391 0.882780 0.448768
0.462013 0.884062 0.465675
0.667567 0.888731 0.477790
0.881682 0.895811 0.496834
0.000000 0.000000 0.486732
0.153475 0.000000 0.515129
0.400031 0.000000 0.599908
0.653407 0.000000 0.634943
0.862150 0.095918 0.631098
0.000000 0.101961 0.477211
0.081270 0.101625 0.505882
0.386481 0.131044 0.593103
0.654414 0.187045 0.636194
0.851194 0.251804 0.628412
0.000000 0.291905 0.450904
0.000000 0.285893 0.456428
0.316564 0.334630 0.555261
0.654047 0.452491 0.638331
0.804440 0.442054 0.609064
0.000000 0.619196 0.589166
0.000000 0.625818 0.594995
0.393256 0.645106 0.614496
0.654383 0.668391 0.643885
0.798398 0.612665 0.601251
0.155245 0.883116 0.646296
0.268833 0.883360 0.649104
0.461982 0.885313 0.655634
0.657496 0.891234 0.654200
0.884825 0.897215 0.662928
0.000000 0.000000 0.730587
0.133455 0.000000 0.743130
0.376684 0.000000 0.785122
0.650050 0.000000 0.851560
0.881407 0.033936 0.859068
0.000000 0.000000 0.722560
0.000000 0.000000 0.735653
0.353002 0.000000 0.779507
0.645411 0.162295 0.848417
0.881224 0.237156 0.859556
0.000000 0.247929 0.676692
0.000000 0.222293 0.694209
0.211826 0.231693 0.750637
0.619684 0.378210 0.833249
0.880858 0.459663 0.861662
0.000000 0.521752 0.715511
0.000000 0.510643 0.713283
0.000000 0.457069 0.701564
0.477852 0.494514 0.774075
0.882750 0.663355 0.867308
0.000000 0.855924 0.820066
0.000000 0.857023 0.821317
0.284916 0.860441 0.826200
0.578058 0.870451 0.839597
0.887114 0.897551 0.878721
