data/fiter_cube/52608991/1023027/file.cube
# Created by Adobe Lightroom plugin Export LUT (1.17.0)
# www.johnrellis.com/lightroom/exportlut.htm
# Preset: 大神蓝橙街拍_07 云集
# Color profile: C:\Program Files (x86)\Common Files\Adobe\Color\Profiles\Recommended\AdobeRGB1998.icc
LUT_3D_SIZE 8
DOMAIN_MIN 0.000000 0.000000 0.000000
DOMAIN_MAX 0.903226 0.903226 0.903226
0.029297 0.029297 0.029297
0.114321 0.001099 0.027436
0.242313 0.032776 0.016541
0.394079 0.089296 0.000000
0.572290 0.144839 0.000000
0.798123 0.212192 0.000000
0.935058 0.249760 0.000000
1.000000 0.269810 0.000000
0.013184 0.083833 0.033875
0.109560 0.086793 0.022522
0.228611 0.102113 0.024750
0.374701 0.131563 0.000000
0.549554 0.175051 0.000000
0.764736 0.231968 0.000000
0.916075 0.267155 0.000000
1.000000 0.285344 0.000000
0.000000 0.173342 0.013092
0.122042 0.173159 0.000000
0.235447 0.186801 0.000000
0.367132 0.214176 0.000000
0.556115 0.261906 0.000000
0.768856 0.313970 0.000000
0.931975 0.344152 0.000000
1.000000 0.349828 0.000000
0.000000 0.285100 0.000000
0.127077 0.283055 0.000000
0.255039 0.284672 0.000000
0.408698 0.325261 0.000000
0.603052 0.383642 0.000000
0.786587 0.423682 0.000000
0.927611 0.437171 0.000000
1.000000 0.431525 0.000000
0.000000 0.410529 0.000000
0.111849 0.411994 0.000000
0.291478 0.419501 0.000000
0.436133 0.440070 0.000000
0.609857 0.484932 0.000000
0.774166 0.515435 0.000000
0.906462 0.527398 0.000000
1.000000 0.521569 0.000000
0.000000 0.586328 0.000000
0.001862 0.600061 0.000000
0.324773 0.600458 0.000000
0.493935 0.606897 0.000000
0.644373 0.615167 0.000000
0.805478 0.638849 0.000000
0.922057 0.631098 0.000000
1.000000 0.617578 0.000000
0.000000 0.780331 0.000000
0.000000 0.782376 0.000000
0.321386 0.775265 0.000000
0.530419 0.770596 0.000000
0.685237 0.766995 0.000000
0.834928 0.769711 0.000000
0.936522 0.739834 0.000000
1.000000 0.701656 0.000000
0.000000 0.918456 0.000000
0.000000 0.916564 0.000000
0.286168 0.911925 0.000000
0.528435 0.906859 0.000000
0.688228 0.886961 0.000000
0.838987 0.884001 0.000000
0.973510 0.875669 0.000000
1.000000 0.806821 0.000000
0.019074 0.055848 0.100526
0.097475 0.048646 0.099916
0.222751 0.077974 0.063355
0.361578 0.136751 0.000000
0.535973 0.181277 0.000000
0.745357 0.233402 0.000000
0.904845 0.265110 0.000000
1.000000 0.277653 0.000000
0.000000 0.086641 0.103334
0.099062 0.099062 0.099062
0.218173 0.116670 0.076020
0.356329 0.157931 0.000000
0.529625 0.202701 0.000000
0.729854 0.250675 0.000000
0.890043 0.280064 0.000000
0.997894 0.291264 0.000000
0.000000 0.177920 0.132937
0.090822 0.185214 0.096223
0.232242 0.191348 0.063569
0.353338 0.216464 0.024903
0.524437 0.264836 0.000000
0.727901 0.315007 0.000000
0.896269 0.343908 0.000000
1.000000 0.349798 0.000000
0.000000 0.283116 0.143618
0.058747 0.288090 0.082612
0.247990 0.289982 0.016388
0.389014 0.312688 0.000000
0.544732 0.354437 0.000000
0.724239 0.399725 0.000000
0.890013 0.426612 0.000000
0.998383 0.427100 0.000000
0.000000 0.416358 0.147951
0.000000 0.418921 0.036164
0.274876 0.419837 0.000000
0.417823 0.428595 0.000000
0.576349 0.460426 0.000000
0.742306 0.499580 0.000000
0.886351 0.520317 0.000000
0.995483 0.518120 0.000000
0.000000 0.576165 0.120455
0.000000 0.579431 0.000000
0.284001 0.580163 0.000000
0.469429 0.589593 0.000000
0.627375 0.603540 0.000000
0.795071 0.633570 0.000000
0.913909 0.628840 0.000000
0.996796 0.614160 0.000000
0.000000 0.760342 0.000000
0.000000 0.757870 0.000000
0.272648 0.754513 0.000000
0.507103 0.756100 0.000000
0.670222 0.758328 0.000000
0.821592 0.760403 0.000000
0.924102 0.732418 0.000000
0.996551 0.695949 0.000000
0.000000 0.910674 0.000000
0.000000 0.911467 0.000000
0.234348 0.907713 0.000000
0.506462 0.903563 0.000000
0.687068 0.896483 0.000000
0.838041 0.888060 0.000000
0.970733 0.875395 0.000000
1.000000 0.805447 0.000000
0.000000 0.107668 0.188571
0.006226 0.105592 0.198947
0.211887 0.086610 0.217502
0.381048 0.050111 0.161227
0.563775 0.162631 0.107942
0.758511 0.256016 0.000000
0.910307 0.318212 0.000000
1.000000 0.312749 0.000000
0.000000 0.128267 0.195529
0.064515 0.131685 0.196750
0.210636 0.125154 0.215030
0.371496 0.127230 0.165133
0.550408 0.192355 0.115877
0.743679 0.270848 0.000000
0.899779 0.329870 0.000000
1.000000 0.325750 0.000000
0.000000 0.179568 0.215824
0.055512 0.185977 0.217044
0.212161 0.212161 0.212161
0.364202 0.228000 0.183993
0.553521 0.271824 0.135317
0.743923 0.330327 0.000000
0.897337 0.379553 0.000000
1.000000 0.373541 0.000000
0.000000 0.303960 0.282719
0.000000 0.312749 0.278965
0.191653 0.322515 0.198215
0.398260 0.334691 0.160494
0.560266 0.367407 0.150637
0.743801 0.414801 0.023377
0.897032 0.453101 0.000000
1.000000 0.446418 0.000000
0.000000 0.435309 0.314397
0.000000 0.441444 0.299290
0.165103 0.457099 0.185214
0.419715 0.464607 0.138155
0.595789 0.483589 0.000000
0.753384 0.509728 0.000000
0.889097 0.534234 0.000000
0.996338 0.530632 0.000000
0.000000 0.591241 0.339513
0.000000 0.596460 0.316625
0.093019 0.607446 0.154421
0.439796 0.607691 0.083131
0.620508 0.616510 0.000000
0.788113 0.632593 0.000000
0.908934 0.632044 0.000000
0.998291 0.622004 0.000000
0.000000 0.774716 0.358648
0.000000 0.774746 0.327092
0.000000 0.776883 0.078553
0.448920 0.770291 0.000000
0.649439 0.767330 0.000000
0.818143 0.769772 0.000000
0.928344 0.741451 0.000000
1.000000 0.707027 0.000000
0.000000 0.911894 0.351568
0.000000 0.910948 0.315435
0.000000 0.913634 0.000000
0.429450 0.911498 0.000000
0.657527 0.901396 0.000000
0.823575 0.893339 0.000000
0.970275 0.883055 0.000000
1.000000 0.812009 0.000000
0.000000 0.153048 0.272953
0.000000 0.154665 0.280369
0.122072 0.146059 0.324163
0.348119 0.117311 0.357366
0.560449 0.063081 0.314733
0.759854 0.121828 0.229221
0.904662 0.251041 0.154818
1.000000 0.315984 0.000000
0.000000 0.171511 0.286046
0.000000 0.172366 0.288182
0.126558 0.169162 0.324468
0.350347 0.150332 0.359075
0.559808 0.125704 0.311742
0.752407 0.176791 0.232334
0.899229 0.272099 0.156802
1.000000 0.328649 0.000000
0.000000 0.208743 0.303532
0.000000 0.211582 0.305760
0.148653 0.223453 0.310491
0.353552 0.234501 0.359716
0.564172 0.236851 0.305119
0.760830 0.295964 0.256413
0.914305 0.349889 0.183322
1.000000 0.379370 0.000000
0.000000 0.279789 0.339574
0.000000 0.285283 0.342840
0.145876 0.306615 0.351720
0.358709 0.358709 0.358709
0.551110 0.378180 0.327611
0.745663 0.407233 0.274113
0.900298 0.434089 0.194827
1.000000 0.449928 0.000000
0.000000 0.416602 0.414832
0.000000 0.429755 0.422431
0.000000 0.485054 0.453437
0.338170 0.504936 0.345647
0.592889 0.508110 0.295567
0.754177 0.523735 0.290440
0.897978 0.537346 0.229679
0.998932 0.536034 0.112001
0.000000 0.627649 0.534081
0.000000 0.641749 0.533623
0.000000 0.647150 0.485756
0.302861 0.660639 0.323644
0.612818 0.660731 0.264378
0.793240 0.652064 0.199039
0.909300 0.638361 0.190982
0.998199 0.628840 0.160220
0.000000 0.789029 0.562890
0.000000 0.792355 0.550011
0.000000 0.799374 0.492500
0.251957 0.808743 0.294194
0.611719 0.798520 0.223819
0.810880 0.793179 0.069490
0.928801 0.751095 0.000000
1.000000 0.713191 0.000000
0.000000 0.922881 0.563745
0.000000 0.923735 0.548363
0.000000 0.923552 0.484749
0.201053 0.926543 0.271550
0.590936 0.912627 0.177676
0.791104 0.902251 0.000000
0.959960 0.892180 0.000000
1.000000 0.819791 0.000000
0.000000 0.201236 0.364050
0.000000 0.201724 0.366766
0.000000 0.200778 0.404669
0.245121 0.192050 0.482094
0.525048 0.148257 0.539574
0.741512 0.115114 0.482490
0.905577 0.152773 0.389441
1.000000 0.278813 0.322148
0.000000 0.214237 0.373358
0.000000 0.215152 0.376532
0.000000 0.215885 0.403601
0.243870 0.210758 0.480934
0.523705 0.179294 0.537713
0.741756 0.163119 0.480842
0.905211 0.197574 0.390814
1.000000 0.296483 0.322271
0.000000 0.247562 0.393713
0.000000 0.249607 0.396735
0.030091 0.253208 0.401648
0.237949 0.264408 0.470314
0.518486 0.260594 0.530510
0.732174 0.262119 0.468605
0.896513 0.301671 0.394751
0.998627 0.344091 0.314214
0.000000 0.303471 0.427985
0.000000 0.305303 0.429389
0.000000 0.314702 0.436500
0.252995 0.339055 0.448524
0.523552 0.378851 0.531365
0.738003 0.393256 0.467933
0.893523 0.422004 0.407294
0.999512 0.418158 0.302403
0.000000 0.393591 0.480354
0.000000 0.397772 0.483131
0.000000 0.412238 0.490455
0.260105 0.447883 0.505364
0.521172 0.521172 0.521172
0.725795 0.533928 0.481971
0.885954 0.535088 0.416297
0.994659 0.519097 0.316503
0.000000 0.516655 0.539849
0.000000 0.523339 0.542687
0.000000 0.560266 0.564599
0.158694 0.642267 0.610285
0.477333 0.662318 0.484749
0.757382 0.660639 0.433814
0.888792 0.655085 0.440528
0.990143 0.635340 0.371527
0.000000 0.791409 0.733059
0.000000 0.797635 0.734371
0.000000 0.803311 0.710506
0.000000 0.809476 0.643153
0.453468 0.813443 0.471077
0.757809 0.803494 0.395666
0.912352 0.760800 0.325994
0.992645 0.718044 0.307561
0.000000 0.921569 0.747097
0.000000 0.921416 0.737484
0.000000 0.921355 0.700862
0.000000 0.926665 0.630823
0.428016 0.924437 0.456001
0.728359 0.909392 0.362097
0.925170 0.897276 0.214237
1.000000 0.825589 0.090120
0.000000 0.265812 0.487617
0.000000 0.265721 0.490181
0.000000 0.264225 0.513451
0.000000 0.249058 0.590417
0.399756 0.243259 0.676173
0.699062 0.208255 0.718196
0.879393 0.273747 0.641291
0.985351 0.402472 0.588739
0.000000 0.271733 0.487282
0.000000 0.270512 0.487373
0.000000 0.268437 0.500786
0.000000 0.258610 0.575860
0.391485 0.256077 0.664912
0.693172 0.230320 0.711788
0.876249 0.292546 0.638087
0.983490 0.413977 0.588098
0.000000 0.306310 0.516228
0.000000 0.304326 0.514427
0.000000 0.299687 0.511833
0.092317 0.302556 0.562737
0.384222 0.310155 0.659510
0.695796 0.309880 0.712917
0.875944 0.371679 0.640040
0.980926 0.471321 0.598932
0.000000 0.354528 0.547417
0.000000 0.353002 0.545434
0.000000 0.352880 0.546075
0.131472 0.359503 0.554772
0.379919 0.397284 0.656825
0.710872 0.437018 0.724544
0.879667 0.493904 0.653712
0.979248 0.553674 0.618219
0.000000 0.420294 0.581933
0.000000 0.421393 0.583032
0.000000 0.425360 0.586145
0.100343 0.436133 0.592950
0.357214 0.462867 0.601251
0.699794 0.553735 0.708064
0.868742 0.595331 0.652216
0.977264 0.589715 0.587457
0.000000 0.517601 0.634638
0.000000 0.522515 0.639155
0.000000 0.531853 0.643885
0.000000 0.552422 0.652491
0.374182 0.595636 0.666224
0.698939 0.698848 0.698878
0.862608 0.707057 0.668971
0.975189 0.677241 0.591577
0.000000 0.671870 0.725826
0.000000 0.677790 0.729122
0.000000 0.692836 0.733181
0.000000 0.732296 0.747433
0.360723 0.814817 0.784024
0.678035 0.823209 0.683436
0.882231 0.798215 0.621088
0.968750 0.770962 0.608881
0.000000 0.880369 0.848173
0.000000 0.885161 0.849393
0.000000 0.904509 0.855039
0.000000 0.932830 0.854826
0.340093 0.927245 0.775906
0.647517 0.916533 0.658686
0.868956 0.906035 0.571130
0.994934 0.848997 0.477363
0.000000 0.351385 0.651698
0.000000 0.350927 0.654139
0.000000 0.343175 0.657893
0.000000 0.328527 0.703365
0.243503 0.311620 0.762875
0.549615 0.321874 0.821775
0.818723 0.339361 0.839322
0.952972 0.469398 0.767941
0.000000 0.352148 0.644007
0.000000 0.351476 0.645808
0.000000 0.343389 0.643275
0.000000 0.331395 0.687587
0.232822 0.314885 0.750607
0.539971 0.325322 0.811826
0.810483 0.339757 0.830838
0.948150 0.461433 0.759884
0.000000 0.380560 0.666987
0.000000 0.378149 0.665370
0.000000 0.368780 0.658198
0.000000 0.358648 0.676600
0.217380 0.346654 0.743496
0.536278 0.371283 0.808377
0.815274 0.407385 0.834073
0.949432 0.524681 0.769406
0.000000 0.424353 0.696284
0.000000 0.420752 0.692317
0.000000 0.412085 0.684993
0.000000 0.401495 0.677790
0.205997 0.401923 0.726711
0.533593 0.446967 0.804807
0.822812 0.509361 0.838621
0.948455 0.604089 0.779721
0.000000 0.474647 0.715572
0.000000 0.472053 0.712551
0.000000 0.465766 0.706752
0.000000 0.457740 0.701534
0.172000 0.450202 0.692164
0.505730 0.514458 0.779416
0.819059 0.603052 0.830900
0.944152 0.679408 0.785550
0.000000 0.548455 0.749722
0.000000 0.548302 0.749416
0.000000 0.547845 0.748409
0.000000 0.548577 0.747921
0.136873 0.551354 0.744930
0.466773 0.584192 0.743008
0.827634 0.727749 0.833738
0.941650 0.764706 0.800504
0.000000 0.646265 0.794980
0.000000 0.648371 0.796353
0.000000 0.652552 0.796902
0.000000 0.662409 0.798642
0.160586 0.681239 0.798611
0.528832 0.732204 0.802396
0.827817 0.827787 0.827817
0.938415 0.827756 0.802243
0.000000 0.771328 0.852445
0.000000 0.773526 0.852659
0.000000 0.786313 0.858244
0.000000 0.805570 0.860960
0.135897 0.840818 0.863615
0.574304 0.908965 0.885435
0.815976 0.912413 0.819455
0.953491 0.891630 0.771023
0.000000 0.459693 0.837858
0.000000 0.458808 0.838346
0.000000 0.450080 0.832334
0.000000 0.432990 0.845701
0.107149 0.411109 0.867338
0.446845 0.425147 0.891295
0.694484 0.477272 0.917845
0.902922 0.543420 0.920836
0.000000 0.460761 0.834134
0.000000 0.459876 0.834623
0.000000 0.451972 0.829770
0.000000 0.435279 0.839567
0.086671 0.413825 0.862150
0.440864 0.427558 0.887541
0.690455 0.478950 0.914855
0.901244 0.546288 0.918975
0.000000 0.474708 0.836606
0.000000 0.473243 0.836179
0.000000 0.464454 0.829618
0.000000 0.455543 0.834592
0.064576 0.436133 0.855894
0.432898 0.449348 0.882414
0.689418 0.507530 0.911620
0.901671 0.580957 0.918151
0.000000 0.502251 0.846921
0.000000 0.501549 0.847196
0.000000 0.494667 0.842496
0.000000 0.485451 0.837461
0.000000 0.472389 0.846738
0.423560 0.491310 0.877562
0.692103 0.560754 0.908812
0.904662 0.640894 0.918853
0.000000 0.541894 0.857206
0.000000 0.541375 0.857908
0.000000 0.535119 0.854704
0.000000 0.523857 0.850645
0.000000 0.512139 0.839902
0.374090 0.525597 0.862242
0.687434 0.617243 0.901549
0.907591 0.709255 0.918791
0.000000 0.595514 0.872221
0.000000 0.593713 0.870665
0.000000 0.588617 0.867002
0.000000 0.581140 0.863127
0.000000 0.570977 0.858610
0.293950 0.574121 0.851621
0.688838 0.691402 0.894377
0.911437 0.782467 0.919097
0.000000 0.664942 0.893828
0.000000 0.664302 0.893004
0.000000 0.662654 0.891020
0.000000 0.662379 0.889860
0.000000 0.664027 0.887877
0.301518 0.675624 0.884154
0.622583 0.723079 0.870054
0.912505 0.848325 0.916503
0.000000 0.746975 0.917479
0.000000 0.747433 0.917205
0.000000 0.750698 0.917662
0.000000 0.758328 0.918791
0.000000 0.770809 0.917388
0.389258 0.797604 0.913115
0.697230 0.848600 0.905394
0.915068 0.915068 0.915068
