data/fiter_cube/52608991/1023027/file.cube
# Created by Adobe Lightroom plugin Export LUT (1.17.0)
# www.johnrellis.com/lightroom/exportlut.htm
# Preset: 大神蓝橙街拍_07 云集
# Color profile: C:\Program Files (x86)\Common Files\Adobe\Color\Profiles\Recommended\AdobeRGB1998.icc
LUT_3D_SIZE 5
DOMAIN_MIN 0.000000 0.000000 0.000000
DOMAIN_MAX 0.903226 0.903226 0.903226
0.029297 0.029297 0.029297
0.208896 0.019226 0.021485
0.480354 0.116793 0.000000
0.841184 0.224308 0.000000
1.000000 0.269810 0.000000
0.000000 0.149905 0.008698
0.203342 0.161013 0.000000
0.456092 0.213901 0.000000
0.824155 0.304540 0.000000
1.000000 0.333654 0.000000
0.000000 0.343389 0.000000
0.237339 0.340246 0.000000
0.516350 0.410681 0.000000
0.810483 0.472480 0.000000
1.000000 0.475257 0.000000
0.000000 0.645594 0.000000
0.272709 0.649500 0.000000
0.588983 0.658961 0.000000
0.845762 0.670222 0.000000
1.000000 0.637476 0.000000
0.000000 0.918456 0.000000
0.205356 0.913085 0.000000
0.610101 0.889128 0.000000
0.874662 0.884062 0.000000
1.000000 0.806821 0.000000
0.000000 0.094392 0.165103
0.180056 0.077913 0.184421
0.454047 0.136934 0.096345
0.783322 0.282109 0.000000
1.000000 0.301305 0.000000
0.000000 0.155886 0.186679
0.181888 0.181888 0.181888
0.447944 0.223392 0.118441
0.778439 0.332403 0.000000
1.000000 0.352117 0.000000
0.000000 0.356878 0.259098
0.142763 0.372168 0.157443
0.485847 0.395087 0.043610
0.774014 0.465126 0.000000
1.000000 0.485420 0.000000
0.000000 0.655726 0.307897
0.000000 0.670710 0.099519
0.570367 0.672755 0.000000
0.839689 0.671534 0.000000
1.000000 0.641901 0.000000
0.000000 0.918578 0.293797
0.000000 0.920623 0.000000
0.581292 0.906035 0.000000
0.869230 0.892515 0.000000
1.000000 0.813138 0.000000
0.000000 0.176913 0.318090
0.000000 0.176455 0.350683
0.434363 0.133639 0.446143
0.804715 0.000000 0.321111
1.000000 0.285985 0.184421
0.000000 0.217350 0.343053
0.060456 0.221653 0.347570
0.436316 0.224369 0.446265
0.794797 0.233036 0.327916
1.000000 0.338811 0.184817
0.000000 0.335332 0.408270
0.000000 0.350256 0.415412
0.435676 0.435676 0.435676
0.781796 0.469062 0.362158
1.000000 0.479011 0.205966
0.000000 0.671809 0.622614
0.000000 0.683955 0.605676
0.385534 0.707576 0.401312
0.824002 0.687251 0.295720
0.992096 0.648310 0.256352
0.000000 0.919005 0.654749
0.000000 0.921996 0.613519
0.317327 0.925566 0.359991
0.809476 0.901305 0.154208
1.000000 0.820157 0.000000
0.000000 0.280095 0.515496
0.000000 0.277806 0.525719
0.200931 0.260838 0.648707
0.730129 0.230411 0.749905
0.976623 0.413825 0.632746
0.000000 0.307378 0.532830
0.000000 0.302342 0.531060
0.187167 0.296452 0.633509
0.724849 0.299992 0.743069
0.971862 0.454108 0.632410
0.000000 0.387915 0.580377
0.000000 0.386786 0.579614
0.199619 0.390936 0.580316
0.717861 0.477241 0.730434
0.964965 0.595117 0.657649
0.000000 0.556878 0.683619
0.000000 0.560021 0.682094
0.170748 0.593683 0.693721
0.735409 0.735348 0.735378
0.963867 0.715419 0.648737
0.000000 0.846616 0.842863
0.000000 0.865293 0.849699
0.000000 0.934508 0.872343
0.702113 0.916258 0.710536
0.985260 0.858183 0.559045
0.000000 0.459693 0.837858
0.000000 0.452644 0.833921
0.000000 0.421576 0.855680
0.510399 0.434028 0.897948
0.902922 0.543420 0.920836
0.000000 0.471626 0.837675
0.000000 0.465126 0.834073
0.000000 0.439582 0.846769
0.501946 0.453101 0.891508
0.902251 0.573175 0.919066
0.000000 0.520317 0.851530
0.000000 0.513451 0.848081
0.000000 0.494423 0.835264
0.474250 0.517967 0.876616
0.905943 0.673884 0.918822
0.000000 0.614740 0.881071
0.000000 0.610651 0.877775
0.000000 0.599969 0.871550
0.369604 0.600977 0.855894
0.911406 0.798337 0.918242
0.000000 0.746975 0.917479
0.000000 0.749447 0.917357
0.000000 0.763577 0.918425
0.472145 0.808194 0.911437
0.915068 0.915068 0.915068
