data/fiter_cube/52608991/1023027/file.cube
# Created by Adobe Lightroom plugin Export LUT (1.17.0)
# www.johnrellis.com/lightroom/exportlut.htm
# Preset: 大神蓝橙街拍_07 云集
# Color profile: C:\Program Files (x86)\Common Files\Adobe\Color\Profiles\Recommended\AdobeRGB1998.icc
LUT_3D_SIZE 32
DOMAIN_MIN 0.0 0.0 0.0
DOMAIN_MAX 1.0 1.0 1.0
0.029297 0.029297 0.029297
0.029297 0.029297 0.029297
0.046937 0.026398 0.029084
0.082826 0.012085 0.027985
0.114321 0.001099 0.027436
0.145113 0.003021 0.026703
0.176699 0.008911 0.025147
0.208896 0.019226 0.021485
0.242313 0.032776 0.016541
0.277073 0.050233 0.008820
0.313970 0.065156 0.000000
0.353216 0.076722 0.000000
0.394079 0.089296 0.000000
0.436530 0.103334 0.000000
0.480354 0.116793 0.000000
0.525597 0.130922 0.000000
0.572290 0.144839 0.000000
0.630488 0.162203 0.000000
0.691707 0.180758 0.000000
0.748379 0.197574 0.000000
0.798123 0.212192 0.000000
0.841184 0.224308 0.000000
0.877348 0.234745 0.000000
0.908293 0.242771 0.000000
0.935058 0.249760 0.000000
0.959075 0.255406 0.000000
0.981384 0.260533 0.000000
1.000000 0.265080 0.000000
1.000000 0.269810 0.000000
1.000000 0.274876 0.000000
1.000000 0.280583 0.000000
1.000000 0.287510 0.000000
0.029297 0.029297 0.029297
0.029297 0.029297 0.029297
0.047944 0.026154 0.029053
0.083009 0.015473 0.028748
0.112917 0.019806 0.029328
0.143282 0.023835 0.027497
0.174685 0.028199 0.026184
0.206485 0.038666 0.022736
0.239384 0.051484 0.016938
0.273930 0.062409 0.010529
0.310369 0.072053 0.000580
0.348882 0.082643 0.000000
0.389258 0.094392 0.000000
0.430976 0.107576 0.000000
0.474281 0.120180 0.000000
0.518853 0.133852 0.000000
0.565057 0.147585 0.000000
0.622309 0.163973 0.000000
0.681239 0.181369 0.000000
0.737087 0.197574 0.000000
0.787167 0.211856 0.000000
0.830991 0.224460 0.000000
0.868254 0.234684 0.000000
0.900298 0.242771 0.000000
0.928130 0.249638 0.000000
0.953094 0.255314 0.000000
0.976318 0.260624 0.000000
0.998047 0.265385 0.000000
1.000000 0.269963 0.000000
1.000000 0.274907 0.000000
1.000000 0.280491 0.000000
1.000000 0.287205 0.000000
0.029297 0.029297 0.029297
0.029145 0.030488 0.029206
0.048951 0.034150 0.029450
0.081178 0.038758 0.030274
0.111116 0.043549 0.030884
0.141512 0.046815 0.030274
0.172213 0.052186 0.026795
0.203830 0.059358 0.023529
0.236759 0.064973 0.017914
0.270970 0.072236 0.011627
0.307286 0.080659 0.001892
0.345464 0.090639 0.000000
0.385718 0.101228 0.000000
0.427344 0.113436 0.000000
0.470375 0.125490 0.000000
0.514763 0.138277 0.000000
0.560662 0.151614 0.000000
0.617609 0.167849 0.000000
0.675257 0.184421 0.000000
0.730465 0.200687 0.000000
0.781064 0.214450 0.000000
0.825406 0.226413 0.000000
0.863340 0.237034 0.000000
0.895995 0.244877 0.000000
0.924346 0.251682 0.000000
0.949798 0.257328 0.000000
0.973480 0.262455 0.000000
0.995636 0.267155 0.000000
1.000000 0.271580 0.000000
1.000000 0.276585 0.000000
1.000000 0.281865 0.000000
1.000000 0.288457 0.000000
0.023285 0.063539 0.031159
0.021485 0.065492 0.029694
0.056123 0.066255 0.024201
0.081727 0.065827 0.027863
0.108431 0.068757 0.036164
0.138705 0.071473 0.033173
0.169802 0.074250 0.030701
0.201328 0.078157 0.026307
0.233890 0.083040 0.020722
0.268009 0.088685 0.013550
0.303685 0.096376 0.002869
0.341863 0.104952 0.000000
0.381384 0.114809 0.000000
0.422675 0.125673 0.000000
0.465370 0.136873 0.000000
0.509453 0.148623 0.000000
0.554986 0.161288 0.000000
0.611872 0.177127 0.000000
0.666987 0.192538 0.000000
0.720485 0.207095 0.000000
0.770474 0.220584 0.000000
0.815427 0.232059 0.000000
0.854826 0.242222 0.000000
0.889464 0.250675 0.000000
0.919951 0.257206 0.000000
0.947143 0.263249 0.000000
0.972015 0.268284 0.000000
0.994812 0.273259 0.000000
1.000000 0.277379 0.000000
1.000000 0.281926 0.000000
1.000000 0.286778 0.000000
1.000000 0.292576 0.000000
0.013184 0.083833 0.033875
0.013733 0.085237 0.020478
0.053834 0.084932 0.020539
0.081849 0.085115 0.018524
0.109560 0.086793 0.022522
0.134798 0.089998 0.038361
0.164706 0.093690 0.035828
0.196139 0.097383 0.030396
0.228611 0.102113 0.024750
0.262181 0.107698 0.016541
0.297704 0.114412 0.006073
0.335332 0.122499 0.000000
0.374701 0.131563 0.000000
0.415900 0.141268 0.000000
0.458717 0.151980 0.000000
0.503258 0.163333 0.000000
0.549554 0.175051 0.000000
0.608057 0.191073 0.000000
0.662440 0.205509 0.000000
0.715206 0.219425 0.000000
0.764736 0.231968 0.000000
0.809598 0.243076 0.000000
0.849454 0.252537 0.000000
0.884855 0.260563 0.000000
0.916075 0.267155 0.000000
0.944030 0.272465 0.000000
0.969360 0.277470 0.000000
0.992554 0.281346 0.000000
1.000000 0.285344 0.000000
1.000000 0.289403 0.000000
1.000000 0.293797 0.000000
1.000000 0.299229 0.000000
0.001495 0.103700 0.029664
0.014496 0.104341 0.015015
0.052522 0.104189 0.014008
0.082460 0.104463 0.011872
0.108461 0.105379 0.008667
0.137819 0.109071 0.014710
0.164981 0.112703 0.029664
0.191989 0.116701 0.036805
0.224460 0.121645 0.029816
0.258152 0.127443 0.020142
0.293553 0.134188 0.008240
0.330999 0.141817 0.000000
0.370306 0.150301 0.000000
0.411444 0.159731 0.000000
0.454292 0.170016 0.000000
0.498970 0.180758 0.000000
0.548943 0.193515 0.000000
0.605890 0.208408 0.000000
0.659968 0.222354 0.000000
0.712978 0.235813 0.000000
0.763210 0.248386 0.000000
0.808865 0.259068 0.000000
0.900908 0.287083 0.000000
0.929595 0.292424 0.000000
0.954406 0.296483 0.000000
0.976532 0.299596 0.000000
0.996612 0.302464 0.000000
1.000000 0.305028 0.000000
1.000000 0.307652 0.000000
1.000000 0.310735 0.000000
1.000000 0.314275 0.000000
1.000000 0.319188 0.000000
0.000000 0.127993 0.006378
0.022004 0.128145 0.005524
0.058869 0.128206 0.004425
0.088075 0.128481 0.001923
0.113588 0.129427 0.000000
0.140658 0.130678 0.000000
0.173251 0.136965 0.000000
0.202762 0.141604 0.013001
0.229709 0.145174 0.026886
0.262974 0.151553 0.021515
0.299748 0.158968 0.006470
0.338598 0.167269 0.000000
0.378515 0.175937 0.000000
0.420264 0.185153 0.000000
0.463203 0.194705 0.000000
0.507195 0.204898 0.000000
0.562921 0.219272 0.000000
0.620539 0.234409 0.000000
0.675929 0.248692 0.000000
0.731350 0.262669 0.000000
0.784451 0.275395 0.000000
0.833402 0.286809 0.000000
0.876555 0.296361 0.000000
0.913237 0.303655 0.000000
0.943938 0.309087 0.000000
0.969421 0.312779 0.000000
0.991302 0.315557 0.000000
1.000000 0.317632 0.000000
1.000000 0.319646 0.000000
1.000000 0.321935 0.000000
1.000000 0.325017 0.000000
1.000000 0.329076 0.000000
0.000000 0.149905 0.008698
0.021180 0.149813 0.005737
0.060334 0.149783 0.002411
0.090761 0.149538 0.000000
0.117250 0.150179 0.000000
0.142733 0.151492 0.000000
0.170413 0.153964 0.000000
0.203342 0.161013 0.000000
0.234073 0.166629 0.000000
0.262394 0.170809 0.004974
0.293523 0.177249 0.011933
0.332006 0.185855 0.000000
0.371954 0.194919 0.000000
0.413428 0.204227 0.000000
0.456092 0.213901 0.000000
0.501976 0.224674 0.000000
0.558587 0.240024 0.000000
0.613581 0.254063 0.000000
0.667414 0.267247 0.000000
0.721981 0.280735 0.000000
0.774960 0.293523 0.000000
0.824155 0.304540 0.000000
0.867979 0.313664 0.000000
0.905425 0.320562 0.000000
0.937011 0.325383 0.000000
0.963348 0.328466 0.000000
0.986023 0.330632 0.000000
1.000000 0.332036 0.000000
1.000000 0.333654 0.000000
1.000000 0.335393 0.000000
1.000000 0.337835 0.000000
1.000000 0.341161 0.000000
0.000000 0.173342 0.013092
0.019318 0.173556 0.009918
0.060273 0.173342 0.005585
0.091676 0.173190 0.000000
0.122042 0.173159 0.000000
0.147402 0.173953 0.000000
0.173220 0.175265 0.000000
0.202335 0.179568 0.000000
0.235447 0.186801 0.000000
0.267979 0.193637 0.000000
0.298253 0.198886 0.000000
0.330236 0.205417 0.000000
0.367132 0.214176 0.000000
0.408453 0.223880 0.000000
0.451026 0.233799 0.000000
0.502129 0.247471 0.000000
0.556115 0.261906 0.000000
0.609400 0.275395 0.000000
0.662013 0.288426 0.000000
0.715999 0.301579 0.000000
0.768856 0.313970 0.000000
0.818112 0.324773 0.000000
0.862089 0.333379 0.000000
0.899931 0.339940 0.000000
0.931975 0.344152 0.000000
0.958801 0.346532 0.000000
0.982055 0.348150 0.000000
1.000000 0.349096 0.000000
1.000000 0.349828 0.000000
1.000000 0.350988 0.000000
1.000000 0.352636 0.000000
1.000000 0.355291 0.000000
0.000000 0.198276 0.012573
0.015412 0.198276 0.010590
0.059174 0.198093 0.007324
0.092409 0.197879 0.000000
0.125338 0.197604 0.000000
0.152132 0.197879 0.000000
0.178073 0.198672 0.000000
0.204196 0.199954 0.000000
0.235355 0.205966 0.000000
0.268711 0.213504 0.000000
0.303136 0.221561 0.000000
0.334813 0.227359 0.000000
0.368139 0.234470 0.000000
0.403265 0.242527 0.000000
0.450019 0.255406 0.000000
0.502342 0.270481 0.000000
0.556115 0.285161 0.000000
0.609369 0.299107 0.000000
0.661891 0.312322 0.000000
0.714931 0.325109 0.000000
0.766110 0.336767 0.000000
0.813260 0.346410 0.000000
0.855650 0.353979 0.000000
0.892546 0.359319 0.000000
0.924498 0.362951 0.000000
0.951995 0.365057 0.000000
0.976287 0.366155 0.000000
0.998199 0.366735 0.000000
1.000000 0.367468 0.000000
1.000000 0.368109 0.000000
1.000000 0.369421 0.000000
1.000000 0.371771 0.000000
0.000000 0.222904 0.008423
0.001556 0.222995 0.006287
0.051118 0.222782 0.004089
0.091157 0.222599 0.000000
0.126070 0.222416 0.000000
0.156893 0.222629 0.000000
0.183322 0.223575 0.000000
0.209995 0.224765 0.000000
0.236851 0.226413 0.000000
0.270359 0.234134 0.000000
0.304723 0.242374 0.000000
0.341100 0.251377 0.000000
0.373999 0.257725 0.000000
0.411414 0.266911 0.000000
0.453834 0.279118 0.000000
0.499825 0.292119 0.000000
0.552087 0.306737 0.000000
0.604150 0.320775 0.000000
0.656031 0.333654 0.000000
0.708583 0.346471 0.000000
0.759792 0.358434 0.000000
0.807401 0.368109 0.000000
0.850248 0.375860 0.000000
0.887785 0.380957 0.000000
0.920134 0.384131 0.000000
0.947906 0.385809 0.000000
0.972412 0.386236 0.000000
0.994537 0.386297 0.000000
1.000000 0.386236 0.000000
1.000000 0.386328 0.000000
1.000000 0.386969 0.000000
1.000000 0.388678 0.000000
0.000000 0.249393 0.000305
0.000000 0.249363 0.000000
0.039216 0.249393 0.000000
0.088045 0.249241 0.000000
0.125521 0.249149 0.000000
0.160983 0.249088 0.000000
0.188907 0.250065 0.000000
0.216495 0.251316 0.000000
0.244114 0.252873 0.000000
0.271916 0.254978 0.000000
0.308019 0.264714 0.000000
0.344244 0.273869 0.000000
0.410773 0.304692 0.000000
0.457893 0.319158 0.000000
0.505394 0.333013 0.000000
0.553613 0.346532 0.000000
0.600427 0.359014 0.000000
0.651575 0.372076 0.000000
0.702449 0.383948 0.000000
0.751766 0.394476 0.000000
0.797147 0.402991 0.000000
0.838407 0.409277 0.000000
0.874846 0.413123 0.000000
0.907012 0.415473 0.000000
0.935241 0.416144 0.000000
0.960052 0.415900 0.000000
0.982147 0.414740 0.000000
1.000000 0.413184 0.000000
1.000000 0.411902 0.000000
1.000000 0.410803 0.000000
1.000000 0.410620 0.000000
1.000000 0.411444 0.001953
0.000000 0.285100 0.000000
0.000000 0.285069 0.000000
0.014679 0.284611 0.000000
0.085389 0.283940 0.000000
0.127077 0.283055 0.000000
0.164889 0.282231 0.000000
0.197482 0.282017 0.000000
0.226078 0.282963 0.000000
0.255039 0.284672 0.000000
0.284611 0.287297 0.000000
0.314916 0.290898 0.000000
0.359197 0.306554 0.000000
0.408698 0.325261 0.000000
0.462593 0.345129 0.000000
0.510185 0.359045 0.000000
0.557458 0.372137 0.000000
0.603052 0.383642 0.000000
0.646509 0.393561 0.000000
0.691554 0.403967 0.000000
0.740780 0.414862 0.000000
0.786587 0.423682 0.000000
0.828519 0.430243 0.000000
0.865660 0.434333 0.000000
0.898650 0.436591 0.000000
0.927611 0.437171 0.000000
0.953124 0.436561 0.000000
0.975921 0.435157 0.000000
0.996704 0.433295 0.000000
1.000000 0.431525 0.000000
1.000000 0.430182 0.000000
1.000000 0.429450 0.000000
1.000000 0.429969 0.026337
0.000000 0.313176 0.000000
0.000000 0.313237 0.000000
0.000000 0.312749 0.000000
0.078859 0.312108 0.000000
0.124819 0.311223 0.000000
0.164584 0.310307 0.000000
0.202335 0.309941 0.000000
0.231449 0.310857 0.000000
0.261112 0.312413 0.000000
0.291478 0.314855 0.000000
0.325170 0.320958 0.000000
0.363073 0.330846 0.000000
0.413581 0.350835 0.000000
0.463264 0.368658 0.000000
0.515923 0.386664 0.000000
0.561700 0.398627 0.000000
0.605219 0.408637 0.000000
0.647333 0.417578 0.000000
0.689174 0.426337 0.000000
0.731197 0.435157 0.000000
0.776669 0.444343 0.000000
0.819486 0.451484 0.000000
0.857664 0.456123 0.000000
0.891569 0.458442 0.000000
0.921324 0.459052 0.000000
0.947601 0.458350 0.000000
0.971038 0.456703 0.000000
0.992401 0.454597 0.000000
1.000000 0.452461 0.000000
1.000000 0.450782 0.000000
1.000000 0.449775 0.000000
1.000000 0.449866 0.061402
0.000000 0.343389 0.000000
0.000000 0.343328 0.000000
0.000000 0.342931 0.000000
0.068727 0.342382 0.000000
0.121553 0.341344 0.000000
0.164157 0.340398 0.000000
0.203738 0.339879 0.000000
0.237339 0.340246 0.000000
0.268254 0.342596 0.000000
0.302434 0.348486 0.000000
0.337774 0.355474 0.000000
0.374701 0.363348 0.000000
0.415747 0.374792 0.000000
0.466743 0.394018 0.000000
0.516350 0.410681 0.000000
0.566735 0.426276 0.000000
0.609796 0.435798 0.000000
0.650324 0.443366 0.000000
0.690974 0.451057 0.000000
0.731746 0.458869 0.000000
0.771084 0.465888 0.000000
0.810483 0.472480 0.000000
0.849393 0.477516 0.000000
0.884154 0.480232 0.000000
0.914916 0.481086 0.000000
0.942290 0.480537 0.000000
0.967010 0.479011 0.000000
0.989563 0.477211 0.000000
1.000000 0.475257 0.000000
1.000000 0.473640 0.000000
1.000000 0.472724 0.000000
1.000000 0.472877 0.092653
0.000000 0.374945 0.000000
0.000000 0.375128 0.000000
0.000000 0.375006 0.000000
0.054444 0.374701 0.000000
0.116884 0.374273 0.000000
0.163638 0.373816 0.000000
0.207065 0.375738 0.000000
0.248264 0.378729 0.000000
0.282048 0.383124 0.000000
0.316960 0.388159 0.000000
0.352544 0.393835 0.000000
0.388922 0.400122 0.000000
0.425330 0.406317 0.000000
0.467689 0.417670 0.000000
0.516655 0.434363 0.000000
0.564050 0.448493 0.000000
0.611200 0.461250 0.000000
0.652918 0.469551 0.000000
0.693629 0.476967 0.000000
0.734646 0.484688 0.000000
0.774166 0.491371 0.000000
0.811398 0.496925 0.000000
0.845670 0.501183 0.000000
0.881071 0.504234 0.000000
0.912444 0.505364 0.000000
0.940429 0.504784 0.000000
0.965545 0.503258 0.000000
0.988342 0.501183 0.000000
1.000000 0.498939 0.000000
1.000000 0.496834 0.000000
1.000000 0.495308 0.024659
1.000000 0.494942 0.111788
0.000000 0.410529 0.000000
0.000000 0.410681 0.000000
0.000000 0.410803 0.000000
0.010132 0.411322 0.000000
0.111849 0.411994 0.000000
0.163577 0.413001 0.000000
0.209781 0.414496 0.000000
0.253513 0.416510 0.000000
0.291478 0.419501 0.000000
0.326513 0.423682 0.000000
0.362524 0.428687 0.000000
0.399176 0.434272 0.000000
0.436133 0.440070 0.000000
0.472755 0.445624 0.000000
0.517601 0.458595 0.000000
0.565026 0.473243 0.000000
0.609857 0.484932 0.000000
0.654780 0.495521 0.000000
0.696101 0.503166 0.000000
0.735714 0.509667 0.000000
0.774166 0.515435 0.000000
0.810727 0.519982 0.000000
0.844633 0.523552 0.000000
0.875792 0.525994 0.000000
0.906462 0.527398 0.000000
0.935363 0.527153 0.000000
0.961334 0.525841 0.000000
0.984924 0.523888 0.000000
1.000000 0.521569 0.000000
1.000000 0.519493 0.000000
1.000000 0.517876 0.073854
1.000000 0.517418 0.130220
0.000000 0.452918 0.000000
0.000000 0.453681 0.000000
0.000000 0.477516 0.000000
0.000000 0.477913 0.000000
0.108583 0.478309 0.000000
0.170504 0.478767 0.000000
0.222873 0.479652 0.000000
0.271489 0.480568 0.000000
0.317144 0.482521 0.000000
0.354711 0.486183 0.000000
0.392798 0.490303 0.000000
0.431281 0.494820 0.000000
0.469337 0.499092 0.000000
0.507103 0.503136 0.000000
0.543542 0.506493 0.000000
0.590417 0.519371 0.000000
0.635035 0.530144 0.000000
0.677394 0.538384 0.000000
0.718715 0.545190 0.000000
0.756100 0.549065 0.000000
0.790829 0.551415 0.000000
0.824460 0.553399 0.000000
0.855863 0.554406 0.000000
0.884520 0.554467 0.000000
0.910277 0.553643 0.000000
0.934691 0.552483 0.000000
0.959442 0.550103 0.000000
0.982300 0.547234 0.000000
1.000000 0.544518 0.000000
1.000000 0.542077 0.000000
1.000000 0.540368 0.096193
1.000000 0.539544 0.146120
0.000000 0.502892 0.000000
0.000000 0.506676 0.000000
0.000000 0.510735 0.000000
0.000000 0.514275 0.000000
0.093538 0.516960 0.000000
0.165682 0.518303 0.000000
0.221469 0.519127 0.000000
0.272801 0.519707 0.000000
0.321752 0.520928 0.000000
0.362219 0.523308 0.000000
0.400641 0.526574 0.000000
0.439124 0.530266 0.000000
0.477241 0.533593 0.000000
0.514733 0.536461 0.000000
0.551141 0.538964 0.000000
0.586419 0.540887 0.000000
0.633845 0.554162 0.000000
0.675746 0.562493 0.000000
0.716487 0.569116 0.000000
0.754910 0.573663 0.000000
0.790249 0.576104 0.000000
0.823880 0.577630 0.000000
0.855344 0.578149 0.000000
0.884154 0.577691 0.000000
0.910155 0.576104 0.000000
0.933928 0.574304 0.000000
0.955810 0.572808 0.000000
0.979034 0.570184 0.000000
1.000000 0.567468 0.000000
1.000000 0.564935 0.055116
1.000000 0.563012 0.116762
1.000000 0.562280 0.163241
0.000000 0.544366 0.000000
0.000000 0.548363 0.000000
0.000000 0.552300 0.000000
0.000000 0.555749 0.000000
0.071962 0.558312 0.000000
0.157748 0.559442 0.000000
0.219059 0.559655 0.000000
0.273075 0.559686 0.000000
0.323705 0.560388 0.000000
0.370184 0.561791 0.000000
0.408820 0.564569 0.000000
0.447669 0.567620 0.000000
0.486061 0.570214 0.000000
0.523949 0.572625 0.000000
0.560754 0.574517 0.000000
0.596460 0.575799 0.000000
0.631342 0.577264 0.000000
0.679286 0.590478 0.000000
0.718837 0.596521 0.000000
0.756619 0.600427 0.000000
0.791775 0.602564 0.000000
0.824949 0.603418 0.000000
0.856260 0.603265 0.000000
0.884825 0.601953 0.000000
0.910674 0.599542 0.000000
0.934234 0.596674 0.000000
0.955993 0.593896 0.000000
0.976349 0.592096 0.000000
0.997284 0.589960 0.000000
1.000000 0.587335 0.084657
1.000000 0.585321 0.133852
1.000000 0.584405 0.178408
0.000000 0.586328 0.000000
0.000000 0.590234 0.000000
0.000000 0.594293 0.000000
0.000000 0.597711 0.000000
0.001862 0.600061 0.000000
0.147585 0.600824 0.000000
0.214878 0.600763 0.000000
0.271855 0.600397 0.000000
0.324773 0.600458 0.000000
0.374853 0.600885 0.000000
0.416297 0.602655 0.000000
0.455360 0.604822 0.000000
0.493935 0.606897 0.000000
0.532311 0.608911 0.000000
0.569970 0.610773 0.000000
0.607202 0.612634 0.000000
0.644373 0.615167 0.000000
0.683711 0.620142 0.000000
0.731167 0.632471 0.000000
0.769589 0.636713 0.000000
0.805478 0.638849 0.000000
0.838407 0.638911 0.000000
0.868345 0.637079 0.000000
0.896635 0.634577 0.000000
0.922057 0.631098 0.000000
0.945006 0.626917 0.000000
0.965972 0.622797 0.000000
0.985473 0.619501 0.000000
1.000000 0.617578 0.000000
1.000000 0.616358 0.132143
1.000000 0.614160 0.173129
1.000000 0.613245 0.214633
0.000000 0.645594 0.000000
0.000000 0.647425 0.000000
0.000000 0.648981 0.000000
0.000000 0.649989 0.000000
0.000000 0.650538 0.000000
0.135531 0.650263 0.000000
0.211246 0.649714 0.000000
0.272709 0.649500 0.000000
0.328893 0.649897 0.000000
0.382330 0.650721 0.000000
0.430549 0.652308 0.000000
0.471199 0.654597 0.000000
0.511101 0.656458 0.000000
0.550378 0.657893 0.000000
0.588983 0.658961 0.000000
0.627008 0.660121 0.000000
0.664454 0.661402 0.000000
0.701595 0.662959 0.000000
0.741176 0.667475 0.000000
0.782315 0.673579 0.000000
0.815457 0.672877 0.000000
0.845762 0.670222 0.000000
0.873014 0.665736 0.000000
0.897856 0.660395 0.000000
0.922606 0.655482 0.000000
0.945312 0.650355 0.000000
0.966339 0.645258 0.000000
0.985870 0.640833 0.000000
1.000000 0.637476 0.000000
1.000000 0.636011 0.104433
1.000000 0.636805 0.190555
1.000000 0.635828 0.231540
0.000000 0.688869 0.000000
0.000000 0.690822 0.000000
0.000000 0.692531 0.000000
0.000000 0.693599 0.000000
0.000000 0.693812 0.000000
0.116213 0.693202 0.000000
0.202884 0.692256 0.000000
0.267979 0.691310 0.000000
0.327092 0.690852 0.000000
0.382300 0.690883 0.000000
0.435309 0.691371 0.000000
0.477455 0.692653 0.000000
0.517693 0.693935 0.000000
0.557427 0.694942 0.000000
0.596612 0.695857 0.000000
0.635187 0.696834 0.000000
0.673457 0.697902 0.000000
0.711299 0.699397 0.000000
0.748898 0.701320 0.000000
0.788052 0.705104 0.000000
0.824826 0.706996 0.000000
0.854429 0.703151 0.000000
0.881224 0.697688 0.000000
0.905241 0.690822 0.000000
0.920745 0.678553 0.000000
0.943389 0.672541 0.000000
0.964599 0.666682 0.000000
0.984344 0.661189 0.000000
1.000000 0.656672 0.000000
1.000000 0.653651 0.000000
1.000000 0.653254 0.156680
1.000000 0.656916 0.243900
0.000000 0.744045 0.000000
0.000000 0.746090 0.000000
0.000000 0.747219 0.000000
0.000000 0.747341 0.000000
0.000000 0.746517 0.000000
0.086763 0.744961 0.000000
0.194034 0.742855 0.000000
0.265568 0.740475 0.000000
0.327520 0.738216 0.000000
0.383917 0.736263 0.000000
0.437751 0.734432 0.000000
0.484932 0.733394 0.000000
0.524743 0.732967 0.000000
0.563928 0.732265 0.000000
0.602045 0.731136 0.000000
0.639490 0.729854 0.000000
0.676326 0.728969 0.000000
0.713252 0.728817 0.000000
0.750454 0.729854 0.000000
0.788083 0.731899 0.000000
0.825711 0.734432 0.000000
0.858091 0.732509 0.000000
0.884062 0.725704 0.000000
0.906981 0.717220 0.000000
0.927184 0.707790 0.000000
0.945342 0.697932 0.000000
0.965850 0.690669 0.000000
0.984955 0.683772 0.000000
1.000000 0.677729 0.000000
1.000000 0.673121 0.000000
1.000000 0.670802 0.102541
1.000000 0.672084 0.211337
0.000000 0.780331 0.000000
0.000000 0.782162 0.000000
0.000000 0.783139 0.000000
0.000000 0.783169 0.000000
0.000000 0.782376 0.000000
0.000000 0.780880 0.000000
0.179446 0.779110 0.000000
0.256779 0.777096 0.000000
0.321386 0.775265 0.000000
0.380377 0.773709 0.000000
0.435645 0.772183 0.000000
0.489204 0.770932 0.000000
0.530419 0.770596 0.000000
0.570245 0.770016 0.000000
0.609247 0.769100 0.000000
0.647517 0.768032 0.000000
0.685237 0.766995 0.000000
0.722683 0.766567 0.000000
0.760037 0.766903 0.000000
0.797604 0.768063 0.000000
0.834928 0.769711 0.000000
0.868254 0.768063 0.000000
0.895048 0.761074 0.000000
0.917021 0.750851 0.000000
0.936522 0.739834 0.000000
0.953857 0.728359 0.000000
0.969543 0.717037 0.000000
0.988312 0.708919 0.000000
1.000000 0.701656 0.000000
1.000000 0.695613 0.000000
1.000000 0.691524 0.000000
1.000000 0.690700 0.182345
0.000000 0.818418 0.000000
0.000000 0.819516 0.000000
0.000000 0.819821 0.000000
0.000000 0.819242 0.000000
0.000000 0.817868 0.000000
0.000000 0.816037 0.000000
0.160952 0.813809 0.000000
0.245731 0.811612 0.000000
0.313848 0.809537 0.000000
0.374487 0.807797 0.000000
0.431159 0.806210 0.000000
0.485542 0.804929 0.000000
0.532586 0.803952 0.000000
0.572747 0.803281 0.000000
0.611963 0.802090 0.000000
0.650446 0.800656 0.000000
0.688258 0.799222 0.000000
0.725643 0.798154 0.000000
0.762997 0.797787 0.000000
0.800229 0.798123 0.000000
0.837186 0.798886 0.000000
0.873991 0.800290 0.000000
0.902007 0.793729 0.000000
0.924590 0.783200 0.000000
0.943481 0.770657 0.000000
0.960388 0.757778 0.000000
0.975647 0.745052 0.000000
0.989380 0.732723 0.000000
1.000000 0.723964 0.000000
1.000000 0.716548 0.000000
1.000000 0.710719 0.000000
1.000000 0.707698 0.130922
0.000000 0.850004 0.000000
0.000000 0.850523 0.000000
0.000000 0.850736 0.000000
0.000000 0.850309 0.000000
0.000000 0.849577 0.000000
0.000000 0.848814 0.000000
0.138430 0.848447 0.000000
0.234775 0.848356 0.000000
0.307439 0.848569 0.000000
0.371466 0.848997 0.000000
0.431403 0.849363 0.000000
0.488045 0.849546 0.000000
0.542351 0.849271 0.000000
0.583917 0.849302 0.000000
0.624567 0.848661 0.000000
0.663996 0.847227 0.000000
0.702663 0.845518 0.000000
0.740688 0.843931 0.000000
0.778500 0.842802 0.000000
0.815824 0.842039 0.000000
0.852628 0.841611 0.000000
0.888731 0.841642 0.000000
0.922972 0.839872 0.000000
0.945281 0.827695 0.000000
0.963104 0.812833 0.000000
0.978454 0.797360 0.000000
0.992340 0.782254 0.000000
1.000000 0.767697 0.000000
1.000000 0.754086 0.000000
1.000000 0.744198 0.000000
1.000000 0.736416 0.000000
1.000000 0.731167 0.095033
0.000000 0.892393 0.000000
0.000000 0.892607 0.000000
0.000000 0.892332 0.000000
0.000000 0.891600 0.000000
0.000000 0.890349 0.000000
0.000000 0.888945 0.000000
0.114046 0.887480 0.000000
0.222751 0.886107 0.000000
0.298894 0.884794 0.000000
0.364721 0.883513 0.000000
0.425116 0.882109 0.000000
0.481819 0.880644 0.000000
0.536065 0.878843 0.000000
0.582208 0.877226 0.000000
