data/fiter_cube/60169440/1023144/file.cube
# Created by Adobe Lightroom plugin Export LUT (1.17.0)
# www.johnrellis.com/lightroom/exportlut.htm
# Preset: 海滩旅拍低饱和胶片_02 云集
# Color profile: C:\Program Files (x86)\Common Files\Adobe\Color\Profiles\Recommended\AdobeRGB1998.icc
LUT_3D_SIZE 8
DOMAIN_MIN 0.000000 0.000000 0.000000
DOMAIN_MAX 0.903226 0.903226 0.903226
0.049042 0.061341 0.081270
0.075959 0.065461 0.086305
0.159121 0.059663 0.094331
0.332952 0.000000 0.099397
0.565454 0.000000 0.097505
0.820188 0.000000 0.106813
0.959594 0.113283 0.199039
1.000000 0.433509 0.410742
0.031556 0.087343 0.101900
0.068208 0.085878 0.093141
0.135439 0.086030 0.095369
0.293584 0.035859 0.100282
0.522545 0.000000 0.098665
0.778286 0.000000 0.100557
0.939971 0.117617 0.175143
1.000000 0.418463 0.380529
0.000000 0.192782 0.174807
0.000000 0.192538 0.181308
0.151553 0.188998 0.126925
0.255528 0.152224 0.107240
0.490333 0.150118 0.100343
0.765103 0.177279 0.098512
0.946258 0.330602 0.204868
1.000000 0.522301 0.439521
0.000000 0.421698 0.326726
0.000000 0.419318 0.329259
0.145632 0.411170 0.357061
0.439155 0.471046 0.206271
0.602106 0.344793 0.131807
0.752682 0.384100 0.103639
0.926757 0.473426 0.217533
0.989380 0.597803 0.454017
0.000000 0.694087 0.549676
0.000000 0.692958 0.552178
0.000000 0.694362 0.580285
0.450874 0.651057 0.606775
0.688319 0.695491 0.357458
0.806485 0.530419 0.223178
0.886046 0.574121 0.220188
0.970764 0.676722 0.472724
0.000000 0.858366 0.718868
0.000000 0.867124 0.733211
0.000000 0.858732 0.747829
0.566308 0.834806 0.790372
0.683253 0.788602 0.783841
0.827512 0.825284 0.587304
0.921904 0.708278 0.467231
0.959594 0.754788 0.548608
0.000000 0.946563 0.827176
0.000000 0.944915 0.831205
0.207797 0.931121 0.839689
0.612146 0.906249 0.861295
0.771115 0.884092 0.877623
0.797299 0.874449 0.866728
0.885801 0.888823 0.778592
0.946563 0.822599 0.719783
0.005829 0.982086 0.887541
0.260441 0.977905 0.889647
0.521416 0.963470 0.898161
0.729458 0.944274 0.912718
0.825132 0.927611 0.920134
0.868009 0.919738 0.925566
0.873594 0.922271 0.917021
0.923369 0.927092 0.882475
0.036255 0.064942 0.107271
0.079103 0.063447 0.102022
0.147829 0.071870 0.100252
0.290013 0.014893 0.100008
0.515862 0.000000 0.098695
0.762325 0.000000 0.099275
0.932219 0.000000 0.164553
1.000000 0.376867 0.353429
0.017182 0.090242 0.118654
0.069215 0.094514 0.118257
0.143252 0.096193 0.111421
0.276097 0.080995 0.103304
0.493111 0.000000 0.099580
0.738796 0.000000 0.097658
0.914672 0.044190 0.150759
0.998474 0.363073 0.325383
0.000000 0.196109 0.181247
0.000000 0.200504 0.190921
0.163333 0.201175 0.157900
0.263890 0.163394 0.127443
0.458350 0.155673 0.104372
0.715663 0.166842 0.095338
0.911681 0.274601 0.159243
0.995789 0.461158 0.364416
0.000000 0.408209 0.322057
0.000000 0.412207 0.329229
0.165377 0.422034 0.371008
0.403723 0.436042 0.229801
0.525872 0.308659 0.154208
0.677913 0.329992 0.110964
0.887266 0.417548 0.161227
0.982666 0.546563 0.376684
0.000000 0.687465 0.547753
0.000000 0.683772 0.547448
0.000000 0.680385 0.568170
0.431037 0.632868 0.587732
0.654658 0.664973 0.359289
0.772976 0.508202 0.232395
0.861021 0.549584 0.213046
0.966308 0.650568 0.422004
0.000000 0.846494 0.707912
0.000000 0.846342 0.711269
0.000000 0.840940 0.725978
0.525292 0.823087 0.771786
0.676387 0.778103 0.776577
0.821988 0.820829 0.598047
0.914641 0.704768 0.474495
0.955230 0.744533 0.531304
0.000000 0.938201 0.815976
0.000000 0.934722 0.816251
0.000000 0.924071 0.825895
0.573083 0.902068 0.851286
0.762661 0.880613 0.873259
0.791806 0.868894 0.862882
0.880125 0.883024 0.768002
0.943359 0.812161 0.698909
0.000000 0.981842 0.882902
0.147158 0.978058 0.885679
0.482429 0.963989 0.894499
0.713497 0.944121 0.909911
0.831449 0.930144 0.923278
0.870726 0.921233 0.927184
0.873564 0.921416 0.917266
0.921965 0.925719 0.880766
0.000000 0.073182 0.194766
0.025513 0.072480 0.197787
0.243381 0.000000 0.188632
0.380072 0.000000 0.139773
0.554894 0.000000 0.126986
0.776364 0.000000 0.108766
0.940459 0.175601 0.178866
1.000000 0.419959 0.384375
0.000000 0.112306 0.202365
0.000000 0.105470 0.212711
0.231479 0.081270 0.200504
0.361089 0.000000 0.157656
0.542596 0.000000 0.136385
0.756344 0.000000 0.113985
0.928099 0.196719 0.167453
1.000000 0.420325 0.369818
0.000000 0.208530 0.248814
0.000000 0.217746 0.251865
0.199985 0.244968 0.259312
0.353552 0.205386 0.203189
0.546685 0.182284 0.169253
0.746944 0.205631 0.140383
0.916808 0.314092 0.168338
0.996368 0.477394 0.377264
0.000000 0.438178 0.372290
0.000000 0.461738 0.382757
0.107271 0.485237 0.422522
0.471901 0.495491 0.364141
0.544732 0.362310 0.240299
0.729213 0.370520 0.197665
0.901396 0.446998 0.205570
0.985260 0.568109 0.404944
0.000000 0.703029 0.572107
0.000000 0.705898 0.578210
0.000000 0.709834 0.604181
0.504204 0.692134 0.658717
0.694911 0.702907 0.502831
0.775875 0.548608 0.336797
0.870939 0.570214 0.299107
0.967895 0.658778 0.437629
0.000000 0.853666 0.721614
0.000000 0.853910 0.725734
0.000000 0.847959 0.739071
0.501671 0.828641 0.774929
0.693233 0.792325 0.792538
0.818875 0.821714 0.664485
0.902007 0.720272 0.544671
0.948302 0.760891 0.591791
0.000000 0.943297 0.824674
0.000000 0.940398 0.825864
0.000000 0.928557 0.832639
0.552514 0.905455 0.852537
0.770626 0.883482 0.878172
0.808286 0.869505 0.874723
0.881804 0.887297 0.806363
0.937804 0.833249 0.759762
0.000000 0.985473 0.883726
0.000000 0.981872 0.884855
0.414252 0.967864 0.892454
0.693294 0.946960 0.909361
0.823148 0.931518 0.922606
0.873228 0.923095 0.929076
0.879973 0.921904 0.922515
0.922850 0.927245 0.891112
0.000000 0.085298 0.357702
0.000000 0.084688 0.372198
0.238682 0.000000 0.392950
0.580468 0.000000 0.366064
0.687098 0.000000 0.240757
0.802304 0.000000 0.207858
0.932921 0.130312 0.219333
1.000000 0.396124 0.363531
0.000000 0.139193 0.379797
0.000000 0.120272 0.390661
0.241672 0.091707 0.420081
0.577813 0.000000 0.380316
0.679652 0.000000 0.249882
0.792905 0.000000 0.216770
0.925780 0.173495 0.222568
1.000000 0.405737 0.359197
0.000000 0.247044 0.388922
0.000000 0.251102 0.393256
0.148592 0.253819 0.440528
0.549737 0.238193 0.426947
0.651484 0.175357 0.302068
0.796201 0.212375 0.266239
0.933165 0.340215 0.281590
0.999481 0.493080 0.401801
0.000000 0.444312 0.488441
0.000000 0.452247 0.491524
0.000000 0.488045 0.509361
0.510582 0.543114 0.545708
0.629908 0.441474 0.406806
0.767636 0.405493 0.331579
0.907469 0.455024 0.324529
0.986908 0.572290 0.426734
0.000000 0.702663 0.639734
0.000000 0.707393 0.639612
0.000000 0.732235 0.649866
0.498482 0.739193 0.705196
0.723629 0.734829 0.665949
0.762905 0.596277 0.470619
0.885039 0.603021 0.432990
0.965881 0.677394 0.529503
0.000000 0.871824 0.755215
0.000000 0.879454 0.763302
0.000000 0.871000 0.770809
0.485725 0.851072 0.799039
0.739895 0.827085 0.832456
0.827817 0.836118 0.767178
0.887846 0.751705 0.647974
0.939086 0.779904 0.663600
0.000000 0.948821 0.833951
0.000000 0.947662 0.836484
0.000000 0.938964 0.845090
0.529717 0.917174 0.862913
0.769345 0.894133 0.886320
0.834440 0.877653 0.892729
0.884031 0.891814 0.845304
0.930541 0.849058 0.805264
0.000000 0.991547 0.889128
0.000000 0.988556 0.890990
0.334539 0.976440 0.896666
0.640864 0.954498 0.908598
0.806271 0.935485 0.922210
0.876799 0.926329 0.932158
0.888762 0.922240 0.929473
0.923674 0.928862 0.903166
0.000000 0.104280 0.585382
0.000000 0.101900 0.597925
0.188266 0.000000 0.629236
0.555993 0.000000 0.629725
0.829709 0.000000 0.573114
0.887602 0.000000 0.419074
0.951019 0.000000 0.355688
1.000000 0.428626 0.466682
0.000000 0.152468 0.593500
0.000000 0.140658 0.608392
0.165133 0.114321 0.639734
0.556390 0.000000 0.644434
0.824552 0.000000 0.583490
0.882383 0.000000 0.428595
0.946105 0.079011 0.372900
0.998566 0.444099 0.472328
0.000000 0.299290 0.570733
0.000000 0.302770 0.591150
0.000000 0.268925 0.643336
0.549279 0.283268 0.689906
0.801877 0.271427 0.618463
0.855222 0.183688 0.451301
0.926177 0.302312 0.411933
0.991547 0.480049 0.478187
0.000000 0.471138 0.633143
0.000000 0.472847 0.633631
0.000000 0.486702 0.643336
0.466255 0.531823 0.708400
0.761440 0.560266 0.686885
0.816403 0.450172 0.521782
0.911162 0.463905 0.471260
0.982605 0.563958 0.519280
0.000000 0.669764 0.715908
0.000000 0.674098 0.717586
0.000000 0.687617 0.722255
0.403998 0.716304 0.740810
0.720058 0.743893 0.764828
0.780850 0.642329 0.625086
0.885191 0.608850 0.548241
0.962524 0.670649 0.597070
0.000000 0.837217 0.793606
0.000000 0.839506 0.793973
0.000000 0.843351 0.792691
0.327825 0.847196 0.798062
0.698695 0.832670 0.829221
0.824033 0.836027 0.821500
0.864347 0.760678 0.702174
0.935698 0.785000 0.721340
0.000000 0.945464 0.856138
0.000000 0.944518 0.854795
0.000000 0.941161 0.852506
0.388678 0.925780 0.861051
0.710201 0.901183 0.881468
0.838956 0.886473 0.899382
0.883299 0.892576 0.870451
0.922026 0.854734 0.827543
0.000000 0.996338 0.889494
0.000000 0.994110 0.890318
0.000000 0.984588 0.894224
0.526909 0.965576 0.906462
0.752529 0.943053 0.918608
0.866361 0.929198 0.931731
0.896696 0.920623 0.934813
0.922881 0.928679 0.911803
0.000000 0.140902 0.796536
0.000000 0.138125 0.801083
0.076356 0.091432 0.811643
0.568566 0.000000 0.838865
0.797940 0.000000 0.806302
0.925719 0.000000 0.712184
0.966613 0.228367 0.609888
0.997253 0.460304 0.619806
0.000000 0.175418 0.786587
0.000000 0.173526 0.790646
0.000000 0.156161 0.805081
0.549615 0.039094 0.832944
0.787900 0.000000 0.805142
0.919249 0.159915 0.716213
0.961852 0.272343 0.614466
0.994659 0.472328 0.622156
0.000000 0.370520 0.784695
0.000000 0.365423 0.792233
0.000000 0.304143 0.811276
0.515618 0.334386 0.836942
0.787381 0.325261 0.833799
0.904173 0.419074 0.749752
0.948669 0.417121 0.648890
0.985626 0.537346 0.649897
0.000000 0.523766 0.782620
0.000000 0.519738 0.779477
0.000000 0.519493 0.784268
0.444587 0.542535 0.835874
0.769680 0.620386 0.857542
0.882170 0.643977 0.807126
0.928374 0.578271 0.707210
0.967712 0.648859 0.712703
0.000000 0.678584 0.815579
0.000000 0.679286 0.815396
0.000000 0.681880 0.814786
0.332494 0.691402 0.816800
0.696345 0.735500 0.847562
0.849302 0.758328 0.835264
0.895171 0.669154 0.729122
0.953979 0.704616 0.728634
0.000000 0.814969 0.849332
0.000000 0.818265 0.851072
0.000000 0.820920 0.850584
0.312810 0.823728 0.850797
0.649317 0.829709 0.855497
0.829496 0.846983 0.871244
0.867063 0.787778 0.796384
0.935332 0.793729 0.787900
0.000000 0.933928 0.894224
0.000000 0.935851 0.895689
0.000000 0.935241 0.895689
0.339757 0.925536 0.892638
0.652552 0.911650 0.891997
0.828183 0.898314 0.905577
0.887572 0.897795 0.899901
0.915831 0.866423 0.856962
0.000000 0.993225 0.917479
0.000000 0.991730 0.916686
0.000000 0.985901 0.914611
0.386542 0.973907 0.913420
0.672053 0.953918 0.917662
0.830686 0.935607 0.929076
0.899535 0.926696 0.938811
0.923491 0.929992 0.924010
0.000000 0.202426 0.902403
0.000000 0.203525 0.905089
0.095888 0.189548 0.908019
0.524498 0.158022 0.913756
0.772549 0.141573 0.915068
0.904021 0.123262 0.877470
0.961395 0.372137 0.798093
0.986999 0.504173 0.754849
0.000000 0.228824 0.895720
0.000000 0.231327 0.898344
0.000000 0.225437 0.902159
0.503380 0.209598 0.907805
0.760311 0.216526 0.910552
0.895506 0.186496 0.873808
0.956237 0.381903 0.794522
0.984833 0.489693 0.744717
0.000000 0.419440 0.894224
0.000000 0.397253 0.896086
0.000000 0.347875 0.900725
0.475044 0.370245 0.906035
0.750118 0.434791 0.911223
0.885252 0.412726 0.883665
0.945190 0.527611 0.820279
0.975372 0.586755 0.778988
0.000000 0.566339 0.883299
0.000000 0.561456 0.883726
0.000000 0.557000 0.889250
0.414008 0.536614 0.901366
0.721126 0.607813 0.908049
0.871641 0.624262 0.900633
0.928954 0.684047 0.855924
0.961883 0.685542 0.815976
0.000000 0.691402 0.888579
0.000000 0.687678 0.886473
0.000000 0.678920 0.881804
0.217136 0.668544 0.876310
0.638727 0.698238 0.896330
0.843595 0.759030 0.905028
0.910674 0.774258 0.876738
0.947509 0.753445 0.838987
0.000000 0.809537 0.902525
0.000000 0.809140 0.902037
0.000000 0.807401 0.900145
0.244450 0.804898 0.897398
0.564324 0.802548 0.892699
0.806577 0.832517 0.905882
0.898039 0.851011 0.901701
0.932952 0.813382 0.860624
0.000000 0.904540 0.918669
0.000000 0.904967 0.918883
0.000000 0.903410 0.917815
0.314641 0.899443 0.916106
0.598077 0.892149 0.912779
0.783658 0.890043 0.912261
0.887388 0.900084 0.920317
0.916869 0.871275 0.886778
0.000000 0.976623 0.937346
0.000000 0.976135 0.937194
0.000000 0.974670 0.937926
0.357824 0.969604 0.938842
0.629358 0.954894 0.935790
0.791043 0.942077 0.933867
0.888365 0.932860 0.940368
0.924041 0.931579 0.937194
0.000000 0.315129 0.955505
0.000000 0.317388 0.955840
0.251286 0.312688 0.954864
0.521508 0.318517 0.954589
0.734188 0.354620 0.953643
0.878538 0.347875 0.949523
0.951263 0.402899 0.911620
0.978424 0.538323 0.854154
0.000000 0.337011 0.953246
0.000000 0.339940 0.953643
0.230137 0.338872 0.953033
0.509850 0.345251 0.952483
0.726589 0.382696 0.951690
0.873136 0.383429 0.947814
0.947845 0.421942 0.911162
0.976196 0.547356 0.854368
0.000000 0.471870 0.947814
0.000000 0.455665 0.948760
0.147158 0.422919 0.949065
0.493385 0.450416 0.949828
0.713161 0.490150 0.948425
0.860502 0.509575 0.944976
0.938842 0.521874 0.915251
0.968292 0.616602 0.865690
0.000000 0.602747 0.941558
0.000000 0.604578 0.942046
0.285557 0.609522 0.941619
0.447242 0.568383 0.945190
0.688685 0.610376 0.944121
0.846372 0.663844 0.942504
0.925872 0.654749 0.923552
0.956970 0.712062 0.884825
0.000000 0.709377 0.937560
0.000000 0.708705 0.937591
0.000000 0.698909 0.935302
0.351049 0.691188 0.936584
0.623285 0.693843 0.938567
0.818296 0.750423 0.938628
0.910307 0.756588 0.931762
0.945617 0.793576 0.904082
0.000000 0.809262 0.941650
0.000000 0.807126 0.940826
0.000000 0.800992 0.938598
0.189883 0.791684 0.935332
0.481910 0.779751 0.930449
0.768521 0.806607 0.935576
0.897185 0.849393 0.940032
0.937743 0.863127 0.925170
0.000000 0.893767 0.948455
0.000000 0.892912 0.947997
0.000000 0.890043 0.946654
0.313878 0.886015 0.944762
0.556786 0.880766 0.941741
0.733120 0.877165 0.937804
0.871092 0.889342 0.940734
0.929442 0.901701 0.936919
0.000000 0.953399 0.954955
0.000000 0.952605 0.954620
0.049592 0.949920 0.953796
0.415045 0.944884 0.952544
0.620844 0.937682 0.950500
0.764950 0.931640 0.948150
0.861753 0.929198 0.946197
0.923674 0.933104 0.948577
