data/fiter_cube/60169440/1023144/file.cube
# Created by Adobe Lightroom plugin Export LUT (1.17.0)
# www.johnrellis.com/lightroom/exportlut.htm
# Preset: 海滩旅拍低饱和胶片_02 云集
# Color profile: C:\Program Files (x86)\Common Files\Adobe\Color\Profiles\Recommended\AdobeRGB1998.icc
LUT_3D_SIZE 32
DOMAIN_MIN 0.0 0.0 0.0
DOMAIN_MAX 1.0 1.0 1.0
0.049042 0.061341 0.081270
0.052552 0.061952 0.081819
0.056916 0.062470 0.082673
0.064942 0.064027 0.084291
0.075959 0.065461 0.086305
0.089540 0.066712 0.088197
0.107332 0.066651 0.090181
0.130343 0.065003 0.092164
0.159121 0.059663 0.094331
0.193790 0.040345 0.095766
0.234653 0.000000 0.097322
0.281346 0.000000 0.098573
0.332952 0.000000 0.099397
0.388434 0.000000 0.099397
0.446296 0.000000 0.099336
0.505852 0.000000 0.098482
0.565454 0.000000 0.097505
0.622950 0.000000 0.096742
0.684840 0.000000 0.096651
0.758145 0.000000 0.099062
0.820188 0.000000 0.106813
0.869474 0.000000 0.121431
0.907408 0.000000 0.141665
0.936767 0.000000 0.167697
0.959594 0.113283 0.199039
0.977752 0.208988 0.236637
0.992309 0.284916 0.282841
1.000000 0.358068 0.340154
1.000000 0.433509 0.410742
1.000000 0.513390 0.495277
1.000000 0.594293 0.588037
1.000000 0.670680 0.678767
0.048310 0.063661 0.083284
0.051575 0.063874 0.082643
0.055238 0.064485 0.082856
0.063905 0.066346 0.084749
0.074311 0.067872 0.086488
0.087556 0.068849 0.088411
0.104891 0.069032 0.090394
0.127016 0.067842 0.092409
0.155123 0.063569 0.094331
0.188937 0.052216 0.095796
0.228702 0.015869 0.097444
0.274327 0.000000 0.098573
0.324773 0.000000 0.099275
0.379065 0.000000 0.099702
0.436072 0.000000 0.099397
0.494759 0.000000 0.098543
0.554223 0.000000 0.097536
0.612055 0.000000 0.096742
0.674769 0.000000 0.096315
0.745632 0.000000 0.098390
0.807645 0.000000 0.104402
0.858122 0.000000 0.117067
0.897734 0.000000 0.135470
0.928801 0.000000 0.159854
0.953246 0.078859 0.189425
0.972869 0.189517 0.225406
0.988769 0.268070 0.270207
1.000000 0.342565 0.325811
1.000000 0.418830 0.395056
1.000000 0.499245 0.478950
1.000000 0.581659 0.572686
1.000000 0.659785 0.665431
0.046998 0.066712 0.085817
0.050752 0.066407 0.086366
0.054810 0.066590 0.084260
0.062470 0.068238 0.084962
0.072633 0.070253 0.086671
0.085420 0.071717 0.088563
0.101991 0.072175 0.090578
0.123598 0.071443 0.092317
0.150790 0.068116 0.094301
0.184024 0.061036 0.096040
0.223209 0.034791 0.097475
0.267979 0.000000 0.098695
0.317937 0.000000 0.099489
0.371893 0.000000 0.099733
0.428473 0.000000 0.099519
0.487221 0.000000 0.098817
0.546288 0.000000 0.097963
0.604425 0.000000 0.096712
0.668605 0.000000 0.096437
0.738125 0.000000 0.097993
0.800229 0.000000 0.103426
0.851530 0.000000 0.114900
0.892149 0.000000 0.132387
0.924224 0.000000 0.155703
0.949493 0.069642 0.184512
0.969909 0.183566 0.219730
0.986542 0.262181 0.263645
0.999420 0.336553 0.318639
1.000000 0.412757 0.387304
1.000000 0.493050 0.470619
1.000000 0.575647 0.564538
1.000000 0.654444 0.658259
0.042054 0.075074 0.092592
0.046876 0.075196 0.093080
0.052918 0.073945 0.093629
0.061463 0.074556 0.088014
0.070680 0.074037 0.087037
0.081575 0.076936 0.089418
0.097688 0.077974 0.091127
0.118502 0.077790 0.092927
0.144808 0.076295 0.094850
0.177096 0.071351 0.096407
0.215427 0.061341 0.097871
0.259403 0.024872 0.099092
0.308232 0.000000 0.100008
0.361303 0.000000 0.100099
0.417670 0.000000 0.100038
0.475898 0.000000 0.099153
0.535119 0.000000 0.098146
0.593622 0.000000 0.097047
0.659571 0.000000 0.096223
0.726101 0.000000 0.097292
0.787106 0.000000 0.101595
0.839231 0.000000 0.111391
0.882078 0.000000 0.127565
0.916869 0.000000 0.150118
0.944732 0.084016 0.179416
0.967102 0.190188 0.215793
0.984955 0.268009 0.261051
0.998413 0.341955 0.317296
1.000000 0.416907 0.386450
1.000000 0.495308 0.469245
1.000000 0.575769 0.561852
1.000000 0.652491 0.653925
0.031556 0.087343 0.101900
0.036347 0.087098 0.102602
0.046113 0.086610 0.103761
0.058106 0.083040 0.103182
0.068208 0.085878 0.093141
0.081331 0.081453 0.091035
0.090883 0.084718 0.092195
0.110140 0.086183 0.093935
0.135439 0.086030 0.095369
0.166201 0.084199 0.096925
0.203037 0.079011 0.098451
0.245670 0.068513 0.099519
0.293584 0.035859 0.100282
0.346166 0.000000 0.100710
0.402502 0.000000 0.100465
0.461738 0.000000 0.099825
0.522545 0.000000 0.098665
0.582757 0.000000 0.097292
0.652949 0.000000 0.096315
0.718166 0.000000 0.096864
0.778286 0.000000 0.100557
0.830838 0.000000 0.109346
0.874571 0.000000 0.124788
0.910735 0.000000 0.146639
0.939971 0.117617 0.175143
0.963470 0.203861 0.211429
0.982147 0.276219 0.256413
0.996338 0.346166 0.312230
1.000000 0.418463 0.380529
1.000000 0.494759 0.462562
1.000000 0.573968 0.555200
1.000000 0.650233 0.648035
0.015412 0.102876 0.113771
0.020020 0.102968 0.114382
0.028443 0.102602 0.115389
0.050294 0.101656 0.117952
0.062348 0.093996 0.114717
0.077760 0.100526 0.099458
0.096925 0.091463 0.095735
0.108003 0.093477 0.094972
0.125887 0.096376 0.096468
0.155734 0.096803 0.097993
0.191684 0.095186 0.099214
0.233371 0.090669 0.100282
0.280339 0.080751 0.101045
0.332616 0.060945 0.101228
0.388983 0.000000 0.101198
0.448676 0.000000 0.100465
0.510369 0.000000 0.098939
0.576928 0.000000 0.097322
0.647120 0.000000 0.096284
0.712459 0.000000 0.096437
0.773312 0.000000 0.099794
0.827390 0.000000 0.108858
0.926543 0.165713 0.164096
0.952300 0.228458 0.197971
0.971923 0.284642 0.237339
0.986938 0.339269 0.283360
0.998016 0.394995 0.337224
1.000000 0.453773 0.400580
1.000000 0.517082 0.474434
1.000000 0.583703 0.556481
1.000000 0.648646 0.638636
0.997528 0.708949 0.714687
0.000000 0.128695 0.132113
0.000000 0.128511 0.132601
0.000000 0.128450 0.133455
0.016999 0.128145 0.135927
0.056336 0.124086 0.137575
0.066407 0.115908 0.128908
0.096376 0.125521 0.107973
0.126497 0.108095 0.102541
0.140047 0.109346 0.100771
0.154482 0.111635 0.099702
0.189456 0.113649 0.100923
0.233188 0.112886 0.101808
0.281865 0.108705 0.102144
0.335424 0.099489 0.102358
0.392309 0.083101 0.101686
0.451453 0.050324 0.100649
0.512993 0.000000 0.099092
0.589715 0.000000 0.097078
0.661280 0.000000 0.095766
0.729763 0.000000 0.096651
0.795193 0.000000 0.102480
0.852598 0.082246 0.117281
0.899321 0.161135 0.142428
0.935271 0.226139 0.177157
0.961700 0.286412 0.219913
0.980438 0.342168 0.268498
0.993683 0.397040 0.323644
1.000000 0.453773 0.387091
1.000000 0.514885 0.460883
1.000000 0.579217 0.542382
1.000000 0.643153 0.625422
0.997894 0.703487 0.703578
0.000000 0.156802 0.151095
0.000000 0.156680 0.151553
0.000000 0.156649 0.152255
0.000000 0.156435 0.154238
0.015930 0.155886 0.158541
0.065583 0.144656 0.155795
0.070802 0.141115 0.139559
0.118990 0.152865 0.116793
0.160250 0.126650 0.109560
0.175326 0.127230 0.106844
0.191470 0.128664 0.104738
0.215702 0.130709 0.103090
0.263096 0.131533 0.103365
0.315587 0.128939 0.103365
0.371923 0.122896 0.102907
0.431189 0.112856 0.101564
0.501701 0.099886 0.099550
0.575708 0.084779 0.097230
0.645350 0.075166 0.095399
0.713008 0.081575 0.095674
0.778897 0.110780 0.100130
0.838010 0.153414 0.112978
0.886900 0.202518 0.136202
0.925078 0.253269 0.169345
0.953491 0.304265 0.210330
0.973999 0.354070 0.257572
0.988769 0.404181 0.311742
0.998932 0.457252 0.374365
1.000000 0.515373 0.447608
1.000000 0.577600 0.529534
1.000000 0.640528 0.614069
0.997833 0.700526 0.694240
0.000000 0.192782 0.174807
0.000000 0.192691 0.175174
0.000000 0.192752 0.175906
0.000000 0.192721 0.177676
0.000000 0.192538 0.181308
0.040070 0.190646 0.187259
0.080995 0.170962 0.178958
0.078737 0.175174 0.151583
0.151553 0.188998 0.126925
0.206546 0.151766 0.117922
0.222507 0.150576 0.113710
0.238682 0.150729 0.110140
0.255528 0.152224 0.107240
0.297215 0.153323 0.104799
0.352941 0.153231 0.103975
0.418341 0.152193 0.102571
0.490333 0.150118 0.100343
0.562219 0.147890 0.097505
0.631098 0.149325 0.095247
0.698787 0.157778 0.094636
0.765103 0.177279 0.098512
0.825834 0.207431 0.110384
0.876341 0.245182 0.132418
0.916228 0.286870 0.164523
0.946258 0.330602 0.204868
0.968170 0.374060 0.251469
0.984131 0.419379 0.304997
0.995300 0.468147 0.367041
1.000000 0.522301 0.439521
1.000000 0.581201 0.521050
1.000000 0.641657 0.605707
0.997284 0.700008 0.686671
0.000000 0.236210 0.202976
0.000000 0.236240 0.203372
0.000000 0.236118 0.203891
0.000000 0.236149 0.205386
0.000000 0.236210 0.208499
0.000000 0.235935 0.214450
0.068269 0.225528 0.214908
0.105196 0.201907 0.206485
0.098268 0.216831 0.168582
0.192782 0.232822 0.138430
0.262333 0.182528 0.127108
0.277501 0.178866 0.120729
0.292882 0.177157 0.115633
0.309483 0.177371 0.111482
0.342077 0.181369 0.107301
0.407477 0.186130 0.103761
0.479103 0.190311 0.101167
0.551537 0.194522 0.097780
0.621241 0.201266 0.095064
0.688777 0.212284 0.094301
0.754116 0.229984 0.097505
0.813779 0.254734 0.107881
0.864073 0.283940 0.128481
0.904540 0.317296 0.157992
0.936034 0.353399 0.195865
0.959869 0.391333 0.240940
0.977813 0.432532 0.294011
0.990723 0.478523 0.356634
0.998871 0.530388 0.430457
1.000000 0.587884 0.514488
1.000000 0.647425 0.601862
0.995941 0.705196 0.685389
0.000000 0.283970 0.233860
0.000000 0.284062 0.234287
0.000000 0.284245 0.235050
0.000000 0.284581 0.236606
0.000000 0.285222 0.239628
0.000000 0.285985 0.245090
0.000000 0.286290 0.254826
0.099092 0.266148 0.247990
0.135042 0.241398 0.238926
0.127901 0.267948 0.188663
0.244816 0.285679 0.151522
0.329808 0.220279 0.137026
0.347997 0.216281 0.128908
0.366522 0.214237 0.121950
0.386481 0.214633 0.115877
0.408576 0.217594 0.110628
0.460334 0.222751 0.102541
0.531701 0.230961 0.099001
0.602167 0.240757 0.095491
0.670619 0.253696 0.093782
0.737087 0.271611 0.096284
0.799191 0.294957 0.105592
0.852018 0.322148 0.125490
0.894774 0.352026 0.154849
0.928038 0.383917 0.192599
0.953216 0.417304 0.237278
0.972259 0.453651 0.289677
0.986145 0.494820 0.351263
0.995270 0.542107 0.424048
0.999390 0.595575 0.507317
0.998932 0.652186 0.595148
0.994781 0.707881 0.679622
0.000000 0.340032 0.270939
0.000000 0.340398 0.271489
0.000000 0.340612 0.272099
0.000000 0.341100 0.273625
0.000000 0.342199 0.276677
0.000000 0.343389 0.281834
0.000000 0.344732 0.290593
0.084016 0.339879 0.298192
0.139925 0.313237 0.287663
0.160464 0.298619 0.271946
0.172335 0.332738 0.214450
0.318791 0.357977 0.170321
0.492531 0.319036 0.162417
0.504570 0.307012 0.146822
0.517540 0.299199 0.133883
0.533349 0.296117 0.122957
0.553246 0.297795 0.113527
0.584680 0.304540 0.103944
0.649561 0.317815 0.095033
0.715633 0.335210 0.096529
0.777584 0.355535 0.104616
0.831235 0.377569 0.122316
0.875334 0.400336 0.149111
0.910857 0.424933 0.183932
0.938598 0.451179 0.225742
0.959838 0.479683 0.274174
0.975677 0.511254 0.329473
0.986908 0.547356 0.393011
0.993774 0.588891 0.465675
0.996277 0.635889 0.546288
0.995026 0.684688 0.627710
0.990784 0.733364 0.705409
0.000000 0.421698 0.326726
0.000000 0.421729 0.327245
0.000000 0.420996 0.327123
0.000000 0.420203 0.327642
0.000000 0.419318 0.329259
0.000000 0.418585 0.332647
0.000000 0.418799 0.339513
0.000000 0.420661 0.352789
0.145632 0.411170 0.357061
0.205722 0.388220 0.352697
0.214328 0.395850 0.330480
0.255070 0.440375 0.262669
0.439155 0.471046 0.206271
0.570123 0.375006 0.181277
0.580194 0.360845 0.161776
0.590204 0.350622 0.145449
0.602106 0.344793 0.131807
0.617914 0.344091 0.120211
0.639551 0.349828 0.110445
0.688838 0.363561 0.098299
0.752682 0.384100 0.103639
0.810178 0.405921 0.118654
0.857633 0.427436 0.143618
0.896330 0.449897 0.177066
0.926757 0.473426 0.217533
0.950256 0.498726 0.264622
0.968078 0.527001 0.318822
0.981018 0.559564 0.381628
0.989380 0.597803 0.454017
0.993194 0.641962 0.535332
0.992920 0.688808 0.618585
0.989349 0.736172 0.698695
0.000000 0.486427 0.373816
0.000000 0.487251 0.374670
0.000000 0.487373 0.375280
0.000000 0.488350 0.377050
0.000000 0.489509 0.379980
0.000000 0.491371 0.384894
0.000000 0.494514 0.393408
0.000000 0.498451 0.406744
0.147433 0.502922 0.427741
0.216403 0.481392 0.420081
0.277104 0.456062 0.416663
0.263767 0.479500 0.375982
0.330816 0.520745 0.303502
0.520073 0.544396 0.238590
0.644343 0.436286 0.207675
0.648096 0.415442 0.182254
0.652308 0.400366 0.161837
0.660609 0.391669 0.145357
0.674708 0.390112 0.132235
0.696132 0.396277 0.121462
0.729000 0.410864 0.112917
0.788388 0.432807 0.117464
0.839872 0.454597 0.140536
0.882139 0.476326 0.173098
0.915435 0.498360 0.213260
0.941161 0.521630 0.260044
0.960784 0.547417 0.314122
0.975189 0.577081 0.376715
0.984802 0.612268 0.449348
0.989624 0.653407 0.531273
0.990204 0.697719 0.615625
0.987243 0.743099 0.697108
0.000000 0.568841 0.438636
0.000000 0.569574 0.439429
0.000000 0.568963 0.439368
0.000000 0.568353 0.439887
0.000000 0.567315 0.441047
0.000000 0.566735 0.443885
0.000000 0.567498 0.450050
0.000000 0.569329 0.460548
0.001160 0.572229 0.477790
0.229160 0.566918 0.489601
0.292576 0.545800 0.483955
0.353521 0.519951 0.482551
0.317357 0.557946 0.419501
0.407874 0.590997 0.347601
0.589258 0.606439 0.276799
0.696529 0.500267 0.238285
0.705348 0.466041 0.208438
0.706935 0.448432 0.183566
0.714199 0.438849 0.164553
0.728481 0.437446 0.150027
0.749966 0.444556 0.139498
0.777432 0.459297 0.133455
0.820401 0.479347 0.139040
0.866331 0.500969 0.170230
0.903014 0.522545 0.209720
0.931609 0.545129 0.257267
0.953582 0.570184 0.313359
0.969757 0.599329 0.379248
0.980468 0.633906 0.456245
0.985840 0.674067 0.542229
0.986572 0.717037 0.629572
0.983764 0.760372 0.711940
0.000000 0.638300 0.498360
0.000000 0.639155 0.499428
0.000000 0.639124 0.499825
0.000000 0.639002 0.500725
0.000000 0.638666 0.502312
0.000000 0.638849 0.505669
0.000000 0.639857 0.511742
0.000000 0.641657 0.521508
0.000000 0.643366 0.536278
0.235966 0.644404 0.557458
0.321172 0.629847 0.557671
0.378027 0.607233 0.552209
0.424323 0.583886 0.546319
0.372076 0.623926 0.458747
0.475776 0.645777 0.390814
0.642176 0.653864 0.315251
0.736355 0.553491 0.270512
0.752132 0.510826 0.238010
0.755062 0.494209 0.210819
0.764523 0.486488 0.190677
0.780423 0.487221 0.176516
0.801755 0.495705 0.168734
0.826658 0.510460 0.167361
0.854826 0.530694 0.174624
0.894194 0.552422 0.215213
0.924743 0.574609 0.264317
0.947997 0.598535 0.322332
0.964935 0.625879 0.390265
0.976043 0.657801 0.468269
0.981750 0.694179 0.553368
0.983032 0.732815 0.638270
0.980804 0.771908 0.717891
0.000000 0.694087 0.549676
0.000000 0.694118 0.550042
0.000000 0.693751 0.550072
0.000000 0.693355 0.550683
0.000000 0.692958 0.552178
0.000000 0.692775 0.555016
0.000000 0.693172 0.560113
0.000000 0.693751 0.568139
0.000000 0.694362 0.580285
0.188998 0.694301 0.597589
0.346685 0.690883 0.616449
0.399817 0.673091 0.610742
0.450874 0.651057 0.606775
0.471595 0.641596 0.592523
0.429297 0.675898 0.498512
0.535485 0.691096 0.434546
0.688319 0.695491 0.357458
0.770779 0.601831 0.307836
0.792325 0.553033 0.273625
0.796567 0.537469 0.244114
0.806485 0.530419 0.223178
0.821592 0.531487 0.209812
0.840818 0.539605 0.204166
0.862913 0.554223 0.207279
0.886046 0.574121 0.220188
0.914183 0.597223 0.264469
0.939818 0.620539 0.323674
0.958465 0.646632 0.393011
0.970764 0.676722 0.472724
0.977386 0.710842 0.559106
0.979278 0.747189 0.645167
0.977691 0.783841 0.724941
0.000000 0.745571 0.599634
0.000000 0.746700 0.601099
0.000000 0.785946 0.641749
0.000000 0.785245 0.642237
0.000000 0.784024 0.643091
0.000000 0.782284 0.644587
0.000000 0.780209 0.647608
0.000000 0.777859 0.652949
0.000000 0.775174 0.661830
0.220584 0.771633 0.674983
0.388159 0.766751 0.692805
0.471504 0.756222 0.699306
0.511711 0.738399 0.693355
0.550866 0.716304 0.688075
0.547509 0.716457 0.662806
0.520989 0.741726 0.574426
0.615595 0.750362 0.510185
0.748318 0.749905 0.431434
0.815946 0.663386 0.373877
0.839780 0.609674 0.335424
0.844511 0.593988 0.301793
0.853819 0.586969 0.279301
0.866941 0.587396 0.266789
0.882597 0.594507 0.263920
0.899413 0.606592 0.270237
0.916594 0.623713 0.287602
0.933135 0.646571 0.334203
0.952148 0.669032 0.400885
0.965240 0.695857 0.478920
0.972717 0.726925 0.564691
0.975402 0.760372 0.650538
0.974548 0.794095 0.729458
0.000000 0.798764 0.654170
0.000000 0.803311 0.659266
0.000000 0.807675 0.664454
0.000000 0.811154 0.669337
0.000000 0.813199 0.673640
0.000000 0.813138 0.676844
0.000000 0.811765 0.680232
0.000000 0.809445 0.685054
0.000000 0.806546 0.692622
0.184604 0.802579 0.703273
0.364843 0.797391 0.717739
0.490455 0.791287 0.735409
0.531823 0.778134 0.732265
0.566033 0.761471 0.727321
0.599084 0.740810 0.722530
0.579431 0.749752 0.688350
0.566827 0.769467 0.608026
0.654353 0.775387 0.547387
0.774624 0.774258 0.473274
0.835142 0.696956 0.415167
0.862425 0.641962 0.378454
0.869261 0.629023 0.346349
0.879149 0.623590 0.325505
0.891630 0.624994 0.315343
0.905577 0.632136 0.315496
0.920317 0.644739 0.327092
0.934966 0.662348 0.351476
0.946502 0.688228 0.407355
0.959380 0.714687 0.486488
0.967803 0.743282 0.572290
0.971283 0.774075 0.657801
0.971191 0.805081 0.735775
0.000000 0.830533 0.688045
0.000000 0.834073 0.692317
0.000000 0.837552 0.696712
0.000000 0.840238 0.700862
0.000000 0.841733 0.704555
0.000000 0.841459 0.707546
0.000000 0.839933 0.710689
0.000000 0.837522 0.714961
0.000000 0.834470 0.721401
0.163760 0.830228 0.730495
0.351293 0.824826 0.742611
0.476356 0.818601 0.757076
0.558038 0.810330 0.766964
0.587976 0.797787 0.762966
0.617029 0.782254 0.758907
0.645045 0.763394 0.754971
0.613275 0.779202 0.713863
0.612055 0.794736 0.644038
0.691981 0.799039 0.588342
0.799527 0.797757 0.520745
0.853239 0.729702 0.463386
0.882475 0.675227 0.429603
0.890349 0.664210 0.398901
0.900237 0.659876 0.379767
0.911528 0.661494 0.371649
0.923827 0.668910 0.375402
0.936370 0.681727 0.392218
0.948333 0.700099 0.424537
0.956390 0.727535 0.490913
0.962524 0.757778 0.577325
0.966949 0.786069 0.662470
0.967742 0.814664 0.739864
0.000000 0.858366 0.718868
0.000000 0.861234 0.722499
0.000000 0.864042 0.726253
0.000000 0.866148 0.729915
0.000000 0.867124 0.733211
0.000000 0.866575 0.735897
0.000000 0.864866 0.738613
0.000000 0.862242 0.742367
0.000000 0.858732 0.747829
0.158541 0.854154 0.755367
0.344945 0.848447 0.765286
0.467384 0.841917 0.777096
0.566308 0.834806 0.790372
0.612543 0.825742 0.792905
0.638331 0.814298 0.790036
0.663447 0.800900 0.787442
0.683253 0.788602 0.783841
0.652522 0.807340 0.743313
0.662623 0.820829 0.689113
0.734218 0.825406 0.643458
0.827512 0.825284 0.587304
0.874418 0.769436 0.536584
0.903319 0.718746 0.507805
0.912169 0.710567 0.481514
0.921904 0.708278 0.467231
0.932067 0.711666 0.465583
0.942260 0.720638 0.477821
0.951690 0.735195 0.505425
0.959594 0.754788 0.548608
0.962585 0.782284 0.621332
0.962066 0.813107 0.705226
0.963378 0.836820 0.772000
0.000000 0.892668 0.758785
0.000000 0.893614 0.760403
0.000000 0.894285 0.761807
0.000000 0.894438 0.763333
0.000000 0.893889 0.765011
0.000000 0.892515 0.766812
0.000000 0.890440 0.769284
0.000000 0.887663 0.772976
0.000000 0.884062 0.778164
0.213840 0.879362 0.785306
0.372381 0.873716 0.794217
0.486336 0.867216 0.804288
0.579614 0.860075 0.815244
0.653803 0.852995 0.825986
0.674372 0.844602 0.823728
0.694545 0.834867 0.821622
0.714412 0.823728 0.819944
0.721126 0.819211 0.813565
0.696284 0.834409 0.776791
0.711513 0.843961 0.735775
0.770016 0.846921 0.695796
0.847593 0.846036 0.644923
0.887297 0.797879 0.595178
0.914488 0.748684 0.567041
0.922942 0.741238 0.542687
0.931945 0.739712 0.531334
0.941100 0.744076 0.534112
0.949767 0.754177 0.551965
0.957183 0.769528 0.585199
0.962585 0.789090 0.631952
0.962737 0.816129 0.704463
0.960754 0.844144 0.775601
0.000000 0.912047 0.782254
0.000000 0.912810 0.783688
0.000000 0.913390 0.785122
0.000000 0.913359 0.786557
0.000000 0.912657 0.788113
0.000000 0.911009 0.789700
0.000000 0.908629 0.791836
0.000000 0.905455 0.794797
0.000000 0.901427 0.799283
0.242039 0.896422 0.805264
0.384985 0.890623 0.812711
0.492103 0.884123 0.821164
0.581262 0.877104 0.830411
0.655573 0.870268 0.840208
0.698116 0.863951 0.844968
0.715602 0.856718 0.843534
0.732906 0.848569 0.842527
0.750118 0.839445 0.841917
0.749050 0.840726 0.833829
0.729458 0.853880 0.801236
0.749020 0.861204 0.771756
0.798550 0.863859 0.740291
0.863401 0.863371 0.698695
0.897795 0.823514 0.654383
0.921660 0.771603 0.614801
0.929900 0.765713 0.594385
0.938415 0.765682 0.587671
0.946654 0.771359 0.595270
0.953918 0.782467 0.618006
0.959533 0.798337 0.654994
0.962890 0.818112 0.703700
0.961791 0.843320 0.768612
0.000000 0.934081 0.810666
0.000000 0.934691 0.812039
0.000000 0.934874 0.813077
0.000000 0.934295 0.814023
0.000000 0.932921 0.814969
0.000000 0.930785 0.816129
0.000000 0.927764 0.817655
0.000000 0.923827 0.819821
0.104921 0.918944 0.823056
0.302159 0.913237 0.827420
0.417853 0.906828 0.832731
0.512627 0.899962 0.839170
0.593896 0.892729 0.846403
0.660975 0.885801 0.853819
0.715023 0.879484 0.861051
0.734554 0.873350 0.860838
0.747890 0.866453 0.859129
0.761746 0.858976 0.858030
0.776272 0.851072 0.857725
0.769802 0.856443 0.847990
0.754177 0.868132 0.818814
0.776516 0.873777 0.797726
0.818723 0.875914 0.771450
0.873899 0.875181 0.735500
0.903716 0.840208 0.693660
0.927916 0.796719 0.669642
0.935729 0.792477 0.653986
0.943389 0.793454 0.651118
0.950378 0.799954 0.662745
0.956023 0.811673 0.688808
0.959899 0.827359 0.726192
0.962158 0.845212 0.768429
0.000000 0.946563 0.827176
0.000000 0.946990 0.828397
0.000000 0.947021 0.829343
0.000000 0.946349 0.830259
0.000000 0.944915 0.831205
0.000000 0.942718 0.832425
0.000000 0.939727 0.834104
0.000000 0.935851 0.836454
0.207797 0.931121 0.839689
0.346624 0.925658 0.843900
0.448951 0.919585 0.848875
0.536797 0.912993 0.854826
0.612146 0.906249 0.861295
0.673884 0.899870 0.867765
0.724117 0.894133 0.874022
0.759915 0.889189 0.878782
0.771115 0.884092 0.877623
0.782620 0.878599 0.876890
0.794644 0.872831 0.876738
0.806882 0.866728 0.877134
0.797299 0.874449 0.866728
0.786648 0.883757 0.843381
0.806607 0.887877 0.827726
0.840635 0.889494 0.806943
0.885801 0.888823 0.778592
0.910887 0.860014 0.744350
0.932708 0.821530 0.725246
0.939879 0.819516 0.716243
0.946563 0.822599 0.719783
0.952239 0.830411 0.735592
0.956603 0.841978 0.761318
0.959564 0.856107 0.792813
0.000000 0.958556 0.844205
0.000000 0.958618 0.845029
0.000000 0.958343 0.845579
0.000000 0.957397 0.846159
0.000000 0.955688 0.846891
0.000000 0.953246 0.847898
0.000000 0.950072 0.849363
0.097200 0.946044 0.851499
0.280766 0.941314 0.854429
0.390234 0.935943 0.858213
0.481178 0.929992 0.862730
0.561425 0.923674 0.868132
0.630152 0.917327 0.873838
0.686763 0.911406 0.879423
0.732784 0.906065 0.884764
0.770474 0.901427 0.889921
0.789853 0.897337 0.891600
0.799313 0.893095 0.890959
0.809262 0.888609 0.890715
0.819547 0.883970 0.890990
0.827970 0.880217 0.890990
0.818173 0.888121 0.880552
0.811948 0.895445 0.862242
0.829099 0.898711 0.849516
0.857359 0.899992 0.832731
0.895201 0.899382 0.809995
0.916625 0.875242 0.782193
0.936370 0.840696 0.766903
0.942687 0.840391 0.762966
0.948547 0.844602 0.769863
0.953368 0.852720 0.786221
0.956970 0.863676 0.809171
0.000000 0.967468 0.857664
0.000000 0.967315 0.858244
0.000000 0.966949 0.858762
0.000000 0.965972 0.859434
0.000000 0.964294 0.860472
0.000000 0.962005 0.862028
0.060273 0.959075 0.864469
0.264195 0.955444 0.867643
0.375921 0.951110 0.871611
0.468605 0.946136 0.876310
0.550317 0.940642 0.881590
0.620935 0.934997 0.887175
0.679286 0.929686 0.892546
0.726833 0.924865 0.897612
0.765133 0.920562 0.902220
0.795895 0.916777 0.906310
0.821317 0.913603 0.910277
0.829374 0.910613 0.910124
0.836820 0.907500 0.910002
0.844450 0.904265 0.910124
0.852110 0.900786 0.910491
0.855406 0.899870 0.909483
0.848051 0.905791 0.900816
0.845182 0.910948 0.888060
0.858183 0.913298 0.878782
0.879484 0.914214 0.866728
0.908568 0.913756 0.850828
0.924895 0.894926 0.831479
0.940642 0.867369 0.820951
0.946044 0.867552 0.820645
0.950774 0.872221 0.828489
0.954559 0.879362 0.841642
0.000000 0.977203 0.876738
0.000000 0.976867 0.877165
0.000000 0.976349 0.877440
0.000000 0.975097 0.877989
0.051942 0.973144 0.878843
0.211856 0.970489 0.880095
0.305791 0.967193 0.881895
0.387396 0.963226 0.884276
0.463508 0.958556 0.887266
0.534752 0.953399 0.890867
0.599329 0.947906 0.894804
0.655634 0.942565 0.898924
0.703578 0.937530 0.903014
0.743771 0.932982 0.906920
