data/fiter_cube/60169440/1023144/file.cube
# Created by Adobe Lightroom plugin Export LUT (1.17.0)
# www.johnrellis.com/lightroom/exportlut.htm
# Preset: 海滩旅拍低饱和胶片_02 云集
# Color profile: C:\Program Files (x86)\Common Files\Adobe\Color\Profiles\Recommended\AdobeRGB1998.icc
LUT_3D_SIZE 5
DOMAIN_MIN 0.000000 0.000000 0.000000
DOMAIN_MAX 0.903226 0.903226 0.903226
0.049042 0.061341 0.081270
0.130343 0.065003 0.092164
0.446296 0.000000 0.099336
0.869474 0.000000 0.121431
1.000000 0.433509 0.410742
0.000000 0.156802 0.151095
0.118990 0.152865 0.116793
0.371923 0.122896 0.102907
0.838010 0.153414 0.112978
1.000000 0.515373 0.447608
0.000000 0.568841 0.438636
0.000000 0.569329 0.460548
0.589258 0.606439 0.276799
0.777432 0.459297 0.133455
0.980468 0.633906 0.456245
0.000000 0.892668 0.758785
0.000000 0.887663 0.772976
0.674372 0.844602 0.823728
0.847593 0.846036 0.644923
0.957183 0.769528 0.585199
0.005829 0.982086 0.887541
0.456794 0.968048 0.895232
0.772763 0.933684 0.913054
0.874235 0.917693 0.926207
0.923369 0.927092 0.882475
0.000000 0.070802 0.162844
0.178134 0.028290 0.157198
0.428321 0.000000 0.121126
0.810300 0.000000 0.104982
1.000000 0.389593 0.357763
0.000000 0.167666 0.206180
0.148104 0.191714 0.211154
0.413367 0.145602 0.150179
0.787594 0.178195 0.101472
0.998322 0.455604 0.370855
0.000000 0.578485 0.459236
0.000000 0.584466 0.482551
0.571191 0.588220 0.375799
0.744167 0.441657 0.203983
0.978088 0.619562 0.429206
0.000000 0.893400 0.765072
0.000000 0.888823 0.778836
0.692958 0.849577 0.834134
0.843961 0.846525 0.703120
0.948974 0.777859 0.625483
0.000000 0.985443 0.887205
0.400366 0.971618 0.894438
0.778164 0.937896 0.917540
0.879484 0.921263 0.929747
0.924163 0.928527 0.892454
0.000000 0.093874 0.470100
0.107393 0.050111 0.506798
0.723049 0.000000 0.470741
0.869139 0.000000 0.264622
1.000000 0.404517 0.380255
0.000000 0.240879 0.468330
0.000000 0.214084 0.529290
0.713497 0.128267 0.519738
0.841886 0.126741 0.315923
0.999481 0.463966 0.408453
0.000000 0.565118 0.610712
0.000000 0.584436 0.617700
0.629358 0.656825 0.669123
0.805600 0.513909 0.450721
0.975494 0.623011 0.515312
0.000000 0.890440 0.798550
0.000000 0.890135 0.793912
0.617914 0.862425 0.833555
0.845426 0.855131 0.816312
0.929503 0.795682 0.706874
0.000000 0.993286 0.887510
0.000000 0.983978 0.893339
0.700557 0.948211 0.913268
0.880766 0.925139 0.932616
0.922484 0.927916 0.905638
0.000000 0.149355 0.821836
0.000000 0.128298 0.833890
0.691524 0.000000 0.860380
0.936461 0.133974 0.733730
0.994965 0.461524 0.650629
0.000000 0.329686 0.816342
0.000000 0.266209 0.830655
0.673884 0.307195 0.864408
0.920470 0.383307 0.756863
0.986206 0.510460 0.664240
0.000000 0.594324 0.811398
0.000000 0.589715 0.807889
0.544915 0.617334 0.845853
0.875334 0.684108 0.818601
0.959045 0.663294 0.730220
0.000000 0.846830 0.874846
0.000000 0.844907 0.871458
0.483406 0.844755 0.869963
0.846433 0.862608 0.886168
0.928588 0.810330 0.811795
0.000000 0.991852 0.924468
0.000000 0.987030 0.922850
0.543816 0.965057 0.920287
0.849149 0.935149 0.932769
0.923217 0.929992 0.926787
0.000000 0.315129 0.955505
0.154299 0.313725 0.955077
0.633967 0.330968 0.954253
0.907897 0.334905 0.948058
0.978424 0.538323 0.854154
0.000000 0.430335 0.950469
0.000000 0.403174 0.951385
0.616449 0.437995 0.950378
0.893126 0.465431 0.944549
0.970672 0.601648 0.863615
0.000000 0.655421 0.937713
0.000000 0.645136 0.938262
0.533196 0.627344 0.941070
0.858061 0.708003 0.938872
0.951080 0.752865 0.893797
0.000000 0.835660 0.944488
0.000000 0.830991 0.942535
0.393652 0.817990 0.936950
0.797848 0.830014 0.935912
0.935546 0.873320 0.928130
0.000000 0.953399 0.954955
0.000000 0.950805 0.954040
0.525628 0.941405 0.951629
0.792660 0.930694 0.947601
0.923674 0.933104 0.948577
