data/fiter_cube/80369196/1023070/file.cube
# Created by Adobe Lightroom plugin Export LUT (1.17.0)
# www.johnrellis.com/lightroom/exportlut.htm
# Preset: Have Fun_02
# Color profile: C:\Program Files (x86)\Common Files\Adobe\Color\Profiles\Recommended\AdobeRGB1998.icc
LUT_3D_SIZE 5
DOMAIN_MIN 0.000000 0.000000 0.000000
DOMAIN_MAX 0.903226 0.903226 0.903226
0.059693 0.050843 0.043793
0.203464 0.085054 0.043275
0.520714 0.180850 0.000000
0.839445 0.329717 0.119387
0.994751 0.453101 0.274357
0.017731 0.144320 0.056641
0.146029 0.128054 0.063233
0.507927 0.268132 0.061738
0.829465 0.394903 0.154574
0.996582 0.503960 0.310643
0.000000 0.339849 0.088502
0.155093 0.302586 0.024628
0.310613 0.273014 0.087861
0.796506 0.550805 0.232975
0.980194 0.626490 0.389105
0.000000 0.567834 0.122530
0.000000 0.539178 0.000000
0.260868 0.314885 0.084260
0.430060 0.384497 0.104433
0.919646 0.717952 0.366674
0.000000 0.837705 0.150210
0.000000 0.822324 0.000000
0.302739 0.699977 0.000000
0.391730 0.429877 0.078523
0.743160 0.695674 0.141329
0.023163 0.090608 0.162692
0.217411 0.034852 0.168154
0.497658 0.143801 0.194064
0.799496 0.313512 0.259220
0.977020 0.460517 0.359106
0.000000 0.206851 0.197971
0.208072 0.186282 0.191531
0.499855 0.261357 0.224430
0.797848 0.380896 0.277836
0.975341 0.504295 0.381018
0.000000 0.396124 0.226352
0.051453 0.380865 0.170871
0.349920 0.310674 0.186282
0.798947 0.563409 0.355840
0.968872 0.636683 0.465217
0.000000 0.620813 0.250889
0.000000 0.597620 0.181125
0.308019 0.397559 0.149996
0.456489 0.410712 0.171176
0.922148 0.731685 0.454200
0.000000 0.856016 0.264439
0.000000 0.842710 0.180789
0.269657 0.766934 0.000000
0.397986 0.441566 0.108003
0.755520 0.708919 0.192355
0.000000 0.199619 0.438911
0.203464 0.130922 0.452155
0.529839 0.134646 0.443488
0.791501 0.277104 0.448249
0.956359 0.523308 0.564599
0.116335 0.331029 0.441535
0.218814 0.282506 0.455665
0.523766 0.250431 0.455573
0.782834 0.350347 0.463874
0.956237 0.558892 0.577386
0.000000 0.522972 0.522698
0.000000 0.512108 0.516411
0.498787 0.471107 0.497139
0.775296 0.556207 0.541894
0.950958 0.667781 0.624689
0.000000 0.752773 0.564019
0.000000 0.750332 0.545434
0.320562 0.671809 0.419928
0.568566 0.526390 0.376806
0.934478 0.796017 0.687709
0.000000 0.907713 0.512627
0.000000 0.901884 0.478248
0.000000 0.861265 0.325292
0.467842 0.587793 0.211337
0.755581 0.711025 0.298466
0.000000 0.348577 0.729183
0.000000 0.277806 0.738369
0.537316 0.221408 0.751858
0.792752 0.304387 0.701198
0.945861 0.562768 0.709438
0.186984 0.460212 0.727474
0.219760 0.407446 0.733364
0.515404 0.321416 0.746578
0.783200 0.369421 0.703059
0.940063 0.585779 0.713802
0.109529 0.610163 0.734646
0.301213 0.606561 0.727871
0.506035 0.552056 0.736599
0.761227 0.526818 0.717556
0.932860 0.669734 0.741573
0.000000 0.783413 0.789273
0.000000 0.776974 0.785000
0.427955 0.762997 0.777829
0.748043 0.734157 0.759915
0.931029 0.800839 0.794827
0.000000 0.948699 0.776974
0.000000 0.950103 0.772061
0.000000 0.955932 0.751034
0.535790 0.883299 0.624750
0.793393 0.759884 0.548058
0.289158 0.516136 0.907164
0.309758 0.481910 0.909361
0.511589 0.445838 0.913787
0.783780 0.408637 0.918761
0.944366 0.585992 0.869047
0.378027 0.584924 0.901762
0.390417 0.556329 0.904021
0.516014 0.498116 0.910185
0.773373 0.461646 0.914794
0.941192 0.610193 0.871183
0.431189 0.707546 0.893095
0.476814 0.700404 0.894316
0.578637 0.660395 0.900694
0.749477 0.604639 0.908843
0.937224 0.689326 0.884489
0.174166 0.802670 0.916075
0.321294 0.801968 0.912718
0.580072 0.807126 0.903349
0.755398 0.785092 0.908141
0.931731 0.791501 0.904509
0.000000 0.941161 0.941497
0.000000 0.940185 0.941405
0.322210 0.937621 0.941558
0.705165 0.930816 0.938384
0.921141 0.917235 0.930144
