data/fiter_cube/80369196/1023070/file.cube
# Created by Adobe Lightroom plugin Export LUT (1.17.0)
# www.johnrellis.com/lightroom/exportlut.htm
# Preset: Have Fun_02
# Color profile: C:\Program Files (x86)\Common Files\Adobe\Color\Profiles\Recommended\AdobeRGB1998.icc
LUT_3D_SIZE 32
DOMAIN_MIN 0.0 0.0 0.0
DOMAIN_MAX 1.0 1.0 1.0
0.059693 0.050843 0.043793
0.064759 0.052796 0.044343
0.070314 0.054383 0.044831
0.082460 0.059358 0.047364
0.101656 0.063630 0.048463
0.128023 0.069001 0.049714
0.162997 0.076265 0.047639
0.203464 0.085054 0.043275
0.247379 0.095552 0.035004
0.292149 0.107485 0.024262
0.337438 0.120333 0.010956
0.382910 0.133791 0.000000
0.428687 0.148531 0.000000
0.474739 0.164004 0.000000
0.520714 0.180850 0.000000
0.567102 0.198642 0.000000
0.612299 0.217075 0.000000
0.667109 0.240635 0.000000
0.719753 0.265110 0.020966
0.765377 0.288029 0.067903
0.805020 0.309361 0.094942
0.839445 0.329717 0.119387
0.868589 0.348333 0.142123
0.893828 0.365698 0.163516
0.916167 0.382391 0.183810
0.936797 0.398779 0.204746
0.956542 0.415869 0.226383
0.975799 0.433783 0.249332
0.994751 0.453101 0.274357
1.000000 0.474128 0.302098
1.000000 0.497108 0.332708
1.000000 0.522301 0.367132
0.059602 0.057923 0.044129
0.063813 0.057465 0.044984
0.069795 0.059266 0.046448
0.081727 0.062348 0.047791
0.100740 0.066499 0.049683
0.126650 0.072236 0.050111
0.161074 0.079500 0.048920
0.200717 0.088472 0.044038
0.244266 0.099001 0.035920
0.289006 0.110567 0.025422
0.333776 0.123018 0.012634
0.378851 0.136477 0.000000
0.424079 0.150515 0.000000
0.469673 0.166079 0.000000
0.515221 0.182223 0.000000
0.561212 0.199710 0.000000
0.606256 0.217685 0.000000
0.660212 0.240513 0.000000
0.711452 0.263951 0.018433
0.756832 0.286168 0.064637
0.796841 0.307378 0.090486
0.831785 0.327306 0.114504
0.861723 0.345800 0.136812
0.887785 0.363104 0.158297
0.910796 0.379767 0.178897
0.932006 0.396063 0.199771
0.952361 0.413184 0.221286
0.972076 0.431220 0.244480
0.991455 0.450538 0.269749
1.000000 0.471443 0.297124
1.000000 0.494270 0.327642
1.000000 0.519249 0.361822
0.058869 0.063081 0.044282
0.065583 0.061402 0.048096
0.068788 0.062226 0.047791
0.080903 0.065705 0.048920
0.099641 0.070558 0.051545
0.125154 0.076478 0.051087
0.158724 0.083711 0.049989
0.198337 0.093019 0.045350
0.241428 0.103456 0.037415
0.285924 0.115084 0.026947
0.330724 0.127230 0.014282
0.375860 0.140414 0.000946
0.421088 0.154269 0.000000
0.466621 0.169497 0.000000
0.511833 0.185367 0.000000
0.557794 0.202426 0.000000
0.602716 0.220249 0.000000
0.656428 0.242954 0.000000
0.706874 0.265690 0.020935
0.752102 0.287266 0.064851
0.792386 0.308019 0.089906
0.827695 0.327825 0.113039
0.858122 0.346227 0.135561
0.884550 0.363348 0.156374
0.907897 0.379828 0.176974
0.929412 0.396124 0.197391
0.950011 0.413062 0.219211
0.970031 0.431006 0.242374
0.989654 0.450141 0.267430
1.000000 0.471138 0.295232
1.000000 0.493721 0.325628
1.000000 0.518517 0.359472
0.056001 0.072541 0.044373
0.064973 0.072236 0.047120
0.071992 0.069032 0.052186
0.078767 0.071077 0.052216
0.096498 0.076204 0.053162
0.123415 0.084138 0.053742
0.156802 0.092622 0.051453
0.196231 0.102480 0.047700
0.239170 0.113283 0.039643
0.283604 0.124849 0.028901
0.328099 0.136660 0.017273
0.373083 0.149416 0.004974
0.417762 0.163119 0.000000
0.462959 0.177554 0.000000
0.508171 0.193118 0.000000
0.553674 0.209812 0.000000
0.598627 0.226963 0.000000
0.652277 0.249332 0.000000
0.700710 0.270420 0.030304
0.744930 0.291081 0.066773
0.784817 0.311101 0.089815
0.820462 0.330053 0.112093
0.851896 0.348150 0.134005
0.879759 0.365576 0.155428
0.904601 0.382544 0.176181
0.927337 0.399390 0.197665
0.948791 0.416571 0.220371
0.969299 0.434699 0.243870
0.989105 0.453803 0.269078
1.000000 0.474311 0.296361
1.000000 0.496254 0.326329
1.000000 0.520226 0.359136
0.052277 0.084443 0.045594
0.060548 0.084504 0.045258
0.071626 0.082704 0.051148
0.080964 0.077729 0.057282
0.090944 0.080842 0.055940
0.113588 0.089601 0.055177
0.149294 0.101534 0.055055
0.191592 0.114473 0.050660
0.234562 0.126009 0.042969
0.278721 0.137667 0.031983
0.323064 0.149813 0.020966
0.367773 0.162417 0.009644
0.412543 0.175418 0.001160
0.457771 0.189639 0.000000
0.503136 0.204868 0.000000
0.549279 0.221134 0.000000
0.596979 0.239017 0.000000
0.650080 0.260685 0.016602
0.697932 0.280919 0.050019
0.741695 0.300633 0.074220
0.781094 0.319677 0.094728
0.816587 0.337865 0.115450
0.848173 0.355352 0.136599
0.876432 0.372107 0.157321
0.901732 0.388586 0.178012
0.924926 0.405066 0.199344
0.946654 0.421912 0.221744
0.967315 0.439429 0.245029
0.987213 0.458106 0.270054
1.000000 0.478065 0.297215
1.000000 0.499672 0.326665
1.000000 0.523247 0.359411
0.046967 0.099306 0.048096
0.055207 0.099428 0.045991
0.066957 0.098970 0.049073
0.082795 0.092500 0.056275
0.092195 0.088258 0.060151
0.104891 0.093080 0.059388
0.134127 0.105653 0.057527
0.177432 0.122316 0.053895
0.230106 0.141360 0.048829
0.276127 0.154604 0.038422
0.320684 0.166812 0.028687
0.365270 0.179202 0.018891
0.410010 0.192233 0.011719
0.455299 0.206058 0.006531
0.500908 0.221042 0.004852
0.547173 0.237095 0.007172
0.598077 0.255955 0.019013
0.649836 0.276616 0.044465
0.697230 0.296117 0.066651
0.741054 0.315038 0.085176
0.780728 0.333623 0.103853
0.816587 0.351171 0.123751
0.887266 0.396307 0.179629
0.910735 0.411475 0.200412
0.931670 0.426062 0.220768
0.950988 0.440742 0.241062
0.969207 0.456001 0.262181
0.986786 0.472023 0.284276
1.000000 0.489265 0.308080
1.000000 0.508171 0.334478
1.000000 0.528557 0.363104
1.000000 0.550805 0.394629
0.034058 0.121675 0.052033
0.044465 0.121584 0.047761
0.055970 0.121431 0.042359
0.082826 0.117617 0.052247
0.098024 0.104372 0.061555
0.108827 0.103609 0.062898
0.125673 0.110475 0.061280
0.162966 0.128542 0.058778
0.214969 0.150515 0.053223
0.273777 0.173342 0.046509
0.330724 0.193576 0.039857
0.376318 0.206332 0.033234
0.421576 0.219242 0.029664
0.466896 0.232944 0.028168
0.511955 0.247074 0.032380
0.557427 0.262272 0.039765
0.613153 0.283421 0.059236
0.664454 0.303563 0.072236
0.711879 0.322820 0.087556
0.756222 0.341802 0.105562
0.797513 0.360876 0.125643
0.835508 0.379797 0.148135
0.869200 0.398291 0.171542
0.898314 0.415747 0.195132
0.923491 0.432502 0.218326
0.945159 0.448005 0.240726
0.964630 0.463325 0.262516
0.982818 0.478950 0.285069
1.000000 0.495613 0.308629
1.000000 0.513634 0.334508
1.000000 0.533318 0.362615
1.000000 0.554864 0.393866
0.017731 0.144320 0.056641
0.026978 0.144320 0.051575
0.038209 0.144076 0.044312
0.075257 0.142214 0.046784
0.100710 0.130190 0.058595
0.111208 0.113619 0.066194
0.125917 0.119295 0.065339
0.146029 0.128054 0.063233
0.186984 0.148592 0.059663
0.243168 0.173831 0.055512
0.303807 0.199069 0.050874
0.366217 0.224002 0.052369
0.417487 0.241093 0.055482
0.462745 0.254520 0.057801
0.507927 0.268132 0.061738
0.558373 0.285496 0.067048
0.611566 0.305333 0.076173
0.660609 0.323674 0.087068
0.706722 0.341466 0.100008
0.750546 0.359289 0.115785
0.791501 0.377081 0.134615
0.829465 0.394903 0.154574
0.863340 0.411994 0.176638
0.892729 0.428412 0.199374
0.918181 0.443946 0.221500
0.940276 0.458656 0.243320
0.960113 0.473030 0.264897
0.978759 0.487892 0.286839
0.996582 0.503960 0.310643
1.000000 0.521294 0.336034
1.000000 0.540307 0.364050
1.000000 0.561089 0.394751
0.000000 0.170657 0.061616
0.001404 0.170382 0.057710
0.012299 0.170077 0.047883
0.055879 0.168948 0.033722
0.098360 0.161624 0.050172
0.118776 0.142519 0.062867
0.127871 0.129061 0.069398
0.145937 0.137392 0.067536
0.168948 0.147616 0.065400
0.211582 0.169802 0.060731
0.270848 0.197787 0.059052
0.332830 0.224949 0.059724
0.396399 0.252049 0.065278
0.460853 0.279210 0.075593
0.507408 0.293706 0.079103
0.561273 0.313024 0.086183
0.611902 0.330999 0.094453
0.659419 0.347875 0.103456
0.704524 0.364172 0.114900
0.747646 0.380804 0.128908
0.788266 0.397314 0.145754
0.825864 0.413794 0.164553
0.859556 0.429633 0.185153
0.888914 0.444800 0.206699
0.914427 0.459144 0.228458
0.936645 0.472663 0.249332
0.956725 0.486122 0.270390
0.975463 0.500053 0.292058
0.993469 0.515129 0.315068
1.000000 0.531487 0.339849
1.000000 0.549645 0.367590
1.000000 0.569635 0.398108
0.000000 0.198245 0.065644
0.000000 0.197818 0.061463
0.000000 0.197330 0.053437
0.006531 0.196292 0.024353
0.088075 0.192477 0.039826
0.121004 0.175418 0.057160
0.135683 0.153323 0.068025
0.146304 0.146273 0.072175
0.166995 0.156069 0.070314
0.191958 0.167544 0.067506
0.234684 0.190005 0.062806
0.295598 0.220066 0.062806
0.358770 0.249393 0.067842
0.423743 0.278843 0.076967
0.498512 0.314275 0.092927
0.564569 0.342901 0.105745
0.614771 0.360266 0.112795
0.662104 0.376318 0.122072
0.706661 0.391821 0.132753
0.748653 0.406806 0.145174
0.787625 0.421363 0.159945
0.823362 0.435523 0.176730
0.855497 0.449042 0.194980
0.883818 0.462104 0.214359
0.908904 0.474617 0.234379
0.931304 0.487007 0.254520
0.951904 0.499672 0.274937
0.971313 0.512993 0.296880
0.989929 0.527672 0.320378
1.000000 0.543786 0.345861
1.000000 0.561730 0.374029
1.000000 0.581384 0.405035
0.000000 0.225284 0.069764
0.000000 0.224826 0.065583
0.000000 0.224399 0.059632
0.000000 0.223148 0.029847
0.065644 0.219699 0.018158
0.116640 0.209537 0.043732
0.141543 0.186893 0.063081
0.150759 0.162600 0.073610
0.165621 0.164309 0.074739
0.188388 0.175204 0.073060
0.215030 0.187533 0.070161
0.256779 0.209781 0.064881
0.319188 0.242069 0.068086
0.388128 0.276707 0.077302
0.459480 0.312078 0.091402
0.534447 0.348913 0.109316
0.609796 0.385565 0.129335
0.660548 0.404028 0.140017
0.704524 0.418219 0.149203
0.745876 0.432074 0.159976
0.784482 0.445411 0.173770
0.820127 0.458473 0.189334
0.852323 0.471046 0.206699
0.880705 0.482979 0.225467
0.905791 0.494270 0.244694
0.928130 0.505333 0.263981
0.948669 0.516594 0.283665
0.967987 0.528801 0.304875
0.986603 0.542290 0.327520
1.000000 0.557336 0.352544
1.000000 0.574243 0.380255
1.000000 0.593256 0.411200
0.000000 0.253025 0.074311
0.000000 0.252720 0.070466
0.000000 0.252079 0.063905
0.000000 0.250706 0.039673
0.000000 0.248142 0.000000
0.104952 0.242222 0.028809
0.142000 0.221683 0.053468
0.160006 0.196384 0.069001
0.164797 0.171603 0.079255
0.185153 0.182010 0.077546
0.209628 0.194064 0.076051
0.238132 0.207797 0.073365
0.294804 0.243381 0.069551
0.368933 0.285283 0.080323
0.446143 0.327276 0.097444
0.526879 0.370245 0.117830
0.607843 0.412329 0.140475
0.682338 0.449592 0.164920
0.742885 0.477058 0.188754
0.779324 0.486610 0.199527
0.812833 0.495796 0.212589
0.843290 0.504784 0.227054
0.870390 0.513115 0.242771
0.894896 0.521477 0.259312
0.917021 0.530022 0.276707
0.937255 0.538811 0.294591
0.956054 0.548089 0.313207
0.973877 0.558434 0.332738
0.991028 0.570062 0.354040
1.000000 0.583459 0.377752
1.000000 0.598871 0.404547
1.000000 0.616388 0.434424
0.000000 0.287541 0.080171
0.000000 0.286961 0.075013
0.000000 0.285893 0.068452
0.000000 0.283726 0.045686
0.000000 0.280461 0.000000
0.078889 0.274052 0.000000
0.136934 0.260014 0.033845
0.164889 0.233829 0.061921
0.176730 0.205509 0.075380
0.183536 0.189242 0.082094
0.206821 0.201816 0.081178
0.236576 0.218448 0.080293
0.270420 0.236667 0.079133
0.313115 0.260777 0.073121
0.388983 0.305364 0.087098
0.467567 0.349676 0.106783
0.549371 0.394812 0.128359
0.628534 0.436835 0.151522
0.701564 0.474128 0.177584
0.764462 0.505272 0.206485
0.806668 0.521172 0.226627
0.837247 0.528771 0.239872
0.864469 0.535973 0.254398
0.889036 0.543084 0.270176
0.911315 0.550286 0.286503
0.931762 0.557794 0.303441
0.950774 0.565881 0.321447
0.968872 0.575128 0.340368
0.986358 0.585809 0.361303
1.000000 0.598444 0.385077
1.000000 0.613001 0.411444
1.000000 0.629877 0.441535
0.000000 0.313634 0.084077
0.000000 0.313024 0.079927
0.000000 0.311803 0.073640
0.000000 0.309728 0.056825
0.000000 0.306096 0.000000
0.000000 0.300511 0.000000
0.123507 0.291478 0.015747
0.162570 0.267552 0.048798
0.182437 0.239658 0.069154
0.189212 0.210575 0.081270
0.202090 0.206363 0.085298
0.228214 0.221408 0.085145
0.258335 0.238041 0.084688
0.291844 0.255985 0.083467
0.332799 0.278996 0.077974
0.406714 0.323369 0.092958
0.485847 0.369360 0.113802
0.567529 0.415747 0.136690
0.646357 0.458839 0.161318
0.719112 0.497139 0.188724
0.780758 0.528405 0.220096
0.831266 0.553887 0.254032
0.859373 0.560601 0.268650
0.884276 0.566674 0.283452
0.906737 0.572778 0.299443
0.927367 0.579217 0.315862
0.946593 0.586297 0.333043
0.964843 0.594537 0.351812
0.982544 0.604303 0.372259
0.999542 0.616083 0.395850
1.000000 0.629938 0.422492
1.000000 0.645991 0.452369
0.000000 0.339849 0.088502
0.000000 0.339300 0.084321
0.000000 0.338109 0.078157
0.000000 0.335790 0.062409
0.000000 0.332189 0.005890
0.000000 0.327123 0.000000
0.097383 0.318639 0.000000
0.155093 0.302586 0.024628
0.184909 0.275608 0.061372
0.199069 0.246250 0.076539
0.200076 0.214847 0.086915
0.219913 0.222629 0.088380
0.246769 0.238193 0.088319
0.277256 0.255009 0.088594
0.310613 0.273014 0.087861
0.350439 0.295354 0.082795
0.422187 0.339300 0.097902
0.502251 0.387457 0.120058
0.585260 0.436103 0.144198
0.665095 0.481025 0.170077
0.736965 0.519829 0.199771
0.796506 0.550805 0.232975
0.844633 0.575433 0.268406
0.879301 0.591058 0.298131
0.902098 0.596246 0.313390
0.923186 0.601953 0.329778
0.943023 0.608606 0.347448
0.961944 0.616724 0.367224
0.980194 0.626490 0.389105
0.997681 0.638361 0.414008
1.000000 0.652186 0.441718
1.000000 0.668025 0.472572
0.000000 0.366278 0.092500
0.000000 0.365850 0.088777
0.000000 0.364874 0.082673
0.000000 0.363409 0.068238
0.000000 0.361120 0.016541
0.000000 0.357458 0.000000
0.037232 0.351049 0.000000
0.143374 0.340887 0.001617
0.183688 0.314366 0.045106
0.205112 0.284031 0.070039
0.212650 0.250858 0.082887
0.212039 0.223178 0.090486
0.236210 0.237430 0.091066
0.263432 0.252934 0.091615
0.293400 0.269596 0.091676
0.326055 0.287175 0.091463
0.365454 0.309514 0.086854
0.434760 0.352880 0.101350
0.517967 0.404730 0.125154
0.604059 0.457069 0.150973
0.685969 0.504875 0.179110
0.757137 0.544396 0.211978
0.814572 0.574975 0.247898
0.860502 0.599207 0.286564
0.897093 0.619409 0.326268
0.921386 0.628565 0.349767
0.941283 0.634424 0.367498
0.960204 0.641688 0.387213
0.978271 0.650599 0.409216
0.995483 0.661219 0.433173
1.000000 0.673548 0.459693
1.000000 0.687892 0.489204
0.000000 0.397986 0.097719
0.000000 0.397467 0.094057
0.000000 0.396490 0.088472
0.000000 0.394507 0.074372
0.000000 0.391363 0.031189
0.000000 0.387030 0.000000
0.000000 0.380560 0.000000
0.119356 0.370581 0.000000
0.175631 0.350256 0.016785
0.205325 0.319005 0.061006
0.219303 0.285435 0.077241
0.220615 0.250401 0.087984
0.225437 0.234989 0.092287
0.250370 0.250095 0.093294
0.277958 0.265934 0.094026
0.308141 0.282841 0.094606
0.340917 0.300786 0.094789
0.379980 0.323369 0.090455
0.447578 0.366552 0.104067
0.534081 0.422248 0.129183
0.622126 0.477302 0.156313
0.704616 0.526574 0.186801
0.773922 0.565789 0.221897
0.829465 0.596002 0.260533
0.873442 0.619776 0.301518
0.908629 0.640162 0.343908
0.937469 0.658412 0.385107
0.956603 0.665034 0.405005
0.974945 0.673274 0.426886
0.992279 0.683223 0.451209
1.000000 0.694881 0.477546
1.000000 0.708522 0.506981
0.000000 0.429175 0.102144
0.000000 0.429084 0.099001
0.000000 0.445869 0.095796
0.000000 0.443580 0.081361
0.000000 0.439551 0.044892
0.000000 0.433906 0.000000
0.000000 0.426703 0.000000
0.076356 0.414923 0.000000
0.168124 0.398871 0.000000
0.207675 0.366033 0.040589
0.228397 0.330022 0.070893
0.234928 0.291783 0.084169
0.229252 0.252079 0.092073
0.242069 0.250462 0.094667
0.268193 0.266361 0.095857
0.297002 0.283391 0.097383
0.328191 0.301366 0.098634
0.361852 0.320348 0.099641
0.402075 0.343969 0.095369
0.470314 0.388769 0.109041
0.562249 0.450141 0.136110
0.652949 0.508232 0.166476
0.734066 0.557610 0.200381
0.799374 0.594903 0.239292
0.850309 0.622675 0.281010
0.890196 0.644465 0.323919
0.922576 0.663661 0.367132
0.949920 0.682429 0.411353
0.971527 0.696590 0.446357
0.988861 0.705348 0.469490
1.000000 0.716030 0.495552
1.000000 0.728450 0.523857
0.000000 0.465217 0.108431
0.000000 0.467109 0.105043
0.000000 0.468727 0.099733
0.000000 0.468635 0.086336
0.000000 0.466285 0.058137
0.000000 0.461372 0.000000
0.000000 0.453925 0.000000
0.000000 0.443122 0.000000
0.144259 0.428931 0.000000
0.198398 0.402228 0.004089
0.227054 0.365515 0.059174
0.240238 0.327428 0.076875
0.240787 0.287083 0.087617
0.230076 0.246036 0.093355
0.253300 0.260227 0.095003
0.279881 0.276585 0.096742
0.308904 0.294011 0.098238
0.340398 0.312444 0.099886
0.374487 0.332097 0.100923
0.415167 0.356573 0.097993
0.482216 0.401434 0.109163
0.578088 0.467201 0.137881
0.671046 0.528405 0.169924
0.751766 0.578424 0.207675
0.815122 0.615198 0.249668
0.864317 0.642634 0.294499
0.902892 0.664759 0.340642
0.934630 0.684871 0.387701
0.961547 0.705165 0.436439
0.984527 0.725521 0.484352
1.000000 0.737819 0.514824
1.000000 0.749233 0.542657
0.000000 0.494331 0.112306
0.000000 0.496223 0.109010
0.000000 0.497902 0.103853
0.000000 0.497658 0.090730
0.000000 0.495338 0.065614
0.000000 0.490181 0.000000
0.000000 0.482368 0.000000
0.000000 0.471992 0.000000
0.103944 0.457893 0.000000
0.184451 0.438483 0.000000
0.222477 0.402441 0.024933
0.242496 0.363622 0.066133
0.249058 0.323156 0.080812
0.244114 0.281743 0.089387
0.239658 0.253880 0.093172
0.264561 0.270024 0.095155
0.291814 0.287205 0.096773
0.321477 0.305272 0.098848
0.353643 0.324590 0.100435
0.388678 0.345373 0.102144
0.430152 0.370916 0.099550
0.496681 0.416480 0.108522
0.597131 0.487098 0.139559
0.692012 0.550835 0.174563
0.770626 0.600244 0.215549
0.831846 0.636255 0.261234
0.878904 0.663111 0.309606
0.916228 0.685634 0.359503
0.947204 0.707027 0.411566
0.973388 0.728298 0.463508
0.995239 0.749447 0.513970
1.000000 0.769192 0.560479
0.000000 0.524590 0.116213
0.000000 0.526696 0.113527
0.000000 0.528283 0.108370
0.000000 0.528130 0.096223
0.000000 0.525536 0.070924
0.000000 0.520378 0.000000
0.000000 0.512535 0.000000
0.000000 0.502556 0.000000
0.000000 0.488350 0.000000
0.163363 0.471504 0.000000
0.213474 0.440284 0.000000
0.241276 0.401251 0.041779
0.254032 0.360021 0.070741
0.254765 0.317662 0.083131
0.245396 0.275059 0.089998
0.250370 0.263523 0.092500
0.276463 0.280858 0.094759
0.305241 0.299351 0.096956
0.336706 0.319402 0.099245
0.371313 0.341100 0.101778
0.408972 0.364508 0.103822
0.453773 0.393347 0.102480
0.523308 0.442359 0.110048
0.630610 0.519921 0.145235
0.727199 0.586114 0.186435
0.802792 0.634302 0.235233
0.859800 0.668482 0.288060
0.903319 0.694820 0.343542
0.938354 0.718227 0.400885
0.967224 0.740780 0.458259
0.990906 0.762875 0.513787
1.000000 0.784421 0.567010
0.000000 0.567834 0.122530
0.000000 0.568353 0.118959
0.000000 0.568261 0.113863
0.000000 0.566552 0.101564
0.000000 0.562646 0.076051
0.000000 0.556817 0.000000
0.000000 0.549035 0.000000
0.000000 0.539178 0.000000
0.000000 0.525902 0.000000
0.126070 0.509392 0.000000
0.201907 0.486000 0.000000
0.239475 0.445594 0.000000
0.258976 0.403113 0.051972
0.265476 0.359472 0.073579
0.260868 0.314885 0.084260
0.246769 0.270115 0.089479
0.263523 0.275914 0.091646
0.291386 0.294774 0.094209
0.321599 0.314733 0.096803
0.354711 0.336370 0.099458
0.390814 0.359533 0.101961
0.430060 0.384497 0.104433
0.476020 0.414649 0.103609
0.544610 0.463722 0.107851
0.654841 0.544640 0.146487
0.750362 0.610895 0.193027
0.823423 0.657893 0.247105
0.877806 0.691341 0.305913
0.919646 0.717952 0.366674
0.953338 0.742336 0.429572
0.980804 0.765774 0.490852
1.000000 0.788540 0.549645
0.000000 0.600671 0.126650
0.000000 0.601221 0.122957
0.000000 0.601434 0.118105
0.000000 0.599725 0.105348
0.000000 0.596094 0.081910
0.000000 0.590112 0.001495
0.000000 0.582147 0.000000
0.000000 0.572412 0.000000
0.000000 0.559930 0.000000
0.041901 0.543542 0.000000
0.184176 0.523980 0.000000
0.231144 0.488228 0.000000
0.258854 0.445167 0.000000
0.271641 0.400336 0.056489
0.272648 0.355016 0.074434
0.263798 0.309392 0.083711
0.250248 0.269535 0.087953
0.276890 0.288426 0.090211
0.306340 0.308782 0.092958
0.338445 0.330694 0.095888
0.373785 0.354406 0.098817
0.412299 0.379980 0.101900
0.454139 0.407568 0.104707
0.503166 0.440711 0.104372
0.564538 0.483711 0.104433
0.677455 0.568048 0.146456
0.771817 0.634180 0.198734
0.842496 0.680171 0.259068
0.894621 0.713069 0.323583
0.935119 0.740383 0.390692
0.967742 0.766049 0.459144
0.993805 0.790707 0.525017
0.000000 0.645899 0.132235
0.000000 0.646784 0.128725
0.000000 0.646601 0.123232
0.000000 0.644343 0.110353
0.000000 0.640101 0.086976
0.000000 0.633631 0.010040
0.000000 0.625086 0.000000
0.000000 0.614618 0.000000
0.000000 0.601801 0.000000
0.000000 0.584710 0.000000
0.147189 0.564660 0.000000
0.218662 0.536645 0.000000
0.256382 0.492348 0.000000
0.276036 0.445563 0.000000
0.282506 0.398322 0.056947
0.278447 0.350835 0.074159
0.265232 0.303563 0.082185
0.262577 0.281376 0.085786
0.290684 0.301457 0.088502
0.321782 0.323461 0.091035
0.355962 0.347417 0.094179
0.393317 0.373053 0.097353
0.433631 0.400519 0.100649
0.476967 0.429572 0.103151
0.526818 0.463600 0.102724
0.592920 0.511894 0.100649
0.708766 0.599542 0.150057
0.799374 0.663233 0.210483
0.865629 0.706630 0.278294
0.914672 0.738674 0.349676
0.953216 0.766812 0.424475
0.983948 0.793454 0.498116
0.000000 0.679561 0.135531
0.000000 0.680507 0.131868
0.000000 0.680568 0.126986
0.000000 0.678523 0.114107
0.000000 0.674525 0.090059
0.000000 0.668696 0.021088
0.000000 0.660853 0.000000
0.000000 0.651209 0.000000
0.000000 0.639551 0.000000
0.000000 0.624323 0.000000
0.081544 0.605432 0.000000
0.201724 0.582544 0.000000
0.250309 0.543999 0.000000
0.279057 0.497627 0.000000
0.292363 0.448737 0.000000
0.294041 0.399451 0.054200
0.285863 0.350347 0.072389
0.269444 0.301854 0.080568
0.280491 0.299290 0.083711
0.311223 0.322026 0.086671
0.345068 0.346654 0.089723
0.382208 0.373266 0.093141
0.422492 0.401678 0.096895
0.465797 0.431922 0.099855
0.512413 0.464088 0.102510
0.564904 0.500450 0.102235
0.630518 0.548943 0.097810
0.747158 0.638148 0.159426
0.832975 0.698604 0.231998
0.893858 0.739132 0.310460
0.939635 0.771145 0.392615
0.975372 0.800290 0.475746
0.000000 0.717800 0.139254
0.000000 0.718257 0.135805
0.000000 0.717800 0.130312
0.000000 0.715602 0.117708
0.000000 0.711513 0.094545
0.000000 0.705745 0.029419
0.000000 0.698390 0.000000
0.000000 0.689265 0.000000
0.000000 0.678614 0.000000
0.000000 0.665339 0.000000
0.000000 0.647669 0.000000
0.167697 0.626947 0.000000
0.237766 0.597009 0.000000
0.278019 0.552728 0.000000
0.299931 0.504326 0.000000
0.308080 0.452949 0.000000
0.305455 0.401892 0.049409
0.293980 0.351598 0.070222
0.274662 0.302159 0.078523
0.301884 0.321294 0.081544
0.335485 0.346624 0.084718
0.372381 0.374060 0.088197
0.412482 0.403449 0.091890
0.455879 0.434943 0.095552
0.502617 0.468421 0.098421
0.551812 0.502800 0.100954
0.605768 0.540459 0.102052
0.674983 0.592462 0.099428
0.783383 0.675044 0.171756
0.863096 0.731258 0.256596
0.919554 0.769894 0.345434
0.962219 0.802274 0.437629
0.000000 0.752712 0.142824
0.000000 0.752804 0.138674
0.000000 0.752438 0.133486
0.000000 0.750607 0.120882
0.000000 0.747555 0.097475
0.000000 0.743526 0.036378
0.000000 0.738857 0.000000
0.000000 0.733303 0.000000
0.000000 0.726619 0.000000
0.000000 0.718288 0.000000
0.000000 0.705562 0.000000
0.109590 0.689540 0.000000
0.225498 0.668055 0.000000
0.280339 0.631250 0.000000
0.314946 0.586114 0.000000
0.333318 0.535515 0.000000
0.338109 0.481697 0.000000
0.332280 0.427161 0.036927
0.318090 0.373968 0.068208
0.309667 0.339757 0.077638
0.345251 0.367895 0.081514
0.384466 0.398566 0.086152
0.427192 0.431281 0.090608
0.473487 0.466529 0.095125
0.522820 0.503105 0.099397
0.573754 0.540093 0.103914
0.626184 0.576928 0.108675
0.681910 0.615595 0.114565
0.751400 0.667689 0.125307
0.841978 0.734859 0.215183
0.908995 0.781704 0.317754
0.957397 0.817350 0.422248
0.000000 0.803189 0.147677
0.000000 0.803067 0.144015
0.000000 0.802396 0.138613
0.000000 0.800473 0.125673
0.000000 0.797391 0.101198
0.000000 0.793454 0.042786
0.000000 0.788632 0.000000
0.000000 0.783017 0.000000
0.000000 0.776242 0.000000
0.000000 0.768124 0.000000
0.000000 0.756130 0.000000
0.000000 0.741054 0.000000
0.196384 0.722438 0.000000
0.269047 0.694850 0.000000
