data/fiter_cube/80369196/1023070/file.cube
# Created by Adobe Lightroom plugin Export LUT (1.17.0)
# www.johnrellis.com/lightroom/exportlut.htm
# Preset: Have Fun_02
# Color profile: C:\Program Files (x86)\Common Files\Adobe\Color\Profiles\Recommended\AdobeRGB1998.icc
LUT_3D_SIZE 8
DOMAIN_MIN 0.000000 0.000000 0.000000
DOMAIN_MAX 0.903226 0.903226 0.903226
0.059693 0.050843 0.043793
0.101656 0.063630 0.048463
0.247379 0.095552 0.035004
0.428687 0.148531 0.000000
0.612299 0.217075 0.000000
0.805020 0.309361 0.094942
0.916167 0.382391 0.183810
0.994751 0.453101 0.274357
0.052277 0.084443 0.045594
0.090944 0.080842 0.055940
0.234562 0.126009 0.042969
0.412543 0.175418 0.001160
0.596979 0.239017 0.000000
0.781094 0.319677 0.094728
0.901732 0.388586 0.178012
0.987213 0.458106 0.270054
0.000000 0.170657 0.061616
0.098360 0.161624 0.050172
0.168948 0.147616 0.065400
0.396399 0.252049 0.065278
0.611902 0.330999 0.094453
0.788266 0.397314 0.145754
0.914427 0.459144 0.228458
0.993469 0.515129 0.315068
0.000000 0.287541 0.080171
0.000000 0.280461 0.000000
0.176730 0.205509 0.075380
0.270420 0.236667 0.079133
0.549371 0.394812 0.128359
0.806668 0.521172 0.226627
0.911315 0.550286 0.286503
0.986358 0.585809 0.361303
0.000000 0.397986 0.097719
0.000000 0.391363 0.031189
0.175631 0.350256 0.016785
0.225437 0.234989 0.092287
0.340917 0.300786 0.094789
0.622126 0.477302 0.156313
0.873442 0.619776 0.301518
0.974945 0.673274 0.426886
0.000000 0.524590 0.116213
0.000000 0.525536 0.070924
0.000000 0.488350 0.000000
0.254032 0.360021 0.070741
0.276463 0.280858 0.094759
0.408972 0.364508 0.103822
0.727199 0.586114 0.186435
0.938354 0.718227 0.400885
0.000000 0.679561 0.135531
0.000000 0.674525 0.090059
0.000000 0.639551 0.000000
0.250309 0.543999 0.000000
0.285863 0.350347 0.072389
0.345068 0.346654 0.089723
0.512413 0.464088 0.102510
0.832975 0.698604 0.231998
0.000000 0.837705 0.150210
0.000000 0.833127 0.104005
0.000000 0.817288 0.000000
0.143496 0.776486 0.000000
0.368597 0.615900 0.000000
0.361517 0.411322 0.070558
0.539666 0.550683 0.096742
0.743160 0.695674 0.141329
0.063386 0.066072 0.082948
0.106691 0.060365 0.083650
0.238651 0.064332 0.087678
0.409186 0.131106 0.102602
0.590814 0.206912 0.121370
0.768093 0.293034 0.158175
0.893095 0.370855 0.214939
0.980468 0.445441 0.290562
0.049622 0.098482 0.091524
0.103578 0.092775 0.090669
0.235538 0.117433 0.097780
0.404913 0.166354 0.108400
0.586389 0.233890 0.127657
0.757687 0.309728 0.160800
0.882414 0.379248 0.211215
0.972595 0.449317 0.284611
0.000000 0.185458 0.111299
0.069062 0.187167 0.094514
0.191592 0.167666 0.101442
0.405615 0.259525 0.137942
0.588647 0.317937 0.157046
0.760311 0.381659 0.189212
0.887816 0.441077 0.243809
0.977050 0.502220 0.320470
0.000000 0.298589 0.129061
0.000000 0.295140 0.102663
0.193576 0.240330 0.101686
0.278965 0.244663 0.111818
0.525689 0.377234 0.168215
0.764065 0.488655 0.239719
0.884276 0.527642 0.288609
0.970886 0.571466 0.360876
0.000000 0.414954 0.144991
0.000000 0.407202 0.116060
0.162692 0.374945 0.080262
0.234287 0.244083 0.112337
0.343572 0.303593 0.119875
0.613275 0.470100 0.186191
0.863920 0.613764 0.323339
0.965301 0.665278 0.432624
0.000000 0.530755 0.157900
0.000000 0.523491 0.129885
0.000000 0.492134 0.000000
0.259098 0.378759 0.094850
0.281621 0.286198 0.110536
0.414191 0.369665 0.125246
0.726345 0.585473 0.211551
0.932952 0.715114 0.415320
0.000000 0.672114 0.173526
0.000000 0.661738 0.142824
0.000000 0.631708 0.000000
0.238712 0.554772 0.000000
0.292485 0.363592 0.086488
0.342626 0.344335 0.101411
0.502220 0.454200 0.117739
0.819333 0.685115 0.235935
0.000000 0.832212 0.187991
0.000000 0.829496 0.156130
0.000000 0.814939 0.000000
0.028443 0.777523 0.000000
0.377905 0.650050 0.000000
0.374090 0.430579 0.078553
0.533440 0.544610 0.106905
0.732357 0.684657 0.146883
0.000000 0.104250 0.202976
0.108248 0.070375 0.210819
0.263706 0.023438 0.205570
0.421118 0.089082 0.207980
0.602502 0.186526 0.243870
0.772702 0.296635 0.287602
0.895476 0.390845 0.335393
0.980255 0.476570 0.397467
0.059327 0.158175 0.202945
0.102510 0.133028 0.211734
0.258427 0.108431 0.209262
0.413214 0.141543 0.213230
0.592401 0.222202 0.248753
0.762814 0.313512 0.286534
0.888182 0.399420 0.331701
0.976135 0.482704 0.395361
0.000000 0.248875 0.240024
0.000000 0.244938 0.238682
0.249760 0.224552 0.231632
0.412482 0.259373 0.247807
0.601160 0.322454 0.278325
0.765927 0.388464 0.308598
0.886839 0.455482 0.352575
0.972900 0.524651 0.415106
0.000000 0.359197 0.263584
0.000000 0.364935 0.259739
0.173617 0.344610 0.213321
0.341833 0.304509 0.228611
0.603601 0.443488 0.317662
0.770535 0.499519 0.351965
0.886229 0.545892 0.396521
0.968933 0.596796 0.457588
0.000000 0.478523 0.272892
0.000000 0.474769 0.257877
0.069398 0.451942 0.204868
0.307225 0.342870 0.203067
0.396124 0.354376 0.213413
0.671046 0.521904 0.305455
0.878691 0.649409 0.456001
0.960815 0.683070 0.514549
0.000000 0.589929 0.276768
0.000000 0.584649 0.260441
0.000000 0.557519 0.198764
0.283055 0.480262 0.182742
0.311009 0.317174 0.168032
0.445167 0.400275 0.194430
0.752010 0.609857 0.303227
0.937896 0.739345 0.516655
0.000000 0.722042 0.287175
0.000000 0.714443 0.268009
0.000000 0.686336 0.194553
0.160891 0.624018 0.092927
0.329992 0.436835 0.141543
0.358038 0.361975 0.142672
0.529198 0.481392 0.173495
0.844755 0.710567 0.322545
0.000000 0.854124 0.291691
0.000000 0.848997 0.271580
0.000000 0.834653 0.189487
0.000000 0.811032 0.000000
0.367590 0.706569 0.000000
0.402838 0.482399 0.107393
0.538231 0.552697 0.142885
0.745602 0.698787 0.196567
0.000000 0.162173 0.354437
0.000000 0.117830 0.363104
0.283024 0.061372 0.376135
0.435004 0.095979 0.355138
0.603388 0.171664 0.360327
0.758907 0.237217 0.375677
0.875639 0.383551 0.437659
0.964446 0.498970 0.501488
0.043091 0.225986 0.362402
0.080781 0.196658 0.367773
0.272526 0.139467 0.379065
0.434150 0.150393 0.360723
0.600855 0.207004 0.365332
0.753475 0.261906 0.378729
0.871885 0.397375 0.439094
0.962707 0.505913 0.501183
0.000000 0.312413 0.370642
0.142824 0.309056 0.366949
0.257755 0.273136 0.377325
0.430396 0.256352 0.378210
0.598505 0.299504 0.386053
0.756405 0.373816 0.424567
0.882170 0.479988 0.482643
0.965972 0.560052 0.532738
0.000000 0.426368 0.422309
0.000000 0.424292 0.421698
0.211154 0.414984 0.418769
0.420844 0.390814 0.410163
0.592950 0.427497 0.427283
0.752712 0.489235 0.461433
0.873167 0.556481 0.507134
0.959930 0.622889 0.562219
0.000000 0.545495 0.443549
0.000000 0.546502 0.441260
0.000000 0.555535 0.435370
0.330297 0.525017 0.385687
0.489540 0.449561 0.375219
0.751247 0.612726 0.512840
0.871855 0.665766 0.568383
0.953674 0.706081 0.612207
0.000000 0.697200 0.475105
0.000000 0.700618 0.468696
0.000000 0.675959 0.422400
0.234348 0.623224 0.346654
0.414282 0.450324 0.302556
0.518242 0.474586 0.315862
0.802090 0.667659 0.472023
0.944793 0.784756 0.659541
0.000000 0.789303 0.449775
0.000000 0.786496 0.438514
0.000000 0.771054 0.395209
0.000000 0.730282 0.308354
0.388556 0.611109 0.265568
0.392493 0.401984 0.215183
0.573236 0.526635 0.260349
0.867674 0.739315 0.453834
0.000000 0.894713 0.435523
0.000000 0.892790 0.423194
0.000000 0.881895 0.374426
0.000000 0.857389 0.274144
0.298283 0.796475 0.196231
0.451728 0.592218 0.173281
0.541070 0.561944 0.193454
0.760403 0.715206 0.267308
0.000000 0.240116 0.525963
0.000000 0.209964 0.531762
0.241215 0.163363 0.540368
0.479408 0.069001 0.560754
0.619318 0.172915 0.528771
0.757443 0.272221 0.510246
0.871244 0.381506 0.533837
0.953307 0.525200 0.602960
0.000000 0.293126 0.529137
0.000000 0.270329 0.535912
0.234379 0.208835 0.544884
0.471962 0.151278 0.562463
0.615900 0.208682 0.530297
0.755886 0.296941 0.514733
0.869902 0.400336 0.539849
0.951202 0.540368 0.610773
0.137331 0.392950 0.526970
0.186252 0.386664 0.531548
0.258549 0.338445 0.546746
0.440650 0.281895 0.561852
0.603906 0.297795 0.535149
0.743526 0.362890 0.522911
0.861570 0.450965 0.553185
0.943359 0.579126 0.627344
0.000000 0.490974 0.568627
0.000000 0.487007 0.565057
0.285496 0.477668 0.555230
0.421851 0.437507 0.564782
0.602533 0.415717 0.564050
0.738857 0.469429 0.554528
0.854734 0.542138 0.590570
0.945403 0.630610 0.642939
0.000000 0.612390 0.615503
0.000000 0.610407 0.614679
0.029938 0.600916 0.609033
0.378912 0.584649 0.600519
0.576501 0.552575 0.582452
0.729610 0.588251 0.595789
0.851987 0.650050 0.635309
0.942382 0.705715 0.675654
0.000000 0.696895 0.603113
0.000000 0.698177 0.602777
0.000000 0.698970 0.598413
0.117525 0.705135 0.590234
0.455665 0.665553 0.526787
0.612940 0.577081 0.500969
0.846616 0.746975 0.679652
0.941375 0.796689 0.732021
0.000000 0.845701 0.634150
0.000000 0.845701 0.630396
0.000000 0.843137 0.612421
0.000000 0.818570 0.554833
0.333288 0.758877 0.454536
0.489815 0.538048 0.357763
0.628626 0.586175 0.385779
0.886656 0.776791 0.615717
0.000000 0.928435 0.598993
0.000000 0.926177 0.590570
0.000000 0.917906 0.559380
0.000000 0.906767 0.501244
0.075563 0.867460 0.387121
0.480781 0.752529 0.318456
0.528923 0.559594 0.252781
0.764645 0.721736 0.349462
0.000000 0.332067 0.701991
0.000000 0.309606 0.704402
0.179446 0.256046 0.712428
0.443610 0.223972 0.722011
0.654902 0.159762 0.726375
0.767361 0.276951 0.675227
0.868193 0.423621 0.652033
0.949523 0.561883 0.693263
0.000000 0.368627 0.694759
0.000000 0.349706 0.697505
0.168765 0.282994 0.705318
0.431647 0.253574 0.713436
0.646052 0.195590 0.720455
0.761257 0.296574 0.672602
0.864561 0.435492 0.652277
0.947356 0.568048 0.694026
0.190768 0.474311 0.702083
0.226017 0.465675 0.703059
0.266545 0.412634 0.708736
0.414984 0.352087 0.717433
0.632624 0.306828 0.724269
0.756893 0.373175 0.681666
0.860410 0.489754 0.665614
0.944305 0.601160 0.706142
0.192721 0.569635 0.704005
0.245731 0.567376 0.700130
0.349432 0.554528 0.704463
0.446418 0.509545 0.722652
0.609461 0.463203 0.734188
0.757107 0.489296 0.705653
0.858274 0.575219 0.694667
0.942321 0.655116 0.728359
0.000000 0.651392 0.736477
0.000000 0.649470 0.735012
0.243412 0.643061 0.729335
0.455787 0.636774 0.718563
0.587274 0.602075 0.720974
0.742733 0.584497 0.719326
0.844907 0.642878 0.709041
0.933928 0.702968 0.740963
0.000000 0.750881 0.756741
0.000000 0.751583 0.758206
0.000000 0.746944 0.756161
0.322362 0.737881 0.751583
0.544671 0.723629 0.742580
0.719265 0.703609 0.731014
0.840238 0.740658 0.748013
0.935576 0.788754 0.779141
0.000000 0.851957 0.763516
0.000000 0.852232 0.763333
0.000000 0.847257 0.756558
0.000000 0.846036 0.749752
0.372625 0.845701 0.737606
0.619928 0.800046 0.680507
0.729305 0.700771 0.623285
0.925200 0.851164 0.798611
0.000000 0.950622 0.748898
0.000000 0.950530 0.746548
0.000000 0.951141 0.738430
0.000000 0.955200 0.723415
0.000000 0.934295 0.663508
0.451575 0.878477 0.563043
0.587274 0.665553 0.404852
0.786923 0.750607 0.499062
0.000000 0.415778 0.819791
0.000000 0.402289 0.822599
0.162325 0.346166 0.826474
0.408667 0.331334 0.830137
0.603479 0.298589 0.833249
0.776608 0.293858 0.830594
0.864988 0.416144 0.778622
0.941161 0.577600 0.771420
0.113649 0.441871 0.813718
0.136507 0.429236 0.816312
0.185031 0.372137 0.820676
0.400641 0.347814 0.823697
0.594202 0.316320 0.826841
0.768338 0.304814 0.824399
0.857755 0.417670 0.772885
0.935882 0.572869 0.765255
0.286168 0.535851 0.814908
0.293584 0.525292 0.815824
0.311437 0.481697 0.818784
0.400916 0.423133 0.823728
0.584039 0.397406 0.825956
0.762325 0.378943 0.826230
0.856535 0.475990 0.781949
0.936339 0.614130 0.778744
0.317967 0.623865 0.813413
0.339757 0.619440 0.813046
0.411475 0.607141 0.814786
0.469978 0.562524 0.821683
0.578149 0.514305 0.826932
0.754879 0.485847 0.832456
0.854398 0.560693 0.796628
0.934722 0.665675 0.793912
0.222171 0.687892 0.819944
0.266819 0.686732 0.817685
0.386816 0.686397 0.811826
0.514794 0.682704 0.809445
0.596918 0.641932 0.818570
0.721523 0.603021 0.825772
0.842344 0.633570 0.803586
0.929900 0.715358 0.806668
0.000000 0.762966 0.843931
0.000000 0.761990 0.843107
0.189883 0.758938 0.840146
0.425483 0.756283 0.835019
0.609186 0.755612 0.825101
0.723354 0.735592 0.827512
0.841733 0.727504 0.826963
0.928008 0.775387 0.825925
0.000000 0.854520 0.858976
0.000000 0.854551 0.859464
0.000000 0.852354 0.858762
0.264530 0.848661 0.857542
0.511620 0.841306 0.853361
0.696193 0.832303 0.847288
0.825711 0.816770 0.837217
0.926421 0.849088 0.852781
0.000000 0.953277 0.867918
0.000000 0.952605 0.866911
0.000000 0.953216 0.866331
0.000000 0.948394 0.859434
0.311864 0.941100 0.849821
0.572564 0.936736 0.843961
0.743954 0.893675 0.789944
0.832517 0.811826 0.731594
0.289158 0.516136 0.907164
0.297734 0.507591 0.908476
0.316045 0.469215 0.910063
0.436896 0.450629 0.912596
0.586786 0.438422 0.914824
0.742733 0.415717 0.917693
0.880949 0.466316 0.913787
0.944366 0.585992 0.869047
0.315221 0.535515 0.903960
0.322698 0.527733 0.905303
0.339086 0.491829 0.907378
0.436622 0.463691 0.909911
0.583917 0.451453 0.912291
0.738399 0.428931 0.915251
0.877226 0.472267 0.911437
0.942107 0.589227 0.867857
0.399359 0.603906 0.899535
0.403418 0.596796 0.900450
0.411261 0.565393 0.901701
0.452796 0.519554 0.908263
0.585809 0.506676 0.910216
0.731014 0.484382 0.912627
0.871763 0.511955 0.910643
0.939849 0.616571 0.871427
0.425483 0.672053 0.896086
0.446265 0.672175 0.897002
0.505669 0.669429 0.897734
0.529839 0.630976 0.902800
0.593591 0.588983 0.908049
0.724697 0.571801 0.911589
0.865721 0.577722 0.912779
0.938476 0.663325 0.879850
0.436255 0.743923 0.890776
0.457527 0.745113 0.891051
0.501091 0.738521 0.892332
0.568566 0.726650 0.896086
0.630518 0.694789 0.901671
0.712581 0.658717 0.907805
0.854551 0.646601 0.914549
0.935912 0.717342 0.889830
0.255009 0.785428 0.908751
0.292210 0.785061 0.907469
0.395789 0.785153 0.903716
0.529717 0.788815 0.898192
0.654841 0.792447 0.893797
0.730587 0.766262 0.905913
0.838529 0.747219 0.918761
0.933410 0.777523 0.902251
0.000000 0.855497 0.930480
0.000000 0.854673 0.929747
0.000000 0.852415 0.927489
0.358618 0.851347 0.924529
0.571618 0.852903 0.919860
0.732967 0.857267 0.913725
0.829007 0.842405 0.917967
0.927306 0.839200 0.913817
0.000000 0.941161 0.941497
0.000000 0.940703 0.941314
0.000000 0.940124 0.941558
0.080201 0.938964 0.941924
0.460151 0.935821 0.940795
0.664576 0.931792 0.938872
0.810971 0.927153 0.936431
0.921141 0.917235 0.930144
