data/fiter_cube/48671653/1023258/file.cube
# Created by Adobe Lightroom plugin Export LUT (1.17.0)
# www.johnrellis.com/lightroom/exportlut.htm
# Preset: 青橙风光风景_07 云集
# Color profile: C:\Program Files (x86)\Common Files\Adobe\Color\Profiles\Recommended\AdobeRGB1998.icc
LUT_3D_SIZE 5
DOMAIN_MIN 0.000000 0.000000 0.000000
DOMAIN_MAX 0.903226 0.903226 0.903226
0.083833 0.104005 0.109895
0.199466 0.114168 0.119234
0.557885 0.000000 0.111299
0.866514 0.000000 0.095033
1.000000 0.344274 0.185977
0.092287 0.194247 0.130373
0.204379 0.162905 0.119509
0.556970 0.213748 0.095308
0.866026 0.249912 0.068238
1.000000 0.432044 0.181582
0.072114 0.452064 0.165988
0.302129 0.427588 0.190921
0.581018 0.327947 0.101564
0.870939 0.501091 0.000000
1.000000 0.637659 0.173007
0.189090 0.739040 0.259709
0.406989 0.720943 0.311437
0.635584 0.612421 0.210239
0.890806 0.583429 0.000000
1.000000 0.732296 0.105287
0.496498 0.969635 0.492805
0.614099 0.958587 0.531151
0.811704 0.924865 0.539910
0.957641 0.882719 0.374670
1.000000 0.813291 0.140597
0.088258 0.144778 0.189975
0.146792 0.137148 0.168368
0.557733 0.000000 0.156802
0.864988 0.142916 0.086030
1.000000 0.360327 0.186770
0.086427 0.221042 0.224308
0.192752 0.221134 0.227695
0.558892 0.228367 0.180240
0.864988 0.289067 0.053223
1.000000 0.441993 0.182712
0.000000 0.479255 0.308537
0.229099 0.478340 0.271702
0.580102 0.381415 0.233097
0.868711 0.524071 0.109377
1.000000 0.640131 0.175845
0.188540 0.757626 0.381964
0.332372 0.748196 0.358892
0.634607 0.650813 0.316106
0.886137 0.616449 0.247929
1.000000 0.734798 0.113710
0.472358 0.974670 0.553399
0.557702 0.968048 0.549615
0.799649 0.933379 0.605402
0.949584 0.885222 0.425208
1.000000 0.826658 0.308659
0.000000 0.260136 0.422248
0.156497 0.200626 0.378790
0.303929 0.190402 0.290257
0.787778 0.037293 0.351781
1.000000 0.366308 0.288151
0.163882 0.419440 0.487739
0.238468 0.342809 0.458625
0.359014 0.257969 0.343023
0.833341 0.260502 0.394781
1.000000 0.438605 0.294438
0.131807 0.568841 0.551751
0.304112 0.564385 0.551293
0.551171 0.538323 0.540703
0.852995 0.581872 0.496132
1.000000 0.637507 0.350164
0.277134 0.809934 0.691096
0.396490 0.804898 0.672633
0.587366 0.775814 0.578363
0.862181 0.712184 0.554040
1.000000 0.806058 0.485145
0.514672 0.980896 0.766934
0.566613 0.977569 0.752865
0.700008 0.964599 0.690517
0.918090 0.907286 0.587427
1.000000 0.864805 0.582483
0.218509 0.464942 0.695552
0.225101 0.386542 0.669551
0.413458 0.250065 0.547265
0.507897 0.249332 0.439979
0.935607 0.418189 0.626886
0.387976 0.597681 0.734493
0.374945 0.525536 0.710414
0.449378 0.338170 0.595087
0.537682 0.303166 0.471870
0.950713 0.463447 0.643366
0.466133 0.781186 0.795956
0.534936 0.780331 0.796597
0.608911 0.662531 0.750271
0.634058 0.492439 0.583948
0.993317 0.624384 0.695918
0.474128 0.871885 0.832151
0.539513 0.868925 0.832609
0.685206 0.859251 0.832334
0.824155 0.831174 0.815976
0.996612 0.851774 0.779049
0.600671 0.982757 0.907317
0.649439 0.981140 0.909819
0.765286 0.976806 0.912596
0.850584 0.962860 0.845884
0.996094 0.920378 0.830045
0.599298 0.765194 0.927367
0.592950 0.724208 0.923613
0.642634 0.596887 0.899657
0.754147 0.390845 0.797482
0.828153 0.477058 0.736599
0.660639 0.822873 0.932464
0.651637 0.790311 0.928923
0.654353 0.654047 0.909453
0.761929 0.448188 0.815824
0.833188 0.502342 0.745571
0.738705 0.920073 0.946990
0.754360 0.909911 0.945434
0.763210 0.848569 0.934447
0.783810 0.634119 0.872862
0.849851 0.586389 0.776120
0.759670 0.961517 0.958282
0.782620 0.960296 0.958465
0.843748 0.957275 0.959045
0.872404 0.911803 0.945281
0.881621 0.749355 0.836851
0.762478 0.992462 0.969055
0.783291 0.990875 0.969268
0.842802 0.986511 0.970184
0.914275 0.981933 0.972076
0.970367 0.974273 0.969055
