data/fiter_cube/48671653/1023258/file.cube
# Created by Adobe Lightroom plugin Export LUT (1.17.0)
# www.johnrellis.com/lightroom/exportlut.htm
# Preset: 青橙风光风景_07 云集
# Color profile: C:\Program Files (x86)\Common Files\Adobe\Color\Profiles\Recommended\AdobeRGB1998.icc
LUT_3D_SIZE 8
DOMAIN_MIN 0.000000 0.000000 0.000000
DOMAIN_MAX 0.903226 0.903226 0.903226
0.083833 0.104005 0.109895
0.124453 0.109285 0.114015
0.235599 0.112673 0.119936
0.441199 0.028138 0.116976
0.659632 0.000000 0.105104
0.828855 0.000000 0.095399
0.964111 0.170840 0.110048
1.000000 0.344274 0.185977
0.090028 0.137972 0.120363
0.126314 0.124727 0.112856
0.232853 0.146304 0.118654
0.440558 0.122988 0.114015
0.659510 0.007477 0.100435
0.828763 0.076967 0.088991
0.963714 0.225406 0.104677
1.000000 0.372503 0.184634
0.092073 0.220859 0.134310
0.152224 0.218448 0.142184
0.243442 0.179965 0.120699
0.444556 0.230716 0.100221
0.658686 0.254520 0.075929
0.828214 0.278538 0.053681
0.962188 0.353582 0.081666
1.000000 0.457343 0.180240
0.081636 0.365118 0.153567
0.167880 0.363592 0.171023
0.308843 0.323064 0.151949
0.464820 0.269505 0.113558
0.680842 0.319097 0.000000
0.826658 0.450782 0.000000
0.959106 0.504448 0.000000
1.000000 0.574823 0.174350
0.076631 0.537743 0.183169
0.186923 0.533715 0.201205
0.368231 0.502403 0.213687
0.501915 0.435920 0.154086
0.679103 0.392126 0.088319
0.860349 0.441596 0.000000
0.961395 0.616480 0.000000
1.000000 0.699489 0.175174
0.157961 0.698543 0.239689
0.247196 0.693751 0.256626
0.440284 0.672602 0.307836
0.563561 0.606928 0.232609
0.690547 0.571038 0.165011
0.852934 0.542321 0.023285
0.988006 0.585901 0.000000
1.000000 0.739498 0.135958
0.303960 0.855802 0.338293
0.366339 0.851347 0.353155
0.521874 0.834348 0.398749
0.654383 0.795224 0.379370
0.750790 0.727962 0.259159
0.872496 0.734829 0.209873
0.982635 0.701839 0.000000
1.000000 0.704097 0.000000
0.496498 0.969635 0.492805
0.535821 0.966339 0.504845
0.645563 0.954986 0.542779
0.770321 0.936187 0.581598
0.855741 0.911467 0.490578
0.938781 0.879026 0.371160
1.000000 0.877012 0.354314
1.000000 0.813291 0.140597
0.089967 0.122469 0.141207
0.108736 0.119020 0.134493
0.234104 0.121523 0.131746
0.435645 0.107393 0.115114
0.656703 0.000000 0.101930
0.827481 0.000000 0.091371
0.963653 0.199496 0.107301
1.000000 0.352209 0.185885
0.088869 0.143923 0.149416
0.118837 0.145083 0.151522
0.232090 0.154116 0.140078
0.436011 0.150423 0.114107
0.656825 0.112367 0.097383
0.827481 0.135714 0.084810
0.963317 0.245701 0.102235
1.000000 0.379187 0.184634
0.086213 0.225681 0.174868
0.126619 0.231418 0.167086
0.243259 0.197971 0.155093
0.442725 0.243107 0.124636
0.656916 0.267582 0.072724
0.827329 0.292912 0.043122
0.961913 0.363653 0.078737
1.000000 0.461555 0.180362
0.070771 0.373938 0.196811
0.131136 0.375616 0.188144
0.307042 0.343297 0.187076
0.466163 0.286473 0.151919
0.679164 0.332158 0.076753
0.826322 0.455512 0.000000
0.959075 0.508721 0.000000
1.000000 0.576867 0.174868
0.049439 0.546502 0.224552
0.145571 0.544457 0.218326
0.364843 0.519341 0.252506
0.501640 0.444800 0.184421
0.679042 0.406439 0.141817
0.859190 0.452766 0.000000
0.961883 0.616632 0.000000
1.000000 0.700191 0.176150
0.135622 0.705623 0.270634
0.213291 0.702144 0.272953
0.423102 0.681849 0.323156
0.563073 0.619348 0.266758
0.688624 0.577050 0.198245
0.852079 0.552941 0.132540
0.988006 0.588647 0.000000
1.000000 0.740139 0.137667
0.278080 0.860838 0.355444
0.340581 0.856901 0.365881
0.506584 0.840177 0.410437
0.652461 0.802731 0.408820
0.749386 0.735470 0.288457
0.870054 0.738277 0.242649
0.981109 0.708705 0.143008
1.000000 0.704829 0.000000
0.474434 0.972412 0.498756
0.516197 0.969116 0.510704
0.632074 0.957702 0.548699
0.767178 0.938598 0.601251
0.852079 0.913970 0.510155
0.936126 0.879484 0.385748
1.000000 0.878904 0.377996
1.000000 0.817288 0.204227
0.085115 0.155215 0.213321
0.107790 0.138888 0.203494
0.164248 0.144411 0.183108
0.388647 0.094026 0.194339
0.659327 0.000000 0.168978
0.827176 0.126467 0.115541
0.963958 0.239231 0.103487
1.000000 0.361639 0.187381
0.101320 0.202182 0.232822
0.125551 0.182864 0.228367
0.179416 0.167941 0.201175
0.424262 0.123964 0.204654
0.659113 0.117067 0.178927
0.827268 0.183993 0.120150
0.963684 0.276707 0.097963
1.000000 0.387243 0.186282
0.081270 0.258579 0.260441
0.127687 0.258976 0.261448
0.230900 0.256901 0.263432
0.447211 0.264744 0.240269
0.659327 0.274296 0.201724
0.827512 0.310857 0.136049
0.962493 0.381292 0.074159
1.000000 0.466529 0.182376
0.000000 0.398474 0.337743
0.107759 0.401312 0.328374
0.253849 0.403906 0.288090
0.464271 0.344915 0.268467
0.667567 0.404639 0.236332
0.826749 0.465248 0.173220
0.959991 0.517418 0.000000
1.000000 0.578973 0.177737
0.000000 0.570581 0.366674
0.133425 0.570062 0.356909
0.289006 0.563134 0.321508
0.503746 0.493172 0.289220
0.675410 0.456336 0.275273
0.850309 0.513298 0.228153
0.960388 0.632990 0.109895
1.000000 0.700587 0.179660
0.160525 0.724910 0.406165
0.216220 0.723018 0.397681
0.348882 0.713008 0.371221
0.560082 0.663478 0.382391
0.679957 0.596216 0.292363
0.846799 0.590387 0.287144
0.980957 0.635065 0.210330
1.000000 0.742855 0.144991
0.304326 0.871458 0.475593
0.336217 0.869566 0.466987
0.440833 0.860380 0.446845
0.644556 0.829129 0.501579
0.743435 0.762539 0.384680
0.860594 0.749355 0.334600
0.974670 0.732631 0.307836
1.000000 0.721096 0.150759
0.474769 0.975433 0.579644
0.492592 0.974304 0.571954
0.575769 0.967529 0.566949
0.735012 0.947967 0.621149
0.838895 0.923095 0.576715
0.929229 0.890318 0.450019
0.997131 0.885161 0.447517
1.000000 0.830991 0.348089
0.030610 0.217044 0.342382
0.076600 0.191440 0.330449
0.191745 0.163973 0.286625
0.252415 0.175296 0.252476
0.491920 0.149447 0.290745
0.815305 0.000000 0.288823
0.964782 0.241276 0.247135
1.000000 0.354314 0.192294
0.115145 0.277256 0.371069
0.126497 0.247807 0.358160
0.203037 0.193851 0.311223
0.268742 0.195773 0.268742
0.519066 0.170901 0.304845
0.828000 0.162295 0.310521
0.964019 0.282689 0.255039
1.000000 0.377813 0.191440
0.114015 0.381201 0.414435
0.170840 0.382238 0.415290
0.259892 0.324102 0.394476
0.328496 0.274296 0.328374
0.608881 0.261051 0.352056
0.825467 0.324224 0.342565
0.961517 0.391974 0.279637
1.000000 0.456031 0.188357
0.026459 0.462226 0.453223
0.141726 0.461707 0.453407
0.291264 0.457130 0.452796
0.446601 0.441932 0.447791
0.653498 0.458442 0.424384
0.822019 0.485878 0.387518
0.956909 0.530388 0.319829
1.000000 0.570794 0.184512
0.010498 0.593500 0.520897
0.157900 0.597375 0.525444
0.325414 0.605768 0.532372
0.472145 0.588739 0.471168
0.661280 0.537438 0.456550
0.827878 0.607050 0.440314
0.949340 0.676875 0.384558
1.000000 0.699184 0.257572
0.202640 0.756832 0.589044
0.257450 0.755276 0.582727
0.380163 0.748470 0.557580
0.506218 0.730159 0.503075
0.668513 0.641688 0.435065
0.833524 0.650904 0.467811
0.963561 0.708888 0.444099
1.000000 0.778653 0.354040
0.341772 0.888701 0.635554
0.371954 0.887144 0.629511
0.452766 0.881285 0.604334
0.559869 0.866819 0.553582
0.732052 0.812558 0.535698
0.840848 0.764584 0.447974
0.961547 0.770138 0.482490
1.000000 0.776150 0.423682
0.496315 0.978973 0.703792
0.513634 0.977935 0.698695
0.565332 0.974334 0.677485
0.657435 0.965484 0.647333
0.817380 0.939391 0.685359
0.908537 0.906249 0.558038
0.985382 0.894743 0.537560
1.000000 0.852323 0.506310
0.000000 0.309636 0.502098
0.054200 0.283940 0.491035
0.186923 0.228183 0.447456
0.301488 0.177279 0.362737
0.357916 0.205264 0.329259
0.563745 0.223636 0.377722
0.895476 0.182467 0.427741
1.000000 0.406958 0.447669
0.137758 0.365637 0.523613
0.145937 0.338109 0.512627
0.198856 0.260655 0.469978
0.315953 0.201297 0.383154
0.372778 0.223331 0.343145
0.582391 0.242618 0.391516
0.904387 0.223270 0.436011
1.000000 0.428138 0.450538
0.234653 0.502190 0.573144
0.270024 0.487098 0.567987
0.306462 0.409430 0.538354
0.365576 0.297063 0.455085
0.425818 0.292363 0.394202
0.645624 0.316381 0.441688
0.931579 0.359197 0.474922
1.000000 0.492439 0.457160
0.244663 0.587671 0.607446
0.289708 0.587488 0.607691
0.404730 0.585351 0.607446
0.482948 0.511559 0.575402
0.518334 0.432258 0.489540
0.753841 0.459632 0.528161
0.946227 0.545068 0.537316
1.000000 0.578637 0.453834
0.237949 0.665583 0.640955
0.284886 0.664393 0.640894
0.402014 0.659205 0.640070
0.528740 0.648249 0.636286
0.639246 0.627863 0.625055
0.808621 0.651484 0.606287
0.940490 0.682765 0.569360
1.000000 0.703182 0.492195
0.281346 0.763912 0.687739
0.324468 0.765866 0.690852
0.434791 0.772183 0.701076
0.560998 0.782742 0.716335
0.650721 0.756039 0.639094
0.814755 0.719203 0.631556
0.939757 0.782528 0.625452
1.000000 0.819821 0.567193
0.408118 0.909545 0.794430
0.434089 0.908446 0.790860
0.507652 0.904173 0.776822
0.595697 0.895415 0.743465
0.678676 0.876066 0.669093
0.811765 0.789090 0.565606
0.943694 0.813138 0.641444
1.000000 0.833707 0.622248
0.539086 0.982849 0.824369
0.555016 0.981872 0.821592
0.603113 0.978668 0.810391
0.665614 0.973510 0.783505
0.743282 0.963806 0.735073
0.875944 0.931121 0.705592
0.967132 0.905669 0.628748
1.000000 0.878813 0.658442
0.172396 0.429206 0.656092
0.178805 0.405859 0.647944
0.199893 0.324132 0.616358
0.348852 0.264317 0.547753
0.424598 0.198703 0.456855
0.475471 0.238590 0.415198
0.643244 0.307652 0.469123
0.968963 0.396246 0.602350
0.244144 0.475441 0.670130
0.244358 0.452033 0.662104
0.241733 0.365698 0.631250
0.360784 0.291875 0.563226
0.435767 0.216892 0.468421
0.485878 0.254856 0.425666
0.655451 0.321630 0.479530
0.972747 0.412177 0.606775
0.371557 0.599664 0.709957
0.389197 0.586481 0.705318
0.384375 0.512139 0.678553
0.403998 0.391272 0.615869
0.472786 0.282750 0.507347
0.521752 0.314214 0.463050
0.699245 0.373114 0.517449
0.985626 0.467414 0.621698
0.423987 0.724453 0.753445
0.449317 0.724514 0.753750
0.507683 0.696956 0.744381
0.529107 0.594629 0.703792
0.543114 0.441566 0.598505
0.581720 0.425788 0.530571
0.776120 0.471046 0.585504
1.000000 0.564874 0.646937
0.426276 0.776913 0.774716
0.450904 0.776425 0.774929
0.523339 0.774319 0.775296
0.618555 0.769619 0.774502
0.662165 0.688960 0.736660
0.667781 0.581415 0.631250
0.879240 0.629236 0.681544
1.000000 0.727779 0.707912
0.429816 0.837613 0.799588
0.453620 0.836728 0.799710
0.524346 0.833494 0.799985
0.617182 0.827481 0.799496
0.708736 0.817502 0.796109
0.791714 0.795743 0.781918
0.919310 0.815946 0.767880
1.000000 0.824491 0.729702
0.458137 0.902678 0.831266
0.481788 0.903105 0.832883
0.553155 0.904509 0.838254
0.646693 0.907195 0.846738
0.743648 0.911101 0.857115
0.797513 0.889036 0.790249
0.921630 0.862730 0.788907
0.996765 0.891051 0.786343
0.593256 0.984070 0.901854
0.609155 0.983520 0.902647
0.658808 0.981781 0.905364
0.720333 0.978180 0.898405
0.777676 0.972625 0.874846
0.830045 0.962799 0.824735
0.937407 0.917998 0.719295
1.000000 0.911620 0.800046
0.369543 0.584985 0.810269
0.368627 0.566125 0.805722
0.362249 0.493935 0.787839
0.437751 0.410407 0.743923
0.525628 0.309880 0.658991
0.573388 0.239780 0.575708
0.617395 0.299870 0.530205
0.784848 0.463569 0.624109
0.408881 0.618677 0.817136
0.406653 0.600336 0.812772
0.397253 0.530266 0.795529
0.447547 0.436133 0.753323
0.532891 0.333928 0.669642
0.579248 0.256626 0.582666
0.622187 0.313207 0.536248
0.791379 0.471260 0.629999
0.513390 0.719142 0.839292
0.509667 0.703456 0.835447
0.496040 0.642847 0.820462
0.478828 0.520775 0.785428
0.557977 0.417182 0.706386
0.599176 0.314122 0.606836
0.639399 0.359045 0.558099
0.814755 0.498939 0.651362
0.567864 0.822782 0.865171
0.578302 0.815824 0.863432
0.608362 0.788327 0.856107
0.603143 0.703334 0.832303
0.600977 0.556420 0.769924
0.633051 0.409735 0.649866
0.670680 0.437415 0.598230
0.856168 0.552667 0.690028
0.594751 0.879026 0.882475
0.609522 0.878630 0.882628
0.655787 0.877287 0.883146
0.710719 0.864225 0.879820
0.706813 0.770413 0.847562
0.691249 0.578759 0.739254
0.718105 0.548180 0.659785
0.910826 0.647211 0.747494
0.600488 0.911254 0.894560
0.614496 0.910643 0.894713
0.658839 0.908537 0.895201
0.721614 0.905089 0.895750
0.789639 0.900664 0.895781
0.809171 0.842161 0.867796
0.793088 0.717403 0.760006
0.964294 0.797543 0.824155
0.607599 0.944457 0.907683
0.620844 0.943755 0.907866
0.662715 0.941283 0.908385
0.722927 0.937530 0.909148
0.790372 0.932769 0.909880
0.853849 0.926665 0.909087
0.902861 0.912047 0.898466
0.980438 0.919463 0.889403
0.630304 0.980346 0.926207
0.642176 0.979461 0.926207
0.680629 0.976776 0.926452
0.743984 0.975067 0.930205
0.814115 0.973724 0.935637
0.878355 0.973907 0.942687
0.907134 0.964599 0.904082
0.982422 0.945861 0.903593
0.599298 0.765194 0.927367
0.597498 0.753841 0.926329
0.590539 0.708766 0.922210
0.601831 0.627955 0.911345
0.682338 0.556085 0.882994
0.745388 0.434180 0.822385
0.781338 0.381781 0.766751
0.828153 0.477058 0.736599
0.618860 0.784024 0.928862
0.616815 0.773373 0.927825
0.608698 0.730892 0.923827
0.606836 0.645289 0.913939
0.684718 0.573388 0.886473
0.747494 0.451179 0.827390
0.783505 0.393439 0.770230
0.829648 0.484657 0.739284
0.678950 0.838804 0.934203
0.676265 0.830716 0.933227
0.666041 0.797513 0.929442
0.645747 0.718013 0.921324
0.693172 0.632319 0.898161
0.754391 0.509545 0.844511
0.791043 0.432471 0.782406
0.834806 0.510552 0.748562
0.721035 0.894255 0.942382
0.727962 0.891081 0.941863
0.748898 0.878965 0.939574
0.730434 0.830838 0.932403
0.711116 0.727474 0.916838
0.765438 0.610834 0.872709
0.803189 0.495521 0.803250
0.843839 0.555779 0.764920
0.756680 0.942138 0.951598
0.764248 0.941894 0.951629
0.779660 0.933532 0.950408
0.797818 0.914946 0.947021
0.794705 0.866178 0.936889
0.783291 0.747890 0.907744
0.818418 0.582910 0.832212
0.856992 0.623224 0.789609
0.759060 0.957397 0.956847
0.766323 0.957061 0.956878
0.789456 0.955932 0.957061
0.823911 0.954284 0.957366
0.861265 0.949981 0.956970
0.857206 0.902647 0.943297
0.842649 0.747311 0.885039
0.875700 0.719570 0.825406
0.761288 0.974395 0.962768
0.768063 0.973968 0.962829
0.790005 0.972564 0.963043
0.823758 0.970459 0.963409
0.864073 0.968170 0.964019
0.905089 0.966278 0.964813
0.916167 0.938781 0.952636
0.905791 0.849393 0.880949
0.762478 0.992462 0.969055
0.768887 0.991974 0.969116
0.789914 0.990387 0.969360
0.823270 0.987915 0.969818
0.863279 0.985077 0.970611
0.904356 0.982483 0.971710
0.942199 0.980346 0.972992
0.970367 0.974273 0.969055
