data/fiter_cube/48671653/1023258/file.cube
# Created by Adobe Lightroom plugin Export LUT (1.17.0)
# www.johnrellis.com/lightroom/exportlut.htm
# Preset: 青橙风光风景_07 云集
# Color profile: C:\Program Files (x86)\Common Files\Adobe\Color\Profiles\Recommended\AdobeRGB1998.icc
LUT_3D_SIZE 32
DOMAIN_MIN 0.0 0.0 0.0
DOMAIN_MAX 1.0 1.0 1.0
0.083833 0.104005 0.109895
0.088930 0.104829 0.110170
0.096101 0.105531 0.110811
0.108553 0.107210 0.112093
0.124453 0.109285 0.114015
0.144625 0.111543 0.115877
0.169558 0.113344 0.117830
0.199466 0.114168 0.119234
0.235599 0.112673 0.119936
0.277745 0.108248 0.120272
0.327337 0.098329 0.119936
0.382513 0.080323 0.118807
0.441199 0.028138 0.116976
0.500664 0.000000 0.114412
0.557885 0.000000 0.111299
0.610742 0.000000 0.108095
0.659632 0.000000 0.105104
0.705531 0.000000 0.102205
0.748592 0.000000 0.099123
0.789578 0.000000 0.096742
0.828855 0.000000 0.095399
0.866514 0.000000 0.095033
0.902007 0.000000 0.097200
0.934630 0.116030 0.101747
0.964111 0.170840 0.110048
0.990448 0.218387 0.122591
1.000000 0.262333 0.139193
1.000000 0.303990 0.160281
1.000000 0.344274 0.185977
1.000000 0.383948 0.217136
1.000000 0.423896 0.253880
1.000000 0.464729 0.297063
0.084535 0.108309 0.110811
0.089204 0.106783 0.110231
0.095460 0.109255 0.110750
0.108003 0.110842 0.112032
0.123964 0.112856 0.113954
0.144045 0.114839 0.116060
0.169070 0.116579 0.117800
0.199222 0.117556 0.119173
0.235264 0.116396 0.119875
0.277653 0.112306 0.120180
0.327153 0.103426 0.119631
0.382483 0.086854 0.118654
0.441230 0.053986 0.116548
0.500725 0.000000 0.113954
0.557946 0.000000 0.110994
0.610803 0.000000 0.107729
0.659541 0.000000 0.104707
0.705531 0.000000 0.101747
0.748592 0.000000 0.098604
0.789548 0.000000 0.096437
0.828855 0.000000 0.094789
0.866514 0.000000 0.094606
0.901976 0.036591 0.096498
0.934600 0.124971 0.101106
0.964050 0.177157 0.109590
0.990356 0.223575 0.122133
1.000000 0.266239 0.138827
1.000000 0.307561 0.159945
1.000000 0.347173 0.185946
1.000000 0.386511 0.217014
1.000000 0.426123 0.253880
1.000000 0.466712 0.297185
0.084718 0.114504 0.112032
0.093751 0.114473 0.112490
0.097169 0.110445 0.110597
0.107698 0.114565 0.111940
0.123323 0.117433 0.114015
0.143526 0.119326 0.115908
0.168460 0.121248 0.117830
0.198703 0.122194 0.119020
0.234836 0.121279 0.119692
0.277287 0.117830 0.119966
0.326909 0.110170 0.119356
0.382238 0.095918 0.118349
0.441047 0.070771 0.116396
0.500664 0.000000 0.113497
0.557824 0.000000 0.110475
0.610773 0.000000 0.107179
0.659602 0.000000 0.104036
0.705501 0.000000 0.101015
0.748623 0.000000 0.097810
0.789548 0.000000 0.095521
0.828855 0.000000 0.094087
0.866514 0.000000 0.093599
0.901946 0.074495 0.095674
0.934569 0.136507 0.100343
0.964050 0.185336 0.108797
0.990326 0.229648 0.121492
1.000000 0.271794 0.138521
1.000000 0.312016 0.159548
1.000000 0.351110 0.185641
1.000000 0.390051 0.216953
1.000000 0.429023 0.254002
1.000000 0.469337 0.297276
0.086885 0.125368 0.115633
0.095491 0.125307 0.118288
0.103914 0.124544 0.116152
0.110140 0.116640 0.111482
0.123842 0.121004 0.113283
0.142123 0.128359 0.116182
0.167300 0.130312 0.117891
0.197757 0.131563 0.118807
0.234012 0.131533 0.119448
0.276738 0.129335 0.119417
0.326482 0.123537 0.118929
0.381933 0.112490 0.117586
0.440833 0.095125 0.115480
0.500389 0.066285 0.112673
0.557763 0.000000 0.109316
0.610773 0.000000 0.106050
0.659571 0.000000 0.102754
0.705501 0.000000 0.099550
0.748592 0.000000 0.096162
0.789487 0.000000 0.093751
0.828855 0.000000 0.092134
0.866453 0.038117 0.091768
0.901915 0.111208 0.093782
0.934478 0.158633 0.098665
0.963928 0.202090 0.107424
0.990204 0.243137 0.120241
1.000000 0.282841 0.137453
1.000000 0.321630 0.159091
1.000000 0.359564 0.185336
1.000000 0.397406 0.216892
1.000000 0.435584 0.254063
1.000000 0.474922 0.297581
0.090028 0.137972 0.120363
0.097261 0.138216 0.123079
0.105226 0.137850 0.123140
0.117403 0.135103 0.120058
0.126314 0.124727 0.112856
0.145174 0.128054 0.114046
0.166262 0.140963 0.117281
0.196139 0.145541 0.118318
0.232853 0.146304 0.118654
0.275700 0.145754 0.118685
0.325628 0.142153 0.117830
0.381445 0.134890 0.116304
0.440558 0.122988 0.114015
0.500298 0.106355 0.110933
0.557610 0.085176 0.107485
0.610620 0.059449 0.103975
0.659510 0.007477 0.100435
0.705379 0.000000 0.096956
0.748562 0.000000 0.093599
0.789517 0.022065 0.090852
0.828763 0.076967 0.088991
0.866423 0.113741 0.088655
0.901823 0.150546 0.090517
0.934356 0.187869 0.095705
0.963714 0.225406 0.104677
0.989960 0.262669 0.118135
1.000000 0.299840 0.135775
1.000000 0.336187 0.157961
1.000000 0.372503 0.184634
1.000000 0.408698 0.216556
1.000000 0.445563 0.254154
1.000000 0.483711 0.297978
0.091615 0.153170 0.123781
0.098207 0.153628 0.125856
0.107454 0.153841 0.128725
0.121157 0.151858 0.125887
0.134768 0.146853 0.121889
0.146731 0.135134 0.114961
0.172427 0.136202 0.114260
0.198611 0.150912 0.116793
0.230869 0.164828 0.117647
0.274235 0.165774 0.117311
0.324620 0.164706 0.116396
0.380774 0.160555 0.114382
0.440009 0.153414 0.111940
0.500023 0.143374 0.108522
0.557519 0.131685 0.104738
0.610498 0.120974 0.100862
0.659449 0.113130 0.096895
0.705287 0.109194 0.093324
0.748409 0.111971 0.089509
0.789425 0.122164 0.086641
0.828702 0.139406 0.084382
0.866331 0.162264 0.084047
0.901671 0.189761 0.086091
0.934142 0.220676 0.091554
0.963470 0.253422 0.101045
0.989624 0.286870 0.115358
1.000000 0.321111 0.133700
1.000000 0.354986 0.156527
1.000000 0.389044 0.183841
1.000000 0.423529 0.216403
1.000000 0.458717 0.254368
1.000000 0.495277 0.298589
0.092256 0.172030 0.126864
0.098848 0.172274 0.128695
0.107790 0.172488 0.131350
0.123873 0.171389 0.131807
0.143587 0.167636 0.127962
0.157107 0.160800 0.123476
0.172457 0.147860 0.117525
0.206241 0.145205 0.113954
0.237980 0.161898 0.115358
0.276005 0.179538 0.115358
0.323278 0.190097 0.114260
0.379706 0.188846 0.111849
0.439307 0.185336 0.108980
0.499611 0.179873 0.105043
0.557366 0.173465 0.100679
0.610346 0.168093 0.096529
0.659266 0.164553 0.092073
0.705196 0.163912 0.087922
0.748348 0.167330 0.083803
0.789303 0.175387 0.080446
0.828611 0.188510 0.078187
0.866209 0.206699 0.077424
0.901488 0.229618 0.079622
0.933898 0.255741 0.085969
0.963165 0.284520 0.096437
0.989227 0.314641 0.111543
1.000000 0.345800 0.130861
1.000000 0.377386 0.154574
1.000000 0.408972 0.182895
1.000000 0.441444 0.215946
1.000000 0.474617 0.254643
1.000000 0.509422 0.299504
0.092287 0.194247 0.130373
0.098909 0.194583 0.131991
0.108125 0.194888 0.134340
0.126986 0.194888 0.138308
0.147402 0.190677 0.134432
0.169619 0.184329 0.129793
0.184634 0.177340 0.125154
0.204379 0.162905 0.119509
0.247410 0.154971 0.112673
0.285649 0.173342 0.112795
0.330327 0.192782 0.111299
0.380133 0.214115 0.108614
0.438666 0.218570 0.104829
0.499123 0.216403 0.100435
0.556970 0.213748 0.095308
0.610071 0.211368 0.090425
0.659022 0.210330 0.085512
0.705013 0.211460 0.080537
0.748135 0.215488 0.075837
0.789181 0.222843 0.071870
0.828458 0.234348 0.068818
0.866026 0.249912 0.068238
0.901274 0.269505 0.070771
0.933562 0.292546 0.077943
0.962707 0.318151 0.090150
0.988739 0.345403 0.106630
1.000000 0.373663 0.127382
1.000000 0.402594 0.152346
1.000000 0.432044 0.181582
1.000000 0.462104 0.215671
1.000000 0.493263 0.255039
1.000000 0.525933 0.300420
0.092073 0.220859 0.134310
0.099336 0.221103 0.135836
0.108522 0.221347 0.138125
0.128511 0.221622 0.143160
0.152224 0.218448 0.142184
0.176883 0.212222 0.137209
0.198947 0.204654 0.131960
0.218479 0.196567 0.126802
0.243442 0.179965 0.120699
0.297124 0.166812 0.112734
0.342382 0.184939 0.108034
0.392004 0.206668 0.105196
0.444556 0.230716 0.100221
0.498665 0.254154 0.093874
0.556420 0.254032 0.088014
0.609674 0.253971 0.081971
0.658686 0.254520 0.075929
0.704799 0.256779 0.069886
0.747890 0.261112 0.064179
0.788968 0.268040 0.058808
0.828214 0.278538 0.053681
0.865812 0.292302 0.052338
0.900969 0.309972 0.058198
0.933135 0.330694 0.067048
0.962188 0.353582 0.081666
0.988098 0.378058 0.100526
1.000000 0.403845 0.123018
1.000000 0.430304 0.149660
1.000000 0.457343 0.180240
1.000000 0.485237 0.215335
1.000000 0.514061 0.255619
1.000000 0.544671 0.301762
0.091279 0.251469 0.138521
0.098909 0.251591 0.140200
0.109010 0.251652 0.142397
0.129946 0.251896 0.147372
0.157809 0.250248 0.151308
0.183597 0.243687 0.145571
0.212039 0.234989 0.139284
0.234012 0.227359 0.133883
0.259037 0.218173 0.127932
0.289952 0.199222 0.120851
0.355718 0.178500 0.111116
0.405615 0.196963 0.101167
0.457649 0.221988 0.096040
0.509667 0.249485 0.088594
0.559625 0.279393 0.079133
0.609277 0.296269 0.070008
0.658320 0.297917 0.062226
0.704463 0.300877 0.051331
0.747555 0.305516 0.035676
0.788602 0.312261 0.023102
0.827970 0.321965 0.013489
0.865476 0.334783 0.013275
0.900572 0.350683 0.021057
0.932647 0.369482 0.046448
0.961578 0.390234 0.070375
0.987366 0.412512 0.092927
1.000000 0.435828 0.118044
1.000000 0.459937 0.146639
1.000000 0.484749 0.178866
1.000000 0.510246 0.215061
1.000000 0.536950 0.256291
1.000000 0.565240 0.303319
0.089052 0.285893 0.143099
0.097780 0.285924 0.144839
0.108705 0.286107 0.147097
0.131014 0.286076 0.152224
0.162966 0.285588 0.160067
0.191257 0.279118 0.155917
0.220890 0.269963 0.148684
0.251652 0.258671 0.140871
0.275364 0.252415 0.135134
0.306493 0.241825 0.128237
0.343999 0.220371 0.119997
0.420661 0.190829 0.107362
0.472297 0.212222 0.094331
0.523339 0.239414 0.082826
0.571801 0.270542 0.072175
0.616693 0.303197 0.058564
0.658656 0.336980 0.026215
0.703853 0.344793 0.004669
0.747097 0.349401 0.000000
0.788235 0.355993 0.000000
0.827604 0.365179 0.000000
0.865080 0.377020 0.000000
0.900114 0.391791 0.000000
0.932067 0.408881 0.002533
0.960845 0.427832 0.051514
0.986511 0.448066 0.083192
1.000000 0.469245 0.112306
1.000000 0.491157 0.143160
1.000000 0.513664 0.177188
1.000000 0.536950 0.215061
1.000000 0.561364 0.257328
1.000000 0.587396 0.305211
0.086152 0.324041 0.148135
0.095735 0.324193 0.149935
0.108095 0.324102 0.152255
0.131655 0.323888 0.157321
0.165225 0.323247 0.165286
0.199832 0.318608 0.167483
0.230594 0.308904 0.159609
0.262974 0.296757 0.150881
0.291936 0.283543 0.142794
0.322972 0.279393 0.135744
0.360204 0.267460 0.127352
0.403326 0.243687 0.117525
0.484169 0.209476 0.101778
0.537957 0.230137 0.084047
0.584955 0.259556 0.063783
0.628351 0.293828 0.037995
0.669215 0.328801 0.000000
0.708217 0.364813 0.000000
0.746548 0.392981 0.000000
0.787808 0.399512 0.000000
0.827207 0.408057 0.000000
0.864622 0.419318 0.000000
0.899504 0.432959 0.000000
0.931365 0.448676 0.000000
0.960052 0.466041 0.007599
0.985534 0.484474 0.070924
1.000000 0.503685 0.105409
1.000000 0.523522 0.139620
1.000000 0.543908 0.175631
1.000000 0.564996 0.215091
1.000000 0.587091 0.258671
1.000000 0.610712 0.307591
0.081636 0.365118 0.153567
0.092470 0.365148 0.155306
0.106722 0.364965 0.157687
0.132540 0.364569 0.162814
0.167880 0.363592 0.171023
0.209689 0.361273 0.180545
0.241428 0.350896 0.172030
0.274784 0.338293 0.162387
0.308843 0.323064 0.151949
0.338689 0.312474 0.143740
0.375250 0.308141 0.135531
0.417639 0.295201 0.125368
0.464820 0.269505 0.113558
0.544213 0.233799 0.094514
0.598688 0.251164 0.070222
0.641199 0.282200 0.012299
0.680842 0.319097 0.000000
0.718776 0.356603 0.000000
0.754543 0.394110 0.000000
0.789242 0.432349 0.000000
0.826658 0.450782 0.000000
0.864073 0.461341 0.000000
0.898833 0.474098 0.000000
0.930602 0.488533 0.000000
0.959106 0.504448 0.000000
0.984466 0.521233 0.050660
1.000000 0.538659 0.097749
1.000000 0.556573 0.135866
1.000000 0.574823 0.174350
1.000000 0.593744 0.215610
1.000000 0.613611 0.260624
1.000000 0.634913 0.310552
0.075959 0.408270 0.159396
0.089876 0.408026 0.161227
0.105013 0.407813 0.163790
0.133425 0.407233 0.168978
0.170474 0.405890 0.177035
0.214878 0.403510 0.187747
0.253605 0.395270 0.186404
0.287968 0.382269 0.175784
0.323003 0.366705 0.164218
0.357031 0.348638 0.152010
0.389410 0.342870 0.144198
0.430426 0.338231 0.134371
0.476081 0.324590 0.122530
0.525078 0.297734 0.108156
0.598566 0.261479 0.085725
0.654231 0.275120 0.044709
0.693446 0.307622 0.000000
0.730159 0.346654 0.000000
0.764889 0.385718 0.000000
0.798611 0.425360 0.000000
0.831357 0.465675 0.000000
0.863462 0.503075 0.000000
0.898131 0.514977 0.000000
0.929717 0.528496 0.000000
0.958099 0.542962 0.000000
0.983307 0.558221 0.007660
1.000000 0.573846 0.089204
1.000000 0.589837 0.132052
1.000000 0.606226 0.173342
1.000000 0.623072 0.216495
1.000000 0.640742 0.262821
1.000000 0.659693 0.313909
0.072114 0.452064 0.165988
0.087495 0.451820 0.167880
0.104341 0.451453 0.170321
0.135225 0.450721 0.175662
0.174533 0.449104 0.183993
0.220279 0.446479 0.194644
0.267338 0.440742 0.202335
0.302129 0.427588 0.190921
0.337530 0.411963 0.178470
0.372534 0.393683 0.165042
0.402228 0.372625 0.152651
0.441993 0.374121 0.143923
0.485969 0.369238 0.132753
0.532830 0.355261 0.118593
0.581018 0.327947 0.101564
0.648646 0.291905 0.074617
0.706142 0.301854 0.000000
0.742184 0.336248 0.000000
0.775845 0.375891 0.000000
0.808621 0.417182 0.000000
0.840391 0.458869 0.000000
0.870939 0.501091 0.000000
0.899565 0.543297 0.000000
0.928801 0.567987 0.000000
0.956970 0.581170 0.000000
0.982025 0.595056 0.000000
1.000000 0.608972 0.079988
1.000000 0.623285 0.128847
1.000000 0.637659 0.173007
1.000000 0.652522 0.217990
1.000000 0.668025 0.265934
1.000000 0.684749 0.318059
0.071199 0.495613 0.173922
0.088228 0.495308 0.175692
0.106386 0.494850 0.178164
0.138857 0.493904 0.183627
0.179538 0.492103 0.191928
0.226719 0.489143 0.202548
0.278477 0.484688 0.215427
0.317021 0.473060 0.208347
0.352758 0.457557 0.194858
0.387823 0.439612 0.180270
0.421546 0.418982 0.164736
0.452247 0.404242 0.153414
0.494331 0.405890 0.143557
0.539300 0.400855 0.130953
0.585199 0.386450 0.115206
0.632013 0.359380 0.095094
0.694911 0.324590 0.060487
0.754086 0.330785 0.000000
0.787381 0.366735 0.000000
0.819303 0.407568 0.000000
0.850095 0.450935 0.000000
0.879637 0.494423 0.000000
0.907164 0.537682 0.000000
0.932494 0.580316 0.000000
0.955840 0.618982 0.000000
0.980713 0.631403 0.000000
1.000000 0.643793 0.069978
1.000000 0.656275 0.126345
1.000000 0.668879 0.173678
1.000000 0.681758 0.220432
1.000000 0.695155 0.269688
1.000000 0.709651 0.322881
0.076631 0.537743 0.183169
0.093599 0.537316 0.184970
0.112276 0.536858 0.187533
0.145449 0.535729 0.192813
0.186923 0.533715 0.201205
0.234348 0.530632 0.211826
0.286046 0.526024 0.224613
0.333104 0.517144 0.228000
0.368231 0.502403 0.213687
0.403204 0.485084 0.198093
0.437079 0.465156 0.181399
0.468696 0.442817 0.164126
0.501915 0.435920 0.154086
0.544610 0.437537 0.143435
0.588647 0.432197 0.129824
0.633417 0.418006 0.112154
0.679103 0.392126 0.088319
0.738308 0.359167 0.026917
0.798795 0.361730 0.000000
0.830259 0.399145 0.000000
0.860349 0.441596 0.000000
0.888670 0.486641 0.000000
0.915129 0.531090 0.000000
0.939422 0.574487 0.000000
0.961395 0.616480 0.000000
0.981109 0.656336 0.000000
1.000000 0.677821 0.060426
1.000000 0.688655 0.125032
1.000000 0.699489 0.175174
1.000000 0.710414 0.223758
1.000000 0.721859 0.274357
1.000000 0.734188 0.328527
0.089113 0.577844 0.194278
0.105135 0.577386 0.196109
0.122927 0.576928 0.198581
0.155795 0.575677 0.203952
0.197177 0.573571 0.212039
0.243900 0.570336 0.222477
0.295201 0.565698 0.235203
0.349859 0.559258 0.249607
0.384161 0.545434 0.235203
0.418585 0.529046 0.218692
0.452247 0.510277 0.200839
0.484260 0.489174 0.182071
0.510277 0.462959 0.163943
0.549950 0.467750 0.155520
0.592248 0.469276 0.144289
0.635523 0.464149 0.129427
0.680018 0.451118 0.109010
0.725429 0.427161 0.079500
0.779782 0.395209 0.000000
0.841154 0.394965 0.000000
0.870695 0.433661 0.000000
0.898253 0.477394 0.000000
0.923491 0.523247 0.000000
0.946715 0.567773 0.000000
0.967681 0.610468 0.000000
0.986542 0.650904 0.000000
1.000000 0.688869 0.000000
1.000000 0.719966 0.125307
1.000000 0.729091 0.178103
1.000000 0.738247 0.228397
1.000000 0.747707 0.280034
1.000000 0.757992 0.335027
0.108400 0.617334 0.207218
0.121706 0.616938 0.208988
0.139132 0.616297 0.211521
0.169711 0.615076 0.216892
0.210056 0.612818 0.224826
0.256046 0.609583 0.235203
0.306615 0.604974 0.247684
0.359930 0.598749 0.261997
0.402258 0.587793 0.259495
0.435096 0.572503 0.242283
0.468147 0.554833 0.223362
0.499886 0.535027 0.203281
0.529625 0.512902 0.182406
0.556023 0.493904 0.166415
0.596918 0.500420 0.157687
0.638849 0.502159 0.145724
0.682185 0.498054 0.129213
0.726162 0.486336 0.105684
0.769772 0.463813 0.069368
0.819669 0.433204 0.000000
0.880858 0.430121 0.000000
0.907774 0.469490 0.000000
0.932189 0.514183 0.000000
0.954284 0.559899 0.000000
0.974243 0.603449 0.000000
0.992218 0.644648 0.000000
1.000000 0.683131 0.000000
1.000000 0.718715 0.103670
1.000000 0.751278 0.178470
1.000000 0.764858 0.234257
1.000000 0.772519 0.286931
1.000000 0.780880 0.342565
0.131197 0.657557 0.222324
0.143771 0.657099 0.224155
0.158816 0.656519 0.226627
0.187594 0.655177 0.231693
0.226780 0.652918 0.239536
0.271702 0.649653 0.249851
0.321019 0.644984 0.262333
0.372900 0.638880 0.276280
0.422705 0.630365 0.286564
0.453956 0.615808 0.268711
0.485451 0.599237 0.249271
0.516472 0.580560 0.228061
0.546014 0.559777 0.205661
0.573541 0.536919 0.182345
0.602655 0.527581 0.169894
0.643366 0.534447 0.160922
0.685634 0.537194 0.147799
0.728328 0.534203 0.129488
0.770687 0.523186 0.102937
0.812375 0.502220 0.053742
0.857847 0.472724 0.000000
0.916930 0.466255 0.000000
0.940887 0.505516 0.000000
0.962066 0.550652 0.000000
0.981048 0.595300 0.000000
0.998047 0.637385 0.000000
1.000000 0.676509 0.000000
1.000000 0.712734 0.066712
1.000000 0.745785 0.159396
1.000000 0.775662 0.230411
1.000000 0.796109 0.294957
1.000000 0.802762 0.351080
0.157961 0.698543 0.239689
0.168887 0.698085 0.241337
0.182986 0.697444 0.243809
0.210178 0.696071 0.248844
0.247196 0.693751 0.256626
0.290562 0.690486 0.266606
0.338079 0.685969 0.278721
0.388403 0.680079 0.292515
0.440284 0.672602 0.307836
0.475441 0.660090 0.298192
0.505241 0.644495 0.278019
0.534936 0.626673 0.256168
0.563561 0.606928 0.232609
0.590875 0.585290 0.207950
0.616236 0.561761 0.182284
0.649287 0.563012 0.174655
0.690547 0.571038 0.165011
0.732082 0.574395 0.151095
0.773159 0.571740 0.131228
0.813565 0.561700 0.101167
0.852934 0.542321 0.023285
0.893584 0.513542 0.000000
0.948974 0.502434 0.000000
0.970031 0.540429 0.000000
0.988006 0.585901 0.000000
1.000000 0.628931 0.000000
1.000000 0.668910 0.000000
1.000000 0.705776 0.000000
1.000000 0.739498 0.135958
1.000000 0.770047 0.213474
1.000000 0.797543 0.285985
1.000000 0.822538 0.359716
0.189090 0.739040 0.259709
0.198611 0.738613 0.261357
0.211032 0.737972 0.263676
0.236118 0.736629 0.268559
0.271183 0.734310 0.276219
0.312596 0.731075 0.285985
0.358373 0.726650 0.297978
0.406989 0.720943 0.311437
0.456733 0.713924 0.326329
0.498970 0.703914 0.330510
0.527092 0.689693 0.310216
0.555627 0.673304 0.287694
0.583551 0.655024 0.263310
0.610468 0.634760 0.237430
0.635584 0.612421 0.210239
0.656825 0.589471 0.187289
0.697108 0.601434 0.180850
0.737453 0.609613 0.170962
0.777371 0.613092 0.156588
0.816587 0.610956 0.134829
0.854643 0.601740 0.100832
0.890806 0.583429 0.000000
0.926177 0.554681 0.000000
0.975860 0.540002 0.000000
0.995178 0.574945 0.000000
1.000000 0.619104 0.000000
1.000000 0.660121 0.000000
1.000000 0.697841 0.000000
1.000000 0.732296 0.105287
1.000000 0.763546 0.193698
1.000000 0.791775 0.269932
1.000000 0.817441 0.346197
0.223819 0.779080 0.282719
0.232425 0.778653 0.284337
0.243381 0.778073 0.286473
0.266545 0.776638 0.291386
0.299260 0.774350 0.298680
0.338384 0.771145 0.308293
0.382055 0.766964 0.319799
0.428077 0.761563 0.332982
0.475624 0.754940 0.347601
0.522972 0.746853 0.362951
0.551110 0.734157 0.345586
0.578058 0.719356 0.323003
0.605066 0.702724 0.298222
0.631525 0.684169 0.271489
0.656947 0.663844 0.242985
0.680629 0.641566 0.212924
0.705776 0.629877 0.195651
0.744900 0.641718 0.189548
0.783627 0.649805 0.179995
0.821592 0.653437 0.164920
0.858244 0.651667 0.141604
0.892851 0.642634 0.104280
0.925139 0.624628 0.000000
0.955413 0.594903 0.000000
0.998169 0.578241 0.000000
1.000000 0.607843 0.000000
1.000000 0.650019 0.000000
1.000000 0.688777 0.000000
1.000000 0.724086 0.050996
1.000000 0.756222 0.170077
1.000000 0.785245 0.251743
1.000000 0.811643 0.330846
0.262181 0.818387 0.308782
0.269474 0.817960 0.310369
0.279789 0.817288 0.312566
0.300908 0.815915 0.317144
0.331060 0.813748 0.324193
0.367529 0.810636 0.333440
0.408545 0.806638 0.344610
0.452247 0.801541 0.357458
0.497414 0.795315 0.371588
0.542473 0.787900 0.386511
0.577203 0.777707 0.383825
0.602655 0.764523 0.361578
0.628534 0.749630 0.336950
0.654261 0.733059 0.309941
0.679377 0.714778 0.280919
0.703487 0.694697 0.249882
0.726040 0.672908 0.217075
0.754971 0.672480 0.207797
0.792477 0.683986 0.202121
0.829038 0.691829 0.192325
0.864042 0.695155 0.176791
0.896971 0.692775 0.152346
0.927489 0.683162 0.112856
0.955718 0.664393 0.000000
0.981750 0.634119 0.000000
1.000000 0.613581 0.000000
1.000000 0.638392 0.000000
1.000000 0.678309 0.000000
1.000000 0.714778 0.000000
1.000000 0.747860 0.141268
1.000000 0.777798 0.230686
1.000000 0.805081 0.313512
0.303960 0.855802 0.338293
0.310460 0.855406 0.339818
0.319860 0.854795 0.341802
0.338628 0.853513 0.346349
0.366339 0.851347 0.353155
0.400214 0.848478 0.362005
0.438361 0.844724 0.372839
0.479255 0.840024 0.385138
0.521874 0.834348 0.398749
0.564843 0.827604 0.413092
0.605493 0.819577 0.424659
0.629694 0.808103 0.403235
0.654383 0.795224 0.379370
0.679225 0.780758 0.352850
0.703853 0.764767 0.323949
0.727810 0.747189 0.292576
0.750790 0.727962 0.259159
0.768307 0.703609 0.226169
0.804349 0.717372 0.224369
0.839384 0.728054 0.219455
0.872496 0.734829 0.209873
0.903441 0.736751 0.193973
0.932006 0.732753 0.168582
0.958312 0.721675 0.127108
0.982635 0.701839 0.000000
1.000000 0.670802 0.000000
1.000000 0.645777 0.000000
1.000000 0.666407 0.000000
1.000000 0.704097 0.000000
1.000000 0.738338 0.101564
1.000000 0.769314 0.206302
1.000000 0.797604 0.293950
0.348913 0.890135 0.371618
0.355138 0.889738 0.373114
0.363195 0.889128 0.375036
0.380255 0.887907 0.379278
0.404974 0.885954 0.385687
0.435859 0.883299 0.394232
0.471015 0.879789 0.404517
0.509178 0.875547 0.416266
0.549279 0.870420 0.429236
0.589685 0.864439 0.442878
0.630091 0.857481 0.456886
0.658503 0.848539 0.447608
0.682124 0.837919 0.424964
0.706233 0.825895 0.399786
0.730282 0.812619 0.371893
0.754086 0.797879 0.341192
0.777188 0.781735 0.307958
0.799313 0.764187 0.272221
0.820188 0.751431 0.248295
0.853117 0.763668 0.247562
0.884031 0.772335 0.243107
0.912627 0.776699 0.233829
0.938964 0.776242 0.217350
0.963104 0.770077 0.191043
0.985443 0.757137 0.148043
1.000000 0.735866 0.049683
1.000000 0.703944 0.000000
1.000000 0.677668 0.000000
1.000000 0.691859 0.000000
1.000000 0.727413 0.000000
1.000000 0.759701 0.176883
1.000000 0.789120 0.271305
0.396551 0.920684 0.408576
0.401923 0.920287 0.409918
0.409216 0.919738 0.411902
0.424140 0.918608 0.415839
0.446571 0.916777 0.421942
0.474464 0.914305 0.430030
0.506584 0.911162 0.439643
0.541863 0.907347 0.450782
0.579095 0.902800 0.463142
0.617151 0.897520 0.476143
0.655177 0.891417 0.489662
0.688563 0.884398 0.494392
0.711086 0.875914 0.473518
0.734371 0.866392 0.450202
0.757900 0.855863 0.424170
0.781369 0.844236 0.395361
0.804562 0.831540 0.363592
0.827054 0.817746 0.329015
0.848600 0.802792 0.291630
0.870848 0.799649 0.279179
0.898955 0.808591 0.279423
0.924865 0.813901 0.275456
0.948547 0.815122 0.265629
0.970275 0.811734 0.248264
0.990295 0.803220 0.220035
1.000000 0.788449 0.174105
1.000000 0.765866 0.084199
1.000000 0.732998 0.000000
1.000000 0.707973 0.000000
1.000000 0.714992 0.000000
1.000000 0.748714 0.139620
1.000000 0.779477 0.245151
0.445808 0.947204 0.448920
0.450477 0.946838 0.450202
0.456794 0.946380 0.452003
0.470130 0.945281 0.455756
0.490150 0.943633 0.461555
0.515190 0.941375 0.469154
0.544488 0.938537 0.478370
0.576684 0.935119 0.488899
0.611109 0.931060 0.500603
0.646632 0.926390 0.513329
0.682307 0.921141 0.526390
0.717464 0.915282 0.539818
0.740536 0.908751 0.525078
0.762722 0.901427 0.503716
