data/fiter_cube/44540723/1023232/file.cube
# Created by Adobe Lightroom plugin Export LUT (1.17.0)
# www.johnrellis.com/lightroom/exportlut.htm
# Preset: 奶油色调低饱和（弱光环境）_03 云集
# Color profile: C:\Program Files (x86)\Common Files\Adobe\Color\Profiles\Recommended\AdobeRGB1998.icc
LUT_3D_SIZE 32
DOMAIN_MIN 0.0 0.0 0.0
DOMAIN_MAX 1.0 1.0 1.0
0.061189 0.072267 0.068635
0.064515 0.072938 0.069642
0.069398 0.074098 0.070588
0.079957 0.077119 0.072511
0.093965 0.080751 0.075959
0.110658 0.084352 0.079316
0.131228 0.087343 0.082551
0.155459 0.089845 0.086213
0.183810 0.091646 0.089815
0.216220 0.092805 0.094026
0.252750 0.092134 0.098695
0.293339 0.090211 0.103731
0.337499 0.086671 0.109621
0.384131 0.082094 0.116121
0.431647 0.077241 0.123873
0.479255 0.074617 0.131868
0.525597 0.077516 0.140566
0.570703 0.089509 0.150393
0.615381 0.110292 0.161471
0.657404 0.135714 0.173434
0.697078 0.164523 0.186191
0.733516 0.195560 0.200168
0.766934 0.228061 0.215030
0.797543 0.261143 0.231601
0.825803 0.294347 0.249912
0.851743 0.327825 0.269810
0.875883 0.361639 0.292393
0.898344 0.395697 0.317876
0.919341 0.429908 0.346471
0.938842 0.465156 0.379309
0.956847 0.501732 0.416876
0.973297 0.540185 0.459937
0.062257 0.075898 0.070222
0.065614 0.076875 0.070436
0.070863 0.078248 0.071260
0.080629 0.081178 0.073915
0.094484 0.084901 0.077211
0.111421 0.088258 0.080232
0.132021 0.091341 0.083375
0.156283 0.093660 0.087007
0.184604 0.095613 0.090547
0.216770 0.096742 0.094728
0.253178 0.096712 0.099031
0.293584 0.094911 0.104524
0.337346 0.092500 0.110140
0.383703 0.088869 0.117006
0.431159 0.085603 0.124086
0.478553 0.084260 0.132418
0.524804 0.087007 0.141207
0.569879 0.098054 0.150851
0.613733 0.116854 0.161868
0.655360 0.141115 0.173495
0.694942 0.168521 0.186069
0.731380 0.198795 0.199619
0.764797 0.230350 0.214603
0.795621 0.262699 0.231327
0.824063 0.295293 0.248936
0.850217 0.328893 0.269047
0.874510 0.362188 0.291386
0.897154 0.396155 0.316777
0.918334 0.430274 0.345464
0.937926 0.465400 0.378546
0.956023 0.501671 0.415747
0.972625 0.540002 0.458503
0.063691 0.081605 0.072541
0.066560 0.082246 0.072389
0.071412 0.083589 0.072511
0.081697 0.087098 0.075410
0.095369 0.090517 0.078645
0.112642 0.093538 0.081849
0.133242 0.096101 0.084993
0.157321 0.098573 0.088228
0.185550 0.100893 0.091646
0.217777 0.102113 0.095735
0.254093 0.102541 0.100221
0.294408 0.101930 0.105318
0.338048 0.099916 0.111482
0.384466 0.097017 0.118013
0.431647 0.095125 0.125551
0.478889 0.094636 0.133547
0.524987 0.098543 0.142245
0.570001 0.109438 0.152041
0.613489 0.126253 0.162844
0.654719 0.149142 0.174044
0.694179 0.175204 0.186831
0.730587 0.204257 0.200229
0.764004 0.235080 0.215335
0.794797 0.266819 0.231662
0.823301 0.299016 0.249393
0.849485 0.331762 0.269352
0.873808 0.364996 0.291630
0.896513 0.398413 0.317144
0.917754 0.432227 0.345922
0.937438 0.467109 0.378576
0.955596 0.503227 0.416022
0.972198 0.541192 0.458534
0.066957 0.093446 0.077150
0.069154 0.094331 0.076997
0.072694 0.095888 0.077760
0.083619 0.099123 0.077790
0.100008 0.102632 0.080476
0.115358 0.104921 0.084565
0.136110 0.107271 0.087526
0.160647 0.109651 0.090547
0.188846 0.111757 0.094118
0.220768 0.113649 0.097993
0.257115 0.114687 0.102724
0.297215 0.115114 0.107790
0.340856 0.114687 0.113863
0.386847 0.113863 0.120699
0.433814 0.113558 0.127962
0.480751 0.115023 0.136019
0.526390 0.119692 0.144747
0.571313 0.130007 0.154269
0.613825 0.145357 0.164920
0.654322 0.165927 0.176120
0.693233 0.190005 0.188296
0.729335 0.217197 0.201694
0.762753 0.246525 0.216556
0.793851 0.276799 0.233097
0.822690 0.308324 0.250828
0.849149 0.340398 0.271061
0.873686 0.372747 0.293736
0.896452 0.405646 0.319219
0.917632 0.438880 0.348333
0.937224 0.472786 0.380865
0.955261 0.508049 0.418219
0.971771 0.545220 0.460273
0.070314 0.110231 0.083192
0.072328 0.110964 0.083070
0.075715 0.112215 0.083742
0.084199 0.115145 0.084413
0.101259 0.119783 0.083619
0.123812 0.123629 0.085298
0.142031 0.124514 0.090364
0.165103 0.126802 0.094331
0.193271 0.128939 0.097902
0.225406 0.131380 0.101656
0.261479 0.132998 0.106538
0.301671 0.134524 0.111849
0.344945 0.135470 0.118135
0.390600 0.136660 0.124514
0.437263 0.138277 0.132021
0.483864 0.141482 0.139956
0.529320 0.147219 0.148836
0.574395 0.157839 0.158236
0.616022 0.171847 0.168551
0.655970 0.190341 0.179660
0.694179 0.212345 0.191623
0.729885 0.237491 0.205020
0.762936 0.264317 0.219913
0.793790 0.293187 0.236027
0.822507 0.323217 0.254063
0.848905 0.353704 0.274449
0.873320 0.384894 0.297032
0.896056 0.415961 0.322637
0.917144 0.447974 0.351385
0.936675 0.481086 0.384070
0.954650 0.515312 0.421118
0.971130 0.551507 0.463294
0.072663 0.130556 0.089387
0.074556 0.131533 0.089235
0.078218 0.132723 0.089540
0.085664 0.134981 0.090700
0.099825 0.139651 0.090517
0.123690 0.145357 0.089754
0.153994 0.150576 0.090120
0.175479 0.149905 0.096254
0.200595 0.152071 0.102876
0.232181 0.154513 0.107454
0.268406 0.157321 0.111971
0.308415 0.159548 0.117617
0.351629 0.161898 0.123659
0.396887 0.164492 0.130190
0.443183 0.167544 0.137789
0.489326 0.172213 0.145724
0.534844 0.179294 0.154330
0.578820 0.189609 0.163912
0.619715 0.203250 0.173892
0.659174 0.220310 0.184848
0.696834 0.240665 0.196963
0.732143 0.263767 0.210361
0.778225 0.303319 0.232914
0.807431 0.330236 0.250065
0.834226 0.357671 0.268589
0.858854 0.385321 0.289311
0.881682 0.413519 0.312444
0.902953 0.442267 0.338384
0.922728 0.472023 0.367559
0.941131 0.502953 0.400427
0.958099 0.535271 0.437293
0.973632 0.569665 0.479194
0.075532 0.156466 0.097139
0.076997 0.157321 0.096498
0.080812 0.158541 0.096986
0.088746 0.161074 0.098177
0.101503 0.165072 0.099245
0.122530 0.170748 0.098238
0.152956 0.177279 0.096468
0.191897 0.184817 0.095888
0.217411 0.182803 0.103700
0.246677 0.184512 0.112367
0.280980 0.188357 0.120363
0.321447 0.191531 0.125948
0.364630 0.194919 0.131868
0.409369 0.198611 0.138460
0.454841 0.202701 0.145571
0.499947 0.208164 0.153536
0.545953 0.216831 0.162509
0.588617 0.227390 0.172091
0.628748 0.240604 0.182010
0.667964 0.257328 0.193301
0.705409 0.277317 0.205875
0.740841 0.299962 0.220127
0.773892 0.324804 0.236057
0.804562 0.350927 0.253727
0.832486 0.377508 0.273106
0.857664 0.404028 0.294255
0.880644 0.430762 0.317784
0.901946 0.458076 0.343755
0.921691 0.486152 0.372686
0.940002 0.515496 0.405646
0.956909 0.546349 0.442359
0.972412 0.579400 0.483925
0.078920 0.185336 0.106264
0.079744 0.186313 0.104738
0.083284 0.187442 0.105165
0.091829 0.189822 0.106416
0.104616 0.193668 0.108370
0.123476 0.198947 0.108949
0.150240 0.205173 0.107637
0.185611 0.212161 0.105196
0.233127 0.222751 0.103029
0.262516 0.220310 0.112306
0.296086 0.221866 0.122225
0.332891 0.225864 0.132723
0.374334 0.230594 0.140993
0.418372 0.234897 0.147311
0.463203 0.239872 0.154391
0.508812 0.246647 0.162478
0.552728 0.255039 0.170993
0.593988 0.264927 0.180209
0.632868 0.277317 0.189914
0.670954 0.292821 0.200900
0.707485 0.310857 0.213352
0.742031 0.331640 0.227390
0.774441 0.354040 0.243290
0.804593 0.377661 0.260990
0.832090 0.401953 0.280125
0.857053 0.426337 0.301366
0.879820 0.450965 0.324743
0.901061 0.476295 0.350408
0.920684 0.502708 0.379583
0.938903 0.530358 0.412238
0.955718 0.559808 0.449073
0.971160 0.591455 0.490425
0.082826 0.218997 0.117189
0.083589 0.219913 0.115602
0.087617 0.221042 0.115969
0.096529 0.223117 0.117220
0.109773 0.226932 0.119051
0.127443 0.231693 0.121645
0.152041 0.238163 0.120302
0.183902 0.245121 0.118502
0.224063 0.252201 0.115633
0.280705 0.266423 0.110506
0.314122 0.263859 0.121767
0.350591 0.265049 0.133089
0.389502 0.269078 0.145418
0.429999 0.275364 0.158022
0.475074 0.281651 0.165682
0.519097 0.288273 0.173404
0.561151 0.296269 0.181247
0.600702 0.305791 0.190036
0.638453 0.317205 0.199527
0.675532 0.331182 0.210300
0.710933 0.347601 0.222568
0.744503 0.366155 0.236606
0.776089 0.386328 0.252598
0.805600 0.407538 0.270024
0.832517 0.429389 0.289433
0.857084 0.451270 0.310460
0.879606 0.473915 0.333776
0.900481 0.497292 0.359503
0.919921 0.521691 0.388678
0.937957 0.547692 0.420996
0.954589 0.575402 0.457435
0.969970 0.605341 0.498390
0.088289 0.257267 0.129885
0.089082 0.258091 0.128084
0.092866 0.258946 0.128420
0.101930 0.261448 0.129732
0.115969 0.265019 0.131594
0.134096 0.269596 0.134096
0.156802 0.275578 0.136019
0.186435 0.282414 0.133822
0.223575 0.289769 0.131014
0.268345 0.296727 0.127504
0.333196 0.313817 0.119203
0.369482 0.311223 0.131930
0.408331 0.312779 0.145205
0.448768 0.317357 0.159030
0.489570 0.324285 0.173251
0.530388 0.332586 0.185611
0.571160 0.340093 0.193423
0.609583 0.349004 0.202243
0.646113 0.359411 0.211460
0.681544 0.371954 0.222049
0.715541 0.386419 0.234195
0.747738 0.402594 0.247776
0.778073 0.419867 0.263493
0.806394 0.438392 0.280400
0.832639 0.457588 0.299535
0.856687 0.477302 0.320653
0.878996 0.497932 0.343847
0.899779 0.519432 0.369757
0.919066 0.542382 0.398993
0.937011 0.566705 0.431556
0.953582 0.592950 0.467933
0.968872 0.621485 0.508873
0.095003 0.299168 0.144106
0.095888 0.299931 0.142824
0.099153 0.301183 0.142672
0.109255 0.303380 0.143648
0.123384 0.306767 0.145815
0.142184 0.311437 0.148257
0.164797 0.317296 0.151583
0.192599 0.323949 0.151583
0.227665 0.330938 0.148745
0.269535 0.338018 0.145754
0.318791 0.345006 0.141421
0.388067 0.363531 0.131838
0.429236 0.363134 0.143709
0.467964 0.364141 0.158419
0.506798 0.368414 0.173434
0.544732 0.374884 0.188907
0.581415 0.383612 0.204685
0.617578 0.392554 0.215915
0.652979 0.401770 0.224765
0.687129 0.412573 0.235203
0.719875 0.425238 0.247013
0.751064 0.439246 0.260807
0.780667 0.454658 0.276219
0.808225 0.470924 0.293339
0.833768 0.487861 0.312444
0.857237 0.505394 0.333593
0.879026 0.523919 0.356420
0.899321 0.543481 0.382391
0.918364 0.564446 0.411170
0.935973 0.586847 0.443397
0.952422 0.611414 0.479347
0.967468 0.638361 0.520409
0.103853 0.344915 0.160769
0.105013 0.345892 0.159579
0.107820 0.346746 0.158511
0.118257 0.348821 0.159854
0.132845 0.352300 0.161715
0.152041 0.356573 0.164187
0.175235 0.362432 0.167422
0.202487 0.368963 0.171359
0.236149 0.375586 0.168643
0.276341 0.383154 0.165896
0.323033 0.390356 0.161868
0.375006 0.397070 0.157321
0.456153 0.424079 0.150576
0.502129 0.427100 0.160433
0.538994 0.427741 0.177310
0.574395 0.431342 0.194125
0.608606 0.437171 0.210880
0.641138 0.445197 0.228641
0.672297 0.454810 0.246433
0.703914 0.463416 0.256931
0.734218 0.473396 0.268742
0.763119 0.484535 0.282353
0.790433 0.497078 0.297704
0.816098 0.510552 0.314611
0.839933 0.524834 0.333349
0.862028 0.539971 0.354162
0.882658 0.555932 0.377111
0.902007 0.573175 0.402441
0.920073 0.591791 0.430854
0.936980 0.612207 0.462318
0.952697 0.634638 0.497993
0.967224 0.659632 0.538293
0.116609 0.396582 0.179873
0.117494 0.397375 0.178592
0.119387 0.398291 0.176913
0.130129 0.399847 0.178103
0.145418 0.402686 0.179995
0.165164 0.406592 0.182406
0.189212 0.412146 0.185672
0.217441 0.418860 0.189822
0.250309 0.426093 0.192020
0.289891 0.433295 0.189212
0.334997 0.440803 0.185794
0.385321 0.447791 0.182040
0.439307 0.454414 0.177310
0.505699 0.469337 0.168154
0.554131 0.476051 0.174777
0.588464 0.476722 0.193454
0.620935 0.479561 0.211460
0.651820 0.484474 0.229435
0.681270 0.491218 0.248203
0.710018 0.500328 0.268101
0.738308 0.510399 0.285740
0.766110 0.519829 0.299016
0.792538 0.530602 0.313878
0.817380 0.541985 0.330602
0.840482 0.554528 0.349401
0.862089 0.567834 0.369665
0.882292 0.582116 0.392248
0.901213 0.597681 0.417334
0.919005 0.614588 0.445319
0.935668 0.633356 0.476844
0.951171 0.654261 0.512078
0.965637 0.677760 0.552026
0.132143 0.446723 0.199863
0.133089 0.447578 0.198367
0.134737 0.448371 0.196872
0.145052 0.450111 0.197818
0.160708 0.452583 0.199435
0.180789 0.456123 0.202152
0.205234 0.460700 0.205325
0.233463 0.466224 0.209140
0.265782 0.472969 0.214206
0.303197 0.479347 0.213321
0.345586 0.485573 0.210086
0.392828 0.491829 0.206516
0.443000 0.497505 0.202090
0.494789 0.502312 0.197452
0.554192 0.513634 0.189029
0.602655 0.522637 0.192447
0.633539 0.522484 0.211368
0.662806 0.524376 0.230350
0.690547 0.528161 0.249760
0.717800 0.534600 0.270298
0.744381 0.543267 0.292058
0.769955 0.553979 0.315679
0.795254 0.563775 0.332586
0.819272 0.573754 0.349218
0.841642 0.584619 0.367559
0.862638 0.596216 0.387610
0.882383 0.608850 0.409644
0.900847 0.622766 0.434577
0.918273 0.638300 0.462226
0.934661 0.655451 0.493141
0.949889 0.674800 0.528191
0.964141 0.696773 0.567834
0.152682 0.496498 0.221927
0.153841 0.497292 0.220615
0.155032 0.497932 0.218845
0.163851 0.499275 0.218967
0.179812 0.501152 0.220890
0.199802 0.503899 0.223026
0.224186 0.507652 0.225956
0.252110 0.512169 0.229923
0.284031 0.517632 0.234684
0.319768 0.524010 0.239261
0.359869 0.529107 0.236484
0.403876 0.534356 0.233280
0.450690 0.539147 0.229313
0.498848 0.543389 0.224796
0.546532 0.546929 0.219730
0.598627 0.554925 0.211795
0.646967 0.566094 0.211948
0.674128 0.564813 0.231907
0.700252 0.565759 0.251987
0.726070 0.569574 0.272892
0.751339 0.575708 0.295232
0.775753 0.583917 0.318944
0.799100 0.593774 0.344091
0.821317 0.604639 0.369055
0.842985 0.614008 0.387304
0.863462 0.624353 0.407141
0.882719 0.635737 0.429328
0.900908 0.648493 0.454200
0.918090 0.662684 0.481727
0.934142 0.678767 0.512963
0.949157 0.697017 0.548211
0.963256 0.717586 0.587304
0.177768 0.543359 0.245182
0.179355 0.543938 0.244602
0.180056 0.544701 0.242679
0.187747 0.545953 0.242252
0.203494 0.547753 0.243900
0.223453 0.550195 0.246098
0.247257 0.553338 0.249332
0.274907 0.557366 0.253300
0.306401 0.562127 0.258122
0.341039 0.567437 0.263920
0.378454 0.572259 0.265629
0.419165 0.576074 0.262333
0.461952 0.579461 0.258274
0.505821 0.582513 0.253941
0.549706 0.585229 0.248875
0.592737 0.587427 0.243198
0.638178 0.592615 0.236057
0.685328 0.604700 0.233097
0.710292 0.603479 0.254490
0.734920 0.604974 0.276799
0.759091 0.608942 0.299535
0.782620 0.614954 0.323919
0.804929 0.622644 0.349401
0.826017 0.631922 0.376287
0.845853 0.642451 0.405035
0.865080 0.652827 0.429969
0.883787 0.662989 0.451759
0.901427 0.674372 0.476143
0.918029 0.687221 0.503410
0.933654 0.701839 0.534020
0.948211 0.718441 0.568261
0.962036 0.737240 0.605859
0.207095 0.586175 0.270207
0.207767 0.586664 0.269078
0.208896 0.587091 0.267247
0.214908 0.588342 0.266178
0.229892 0.589746 0.267582
0.248753 0.591821 0.270298
0.271885 0.594476 0.273411
0.298650 0.597711 0.277134
0.328832 0.601587 0.281987
0.361913 0.606043 0.287144
0.397742 0.610986 0.294011
0.435309 0.614313 0.292241
0.474647 0.617060 0.288579
0.514855 0.619379 0.284611
0.555138 0.621332 0.280125
0.594751 0.622736 0.274540
0.633631 0.623896 0.269017
0.673396 0.626917 0.262486
0.720058 0.640528 0.257450
0.743404 0.639734 0.279911
0.766354 0.641382 0.303288
0.788663 0.645167 0.327916
0.809964 0.650721 0.353735
0.830228 0.657893 0.381262
0.849363 0.666560 0.410040
0.867460 0.676661 0.440711
0.884398 0.688380 0.473304
0.901488 0.698909 0.498207
0.917662 0.710567 0.525109
0.932830 0.724025 0.555596
0.947204 0.739284 0.588769
0.960906 0.756710 0.625299
0.239200 0.626642 0.296422
0.240665 0.627222 0.296147
0.249973 0.636378 0.300877
0.254063 0.637324 0.298375
0.268101 0.638331 0.300359
0.285924 0.639612 0.302251
0.307622 0.641321 0.305089
0.333013 0.643458 0.308965
0.361730 0.646174 0.313207
0.392920 0.649317 0.318669
0.426154 0.652857 0.325109
0.460883 0.656153 0.329686
0.496071 0.657618 0.325963
0.532219 0.658991 0.321935
0.568475 0.660029 0.317327
0.604517 0.660792 0.312535
0.640284 0.661463 0.307042
0.675227 0.661921 0.301579
0.709957 0.662837 0.294957
0.755428 0.677333 0.287510
0.776699 0.676539 0.311559
0.797482 0.677943 0.336370
0.817441 0.681178 0.362219
0.836454 0.686091 0.389441
0.854398 0.692409 0.418189
0.871397 0.700343 0.448432
0.887480 0.709773 0.480232
0.902647 0.721035 0.514397
0.917266 0.733394 0.548394
0.932097 0.745480 0.577600
0.946227 0.759426 0.609522
0.959747 0.775509 0.644709
0.276982 0.665644 0.326757
0.279240 0.667079 0.326848
0.281376 0.668666 0.326085
0.285191 0.670527 0.324285
0.298924 0.672023 0.326390
0.316014 0.673396 0.329168
0.336614 0.674891 0.331914
0.360388 0.676661 0.335729
0.386999 0.678798 0.340124
0.415991 0.681239 0.345312
0.446937 0.684016 0.351385
0.479072 0.687129 0.358343
0.511254 0.689143 0.359686
0.543786 0.690059 0.355932
0.576959 0.690700 0.351385
0.610193 0.691279 0.346715
0.643122 0.691615 0.341894
0.675807 0.691981 0.336675
0.708064 0.692317 0.331304
0.739590 0.692866 0.325628
0.783505 0.707668 0.317174
0.803433 0.707301 0.341833
0.822568 0.708797 0.368078
0.840879 0.711910 0.395392
0.858213 0.716579 0.424384
0.874693 0.722835 0.454902
0.890288 0.730678 0.486702
0.904997 0.740352 0.521172
0.918853 0.751949 0.558251
0.931975 0.765469 0.596765
0.945403 0.779019 0.630610
0.958679 0.793851 0.664424
0.314458 0.698726 0.356481
0.316411 0.699916 0.356420
0.318456 0.701228 0.355932
0.321996 0.702846 0.354284
0.333318 0.704189 0.355413
0.349187 0.705196 0.358221
0.368109 0.706447 0.361212
0.389837 0.707790 0.364630
0.414466 0.709407 0.369146
0.441169 0.711421 0.374090
0.469520 0.713710 0.380438
0.499031 0.716213 0.387182
0.528862 0.718898 0.394659
0.558251 0.719783 0.391974
0.588220 0.720272 0.387762
0.618524 0.720577 0.383581
0.648890 0.720821 0.378851
0.679194 0.720882 0.374182
0.709224 0.721096 0.369055
0.738827 0.721492 0.364080
0.767758 0.721920 0.359197
0.808713 0.735988 0.352148
0.827939 0.736172 0.374701
0.845457 0.737636 0.402380
0.862150 0.740658 0.431678
0.878019 0.745266 0.462013
0.893065 0.751522 0.493874
0.907286 0.759579 0.528435
0.920806 0.769589 0.565026
0.933623 0.781552 0.603388
0.945861 0.795529 0.643397
0.957458 0.811032 0.683375
0.354253 0.729488 0.388281
0.355993 0.730465 0.388434
0.358068 0.731594 0.388098
0.361303 0.733028 0.386419
0.370123 0.734249 0.386816
0.384619 0.735073 0.389166
0.401617 0.735958 0.392096
0.421363 0.736965 0.395636
0.443610 0.738186 0.399908
0.467781 0.739712 0.405035
0.493385 0.741512 0.410651
0.520104 0.743496 0.417365
0.547295 0.745632 0.424567
0.574701 0.747372 0.429145
0.601587 0.747738 0.425910
0.629114 0.748043 0.422034
0.657099 0.748409 0.418158
0.685145 0.748745 0.414282
0.713313 0.749172 0.410193
0.741207 0.749691 0.406226
0.768643 0.750454 0.402380
0.795621 0.751217 0.398291
0.832364 0.763210 0.393347
0.852110 0.765194 0.414160
0.868162 0.766812 0.443610
0.883360 0.770047 0.474403
0.897765 0.774838 0.506798
0.911376 0.781491 0.541711
0.924376 0.790005 0.578241
0.936767 0.800473 0.616144
0.948669 0.812985 0.655421
0.959655 0.826902 0.694667
0.400153 0.760647 0.425757
0.401312 0.761196 0.425360
0.402594 0.761715 0.424842
0.405035 0.762478 0.423133
0.410834 0.763394 0.421790
0.423346 0.763851 0.424018
0.438514 0.764401 0.426825
0.456214 0.765225 0.430426
0.476051 0.766262 0.434699
0.497841 0.767453 0.439643
0.520958 0.768978 0.445686
0.545312 0.770565 0.452155
0.569970 0.772305 0.459113
0.594965 0.774105 0.466804
0.619287 0.774868 0.467567
0.643671 0.775021 0.464179
0.668574 0.775113 0.460517
0.693874 0.775265 0.457191
0.719387 0.775509 0.453315
0.744808 0.775784 0.449561
0.770016 0.776120 0.445808
0.794919 0.776547 0.441901
0.819303 0.777005 0.437934
0.851865 0.786740 0.433722
0.872038 0.790097 0.451972
0.886625 0.791867 0.482856
0.900572 0.795285 0.515465
0.913817 0.800595 0.549950
0.926482 0.807706 0.586267
0.938659 0.816831 0.624109
0.950103 0.827634 0.662318
0.960967 0.840360 0.700801
0.441993 0.786160 0.460761
0.443214 0.786587 0.460731
0.444282 0.787106 0.459998
0.446571 0.787808 0.458747
0.450446 0.788540 0.456916
0.461372 0.788876 0.459052
0.474434 0.789273 0.461646
0.489815 0.789792 0.465003
0.507164 0.790524 0.468910
0.526482 0.791409 0.473762
0.547143 0.792508 0.479316
0.568841 0.793759 0.485695
0.591150 0.795102 0.492500
0.613977 0.796536 0.499947
0.636774 0.798184 0.508110
0.658442 0.798367 0.505272
0.680598 0.798581 0.502098
0.703243 0.798764 0.499031
0.726314 0.799008 0.495918
0.749447 0.799344 0.492897
0.772702 0.799771 0.489631
0.795773 0.800198 0.486336
0.818601 0.800748 0.483314
0.841032 0.801358 0.480171
0.868925 0.808011 0.474006
0.889555 0.812802 0.490486
0.903075 0.815000 0.523125
0.915923 0.818967 0.557824
0.928374 0.824857 0.593622
0.940246 0.832639 0.631098
0.951385 0.842039 0.668330
0.962188 0.853666 0.706538
0.487617 0.811154 0.500542
0.488960 0.811551 0.500816
0.490059 0.811948 0.500572
0.491768 0.812436 0.499275
0.494209 0.813046 0.496925
0.502647 0.813199 0.498085
0.513756 0.813382 0.500511
0.526757 0.813596 0.503258
0.541619 0.813870 0.506950
0.558160 0.814359 0.511162
0.576013 0.814939 0.516136
0.594842 0.815793 0.521782
0.614618 0.816709 0.528344
0.634760 0.817716 0.535149
0.655055 0.818784 0.542596
0.674769 0.819577 0.546593
0.693935 0.819577 0.543389
0.713710 0.819608 0.540398
0.734127 0.819913 0.537865
0.755032 0.820279 0.534936
0.776150 0.820768 0.532555
0.797269 0.821286 0.529992
0.818265 0.821805 0.527153
0.838987 0.822232 0.524346
0.859495 0.822660 0.521141
0.885161 0.828977 0.517815
0.906035 0.835111 0.533349
0.918517 0.837797 0.567315
0.930602 0.842466 0.603052
0.941985 0.848631 0.638697
0.952880 0.856809 0.675532
0.963531 0.867308 0.713100
0.528801 0.831754 0.538170
0.529808 0.832151 0.538170
0.530968 0.832486 0.538170
0.532525 0.832914 0.537163
0.534844 0.833371 0.535393
0.540917 0.833677 0.535698
0.550530 0.833799 0.537987
0.561822 0.833982 0.540948
0.574884 0.834257 0.544396
0.589441 0.834653 0.548638
0.605097 0.835233 0.553613
0.621851 0.835935 0.559045
0.639429 0.836790 0.565362
0.657343 0.837644 0.572045
0.675441 0.838621 0.578943
0.693721 0.839719 0.586694
0.710811 0.840146 0.587213
0.727993 0.840391 0.584833
0.745876 0.840665 0.582544
0.764340 0.841123 0.580591
0.783108 0.841581 0.578424
0.802029 0.842130 0.576532
0.821073 0.842710 0.574456
0.840024 0.843259 0.572198
0.858915 0.843809 0.569879
0.877653 0.844358 0.567407
0.900481 0.849454 0.564843
0.921660 0.857053 0.579217
0.933196 0.860319 0.613794
0.944182 0.865293 0.648859
0.954894 0.872374 0.685084
0.965423 0.881804 0.721828
0.570642 0.851225 0.577630
0.571588 0.851469 0.577783
0.572229 0.851713 0.577356
0.573663 0.851957 0.576715
0.575311 0.852323 0.574975
0.579309 0.852659 0.574334
0.587274 0.852659 0.576471
0.596857 0.852781 0.579004
0.607996 0.852964 0.582269
0.620539 0.853300 0.586236
0.634119 0.853788 0.590661
0.648829 0.854429 0.596002
0.664118 0.855131 0.601831
0.679988 0.855924 0.608148
0.695949 0.856779 0.614588
0.712184 0.857755 0.621607
0.728420 0.858793 0.628870
0.743160 0.859037 0.626795
0.758602 0.859403 0.624933
0.774716 0.859892 0.623346
0.791348 0.860472 0.622034
0.808255 0.861082 0.620508
0.825315 0.861753 0.619196
0.842496 0.862425 0.617762
0.859709 0.863127 0.616236
0.876982 0.863828 0.614618
0.894194 0.864622 0.613184
0.914427 0.868833 0.611139
0.935302 0.877043 0.622705
0.946014 0.880919 0.657313
0.956512 0.886900 0.692714
0.966857 0.895323 0.728939
0.609827 0.868742 0.616022
0.610407 0.868925 0.615991
0.611078 0.869108 0.615808
0.612238 0.869352 0.615229
0.613947 0.869749 0.614069
0.616663 0.870268 0.613001
0.624018 0.870512 0.615442
0.632776 0.870878 0.618616
0.642969 0.871366 0.622278
0.654292 0.871977 0.626825
0.666651 0.872679 0.631983
0.679774 0.873503 0.637446
0.693416 0.874357 0.643427
0.707454 0.875242 0.649714
0.721553 0.876127 0.656092
0.735805 0.877043 0.662684
0.750179 0.878019 0.669856
0.763851 0.878874 0.673762
0.777005 0.879362 0.672633
0.790707 0.879973 0.671656
0.804898 0.880644 0.670558
0.819638 0.881376 0.669947
0.834562 0.882109 0.669123
0.849699 0.882933 0.668391
0.865019 0.883726 0.667445
0.880247 0.884337 0.666041
0.895598 0.884977 0.664485
0.910979 0.885679 0.663081
0.928710 0.889189 0.661830
0.949218 0.898283 0.671962
0.959380 0.903197 0.706355
0.969512 0.910521 0.741207
0.652094 0.886931 0.658595
0.652522 0.887053 0.658534
0.652949 0.887144 0.658412
0.653864 0.887327 0.657740
0.655207 0.887602 0.656947
0.657191 0.887999 0.655818
0.662257 0.888212 0.656977
0.669337 0.888396 0.659571
0.677516 0.888670 0.662623
0.686824 0.889036 0.666316
0.696925 0.889525 0.670466
0.707790 0.890074 0.675135
0.719265 0.890684 0.680140
