data/fiter_cube/44540723/1023232/file.cube
# Created by Adobe Lightroom plugin Export LUT (1.17.0)
# www.johnrellis.com/lightroom/exportlut.htm
# Preset: 奶油色调低饱和（弱光环境）_03 云集
# Color profile: C:\Program Files (x86)\Common Files\Adobe\Color\Profiles\Recommended\AdobeRGB1998.icc
LUT_3D_SIZE 8
DOMAIN_MIN 0.000000 0.000000 0.000000
DOMAIN_MAX 0.903226 0.903226 0.903226
0.061189 0.072267 0.068635
0.093965 0.080751 0.075959
0.183810 0.091646 0.089815
0.337499 0.086671 0.109621
0.525597 0.077516 0.140566
0.697078 0.164523 0.186191
0.825803 0.294347 0.249912
0.919341 0.429908 0.346471
0.070314 0.110231 0.083192
0.101259 0.119783 0.083619
0.193271 0.128939 0.097902
0.344945 0.135470 0.118135
0.529320 0.147219 0.148836
0.694179 0.212345 0.191623
0.822507 0.323217 0.254063
0.917144 0.447974 0.351385
0.082826 0.218997 0.117189
0.109773 0.226932 0.119051
0.224063 0.252201 0.115633
0.389502 0.269078 0.145418
0.561151 0.296269 0.181247
0.710933 0.347601 0.222568
0.832517 0.429389 0.289433
0.919921 0.521691 0.388678
0.116609 0.396582 0.179873
0.145418 0.402686 0.179995
0.250309 0.426093 0.192020
0.439307 0.454414 0.177310
0.620935 0.479561 0.211460
0.738308 0.510399 0.285740
0.840482 0.554528 0.349401
0.919005 0.614588 0.445319
0.207095 0.586175 0.270207
0.229892 0.589746 0.267582
0.328832 0.601587 0.281987
0.474647 0.617060 0.288579
0.633631 0.623896 0.269017
0.766354 0.641382 0.303288
0.849363 0.666560 0.410040
0.917662 0.710567 0.525109
0.354253 0.729488 0.388281
0.370123 0.734249 0.386816
0.443610 0.738186 0.399908
0.547295 0.745632 0.424567
0.657099 0.748409 0.418158
0.768643 0.750454 0.402380
0.868162 0.766812 0.443610
0.924376 0.790005 0.578241
0.528801 0.831754 0.538170
0.534844 0.833371 0.535393
0.574884 0.834257 0.544396
0.639429 0.836790 0.565362
0.710811 0.840146 0.587213
0.783108 0.841581 0.578424
0.858915 0.843809 0.569879
0.933196 0.860319 0.613794
0.688197 0.902312 0.696132
0.691005 0.902922 0.695033
0.709407 0.904204 0.700069
0.745571 0.906401 0.716609
0.784970 0.907683 0.733211
0.829007 0.911620 0.745754
0.875547 0.915435 0.745907
0.925780 0.919341 0.745022
0.070588 0.082887 0.086671
0.087251 0.087678 0.095979
0.187289 0.096437 0.115877
0.339422 0.108919 0.145846
0.523125 0.111177 0.175814
0.687129 0.175784 0.214389
0.817685 0.292576 0.271122
0.914153 0.425208 0.359899
0.074098 0.108492 0.104555
0.104829 0.120333 0.114260
0.197940 0.137240 0.130800
0.348882 0.150088 0.154177
0.529778 0.164736 0.182956
0.688380 0.220768 0.220554
0.815885 0.322057 0.275669
0.911986 0.442878 0.364233
0.100465 0.216526 0.148867
0.128084 0.226474 0.152865
0.228336 0.249729 0.152895
0.386236 0.272435 0.183444
0.555657 0.298436 0.211063
0.703059 0.346319 0.247501
0.823362 0.422278 0.305364
0.914214 0.514855 0.397559
0.152621 0.390387 0.218051
0.166354 0.398474 0.210361
0.261082 0.420813 0.224002
0.431922 0.443153 0.207736
0.604944 0.466651 0.239109
0.725704 0.499672 0.301488
0.831479 0.545373 0.359319
0.913817 0.608148 0.451179
0.240940 0.580804 0.303960
0.248722 0.584710 0.293645
0.337682 0.595300 0.303960
0.473030 0.609064 0.310552
0.626459 0.615625 0.290074
0.759182 0.634852 0.324041
0.844327 0.662806 0.424933
0.914458 0.707179 0.531151
0.373602 0.723415 0.411017
0.380835 0.726070 0.404181
0.445106 0.731167 0.412085
0.546960 0.739834 0.436530
0.655360 0.744564 0.433326
0.766781 0.748074 0.418799
0.865354 0.764736 0.459022
0.921843 0.788296 0.586633
0.535271 0.826658 0.549248
0.539269 0.827451 0.544976
0.573602 0.829618 0.549371
0.638819 0.833188 0.571252
0.710811 0.837827 0.595880
0.781643 0.839353 0.586114
0.856474 0.841184 0.575799
0.930571 0.857664 0.617945
0.690364 0.899962 0.701289
0.693629 0.900786 0.700710
0.709560 0.902647 0.703365
0.745663 0.905058 0.719814
0.788602 0.908507 0.741176
0.830655 0.911894 0.752377
0.875364 0.914946 0.749996
0.924987 0.918425 0.747433
0.087984 0.106355 0.130343
0.102815 0.117220 0.130739
0.167178 0.126650 0.174136
0.354070 0.109834 0.211063
0.535241 0.097871 0.241520
0.691157 0.187594 0.290074
0.818112 0.299046 0.340612
0.912779 0.426886 0.417182
0.104250 0.135195 0.163485
0.127199 0.145937 0.165438
0.189731 0.154635 0.195010
0.362402 0.150820 0.222965
0.537163 0.164950 0.256199
0.692134 0.231357 0.295506
0.817258 0.328801 0.345037
0.911681 0.446693 0.422248
0.114290 0.211307 0.207828
0.146304 0.222171 0.217868
0.242679 0.250156 0.237491
0.395178 0.274327 0.261418
0.563439 0.303899 0.288090
0.705959 0.352758 0.321172
0.822171 0.424872 0.370794
0.911528 0.514885 0.448646
0.166262 0.385718 0.278233
0.204044 0.394446 0.287022
0.293248 0.418769 0.299229
0.445014 0.442176 0.294133
0.605280 0.469642 0.330846
0.727199 0.502983 0.371191
0.830838 0.548699 0.421118
0.911894 0.610376 0.498787
0.272526 0.572045 0.367620
0.306401 0.576287 0.374670
0.370855 0.591089 0.372900
0.492348 0.608362 0.388556
0.632837 0.615869 0.368353
0.756771 0.634821 0.403540
0.840574 0.666712 0.489387
0.911833 0.708675 0.570031
0.418280 0.715969 0.474403
0.442542 0.717525 0.480415
0.471229 0.725826 0.466651
0.561944 0.734310 0.487648
0.660182 0.741024 0.490425
0.765103 0.744839 0.474189
0.860227 0.762509 0.514672
0.918395 0.790372 0.627314
0.575616 0.821103 0.602930
0.579858 0.822171 0.599847
0.594049 0.826139 0.589563
0.650813 0.829770 0.605982
0.718288 0.835538 0.631891
0.784024 0.838163 0.623346
0.856596 0.841367 0.613855
0.928801 0.859037 0.655909
0.708705 0.896544 0.729397
0.710201 0.897124 0.727535
0.719295 0.899748 0.724239
0.751278 0.903410 0.736782
0.792386 0.907164 0.756039
0.833768 0.911406 0.769833
0.876585 0.914916 0.766934
0.925231 0.918853 0.763943
0.121798 0.146487 0.208133
0.141329 0.157748 0.209201
0.180667 0.193637 0.207767
0.304723 0.183780 0.291051
0.551568 0.134096 0.344060
0.698756 0.179263 0.374731
0.816739 0.266148 0.413123
0.906188 0.400580 0.483162
0.150057 0.180911 0.245762
0.168612 0.188907 0.243687
0.206607 0.217258 0.235416
0.325353 0.209476 0.307866
0.556512 0.181552 0.353063
0.699275 0.219852 0.380652
0.815640 0.293797 0.417090
0.905943 0.422248 0.487434
0.172641 0.248997 0.304387
0.202060 0.260197 0.312749
0.277653 0.286534 0.314733
0.388586 0.291539 0.356023
0.572503 0.297704 0.381415
0.707637 0.329473 0.405066
0.819821 0.412146 0.454566
0.908019 0.500694 0.513573
0.194156 0.373236 0.356939
0.224735 0.380865 0.363867
0.317601 0.404913 0.385687
0.459693 0.437964 0.407019
0.600336 0.462501 0.431189
0.722530 0.494057 0.456306
0.825345 0.539483 0.494972
0.907530 0.602472 0.556542
0.283848 0.561303 0.438087
0.314611 0.564538 0.443275
0.407630 0.577508 0.462470
0.516258 0.601068 0.481331
0.638819 0.612970 0.470588
0.751217 0.634607 0.509178
0.836118 0.666316 0.561761
0.908324 0.705898 0.619287
0.426978 0.709468 0.531273
0.452461 0.712795 0.538415
0.520195 0.717098 0.554528
0.587121 0.729244 0.561059
0.673793 0.740261 0.575586
0.766598 0.743893 0.556451
0.854398 0.761837 0.595361
0.913298 0.792844 0.682887
0.579461 0.816007 0.639704
0.593652 0.816648 0.644373
0.636500 0.818692 0.659113
0.668421 0.826596 0.656367
0.730129 0.833555 0.678676
0.789517 0.838193 0.678401
0.856321 0.841032 0.665431
0.925048 0.858824 0.704128
0.718654 0.894072 0.756741
0.725673 0.894408 0.759609
0.747127 0.895506 0.768368
0.758389 0.901183 0.761746
0.797024 0.905486 0.777798
0.838315 0.910918 0.795468
0.878141 0.914794 0.791318
0.925444 0.919127 0.787015
0.183780 0.208072 0.313237
0.202457 0.217716 0.312474
0.248814 0.247593 0.306584
0.287205 0.288365 0.305852
0.473152 0.259800 0.424353
0.712215 0.233616 0.496162
0.822507 0.317082 0.528527
0.908507 0.421485 0.573663
0.212222 0.239719 0.343633
0.229984 0.247593 0.341985
0.274052 0.271916 0.331945
0.307317 0.309575 0.321813
0.487190 0.283574 0.436439
0.714107 0.269871 0.501884
0.822507 0.343542 0.533074
0.907805 0.438117 0.576898
0.261753 0.315892 0.414191
0.288884 0.325994 0.416327
0.341100 0.341924 0.404730
0.376532 0.372198 0.379828
0.530724 0.358709 0.473976
0.716701 0.366217 0.518700
0.820981 0.417060 0.545953
0.904814 0.487160 0.586175
0.287816 0.412177 0.467140
0.314275 0.419043 0.472297
0.395697 0.442451 0.489296
0.486183 0.468421 0.488045
0.596735 0.472145 0.530694
0.723964 0.485756 0.548180
0.820676 0.513573 0.568658
0.901152 0.570550 0.611292
0.323308 0.541802 0.514549
0.348455 0.546227 0.519402
0.424323 0.559808 0.534325
0.527367 0.581079 0.557763
0.641505 0.605219 0.574182
0.739986 0.622583 0.596094
0.828000 0.646815 0.619501
0.903471 0.685359 0.659907
0.428107 0.692866 0.588159
0.449012 0.694636 0.591882
0.512047 0.699794 0.604181
0.600977 0.710353 0.627131
0.677638 0.728664 0.644068
0.764126 0.737697 0.634607
0.846036 0.758022 0.674037
0.908446 0.788174 0.727871
0.578485 0.807675 0.680842
0.590784 0.808042 0.683711
0.630335 0.809995 0.694179
0.687831 0.815152 0.712337
0.733120 0.826444 0.718868
0.792172 0.835599 0.731991
0.854673 0.838590 0.717128
0.920165 0.856107 0.751888
0.714229 0.889250 0.777646
0.720577 0.889494 0.779660
0.741329 0.890715 0.786557
0.775418 0.894957 0.800107
0.797391 0.902434 0.799405
0.839658 0.908904 0.817044
0.878691 0.913970 0.817838
0.924865 0.918212 0.811185
0.280430 0.293156 0.441535
0.297093 0.300847 0.439216
0.341527 0.324987 0.429480
0.386969 0.364355 0.411658
0.438025 0.388617 0.440192
0.627863 0.363989 0.562585
0.815030 0.391150 0.641138
0.908659 0.479316 0.678950
0.304814 0.319036 0.462409
0.319738 0.325078 0.459266
0.361791 0.345525 0.448341
0.404456 0.379950 0.427893
0.450111 0.403937 0.449683
0.634302 0.382330 0.569299
0.816831 0.409888 0.644221
0.907652 0.493202 0.681086
0.367041 0.395483 0.528283
0.381292 0.398749 0.524254
0.422827 0.412024 0.510613
0.465827 0.436347 0.487221
0.495674 0.459602 0.486488
0.660060 0.445655 0.596796
0.825589 0.472572 0.658198
0.905821 0.539483 0.690822
0.407813 0.490333 0.596155
0.428321 0.496162 0.599268
0.489174 0.508965 0.597009
0.548638 0.524712 0.580346
0.566217 0.543786 0.545495
0.699641 0.539361 0.640894
0.829465 0.562829 0.680293
0.904082 0.602960 0.705684
0.438727 0.581872 0.628901
0.457221 0.585290 0.631891
0.514488 0.596582 0.641688
0.594293 0.615991 0.657313
0.655543 0.628199 0.648646
0.738613 0.631983 0.684199
0.827848 0.643214 0.698207
0.900786 0.665553 0.717586
0.475532 0.685634 0.664729
0.492317 0.687404 0.667353
0.542046 0.693263 0.675807
0.611475 0.702815 0.689418
0.683680 0.715755 0.705989
0.766110 0.734615 0.720943
0.837705 0.747921 0.739254
0.904845 0.768521 0.761318
0.580987 0.798978 0.727626
0.593286 0.799985 0.730282
0.629938 0.802426 0.737942
0.683162 0.807706 0.751095
0.743313 0.816587 0.769100
0.796933 0.831846 0.783841
0.855161 0.837278 0.775174
0.916381 0.855192 0.806332
0.712825 0.884916 0.805539
0.718654 0.885161 0.806943
0.738247 0.886473 0.812100
0.769528 0.890105 0.821592
0.807462 0.895598 0.833951
0.838712 0.905486 0.839231
0.880766 0.913787 0.850156
0.925200 0.917815 0.841184
0.415961 0.405615 0.587884
0.430823 0.413214 0.587121
0.466865 0.432013 0.576562
0.509178 0.462257 0.556878
0.532586 0.498848 0.526177
0.598627 0.502373 0.588830
0.750057 0.488685 0.692653
0.886900 0.546380 0.763363
0.426215 0.419562 0.595270
0.439887 0.426184 0.594141
0.474464 0.442664 0.583459
0.514397 0.469032 0.562707
0.536584 0.502129 0.530938
0.596460 0.505211 0.586297
0.745571 0.490852 0.688045
0.883116 0.543664 0.757595
0.478279 0.484565 0.645411
0.488655 0.487495 0.642115
0.518853 0.497047 0.629389
0.556451 0.515496 0.608087
0.576989 0.538689 0.573693
0.620935 0.545892 0.609552
0.760189 0.539483 0.707271
0.889952 0.588708 0.771176
0.531182 0.569879 0.704982
0.542473 0.571954 0.702815
0.574975 0.578119 0.695338
0.613977 0.587701 0.676265
0.638849 0.600336 0.644099
0.661280 0.610651 0.648737
0.782376 0.609430 0.737026
0.898436 0.645777 0.787320
0.554253 0.642695 0.737758
0.564630 0.644129 0.737942
0.600977 0.651728 0.741176
0.652277 0.661433 0.740871
0.690394 0.663661 0.717220
0.696529 0.669520 0.680873
0.799374 0.672297 0.761044
0.902342 0.703059 0.800443
0.582147 0.716335 0.760250
0.592309 0.717647 0.761532
0.624750 0.721981 0.765774
0.673121 0.730190 0.773648
0.728115 0.741573 0.783658
0.771084 0.747829 0.774655
0.832181 0.753933 0.802670
0.903532 0.766018 0.817868
0.619928 0.796475 0.788876
0.629145 0.797604 0.790646
0.655421 0.798581 0.793271
0.695949 0.802731 0.800015
0.742580 0.808072 0.808255
0.794095 0.817197 0.819974
0.854551 0.832883 0.832609
0.909880 0.842741 0.844785
0.705287 0.876860 0.831876
0.710750 0.877317 0.832944
0.732753 0.880552 0.839048
0.762783 0.884123 0.846281
0.799832 0.889250 0.855863
0.842191 0.897490 0.868925
0.881834 0.910857 0.880186
0.925353 0.916411 0.875151
0.562158 0.537285 0.725093
0.571344 0.542351 0.723964
0.593774 0.553613 0.714351
0.627008 0.576013 0.700191
0.653590 0.602441 0.676905
0.659236 0.630152 0.642237
0.731350 0.620630 0.726955
0.838193 0.614374 0.799283
0.567041 0.545922 0.729183
0.575860 0.550530 0.727962
0.598474 0.561456 0.719081
0.629816 0.580835 0.703822
0.656123 0.605585 0.680598
0.661860 0.631830 0.645747
0.729824 0.622583 0.725338
0.836820 0.616510 0.798001
0.590326 0.582025 0.751369
0.597742 0.585016 0.749630
0.617182 0.591089 0.739620
0.651362 0.610254 0.728664
0.675593 0.628260 0.704585
0.680537 0.647822 0.668482
0.736507 0.643153 0.732570
0.840665 0.639643 0.804257
0.625391 0.640253 0.787167
0.631983 0.641840 0.786404
0.648493 0.643153 0.778439
0.678981 0.653132 0.765682
0.705562 0.665675 0.744472
0.714656 0.679500 0.711299
0.751675 0.680629 0.749081
0.850065 0.680415 0.818265
0.648035 0.701534 0.821439
0.655695 0.702998 0.821256
0.675013 0.703548 0.817105
0.704158 0.705623 0.808957
0.733120 0.708858 0.789914
0.749966 0.715999 0.760281
0.768246 0.722835 0.766293
0.863157 0.730678 0.837095
0.671748 0.757809 0.837552
0.676448 0.757870 0.837400
0.693782 0.759304 0.837858
0.723476 0.763790 0.840330
0.760678 0.769192 0.840726
0.792294 0.771206 0.823728
0.800595 0.779782 0.797238
0.881987 0.789578 0.862516
0.706722 0.820493 0.858518
0.710719 0.820584 0.858671
0.725124 0.821317 0.859739
0.751003 0.824338 0.863127
0.785794 0.829831 0.868650
0.827604 0.839750 0.877226
0.856565 0.840360 0.867918
0.901122 0.844602 0.886320
0.742641 0.881437 0.880095
0.745510 0.881376 0.880217
0.756832 0.881895 0.881376
0.777646 0.883818 0.884398
0.805417 0.885924 0.888029
0.838590 0.890471 0.894102
0.876371 0.897642 0.902434
0.921782 0.909453 0.912291
