data/fiter_cube/44540723/1023232/file.cube
# Created by Adobe Lightroom plugin Export LUT (1.17.0)
# www.johnrellis.com/lightroom/exportlut.htm
# Preset: 奶油色调低饱和（弱光环境）_03 云集
# Color profile: C:\Program Files (x86)\Common Files\Adobe\Color\Profiles\Recommended\AdobeRGB1998.icc
LUT_3D_SIZE 5
DOMAIN_MIN 0.000000 0.000000 0.000000
DOMAIN_MAX 0.903226 0.903226 0.903226
0.061189 0.072267 0.068635
0.155459 0.089845 0.086213
0.431647 0.077241 0.123873
0.733516 0.195560 0.200168
0.919341 0.429908 0.346471
0.078920 0.185336 0.106264
0.185611 0.212161 0.105196
0.463203 0.239872 0.154391
0.742031 0.331640 0.227390
0.920684 0.502708 0.379583
0.152682 0.496498 0.221927
0.252110 0.512169 0.229923
0.546532 0.546929 0.219730
0.775753 0.583917 0.318944
0.918090 0.662684 0.481727
0.400153 0.760647 0.425757
0.456214 0.765225 0.430426
0.619287 0.774868 0.467567
0.794919 0.776547 0.441901
0.926482 0.807706 0.586267
0.688197 0.902312 0.696132
0.702449 0.903899 0.697230
0.762203 0.905730 0.721126
0.840146 0.912566 0.745815
0.925780 0.919341 0.745022
0.082185 0.099306 0.116121
0.140902 0.114565 0.149386
0.439490 0.097841 0.205020
0.722927 0.210208 0.278386
0.912047 0.424994 0.398505
0.101106 0.179629 0.176425
0.199344 0.210605 0.201205
0.468574 0.250370 0.242618
0.733150 0.333989 0.302159
0.912383 0.495369 0.424933
0.209995 0.484657 0.304143
0.290837 0.503075 0.307378
0.541466 0.533501 0.302800
0.765042 0.580133 0.392218
0.913298 0.661402 0.521233
0.458350 0.751553 0.496498
0.482704 0.759182 0.482521
0.630884 0.771054 0.522240
0.793179 0.773922 0.493904
0.922393 0.807889 0.623743
0.705470 0.898741 0.723262
0.714321 0.901122 0.719936
0.770657 0.905913 0.742000
0.843717 0.912840 0.765042
0.925994 0.919707 0.761440
0.149538 0.175143 0.258457
0.202335 0.208103 0.256138
0.388464 0.218723 0.356878
0.736599 0.223423 0.442329
0.908629 0.397528 0.520226
0.209598 0.261631 0.344823
0.274418 0.284306 0.338933
0.445045 0.298985 0.402319
0.738979 0.328527 0.461067
0.905913 0.459876 0.536828
0.252567 0.459876 0.436133
0.341375 0.478614 0.454383
0.558984 0.526604 0.492317
0.756313 0.567834 0.533410
0.905150 0.645472 0.610132
0.466835 0.734279 0.584710
0.527245 0.737453 0.597589
0.651820 0.756222 0.624811
0.791196 0.768917 0.619104
0.912718 0.808042 0.713405
0.715480 0.891356 0.765560
0.737697 0.892790 0.774197
0.777188 0.901518 0.779782
0.848356 0.911070 0.807309
0.924743 0.918212 0.797574
0.308934 0.316808 0.474434
0.356115 0.340337 0.466102
0.426978 0.406744 0.430854
0.660945 0.392859 0.595666
0.907958 0.492317 0.701961
0.375189 0.392523 0.536645
0.416571 0.406592 0.524559
0.482155 0.453773 0.482795
0.680507 0.449836 0.617578
0.905333 0.535546 0.709194
0.449500 0.548791 0.639277
0.505913 0.563134 0.647883
0.611658 0.584802 0.629541
0.729152 0.588495 0.675227
0.901152 0.639948 0.730953
0.515953 0.718257 0.700954
0.558556 0.720790 0.705806
0.664698 0.734859 0.726345
0.790524 0.761440 0.752102
0.905241 0.787015 0.783047
0.711971 0.883482 0.812589
0.731624 0.884947 0.817594
0.786984 0.891661 0.833707
0.850004 0.907103 0.850156
0.925200 0.917479 0.849058
0.562158 0.537285 0.725093
0.586755 0.549767 0.717220
0.642176 0.589014 0.689998
0.667140 0.631983 0.653040
0.838193 0.614374 0.799283
0.585473 0.572930 0.745937
0.607813 0.581842 0.738155
0.659632 0.611719 0.711086
0.676081 0.647486 0.659388
0.840482 0.634424 0.803555
0.634821 0.667811 0.803647
0.655299 0.670405 0.798917
0.704189 0.678920 0.775479
0.727047 0.695705 0.720607
0.855436 0.703243 0.826169
0.683436 0.775631 0.844419
0.699306 0.776547 0.844846
0.750546 0.783963 0.849699
0.808286 0.788205 0.834073
0.885801 0.802274 0.867582
0.742641 0.881437 0.880095
0.753079 0.881651 0.880888
0.790829 0.884916 0.886229
0.847593 0.891997 0.895964
0.921782 0.909453 0.912291
