data/fiter_cube/39179523/1023428/file.cube
# Created by Adobe Lightroom plugin Export LUT (1.17.0)
# www.johnrellis.com/lightroom/exportlut.htm
# Preset: 日系大师人物肖像_02 云集
# Color profile: C:\Program Files (x86)\Common Files\Adobe\Color\Profiles\Recommended\AdobeRGB1998.icc
LUT_3D_SIZE 8
DOMAIN_MIN 0.000000 0.000000 0.000000
DOMAIN_MAX 0.903226 0.903226 0.903226
0.032715 0.042115 0.048249
0.101228 0.013275 0.046509
0.208835 0.000000 0.029633
0.338811 0.000000 0.000000
0.501610 0.000000 0.000000
0.709224 0.000000 0.000000
0.886229 0.000000 0.000000
1.000000 0.000000 0.000000
0.007416 0.105196 0.034333
0.096437 0.104677 0.029847
0.203281 0.100404 0.011170
0.330907 0.098268 0.000397
0.491493 0.078676 0.000000
0.694148 0.000000 0.000000
0.874052 0.000000 0.000000
0.995300 0.000000 0.000000
0.000000 0.215152 0.007660
0.087800 0.214298 0.009369
0.199252 0.212222 0.013825
0.329473 0.223728 0.000000
0.497047 0.238163 0.000000
0.700832 0.243961 0.000000
0.885466 0.221683 0.000000
0.999725 0.169467 0.000000
0.000000 0.349248 0.000000
0.041505 0.348028 0.000000
0.205509 0.348486 0.000000
0.342962 0.361608 0.000000
0.522057 0.394568 0.000000
0.715297 0.412360 0.000000
0.883574 0.402136 0.000000
0.995056 0.365820 0.000000
0.000000 0.526360 0.000000
0.000000 0.525750 0.000000
0.204837 0.527214 0.000000
0.365026 0.534051 0.000000
0.515770 0.535729 0.000000
0.699336 0.558099 0.000000
0.870695 0.557641 0.000000
0.987671 0.523949 0.000000
0.000000 0.717800 0.000000
0.000000 0.724788 0.000000
0.169863 0.723842 0.000000
0.371984 0.723415 0.000000
0.539666 0.720882 0.000000
0.704463 0.719509 0.000000
0.868650 0.714412 0.000000
0.982483 0.674495 0.000000
0.000000 0.881804 0.000000
0.000000 0.882444 0.000000
0.000000 0.879149 0.000000
0.343420 0.875669 0.000000
0.522332 0.869596 0.000000
0.687892 0.863615 0.000000
0.848905 0.855619 0.000000
0.971496 0.817258 0.000000
0.000000 0.982055 0.000000
0.000000 0.981292 0.000000
0.000000 0.979248 0.000000
0.292973 0.976471 0.000000
0.475166 0.966278 0.000000
0.637293 0.959564 0.000000
0.791135 0.950927 0.000000
0.938598 0.938048 0.000000
0.000000 0.041596 0.108095
0.094057 0.011414 0.108980
0.198825 0.000000 0.112337
0.327764 0.000000 0.108186
0.488258 0.000000 0.101137
0.687098 0.000000 0.080812
0.868711 0.000000 0.015595
0.992065 0.000000 0.000000
0.000000 0.102449 0.108461
0.091127 0.101778 0.108797
0.197116 0.097932 0.108919
0.325170 0.083772 0.106844
0.484352 0.000000 0.098848
0.680476 0.000000 0.075868
0.859770 0.000000 0.000000
0.986633 0.000000 0.000000
0.000000 0.209781 0.113832
0.076387 0.210086 0.108125
0.194919 0.209262 0.107729
0.323339 0.216464 0.103792
0.486152 0.224674 0.090730
0.682185 0.222995 0.052583
0.864195 0.195346 0.000000
0.989593 0.138521 0.000000
0.000000 0.341222 0.113771
0.000000 0.341924 0.097230
0.196597 0.343999 0.096315
0.328801 0.347784 0.093690
0.492622 0.370428 0.069795
0.683375 0.388800 0.000000
0.861112 0.383856 0.000000
0.985229 0.352819 0.000000
0.000000 0.520073 0.086946
0.000000 0.519066 0.028016
0.187533 0.517998 0.015747
0.349859 0.518853 0.000000
0.497475 0.517967 0.000000
0.682399 0.542931 0.000000
0.859464 0.546715 0.000000
0.981689 0.516136 0.000000
0.000000 0.707942 0.000000
0.000000 0.708431 0.000000
0.136904 0.708339 0.000000
0.356634 0.710475 0.000000
0.528923 0.711543 0.000000
0.698238 0.713863 0.000000
0.863584 0.708949 0.000000
0.978454 0.669398 0.000000
0.000000 0.872679 0.000000
0.000000 0.870848 0.000000
0.000000 0.869017 0.000000
0.328893 0.868223 0.000000
0.514000 0.864591 0.000000
0.681270 0.858518 0.000000
0.842130 0.849485 0.000000
0.965972 0.811856 0.000000
0.000000 0.979126 0.000000
0.000000 0.978882 0.000000
0.000000 0.977173 0.000000
0.280888 0.974670 0.000000
0.472633 0.969055 0.000000
0.635615 0.960571 0.000000
0.789151 0.950134 0.000000
0.936675 0.936461 0.000000
0.000000 0.028748 0.219333
0.075319 0.000000 0.219821
0.191958 0.000000 0.220371
0.324681 0.000000 0.236118
0.489113 0.000000 0.245335
0.695796 0.000000 0.239475
0.877256 0.000000 0.213626
0.996307 0.000000 0.206699
0.000000 0.104433 0.219394
0.069245 0.099580 0.219608
0.190341 0.093324 0.219730
0.322026 0.055604 0.230472
0.487251 0.000000 0.235325
0.690425 0.000000 0.218265
0.870878 0.000000 0.209354
0.993347 0.000000 0.203006
0.000000 0.209110 0.220523
0.028931 0.208927 0.220890
0.185885 0.206821 0.220432
0.322026 0.201968 0.220157
0.495399 0.190005 0.220066
0.691981 0.154330 0.213504
0.869505 0.073152 0.204105
0.990997 0.000000 0.197971
0.000000 0.341253 0.235447
0.000000 0.342473 0.232090
0.170657 0.347082 0.218997
0.327184 0.349615 0.220035
0.499458 0.363897 0.216922
0.693263 0.370092 0.206058
0.868925 0.356359 0.195010
0.988312 0.323705 0.190585
0.000000 0.516472 0.252140
0.000000 0.517845 0.243442
0.119295 0.521263 0.207492
0.335180 0.523919 0.206058
0.501061 0.523552 0.202487
0.688563 0.538964 0.188174
0.862455 0.534356 0.177981
0.982635 0.501884 0.177340
0.000000 0.705898 0.249821
0.000000 0.707118 0.234836
0.000000 0.708553 0.176883
0.323186 0.707973 0.173037
0.513207 0.707271 0.167086
0.690944 0.708125 0.159823
0.860624 0.701289 0.150637
0.978332 0.662409 0.164645
0.000000 0.873899 0.225101
0.000000 0.873320 0.205417
0.000000 0.871611 0.138979
0.287938 0.868315 0.134157
0.495338 0.863554 0.127169
0.673304 0.858152 0.120363
0.842863 0.851133 0.114778
0.968414 0.811429 0.133944
0.000000 0.979034 0.184970
0.000000 0.978393 0.166201
0.000000 0.976623 0.136538
0.243778 0.974975 0.143862
0.456367 0.968963 0.140963
0.627375 0.960815 0.138003
0.785580 0.950500 0.136416
0.936431 0.937041 0.131655
0.000000 0.000000 0.351507
0.000000 0.000000 0.353491
0.191928 0.000000 0.354742
0.315038 0.000000 0.356207
0.483223 0.000000 0.388556
0.683833 0.000000 0.412909
0.864103 0.000000 0.405463
0.989166 0.000000 0.373693
0.000000 0.096223 0.356085
0.000000 0.093172 0.356512
0.187167 0.078767 0.356664
0.315618 0.013916 0.357610
0.485084 0.000000 0.386938
0.681910 0.000000 0.405676
0.861875 0.000000 0.396307
0.988403 0.000000 0.366186
0.000000 0.219486 0.355932
0.000000 0.214878 0.356451
0.162295 0.200687 0.357061
0.314427 0.192569 0.359045
0.490730 0.161105 0.379950
0.692561 0.000000 0.388891
0.874815 0.000000 0.377478
0.991547 0.000000 0.360174
0.000000 0.344274 0.361059
0.000000 0.344640 0.361700
0.138705 0.345251 0.363317
0.312596 0.343420 0.364294
0.491981 0.336889 0.364080
0.689784 0.321111 0.361425
0.867277 0.298375 0.358129
0.986816 0.276860 0.355962
0.000000 0.516686 0.394965
0.000000 0.516106 0.391485
0.000000 0.518181 0.381353
0.295842 0.524498 0.362432
0.496101 0.523461 0.362036
0.691890 0.526940 0.359258
0.865080 0.513542 0.355535
0.981537 0.482429 0.353368
0.000000 0.709407 0.416815
0.000000 0.715267 0.414160
0.000000 0.714778 0.391363
0.256535 0.716823 0.351202
0.495155 0.714534 0.349432
0.690303 0.710414 0.346990
0.860990 0.693843 0.346136
0.975616 0.653193 0.353491
0.000000 0.872557 0.409125
0.000000 0.873442 0.402228
0.000000 0.874846 0.377050
0.206760 0.874998 0.340764
0.469459 0.869535 0.338781
0.663722 0.861692 0.336584
0.841001 0.851438 0.335119
0.965637 0.806851 0.340673
0.000000 0.979980 0.380255
0.000000 0.980041 0.374212
0.000000 0.979034 0.353674
0.185183 0.975555 0.347692
0.435554 0.969177 0.346075
0.616541 0.960693 0.345098
0.780209 0.950195 0.346532
0.934356 0.936828 0.347173
0.000000 0.000000 0.516655
0.000000 0.000000 0.518090
0.185397 0.000000 0.518761
0.333410 0.000000 0.520989
0.479805 0.000000 0.528801
0.676967 0.000000 0.567681
0.855863 0.000000 0.571923
0.980926 0.000000 0.542535
0.000000 0.081941 0.519432
0.000000 0.075105 0.521721
0.173037 0.016815 0.521996
0.329870 0.000000 0.521904
0.480079 0.000000 0.529564
0.677699 0.000000 0.565942
0.856474 0.000000 0.568597
0.980926 0.000000 0.538994
0.000000 0.222110 0.522545
0.000000 0.212345 0.523491
0.106752 0.192142 0.523095
0.317266 0.176211 0.527001
0.478553 0.143526 0.529442
0.673976 0.000000 0.554925
0.854795 0.000000 0.554650
0.979126 0.000000 0.526055
0.000000 0.368994 0.527428
0.000000 0.365820 0.527794
0.000000 0.354406 0.530266
0.285588 0.333410 0.533074
0.479133 0.321630 0.533623
0.678767 0.290867 0.544457
0.857633 0.246189 0.537133
0.978790 0.217472 0.515892
0.000000 0.515129 0.533745
0.000000 0.515465 0.534295
0.000000 0.514855 0.534356
0.259739 0.513481 0.534844
0.470253 0.506584 0.532097
0.676265 0.496681 0.530114
0.853300 0.484138 0.528557
0.971252 0.472145 0.526635
0.000000 0.694026 0.559411
0.000000 0.694575 0.557641
0.000000 0.694392 0.549615
0.192905 0.696651 0.536675
0.444617 0.697444 0.519341
0.671992 0.697688 0.524865
0.850278 0.681971 0.532280
0.965270 0.649928 0.534112
0.000000 0.867063 0.566583
0.000000 0.866636 0.562799
0.000000 0.866606 0.550530
0.095491 0.867399 0.531334
0.432044 0.864591 0.521721
0.646052 0.856962 0.521691
0.831571 0.845914 0.520989
0.954864 0.800504 0.521996
0.000000 0.975402 0.534997
0.000000 0.975067 0.531365
0.000000 0.974060 0.519615
0.000000 0.973907 0.509880
0.432227 0.965667 0.531334
0.613062 0.957214 0.530297
0.775937 0.946746 0.531365
0.928130 0.933684 0.532036
0.000000 0.000000 0.708919
0.000000 0.000000 0.709285
0.164767 0.000000 0.707881
0.350103 0.000000 0.709621
0.513542 0.000000 0.715480
0.674067 0.000000 0.717098
0.848783 0.000000 0.724208
0.972137 0.000000 0.692592
0.000000 0.012238 0.704982
0.000000 0.000000 0.704860
0.136843 0.000000 0.704921
0.341283 0.000000 0.708156
0.507591 0.000000 0.712001
0.670680 0.000000 0.714137
0.847105 0.000000 0.721462
0.971313 0.000000 0.690059
0.000000 0.196536 0.710201
0.000000 0.190341 0.710567
0.000000 0.177432 0.712520
0.314519 0.148135 0.714992
0.499153 0.073518 0.715633
0.672145 0.000000 0.716243
0.848508 0.000000 0.717617
0.971313 0.000000 0.684352
0.000000 0.385260 0.717464
0.000000 0.378088 0.716823
0.000000 0.353399 0.718288
0.250370 0.325994 0.723964
0.485451 0.308049 0.725551
0.679438 0.276921 0.724788
0.853086 0.233463 0.714382
0.971008 0.203983 0.679652
0.000000 0.544182 0.714443
0.000000 0.542016 0.714870
0.000000 0.533410 0.716030
0.177096 0.517082 0.718227
0.446204 0.495583 0.718685
0.667536 0.482216 0.717342
0.844175 0.471107 0.704555
0.961089 0.470039 0.683589
0.000000 0.699763 0.712734
0.000000 0.701472 0.714473
0.000000 0.701534 0.715023
0.081636 0.700404 0.715206
0.421729 0.695827 0.713771
0.656947 0.689876 0.713588
0.834836 0.684810 0.715480
0.947570 0.678676 0.715358
0.000000 0.866484 0.718624
0.000000 0.867552 0.718196
0.000000 0.867613 0.713802
0.000000 0.867094 0.706661
0.407294 0.862547 0.701595
0.647944 0.852323 0.711757
0.823880 0.842802 0.711482
0.939391 0.811246 0.715084
0.000000 0.973846 0.681758
0.000000 0.973449 0.679744
0.000000 0.972290 0.673213
0.000000 0.970367 0.666011
0.395422 0.963226 0.672023
0.642756 0.949584 0.711543
0.786007 0.941070 0.713405
0.921477 0.930419 0.713985
0.000000 0.000000 0.858335
0.000000 0.000000 0.858854
0.105928 0.000000 0.859525
0.338842 0.000000 0.860990
0.508324 0.000000 0.861173
0.670954 0.000000 0.861021
0.835416 0.000000 0.860868
0.958068 0.000000 0.826841
0.000000 0.000000 0.857450
0.000000 0.000000 0.858061
0.000000 0.000000 0.858885
0.327245 0.000000 0.859495
0.502312 0.000000 0.859709
0.667414 0.000000 0.859495
0.833280 0.000000 0.859098
0.956695 0.000000 0.824887
0.000000 0.173953 0.860899
0.000000 0.169314 0.860960
0.000000 0.151217 0.860899
0.286900 0.107393 0.861021
0.485145 0.000000 0.860655
0.660945 0.000000 0.860410
0.834348 0.000000 0.860441
0.957549 0.000000 0.823056
0.000000 0.360754 0.862272
0.000000 0.351781 0.862058
0.000000 0.320043 0.862669
0.193210 0.303014 0.862821
0.453803 0.280308 0.862394
0.649744 0.244450 0.862150
0.834958 0.182162 0.861906
0.956756 0.134432 0.819638
0.000000 0.533318 0.859373
0.000000 0.529198 0.859281
0.000000 0.514824 0.859678
0.000000 0.489998 0.860868
0.411139 0.473091 0.860868
0.633234 0.460700 0.859953
0.829282 0.444770 0.858885
0.949920 0.446571 0.818967
0.000000 0.694789 0.856840
0.000000 0.693202 0.856992
0.000000 0.687648 0.857481
0.000000 0.678157 0.858305
0.390021 0.670344 0.858274
0.635859 0.674952 0.856779
0.821775 0.669642 0.855589
0.936461 0.673091 0.830838
0.000000 0.853361 0.854551
0.000000 0.853483 0.854765
0.000000 0.853178 0.854948
0.000000 0.852171 0.855100
0.372107 0.848600 0.854215
0.631098 0.842161 0.852567
0.812253 0.834592 0.850706
0.922484 0.829923 0.850492
0.000000 0.970611 0.820706
0.000000 0.970520 0.819944
0.000000 0.970367 0.817777
0.000000 0.967926 0.814206
0.369451 0.960235 0.814847
0.631220 0.946960 0.826902
0.808652 0.933593 0.849882
0.915923 0.926970 0.849851
0.000000 0.000000 0.954467
0.000000 0.000000 0.954589
0.000000 0.000000 0.954376
0.299596 0.000000 0.954376
0.471534 0.000000 0.954131
0.629725 0.000000 0.953704
0.786221 0.000000 0.953155
0.945037 0.000000 0.952056
0.000000 0.000000 0.954253
0.000000 0.000000 0.954345
0.000000 0.000000 0.954223
0.287144 0.000000 0.954070
0.465492 0.000000 0.953826
0.626429 0.000000 0.953338
0.784421 0.000000 0.952636
0.944305 0.000000 0.951507
0.000000 0.143099 0.954406
0.000000 0.138003 0.954406
0.000000 0.115114 0.954070
0.240543 0.032868 0.954253
0.445167 0.000000 0.953796
0.615747 0.000000 0.953033
0.779599 0.000000 0.952209
0.943389 0.000000 0.951049
0.000000 0.308293 0.954162
0.000000 0.302647 0.954345
0.000000 0.292210 0.954131
0.126741 0.279179 0.953918
0.410620 0.256840 0.953399
0.598840 0.220340 0.952575
0.772000 0.156100 0.951537
0.941741 0.000000 0.950164
0.000000 0.487282 0.951324
0.000000 0.483009 0.951568
0.000000 0.468055 0.951904
0.000000 0.445930 0.952361
0.376226 0.448249 0.951049
0.583825 0.437568 0.949889
0.764950 0.425177 0.948486
0.936248 0.412024 0.946838
0.000000 0.646723 0.947601
0.000000 0.644343 0.947570
0.000000 0.636408 0.947662
0.000000 0.625147 0.947753
0.357855 0.627283 0.946654
0.609583 0.653254 0.943877
0.774380 0.654047 0.942748
0.927062 0.654780 0.941222
0.000000 0.798917 0.943297
0.000000 0.797879 0.943297
0.000000 0.794278 0.943267
0.000000 0.789639 0.943145
0.344396 0.790341 0.941924
0.619562 0.803952 0.939025
0.801236 0.825589 0.935973
0.916991 0.823850 0.934966
0.000000 0.947845 0.938323
0.000000 0.947662 0.938262
0.000000 0.947082 0.938109
0.000000 0.945556 0.937804
0.335332 0.941802 0.936736
0.620966 0.935515 0.934936
0.803159 0.928801 0.933257
0.911864 0.923705 0.932128
