data/fiter_cube/39179523/1023428/file.cube
# Created by Adobe Lightroom plugin Export LUT (1.17.0)
# www.johnrellis.com/lightroom/exportlut.htm
# Preset: 日系大师人物肖像_02 云集
# Color profile: C:\Program Files (x86)\Common Files\Adobe\Color\Profiles\Recommended\AdobeRGB1998.icc
LUT_3D_SIZE 5
DOMAIN_MIN 0.000000 0.000000 0.000000
DOMAIN_MAX 0.903226 0.903226 0.903226
0.032715 0.042115 0.048249
0.180423 0.000000 0.036286
0.415778 0.000000 0.000000
0.760555 0.000000 0.000000
1.000000 0.000000 0.000000
0.000000 0.186862 0.003998
0.172396 0.183841 0.011383
0.407172 0.198215 0.000000
0.754849 0.195315 0.000000
1.000000 0.084962 0.000000
0.000000 0.431952 0.000000
0.169375 0.431830 0.000000
0.428443 0.448371 0.000000
0.752743 0.487465 0.000000
0.990936 0.446509 0.000000
0.000000 0.768490 0.000000
0.000000 0.769406 0.000000
0.457252 0.767605 0.000000
0.747189 0.760189 0.000000
0.979797 0.710536 0.000000
0.000000 0.982055 0.000000
0.000000 0.979797 0.000000
0.387274 0.969116 0.000000
0.676448 0.957733 0.000000
0.938598 0.938048 0.000000
0.000000 0.035401 0.188022
0.165042 0.000000 0.189761
0.401068 0.000000 0.206912
0.738094 0.000000 0.181857
0.992645 0.000000 0.164889
0.000000 0.180209 0.190402
0.160159 0.178439 0.190402
0.400092 0.164492 0.187991
0.736416 0.079164 0.175631
0.991394 0.000000 0.159365
0.000000 0.423926 0.211795
0.111818 0.426001 0.180789
0.406531 0.428595 0.178073
0.734279 0.460151 0.152438
0.987182 0.424323 0.139773
0.000000 0.763851 0.199802
0.000000 0.767025 0.119173
0.434211 0.764309 0.107240
0.741329 0.755642 0.076967
0.977478 0.703090 0.093538
0.000000 0.981659 0.118990
0.000000 0.979919 0.061524
0.368353 0.973053 0.055146
0.670985 0.959411 0.026642
0.938384 0.938598 0.013703
0.000000 0.000000 0.430396
0.152743 0.000000 0.431891
0.389288 0.000000 0.435523
0.729549 0.000000 0.495308
0.985229 0.000000 0.461524
0.000000 0.188724 0.435340
0.098421 0.167636 0.435981
0.393042 0.136080 0.441230
0.729183 0.000000 0.479744
0.986297 0.000000 0.447517
0.000000 0.425208 0.443641
0.000000 0.424628 0.443763
0.385870 0.420264 0.443946
0.732387 0.402258 0.442176
0.980591 0.375250 0.439612
0.000000 0.751797 0.495216
0.000000 0.750607 0.479683
0.346410 0.756039 0.434485
0.728450 0.748379 0.433967
0.967681 0.686793 0.436500
0.000000 0.976715 0.458534
0.000000 0.976867 0.444190
0.317082 0.971221 0.437415
0.653407 0.956420 0.434058
0.930724 0.934661 0.434485
0.000000 0.000000 0.746426
0.060731 0.000000 0.747677
0.432959 0.000000 0.753567
0.716426 0.000000 0.755947
0.967651 0.000000 0.726375
0.000000 0.153414 0.748409
0.000000 0.135531 0.749783
0.412909 0.000000 0.753323
0.713069 0.000000 0.753414
0.965728 0.000000 0.719570
0.000000 0.460945 0.750515
0.000000 0.444465 0.751339
0.329656 0.394507 0.753567
0.708553 0.357183 0.752255
0.962005 0.329808 0.710689
0.000000 0.746304 0.756374
0.000000 0.744015 0.754726
0.260380 0.741451 0.754788
0.699825 0.730556 0.752712
0.939666 0.718502 0.751278
0.000000 0.973083 0.717067
0.000000 0.972503 0.712062
0.220829 0.967590 0.705135
0.692714 0.945739 0.753872
0.919524 0.929198 0.752163
0.000000 0.000000 0.954467
0.000000 0.000000 0.954437
0.388800 0.000000 0.954314
0.668818 0.000000 0.953582
0.945037 0.000000 0.952056
0.000000 0.093690 0.954528
0.000000 0.047272 0.954406
0.360998 0.000000 0.954131
0.659907 0.000000 0.953033
0.943969 0.000000 0.951385
0.000000 0.401434 0.952880
0.000000 0.380499 0.953307
0.263401 0.359472 0.952667
0.634058 0.322820 0.950958
0.939513 0.263737 0.948821
0.000000 0.685634 0.946929
0.000000 0.679164 0.946960
0.143923 0.666377 0.946654
0.663935 0.702266 0.941650
0.924346 0.704585 0.939544
0.000000 0.947845 0.938323
0.000000 0.947265 0.938170
0.000000 0.944060 0.937377
0.675013 0.933745 0.934447
0.911864 0.923705 0.932128
