data/fiter_cube/39179523/1023428/file.cube
# Created by Adobe Lightroom plugin Export LUT (1.17.0)
# www.johnrellis.com/lightroom/exportlut.htm
# Preset: 日系大师人物肖像_02 云集
# Color profile: C:\Program Files (x86)\Common Files\Adobe\Color\Profiles\Recommended\AdobeRGB1998.icc
LUT_3D_SIZE 32
DOMAIN_MIN 0.0 0.0 0.0
DOMAIN_MAX 1.0 1.0 1.0
0.032715 0.042115 0.048249
0.032715 0.042115 0.048249
0.034089 0.041901 0.048249
0.074495 0.030060 0.047547
0.101228 0.013275 0.046509
0.126986 0.000000 0.044800
0.153506 0.000000 0.041291
0.180423 0.000000 0.036286
0.208835 0.000000 0.029633
0.238346 0.000000 0.021241
0.269902 0.000000 0.010590
0.303410 0.000000 0.001984
0.338811 0.000000 0.000000
0.376287 0.000000 0.000000
0.415778 0.000000 0.000000
0.457496 0.000000 0.000000
0.501610 0.000000 0.000000
0.548150 0.000000 0.000000
0.595636 0.000000 0.000000
0.653834 0.000000 0.000000
0.709224 0.000000 0.000000
0.760555 0.000000 0.000000
0.806973 0.000000 0.000000
0.848753 0.000000 0.000000
0.886229 0.000000 0.000000
0.919738 0.000000 0.000000
0.949615 0.000000 0.000000
0.976349 0.000000 0.000000
1.000000 0.000000 0.000000
1.000000 0.000000 0.000000
1.000000 0.000000 0.000000
1.000000 0.000000 0.000000
0.032715 0.042115 0.048249
0.032715 0.042115 0.048249
0.035431 0.041657 0.048249
0.074952 0.029816 0.047547
0.101106 0.016907 0.046204
0.126589 0.009216 0.043366
0.152712 0.000610 0.039551
0.179446 0.000000 0.034455
0.207645 0.000000 0.027863
0.237095 0.000000 0.019409
0.268467 0.000000 0.008942
0.301610 0.000000 0.001740
0.336706 0.000000 0.000000
0.373938 0.000000 0.000000
0.413092 0.000000 0.000000
0.454414 0.000000 0.000000
0.498177 0.000000 0.000000
0.544488 0.000000 0.000000
0.592493 0.000000 0.000000
0.649226 0.000000 0.000000
0.703761 0.000000 0.000000
0.754849 0.000000 0.000000
0.801419 0.000000 0.000000
0.843656 0.000000 0.000000
0.881621 0.000000 0.000000
0.915770 0.000000 0.000000
0.946349 0.000000 0.000000
0.973632 0.000000 0.000000
0.998230 0.000000 0.000000
1.000000 0.000000 0.000000
1.000000 0.000000 0.000000
1.000000 0.000000 0.000000
0.032227 0.045716 0.048035
0.031739 0.048707 0.047822
0.036652 0.050752 0.047578
0.074372 0.051057 0.045960
0.100465 0.047669 0.043763
0.125826 0.040497 0.040925
0.151766 0.032319 0.037140
0.178531 0.024781 0.032074
0.206455 0.018647 0.025452
0.235874 0.013397 0.016999
0.267002 0.009155 0.006409
0.300237 0.000000 0.001404
0.335241 0.000000 0.000000
0.372412 0.000000 0.000000
0.411353 0.000000 0.000000
0.452613 0.000000 0.000000
0.496162 0.000000 0.000000
0.542229 0.000000 0.000000
0.591028 0.000000 0.000000
0.646815 0.000000 0.000000
0.700954 0.000000 0.000000
0.751949 0.000000 0.000000
0.798550 0.000000 0.000000
0.840940 0.000000 0.000000
0.879179 0.000000 0.000000
0.913634 0.000000 0.000000
0.944518 0.000000 0.000000
0.972137 0.000000 0.000000
0.996979 0.000000 0.000000
1.000000 0.000000 0.000000
1.000000 0.000000 0.000000
1.000000 0.000000 0.000000
0.021637 0.079652 0.042420
0.021149 0.080720 0.042145
0.034211 0.081117 0.041688
0.072786 0.080659 0.040070
0.099184 0.078309 0.038148
0.124910 0.075685 0.035431
0.150790 0.073457 0.031556
0.177401 0.071534 0.026429
0.205386 0.069947 0.019715
0.234714 0.068666 0.011231
0.265751 0.067720 0.003845
0.298680 0.064515 0.002106
0.333562 0.060853 0.000000
0.370428 0.050996 0.000000
0.409308 0.030762 0.000000
0.450355 0.001923 0.000000
0.493751 0.000000 0.000000
0.539605 0.000000 0.000000
0.589288 0.000000 0.000000
0.643275 0.000000 0.000000
0.696284 0.000000 0.000000
0.746731 0.000000 0.000000
0.793729 0.000000 0.000000
0.836973 0.000000 0.000000
0.876402 0.000000 0.000000
0.911925 0.000000 0.000000
0.943572 0.000000 0.000000
0.971618 0.000000 0.000000
0.996582 0.000000 0.000000
1.000000 0.000000 0.000000
1.000000 0.000000 0.000000
1.000000 0.000000 0.000000
0.007416 0.105196 0.034333
0.006897 0.105959 0.034058
0.026764 0.106020 0.033509
0.068452 0.105623 0.032074
0.096437 0.104677 0.029847
0.122805 0.103059 0.027039
0.148775 0.101686 0.023194
0.175540 0.100710 0.018006
0.203281 0.100404 0.011170
0.232395 0.100587 0.005707
0.263340 0.099947 0.002838
0.296208 0.099214 0.001892
0.330907 0.098268 0.000397
0.367651 0.096315 0.000000
0.406592 0.092805 0.000000
0.447791 0.087434 0.000000
0.491493 0.078676 0.000000
0.537530 0.066194 0.000000
0.589288 0.027588 0.000000
0.642206 0.000000 0.000000
0.694148 0.000000 0.000000
0.744106 0.000000 0.000000
0.790860 0.000000 0.000000
0.834318 0.000000 0.000000
0.874052 0.000000 0.000000
0.910002 0.000000 0.000000
0.941924 0.000000 0.000000
0.970153 0.000000 0.000000
0.995300 0.000000 0.000000
1.000000 0.000000 0.000000
1.000000 0.000000 0.000000
1.000000 0.000000 0.000000
0.000000 0.130892 0.023438
0.000000 0.131380 0.023102
0.018585 0.131044 0.022553
0.064485 0.130800 0.021149
0.093538 0.129915 0.019043
0.120363 0.129122 0.016052
0.147097 0.128786 0.011810
0.173861 0.128511 0.006470
0.201694 0.128695 0.005982
0.230838 0.129274 0.004700
0.261692 0.129854 0.004669
0.294560 0.130587 0.003174
0.329198 0.131014 0.002350
0.366064 0.131044 0.000000
0.404974 0.130129 0.000000
0.446326 0.128237 0.000000
0.490089 0.125032 0.000000
0.537469 0.120516 0.000000
0.590204 0.113741 0.000000
0.642542 0.103578 0.000000
0.694362 0.087465 0.000000
0.744381 0.060578 0.000000
0.824002 0.000000 0.000000
0.864347 0.000000 0.000000
0.900206 0.000000 0.000000
0.931884 0.000000 0.000000
0.959747 0.000000 0.000000
0.984527 0.000000 0.000000
1.000000 0.000000 0.000000
1.000000 0.000000 0.000000
1.000000 0.000000 0.000000
1.000000 0.000000 0.000000
0.000000 0.159945 0.007507
0.000000 0.159823 0.007050
0.012329 0.159701 0.006409
0.063630 0.159426 0.004944
0.093202 0.158846 0.004913
0.120729 0.157992 0.005219
0.147372 0.157259 0.005615
0.175021 0.157900 0.005982
0.203494 0.158602 0.005982
0.233341 0.159854 0.007172
0.264988 0.161318 0.006043
0.298375 0.163027 0.004456
0.333471 0.164462 0.000305
0.370733 0.165560 0.000000
0.409827 0.165957 0.000000
0.450904 0.166018 0.000000
0.494697 0.165255 0.000000
0.546502 0.164950 0.000000
0.599542 0.162783 0.000000
0.652949 0.158602 0.000000
0.706844 0.151858 0.000000
0.759335 0.141970 0.000000
0.808621 0.128603 0.000000
0.853513 0.110658 0.000000
0.893126 0.085481 0.000000
0.927062 0.032074 0.000000
0.956207 0.000000 0.000000
0.981628 0.000000 0.000000
1.000000 0.000000 0.000000
1.000000 0.000000 0.000000
1.000000 0.000000 0.000000
1.000000 0.000000 0.000000
0.000000 0.186862 0.003998
0.000000 0.186893 0.004547
0.001099 0.186648 0.003998
0.059022 0.186313 0.004791
0.090333 0.185824 0.004761
0.118563 0.185214 0.007172
0.145846 0.184482 0.008698
0.172396 0.183841 0.011383
0.200809 0.185153 0.012055
0.230777 0.186984 0.010529
0.262486 0.189395 0.008576
0.295933 0.191745 0.003143
0.331121 0.194186 0.000000
0.368200 0.196323 0.000000
0.407172 0.198215 0.000000
0.448249 0.199771 0.000000
0.495125 0.202152 0.000000
0.546380 0.204227 0.000000
0.597742 0.204471 0.000000
0.649989 0.203220 0.000000
0.702998 0.200412 0.000000
0.754849 0.195315 0.000000
0.803861 0.187930 0.000000
0.848753 0.177798 0.000000
0.888609 0.165408 0.000000
0.923064 0.150668 0.000000
0.952697 0.132723 0.000000
0.978668 0.111421 0.000000
1.000000 0.084962 0.000000
1.000000 0.027588 0.000000
1.000000 0.000000 0.000000
1.000000 0.000000 0.000000
0.000000 0.215152 0.007660
0.000000 0.215152 0.007111
0.000000 0.214939 0.007630
0.050202 0.214633 0.008453
0.087800 0.214298 0.009369
0.117037 0.213779 0.010651
0.145022 0.213230 0.012085
0.172213 0.212711 0.013519
0.199252 0.212222 0.013825
0.228855 0.214237 0.012116
0.260685 0.217258 0.007172
0.294224 0.220401 0.000702
0.329473 0.223728 0.000000
0.366644 0.226963 0.000000
0.405554 0.229923 0.000000
0.449226 0.233982 0.000000
0.497047 0.238163 0.000000
0.546929 0.241764 0.000000
0.597070 0.243717 0.000000
0.648554 0.244511 0.000000
0.700832 0.243961 0.000000
0.752224 0.241489 0.000000
0.800839 0.237064 0.000000
0.845548 0.230381 0.000000
0.885466 0.221683 0.000000
0.920134 0.210636 0.000000
0.950072 0.198428 0.000000
0.976287 0.184604 0.000000
0.999725 0.169467 0.000000
1.000000 0.153201 0.000000
1.000000 0.135103 0.000000
1.000000 0.114748 0.000000
0.000000 0.244846 0.008118
0.000000 0.244755 0.007660
0.000000 0.244663 0.008087
0.033387 0.244450 0.007660
0.083345 0.244053 0.008667
0.114961 0.243626 0.008698
0.144045 0.243107 0.008972
0.172061 0.242710 0.009186
0.200046 0.242344 0.009186
0.227634 0.242069 0.009064
0.258305 0.244480 0.005921
0.291966 0.248508 0.000000
0.327367 0.252659 0.000000
0.364599 0.256840 0.000000
0.407111 0.262974 0.000000
0.452033 0.268833 0.000000
0.499550 0.274449 0.000000
0.549065 0.279149 0.000000
0.598749 0.282506 0.000000
0.649378 0.284611 0.000000
0.700496 0.285527 0.000000
0.750210 0.284672 0.000000
0.797482 0.281529 0.000000
0.841184 0.276493 0.000000
0.880735 0.269566 0.000000
0.915709 0.260685 0.000000
0.946319 0.250614 0.000000
0.973236 0.239384 0.000000
0.997284 0.227146 0.000000
1.000000 0.214298 0.000000
1.000000 0.201083 0.000000
1.000000 0.186923 0.000000
0.000000 0.275608 0.001831
0.000000 0.275608 0.001282
0.000000 0.275486 0.001678
0.006744 0.275364 0.001129
0.076600 0.275151 0.001892
0.111482 0.274968 0.001587
0.142519 0.274723 0.001404
0.172030 0.274601 0.001068
0.201022 0.274418 0.000671
0.229892 0.274296 0.000000
0.258488 0.274205 0.000000
0.290166 0.276829 0.000000
0.327337 0.283207 0.000000
0.366979 0.289860 0.000000
0.408698 0.296452 0.000000
0.452796 0.302892 0.000000
0.499489 0.309148 0.000000
0.548180 0.314855 0.000000
0.597253 0.319249 0.000000
0.647425 0.322545 0.000000
0.698146 0.324773 0.000000
0.747677 0.325200 0.000000
0.794858 0.323674 0.000000
0.838560 0.319982 0.000000
0.878141 0.314336 0.000000
0.913146 0.306645 0.000000
0.943786 0.297581 0.000000
0.970825 0.287388 0.000000
0.994995 0.276463 0.000000
1.000000 0.265019 0.000000
1.000000 0.253178 0.000000
1.000000 0.240940 0.000000
0.000000 0.308751 0.000000
0.000000 0.308782 0.000000
0.000000 0.308751 0.000000
0.000000 0.308629 0.000000
0.066590 0.308598 0.000000
0.106813 0.308446 0.000000
0.140566 0.308476 0.000000
0.171908 0.308446 0.000000
0.202396 0.308476 0.000000
0.232303 0.308659 0.000000
0.263096 0.309789 0.000000
0.294926 0.311955 0.000000
0.343847 0.329381 0.000000
0.386053 0.337621 0.000000
0.430243 0.345495 0.000000
0.476631 0.353124 0.000000
0.525353 0.360510 0.000000
0.574212 0.366339 0.000000
0.622675 0.370397 0.000000
0.671870 0.373358 0.000000
0.720394 0.374975 0.000000
0.767086 0.374609 0.000000
0.810971 0.372168 0.000000
0.851621 0.367864 0.000000
0.888487 0.361700 0.000000
0.921233 0.353887 0.000000
0.949981 0.344671 0.000000
0.975433 0.334447 0.000000
0.998322 0.323766 0.000000
1.000000 0.312535 0.000000
1.000000 0.301152 0.000000
1.000000 0.289555 0.000000
0.000000 0.349248 0.000000
0.000000 0.349218 0.000000
0.000000 0.348943 0.000000
0.000000 0.348547 0.000000
0.041505 0.348028 0.000000
0.100496 0.347417 0.000000
0.138338 0.347051 0.000000
0.172061 0.346838 0.000000
0.205509 0.348486 0.000000
0.238865 0.351354 0.000000
0.272923 0.354559 0.000000
0.307622 0.358007 0.000000
0.342962 0.361608 0.000000
0.381903 0.367468 0.000000
0.427008 0.377173 0.000000
0.473640 0.386236 0.000000
0.522057 0.394568 0.000000
0.570336 0.401129 0.000000
0.618402 0.406012 0.000000
0.667079 0.409827 0.000000
0.715297 0.412360 0.000000
0.761868 0.412787 0.000000
0.805692 0.411292 0.000000
0.846494 0.407691 0.000000
0.883574 0.402136 0.000000
0.916655 0.394903 0.000000
0.945861 0.386084 0.000000
0.971740 0.376349 0.000000
0.995056 0.365820 0.000000
1.000000 0.354955 0.000000
1.000000 0.343908 0.000000
1.000000 0.332616 0.000000
0.000000 0.386206 0.000000
0.000000 0.386145 0.000000
0.000000 0.385870 0.000000
0.000000 0.385870 0.000000
0.000000 0.386145 0.000000
0.090425 0.386633 0.000000
0.134096 0.387457 0.000000
0.171756 0.388586 0.000000
0.207248 0.390143 0.000000
0.242161 0.392370 0.000000
0.277165 0.395087 0.000000
0.312779 0.398352 0.000000
0.348699 0.401587 0.000000
0.384985 0.404334 0.000000
0.423346 0.408515 0.000000
0.470130 0.418708 0.000000
0.518059 0.427771 0.000000
0.566003 0.435126 0.000000
0.613886 0.440925 0.000000
0.662287 0.445655 0.000000
0.710597 0.449042 0.000000
0.757259 0.450538 0.000000
0.801236 0.449683 0.000000
0.842283 0.446784 0.000000
0.879667 0.441810 0.000000
0.913085 0.434943 0.000000
0.942626 0.426429 0.000000
0.968841 0.416785 0.000000
0.992462 0.406531 0.000000
1.000000 0.395789 0.000000
1.000000 0.384802 0.000000
1.000000 0.373602 0.000000
0.000000 0.431952 0.000000
0.000000 0.432136 0.000000
0.000000 0.431922 0.000000
0.000000 0.431769 0.000000
0.000000 0.431434 0.000000
0.074678 0.431189 0.000000
0.127962 0.431342 0.000000
0.169375 0.431830 0.000000
0.207553 0.433021 0.000000
0.244297 0.434943 0.000000
0.280674 0.437537 0.000000
0.317418 0.440650 0.000000
0.354467 0.443732 0.000000
0.391608 0.446509 0.000000
0.428443 0.448371 0.000000
0.466102 0.450538 0.000000
0.514733 0.461341 0.000000
0.562341 0.469306 0.000000
0.609979 0.475837 0.000000
0.658259 0.481331 0.000000
0.706264 0.485389 0.000000
0.752743 0.487465 0.000000
0.796750 0.487343 0.000000
0.837980 0.484962 0.000000
0.875731 0.480446 0.000000
0.909728 0.474006 0.000000
0.939879 0.465949 0.000000
0.966766 0.456641 0.000000
0.990936 0.446509 0.000000
1.000000 0.435920 0.000000
1.000000 0.424964 0.000000
1.000000 0.413733 0.000000
0.000000 0.479164 0.000000
0.000000 0.479438 0.000000
0.000000 0.479408 0.000000
0.000000 0.479255 0.000000
0.000000 0.479042 0.000000
0.032593 0.479042 0.000000
0.118379 0.479377 0.000000
0.166171 0.480140 0.000000
0.207980 0.481270 0.000000
0.247013 0.482826 0.000000
0.285344 0.484688 0.000000
0.323064 0.486793 0.000000
0.360479 0.488716 0.000000
0.397925 0.490333 0.000000
0.435065 0.491463 0.000000
0.471809 0.491859 0.000000
0.508721 0.492317 0.000000
0.558068 0.502770 0.000000
0.606348 0.510582 0.000000
0.655268 0.517327 0.000000
0.703761 0.522545 0.000000
0.750637 0.525505 0.000000
0.795041 0.525963 0.000000
0.836393 0.524102 0.000000
0.874327 0.519921 0.000000
0.908476 0.513695 0.000000
0.938781 0.505547 0.000000
0.965698 0.496193 0.000000
0.989837 0.485878 0.000000
1.000000 0.474983 0.000000
1.000000 0.463722 0.000000
1.000000 0.452216 0.000000
0.000000 0.526360 0.000000
0.000000 0.526390 0.000000
0.000000 0.526207 0.000000
0.000000 0.525994 0.000000
0.000000 0.525750 0.000000
0.000000 0.525628 0.000000
0.102968 0.525811 0.000000
0.159213 0.526329 0.000000
0.204837 0.527214 0.000000
0.246616 0.528527 0.000000
0.286839 0.530236 0.000000
0.326177 0.532158 0.000000
0.365026 0.534051 0.000000
0.403418 0.535424 0.000000
0.441474 0.536126 0.000000
0.478767 0.536156 0.000000
0.515770 0.535729 0.000000
0.552911 0.535241 0.000000
0.602197 0.544762 0.000000
0.650874 0.552209 0.000000
0.699336 0.558099 0.000000
0.746273 0.561639 0.000000
0.790707 0.562707 0.000000
0.832425 0.561364 0.000000
0.870695 0.557641 0.000000
0.905211 0.551659 0.000000
0.935912 0.543694 0.000000
0.963226 0.534325 0.000000
0.987671 0.523949 0.000000
1.000000 0.512963 0.000000
1.000000 0.501518 0.000000
1.000000 0.489845 0.000000
0.000000 0.575006 0.000000
0.000000 0.575433 0.000000
0.000000 0.594751 0.000000
0.000000 0.594415 0.000000
0.000000 0.593835 0.000000
0.000000 0.593103 0.000000
0.079805 0.592401 0.000000
0.153140 0.591882 0.000000
0.205753 0.591852 0.000000
0.251957 0.592218 0.000000
0.295171 0.592950 0.000000
0.336919 0.593652 0.000000
0.377447 0.594018 0.000000
0.417365 0.594171 0.000000
0.456519 0.593866 0.000000
0.495125 0.593072 0.000000
0.533288 0.591791 0.000000
0.571099 0.590326 0.000000
0.608942 0.588800 0.000000
0.657008 0.595758 0.000000
0.704250 0.600824 0.000000
0.750210 0.603784 0.000000
0.793820 0.604303 0.000000
0.834409 0.602350 0.000000
0.871366 0.597711 0.000000
0.904723 0.590936 0.000000
0.934417 0.582238 0.000000
0.961181 0.572320 0.000000
0.985473 0.561517 0.000000
1.000000 0.550256 0.000000
1.000000 0.538537 0.000000
1.000000 0.526513 0.000000
0.000000 0.628046 0.000000
0.000000 0.630640 0.000000
0.000000 0.633143 0.000000
0.000000 0.635248 0.000000
0.000000 0.636622 0.000000
0.000000 0.636927 0.000000
0.000000 0.636652 0.000000
0.137331 0.636164 0.000000
0.196872 0.636164 0.000000
0.246128 0.636316 0.000000
0.291783 0.636774 0.000000
0.335119 0.637293 0.000000
0.376959 0.637476 0.000000
0.417853 0.637354 0.000000
0.457862 0.636835 0.000000
0.497230 0.635798 0.000000
0.536065 0.634516 0.000000
0.574640 0.632990 0.000000
0.613397 0.631647 0.000000
0.652430 0.630549 0.000000
0.699123 0.635645 0.000000
0.745449 0.639460 0.000000
0.789548 0.640650 0.000000
0.830625 0.639185 0.000000
0.868009 0.634974 0.000000
0.901732 0.628351 0.000000
0.931792 0.619684 0.000000
0.958770 0.609613 0.000000
0.983246 0.598688 0.000000
1.000000 0.586999 0.000000
1.000000 0.575006 0.000000
1.000000 0.562737 0.000000
0.000000 0.673335 0.000000
0.000000 0.675624 0.000000
0.000000 0.678004 0.000000
0.000000 0.679896 0.000000
0.000000 0.681117 0.000000
0.000000 0.681453 0.000000
0.000000 0.681117 0.000000
0.115633 0.680720 0.000000
0.184909 0.680629 0.000000
0.238987 0.680690 0.000000
0.287083 0.681056 0.000000
0.332280 0.681422 0.000000
0.375586 0.681331 0.000000
0.417548 0.681056 0.000000
0.458595 0.680323 0.000000
0.498787 0.679194 0.000000
0.538415 0.677821 0.000000
0.577752 0.676234 0.000000
0.617060 0.674800 0.000000
0.656733 0.673610 0.000000
0.696681 0.672663 0.000000
0.741512 0.675624 0.000000
0.785946 0.677394 0.000000
0.827237 0.676234 0.000000
0.864897 0.672145 0.000000
0.898772 0.665461 0.000000
0.928893 0.656641 0.000000
0.956023 0.646387 0.000000
0.980560 0.635126 0.000000
1.000000 0.623255 0.000000
1.000000 0.610864 0.000000
1.000000 0.598199 0.000000
0.000000 0.717800 0.000000
0.000000 0.719875 0.000000
0.000000 0.722011 0.000000
0.000000 0.723751 0.000000
0.000000 0.724788 0.000000
0.000000 0.724971 0.000000
0.000000 0.724666 0.000000
0.081117 0.724178 0.000000
0.169863 0.723842 0.000000
0.229068 0.723659 0.000000
0.280156 0.723629 0.000000
0.327306 0.723629 0.000000
0.371984 0.723415 0.000000
0.415137 0.722988 0.000000
0.457343 0.722347 0.000000
0.498604 0.721614 0.000000
0.539666 0.720882 0.000000
0.580499 0.720272 0.000000
0.621576 0.719814 0.000000
0.662837 0.719600 0.000000
0.704463 0.719509 0.000000
0.746426 0.719448 0.000000
0.789364 0.719875 0.000000
0.830961 0.718746 0.000000
0.868650 0.714412 0.000000
0.902159 0.707149 0.000000
0.931823 0.697566 0.000000
0.958434 0.686549 0.000000
0.982483 0.674495 0.000000
1.000000 0.661830 0.000000
1.000000 0.648707 0.000000
1.000000 0.635401 0.000000
0.000000 0.768490 0.000000
0.000000 0.769375 0.000000
0.000000 0.770047 0.000000
0.000000 0.770443 0.000000
0.000000 0.770565 0.000000
0.000000 0.770260 0.000000
0.000000 0.769802 0.000000
0.000000 0.769406 0.000000
0.151308 0.769284 0.000000
0.218540 0.769284 0.000000
0.273381 0.769436 0.000000
0.323095 0.769436 0.000000
0.369604 0.769131 0.000000
0.414099 0.768490 0.000000
0.457252 0.767605 0.000000
0.499550 0.766506 0.000000
0.541192 0.765347 0.000000
0.582513 0.764248 0.000000
0.623651 0.763241 0.000000
0.664820 0.762234 0.000000
0.705989 0.761227 0.000000
0.747189 0.760189 0.000000
0.788479 0.759030 0.000000
0.827756 0.755886 0.000000
0.865263 0.751339 0.000000
0.898894 0.743954 0.000000
0.928832 0.734188 0.000000
0.955627 0.722896 0.000000
0.979797 0.710536 0.000000
1.000000 0.697444 0.000000
1.000000 0.683925 0.000000
1.000000 0.670253 0.000000
0.000000 0.808011 0.000000
0.000000 0.808835 0.000000
0.000000 0.809567 0.000000
0.000000 0.809934 0.000000
0.000000 0.809964 0.000000
0.000000 0.809537 0.000000
0.000000 0.808957 0.000000
0.000000 0.808316 0.000000
0.126070 0.807889 0.000000
0.203494 0.807584 0.000000
0.262455 0.807401 0.000000
0.314153 0.807187 0.000000
0.362097 0.806699 0.000000
0.407782 0.806058 0.000000
0.451820 0.805203 0.000000
0.494881 0.804196 0.000000
0.537102 0.803159 0.000000
0.578912 0.802121 0.000000
0.620478 0.801083 0.000000
0.661891 0.800137 0.000000
0.703334 0.799191 0.000000
0.744778 0.798154 0.000000
0.786191 0.797024 0.000000
0.827573 0.795651 0.000000
0.860258 0.786740 0.000000
0.894133 0.779324 0.000000
0.924407 0.769558 0.000000
0.951537 0.758114 0.000000
0.975982 0.745480 0.000000
0.998169 0.732113 0.000000
1.000000 0.718318 0.000000
1.000000 0.704402 0.000000
0.000000 0.850156 0.000000
0.000000 0.850950 0.000000
0.000000 0.851408 0.000000
0.000000 0.851377 0.000000
0.000000 0.851011 0.000000
0.000000 0.850248 0.000000
0.000000 0.849241 0.000000
0.000000 0.848112 0.000000
0.091951 0.846952 0.000000
0.186587 0.845914 0.000000
0.250248 0.844846 0.000000
0.304234 0.843870 0.000000
0.353582 0.842802 0.000000
0.400000 0.841489 0.000000
0.444343 0.839841 0.000000
0.487373 0.838041 0.000000
0.529473 0.836210 0.000000
0.571069 0.834531 0.000000
0.612512 0.833219 0.000000
0.653925 0.832181 0.000000
0.695247 0.831205 0.000000
0.736416 0.830106 0.000000
0.777310 0.828611 0.000000
0.817838 0.826596 0.000000
0.857877 0.824216 0.000000
0.891661 0.816434 0.000000
0.921691 0.806088 0.000000
0.948638 0.794003 0.000000
0.973022 0.780850 0.000000
0.995239 0.766964 0.000000
1.000000 0.752865 0.000000
1.000000 0.738491 0.000000
0.000000 0.881804 0.000000
0.000000 0.882475 0.000000
0.000000 0.882872 0.000000
0.000000 0.882841 0.000000
0.000000 0.882444 0.000000
0.000000 0.881834 0.000000
0.000000 0.881010 0.000000
0.000000 0.880064 0.000000
0.000000 0.879149 0.000000
0.165591 0.878294 0.000000
0.235203 0.877440 0.000000
0.292546 0.876585 0.000000
0.343420 0.875669 0.000000
0.390936 0.874479 0.000000
0.436164 0.873014 0.000000
0.479805 0.871366 0.000000
0.522332 0.869596 0.000000
0.564202 0.867918 0.000000
0.605646 0.866392 0.000000
0.646906 0.865019 0.000000
0.687892 0.863615 0.000000
0.728695 0.862119 0.000000
0.769131 0.860319 0.000000
0.809201 0.858183 0.000000
0.848905 0.855619 0.000000
0.888273 0.852689 0.000000
0.920439 0.843717 0.000000
0.947204 0.830991 0.000000
0.971496 0.817258 0.000000
0.993744 0.802853 0.000000
1.000000 0.788174 0.000000
1.000000 0.773281 0.000000
0.000000 0.911528 0.000000
0.000000 0.911894 0.000000
0.000000 0.912016 0.000000
0.000000 0.911772 0.000000
0.000000 0.911162 0.000000
0.000000 0.910430 0.000000
0.000000 0.909483 0.000000
0.000000 0.908507 0.000000
0.000000 0.907530 0.000000
0.139956 0.906645 0.000000
0.218540 0.905791 0.000000
0.278508 0.904967 0.000000
0.331090 0.904021 0.000000
0.379675 0.902831 0.000000
0.425483 0.901366 0.000000
0.469429 0.899657 0.000000
0.512108 0.897795 0.000000
0.553887 0.895964 0.000000
0.595178 0.894224 0.000000
0.636103 0.892607 0.000000
0.676722 0.890959 0.000000
0.717037 0.889220 0.000000
0.756954 0.887205 0.000000
0.796536 0.884947 0.000000
0.835691 0.882322 0.000000
0.874540 0.879362 0.000000
0.913146 0.876158 0.000000
0.944610 0.866972 0.000000
0.968383 0.852262 0.000000
0.990814 0.837522 0.000000
1.000000 0.822293 0.000000
1.000000 0.806912 0.000000
0.000000 0.936339 0.000000
0.000000 0.936522 0.000000
0.000000 0.936553 0.000000
0.000000 0.936400 0.000000
0.000000 0.936065 0.000000
0.000000 0.935698 0.000000
0.000000 0.935454 0.000000
0.000000 0.935271 0.000000
0.000000 0.935180 0.000000
0.111543 0.935119 0.000000
0.202457 0.934966 0.000000
0.266392 0.934752 0.000000
0.320897 0.934295 0.000000
0.370642 0.933471 0.000000
0.417273 0.932280 0.000000
0.461646 0.930694 0.000000
0.504692 0.928832 0.000000
0.546593 0.926940 0.000000
0.587854 0.925048 0.000000
0.628534 0.923125 0.000000
0.668788 0.921202 0.000000
0.708644 0.919127 0.000000
0.748135 0.916777 0.000000
0.787198 0.914183 0.000000
0.825834 0.911345 0.000000
0.864164 0.908202 0.000000
0.902190 0.904845 0.000000
0.940093 0.901335 0.000000
0.971344 0.892332 0.000000
0.992035 0.875486 0.000000
1.000000 0.859251 0.000000
1.000000 0.842924 0.000000
0.000000 0.962860 0.000000
0.000000 0.962921 0.000000
0.000000 0.962829 0.000000
0.000000 0.962524 0.000000
0.000000 0.962036 0.000000
0.000000 0.961486 0.000000
0.000000 0.960876 0.000000
0.000000 0.960266 0.000000
0.000000 0.959655 0.000000
0.071138 0.958984 0.000000
0.183505 0.958251 0.000000
0.251225 0.957427 0.000000
0.307103 0.956451 0.000000
0.357397 0.955261 0.000000
