data/fiter_cube/65184230/1022644/file.cube
# Created by Adobe Lightroom plugin Export LUT (1.17.0)
# www.johnrellis.com/lightroom/exportlut.htm
# Preset: ins网红旅拍风景人像_03 云集
# Color profile: C:\Program Files (x86)\Common Files\Adobe\Color\Profiles\Recommended\AdobeRGB1998.icc
LUT_3D_SIZE 5
DOMAIN_MIN 0.000000 0.000000 0.000000
DOMAIN_MAX 0.903226 0.903226 0.903226
0.000000 0.000000 0.000000
0.237736 0.000000 0.064088
0.684932 0.000000 0.067262
0.980652 0.302739 0.188144
1.000000 0.549187 0.463355
0.000000 0.225925 0.104311
0.207034 0.227543 0.047883
0.718898 0.284123 0.000000
0.974640 0.406561 0.011017
1.000000 0.584558 0.434546
0.000000 0.697536 0.299443
0.000000 0.702510 0.106996
0.679164 0.695094 0.073548
0.970886 0.687068 0.000000
1.000000 0.669795 0.191409
0.000000 0.949096 0.552819
0.270878 0.949310 0.534905
0.540337 0.939117 0.292241
0.894133 0.900481 0.373083
1.000000 0.863554 0.375708
0.473274 1.000000 0.743465
0.566644 1.000000 0.753719
0.649561 1.000000 0.695155
0.788388 1.000000 0.567987
0.989044 0.990204 0.718196
0.000000 0.032471 0.155550
0.232822 0.000000 0.171481
0.636652 0.000000 0.195377
0.936217 0.283940 0.222782
1.000000 0.515435 0.414313
0.000000 0.178164 0.183505
0.218997 0.230625 0.197757
0.672267 0.262272 0.174319
0.938628 0.386877 0.188266
1.000000 0.546441 0.372168
0.000000 0.654108 0.389899
0.163668 0.670558 0.351049
0.635279 0.648371 0.249851
0.946777 0.655818 0.000000
1.000000 0.664637 0.237888
0.000000 0.939696 0.607630
0.319402 0.939788 0.598779
0.553185 0.932219 0.418982
0.886870 0.895689 0.458808
1.000000 0.861265 0.438117
0.471656 1.000000 0.762173
0.564538 1.000000 0.770932
0.717372 1.000000 0.773587
0.795834 1.000000 0.629938
0.988434 0.990723 0.756283
0.000000 0.066560 0.448341
0.291508 0.000000 0.486885
0.740291 0.000000 0.549126
0.919158 0.394141 0.549523
1.000000 0.612726 0.646723
0.000000 0.214542 0.442054
0.225650 0.237217 0.497444
0.730556 0.358740 0.570642
0.890806 0.469642 0.550317
1.000000 0.628870 0.633753
0.000000 0.569390 0.537987
0.192844 0.614618 0.571313
0.644587 0.656214 0.567498
0.912352 0.649226 0.521080
1.000000 0.693446 0.575738
0.165957 0.914305 0.734035
0.364050 0.910277 0.726802
0.648920 0.909422 0.708644
0.875486 0.890501 0.658961
1.000000 0.849882 0.575525
0.480201 1.000000 0.819608
0.562860 1.000000 0.824674
0.735317 1.000000 0.838712
0.811704 1.000000 0.759518
0.983490 0.987396 0.810941
0.000000 0.122774 0.766720
0.373480 0.067506 0.789425
0.774716 0.291386 0.840604
0.954986 0.488045 0.806973
1.000000 0.712428 0.820249
0.000000 0.244602 0.759213
0.294530 0.266514 0.779446
0.759152 0.451667 0.837522
0.941741 0.585901 0.813230
1.000000 0.733059 0.822721
0.000000 0.544945 0.734646
0.000000 0.546105 0.736507
0.615351 0.615808 0.794675
0.902800 0.749722 0.825162
0.997742 0.795102 0.835508
0.000000 0.852415 0.812955
0.253880 0.860410 0.820310
0.650568 0.878904 0.844205
0.862425 0.880339 0.833524
1.000000 0.851316 0.802884
0.545068 1.000000 0.902068
0.604944 1.000000 0.903105
0.745266 1.000000 0.907805
0.878080 0.995819 0.911559
0.980621 0.985107 0.891386
0.280247 0.311986 0.949279
0.460304 0.318425 0.952575
0.760189 0.403204 0.963043
0.956207 0.542657 0.965942
1.000000 0.704585 0.907195
0.260258 0.319524 0.946990
0.437263 0.337957 0.949554
0.739742 0.461707 0.958343
0.945464 0.614893 0.961913
1.000000 0.739590 0.911925
0.000000 0.530755 0.913542
0.000000 0.514824 0.921355
0.612116 0.581170 0.941558
0.921996 0.772305 0.957671
1.000000 0.837736 0.932830
0.000000 0.808408 0.927001
0.000000 0.801205 0.924559
0.313787 0.776822 0.920684
0.817929 0.829740 0.944213
0.994354 0.934447 0.962707
0.184360 0.990356 0.954650
0.288670 0.989532 0.954284
0.589837 0.985657 0.957061
0.849058 0.984253 0.966461
0.976928 0.980804 0.969421
