data/fiter_cube/65184230/1022644/file.cube
# Created by Adobe Lightroom plugin Export LUT (1.17.0)
# www.johnrellis.com/lightroom/exportlut.htm
# Preset: ins网红旅拍风景人像_03 云集
# Color profile: C:\Program Files (x86)\Common Files\Adobe\Color\Profiles\Recommended\AdobeRGB1998.icc
LUT_3D_SIZE 32
DOMAIN_MIN 0.0 0.0 0.0
DOMAIN_MAX 1.0 1.0 1.0
0.000000 0.000000 0.000000
0.018616 0.001434 0.004791
0.043427 0.002960 0.011597
0.071870 0.008728 0.024842
0.100771 0.013733 0.043275
0.139101 0.006348 0.054261
0.185031 0.000000 0.060731
0.237736 0.000000 0.064088
0.297612 0.000000 0.065980
0.362829 0.000000 0.066835
0.431952 0.000000 0.067445
0.501549 0.000000 0.066773
0.567987 0.000000 0.066285
0.629297 0.000000 0.066377
0.684932 0.000000 0.067262
0.746059 0.000000 0.071504
0.808316 0.000000 0.082155
0.855467 0.061738 0.096559
0.893187 0.152743 0.114107
0.926329 0.211093 0.135470
0.955413 0.259739 0.160159
0.980652 0.302739 0.188144
1.000000 0.340917 0.218112
1.000000 0.375860 0.250278
1.000000 0.408637 0.284977
1.000000 0.441138 0.322667
1.000000 0.474922 0.364782
1.000000 0.510765 0.411658
1.000000 0.549187 0.463355
1.000000 0.590570 0.519097
1.000000 0.634638 0.578302
1.000000 0.680476 0.639124
0.000305 0.012543 0.008698
0.015351 0.012482 0.006165
0.046113 0.012177 0.004303
0.073701 0.017487 0.016419
0.102266 0.023468 0.034730
0.139864 0.017517 0.048615
0.184665 0.000000 0.057801
0.236179 0.000000 0.061158
0.294591 0.000000 0.063264
0.358953 0.000000 0.063935
0.426581 0.000000 0.064027
0.495186 0.000000 0.063233
0.560967 0.000000 0.062287
0.621912 0.000000 0.061921
0.677424 0.000000 0.062196
0.738918 0.000000 0.065522
0.798734 0.000000 0.074464
0.845212 0.043030 0.088075
0.883116 0.144076 0.104860
0.916716 0.201266 0.124941
0.946593 0.249760 0.149111
0.972778 0.292576 0.176394
0.994873 0.330785 0.205478
1.000000 0.365820 0.237186
1.000000 0.398871 0.271366
1.000000 0.431678 0.308904
1.000000 0.465736 0.351141
1.000000 0.501884 0.398169
1.000000 0.540642 0.450355
1.000000 0.582208 0.506798
1.000000 0.626551 0.566705
1.000000 0.672877 0.628473
0.000671 0.029664 0.020294
0.012207 0.033906 0.012055
0.037354 0.029633 0.014984
0.073579 0.036530 0.010559
0.104250 0.039979 0.022309
0.141176 0.034028 0.038941
0.184970 0.010834 0.050904
0.235508 0.000000 0.057252
0.292882 0.000000 0.059571
0.356176 0.000000 0.059876
0.423407 0.000000 0.059480
0.491524 0.000000 0.058076
0.557153 0.000000 0.054780
0.618128 0.000000 0.053315
0.673518 0.000000 0.052338
0.735988 0.000000 0.057160
0.793851 0.000000 0.065827
0.839475 0.069184 0.079133
0.877409 0.147372 0.096040
0.911376 0.201938 0.116518
0.941863 0.248753 0.140627
0.968658 0.290715 0.168002
0.991333 0.328405 0.197208
1.000000 0.362890 0.228794
1.000000 0.395758 0.262913
1.000000 0.428046 0.300328
1.000000 0.462013 0.342473
1.000000 0.498024 0.389807
1.000000 0.536645 0.442420
1.000000 0.578241 0.499367
1.000000 0.622431 0.559625
1.000000 0.668696 0.621851
0.001556 0.063325 0.047700
0.014618 0.065705 0.043885
0.032715 0.067353 0.028992
0.067201 0.064149 0.033753
0.099519 0.068818 0.026429
0.146853 0.067231 0.015381
0.189731 0.059205 0.031556
0.239384 0.029877 0.041566
0.295750 0.000000 0.045197
0.357855 0.000000 0.045319
0.423621 0.000000 0.040742
0.490578 0.000000 0.035248
0.555138 0.000000 0.028351
0.615259 0.000000 0.021759
0.670222 0.000000 0.018677
0.734432 0.000000 0.020508
0.789212 0.000000 0.033753
0.833188 0.106630 0.059876
0.870176 0.162631 0.078492
0.903593 0.208835 0.100008
0.934020 0.251041 0.124514
0.961303 0.290379 0.151858
0.985260 0.327062 0.181735
1.000000 0.361975 0.214603
1.000000 0.395453 0.250797
1.000000 0.429053 0.290623
1.000000 0.463539 0.335058
1.000000 0.499733 0.383856
1.000000 0.537865 0.437263
1.000000 0.578332 0.494179
1.000000 0.621210 0.553918
1.000000 0.666011 0.615351
0.000000 0.088716 0.065675
0.012055 0.091493 0.064424
0.020172 0.094545 0.051484
0.061097 0.096925 0.040101
0.089265 0.091005 0.048859
0.128817 0.095216 0.041901
0.186191 0.097627 0.014405
0.242679 0.090181 0.008087
0.297429 0.076722 0.013764
0.357946 0.051362 0.012177
0.422278 0.000000 0.006104
0.487831 0.000000 0.000000
0.551537 0.000000 0.000000
0.611414 0.000000 0.000000
0.668910 0.000000 0.000000
0.733486 0.002930 0.000000
0.786618 0.106264 0.000000
0.830289 0.154482 0.000000
0.867430 0.194766 0.036988
0.900572 0.232059 0.076387
0.930602 0.267948 0.104799
0.957794 0.302739 0.134188
0.981933 0.336156 0.165652
1.000000 0.368597 0.199588
1.000000 0.400397 0.236759
1.000000 0.432593 0.277470
1.000000 0.465736 0.322332
1.000000 0.500328 0.371771
1.000000 0.537102 0.425513
1.000000 0.576318 0.482948
1.000000 0.618250 0.543328
1.000000 0.662348 0.605493
0.000000 0.122866 0.076997
0.000000 0.126253 0.075074
0.011261 0.130251 0.071473
0.035431 0.133791 0.054871
0.081178 0.134585 0.046021
0.118593 0.126375 0.054994
0.164584 0.129610 0.050965
0.229740 0.135958 0.013550
0.302251 0.133822 0.000000
0.365332 0.124392 0.000000
0.428290 0.113558 0.000000
0.492561 0.101717 0.000000
0.554711 0.093233 0.000000
0.613764 0.093019 0.000000
0.677150 0.112398 0.000000
0.737240 0.142702 0.000000
0.787900 0.174563 0.000000
0.830686 0.205478 0.000000
0.867582 0.235508 0.000000
0.900816 0.265934 0.003296
0.931151 0.296361 0.075990
0.958770 0.327153 0.113893
1.000000 0.423499 0.212589
1.000000 0.449348 0.252384
1.000000 0.474769 0.293523
1.000000 0.500877 0.336584
1.000000 0.528222 0.382086
1.000000 0.557519 0.430549
1.000000 0.589288 0.481788
1.000000 0.623804 0.535698
1.000000 0.660487 0.591211
1.000000 0.698146 0.646296
0.000000 0.176089 0.091341
0.000000 0.179141 0.089113
0.000000 0.183352 0.085023
0.000000 0.189395 0.063630
0.057618 0.193393 0.043641
0.115145 0.189761 0.039826
0.164248 0.179751 0.053071
0.219089 0.181155 0.052399
0.297581 0.191684 0.000000
0.381018 0.194736 0.000000
0.462379 0.192996 0.000000
0.525963 0.189364 0.000000
0.585626 0.188174 0.000000
0.648219 0.195773 0.000000
0.713680 0.215183 0.000000
0.767605 0.235630 0.000000
0.812589 0.255955 0.000000
0.851316 0.276982 0.000000
0.886107 0.299565 0.000000
0.919005 0.325078 0.000000
0.950500 0.353704 0.027588
0.979736 0.383825 0.108431
1.000000 0.414740 0.158846
1.000000 0.444709 0.208316
1.000000 0.473701 0.257816
1.000000 0.500908 0.306676
1.000000 0.527794 0.355810
1.000000 0.555718 0.406378
1.000000 0.586023 0.459693
1.000000 0.618616 0.514549
1.000000 0.653864 0.571283
1.000000 0.690883 0.628260
0.000000 0.225925 0.104311
0.000000 0.228428 0.102083
0.000000 0.232090 0.098054
0.000000 0.239139 0.086152
0.000000 0.242954 0.050721
0.084443 0.245884 0.017456
0.151888 0.238376 0.027588
0.207034 0.227543 0.047883
0.266087 0.227298 0.057130
0.351354 0.242283 0.000000
0.438056 0.250034 0.000000
0.521233 0.253696 0.000000
0.594415 0.258854 0.000000
0.661494 0.271489 0.000000
0.718898 0.284123 0.000000
0.767788 0.296178 0.000000
0.810086 0.309178 0.000000
0.847440 0.323308 0.000000
0.881529 0.339849 0.000000
0.914122 0.359075 0.000000
0.945342 0.381750 0.000000
0.974640 0.406561 0.011017
1.000000 0.432380 0.116396
1.000000 0.457954 0.172915
1.000000 0.482826 0.225528
1.000000 0.506859 0.276066
1.000000 0.530938 0.327062
1.000000 0.556390 0.379370
1.000000 0.584558 0.434546
1.000000 0.615320 0.491402
1.000000 0.648981 0.549981
1.000000 0.684962 0.609277
0.000000 0.281865 0.119966
0.000000 0.284245 0.117189
0.000000 0.287358 0.113924
0.000000 0.293858 0.104341
0.000000 0.299046 0.060670
0.009461 0.301335 0.022614
0.122713 0.302037 0.000000
0.196658 0.293065 0.006287
0.258183 0.281956 0.034943
0.320287 0.279911 0.061677
0.410559 0.298924 0.000000
0.507195 0.316991 0.000000
0.595972 0.332372 0.000000
0.672389 0.344457 0.000000
0.726833 0.352148 0.000000
0.771725 0.359289 0.000000
0.811673 0.367559 0.000000
0.847593 0.375921 0.000000
0.880705 0.386511 0.000000
0.912657 0.400336 0.000000
0.943359 0.417456 0.000000
0.972259 0.436744 0.000000
0.998199 0.457404 0.020478
1.000000 0.478309 0.130373
1.000000 0.499031 0.190463
1.000000 0.519066 0.245121
1.000000 0.539879 0.298344
1.000000 0.562188 0.352575
1.000000 0.587274 0.409247
1.000000 0.615320 0.467872
1.000000 0.646571 0.528008
1.000000 0.680537 0.588861
0.000000 0.342321 0.137331
0.000000 0.343938 0.135042
0.000000 0.346471 0.131228
0.000000 0.352026 0.122560
0.000000 0.357916 0.094789
0.000000 0.360266 0.030915
0.081849 0.361761 0.000000
0.170687 0.359136 0.000000
0.248417 0.349767 0.000000
0.318090 0.343359 0.009094
0.392340 0.347539 0.059449
0.488808 0.372442 0.000000
0.577508 0.390753 0.000000
0.654780 0.404456 0.000000
0.722225 0.415412 0.000000
0.777707 0.422675 0.000000
0.817258 0.427222 0.000000
0.852659 0.432807 0.000000
0.885069 0.440497 0.000000
0.915526 0.448615 0.000000
0.944305 0.459205 0.000000
0.971160 0.471962 0.000000
0.995453 0.485817 0.000000
1.000000 0.500603 0.032502
1.000000 0.516014 0.140780
1.000000 0.532036 0.203067
1.000000 0.549462 0.260899
1.000000 0.569116 0.319219
1.000000 0.591791 0.379614
1.000000 0.617884 0.442267
1.000000 0.647364 0.506035
1.000000 0.679988 0.570306
0.000000 0.401404 0.156191
0.000000 0.403143 0.153841
0.000000 0.405463 0.150668
0.000000 0.410315 0.142214
0.000000 0.417792 0.126711
0.000000 0.421210 0.048432
0.000000 0.422889 0.000000
0.132326 0.424292 0.000000
0.231357 0.426947 0.000000
0.319371 0.424323 0.000000
0.395148 0.418830 0.000000
0.467842 0.419318 0.043305
0.554131 0.439704 0.000000
0.633906 0.456611 0.000000
0.703426 0.468910 0.000000
0.763210 0.477455 0.000000
0.813993 0.482704 0.000000
0.853147 0.485023 0.000000
0.884520 0.487617 0.000000
0.914366 0.493019 0.000000
0.942809 0.500420 0.000000
0.969482 0.508690 0.000000
0.993774 0.518578 0.000000
1.000000 0.529107 0.000000
1.000000 0.540307 0.063203
1.000000 0.552056 0.156985
1.000000 0.565332 0.222660
1.000000 0.580987 0.284672
1.000000 0.599756 0.347509
1.000000 0.622095 0.412268
1.000000 0.648371 0.478676
1.000000 0.678309 0.545464
0.000000 0.464851 0.178622
0.000000 0.466407 0.176486
0.000000 0.468299 0.173281
0.000000 0.472541 0.165621
0.000000 0.479164 0.152255
0.000000 0.488472 0.108186
0.000000 0.495613 0.001556
0.088777 0.501457 0.000000
0.199649 0.506188 0.000000
0.306218 0.503136 0.000000
0.395026 0.497749 0.000000
0.470192 0.491005 0.000000
0.609979 0.556695 0.062013
0.685054 0.572168 0.000000
0.752895 0.583978 0.000000
0.807706 0.587884 0.000000
0.853025 0.587121 0.000000
0.891295 0.583795 0.000000
0.924590 0.579461 0.000000
0.949828 0.576501 0.000000
0.972869 0.576135 0.000000
0.994507 0.577600 0.000000
1.000000 0.579248 0.000000
1.000000 0.582483 0.000000
1.000000 0.586938 0.000000
1.000000 0.593103 0.137148
1.000000 0.601160 0.212863
1.000000 0.611780 0.278599
1.000000 0.625635 0.343023
1.000000 0.643427 0.408576
1.000000 0.665187 0.474647
1.000000 0.691005 0.541314
0.000000 0.566796 0.222538
0.000000 0.568658 0.220340
0.000000 0.569696 0.216739
0.000000 0.573083 0.209384
0.000000 0.578149 0.195682
0.000000 0.583612 0.167453
0.000000 0.586908 0.060365
0.000000 0.588586 0.000000
0.181674 0.591485 0.000000
0.291417 0.594049 0.000000
0.402960 0.593713 0.000000
0.497230 0.593408 0.000000
0.575799 0.592889 0.000000
0.646296 0.597162 0.072023
0.717586 0.613519 0.032105
0.780636 0.625055 0.000000
0.831022 0.628016 0.000000
0.872465 0.626062 0.000000
0.908202 0.622187 0.000000
0.940215 0.617975 0.000000
0.968170 0.614038 0.000000
0.989654 0.612055 0.000000
1.000000 0.611231 0.000000
1.000000 0.611200 0.000000
1.000000 0.611963 0.000000
1.000000 0.614252 0.000000
1.000000 0.618524 0.144442
1.000000 0.625422 0.225193
1.000000 0.635584 0.296452
1.000000 0.649653 0.366796
1.000000 0.668055 0.437568
1.000000 0.690913 0.508568
0.000000 0.636835 0.260990
0.000000 0.638056 0.258701
0.000000 0.638209 0.254826
0.000000 0.639521 0.247196
0.000000 0.641474 0.234012
0.000000 0.644556 0.213565
0.000000 0.646387 0.146731
0.000000 0.647517 0.055146
0.138827 0.648402 0.000000
0.257847 0.650507 0.000000
0.368902 0.651423 0.000000
0.473976 0.650843 0.000000
0.560204 0.649653 0.000000
0.630762 0.647181 0.000000
0.692653 0.647456 0.094392
0.752132 0.656123 0.104433
0.806882 0.663142 0.000000
0.851804 0.663752 0.000000
0.890471 0.661280 0.000000
0.924712 0.657679 0.000000
0.955688 0.653712 0.000000
0.983551 0.649226 0.000000
1.000000 0.645045 0.000000
1.000000 0.642603 0.000000
1.000000 0.640742 0.000000
1.000000 0.639734 0.000000
1.000000 0.640528 0.000000
1.000000 0.643763 0.161105
1.000000 0.650202 0.246281
1.000000 0.660487 0.323613
1.000000 0.675196 0.399603
1.000000 0.694545 0.475380
0.000000 0.697536 0.299443
0.000000 0.698543 0.297642
0.000000 0.698268 0.294255
0.000000 0.698360 0.286442
0.000000 0.698573 0.273289
0.000000 0.699611 0.254612
0.000000 0.701320 0.213748
0.000000 0.702510 0.106996
0.066285 0.702449 0.054932
0.229221 0.703517 0.000000
0.332586 0.705165 0.000000
0.444038 0.704738 0.000000
0.539330 0.702937 0.000000
0.616358 0.699947 0.000000
0.679164 0.695094 0.073548
0.731197 0.689815 0.122530
0.782620 0.694057 0.151034
0.831235 0.698085 0.058869
0.872618 0.697688 0.000000
0.908995 0.695155 0.000000
0.941619 0.691554 0.000000
0.970886 0.687068 0.000000
0.996735 0.681453 0.000000
1.000000 0.674891 0.000000
1.000000 0.670710 0.000000
1.000000 0.667536 0.000000
1.000000 0.665705 0.000000
1.000000 0.666224 0.024933
1.000000 0.669795 0.191409
1.000000 0.677150 0.282902
1.000000 0.688930 0.367956
1.000000 0.705226 0.450446
0.000000 0.750240 0.338323
0.000000 0.751308 0.337133
0.000000 0.751705 0.334356
0.000000 0.752407 0.327672
0.000000 0.753445 0.317144
0.000000 0.755245 0.301457
0.000000 0.758206 0.280888
0.000000 0.760098 0.201877
0.000000 0.761044 0.126894
0.205905 0.760372 0.077760
0.316075 0.759182 0.000000
0.409339 0.757076 0.000000
0.512200 0.751858 0.000000
0.594293 0.745968 0.000000
0.661128 0.739193 0.059174
0.716152 0.731563 0.111849
0.761593 0.723629 0.150179
0.807950 0.725978 0.191775
0.853696 0.729854 0.130983
0.893523 0.730343 0.000000
0.928801 0.728664 0.000000
0.960143 0.725307 0.000000
0.987701 0.720272 0.000000
1.000000 0.713985 0.000000
1.000000 0.706447 0.000000
1.000000 0.699092 0.000000
1.000000 0.694759 0.000000
1.000000 0.692073 0.000000
1.000000 0.692103 0.111147
1.000000 0.695399 0.232059
1.000000 0.702724 0.325719
1.000000 0.714382 0.412757
0.000000 0.792111 0.373510
0.000000 0.792386 0.371588
0.000000 0.792325 0.368780
0.000000 0.792752 0.363317
0.000000 0.793545 0.354284
0.000000 0.794736 0.341161
0.000000 0.796811 0.323583
0.000000 0.798795 0.274205
0.000000 0.800870 0.175753
0.169406 0.799802 0.143618
0.290593 0.798184 0.094820
0.384710 0.796109 0.000000
0.475746 0.792477 0.000000
0.566491 0.786587 0.000000
0.639551 0.779690 0.058137
0.699153 0.771939 0.111574
0.748989 0.763882 0.148867
0.791165 0.756191 0.181369
0.832242 0.756069 0.233127
0.874846 0.759304 0.183352
0.912444 0.759426 0.126192
0.945647 0.757321 0.000000
0.974914 0.753201 0.000000
1.000000 0.747707 0.000000
1.000000 0.740810 0.000000
1.000000 0.732723 0.000000
1.000000 0.723659 0.000000
1.000000 0.717464 0.000000
1.000000 0.714321 0.000000
1.000000 0.714199 0.156374
1.000000 0.717769 0.272068
1.000000 0.725582 0.369177
0.000000 0.831052 0.409918
0.000000 0.832303 0.409400
0.000000 0.866758 0.444404
0.000000 0.866636 0.439521
0.000000 0.866209 0.431312
0.000000 0.865660 0.420142
0.000000 0.865080 0.405158
0.139071 0.864836 0.378546
0.115267 0.865446 0.299992
0.195102 0.864378 0.234775
0.307286 0.860868 0.200839
0.396765 0.856565 0.157687
0.474708 0.851164 0.090669
0.558556 0.844022 0.072480
0.636072 0.835752 0.117159
0.699367 0.827176 0.151339
0.752316 0.818387 0.181064
0.796719 0.809751 0.209506
0.834745 0.801694 0.236851
0.869200 0.798306 0.295384
0.906584 0.798581 0.253788
0.940063 0.796445 0.209873
0.969574 0.792111 0.163119
0.995422 0.785977 0.100710
1.000000 0.778073 0.000000
1.000000 0.768978 0.000000
1.000000 0.759060 0.000000
1.000000 0.748501 0.000000
1.000000 0.738186 0.000000
1.000000 0.734646 0.000000
1.000000 0.734340 0.201266
1.000000 0.737972 0.314275
0.000000 0.872374 0.453712
0.000000 0.876463 0.457130
0.000000 0.880583 0.460273
0.000000 0.884031 0.460548
0.000000 0.886473 0.457282
0.000000 0.887266 0.450080
0.000000 0.887266 0.438422
0.175235 0.886870 0.423224
0.188205 0.887510 0.369818
0.171237 0.888731 0.281590
0.286473 0.885496 0.252903
0.374975 0.881682 0.218021
0.451575 0.876677 0.174441
0.520134 0.870848 0.109407
0.601068 0.862882 0.126528
0.670253 0.854398 0.157137
0.727687 0.845945 0.185367
0.776394 0.837705 0.211917
0.818418 0.830137 0.238804
0.855039 0.823575 0.266148
0.887968 0.820676 0.321843
0.922759 0.820859 0.298070
0.954650 0.818845 0.261082
0.982513 0.814450 0.223178
1.000000 0.807858 0.181338
1.000000 0.799954 0.130312
1.000000 0.790829 0.019959
1.000000 0.781003 0.000000
1.000000 0.770443 0.000000
1.000000 0.758846 0.000000
1.000000 0.752895 0.078492
1.000000 0.752743 0.247990
0.000000 0.896757 0.482124
0.000000 0.900084 0.485359
0.000000 0.903349 0.488197
0.000000 0.906157 0.488594
0.000000 0.908049 0.486366
0.000000 0.908598 0.480171
0.071351 0.908354 0.471260
0.196902 0.907897 0.459144
0.247532 0.907988 0.430823
0.232303 0.909331 0.360906
0.274723 0.908690 0.302739
0.360082 0.905272 0.273228
0.433967 0.900847 0.237186
0.500908 0.895628 0.192782
0.565240 0.889250 0.143374
0.640497 0.881102 0.170657
0.702815 0.872923 0.195773
0.755673 0.864988 0.221164
0.801175 0.857725 0.246311
0.841123 0.851377 0.272587
0.876280 0.845914 0.299809
0.907805 0.843656 0.353887
0.939239 0.842954 0.345495
0.968994 0.840513 0.313298
0.994812 0.835416 0.279728
1.000000 0.828489 0.245853
1.000000 0.820218 0.209201
1.000000 0.811093 0.169741
1.000000 0.801266 0.123171
1.000000 0.790494 0.021271
1.000000 0.778744 0.059571
1.000000 0.768978 0.149599
0.000000 0.919097 0.510033
0.000000 0.921874 0.513298
0.000000 0.924620 0.515831
0.000000 0.926879 0.516594
0.000000 0.928313 0.515190
0.000000 0.928618 0.510582
0.135073 0.928191 0.503258
0.224094 0.927459 0.493782
0.294560 0.926665 0.482460
0.287877 0.927672 0.428962
0.272709 0.929259 0.350866
0.350896 0.926085 0.324041
0.420508 0.922179 0.293065
0.484657 0.917662 0.256077
0.544335 0.912505 0.212070
0.609216 0.906249 0.187991
0.678004 0.899351 0.213535
0.736416 0.892973 0.239902
0.786984 0.887388 0.267277
0.831388 0.882658 0.295750
0.870573 0.878721 0.325200
0.905272 0.875425 0.355840
0.934874 0.873564 0.408728
0.962280 0.871641 0.415930
0.989166 0.868376 0.389349
1.000000 0.862547 0.362402
1.000000 0.854978 0.335851
1.000000 0.846250 0.309850
1.000000 0.836545 0.284031
1.000000 0.825772 0.256718
1.000000 0.814084 0.235782
1.000000 0.802365 0.247807
0.000000 0.949096 0.552819
0.000000 0.950103 0.553735
0.000000 0.950866 0.554437
0.000000 0.951324 0.553521
0.000000 0.951354 0.550988
0.122774 0.950866 0.546990
0.204929 0.950134 0.541436
0.270878 0.949310 0.534905
0.331456 0.948547 0.527306
0.356481 0.948943 0.500114
0.343481 0.950927 0.439918
0.367193 0.950744 0.388617
0.428077 0.947539 0.361364
0.485481 0.943664 0.329503
0.540337 0.939117 0.292241
0.593164 0.934081 0.248081
0.657130 0.927672 0.245396
0.718746 0.921080 0.268894
0.771756 0.915068 0.293706
0.817929 0.909636 0.319310
0.858366 0.904753 0.345769
0.894133 0.900481 0.373083
0.925750 0.896605 0.400885
0.952209 0.893400 0.447761
0.975158 0.889769 0.464668
0.999664 0.885710 0.440284
1.000000 0.879698 0.417639
1.000000 0.872282 0.396399
1.000000 0.863554 0.375708
1.000000 0.853758 0.355352
1.000000 0.843107 0.334722
1.000000 0.832364 0.331426
0.000000 0.966217 0.579248
0.000000 0.967071 0.580285
0.000000 0.967773 0.581109
0.000000 0.968109 0.580804
0.125093 0.967956 0.579065
0.192416 0.967285 0.575860
0.249668 0.966278 0.571405
0.303288 0.965118 0.566369
0.356146 0.963958 0.560845
0.405554 0.962921 0.553368
0.393500 0.964691 0.504448
0.380255 0.966674 0.439704
0.429633 0.964202 0.412970
0.481514 0.961028 0.385107
0.531823 0.957366 0.352544
0.581537 0.953277 0.316228
0.630121 0.948882 0.273655
0.694087 0.942779 0.289799
0.750729 0.937011 0.314244
0.799832 0.931853 0.339849
0.842924 0.927276 0.366217
0.881010 0.923217 0.393774
0.914794 0.919646 0.421546
0.944793 0.916381 0.449683
0.965057 0.908568 0.478584
0.984710 0.904143 0.506096
1.000000 0.900114 0.485847
1.000000 0.894163 0.466743
1.000000 0.886839 0.449378
1.000000 0.878477 0.434363
1.000000 0.869383 0.420630
1.000000 0.859800 0.407813
0.132906 0.986969 0.616327
0.154635 0.987701 0.617975
0.174289 0.988037 0.618616
0.202548 0.987884 0.618067
0.236728 0.987182 0.616449
0.274022 0.986114 0.613672
0.313787 0.984619 0.610132
0.354955 0.982879 0.605829
0.397772 0.980987 0.601007
0.441291 0.979034 0.596063
0.450080 0.978851 0.567681
0.435920 0.980285 0.515190
0.444648 0.980072 0.467231
0.486549 0.976989 0.440558
0.529168 0.973297 0.409827
0.572320 0.969146 0.374914
0.616144 0.964691 0.336095
0.663691 0.959899 0.303410
0.723598 0.953979 0.325963
0.775998 0.948882 0.350927
0.821866 0.944488 0.377478
0.862181 0.940490 0.404944
0.897673 0.936645 0.431495
0.928923 0.932860 0.457313
0.956481 0.929046 0.482002
0.979156 0.925200 0.520195
0.995026 0.919890 0.557244
1.000000 0.915221 0.538659
1.000000 0.909087 0.523186
1.000000 0.901946 0.510491
1.000000 0.894163 0.501335
1.000000 0.886137 0.494728
0.213535 0.998688 0.638758
0.227237 0.999268 0.640375
0.240055 0.999542 0.641199
0.260319 0.999298 0.641047
0.286503 0.998627 0.640009
0.317144 0.997589 0.638239
0.351598 0.996246 0.636072
0.388159 0.994659 0.633631
0.427436 0.992950 0.631281
0.468360 0.991119 0.629267
0.500877 0.989685 0.621820
0.488258 0.991394 0.579644
0.474495 0.993286 0.525536
0.503685 0.991485 0.498665
0.539178 0.988830 0.472053
0.576287 0.985718 0.441962
0.615015 0.982269 0.408728
0.654963 0.978729 0.372076
0.703761 0.974334 0.358251
0.758175 0.969177 0.382422
0.805844 0.964477 0.407507
0.847623 0.960296 0.433600
0.884367 0.956298 0.459297
0.916808 0.952514 0.484993
0.945617 0.948760 0.509697
0.971160 0.945068 0.533349
0.992340 0.941375 0.568048
1.000000 0.935515 0.614557
1.000000 0.930999 0.601831
1.000000 0.925200 0.592340
1.000000 0.918669 0.586694
1.000000 0.911955 0.584985
0.286137 1.000000 0.664729
0.295323 1.000000 0.665736
0.303349 1.000000 0.666102
0.318029 1.000000 0.665949
0.337682 1.000000 0.664851
0.362158 1.000000 0.663416
0.390814 1.000000 0.662013
0.422797 1.000000 0.660578
0.457954 1.000000 0.659632
0.495338 1.000000 0.659419
0.533684 0.999359 0.659846
0.537255 1.000000 0.635737
0.524712 1.000000 0.592767
0.525963 1.000000 0.551751
0.553735 1.000000 0.528191
0.583978 0.998413 0.501579
0.616449 0.995697 0.471992
0.651179 0.992828 0.439460
0.687739 0.989929 0.404883
0.737301 0.985473 0.407965
0.786648 0.980713 0.432288
0.829984 0.976318 0.457343
0.867979 0.972229 0.482551
0.901579 0.968261 0.507103
0.931365 0.964477 0.530968
0.957977 0.960784 0.554711
0.981872 0.957366 0.578058
1.000000 0.954040 0.609613
1.000000 0.947814 0.662226
1.000000 0.943572 0.655116
1.000000 0.938415 0.651881
1.000000 0.932982 0.652888
0.338781 1.000000 0.686275
0.345190 1.000000 0.687037
0.352331 1.000000 0.687465
0.364691 1.000000 0.687617
0.383093 1.000000 0.687770
0.406744 1.000000 0.688258
0.436286 1.000000 0.689876
0.469429 1.000000 0.692256
0.506340 1.000000 0.696132
0.545129 1.000000 0.701320
0.584070 1.000000 0.707332
0.610925 1.000000 0.705989
0.603510 1.000000 0.677272
0.594141 1.000000 0.640009
0.608179 1.000000 0.617609
0.628229 1.000000 0.595636
0.650721 1.000000 0.570489
0.676143 1.000000 0.543175
0.704433 1.000000 0.513634
0.734951 1.000000 0.481971
0.781918 1.000000 0.500145
0.824399 0.996643 0.523552
0.861784 0.992279 0.547082
0.894804 0.988159 0.570367
0.924224 0.984253 0.593347
0.950530 0.980529 0.615595
0.974212 0.977081 0.637079
0.995392 0.973907 0.658198
1.000000 0.971069 0.684627
1.000000 0.964202 0.733944
1.000000 0.959808 0.734707
1.000000 0.955047 0.736049
0.427192 1.000000 0.722530
0.431647 1.000000 0.723140
0.436439 1.000000 0.723445
0.445533 1.000000 0.723598
0.459602 1.000000 0.723934
0.478218 1.000000 0.724819
0.501244 1.000000 0.726375
0.528008 1.000000 0.728878
0.557763 1.000000 0.732357
0.589349 1.000000 0.736904
0.621271 1.000000 0.741939
0.653162 1.000000 0.747646
0.652888 1.000000 0.729854
0.642908 1.000000 0.700069
