data/fiter_cube/65184230/1022644/file.cube
# Created by Adobe Lightroom plugin Export LUT (1.17.0)
# www.johnrellis.com/lightroom/exportlut.htm
# Preset: ins网红旅拍风景人像_03 云集
# Color profile: C:\Program Files (x86)\Common Files\Adobe\Color\Profiles\Recommended\AdobeRGB1998.icc
LUT_3D_SIZE 8
DOMAIN_MIN 0.000000 0.000000 0.000000
DOMAIN_MAX 0.903226 0.903226 0.903226
0.000000 0.000000 0.000000
0.100771 0.013733 0.043275
0.297612 0.000000 0.065980
0.567987 0.000000 0.066285
0.808316 0.000000 0.082155
0.955413 0.259739 0.160159
1.000000 0.408637 0.284977
1.000000 0.549187 0.463355
0.000000 0.088716 0.065675
0.089265 0.091005 0.048859
0.297429 0.076722 0.013764
0.551537 0.000000 0.000000
0.786618 0.106264 0.000000
0.930602 0.267948 0.104799
1.000000 0.400397 0.236759
1.000000 0.537102 0.425513
0.000000 0.281865 0.119966
0.000000 0.299046 0.060670
0.258183 0.281956 0.034943
0.595972 0.332372 0.000000
0.811673 0.367559 0.000000
0.943359 0.417456 0.000000
1.000000 0.499031 0.190463
1.000000 0.587274 0.409247
0.000000 0.566796 0.222538
0.000000 0.578149 0.195682
0.181674 0.591485 0.000000
0.575799 0.592889 0.000000
0.831022 0.628016 0.000000
0.968170 0.614038 0.000000
1.000000 0.611963 0.000000
1.000000 0.635584 0.296452
0.000000 0.792111 0.373510
0.000000 0.793545 0.354284
0.000000 0.800870 0.175753
0.475746 0.792477 0.000000
0.748989 0.763882 0.148867
0.912444 0.759426 0.126192
1.000000 0.740810 0.000000
1.000000 0.714321 0.000000
0.000000 0.919097 0.510033
0.000000 0.928313 0.515190
0.294560 0.926665 0.482460
0.420508 0.922179 0.293065
0.678004 0.899351 0.213535
0.870573 0.878721 0.325200
0.989166 0.868376 0.389349
1.000000 0.836545 0.284031
0.213535 0.998688 0.638758
0.286503 0.998627 0.640009
0.427436 0.992950 0.631281
0.474495 0.993286 0.525536
0.615015 0.982269 0.408728
0.805844 0.964477 0.407507
0.945617 0.948760 0.509697
1.000000 0.930999 0.601831
0.473274 1.000000 0.743465
0.502770 1.000000 0.745907
0.594049 1.000000 0.758175
0.700862 1.000000 0.776211
0.672114 1.000000 0.658167
0.755276 1.000000 0.572595
0.894591 1.000000 0.640101
0.989044 0.990204 0.718196
0.003113 0.013275 0.084749
0.091127 0.010071 0.084230
0.259525 0.000000 0.098878
0.524804 0.000000 0.095247
0.765255 0.000000 0.076509
0.915282 0.225132 0.108858
1.000000 0.371344 0.232486
1.000000 0.514305 0.415473
0.001160 0.074372 0.089631
0.090333 0.091310 0.098177
0.274113 0.091188 0.094362
0.528832 0.000000 0.080507
0.759396 0.126925 0.033539
0.905364 0.257725 0.056306
1.000000 0.374060 0.195560
1.000000 0.503502 0.377691
0.000000 0.255558 0.153902
0.026062 0.279271 0.145907
0.257542 0.277165 0.111604
0.570550 0.310033 0.000000
0.773220 0.334508 0.000000
0.913085 0.391821 0.000000
1.000000 0.463325 0.123049
1.000000 0.553582 0.351995
0.000000 0.524956 0.246464
0.000000 0.539757 0.233463
0.180240 0.560967 0.099306
0.521782 0.537835 0.114961
0.770871 0.566461 0.000000
0.924437 0.567102 0.000000
1.000000 0.580529 0.000000
1.000000 0.612024 0.239109
0.000000 0.775479 0.396246
0.000000 0.774533 0.378302
0.019928 0.778866 0.255283
0.445136 0.762875 0.057618
0.715236 0.730282 0.176455
0.889372 0.735653 0.149508
1.000000 0.725460 0.000000
1.000000 0.705013 0.000000
0.000000 0.904143 0.515679
0.000000 0.905119 0.508354
0.261173 0.905669 0.477180
0.401556 0.905303 0.307408
0.662898 0.887266 0.234958
0.862516 0.871672 0.345861
0.982727 0.862547 0.398016
1.000000 0.830869 0.284916
0.150698 0.987884 0.631373
0.222812 0.985534 0.625940
0.387335 0.981872 0.617395
0.469703 0.983612 0.533623
0.606317 0.975769 0.418158
0.796475 0.957916 0.407630
0.936706 0.940673 0.498848
1.000000 0.923613 0.580133
0.445380 1.000000 0.738338
0.480415 1.000000 0.742153
0.576959 1.000000 0.754147
0.700618 1.000000 0.780087
0.695918 1.000000 0.693721
0.762264 1.000000 0.601312
0.893065 1.000000 0.644923
0.987304 0.988495 0.714290
0.000000 0.039979 0.191257
0.099397 0.023011 0.194400
0.306035 0.000000 0.214237
0.537987 0.000000 0.232517
0.762112 0.096254 0.251865
0.913939 0.279271 0.274327
1.000000 0.411902 0.323644
1.000000 0.530419 0.433967
0.000000 0.095338 0.198886
0.089540 0.100465 0.210483
0.301335 0.109133 0.223239
0.508110 0.125734 0.234592
0.751675 0.170748 0.239445
0.904753 0.298100 0.256321
1.000000 0.415595 0.301091
1.000000 0.527916 0.408179
0.000000 0.226078 0.224338
0.053437 0.253727 0.240940
0.278202 0.289342 0.240208
0.567132 0.307225 0.223545
0.777920 0.350195 0.219303
0.913664 0.410559 0.228763
1.000000 0.482368 0.273350
1.000000 0.558129 0.366217
0.000000 0.519188 0.357153
0.000000 0.538415 0.360662
0.257694 0.571862 0.315801
0.547478 0.557885 0.280858
0.791012 0.578851 0.214054
0.927031 0.573358 0.161288
1.000000 0.592798 0.220157
1.000000 0.623590 0.319310
0.000000 0.761318 0.481392
0.000000 0.766140 0.476997
0.267399 0.776516 0.446418
0.468299 0.774563 0.293187
0.732845 0.747372 0.337224
0.896147 0.743923 0.303227
1.000000 0.724086 0.160586
1.000000 0.709194 0.225223
0.000000 0.898375 0.579004
0.000000 0.899382 0.576562
0.313878 0.898558 0.558160
0.431189 0.898741 0.433112
0.654627 0.881193 0.347753
0.854093 0.865507 0.436225
0.976287 0.859525 0.467689
1.000000 0.830777 0.376410
0.228702 0.986419 0.678859
0.286442 0.984558 0.676448
0.420417 0.979370 0.668055
0.553460 0.974548 0.642115
0.618250 0.971221 0.508019
0.794491 0.956451 0.482460
0.937224 0.943236 0.576165
1.000000 0.929442 0.648066
0.450019 1.000000 0.760708
0.473915 1.000000 0.760433
0.567437 1.000000 0.768734
0.699641 1.000000 0.795682
0.716579 1.000000 0.737972
0.773617 1.000000 0.662104
0.894408 1.000000 0.688197
0.986786 0.989166 0.753048
0.000000 0.060426 0.348302
0.081361 0.027405 0.364294
0.343603 0.000000 0.395239
0.610834 0.000000 0.426947
0.788754 0.165682 0.440314
0.879362 0.323339 0.454261
0.983581 0.444190 0.489784
1.000000 0.563012 0.557153
0.000000 0.107698 0.370367
0.037079 0.113771 0.381415
0.352239 0.132998 0.411597
0.610590 0.112856 0.436835
0.775998 0.243137 0.442176
0.871031 0.346807 0.449165
0.981140 0.450935 0.478523
1.000000 0.563073 0.545312
0.000000 0.245548 0.368658
0.000000 0.254154 0.376104
0.281315 0.286748 0.414710
0.583429 0.355962 0.453986
0.735134 0.390845 0.449287
0.889616 0.450507 0.456916
0.996399 0.535515 0.496345
1.000000 0.607630 0.549645
0.000000 0.463294 0.438209
0.000000 0.485512 0.454017
0.301244 0.533501 0.487861
0.550744 0.556878 0.469642
0.769192 0.557824 0.429053
0.898039 0.571221 0.425422
0.995666 0.603632 0.447883
1.000000 0.649683 0.509514
0.000000 0.750790 0.600549
0.000000 0.751614 0.597131
0.319951 0.760952 0.589044
0.512444 0.776913 0.524346
0.740200 0.756802 0.518120
0.898436 0.748928 0.473152
1.000000 0.724544 0.406043
1.000000 0.721706 0.457160
0.000000 0.896941 0.676844
0.188235 0.903868 0.684749
0.386908 0.900084 0.674372
0.566735 0.897337 0.654719
0.665553 0.889708 0.522332
0.857023 0.871550 0.582238
0.973602 0.862333 0.578698
1.000000 0.827512 0.486427
0.285100 0.980468 0.740536
0.339574 0.980163 0.741573
0.468788 0.977722 0.742580
0.613306 0.972961 0.743008
0.669490 0.971618 0.662196
0.798825 0.959442 0.602869
0.935546 0.944579 0.672541
1.000000 0.930816 0.709407
0.490333 1.000000 0.804715
0.517632 1.000000 0.806668
0.589044 1.000000 0.810117
0.693843 1.000000 0.820981
0.769100 1.000000 0.815763
0.792996 1.000000 0.744472
0.895171 1.000000 0.743343
0.985809 0.989288 0.799741
0.000000 0.074952 0.545739
0.045686 0.042298 0.560418
0.381262 0.000000 0.593164
0.617426 0.000000 0.620691
0.833707 0.211795 0.650996
0.922087 0.397620 0.634333
0.976532 0.527153 0.652644
1.000000 0.668879 0.727016
0.000000 0.126223 0.553887
0.000000 0.130159 0.568933
0.376257 0.134676 0.601373
0.619471 0.156100 0.628138
0.828641 0.294011 0.654261
0.915404 0.434150 0.637720
0.972168 0.545800 0.656214
1.000000 0.671992 0.724636
0.000000 0.259861 0.524498
0.000000 0.267002 0.543786
0.293706 0.293767 0.592584
0.619257 0.387335 0.648066
0.808011 0.462776 0.661067
0.884489 0.512169 0.633814
0.952941 0.585626 0.654688
1.000000 0.668849 0.702022
0.000000 0.454536 0.567864
0.000000 0.460853 0.571374
0.196689 0.484260 0.586877
0.540276 0.541436 0.635554
0.752834 0.607813 0.657130
0.848142 0.608240 0.635737
0.957488 0.641077 0.645014
1.000000 0.688838 0.676478
0.000000 0.669093 0.633021
0.000000 0.682643 0.643702
0.290532 0.714137 0.669154
0.570794 0.743801 0.696193
0.722530 0.739925 0.660029
0.873686 0.721218 0.613153
0.970672 0.718135 0.609430
1.000000 0.734432 0.636683
0.148287 0.865354 0.746639
0.236881 0.866087 0.746670
0.396979 0.865141 0.742428
0.560388 0.866300 0.735744
0.668086 0.867796 0.678126
0.841642 0.859770 0.690272
0.965179 0.853422 0.670100
1.000000 0.817197 0.603998
0.338415 0.967651 0.802823
0.375799 0.966278 0.801724
0.482887 0.963256 0.800473
0.613062 0.960510 0.800504
0.727565 0.957885 0.792599
0.782650 0.954253 0.691798
0.927642 0.939483 0.746700
1.000000 0.924712 0.749355
0.492348 1.000000 0.842039
0.514031 1.000000 0.842191
0.580804 1.000000 0.843412
0.685695 1.000000 0.853178
0.777493 1.000000 0.858610
0.813260 1.000000 0.819150
0.889311 0.999390 0.787747
0.982910 0.987121 0.834775
0.000000 0.112490 0.741176
0.158145 0.089937 0.749813
0.430945 0.033661 0.767819
0.678828 0.192325 0.800473
0.817594 0.241489 0.797421
0.940612 0.451575 0.787472
0.993713 0.601068 0.782620
1.000000 0.712917 0.808560
0.000000 0.151369 0.731197
0.110414 0.151125 0.737362
0.409094 0.156954 0.758785
0.667414 0.257664 0.795682
0.809537 0.301030 0.793210
0.933837 0.481880 0.785855
0.988922 0.614160 0.782620
1.000000 0.717617 0.808408
0.000000 0.286534 0.718288
0.000000 0.284398 0.728817
0.339147 0.314733 0.757076
0.643183 0.413458 0.798276
0.810697 0.476936 0.809354
0.923766 0.598810 0.799832
0.977630 0.672541 0.794186
1.000000 0.746242 0.816953
0.000000 0.465797 0.707057
0.000000 0.464302 0.706050
0.000000 0.464057 0.710170
0.557366 0.549462 0.785885
0.806790 0.672541 0.828916
0.913024 0.734371 0.827573
0.962280 0.745846 0.812100
1.000000 0.787320 0.830320
0.000000 0.655055 0.739040
0.000000 0.658595 0.741146
0.154971 0.668940 0.747372
0.458991 0.685298 0.758022
0.717067 0.732052 0.791379
0.859190 0.776242 0.803830
0.928862 0.769711 0.790707
1.000000 0.795590 0.808103
0.000000 0.816861 0.777584
0.000000 0.825162 0.785092
0.315312 0.840940 0.799924
0.558862 0.853849 0.815061
0.736416 0.863127 0.828702
0.840116 0.859403 0.806943
0.952483 0.841062 0.776974
1.000000 0.835203 0.781979
0.398352 0.957519 0.864958
0.446571 0.957916 0.867674
0.557305 0.955718 0.871427
0.660487 0.953735 0.871885
0.754971 0.951995 0.869230
0.816220 0.951110 0.835477
0.927031 0.939757 0.834043
1.000000 0.923033 0.816312
0.535943 1.000000 0.890898
0.553674 1.000000 0.890745
0.610224 1.000000 0.890898
0.693294 1.000000 0.893706
0.776730 1.000000 0.896086
0.855711 0.997314 0.898558
0.883696 0.997864 0.842344
0.981353 0.985809 0.881041
0.110903 0.187747 0.865965
0.255924 0.184207 0.872648
0.479408 0.167910 0.884367
0.684474 0.259220 0.899748
0.851225 0.425849 0.912871
0.918791 0.417456 0.878538
0.993042 0.606744 0.862821
1.000000 0.726131 0.863249
0.140658 0.184848 0.858976
0.253971 0.188510 0.864530
0.458106 0.206180 0.875090
0.666560 0.289433 0.890105
0.840635 0.449012 0.905241
0.908019 0.431830 0.870817
0.986603 0.606378 0.857176
1.000000 0.718349 0.857237
0.000000 0.304173 0.857786
0.000000 0.310124 0.860746
0.394659 0.334417 0.869902
0.637049 0.410559 0.886473
0.828885 0.555993 0.903929
0.905241 0.554101 0.880095
0.981598 0.686397 0.870542
1.000000 0.765713 0.872465
0.000000 0.463661 0.824552
0.000000 0.460731 0.828305
0.137118 0.462531 0.847105
0.552697 0.526207 0.875181
0.796994 0.656947 0.899626
0.904692 0.701442 0.898589
0.975036 0.779843 0.890837
1.000000 0.815457 0.888365
0.000000 0.635218 0.829801
0.000000 0.631647 0.827634
0.000000 0.622858 0.824369
0.287816 0.606287 0.822812
0.685939 0.689845 0.870756
0.886412 0.793423 0.902281
0.961273 0.838804 0.900114
0.998352 0.852232 0.896880
0.000000 0.794705 0.852384
0.000000 0.795285 0.852750
0.000000 0.796841 0.854124
0.396277 0.799588 0.857420
0.602899 0.801724 0.859831
0.825071 0.841886 0.887297
0.938018 0.882597 0.902342
0.984466 0.881712 0.898863
0.000000 0.921416 0.882383
0.075593 0.922911 0.884154
0.337499 0.925322 0.887816
0.540459 0.932311 0.898070
0.714412 0.935332 0.906584
0.855100 0.939910 0.919066
0.922759 0.934691 0.903777
0.996246 0.914305 0.882322
0.482521 1.000000 0.925811
0.510124 1.000000 0.926329
0.600305 1.000000 0.930205
0.708827 0.997803 0.935210
0.796078 0.994110 0.938415
0.867735 0.991730 0.940581
0.915709 0.990967 0.930236
0.980224 0.984314 0.928496
0.280247 0.311986 0.949279
0.348760 0.315526 0.951324
0.503075 0.322179 0.953521
0.678828 0.364111 0.959808
0.832944 0.461402 0.965393
0.936187 0.547387 0.966155
0.987732 0.564782 0.933471
1.000000 0.704585 0.907195
0.276127 0.305791 0.946532
0.344366 0.309056 0.948638
0.499214 0.316716 0.951598
0.673304 0.354528 0.957366
0.825681 0.475898 0.962402
0.931823 0.565637 0.963775
0.983734 0.574914 0.931701
1.000000 0.709071 0.906706
0.200259 0.339239 0.943450
0.282780 0.344945 0.944701
0.452766 0.362188 0.945892
0.645716 0.431830 0.954162
0.808957 0.542412 0.959075
0.923583 0.641047 0.961212
0.976623 0.637720 0.933745
1.000000 0.748196 0.912902
0.000000 0.455238 0.929259
0.000000 0.455848 0.932372
0.266361 0.458991 0.938445
0.564569 0.515801 0.946044
0.772702 0.618921 0.953918
0.915526 0.742855 0.961059
0.968383 0.727199 0.940826
1.000000 0.808072 0.925689
0.000000 0.613092 0.910399
0.000000 0.610163 0.911162
0.000000 0.589197 0.908324
0.264073 0.572290 0.924468
0.669612 0.655848 0.940856
0.878111 0.779538 0.954589
0.961456 0.810513 0.952300
1.000000 0.870451 0.942260
0.000000 0.768399 0.919768
0.000000 0.765164 0.918486
0.000000 0.755184 0.915587
0.000000 0.737148 0.912902
0.381964 0.704646 0.909575
0.786862 0.796445 0.942046
0.958038 0.896971 0.966705
0.996063 0.924926 0.959808
0.000000 0.897612 0.937011
0.000000 0.896635 0.936614
0.000000 0.893919 0.935912
0.322850 0.891173 0.936736
0.537530 0.888304 0.937987
0.715694 0.887266 0.940002
0.905943 0.916564 0.954681
0.985840 0.952697 0.965454
0.184360 0.990356 0.954650
0.180880 0.990509 0.954223
0.331182 0.989105 0.954467
0.505638 0.986999 0.955993
0.671931 0.985107 0.959228
0.817105 0.985504 0.965728
0.930510 0.983001 0.971832
0.976928 0.980804 0.969421
