data/fiter_cube/28334299/1023171/file.cube
# Created by Adobe Lightroom plugin Export LUT (1.17.0)
# www.johnrellis.com/lightroom/exportlut.htm
# Preset: 梦幻人像_10 云集
# Color profile: C:\Program Files (x86)\Common Files\Adobe\Color\Profiles\Recommended\AdobeRGB1998.icc
LUT_3D_SIZE 8
DOMAIN_MIN 0.000000 0.000000 0.000000
DOMAIN_MAX 0.903226 0.903226 0.903226
0.080903 0.072755 0.063203
0.126101 0.070069 0.067842
0.247837 0.000000 0.073548
0.404120 0.000000 0.080964
0.563043 0.000000 0.096712
0.726192 0.000000 0.124453
0.863615 0.000000 0.168734
0.966278 0.000000 0.231174
0.093202 0.110506 0.079774
0.114443 0.114900 0.076448
0.247593 0.116793 0.073304
0.398322 0.061646 0.082795
0.557092 0.000000 0.101900
0.717708 0.000000 0.132937
0.853056 0.000000 0.177340
0.959533 0.000000 0.239872
0.111452 0.194064 0.115389
0.121675 0.188388 0.110079
0.186069 0.205447 0.097871
0.407477 0.256840 0.081422
0.565454 0.238041 0.102480
0.725277 0.202670 0.137087
0.866819 0.167880 0.194614
0.967590 0.185702 0.269200
0.136690 0.284276 0.160220
0.149508 0.280949 0.158114
0.158572 0.254704 0.135225
0.277653 0.316167 0.132937
0.565148 0.427100 0.112734
0.741604 0.419776 0.150576
0.862882 0.394171 0.206882
0.960052 0.386145 0.281376
0.163088 0.376257 0.208621
0.176059 0.373724 0.208072
0.183963 0.347570 0.185397
0.186862 0.302495 0.150942
0.350347 0.405188 0.163668
0.656855 0.546929 0.145418
0.846159 0.562432 0.216434
0.949310 0.547997 0.299809
0.188907 0.469245 0.259892
0.201602 0.473579 0.262791
0.213993 0.451606 0.244572
0.213840 0.405402 0.205386
0.224643 0.358587 0.170260
0.432044 0.507561 0.198764
0.766995 0.682643 0.224826
0.930663 0.701778 0.332006
0.227970 0.602258 0.337682
0.237858 0.601526 0.337469
0.253788 0.582696 0.322484
0.251865 0.541558 0.281956
0.243473 0.477607 0.226474
0.293950 0.472694 0.204685
0.538170 0.641840 0.252415
0.857939 0.800259 0.345892
0.333989 0.779660 0.468727
0.340307 0.777218 0.467140
0.362036 0.770382 0.462837
0.362646 0.756741 0.435554
0.336217 0.703914 0.367529
0.328923 0.662776 0.305180
0.461799 0.721828 0.323522
0.704433 0.830320 0.416632
0.085573 0.076020 0.085115
0.114412 0.071565 0.090761
0.216312 0.059266 0.112337
0.369085 0.000000 0.133059
0.528771 0.000000 0.145388
0.688869 0.000000 0.158511
0.834104 0.000000 0.181430
0.948821 0.000000 0.226596
0.091829 0.109163 0.092195
0.129610 0.116670 0.102144
0.240848 0.102327 0.110780
0.387091 0.000000 0.120363
0.540551 0.000000 0.133150
0.692653 0.000000 0.152468
0.828489 0.000000 0.182589
0.941802 0.000000 0.233768
0.114992 0.198550 0.127199
0.144045 0.202213 0.133700
0.199985 0.211582 0.122316
0.397467 0.244053 0.125795
0.549371 0.222293 0.140871
0.701808 0.182101 0.165866
0.838926 0.133913 0.206210
0.949981 0.147768 0.271031
0.141207 0.287694 0.169467
0.161013 0.289158 0.172396
0.177279 0.267979 0.153567
0.278477 0.310582 0.147707
0.537102 0.398505 0.141848
0.703578 0.390539 0.170504
0.833860 0.369787 0.213230
0.943145 0.365484 0.280461
0.168551 0.381415 0.217777
0.181247 0.378271 0.216770
0.197910 0.356634 0.199496
0.197848 0.309545 0.162203
0.348058 0.397894 0.173434
0.643641 0.530816 0.161715
0.831418 0.547875 0.229526
0.938933 0.535912 0.304295
0.191073 0.467750 0.263767
0.201541 0.465858 0.263218
0.221988 0.449928 0.251377
0.221775 0.406928 0.213321
0.227176 0.356420 0.176150
0.433600 0.506157 0.208316
0.763424 0.676326 0.236301
0.924987 0.693416 0.337743
0.223880 0.589807 0.333562
0.231693 0.584527 0.330419
0.255833 0.571832 0.322026
0.255161 0.535576 0.284550
0.247898 0.476112 0.231510
0.290959 0.463508 0.206424
0.529442 0.628870 0.252811
0.849393 0.789212 0.338201
0.322026 0.769345 0.461463
0.330419 0.768795 0.461646
0.355383 0.763302 0.459327
0.361212 0.750637 0.435126
0.354009 0.721675 0.386908
0.338323 0.672480 0.316289
0.456672 0.714809 0.321935
0.697749 0.822507 0.410437
0.095338 0.079774 0.137942
0.117372 0.072480 0.147494
0.203922 0.049653 0.165194
0.315984 0.032776 0.191135
0.481483 0.000000 0.230381
0.656031 0.000000 0.264286
0.815885 0.000000 0.288548
0.940185 0.000000 0.314549
0.106813 0.105196 0.151369
0.129732 0.104982 0.161471
0.218692 0.094453 0.177615
0.332403 0.092012 0.198215
0.492073 0.000000 0.228855
0.660548 0.000000 0.256382
0.814725 0.000000 0.277684
0.938872 0.000000 0.306523
0.116365 0.208652 0.174136
0.149264 0.216495 0.183047
0.253727 0.230961 0.206271
0.396826 0.214328 0.215824
0.554894 0.177462 0.229435
0.703853 0.101167 0.245457
0.836759 0.000000 0.270665
0.946929 0.000000 0.314519
0.145541 0.321996 0.212284
0.171695 0.324956 0.216770
0.246921 0.327001 0.229923
0.324620 0.340612 0.216068
0.569482 0.399908 0.244938
0.711818 0.379706 0.264500
0.840116 0.362524 0.297063
0.945647 0.366979 0.350866
0.174197 0.408911 0.251102
0.192813 0.408911 0.253117
0.247532 0.406287 0.258824
0.255711 0.362921 0.220615
0.386023 0.427131 0.228916
0.671351 0.539971 0.248875
0.832517 0.541588 0.308232
0.938537 0.534844 0.368872
0.199130 0.493294 0.293431
0.213199 0.492470 0.294316
0.252995 0.485328 0.294011
0.265660 0.446845 0.260929
0.253605 0.380072 0.207431
0.452491 0.517479 0.247837
0.772549 0.674464 0.289067
0.930022 0.693355 0.402045
0.233646 0.613428 0.361608
0.243320 0.609552 0.359655
0.272770 0.596948 0.353063
0.290013 0.565118 0.324468
0.277623 0.503227 0.265141
0.298589 0.465949 0.225528
0.546593 0.641474 0.286992
0.869322 0.802670 0.390356
0.326574 0.778225 0.478981
0.331212 0.774685 0.476051
0.355505 0.767605 0.472328
0.388220 0.761837 0.465034
0.376013 0.731472 0.413519
0.357824 0.684688 0.341436
0.457008 0.713039 0.335668
0.708003 0.827268 0.436774
0.110994 0.080934 0.208835
0.133089 0.072633 0.218814
0.199588 0.007263 0.249821
0.311986 0.000000 0.260380
0.418982 0.000000 0.279728
0.577020 0.000000 0.326268
0.755550 0.000000 0.371618
0.904417 0.000000 0.400183
0.121187 0.098268 0.225406
0.140841 0.094972 0.233768
0.206607 0.073487 0.262181
0.324712 0.000000 0.271733
0.427161 0.048707 0.284672
0.586145 0.000000 0.328985
0.758846 0.000000 0.368933
0.906126 0.000000 0.395727
0.130129 0.180209 0.235477
0.153933 0.180758 0.243473
0.226261 0.188998 0.280522
0.356390 0.177218 0.300847
0.467536 0.194644 0.311101
0.636133 0.144717 0.349401
0.799802 0.000000 0.379034
0.926909 0.000000 0.397833
0.141573 0.333074 0.282872
0.170474 0.338872 0.289708
0.261570 0.356909 0.312749
0.408545 0.379644 0.350011
0.556970 0.362921 0.358282
0.699672 0.338170 0.368170
0.830411 0.318181 0.386664
0.940734 0.326909 0.422217
0.182498 0.466926 0.325933
0.205020 0.465339 0.326757
0.273594 0.463264 0.333227
0.373266 0.460700 0.351385
0.455421 0.473640 0.335515
0.706905 0.546136 0.389807
0.832670 0.532708 0.418341
0.936461 0.533104 0.461952
0.212406 0.545983 0.355657
0.231327 0.550683 0.360632
0.280064 0.543328 0.360784
0.350103 0.531334 0.363653
0.341344 0.463355 0.299657
0.502190 0.553521 0.329412
0.797482 0.678859 0.390967
0.932921 0.691371 0.494118
0.245518 0.648981 0.409339
0.257450 0.648341 0.409735
0.293858 0.642481 0.408118
0.346380 0.627466 0.402014
0.346777 0.571221 0.345586
0.317571 0.477668 0.263615
0.574640 0.658900 0.345800
0.882048 0.803067 0.459205
0.347509 0.800473 0.519707
0.355657 0.799954 0.519951
0.377600 0.794461 0.516228
0.417517 0.784176 0.510918
0.426184 0.757076 0.472267
0.398291 0.709804 0.392676
0.452735 0.705104 0.355688
0.720974 0.830655 0.474983
0.131136 0.078920 0.292912
0.150484 0.070222 0.300969
0.208743 0.000000 0.324956
0.304295 0.000000 0.355291
0.421363 0.000000 0.363287
0.538659 0.000000 0.389166
0.678828 0.000000 0.429389
0.860166 0.000000 0.487831
0.139651 0.087861 0.303044
0.156863 0.083192 0.311620
0.211734 0.058625 0.335760
0.308080 0.000000 0.366278
0.430701 0.000000 0.372442
0.544732 0.000000 0.393225
0.687037 0.000000 0.433265
0.863828 0.000000 0.487129
0.139376 0.165927 0.323461
0.160128 0.166964 0.331548
0.217838 0.161074 0.353704
0.315801 0.138674 0.396033
0.456489 0.115908 0.397803
0.558007 0.142824 0.401678
0.709712 0.077058 0.442451
0.873381 0.000000 0.482002
0.152926 0.283635 0.337102
0.174380 0.285313 0.342748
0.244816 0.290532 0.363195
0.354528 0.312139 0.419226
0.501640 0.305547 0.443366
0.596368 0.313115 0.433600
0.759030 0.272313 0.465278
0.901457 0.218265 0.482429
0.170687 0.458473 0.398810
0.196628 0.463416 0.404700
0.275761 0.477790 0.423163
0.398230 0.500847 0.455695
0.551781 0.523888 0.496345
0.690455 0.505455 0.500267
0.816739 0.489540 0.509819
0.926665 0.488716 0.532250
0.221012 0.600305 0.441779
0.240848 0.599695 0.442817
0.298711 0.594995 0.444862
0.382788 0.588464 0.451179
0.477760 0.572168 0.459083
0.568536 0.591577 0.447974
0.817380 0.677302 0.537316
0.925689 0.677028 0.580011
0.262119 0.692836 0.479408
0.274296 0.690547 0.478462
0.314275 0.684627 0.477058
0.373938 0.674830 0.474952
0.440955 0.652369 0.466072
0.408667 0.562585 0.367834
0.610224 0.674495 0.427802
0.893523 0.793362 0.537621
0.354589 0.812284 0.559625
0.361639 0.810666 0.558770
0.385626 0.805875 0.556207
0.433783 0.806027 0.560113
0.479652 0.788876 0.547448
0.464424 0.743465 0.475380
0.432105 0.676265 0.371008
0.728603 0.824430 0.512779
0.150820 0.075959 0.395819
0.168673 0.065553 0.402106
0.222293 0.000000 0.421088
0.304692 0.000000 0.458137
0.418952 0.000000 0.474861
0.541833 0.000000 0.484199
0.674098 0.000000 0.520500
0.812741 0.000000 0.561975
0.161227 0.070192 0.395605
0.175875 0.062745 0.401282
0.223819 0.000000 0.421637
0.303105 0.000000 0.459693
0.419776 0.000000 0.479225
0.543999 0.000000 0.486366
0.674159 0.000000 0.519554
0.811490 0.000000 0.559594
0.151583 0.148867 0.414649
0.168154 0.146426 0.419471
0.220706 0.136507 0.438880
0.306584 0.108064 0.477607
0.430671 0.000000 0.507195
0.564446 0.000000 0.507561
0.686519 0.000000 0.527672
0.818265 0.000000 0.560754
0.156130 0.244694 0.409918
0.171756 0.247654 0.419440
0.235721 0.263096 0.458045
0.324224 0.263249 0.501671
0.447547 0.249088 0.558038
0.604517 0.232975 0.550164
0.711879 0.241917 0.546715
0.848631 0.235904 0.575189
0.170962 0.400458 0.453620
0.190921 0.402197 0.458015
0.254032 0.406897 0.472847
0.351354 0.412207 0.498177
0.478096 0.435920 0.561028
0.636713 0.429755 0.585626
0.727108 0.423682 0.561242
0.879118 0.398047 0.587701
0.196048 0.586847 0.521721
0.219974 0.592157 0.527825
0.289403 0.602594 0.541741
0.394659 0.619104 0.565484
0.527367 0.638483 0.597406
0.689662 0.667384 0.645869
0.811643 0.655695 0.652277
0.918578 0.650111 0.664881
0.301274 0.755734 0.587366
0.318090 0.756466 0.589654
0.365972 0.753506 0.592248
0.436378 0.747707 0.596246
0.516472 0.734859 0.597559
0.602075 0.705867 0.593561
0.687984 0.716670 0.576501
0.912352 0.800290 0.687465
0.388739 0.842496 0.631128
0.396307 0.841154 0.630640
0.422614 0.837644 0.630182
0.468360 0.834257 0.632044
0.520562 0.824094 0.627771
0.575677 0.800137 0.611933
0.516960 0.726314 0.485084
0.753811 0.825803 0.587671
0.164157 0.078309 0.516655
0.182040 0.067628 0.524987
0.235325 0.000000 0.542290
0.314733 0.000000 0.573358
0.413428 0.000000 0.614374
0.539300 0.000000 0.606226
0.663722 0.000000 0.612329
0.807004 0.000000 0.657465
0.170291 0.074098 0.509758
0.186709 0.062959 0.517296
0.236606 0.000000 0.534478
0.312108 0.000000 0.563470
0.406836 0.000000 0.603235
0.530144 0.000000 0.596643
0.652461 0.000000 0.600336
0.792874 0.000000 0.642878
0.163882 0.123812 0.526116
0.179995 0.119753 0.530327
0.229618 0.102510 0.544030
0.306035 0.029145 0.571862
0.404059 0.000000 0.610651
0.536584 0.000000 0.614405
0.670130 0.000000 0.619501
0.809079 0.000000 0.655512
0.133944 0.228855 0.535912
0.153780 0.226688 0.538628
0.210697 0.219821 0.552087
0.296330 0.207370 0.583490
0.403784 0.177432 0.625177
0.548119 0.119478 0.649317
0.697841 0.000000 0.649805
0.824704 0.079805 0.665187
0.147951 0.345190 0.518334
0.164492 0.341558 0.518334
0.214298 0.330510 0.522698
0.291112 0.339879 0.570245
0.400275 0.337255 0.619409
0.539483 0.321935 0.673335
0.711879 0.302647 0.665919
0.830808 0.322087 0.665309
0.164981 0.521569 0.576196
0.184085 0.521965 0.578546
0.241245 0.522545 0.586877
0.324895 0.522210 0.601984
0.433417 0.515679 0.620722
0.586023 0.547723 0.687221
0.753140 0.551995 0.713649
0.843809 0.543725 0.687037
0.224491 0.722133 0.654658
0.245243 0.725093 0.658381
0.306004 0.730098 0.666255
0.398535 0.738674 0.680629
0.514885 0.747097 0.698787
0.657557 0.760433 0.727382
0.803159 0.788052 0.773342
0.906126 0.777981 0.778073
0.422065 0.870176 0.711879
0.432166 0.869993 0.713039
0.473518 0.872831 0.721553
0.528344 0.871702 0.728939
0.592096 0.866239 0.734707
0.659846 0.855528 0.737270
0.719509 0.826108 0.722499
0.802976 0.837339 0.707179
0.169345 0.104219 0.658534
0.187411 0.097169 0.663478
0.239963 0.055299 0.671565
0.316381 0.000000 0.692714
0.407630 0.000000 0.720394
0.516899 0.000000 0.747372
0.655726 0.000000 0.739895
0.786587 0.000000 0.745296
0.171084 0.101869 0.653223
0.188510 0.094514 0.658106
0.239750 0.051484 0.667536
0.314305 0.000000 0.687098
0.404791 0.000000 0.715023
0.513054 0.000000 0.742275
0.649805 0.000000 0.733028
0.779538 0.000000 0.737697
0.172274 0.101106 0.652857
0.188510 0.093996 0.656397
0.237705 0.050874 0.663172
0.313512 0.000000 0.689113
0.402319 0.000000 0.714809
0.506737 0.000000 0.741360
0.646082 0.000000 0.732631
0.778805 0.000000 0.737575
0.098390 0.188327 0.650782
0.126986 0.186007 0.655390
0.195071 0.173831 0.664515
0.282231 0.148867 0.686427
0.382116 0.083925 0.715602
0.492958 0.000000 0.749691
0.645747 0.000000 0.747555
0.789853 0.000000 0.749996
0.000000 0.300664 0.627619
0.032502 0.299535 0.634485
0.121523 0.288945 0.650935
0.227420 0.272190 0.673793
0.346166 0.250370 0.704799
0.472358 0.208286 0.743313
0.635065 0.135927 0.761288
0.801938 0.000000 0.763973
0.071809 0.462470 0.648463
0.098421 0.458259 0.647120
0.158511 0.443977 0.645167
0.229740 0.416297 0.645563
0.321721 0.400488 0.680446
0.462257 0.397131 0.738430
0.631373 0.393561 0.796323
0.829953 0.390936 0.796628
0.150088 0.653407 0.710811
0.166781 0.651789 0.710536
0.216464 0.646754 0.711086
0.291569 0.640223 0.716091
0.387793 0.628992 0.723812
0.507012 0.611078 0.735134
0.679591 0.646845 0.796658
0.854368 0.664332 0.827756
0.314763 0.851591 0.786435
0.325383 0.851225 0.786587
0.365332 0.851804 0.789303
0.437018 0.854704 0.796719
0.534264 0.857572 0.807309
0.647669 0.861051 0.821927
0.773465 0.868681 0.844358
0.899199 0.891081 0.883177
