data/fiter_cube/28334299/1023171/file.cube
# Created by Adobe Lightroom plugin Export LUT (1.17.0)
# www.johnrellis.com/lightroom/exportlut.htm
# Preset: 梦幻人像_10 云集
# Color profile: C:\Program Files (x86)\Common Files\Adobe\Color\Profiles\Recommended\AdobeRGB1998.icc
LUT_3D_SIZE 32
DOMAIN_MIN 0.0 0.0 0.0
DOMAIN_MAX 1.0 1.0 1.0
0.080903 0.072755 0.063203
0.085267 0.072663 0.063905
0.090700 0.072694 0.064576
0.104616 0.072053 0.066041
0.126101 0.070069 0.067842
0.151583 0.064210 0.069093
0.180941 0.050568 0.070649
0.213077 0.017182 0.071992
0.247837 0.000000 0.073548
0.284703 0.000000 0.074861
0.323552 0.000000 0.076539
0.363470 0.000000 0.078828
0.404120 0.000000 0.080964
0.444434 0.000000 0.084352
0.484260 0.000000 0.087892
0.523949 0.000000 0.092073
0.563043 0.000000 0.096712
0.600885 0.000000 0.101930
0.637629 0.000000 0.107790
0.679774 0.000000 0.115267
0.726192 0.000000 0.124453
0.767025 0.000000 0.134676
0.802731 0.000000 0.145541
0.834623 0.000000 0.156985
0.863615 0.000000 0.168734
0.890684 0.000000 0.181552
0.916625 0.000000 0.195895
0.941772 0.000000 0.212284
0.966278 0.000000 0.231174
0.989929 0.000000 0.253361
1.000000 0.000000 0.279789
1.000000 0.000000 0.311376
0.082673 0.076875 0.065278
0.084504 0.077272 0.065187
0.091279 0.078096 0.065248
0.105623 0.078126 0.066590
0.127077 0.076967 0.068330
0.152621 0.073213 0.069825
0.182010 0.065766 0.071199
0.214115 0.049470 0.073121
0.248631 0.006592 0.074617
0.285283 0.000000 0.075837
0.323278 0.000000 0.077790
0.362768 0.000000 0.079683
0.402625 0.000000 0.082185
0.442451 0.000000 0.085237
0.481941 0.000000 0.088777
0.521019 0.000000 0.093080
0.559960 0.000000 0.097597
0.597711 0.000000 0.102754
0.634150 0.000000 0.108461
0.676265 0.000000 0.115846
0.721248 0.000000 0.124697
0.761410 0.000000 0.134279
0.796994 0.000000 0.144778
0.829007 0.000000 0.155825
0.858213 0.000000 0.167391
0.885710 0.000000 0.179995
0.912169 0.000000 0.194034
0.937743 0.000000 0.210330
0.962646 0.000000 0.229160
0.986786 0.000000 0.251194
1.000000 0.000000 0.277348
1.000000 0.000000 0.308415
0.084535 0.081697 0.067842
0.085969 0.081788 0.067781
0.089326 0.082856 0.067536
0.105989 0.086366 0.067262
0.127810 0.085878 0.068574
0.152987 0.083009 0.070008
0.181827 0.077974 0.071290
0.213474 0.068788 0.072877
0.247837 0.049653 0.074586
0.284550 0.000000 0.076387
0.323217 0.000000 0.078431
0.363226 0.000000 0.080690
0.403265 0.000000 0.083619
0.442756 0.000000 0.086854
0.481819 0.000000 0.090578
0.520745 0.000000 0.094728
0.559350 0.000000 0.099214
0.596857 0.000000 0.104250
0.633204 0.000000 0.109957
0.675563 0.000000 0.117311
0.719661 0.000000 0.125978
0.759304 0.000000 0.135561
0.794675 0.000000 0.145815
0.826566 0.000000 0.156558
0.855833 0.000000 0.167971
0.883299 0.000000 0.180484
0.909941 0.000000 0.194430
0.935729 0.000000 0.210636
0.960876 0.000000 0.229252
0.985138 0.000000 0.251347
1.000000 0.000000 0.277287
1.000000 0.000000 0.308171
0.088563 0.094148 0.072694
0.090242 0.094148 0.072633
0.091676 0.093935 0.072267
0.100313 0.097261 0.071565
0.127443 0.102876 0.069612
0.155001 0.101808 0.069581
0.183383 0.098787 0.071168
0.214450 0.093385 0.072633
0.248112 0.084993 0.073884
0.284367 0.070893 0.075959
0.322271 0.037415 0.077913
0.361730 0.000000 0.080476
0.401526 0.000000 0.083497
0.441474 0.000000 0.087648
0.481270 0.000000 0.091829
0.520775 0.000000 0.097169
0.559869 0.000000 0.102632
0.597528 0.000000 0.108186
0.633173 0.000000 0.113924
0.675502 0.000000 0.121096
0.717464 0.000000 0.129366
0.756069 0.000000 0.138430
0.791135 0.000000 0.148562
0.823545 0.000000 0.159457
0.853758 0.000000 0.171176
0.882231 0.000000 0.183932
0.909545 0.000000 0.198398
0.935668 0.000000 0.215061
0.960815 0.000000 0.233890
0.984833 0.000000 0.255772
1.000000 0.000000 0.281315
1.000000 0.000000 0.311559
0.093202 0.110506 0.079774
0.095338 0.110658 0.080018
0.096773 0.110231 0.079347
0.099092 0.108766 0.077821
0.114443 0.114900 0.076448
0.149722 0.124178 0.072206
0.184634 0.124910 0.071046
0.214847 0.121950 0.072053
0.247593 0.116793 0.073304
0.282872 0.110140 0.075227
0.320104 0.100252 0.076722
0.358892 0.085084 0.079866
0.398322 0.061646 0.082795
0.438087 0.000000 0.086854
0.477699 0.000000 0.091249
0.517388 0.000000 0.096529
0.557092 0.000000 0.101900
0.595270 0.000000 0.108003
0.633753 0.000000 0.115145
0.676448 0.000000 0.123629
0.717708 0.000000 0.132937
0.755886 0.000000 0.143130
0.790890 0.000000 0.154604
0.823056 0.000000 0.165591
0.853056 0.000000 0.177340
0.881468 0.000000 0.190219
0.908568 0.000000 0.204685
0.934600 0.000000 0.221042
0.959533 0.000000 0.239872
0.983398 0.000000 0.261509
1.000000 0.000000 0.287114
1.000000 0.000000 0.317357
0.097627 0.128878 0.087282
0.100710 0.129458 0.087953
0.101656 0.128389 0.086915
0.103761 0.126589 0.085084
0.108431 0.125002 0.083619
0.129915 0.134951 0.081025
0.173892 0.148806 0.075166
0.212436 0.152041 0.072724
0.249363 0.150088 0.072816
0.284001 0.146212 0.074250
0.320684 0.140780 0.076295
0.358740 0.133242 0.079225
0.397589 0.123232 0.082338
0.436927 0.109346 0.086275
0.476295 0.089754 0.090883
0.515953 0.057191 0.096010
0.555627 0.000000 0.101778
0.593927 0.000000 0.107576
0.635340 0.000000 0.115572
0.677150 0.000000 0.123842
0.717952 0.000000 0.133242
0.756069 0.000000 0.143923
0.829007 0.000000 0.172030
0.859068 0.000000 0.186465
0.886320 0.000000 0.201144
0.911589 0.000000 0.216800
0.935302 0.000000 0.233982
0.957855 0.000000 0.252873
0.979431 0.000000 0.274083
0.999939 0.000000 0.296605
1.000000 0.072724 0.322759
1.000000 0.168734 0.353613
0.102449 0.151980 0.096895
0.105165 0.152163 0.097292
0.106783 0.151858 0.096559
0.108797 0.149416 0.094240
0.111849 0.146151 0.091127
0.120668 0.146761 0.089387
0.149630 0.160067 0.086549
0.202243 0.178012 0.079072
0.247593 0.185763 0.074311
0.294316 0.187289 0.073365
0.331273 0.183871 0.076081
0.369543 0.179232 0.078950
0.408209 0.172946 0.082704
0.446937 0.164950 0.086641
0.485573 0.153964 0.091432
0.524041 0.140932 0.096712
0.562615 0.123476 0.102724
0.603723 0.102144 0.109438
0.646693 0.071290 0.117617
0.689845 0.000000 0.127260
0.732448 0.000000 0.137850
0.773098 0.000000 0.150454
0.811032 0.000000 0.164614
0.845853 0.000000 0.180270
0.877195 0.000000 0.196689
0.904906 0.000000 0.213626
0.929961 0.000000 0.231296
0.953277 0.000000 0.250584
0.975402 0.000000 0.271855
0.996338 0.072755 0.296117
1.000000 0.150637 0.324132
1.000000 0.214328 0.357031
0.106386 0.172641 0.105776
0.109010 0.172824 0.105928
0.111666 0.172824 0.105837
0.113771 0.170321 0.103395
0.116304 0.166598 0.099825
0.119448 0.161837 0.095949
0.133608 0.166690 0.094667
0.167391 0.182315 0.091707
0.221927 0.201022 0.084718
0.276310 0.215885 0.075990
0.324865 0.220340 0.076875
0.368933 0.219303 0.078126
0.406806 0.215274 0.081880
0.444953 0.209903 0.086122
0.483192 0.203006 0.090791
0.521294 0.194553 0.096101
0.562188 0.185245 0.102358
0.604395 0.174533 0.109529
0.645075 0.162173 0.117342
0.686427 0.146609 0.126680
0.727962 0.128725 0.137331
0.767727 0.109346 0.149538
0.805234 0.088167 0.163638
0.839841 0.064942 0.178958
0.871214 0.033051 0.195163
0.899229 0.021088 0.211612
0.924743 0.042817 0.229221
0.948516 0.077424 0.248325
0.971160 0.112734 0.269902
0.992554 0.151034 0.293828
1.000000 0.194827 0.321935
1.000000 0.243198 0.354803
0.111452 0.194064 0.115389
0.113710 0.194095 0.115511
0.116793 0.194400 0.116030
0.119295 0.192203 0.113802
0.121675 0.188388 0.110079
0.124819 0.183505 0.105623
0.128206 0.177493 0.101350
0.148287 0.187564 0.100587
0.186069 0.205447 0.097871
0.241855 0.224949 0.091829
0.305608 0.247501 0.079469
0.355840 0.254276 0.080568
0.407477 0.256840 0.081422
0.445075 0.252903 0.085939
0.482612 0.247868 0.090913
0.523796 0.243565 0.096345
0.565454 0.238041 0.102480
0.605402 0.230594 0.109773
0.644617 0.221653 0.117891
0.684810 0.212436 0.126864
0.725277 0.202670 0.137087
0.764370 0.192355 0.149447
0.801328 0.182620 0.163516
0.835569 0.174380 0.178317
0.866819 0.167880 0.194614
0.894987 0.163851 0.211398
0.920714 0.164981 0.228885
0.944762 0.171725 0.247807
0.967590 0.185702 0.269200
0.989227 0.207401 0.293309
1.000000 0.237156 0.321050
1.000000 0.274754 0.353338
0.117281 0.215579 0.125704
0.119417 0.215610 0.125856
0.121981 0.215702 0.125948
0.125612 0.214267 0.124788
0.127718 0.210300 0.120974
0.130587 0.205081 0.116396
0.133364 0.199100 0.111452
0.138491 0.191775 0.108125
0.164218 0.208591 0.107332
0.205417 0.228733 0.104952
0.262974 0.250340 0.099519
0.333471 0.278080 0.085939
0.385168 0.287175 0.084657
0.439002 0.293004 0.087373
0.487739 0.294011 0.090669
0.528832 0.291264 0.096803
0.569329 0.287083 0.102998
0.608484 0.281407 0.110292
0.646876 0.274907 0.118593
0.685939 0.267918 0.127840
0.724758 0.260685 0.138277
0.761898 0.252842 0.150027
0.796994 0.245426 0.163272
0.829953 0.238590 0.177493
0.860563 0.232914 0.193027
0.888731 0.229068 0.209598
0.915099 0.228092 0.227176
0.939910 0.231266 0.246830
0.963561 0.240391 0.268681
0.985992 0.255833 0.293095
1.000000 0.278965 0.321569
1.000000 0.310491 0.354955
0.123049 0.236271 0.135897
0.125032 0.236393 0.136172
0.127901 0.236454 0.136263
0.132479 0.235904 0.135897
0.134371 0.231998 0.132204
0.136873 0.226993 0.127596
0.139467 0.220951 0.122377
0.142214 0.213687 0.116823
0.151278 0.210727 0.114778
0.180880 0.230228 0.114412
0.225193 0.252537 0.112367
0.286809 0.278599 0.108095
0.365118 0.312413 0.094087
0.420142 0.324681 0.089204
0.475135 0.332616 0.093843
0.530968 0.336645 0.096864
0.570031 0.332830 0.103395
0.607996 0.328099 0.110658
0.645441 0.322454 0.119020
0.683803 0.316838 0.127993
0.721889 0.311223 0.138521
0.758602 0.305119 0.150301
0.793576 0.299138 0.163729
0.826383 0.293431 0.178134
0.856870 0.288304 0.193851
0.884977 0.284184 0.210422
0.911223 0.282322 0.227787
0.936095 0.283482 0.247105
0.959838 0.288975 0.268650
0.982391 0.299992 0.293126
1.000000 0.317815 0.321599
1.000000 0.343786 0.354955
0.129335 0.257877 0.146761
0.131075 0.257816 0.146883
0.133577 0.257908 0.146975
0.139010 0.257816 0.147463
0.141176 0.254368 0.144106
0.143496 0.249210 0.139437
0.145876 0.243107 0.134035
0.148257 0.236057 0.128115
0.150912 0.228122 0.122133
0.165530 0.231724 0.121553
0.199832 0.254582 0.122164
0.248356 0.280705 0.121309
0.330510 0.327398 0.122805
0.421759 0.369757 0.107698
0.481544 0.384649 0.098360
0.539849 0.394324 0.105959
0.596033 0.398505 0.112367
0.641291 0.395453 0.119509
0.677272 0.388739 0.128786
0.713100 0.382177 0.139010
0.747585 0.375311 0.150759
0.780575 0.368505 0.163272
0.811856 0.361547 0.177096
0.841520 0.355230 0.191775
0.869383 0.349645 0.207279
0.895445 0.345373 0.223972
0.919921 0.342657 0.241459
0.943084 0.342626 0.260777
0.965240 0.346136 0.282231
0.986450 0.354528 0.306706
1.000000 0.368872 0.334966
1.000000 0.390967 0.368750
0.136690 0.284276 0.160220
0.138369 0.284184 0.160220
0.140902 0.283848 0.160067
0.145693 0.283635 0.160403
0.149508 0.280949 0.158114
0.151553 0.275944 0.153445
0.153933 0.269932 0.147982
0.156283 0.262730 0.141817
0.158572 0.254704 0.135225
0.161074 0.245884 0.128664
0.183108 0.257511 0.130404
0.222873 0.284855 0.132265
0.277653 0.316167 0.132937
0.349065 0.350927 0.131075
0.442481 0.395270 0.118868
0.507408 0.416327 0.106386
0.565148 0.427100 0.112734
0.619623 0.431983 0.121218
0.672419 0.432898 0.128847
0.707607 0.426490 0.139284
0.741604 0.419776 0.150576
0.774380 0.413153 0.163516
0.805447 0.406378 0.177066
0.834989 0.400000 0.191531
0.862882 0.394171 0.206882
0.889128 0.389227 0.223239
0.913878 0.385687 0.240848
0.937407 0.384405 0.260166
0.960052 0.386145 0.281376
0.981750 0.392248 0.306279
1.000000 0.403815 0.334905
1.000000 0.422644 0.368811
0.143771 0.309270 0.173007
0.145632 0.309270 0.173220
0.147860 0.308843 0.173098
0.152346 0.308446 0.173190
0.157229 0.306065 0.171572
0.158968 0.300450 0.166629
0.160830 0.293767 0.160708
0.162905 0.286229 0.154177
0.165072 0.277928 0.147372
0.166812 0.268498 0.140169
0.170748 0.258305 0.134890
0.198581 0.278874 0.137423
0.241215 0.308049 0.139986
0.297795 0.340764 0.141085
0.369177 0.376043 0.140383
0.460212 0.418921 0.130892
0.531243 0.446143 0.116579
0.587671 0.457221 0.119234
0.641596 0.463386 0.129885
0.694301 0.466285 0.139681
0.736233 0.462745 0.151583
0.768978 0.456367 0.163943
0.800015 0.449714 0.177768
0.829709 0.443397 0.192325
0.857725 0.437354 0.208011
0.884154 0.432105 0.224521
0.909178 0.427955 0.242008
0.933013 0.425818 0.261204
0.955962 0.426307 0.282933
0.977996 0.430854 0.307805
0.998871 0.440284 0.337102
1.000000 0.456367 0.371466
0.150698 0.332799 0.185428
0.152316 0.332738 0.185519
0.154269 0.332311 0.185428
0.158480 0.331456 0.185122
0.164736 0.329778 0.184573
0.165896 0.323735 0.179263
0.167605 0.316991 0.173434
0.169253 0.309148 0.166751
0.171084 0.300511 0.159548
0.172824 0.291234 0.151980
0.174136 0.281071 0.144350
0.181003 0.272404 0.140597
0.213901 0.299565 0.144228
0.258976 0.330388 0.147372
0.316960 0.363989 0.149142
0.387976 0.399725 0.149081
0.476143 0.441077 0.142306
0.553857 0.474647 0.127443
0.610132 0.486763 0.125826
0.664302 0.494972 0.138979
0.716243 0.499001 0.151278
0.763729 0.498390 0.164797
0.794644 0.491707 0.178561
0.824338 0.485237 0.193301
0.852628 0.479103 0.209049
0.879545 0.473762 0.226078
0.905303 0.469673 0.244450
0.930022 0.467475 0.264958
0.953796 0.467781 0.287938
0.976562 0.471901 0.314458
0.998016 0.480751 0.345403
1.000000 0.496162 0.382422
0.156954 0.355291 0.197421
0.158419 0.355444 0.197604
0.160464 0.355077 0.197391
0.164614 0.354345 0.197208
0.170962 0.353246 0.197055
0.173434 0.348211 0.192813
0.175051 0.341802 0.187198
0.176608 0.334173 0.180484
0.178225 0.325658 0.173312
0.179385 0.315862 0.165042
0.180484 0.305058 0.156771
0.180911 0.292973 0.147951
0.193606 0.291539 0.146883
0.229068 0.319738 0.150729
0.275547 0.350988 0.154086
0.333867 0.384771 0.156527
0.404578 0.420935 0.157107
0.489784 0.461067 0.153048
0.575830 0.502373 0.138949
0.633936 0.517052 0.133059
0.689021 0.527581 0.148898
0.739956 0.532616 0.164858
0.786069 0.533043 0.181155
0.822354 0.528588 0.197513
0.850767 0.522362 0.213901
0.877897 0.516838 0.231388
0.903838 0.512383 0.250309
0.928618 0.509606 0.271092
0.952361 0.509239 0.294865
0.974914 0.511986 0.321721
0.996063 0.518944 0.352850
1.000000 0.531914 0.389685
0.163088 0.376257 0.208621
0.164279 0.376135 0.208621
0.166140 0.375708 0.208438
0.170138 0.374914 0.208286
0.176059 0.373724 0.208072
0.180056 0.370001 0.205142
0.181308 0.363592 0.199374
0.182589 0.356054 0.192813
0.183963 0.347570 0.185397
0.185183 0.337987 0.177279
0.186313 0.327428 0.168795
0.186618 0.315465 0.159731
0.186862 0.302495 0.150942
0.206210 0.309483 0.152316
0.243748 0.338842 0.156924
0.291600 0.370733 0.160586
0.350347 0.405188 0.163668
0.421149 0.442237 0.165042
0.504051 0.481605 0.163973
0.598260 0.530297 0.150576
0.656855 0.546929 0.145418
0.711482 0.558068 0.158938
0.760678 0.563409 0.178042
0.805509 0.564538 0.196811
0.846159 0.562432 0.216434
0.873655 0.556756 0.234348
0.899962 0.552056 0.254002
0.925200 0.549004 0.275517
0.949310 0.547997 0.299809
0.972168 0.549950 0.327825
0.993652 0.555962 0.360021
1.000000 0.567620 0.398291
0.169589 0.398230 0.220706
0.170748 0.398413 0.220859
0.177523 0.413428 0.229252
0.181216 0.412512 0.228977
0.187076 0.410803 0.228336
0.192782 0.407538 0.226383
0.193484 0.400244 0.220066
0.194308 0.391730 0.212711
0.195224 0.382269 0.204532
0.195956 0.371740 0.195682
0.196262 0.360021 0.186099
0.196292 0.347021 0.176059
0.195621 0.332891 0.165682
0.196628 0.316960 0.157290
0.222324 0.333959 0.160342
0.262882 0.365057 0.165560
0.313512 0.398688 0.170291
0.374578 0.435004 0.174258
0.446754 0.473854 0.176944
0.529198 0.513176 0.178775
0.630121 0.567346 0.167697
0.689754 0.585748 0.164096
0.742214 0.595605 0.175998
0.788724 0.600153 0.197879
0.830442 0.600488 0.219516
0.868254 0.598016 0.240574
0.898222 0.593164 0.260777
0.922606 0.588525 0.281712
0.946380 0.586297 0.305821
0.969268 0.587213 0.334081
0.990875 0.592004 0.367071
1.000000 0.601923 0.405768
0.177005 0.424720 0.235264
0.179019 0.426551 0.236423
0.181186 0.428351 0.237461
0.185336 0.429267 0.238071
0.191257 0.429175 0.238407
0.198550 0.427802 0.238163
0.199557 0.421332 0.232303
0.200259 0.413123 0.225010
0.200870 0.403906 0.216983
0.201633 0.393713 0.208316
0.201877 0.382300 0.198703
0.201816 0.369818 0.188632
0.201144 0.355749 0.177981
0.199741 0.340520 0.166995
0.202213 0.323522 0.160037
0.234684 0.351110 0.165377
0.276829 0.382879 0.171023
0.328283 0.417304 0.176181
0.390204 0.454688 0.180758
0.462837 0.494728 0.184817
0.544915 0.535119 0.188357
0.647852 0.590814 0.182437
0.711574 0.614313 0.179538
0.763210 0.624414 0.188540
0.808255 0.629297 0.213657
0.849027 0.630549 0.237827
0.886015 0.629267 0.262425
0.919524 0.626978 0.287846
0.943481 0.624170 0.312749
0.966491 0.624170 0.341741
0.988220 0.627924 0.375433
1.000000 0.636500 0.415229
0.182834 0.446174 0.247105
0.184604 0.447944 0.248173
0.186984 0.449561 0.249149
0.190799 0.450538 0.249821
0.196201 0.450385 0.249973
0.203067 0.449012 0.249577
0.206058 0.443610 0.245090
0.206577 0.435798 0.238102
0.207279 0.426978 0.230381
0.207706 0.416999 0.221653
0.208194 0.406195 0.212406
0.208164 0.393927 0.202243
0.207401 0.380011 0.191226
0.206149 0.365148 0.180026
0.203922 0.348669 0.168429
0.212375 0.339269 0.164828
0.247807 0.369512 0.170748
0.291630 0.402380 0.176730
0.344854 0.438209 0.182589
0.408057 0.477211 0.188113
0.480964 0.517876 0.193545
0.563165 0.559564 0.199100
0.665736 0.615229 0.198154
0.734340 0.643793 0.197269
0.784634 0.653681 0.203952
0.828550 0.658778 0.231662
0.868101 0.660639 0.259007
0.904021 0.660761 0.287327
0.936706 0.660151 0.317449
0.963195 0.660029 0.348699
0.985046 0.662684 0.383551
1.000000 0.669703 0.423682
0.188907 0.469245 0.259892
0.190524 0.471077 0.260960
0.192569 0.472847 0.261997
0.196384 0.473762 0.262638
0.201602 0.473579 0.262791
0.208225 0.472145 0.262364
0.212833 0.468055 0.259251
0.213352 0.460304 0.252415
0.213993 0.451606 0.244572
0.214328 0.441779 0.235935
0.214481 0.430884 0.226444
0.214389 0.418799 0.216251
0.213840 0.405402 0.205386
0.212406 0.390570 0.193637
0.210605 0.374578 0.181796
0.208316 0.357458 0.170169
0.224643 0.358587 0.170260
0.262760 0.390845 0.177188
0.309361 0.426368 0.184237
0.365789 0.465522 0.191409
0.432044 0.507561 0.198764
0.507347 0.550652 0.206729
0.591547 0.594659 0.215488
0.692103 0.648524 0.221256
0.766995 0.682643 0.224826
0.815732 0.692439 0.236271
0.858518 0.697536 0.263798
0.896483 0.700221 0.297276
0.930663 0.701778 0.332006
0.960998 0.703426 0.369390
0.987640 0.706355 0.409796
1.000000 0.712184 0.450813
0.198062 0.503655 0.279271
0.199527 0.504417 0.279759
0.201053 0.504845 0.280003
0.204257 0.504509 0.279942
0.209079 0.503471 0.279545
0.215244 0.501244 0.278508
0.221622 0.498207 0.276738
0.222202 0.490822 0.269932
0.222629 0.482368 0.262181
0.223239 0.473182 0.253819
0.223453 0.462593 0.244266
0.223453 0.450813 0.234043
0.222660 0.437354 0.222690
0.221378 0.422644 0.210758
0.219455 0.406561 0.198306
0.216922 0.389349 0.185489
0.216251 0.370611 0.174838
0.239536 0.382971 0.177676
0.280339 0.417243 0.185122
0.329931 0.454841 0.193027
0.388678 0.495674 0.201175
0.456001 0.537835 0.209659
0.531212 0.580560 0.219211
0.614069 0.623560 0.229587
0.709468 0.673121 0.240269
0.790066 0.712215 0.247379
0.837552 0.722225 0.262669
0.879606 0.727932 0.289891
0.916472 0.731868 0.328862
0.949126 0.735134 0.370184
0.977752 0.739040 0.413977
1.000000 0.744228 0.459754
0.205570 0.531395 0.295079
0.206943 0.532128 0.295537
0.208530 0.532891 0.296117
0.211673 0.532647 0.296086
0.216373 0.531395 0.295476
0.222019 0.529229 0.294408
0.229068 0.526268 0.292882
0.230472 0.519677 0.286961
0.230533 0.511437 0.279118
0.231083 0.502525 0.270787
0.231174 0.492256 0.261295
0.230991 0.480629 0.250889
0.230411 0.467567 0.239597
0.229435 0.453071 0.227420
0.227634 0.437354 0.214755
0.225284 0.420508 0.201633
0.222141 0.402502 0.187961
0.223484 0.383093 0.179080
0.254978 0.408270 0.185031
0.298985 0.444831 0.193515
0.351507 0.485084 0.202243
0.412726 0.527306 0.211795
0.481819 0.570550 0.222202
0.558343 0.614374 0.233799
0.633478 0.649226 0.243351
0.724880 0.695430 0.258427
0.811368 0.740047 0.270634
0.857908 0.750698 0.290501
0.899351 0.757198 0.318212
0.935058 0.762509 0.363958
0.966094 0.767483 0.411627
0.992462 0.773373 0.461341
0.217777 0.570336 0.318334
0.219181 0.571313 0.318975
0.220798 0.571771 0.319371
0.223697 0.571008 0.318883
0.227756 0.569177 0.317906
0.233188 0.566491 0.316442
0.239567 0.562829 0.314458
0.242344 0.556512 0.309056
0.242191 0.547875 0.300908
0.241733 0.538262 0.291905
0.241428 0.527520 0.281926
0.240848 0.515801 0.271061
0.240085 0.502678 0.259373
0.238651 0.487892 0.246616
0.236790 0.471412 0.233158
0.234226 0.453834 0.219150
0.231022 0.435126 0.204776
0.227329 0.416052 0.190555
0.232700 0.399207 0.184146
0.271244 0.434516 0.192630
0.318242 0.473579 0.201907
0.373327 0.515312 0.211612
0.436133 0.558007 0.222385
0.505730 0.600885 0.234012
0.580407 0.642390 0.246921
0.657740 0.679866 0.262211
0.745052 0.722683 0.282780
0.833341 0.768582 0.302312
0.881285 0.782315 0.326818
0.921263 0.789303 0.358343
0.954650 0.795163 0.408423
0.983246 0.801694 0.462745
0.227970 0.602258 0.337682
0.229465 0.603418 0.338476
0.231113 0.603998 0.338872
0.233890 0.603204 0.338445
0.237858 0.601526 0.337469
0.242832 0.598871 0.336004
0.249271 0.595422 0.333989
0.254002 0.590417 0.330205
0.253788 0.582696 0.322484
0.253330 0.573938 0.313695
0.253117 0.564324 0.304143
0.252659 0.553521 0.293462
0.251865 0.541558 0.281956
0.250462 0.527977 0.269230
0.248844 0.512718 0.255741
0.246220 0.495766 0.241276
0.243473 0.477607 0.226474
0.239963 0.458473 0.211276
0.236667 0.438972 0.196841
0.251316 0.434211 0.195102
0.293950 0.472694 0.204685
0.344671 0.514061 0.215061
0.402808 0.556481 0.226352
0.467750 0.599542 0.238621
0.538170 0.641840 0.252415
0.611353 0.680140 0.268315
0.685908 0.714504 0.287114
0.769467 0.754177 0.314641
0.857939 0.800259 0.345892
0.907958 0.817807 0.376806
0.945159 0.825132 0.415747
0.976165 0.832120 0.470375
0.242344 0.641688 0.362585
0.243778 0.642512 0.363195
0.245090 0.642512 0.363226
0.247623 0.641413 0.362585
0.251102 0.639216 0.361151
0.255711 0.636133 0.359319
0.261357 0.632441 0.357031
0.268132 0.628077 0.354437
0.267735 0.620661 0.346685
0.267277 0.612573 0.338201
0.266758 0.603571 0.328710
0.266331 0.593927 0.318517
0.265568 0.583032 0.307195
0.264378 0.570550 0.294713
0.262577 0.556512 0.281163
0.260319 0.540703 0.266453
0.257420 0.523583 0.251133
0.254032 0.505303 0.235386
0.250492 0.486244 0.219364
0.249729 0.466011 0.206424
0.273564 0.475227 0.208255
0.320287 0.516106 0.219028
0.374365 0.558129 0.230808
0.435004 0.600885 0.243565
0.501305 0.643336 0.257786
0.570825 0.682094 0.274266
0.642054 0.717159 0.293492
0.713710 0.748409 0.315679
0.792172 0.783749 0.349004
0.878447 0.828275 0.389899
0.931090 0.850034 0.428412
0.965637 0.858244 0.476112
0.259892 0.680415 0.388586
0.261143 0.680781 0.388830
0.262455 0.680751 0.388922
0.264744 0.679988 0.388434
0.268345 0.678584 0.387488
0.273167 0.676783 0.386419
0.279393 0.675196 0.385534
0.287205 0.673548 0.384619
0.290013 0.670130 0.380224
0.290623 0.665736 0.373693
0.291478 0.660822 0.366583
0.292027 0.654658 0.357946
0.292180 0.647181 0.348180
0.291752 0.637873 0.336858
0.290562 0.626215 0.323766
0.288273 0.612299 0.308934
0.285527 0.596918 0.293095
0.282231 0.580285 0.276310
0.278813 0.563104 0.259159
0.274876 0.545037 0.241550
0.277592 0.525383 0.229770
0.313878 0.549615 0.236698
0.366827 0.591547 0.249882
0.425910 0.634211 0.264286
0.489570 0.674403 0.280583
0.555505 0.710506 0.298924
0.622797 0.743160 0.319951
0.690425 0.772305 0.343908
0.757229 0.798093 0.371008
0.830503 0.829191 0.412207
0.908965 0.868132 0.464759
0.961425 0.892332 0.516594
0.296666 0.736660 0.431342
0.297856 0.736873 0.431617
0.298833 0.736507 0.431373
0.300511 0.735409 0.430579
0.303410 0.733639 0.429389
0.307256 0.731411 0.427771
0.312505 0.729122 0.426307
0.318975 0.726650 0.424720
0.322789 0.723171 0.420783
0.322423 0.718685 0.414008
0.321904 0.713375 0.406043
0.321416 0.707576 0.397314
0.320623 0.700587 0.387243
0.319341 0.692409 0.375769
