data/fiter_cube/28334299/1023171/file.cube
# Created by Adobe Lightroom plugin Export LUT (1.17.0)
# www.johnrellis.com/lightroom/exportlut.htm
# Preset: 梦幻人像_10 云集
# Color profile: C:\Program Files (x86)\Common Files\Adobe\Color\Profiles\Recommended\AdobeRGB1998.icc
LUT_3D_SIZE 5
DOMAIN_MIN 0.000000 0.000000 0.000000
DOMAIN_MAX 0.903226 0.903226 0.903226
0.080903 0.072755 0.063203
0.213077 0.017182 0.071992
0.484260 0.000000 0.087892
0.767025 0.000000 0.134676
0.966278 0.000000 0.231174
0.106386 0.172641 0.105776
0.167391 0.182315 0.091707
0.483192 0.203006 0.090791
0.767727 0.109346 0.149538
0.971160 0.112734 0.269902
0.150698 0.332799 0.185428
0.169253 0.309148 0.166751
0.316960 0.363989 0.149142
0.763729 0.498390 0.164797
0.953796 0.467781 0.287938
0.198062 0.503655 0.279271
0.222202 0.490822 0.269932
0.219455 0.406561 0.198306
0.456001 0.537835 0.209659
0.916472 0.731868 0.328862
0.333989 0.779660 0.468727
0.355840 0.772366 0.464424
0.339025 0.720302 0.393194
0.328038 0.651087 0.288640
0.704433 0.830320 0.416632
0.092409 0.078981 0.120882
0.177188 0.061982 0.142672
0.412451 0.000000 0.197421
0.702022 0.000000 0.241917
0.938506 0.000000 0.286412
0.110597 0.180514 0.150576
0.219089 0.198672 0.176272
0.468696 0.150637 0.192599
0.735775 0.000000 0.222507
0.948119 0.000000 0.292760
0.158907 0.356329 0.218662
0.220279 0.354437 0.225254
0.339391 0.372747 0.199649
0.739712 0.468849 0.246738
0.945190 0.457649 0.343450
0.208652 0.524071 0.306279
0.246830 0.518242 0.305577
0.256413 0.440040 0.237766
0.471443 0.546502 0.245945
0.917662 0.726864 0.381659
0.335698 0.785122 0.482795
0.358740 0.778103 0.479011
0.378668 0.749050 0.436286
0.351049 0.673243 0.317357
0.714199 0.834714 0.442267
0.121035 0.080446 0.250217
0.184695 0.024872 0.276432
0.366674 0.000000 0.311040
0.579004 0.000000 0.360266
0.884245 0.000000 0.445808
0.132052 0.150027 0.279515
0.195346 0.145815 0.304234
0.398657 0.107210 0.341222
0.612207 0.097841 0.376715
0.899016 0.000000 0.442206
0.155062 0.395270 0.339574
0.240848 0.410651 0.358831
0.480720 0.451575 0.422370
0.728237 0.420661 0.436774
0.934234 0.413977 0.478157
0.226627 0.596368 0.405585
0.275883 0.589014 0.404639
0.402655 0.570703 0.410132
0.544457 0.592950 0.380682
0.925109 0.716915 0.536767
0.345129 0.801785 0.533501
0.372656 0.800229 0.534356
0.444800 0.785031 0.525963
0.412451 0.704585 0.398840
0.719478 0.823423 0.484993
0.153658 0.075654 0.417853
0.208133 0.002564 0.438361
0.354772 0.000000 0.505180
0.568841 0.000000 0.512047
0.809323 0.000000 0.583001
0.157137 0.119844 0.432105
0.207675 0.106722 0.450629
0.355474 0.000000 0.516625
0.581201 0.000000 0.525017
0.808194 0.000000 0.577630
0.159670 0.300847 0.436103
0.214481 0.296452 0.447578
0.372351 0.316472 0.533379
0.621118 0.287572 0.568048
0.835050 0.294163 0.586358
0.203952 0.626154 0.560021
0.270939 0.631952 0.568902
0.454292 0.657038 0.607080
0.719478 0.698939 0.679042
0.913268 0.679255 0.689631
0.397955 0.849943 0.650874
0.427344 0.848264 0.652796
0.512657 0.842252 0.657954
0.611505 0.807889 0.638941
0.761746 0.825925 0.610590
0.169345 0.104219 0.658534
0.224125 0.072755 0.668452
0.360571 0.000000 0.706172
0.554040 0.000000 0.745754
0.786587 0.000000 0.745296
0.173037 0.101747 0.655665
0.224979 0.070253 0.665431
0.357610 0.000000 0.702205
0.547051 0.000000 0.739712
0.781064 0.000000 0.739895
0.000000 0.246738 0.646387
0.135927 0.232944 0.654505
0.308873 0.196048 0.691157
0.510674 0.000000 0.750881
0.793668 0.000000 0.754391
0.091402 0.514122 0.669184
0.156069 0.503075 0.667475
0.285130 0.460761 0.669734
0.505516 0.448188 0.749599
0.834989 0.457099 0.803037
0.314763 0.851591 0.786435
0.352270 0.851438 0.788174
0.482918 0.856291 0.801694
0.678309 0.862394 0.826627
0.899199 0.891081 0.883177
