data/fiter_cube/12544332/1022706/file.cube
# Created by Adobe Lightroom plugin Export LUT (1.24.0)
# www.johnrellis.com/lightroom/exportlut.htm
# Preset: 城市青橙纪实夜景 _10 云集
# Color profile: C:\Program Files (x86)\Common Files\Adobe\Color\Profiles\Recommended\AdobeRGB1998.icc
LUT_3D_SIZE 5
DOMAIN_MIN 0.000000 0.000000 0.000000
DOMAIN_MAX 0.903226 0.903226 0.903226
0.082582 0.084749 0.094759
0.268254 0.083833 0.093874
0.552667 0.110658 0.061341
0.836881 0.156802 0.000000
0.992432 0.174563 0.000458
0.037324 0.158663 0.148013
0.239384 0.177890 0.094057
0.537743 0.208438 0.049470
0.830014 0.234806 0.000000
0.991669 0.231601 0.000946
0.000000 0.298222 0.268650
0.090394 0.315496 0.211978
0.495399 0.354101 0.059388
0.813199 0.389166 0.000000
0.985626 0.360082 0.006653
0.000000 0.480171 0.418036
0.000000 0.497017 0.397345
0.413519 0.509758 0.270512
0.789517 0.557885 0.000000
0.976623 0.512596 0.070161
0.000000 0.761807 0.614618
0.000000 0.769955 0.600275
0.000000 0.795315 0.455268
0.777310 0.781521 0.303716
0.977935 0.685878 0.125246
0.000000 0.139071 0.245457
0.229191 0.132052 0.207980
0.524407 0.207950 0.055177
0.820066 0.246159 0.000000
0.988983 0.223392 0.000000
0.000000 0.207309 0.275151
0.198306 0.206271 0.242344
0.513634 0.249332 0.106172
0.815702 0.293248 0.000000
0.987823 0.266514 0.000000
0.000000 0.320684 0.340551
0.000000 0.342046 0.323308
0.479286 0.361395 0.208988
0.801724 0.415381 0.000000
0.983703 0.379431 0.004547
0.000000 0.498848 0.472480
0.000000 0.517571 0.460975
0.387488 0.531243 0.346136
0.783932 0.563317 0.148043
0.975555 0.524041 0.073762
0.000000 0.769223 0.651514
0.000000 0.776974 0.638239
0.000000 0.804471 0.526177
0.759487 0.788663 0.381201
0.977325 0.693538 0.124483
0.000000 0.263157 0.480415
0.000000 0.242161 0.471168
0.471595 0.214206 0.398871
0.807767 0.274876 0.202579
0.986694 0.305669 0.000000
0.000000 0.315435 0.494484
0.000000 0.295567 0.487587
0.455268 0.270542 0.415595
0.800778 0.314641 0.234440
0.986389 0.330266 0.000000
0.000000 0.421393 0.549432
0.000000 0.420356 0.539361
0.396399 0.410193 0.473671
0.782284 0.427741 0.318090
0.983368 0.416083 0.027314
0.000000 0.566857 0.625269
0.000000 0.573663 0.615961
0.000000 0.606500 0.562188
0.755978 0.592493 0.419623
0.974762 0.549706 0.122377
0.000000 0.794766 0.761532
0.000000 0.800717 0.750362
0.000000 0.821683 0.689448
0.685145 0.803647 0.591485
0.966552 0.714504 0.341924
0.000000 0.425055 0.738918
0.000000 0.426520 0.732784
0.000000 0.297612 0.716426
0.753262 0.340185 0.607691
0.971130 0.372290 0.426093
0.000000 0.461707 0.744625
0.000000 0.456611 0.739864
0.000000 0.352361 0.723812
0.744594 0.383490 0.619318
0.969177 0.396612 0.436683
0.000000 0.539300 0.766537
0.000000 0.541894 0.761257
0.000000 0.495949 0.747433
0.718135 0.505028 0.659937
0.966522 0.465156 0.458991
0.000000 0.646906 0.801053
0.000000 0.654902 0.795132
0.000000 0.655055 0.784573
0.661189 0.672206 0.726253
0.959380 0.583124 0.502190
0.000000 0.789731 0.866056
0.000000 0.798611 0.863218
0.000000 0.831296 0.851011
0.304112 0.860472 0.767727
0.926848 0.785458 0.668544
0.000000 0.535973 0.911711
0.000000 0.546868 0.909483
0.000000 0.509117 0.906401
0.619013 0.550744 0.887327
0.912322 0.656489 0.807889
0.000000 0.552026 0.913237
0.000000 0.561883 0.911131
0.000000 0.531487 0.907866
0.606012 0.569604 0.889372
0.909972 0.672206 0.813962
0.000000 0.593622 0.919219
0.000000 0.598199 0.917723
0.000000 0.596460 0.913115
0.539178 0.617060 0.897124
0.902983 0.718013 0.832303
0.000000 0.669215 0.927977
0.000000 0.673793 0.926818
0.000000 0.688502 0.922362
0.093751 0.665583 0.914183
0.891203 0.786069 0.860594
0.000000 0.757595 0.938781
0.000000 0.762600 0.938018
0.000000 0.781888 0.934936
0.000000 0.807767 0.928679
0.867521 0.872221 0.896117
