data/fiter_cube/12544332/1022706/file.cube
# Created by Adobe Lightroom plugin Export LUT (1.24.0)
# www.johnrellis.com/lightroom/exportlut.htm
# Preset: 城市青橙纪实夜景 _10 云集
# Color profile: C:\Program Files (x86)\Common Files\Adobe\Color\Profiles\Recommended\AdobeRGB1998.icc
LUT_3D_SIZE 32
0.082582 0.084749 0.094759
0.087648 0.084199 0.094942
0.100038 0.082124 0.095277
0.127199 0.082155 0.095705
0.162966 0.082124 0.096468
0.198581 0.082338 0.095979
0.233555 0.082948 0.095308
0.268254 0.083833 0.093874
0.303685 0.085115 0.092378
0.340368 0.086946 0.090028
0.379217 0.089479 0.087465
0.419745 0.093812 0.083589
0.462135 0.098268 0.078096
0.506432 0.103883 0.071382
0.552667 0.110658 0.061341
0.601953 0.117861 0.036530
0.648768 0.124697 0.004913
0.692897 0.133059 0.000000
0.733333 0.139925 0.000000
0.770626 0.145937 0.000000
0.805112 0.151797 0.000000
0.836881 0.156802 0.000000
0.865782 0.160342 0.000000
0.891936 0.163729 0.000000
0.915618 0.166293 0.000000
0.937163 0.168399 0.000000
0.957000 0.170809 0.000000
0.975341 0.172641 0.000000
0.992432 0.174563 0.000458
1.000000 0.177005 0.064698
1.000000 0.180789 0.094942
1.000000 0.186160 0.123507
0.082582 0.084749 0.094759
0.086488 0.085054 0.094911
0.099001 0.085603 0.095338
0.126314 0.086275 0.095949
0.161959 0.087007 0.096437
0.197360 0.087709 0.095949
0.232547 0.088289 0.095247
0.267124 0.088655 0.094148
0.302678 0.089876 0.092378
0.339452 0.092226 0.089723
0.378180 0.095064 0.087129
0.418738 0.098390 0.083314
0.460914 0.103182 0.078157
0.505089 0.108736 0.071107
0.551446 0.115175 0.061006
0.600275 0.122347 0.037293
0.646754 0.129244 0.004913
0.691005 0.136202 0.000000
0.731441 0.143008 0.000000
0.768826 0.149416 0.000000
0.803494 0.154849 0.000000
0.835447 0.159182 0.000000
0.864500 0.162936 0.000000
0.890837 0.166415 0.000000
0.914672 0.168826 0.000000
0.936339 0.170718 0.000000
0.956298 0.172396 0.000000
0.974762 0.174472 0.000000
0.991943 0.176303 0.000000
1.000000 0.178775 0.063203
1.000000 0.182162 0.094331
1.000000 0.187320 0.122896
0.082551 0.088472 0.095521
0.085023 0.089296 0.095399
0.097688 0.090425 0.095521
0.124575 0.092164 0.096101
0.160494 0.093477 0.096284
0.196017 0.094148 0.096315
0.231144 0.094545 0.095399
0.265751 0.095277 0.094026
0.301305 0.097078 0.091920
0.338231 0.098726 0.089601
0.376989 0.100923 0.087037
0.417487 0.104677 0.083497
0.459785 0.109407 0.077974
0.503960 0.115175 0.070893
0.550195 0.120821 0.061311
0.599084 0.127657 0.037049
0.645319 0.135164 0.003479
0.689448 0.141512 0.000000
0.730068 0.147951 0.000000
0.767666 0.153658 0.000000
0.802457 0.158846 0.000000
0.834531 0.163241 0.000000
0.863737 0.166629 0.000000
0.890196 0.169589 0.000000
0.914092 0.172000 0.000000
0.935882 0.173526 0.000000
0.955871 0.175113 0.000000
0.974395 0.177096 0.000000
0.991638 0.178805 0.000000
1.000000 0.181216 0.062684
1.000000 0.184390 0.094026
1.000000 0.189273 0.122683
0.079927 0.099336 0.102632
0.080781 0.100679 0.099855
0.094484 0.100404 0.097841
0.121584 0.103365 0.096559
0.157382 0.105501 0.096407
0.193271 0.106447 0.096437
0.228489 0.106722 0.095308
0.263584 0.107820 0.094148
0.299229 0.109010 0.091829
0.336248 0.110536 0.089509
0.374975 0.113344 0.086915
0.415534 0.117189 0.083009
0.457679 0.121431 0.077852
0.501854 0.126741 0.070771
0.548577 0.132326 0.060548
0.596979 0.139071 0.035401
0.643244 0.145724 0.002136
0.687282 0.152102 0.000000
0.727962 0.157687 0.000000
0.765621 0.163027 0.000000
0.800626 0.167636 0.000000
0.832883 0.171237 0.000000
0.862333 0.174502 0.000000
0.889128 0.176883 0.000000
0.913329 0.178988 0.000000
0.935363 0.180301 0.000000
0.955566 0.181582 0.000000
0.974182 0.182986 0.000000
0.991455 0.184451 0.000000
1.000000 0.186221 0.062593
1.000000 0.189059 0.094545
1.000000 0.193881 0.122683
0.076204 0.111818 0.111543
0.076478 0.113222 0.109468
0.086000 0.114565 0.105623
0.113191 0.115175 0.100435
0.150301 0.119966 0.097078
0.188540 0.122255 0.096651
0.224338 0.123201 0.095735
0.259739 0.123842 0.094118
0.295689 0.124788 0.092103
0.332830 0.126864 0.089479
0.371649 0.129854 0.086244
0.412207 0.133394 0.082338
0.454688 0.138155 0.076967
0.498878 0.142794 0.069856
0.545708 0.148775 0.058839
0.594079 0.154635 0.032563
0.640620 0.160616 0.000244
0.684932 0.166018 0.000000
0.725978 0.171786 0.000000
0.763912 0.176089 0.000000
0.799039 0.179873 0.000000
0.831540 0.183017 0.000000
0.861143 0.185672 0.000000
0.888090 0.187869 0.000000
0.912505 0.189059 0.000000
0.934722 0.189975 0.000000
0.954986 0.190890 0.000000
0.973724 0.191501 0.000000
0.991028 0.192599 0.000000
1.000000 0.194125 0.062989
1.000000 0.196536 0.094545
1.000000 0.200626 0.122744
0.070039 0.126711 0.122469
0.070497 0.127749 0.120455
0.074159 0.129091 0.117525
0.103761 0.129061 0.111574
0.138216 0.131777 0.101686
0.179507 0.137972 0.096864
0.219181 0.141176 0.095979
0.255222 0.142153 0.094331
0.291417 0.143282 0.092073
0.328893 0.145327 0.089143
0.367956 0.148501 0.085847
0.408637 0.152010 0.081880
0.451087 0.156802 0.076112
0.495521 0.161501 0.068330
0.542962 0.166659 0.057282
0.591363 0.172671 0.028809
0.637934 0.178470 0.000000
0.682490 0.183719 0.000000
0.723934 0.188449 0.000000
0.762264 0.192416 0.000000
0.797757 0.195834 0.000000
0.830533 0.198337 0.000000
0.867094 0.201755 0.000000
0.893370 0.203067 0.000000
0.916991 0.203830 0.000000
0.938506 0.203891 0.000000
0.958221 0.204196 0.000000
0.976440 0.204105 0.000000
0.993317 0.204776 0.005463
1.000000 0.205661 0.068147
1.000000 0.207523 0.098543
1.000000 0.210941 0.126802
0.060670 0.142458 0.134890
0.061311 0.143343 0.132937
0.062318 0.144533 0.130892
0.087770 0.146914 0.122225
0.126650 0.145296 0.116976
0.166629 0.150973 0.103395
0.209598 0.157626 0.096162
0.250462 0.161624 0.094789
0.287388 0.163485 0.092134
0.325536 0.165896 0.088777
0.365118 0.168856 0.085420
0.406256 0.172671 0.080659
0.449104 0.177127 0.074617
0.493812 0.181827 0.066835
0.542260 0.187564 0.052918
0.590875 0.193454 0.022339
0.637690 0.199100 0.000000
0.682429 0.203616 0.000000
0.724178 0.207889 0.000000
0.762997 0.211368 0.000000
0.799069 0.214237 0.000000
0.832517 0.216220 0.000000
0.862943 0.217655 0.000000
0.890410 0.218357 0.000000
0.915007 0.218570 0.000000
0.937041 0.218265 0.000000
0.957092 0.217929 0.000000
0.975494 0.217288 0.000000
0.992554 0.217350 0.004364
1.000000 0.217685 0.067506
1.000000 0.218601 0.098512
1.000000 0.221530 0.126986
0.037324 0.158663 0.148013
0.039582 0.159426 0.146731
0.040406 0.160678 0.145052
0.071199 0.163241 0.138674
0.112490 0.164828 0.126558
0.153567 0.164218 0.119936
0.196017 0.170535 0.104738
0.239384 0.177890 0.094057
0.281254 0.182895 0.092317
0.319799 0.185550 0.088930
0.359716 0.188907 0.084901
0.401068 0.192782 0.080018
0.444190 0.197330 0.073823
0.489052 0.202213 0.065461
0.537743 0.208438 0.049470
0.586511 0.214206 0.017548
0.633356 0.219455 0.000000
0.678248 0.224277 0.000000
0.720516 0.227848 0.000000
0.759762 0.231022 0.000000
0.796231 0.233433 0.000000
0.830014 0.234806 0.000000
0.860746 0.235569 0.000000
0.888548 0.235721 0.000000
0.913359 0.235325 0.000000
0.935668 0.234562 0.000000
0.955871 0.233371 0.000000
0.974487 0.232242 0.000000
0.991669 0.231601 0.000946
1.000000 0.231022 0.067659
1.000000 0.231601 0.098634
1.000000 0.233585 0.126986
0.000000 0.176425 0.163577
0.000000 0.177249 0.162295
0.000000 0.178317 0.160952
0.043183 0.180575 0.155550
0.091829 0.183810 0.142702
0.141665 0.180240 0.137850
0.182681 0.184817 0.123903
0.226749 0.191318 0.106050
0.270237 0.199191 0.090974
0.313725 0.205295 0.088594
0.353887 0.209110 0.084443
0.395636 0.213413 0.079347
0.439002 0.218021 0.072999
0.484749 0.223514 0.063539
0.533227 0.229740 0.046326
0.581903 0.235843 0.013092
0.629114 0.241001 0.000000
0.674311 0.245518 0.000000
0.716976 0.249302 0.000000
0.756680 0.252079 0.000000
0.793606 0.253727 0.000000
0.827756 0.254643 0.000000
0.858793 0.255100 0.000000
0.886809 0.254612 0.000000
0.911864 0.253758 0.000000
0.934356 0.252171 0.000000
0.954803 0.250401 0.000000
0.973510 0.248722 0.000000
0.990845 0.246952 0.000580
1.000000 0.246006 0.067262
1.000000 0.245945 0.099001
1.000000 0.247196 0.127871
0.000000 0.195102 0.179629
0.000000 0.195804 0.178714
0.000000 0.196780 0.177157
0.000000 0.199130 0.172976
0.068391 0.202365 0.162112
0.121218 0.204898 0.145510
0.170535 0.201022 0.143587
0.213687 0.206424 0.126741
0.258640 0.213077 0.106508
0.302525 0.221347 0.088655
0.347601 0.228763 0.082948
0.389502 0.233463 0.079225
0.433143 0.238712 0.072267
0.479530 0.244785 0.062623
0.528161 0.251499 0.040986
0.577264 0.257603 0.008209
0.624964 0.262974 0.000000
0.670680 0.267613 0.000000
0.713863 0.271214 0.000000
0.753964 0.273625 0.000000
0.791165 0.275212 0.000000
0.825376 0.275761 0.000000
0.856565 0.275517 0.000000
0.884703 0.274327 0.000000
0.909972 0.272740 0.000000
0.932708 0.270695 0.000000
0.953399 0.268315 0.000000
0.972381 0.266117 0.000000
0.989899 0.264012 0.000000
1.000000 0.262242 0.067109
1.000000 0.261479 0.099763
1.000000 0.261936 0.128908
0.000000 0.214633 0.196475
0.000000 0.215183 0.195895
0.000000 0.215946 0.194522
0.000000 0.218173 0.191012
0.003784 0.221805 0.181643
0.095064 0.224949 0.164920
0.156558 0.222354 0.157168
0.201328 0.223331 0.147402
0.246403 0.229038 0.127657
0.291661 0.235874 0.106935
0.336614 0.244572 0.086854
0.383490 0.253452 0.076539
0.427131 0.259251 0.072297
0.474189 0.265995 0.061646
0.522576 0.272801 0.038453
0.571771 0.279545 0.003540
0.619837 0.285222 0.000000
0.665858 0.289799 0.000000
0.709560 0.293339 0.000000
0.750271 0.295750 0.000000
0.787991 0.297093 0.000000
0.822690 0.297246 0.000000
0.854307 0.296574 0.000000
0.882780 0.295048 0.000000
0.908324 0.293095 0.000000
0.931304 0.290410 0.000000
0.952178 0.287266 0.000000
0.971283 0.284398 0.000000
0.988952 0.281682 0.000000
1.000000 0.279271 0.068086
1.000000 0.277867 0.100801
1.000000 0.277684 0.130282
0.000000 0.234714 0.214115
0.000000 0.235203 0.213199
0.000000 0.235966 0.212131
0.000000 0.237858 0.209018
0.000000 0.241398 0.201205
0.059693 0.245060 0.186893
0.127443 0.247837 0.165499
0.188052 0.240787 0.168093
0.233799 0.246311 0.150057
0.280919 0.252720 0.127352
0.326329 0.259770 0.105959
0.372503 0.269291 0.084138
0.425788 0.282322 0.066346
0.473762 0.290105 0.058900
0.523156 0.297734 0.030976
0.573297 0.304845 0.000000
0.621759 0.310735 0.000000
0.668116 0.315465 0.000000
0.711849 0.318853 0.000000
0.752590 0.320684 0.000000
0.790097 0.321355 0.000000
0.824369 0.321202 0.000000
0.855619 0.319707 0.000000
0.883818 0.317662 0.000000
0.909056 0.314733 0.000000
0.931853 0.311498 0.000000
0.952575 0.307958 0.000000
0.971618 0.304326 0.000000
0.989136 0.300969 0.002808
1.000000 0.297948 0.071290
1.000000 0.295750 0.103792
1.000000 0.294926 0.133364
0.000000 0.255985 0.232395
0.000000 0.256413 0.231662
0.000000 0.257115 0.230594
0.000000 0.258824 0.228000
0.000000 0.262272 0.221164
0.000000 0.266087 0.208682
0.094209 0.269383 0.188266
0.168246 0.268009 0.176242
0.220615 0.264683 0.172000
0.267948 0.270451 0.152071
0.316442 0.277531 0.127352
0.363256 0.285405 0.105013
0.412970 0.297307 0.079713
0.466316 0.310094 0.048615
0.515740 0.318425 0.025513
0.566094 0.326390 0.000000
0.615106 0.332677 0.000000
0.661860 0.337743 0.000000
0.706325 0.341344 0.000000
0.747768 0.343450 0.000000
0.785855 0.344060 0.000000
0.820829 0.343511 0.000000
0.852476 0.342016 0.000000
0.881071 0.339452 0.000000
0.906767 0.335973 0.000000
0.929839 0.332280 0.000000
0.950866 0.328008 0.000000
0.970092 0.324041 0.000000
0.987854 0.320043 0.000885
1.000000 0.316442 0.072358
1.000000 0.313664 0.104891
1.000000 0.312108 0.135164
0.000000 0.276768 0.250462
0.000000 0.277256 0.249851
0.000000 0.277867 0.248631
0.000000 0.279271 0.246769
0.000000 0.282658 0.240635
0.000000 0.286625 0.229984
0.023011 0.290501 0.212100
0.130587 0.293584 0.185885
0.204898 0.286259 0.188510
0.254215 0.288853 0.175051
0.302892 0.294774 0.152865
0.353124 0.303105 0.127230
0.402350 0.312871 0.103548
0.453681 0.325292 0.071839
0.508080 0.338659 0.009888
0.558984 0.347509 0.000000
0.608026 0.354345 0.000000
0.655207 0.359838 0.000000
0.700526 0.363745 0.000000
0.742672 0.366155 0.000000
0.781521 0.366979 0.000000
0.817075 0.366339 0.000000
0.849302 0.364416 0.000000
0.878416 0.361578 0.000000
0.904479 0.357794 0.000000
0.927916 0.353613 0.000000
0.949187 0.348882 0.000000
0.968688 0.344305 0.000000
0.986633 0.339696 0.003510
1.000000 0.335637 0.073121
1.000000 0.332311 0.106722
1.000000 0.330083 0.136995
0.000000 0.298222 0.268650
0.000000 0.298680 0.268315
0.000000 0.299168 0.267124
0.000000 0.300328 0.265354
0.000000 0.303685 0.260075
0.000000 0.307713 0.251102
0.000000 0.311803 0.235691
0.090394 0.315496 0.211978
0.177951 0.315496 0.195041
0.239109 0.307530 0.197696
0.289555 0.313970 0.177218
0.340185 0.321050 0.153414
0.391638 0.330358 0.126955
0.442603 0.341039 0.100313
0.495399 0.354101 0.059388
0.550805 0.368048 0.000000
0.601160 0.376013 0.000000
0.648493 0.381933 0.000000
0.694453 0.386328 0.000000
0.737423 0.388891 0.000000
0.777005 0.389807 0.000000
0.813199 0.389166 0.000000
0.846006 0.387182 0.000000
0.875578 0.384070 0.000000
0.902068 0.380011 0.000000
0.925902 0.375189 0.000000
0.947570 0.370153 0.000000
0.967407 0.365148 0.000000
0.985626 0.360082 0.006653
1.000000 0.355444 0.076234
1.000000 0.351720 0.109499
1.000000 0.348791 0.140536
0.000000 0.320134 0.287541
0.000000 0.320653 0.286961
0.000000 0.321111 0.286137
0.000000 0.322332 0.284459
0.000000 0.325170 0.280125
0.000000 0.329381 0.272221
0.000000 0.333745 0.259129
0.000000 0.338140 0.238560
0.133700 0.341527 0.208743
0.220035 0.335332 0.208469
0.275273 0.334112 0.202121
0.327306 0.341161 0.180087
0.378912 0.348608 0.153872
0.431525 0.358343 0.125154
0.483680 0.369604 0.094881
0.537682 0.383429 0.025727
0.592309 0.396460 0.000000
0.641657 0.403693 0.000000
0.688319 0.408911 0.000000
0.732265 0.412055 0.000000
0.772763 0.413184 0.000000
0.809628 0.412512 0.000000
0.843046 0.410346 0.000000
0.873136 0.407050 0.000000
0.900084 0.402594 0.000000
0.924254 0.397559 0.000000
0.946197 0.391974 0.000000
0.966217 0.386450 0.000000
0.984619 0.380957 0.012024
1.000000 0.375799 0.079225
1.000000 0.371344 0.112612
1.000000 0.367956 0.143648
0.000000 0.342596 0.306340
0.000000 0.343023 0.305943
0.000000 0.343511 0.305180
0.000000 0.344732 0.303532
0.000000 0.347204 0.300206
0.000000 0.351263 0.293156
0.000000 0.355871 0.281895
0.000000 0.360357 0.264256
0.083772 0.364630 0.238529
0.185794 0.367010 0.216434
0.259190 0.356115 0.223453
0.312596 0.361151 0.206241
0.365393 0.368261 0.182498
0.418891 0.376898 0.152255
0.472206 0.386969 0.122652
0.525719 0.399084 0.087465
0.579797 0.412451 0.000000
0.632990 0.424384 0.000000
0.681971 0.431006 0.000000
0.726528 0.434882 0.000000
0.767697 0.436255 0.000000
0.805295 0.435767 0.000000
0.839384 0.433570 0.000000
0.870024 0.430091 0.000000
0.897459 0.425422 0.000000
0.922057 0.419959 0.000000
0.944366 0.414008 0.000000
0.964691 0.407996 0.000000
0.983337 0.401984 0.018311
1.000000 0.396460 0.081971
1.000000 0.391394 0.115938
1.000000 0.387396 0.147585
0.000000 0.365728 0.325902
0.000000 0.366125 0.325292
0.000000 0.368170 0.325994
0.000000 0.369360 0.324407
0.000000 0.371313 0.321874
0.000000 0.375341 0.315557
0.000000 0.379919 0.305669
0.000000 0.385351 0.290776
0.000000 0.390631 0.268772
0.137392 0.394995 0.236454
0.236332 0.390600 0.231998
0.298405 0.384131 0.232547
0.353368 0.391424 0.210361
0.407172 0.398596 0.184024
0.463203 0.408759 0.150546
0.517693 0.419409 0.118288
0.572229 0.431800 0.074922
0.625116 0.443915 0.000000
0.676692 0.454322 0.000000
0.723171 0.459113 0.000000
0.764584 0.460731 0.000000
0.802609 0.460182 0.000000
0.837064 0.457710 0.000000
0.868040 0.453925 0.000000
0.895598 0.448859 0.000000
0.920317 0.443000 0.000000
0.942718 0.436561 0.000000
0.963195 0.429938 0.000000
0.981964 0.423468 0.025635
0.999268 0.417243 0.086030
1.000000 0.411780 0.119661
1.000000 0.407233 0.151736
0.000000 0.390723 0.346380
0.000000 0.391363 0.346288
0.000000 0.392035 0.345708
0.000000 0.393347 0.344640
0.000000 0.395331 0.342626
0.000000 0.399725 0.337865
0.000000 0.404944 0.329381
0.000000 0.410346 0.316533
0.000000 0.415839 0.297124
0.074067 0.420661 0.268711
0.193393 0.423835 0.240513
0.279942 0.413306 0.246830
0.337987 0.413581 0.236576
0.394110 0.421027 0.212253
0.448859 0.428473 0.183383
0.506798 0.439826 0.147341
0.562554 0.451179 0.110079
0.616083 0.462318 0.053468
0.667750 0.473365 0.000000
0.716182 0.481270 0.000000
0.759213 0.483680 0.000000
0.797910 0.483650 0.000000
0.833036 0.481361 0.000000
0.864622 0.477455 0.000000
0.892760 0.472145 0.000000
0.917967 0.465919 0.000000
0.940734 0.459174 0.000000
0.961517 0.452094 0.000000
0.980560 0.445167 0.035279
0.998016 0.438544 0.090059
1.000000 0.432502 0.123995
1.000000 0.427466 0.155795
0.000000 0.418097 0.368841
0.000000 0.418616 0.368688
0.000000 0.419440 0.368292
0.000000 0.420783 0.367132
0.000000 0.422675 0.365209
0.000000 0.426337 0.361456
0.000000 0.431434 0.353826
0.000000 0.436957 0.342473
0.000000 0.442664 0.325322
0.000000 0.448005 0.300084
0.136629 0.452674 0.265019
0.249912 0.449714 0.254398
0.321874 0.437781 0.261723
0.380438 0.445258 0.239536
0.437751 0.453101 0.213138
0.493690 0.460914 0.181582
0.553674 0.473487 0.142000
0.608759 0.483803 0.098970
0.661219 0.493843 0.000000
0.710079 0.502678 0.000000
0.754055 0.506981 0.000000
0.793301 0.507012 0.000000
0.829068 0.505058 0.000000
0.861112 0.501183 0.000000
0.889860 0.495705 0.000000
0.915496 0.489113 0.000000
0.938628 0.481880 0.000000
0.959686 0.474495 0.000000
0.978943 0.467170 0.048768
0.996612 0.460060 0.094728
1.000000 0.453529 0.128237
1.000000 0.447913 0.160769
0.000000 0.447150 0.392065
0.000000 0.447822 0.392004
0.000000 0.448615 0.391699
0.000000 0.450141 0.390753
0.000000 0.451942 0.388891
0.000000 0.454749 0.385931
0.000000 0.459724 0.379126
0.000000 0.465461 0.368994
0.000000 0.471290 0.353735
0.000000 0.477180 0.331670
0.027283 0.482582 0.299809
0.196872 0.486336 0.264317
0.300237 0.476570 0.269444
0.365362 0.471443 0.266423
0.425727 0.479713 0.241550
0.484688 0.487922 0.212497
0.543603 0.497444 0.176364
0.602564 0.508629 0.135134
0.656977 0.517937 0.083284
0.706874 0.525811 0.000000
0.751400 0.531365 0.000000
0.791135 0.532219 0.000000
0.826535 0.529686 0.000000
0.859190 0.525841 0.000000
0.888273 0.520348 0.000000
0.914275 0.513451 0.000000
0.937652 0.505852 0.000000
0.958923 0.497993 0.000000
0.978363 0.490089 0.062287
0.996094 0.482460 0.102541
1.000000 0.475380 0.135805
1.000000 0.469337 0.168032
0.000000 0.480171 0.418036
0.000000 0.480690 0.417609
0.000000 0.481361 0.417426
0.000000 0.482490 0.416266
0.000000 0.484260 0.414405
0.000000 0.486610 0.411994
0.000000 0.491218 0.406287
0.000000 0.497017 0.397345
0.000000 0.503227 0.383581
0.000000 0.509606 0.363928
0.000000 0.515740 0.336065
0.130251 0.521141 0.295293
0.263096 0.520226 0.277867
0.349645 0.507378 0.285618
0.413519 0.509758 0.270512
0.475593 0.518120 0.243198
0.535821 0.526299 0.211185
0.596429 0.536248 0.169894
0.653498 0.545251 0.125765
0.704860 0.551812 0.060365
0.749813 0.555749 0.000000
0.789517 0.557885 0.000000
0.824582 0.554955 0.000000
0.855711 0.549737 0.000000
0.885191 0.544121 0.000000
0.911528 0.537163 0.000000
0.935332 0.529229 0.000000
0.956939 0.520928 0.000000
0.976623 0.512596 0.070161
0.994598 0.504540 0.108064
1.000000 0.497047 0.141390
1.000000 0.490425 0.174228
0.000000 0.514519 0.444404
0.000000 0.515129 0.444099
0.000000 0.515801 0.443915
0.000000 0.516960 0.442817
0.000000 0.518791 0.441077
0.000000 0.520989 0.438636
0.000000 0.524712 0.434485
0.000000 0.530541 0.426307
0.000000 0.536950 0.413977
0.000000 0.543450 0.396277
0.000000 0.549889 0.371130
0.000000 0.555779 0.334997
0.196658 0.560235 0.289982
0.322240 0.551720 0.294194
0.398230 0.540642 0.299443
0.463661 0.548852 0.273533
0.526879 0.556970 0.243351
0.588159 0.565148 0.208042
0.649592 0.574975 0.161410
0.702693 0.580346 0.114656
0.749142 0.582818 0.002014
0.789334 0.583307 0.000000
0.824674 0.582025 0.000000
0.855497 0.575952 0.000000
0.881712 0.567803 0.000000
0.908476 0.560632 0.000000
0.932555 0.552758 0.000000
0.954559 0.544060 0.000000
0.974548 0.535302 0.076783
0.992798 0.526726 0.114229
1.000000 0.518669 0.147585
1.000000 0.511650 0.180484
0.000000 0.553429 0.473304
0.000000 0.553948 0.473182
0.000000 0.554589 0.472877
0.000000 0.555718 0.471717
0.000000 0.557214 0.470039
0.000000 0.559380 0.467475
0.000000 0.562127 0.464363
0.000000 0.567315 0.456947
0.000000 0.573510 0.445380
0.000000 0.579858 0.429328
0.000000 0.586297 0.406561
0.000000 0.592370 0.374517
0.114260 0.597650 0.329381
0.274784 0.598322 0.303380
0.378332 0.584802 0.311437
0.449317 0.581292 0.304234
0.515648 0.589075 0.275669
0.579706 0.596735 0.242649
0.641413 0.604517 0.203250
0.700252 0.611383 0.153048
0.747890 0.612146 0.102693
0.789303 0.610864 0.000000
0.824949 0.608057 0.000000
0.855894 0.602991 0.000000
0.882567 0.594293 0.000000
0.905882 0.584649 0.000000
0.930266 0.576257 0.000000
0.952331 0.567590 0.013703
0.972595 0.558312 0.086091
0.991058 0.549279 0.121798
1.000000 0.540764 0.154513
1.000000 0.533288 0.187686
0.000000 0.592157 0.501457
0.000000 0.592737 0.501152
0.000000 0.593378 0.500969
0.000000 0.594537 0.499886
0.000000 0.596002 0.498085
0.000000 0.598108 0.495583
0.000000 0.600763 0.492592
0.000000 0.604639 0.487068
0.000000 0.610864 0.476692
0.000000 0.617395 0.461982
0.000000 0.624018 0.441596
0.000000 0.630335 0.412696
0.000000 0.636255 0.372961
0.193881 0.640772 0.319158
0.344244 0.633448 0.322271
0.433539 0.620203 0.330877
0.503655 0.624231 0.309728
0.570794 0.631525 0.278325
0.635004 0.638544 0.242161
0.696498 0.645045 0.198489
0.748745 0.646021 0.146944
0.790982 0.642451 0.091981
0.827359 0.637354 0.000000
0.858427 0.631373 0.000000
0.885191 0.622614 0.000000
0.908232 0.611719 0.000000
0.928344 0.600397 0.000000
0.950622 0.591150 0.000000
0.970947 0.581933 0.095827
0.989593 0.572442 0.130251
1.000000 0.563470 0.162509
1.000000 0.555474 0.196597
0.000000 0.633631 0.530541
0.000000 0.634119 0.530236
0.000000 0.634699 0.529778
0.000000 0.635645 0.528740
0.000000 0.636988 0.527001
0.000000 0.638941 0.524376
0.000000 0.641382 0.521233
0.000000 0.644343 0.517205
0.000000 0.649928 0.508354
0.000000 0.656336 0.494789
0.000000 0.663020 0.476051
0.000000 0.669490 0.450629
0.000000 0.675410 0.415045
0.094331 0.680293 0.367346
0.287083 0.681819 0.334874
0.408331 0.668940 0.343175
0.488655 0.659785 0.345342
0.558495 0.666285 0.315496
0.625055 0.672328 0.281621
0.688594 0.677882 0.241825
0.747433 0.681666 0.193637
0.792844 0.676936 0.142428
0.829831 0.669306 0.081178
0.861357 0.660853 0.000000
0.888273 0.651942 0.000000
0.911284 0.640040 0.000000
0.931365 0.627558 0.000000
0.948974 0.615045 0.000000
0.969024 0.605035 0.091463
0.987732 0.595605 0.138033
1.000000 0.586175 0.171298
1.000000 0.577661 0.205142
0.000000 0.676143 0.559380
0.000000 0.676570 0.559197
0.000000 0.677119 0.558587
0.000000 0.678035 0.557641
0.000000 0.679377 0.555779
0.000000 0.681361 0.553429
0.000000 0.683894 0.550225
0.000000 0.687098 0.546563
0.000000 0.691493 0.540673
0.000000 0.697963 0.528222
0.000000 0.704524 0.511223
0.000000 0.710903 0.487953
0.000000 0.716823 0.456794
0.000000 0.721767 0.414954
0.204196 0.725154 0.362036
0.369757 0.719112 0.359960
0.471809 0.706538 0.369543
0.546349 0.704219 0.357427
0.615198 0.709316 0.325017
0.680720 0.713863 0.287846
0.742916 0.717922 0.244724
0.796750 0.716945 0.192782
0.835355 0.706691 0.142550
0.867002 0.695094 0.077424
0.893919 0.683406 0.000000
0.916960 0.671199 0.000000
0.936675 0.657252 0.000000
0.954040 0.643397 0.006653
0.969329 0.629938 0.093935
0.987091 0.619287 0.140627
1.000000 0.609979 0.182589
1.000000 0.601007 0.217502
0.000000 0.720974 0.588952
0.000000 0.721401 0.588586
0.000000 0.721767 0.588067
0.000000 0.722438 0.586725
0.000000 0.723690 0.584924
0.000000 0.725277 0.582147
0.000000 0.727352 0.578973
0.000000 0.730037 0.574884
0.000000 0.733211 0.569940
0.000000 0.738125 0.559991
0.000000 0.743832 0.543633
0.000000 0.749447 0.522271
0.000000 0.754604 0.494148
0.000000 0.759060 0.457527
0.103822 0.762203 0.411780
