data/fiter_cube/12544332/1022706/file.cube
# Created by Adobe Lightroom plugin Export LUT (1.24.0)
# www.johnrellis.com/lightroom/exportlut.htm
# Preset: 城市青橙纪实夜景 _10 云集
# Color profile: C:\Program Files (x86)\Common Files\Adobe\Color\Profiles\Recommended\AdobeRGB1998.icc
LUT_3D_SIZE 8
DOMAIN_MIN 0.000000 0.000000 0.000000
DOMAIN_MAX 0.903226 0.903226 0.903226
0.082582 0.084749 0.094759
0.162966 0.082124 0.096468
0.303685 0.085115 0.092378
0.462135 0.098268 0.078096
0.648768 0.124697 0.004913
0.805112 0.151797 0.000000
0.915618 0.166293 0.000000
0.992432 0.174563 0.000458
0.076204 0.111818 0.111543
0.150301 0.119966 0.097078
0.295689 0.124788 0.092103
0.454688 0.138155 0.076967
0.640620 0.160616 0.000244
0.799039 0.179873 0.000000
0.912505 0.189059 0.000000
0.991028 0.192599 0.000000
0.000000 0.176425 0.163577
0.091829 0.183810 0.142702
0.270237 0.199191 0.090974
0.439002 0.218021 0.072999
0.629114 0.241001 0.000000
0.793606 0.253727 0.000000
0.911864 0.253758 0.000000
0.990845 0.246952 0.000580
0.000000 0.255985 0.232395
0.000000 0.262272 0.221164
0.220615 0.264683 0.172000
0.412970 0.297307 0.079713
0.615106 0.332677 0.000000
0.785855 0.344060 0.000000
0.906767 0.335973 0.000000
0.987854 0.320043 0.000885
0.000000 0.342596 0.306340
0.000000 0.347204 0.300206
0.083772 0.364630 0.238529
0.365393 0.368261 0.182498
0.579797 0.412451 0.000000
0.767697 0.436255 0.000000
0.897459 0.425422 0.000000
0.983337 0.401984 0.018311
0.000000 0.447150 0.392065
0.000000 0.451942 0.388891
0.000000 0.471290 0.353735
0.300237 0.476570 0.269444
0.543603 0.497444 0.176364
0.751400 0.531365 0.000000
0.888273 0.520348 0.000000
0.978363 0.490089 0.062287
0.000000 0.592157 0.501457
0.000000 0.596002 0.498085
0.000000 0.610864 0.476692
0.000000 0.636255 0.372961
0.503655 0.624231 0.309728
0.748745 0.646021 0.146944
0.885191 0.622614 0.000000
0.970947 0.581933 0.095827
0.000000 0.761807 0.614618
0.000000 0.764157 0.610498
0.000000 0.772793 0.595361
0.000000 0.791257 0.529168
0.396979 0.791806 0.407324
0.715663 0.779507 0.346380
0.902098 0.751614 0.149722
0.977935 0.685878 0.125246
0.052094 0.102144 0.157626
0.145541 0.100984 0.139406
0.287907 0.128450 0.092470
0.443885 0.155581 0.077211
0.631556 0.178836 0.000000
0.793545 0.194369 0.000000
0.910094 0.197024 0.000000
0.989960 0.192935 0.000000
0.010193 0.133303 0.175113
0.130800 0.135439 0.156741
0.280552 0.151583 0.106020
0.439612 0.176944 0.076081
0.627070 0.200076 0.000000
0.790188 0.214511 0.000000
0.907744 0.214847 0.000000
0.988556 0.208774 0.000000
0.000000 0.188998 0.203128
0.072358 0.199039 0.197086
0.262272 0.206149 0.148226
0.427924 0.234379 0.073426
0.616632 0.260441 0.000000
0.784787 0.273747 0.000000
0.905974 0.270054 0.000000
0.988067 0.258122 0.000000
0.000000 0.264805 0.261204
0.000000 0.272801 0.254704
0.212314 0.275029 0.209934
0.406836 0.299077 0.133516
0.601251 0.338628 0.000000
0.775296 0.353246 0.000000
0.900908 0.345281 0.000000
0.985260 0.327001 0.000000
0.000000 0.350439 0.329778
0.000000 0.355474 0.323980
0.013764 0.372198 0.275151
0.359564 0.373632 0.215152
0.573266 0.411688 0.103639
0.761135 0.441291 0.000000
0.894041 0.431495 0.000000
0.981659 0.406714 0.010010
0.000000 0.452491 0.409888
0.000000 0.456001 0.406317
0.000000 0.475074 0.375891
0.283116 0.486336 0.285801
0.538689 0.500481 0.208621
0.748775 0.532189 0.000000
0.886259 0.524712 0.000000
0.977173 0.493385 0.060761
0.000000 0.593866 0.514122
0.000000 0.596643 0.510460
0.000000 0.611872 0.491157
0.000000 0.637842 0.400092
0.495003 0.626551 0.332036
0.745113 0.648066 0.181430
0.882689 0.624689 0.000000
0.969482 0.583948 0.091829
0.000000 0.762142 0.624659
0.000000 0.764767 0.620844
0.000000 0.773526 0.606256
0.000000 0.792050 0.545464
0.376379 0.798489 0.422004
0.710079 0.782010 0.369482
0.900328 0.753811 0.183505
0.977142 0.687648 0.122652
0.000000 0.153933 0.276738
0.000000 0.148959 0.269963
0.258854 0.143587 0.232761
0.433051 0.167269 0.144778
0.618250 0.237736 0.000000
0.784207 0.263096 0.000000
0.906828 0.256016 0.000000
0.989441 0.234653 0.000000
0.000000 0.182193 0.282994
0.000000 0.175387 0.278691
0.249454 0.170596 0.242802
0.426001 0.186862 0.161318
0.612177 0.252567 0.012909
0.781003 0.276646 0.000000
0.904967 0.268925 0.000000
0.988525 0.247044 0.000000
0.000000 0.233524 0.310430
0.000000 0.233371 0.304723
0.222690 0.231693 0.272618
0.410407 0.242130 0.206180
0.604456 0.288029 0.099245
0.776486 0.320226 0.000000
0.902556 0.311284 0.000000
0.987121 0.287541 0.000000
0.000000 0.294499 0.340978
0.000000 0.299107 0.338476
0.113832 0.312474 0.311589
0.389441 0.314977 0.253361
0.590173 0.347356 0.167483
0.768246 0.385748 0.000000
0.898497 0.375555 0.000000
0.984894 0.348852 0.000000
0.000000 0.369421 0.389837
0.000000 0.376135 0.389197
0.000000 0.397040 0.371435
0.334600 0.394873 0.312444
0.564263 0.422309 0.230503
0.755215 0.453986 0.099306
0.891325 0.453132 0.000000
0.981109 0.422827 0.019837
0.000000 0.470619 0.463355
0.000000 0.475319 0.461769
0.000000 0.496315 0.447425
0.197848 0.515282 0.365423
0.525170 0.517876 0.299718
0.741329 0.538231 0.196994
0.883055 0.540032 0.000000
0.976715 0.505669 0.065980
0.000000 0.610315 0.562036
0.000000 0.613642 0.559289
0.000000 0.627985 0.545281
0.000000 0.652796 0.482856
0.464851 0.644068 0.400366
0.736782 0.661219 0.276097
0.879667 0.630945 0.151705
0.969970 0.594232 0.094270
0.000000 0.770291 0.662318
0.000000 0.772000 0.657923
0.000000 0.780087 0.644343
0.000000 0.798428 0.598688
0.289433 0.807950 0.481025
0.687678 0.788388 0.442206
0.894774 0.763790 0.274083
0.976562 0.695491 0.122347
0.000000 0.222293 0.408728
0.000000 0.225528 0.403693
0.048615 0.172366 0.391852
0.393347 0.190646 0.340093
0.603265 0.198337 0.229465
0.776120 0.278447 0.115938
0.901152 0.309880 0.000000
0.987579 0.277653 0.000000
0.000000 0.247410 0.413489
0.000000 0.242618 0.411170
0.000000 0.197971 0.398352
0.388190 0.210819 0.346654
0.598322 0.218387 0.240665
0.773190 0.289128 0.131228
0.899718 0.321477 0.000000
0.987182 0.286229 0.000000
0.000000 0.290196 0.431861
0.000000 0.287724 0.429572
0.000000 0.266392 0.416907
0.369177 0.266758 0.367254
0.583612 0.276310 0.276677
0.767788 0.326635 0.175509
0.899351 0.358556 0.000000
0.987091 0.319219 0.000000
0.000000 0.352697 0.465888
0.000000 0.353368 0.461280
0.000000 0.349157 0.450050
0.333623 0.346319 0.404334
0.559258 0.356085 0.332616
0.755947 0.384619 0.229557
0.894133 0.410376 0.000000
0.984588 0.373846 0.007446
0.000000 0.422675 0.500298
0.000000 0.424262 0.495613
0.000000 0.431922 0.487953
0.207645 0.445075 0.445808
0.535058 0.443763 0.380377
0.741268 0.462654 0.297429
0.888090 0.470314 0.129519
0.981201 0.442908 0.037934
0.000000 0.509819 0.551568
0.000000 0.512779 0.548913
0.000000 0.527703 0.543938
0.000000 0.551568 0.510033
0.482155 0.545953 0.436866
0.726589 0.555047 0.348547
0.877379 0.548730 0.239750
0.976776 0.522362 0.075227
0.000000 0.635615 0.633875
0.000000 0.639185 0.631922
0.000000 0.652705 0.624414
0.000000 0.677577 0.591974
0.350164 0.690059 0.486671
0.711299 0.684565 0.412879
0.871275 0.644373 0.311528
0.969848 0.608148 0.127718
0.000000 0.786709 0.725643
0.000000 0.788602 0.722133
0.000000 0.794339 0.707912
0.000000 0.807767 0.675563
0.000000 0.821317 0.586236
0.647242 0.797055 0.557702
0.881682 0.783291 0.397101
0.971649 0.706600 0.265415
0.000000 0.307256 0.554314
0.000000 0.312688 0.549004
0.000000 0.279759 0.543389
0.271153 0.232151 0.519036
0.554681 0.238407 0.459083
0.760891 0.225803 0.328130
0.895933 0.305638 0.227024
0.985687 0.335790 0.000000
0.000000 0.326390 0.557488
0.000000 0.327581 0.554131
0.000000 0.296117 0.548241
0.257816 0.244816 0.523919
0.550103 0.255589 0.463050
0.758175 0.245121 0.336309
0.894896 0.315984 0.234409
0.985504 0.342535 0.000000
0.000000 0.367254 0.570733
0.000000 0.365057 0.568811
0.000000 0.343999 0.563348
0.178744 0.281621 0.539666
0.534508 0.307591 0.477485
0.747616 0.302403 0.362737
0.891051 0.348821 0.257725
0.984588 0.364538 0.003082
0.000000 0.421332 0.596185
0.000000 0.422248 0.592798
0.000000 0.411444 0.586999
0.000000 0.380835 0.565667
0.508507 0.385046 0.505058
0.733059 0.384497 0.407233
0.886717 0.401099 0.289769
0.984894 0.396460 0.023896
0.000000 0.492042 0.630671
0.000000 0.494057 0.626276
0.000000 0.491341 0.619379
0.000000 0.483101 0.599664
0.465522 0.479561 0.545098
0.713344 0.479072 0.461555
0.879545 0.471077 0.332647
0.982269 0.456855 0.068635
0.000000 0.570642 0.667140
0.000000 0.572473 0.663783
0.000000 0.576928 0.656672
0.000000 0.585229 0.642481
0.308873 0.597650 0.584466
0.691463 0.584314 0.512963
0.864530 0.567010 0.416052
0.976013 0.530510 0.210941
0.000000 0.676112 0.727138
0.000000 0.678157 0.724605
0.000000 0.685451 0.715389
0.000000 0.704005 0.703548
0.000000 0.720546 0.644556
0.642115 0.704097 0.576623
0.852659 0.669490 0.472877
0.963622 0.621180 0.333654
0.000000 0.800931 0.797574
0.000000 0.803586 0.795560
0.000000 0.811826 0.786893
0.000000 0.821683 0.764034
0.000000 0.835416 0.705715
0.555169 0.824735 0.645167
0.850584 0.813077 0.556451
0.959777 0.726864 0.425544
0.000000 0.403632 0.706172
0.000000 0.408118 0.703059
0.000000 0.392401 0.698329
0.000000 0.319951 0.688777
0.459907 0.305913 0.655970
0.718441 0.311833 0.579004
0.879118 0.303227 0.454200
0.976806 0.353643 0.357549
0.000000 0.417029 0.706661
0.000000 0.420569 0.703456
0.000000 0.402319 0.699763
0.000000 0.335424 0.689967
0.452033 0.316228 0.658198
0.714870 0.325750 0.582116
0.877317 0.316991 0.459693
0.976196 0.360784 0.360876
0.000000 0.453803 0.715602
0.000000 0.456489 0.712459
0.000000 0.437812 0.709499
0.000000 0.387213 0.699825
0.422797 0.350958 0.670100
0.705898 0.372625 0.595422
0.872526 0.363348 0.479561
0.975006 0.385290 0.371496
0.000000 0.499001 0.730465
0.000000 0.501976 0.727382
0.000000 0.491646 0.724208
0.000000 0.461280 0.716121
0.335149 0.403449 0.691249
0.691157 0.446723 0.620508
0.865599 0.432837 0.512322
0.974273 0.422797 0.382879
0.000000 0.555169 0.749416
0.000000 0.557977 0.747005
0.000000 0.556512 0.742550
0.000000 0.541863 0.734890
0.183078 0.508537 0.714473
0.664790 0.531487 0.651148
0.855009 0.511803 0.548455
0.973480 0.468177 0.385168
0.000000 0.620386 0.771786
0.000000 0.623163 0.770016
0.000000 0.628168 0.764523
0.000000 0.625971 0.758083
0.000000 0.623377 0.741970
0.622919 0.634852 0.692805
0.839078 0.611933 0.602869
0.968536 0.543450 0.420539
0.000000 0.700221 0.807401
0.000000 0.702846 0.806271
0.000000 0.711696 0.801266
0.000000 0.721706 0.795346
0.000000 0.738369 0.782376
0.460334 0.753170 0.721828
0.817105 0.720027 0.662928
0.948119 0.661830 0.539208
0.000000 0.793790 0.854337
0.000000 0.796384 0.853239
0.000000 0.805753 0.849424
0.000000 0.823819 0.841520
0.000000 0.853635 0.828183
0.086519 0.857481 0.750881
0.780484 0.826413 0.728298
0.935332 0.770687 0.619501
0.000000 0.482612 0.826749
0.000000 0.486580 0.825254
0.000000 0.488289 0.821500
0.000000 0.443519 0.818845
0.141451 0.361028 0.809140
0.655268 0.417304 0.781369
0.839628 0.457862 0.694087
0.945525 0.487739 0.624475
0.000000 0.492134 0.827604
0.000000 0.495613 0.826139
0.000000 0.495674 0.822629
0.000000 0.453223 0.819760
0.103639 0.371984 0.810483
0.651179 0.428840 0.782956
0.838102 0.468025 0.697230
0.944732 0.495399 0.628016
0.000000 0.517662 0.831144
0.000000 0.520775 0.829801
0.000000 0.520348 0.826535
0.000000 0.485115 0.823728
0.000000 0.416358 0.815000
0.636378 0.466407 0.788357
0.832700 0.501854 0.708553
0.942107 0.520470 0.639826
0.000000 0.552972 0.838132
0.000000 0.555749 0.836759
0.000000 0.560052 0.833158
0.000000 0.534264 0.830442
0.000000 0.483314 0.822629
0.601343 0.510491 0.798032
0.823606 0.554772 0.727291
0.938506 0.558587 0.657099
0.000000 0.597925 0.847501
0.000000 0.600488 0.846372
0.000000 0.609125 0.842527
0.000000 0.594385 0.839841
0.000000 0.562524 0.833280
0.521904 0.558526 0.812131
0.810971 0.618982 0.751705
0.934081 0.606958 0.678370
0.000000 0.650599 0.858732
0.000000 0.652949 0.857816
0.000000 0.661036 0.854520
0.000000 0.661250 0.851041
0.000000 0.647578 0.846006
0.361639 0.634668 0.830747
0.792569 0.692592 0.780972
0.928618 0.664820 0.702663
0.000000 0.707515 0.870970
0.000000 0.709712 0.870237
0.000000 0.717556 0.867613
0.000000 0.729000 0.863401
0.000000 0.730678 0.859495
0.148775 0.740688 0.848295
0.763394 0.771542 0.812253
0.918395 0.739345 0.737636
0.000000 0.775235 0.896696
0.000000 0.777432 0.896300
0.000000 0.785336 0.894804
0.000000 0.800168 0.891722
0.000000 0.821195 0.886656
0.000000 0.847898 0.877379
0.643641 0.860197 0.828641
0.900938 0.829770 0.791745
0.000000 0.535973 0.911711
0.000000 0.539178 0.911070
0.000000 0.550500 0.908751
0.000000 0.529778 0.907378
0.000000 0.486610 0.904509
0.528801 0.527489 0.891997
0.818601 0.608972 0.872038
0.912322 0.656489 0.807889
0.000000 0.541314 0.912139
0.000000 0.544396 0.911498
0.000000 0.555261 0.909178
0.000000 0.535851 0.907805
0.000000 0.493782 0.904997
0.524071 0.533349 0.892607
0.816007 0.615351 0.872618
0.911589 0.661280 0.809720
0.000000 0.556542 0.913787
0.000000 0.559319 0.913207
0.000000 0.569482 0.911009
0.000000 0.556237 0.909270
0.000000 0.518730 0.906584
0.505211 0.552636 0.894713
0.807034 0.636378 0.874662
0.909178 0.677180 0.815915
0.000000 0.577020 0.917235
0.000000 0.579675 0.916655
0.000000 0.589166 0.914580
0.000000 0.589471 0.911986
0.000000 0.557794 0.909575
0.451087 0.575708 0.899168
0.791257 0.668391 0.878355
0.905394 0.702419 0.825986
0.000000 0.613184 0.921447
0.000000 0.614527 0.921019
0.000000 0.619135 0.919524
0.000000 0.625788 0.916655
0.000000 0.606348 0.914122
0.296117 0.596460 0.906584
0.765072 0.700679 0.884459
0.900175 0.735531 0.839506
0.000000 0.657343 0.926574
0.000000 0.658686 0.926238
0.000000 0.663325 0.924926
0.000000 0.670863 0.922515
0.000000 0.666560 0.919799
0.000000 0.646571 0.914824
0.717098 0.732387 0.893523
0.893278 0.775265 0.856046
0.000000 0.706203 0.932464
0.000000 0.707607 0.932158
0.000000 0.712459 0.931121
0.000000 0.721218 0.929137
0.000000 0.734371 0.925750
0.000000 0.724117 0.922576
0.579767 0.758816 0.907836
0.883665 0.820645 0.875120
0.000000 0.757595 0.938781
0.000000 0.759030 0.938567
0.000000 0.764370 0.937743
0.000000 0.774533 0.936156
0.000000 0.791165 0.933410
0.000000 0.804715 0.929931
0.411933 0.832273 0.920134
0.867521 0.872221 0.896117
