data/fiter_cube/93231427/1022695/file.cube
# Created by Adobe Lightroom plugin Export LUT (1.17.0)
# www.johnrellis.com/lightroom/exportlut.htm
# Preset: 工业风黑金_07 云集后期
# Color profile: C:\Program Files (x86)\Common Files\Adobe\Color\Profiles\Recommended\AdobeRGB1998.icc
LUT_3D_SIZE 8
DOMAIN_MIN 0.000000 0.000000 0.000000
DOMAIN_MAX 0.903226 0.903226 0.903226
0.022278 0.087190 0.107698
0.046265 0.088289 0.108156
0.170199 0.085176 0.106447
0.403906 0.000000 0.092317
0.644434 0.000000 0.034058
0.863920 0.000000 0.000000
0.976715 0.000000 0.000000
1.000000 0.222141 0.112367
0.027466 0.089113 0.108003
0.044617 0.090150 0.108736
0.148836 0.095918 0.107973
0.365576 0.049073 0.096437
0.606622 0.000000 0.057069
0.828367 0.000000 0.000000
0.956664 0.000000 0.000000
1.000000 0.216648 0.102174
0.060182 0.099947 0.108370
0.071504 0.100679 0.107698
0.161532 0.113985 0.107576
0.356970 0.130495 0.102480
0.599725 0.104524 0.068269
0.833921 0.097017 0.000000
0.972930 0.209964 0.061707
1.000000 0.317937 0.170413
0.121920 0.139864 0.106447
0.134401 0.139101 0.104982
0.193668 0.131441 0.101259
0.388647 0.170138 0.089906
0.659724 0.256016 0.109743
0.854520 0.279484 0.101015
0.967041 0.329351 0.145022
1.000000 0.400153 0.227634
0.201755 0.193240 0.098543
0.214145 0.193088 0.096529
0.261784 0.188266 0.089906
0.423041 0.196262 0.063081
0.648371 0.265629 0.000000
0.814389 0.373999 0.174716
0.942840 0.416876 0.211582
1.000000 0.486183 0.298344
0.304509 0.269749 0.073426
0.327367 0.278721 0.064820
0.374914 0.279332 0.032807
0.469612 0.268223 0.000000
0.668940 0.286687 0.000000
0.837217 0.372198 0.000824
0.936645 0.520531 0.310277
1.000000 0.590661 0.404334
0.429694 0.369024 0.000000
0.445258 0.372992 0.000000
0.485176 0.374456 0.000000
0.566552 0.370794 0.000000
0.682307 0.329747 0.000000
0.859953 0.387213 0.000000
0.952453 0.499214 0.190066
0.989929 0.658045 0.475502
0.597986 0.504112 0.000000
0.608453 0.504875 0.000000
0.650080 0.509453 0.000000
0.727565 0.512322 0.000000
0.777676 0.459510 0.000000
0.907836 0.438300 0.000000
0.993927 0.537346 0.063569
1.000000 0.669856 0.437446
0.028412 0.090394 0.111604
0.030762 0.093568 0.116396
0.146242 0.094484 0.112917
0.341802 0.086458 0.102632
0.576135 0.000000 0.067201
0.803250 0.000000 0.000000
0.942657 0.000000 0.000000
1.000000 0.208347 0.090517
0.030152 0.091737 0.113008
0.042115 0.097444 0.119478
0.142885 0.105196 0.116823
0.330877 0.103578 0.104616
0.561089 0.061433 0.072297
0.785245 0.000000 0.000000
0.925994 0.000000 0.000000
1.000000 0.200626 0.078614
0.045686 0.111269 0.121614
0.086702 0.120546 0.119051
0.168887 0.121248 0.114351
0.324102 0.146670 0.113619
0.553765 0.150393 0.083772
0.783291 0.143160 0.004791
0.932799 0.190463 0.013306
1.000000 0.288487 0.137575
0.123079 0.160281 0.119203
0.150729 0.161105 0.114809
0.205875 0.146181 0.106081
0.362463 0.165835 0.094331
0.567193 0.235447 0.110170
0.779232 0.258030 0.093751
0.925170 0.293919 0.112154
1.000000 0.366918 0.190066
0.220706 0.220432 0.108370
0.231754 0.216312 0.104860
0.279759 0.209354 0.093812
0.399939 0.191531 0.072786
0.594720 0.244144 0.002777
0.774258 0.342290 0.140932
0.919432 0.400549 0.194888
1.000000 0.466896 0.274327
0.311162 0.285405 0.085725
0.323644 0.286381 0.080720
0.367285 0.284489 0.061860
0.451606 0.267124 0.000000
0.639765 0.276646 0.000000
0.822324 0.360113 0.000000
0.928710 0.500298 0.278660
0.998810 0.577325 0.387091
0.413611 0.365179 0.000000
0.420691 0.362890 0.000000
0.459052 0.362402 0.000000
0.539696 0.358892 0.000000
0.657527 0.325689 0.000000
0.839292 0.373419 0.000000
0.937377 0.473915 0.149294
0.982910 0.627649 0.433967
0.573480 0.487953 0.000000
0.587884 0.491981 0.000000
0.631739 0.499184 0.000000
0.711971 0.505333 0.000000
0.799130 0.479469 0.000000
0.909880 0.441932 0.000000
0.990753 0.530236 0.000000
1.000000 0.655970 0.413947
0.063478 0.110536 0.133364
0.077333 0.121767 0.144900
0.123140 0.165499 0.204654
0.417975 0.082948 0.185946
0.640833 0.102205 0.159274
0.819669 0.163821 0.133913
0.942687 0.238682 0.080262
1.000000 0.310674 0.155215
0.074983 0.119753 0.143008
0.090822 0.132387 0.155642
0.142245 0.177401 0.210758
0.403479 0.135439 0.191135
0.620111 0.143832 0.165438
0.802090 0.177615 0.134340
0.930785 0.239536 0.077272
1.000000 0.311620 0.152987
0.099428 0.139040 0.162325
0.121492 0.156252 0.178897
0.205997 0.223148 0.241337
0.394720 0.226871 0.218235
0.623468 0.235843 0.192081
0.799924 0.249027 0.155703
0.927459 0.290837 0.110262
1.000000 0.353918 0.181491
0.177218 0.200320 0.220157
0.188632 0.228885 0.237858
0.278050 0.272129 0.213443
0.434089 0.259037 0.198428
0.621332 0.329961 0.233982
0.795865 0.337957 0.197116
0.925628 0.368719 0.168399
1.000000 0.425788 0.238651
0.212161 0.320775 0.236667
0.255894 0.338506 0.241978
0.355840 0.326940 0.184573
0.456031 0.275029 0.145754
0.641657 0.307958 0.146548
0.788602 0.377996 0.191989
0.912688 0.445136 0.235752
1.000000 0.504326 0.309850
0.331029 0.397925 0.204593
0.356085 0.394659 0.189700
0.420783 0.373175 0.144991
0.499794 0.345098 0.102602
0.647547 0.301030 0.000000
0.809110 0.365789 0.035615
0.924193 0.476722 0.221225
0.994415 0.602197 0.413977
0.449134 0.463630 0.138582
0.463264 0.453376 0.120180
0.499031 0.429297 0.071290
0.569635 0.413977 0.000000
0.663966 0.361089 0.000000
0.831998 0.373022 0.000000
0.942229 0.472938 0.101137
0.991211 0.635950 0.431434
0.588647 0.543084 0.000000
0.595880 0.530846 0.000000
0.628565 0.520653 0.000000
0.714351 0.526757 0.000000
0.796567 0.497536 0.000000
0.897704 0.442420 0.000000
0.991638 0.526940 0.000000
1.000000 0.654627 0.398260
0.127291 0.160678 0.183139
0.145937 0.175113 0.196780
0.209995 0.226505 0.244358
0.308293 0.329595 0.374670
0.682368 0.416571 0.483375
0.829129 0.271489 0.321782
0.930541 0.323156 0.290929
1.000000 0.378149 0.258030
0.152865 0.180453 0.201785
0.168490 0.192813 0.213382
0.227787 0.241611 0.258213
0.332372 0.349645 0.388220
0.683803 0.391913 0.461769
0.820859 0.291814 0.325109
0.924590 0.330571 0.290990
1.000000 0.381048 0.255192
0.181674 0.203311 0.223117
0.200534 0.218631 0.237186
0.267399 0.276616 0.290105
0.390265 0.395697 0.414282
0.687068 0.365911 0.402564
0.827085 0.382940 0.366857
0.937377 0.413947 0.341009
1.000000 0.437659 0.293645
0.244205 0.255985 0.271275
0.264683 0.274235 0.287907
0.341161 0.344030 0.351324
0.498451 0.480659 0.472358
0.667811 0.469490 0.436683
0.807614 0.453529 0.393256
0.920867 0.459113 0.355474
1.000000 0.488136 0.324163
0.350866 0.352941 0.359350
0.375586 0.375341 0.379461
0.467292 0.458900 0.452186
0.551202 0.516289 0.423468
0.689174 0.474281 0.393835
0.805081 0.528008 0.433722
0.914611 0.538018 0.407507
0.995270 0.557031 0.377874
0.441321 0.504082 0.456184
0.460731 0.530266 0.468299
0.481117 0.564324 0.452827
0.591058 0.526818 0.343633
0.693202 0.444526 0.278630
0.826078 0.476936 0.310613
0.919860 0.557794 0.386938
0.987396 0.634821 0.451331
0.477028 0.608362 0.436255
0.502007 0.613581 0.437781
0.547997 0.599359 0.379156
0.632990 0.542596 0.241184
0.723568 0.490761 0.172641
0.847776 0.432624 0.102449
0.941222 0.510613 0.218662
0.996826 0.625116 0.394903
0.603693 0.680171 0.385565
0.613336 0.673945 0.358984
0.651240 0.642695 0.251225
0.720546 0.595392 0.077882
0.801694 0.563134 0.000000
0.884031 0.483772 0.000000
0.990051 0.519799 0.000000
1.000000 0.645777 0.359228
0.230442 0.243961 0.260319
0.246036 0.257603 0.272740
0.291417 0.298405 0.309911
0.388586 0.388251 0.393133
0.512902 0.507713 0.535882
0.824338 0.713924 0.695430
0.923827 0.481636 0.514763
0.992523 0.525200 0.492775
0.251286 0.262303 0.277012
0.268467 0.277653 0.291020
0.311650 0.317052 0.326879
0.397009 0.394568 0.396735
0.524346 0.515404 0.539147
0.825498 0.703639 0.689754
0.923857 0.492897 0.517571
0.991699 0.530510 0.493324
0.288945 0.296239 0.307958
0.304265 0.310185 0.320714
0.343175 0.345861 0.353033
0.428962 0.422553 0.421515
0.560601 0.539879 0.549645
0.819364 0.651911 0.653193
0.915984 0.518547 0.518853
0.987213 0.536614 0.484871
0.328313 0.332341 0.340734
0.341070 0.343999 0.351232
0.393194 0.391119 0.393591
0.495430 0.478248 0.470222
0.639002 0.595697 0.583185
0.821775 0.576837 0.575647
0.911254 0.570062 0.533898
0.987457 0.565728 0.485756
0.398901 0.396216 0.398169
0.415473 0.410864 0.411139
0.471809 0.458900 0.453376
0.579767 0.545251 0.528405
0.714015 0.651575 0.622278
0.808286 0.633997 0.587976
0.902007 0.615503 0.545006
0.981292 0.615656 0.506889
0.487251 0.471565 0.464424
0.504082 0.485267 0.476295
0.564202 0.532982 0.517784
0.669642 0.615839 0.590326
0.702388 0.639490 0.549920
0.812955 0.612055 0.531060
0.900389 0.669764 0.574304
0.975616 0.687434 0.561089
0.686885 0.630915 0.603326
0.684230 0.636561 0.605707
0.678981 0.657679 0.611658
0.670802 0.688777 0.594568
0.730190 0.638422 0.451637
0.824308 0.550805 0.376837
0.919524 0.599664 0.434302
0.979004 0.678401 0.513176
0.696132 0.728023 0.630182
0.692103 0.730159 0.624598
0.677974 0.737423 0.598138
0.719142 0.735744 0.550225
0.782071 0.657160 0.303105
0.872282 0.593622 0.203769
0.971923 0.549035 0.147860
1.000000 0.640192 0.347021
0.398596 0.395972 0.397925
0.407080 0.403479 0.404578
0.423743 0.418097 0.417548
0.475013 0.461494 0.455634
0.585595 0.553948 0.544030
0.679072 0.635889 0.643458
0.900786 0.830686 0.798550
0.967041 0.740902 0.737484
0.383581 0.382574 0.385962
0.389441 0.387762 0.390600
0.413092 0.408789 0.409308
0.466041 0.454047 0.449134
0.577691 0.547143 0.536797
0.678187 0.634760 0.640772
0.900237 0.830838 0.798093
0.967285 0.729122 0.725948
0.422858 0.417273 0.416846
0.426001 0.420020 0.419226
0.447639 0.438575 0.435615
0.500664 0.482490 0.473915
0.596399 0.559411 0.542992
0.705226 0.654170 0.651911
0.906432 0.837980 0.805966
0.971740 0.698665 0.692348
0.454994 0.444862 0.441108
0.459602 0.448707 0.444465
0.489998 0.473823 0.466377
0.560143 0.529870 0.515038
0.652155 0.602014 0.578088
0.759396 0.696162 0.680537
0.913115 0.812161 0.790860
0.974151 0.702785 0.677028
0.489937 0.473762 0.466316
0.499763 0.481758 0.473274
0.534752 0.509789 0.497627
0.598718 0.560052 0.541344
0.683314 0.626734 0.600031
0.791135 0.720821 0.693690
0.908812 0.722683 0.701564
0.969421 0.709346 0.659022
0.555077 0.525841 0.511559
0.570001 0.537591 0.521752
0.605158 0.565087 0.545739
0.663935 0.611322 0.586328
0.740963 0.674037 0.642603
0.840574 0.765530 0.729305
0.901884 0.755123 0.702358
0.967590 0.745113 0.667994
0.672847 0.618402 0.592615
0.684199 0.627497 0.600671
0.711391 0.649470 0.620356
0.759457 0.689754 0.657069
0.826963 0.751797 0.715785
0.834775 0.754452 0.664576
0.905516 0.729549 0.643641
0.961761 0.777005 0.683162
0.805264 0.730892 0.695613
0.809689 0.735073 0.699611
0.826535 0.751400 0.715389
0.838926 0.776822 0.735439
0.815152 0.792416 0.712337
0.844022 0.735592 0.530632
0.934264 0.651484 0.447578
0.992859 0.729122 0.561089
0.555413 0.526116 0.511803
0.565179 0.533837 0.518456
0.578759 0.544457 0.527733
0.607172 0.566705 0.547112
0.645045 0.596399 0.573144
0.735958 0.675166 0.654444
0.786069 0.724880 0.722042
0.937560 0.878111 0.854734
0.541985 0.515557 0.502617
0.550835 0.522545 0.508690
0.565698 0.534203 0.518822
0.591760 0.554620 0.536584
0.631800 0.585992 0.563989
0.723476 0.664515 0.644190
0.776913 0.716548 0.713802
0.934508 0.873777 0.849393
0.571862 0.539055 0.523003
0.575006 0.541497 0.525139
0.584894 0.549218 0.531884
0.609461 0.568444 0.548669
0.646479 0.597528 0.574182
0.730922 0.669368 0.645869
0.794400 0.730983 0.723690
0.941192 0.885771 0.861112
0.604608 0.564721 0.545373
0.603662 0.563897 0.544701
0.611536 0.570092 0.550103
0.638758 0.591485 0.568811
0.677150 0.621820 0.595636
0.747677 0.681239 0.652064
0.821042 0.754147 0.740169
0.949218 0.901335 0.876799
0.617365 0.574670 0.554101
0.617456 0.574731 0.554162
0.626459 0.581811 0.560327
0.651240 0.601282 0.577447
0.691768 0.633539 0.606104
0.755489 0.686366 0.653925
0.838010 0.768826 0.748043
0.952239 0.886503 0.867063
0.654414 0.603784 0.579675
0.658503 0.607050 0.582544
0.672908 0.618463 0.592645
0.700191 0.640314 0.612177
0.737911 0.671443 0.640284
0.797238 0.723415 0.688533
0.875578 0.806271 0.777462
0.958679 0.822690 0.798672
0.715663 0.653010 0.623560
0.721706 0.657954 0.628016
0.735775 0.669673 0.638636
0.761074 0.691188 0.658350
0.794736 0.721096 0.686336
0.844297 0.769406 0.733150
0.909972 0.845579 0.812680
0.954284 0.834165 0.784054
0.790677 0.717433 0.682826
0.793637 0.720119 0.685389
0.811826 0.737087 0.701564
0.831815 0.756649 0.720516
0.858610 0.784573 0.748409
0.901854 0.835142 0.801328
0.905303 0.828489 0.737514
0.965545 0.819608 0.735470
0.751553 0.682979 0.650813
0.755123 0.686061 0.653651
0.756558 0.687312 0.654780
0.767849 0.697047 0.663783
0.782620 0.710140 0.675990
0.803098 0.728878 0.693660
0.856321 0.787900 0.763455
0.878599 0.817777 0.810147
0.744991 0.677394 0.645686
0.748745 0.680568 0.648615
0.752010 0.683406 0.651179
0.761807 0.691829 0.658930
0.777768 0.705806 0.671931
0.799588 0.725582 0.690578
0.854307 0.785519 0.760647
0.877348 0.816220 0.808286
0.745815 0.678096 0.646357
0.747982 0.679927 0.648005
0.748684 0.680537 0.648554
0.766903 0.696223 0.663050
0.781247 0.708888 0.674830
0.801694 0.727535 0.692409
0.857420 0.788174 0.761624
0.880491 0.819303 0.809934
0.754940 0.685908 0.653468
0.758145 0.688655 0.656031
0.761074 0.691188 0.658350
0.773342 0.701900 0.668299
0.790372 0.717128 0.682551
0.813016 0.738277 0.702663
0.862455 0.792447 0.763485
0.888182 0.827359 0.815732
0.765927 0.695369 0.662257
0.769131 0.698177 0.664820
0.771664 0.700374 0.666865
0.779324 0.707179 0.673213
0.795804 0.722072 0.687251
0.821256 0.746212 0.710323
0.863096 0.791257 0.758511
0.897704 0.837675 0.822904
0.786679 0.713771 0.679408
0.786221 0.713375 0.679011
0.787533 0.714534 0.680110
0.794614 0.721004 0.686244
0.808957 0.734371 0.698939
0.838865 0.763790 0.727596
0.872709 0.800198 0.764401
0.913939 0.856626 0.838193
0.820890 0.745846 0.709987
0.821347 0.746304 0.710414
0.824338 0.749233 0.713283
0.833310 0.758175 0.722042
0.846586 0.771786 0.735531
0.860685 0.786831 0.750698
0.885405 0.814969 0.779782
0.930907 0.877562 0.854948
0.852873 0.778408 0.742184
0.853117 0.778653 0.742397
0.856229 0.781979 0.745785
0.864225 0.790677 0.754635
0.875578 0.803525 0.767819
0.891508 0.822293 0.787564
0.916472 0.854276 0.822263
0.956909 0.915282 0.892668
