data/fiter_cube/93231427/1022695/file.cube
# Created by Adobe Lightroom plugin Export LUT (1.17.0)
# www.johnrellis.com/lightroom/exportlut.htm
# Preset: 工业风黑金_07 云集后期
# Color profile: C:\Program Files (x86)\Common Files\Adobe\Color\Profiles\Recommended\AdobeRGB1998.icc
LUT_3D_SIZE 5
DOMAIN_MIN 0.000000 0.000000 0.000000
DOMAIN_MAX 0.903226 0.903226 0.903226
0.022278 0.087190 0.107698
0.125643 0.089082 0.107454
0.528069 0.000000 0.075257
0.902220 0.000000 0.000000
1.000000 0.222141 0.112367
0.048798 0.095705 0.108309
0.122103 0.106081 0.108553
0.485206 0.095796 0.085481
0.884794 0.058259 0.000000
1.000000 0.307378 0.165957
0.159976 0.164920 0.103426
0.204440 0.159792 0.098421
0.536797 0.221042 0.062501
0.869718 0.336034 0.141238
1.000000 0.439612 0.257572
0.341527 0.299077 0.053254
0.388952 0.304204 0.001709
0.566979 0.277592 0.000000
0.874144 0.403143 0.068605
1.000000 0.609888 0.424567
0.597986 0.504112 0.000000
0.635859 0.507774 0.000000
0.729854 0.476173 0.000000
0.938262 0.459754 0.000000
1.000000 0.669856 0.437446
0.050263 0.101656 0.123964
0.086580 0.135470 0.170779
0.493629 0.079591 0.137911
0.834043 0.137819 0.050813
1.000000 0.270817 0.125948
0.074861 0.119966 0.143160
0.147341 0.176089 0.197757
0.480323 0.180117 0.159640
0.826200 0.210025 0.082216
1.000000 0.321813 0.159304
0.154177 0.250248 0.196689
0.268925 0.254215 0.160067
0.513359 0.246403 0.131167
0.812528 0.356298 0.166323
1.000000 0.460182 0.270176
0.377996 0.397375 0.144839
0.437598 0.382605 0.105684
0.585290 0.324590 0.000000
0.861143 0.387823 0.000000
0.993896 0.620966 0.435523
0.607507 0.534844 0.000000
0.638178 0.526787 0.000000
0.761410 0.512993 0.000000
0.941985 0.466712 0.000000
1.000000 0.668269 0.422522
0.175601 0.198306 0.218540
0.225834 0.240055 0.256748
0.413153 0.425360 0.464240
0.861631 0.366888 0.432258
1.000000 0.446296 0.379004
0.223880 0.238376 0.255161
0.275975 0.284398 0.297185
0.466407 0.464973 0.485512
0.852293 0.422309 0.444129
1.000000 0.473854 0.387854
0.319860 0.324468 0.333623
0.379736 0.379095 0.382849
0.618677 0.575708 0.554986
0.833677 0.546349 0.489296
0.992767 0.555810 0.425330
0.578393 0.545342 0.528130
0.574731 0.577691 0.540276
0.663233 0.589807 0.433082
0.851469 0.544396 0.406348
0.975708 0.666712 0.510552
0.616632 0.715297 0.530480
0.652857 0.713375 0.506371
0.749477 0.623163 0.195590
0.898863 0.499672 0.000000
1.000000 0.626032 0.309300
0.407599 0.403937 0.404974
0.434150 0.427070 0.425483
0.526116 0.502922 0.491646
0.704219 0.655970 0.660883
0.955077 0.811368 0.802487
0.428626 0.422339 0.421302
0.449256 0.440009 0.436835
0.540337 0.514183 0.501427
0.716396 0.664118 0.663172
0.955535 0.786038 0.777890
0.477729 0.463722 0.457588
0.502281 0.483772 0.475044
0.596887 0.558648 0.540124
0.764523 0.699763 0.681575
0.964263 0.714687 0.691646
0.606836 0.566400 0.546868
0.627436 0.582544 0.560998
0.715572 0.652918 0.623438
0.860533 0.786648 0.750515
0.961639 0.763027 0.692378
0.795224 0.721584 0.686732
0.813901 0.739101 0.703487
0.864866 0.795041 0.757839
0.863188 0.761501 0.589837
0.985199 0.749630 0.604517
0.751553 0.682979 0.650813
0.755459 0.686336 0.653895
0.775051 0.703426 0.669703
0.814237 0.740597 0.707179
0.878599 0.817777 0.810147
0.748684 0.680537 0.648554
0.752987 0.684230 0.651972
0.773404 0.701961 0.668330
0.810086 0.735744 0.700801
0.880430 0.819364 0.810422
0.759335 0.689662 0.656977
0.761410 0.691463 0.658595
0.779263 0.707149 0.673182
0.820096 0.745083 0.709255
0.892027 0.831418 0.818326
0.800137 0.726101 0.691066
0.801205 0.727108 0.691981
0.814572 0.739742 0.704067
0.851743 0.777218 0.740963
0.917174 0.860410 0.840940
0.852873 0.778408 0.742184
0.855009 0.780667 0.744472
0.869566 0.796689 0.760769
0.896666 0.828611 0.794308
0.956909 0.915282 0.892668
