data/fiter_cube/93231427/1022695/file.cube
# Created by Adobe Lightroom plugin Export LUT (1.17.0)
# www.johnrellis.com/lightroom/exportlut.htm
# Preset: 工业风黑金_07 云集后期
# Color profile: C:\Program Files (x86)\Common Files\Adobe\Color\Profiles\Recommended\AdobeRGB1998.icc
LUT_3D_SIZE 32
DOMAIN_MIN 0.0 0.0 0.0
DOMAIN_MAX 1.0 1.0 1.0
0.022278 0.087190 0.107698
0.023621 0.087129 0.107698
0.024811 0.087373 0.107668
0.031067 0.087709 0.107851
0.046265 0.088289 0.108156
0.065614 0.088991 0.108156
0.090608 0.089662 0.108125
0.125643 0.089082 0.107454
0.170199 0.085176 0.106447
0.222995 0.076234 0.104738
0.280674 0.057465 0.101930
0.341466 0.000000 0.097963
0.403906 0.000000 0.092317
0.466529 0.000000 0.085115
0.528069 0.000000 0.075257
0.587854 0.000000 0.062440
0.644434 0.000000 0.034058
0.695979 0.000000 0.000000
0.755795 0.000000 0.000000
0.815976 0.000000 0.000000
0.863920 0.000000 0.000000
0.902220 0.000000 0.000000
0.932189 0.000000 0.000000
0.956481 0.000000 0.000000
0.976715 0.000000 0.000000
0.994446 0.062104 0.000000
1.000000 0.130678 0.006256
1.000000 0.178408 0.075380
1.000000 0.222141 0.112367
1.000000 0.265263 0.149386
1.000000 0.309545 0.189303
1.000000 0.355077 0.233646
0.022095 0.087495 0.107698
0.023468 0.087434 0.107698
0.024445 0.087709 0.107881
0.030854 0.087709 0.108064
0.045869 0.088594 0.108370
0.064454 0.089387 0.108370
0.088533 0.089998 0.108156
0.122042 0.089906 0.107729
0.165408 0.086885 0.106783
0.216617 0.079164 0.104982
0.273259 0.063508 0.102327
0.332494 0.012848 0.098604
0.393866 0.000000 0.093324
0.455573 0.000000 0.086519
0.516503 0.000000 0.077363
0.575830 0.000000 0.065644
0.632471 0.000000 0.042298
0.684993 0.000000 0.004181
0.744839 0.000000 0.000000
0.804135 0.000000 0.000000
0.852262 0.000000 0.000000
0.891508 0.000000 0.000000
0.922667 0.000000 0.000000
0.948180 0.000000 0.000000
0.969512 0.000000 0.000000
0.988251 0.000000 0.000000
1.000000 0.111727 0.000000
1.000000 0.165347 0.063233
1.000000 0.210849 0.102968
1.000000 0.255314 0.140627
1.000000 0.300267 0.180819
1.000000 0.346105 0.224796
0.023285 0.087770 0.107668
0.024811 0.087373 0.107668
0.025788 0.087648 0.107881
0.030457 0.088045 0.108278
0.044343 0.088991 0.108370
0.063233 0.089815 0.108583
0.086336 0.090639 0.108156
0.118868 0.090944 0.107759
0.160647 0.088869 0.106874
0.210941 0.082490 0.105348
0.266941 0.068666 0.102846
0.325872 0.030762 0.099001
0.386664 0.000000 0.094148
0.448096 0.000000 0.087282
0.508690 0.000000 0.078462
0.568231 0.000000 0.067170
0.625025 0.000000 0.047089
0.678065 0.000000 0.009216
0.738582 0.000000 0.000000
0.797208 0.000000 0.000000
0.845762 0.000000 0.000000
0.885588 0.000000 0.000000
0.917540 0.000000 0.000000
0.943633 0.000000 0.000000
0.965515 0.000000 0.000000
0.984771 0.000000 0.000000
1.000000 0.106203 0.000000
1.000000 0.160403 0.056886
1.000000 0.206668 0.098634
1.000000 0.251591 0.136812
1.000000 0.296361 0.176730
1.000000 0.342412 0.220737
0.025452 0.088289 0.107851
0.025452 0.088289 0.107851
0.026978 0.087892 0.107851
0.031281 0.088624 0.108461
0.043580 0.089601 0.108766
0.062379 0.090761 0.108766
0.084138 0.092439 0.108522
0.115846 0.093080 0.108156
0.156771 0.091890 0.107271
0.205875 0.087160 0.105806
0.260655 0.076661 0.103182
0.318730 0.057801 0.099702
0.378424 0.000000 0.095003
0.439002 0.000000 0.088533
0.499519 0.000000 0.080110
0.558801 0.000000 0.069337
0.615656 0.000000 0.052125
0.669093 0.000000 0.016388
0.730129 0.000000 0.000000
0.786587 0.000000 0.000000
0.834440 0.000000 0.000000
0.874723 0.000000 0.000000
0.908415 0.000000 0.000000
0.936675 0.000000 0.000000
0.960815 0.000000 0.000000
0.981964 0.000000 0.000000
1.000000 0.114076 0.000000
1.000000 0.166934 0.061433
1.000000 0.212558 0.101625
1.000000 0.255619 0.138460
1.000000 0.298833 0.177646
1.000000 0.342901 0.220005
0.027466 0.089113 0.108003
0.028840 0.089052 0.108003
0.030182 0.088991 0.108003
0.035431 0.089082 0.107973
0.044617 0.090150 0.108736
0.060243 0.092164 0.109346
0.080323 0.094118 0.109133
0.110353 0.095583 0.108583
0.148836 0.095918 0.107973
0.195956 0.093538 0.106416
0.249577 0.086458 0.104128
0.306554 0.074403 0.100862
0.365576 0.049073 0.096437
0.426123 0.000000 0.090211
0.487098 0.000000 0.082063
0.547936 0.000000 0.071901
0.606622 0.000000 0.057069
0.662013 0.000000 0.022614
0.725673 0.000000 0.000000
0.781125 0.000000 0.000000
0.828367 0.000000 0.000000
0.868467 0.000000 0.000000
0.902525 0.000000 0.000000
0.931670 0.000000 0.000000
0.956664 0.000000 0.000000
0.978607 0.049073 0.000000
0.998199 0.125673 0.000000
1.000000 0.173800 0.063081
1.000000 0.216648 0.102174
1.000000 0.258488 0.138705
1.000000 0.300816 0.177218
1.000000 0.344305 0.219486
0.031647 0.090394 0.108339
0.033204 0.090333 0.108095
0.034577 0.090303 0.108095
0.038849 0.090120 0.107881
0.050233 0.090761 0.108217
0.062776 0.093080 0.109041
0.078004 0.096345 0.110109
0.106752 0.098970 0.109529
0.144167 0.100649 0.108675
0.190036 0.100130 0.107149
0.242527 0.096162 0.105104
0.299138 0.088380 0.101900
0.357580 0.076112 0.097292
0.418097 0.049348 0.091432
0.479286 0.000000 0.083680
0.540581 0.000000 0.073701
0.600214 0.000000 0.060060
0.658747 0.000000 0.026429
0.723812 0.000000 0.000000
0.779080 0.000000 0.000000
0.826780 0.000000 0.000000
0.867857 0.000000 0.000000
0.956115 0.084993 0.000000
0.977874 0.135775 0.000000
0.995850 0.173251 0.035187
1.000000 0.205661 0.080018
1.000000 0.236149 0.108583
1.000000 0.266667 0.136416
1.000000 0.298466 0.166323
1.000000 0.332006 0.199405
1.000000 0.367071 0.235355
1.000000 0.403235 0.274327
0.039277 0.093019 0.108339
0.040620 0.092988 0.108339
0.043336 0.092866 0.108339
0.048341 0.092958 0.108064
0.057527 0.092439 0.108034
0.071260 0.095277 0.108095
0.091157 0.099428 0.108980
0.115999 0.104463 0.110414
0.154177 0.107607 0.109743
0.203067 0.108492 0.108003
0.258427 0.106783 0.105165
0.317052 0.102022 0.101503
0.376898 0.093599 0.096620
0.437415 0.080385 0.090181
0.497475 0.055207 0.082033
0.556481 0.000000 0.071748
0.614435 0.000000 0.057191
0.678035 0.000000 0.017853
0.743404 0.000000 0.000000
0.800168 0.000000 0.000000
0.850462 0.000000 0.000000
0.894530 0.000000 0.000000
0.931395 0.066499 0.000000
0.961425 0.129152 0.000000
0.985412 0.173587 0.023621
1.000000 0.209323 0.077485
1.000000 0.240879 0.107424
1.000000 0.270817 0.135744
1.000000 0.301793 0.165438
1.000000 0.333776 0.197513
1.000000 0.367712 0.232883
1.000000 0.403265 0.271427
0.048798 0.095705 0.108309
0.050721 0.095888 0.108278
0.052766 0.095796 0.108278
0.056764 0.096162 0.108003
0.062470 0.095949 0.107973
0.075837 0.096712 0.107698
0.095064 0.100710 0.107912
0.122103 0.106081 0.108553
0.154086 0.111849 0.109834
0.193942 0.116457 0.109804
0.248325 0.117556 0.107454
0.305882 0.116487 0.103914
0.364965 0.113039 0.099184
0.425269 0.106264 0.093294
0.485206 0.095796 0.085481
0.544335 0.079225 0.075837
0.602686 0.047425 0.063691
0.672175 0.000000 0.029084
0.734707 0.000000 0.000000
0.790280 0.000000 0.000000
0.840360 0.000000 0.000000
0.884794 0.058259 0.000000
0.922515 0.109926 0.000000
0.953338 0.151675 0.000000
0.978302 0.188205 0.037568
0.998047 0.220218 0.080873
1.000000 0.249210 0.109194
1.000000 0.277562 0.136660
1.000000 0.307378 0.165957
1.000000 0.338415 0.197665
1.000000 0.371710 0.232883
1.000000 0.406531 0.271183
0.060182 0.099947 0.108370
0.061280 0.100130 0.108125
0.062318 0.100282 0.108095
0.065949 0.100496 0.107790
0.071504 0.100679 0.107698
0.079255 0.100069 0.107393
0.102449 0.103182 0.106905
0.127565 0.107973 0.107149
0.161532 0.113985 0.107576
0.200809 0.120851 0.108370
0.241001 0.128054 0.110292
0.298131 0.130373 0.106935
0.356970 0.130495 0.102480
0.417029 0.128573 0.096651
0.476722 0.123293 0.089387
0.535943 0.115267 0.080476
0.599725 0.104524 0.068269
0.669337 0.093416 0.044343
0.729458 0.085603 0.006165
0.784237 0.084962 0.000000
0.833921 0.097017 0.000000
0.878325 0.119478 0.000000
0.916228 0.148501 0.000000
0.947539 0.179355 0.003113
0.972930 0.209964 0.061707
0.993286 0.237583 0.090059
1.000000 0.263737 0.115999
1.000000 0.290166 0.142184
1.000000 0.317937 0.170413
1.000000 0.347448 0.201511
1.000000 0.379278 0.235996
1.000000 0.412879 0.273594
0.070497 0.106355 0.108156
0.071321 0.106508 0.108125
0.073121 0.106569 0.107881
0.076570 0.106691 0.107607
0.082063 0.107057 0.107240
0.090669 0.106935 0.106874
0.104860 0.106294 0.106569
0.135317 0.110903 0.105715
0.166751 0.116274 0.105806
0.206302 0.122988 0.105623
0.250553 0.131136 0.106416
0.292210 0.140658 0.108980
0.347021 0.145968 0.106661
0.407568 0.147677 0.101106
0.468544 0.147066 0.094301
0.529473 0.144289 0.085847
0.603235 0.141421 0.073732
0.671321 0.138613 0.059052
0.730404 0.137301 0.028962
0.783536 0.139559 0.002106
0.831052 0.147616 0.000000
0.873136 0.161624 0.000000
0.909270 0.180911 0.000000
0.939635 0.203647 0.036347
0.964996 0.227756 0.072236
0.986114 0.251865 0.096681
1.000000 0.276127 0.121096
1.000000 0.301762 0.147066
1.000000 0.329442 0.175723
1.000000 0.359167 0.207553
1.000000 0.391119 0.243046
1.000000 0.425055 0.281743
0.082551 0.114199 0.107973
0.083650 0.114290 0.107942
0.085176 0.114351 0.107668
0.089021 0.114809 0.107332
0.095064 0.114717 0.106783
0.103853 0.114656 0.106325
0.115999 0.113649 0.105867
0.139986 0.113405 0.105104
0.175784 0.119814 0.103883
0.212863 0.125917 0.103334
0.256352 0.133852 0.102937
0.303624 0.144015 0.103273
0.347082 0.155612 0.106600
0.399298 0.165621 0.107210
0.460426 0.168276 0.101106
0.528740 0.171359 0.092805
0.600946 0.173037 0.082521
0.666407 0.173526 0.070924
0.724239 0.174258 0.058625
0.776699 0.177188 0.038483
0.824186 0.184360 0.023651
0.866636 0.195926 0.024262
0.903441 0.212100 0.045014
0.934386 0.231418 0.067964
0.960174 0.252201 0.088777
0.981628 0.273472 0.109438
0.999939 0.295048 0.131716
1.000000 0.318181 0.156008
1.000000 0.343633 0.183322
1.000000 0.371649 0.214328
1.000000 0.402319 0.249241
1.000000 0.435248 0.287663
0.097688 0.123964 0.107637
0.098848 0.124239 0.107576
0.100710 0.124208 0.107332
0.104463 0.124544 0.106966
0.110811 0.124697 0.106325
0.119570 0.124208 0.105440
0.131502 0.123445 0.104921
0.145388 0.120577 0.104463
0.184756 0.123720 0.102571
0.222965 0.130251 0.101015
0.264561 0.137728 0.099641
0.311223 0.147433 0.098451
0.402808 0.173037 0.096071
0.450629 0.189364 0.101869
0.511070 0.210178 0.109895
0.595087 0.221134 0.102052
0.668544 0.228550 0.093660
0.729488 0.233433 0.086488
0.780880 0.238315 0.081392
0.826108 0.244907 0.079957
0.865843 0.254002 0.082918
0.900175 0.265904 0.090730
0.929198 0.279606 0.102235
0.954070 0.295232 0.117250
0.975189 0.312047 0.134279
0.993256 0.329259 0.153109
1.000000 0.347356 0.173404
1.000000 0.366674 0.195682
1.000000 0.388373 0.221317
1.000000 0.412665 0.250401
1.000000 0.439521 0.283024
1.000000 0.469245 0.319371
0.121920 0.139864 0.106447
0.123323 0.139864 0.106386
0.124758 0.139834 0.106111
0.128450 0.139651 0.105562
0.134401 0.139101 0.104982
0.142672 0.138308 0.104067
0.154238 0.136782 0.103334
0.169772 0.134524 0.102388
0.193668 0.131441 0.101259
0.241733 0.137362 0.097841
0.284489 0.145663 0.095308
0.333745 0.156252 0.092348
0.388647 0.170138 0.089906
0.453712 0.190188 0.090486
0.523766 0.216281 0.097810
0.589990 0.245670 0.114199
0.659724 0.256016 0.109743
0.718624 0.261418 0.103731
0.769589 0.266056 0.099977
0.814450 0.271763 0.098726
0.854520 0.279484 0.101015
0.889677 0.289464 0.107179
0.919432 0.301152 0.116884
0.945098 0.314641 0.129824
0.967041 0.329351 0.145022
0.985901 0.344793 0.161715
1.000000 0.361517 0.180941
1.000000 0.379706 0.202731
1.000000 0.400153 0.227634
1.000000 0.423835 0.256504
1.000000 0.450233 0.289067
1.000000 0.479774 0.325841
0.139986 0.151705 0.105318
0.141390 0.151827 0.105013
0.142824 0.151614 0.104768
0.146548 0.151339 0.104433
0.152407 0.150912 0.103548
0.160586 0.150149 0.102815
0.171542 0.148775 0.101778
0.186130 0.146426 0.100618
0.204654 0.142916 0.099489
0.239322 0.140414 0.097627
0.290349 0.150149 0.092805
0.336706 0.160128 0.088899
0.388373 0.172671 0.084657
0.460731 0.193942 0.078767
0.535515 0.219883 0.080415
0.597101 0.245304 0.093751
0.651789 0.273289 0.116365
0.706325 0.286259 0.121248
0.757168 0.291386 0.117800
0.802640 0.296910 0.116548
0.843534 0.304143 0.118502
0.879759 0.313115 0.124269
0.910674 0.323919 0.132815
0.937377 0.336187 0.144381
0.960174 0.349676 0.158663
0.979736 0.364050 0.174716
0.996796 0.379583 0.193118
1.000000 0.396704 0.214145
1.000000 0.416510 0.238560
1.000000 0.439429 0.267338
1.000000 0.465431 0.300206
1.000000 0.494514 0.336919
0.159976 0.164920 0.103426
0.161471 0.165103 0.103334
0.162875 0.164736 0.103090
0.166384 0.164584 0.102480
0.172061 0.164065 0.101808
0.179995 0.163119 0.100832
0.190738 0.161776 0.099702
0.204440 0.159792 0.098421
0.222568 0.156924 0.096895
0.243534 0.151583 0.096071
0.290898 0.153658 0.091676
0.342016 0.165286 0.085298
0.401526 0.180423 0.077241
0.468116 0.199191 0.067811
0.536797 0.221042 0.062501
0.602747 0.246128 0.070680
0.655634 0.271092 0.091920
0.700801 0.297581 0.120150
0.746029 0.315526 0.136172
0.791623 0.321080 0.134829
0.833005 0.327825 0.136477
0.869718 0.336034 0.141238
0.901549 0.345617 0.148867
0.929168 0.356970 0.159670
0.953002 0.369757 0.173007
0.973754 0.384039 0.189090
0.992065 0.400153 0.208286
1.000000 0.418524 0.230900
1.000000 0.439612 0.257572
1.000000 0.463935 0.288518
1.000000 0.491371 0.323613
1.000000 0.521447 0.362219
0.181155 0.179080 0.101167
0.182589 0.179385 0.100832
0.184207 0.179232 0.100771
0.187930 0.179110 0.100099
0.193942 0.178866 0.099306
0.202335 0.178347 0.098116
0.213169 0.177279 0.096864
0.226963 0.175814 0.095094
0.243839 0.173068 0.093477
0.265446 0.169436 0.091646
0.295018 0.164492 0.089509
0.357092 0.174105 0.080140
0.414252 0.188846 0.069795
0.473762 0.204990 0.055848
0.535485 0.223117 0.033478
0.596460 0.243931 0.032654
0.653925 0.268193 0.062776
0.700374 0.293095 0.092622
0.741787 0.320531 0.126406
0.782681 0.345434 0.154330
0.825772 0.353277 0.156558
0.863951 0.362188 0.161746
0.896910 0.372137 0.169833
0.925322 0.383581 0.180728
0.949798 0.396521 0.194614
0.971038 0.410895 0.211337
0.989685 0.426764 0.230625
1.000000 0.444892 0.253666
1.000000 0.465339 0.280156
1.000000 0.488411 0.310369
1.000000 0.513878 0.343969
1.000000 0.541894 0.380438
0.201755 0.193240 0.098543
0.203067 0.193271 0.098207
0.204715 0.193332 0.098085
0.208255 0.193301 0.097353
0.214145 0.193088 0.096529
0.222232 0.192630 0.095247
0.232700 0.191989 0.093812
0.245792 0.190524 0.091981
0.261784 0.188266 0.089906
0.284245 0.186557 0.087404
0.311162 0.182650 0.084840
0.357336 0.181064 0.078584
0.423041 0.196262 0.063081
0.478584 0.211002 0.036896
0.536492 0.227115 0.003876
0.593744 0.244846 0.000000
0.648371 0.265629 0.000000
0.698329 0.289403 0.056977
0.740475 0.314855 0.096071
0.778347 0.343511 0.135500
0.814389 0.373999 0.174716
0.853483 0.382818 0.179477
0.887633 0.392767 0.187320
0.917266 0.404181 0.197879
0.942840 0.416876 0.211582
0.965087 0.431159 0.227939
0.984619 0.447364 0.247959
1.000000 0.465522 0.271397
1.000000 0.486183 0.298344
1.000000 0.509209 0.328985
1.000000 0.534936 0.363073
1.000000 0.562860 0.399908
0.223789 0.208804 0.095003
0.225559 0.209140 0.094820
0.241123 0.219211 0.091890
0.244938 0.219242 0.091005
0.250553 0.218906 0.089784
0.258274 0.218326 0.088380
0.268345 0.217288 0.086488
0.284520 0.218112 0.083345
0.305089 0.218570 0.079469
0.329503 0.218082 0.075166
0.359106 0.216403 0.069947
0.390906 0.209812 0.065980
0.447791 0.210697 0.043458
0.514946 0.229496 0.000000
0.571130 0.244602 0.000000
0.626276 0.261021 0.000000
0.677363 0.279637 0.000000
0.723110 0.300847 0.000000
0.764065 0.325505 0.061860
0.799435 0.352575 0.112459
0.830747 0.383093 0.160006
0.859373 0.417914 0.210208
0.891447 0.428077 0.219211
0.919188 0.438087 0.229221
0.942779 0.448646 0.241001
0.963409 0.459937 0.254978
0.981598 0.472938 0.271763
0.997986 0.488533 0.292363
1.000000 0.507378 0.317723
1.000000 0.529625 0.347601
1.000000 0.554681 0.381109
1.000000 0.581689 0.417060
0.250675 0.228428 0.089662
0.253910 0.230076 0.088960
0.258122 0.231998 0.088045
0.264561 0.234134 0.086580
0.273350 0.236332 0.084504
0.284001 0.238132 0.081849
0.296635 0.239231 0.078706
0.311864 0.239811 0.075135
0.330205 0.239719 0.070558
0.351568 0.238621 0.065553
0.378241 0.237064 0.059968
0.407477 0.231937 0.050202
0.446052 0.225376 0.032166
0.508049 0.232273 0.000000
0.567498 0.248173 0.000000
0.619867 0.262669 0.000000
0.669490 0.278630 0.000000
0.714809 0.297154 0.000000
0.756161 0.318975 0.000000
0.793729 0.344244 0.069490
0.826932 0.373053 0.124636
0.856840 0.406104 0.176516
0.883024 0.443091 0.231388
0.911223 0.457618 0.248051
0.936126 0.468696 0.260136
0.957733 0.480659 0.274540
0.976684 0.494148 0.291752
0.993652 0.509758 0.312566
1.000000 0.528588 0.337865
1.000000 0.550408 0.367437
1.000000 0.574975 0.400519
1.000000 0.601404 0.435859
0.278721 0.249668 0.082368
0.282628 0.251835 0.081270
0.286870 0.253880 0.080110
0.293278 0.256199 0.078187
0.301457 0.258152 0.075776
0.311162 0.259434 0.072847
0.322850 0.260288 0.069245
0.336584 0.260380 0.064851
0.353185 0.259831 0.059510
0.373022 0.258762 0.049012
0.397650 0.257786 0.035279
0.425299 0.254124 0.019684
0.451057 0.244205 0.011780
0.499641 0.239017 0.000000
0.566888 0.253208 0.000000
0.618128 0.266789 0.000000
0.666499 0.281041 0.000000
0.711330 0.297337 0.000000
0.752621 0.316655 0.000000
0.790616 0.339666 0.000000
0.824857 0.366461 0.084108
0.855680 0.397528 0.142458
0.882902 0.432746 0.198642
0.905577 0.471443 0.258061
0.929778 0.489021 0.280797
0.951965 0.500969 0.294865
0.971435 0.514092 0.311498
0.988739 0.529473 0.331975
1.000000 0.547784 0.356573
1.000000 0.569116 0.385382
1.000000 0.593011 0.417731
1.000000 0.618769 0.452338
0.304509 0.269749 0.073426
0.308446 0.272038 0.071931
0.313054 0.274418 0.070314
0.319341 0.276738 0.067872
0.327367 0.278721 0.064820
0.336492 0.279789 0.061189
0.346899 0.280034 0.055177
0.359564 0.279881 0.045991
0.374914 0.279332 0.032807
0.393347 0.278202 0.019104
0.416052 0.277531 0.003632
0.441688 0.274601 0.000000
0.469612 0.268223 0.000000
0.500114 0.257389 0.000000
0.552850 0.253361 0.000000
0.618891 0.272282 0.000000
0.668940 0.286687 0.000000
0.716121 0.302831 0.000000
0.760311 0.321935 0.000000
0.800839 0.345037 0.000000
0.837217 0.372198 0.000824
0.868956 0.403418 0.114290
0.895842 0.438361 0.177920
0.918669 0.478309 0.243442
0.936645 0.520531 0.310277
0.956268 0.542046 0.339910
0.974975 0.556390 0.358282
0.991394 0.572381 0.379614
1.000000 0.590661 0.404334
1.000000 0.611322 0.432380
1.000000 0.633722 0.463020
1.000000 0.657313 0.495430
0.341527 0.299077 0.053254
0.344182 0.300206 0.050263
0.347082 0.301396 0.047913
0.351781 0.302464 0.042237
0.358221 0.303410 0.034241
0.366400 0.303929 0.025818
0.376410 0.303990 0.014710
0.388952 0.304204 0.001709
0.404334 0.303868 0.000000
0.423377 0.304356 0.000000
0.446265 0.304509 0.000000
0.471839 0.302617 0.000000
0.499336 0.297520 0.000000
0.526665 0.287144 0.000000
0.566979 0.277592 0.000000
0.625940 0.281132 0.000000
0.683345 0.298131 0.000000
0.729061 0.312993 0.000000
0.771420 0.330388 0.000000
0.810086 0.351080 0.000000
0.844266 0.375128 0.000000
0.874144 0.403143 0.068605
0.899107 0.434424 0.144717
0.919860 0.468910 0.208865
0.938140 0.508965 0.276585
0.952636 0.551873 0.345678
0.969604 0.575433 0.379187
0.986511 0.591669 0.400336
1.000000 0.609888 0.424567
1.000000 0.629816 0.451698
1.000000 0.651545 0.481483
1.000000 0.673976 0.512535
0.366613 0.318944 0.016297
0.369451 0.320378 0.011566
0.372442 0.321721 0.007843
0.377295 0.322942 0.001190
0.383459 0.323766 0.000000
0.390967 0.323919 0.000000
0.400397 0.323888 0.000000
0.411749 0.323522 0.000000
0.426307 0.323491 0.000000
0.444739 0.324651 0.000000
0.466255 0.325017 0.000000
0.490303 0.323522 0.000000
0.516655 0.319554 0.000000
0.545312 0.312230 0.000000
0.570306 0.297978 0.000000
0.621027 0.291142 0.000000
0.684138 0.304082 0.000000
0.733059 0.319615 0.000000
0.775906 0.335851 0.000000
0.815061 0.355535 0.000000
0.850065 0.378546 0.000000
0.880522 0.405402 0.000000
0.906126 0.435798 0.109712
0.927001 0.469429 0.182528
0.936736 0.494118 0.236667
0.952270 0.535302 0.307164
0.964660 0.579706 0.378515
0.979858 0.604944 0.414527
0.995331 0.622950 0.438056
1.000000 0.642878 0.464942
1.000000 0.664637 0.494697
1.000000 0.686915 0.525566
0.405127 0.349584 0.000000
0.408515 0.351507 0.000000
0.411353 0.352636 0.000000
0.415473 0.353338 0.000000
0.420783 0.353491 0.000000
0.427314 0.352972 0.000000
0.435584 0.352239 0.000000
0.445899 0.351354 0.000000
0.459358 0.351537 0.000000
0.475563 0.351476 0.000000
0.494209 0.350469 0.000000
0.516014 0.348455 0.000000
0.539971 0.344488 0.000000
0.565637 0.337316 0.000000
0.591791 0.325902 0.000000
0.622095 0.311772 0.000000
0.669764 0.303716 0.000000
0.729305 0.322942 0.000000
0.772000 0.337987 0.000000
0.812100 0.355932 0.000000
0.848325 0.377478 0.000000
0.879850 0.402564 0.000000
0.905882 0.430610 0.028962
0.926787 0.461250 0.142092
0.943023 0.493812 0.211612
0.955627 0.527886 0.276982
0.967987 0.570459 0.350164
0.977325 0.615076 0.421759
0.990509 0.640284 0.457557
1.000000 0.659174 0.482856
1.000000 0.679835 0.511131
1.000000 0.701411 0.541222
0.429694 0.369024 0.000000
0.433051 0.370886 0.000000
0.436133 0.372137 0.000000
0.440101 0.372839 0.000000
0.445258 0.372992 0.000000
0.451789 0.372900 0.000000
0.460731 0.373480 0.000000
0.471656 0.373968 0.000000
0.485176 0.374456 0.000000
0.501579 0.374884 0.000000
0.520500 0.374701 0.000000
0.542351 0.373571 0.000000
0.566552 0.370794 0.000000
0.592035 0.365148 0.000000
0.618494 0.356023 0.000000
0.642237 0.340948 0.000000
0.682307 0.329747 0.000000
0.734035 0.331365 0.000000
0.785092 0.349767 0.000000
0.824521 0.366796 0.000000
0.859953 0.387213 0.000000
0.890562 0.410834 0.000000
0.915923 0.437568 0.000000
0.936370 0.467323 0.109895
0.952453 0.499214 0.190066
0.964599 0.532647 0.260380
0.973693 0.567407 0.327001
0.983032 0.612055 0.402899
0.989929 0.658045 0.475502
1.000000 0.683009 0.510979
1.000000 0.702541 0.537865
1.000000 0.722744 0.566369
0.461952 0.394629 0.000000
0.464973 0.396155 0.000000
0.467201 0.397101 0.000000
0.470680 0.397620 0.000000
0.475196 0.397742 0.000000
0.481178 0.397742 0.000000
0.489143 0.397803 0.000000
0.499275 0.397894 0.000000
0.512383 0.398352 0.000000
0.528222 0.398779 0.000000
0.546746 0.398871 0.000000
0.568444 0.398413 0.000000
0.592004 0.396399 0.000000
0.616999 0.391821 0.000000
0.642176 0.384009 0.000000
0.667994 0.372198 0.000000
0.691615 0.354955 0.000000
0.736080 0.345220 0.000000
0.789487 0.357885 0.000000
0.831968 0.375525 0.000000
0.867002 0.394507 0.000000
0.897246 0.416663 0.000000
0.922423 0.442054 0.000000
0.942901 0.470344 0.047669
0.958984 0.501061 0.160586
0.971191 0.533959 0.237644
0.980224 0.568292 0.308385
0.986542 0.603204 0.374914
0.993439 0.648280 0.450111
0.998596 0.693843 0.521691
1.000000 0.716701 0.554345
1.000000 0.735836 0.581537
0.492500 0.420111 0.000000
0.494820 0.421363 0.000000
0.497169 0.422217 0.000000
0.500694 0.422766 0.000000
0.506126 0.423682 0.000000
0.513848 0.424994 0.000000
0.524895 0.427314 0.000000
0.538811 0.430274 0.000000
0.556298 0.433783 0.000000
0.576806 0.437629 0.000000
0.600031 0.441077 0.000000
0.625422 0.443244 0.000000
0.651575 0.443244 0.000000
0.677760 0.440528 0.000000
0.703456 0.434119 0.000000
0.728054 0.423407 0.000000
0.751217 0.407660 0.000000
0.781857 0.392584 0.000000
0.823423 0.384222 0.000000
0.870787 0.406348 0.000000
0.902220 0.425116 0.000000
0.928771 0.446967 0.000000
0.950408 0.471626 0.000000
0.967773 0.499489 0.000000
0.981048 0.529992 0.162814
0.990723 0.562860 0.249088
0.997375 0.597314 0.326574
1.000000 0.632349 0.397253
1.000000 0.666438 0.460151
1.000000 0.708461 0.530205
1.000000 0.748226 0.594171
1.000000 0.766049 0.620691
0.556634 0.470893 0.000000
0.558648 0.471687 0.000000
0.560204 0.471992 0.000000
0.563043 0.471901 0.000000
0.567315 0.471809 0.000000
0.573602 0.471870 0.000000
0.582513 0.472572 0.000000
0.594202 0.473793 0.000000
0.608576 0.475349 0.000000
0.625544 0.476783 0.000000
0.644495 0.477607 0.000000
0.665278 0.477577 0.000000
0.687129 0.475898 0.000000
0.709651 0.472023 0.000000
