data/fiter_cube/57993848/1023161/file.cube
# Created by Adobe Lightroom plugin Export LUT (1.17.0)
# www.johnrellis.com/lightroom/exportlut.htm
# Preset: 萌宠摄影后期_08 云集
# Color profile: C:\Program Files (x86)\Common Files\Adobe\Color\Profiles\Recommended\AdobeRGB1998.icc
LUT_3D_SIZE 8
DOMAIN_MIN 0.000000 0.000000 0.000000
DOMAIN_MAX 0.903226 0.903226 0.903226
0.130434 0.144442 0.143679
0.146517 0.144289 0.143618
0.260258 0.137331 0.141024
0.488472 0.000000 0.129213
0.683742 0.000000 0.109712
0.814939 0.000000 0.090669
0.905119 0.150332 0.083375
0.984527 0.267521 0.103731
0.129580 0.156954 0.144045
0.145937 0.157717 0.144350
0.234318 0.161532 0.142794
0.452857 0.125521 0.132021
0.666011 0.000000 0.112276
0.795560 0.079774 0.095247
0.891386 0.196872 0.087556
0.976287 0.295262 0.108797
0.107942 0.265385 0.138308
0.164706 0.258396 0.139712
0.293462 0.283116 0.137087
0.403693 0.237797 0.143709
0.633722 0.245731 0.123812
0.777279 0.278386 0.110628
0.886595 0.343145 0.118685
0.973053 0.402380 0.155734
0.000000 0.499611 0.101015
0.129610 0.495735 0.107393
0.372076 0.493172 0.121767
0.614374 0.559930 0.132113
0.680110 0.475715 0.158389
0.747341 0.431586 0.161227
0.860319 0.472602 0.179568
0.952911 0.510887 0.225284
0.000000 0.688502 0.112306
0.117617 0.683253 0.121492
0.416632 0.664088 0.151431
0.616510 0.671077 0.197971
0.759121 0.699855 0.266758
0.796628 0.632959 0.267979
0.823026 0.571893 0.259220
0.923430 0.606592 0.317571
0.051545 0.797696 0.218723
0.232486 0.798703 0.232212
0.457954 0.782712 0.255467
0.644343 0.759579 0.298528
0.750423 0.777920 0.358373
0.849821 0.799771 0.438697
0.886595 0.754025 0.445411
0.921996 0.717159 0.449042
0.308049 0.883879 0.361822
0.364111 0.881712 0.363195
0.508385 0.868956 0.379126
0.653681 0.852079 0.412177
0.757565 0.844785 0.456306
0.837858 0.859556 0.512993
0.917784 0.873808 0.574945
0.950530 0.840299 0.588159
0.471199 0.949218 0.505119
0.489448 0.947814 0.498238
0.575433 0.940642 0.511986
0.680812 0.931304 0.539422
0.772885 0.914214 0.558221
0.844846 0.917723 0.599390
0.911162 0.926574 0.646021
0.970794 0.930968 0.690608
0.129335 0.144411 0.153994
0.141878 0.143191 0.153079
0.257847 0.119753 0.149233
0.482307 0.000000 0.144411
0.678004 0.000000 0.131563
0.798276 0.000000 0.121981
0.891997 0.116793 0.119203
0.975433 0.251316 0.133486
0.127657 0.151827 0.155306
0.144045 0.157015 0.154971
0.245090 0.156893 0.154360
0.460060 0.109468 0.147433
0.664240 0.000000 0.134188
0.786709 0.000000 0.124880
0.881163 0.176638 0.121523
0.966979 0.279545 0.135927
0.105745 0.258762 0.180819
0.147646 0.256016 0.159182
0.282292 0.274052 0.165988
0.401770 0.236881 0.162539
0.625727 0.238895 0.147341
0.765805 0.264958 0.139498
0.870665 0.322240 0.143923
0.961700 0.387182 0.172396
0.000000 0.484230 0.189395
0.091554 0.482856 0.149172
0.354986 0.472511 0.166384
0.578637 0.528801 0.184909
0.641169 0.439582 0.183139
0.726619 0.409705 0.176852
0.843259 0.452552 0.190188
0.941619 0.497597 0.231357
0.000000 0.680873 0.219760
0.031891 0.677028 0.172366
0.395941 0.656519 0.194217
0.598596 0.655207 0.232883
0.740871 0.683497 0.295537
0.780636 0.618433 0.284398
0.809201 0.557824 0.266270
0.916472 0.599420 0.322271
0.141054 0.788663 0.291386
0.193027 0.787503 0.257420
0.434943 0.772488 0.278264
0.629969 0.751034 0.319127
0.742123 0.770138 0.381750
0.843198 0.795529 0.463966
0.879911 0.749874 0.460548
0.915007 0.711208 0.452918
0.322576 0.874784 0.402167
0.334905 0.873136 0.372686
0.490333 0.861387 0.389319
0.643336 0.846281 0.424048
0.752377 0.839506 0.469398
0.832486 0.854887 0.523888
0.911559 0.868894 0.581842
0.944518 0.834989 0.588708
0.477577 0.944762 0.528618
0.486885 0.944701 0.514977
0.567834 0.938506 0.521691
0.675441 0.929442 0.548486
0.774594 0.917754 0.579644
0.845518 0.918547 0.614557
0.909575 0.925689 0.654932
0.968536 0.929656 0.696345
0.109712 0.142214 0.247684
0.143557 0.138643 0.237919
0.237644 0.124392 0.227207
0.493294 0.000000 0.223270
0.703792 0.000000 0.189761
0.816342 0.000000 0.210117
0.903593 0.101198 0.216342
0.982635 0.253758 0.232059
0.093751 0.150088 0.252903
0.137972 0.154543 0.242313
0.243534 0.145876 0.228367
0.490669 0.000000 0.217563
0.696254 0.000000 0.204410
0.805081 0.000000 0.211673
0.894774 0.176486 0.217166
0.976928 0.287449 0.234958
0.088228 0.215732 0.252262
0.124117 0.225284 0.250370
0.256718 0.256809 0.241581
0.469612 0.247288 0.233371
0.665614 0.244022 0.228550
0.784207 0.274174 0.228458
0.879423 0.329168 0.237095
0.965515 0.390753 0.261112
0.000000 0.495674 0.370397
0.000000 0.495460 0.344305
0.309331 0.481178 0.271580
0.566033 0.523430 0.321569
0.612665 0.417182 0.265232
0.745449 0.433448 0.263035
0.853574 0.468666 0.279576
0.947051 0.507500 0.314733
0.000000 0.679377 0.406104
0.090608 0.675868 0.387793
0.347417 0.663661 0.316625
0.591302 0.649775 0.356512
0.732723 0.685237 0.431708
0.764767 0.611627 0.372320
0.813077 0.567926 0.336889
0.919402 0.607355 0.387549
0.214817 0.785092 0.461219
0.300206 0.781521 0.454871
0.406287 0.774044 0.386267
0.611688 0.751156 0.415106
0.731350 0.762478 0.470344
0.830961 0.791135 0.542504
0.866575 0.744961 0.516350
0.907103 0.709407 0.496132
0.420417 0.869871 0.548699
0.431189 0.868528 0.530663
0.479011 0.863737 0.474342
0.631525 0.847257 0.496071
0.746853 0.834897 0.528740
0.827481 0.853147 0.580560
0.907530 0.871031 0.638727
0.941863 0.839384 0.635004
0.526604 0.940520 0.622644
0.529839 0.939940 0.609247
0.553307 0.938689 0.567834
0.666194 0.930694 0.592889
0.766293 0.918853 0.617884
0.843503 0.917754 0.651179
0.907774 0.926207 0.690822
0.966094 0.931548 0.731380
0.000000 0.132326 0.458228
0.079957 0.124544 0.448402
0.239811 0.102296 0.409979
0.453986 0.000000 0.389929
0.683223 0.000000 0.370611
0.809262 0.000000 0.337835
0.905394 0.000000 0.310399
0.983856 0.207492 0.353887
0.000000 0.144808 0.468269
0.000000 0.143862 0.457130
0.242771 0.128847 0.417884
0.461677 0.000000 0.393286
0.683497 0.000000 0.371191
0.806180 0.000000 0.337194
0.901427 0.000000 0.315465
0.979950 0.260380 0.359838
0.000000 0.218173 0.477211
0.000000 0.222965 0.472297
0.256992 0.253239 0.435004
0.477943 0.229252 0.400000
0.684413 0.196567 0.376715
0.805600 0.220706 0.355993
0.894499 0.338689 0.383734
0.972930 0.390600 0.389014
0.000000 0.377234 0.468879
0.000000 0.386481 0.463203
0.239994 0.430182 0.456703
0.492164 0.465980 0.429572
0.646479 0.447089 0.402472
0.763699 0.455573 0.397345
0.861906 0.479225 0.403998
0.951934 0.511864 0.425330
0.000000 0.686397 0.612879
0.000000 0.681666 0.595636
0.288701 0.666072 0.539452
0.554498 0.641596 0.485542
0.710719 0.677272 0.555901
0.729427 0.585412 0.453529
0.824521 0.589197 0.447486
0.925109 0.617182 0.479530
0.000000 0.792447 0.614710
0.190463 0.792264 0.610437
0.428595 0.777035 0.582147
0.582879 0.761105 0.537163
0.720943 0.757870 0.573236
0.820096 0.791409 0.636378
0.848600 0.736477 0.580224
0.895354 0.701045 0.543145
0.352361 0.873136 0.646937
0.404486 0.870665 0.644556
0.524865 0.862547 0.635767
0.608331 0.856016 0.589288
0.736385 0.839139 0.610254
0.822232 0.853361 0.654047
0.901305 0.873106 0.705898
0.933959 0.839048 0.682551
0.518639 0.942962 0.703700
0.542809 0.941527 0.703578
0.609216 0.936400 0.701991
0.643671 0.935027 0.652857
0.750149 0.922820 0.671534
0.838987 0.916258 0.698482
0.904265 0.926452 0.736934
0.962310 0.933776 0.775998
0.000000 0.107424 0.653895
0.000000 0.093629 0.648341
0.244205 0.000000 0.624994
0.427771 0.000000 0.581415
0.647578 0.000000 0.566674
0.788937 0.000000 0.526390
0.889525 0.000000 0.501244
0.977752 0.000000 0.481361
0.000000 0.127657 0.656947
0.000000 0.120424 0.653132
0.241123 0.079377 0.630121
0.432868 0.000000 0.584466
0.648615 0.000000 0.566766
0.787961 0.000000 0.528405
0.888182 0.000000 0.504143
0.976257 0.143191 0.484779
0.000000 0.190585 0.673182
0.000000 0.203799 0.665766
0.256107 0.243809 0.637476
0.455604 0.219303 0.594354
0.648402 0.200198 0.565240
0.779690 0.243290 0.531090
0.880613 0.272435 0.510552
0.969635 0.309667 0.492470
0.000000 0.364172 0.664179
0.000000 0.375006 0.660792
0.214176 0.417731 0.649439
0.498878 0.466835 0.609308
0.648402 0.455116 0.570581
0.771969 0.454536 0.547570
0.872862 0.454749 0.527764
0.958312 0.500633 0.543511
0.000000 0.548089 0.645411
0.000000 0.555016 0.642512
0.243778 0.575769 0.631891
0.494362 0.608759 0.623072
0.643427 0.618677 0.594476
0.736965 0.594263 0.560510
0.838041 0.597345 0.555596
0.933196 0.610651 0.563989
0.000000 0.769223 0.744076
0.000000 0.774350 0.742763
0.271366 0.772396 0.721798
0.527764 0.752407 0.671351
0.674525 0.734188 0.628168
0.796292 0.777188 0.697566
0.813291 0.701320 0.607721
0.903777 0.705409 0.607660
0.167422 0.876066 0.760220
0.265141 0.872740 0.754757
0.439887 0.863157 0.737850
0.590631 0.851926 0.712490
0.692714 0.842954 0.673701
0.804440 0.843473 0.706630
0.890410 0.870420 0.760403
0.919585 0.827939 0.714595
0.431617 0.944610 0.777310
0.462348 0.942687 0.774899
0.546136 0.937133 0.767208
0.652064 0.932738 0.761715
0.713954 0.928344 0.722896
0.822721 0.914672 0.741512
0.896513 0.924224 0.778164
0.956573 0.934203 0.816281
0.000000 0.042786 0.790494
0.000000 0.000000 0.786831
0.255528 0.000000 0.772366
0.450996 0.000000 0.747341
0.611231 0.000000 0.717739
0.760800 0.000000 0.694911
0.870756 0.000000 0.660883
0.962585 0.149111 0.638575
0.000000 0.088960 0.787167
0.000000 0.072114 0.783536
0.243900 0.000000 0.770504
0.450477 0.000000 0.745785
0.608331 0.000000 0.713985
0.758053 0.000000 0.691890
0.868132 0.074556 0.659907
0.960357 0.212192 0.639338
0.000000 0.180484 0.796719
0.000000 0.199008 0.791928
0.271458 0.221714 0.777066
0.473182 0.205234 0.752956
0.611872 0.189975 0.714900
0.756527 0.225620 0.692439
0.863737 0.323522 0.664698
0.955962 0.354742 0.647700
0.000000 0.333501 0.803494
0.000000 0.347539 0.801144
0.198428 0.400092 0.792325
0.525017 0.482216 0.763119
0.630304 0.456947 0.723629
0.755123 0.469642 0.699489
0.859312 0.493294 0.679438
0.951843 0.490242 0.661921
0.000000 0.524834 0.785580
0.000000 0.534234 0.783932
0.244266 0.564202 0.777493
0.509667 0.606531 0.765957
0.647883 0.625055 0.731289
0.745602 0.609461 0.697505
0.849393 0.600946 0.681300
0.944579 0.593408 0.666438
0.000000 0.665949 0.766201
0.000000 0.670863 0.765866
0.295354 0.681361 0.759609
0.507591 0.698665 0.751461
0.635431 0.719326 0.742184
0.741634 0.727474 0.719448
0.822263 0.704341 0.689174
0.921599 0.709743 0.692927
0.000000 0.830808 0.843687
0.000000 0.835233 0.843748
0.331304 0.847044 0.841428
0.516411 0.861234 0.833219
0.661402 0.848234 0.792782
0.772610 0.835264 0.758572
0.879698 0.868528 0.814969
0.899779 0.806027 0.740383
0.270054 0.952270 0.871733
0.325048 0.950134 0.868467
0.451850 0.943999 0.857633
0.584009 0.937102 0.841367
0.700679 0.928954 0.821378
0.784909 0.922637 0.792172
0.885954 0.921050 0.820188
0.951629 0.936248 0.860380
0.000000 0.000000 0.881834
0.000000 0.000000 0.881682
0.277012 0.000000 0.874510
0.458412 0.000000 0.861631
0.600977 0.000000 0.839322
0.730861 0.000000 0.819577
0.844419 0.000000 0.792477
0.941192 0.041321 0.760220
0.000000 0.000000 0.875669
0.000000 0.000000 0.875578
0.254673 0.000000 0.869200
0.449134 0.000000 0.854978
0.594018 0.000000 0.831479
0.721614 0.000000 0.809445
0.834531 0.000000 0.781857
0.932555 0.102937 0.750790
0.000000 0.146426 0.884794
0.000000 0.165957 0.882170
0.264927 0.158175 0.872984
0.463050 0.132692 0.858091
0.602197 0.121706 0.833310
0.721065 0.132784 0.809232
0.835447 0.223789 0.785611
0.934142 0.333165 0.760189
0.000000 0.249149 0.895415
0.000000 0.256962 0.892332
0.203037 0.352239 0.880369
0.510460 0.443030 0.862333
0.624048 0.431464 0.839078
0.722042 0.421027 0.811948
0.834989 0.453895 0.792020
0.932372 0.491920 0.769650
0.000000 0.459083 0.881834
0.000000 0.468482 0.879637
0.000000 0.506065 0.874388
0.457771 0.567864 0.868254
0.639673 0.611841 0.840635
0.713497 0.578424 0.805173
0.822934 0.584222 0.785885
0.926055 0.603815 0.774685
0.000000 0.627253 0.867491
0.000000 0.632624 0.866667
0.185336 0.650233 0.863554
0.473671 0.678462 0.859281
0.630182 0.710109 0.852903
0.739986 0.728878 0.828367
0.825986 0.713802 0.799680
0.924773 0.709316 0.790524
0.000000 0.749874 0.859312
0.000000 0.753017 0.859495
0.302464 0.760403 0.856870
0.497688 0.773465 0.852811
0.630518 0.790555 0.845731
0.733272 0.812558 0.838926
0.826413 0.821714 0.822019
0.905333 0.800412 0.797726
0.000000 0.883238 0.911772
0.000000 0.884276 0.911772
0.316197 0.890593 0.914275
0.494636 0.906584 0.914366
0.630945 0.933013 0.912993
0.757778 0.926482 0.883513
0.857786 0.917815 0.858152
0.945434 0.937224 0.900755
0.000000 0.000000 0.942901
0.000000 0.000000 0.942535
0.243137 0.000000 0.937041
0.439216 0.000000 0.929747
0.578668 0.000000 0.918639
0.692012 0.000000 0.902342
0.814878 0.000000 0.894011
0.916350 0.000000 0.865873
0.000000 0.000000 0.940276
0.000000 0.000000 0.939940
0.249577 0.000000 0.934997
0.429755 0.000000 0.927214
0.574182 0.000000 0.916136
0.689082 0.000000 0.899413
0.810086 0.000000 0.889586
0.911711 0.000000 0.861662
0.000000 0.039094 0.940063
0.000000 0.000000 0.939147
0.185367 0.000000 0.933501
0.417548 0.000000 0.928771
0.573358 0.000000 0.916503
0.687861 0.000000 0.897826
0.804929 0.000000 0.886229
0.908049 0.072999 0.859892
0.000000 0.134890 0.945708
0.000000 0.146059 0.945129
0.000000 0.226871 0.938750
0.434913 0.303929 0.929412
0.582055 0.308782 0.917540
0.691279 0.314031 0.899565
0.799374 0.323888 0.885039
0.905211 0.373510 0.861418
0.000000 0.297490 0.945556
0.000000 0.300664 0.946197
0.000000 0.324651 0.944976
0.237766 0.406836 0.936492
0.594537 0.544366 0.916564
0.692195 0.527031 0.898680
0.787015 0.512535 0.880034
0.901549 0.541222 0.864103
0.000000 0.514153 0.936126
0.000000 0.517937 0.935149
0.000000 0.535943 0.932586
0.147402 0.573510 0.929137
0.519554 0.630823 0.925353
0.709926 0.692500 0.908019
0.790982 0.672450 0.888273
0.906859 0.691554 0.878294
0.000000 0.682033 0.930236
0.000000 0.684627 0.929503
0.000000 0.694179 0.927459
0.279728 0.713283 0.925078
0.544854 0.743191 0.922362
0.704189 0.785733 0.920623
0.822354 0.818662 0.908965
0.902037 0.801053 0.883513
0.000000 0.809964 0.932006
0.000000 0.811185 0.931304
0.000000 0.816342 0.929717
0.403326 0.827604 0.927825
0.587427 0.845731 0.925078
0.719173 0.869108 0.920958
0.823789 0.894285 0.918029
0.906279 0.904692 0.906706
