data/fiter_cube/57993848/1023161/file.cube
# Created by Adobe Lightroom plugin Export LUT (1.17.0)
# www.johnrellis.com/lightroom/exportlut.htm
# Preset: 萌宠摄影后期_08 云集
# Color profile: C:\Program Files (x86)\Common Files\Adobe\Color\Profiles\Recommended\AdobeRGB1998.icc
LUT_3D_SIZE 32
DOMAIN_MIN 0.0 0.0 0.0
DOMAIN_MAX 1.0 1.0 1.0
0.130434 0.144442 0.143679
0.130861 0.144381 0.143679
0.132387 0.144320 0.143648
0.136751 0.144167 0.143709
0.146517 0.144289 0.143618
0.163088 0.144381 0.143282
0.187137 0.143801 0.142855
0.219455 0.141878 0.142184
0.260258 0.137331 0.141024
0.309239 0.128237 0.139376
0.365850 0.111696 0.136873
0.426703 0.082460 0.133364
0.488472 0.000000 0.129213
0.547692 0.000000 0.124300
0.600092 0.000000 0.119417
0.644617 0.000000 0.114565
0.683742 0.000000 0.109712
0.724514 0.000000 0.104158
0.757992 0.000000 0.099184
0.787808 0.000000 0.094728
0.814939 0.000000 0.090669
0.839902 0.000000 0.087465
0.862913 0.048402 0.084810
0.884489 0.112337 0.083497
0.905119 0.150332 0.083375
0.925200 0.182376 0.085023
0.945068 0.212222 0.088533
0.964843 0.240299 0.094484
0.984527 0.267521 0.103731
1.000000 0.294255 0.116152
1.000000 0.320256 0.132601
1.000000 0.345769 0.152651
0.130343 0.144808 0.143832
0.130739 0.144900 0.143801
0.132021 0.145052 0.143771
0.136110 0.145449 0.143771
0.145327 0.145846 0.143679
0.161135 0.146090 0.143526
0.184634 0.145876 0.143099
0.216312 0.144442 0.142275
0.256107 0.140536 0.141146
0.304417 0.132570 0.139559
0.360082 0.118166 0.137087
0.420508 0.092622 0.133669
0.481941 0.025910 0.129610
0.541283 0.000000 0.125002
0.594385 0.000000 0.119936
0.639490 0.000000 0.115084
0.679591 0.000000 0.110140
0.719448 0.000000 0.104952
0.752621 0.000000 0.100313
0.782437 0.000000 0.095583
0.809720 0.000000 0.091768
0.834958 0.000000 0.087922
0.858213 0.056245 0.085359
0.880095 0.113588 0.083803
0.900999 0.150851 0.083345
0.921355 0.182589 0.084382
0.941650 0.211765 0.087617
0.961730 0.239994 0.093538
0.981720 0.267308 0.102296
1.000000 0.293950 0.114626
1.000000 0.319951 0.130526
1.000000 0.345342 0.150423
0.130098 0.145998 0.143893
0.131197 0.145998 0.143862
0.132265 0.146029 0.143832
0.135439 0.146548 0.144198
0.143862 0.147402 0.144045
0.159121 0.148287 0.143709
0.181857 0.148470 0.143282
0.212497 0.147585 0.142641
0.251591 0.144594 0.141543
0.299199 0.137575 0.139834
0.354345 0.125124 0.137392
0.414588 0.103822 0.134005
0.476204 0.064332 0.130190
0.535912 0.000000 0.125368
0.589532 0.000000 0.120516
0.635431 0.000000 0.115633
0.676631 0.000000 0.110719
0.715846 0.000000 0.105318
0.748989 0.000000 0.100801
0.778866 0.000000 0.096162
0.806424 0.000000 0.092378
0.831876 0.000000 0.088502
0.855344 0.075929 0.085969
0.877409 0.122408 0.084199
0.898497 0.157137 0.083742
0.919036 0.187228 0.084779
0.939483 0.215885 0.087892
0.959777 0.243503 0.093751
0.980011 0.270176 0.102235
0.999908 0.296574 0.114717
1.000000 0.322179 0.130434
1.000000 0.347265 0.150149
0.129915 0.149508 0.143923
0.131685 0.149233 0.143893
0.133577 0.149142 0.144015
0.136385 0.149538 0.144076
0.143587 0.150851 0.144564
0.155520 0.151949 0.144442
0.177188 0.153262 0.143984
0.206821 0.153506 0.143160
0.244877 0.151888 0.141909
0.291508 0.147158 0.140322
0.345892 0.137453 0.137789
0.405585 0.121096 0.134615
0.466987 0.095064 0.130800
0.527031 0.039643 0.126375
0.581964 0.000000 0.121309
0.628870 0.000000 0.116487
0.672023 0.000000 0.111299
0.710536 0.000000 0.106325
0.743191 0.000000 0.101747
0.772885 0.000000 0.097414
0.800473 0.000000 0.093599
0.826169 0.050172 0.089906
0.850187 0.105745 0.087495
0.873075 0.141909 0.085695
0.895109 0.172915 0.085054
0.916564 0.201602 0.086244
0.937682 0.228550 0.089784
0.958434 0.255192 0.096193
0.978851 0.280949 0.105196
0.998810 0.305943 0.117586
1.000000 0.330327 0.133364
1.000000 0.354040 0.152682
0.129580 0.156954 0.144045
0.131563 0.156710 0.144015
0.134737 0.156252 0.144289
0.139376 0.156374 0.144320
0.145937 0.157717 0.144350
0.158816 0.159609 0.144594
0.171237 0.158968 0.144900
0.198001 0.160952 0.143954
0.234318 0.161532 0.142794
0.279088 0.159518 0.141085
0.332158 0.153567 0.138766
0.391180 0.142672 0.135805
0.452857 0.125521 0.132021
0.513909 0.101411 0.127565
0.570672 0.068299 0.122683
0.619776 0.000000 0.117647
0.666011 0.000000 0.112276
0.704738 0.000000 0.107515
0.737881 0.000000 0.102876
0.767880 0.018341 0.098756
0.795560 0.079774 0.095247
0.821408 0.113436 0.091829
0.845731 0.143038 0.089479
0.868986 0.170748 0.087800
0.891386 0.196872 0.087556
0.913237 0.222385 0.089082
0.934661 0.246952 0.093111
0.955688 0.271214 0.099245
0.976287 0.295262 0.108797
0.996429 0.318791 0.121157
1.000000 0.341894 0.137087
1.000000 0.364752 0.156527
0.127871 0.170596 0.144045
0.130648 0.170260 0.143679
0.134737 0.169619 0.143984
0.142916 0.168246 0.144381
0.151034 0.170077 0.144137
0.163729 0.172610 0.143984
0.184207 0.175479 0.143954
0.199741 0.172580 0.144472
0.223301 0.171572 0.144381
0.266697 0.172763 0.142580
0.318364 0.170871 0.140352
0.376776 0.164706 0.137545
0.438453 0.154208 0.133730
0.500450 0.139864 0.129366
0.558862 0.123079 0.124331
0.612024 0.108431 0.118990
0.659236 0.100160 0.113558
0.698421 0.100069 0.108888
0.732235 0.108156 0.104524
0.762997 0.122255 0.100649
0.791409 0.140902 0.097078
0.818051 0.161746 0.094148
0.867308 0.218540 0.094514
0.889281 0.239475 0.096071
0.910216 0.259342 0.099001
0.930419 0.278813 0.103883
0.950011 0.298436 0.110719
0.969268 0.317662 0.119722
0.988098 0.337285 0.131106
1.000000 0.356725 0.145418
1.000000 0.376074 0.162295
1.000000 0.395209 0.182345
0.124269 0.195132 0.143008
0.127901 0.194553 0.142519
0.133608 0.193851 0.142794
0.144900 0.192111 0.143191
0.159152 0.191531 0.143496
0.174624 0.195712 0.143130
0.196628 0.200595 0.142702
0.228214 0.204257 0.142519
0.246403 0.196536 0.143679
0.264683 0.189517 0.144656
0.312261 0.189914 0.142672
0.371618 0.188205 0.139528
0.434150 0.183108 0.135683
0.496803 0.175082 0.131014
0.555840 0.166445 0.125948
0.613519 0.161746 0.119936
0.660395 0.160891 0.114931
0.699519 0.164065 0.110353
0.733883 0.171328 0.106203
0.765743 0.183230 0.102663
0.795834 0.199619 0.099794
0.824613 0.219242 0.098024
0.851743 0.240635 0.097810
0.877287 0.262272 0.099458
0.901213 0.282994 0.103151
0.923308 0.302251 0.108797
0.944091 0.320684 0.116243
0.964019 0.338567 0.125521
0.983459 0.356451 0.137148
1.000000 0.374365 0.151522
1.000000 0.392187 0.168643
1.000000 0.410132 0.188663
0.118196 0.225711 0.141390
0.122591 0.225071 0.140719
0.129580 0.224216 0.140841
0.144076 0.222171 0.141421
0.164096 0.218967 0.142245
0.182742 0.222171 0.142306
0.206363 0.228672 0.141604
0.238071 0.235904 0.140688
0.280308 0.240635 0.140566
0.300542 0.227451 0.142428
0.319829 0.215946 0.143832
0.350958 0.209323 0.143557
0.413184 0.209354 0.139651
0.476356 0.206912 0.135042
0.542840 0.205203 0.129488
0.600061 0.204318 0.123781
0.647425 0.205570 0.118624
0.687556 0.208927 0.114199
0.722805 0.215427 0.110231
0.755550 0.225498 0.107027
0.786404 0.239353 0.104707
0.815732 0.255985 0.103120
0.843351 0.274510 0.103487
0.869352 0.293309 0.105806
0.893706 0.311833 0.109804
0.916320 0.329168 0.115755
0.937682 0.345678 0.123415
0.958221 0.361822 0.133089
0.978180 0.378241 0.145174
0.997528 0.394537 0.159670
1.000000 0.411231 0.177279
1.000000 0.427955 0.197543
0.107942 0.265385 0.138308
0.113649 0.264714 0.137636
0.122469 0.263767 0.137972
0.140169 0.261631 0.138735
0.164706 0.258396 0.139712
0.191989 0.255802 0.140810
0.216892 0.263737 0.140078
0.250553 0.273381 0.138643
0.293462 0.283116 0.137087
0.347936 0.290501 0.136324
0.368322 0.270665 0.139620
0.386450 0.253025 0.141909
0.403693 0.237797 0.143709
0.461433 0.238010 0.140352
0.526726 0.240330 0.134707
0.584771 0.242649 0.128939
0.633722 0.245731 0.123812
0.675319 0.250401 0.119326
0.711879 0.256718 0.115602
0.745602 0.266026 0.112886
0.777279 0.278386 0.110628
0.807279 0.293187 0.109957
0.835416 0.309667 0.110903
0.861814 0.326665 0.113893
0.886595 0.343145 0.118685
0.909728 0.358526 0.125032
0.931609 0.373297 0.133242
0.952575 0.387732 0.143252
0.973053 0.402380 0.155734
0.992798 0.417212 0.170748
1.000000 0.432410 0.188296
1.000000 0.447852 0.209018
0.090089 0.313817 0.133028
0.098573 0.313085 0.132876
0.109743 0.312169 0.133181
0.132265 0.310033 0.134188
0.161959 0.306767 0.135561
0.196628 0.302037 0.137331
0.228367 0.304936 0.137484
0.263066 0.315557 0.136172
0.307744 0.328130 0.133791
0.360754 0.340307 0.131441
0.424048 0.350286 0.130556
0.445991 0.326207 0.135256
0.464515 0.304112 0.138949
0.480201 0.283818 0.141878
0.506645 0.271214 0.142031
0.567498 0.277256 0.136141
0.619501 0.283268 0.130770
0.663600 0.289525 0.126375
0.701747 0.296666 0.122866
0.736416 0.305730 0.120333
0.768460 0.316899 0.118898
0.798367 0.329808 0.118776
0.826383 0.343755 0.119875
0.852659 0.358282 0.123293
0.877592 0.372564 0.128237
0.901213 0.386419 0.135073
0.923857 0.399908 0.143587
0.945800 0.413367 0.154452
0.967132 0.427192 0.167727
0.987732 0.441260 0.183627
1.000000 0.455695 0.202426
1.000000 0.470375 0.224186
0.051972 0.367620 0.125856
0.070466 0.367102 0.125826
0.088655 0.366217 0.126375
0.118410 0.364355 0.127413
0.155367 0.361303 0.129213
0.196323 0.357214 0.131472
0.241367 0.351568 0.134279
0.277287 0.362951 0.132418
0.322362 0.376226 0.130068
0.378973 0.393164 0.126619
0.443091 0.410285 0.123445
0.512718 0.424628 0.123720
0.527611 0.393042 0.130800
0.539971 0.364233 0.136110
0.550378 0.338476 0.139986
0.559747 0.315312 0.143099
0.600793 0.315251 0.140017
0.647242 0.323369 0.135378
0.687526 0.331365 0.132082
0.723751 0.340581 0.129641
0.757076 0.351629 0.128756
0.788083 0.363867 0.129000
0.817014 0.377203 0.131228
0.844083 0.390600 0.135134
0.869627 0.403693 0.140719
0.893736 0.416114 0.148104
0.916838 0.428138 0.157107
0.939178 0.440314 0.168276
0.960967 0.452766 0.181827
0.982025 0.465644 0.198215
1.000000 0.478981 0.217441
1.000000 0.492775 0.239933
0.000000 0.427314 0.115663
0.000000 0.426856 0.116213
0.028565 0.426062 0.117006
0.095521 0.424323 0.118318
0.144106 0.421759 0.120363
0.193332 0.417884 0.123110
0.245487 0.412726 0.126680
0.295018 0.415259 0.128298
0.342901 0.431312 0.125704
0.399603 0.448585 0.122377
0.463233 0.466590 0.119295
0.526909 0.482246 0.118166
0.623224 0.526360 0.132174
0.630243 0.490486 0.138399
0.635492 0.456275 0.142947
0.639857 0.424567 0.146639
0.644190 0.395972 0.149508
0.656031 0.376959 0.150607
0.695186 0.385595 0.148043
0.730495 0.394812 0.147005
0.762875 0.404730 0.147250
0.792752 0.415198 0.149264
0.820523 0.425757 0.152621
0.846677 0.436469 0.157992
0.871519 0.446967 0.164706
0.895201 0.457130 0.173190
0.917876 0.466987 0.183169
0.939757 0.476936 0.195102
0.960967 0.487343 0.209018
0.981628 0.498238 0.225711
1.000000 0.509667 0.245335
1.000000 0.521782 0.267979
0.000000 0.499611 0.101015
0.000000 0.499580 0.101686
0.000000 0.498878 0.102571
0.035981 0.497749 0.104494
0.129610 0.495735 0.107393
0.192844 0.492439 0.111421
0.255436 0.488228 0.116182
0.319280 0.482734 0.121706
0.372076 0.493172 0.121767
0.428992 0.509545 0.120150
0.492103 0.526970 0.120272
0.556329 0.544762 0.123110
0.614374 0.559930 0.132113
0.666529 0.570977 0.152834
0.672847 0.538170 0.155489
0.677028 0.506279 0.157259
0.680110 0.475715 0.158389
0.683162 0.447486 0.159365
0.687221 0.422370 0.160861
0.713222 0.421332 0.160739
0.747341 0.431586 0.161227
0.778744 0.442023 0.163272
0.807584 0.452369 0.167117
0.834714 0.462623 0.172671
0.860319 0.472602 0.179568
0.884764 0.482185 0.188205
0.908202 0.491615 0.198672
0.930846 0.501122 0.210971
0.952911 0.510887 0.225284
0.974304 0.521416 0.242741
0.994842 0.532403 0.263005
1.000000 0.544091 0.286595
0.000000 0.563439 0.088624
0.000000 0.563073 0.089601
0.000000 0.562097 0.091096
0.000000 0.560174 0.093782
0.114504 0.556909 0.097810
0.190524 0.552514 0.103120
0.259525 0.547417 0.109133
0.327276 0.541344 0.116152
0.391119 0.538170 0.122835
0.443977 0.550805 0.123995
0.501183 0.564477 0.127199
0.559106 0.578882 0.133547
0.614435 0.593347 0.143557
0.662959 0.604761 0.158663
0.706813 0.613519 0.185428
0.710262 0.581384 0.182040
0.712123 0.550011 0.179202
0.713924 0.520714 0.176944
0.716518 0.494026 0.175723
0.720912 0.470924 0.175601
0.731014 0.455512 0.176577
0.764096 0.466560 0.179171
0.794430 0.477180 0.183322
0.822751 0.487587 0.189242
0.849332 0.497597 0.196750
0.874601 0.507042 0.205783
0.898894 0.516228 0.216434
0.922332 0.525414 0.229282
0.945159 0.534966 0.244480
0.967315 0.545129 0.262608
0.988586 0.555840 0.283787
1.000000 0.567254 0.308507
0.000000 0.613611 0.086488
0.000000 0.613336 0.087678
0.000000 0.612177 0.089113
0.000000 0.610071 0.092012
0.105745 0.606592 0.096864
0.190707 0.601984 0.102388
0.263218 0.596674 0.109316
0.333349 0.590417 0.117037
0.402106 0.583673 0.126192
0.458961 0.586938 0.132753
0.510796 0.597833 0.138674
0.563134 0.609552 0.147616
0.613550 0.621576 0.159670
0.661036 0.633448 0.174502
0.702174 0.642267 0.193210
0.740078 0.649683 0.223087
0.741848 0.618769 0.214817
0.742611 0.588952 0.207553
0.744137 0.561456 0.202152
0.747066 0.537072 0.198642
0.751736 0.516045 0.196933
0.758297 0.498573 0.196963
0.780362 0.499397 0.200229
0.809934 0.510216 0.206607
0.837675 0.520562 0.214664
0.864103 0.530480 0.224552
0.889616 0.540215 0.236484
0.914366 0.549981 0.250828
0.938384 0.559991 0.267704
0.961639 0.570550 0.287755
0.983856 0.581598 0.311009
1.000000 0.593164 0.337743
0.000000 0.654841 0.095613
0.000000 0.654658 0.096834
0.000000 0.654017 0.098207
0.000000 0.652338 0.101411
0.107576 0.649622 0.105898
0.196994 0.645899 0.111574
0.271489 0.641413 0.118929
0.343084 0.635950 0.127169
0.412818 0.629480 0.136904
0.478248 0.622400 0.148074
0.524376 0.630365 0.155947
0.570397 0.639033 0.166140
0.614984 0.647974 0.178500
0.657710 0.657130 0.193149
0.697871 0.666224 0.209720
0.732784 0.672663 0.228885
0.766781 0.679896 0.261540
0.768246 0.651026 0.250065
0.769375 0.623560 0.240421
0.771817 0.599084 0.233341
0.775723 0.577508 0.228519
0.781094 0.558923 0.225803
0.788083 0.543420 0.225223
0.798520 0.533013 0.227207
0.827512 0.544091 0.236240
0.855009 0.554589 0.247257
0.881468 0.564691 0.260105
0.907042 0.574640 0.275486
0.931701 0.584680 0.293492
0.955474 0.594934 0.314031
0.978058 0.605524 0.337774
0.999329 0.616724 0.364843
0.000000 0.688502 0.112306
0.000000 0.688075 0.113252
0.000000 0.687282 0.114717
0.000000 0.685756 0.117494
0.117617 0.683253 0.121492
0.203861 0.679805 0.126955
0.277684 0.675563 0.133761
0.348455 0.670222 0.141970
0.416632 0.664088 0.151431
0.480812 0.657343 0.162478
0.533562 0.655879 0.173800
0.575525 0.663264 0.184787
0.616510 0.671077 0.197971
0.655879 0.679011 0.212924
0.693324 0.686885 0.229343
0.728389 0.694575 0.246799
0.759121 0.699855 0.266758
0.790433 0.707485 0.302098
0.792081 0.680537 0.288304
0.793729 0.655360 0.276768
0.796628 0.632959 0.267979
0.800870 0.613306 0.261814
0.806546 0.596368 0.258183
0.813870 0.582605 0.257328
0.823026 0.571893 0.259220
0.843534 0.574609 0.267857
0.871122 0.585473 0.281956
0.897734 0.596063 0.298436
0.923430 0.606592 0.317571
0.948119 0.617273 0.339544
0.971618 0.628260 0.364538
0.993500 0.639551 0.392523
0.000000 0.719448 0.135042
0.000000 0.719448 0.136172
0.000000 0.735134 0.153140
0.064515 0.733455 0.155489
0.165438 0.730709 0.159030
0.239353 0.726864 0.163607
0.309178 0.721950 0.169650
0.376684 0.716060 0.176699
0.441962 0.709468 0.185702
0.502831 0.702480 0.196475
0.557641 0.695399 0.208560
0.597070 0.698299 0.220859
0.632776 0.704067 0.234104
0.667567 0.710140 0.248844
0.700832 0.716365 0.264866
0.732631 0.722713 0.281682
0.763180 0.729152 0.299931
0.790097 0.733272 0.319921
0.818235 0.740291 0.356939
0.819577 0.714412 0.340124
0.821225 0.690608 0.325780
0.824216 0.669581 0.314794
0.828550 0.651240 0.306828
0.834257 0.635554 0.301915
0.841337 0.622522 0.299901
0.850217 0.612482 0.301305
0.861723 0.606409 0.306920
0.888609 0.616785 0.323156
0.914855 0.627405 0.342504
0.940276 0.638392 0.365209
0.964569 0.649744 0.391241
0.986816 0.660792 0.418799
0.000000 0.751308 0.164797
0.000000 0.752865 0.167880
0.000000 0.754238 0.171237
0.101381 0.754574 0.175570
0.182681 0.753475 0.180545
0.251865 0.750668 0.185794
0.318151 0.746487 0.191562
0.382818 0.741085 0.198398
0.445411 0.735134 0.206882
0.503563 0.728695 0.216953
0.556847 0.722072 0.228458
0.602228 0.717556 0.241123
0.634852 0.722591 0.254215
0.666896 0.727871 0.268254
0.697780 0.733333 0.283513
0.727565 0.738918 0.299596
0.756313 0.744686 0.316899
0.784268 0.750668 0.335180
0.809354 0.754543 0.355627
0.836332 0.762173 0.394934
0.838132 0.738155 0.378210
0.840787 0.716548 0.364385
0.844541 0.697292 0.353521
0.849516 0.680659 0.345739
0.855741 0.666407 0.341009
0.863615 0.655024 0.339818
0.873381 0.646693 0.342779
0.885313 0.641932 0.350866
0.905913 0.646967 0.367956
0.932280 0.658625 0.391699
0.957397 0.670649 0.418677
0.980011 0.681575 0.445411
0.000000 0.775051 0.190219
0.000000 0.776364 0.193454
0.065064 0.777493 0.196658
0.140383 0.777646 0.200809
0.206180 0.776516 0.205478
0.268742 0.773861 0.210269
0.330694 0.769924 0.215915
0.391516 0.765042 0.222385
0.450813 0.759548 0.230381
0.506493 0.753628 0.239750
0.557671 0.747555 0.250858
0.604059 0.741329 0.263249
0.639338 0.741238 0.276097
0.668757 0.745968 0.289860
0.697383 0.750820 0.304417
0.725154 0.755764 0.320012
0.752132 0.760952 0.336217
0.778531 0.766323 0.353735
0.804654 0.772030 0.372412
0.828336 0.775784 0.393164
0.854093 0.783597 0.433845
0.856443 0.761501 0.418036
0.859770 0.741604 0.404761
0.864073 0.723934 0.394263
0.869505 0.708522 0.386664
0.876341 0.695644 0.382452
0.884886 0.685695 0.382483
0.895506 0.679103 0.387793
0.908415 0.676173 0.399115
0.923522 0.677272 0.417212
0.949187 0.689448 0.443549
0.972625 0.700771 0.469917
0.051545 0.797696 0.218723
0.092805 0.798856 0.220462
0.128786 0.799802 0.223697
0.177768 0.799832 0.227665
0.232486 0.798703 0.232212
0.288548 0.796139 0.236881
0.345312 0.792447 0.241947
0.402167 0.787900 0.248051
0.457954 0.782712 0.255467
0.510521 0.777157 0.264317
0.559167 0.771481 0.274540
0.603937 0.765591 0.286076
0.644343 0.759579 0.298528
0.671717 0.763485 0.311772
0.698390 0.767971 0.326177
0.724605 0.772763 0.341558
0.750423 0.777920 0.358373
0.775906 0.783474 0.376440
0.801236 0.789364 0.395850
0.826719 0.795590 0.416602
0.849821 0.799771 0.438697
0.873655 0.806577 0.476936
0.877440 0.787747 0.465766
0.881498 0.769863 0.454444
0.886595 0.754025 0.445411
0.892851 0.740475 0.439460
0.900664 0.729488 0.437507
0.910277 0.721645 0.440375
0.921996 0.717159 0.449042
0.935668 0.716365 0.463935
0.950286 0.717952 0.482521
0.969360 0.725490 0.506432
0.157198 0.824765 0.258183
0.168856 0.825132 0.257633
0.187778 0.825101 0.259434
0.222477 0.824247 0.261967
0.266575 0.822477 0.265263
0.315435 0.819760 0.269139
0.366979 0.816220 0.273960
0.419440 0.812070 0.279911
0.471229 0.807492 0.287205
0.520562 0.802640 0.296056
0.566735 0.797635 0.306279
0.609491 0.792386 0.317632
0.648371 0.786893 0.329595
0.680232 0.784665 0.342443
0.704524 0.788510 0.355993
0.728573 0.792660 0.370703
0.752346 0.797086 0.386419
0.776028 0.801816 0.403143
0.799680 0.806821 0.420905
0.823453 0.812070 0.439429
0.847318 0.817441 0.458320
0.868803 0.820706 0.477790
0.889830 0.825345 0.511009
0.894011 0.808438 0.502007
0.898192 0.791714 0.491279
0.903655 0.777249 0.483467
0.910582 0.765225 0.479316
0.919249 0.756100 0.479744
0.929839 0.750118 0.485481
0.941894 0.746975 0.495796
0.955200 0.746700 0.510735
0.969696 0.749813 0.530846
0.208377 0.844572 0.289494
0.214664 0.844999 0.287816
0.229984 0.845029 0.289555
0.258579 0.844205 0.292088
0.296239 0.842527 0.295201
0.339391 0.839872 0.298680
0.385687 0.836515 0.302922
0.433356 0.832547 0.308232
0.480964 0.828183 0.315190
0.526757 0.823636 0.323217
0.570336 0.818967 0.332738
0.610956 0.814084 0.343389
0.648341 0.809079 0.354589
0.683009 0.803891 0.366918
0.708064 0.805234 0.379980
0.730526 0.809049 0.394079
0.752926 0.813107 0.409125
0.775296 0.817472 0.425238
0.797726 0.822110 0.442054
0.820340 0.826963 0.459388
0.843198 0.831968 0.477150
0.866117 0.837095 0.495277
0.886595 0.840146 0.513817
0.905577 0.843503 0.543938
0.908263 0.826169 0.532158
0.912963 0.810910 0.522820
0.919097 0.798032 0.517082
0.926818 0.787808 0.515343
0.936248 0.780392 0.518181
0.946929 0.775418 0.524834
0.959197 0.773770 0.536919
0.972625 0.775509 0.554284
0.267552 0.867124 0.330571
0.271489 0.867674 0.328618
0.282322 0.867552 0.329290
0.304723 0.866545 0.331182
0.335668 0.864683 0.333501
0.372198 0.861997 0.336248
0.412360 0.858610 0.339666
0.454139 0.854673 0.343908
0.496376 0.850278 0.349340
0.537652 0.845701 0.356054
0.577356 0.840848 0.363836
0.615076 0.835996 0.372869
0.650477 0.831022 0.382757
0.683345 0.825895 0.393317
0.712581 0.821592 0.404364
0.732845 0.824460 0.416419
0.753292 0.827543 0.429389
0.773983 0.831083 0.443427
0.795102 0.835142 0.458473
0.816678 0.839597 0.474678
0.838529 0.844327 0.491524
0.860472 0.849058 0.508537
0.882231 0.853696 0.525353
0.901366 0.856046 0.542138
0.918120 0.857816 0.568505
0.923156 0.844419 0.564080
0.928374 0.830686 0.556542
0.935088 0.819425 0.552697
0.942992 0.810208 0.551812
0.952483 0.803922 0.555718
0.963500 0.800839 0.564813
0.975769 0.801205 0.579309
0.308049 0.883879 0.361822
0.311498 0.884337 0.360327
0.318090 0.884398 0.359228
0.337255 0.883452 0.361120
0.364111 0.881712 0.363195
0.396216 0.879301 0.365972
0.432105 0.876280 0.369360
0.469734 0.872831 0.373693
0.508385 0.868956 0.379126
0.546777 0.864958 0.385779
0.583978 0.860746 0.393469
0.619867 0.856443 0.402380
0.653681 0.852079 0.412177
0.685389 0.847562 0.422370
0.715023 0.842893 0.433082
0.738460 0.841947 0.444312
0.757565 0.844785 0.456306
0.777005 0.847959 0.469093
0.796872 0.851530 0.482948
0.817227 0.855467 0.497719
0.837858 0.859556 0.512993
0.858671 0.863767 0.528649
0.879362 0.867918 0.544152
0.899870 0.871885 0.559442
0.917784 0.873808 0.574945
0.932494 0.874296 0.598840
0.937926 0.862577 0.596887
0.943542 0.850248 0.590753
0.950530 0.840299 0.588159
0.959014 0.833036 0.589990
0.968902 0.828855 0.596826
0.979919 0.827939 0.608850
0.351354 0.900969 0.397040
0.354009 0.901244 0.395422
0.356390 0.901305 0.392248
0.372015 0.900267 0.393500
0.394324 0.898558 0.395117
0.421759 0.896239 0.397253
0.452735 0.893431 0.400092
0.486336 0.890196 0.403937
0.521294 0.886687 0.408972
0.556359 0.883055 0.415167
0.591058 0.879240 0.422461
0.624750 0.875456 0.430945
0.656855 0.871550 0.440101
0.687312 0.867491 0.449714
0.715877 0.863249 0.459541
0.742977 0.858915 0.469642
0.761654 0.860655 0.480415
0.779812 0.863401 0.491951
0.798520 0.866484 0.504448
0.817716 0.869902 0.517845
0.837278 0.873533 0.531914
0.857023 0.877256 0.546441
0.876707 0.880949 0.560937
0.896300 0.884611 0.575433
0.915618 0.888090 0.589807
0.932219 0.889342 0.603815
0.944915 0.888548 0.625086
0.950378 0.878050 0.624537
0.956176 0.867033 0.619867
0.963684 0.858854 0.619745
0.972503 0.853574 0.624231
0.982330 0.851530 0.633906
0.388891 0.916258 0.429297
0.390845 0.916411 0.427771
0.392950 0.916411 0.424994
0.403418 0.915770 0.424109
0.423163 0.914336 0.426062
0.447639 0.912566 0.428962
0.476204 0.910582 0.433204
0.507317 0.908324 0.438575
0.540002 0.905913 0.445319
0.572961 0.903441 0.453071
0.605615 0.900816 0.461738
0.637385 0.898100 0.471046
0.667750 0.895232 0.480720
0.696681 0.892088 0.490486
0.724147 0.888670 0.500328
0.750271 0.884977 0.509850
0.773220 0.882780 0.519768
0.790097 0.885100 0.530114
0.807553 0.887663 0.541436
0.825498 0.890501 0.553460
0.843748 0.893492 0.566094
0.862242 0.896544 0.579126
0.880491 0.899474 0.591943
0.898528 0.902190 0.604578
0.916381 0.904784 0.617121
0.933959 0.907317 0.629603
0.949126 0.907897 0.642359
0.959564 0.905791 0.660975
0.964904 0.896696 0.662196
0.970794 0.887236 0.659449
0.978393 0.881010 0.661952
0.986786 0.877745 0.669062
0.438788 0.935058 0.473762
0.440192 0.935119 0.472297
0.441596 0.935027 0.469825
0.447150 0.934539 0.466651
0.462776 0.933196 0.467964
0.482582 0.931426 0.470008
0.505943 0.929412 0.472969
0.531853 0.927123 0.476844
0.559625 0.924651 0.481697
0.588373 0.922057 0.487648
0.617121 0.919310 0.494209
0.645686 0.916442 0.501549
0.673487 0.913451 0.509514
0.700496 0.910369 0.517815
