data/fiter_cube/57993848/1023161/file.cube
# Created by Adobe Lightroom plugin Export LUT (1.17.0)
# www.johnrellis.com/lightroom/exportlut.htm
# Preset: 萌宠摄影后期_08 云集
# Color profile: C:\Program Files (x86)\Common Files\Adobe\Color\Profiles\Recommended\AdobeRGB1998.icc
LUT_3D_SIZE 5
DOMAIN_MIN 0.000000 0.000000 0.000000
DOMAIN_MAX 0.903226 0.903226 0.903226
0.130434 0.144442 0.143679
0.219455 0.141878 0.142184
0.600092 0.000000 0.119417
0.839902 0.000000 0.087465
0.984527 0.267521 0.103731
0.118196 0.225711 0.141390
0.238071 0.235904 0.140688
0.542840 0.205203 0.129488
0.815732 0.255985 0.103120
0.978180 0.378241 0.145174
0.000000 0.613611 0.086488
0.333349 0.590417 0.117037
0.702174 0.642267 0.193210
0.758297 0.498573 0.196963
0.938384 0.559991 0.267704
0.157198 0.824765 0.258183
0.419440 0.812070 0.279911
0.704524 0.788510 0.355993
0.868803 0.820706 0.477790
0.929839 0.750118 0.485481
0.471199 0.949218 0.505119
0.550439 0.942718 0.507134
0.723842 0.920165 0.540185
0.861479 0.920043 0.610956
0.970794 0.930968 0.690608
0.120455 0.143252 0.208927
0.200076 0.134005 0.198917
0.611780 0.000000 0.170504
0.829831 0.000000 0.180148
0.977691 0.246647 0.199191
0.108583 0.191226 0.215671
0.214389 0.219638 0.209476
0.578149 0.191073 0.198306
0.810086 0.237217 0.194919
0.967926 0.362036 0.225834
0.000000 0.601038 0.334997
0.259220 0.586267 0.246372
0.664942 0.613550 0.329046
0.743587 0.487343 0.261967
0.935119 0.560540 0.331365
0.304112 0.815244 0.461189
0.395819 0.810941 0.390356
0.696956 0.780728 0.447822
0.857816 0.817472 0.554498
0.920500 0.747189 0.524865
0.519341 0.944305 0.601556
0.541375 0.943084 0.559319
0.721828 0.925536 0.595148
0.861448 0.921233 0.653162
0.968231 0.932799 0.726436
0.000000 0.121614 0.569116
0.196353 0.085512 0.538659
0.563653 0.000000 0.483772
0.826566 0.000000 0.428779
0.984771 0.000000 0.389715
0.000000 0.175113 0.589532
0.188327 0.207279 0.554376
0.576471 0.136049 0.490791
0.820157 0.153933 0.434791
0.977020 0.317021 0.433509
0.000000 0.469062 0.567864
0.137362 0.497505 0.554314
0.579675 0.552148 0.519768
0.775326 0.532982 0.484077
0.942351 0.565179 0.501030
0.000000 0.815854 0.692134
0.342596 0.802090 0.664454
0.640833 0.776761 0.600275
0.834409 0.811154 0.688533
0.891936 0.722469 0.587335
0.478096 0.942473 0.736233
0.560204 0.937987 0.732967
0.678981 0.931334 0.687678
0.849607 0.916136 0.726833
0.958801 0.933043 0.793576
0.000000 0.003296 0.812589
0.199649 0.000000 0.802457
0.530724 0.000000 0.763424
0.781552 0.000000 0.719753
0.956573 0.155154 0.669001
0.000000 0.152743 0.816739
0.187411 0.155398 0.805661
0.540490 0.091371 0.764614
0.776944 0.142092 0.716121
0.950317 0.313725 0.672236
0.000000 0.413703 0.817380
0.000000 0.457404 0.811276
0.586145 0.553552 0.769345
0.759152 0.522332 0.707607
0.940551 0.536828 0.687251
0.000000 0.692927 0.795102
0.231266 0.700557 0.788418
0.576898 0.728206 0.775601
0.762509 0.751431 0.746304
0.916503 0.730343 0.717983
0.178622 0.954406 0.896818
0.379461 0.948425 0.886442
0.628687 0.935698 0.855192
0.804990 0.922545 0.811185
0.950042 0.936400 0.870420
0.000000 0.000000 0.942901
0.178439 0.000000 0.938689
0.512688 0.000000 0.924865
0.716732 0.000000 0.897642
0.916350 0.000000 0.865873
0.000000 0.000000 0.940978
0.125490 0.000000 0.936889
0.502007 0.000000 0.923552
0.713069 0.000000 0.893584
0.910796 0.000000 0.862028
0.000000 0.188907 0.947814
0.000000 0.206455 0.944213
0.520653 0.436530 0.921508
0.709712 0.417823 0.889860
0.902190 0.460609 0.861295
0.000000 0.565454 0.936553
0.000000 0.580102 0.934081
0.408850 0.639582 0.927794
0.737118 0.724544 0.906706
0.904967 0.718868 0.878691
0.000000 0.809964 0.932006
0.000000 0.814603 0.930114
0.505241 0.835874 0.926665
0.747463 0.875517 0.920226
0.906279 0.904692 0.906706
