data/fiter_cube/51215349/1023018/file.cube
# Created by Adobe Lightroom plugin Export LUT (1.17.0)
# www.johnrellis.com/lightroom/exportlut.htm
# Preset: 日系旅行街拍胶片_05 云集后期
# Color profile: C:\Program Files (x86)\Common Files\Adobe\Color\Profiles\Recommended\AdobeRGB1998.icc
LUT_3D_SIZE 32
DOMAIN_MIN 0.0 0.0 0.0
DOMAIN_MAX 1.0 1.0 1.0
0.071992 0.062287 0.083009
0.071992 0.062287 0.083009
0.071992 0.062287 0.083009
0.065400 0.063539 0.082765
0.061189 0.064240 0.082490
0.065614 0.063539 0.081849
0.080018 0.061646 0.080720
0.104372 0.058350 0.079500
0.141482 0.042725 0.077302
0.189853 0.003723 0.074037
0.248905 0.000000 0.068421
0.315892 0.000000 0.059602
0.390539 0.000000 0.032013
0.471077 0.000000 0.000000
0.552239 0.000000 0.000000
0.630854 0.000000 0.000000
0.702846 0.000000 0.000000
0.780728 0.149355 0.000000
0.838743 0.224063 0.000000
0.885008 0.280552 0.000000
0.922179 0.326787 0.000000
0.952239 0.364935 0.000000
0.976379 0.396216 0.000000
0.996094 0.423346 0.000000
1.000000 0.446784 0.000000
1.000000 0.468544 0.000000
1.000000 0.489815 0.000000
1.000000 0.511070 0.000000
1.000000 0.532952 0.000000
1.000000 0.556603 0.161440
1.000000 0.583001 0.251896
1.000000 0.613733 0.345220
0.071992 0.062287 0.083009
0.071992 0.062287 0.083009
0.071992 0.062287 0.083009
0.065400 0.063539 0.082765
0.061189 0.064240 0.082490
0.065705 0.063539 0.081544
0.079103 0.062776 0.080659
0.103182 0.059815 0.079133
0.139223 0.047395 0.076997
0.186404 0.012696 0.073732
0.243168 0.000000 0.068666
0.308812 0.000000 0.060151
0.382025 0.000000 0.034455
0.461372 0.000000 0.000000
0.542382 0.000000 0.000000
0.620600 0.000000 0.000000
0.694240 0.000000 0.000000
0.770809 0.147585 0.000000
0.829068 0.219455 0.000000
0.876280 0.275822 0.000000
0.914641 0.322087 0.000000
0.945861 0.360510 0.000000
0.971008 0.392309 0.000000
0.991699 0.419501 0.000000
1.000000 0.443458 0.000000
1.000000 0.465644 0.000000
1.000000 0.486915 0.000000
1.000000 0.508446 0.000000
1.000000 0.530480 0.000000
1.000000 0.554040 0.149294
1.000000 0.580255 0.241794
1.000000 0.610559 0.334691
0.071992 0.062287 0.083009
0.071992 0.062287 0.083009
0.071992 0.062287 0.083009
0.065400 0.063539 0.082765
0.061280 0.064271 0.082185
0.065644 0.064027 0.081514
0.078645 0.063355 0.080629
0.101595 0.061707 0.079072
0.136233 0.053376 0.076600
0.181796 0.024414 0.073426
0.237797 0.000000 0.068360
0.302892 0.000000 0.060365
0.375402 0.000000 0.035340
0.454322 0.000000 0.000000
0.534997 0.000000 0.000000
0.613825 0.000000 0.000000
0.688869 0.024414 0.000000
0.764096 0.154208 0.000000
0.822812 0.221897 0.000000
0.870756 0.277104 0.000000
0.910033 0.322972 0.000000
0.942077 0.360998 0.000000
0.967926 0.392615 0.000000
0.989166 0.419684 0.000000
1.000000 0.443610 0.000000
1.000000 0.465583 0.000000
1.000000 0.487068 0.000000
1.000000 0.508446 0.000000
1.000000 0.530388 0.000000
1.000000 0.553948 0.144930
1.000000 0.579919 0.238224
1.000000 0.609979 0.330816
0.071687 0.062379 0.082399
0.071229 0.062470 0.082399
0.071321 0.062470 0.082094
0.065064 0.063630 0.082155
0.061555 0.065187 0.080598
0.064820 0.066011 0.079835
0.076600 0.066499 0.078859
0.098787 0.065766 0.077607
0.132021 0.061860 0.075441
0.176272 0.048554 0.072480
0.231235 0.006378 0.067384
0.295140 0.000000 0.059266
0.366308 0.000000 0.033722
0.444038 0.000000 0.000000
0.525078 0.000000 0.000000
0.603906 0.000000 0.000000
0.681331 0.090974 0.000000
0.755276 0.171237 0.000000
0.813535 0.231601 0.000000
0.861784 0.283055 0.000000
0.901884 0.326665 0.000000
0.935027 0.363684 0.000000
0.962341 0.395178 0.000000
0.985016 0.422675 0.000000
1.000000 0.447150 0.000000
1.000000 0.469795 0.000000
1.000000 0.491249 0.000000
1.000000 0.512779 0.000000
1.000000 0.534630 0.000000
1.000000 0.557702 0.150912
1.000000 0.583062 0.241581
1.000000 0.612146 0.332036
0.069764 0.062837 0.080873
0.069764 0.063325 0.080537
0.069276 0.063386 0.080537
0.066621 0.064332 0.081147
0.061341 0.066041 0.080842
0.064179 0.068238 0.078706
0.073426 0.070924 0.076997
0.093446 0.072084 0.075685
0.124453 0.071565 0.074067
0.166873 0.067659 0.071138
0.219944 0.056825 0.066285
0.282292 0.021027 0.058412
0.352605 0.000000 0.032013
0.429603 0.000000 0.000000
0.510765 0.000000 0.000000
0.591333 0.068910 0.000000
0.673091 0.135897 0.000000
0.747158 0.198734 0.000000
0.806394 0.252598 0.000000
0.855497 0.299718 0.000000
0.896117 0.340063 0.000000
0.929931 0.374884 0.000000
0.958068 0.404578 0.000000
0.981506 0.431281 0.000000
1.000000 0.454841 0.000000
1.000000 0.476783 0.000000
1.000000 0.497810 0.000000
1.000000 0.518486 0.000000
1.000000 0.539818 0.000000
1.000000 0.562310 0.155276
1.000000 0.587121 0.244724
1.000000 0.615961 0.335058
0.068025 0.065095 0.078828
0.067628 0.065187 0.078523
0.067475 0.065614 0.078828
0.066712 0.066560 0.079438
0.061616 0.069429 0.079652
0.064759 0.070253 0.079225
0.074769 0.073793 0.076753
0.091341 0.077424 0.074617
0.117403 0.081636 0.072114
0.158480 0.082734 0.069245
0.210086 0.081086 0.064942
0.271519 0.077638 0.054963
0.340856 0.073793 0.027741
0.417212 0.077729 0.000000
0.498665 0.094575 0.000000
0.580041 0.128267 0.000000
0.665461 0.178988 0.000000
0.739681 0.232334 0.000000
0.800198 0.280552 0.000000
0.850736 0.323430 0.000000
0.892546 0.361212 0.000000
0.927550 0.393652 0.000000
0.985260 0.459907 0.000000
1.000000 0.480781 0.000000
1.000000 0.499458 0.000000
1.000000 0.517296 0.000000
1.000000 0.534752 0.000000
1.000000 0.552697 0.055604
1.000000 0.571954 0.164279
1.000000 0.593256 0.242252
1.000000 0.617487 0.321141
1.000000 0.645777 0.406195
0.065309 0.068605 0.076051
0.065248 0.069032 0.076020
0.064698 0.069978 0.075624
0.063722 0.071687 0.076173
0.061463 0.074647 0.076661
0.063844 0.078676 0.076600
0.077790 0.078767 0.076265
0.099092 0.084443 0.073701
0.126711 0.090364 0.070802
0.163882 0.097444 0.066773
0.212009 0.105776 0.060975
0.275212 0.111116 0.045899
0.346319 0.119020 0.011353
0.423651 0.132113 0.000000
0.504997 0.152895 0.000000
0.586145 0.184756 0.000000
0.676020 0.234989 0.000000
0.749508 0.282841 0.000000
0.809628 0.326970 0.000000
0.860594 0.366766 0.000000
0.903777 0.402106 0.000000
0.940093 0.433478 0.000000
0.969696 0.461341 0.000000
0.993500 0.485512 0.000000
1.000000 0.506767 0.000000
1.000000 0.525658 0.000000
1.000000 0.543206 0.000000
1.000000 0.560876 0.070069
1.000000 0.579400 0.170291
1.000000 0.599847 0.246403
1.000000 0.623255 0.324010
1.000000 0.650752 0.407996
0.063264 0.073732 0.074281
0.062593 0.074586 0.074250
0.062409 0.075746 0.074159
0.061463 0.078004 0.073976
0.060761 0.081239 0.074037
0.060792 0.086122 0.073915
0.074434 0.091798 0.073365
0.098421 0.090455 0.072755
0.129915 0.098390 0.069673
0.166812 0.106172 0.065400
0.212253 0.116823 0.059113
0.265721 0.131350 0.041352
0.328710 0.148806 0.008026
0.405188 0.166018 0.000000
0.486213 0.188968 0.000000
0.574426 0.223972 0.000000
0.661280 0.269444 0.000000
0.734615 0.312993 0.000000
0.796048 0.352941 0.000000
0.848936 0.389624 0.000000
0.893706 0.422339 0.000000
0.931487 0.451362 0.000000
0.962432 0.477089 0.000000
0.987304 0.499825 0.000000
1.000000 0.519585 0.000000
1.000000 0.537530 0.000000
1.000000 0.554131 0.000000
1.000000 0.570855 0.088899
1.000000 0.588830 0.179324
1.000000 0.608515 0.254185
1.000000 0.631373 0.331151
1.000000 0.658106 0.414343
0.060273 0.081971 0.073274
0.060060 0.083009 0.073182
0.059815 0.084352 0.073060
0.059541 0.087831 0.073060
0.058808 0.091524 0.072358
0.057771 0.096742 0.071778
0.067872 0.103456 0.070771
0.095033 0.110933 0.068849
0.130159 0.107301 0.067689
0.172091 0.118532 0.062898
0.217380 0.129976 0.054597
0.270329 0.145083 0.033326
0.330053 0.165347 0.000000
0.395636 0.191714 0.000000
0.470344 0.222995 0.000000
0.562799 0.261295 0.000000
0.648280 0.303563 0.000000
0.722011 0.344579 0.000000
0.784512 0.382055 0.000000
0.838926 0.415991 0.000000
0.885161 0.446326 0.000000
0.924224 0.472847 0.000000
0.956176 0.496590 0.000000
0.981933 0.517418 0.000000
1.000000 0.535882 0.000000
1.000000 0.552453 0.000000
1.000000 0.568200 0.000000
1.000000 0.583917 0.115358
1.000000 0.600946 0.195651
1.000000 0.619837 0.267308
1.000000 0.641779 0.343114
1.000000 0.667689 0.424475
0.056947 0.094484 0.073823
0.057465 0.095583 0.073701
0.056855 0.097017 0.073548
0.056977 0.100740 0.073457
0.055055 0.105440 0.072175
0.054566 0.110994 0.070741
0.060883 0.118074 0.069215
0.084016 0.127230 0.067018
0.126986 0.136965 0.062715
0.171023 0.130007 0.060853
0.222324 0.145296 0.048157
0.274601 0.160830 0.024323
0.333715 0.181613 0.000000
0.398779 0.208255 0.000000
0.477058 0.247044 0.000000
0.556634 0.292576 0.000000
0.637781 0.338354 0.000000
0.713008 0.378759 0.000000
0.777005 0.414252 0.000000
0.832059 0.445228 0.000000
0.878416 0.472663 0.000000
0.917113 0.496223 0.000000
0.949096 0.516747 0.000000
0.975097 0.535149 0.000000
0.996185 0.551720 0.000000
1.000000 0.567132 0.000000
1.000000 0.582025 0.000000
1.000000 0.597498 0.137453
1.000000 0.614191 0.212802
1.000000 0.632929 0.284184
1.000000 0.654871 0.360418
1.000000 0.680781 0.442634
0.052796 0.110048 0.075837
0.052918 0.111421 0.075990
0.052766 0.113283 0.076081
0.053285 0.117250 0.076234
0.053010 0.123201 0.075044
0.050690 0.129122 0.071290
0.051484 0.136660 0.068421
0.072541 0.146487 0.065278
0.111696 0.158114 0.060853
0.169986 0.169833 0.049317
0.221653 0.159945 0.043214
0.281193 0.180026 0.013886
0.339452 0.200961 0.000000
0.409644 0.231510 0.000000
0.485847 0.269688 0.000000
0.562127 0.313207 0.000000
0.635309 0.359686 0.000000
0.700710 0.404669 0.000000
0.764157 0.439918 0.000000
0.820401 0.469917 0.000000
0.868620 0.495827 0.000000
0.908873 0.518334 0.000000
0.942077 0.538537 0.000000
0.969207 0.555718 0.000000
0.991119 0.571160 0.000000
1.000000 0.585199 0.000000
1.000000 0.598962 0.076570
1.000000 0.613306 0.164401
1.000000 0.629084 0.233097
1.000000 0.647059 0.302708
1.000000 0.668238 0.377569
1.000000 0.693690 0.458656
0.048035 0.131167 0.080201
0.048920 0.132662 0.080293
0.048249 0.134737 0.080598
0.049989 0.138827 0.080903
0.051667 0.145663 0.080720
0.044984 0.152193 0.074311
0.046509 0.159792 0.070253
0.056214 0.168734 0.065309
0.096376 0.182101 0.060182
0.152865 0.196139 0.045808
0.221347 0.207919 0.018952
0.282078 0.198245 0.005798
0.391638 0.254215 0.000000
0.473610 0.294713 0.000000
0.554925 0.339574 0.000000
0.631403 0.386053 0.000000
0.698695 0.428901 0.000000
0.755947 0.465705 0.000000
0.804959 0.497932 0.000000
0.848203 0.526879 0.000000
0.889586 0.546807 0.000000
0.923980 0.564416 0.000000
0.952667 0.579431 0.000000
0.976196 0.593317 0.000000
0.995514 0.605768 0.000000
1.000000 0.617548 0.101167
1.000000 0.629450 0.171084
1.000000 0.642145 0.231022
1.000000 0.656519 0.291539
1.000000 0.673426 0.356725
1.000000 0.693660 0.427161
1.000000 0.718441 0.503899
0.038270 0.163821 0.089021
0.038911 0.165255 0.089326
0.040620 0.167086 0.089296
0.043244 0.170962 0.089693
0.047608 0.177493 0.089601
0.043671 0.184512 0.083894
0.037995 0.191653 0.074922
0.044984 0.200198 0.067750
0.077913 0.212619 0.060426
0.137484 0.229404 0.043580
0.211032 0.247715 0.007996
0.294072 0.263798 0.000000
0.381018 0.268437 0.000000
0.473426 0.316320 0.000000
0.554528 0.360327 0.000000
0.630152 0.404669 0.000000
0.696345 0.444434 0.000000
0.752499 0.478462 0.000000
0.801022 0.508446 0.000000
0.843534 0.535821 0.000000
0.880308 0.561151 0.000000
0.913207 0.582361 0.000000
0.943053 0.597253 0.000000
0.967834 0.610681 0.000000
0.988128 0.623011 0.032227
1.000000 0.634394 0.135225
1.000000 0.645686 0.194827
1.000000 0.657862 0.251743
1.000000 0.671717 0.310521
1.000000 0.688197 0.374884
1.000000 0.708125 0.444984
1.000000 0.732601 0.521111
0.028656 0.194339 0.099611
0.030091 0.195743 0.100099
0.032685 0.197574 0.099977
0.036652 0.201511 0.100435
0.044160 0.207675 0.100191
0.050568 0.215824 0.098482
0.031006 0.222965 0.083894
0.036713 0.231174 0.074739
0.052583 0.241001 0.063905
0.114443 0.257908 0.047974
0.190433 0.280949 0.009369
0.282658 0.308934 0.000000
0.372442 0.326726 0.000000
0.466926 0.334783 0.000000
0.555840 0.383673 0.000000
0.629694 0.424720 0.000000
0.693751 0.460670 0.000000
0.748898 0.491859 0.000000
0.797177 0.519829 0.000000
0.839658 0.545647 0.000000
0.876707 0.569696 0.000000
0.908537 0.592157 0.000000
0.935271 0.612909 0.000000
0.959808 0.628748 0.013031
0.981140 0.641047 0.107057
0.998566 0.652491 0.169131
1.000000 0.663630 0.223636
1.000000 0.675441 0.277989
1.000000 0.689052 0.336034
1.000000 0.705287 0.399542
1.000000 0.724941 0.468605
1.000000 0.749111 0.543389
0.019898 0.229953 0.113954
0.021851 0.231571 0.114260
0.024414 0.233066 0.114168
0.031098 0.236942 0.114595
0.041962 0.242893 0.114626
0.056672 0.251316 0.114046
0.039765 0.258946 0.100557
0.030243 0.266972 0.085878
0.049805 0.276371 0.072694
0.085115 0.292576 0.055207
0.168887 0.318669 0.016297
0.261234 0.347601 0.000000
0.362829 0.378210 0.000000
0.452277 0.391821 0.000000
0.549004 0.401648 0.000000
0.629603 0.446204 0.000000
0.693690 0.479744 0.000000
0.747433 0.507713 0.000000
0.794858 0.533288 0.000000
0.836942 0.557214 0.000000
0.873686 0.579583 0.000000
0.905516 0.600610 0.000000
0.932403 0.620325 0.000000
0.955169 0.639429 0.087282
0.974090 0.657862 0.161501
0.992218 0.670436 0.201663
1.000000 0.682460 0.255009
1.000000 0.695094 0.310491
1.000000 0.709346 0.370092
1.000000 0.726406 0.435340
1.000000 0.747005 0.505608
1.000000 0.771206 0.578882
0.013062 0.270726 0.131441
0.016663 0.272343 0.131991
0.020203 0.274205 0.132143
0.028748 0.278294 0.132509
0.043793 0.284703 0.132723
0.061433 0.293278 0.132387
0.061860 0.302495 0.124178
0.030274 0.314305 0.103731
0.052766 0.326574 0.089448
0.073121 0.340032 0.069490
0.142794 0.361608 0.033753
0.239322 0.389593 0.000000
0.339788 0.418494 0.000000
0.445563 0.446937 0.000000
0.527062 0.451514 0.000000
0.619257 0.460029 0.000000
0.689662 0.496407 0.000000
0.745480 0.523888 0.000000
0.793393 0.547997 0.000000
0.836088 0.570947 0.000000
0.873259 0.592401 0.000000
0.905241 0.612604 0.000000
0.932311 0.631556 0.000000
0.955047 0.649775 0.108644
0.973968 0.667628 0.175479
0.989471 0.685695 0.235874
1.000000 0.703304 0.293706
1.000000 0.716701 0.349248
1.000000 0.731014 0.408240
1.000000 0.747768 0.471229
1.000000 0.767544 0.538323
1.000000 0.790127 0.606378
0.011566 0.315160 0.152071
0.014496 0.316777 0.152468
0.020630 0.319158 0.152865
0.032502 0.324102 0.153445
0.052430 0.331762 0.154421
0.067964 0.342107 0.154910
0.083253 0.354742 0.153994
0.057465 0.364965 0.129152
0.057313 0.376013 0.109499
0.077028 0.387701 0.089204
0.100771 0.400153 0.059815
0.208072 0.427558 0.001526
0.311955 0.455848 0.000000
0.418097 0.483009 0.000000
0.523888 0.507958 0.000000
0.596063 0.505333 0.000000
0.681758 0.510826 0.000000
0.742245 0.539757 0.000000
0.791531 0.563104 0.000000
0.833616 0.583948 0.000000
0.870573 0.603876 0.000000
0.902556 0.622705 0.000000
0.929808 0.640681 0.000000
0.952880 0.658228 0.118563
0.972076 0.675441 0.182559
0.987884 0.692958 0.241276
1.000000 0.711391 0.301793
1.000000 0.731380 0.368231
1.000000 0.750576 0.440192
1.000000 0.767514 0.503258
1.000000 0.786984 0.568322
1.000000 0.808804 0.633448
0.018463 0.374243 0.180758
0.026337 0.376623 0.181460
0.048310 0.406165 0.195926
0.061402 0.411048 0.196445
0.074372 0.418585 0.197208
0.089387 0.428016 0.197086
0.106538 0.439643 0.195499
0.097475 0.449836 0.176120
0.078828 0.459541 0.144930
0.097841 0.469306 0.122744
0.122469 0.479133 0.094209
0.185885 0.494484 0.055695
0.303410 0.519921 0.000000
0.415656 0.543389 0.000000
0.523796 0.564538 0.000000
0.624079 0.583032 0.000000
0.684016 0.572015 0.000000
0.757656 0.571344 0.000000
0.805875 0.592279 0.000000
0.845731 0.610071 0.000000
0.879423 0.626368 0.000000
0.909026 0.642542 0.000000
0.934478 0.658381 0.083406
0.955932 0.673915 0.151736
0.973632 0.689113 0.206699
0.988251 0.704677 0.259556
1.000000 0.721126 0.314885
1.000000 0.739315 0.374517
1.000000 0.760647 0.446082
1.000000 0.786648 0.533989
1.000000 0.805386 0.596094
1.000000 0.825895 0.657435
0.053071 0.444709 0.217441
0.061036 0.450538 0.220188
0.067079 0.457008 0.222843
0.077516 0.465156 0.225620
0.091432 0.474250 0.227726
0.107118 0.483619 0.228244
0.124178 0.493660 0.226474
0.132326 0.503532 0.216037
0.104158 0.511742 0.180087
0.111727 0.519158 0.153811
0.134615 0.526818 0.127169
0.161166 0.534234 0.091554
0.262913 0.552636 0.056336
0.379858 0.574121 0.000000
0.489784 0.592950 0.000000
0.591394 0.609186 0.000000
0.683711 0.623865 0.000000
0.735134 0.608820 0.000000
0.799619 0.605005 0.000000
0.841276 0.622705 0.000000
0.876219 0.638361 0.000000
0.906340 0.653742 0.000000
0.932219 0.668879 0.097017
0.954009 0.683772 0.161685
0.972076 0.698543 0.214969
0.986908 0.713710 0.268223
0.998932 0.729824 0.323461
1.000000 0.747524 0.382727
1.000000 0.767453 0.447761
1.000000 0.791684 0.527855
1.000000 0.819486 0.614679
1.000000 0.842588 0.681331
0.080232 0.504021 0.251530
0.085878 0.509697 0.254551
0.093172 0.515709 0.257725
0.102541 0.522942 0.260227
0.116060 0.530907 0.262211
0.131167 0.538567 0.262577
0.147860 0.546715 0.260777
0.166506 0.555535 0.256687
0.146822 0.562402 0.225315
0.133486 0.568933 0.189487
0.152682 0.575006 0.163851
0.176883 0.580682 0.132540
0.214481 0.586786 0.092714
0.342870 0.606287 0.067231
0.457313 0.623011 0.000000
0.561151 0.637385 0.000000
0.654932 0.650202 0.000000
0.739528 0.662257 0.000000
0.783566 0.644068 0.000000
0.839017 0.637598 0.000000
0.874296 0.652338 0.000000
0.904570 0.666468 0.000000
0.930663 0.680751 0.112673
0.952636 0.694881 0.171878
0.970764 0.708919 0.225254
0.985687 0.723323 0.277134
0.997681 0.738735 0.331273
1.000000 0.755764 0.390021
1.000000 0.774929 0.454017
1.000000 0.796628 0.523339
1.000000 0.822934 0.607172
1.000000 0.850828 0.687770
0.113619 0.561181 0.289342
0.119295 0.566308 0.292607
0.125643 0.571984 0.295933
0.135317 0.578363 0.298894
0.148074 0.585199 0.300786
0.161898 0.591424 0.300847
0.177615 0.597711 0.299016
0.195499 0.604639 0.295384
0.192508 0.610925 0.274479
0.165866 0.616602 0.232303
0.176913 0.620874 0.204990
0.197421 0.624811 0.175357
0.221256 0.628016 0.138705
0.299809 0.637324 0.107820
0.421759 0.652735 0.087953
0.530449 0.666224 0.055268
0.628443 0.678737 0.000000
0.716732 0.690822 0.000000
0.795895 0.702876 0.000000
0.833677 0.683070 0.000000
0.881071 0.674830 0.000000
0.910826 0.688075 0.087617
0.935760 0.700984 0.152529
0.957214 0.714626 0.207095
0.974609 0.728420 0.260472
0.988586 0.742611 0.313909
0.999573 0.757778 0.369665
1.000000 0.774411 0.428687
1.000000 0.793149 0.492226
1.000000 0.813809 0.558343
1.000000 0.836210 0.625635
1.000000 0.862333 0.703304
0.169100 0.631159 0.345556
0.172854 0.633539 0.347417
0.177768 0.636042 0.348730
0.184939 0.639216 0.349920
0.195346 0.642908 0.350408
0.207736 0.646906 0.349645
0.222385 0.651514 0.347997
0.239292 0.656916 0.344976
0.252537 0.662928 0.335943
0.228580 0.668086 0.296574
0.218967 0.672816 0.258488
0.234836 0.676051 0.230045
0.254459 0.678370 0.196628
0.278202 0.679896 0.156527
0.393103 0.690913 0.140627
0.507866 0.702296 0.128664
0.608148 0.712612 0.114015
0.697536 0.722560 0.095979
0.776577 0.732448 0.072969
0.845121 0.741421 0.026886
0.875242 0.717891 0.087587
0.913390 0.706508 0.117037
0.936584 0.716854 0.171054
0.955962 0.727260 0.219333
0.973266 0.739834 0.269810
0.987243 0.753231 0.322911
0.998291 0.767727 0.378363
1.000000 0.783810 0.437507
1.000000 0.801755 0.500633
1.000000 0.821592 0.566125
1.000000 0.842741 0.631037
1.000000 0.865568 0.698573
0.218723 0.678065 0.391363
0.222660 0.680262 0.393225
0.227298 0.682490 0.394995
0.234775 0.685084 0.396399
0.243931 0.687953 0.396735
0.254765 0.690791 0.395880
0.268070 0.693965 0.394202
0.283146 0.697658 0.391363
0.301061 0.702205 0.387060
0.287358 0.706630 0.356878
0.260380 0.711330 0.309880
0.270268 0.713954 0.282322
0.284520 0.715816 0.250156
0.303624 0.717128 0.213107
0.350347 0.720089 0.178775
0.473640 0.730465 0.172457
0.578607 0.739895 0.165805
0.670832 0.748836 0.159487
0.752102 0.757717 0.152560
0.823484 0.766964 0.146609
0.881132 0.772152 0.145510
0.908019 0.748806 0.169802
0.939757 0.736172 0.195315
0.958343 0.745510 0.243015
0.970672 0.749905 0.274083
0.984955 0.762295 0.325536
0.996338 0.776059 0.381109
1.000000 0.791348 0.439979
1.000000 0.808499 0.502495
1.000000 0.827512 0.567620
1.000000 0.848051 0.632715
1.000000 0.868498 0.693599
0.292973 0.730556 0.453773
0.297734 0.732601 0.456123
0.301640 0.734066 0.457465
0.307256 0.735531 0.458167
0.314366 0.736934 0.457404
0.323125 0.738399 0.456184
0.333684 0.739986 0.453986
0.345739 0.741817 0.450385
0.359808 0.744015 0.445747
0.359258 0.746670 0.427344
0.331121 0.749752 0.383062
0.319890 0.752041 0.344213
0.326116 0.752956 0.311315
0.337224 0.753231 0.274083
0.353063 0.752682 0.232853
0.434791 0.756710 0.211398
0.544305 0.763851 0.206912
0.638758 0.770901 0.202701
0.721889 0.778561 0.200504
0.795560 0.786984 0.199619
0.859953 0.796017 0.200717
0.908202 0.797513 0.207156
0.931914 0.774075 0.228641
0.957977 0.760098 0.251987
0.972473 0.767575 0.296208
0.984131 0.775357 0.339788
0.995331 0.787716 0.392432
1.000000 0.801724 0.449775
1.000000 0.817624 0.511070
1.000000 0.835447 0.574456
1.000000 0.854765 0.638148
1.000000 0.873899 0.697261
0.351324 0.764981 0.500298
0.355962 0.766751 0.502678
0.359960 0.768032 0.504082
0.365057 0.769162 0.504875
0.371496 0.770199 0.504631
0.379583 0.771359 0.503838
0.389014 0.772671 0.502342
0.400092 0.774258 0.500008
0.413428 0.776181 0.497047
0.427192 0.778531 0.492226
0.401953 0.782010 0.454414
0.376562 0.785702 0.409461
0.377539 0.787228 0.378607
0.382452 0.788174 0.343420
0.392096 0.788449 0.303990
0.406134 0.788174 0.259800
0.518059 0.794095 0.256901
0.615808 0.800381 0.257389
0.700923 0.806973 0.258915
0.775418 0.814145 0.262394
0.840238 0.821744 0.266697
0.896391 0.829496 0.272313
0.934905 0.826596 0.281926
0.954833 0.803342 0.301457
0.975738 0.788571 0.325017
0.986481 0.795224 0.369268
0.994873 0.802365 0.413336
1.000000 0.815366 0.469398
1.000000 0.830411 0.530144
1.000000 0.847227 0.592554
1.000000 0.864958 0.653101
1.000000 0.882628 0.709743
0.420294 0.798917 0.552819
0.423835 0.800076 0.554559
0.426642 0.800687 0.555352
0.430243 0.801205 0.555444
0.434913 0.801663 0.554772
0.440986 0.802152 0.553674
0.448585 0.802884 0.552300
0.458106 0.803861 0.550439
0.469429 0.805295 0.548363
0.482704 0.807095 0.545861
0.471748 0.810086 0.522423
0.446204 0.814237 0.482765
0.433753 0.817014 0.447028
0.432929 0.818631 0.414191
0.435584 0.819486 0.376257
0.443061 0.819821 0.334142
0.488685 0.821500 0.304112
0.590265 0.826719 0.306523
0.677302 0.832212 0.310307
0.752834 0.838193 0.315953
0.818753 0.844419 0.322911
0.875669 0.850889 0.330602
0.924102 0.857328 0.338659
0.954437 0.850767 0.350988
0.971344 0.828428 0.369299
0.988190 0.813840 0.392737
0.996033 0.820066 0.437476
1.000000 0.826963 0.481788
1.000000 0.840299 0.539635
1.000000 0.855985 0.600793
1.000000 0.872038 0.658686
1.000000 0.888426 0.713985
0.484352 0.827024 0.600855
0.486793 0.827695 0.602014
0.489235 0.828183 0.602716
0.492500 0.828733 0.602991
0.497566 0.829404 0.603388
0.504753 0.830503 0.604211
0.514611 0.832273 0.605951
0.526543 0.834501 0.607965
0.540429 0.837247 0.610254
0.555810 0.840391 0.612573
0.562890 0.844083 0.607080
0.543908 0.849424 0.578058
0.525658 0.854520 0.544640
0.520653 0.857725 0.517174
0.517052 0.860349 0.484138
0.516197 0.862119 0.445258
0.519677 0.863493 0.401862
0.590906 0.866423 0.392462
0.676051 0.870298 0.399878
0.749203 0.874418 0.408148
0.812467 0.878782 0.418067
0.866972 0.883299 0.428260
0.913268 0.887877 0.438087
0.952300 0.892485 0.448096
0.974121 0.883024 0.460395
0.987030 0.862699 0.478523
0.999207 0.849302 0.501457
1.000000 0.855070 0.544823
1.000000 0.861631 0.585779
1.000000 0.873930 0.638117
1.000000 0.887724 0.690394
1.000000 0.901610 0.739956
0.574395 0.861936 0.667659
0.576104 0.862303 0.668330
0.577264 0.862486 0.668513
0.579278 0.862638 0.668360
0.582483 0.862882 0.668299
0.586999 0.863310 0.668238
0.593286 0.864103 0.668666
0.601129 0.865263 0.669398
0.610468 0.866728 0.670253
0.621057 0.868498 0.671168
0.631861 0.870298 0.671107
0.617365 0.874113 0.649195
0.596979 0.878477 0.618830
0.584894 0.881712 0.591058
