data/fiter_cube/51215349/1023018/file.cube
# Created by Adobe Lightroom plugin Export LUT (1.17.0)
# www.johnrellis.com/lightroom/exportlut.htm
# Preset: 日系旅行街拍胶片_05 云集后期
# Color profile: C:\Program Files (x86)\Common Files\Adobe\Color\Profiles\Recommended\AdobeRGB1998.icc
LUT_3D_SIZE 8
DOMAIN_MIN 0.000000 0.000000 0.000000
DOMAIN_MAX 0.903226 0.903226 0.903226
0.071992 0.062287 0.083009
0.061189 0.064240 0.082490
0.141482 0.042725 0.077302
0.390539 0.000000 0.032013
0.702846 0.000000 0.000000
0.922179 0.326787 0.000000
1.000000 0.446784 0.000000
1.000000 0.532952 0.000000
0.069764 0.062837 0.080873
0.061341 0.066041 0.080842
0.124453 0.071565 0.074067
0.352605 0.000000 0.032013
0.673091 0.135897 0.000000
0.896117 0.340063 0.000000
1.000000 0.454841 0.000000
1.000000 0.539818 0.000000
0.060273 0.081971 0.073274
0.058808 0.091524 0.072358
0.130159 0.107301 0.067689
0.330053 0.165347 0.000000
0.648280 0.303563 0.000000
0.885161 0.446326 0.000000
1.000000 0.535882 0.000000
1.000000 0.600946 0.195651
0.038270 0.163821 0.089021
0.047608 0.177493 0.089601
0.077913 0.212619 0.060426
0.381018 0.268437 0.000000
0.696345 0.444434 0.000000
0.880308 0.561151 0.000000
0.988128 0.623011 0.032227
1.000000 0.671717 0.310521
0.011566 0.315160 0.152071
0.052430 0.331762 0.154421
0.057313 0.376013 0.109499
0.311955 0.455848 0.000000
0.681758 0.510826 0.000000
0.870573 0.603876 0.000000
0.972076 0.675441 0.182559
1.000000 0.750576 0.440192
0.113619 0.561181 0.289342
0.148074 0.585199 0.300786
0.192508 0.610925 0.274479
0.221256 0.628016 0.138705
0.628443 0.678737 0.000000
0.881071 0.674830 0.000000
0.974609 0.728420 0.260472
1.000000 0.793149 0.492226
0.351324 0.764981 0.500298
0.371496 0.770199 0.504631
0.413428 0.776181 0.497047
0.377539 0.787228 0.378607
0.518059 0.794095 0.256901
0.840238 0.821744 0.266697
0.975738 0.788571 0.325017
1.000000 0.830411 0.530144
0.632197 0.884245 0.710903
0.639185 0.885100 0.711910
0.664637 0.889067 0.716335
0.666499 0.900053 0.687984
0.603388 0.903441 0.549737
0.779141 0.915679 0.523339
0.951659 0.928313 0.576623
1.000000 0.892119 0.631525
0.068971 0.063203 0.075990
0.063081 0.064271 0.075380
0.128573 0.058656 0.072999
0.351781 0.000000 0.038880
0.666163 0.114260 0.000000
0.885344 0.328374 0.000000
0.996460 0.445289 0.000000
1.000000 0.527092 0.000000
0.066011 0.065156 0.075257
0.062593 0.068666 0.074342
0.123629 0.076081 0.071962
0.337652 0.062226 0.037415
0.649805 0.166812 0.000000
0.870787 0.348516 0.000000
0.987030 0.455055 0.000000
1.000000 0.532952 0.000000
0.061006 0.082795 0.075990
0.064057 0.096498 0.080171
0.131136 0.114687 0.072541
0.318059 0.171420 0.048829
0.621607 0.286381 0.000000
0.859098 0.429908 0.000000
0.983673 0.522362 0.000000
1.000000 0.588403 0.138003
0.059724 0.162264 0.103151
0.068666 0.178653 0.109010
0.080110 0.216495 0.083680
0.353460 0.256413 0.019745
0.631098 0.398108 0.000000
0.837949 0.528618 0.000000
0.969451 0.599420 0.000000
1.000000 0.656550 0.258274
0.077150 0.324559 0.179385
0.091768 0.338140 0.181827
0.103700 0.379614 0.149905
0.290593 0.437995 0.070436
0.644923 0.486275 0.000000
0.848020 0.588159 0.000000
0.961089 0.666224 0.204623
1.000000 0.739315 0.413947
0.145663 0.551385 0.305913
0.164431 0.561700 0.307958
0.222110 0.590814 0.302647
0.230106 0.614374 0.178958
0.608331 0.668116 0.108095
0.873167 0.671656 0.111086
0.968872 0.725948 0.291112
1.000000 0.789212 0.497536
0.344701 0.749020 0.497200
0.354314 0.749691 0.494331
0.399786 0.759243 0.491951
0.383490 0.775906 0.397314
0.499062 0.785824 0.276860
0.828183 0.813809 0.286168
0.968261 0.781094 0.333074
1.000000 0.822782 0.521202
0.624842 0.877470 0.707729
0.634821 0.879423 0.710933
0.661982 0.884215 0.716854
0.677668 0.894926 0.701320
0.637507 0.908598 0.597284
0.780819 0.917662 0.552361
0.948211 0.927062 0.589471
1.000000 0.890440 0.635126
0.057160 0.077089 0.091249
0.053590 0.074983 0.102754
0.125826 0.069520 0.113710
0.383490 0.000000 0.102968
0.711360 0.000000 0.045869
0.905241 0.319768 0.000000
1.000000 0.459388 0.000000
1.000000 0.549462 0.108339
0.062440 0.088319 0.095644
0.067536 0.093568 0.105135
0.126589 0.086030 0.120302
0.370672 0.000000 0.111055
0.692164 0.113710 0.066133
0.892424 0.341680 0.000000
0.996277 0.469673 0.000000
1.000000 0.557641 0.124147
0.065644 0.115450 0.113313
0.079408 0.124086 0.121798
0.133974 0.148165 0.146731
0.358404 0.190524 0.146334
0.675471 0.302190 0.121065
0.881041 0.434699 0.076478
0.988739 0.526970 0.113649
1.000000 0.599695 0.218051
0.096101 0.177981 0.150027
0.120272 0.195377 0.166018
0.171695 0.251316 0.200168
0.377081 0.305150 0.174075
0.652918 0.441840 0.190249
0.859281 0.545525 0.208255
0.975586 0.611383 0.257877
1.000000 0.669276 0.355413
0.156374 0.345953 0.249454
0.175479 0.366339 0.262821
0.231022 0.424323 0.289616
0.290349 0.477668 0.218326
0.667750 0.524865 0.199222
0.852415 0.610773 0.256687
0.956054 0.686458 0.374792
1.000000 0.750790 0.507774
0.242924 0.571771 0.388830
0.264225 0.584222 0.398444
0.318853 0.613123 0.411841
0.329168 0.639918 0.334874
0.589990 0.674311 0.268406
0.863432 0.679164 0.289921
0.958679 0.736843 0.421759
1.000000 0.807156 0.593835
0.442390 0.759274 0.576196
0.453742 0.761257 0.577661
0.487556 0.768185 0.578698
0.513817 0.780667 0.547356
0.484962 0.787747 0.385534
0.816007 0.817380 0.406683
0.961975 0.796170 0.464149
0.997040 0.842802 0.622217
0.665888 0.876799 0.743221
0.668360 0.877134 0.742123
0.689784 0.881376 0.746578
0.731777 0.892790 0.758358
0.689937 0.905577 0.676417
0.774807 0.917540 0.614649
0.940337 0.928923 0.652491
0.997070 0.899535 0.693660
0.026581 0.140383 0.204440
0.040101 0.144045 0.225315
0.100496 0.111543 0.271519
0.333684 0.073182 0.273747
0.699031 0.000000 0.307591
0.905394 0.194766 0.283909
0.997375 0.433753 0.308751
1.000000 0.541344 0.336034
0.089845 0.171145 0.218448
0.095277 0.174563 0.235233
0.116579 0.142458 0.279454
0.340368 0.115206 0.285618
0.699092 0.000000 0.313359
0.898711 0.254154 0.291539
0.993683 0.450141 0.312657
1.000000 0.551995 0.343389
0.117708 0.212345 0.241276
0.141909 0.221683 0.250553
0.201419 0.243778 0.284367
0.350469 0.214878 0.314885
0.705684 0.196994 0.323735
0.895872 0.415686 0.348577
0.992309 0.538506 0.388617
1.000000 0.611170 0.422004
0.149752 0.289860 0.291264
0.174685 0.298436 0.299657
0.254643 0.330022 0.331060
0.370886 0.372656 0.374365
0.669154 0.461982 0.390265
0.866331 0.548241 0.413092
0.971466 0.620386 0.454261
1.000000 0.683162 0.513390
0.225345 0.391180 0.348791
0.252445 0.406195 0.362646
0.348272 0.461280 0.415473
0.446784 0.539483 0.471382
0.672786 0.574701 0.433265
0.845701 0.652247 0.496315
0.947234 0.718502 0.566552
1.000000 0.768704 0.625788
0.409033 0.608270 0.519677
0.440314 0.627832 0.542535
0.483101 0.651545 0.565362
0.540673 0.682856 0.582483
0.580316 0.702480 0.480995
0.856504 0.711757 0.512047
0.943877 0.769070 0.604303
0.986297 0.834012 0.705531
0.570947 0.765530 0.672053
0.583612 0.770291 0.678187
0.616083 0.782620 0.691341
0.653437 0.798032 0.697780
0.629328 0.809079 0.617456
0.801785 0.829129 0.577295
0.947997 0.818692 0.620050
0.985077 0.863462 0.719417
0.740475 0.880064 0.799893
0.744900 0.881987 0.801511
0.754482 0.886503 0.802884
0.773159 0.894408 0.804959
0.772885 0.904082 0.780087
0.763119 0.916869 0.693172
0.927764 0.930938 0.727810
0.987854 0.911009 0.760128
0.109010 0.292912 0.423835
0.122377 0.295903 0.442603
0.114961 0.251255 0.486671
0.357153 0.148409 0.546136
0.626520 0.169528 0.526970
0.870909 0.296178 0.548486
0.978851 0.489082 0.596765
1.000000 0.626673 0.642878
0.171023 0.326299 0.434699
0.180789 0.331456 0.453742
0.187015 0.301549 0.497353
0.358343 0.196536 0.551171
0.625574 0.212467 0.531151
0.869871 0.334051 0.556786
0.976837 0.508537 0.602655
1.000000 0.634485 0.645228
0.247196 0.389593 0.457679
0.273686 0.399451 0.467018
0.313481 0.412024 0.504143
0.363561 0.328557 0.559136
0.621271 0.323003 0.544671
0.861112 0.422492 0.574792
0.968231 0.561151 0.616266
1.000000 0.653590 0.644099
0.287449 0.466499 0.503624
0.311803 0.473060 0.509911
0.390906 0.496864 0.533837
0.484596 0.521813 0.572808
0.630182 0.476478 0.585779
0.861662 0.548669 0.622492
0.958556 0.642695 0.648310
1.000000 0.695613 0.653040
0.353277 0.565362 0.567620
0.377752 0.570947 0.574243
0.450050 0.585046 0.592004
0.550469 0.604822 0.618036
0.636866 0.616266 0.635187
0.834287 0.671748 0.658503
0.940490 0.725643 0.685328
0.994476 0.773709 0.711116
0.435767 0.631647 0.604150
0.456306 0.634607 0.608881
0.519615 0.644556 0.624811
0.626368 0.680262 0.672999
0.680232 0.711971 0.692744
0.827939 0.735653 0.675807
0.924651 0.799832 0.735988
0.975097 0.853330 0.782650
0.651240 0.768765 0.739437
0.663691 0.771176 0.743771
0.705806 0.782101 0.760708
0.741939 0.800961 0.778042
0.756649 0.817105 0.775113
0.767758 0.827604 0.699397
0.929168 0.836637 0.733639
0.972961 0.879362 0.790097
0.796292 0.874296 0.837583
0.798245 0.875700 0.838376
0.804746 0.880827 0.841001
0.820951 0.894011 0.848783
0.828977 0.903227 0.844877
0.809384 0.913268 0.797421
0.908904 0.929564 0.786801
0.978027 0.919188 0.811246
0.331395 0.530144 0.688777
0.345464 0.531273 0.698421
0.377600 0.516167 0.723262
0.409339 0.417334 0.752407
0.652338 0.254704 0.774441
0.819242 0.419654 0.725551
0.939788 0.589136 0.748806
0.989685 0.730800 0.814298
0.364355 0.543572 0.683131
0.372992 0.543236 0.690822
0.401709 0.532799 0.714809
0.411688 0.439216 0.743862
0.641718 0.293797 0.768093
0.814115 0.434760 0.723751
0.938109 0.596460 0.750149
0.988739 0.734829 0.815274
0.480812 0.604822 0.699062
0.489357 0.605493 0.702449
0.504417 0.602991 0.721920
0.499763 0.551171 0.751308
0.639033 0.437232 0.772854
0.812924 0.509209 0.736782
0.937072 0.637720 0.767056
0.985962 0.758999 0.825956
0.526513 0.649989 0.723232
0.540612 0.651301 0.724208
0.593042 0.661982 0.733822
0.648432 0.675563 0.761196
0.670436 0.610651 0.787320
0.819394 0.615076 0.766415
0.936919 0.706142 0.798215
0.984924 0.784146 0.829313
0.566796 0.693904 0.743587
0.581933 0.696590 0.746548
0.627863 0.704891 0.755367
0.690578 0.718044 0.768734
0.738247 0.724392 0.781888
0.810056 0.689509 0.779934
0.932982 0.758785 0.814939
0.981994 0.808164 0.822965
0.621973 0.745693 0.772030
0.637629 0.749508 0.776394
0.674220 0.755093 0.783352
0.723507 0.763363 0.793027
0.770626 0.771145 0.801694
0.812558 0.775845 0.807004
0.920775 0.825620 0.826658
0.973480 0.861845 0.838895
0.713802 0.808896 0.813962
0.723751 0.811063 0.816556
0.747280 0.813565 0.820340
0.781247 0.817960 0.826261
0.828367 0.838163 0.844541
0.845670 0.852598 0.846311
0.915618 0.864164 0.830655
0.963500 0.904875 0.860685
0.815274 0.879423 0.863767
0.819364 0.880461 0.864988
0.833799 0.885008 0.869871
0.858183 0.895171 0.880064
0.876280 0.907225 0.888396
0.879240 0.917479 0.884031
0.887327 0.928832 0.843656
0.968200 0.931060 0.864134
0.607630 0.697017 0.830777
0.619562 0.700435 0.836118
0.636866 0.696315 0.845060
0.625696 0.655482 0.858946
0.676234 0.588586 0.871122
0.823636 0.482521 0.878904
0.909880 0.625849 0.839841
0.968383 0.759030 0.860838
0.606867 0.695613 0.822446
0.617121 0.698451 0.827604
0.633478 0.695399 0.837278
0.625544 0.658839 0.850645
0.664210 0.588434 0.862974
0.810880 0.472847 0.870787
0.901640 0.612360 0.830442
0.965942 0.746029 0.852811
0.674922 0.733272 0.829282
0.677455 0.733181 0.831571
0.684596 0.730129 0.838651
0.695186 0.715694 0.851469
0.691218 0.648249 0.862699
0.809354 0.541955 0.872740
0.903075 0.655726 0.840696
0.966888 0.775723 0.865415
0.718288 0.766445 0.839963
0.722377 0.766110 0.839414
0.741878 0.769284 0.840665
0.758297 0.771298 0.853300
0.746487 0.731075 0.866697
0.813870 0.662196 0.877684
0.905730 0.716030 0.856321
0.967346 0.809049 0.878172
0.729305 0.786191 0.843656
0.732479 0.785458 0.842924
0.749325 0.787472 0.843931
0.780484 0.795590 0.849332
0.804562 0.799619 0.859586
0.811093 0.747707 0.872618
0.898009 0.755856 0.859861
0.966094 0.839658 0.887663
0.755215 0.817838 0.854948
0.760586 0.818997 0.855833
0.777890 0.823026 0.858793
0.805447 0.831113 0.864744
0.835660 0.840269 0.871366
0.863035 0.848569 0.880797
0.901793 0.826108 0.879606
0.964569 0.885161 0.905089
0.793942 0.858183 0.873564
0.799710 0.860258 0.875273
0.813230 0.863584 0.878019
0.834470 0.869749 0.883085
0.857206 0.875608 0.887846
0.881865 0.882963 0.893645
0.901335 0.884092 0.894499
0.959594 0.917235 0.906310
0.835966 0.898039 0.894713
0.838621 0.898466 0.895171
0.853696 0.904540 0.900694
0.869169 0.908690 0.904570
0.886717 0.912657 0.908293
0.911589 0.925963 0.919524
0.920836 0.936645 0.921416
0.958618 0.943328 0.911284
0.777890 0.809598 0.899138
0.781765 0.810910 0.901091
0.785855 0.807462 0.904173
0.791196 0.797177 0.911803
0.784848 0.758236 0.920684
0.826017 0.710597 0.929168
0.914580 0.677974 0.934234
0.956176 0.779171 0.911070
0.777401 0.809293 0.896208
0.781155 0.810666 0.898192
0.786191 0.808408 0.901884
0.792538 0.799466 0.909026
0.783322 0.759854 0.918181
0.822873 0.713130 0.926787
0.911101 0.675319 0.931975
0.954833 0.777554 0.909514
0.791958 0.820798 0.893553
0.794003 0.821378 0.895018
0.795773 0.818173 0.897765
0.811337 0.820249 0.907836
0.798093 0.783902 0.916747
0.825834 0.739834 0.924468
0.907713 0.694270 0.931365
0.953796 0.791470 0.911742
0.810056 0.837308 0.893309
0.814969 0.839597 0.894438
0.821622 0.841001 0.896727
0.830198 0.842527 0.904906
0.834867 0.831205 0.914916
0.839414 0.788968 0.924285
0.905608 0.733486 0.933806
0.953521 0.819272 0.917906
0.818265 0.852110 0.896880
0.822293 0.853971 0.898009
0.829770 0.855253 0.898680
0.844114 0.859312 0.901152
0.856931 0.862394 0.909911
0.853788 0.835782 0.921599
0.898802 0.792081 0.933410
0.951965 0.847715 0.923461
0.831601 0.872068 0.902922
0.832425 0.871550 0.902556
0.837522 0.871397 0.902434
0.849332 0.873960 0.904234
0.868101 0.880461 0.908629
0.890410 0.892027 0.921050
0.904723 0.871550 0.937682
0.950958 0.883177 0.931792
0.851957 0.897704 0.913176
0.853025 0.897612 0.913115
0.857694 0.898039 0.913481
0.868803 0.901427 0.916014
0.884916 0.907378 0.920470
0.905791 0.917418 0.927977
0.926055 0.929168 0.939147
0.948119 0.915038 0.938506
0.874357 0.923674 0.925505
0.875395 0.923827 0.925597
0.881010 0.925750 0.927245
0.892729 0.930877 0.931548
0.906401 0.936584 0.936461
0.920378 0.942046 0.941222
0.935760 0.949126 0.947509
0.947356 0.952056 0.950042
