data/fiter_cube/51215349/1023018/file.cube
# Created by Adobe Lightroom plugin Export LUT (1.17.0)
# www.johnrellis.com/lightroom/exportlut.htm
# Preset: 日系旅行街拍胶片_05 云集后期
# Color profile: C:\Program Files (x86)\Common Files\Adobe\Color\Profiles\Recommended\AdobeRGB1998.icc
LUT_3D_SIZE 5
DOMAIN_MIN 0.000000 0.000000 0.000000
DOMAIN_MAX 0.903226 0.903226 0.903226
0.071992 0.062287 0.083009
0.104372 0.058350 0.079500
0.552239 0.000000 0.000000
0.952239 0.364935 0.000000
1.000000 0.532952 0.000000
0.063264 0.073732 0.074281
0.098421 0.090455 0.072755
0.486213 0.188968 0.000000
0.931487 0.451362 0.000000
1.000000 0.588830 0.179324
0.019898 0.229953 0.113954
0.030243 0.266972 0.085878
0.549004 0.401648 0.000000
0.905516 0.600610 0.000000
1.000000 0.709346 0.370092
0.169100 0.631159 0.345556
0.239292 0.656916 0.344976
0.393103 0.690913 0.140627
0.913390 0.706508 0.117037
1.000000 0.801755 0.500633
0.632197 0.884245 0.710903
0.656214 0.887602 0.714656
0.612268 0.896971 0.608606
0.833494 0.918791 0.537346
1.000000 0.892119 0.631525
0.060792 0.070771 0.079896
0.094545 0.067842 0.092134
0.529320 0.000000 0.044862
0.924498 0.358434 0.000000
1.000000 0.542657 0.000000
0.062135 0.093233 0.091310
0.100099 0.115846 0.113283
0.507530 0.192691 0.088319
0.912291 0.436225 0.000000
1.000000 0.585718 0.136995
0.105837 0.242008 0.174594
0.157046 0.299382 0.204074
0.512383 0.395789 0.132387
0.880858 0.595514 0.206271
1.000000 0.709468 0.408484
0.276982 0.643519 0.432471
0.339910 0.669551 0.448554
0.374243 0.697353 0.282567
0.904356 0.713771 0.297856
1.000000 0.813352 0.581964
0.667414 0.882139 0.742702
0.688350 0.885893 0.747036
0.695308 0.902159 0.705592
0.831571 0.922210 0.614099
0.998993 0.900999 0.690242
0.057252 0.205631 0.304112
0.051728 0.180819 0.356542
0.483955 0.096071 0.398779
0.933074 0.244633 0.427649
1.000000 0.573297 0.497200
0.168551 0.278599 0.333196
0.216068 0.295293 0.370428
0.491432 0.229313 0.423835
0.919524 0.393957 0.456031
1.000000 0.608301 0.514824
0.234989 0.426825 0.425025
0.314214 0.450629 0.449042
0.508873 0.504814 0.509056
0.883177 0.628534 0.558129
1.000000 0.730648 0.627436
0.480659 0.661616 0.603174
0.552087 0.679072 0.632105
0.644251 0.729610 0.671107
0.874876 0.753567 0.623224
0.978729 0.848478 0.745754
0.763943 0.874907 0.816526
0.776425 0.881712 0.821836
0.800992 0.897795 0.824460
0.799832 0.917052 0.730800
0.982879 0.913085 0.781704
0.390845 0.570275 0.727169
0.427314 0.566735 0.749599
0.523003 0.428382 0.792081
0.845853 0.473274 0.757382
0.985534 0.732906 0.824582
0.495888 0.620722 0.729763
0.513695 0.619562 0.747341
0.548272 0.522240 0.788968
0.839231 0.525994 0.761685
0.982727 0.748501 0.829221
0.578820 0.689448 0.756222
0.619898 0.696162 0.762203
0.701350 0.708827 0.784482
0.824460 0.645655 0.778164
0.978698 0.799008 0.843595
0.684749 0.782986 0.809354
0.708583 0.784817 0.811734
0.776974 0.798123 0.825162
0.840146 0.806638 0.833524
0.969055 0.875181 0.856260
0.816617 0.880308 0.868894
0.831876 0.885496 0.874144
0.873594 0.903593 0.891295
0.892485 0.923583 0.895445
0.965637 0.933623 0.875700
0.777890 0.809598 0.899138
0.784054 0.808316 0.902983
0.783352 0.777951 0.916472
0.844663 0.693538 0.931670
0.956176 0.779171 0.911070
0.790036 0.819333 0.895445
0.795041 0.818845 0.899382
0.802426 0.801175 0.912963
0.841703 0.716823 0.927886
0.954498 0.789334 0.911894
0.813352 0.843931 0.894804
0.821164 0.845243 0.895415
0.840696 0.849363 0.905608
0.848508 0.795315 0.923095
0.952850 0.833249 0.920684
0.840909 0.881834 0.907652
0.845274 0.881590 0.907500
0.865812 0.886717 0.911070
0.899443 0.900877 0.924956
0.950072 0.890227 0.932982
0.874357 0.923674 0.925505
0.879026 0.924987 0.926574
0.900114 0.934295 0.934508
0.924193 0.943694 0.942687
0.947356 0.952056 0.950042
