data/fiter_cube/35558087/1023149/file.cube
# Created by Adobe Lightroom plugin Export LUT (1.17.0)
# www.johnrellis.com/lightroom/exportlut.htm
# Preset: 明亮通透美食摄影_02 云集
# Color profile: C:\Program Files (x86)\Common Files\Adobe\Color\Profiles\Recommended\AdobeRGB1998.icc
LUT_3D_SIZE 8
DOMAIN_MIN 0.000000 0.000000 0.000000
DOMAIN_MAX 0.903226 0.903226 0.903226
0.000000 0.000000 0.000000
0.129122 0.007965 0.007385
0.306920 0.000000 0.000397
0.514488 0.000000 0.000000
0.683589 0.000000 0.000000
0.810513 0.000000 0.000000
0.917876 0.000000 0.000000
1.000000 0.000000 0.000000
0.000000 0.130037 0.046632
0.120424 0.132143 0.019959
0.332586 0.164828 0.000000
0.533257 0.161410 0.000000
0.693263 0.138857 0.000000
0.814176 0.112612 0.000000
0.918547 0.098634 0.000000
1.000000 0.106355 0.000000
0.000000 0.297368 0.093629
0.000000 0.301122 0.000000
0.268223 0.298466 0.000000
0.555444 0.370489 0.000000
0.738827 0.360357 0.000000
0.844511 0.325689 0.000000
0.940215 0.303441 0.000000
1.000000 0.290776 0.074098
0.000000 0.476509 0.144320
0.000000 0.478157 0.073335
0.145510 0.480385 0.000000
0.427832 0.477882 0.000000
0.682765 0.518791 0.000000
0.887968 0.537987 0.000000
0.966430 0.491279 0.090242
1.000000 0.458656 0.136477
0.000000 0.626947 0.188540
0.000000 0.627741 0.147280
0.000000 0.630488 0.000000
0.292515 0.627527 0.000000
0.548943 0.612512 0.000000
0.759548 0.620386 0.000000
0.948333 0.647578 0.092103
1.000000 0.629572 0.219181
0.000000 0.741176 0.225620
0.000000 0.744381 0.198795
0.000000 0.747005 0.000000
0.108797 0.746395 0.000000
0.424018 0.739132 0.000000
0.652094 0.726009 0.000000
0.842771 0.720241 0.000000
1.000000 0.745907 0.162509
0.000000 0.852506 0.259739
0.000000 0.853696 0.239902
0.000000 0.855283 0.136904
0.000000 0.857542 0.000000
0.280156 0.854795 0.000000
0.543389 0.847288 0.000000
0.754421 0.837003 0.000000
0.938689 0.828824 0.000000
0.000000 0.963104 0.294591
0.000000 0.963684 0.278355
0.000000 0.966186 0.209720
0.000000 0.971832 0.000000
0.119265 0.968627 0.000000
0.411749 0.970245 0.000000
0.666377 0.963928 0.000000
0.865110 0.955200 0.000000
0.000000 0.000000 0.140352
0.128969 0.000000 0.142214
0.281498 0.000000 0.150454
0.462196 0.000000 0.130404
0.649073 0.000000 0.119997
0.784421 0.000000 0.117586
0.900450 0.000000 0.122255
1.000000 0.000000 0.133577
0.000000 0.132143 0.142824
0.117556 0.126192 0.143313
0.282689 0.109438 0.139101
0.485359 0.065827 0.129702
0.662654 0.000000 0.120180
0.791501 0.000000 0.119722
0.902800 0.000000 0.124361
1.000000 0.059174 0.135988
0.000000 0.292485 0.168887
0.000000 0.296178 0.157656
0.262425 0.297032 0.108492
0.556847 0.353704 0.113649
0.710262 0.328557 0.121431
0.822843 0.302708 0.132601
0.923217 0.287419 0.145022
1.000000 0.280949 0.160372
0.000000 0.469825 0.207309
0.000000 0.472236 0.188418
0.114168 0.478462 0.000671
0.418830 0.470192 0.000000
0.676753 0.508080 0.023835
0.868589 0.522301 0.163912
0.950988 0.481147 0.187015
1.000000 0.454170 0.203891
0.000000 0.623224 0.240238
0.000000 0.623651 0.221500
0.000000 0.626917 0.000000
0.269810 0.623285 0.000000
0.542473 0.606561 0.000000
0.758083 0.616754 0.000000
0.945830 0.646601 0.199313
1.000000 0.629084 0.276921
0.000000 0.736690 0.264195
0.000000 0.737453 0.251774
0.000000 0.740291 0.146365
0.084016 0.741939 0.000000
0.414954 0.736233 0.000000
0.650050 0.723995 0.000000
0.843320 0.719661 0.000000
1.000000 0.746059 0.229587
0.000000 0.847288 0.292119
0.000000 0.847074 0.281834
0.000000 0.849332 0.206180
0.000000 0.853849 0.000000
0.277317 0.852171 0.000000
0.538842 0.844724 0.000000
0.751339 0.833433 0.000000
0.934874 0.824094 0.000000
0.000000 0.959655 0.327062
0.000000 0.960571 0.313329
0.000000 0.963378 0.256016
0.000000 0.969268 0.000000
0.125734 0.970886 0.000000
0.408972 0.971313 0.000000
0.665156 0.963195 0.000000
0.864103 0.953582 0.000000
0.000000 0.000000 0.330632
0.138277 0.000000 0.331060
0.293034 0.000000 0.330602
0.457374 0.000000 0.331548
0.617487 0.000000 0.321172
0.740841 0.000000 0.301366
0.859709 0.000000 0.280583
0.982116 0.000000 0.284550
0.000000 0.115663 0.333349
0.072663 0.097963 0.333196
0.283940 0.041871 0.330846
0.454078 0.000000 0.325811
0.614038 0.000000 0.314794
0.737209 0.000000 0.294377
0.864408 0.000000 0.285618
0.983825 0.000000 0.289097
0.000000 0.297856 0.328679
0.000000 0.293736 0.329259
0.244083 0.271946 0.323766
0.443641 0.263951 0.313329
0.620752 0.251713 0.309056
0.763272 0.255619 0.310948
0.887114 0.263493 0.312505
0.994141 0.273106 0.312535
0.000000 0.466133 0.332799
0.000000 0.468421 0.330755
0.174899 0.470253 0.316838
0.410742 0.466621 0.270542
0.690639 0.510857 0.342931
0.821836 0.495644 0.364630
0.921813 0.476081 0.363684
1.000000 0.460609 0.358648
0.000000 0.618799 0.349462
0.000000 0.619562 0.344427
0.000000 0.620142 0.323766
0.260868 0.623102 0.229374
0.541253 0.607233 0.236606
0.772976 0.623713 0.282506
0.947997 0.666957 0.418006
1.000000 0.639857 0.427558
0.000000 0.733822 0.357977
0.000000 0.734249 0.353613
0.000000 0.734615 0.335851
0.086519 0.739467 0.215396
0.391974 0.735531 0.198581
0.647913 0.721462 0.218051
0.850767 0.724392 0.261509
1.000000 0.758389 0.404364
0.000000 0.846433 0.372564
0.000000 0.846281 0.368444
0.000000 0.845914 0.354223
0.000000 0.850034 0.255528
0.283238 0.850675 0.180117
0.531426 0.844938 0.184329
0.753658 0.834379 0.210056
0.940520 0.827115 0.241520
0.000000 0.958923 0.390326
0.000000 0.958740 0.386725
0.000000 0.958740 0.381323
0.000000 0.965515 0.295048
0.153567 0.969879 0.181582
0.419501 0.970703 0.178592
0.664454 0.963592 0.202304
0.866972 0.954101 0.234653
0.000000 0.000000 0.523186
0.122988 0.000000 0.523247
0.293919 0.000000 0.520470
0.456397 0.000000 0.516014
0.605585 0.000000 0.498421
0.728817 0.000000 0.470710
0.844999 0.000000 0.447456
0.958862 0.000000 0.424170
0.000000 0.076387 0.525566
0.000000 0.055879 0.524743
0.274723 0.000000 0.521355
0.451789 0.000000 0.516533
0.604334 0.000000 0.496651
0.726375 0.000000 0.468635
0.842618 0.000000 0.446448
0.957397 0.000000 0.423774
0.000000 0.281407 0.519341
0.000000 0.267582 0.519646
0.189700 0.227756 0.518273
0.431739 0.206485 0.513512
0.598474 0.210147 0.491646
0.722133 0.224399 0.469368
0.841794 0.231449 0.453925
0.955352 0.239811 0.439246
0.000000 0.463020 0.511101
0.000000 0.460609 0.510887
0.126375 0.450782 0.509422
0.393805 0.430488 0.501884
0.579797 0.429175 0.486427
0.705562 0.428840 0.478218
0.850370 0.446479 0.489631
0.973327 0.457313 0.491890
0.000000 0.613672 0.488960
0.000000 0.613306 0.486885
0.000000 0.612207 0.483070
0.350500 0.607050 0.481086
0.537835 0.598230 0.453437
0.783078 0.652186 0.546624
0.908415 0.660609 0.572625
0.998322 0.644038 0.561364
0.000000 0.731350 0.478584
0.000000 0.733303 0.478492
0.000000 0.732113 0.473945
0.294957 0.729519 0.468757
0.424475 0.731228 0.412024
0.651118 0.718929 0.417823
0.864561 0.740352 0.474464
1.000000 0.788357 0.600092
0.000000 0.843595 0.478981
0.000000 0.844022 0.477485
0.000000 0.844633 0.472175
0.241642 0.844114 0.466194
0.336126 0.849088 0.384070
0.528893 0.846006 0.375647
0.758450 0.833524 0.393896
0.948150 0.835233 0.433204
0.000000 0.958740 0.487617
0.000000 0.959106 0.485756
0.000000 0.959594 0.478401
0.206027 0.959167 0.478248
0.282170 0.965606 0.394812
0.451362 0.968200 0.362646
0.666743 0.963165 0.371344
0.872282 0.953521 0.394781
0.000000 0.000000 0.664790
0.077607 0.000000 0.664271
0.267704 0.000000 0.661311
0.424018 0.000000 0.657404
0.579065 0.000000 0.652979
0.715846 0.000000 0.631617
0.834775 0.000000 0.603326
0.951415 0.000000 0.577996
0.000000 0.000000 0.664454
0.000000 0.000000 0.664454
0.246067 0.000000 0.661707
0.415320 0.000000 0.657343
0.575555 0.000000 0.652247
0.715053 0.000000 0.631098
0.834073 0.000000 0.602502
0.950774 0.000000 0.577203
0.000000 0.226047 0.661860
0.000000 0.210452 0.661830
0.155489 0.199252 0.659052
0.386175 0.179629 0.654536
0.563500 0.150881 0.648798
0.709255 0.155184 0.627100
0.829374 0.176394 0.599847
0.947265 0.168582 0.574884
0.000000 0.419013 0.652125
0.000000 0.414160 0.651820
0.000000 0.399237 0.651087
0.348760 0.384375 0.648035
0.546838 0.379614 0.642695
0.700526 0.388830 0.623896
0.822263 0.395392 0.601404
0.943511 0.382544 0.576959
0.000000 0.583246 0.641352
0.000000 0.582055 0.641444
0.000000 0.577661 0.640650
0.333989 0.571069 0.637781
0.531731 0.564080 0.629725
0.684291 0.564324 0.616693
0.809323 0.563989 0.607477
0.949554 0.586023 0.620325
0.000000 0.721126 0.617578
0.000000 0.721035 0.617151
0.000000 0.719448 0.614496
0.307164 0.715908 0.610224
0.497139 0.709529 0.606958
0.650477 0.705715 0.588952
0.880980 0.774197 0.687770
0.990082 0.791714 0.718990
0.000000 0.837827 0.598871
0.000000 0.837583 0.598260
0.000000 0.837217 0.596460
0.247715 0.836667 0.594049
0.451057 0.834592 0.590723
0.563592 0.837217 0.548821
0.763363 0.827878 0.553521
0.958343 0.847288 0.607019
0.000000 0.953613 0.597925
0.000000 0.953643 0.596735
0.000000 0.953918 0.592828
0.178744 0.956542 0.587762
0.420417 0.955474 0.587457
0.502434 0.962036 0.524865
0.669093 0.960418 0.520500
0.877775 0.950195 0.535393
0.000000 0.000000 0.778927
0.000000 0.000000 0.778378
0.237339 0.000000 0.775631
0.389685 0.000000 0.772641
0.535241 0.000000 0.768215
0.679896 0.000000 0.763180
0.823606 0.000000 0.755825
0.943297 0.000000 0.728603
0.000000 0.000000 0.776547
0.000000 0.000000 0.775937
0.214939 0.000000 0.773892
0.379431 0.000000 0.770535
0.529778 0.000000 0.766293
0.677028 0.000000 0.761715
0.822324 0.000000 0.754665
0.942412 0.000000 0.727291
0.000000 0.187839 0.775937
0.000000 0.184909 0.775082
0.124453 0.174838 0.772854
0.351110 0.157168 0.769711
0.517327 0.131380 0.765286
0.671717 0.097078 0.760647
0.820798 0.060517 0.753201
0.941314 0.084016 0.724758
0.000000 0.373846 0.769894
0.000000 0.369482 0.769314
0.000000 0.358251 0.768521
0.319951 0.353979 0.767483
0.505303 0.351141 0.764218
0.666835 0.348394 0.759609
0.818509 0.348119 0.750668
0.939849 0.348791 0.721950
0.000000 0.536309 0.759548
0.000000 0.534661 0.759548
0.000000 0.530358 0.759243
0.303929 0.526940 0.758083
0.496498 0.526177 0.754971
0.658839 0.522942 0.750881
0.809812 0.521996 0.739071
0.934508 0.515801 0.713161
0.000000 0.686030 0.750057
0.000000 0.686091 0.750637
0.000000 0.684779 0.750423
0.291234 0.683345 0.749294
0.484352 0.682277 0.746212
0.650111 0.679591 0.740932
0.799283 0.682948 0.729885
0.926635 0.690028 0.725216
0.000000 0.833677 0.743954
0.000000 0.834012 0.743984
0.000000 0.833402 0.742123
0.264775 0.831815 0.737789
0.462531 0.828946 0.729122
0.623926 0.824887 0.721614
0.771328 0.821073 0.707973
0.972473 0.885435 0.811093
0.000000 0.950561 0.719448
0.000000 0.950469 0.719020
0.000000 0.950500 0.717525
0.207034 0.951385 0.715358
0.416175 0.951965 0.710658
0.588220 0.950866 0.705104
0.697383 0.954681 0.672572
0.887083 0.946593 0.679438
0.000000 0.000000 0.877867
0.000000 0.000000 0.879179
0.207187 0.000000 0.877562
0.359167 0.000000 0.875425
0.499519 0.000000 0.872343
0.637385 0.000000 0.868315
0.774563 0.000000 0.863951
0.928710 0.000000 0.872038
0.000000 0.000000 0.871641
0.000000 0.000000 0.872740
0.182650 0.000000 0.871611
0.346990 0.000000 0.869169
0.490639 0.000000 0.865415
0.628992 0.000000 0.860441
0.765896 0.000000 0.855344
0.919432 0.000000 0.862547
0.000000 0.155825 0.874937
0.000000 0.152590 0.874388
0.074647 0.140688 0.872007
0.318303 0.118532 0.869352
0.476844 0.075624 0.864652
0.623255 0.000000 0.860533
0.766964 0.000000 0.858183
0.925566 0.000000 0.866941
0.000000 0.331060 0.874907
0.000000 0.327062 0.873869
0.000000 0.319371 0.871427
0.284489 0.316289 0.869902
0.463935 0.310552 0.866148
0.620691 0.306584 0.863737
0.770230 0.305913 0.862211
0.928923 0.283299 0.866484
0.000000 0.492256 0.863127
0.000000 0.489601 0.861784
0.000000 0.483375 0.859922
0.251835 0.478340 0.859709
0.447974 0.475044 0.857939
0.610864 0.472786 0.854887
0.763119 0.472236 0.852842
0.924712 0.466285 0.855772
0.000000 0.639673 0.854704
0.000000 0.639124 0.854704
0.000000 0.637446 0.854673
0.243168 0.637049 0.855467
0.444495 0.637507 0.855375
0.613794 0.638911 0.855833
0.769802 0.639582 0.854612
0.924651 0.637140 0.846738
0.000000 0.785641 0.852720
0.000000 0.786587 0.853666
0.000000 0.787076 0.853880
0.245151 0.788876 0.854459
0.440864 0.789731 0.852628
0.607019 0.791531 0.850462
0.771603 0.796017 0.847654
0.918212 0.802182 0.838926
0.000000 0.941924 0.860990
0.000000 0.942046 0.860563
0.000000 0.945708 0.862211
0.215152 0.946868 0.859464
0.422522 0.946075 0.851713
0.592981 0.944640 0.839811
0.754086 0.941863 0.833341
0.897673 0.939239 0.825376
0.000000 0.000000 0.962158
0.000000 0.000000 0.962737
0.171359 0.000000 0.960693
0.326085 0.000000 0.960204
0.462287 0.000000 0.958862
0.594842 0.000000 0.957031
0.728237 0.000000 0.956390
0.861692 0.000000 0.954589
0.000000 0.000000 0.959106
0.000000 0.000000 0.959747
0.144350 0.000000 0.958343
0.314977 0.000000 0.957153
0.455512 0.000000 0.955901
0.590082 0.000000 0.954040
0.723903 0.000000 0.952636
0.858030 0.000000 0.950927
0.000000 0.093202 0.957305
0.000000 0.087861 0.957366
0.000000 0.055024 0.954955
0.281102 0.000000 0.956878
0.438392 0.000000 0.954803
0.579980 0.000000 0.951690
0.718685 0.000000 0.950530
0.856748 0.000000 0.949889
0.000000 0.265782 0.957153
0.000000 0.265324 0.957610
0.000000 0.260227 0.955962
0.221683 0.253849 0.955566
0.413642 0.243931 0.954467
0.568780 0.229648 0.952422
0.715328 0.215122 0.951629
0.859403 0.203037 0.951934
0.000000 0.437873 0.951537
0.000000 0.436316 0.952453
0.000000 0.427192 0.952087
0.109438 0.409674 0.953033
0.379950 0.404639 0.950988
0.552758 0.399786 0.949126
0.711025 0.401038 0.949554
0.864164 0.410986 0.953246
0.000000 0.589471 0.946746
0.000000 0.587427 0.946014
0.000000 0.581567 0.944732
0.010956 0.573754 0.944671
0.361456 0.569024 0.946075
0.548608 0.569818 0.949950
0.719875 0.579644 0.955108
0.878080 0.592645 0.960235
0.000000 0.739437 0.948943
0.000000 0.738674 0.948608
0.000000 0.736782 0.948028
0.100649 0.736416 0.948882
0.375189 0.737819 0.950469
0.556298 0.741329 0.953643
0.731685 0.750362 0.956085
0.882841 0.753170 0.954528
0.000000 0.893156 0.954131
0.000000 0.892973 0.953735
0.000000 0.893553 0.953460
0.163302 0.896300 0.954223
0.390265 0.899809 0.954711
0.563104 0.904387 0.954498
0.733883 0.910460 0.953399
0.899504 0.917266 0.949828
