data/fiter_cube/35558087/1023149/file.cube
# Created by Adobe Lightroom plugin Export LUT (1.17.0)
# www.johnrellis.com/lightroom/exportlut.htm
# Preset: 明亮通透美食摄影_02 云集
# Color profile: C:\Program Files (x86)\Common Files\Adobe\Color\Profiles\Recommended\AdobeRGB1998.icc
LUT_3D_SIZE 5
DOMAIN_MIN 0.000000 0.000000 0.000000
DOMAIN_MAX 0.903226 0.903226 0.903226
0.000000 0.000000 0.000000
0.257481 0.000000 0.006378
0.608667 0.000000 0.000000
0.839506 0.000000 0.000000
1.000000 0.000000 0.000000
0.000000 0.253178 0.082551
0.229679 0.254978 0.000000
0.661219 0.321233 0.000000
0.862577 0.269871 0.000000
1.000000 0.249058 0.061769
0.000000 0.558740 0.167910
0.000000 0.562219 0.000000
0.495766 0.553521 0.000000
0.877745 0.594171 0.000000
1.000000 0.543481 0.174136
0.000000 0.771023 0.235019
0.000000 0.774197 0.122744
0.245243 0.774014 0.000000
0.677852 0.753994 0.000000
0.995697 0.768551 0.111360
0.000000 0.963104 0.294591
0.000000 0.965270 0.234501
0.000000 0.968292 0.000000
0.485420 0.968933 0.000000
0.865110 0.955200 0.000000
0.000000 0.000000 0.279026
0.250248 0.000000 0.281285
0.543053 0.000000 0.282048
0.772274 0.000000 0.239597
0.987518 0.000000 0.245884
0.000000 0.255314 0.281193
0.209293 0.232853 0.277501
0.546929 0.206455 0.262608
0.804135 0.205173 0.263096
0.997772 0.225437 0.267247
0.000000 0.550378 0.310918
0.000000 0.552392 0.283360
0.482826 0.544121 0.194461
0.877012 0.598077 0.336126
1.000000 0.548699 0.351446
0.000000 0.766873 0.337957
0.000000 0.768399 0.318151
0.238468 0.772274 0.144106
0.676143 0.752224 0.164218
0.997009 0.773800 0.319066
0.000000 0.961242 0.372473
0.000000 0.961486 0.362097
0.000000 0.970947 0.127413
0.478706 0.970825 0.126589
0.867704 0.955718 0.197452
0.000000 0.000000 0.601312
0.242161 0.000000 0.598413
0.523430 0.000000 0.591089
0.752682 0.000000 0.545251
0.955291 0.000000 0.501732
0.000000 0.199649 0.599603
0.122530 0.168460 0.597436
0.509728 0.097871 0.589654
0.747311 0.122927 0.541558
0.953307 0.126436 0.502220
0.000000 0.528130 0.581964
0.000000 0.521691 0.581079
0.466438 0.501640 0.571466
0.724575 0.503532 0.551232
0.961120 0.528679 0.562829
0.000000 0.756588 0.541192
0.000000 0.755428 0.538598
0.392096 0.751644 0.536553
0.679957 0.743648 0.501396
0.997253 0.814328 0.655879
0.000000 0.955413 0.540612
0.000000 0.956634 0.535973
0.324773 0.957153 0.531395
0.514885 0.964935 0.442939
0.873960 0.951171 0.464942
0.000000 0.000000 0.803220
0.187228 0.000000 0.801694
0.453407 0.000000 0.796231
0.703182 0.000000 0.788357
0.939666 0.000000 0.764645
0.000000 0.136507 0.800839
0.000000 0.120516 0.799008
0.432654 0.017029 0.793851
0.697383 0.000000 0.786069
0.937438 0.000000 0.760708
0.000000 0.445045 0.789609
0.000000 0.436957 0.788602
0.395727 0.426856 0.784451
0.681117 0.417517 0.773587
0.932586 0.419715 0.750484
0.000000 0.712673 0.777768
0.000000 0.710994 0.776913
0.383795 0.710231 0.775082
0.680018 0.708431 0.767758
0.923156 0.716243 0.751797
0.000000 0.949462 0.751827
0.000000 0.949798 0.749844
0.331518 0.951171 0.747341
0.631250 0.949889 0.737636
0.889555 0.945068 0.715846
0.000000 0.000000 0.962158
0.119722 0.000000 0.961120
0.395178 0.000000 0.959777
0.628168 0.000000 0.956909
0.861692 0.000000 0.954589
0.000000 0.000000 0.958984
0.000000 0.000000 0.958068
0.370794 0.000000 0.956725
0.617884 0.000000 0.952544
0.858488 0.000000 0.951629
0.000000 0.355077 0.954620
0.000000 0.342107 0.954223
0.299168 0.326909 0.951537
0.595270 0.308995 0.947326
0.860380 0.312169 0.951629
0.000000 0.629511 0.949462
0.000000 0.624872 0.948150
0.260472 0.616205 0.948058
0.591241 0.612024 0.950713
0.878538 0.631312 0.958648
0.000000 0.893156 0.954131
0.000000 0.893217 0.953429
0.294469 0.898100 0.954589
0.605341 0.905821 0.954376
0.899504 0.917266 0.949828
