data/fiter_cube/35558087/1023149/file.cube
# Created by Adobe Lightroom plugin Export LUT (1.17.0)
# www.johnrellis.com/lightroom/exportlut.htm
# Preset: 明亮通透美食摄影_02 云集
# Color profile: C:\Program Files (x86)\Common Files\Adobe\Color\Profiles\Recommended\AdobeRGB1998.icc
LUT_3D_SIZE 32
DOMAIN_MIN 0.0 0.0 0.0
DOMAIN_MAX 1.0 1.0 1.0
0.000000 0.000000 0.000000
0.043183 0.001038 0.000946
0.070161 0.002167 0.002808
0.095186 0.005005 0.005676
0.129122 0.007965 0.007385
0.167819 0.007935 0.009888
0.210788 0.004547 0.009155
0.257481 0.000000 0.006378
0.306920 0.000000 0.000397
0.358343 0.000000 0.000000
0.410803 0.000000 0.000000
0.463233 0.000000 0.000000
0.514488 0.000000 0.000000
0.563928 0.000000 0.000000
0.608667 0.000000 0.000000
0.648188 0.000000 0.000000
0.683589 0.000000 0.000000
0.716762 0.000000 0.000000
0.747738 0.000000 0.000000
0.779812 0.000000 0.000000
0.810513 0.000000 0.000000
0.839506 0.000000 0.000000
0.866941 0.000000 0.000000
0.893004 0.000000 0.000000
0.917876 0.000000 0.000000
0.941955 0.000000 0.000000
0.965637 0.000000 0.000000
0.988891 0.000000 0.000000
1.000000 0.000000 0.000000
1.000000 0.000000 0.009247
1.000000 0.000000 0.051118
1.000000 0.000000 0.074952
0.000000 0.045777 0.006043
0.037201 0.046509 0.002808
0.069795 0.043366 0.002716
0.096040 0.041932 0.005798
0.130495 0.045197 0.009522
0.169924 0.048920 0.009277
0.213291 0.048676 0.008026
0.259525 0.047578 0.006043
0.308873 0.039673 0.000000
0.360327 0.026947 0.000000
0.412360 0.004242 0.000000
0.464515 0.000000 0.000000
0.515404 0.000000 0.000000
0.564508 0.000000 0.000000
0.608789 0.000000 0.000000
0.648341 0.000000 0.000000
0.683650 0.000000 0.000000
0.716579 0.000000 0.000000
0.747433 0.000000 0.000000
0.779355 0.000000 0.000000
0.809659 0.000000 0.000000
0.838407 0.000000 0.000000
0.865721 0.000000 0.000000
0.891691 0.000000 0.000000
0.916655 0.000000 0.000000
0.940795 0.000000 0.000000
0.964508 0.000000 0.000000
0.987854 0.000000 0.000000
1.000000 0.000000 0.000000
1.000000 0.000000 0.004211
1.000000 0.000000 0.046387
1.000000 0.000000 0.072602
0.000000 0.069978 0.014130
0.017456 0.071046 0.004730
0.063905 0.069703 0.006775
0.095674 0.069184 0.009461
0.132937 0.072572 0.011139
0.172854 0.075410 0.010285
0.216464 0.076967 0.007233
0.262852 0.077729 0.002441
0.312230 0.076844 0.000000
0.363165 0.073487 0.000000
0.415259 0.068269 0.000000
0.467109 0.059236 0.000000
0.517754 0.028809 0.000000
0.566552 0.000000 0.000000
0.610468 0.000000 0.000000
0.649714 0.000000 0.000000
0.684779 0.000000 0.000000
0.717494 0.000000 0.000000
0.748409 0.000000 0.000000
0.779873 0.000000 0.000000
0.809842 0.000000 0.000000
0.838529 0.000000 0.000000
0.865721 0.000000 0.000000
0.891600 0.000000 0.000000
0.916411 0.000000 0.000000
0.940520 0.000000 0.000000
0.964202 0.000000 0.000000
0.987549 0.000000 0.000000
1.000000 0.000000 0.000000
1.000000 0.000000 0.006134
1.000000 0.000000 0.049073
1.000000 0.006470 0.072724
0.000000 0.096254 0.026001
0.004120 0.097444 0.011322
0.039399 0.097993 0.011292
0.089235 0.097505 0.015930
0.129091 0.101045 0.014923
0.179110 0.110994 0.007752
0.224399 0.114717 0.002625
0.271305 0.116915 0.000000
0.320287 0.117494 0.000000
0.371130 0.117372 0.000000
0.422614 0.115633 0.000000
0.474037 0.112917 0.000000
0.523949 0.107149 0.000000
0.571832 0.100832 0.000000
0.614832 0.090730 0.000000
0.653285 0.081514 0.000000
0.687739 0.068788 0.000000
0.720302 0.056794 0.000000
0.751003 0.025391 0.000000
0.781613 0.000305 0.000000
0.810880 0.000000 0.000000
0.839078 0.000000 0.000000
0.866026 0.000000 0.000000
0.891875 0.000000 0.000000
0.916960 0.000000 0.000000
0.941192 0.000000 0.000000
0.964996 0.000000 0.000000
0.988312 0.000000 0.000000
1.000000 0.000244 0.000000
1.000000 0.035126 0.011048
1.000000 0.066072 0.051514
1.000000 0.085054 0.074464
0.000000 0.130037 0.046632
0.000000 0.130953 0.027619
0.014008 0.131960 0.014649
0.073457 0.132631 0.016327
0.120424 0.132143 0.019959
0.163790 0.135622 0.015869
0.221714 0.150973 0.000000
0.283543 0.162936 0.000000
0.332586 0.164828 0.000000
0.382849 0.165866 0.000000
0.433570 0.165682 0.000000
0.484108 0.164645 0.000000
0.533257 0.161410 0.000000
0.580041 0.157931 0.000000
0.621851 0.152438 0.000000
0.659327 0.145998 0.000000
0.693263 0.138857 0.000000
0.725154 0.131441 0.000000
0.755886 0.125154 0.000000
0.785611 0.118288 0.000000
0.814176 0.112612 0.000000
0.841794 0.107759 0.000000
0.868193 0.102785 0.000000
0.893767 0.099855 0.000000
0.918547 0.098634 0.000000
0.942535 0.097597 0.000000
0.966064 0.098909 0.000000
0.989166 0.101930 0.000000
1.000000 0.106355 0.000000
1.000000 0.112581 0.020996
1.000000 0.119905 0.058747
1.000000 0.129519 0.078065
0.000000 0.167575 0.061891
0.000000 0.168704 0.047822
0.000000 0.169711 0.018097
0.048981 0.170474 0.010193
0.105196 0.170626 0.010864
0.154360 0.169924 0.010040
0.199435 0.171328 0.005158
0.263890 0.192081 0.000000
0.337560 0.211521 0.000000
0.399359 0.219577 0.000000
0.449348 0.219608 0.000000
0.498878 0.218265 0.000000
0.546929 0.216251 0.000000
0.591699 0.212436 0.000000
0.631983 0.207187 0.000000
0.667903 0.201022 0.000000
0.701137 0.194736 0.000000
0.732357 0.188357 0.000000
0.762631 0.182345 0.000000
0.791592 0.176699 0.000000
0.819516 0.171603 0.000000
0.846525 0.166781 0.000000
0.883726 0.167208 0.000000
0.908263 0.164523 0.000000
0.931701 0.162203 0.000000
0.954498 0.160830 0.000000
0.976745 0.160769 0.000000
0.998566 0.160922 0.000000
1.000000 0.163027 0.032807
1.000000 0.165866 0.063569
1.000000 0.170321 0.079103
1.000000 0.176242 0.095644
0.000000 0.210605 0.071809
0.000000 0.211276 0.062074
0.000000 0.212161 0.037720
0.000000 0.213596 0.000000
0.079561 0.214359 0.000000
0.140261 0.213870 0.000000
0.192538 0.212680 0.000000
0.238529 0.210941 0.000000
0.309178 0.235843 0.000000
0.387976 0.259800 0.000000
0.470619 0.280034 0.000000
0.522484 0.279820 0.000000
0.568627 0.276127 0.000000
0.610437 0.270726 0.000000
0.647913 0.263981 0.000000
0.681758 0.256931 0.000000
0.713619 0.249638 0.000000
0.744625 0.242710 0.000000
0.774075 0.236423 0.000000
0.802365 0.230381 0.000000
0.830137 0.225162 0.000000
0.857328 0.220401 0.000000
0.883604 0.217075 0.000000
0.908843 0.213596 0.000000
0.932921 0.210697 0.000000
0.955901 0.208591 0.000000
0.978058 0.207279 0.000000
0.999634 0.206851 0.010529
1.000000 0.206943 0.048341
1.000000 0.208011 0.070436
1.000000 0.210361 0.084932
1.000000 0.214084 0.099947
0.000000 0.253178 0.082551
0.000000 0.253819 0.074159
0.000000 0.254459 0.059663
0.000000 0.256107 0.000000
0.021210 0.256870 0.000000
0.108248 0.257481 0.000000
0.175784 0.256168 0.000000
0.229679 0.254978 0.000000
0.278965 0.253483 0.000000
0.349248 0.276402 0.000000
0.431342 0.303746 0.000000
0.515129 0.326268 0.000000
0.586389 0.337255 0.000000
0.625940 0.329931 0.000000
0.661219 0.321233 0.000000
0.693660 0.312108 0.000000
0.725185 0.304143 0.000000
0.755001 0.296025 0.000000
0.782864 0.288518 0.000000
0.809842 0.281590 0.000000
0.836484 0.275303 0.000000
0.862577 0.269871 0.000000
0.888060 0.265354 0.000000
0.912505 0.260990 0.000000
0.935943 0.257267 0.000000
0.958373 0.254520 0.000000
0.980041 0.252018 0.000000
1.000000 0.250065 0.030213
1.000000 0.249058 0.061769
1.000000 0.248844 0.077607
1.000000 0.249699 0.092103
1.000000 0.251774 0.106752
0.000000 0.297368 0.093629
0.000000 0.297826 0.086244
0.000000 0.298466 0.074922
0.000000 0.299687 0.017517
0.000000 0.301122 0.000000
0.076265 0.301457 0.000000
0.145754 0.301549 0.000000
0.212375 0.300145 0.000000
0.268223 0.298466 0.000000
0.318242 0.295598 0.000000
0.387884 0.316442 0.000000
0.472053 0.346441 0.000000
0.555444 0.370489 0.000000
0.629999 0.384497 0.000000
0.676570 0.381140 0.000000
0.708431 0.370428 0.000000
0.738827 0.360357 0.000000
0.766995 0.350835 0.000000
0.793301 0.341405 0.000000
0.818997 0.332860 0.000000
0.844511 0.325689 0.000000
0.869657 0.319097 0.000000
0.893980 0.313237 0.000000
0.917571 0.308171 0.000000
0.940215 0.303441 0.000000
0.961975 0.299290 0.000000
0.983001 0.295811 0.019806
1.000000 0.292912 0.056550
1.000000 0.290776 0.074098
1.000000 0.289403 0.087709
1.000000 0.288975 0.100832
1.000000 0.289708 0.114809
0.000000 0.342107 0.106050
0.000000 0.342382 0.099794
0.000000 0.342901 0.088594
0.000000 0.343999 0.058167
0.000000 0.345586 0.000000
0.000000 0.345983 0.000000
0.111147 0.346258 0.000000
0.184268 0.345525 0.000000
0.249821 0.343908 0.000000
0.306737 0.342016 0.000000
0.357610 0.338170 0.000000
0.423926 0.354223 0.000000
0.510002 0.386786 0.000000
0.590509 0.410315 0.000000
0.660334 0.423468 0.000000
0.722377 0.430243 0.000000
0.754147 0.419532 0.000000
0.780697 0.407233 0.000000
0.805570 0.396002 0.000000
0.829923 0.385626 0.000000
0.854002 0.376684 0.000000
0.877562 0.368566 0.000000
0.900664 0.361456 0.000000
0.922881 0.354620 0.000000
0.944579 0.348882 0.000000
0.965515 0.343603 0.010132
0.985992 0.338994 0.050111
1.000000 0.335180 0.071260
1.000000 0.331945 0.086000
1.000000 0.329625 0.099245
1.000000 0.328222 0.112093
1.000000 0.327886 0.125765
0.000000 0.386023 0.118807
0.000000 0.386328 0.112978
0.000000 0.386877 0.103670
0.000000 0.387671 0.079042
0.000000 0.389105 0.000000
0.000000 0.390356 0.000000
0.054932 0.390600 0.000000
0.144259 0.390845 0.000000
0.222446 0.389532 0.000000
0.287877 0.387671 0.000000
0.345495 0.385504 0.000000
0.397925 0.382055 0.000000
0.458839 0.391150 0.000000
0.546044 0.425849 0.000000
0.622705 0.448127 0.000000
0.688258 0.459937 0.000000
0.747433 0.466438 0.000000
0.793942 0.465126 0.000000
0.817502 0.451270 0.000000
0.840635 0.439002 0.000000
0.863523 0.428290 0.000000
0.885985 0.418433 0.000000
0.908019 0.409827 0.000000
0.929473 0.402045 0.000000
0.950256 0.395026 0.003479
0.970367 0.388464 0.051514
0.989960 0.382696 0.073182
1.000000 0.377783 0.087556
1.000000 0.373449 0.100404
1.000000 0.369909 0.112032
1.000000 0.367437 0.124117
1.000000 0.365942 0.136355
0.000000 0.430091 0.131319
0.000000 0.430274 0.126009
0.000000 0.430640 0.117769
0.000000 0.431434 0.097292
0.000000 0.432807 0.031067
0.000000 0.434424 0.000000
0.000000 0.434791 0.000000
0.105318 0.434974 0.000000
0.180941 0.435065 0.000000
0.260807 0.433234 0.000000
0.326085 0.431312 0.000000
0.384863 0.429633 0.000000
0.447639 0.435096 0.000000
0.502770 0.435798 0.000000
0.588281 0.470008 0.000000
0.660365 0.489326 0.000000
0.723568 0.500664 0.000000
0.779385 0.506432 0.000000
0.828489 0.507805 0.000000
0.860533 0.499733 0.000000
0.881376 0.486122 0.000000
0.901884 0.474098 0.000000
0.922026 0.463172 0.000000
0.941650 0.453376 0.034607
0.960876 0.444495 0.069551
0.979583 0.436622 0.085969
0.997925 0.429328 0.099672
1.000000 0.422797 0.110994
1.000000 0.417243 0.121614
1.000000 0.412451 0.132113
1.000000 0.408728 0.142641
1.000000 0.405982 0.154543
0.000000 0.476509 0.144320
0.000000 0.476722 0.139254
0.000000 0.476905 0.131350
0.000000 0.477272 0.113161
0.000000 0.478157 0.073335
0.000000 0.479194 0.000000
0.000000 0.479927 0.000000
0.000000 0.479866 0.000000
0.145510 0.480385 0.000000
0.223606 0.480842 0.000000
0.301457 0.480079 0.000000
0.367651 0.478981 0.000000
0.427832 0.477882 0.000000
0.484565 0.476051 0.000000
0.536461 0.472602 0.000000
0.613733 0.500206 0.000000
0.682765 0.518791 0.000000
0.743618 0.530022 0.000000
0.797269 0.535882 0.000000
0.845274 0.538170 0.000000
0.887968 0.537987 0.000000
0.910338 0.525750 0.000000
0.929351 0.512963 0.029023
0.948119 0.501579 0.071321
0.966430 0.491279 0.090242
0.984314 0.481758 0.104036
1.000000 0.473182 0.116243
1.000000 0.465583 0.127474
1.000000 0.458656 0.136477
1.000000 0.452796 0.146700
1.000000 0.447913 0.156405
1.000000 0.444099 0.168063
0.000000 0.517845 0.156222
0.000000 0.517998 0.151064
0.000000 0.518120 0.144564
0.000000 0.518547 0.128420
0.000000 0.519371 0.096101
0.000000 0.520806 0.000000
0.000000 0.522576 0.000000
0.000000 0.522667 0.000000
0.091310 0.522972 0.000000
0.181827 0.523613 0.000000
0.264378 0.523064 0.000000
0.339208 0.521752 0.000000
0.404334 0.519982 0.000000
0.463691 0.517845 0.000000
0.519280 0.514946 0.000000
0.570642 0.510826 0.000000
0.636103 0.527398 0.000000
0.702724 0.545647 0.000000
0.761990 0.557214 0.000000
0.814694 0.563806 0.000000
0.861723 0.566766 0.000000
0.903319 0.567224 0.000000
0.937224 0.563775 0.073060
0.955138 0.550713 0.094942
0.972534 0.538720 0.111879
0.989593 0.527642 0.124300
1.000000 0.517693 0.135134
1.000000 0.508690 0.145235
1.000000 0.500694 0.154086
1.000000 0.493660 0.163210
1.000000 0.487617 0.172824
1.000000 0.482673 0.183566
0.000000 0.558740 0.167910
0.000000 0.558923 0.163577
0.000000 0.558953 0.157473
0.000000 0.559319 0.143069
0.000000 0.559777 0.115358
0.000000 0.560540 0.046448
0.000000 0.561730 0.000000
0.000000 0.562219 0.000000
0.000000 0.562127 0.000000
0.140475 0.562249 0.000000
0.215030 0.562737 0.000000
0.302403 0.560998 0.000000
0.374243 0.559075 0.000000
0.437659 0.556603 0.000000
0.495766 0.553521 0.000000
0.549920 0.549615 0.000000
0.601282 0.545647 0.000000
0.656123 0.552239 0.000000
0.721553 0.571099 0.000000
0.780179 0.583429 0.000000
0.831937 0.590692 0.000000
0.877745 0.594171 0.000000
0.918212 0.594934 0.008026
0.953887 0.593957 0.103395
0.978759 0.586542 0.133608
0.995026 0.574121 0.145693
1.000000 0.562829 0.155795
1.000000 0.552728 0.165347
1.000000 0.543481 0.174136
1.000000 0.535393 0.183322
1.000000 0.528283 0.192813
1.000000 0.522332 0.203433
0.000000 0.595117 0.178958
0.000000 0.595361 0.175296
0.000000 0.595392 0.169436
0.000000 0.595758 0.156497
0.000000 0.596216 0.132052
0.000000 0.596918 0.086946
0.000000 0.598016 0.000000
0.000000 0.599329 0.000000
0.000000 0.598962 0.000000
0.064454 0.598718 0.000000
0.179507 0.598474 0.000000
0.255039 0.597803 0.000000
0.337346 0.595148 0.000000
0.406073 0.592004 0.000000
0.467353 0.588434 0.000000
0.523674 0.584405 0.000000
0.576471 0.579950 0.000000
0.628656 0.577417 0.000000
0.675502 0.575982 0.000000
0.740749 0.596124 0.000000
0.798764 0.609186 0.000000
0.849638 0.617060 0.000000
0.894438 0.620935 0.000000
0.933715 0.622156 0.069306
0.968200 0.621363 0.124514
0.998322 0.619257 0.163851
1.000000 0.608850 0.179263
1.000000 0.597253 0.188205
1.000000 0.586755 0.196384
1.000000 0.577203 0.204685
1.000000 0.568780 0.213718
1.000000 0.561578 0.223697
0.000000 0.626947 0.188540
0.000000 0.627100 0.185367
0.000000 0.627131 0.180270
0.000000 0.627344 0.168368
0.000000 0.627741 0.147280
0.000000 0.628321 0.112093
0.000000 0.629175 0.000000
0.000000 0.630274 0.000000
0.000000 0.630488 0.000000
0.000000 0.629969 0.000000
0.130343 0.629572 0.000000
0.214267 0.629145 0.000000
0.292515 0.627527 0.000000
0.369177 0.624414 0.000000
0.434943 0.620905 0.000000
0.494118 0.616907 0.000000
0.548943 0.612512 0.000000
0.600732 0.607996 0.000000
0.649958 0.603449 0.000000
0.694759 0.599542 0.000000
0.759548 0.620386 0.000000
0.816861 0.633875 0.000000
0.866484 0.642023 0.000000
0.910094 0.646265 0.000000
0.948333 0.647578 0.092103
0.981659 0.646967 0.142092
1.000000 0.644953 0.180240
1.000000 0.641474 0.210849
1.000000 0.629572 0.219181
1.000000 0.618830 0.227085
1.000000 0.609186 0.235447
1.000000 0.600824 0.245090
0.000000 0.656458 0.198367
0.000000 0.656641 0.194949
0.000000 0.663416 0.193149
0.000000 0.663508 0.182193
0.000000 0.663783 0.163973
0.000000 0.664118 0.134127
0.000000 0.664576 0.075502
0.000000 0.665278 0.000000
0.000000 0.666011 0.000000
0.000000 0.665278 0.000000
0.000000 0.664607 0.000000
0.175998 0.663783 0.000000
0.247379 0.662806 0.000000
0.329625 0.660090 0.000000
0.402197 0.656458 0.000000
0.465583 0.652522 0.000000
0.523430 0.648219 0.000000
0.577203 0.643732 0.000000
0.628138 0.639002 0.000000
0.675898 0.633539 0.000000
0.717556 0.625635 0.000000
0.781338 0.646693 0.000000
0.837278 0.660212 0.000000
0.885557 0.668116 0.000000
0.927459 0.672023 0.000000
0.964019 0.673182 0.112886
0.995727 0.672297 0.159701
1.000000 0.669947 0.196384
1.000000 0.666773 0.228489
1.000000 0.660334 0.250675
1.000000 0.649348 0.258244
1.000000 0.639796 0.268132
0.000000 0.686671 0.208438
0.000000 0.687617 0.205661
0.000000 0.688594 0.201358
0.000000 0.689509 0.192447
0.000000 0.690394 0.175753
0.000000 0.691005 0.150301
0.000000 0.691646 0.106508
0.000000 0.692317 0.000000
0.000000 0.693355 0.000000
0.000000 0.693172 0.000000
0.000000 0.692500 0.000000
0.120516 0.691737 0.000000
0.212436 0.690883 0.000000
0.279606 0.689662 0.000000
0.361944 0.686397 0.000000
0.430884 0.682612 0.000000
0.492195 0.678614 0.000000
0.548425 0.674464 0.000000
0.601312 0.670161 0.000000
0.651484 0.665888 0.000000
0.699550 0.661311 0.000000
0.742153 0.654475 0.000000
0.800229 0.670130 0.000000
0.855009 0.683833 0.000000
0.902312 0.691676 0.000000
0.943145 0.695766 0.037263
0.978576 0.696956 0.127291
1.000000 0.696193 0.174075
1.000000 0.693904 0.211582
1.000000 0.690578 0.244999
1.000000 0.686610 0.275181
1.000000 0.678676 0.292882
0.000000 0.714046 0.216831
0.000000 0.714870 0.214603
0.000000 0.715785 0.210727
0.000000 0.716670 0.202518
0.000000 0.717464 0.187625
0.000000 0.718105 0.165469
0.000000 0.718624 0.129610
0.000000 0.719387 0.049561
0.000000 0.720333 0.000000
0.000000 0.720974 0.000000
0.000000 0.720333 0.000000
0.000000 0.719692 0.000000
0.170169 0.718868 0.000000
0.245304 0.717952 0.000000
0.316533 0.716060 0.000000
0.393561 0.712581 0.000000
0.459297 0.708888 0.000000
0.518578 0.705043 0.000000
0.573693 0.701045 0.000000
0.625696 0.697078 0.000000
0.675441 0.693019 0.000000
0.723384 0.689357 0.000000
0.768368 0.684901 0.000000
0.819669 0.693751 0.000000
0.873228 0.707393 0.000000
0.919524 0.715175 0.000000
0.959167 0.719173 0.065797
0.993469 0.720424 0.140719
1.000000 0.719478 0.187991
1.000000 0.717128 0.227237
1.000000 0.713619 0.261784
1.000000 0.709682 0.294530
0.000000 0.741176 0.225620
0.000000 0.741970 0.223239
0.000000 0.742824 0.219913
0.000000 0.743648 0.211948
0.000000 0.744381 0.198795
0.000000 0.745022 0.178408
0.000000 0.745510 0.148318
0.000000 0.746181 0.096254
0.000000 0.747005 0.000000
0.000000 0.748135 0.000000
0.000000 0.747799 0.000000
0.000000 0.747127 0.000000
0.108797 0.746395 0.000000
0.209262 0.745541 0.000000
0.275578 0.744594 0.000000
0.351812 0.742214 0.000000
0.424018 0.739132 0.000000
0.487800 0.735866 0.000000
0.545983 0.732570 0.000000
0.600397 0.729274 0.000000
0.652094 0.726009 0.000000
0.701717 0.722621 0.000000
0.749966 0.719692 0.000000
0.797543 0.717830 0.000000
0.842771 0.720241 0.000000
0.894987 0.733639 0.000000
0.939971 0.741238 0.000000
0.978363 0.744961 0.095186
1.000000 0.745907 0.162509
1.000000 0.744686 0.209445
1.000000 0.741909 0.250248
1.000000 0.738277 0.287755
0.000000 0.771023 0.235019
0.000000 0.771450 0.232670
0.000000 0.771817 0.229526
0.000000 0.772213 0.222385
0.000000 0.772610 0.209720
0.000000 0.773007 0.191958
0.000000 0.773495 0.164858
0.000000 0.774197 0.122744
0.000000 0.775113 0.000000
0.000000 0.776272 0.000000
0.000000 0.776822 0.000000
0.000000 0.776333 0.000000
0.000000 0.775723 0.000000
0.166140 0.774960 0.000000
0.245243 0.774014 0.000000
0.305455 0.773098 0.000000
0.386328 0.770077 0.000000
0.455238 0.766995 0.000000
0.516869 0.763851 0.000000
0.573632 0.760647 0.000000
0.627008 0.757351 0.000000
0.677852 0.753994 0.000000
0.726589 0.750607 0.000000
0.774197 0.747616 0.000000
0.824002 0.748196 0.000000
0.863615 0.744472 0.000000
0.914641 0.757626 0.000000
0.958465 0.765164 0.000000
0.995697 0.768551 0.111360
1.000000 0.769253 0.178012
1.000000 0.767697 0.226902
1.000000 0.764401 0.269871
0.000000 0.797696 0.243198
0.000000 0.798123 0.240757
0.000000 0.798520 0.238224
0.000000 0.798856 0.231052
0.000000 0.799283 0.219760
0.000000 0.799619 0.203281
0.000000 0.800076 0.179263
0.000000 0.800626 0.143618
0.000000 0.801450 0.077028
0.000000 0.802487 0.000000
0.000000 0.803738 0.000000
0.000000 0.803281 0.000000
0.000000 0.802701 0.000000
0.101747 0.802029 0.000000
0.209079 0.801358 0.000000
0.277287 0.800595 0.000000
0.342473 0.799283 0.000000
0.418860 0.796506 0.000000
0.484932 0.793668 0.000000
0.544793 0.790768 0.000000
0.600549 0.787869 0.000000
0.653193 0.784939 0.000000
0.703487 0.781918 0.000000
0.751919 0.778805 0.000000
0.797360 0.774350 0.000000
0.849851 0.777859 0.000000
0.884947 0.768826 0.000000
0.934752 0.781827 0.000000
0.977356 0.789090 0.000000
1.000000 0.792111 0.127443
1.000000 0.792477 0.194430
1.000000 0.789853 0.244755
0.000000 0.826566 0.252262
0.000000 0.826993 0.250431
0.000000 0.827298 0.247562
0.000000 0.827543 0.241276
0.000000 0.827756 0.230625
0.000000 0.827970 0.215305
0.000000 0.828244 0.193393
0.000000 0.828611 0.162051
0.000000 0.829099 0.112428
0.000000 0.829831 0.000000
0.000000 0.830716 0.000000
0.000000 0.830777 0.000000
0.000000 0.830106 0.000000
0.000000 0.829313 0.000000
0.164034 0.828367 0.000000
0.245823 0.827420 0.000000
0.307317 0.826474 0.000000
0.377905 0.824552 0.000000
0.449836 0.821897 0.000000
0.513603 0.819272 0.000000
0.571923 0.816739 0.000000
0.626673 0.814115 0.000000
0.678462 0.811368 0.000000
0.727993 0.808377 0.000000
0.775540 0.805234 0.000000
0.821836 0.802243 0.000000
0.876158 0.807767 0.000000
0.908751 0.795254 0.000000
0.957092 0.807675 0.000000
0.998230 0.814450 0.065705
1.000000 0.816587 0.151003
1.000000 0.815183 0.212650
0.000000 0.852506 0.259739
0.000000 0.852934 0.258091
0.000000 0.853239 0.255467
0.000000 0.853483 0.249577
0.000000 0.853696 0.239902
0.000000 0.853971 0.225681
0.000000 0.854276 0.205905
0.000000 0.854704 0.178470
0.000000 0.855283 0.136904
0.000000 0.856138 0.033295
0.000000 0.857115 0.000000
0.000000 0.858000 0.000000
0.000000 0.857542 0.000000
0.000000 0.856931 0.000000
0.097475 0.856260 0.000000
0.210239 0.855497 0.000000
0.280156 0.854795 0.000000
0.337072 0.854154 0.000000
0.413245 0.851957 0.000000
0.481849 0.849638 0.000000
0.543389 0.847288 0.000000
0.600610 0.844877 0.000000
0.654414 0.842374 0.000000
0.705440 0.839750 0.000000
0.754421 0.837003 0.000000
0.801663 0.834073 0.000000
0.847532 0.831174 0.000000
0.900969 0.836332 0.000000
0.938689 0.828824 0.000000
0.982361 0.835904 0.000000
1.000000 0.840940 0.103548
1.000000 0.841367 0.177493
0.000000 0.879393 0.268101
0.000000 0.879698 0.266270
0.000000 0.879881 0.264164
0.000000 0.880034 0.258305
0.000000 0.880125 0.249210
0.000000 0.880339 0.235874
0.000000 0.880552 0.217655
0.000000 0.880949 0.192782
0.000000 0.881559 0.157229
0.000000 0.882322 0.096681
0.000000 0.883360 0.000000
0.000000 0.884611 0.000000
0.000000 0.884642 0.000000
0.000000 0.884215 0.000000
0.000000 0.883665 0.000000
0.166323 0.883055 0.000000
0.249699 0.882444 0.000000
0.312230 0.881926 0.000000
0.372229 0.881193 0.000000
0.447272 0.879088 0.000000
0.513085 0.876982 0.000000
0.573083 0.874846 0.000000
0.629023 0.872618 0.000000
0.681880 0.870329 0.000000
0.732296 0.867887 0.000000
0.780819 0.865415 0.000000
0.827787 0.862882 0.000000
0.873503 0.860349 0.000000
0.926055 0.865110 0.000000
0.967987 0.861814 0.000000
1.000000 0.863096 0.000000
1.000000 0.866606 0.131594
0.000000 0.905791 0.275792
0.000000 0.905974 0.274571
0.000000 0.906157 0.271855
0.000000 0.906340 0.266514
0.000000 0.906584 0.257939
0.000000 0.907012 0.246098
0.000000 0.907652 0.229282
0.000000 0.908537 0.207126
0.000000 0.909667 0.176028
0.000000 0.911040 0.128969
0.000000 0.912566 0.000000
0.000000 0.914336 0.000000
0.000000 0.915435 0.000000
0.000000 0.915465 0.000000
0.000000 0.915282 0.000000
0.107576 0.914916 0.000000
0.218479 0.914549 0.000000
0.288487 0.914214 0.000000
0.346136 0.913970 0.000000
0.412787 0.912993 0.000000
0.483925 0.911070 0.000000
0.547631 0.909178 0.000000
0.606195 0.907195 0.000000
0.661219 0.905119 0.000000
0.713527 0.902983 0.000000
0.763546 0.900816 0.000000
0.811887 0.898680 0.000000
0.858732 0.896361 0.000000
0.903960 0.893797 0.000000
0.955566 0.898009 0.000000
1.000000 0.897612 0.000000
1.000000 0.894133 0.048981
0.000000 0.935790 0.286015
0.000000 0.935973 0.284337
0.000000 0.936004 0.282567
0.000000 0.936126 0.277195
0.000000 0.936278 0.268956
0.000000 0.936553 0.257420
0.000000 0.937011 0.241978
0.000000 0.937652 0.221439
0.000000 0.938476 0.193423
0.000000 0.939483 0.154391
0.000000 0.940703 0.082338
0.000000 0.942107 0.000000
0.000000 0.943603 0.000000
0.000000 0.943481 0.000000
