data/fiter_cube/63078869/1022674/file.cube
# Created by Adobe Lightroom plugin Export LUT (1.17.0)
# www.johnrellis.com/lightroom/exportlut.htm
# Preset: 暗调胶片街拍_03 云集
# Color profile: C:\Program Files (x86)\Common Files\Adobe\Color\Profiles\Recommended\AdobeRGB1998.icc
LUT_3D_SIZE 5
DOMAIN_MIN 0.000000 0.000000 0.000000
DOMAIN_MAX 0.903226 0.903226 0.903226
0.060822 0.071870 0.070588
0.136599 0.080690 0.080720
0.310552 0.121920 0.080568
0.642054 0.210849 0.091890
0.880095 0.294438 0.163302
0.087373 0.114046 0.101900
0.108614 0.122255 0.108858
0.320531 0.174960 0.086885
0.639826 0.258152 0.104341
0.889769 0.338811 0.185794
0.137789 0.192172 0.161410
0.137514 0.182956 0.160128
0.221073 0.236820 0.199863
0.675196 0.397528 0.152529
0.888273 0.442573 0.229282
0.200626 0.279210 0.230076
0.195468 0.266423 0.224216
0.189700 0.245823 0.210880
0.368048 0.373083 0.303258
0.852079 0.603510 0.386969
0.311650 0.461097 0.354589
0.301823 0.440986 0.344305
0.259953 0.360296 0.297429
0.342657 0.442969 0.341192
0.708705 0.674800 0.578241
0.075807 0.098482 0.110658
0.119966 0.100832 0.123445
0.282567 0.141299 0.136782
0.569451 0.209201 0.162966
0.855711 0.290745 0.207034
0.092073 0.128511 0.111238
0.127291 0.145602 0.138186
0.298772 0.188724 0.152224
0.581170 0.251896 0.170047
0.860685 0.329778 0.219577
0.155703 0.212039 0.177737
0.166171 0.209659 0.186831
0.223178 0.241520 0.212314
0.634363 0.381323 0.202762
0.876158 0.445594 0.272740
0.224735 0.304723 0.252201
0.220584 0.292119 0.247501
0.200076 0.252476 0.222690
0.376440 0.382452 0.317662
0.851102 0.609033 0.414252
0.337011 0.487129 0.376074
0.324468 0.466011 0.364263
0.290135 0.400732 0.328374
0.351202 0.454810 0.353338
0.719081 0.686122 0.596338
0.121279 0.183810 0.225254
0.146578 0.174441 0.228489
0.263523 0.195285 0.253849
0.552758 0.158724 0.279973
0.837034 0.305669 0.330175
0.153780 0.224247 0.234318
0.184726 0.226505 0.241611
0.273533 0.230381 0.262821
0.549493 0.224796 0.270726
0.843839 0.345617 0.341680
0.192203 0.271550 0.225681
0.220340 0.282078 0.241154
0.280827 0.303563 0.286046
0.599329 0.388159 0.318486
0.857633 0.466224 0.390051
0.267063 0.373846 0.291356
0.279026 0.368170 0.301335
0.278325 0.331853 0.298222
0.423224 0.429084 0.375555
0.858976 0.627955 0.491188
0.394049 0.554040 0.422705
0.403174 0.549157 0.429786
0.373602 0.493446 0.403540
0.330663 0.423835 0.350256
0.715084 0.685512 0.607630
0.218784 0.339361 0.430488
0.242161 0.327337 0.433845
0.324865 0.287358 0.418158
0.500938 0.300603 0.448310
0.811826 0.387610 0.545220
0.257633 0.385626 0.447608
0.283879 0.376013 0.445197
0.334813 0.321782 0.425147
0.500938 0.327916 0.448127
0.811276 0.398718 0.535912
0.278996 0.451637 0.441627
0.315404 0.453925 0.449470
0.411810 0.452583 0.469886
0.524987 0.421881 0.468574
0.825681 0.469642 0.523949
0.347326 0.502525 0.400977
0.371832 0.505272 0.410346
0.454139 0.526818 0.452064
0.522423 0.526024 0.498573
0.843992 0.652247 0.602960
0.518578 0.674037 0.518761
0.529198 0.671443 0.528466
0.555352 0.660212 0.552758
0.476478 0.553185 0.486641
0.733547 0.709102 0.655177
0.525292 0.616205 0.725032
0.547204 0.613733 0.724025
0.551995 0.562737 0.717067
0.629053 0.485145 0.688685
0.784726 0.554894 0.710414
0.548577 0.640864 0.728542
0.570153 0.639460 0.727871
0.575219 0.594446 0.721523
0.634577 0.514611 0.692409
0.785580 0.573877 0.713069
0.578363 0.694331 0.733242
0.604608 0.696071 0.736904
0.663294 0.693141 0.739376
0.663661 0.609857 0.712764
0.791226 0.632502 0.724788
0.598169 0.756741 0.729488
0.617914 0.755184 0.732204
0.678218 0.753353 0.744259
0.753384 0.753628 0.762997
0.803891 0.716213 0.747982
0.652247 0.769162 0.677668
0.664668 0.770108 0.683803
0.705684 0.775570 0.706264
0.760861 0.785733 0.739498
0.796963 0.780697 0.763485
