data/fiter_cube/63078869/1022674/file.cube
# Created by Adobe Lightroom plugin Export LUT (1.17.0)
# www.johnrellis.com/lightroom/exportlut.htm
# Preset: 暗调胶片街拍_03 云集
# Color profile: C:\Program Files (x86)\Common Files\Adobe\Color\Profiles\Recommended\AdobeRGB1998.icc
LUT_3D_SIZE 32
DOMAIN_MIN 0.0 0.0 0.0
DOMAIN_MAX 1.0 1.0 1.0
0.060822 0.071870 0.070588
0.060822 0.071870 0.070588
0.060822 0.071870 0.070588
0.060822 0.071870 0.070588
0.076753 0.073976 0.072877
0.097597 0.076814 0.075837
0.116854 0.079500 0.078492
0.136599 0.080690 0.080720
0.157565 0.081361 0.081727
0.179873 0.085542 0.082429
0.203311 0.091005 0.082734
0.228031 0.097017 0.082246
0.253819 0.104250 0.081209
0.281315 0.112642 0.080690
0.310552 0.121920 0.080568
0.341802 0.131685 0.079530
0.382055 0.143374 0.079866
0.435431 0.157870 0.081727
0.488838 0.171359 0.083497
0.541894 0.184939 0.085328
0.593256 0.198215 0.088197
0.642054 0.210849 0.091890
0.686580 0.223026 0.097169
0.727138 0.234745 0.102968
0.763668 0.245823 0.110567
0.796567 0.256931 0.120027
0.826719 0.268528 0.131594
0.854429 0.280858 0.145998
0.880095 0.294438 0.163302
0.903716 0.309972 0.184512
0.925353 0.328222 0.209964
0.944854 0.350439 0.241062
0.060822 0.071870 0.070588
0.060822 0.071870 0.070588
0.060822 0.071870 0.070588
0.060822 0.071870 0.070588
0.076753 0.073976 0.072877
0.097261 0.076875 0.075837
0.116152 0.079347 0.078523
0.135592 0.080659 0.080476
0.156405 0.082765 0.081971
0.178408 0.087343 0.082673
0.201541 0.092653 0.083009
0.225803 0.098817 0.082582
0.251225 0.105501 0.081331
0.278202 0.113680 0.080903
0.306828 0.122560 0.080659
0.337499 0.132204 0.080110
0.377142 0.143587 0.080018
0.426947 0.157046 0.082277
0.477760 0.170230 0.083986
0.529503 0.183322 0.085359
0.580438 0.196353 0.087587
0.629084 0.208774 0.090944
0.674220 0.220951 0.095155
0.715724 0.232517 0.101106
0.753536 0.243717 0.107790
0.787900 0.254917 0.116884
0.819577 0.266423 0.128206
0.848478 0.278752 0.142214
0.875181 0.292302 0.159304
0.899687 0.307622 0.180148
0.922026 0.325536 0.205081
0.942107 0.347173 0.235599
0.060822 0.071870 0.070588
0.060822 0.071870 0.070588
0.060822 0.071870 0.070588
0.060822 0.071870 0.070588
0.076326 0.074037 0.072877
0.097322 0.076509 0.075868
0.115389 0.079194 0.078584
0.134768 0.080903 0.080476
0.155367 0.085084 0.081849
0.177188 0.089937 0.082856
0.200351 0.095094 0.083162
0.224338 0.101045 0.082460
0.249699 0.107881 0.081514
0.276555 0.115602 0.080842
0.304936 0.124514 0.080629
0.335210 0.133516 0.080262
0.375189 0.145449 0.080049
0.422766 0.158389 0.082795
0.472084 0.170932 0.084138
0.522972 0.183963 0.086122
0.573816 0.196567 0.088075
0.622614 0.209018 0.090974
0.668147 0.221195 0.094667
0.709987 0.232609 0.100252
0.748318 0.243870 0.106935
0.783352 0.254917 0.115419
0.815732 0.266423 0.126406
0.845335 0.278752 0.140505
0.872618 0.292149 0.157473
0.897581 0.307408 0.177890
0.920226 0.324956 0.202853
0.940581 0.346166 0.232853
0.060822 0.071870 0.070588
0.060822 0.071870 0.070588
0.060822 0.071870 0.070588
0.060822 0.071870 0.070588
0.077516 0.074220 0.072847
0.097444 0.077546 0.076112
0.115694 0.081514 0.078370
0.134920 0.086091 0.080659
0.155215 0.090639 0.082582
0.177035 0.095460 0.083558
0.199863 0.100465 0.083284
0.223667 0.106386 0.082551
0.248692 0.112764 0.081971
0.275120 0.120333 0.081331
0.303258 0.128664 0.080598
0.333318 0.137728 0.080201
0.373754 0.149630 0.081453
0.418677 0.161715 0.083253
0.465339 0.173800 0.084688
0.513848 0.185977 0.086610
0.563195 0.198123 0.088655
0.611597 0.210575 0.091035
0.657954 0.222568 0.095033
0.702022 0.234348 0.099855
0.742885 0.246036 0.106355
0.780362 0.257572 0.115633
0.814420 0.269444 0.126680
0.844846 0.282109 0.140963
0.872313 0.295354 0.158389
0.897154 0.310185 0.178500
0.919524 0.327276 0.202853
0.939574 0.347631 0.231998
0.063447 0.076356 0.073701
0.063691 0.076997 0.074372
0.064485 0.077974 0.074617
0.065309 0.079591 0.076173
0.070954 0.082155 0.078126
0.097597 0.087770 0.076844
0.115816 0.090608 0.079500
0.134401 0.094514 0.081758
0.154452 0.099001 0.083040
0.176120 0.103456 0.083711
0.198581 0.108614 0.084016
0.222202 0.113954 0.083345
0.247013 0.120241 0.082124
0.273381 0.127230 0.081239
0.301518 0.135286 0.080781
0.331853 0.144350 0.080293
0.374151 0.156374 0.082673
0.417823 0.168338 0.084932
0.463508 0.180026 0.086732
0.511284 0.192020 0.087922
0.559503 0.203983 0.089387
0.607019 0.215885 0.092348
0.653162 0.227604 0.095674
0.697505 0.239322 0.100649
0.739071 0.250828 0.107179
0.777340 0.262364 0.115785
0.811826 0.274205 0.127047
0.842618 0.286229 0.141146
0.870329 0.299199 0.157839
0.895323 0.313695 0.178286
0.917876 0.330236 0.202152
0.938140 0.350134 0.231083
0.071687 0.090059 0.083711
0.071870 0.090608 0.084260
0.072145 0.091157 0.084504
0.072908 0.092500 0.085542
0.075624 0.093263 0.088014
0.083986 0.096559 0.089509
0.112032 0.104250 0.085328
0.135744 0.106264 0.082612
0.155764 0.109895 0.084230
0.177066 0.114107 0.084596
0.199588 0.118929 0.084260
0.223178 0.124086 0.083497
0.247715 0.130251 0.082856
0.274083 0.136934 0.081910
0.302373 0.144625 0.081056
0.336278 0.154452 0.082277
0.377081 0.166171 0.084718
0.419593 0.177584 0.087221
0.465248 0.189364 0.088533
0.513024 0.201266 0.090059
0.561669 0.213352 0.091981
0.609857 0.225376 0.094728
0.729458 0.261601 0.111574
0.766476 0.272251 0.120119
0.798856 0.282353 0.129702
0.827268 0.292393 0.141238
0.852689 0.302586 0.154238
0.875792 0.313573 0.169741
0.897154 0.325933 0.187778
0.916869 0.340307 0.209140
0.934874 0.357244 0.234531
0.950958 0.377661 0.264347
0.081178 0.103639 0.094301
0.080995 0.103883 0.094789
0.081239 0.104341 0.095003
0.082033 0.105470 0.095399
0.083467 0.105226 0.097444
0.086885 0.107240 0.097932
0.097444 0.110719 0.100557
0.126589 0.121645 0.097108
0.159884 0.126894 0.088350
0.186007 0.130556 0.085756
0.209232 0.135073 0.084962
0.233555 0.140200 0.083955
0.258915 0.145907 0.082734
0.285863 0.152590 0.081727
0.313725 0.159945 0.083131
0.354314 0.171969 0.086122
0.396429 0.183719 0.088441
0.440742 0.195346 0.090394
0.488350 0.207370 0.092103
0.539147 0.220218 0.094057
0.592065 0.233707 0.097261
0.646143 0.247654 0.101625
0.698451 0.261814 0.107851
0.745876 0.275151 0.116518
0.786465 0.287572 0.126955
0.819455 0.298497 0.139467
0.847196 0.308995 0.153140
0.871397 0.319768 0.168734
0.893462 0.331548 0.186374
0.913451 0.345037 0.207340
0.931792 0.360998 0.231998
0.948241 0.380468 0.261204
0.087373 0.114046 0.101900
0.087282 0.114290 0.102113
0.087526 0.114473 0.102327
0.087953 0.115084 0.102998
0.089143 0.114687 0.104158
0.090852 0.114412 0.105531
0.097108 0.118013 0.105959
0.108614 0.122255 0.108858
0.137697 0.134737 0.106722
0.172305 0.143343 0.097810
0.208377 0.148928 0.086702
0.234806 0.153475 0.084718
0.260105 0.158907 0.083467
0.286381 0.165103 0.084321
0.320531 0.174960 0.086885
0.358099 0.185702 0.089509
0.397314 0.196231 0.092134
0.439551 0.207187 0.094026
0.485573 0.218875 0.095369
0.534905 0.231296 0.097292
0.586847 0.244541 0.100069
0.639826 0.258152 0.104341
0.691585 0.271794 0.109773
0.738979 0.284886 0.117708
0.779904 0.296696 0.128084
0.813718 0.307317 0.139864
0.842191 0.317357 0.152834
0.867124 0.327489 0.168154
0.889769 0.338811 0.185794
0.910277 0.351568 0.206546
0.928985 0.366857 0.231022
0.945800 0.385351 0.259800
0.093416 0.124422 0.109468
0.093385 0.124636 0.109438
0.093294 0.124849 0.109651
0.093782 0.124758 0.110292
0.094972 0.124178 0.111177
0.095888 0.123232 0.112093
0.098268 0.125582 0.111604
0.107546 0.129458 0.114168
0.120027 0.134066 0.117494
0.148867 0.147738 0.117037
0.185245 0.159121 0.108034
0.223026 0.167422 0.097017
0.260716 0.173678 0.087739
0.293858 0.182315 0.088930
0.328069 0.192020 0.091585
0.363592 0.201511 0.094209
0.401648 0.211521 0.096162
0.442756 0.221927 0.097993
0.487495 0.233188 0.099611
0.535851 0.245518 0.100893
0.586694 0.258427 0.103426
0.638697 0.271611 0.107668
0.689479 0.284886 0.113252
0.736172 0.297490 0.121065
0.776944 0.308873 0.130648
0.810788 0.318883 0.141909
0.839445 0.328313 0.155123
0.864622 0.337865 0.169802
0.887327 0.348394 0.187350
0.907927 0.360388 0.207462
0.926726 0.374762 0.231449
0.943603 0.392340 0.260044
0.098787 0.134981 0.116304
0.099092 0.134768 0.116548
0.098970 0.134768 0.116945
0.099672 0.134127 0.117189
0.100282 0.133272 0.117861
0.101228 0.132204 0.118532
0.102327 0.132082 0.118929
0.107851 0.136385 0.118990
0.118532 0.141146 0.122133
0.131746 0.146334 0.126162
0.161044 0.160769 0.127962
0.198856 0.174472 0.119539
0.242130 0.187686 0.111330
0.290410 0.199680 0.100740
0.335119 0.209995 0.097292
0.370794 0.219516 0.099916
0.409644 0.229526 0.101534
0.451728 0.240299 0.102937
0.496376 0.251591 0.104524
0.543297 0.263340 0.105959
0.591638 0.275273 0.108217
0.640192 0.287327 0.112306
0.687526 0.299321 0.117067
0.731685 0.310460 0.123873
0.771176 0.320958 0.132753
0.805264 0.330419 0.143374
0.834775 0.339422 0.156191
0.860960 0.348791 0.171237
0.884611 0.359045 0.189029
0.905974 0.370947 0.209781
0.925261 0.385138 0.234623
0.942535 0.402441 0.263645
0.104372 0.144045 0.123323
0.104402 0.143862 0.123354
0.104646 0.143832 0.123537
0.104982 0.143099 0.123964
0.105409 0.142184 0.124239
0.106081 0.140871 0.124910
0.106905 0.139376 0.125216
0.110018 0.142824 0.124819
0.118257 0.147951 0.127474
0.130587 0.153780 0.131930
0.145907 0.160922 0.137606
0.177584 0.178103 0.142794
0.219242 0.195285 0.136385
0.264897 0.210269 0.128389
0.315587 0.224063 0.118532
0.370397 0.236973 0.107454
0.414832 0.247593 0.107271
0.456275 0.258000 0.108431
0.499977 0.268894 0.109468
0.546014 0.280278 0.110994
0.593347 0.291905 0.113375
0.641260 0.303868 0.116762
0.688075 0.315526 0.121889
0.731716 0.326604 0.128511
0.770718 0.336431 0.137179
0.804196 0.345129 0.147585
0.833249 0.353368 0.159915
0.859098 0.361975 0.174563
0.882536 0.371466 0.192081
0.903807 0.382483 0.212589
0.923186 0.395758 0.236881
0.940490 0.412299 0.265965
0.110719 0.153750 0.130800
0.110933 0.153719 0.130983
0.110964 0.153384 0.131197
0.111269 0.152865 0.131411
0.111666 0.152041 0.131655
0.112306 0.150820 0.132296
0.113252 0.149569 0.132753
0.114717 0.149538 0.132876
0.119417 0.154849 0.133303
0.130953 0.161776 0.138399
0.146029 0.170352 0.145022
0.163760 0.179324 0.152407
0.211795 0.211795 0.171328
0.262516 0.234592 0.165957
0.318975 0.254917 0.158053
0.383154 0.274235 0.146761
0.456001 0.293187 0.130678
0.521111 0.307500 0.121675
0.564294 0.316472 0.122805
0.606409 0.325322 0.124941
0.648768 0.334417 0.128054
0.690425 0.343420 0.132509
0.729549 0.351873 0.138125
0.765591 0.359716 0.145907
0.797574 0.366949 0.155276
0.825528 0.373571 0.166476
0.850126 0.380133 0.179385
0.872251 0.387152 0.194064
0.892546 0.395331 0.211276
0.911345 0.405280 0.231632
0.928496 0.417792 0.255924
0.944121 0.433875 0.285374
0.120394 0.167727 0.141634
0.120363 0.167575 0.141817
0.120272 0.167025 0.141695
0.120424 0.166293 0.141787
0.120333 0.164858 0.141604
0.120485 0.163088 0.141604
0.120821 0.161288 0.141787
0.121920 0.159945 0.142367
0.125948 0.164279 0.143771
0.134524 0.172335 0.147127
0.148928 0.181582 0.154330
0.167086 0.192447 0.162997
0.188540 0.204471 0.173190
0.224674 0.225498 0.184329
0.277958 0.250736 0.180270
0.337407 0.273594 0.173281
0.405005 0.295445 0.162722
0.479896 0.316411 0.147677
0.552728 0.333227 0.131838
0.605524 0.343694 0.130831
0.646876 0.352300 0.133608
0.687739 0.360845 0.137484
0.726162 0.368750 0.142885
0.761715 0.376074 0.150393
0.793484 0.382574 0.159335
0.821439 0.388617 0.169772
0.846189 0.394537 0.182345
0.868589 0.401007 0.196689
0.889158 0.408423 0.213809
0.908263 0.417823 0.234348
0.925750 0.429572 0.258488
0.941650 0.445045 0.288243
0.127504 0.178042 0.149905
0.127504 0.177920 0.150057
0.127596 0.177493 0.150088
0.128023 0.177188 0.150423
0.128389 0.176333 0.150637
0.128603 0.175082 0.150912
0.129305 0.173495 0.151186
0.129671 0.171695 0.151369
0.130739 0.170443 0.151614
0.136629 0.178073 0.153536
0.147982 0.186893 0.158938
0.163943 0.197147 0.167147
0.182986 0.208713 0.176425
0.204929 0.220981 0.186923
0.240604 0.241550 0.198886
0.295140 0.267887 0.194736
0.356237 0.292058 0.187930
0.425971 0.315770 0.177707
0.503075 0.338720 0.163851
0.579583 0.357702 0.147097
0.643030 0.370916 0.140536
0.687098 0.379797 0.143954
0.725124 0.387304 0.149172
0.760433 0.394202 0.156191
0.791958 0.400305 0.165255
0.819760 0.405798 0.175601
0.844450 0.411139 0.187900
0.866789 0.416968 0.202274
0.887388 0.423835 0.219394
0.906554 0.432654 0.239811
0.924071 0.443915 0.264439
0.940032 0.458747 0.294285
0.137789 0.192172 0.161410
0.138003 0.192050 0.161563
0.137942 0.191562 0.161349
0.137758 0.190738 0.161288
0.137758 0.189151 0.161044
0.137453 0.187350 0.160647
0.137545 0.185367 0.160433
0.137514 0.182956 0.160128
0.137423 0.180270 0.159548
0.140505 0.182589 0.160494
0.147463 0.191379 0.163058
0.161440 0.201053 0.170687
0.178408 0.211948 0.179507
0.198337 0.224216 0.189181
0.221073 0.236820 0.199863
0.256168 0.256931 0.212741
0.312505 0.284672 0.208774
0.376287 0.310735 0.202029
0.450111 0.337316 0.192325
0.528862 0.362036 0.179965
0.606043 0.382483 0.165347
0.675196 0.397528 0.152529
0.724819 0.406592 0.155825
0.759457 0.413062 0.162905
0.790890 0.418738 0.171572
0.818906 0.424048 0.182406
0.844144 0.429358 0.195407
0.867155 0.435370 0.210880
0.888273 0.442573 0.229282
0.907652 0.451667 0.251743
0.925261 0.463569 0.278569
0.940978 0.479316 0.311009
0.147494 0.204929 0.171908
0.147463 0.204929 0.172030
0.147402 0.204501 0.171969
0.147311 0.203494 0.171664
0.146975 0.202090 0.171328
0.146792 0.200076 0.170871
0.146456 0.197940 0.170321
0.146242 0.195285 0.169680
0.145571 0.192294 0.168826
0.145113 0.188724 0.167605
0.150820 0.195773 0.170199
0.160159 0.205173 0.174380
0.174868 0.215091 0.182254
0.192294 0.226200 0.191073
0.212558 0.238437 0.200687
0.235599 0.251011 0.211246
0.270207 0.270726 0.225132
0.329290 0.300511 0.221988
0.397559 0.329961 0.216220
0.477241 0.360479 0.207980
0.559258 0.387976 0.197421
0.637293 0.410101 0.185489
0.707759 0.426062 0.172000
0.760678 0.435554 0.172946
0.795315 0.441108 0.182162
0.822721 0.445991 0.193698
0.847349 0.450813 0.207156
0.869688 0.456336 0.223270
0.890043 0.463020 0.242191
0.908598 0.471443 0.264775
0.925353 0.482460 0.291386
0.940246 0.497292 0.323583
0.155886 0.216251 0.181033
0.155673 0.215854 0.180850
0.155642 0.215335 0.180789
0.155215 0.214359 0.180545
0.155001 0.212802 0.179965
0.154391 0.210727 0.179355
0.153872 0.208316 0.178500
0.153262 0.205570 0.177707
0.152468 0.202213 0.176577
0.151492 0.198489 0.174960
0.152743 0.198001 0.174624
0.159976 0.207065 0.178012
0.171511 0.216922 0.183932
0.187167 0.227726 0.192477
0.205447 0.239384 0.201724
0.226535 0.252079 0.211582
0.250492 0.265385 0.222599
0.285435 0.285313 0.238071
0.347997 0.317632 0.235782
0.421698 0.350774 0.230930
0.504723 0.383886 0.223819
0.587182 0.412512 0.215000
0.664179 0.435187 0.205142
0.732265 0.451423 0.195102
0.786282 0.460639 0.190433
0.822934 0.465980 0.202609
0.847471 0.470558 0.216892
0.869718 0.475807 0.233616
0.889982 0.482185 0.253239
0.908324 0.490425 0.276585
0.924865 0.501396 0.304265
0.939422 0.516289 0.337926
0.164340 0.227512 0.190249
0.164462 0.227481 0.190372
0.171328 0.236484 0.197879
0.170840 0.235172 0.197269
0.170077 0.233188 0.196414
0.169100 0.230442 0.195163
0.167910 0.227207 0.193759
0.166506 0.223331 0.191867
0.164797 0.219028 0.189975
0.163058 0.214389 0.187625
0.160861 0.208957 0.184848
0.165316 0.213931 0.186801
0.173800 0.224216 0.190707
0.188022 0.235233 0.198672
0.205417 0.247135 0.207950
0.225559 0.260227 0.217990
0.249058 0.274327 0.228885
0.275456 0.289128 0.241093
0.313024 0.310399 0.259037
0.383337 0.347417 0.257603
0.465370 0.385199 0.253147
0.550988 0.419959 0.247410
0.632013 0.448432 0.240574
0.704738 0.469825 0.233310
0.765621 0.483314 0.226047
0.814084 0.489784 0.219364
0.847562 0.493263 0.230198
0.870909 0.496834 0.246372
0.890043 0.502159 0.265660
0.907866 0.509819 0.289158
0.923949 0.520348 0.317388
0.938170 0.535027 0.351812
0.174258 0.241276 0.201144
0.175204 0.242252 0.202090
0.175906 0.242954 0.202823
0.176425 0.242893 0.203342
0.176242 0.241917 0.203128
0.175692 0.239780 0.202304
0.174472 0.236515 0.200870
0.172824 0.232792 0.199069
0.171176 0.228397 0.196963
0.169192 0.223667 0.194430
0.166873 0.218204 0.191562
0.165072 0.213596 0.188907
0.172885 0.223545 0.193240
0.182773 0.234501 0.198123
0.198428 0.245914 0.207034
0.216648 0.258457 0.216678
0.237797 0.272282 0.227237
0.262516 0.287266 0.238682
0.290623 0.303227 0.251865
0.329381 0.325444 0.272282
0.404883 0.366155 0.272038
0.491615 0.407446 0.269627
0.578668 0.444099 0.266117
0.659236 0.473548 0.261845
0.729122 0.494881 0.257328
0.786313 0.508141 0.253574
0.831449 0.514672 0.250980
0.865721 0.517876 0.256748
0.890227 0.522820 0.279515
0.907500 0.530114 0.303593
0.923095 0.540246 0.332403
0.936950 0.555108 0.368414
0.181582 0.251316 0.209018
0.182315 0.252354 0.209903
0.182956 0.253117 0.210697
0.183322 0.253056 0.211093
0.183200 0.251957 0.210819
0.182376 0.249638 0.209781
0.181125 0.246342 0.208316
0.179477 0.242527 0.206394
0.177707 0.238102 0.204196
0.175479 0.233158 0.201602
0.173098 0.227726 0.198581
0.170230 0.221592 0.195132
0.172366 0.223056 0.195377
0.180911 0.233799 0.200046
0.192935 0.245365 0.206516
0.209567 0.257542 0.215885
0.228977 0.271061 0.226230
0.251682 0.285863 0.237491
0.278325 0.302312 0.250004
0.309056 0.320134 0.264378
0.350011 0.343908 0.287572
0.431952 0.388952 0.289128
0.522423 0.433204 0.288884
0.609186 0.470802 0.287907
0.687556 0.500298 0.286107
0.753628 0.521141 0.284947
0.806058 0.533745 0.284947
0.847684 0.540520 0.286564
0.881621 0.543633 0.290166
0.904845 0.550042 0.316014
0.921630 0.559808 0.347356
0.935210 0.574334 0.383886
0.188968 0.262181 0.217258
0.189822 0.263127 0.217990
0.190433 0.263767 0.218784
0.190677 0.263676 0.219059
0.190463 0.262547 0.218723
0.189517 0.260349 0.217807
0.188266 0.257084 0.216251
0.186465 0.252964 0.214084
0.184451 0.248539 0.211704
0.182193 0.243320 0.208988
0.179477 0.237675 0.205966
0.176486 0.231296 0.202304
0.173037 0.224399 0.197940
0.179843 0.232731 0.201877
0.189212 0.244450 0.206912
0.203708 0.256962 0.215335
0.222263 0.270817 0.225895
0.243992 0.286351 0.237675
0.269963 0.303990 0.251041
0.301122 0.324041 0.266117
0.337621 0.345983 0.283604
0.385718 0.374762 0.312047
0.477699 0.426368 0.316869
0.572137 0.473854 0.320928
0.658717 0.512840 0.324437
0.732509 0.542046 0.328405
0.790951 0.561425 0.333562
0.836149 0.573419 0.340612
0.872129 0.580896 0.349371
0.901122 0.585534 0.359716
0.922576 0.592828 0.383459
0.936950 0.607904 0.425208
0.200626 0.279210 0.230076
0.200870 0.279545 0.230289
0.200900 0.279393 0.230411
0.200748 0.278569 0.230228
0.199832 0.276677 0.229282
0.198795 0.274022 0.227939
0.197269 0.270420 0.226261
0.195468 0.266423 0.224216
0.193362 0.261723 0.221653
0.190951 0.256535 0.218845
0.188113 0.250736 0.215640
0.185061 0.244266 0.211826
0.181186 0.236942 0.207401
0.180423 0.234012 0.205173
0.189700 0.245823 0.210880
0.200320 0.259037 0.216648
0.217960 0.273014 0.227329
0.238804 0.288762 0.239170
0.263310 0.306401 0.252415
0.292638 0.326360 0.267338
0.327489 0.348699 0.284062
0.368048 0.373083 0.303258
0.421057 0.404578 0.334020
0.513054 0.456153 0.341436
0.605829 0.503655 0.347936
0.689143 0.542443 0.354986
0.757992 0.571191 0.363622
0.810971 0.590478 0.374426
0.852079 0.603510 0.386969
0.884581 0.612451 0.400488
0.910857 0.620233 0.417304
0.931914 0.627924 0.436927
0.209018 0.292210 0.239475
0.209262 0.292485 0.239780
0.209567 0.292515 0.240024
0.209171 0.291539 0.239536
0.208408 0.289738 0.238712
0.207095 0.286748 0.237247
0.205356 0.283177 0.235294
0.203494 0.278782 0.232975
0.201114 0.273838 0.230411
0.198581 0.268467 0.227512
0.195712 0.262455 0.224033
0.192264 0.255802 0.220188
0.188388 0.248325 0.215579
0.183871 0.240177 0.210361
0.188540 0.244907 0.212558
0.198856 0.258122 0.218875
0.212253 0.272618 0.226688
0.231937 0.288579 0.238621
0.255344 0.306462 0.251987
0.283238 0.326787 0.267094
0.316686 0.349737 0.284001
0.356847 0.375891 0.303349
0.403571 0.404273 0.325505
0.462593 0.439704 0.361059
0.542657 0.482246 0.364996
0.634455 0.530632 0.375036
0.714900 0.569818 0.386572
0.778592 0.598199 0.399786
0.827024 0.617823 0.415045
0.864714 0.632349 0.432715
0.894499 0.644739 0.453285
0.917845 0.656519 0.476875
0.222141 0.312413 0.254032
0.222477 0.312810 0.254520
0.222599 0.312749 0.254612
0.222080 0.311589 0.254032
0.221012 0.309178 0.252720
0.219242 0.305730 0.250858
0.217258 0.301335 0.248600
0.214664 0.296178 0.245579
0.211795 0.290379 0.242374
0.208560 0.284154 0.238773
0.205081 0.277165 0.234775
0.201328 0.269841 0.230472
0.197086 0.261845 0.225467
0.192142 0.252995 0.219913
0.187350 0.244297 0.214023
0.197177 0.256931 0.220554
0.208286 0.270970 0.227024
0.224277 0.286534 0.236606
0.245975 0.303960 0.249607
0.272038 0.324041 0.264469
0.303441 0.347051 0.281315
0.340978 0.373022 0.300328
0.385534 0.401923 0.321355
0.435676 0.432105 0.345434
0.494423 0.467170 0.383520
0.580560 0.516167 0.397742
0.670008 0.564965 0.411658
0.744228 0.602502 0.426764
0.800626 0.629358 0.444068
0.844083 0.649775 0.464729
0.877501 0.666560 0.488197
0.903410 0.682124 0.514794
0.231846 0.328313 0.265141
0.232486 0.328862 0.265599
0.232578 0.328801 0.265782
0.231937 0.327550 0.265080
0.230838 0.325078 0.263859
0.229221 0.321630 0.262028
0.226963 0.317113 0.259556
0.224521 0.312078 0.256779
0.221561 0.306371 0.253635
0.218509 0.300053 0.250095
0.215091 0.293156 0.246128
0.211093 0.285588 0.241703
0.206912 0.277440 0.236698
0.202060 0.268620 0.231205
0.196536 0.258915 0.224826
0.197482 0.258579 0.223911
0.208865 0.272984 0.231327
0.221592 0.289403 0.238865
0.242008 0.307500 0.251499
0.267460 0.328283 0.266636
0.298039 0.351873 0.283909
0.334661 0.378637 0.303349
0.378271 0.408606 0.324865
0.428840 0.440955 0.348974
0.482124 0.472450 0.376898
0.541466 0.508354 0.420356
0.624292 0.556207 0.438331
0.709377 0.604547 0.456794
0.775845 0.640925 0.477974
0.825132 0.667842 0.502037
0.862242 0.689448 0.528649
0.890349 0.708797 0.558221
0.244999 0.349706 0.279850
0.245396 0.350072 0.280278
0.245151 0.349645 0.280064
0.244450 0.347967 0.279179
0.243015 0.345129 0.277653
0.241032 0.341222 0.275547
0.238743 0.336339 0.272770
0.235874 0.330785 0.269749
0.232731 0.324681 0.266331
0.229618 0.318242 0.262669
0.226169 0.311223 0.258701
0.222232 0.303563 0.254368
0.217960 0.295354 0.249424
0.213107 0.286168 0.243778
0.207523 0.276188 0.237430
0.201389 0.265537 0.230350
0.209171 0.274968 0.235172
0.221958 0.291569 0.243473
0.237797 0.310491 0.252811
0.262272 0.331548 0.268132
0.291905 0.355596 0.285557
0.327428 0.383001 0.305058
0.369726 0.413672 0.327062
0.418982 0.446693 0.351598
0.472633 0.479988 0.379065
0.526635 0.511437 0.410651
0.585718 0.547692 0.457252
0.663874 0.593713 0.478187
0.742214 0.640345 0.500938
0.800443 0.675257 0.527428
0.843137 0.702235 0.556329
0.874876 0.725277 0.587762
0.258732 0.372839 0.295476
0.258915 0.373053 0.295659
0.258762 0.372625 0.295567
0.258091 0.370977 0.294774
0.256992 0.368475 0.293462
0.255344 0.365209 0.291814
0.253910 0.361608 0.290074
0.252201 0.357763 0.288212
0.250248 0.353185 0.286076
0.248203 0.348333 0.283787
0.245762 0.342657 0.280980
0.242771 0.336095 0.277562
0.239017 0.328496 0.273442
0.234531 0.319493 0.268193
0.228946 0.309331 0.261906
0.222660 0.297887 0.254551
0.219120 0.290776 0.249607
0.233371 0.309422 0.259495
0.249973 0.331060 0.270054
0.272465 0.355505 0.283635
0.304601 0.382879 0.303075
0.343389 0.414160 0.325017
0.389044 0.447974 0.349584
0.440558 0.482521 0.377508
0.495277 0.516381 0.408484
0.551293 0.549798 0.441505
0.605432 0.581323 0.477119
0.661402 0.616632 0.526848
0.727382 0.656886 0.550530
0.788327 0.696101 0.576867
0.833310 0.726925 0.606897
0.866423 0.752132 0.637812
0.286931 0.419928 0.327153
0.286870 0.419776 0.327123
0.286473 0.419043 0.326726
0.285374 0.416693 0.325536
0.283787 0.413245 0.323644
0.281590 0.408698 0.321263
0.279149 0.403784 0.318639
0.276646 0.398291 0.315892
0.273838 0.392340 0.312840
0.270878 0.385809 0.309483
0.267369 0.378332 0.305547
0.263615 0.370306 0.301274
0.259220 0.361364 0.296361
0.254124 0.351232 0.290562
