data/fiter_cube/63078869/1022674/file.cube
# Created by Adobe Lightroom plugin Export LUT (1.17.0)
# www.johnrellis.com/lightroom/exportlut.htm
# Preset: 暗调胶片街拍_03 云集
# Color profile: C:\Program Files (x86)\Common Files\Adobe\Color\Profiles\Recommended\AdobeRGB1998.icc
LUT_3D_SIZE 8
DOMAIN_MIN 0.000000 0.000000 0.000000
DOMAIN_MAX 0.903226 0.903226 0.903226
0.060822 0.071870 0.070588
0.076753 0.073976 0.072877
0.157565 0.081361 0.081727
0.253819 0.104250 0.081209
0.382055 0.143374 0.079866
0.593256 0.198215 0.088197
0.763668 0.245823 0.110567
0.880095 0.294438 0.163302
0.063447 0.076356 0.073701
0.070954 0.082155 0.078126
0.154452 0.099001 0.083040
0.247013 0.120241 0.082124
0.374151 0.156374 0.082673
0.559503 0.203983 0.089387
0.739071 0.250828 0.107179
0.870329 0.299199 0.157839
0.093416 0.124422 0.109468
0.094972 0.124178 0.111177
0.120027 0.134066 0.117494
0.260716 0.173678 0.087739
0.401648 0.211521 0.096162
0.586694 0.258427 0.103426
0.776944 0.308873 0.130648
0.887327 0.348394 0.187350
0.120394 0.167727 0.141634
0.120333 0.164858 0.141604
0.125948 0.164279 0.143771
0.188540 0.204471 0.173190
0.405005 0.295445 0.162722
0.646876 0.352300 0.133608
0.793484 0.382574 0.159335
0.889158 0.408423 0.213809
0.155886 0.216251 0.181033
0.155001 0.212802 0.179965
0.152468 0.202213 0.176577
0.171511 0.216922 0.183932
0.250492 0.265385 0.222599
0.504723 0.383886 0.223819
0.786282 0.460639 0.190433
0.889982 0.482185 0.253239
0.188968 0.262181 0.217258
0.190463 0.262547 0.218723
0.184451 0.248539 0.211704
0.173037 0.224399 0.197940
0.222263 0.270817 0.225895
0.337621 0.345983 0.283604
0.658717 0.512840 0.324437
0.872129 0.580896 0.349371
0.231846 0.328313 0.265141
0.230838 0.325078 0.263859
0.221561 0.306371 0.253635
0.206912 0.277440 0.236698
0.208865 0.272984 0.231327
0.298039 0.351873 0.283909
0.482124 0.472450 0.376898
0.775845 0.640925 0.477974
0.311650 0.461097 0.354589
0.308263 0.454505 0.351110
0.299260 0.435431 0.341650
0.286931 0.407111 0.327947
0.248539 0.338293 0.284367
0.302770 0.407172 0.316747
0.502525 0.554040 0.437201
0.708705 0.674800 0.578241
0.062257 0.073884 0.073945
0.072541 0.074861 0.078370
0.148043 0.091432 0.088746
0.237827 0.117647 0.098085
0.358465 0.150118 0.108492
0.532525 0.191348 0.117159
0.718593 0.236637 0.129763
0.858579 0.285466 0.168063
0.064515 0.079713 0.075166
0.075441 0.088960 0.085237
0.149386 0.109529 0.094331
0.237888 0.130770 0.100374
0.356878 0.162051 0.110018
0.521294 0.201175 0.117861
0.701015 0.243259 0.127687
0.847410 0.289464 0.162325
0.093690 0.126009 0.109529
0.101747 0.129305 0.117586
0.124361 0.140047 0.125673
0.250370 0.175265 0.111757
0.370520 0.205722 0.120394
0.540246 0.246952 0.127291
0.725368 0.291661 0.140902
0.862852 0.334783 0.183810
0.127413 0.172213 0.147463
0.128634 0.170901 0.149081
0.132418 0.168307 0.150881
0.182223 0.199191 0.172366
0.357031 0.268620 0.163668
0.573571 0.320592 0.145754
0.742245 0.359350 0.160189
0.866545 0.393500 0.205753
0.163638 0.222263 0.187747
0.162203 0.218387 0.186191
0.158328 0.206821 0.181674
0.170962 0.215091 0.184695
0.241276 0.257328 0.218784
0.474586 0.365911 0.222843
0.762875 0.447517 0.195987
0.876921 0.473060 0.250492
0.192844 0.264378 0.220188
0.191531 0.260929 0.218662
0.186252 0.248295 0.212680
0.176059 0.226627 0.200534
0.220615 0.268254 0.225742
0.334600 0.343816 0.284276
0.648157 0.506065 0.324285
0.864988 0.573236 0.343633
0.230961 0.323766 0.262760
0.227665 0.317388 0.259190
0.219974 0.301549 0.250706
0.207584 0.276585 0.236790
0.207279 0.269383 0.230198
0.291508 0.344244 0.280034
0.462593 0.455909 0.365301
0.759579 0.623590 0.457557
0.306920 0.451270 0.348302
0.305455 0.447578 0.346838
0.297337 0.429786 0.338201
0.285344 0.402625 0.325170
0.261723 0.356634 0.298558
0.308171 0.413245 0.322881
0.495857 0.548058 0.433082
0.698756 0.665461 0.568414
0.079896 0.107576 0.125307
0.082856 0.102113 0.127626
0.137972 0.113375 0.140352
0.235813 0.116060 0.144411
0.358099 0.165896 0.162203
0.534112 0.206180 0.179080
0.725582 0.248508 0.195193
0.863188 0.299779 0.230625
0.086091 0.122011 0.126925
0.100008 0.124697 0.131655
0.140627 0.129824 0.143160
0.231357 0.139681 0.145449
0.351812 0.178103 0.163729
0.523156 0.215640 0.178073
0.714107 0.256474 0.192447
0.858183 0.306279 0.228092
0.103883 0.145907 0.124849
0.117464 0.152407 0.133394
0.145724 0.165621 0.157046
0.246647 0.193088 0.164614
0.372686 0.224063 0.177920
0.543297 0.260227 0.187594
0.725399 0.300267 0.202029
0.860899 0.344213 0.239139
0.140475 0.194095 0.160067
0.150942 0.198550 0.170169
0.165255 0.199924 0.183688
0.203708 0.223545 0.201938
0.384894 0.291356 0.205142
0.579278 0.334417 0.206577
0.749416 0.372503 0.223789
0.868803 0.408179 0.266148
0.178836 0.242557 0.202182
0.185214 0.243931 0.207858
0.189059 0.237552 0.210880
0.190433 0.232578 0.207309
0.263767 0.281010 0.245426
0.502403 0.388281 0.257145
0.768612 0.458228 0.255161
0.874754 0.486275 0.306218
0.212345 0.287968 0.238621
0.216831 0.288182 0.242313
0.212558 0.275334 0.237491
0.198703 0.249943 0.222385
0.229953 0.277256 0.238437
0.343542 0.353826 0.299077
0.653010 0.513848 0.348394
0.868650 0.585870 0.387701
0.257084 0.355352 0.287541
0.256809 0.351049 0.286687
0.245823 0.330632 0.275242
0.228489 0.299535 0.256779
0.213260 0.271855 0.237613
0.298070 0.351232 0.290227
0.482979 0.475441 0.388983
0.777523 0.646876 0.497292
0.336370 0.483284 0.373968
0.330571 0.474586 0.368566
0.317937 0.452766 0.356481
0.306615 0.428351 0.345159
0.277440 0.375250 0.313664
0.310033 0.410864 0.328405
0.501976 0.554498 0.444099
0.709926 0.677455 0.587091
0.100649 0.153201 0.187167
0.111574 0.152529 0.190707
0.147341 0.148043 0.194278
0.213809 0.164340 0.209781
0.341039 0.171237 0.234531
0.507012 0.159396 0.224125
0.688472 0.235935 0.250828
0.844114 0.296849 0.288945
0.120211 0.173953 0.194339
0.131228 0.174136 0.196353
0.154635 0.165164 0.198672
0.219547 0.179355 0.215366
0.345525 0.180545 0.232547
0.500298 0.193973 0.228214
0.684871 0.248142 0.251255
0.842832 0.305058 0.288273
0.131868 0.200656 0.195590
0.144564 0.202518 0.198764
0.178927 0.209354 0.211002
0.232425 0.215885 0.226230
0.356054 0.227573 0.230137
0.528344 0.264378 0.249088
0.725185 0.310094 0.277012
0.857908 0.357977 0.313207
0.161746 0.228458 0.191226
0.171725 0.232212 0.196994
0.202182 0.245212 0.217380
0.235111 0.258488 0.243931
0.384161 0.301640 0.255985
0.551812 0.335485 0.268345
0.731350 0.375463 0.291112
0.861662 0.421759 0.336950
0.204105 0.282841 0.225162
0.209751 0.282444 0.230320
0.229038 0.284642 0.248264
0.234287 0.272953 0.252384
0.297429 0.316167 0.286412
0.547814 0.421668 0.311589
0.763607 0.474586 0.335790
0.869047 0.508354 0.384863
0.240146 0.331548 0.265446
0.248966 0.336858 0.273503
0.261204 0.332555 0.283421
0.252995 0.307774 0.274418
0.253910 0.302342 0.267308
0.379767 0.389410 0.338567
0.683253 0.544060 0.403296
0.873228 0.606561 0.455634
0.284367 0.399847 0.314000
0.288365 0.399481 0.317144
0.297948 0.393744 0.324315
0.281163 0.359716 0.307195
0.244297 0.304204 0.269596
0.315282 0.370428 0.312688
0.510033 0.502068 0.424323
0.790921 0.665980 0.535637
0.382269 0.539666 0.414343
0.384710 0.537926 0.416144
0.386114 0.525017 0.415991
0.359228 0.487434 0.392584
0.316930 0.423896 0.351934
0.309606 0.402869 0.334813
0.505028 0.559564 0.456672
0.721340 0.690517 0.609705
0.145296 0.218265 0.267674
0.157137 0.218662 0.269505
0.173983 0.204349 0.269627
0.230137 0.200839 0.272251
0.318334 0.224125 0.300420
0.478523 0.225834 0.340215
0.686946 0.175021 0.342565
0.837949 0.266056 0.364111
0.161196 0.234958 0.273014
0.171786 0.235660 0.275700
0.184939 0.220798 0.276555
0.234958 0.213504 0.276127
0.319890 0.233829 0.301732
0.483894 0.233524 0.339879
0.688319 0.191684 0.338537
0.836637 0.293187 0.369574
0.183963 0.269474 0.282383
0.197147 0.273259 0.287541
0.223545 0.271855 0.292271
0.247745 0.250462 0.287205
0.325566 0.263951 0.306371
0.492012 0.254368 0.328527
0.682948 0.251591 0.326421
0.829038 0.360296 0.379797
0.194156 0.303838 0.284733
0.203983 0.304326 0.286595
0.236484 0.309056 0.296178
0.286900 0.318334 0.314763
0.359564 0.312535 0.322332
0.516014 0.328832 0.325811
0.698360 0.368963 0.355566
0.842008 0.421729 0.399847
0.227146 0.322301 0.264988
0.235935 0.325902 0.269718
0.263371 0.336156 0.284520
0.302556 0.348333 0.313787
0.335393 0.355627 0.334691
0.561669 0.430274 0.366064
0.728969 0.466621 0.393866
0.851987 0.510246 0.441169
0.269413 0.381201 0.288975
0.274876 0.381170 0.293980
0.289738 0.377813 0.307500
0.312779 0.374823 0.328313
0.292546 0.333867 0.308537
0.408942 0.419287 0.378058
0.714290 0.570245 0.459907
0.863828 0.621149 0.519493
0.324498 0.464881 0.349340
0.327398 0.462165 0.351598
0.338079 0.455238 0.360327
0.352758 0.442908 0.371923
0.317998 0.384314 0.338689
0.319768 0.376593 0.327611
0.527611 0.521141 0.456062
0.801602 0.677852 0.565942
0.422004 0.583978 0.444770
0.423072 0.580926 0.445533
0.426856 0.570825 0.448127
0.443153 0.564813 0.461555
0.394354 0.504753 0.420050
0.319493 0.407233 0.349981
0.485542 0.546502 0.454078
0.720821 0.692378 0.620600
0.206027 0.317052 0.399268
0.219059 0.318029 0.403357
0.230900 0.297185 0.403021
0.282628 0.279850 0.395697
0.347234 0.264073 0.382971
0.465003 0.285618 0.419287
0.649104 0.322332 0.481636
0.825803 0.358434 0.515068
0.217441 0.327733 0.398352
0.227054 0.325994 0.398749
0.242008 0.308812 0.397131
0.280552 0.285985 0.389136
0.342718 0.269535 0.377661
0.460273 0.291875 0.415320
0.647395 0.325902 0.478004
0.824857 0.360845 0.510735
0.257420 0.381811 0.427192
0.266239 0.379095 0.426307
0.288426 0.366278 0.420661
0.304051 0.330388 0.409796
0.356176 0.302861 0.389441
0.472358 0.325628 0.424598
0.661433 0.353674 0.480751
0.830228 0.387427 0.507469
0.267552 0.420111 0.425055
0.277897 0.418555 0.425086
0.316869 0.421485 0.434211
0.374121 0.424414 0.450782
0.394507 0.372595 0.426123
0.507469 0.394018 0.453315
0.695308 0.407752 0.489540
0.837705 0.445594 0.508873
0.274479 0.439673 0.400671
0.284367 0.441627 0.403906
0.316655 0.448096 0.415412
0.370123 0.459449 0.436103
0.440284 0.463508 0.457221
0.533715 0.444160 0.455909
0.698695 0.473152 0.472877
0.832914 0.531273 0.522911
0.311467 0.453468 0.362341
0.322545 0.459785 0.369207
0.351476 0.469154 0.383246
0.398535 0.483345 0.407416
0.440162 0.484199 0.438239
0.483284 0.491005 0.463874
0.743679 0.599634 0.541131
0.849119 0.631434 0.579400
0.405859 0.563439 0.413001
0.413886 0.565209 0.420203
0.430060 0.561700 0.434943
0.452003 0.554223 0.455024
0.467506 0.534752 0.469032
0.390936 0.438911 0.401648
0.576257 0.569146 0.520806
0.829618 0.713283 0.634760
0.499245 0.657374 0.504326
0.500694 0.655146 0.505638
0.507225 0.648829 0.511559
0.520775 0.641413 0.523857
0.523766 0.618647 0.526848
0.451453 0.536461 0.465766
0.462104 0.533074 0.454231
0.731685 0.706355 0.648585
0.304784 0.445716 0.565881
0.317693 0.444892 0.566766
0.331823 0.425727 0.563745
0.356909 0.389899 0.556756
0.422492 0.357153 0.535088
0.504265 0.338109 0.524529
0.629725 0.378546 0.557610
0.779019 0.490517 0.629908
0.315465 0.456001 0.565484
0.327031 0.454871 0.566064
0.347631 0.440009 0.563073
0.359594 0.398291 0.554009
0.421637 0.364996 0.532860
0.500938 0.343816 0.521202
0.625360 0.382727 0.553826
0.777035 0.489052 0.626276
0.361059 0.502159 0.581903
0.369787 0.499977 0.581262
0.395483 0.490578 0.577264
0.400458 0.450904 0.567895
0.439368 0.407752 0.545434
0.510155 0.377173 0.528954
0.634272 0.417731 0.562646
0.785245 0.511986 0.632776
0.390326 0.550103 0.589258
0.401099 0.549157 0.589624
0.442390 0.551507 0.596399
0.478859 0.538262 0.593286
0.478584 0.482094 0.571771
0.528496 0.434485 0.545312
0.649226 0.472358 0.577935
0.796628 0.543481 0.639094
0.394202 0.587945 0.578882
0.404700 0.587335 0.579919
0.440742 0.587549 0.585840
0.497200 0.589899 0.598810
0.550652 0.581140 0.605676
0.546441 0.502342 0.563348
0.661189 0.531518 0.591608
0.810422 0.579339 0.640589
0.412757 0.609857 0.551568
0.421942 0.610712 0.554253
0.452033 0.614099 0.563745
0.498299 0.620783 0.580865
0.555047 0.629816 0.604395
0.626307 0.630823 0.625544
0.698238 0.603754 0.616144
0.823819 0.637354 0.643153
0.462745 0.625727 0.512474
0.470954 0.627771 0.516625
0.495705 0.632563 0.528344
0.534417 0.640681 0.547967
0.582269 0.650233 0.573083
0.620386 0.647700 0.599573
0.648188 0.639887 0.613672
0.840635 0.736446 0.699458
0.582116 0.720699 0.566583
0.585687 0.720668 0.570001
0.599634 0.721920 0.583337
0.619226 0.721157 0.602319
0.639338 0.716335 0.622126
0.648646 0.699641 0.632380
0.544152 0.591821 0.541924
0.752773 0.731441 0.691890
0.525292 0.616205 0.725032
0.533928 0.616693 0.725246
0.545953 0.608301 0.723415
0.539330 0.575463 0.720699
0.569818 0.547784 0.711727
0.615167 0.501122 0.694606
0.696773 0.496864 0.695216
0.784726 0.554894 0.710414
0.531060 0.622705 0.725063
0.539330 0.623072 0.725307
0.557977 0.618860 0.723903
0.549462 0.586236 0.720607
0.573358 0.555566 0.711818
0.616052 0.508690 0.694636
0.695644 0.501427 0.694148
0.784085 0.558953 0.710170
0.554284 0.647669 0.729366
0.561273 0.647608 0.729427
0.580224 0.644526 0.727810
0.591058 0.627436 0.726131
0.593744 0.588800 0.717647
0.625574 0.540734 0.699947
0.698146 0.524895 0.696590
0.785763 0.579614 0.713771
0.576349 0.680201 0.734829
0.587793 0.682399 0.736446
0.612512 0.683467 0.737697
0.638392 0.678340 0.736141
0.630732 0.641657 0.729397
0.647120 0.596002 0.712551
0.704738 0.565179 0.703456
0.789425 0.613367 0.720912
0.582269 0.710506 0.731594
0.590997 0.711299 0.733120
0.615869 0.712184 0.736904
0.655207 0.714778 0.744320
0.689662 0.709957 0.744900
0.679225 0.662837 0.730098
0.712001 0.614008 0.712093
0.793851 0.654566 0.730007
0.592187 0.746059 0.728573
0.598169 0.745480 0.729183
0.619257 0.744289 0.732265
0.653895 0.743587 0.738857
0.698817 0.745205 0.749783
0.740749 0.744594 0.758694
0.729580 0.681178 0.729946
0.801968 0.704189 0.744472
0.616297 0.762234 0.707424
0.621180 0.762387 0.709041
0.637842 0.763302 0.714839
0.666224 0.765927 0.725826
0.702205 0.770382 0.741146
0.742123 0.775540 0.758602
0.784451 0.775753 0.772274
0.814694 0.752224 0.760372
0.652247 0.769162 0.677668
0.655848 0.769345 0.679347
0.668940 0.770535 0.686061
0.691737 0.773495 0.698421
0.720668 0.777920 0.714900
0.752651 0.783932 0.734310
0.781369 0.787686 0.753658
0.796963 0.780697 0.763485
