data/filter_cube/11206988/1023415/file.cube
# Created by Adobe Lightroom plugin Export LUT (1.17.0)
# www.johnrellis.com/lightroom/exportlut.htm
# Preset: 焦糖暖色调人像产品_04 云集
# Color profile: C:\Program Files (x86)\Common Files\Adobe\Color\Profiles\Recommended\AdobeRGB1998.icc
LUT_3D_SIZE 8
DOMAIN_MIN 0.000000 0.000000 0.000000
DOMAIN_MAX 0.903226 0.903226 0.903226
0.000000 0.000000 0.000000
0.060578 0.000397 0.005768
0.241245 0.000000 0.043671
0.468940 0.000000 0.052979
0.645136 0.134585 0.101839
0.750515 0.229191 0.176089
0.853758 0.319921 0.267735
0.965637 0.428504 0.384710
0.008759 0.046143 0.013306
0.063020 0.060792 0.054017
0.251347 0.082490 0.052216
0.470985 0.128847 0.061616
0.636805 0.192996 0.105989
0.742641 0.257267 0.177584
0.846311 0.336004 0.268559
0.961364 0.439399 0.386114
0.057618 0.223697 0.080415
0.135195 0.241062 0.070130
0.211917 0.214786 0.216739
0.499702 0.303563 0.093996
0.642390 0.323613 0.139132
0.744015 0.352117 0.208408
0.853025 0.411231 0.302098
0.965881 0.498054 0.418524
0.206577 0.450629 0.128969
0.251987 0.456855 0.120943
0.372961 0.446082 0.203922
0.407843 0.413306 0.421210
0.641108 0.482002 0.301122
0.748653 0.469062 0.270329
0.852323 0.505638 0.352575
0.963012 0.571801 0.455818
0.325261 0.599115 0.239658
0.350408 0.601770 0.236637
0.435096 0.610590 0.234653
0.542870 0.579461 0.406012
0.554986 0.559655 0.566644
0.712642 0.607813 0.487556
0.848386 0.602075 0.409888
0.958282 0.652216 0.497749
0.434699 0.697292 0.372168
0.452003 0.701595 0.375280
0.499702 0.707240 0.371344
0.591333 0.699489 0.440192
0.660182 0.676020 0.564996
0.668086 0.671107 0.675715
0.817014 0.734951 0.631800
0.951049 0.755947 0.595727
0.551873 0.804715 0.502922
0.561395 0.807340 0.503258
0.591485 0.812833 0.500938
0.647700 0.823484 0.498756
0.732570 0.805692 0.593927
0.782589 0.790219 0.683101
0.790921 0.791775 0.792355
0.918608 0.853086 0.762997
0.660761 0.920806 0.616938
0.666651 0.921660 0.616510
0.688502 0.925261 0.616236
0.729305 0.932219 0.617029
0.789517 0.928069 0.639612
0.864775 0.917174 0.731838
0.908293 0.910002 0.829953
0.914763 0.914488 0.913390
0.000000 0.000000 0.000000
0.063233 0.000000 0.006775
0.235447 0.000000 0.044862
0.461860 0.101350 0.059937
0.631281 0.176577 0.102480
0.738705 0.243107 0.176822
0.842344 0.324071 0.272129
0.957794 0.428534 0.388830
0.008453 0.040345 0.012696
0.072602 0.063844 0.048127
0.252262 0.112428 0.055421
0.466651 0.168338 0.065705
0.629389 0.219730 0.109529
0.735561 0.270726 0.182956
0.837278 0.340581 0.274632
0.953429 0.438666 0.389807
0.087587 0.223087 0.075624
0.163668 0.242496 0.064088
0.217350 0.216770 0.209964
0.490517 0.304631 0.099641
0.633600 0.327794 0.146883
0.735927 0.355291 0.217716
0.839780 0.408942 0.307439
0.956786 0.493904 0.418952
0.215457 0.438697 0.139010
0.262516 0.447395 0.135866
0.372473 0.435798 0.221134
0.404761 0.407721 0.408545
0.628260 0.470741 0.295903
0.736141 0.462531 0.274418
0.838834 0.498634 0.352972
0.954376 0.566125 0.454566
0.334936 0.595666 0.258915
0.358129 0.597864 0.255344
0.437781 0.605035 0.254185
0.538109 0.572412 0.409308
0.551476 0.554986 0.558740
0.707637 0.602228 0.483345
0.841184 0.597284 0.411353
0.953124 0.648920 0.498695
0.438300 0.693019 0.380865
0.451850 0.694728 0.380041
0.498238 0.700496 0.376501
0.588678 0.693904 0.443336
0.657374 0.672541 0.565362
0.667720 0.670527 0.674556
0.815152 0.732692 0.630335
0.948516 0.752163 0.592920
0.549645 0.797971 0.504234
0.557214 0.798947 0.502983
0.587701 0.805386 0.501854
0.644556 0.817746 0.501061
0.729702 0.802152 0.594171
0.779049 0.786526 0.681727
0.786130 0.787289 0.788693
0.915160 0.848295 0.757137
0.658106 0.917144 0.617365
0.664485 0.918486 0.617456
0.686488 0.922484 0.617426
0.727413 0.929870 0.618524
0.792264 0.930999 0.644709
0.865995 0.918456 0.734829
0.907622 0.909392 0.829709
0.913268 0.913115 0.912230
0.000000 0.015290 0.086824
0.043946 0.002014 0.092287
0.245396 0.000000 0.138613
0.476234 0.000000 0.143893
0.638117 0.189029 0.192691
0.740536 0.283604 0.262272
0.845243 0.362646 0.340337
0.960204 0.455879 0.436652
0.027832 0.064027 0.093324
0.092927 0.069886 0.107881
0.269566 0.075074 0.124849
0.478431 0.159030 0.153933
0.634455 0.236576 0.201114
0.737392 0.306615 0.266697
0.841520 0.377356 0.343206
0.957946 0.466926 0.439277
0.112978 0.218540 0.158419
0.165408 0.243046 0.156191
0.275731 0.257084 0.225467
0.499580 0.311925 0.192630
0.639948 0.346044 0.236484
0.737484 0.381598 0.293950
0.841032 0.434943 0.365759
0.957275 0.512291 0.458473
0.224857 0.439796 0.226596
0.272007 0.450141 0.224613
0.390204 0.444099 0.283757
0.443671 0.437354 0.419348
0.639124 0.478187 0.328618
0.737881 0.480018 0.338170
0.842069 0.518364 0.403967
0.956451 0.580713 0.489723
0.347509 0.591943 0.318120
0.374121 0.595697 0.317998
0.454078 0.606348 0.316411
0.549065 0.577600 0.446174
0.572778 0.571801 0.565301
0.714443 0.607935 0.497810
0.842679 0.608270 0.449348
0.954253 0.656825 0.524498
0.454505 0.690517 0.420722
0.469245 0.692378 0.421546
0.514397 0.698054 0.420203
0.595697 0.692836 0.471046
0.659358 0.672663 0.578607
0.674891 0.675471 0.673732
0.818540 0.733211 0.632441
0.952422 0.751095 0.596185
0.562402 0.797726 0.530877
0.570459 0.799191 0.530266
0.598413 0.804898 0.528679
0.650172 0.815610 0.525750
0.730953 0.802274 0.603845
0.781064 0.788113 0.688746
0.793240 0.793729 0.793484
0.921904 0.853483 0.763363
0.660822 0.916014 0.630945
0.665492 0.916564 0.630030
0.686305 0.920104 0.629297
0.727535 0.928710 0.631250
0.789364 0.931823 0.648676
0.865995 0.919707 0.739162
0.909148 0.911131 0.833799
0.915740 0.915862 0.915892
0.000000 0.042390 0.186984
0.081178 0.000000 0.195987
0.233585 0.000000 0.228916
0.474281 0.000000 0.280552
0.639918 0.105806 0.274388
0.737362 0.302068 0.347570
0.840482 0.391608 0.412604
0.956847 0.476051 0.489937
0.060945 0.087587 0.207797
0.120333 0.085298 0.217166
0.267002 0.082185 0.248081
0.487587 0.084749 0.277623
0.638514 0.238376 0.307134
0.735653 0.329198 0.353613
0.838560 0.407477 0.416907
0.956085 0.486030 0.492256
0.156649 0.229923 0.243168
0.200504 0.243809 0.254856
0.333349 0.276188 0.278843
0.506828 0.312840 0.302708
0.641260 0.360113 0.335851
0.737148 0.411048 0.382696
0.844663 0.467872 0.442481
0.959960 0.531212 0.511192
0.264317 0.426764 0.333989
0.295659 0.438727 0.336736
0.400702 0.457954 0.346685
0.488838 0.465766 0.429969
0.645289 0.479042 0.374456
0.735286 0.499489 0.414038
0.841703 0.537407 0.465278
0.957824 0.591974 0.532494
0.380072 0.587762 0.406989
0.398627 0.590936 0.404974
0.466011 0.602380 0.400427
0.561425 0.583734 0.490455
0.598840 0.590570 0.571679
0.726131 0.612909 0.514672
0.846342 0.623011 0.502068
0.956970 0.664790 0.560571
0.481971 0.688045 0.483284
0.496345 0.691920 0.485603
0.534844 0.697536 0.483711
0.608240 0.698085 0.512383
0.668513 0.679957 0.602777
0.692195 0.688655 0.678065
0.829831 0.736751 0.637354
0.959197 0.744289 0.596490
0.577539 0.794827 0.568841
0.585443 0.797360 0.569116
0.612329 0.805234 0.569177
0.659113 0.816800 0.566430
0.736049 0.809628 0.620813
0.787808 0.795041 0.702266
0.804959 0.802945 0.796414
0.929503 0.856016 0.765743
0.670100 0.915862 0.657679
0.675074 0.917174 0.657588
0.691341 0.920867 0.655451
0.724971 0.927550 0.653223
0.780789 0.935454 0.652674
0.864317 0.922637 0.743862
0.911101 0.913787 0.838926
0.920165 0.919860 0.918608
0.031647 0.001404 0.330510
0.130159 0.000000 0.336736
0.266667 0.000000 0.352758
0.457069 0.000000 0.392370
0.631098 0.129183 0.405280
0.737667 0.280217 0.417700
0.842008 0.420874 0.491035
0.957580 0.513787 0.563104
0.098207 0.112642 0.349584
0.158206 0.109346 0.355138
0.289006 0.085878 0.367407
0.470436 0.118990 0.397711
0.633967 0.207248 0.407904
0.738003 0.320958 0.426886
0.841306 0.449317 0.503532
0.957733 0.522820 0.565148
0.222202 0.295079 0.389899
0.257603 0.298741 0.393408
0.344579 0.281437 0.396155
0.503502 0.309300 0.412421
0.641321 0.356725 0.424231
0.732601 0.437293 0.468666
0.839506 0.492073 0.513329
0.956634 0.549950 0.569512
0.310948 0.414282 0.405402
0.339544 0.421088 0.412024
0.415473 0.456031 0.435859
0.537713 0.475807 0.444953
0.645228 0.495094 0.464027
0.734066 0.520378 0.492103
0.842313 0.554772 0.530266
0.958923 0.593622 0.577356
0.413519 0.571221 0.480140
0.431647 0.576776 0.484016
0.484382 0.592798 0.487526
0.569177 0.589532 0.527398
0.621729 0.602167 0.573144
0.737667 0.601740 0.518364
0.847013 0.627680 0.550805
0.958984 0.661036 0.595026
0.506889 0.677150 0.540368
0.518395 0.679316 0.542901
0.547570 0.685878 0.540307
0.604303 0.696895 0.539849
0.667994 0.680201 0.615991
0.706722 0.697200 0.676844
0.842741 0.732082 0.634546
0.961395 0.740017 0.621332
0.594415 0.788632 0.612024
0.600092 0.790463 0.611383
0.621027 0.797116 0.609979
0.660548 0.809110 0.607172
0.726711 0.813840 0.628168
0.789212 0.798581 0.710719
0.815183 0.809689 0.795560
0.938231 0.852750 0.759762
0.678401 0.908934 0.689174
0.682368 0.909911 0.688716
0.696498 0.913725 0.686793
0.725582 0.923339 0.686305
0.768734 0.932555 0.680018
0.854917 0.926574 0.742031
0.911131 0.915892 0.840879
0.924132 0.922637 0.918425
0.117739 0.059113 0.490303
0.180026 0.040803 0.492042
0.307713 0.000000 0.493324
0.464820 0.000000 0.502739
0.622431 0.166201 0.512810
0.732143 0.297917 0.513115
0.843900 0.403296 0.546960
0.964263 0.493568 0.602960
0.155337 0.153780 0.497536
0.205203 0.150179 0.497749
0.320470 0.132021 0.497230
0.472633 0.141604 0.504631
0.623865 0.227756 0.513695
0.731319 0.333013 0.516777
0.843412 0.424659 0.551507
0.963806 0.505699 0.605585
0.285008 0.343908 0.523247
0.306737 0.339208 0.521935
0.378485 0.321843 0.518608
0.506828 0.321508 0.521508
0.635340 0.369512 0.526879
0.734493 0.431525 0.535882
0.846983 0.490150 0.570245
0.963287 0.560571 0.626734
0.385901 0.484047 0.536797
0.408423 0.488075 0.538964
0.473182 0.501427 0.547417
0.547692 0.488289 0.545159
0.654108 0.512200 0.553063
0.742428 0.553216 0.577264
0.852720 0.584100 0.606928
0.964630 0.620478 0.646906
0.458625 0.563134 0.541772
0.473640 0.565362 0.544976
0.516442 0.582177 0.559930
0.579187 0.606195 0.570733
0.653803 0.608820 0.581811
0.743618 0.618158 0.587671
0.854704 0.641505 0.614893
0.964691 0.665003 0.648524
0.536217 0.670161 0.594720
0.546502 0.673396 0.597955
0.575799 0.682399 0.604944
0.617639 0.696986 0.605646
0.679042 0.692317 0.643702
0.731197 0.710506 0.679774
0.860227 0.713405 0.627039
0.967773 0.734005 0.660029
0.612055 0.783474 0.655726
0.618311 0.786435 0.657130
0.637263 0.794461 0.658625
0.669093 0.806638 0.656947
0.722042 0.822171 0.652827
0.793576 0.808743 0.723903
0.833310 0.822141 0.798703
0.955108 0.846220 0.751522
0.692775 0.903685 0.728786
0.697322 0.904692 0.729549
0.713588 0.908690 0.732479
0.736568 0.916777 0.731991
0.771328 0.927214 0.727810
0.832822 0.934813 0.735958
0.911772 0.920958 0.844266
0.931243 0.928069 0.920012
0.188388 0.140688 0.626062
0.235874 0.142275 0.628046
0.344915 0.129274 0.623529
0.472602 0.068391 0.612787
0.630579 0.188571 0.621912
0.736202 0.311192 0.610010
0.839292 0.406622 0.620661
0.959045 0.493050 0.663569
0.214176 0.206424 0.619867
0.254307 0.206821 0.621363
0.352148 0.195346 0.617670
0.471565 0.155245 0.606165
0.623987 0.229709 0.613519
0.726802 0.328191 0.602502
0.828885 0.414405 0.613367
0.953429 0.497536 0.659693
0.339086 0.387671 0.637537
0.356725 0.383246 0.636011
0.412573 0.365942 0.629389
0.501030 0.329534 0.617151
0.633204 0.362615 0.618585
0.730892 0.423346 0.614954
0.837919 0.483955 0.631464
0.959289 0.542443 0.672999
0.473854 0.551354 0.659663
0.488014 0.552605 0.659174
0.508782 0.536522 0.647364
0.550683 0.502434 0.635828
0.648127 0.503105 0.633173
0.745266 0.534874 0.639490
0.854032 0.567102 0.655695
0.966003 0.599725 0.687526
0.511498 0.616724 0.643153
0.520531 0.616266 0.642512
0.552697 0.618311 0.644038
0.600153 0.623499 0.650965
0.649989 0.601770 0.643061
0.752590 0.618006 0.653590
0.860288 0.649073 0.675929
0.965393 0.686702 0.718502
0.566064 0.668421 0.643793
0.573449 0.669001 0.645167
0.596399 0.673243 0.651179
0.631556 0.688930 0.665644
0.678798 0.709529 0.673243
0.761074 0.709010 0.679561
0.867277 0.721828 0.690242
0.968139 0.743679 0.726925
0.628901 0.776822 0.698360
0.634150 0.779812 0.700343
0.650690 0.787411 0.704738
0.679896 0.800565 0.711086
0.721736 0.815763 0.711055
0.795407 0.814878 0.746822
0.850980 0.828611 0.795102
0.968841 0.815091 0.735225
0.699672 0.890684 0.761807
0.704036 0.891966 0.763027
0.724086 0.899992 0.771542
0.751888 0.908843 0.780148
0.785428 0.919432 0.784878
0.830167 0.932403 0.782589
0.907042 0.927672 0.844846
0.939757 0.933806 0.920836
0.253300 0.220462 0.728145
0.285832 0.220554 0.728359
0.368933 0.207736 0.720180
0.478401 0.178317 0.709621
0.607141 0.180545 0.701869
0.744900 0.290166 0.706386
0.864988 0.404944 0.721218
0.954467 0.485878 0.729732
0.276646 0.271183 0.724453
0.304997 0.270878 0.724575
0.379522 0.257908 0.717861
0.480720 0.228244 0.706386
0.605066 0.222599 0.698482
0.741390 0.316075 0.703792
0.862730 0.421241 0.721065
0.951781 0.493751 0.728695
0.365911 0.411505 0.727962
0.381781 0.408759 0.727047
0.426429 0.390600 0.718410
0.508568 0.368322 0.712551
0.611627 0.341619 0.700526
0.742000 0.402502 0.707576
0.865293 0.479744 0.729976
0.951476 0.529534 0.733822
0.471443 0.557641 0.746334
0.485084 0.558526 0.745327
0.512963 0.546838 0.735439
0.556115 0.519432 0.725368
0.622461 0.471901 0.708064
0.750668 0.511620 0.723995
0.867826 0.550591 0.741482
0.954650 0.582422 0.744442
0.546685 0.661616 0.751369
0.557397 0.664393 0.754635
0.584833 0.665797 0.759213
0.610468 0.649073 0.756008
0.648188 0.607050 0.734218
0.755520 0.604913 0.742580
0.868528 0.619318 0.750881
0.957427 0.647425 0.757931
0.605493 0.743435 0.759579
0.611139 0.743801 0.760555
0.630915 0.746700 0.766018
0.663416 0.748867 0.773983
0.711666 0.749660 0.786343
0.748745 0.693385 0.759152
0.875517 0.712123 0.773159
0.962799 0.742275 0.789944
0.652308 0.797604 0.761501
0.655756 0.797086 0.761532
0.667750 0.795712 0.761990
0.690639 0.795193 0.765011
0.724727 0.798001 0.772457
0.773709 0.811368 0.787930
0.861631 0.807614 0.791379
0.957885 0.828916 0.819730
0.713680 0.884337 0.803342
0.716243 0.884550 0.803769
0.728115 0.887327 0.807370
0.752346 0.894408 0.816373
0.786709 0.903990 0.828489
0.830869 0.916167 0.842039
0.890593 0.926604 0.854734
0.944396 0.931548 0.912413
