data/filter_cube/11206988/1023415/file.cube
# Created by Adobe Lightroom plugin Export LUT (1.17.0)
# www.johnrellis.com/lightroom/exportlut.htm
# Preset: 焦糖暖色调人像产品_04 云集
# Color profile: C:\Program Files (x86)\Common Files\Adobe\Color\Profiles\Recommended\AdobeRGB1998.icc
LUT_3D_SIZE 5
DOMAIN_MIN 0.000000 0.000000 0.000000
DOMAIN_MAX 0.903226 0.903226 0.903226
0.000000 0.000000 0.000000
0.188907 0.000000 0.035798
0.570642 0.065187 0.073732
0.774624 0.251499 0.197696
0.965637 0.428504 0.384710
0.042756 0.174105 0.070710
0.166110 0.167971 0.168399
0.575982 0.277012 0.102510
0.770413 0.340368 0.222019
0.967437 0.483986 0.412634
0.268711 0.533318 0.175662
0.377050 0.545525 0.163180
0.489906 0.495155 0.502861
0.769253 0.527550 0.322271
0.960052 0.611139 0.475837
0.465736 0.722866 0.408606
0.507317 0.729580 0.406867
0.649165 0.718563 0.515648
0.696986 0.699519 0.703090
0.943206 0.784787 0.638880
0.660761 0.920806 0.616938
0.681300 0.923980 0.616236
0.750484 0.931060 0.610834
0.879515 0.915007 0.757076
0.914763 0.914488 0.913390
0.000000 0.009552 0.069245
0.188846 0.000000 0.103304
0.561425 0.139559 0.138216
0.761105 0.288548 0.254032
0.957275 0.445319 0.419623
0.082918 0.167575 0.119997
0.215274 0.200137 0.173770
0.570397 0.293339 0.175753
0.759945 0.362921 0.280034
0.957214 0.492897 0.440345
0.282933 0.524559 0.246098
0.391760 0.539635 0.243381
0.503105 0.502129 0.494881
0.759762 0.530083 0.360540
0.956420 0.617029 0.499763
0.482979 0.719020 0.444129
0.523308 0.725948 0.444404
0.653315 0.717433 0.534661
0.702541 0.703639 0.703700
0.944976 0.782773 0.639643
0.662684 0.919036 0.629450
0.682551 0.922271 0.628595
0.754879 0.933745 0.628107
0.881834 0.917754 0.763943
0.917144 0.917144 0.916869
0.000000 0.032471 0.257115
0.208560 0.000000 0.279667
0.562676 0.000000 0.345922
0.760281 0.347265 0.411841
0.956939 0.494331 0.525811
0.164706 0.228916 0.310002
0.280369 0.222080 0.325017
0.581445 0.280552 0.353979
0.757992 0.415473 0.429480
0.958343 0.528008 0.535515
0.340429 0.505821 0.410895
0.413916 0.530266 0.415076
0.563256 0.541619 0.508782
0.759396 0.558373 0.476783
0.958068 0.627985 0.565362
0.519860 0.707820 0.533227
0.548394 0.713649 0.530785
0.658473 0.719478 0.573754
0.725826 0.719966 0.704921
0.956146 0.768826 0.632410
0.672175 0.911528 0.670954
0.688258 0.916167 0.670405
0.745174 0.929595 0.665034
0.877043 0.920592 0.767208
0.920958 0.920104 0.917479
0.132967 0.076051 0.524743
0.281651 0.028748 0.525322
0.549981 0.095644 0.536889
0.755276 0.327855 0.538628
0.962402 0.492500 0.616785
0.255894 0.300786 0.544579
0.341741 0.287846 0.542016
0.569726 0.301640 0.545403
0.756344 0.420935 0.553460
0.961975 0.531548 0.625452
0.430823 0.537804 0.560906
0.483772 0.545892 0.566400
0.605432 0.550774 0.573114
0.758511 0.585290 0.595148
0.962310 0.642237 0.660395
0.564385 0.694606 0.622248
0.588159 0.702358 0.627832
0.658686 0.729366 0.631281
0.761471 0.739132 0.705806
0.967926 0.751522 0.675319
0.695644 0.901701 0.738216
0.711849 0.906065 0.741970
0.757229 0.921050 0.745235
0.854582 0.933928 0.763760
0.933043 0.929290 0.920073
0.253300 0.220462 0.728145
0.344579 0.212039 0.722499
0.535088 0.144991 0.701137
0.774655 0.320134 0.707240
0.954467 0.485878 0.729732
0.342565 0.375921 0.728878
0.399054 0.363867 0.723445
0.547509 0.305241 0.702388
0.772427 0.399878 0.709346
0.952667 0.520287 0.733455
0.520531 0.620783 0.755276
0.543175 0.613794 0.751888
0.600641 0.562493 0.724422
0.783932 0.566278 0.737057
0.955474 0.611292 0.749386
0.620142 0.763302 0.764157
0.635523 0.762722 0.765499
0.689998 0.763912 0.775906
0.778897 0.721920 0.766812
0.962249 0.765133 0.797665
0.713680 0.884337 0.803342
0.723964 0.886229 0.805966
0.768460 0.899046 0.822263
0.842435 0.919707 0.843839
0.944396 0.931548 0.912413
