data/filter_cube/11206988/1023415/file.cube
# Created by Adobe Lightroom plugin Export LUT (1.17.0)
# www.johnrellis.com/lightroom/exportlut.htm
# Preset: 焦糖暖色调人像产品_04 云集
# Color profile: C:\Program Files (x86)\Common Files\Adobe\Color\Profiles\Recommended\AdobeRGB1998.icc
LUT_3D_SIZE 32
DOMAIN_MIN 0.0 0.0 0.0
DOMAIN_MAX 1.0 1.0 1.0
0.000000 0.000000 0.000000
0.000000 0.000000 0.000000
0.000000 0.000000 0.000000
0.000000 0.000000 0.000000
0.060578 0.000397 0.005768
0.098909 0.000000 0.016602
0.141848 0.000000 0.025360
0.188907 0.000000 0.035798
0.241245 0.000000 0.043671
0.296880 0.000000 0.048035
0.354986 0.000000 0.049073
0.412268 0.000000 0.048737
0.468940 0.000000 0.052979
0.524041 0.000000 0.063355
0.570642 0.065187 0.073732
0.610620 0.105013 0.086671
0.645136 0.134585 0.101839
0.675105 0.160067 0.118990
0.701747 0.183749 0.136538
0.726741 0.206943 0.155428
0.750515 0.229191 0.176089
0.774624 0.251499 0.197696
0.799832 0.273838 0.220462
0.826352 0.296727 0.243503
0.853758 0.319921 0.267735
0.881559 0.344396 0.293523
0.909697 0.370428 0.321691
0.937926 0.398138 0.351507
0.965637 0.428504 0.384710
0.992309 0.461616 0.421302
1.000000 0.495613 0.458717
1.000000 0.529717 0.496193
0.000000 0.000000 0.000000
0.000000 0.000000 0.000000
0.000000 0.000000 0.000000
0.000000 0.000000 0.000000
0.062135 0.000000 0.006806
0.099214 0.000000 0.016571
0.142214 0.000000 0.026429
0.188907 0.000000 0.035798
0.240940 0.000000 0.042756
0.296422 0.000000 0.047333
0.354589 0.000000 0.047578
0.411505 0.000000 0.049928
0.467872 0.000000 0.055726
0.521721 0.000000 0.063996
0.567742 0.078706 0.074250
0.607385 0.112337 0.086763
0.641810 0.140078 0.101991
0.671931 0.163882 0.117800
0.698695 0.186740 0.135409
0.723903 0.208835 0.153933
0.747799 0.230503 0.174380
0.771847 0.252079 0.196048
0.796963 0.274052 0.218448
0.823484 0.296605 0.241917
0.850919 0.319554 0.265690
0.878874 0.343847 0.291752
0.907256 0.369757 0.319768
0.935698 0.397528 0.349432
0.963684 0.427741 0.382849
0.990692 0.460792 0.419654
1.000000 0.494636 0.456947
1.000000 0.528618 0.494301
0.000000 0.000000 0.000000
0.000000 0.000000 0.000000
0.000000 0.000000 0.000000
0.000000 0.000000 0.000000
0.063783 0.000244 0.005585
0.100740 0.000000 0.016510
0.142824 0.000000 0.025177
0.189059 0.000000 0.035767
0.240696 0.000000 0.043671
0.296971 0.000000 0.048341
0.354803 0.000000 0.049622
0.411353 0.000000 0.050446
0.468086 0.000000 0.054810
0.520592 0.062776 0.063691
0.566094 0.097780 0.074220
0.605585 0.124788 0.086915
0.640009 0.148470 0.102327
0.670161 0.171633 0.117403
0.697047 0.192325 0.135714
0.722225 0.213474 0.154391
0.746334 0.234165 0.174655
0.770352 0.255253 0.196231
0.795499 0.276616 0.218326
0.821927 0.298650 0.241276
0.849393 0.321538 0.265629
0.877440 0.345342 0.291417
0.905882 0.371191 0.319310
0.934478 0.398688 0.349279
0.962676 0.428595 0.382269
0.989807 0.461555 0.419135
1.000000 0.495064 0.456214
1.000000 0.528985 0.493690
0.000000 0.000000 0.000000
0.000000 0.000000 0.000000
0.000000 0.000000 0.000000
0.000000 0.000000 0.000000
0.068971 0.000000 0.008576
0.104097 0.000000 0.018189
0.145968 0.000000 0.028199
0.192752 0.000000 0.038849
0.244816 0.000000 0.048096
0.300481 0.000000 0.049439
0.357305 0.010224 0.049714
0.413001 0.047578 0.051301
0.469642 0.080476 0.057832
0.520409 0.104158 0.066896
0.565087 0.126650 0.076204
0.604120 0.147494 0.089021
0.638056 0.167666 0.102998
0.668086 0.186252 0.119478
0.694850 0.204837 0.136019
0.719875 0.223697 0.154238
0.743893 0.242679 0.175143
0.767727 0.262425 0.195773
0.792966 0.282750 0.218540
0.819669 0.304295 0.241520
0.847684 0.326909 0.266300
0.876280 0.350683 0.292271
0.905211 0.376013 0.320653
0.934081 0.403418 0.350622
0.962371 0.433173 0.384283
0.989502 0.465644 0.420691
1.000000 0.498482 0.457557
1.000000 0.531518 0.494270
0.008759 0.046143 0.013306
0.009430 0.048859 0.014099
0.009461 0.052308 0.016968
0.013153 0.058747 0.018311
0.063020 0.060792 0.054017
0.113191 0.069032 0.035492
0.154299 0.072724 0.042969
0.200290 0.076997 0.049744
0.251347 0.082490 0.052216
0.305364 0.090517 0.051331
0.360937 0.099611 0.051179
0.416785 0.112734 0.055787
0.470985 0.128847 0.061616
0.520012 0.145296 0.068177
0.563745 0.160952 0.079255
0.602594 0.176944 0.092500
0.636805 0.192996 0.105989
0.666835 0.208988 0.121981
0.693812 0.224460 0.139132
0.718776 0.240543 0.157778
0.742641 0.257267 0.177584
0.766354 0.275151 0.198306
0.791440 0.294285 0.220554
0.818235 0.314580 0.244175
0.846311 0.336004 0.268559
0.875029 0.358984 0.294560
0.903990 0.383673 0.322515
0.932982 0.410315 0.352758
0.961364 0.439399 0.386114
0.988586 0.471290 0.422492
1.000000 0.503197 0.458839
1.000000 0.535821 0.495766
0.030060 0.087709 0.044160
0.029328 0.088685 0.044953
0.031373 0.089784 0.044556
0.039765 0.092683 0.046632
0.080446 0.097047 0.056916
0.091127 0.090669 0.088136
0.162661 0.116121 0.064149
0.212345 0.122774 0.057496
0.261570 0.129793 0.056672
0.313909 0.138766 0.054810
0.368688 0.149020 0.057252
0.423468 0.161166 0.060670
0.474647 0.173281 0.066194
0.521965 0.185550 0.073945
0.564691 0.197543 0.084352
0.602838 0.210025 0.097475
0.636683 0.222568 0.111330
0.666621 0.235019 0.127840
0.693416 0.248081 0.144442
0.718441 0.262089 0.162814
0.742428 0.276860 0.182589
0.766232 0.293034 0.203403
0.808011 0.325170 0.241001
0.834897 0.344244 0.264164
0.862364 0.364660 0.288426
0.890013 0.386145 0.314244
0.917632 0.409583 0.342504
0.944915 0.435126 0.373083
0.971527 0.462562 0.405280
0.996918 0.493172 0.441047
1.000000 0.522820 0.475319
1.000000 0.553063 0.509972
0.043549 0.130068 0.063355
0.044465 0.130831 0.062776
0.044404 0.131960 0.063416
0.063508 0.136721 0.062104
0.097536 0.146578 0.058686
0.123903 0.134249 0.087343
0.127993 0.128725 0.126955
0.209232 0.163638 0.098543
0.280156 0.178531 0.062715
0.333440 0.189425 0.063355
0.388251 0.200870 0.065034
0.441047 0.211887 0.068513
0.490455 0.222232 0.074189
0.535271 0.231388 0.083772
0.575433 0.240421 0.094301
0.611170 0.249393 0.107485
0.643122 0.258610 0.121614
0.671809 0.268101 0.137881
0.697963 0.278508 0.154696
0.722957 0.290379 0.173465
0.747280 0.303899 0.194156
0.772671 0.319432 0.216007
0.799863 0.336950 0.239811
0.828580 0.355993 0.264012
0.857847 0.376379 0.289555
0.886595 0.397894 0.316930
0.914885 0.420813 0.345708
0.942565 0.445411 0.375799
0.969512 0.472206 0.408423
0.995026 0.501396 0.443244
1.000000 0.529992 0.477241
1.000000 0.559350 0.511467
0.042756 0.174105 0.070710
0.041444 0.174655 0.071656
0.052338 0.176577 0.070375
0.079286 0.182162 0.068269
0.113832 0.191348 0.063844
0.149325 0.189212 0.079530
0.165133 0.171725 0.121920
0.166110 0.167971 0.168399
0.256596 0.212345 0.139559
0.334997 0.233799 0.101289
0.398138 0.245365 0.073091
0.447547 0.254520 0.077150
0.494057 0.262577 0.083345
0.537011 0.270024 0.092409
0.575982 0.277012 0.102510
0.610742 0.283421 0.115236
0.642084 0.290135 0.129854
0.670344 0.297581 0.145083
0.696254 0.305852 0.161105
0.721096 0.315496 0.179782
0.745266 0.326818 0.199771
0.770413 0.340368 0.222019
0.797299 0.355871 0.244633
0.825864 0.373205 0.268620
0.854948 0.392340 0.294591
0.883818 0.412665 0.321843
0.912230 0.434546 0.350500
0.940185 0.458137 0.380652
0.967437 0.483986 0.412634
0.993011 0.511528 0.446509
1.000000 0.539178 0.480079
1.000000 0.567529 0.514122
0.057618 0.223697 0.080415
0.067842 0.225345 0.079744
0.079927 0.227695 0.078737
0.103700 0.233127 0.074647
0.135195 0.241062 0.070130
0.173190 0.247929 0.071015
0.201816 0.233402 0.116487
0.212924 0.216770 0.163394
0.211917 0.214786 0.216739
0.305516 0.262821 0.186954
0.383429 0.285985 0.148806
0.451545 0.298222 0.106905
0.499702 0.303563 0.093996
0.540826 0.309117 0.102663
0.578119 0.314244 0.113008
0.611810 0.318853 0.125612
0.642390 0.323613 0.139132
0.670100 0.328923 0.154665
0.695613 0.334936 0.170809
0.720180 0.342626 0.188663
0.744015 0.352117 0.208408
0.768978 0.363745 0.229740
0.795712 0.377508 0.251865
0.824033 0.393561 0.276310
0.853025 0.411231 0.302098
0.881895 0.430213 0.328862
0.910369 0.450874 0.357275
0.938445 0.473304 0.386633
0.965881 0.498054 0.418524
0.991211 0.524102 0.451637
1.000000 0.550256 0.484291
1.000000 0.577356 0.517662
0.092409 0.278904 0.088533
0.100526 0.280827 0.087373
0.110628 0.283207 0.086244
0.132570 0.288457 0.082612
0.162234 0.296452 0.078218
0.199680 0.306493 0.070314
0.233188 0.296117 0.110567
0.255253 0.280217 0.157992
0.260777 0.262913 0.208286
0.257694 0.261784 0.266026
0.351781 0.311376 0.235813
0.426856 0.334112 0.198581
0.491035 0.345129 0.160098
0.545098 0.348516 0.118257
0.580652 0.350896 0.125368
0.613733 0.354467 0.137667
0.644007 0.357733 0.151339
0.671260 0.361486 0.165774
0.696315 0.365820 0.181827
0.720302 0.371588 0.199008
0.743618 0.379095 0.218265
0.768002 0.388647 0.238254
0.793973 0.400671 0.261326
0.821622 0.414893 0.285222
0.850217 0.430884 0.310033
0.878996 0.448646 0.336461
0.907744 0.468086 0.364019
0.936309 0.489570 0.393378
0.964202 0.513603 0.425513
0.989502 0.538048 0.457313
1.000000 0.563378 0.489937
1.000000 0.589349 0.522789
0.129305 0.337072 0.097353
0.135958 0.338415 0.096620
0.145113 0.340398 0.095216
0.163424 0.344244 0.092897
0.191043 0.350500 0.087282
0.224338 0.358495 0.080751
0.260288 0.356390 0.104707
0.288670 0.342229 0.153689
0.306767 0.325963 0.203708
0.309117 0.309453 0.255894
0.304936 0.309911 0.315801
0.395605 0.358495 0.286809
0.466621 0.380224 0.250462
0.526879 0.390082 0.213687
0.577722 0.391882 0.175692
0.615412 0.389166 0.150240
0.644678 0.390906 0.163638
0.671199 0.393072 0.178073
0.695827 0.395850 0.192996
0.719448 0.399969 0.210117
0.742489 0.406073 0.229252
0.766690 0.414313 0.250340
0.792660 0.425147 0.272831
0.820249 0.438117 0.296452
0.848722 0.452949 0.320775
0.877440 0.469368 0.346593
0.906188 0.487709 0.373541
0.934752 0.507958 0.402045
0.962737 0.530846 0.433539
0.987610 0.553307 0.464027
1.000000 0.577142 0.495735
1.000000 0.601953 0.528038
0.165377 0.391211 0.109957
0.170718 0.392279 0.109316
0.179080 0.393774 0.107912
0.195163 0.396857 0.104738
0.219028 0.401801 0.101717
0.249210 0.408331 0.095338
0.284459 0.412329 0.099947
0.316381 0.400000 0.151949
0.341650 0.386236 0.201175
0.357092 0.371527 0.252354
0.356878 0.356085 0.305150
0.352880 0.358282 0.365332
0.455634 0.421576 0.354437
0.520836 0.441199 0.319677
0.574884 0.447608 0.283787
0.619867 0.446143 0.246952
0.657862 0.439460 0.209598
0.683375 0.434791 0.204044
0.706172 0.435523 0.219791
0.728450 0.437964 0.237034
0.750820 0.442512 0.255955
0.774777 0.449500 0.275700
0.800229 0.458625 0.296452
0.827268 0.470192 0.318242
0.855070 0.483406 0.341711
0.883116 0.498512 0.366033
0.911192 0.515343 0.392004
0.939086 0.534051 0.419348
0.965637 0.554498 0.448646
0.989654 0.575097 0.477577
1.000000 0.596765 0.507500
1.000000 0.619623 0.538537
0.206577 0.450629 0.128969
0.211398 0.451392 0.128084
0.217777 0.452125 0.126772
0.231571 0.453925 0.125185
0.251987 0.456855 0.120943
0.278355 0.460975 0.115419
0.310094 0.466499 0.108370
0.343420 0.457649 0.153811
0.372961 0.446082 0.203922
0.396674 0.433661 0.255070
0.410559 0.420844 0.307591
0.410193 0.408637 0.360632
0.407843 0.413306 0.421210
0.488441 0.458198 0.397040
0.549493 0.477455 0.366125
0.599390 0.484016 0.334356
0.641108 0.482002 0.301122
0.676326 0.474983 0.267369
0.704860 0.465370 0.238041
0.726497 0.465675 0.252140
0.748653 0.469062 0.270329
0.772427 0.474922 0.289189
0.797726 0.483162 0.309331
0.824643 0.493568 0.330571
0.852323 0.505638 0.352575
0.880430 0.519585 0.375921
0.908721 0.535576 0.401495
0.936828 0.553460 0.428748
0.963012 0.571801 0.455818
0.987243 0.591363 0.484443
1.000000 0.611872 0.513756
1.000000 0.633539 0.544244
0.238468 0.493904 0.148867
0.242954 0.494423 0.147738
0.248447 0.495094 0.146151
0.259800 0.496437 0.145083
0.277623 0.498604 0.141909
0.300969 0.501793 0.136263
0.329534 0.506126 0.130709
0.361486 0.503716 0.155184
0.393194 0.493690 0.204746
0.420844 0.483375 0.254551
0.442237 0.472145 0.305425
0.454139 0.461219 0.356512
0.452491 0.450446 0.406561
0.450324 0.455879 0.464088
0.522301 0.495644 0.441047
0.577264 0.512779 0.412177
0.622034 0.517845 0.382361
0.659937 0.515465 0.351720
0.693263 0.508782 0.320958
0.723568 0.499733 0.290043
0.746792 0.495613 0.285679
0.770535 0.500603 0.304204
0.795804 0.507866 0.322972
0.822751 0.517449 0.343664
0.850431 0.528923 0.365118
0.878630 0.542046 0.388067
0.907103 0.557061 0.412390
0.935149 0.573754 0.438758
0.960967 0.590692 0.465126
0.985382 0.608911 0.492531
1.000000 0.628229 0.521080
1.000000 0.648707 0.551019
0.268711 0.533318 0.175662
0.272221 0.533959 0.175174
0.276768 0.534264 0.174899
0.286931 0.535363 0.173312
0.302495 0.536950 0.170108
0.322576 0.539300 0.167086
0.347509 0.542657 0.162814
0.377050 0.545525 0.163180
0.409491 0.537133 0.211032
0.439673 0.528313 0.258701
0.465736 0.518700 0.307439
0.484871 0.508965 0.356115
0.494606 0.499062 0.403845
0.491615 0.489387 0.449836
0.489906 0.495155 0.502861
0.552941 0.529656 0.481331
0.601984 0.544762 0.454597
0.642267 0.549065 0.427100
0.677546 0.547234 0.399664
0.709682 0.541985 0.372595
0.740414 0.534844 0.345251
0.769253 0.527550 0.322271
0.793973 0.532738 0.337652
0.820951 0.541436 0.356756
0.848722 0.552209 0.377813
0.877226 0.564935 0.400519
0.906188 0.579522 0.424964
0.933867 0.594873 0.449866
0.960052 0.611139 0.475837
0.984741 0.628504 0.502861
1.000000 0.647028 0.531212
1.000000 0.666346 0.560418
0.297398 0.568719 0.207675
0.300969 0.569177 0.207187
0.304814 0.569635 0.206699
0.313756 0.570703 0.206027
0.327337 0.572168 0.203769
0.345312 0.574456 0.201328
0.367468 0.577325 0.198459
0.393286 0.581018 0.196109
0.424750 0.577722 0.223117
0.456245 0.569665 0.268223
0.484382 0.561120 0.313848
0.507500 0.552026 0.359442
0.523369 0.542443 0.404242
0.530205 0.532799 0.447578
0.525689 0.523430 0.488838
0.524041 0.529015 0.536492
0.579675 0.559319 0.516258
0.623621 0.573236 0.492988
0.661036 0.578149 0.468788
0.695094 0.578119 0.445136
0.727077 0.575219 0.421973
0.759884 0.571130 0.398169
0.793362 0.566033 0.373449
0.820768 0.566796 0.372839
0.848783 0.577081 0.393286
0.877592 0.589288 0.415015
0.906279 0.603021 0.438697
0.933440 0.617029 0.462409
0.959503 0.632136 0.487404
0.984039 0.648310 0.513451
1.000000 0.665309 0.540551
1.000000 0.683162 0.568688
0.325261 0.599115 0.239658
0.327672 0.599390 0.239658
0.331151 0.599756 0.238926
0.338689 0.600549 0.238437
0.350408 0.601770 0.236637
0.366064 0.603571 0.234623
0.385534 0.605921 0.232700
0.408270 0.608728 0.230289
0.435096 0.610590 0.234653
0.466804 0.603510 0.276921
0.496651 0.595819 0.320317
0.522423 0.587884 0.363470
0.542870 0.579461 0.406012
0.556329 0.570916 0.447211
0.561242 0.562371 0.486732
0.556115 0.553887 0.523308
0.554986 0.559655 0.566644
0.604059 0.586358 0.548547
0.644312 0.599908 0.528222
0.679622 0.605921 0.507622
0.712642 0.607813 0.487556
0.746242 0.607935 0.467323
0.780728 0.606806 0.446815
0.816037 0.604639 0.425818
0.848386 0.602075 0.409888
0.876921 0.612482 0.428595
0.904753 0.624598 0.450538
0.932036 0.637903 0.473610
0.958282 0.652216 0.497749
0.982910 0.667445 0.523033
1.000000 0.683497 0.549706
1.000000 0.700191 0.577050
0.352850 0.626764 0.272374
0.355413 0.627131 0.273228
0.367773 0.636164 0.284123
0.374090 0.636652 0.283238
0.383856 0.637568 0.281559
0.396735 0.638666 0.280339
0.413001 0.640101 0.277775
0.432258 0.641932 0.275822
0.454780 0.644251 0.273381
0.483955 0.640681 0.298955
0.513725 0.633783 0.338811
0.540673 0.626276 0.378820
0.563470 0.618372 0.418494
0.580713 0.610407 0.457008
0.591333 0.602380 0.493660
0.594598 0.594598 0.528344
0.589227 0.587152 0.560632
0.588495 0.592767 0.599512
0.631281 0.616083 0.583001
0.668147 0.629297 0.565606
0.701869 0.636378 0.547753
0.736233 0.641260 0.530694
0.771603 0.644282 0.513268
0.807614 0.645960 0.495857
0.843290 0.646082 0.478462
0.877684 0.643824 0.459632
0.904417 0.647089 0.463539
0.931182 0.659113 0.485237
0.957153 0.672267 0.508049
0.981750 0.686519 0.532647
1.000000 0.701442 0.558404
1.000000 0.717067 0.585229
0.382452 0.653712 0.308843
0.385443 0.654932 0.310063
0.389380 0.656245 0.310918
0.395850 0.657679 0.311955
0.405097 0.659205 0.311772
0.416785 0.660548 0.311070
0.431037 0.661952 0.309636
0.448005 0.663600 0.308171
0.467842 0.665583 0.306279
0.491402 0.666529 0.310979
0.521233 0.660365 0.348028
0.548913 0.653742 0.386084
0.573419 0.646571 0.423590
0.593347 0.639399 0.459998
0.608057 0.632227 0.494942
0.616846 0.625055 0.528222
0.618982 0.618219 0.559350
0.613764 0.611810 0.588373
0.613977 0.618006 0.624323
0.653040 0.639551 0.609827
0.688136 0.653193 0.594934
0.723384 0.663325 0.580407
0.759701 0.671260 0.566064
0.796719 0.677485 0.552148
0.832578 0.681025 0.537652
0.867277 0.682063 0.522362
0.900969 0.681575 0.507103
0.930449 0.680751 0.498054
0.956176 0.692256 0.518761
0.980774 0.705501 0.542321
1.000000 0.719478 0.567254
1.000000 0.734096 0.593439
0.408301 0.675990 0.339971
0.411231 0.676967 0.341833
0.414557 0.678157 0.342596
0.420081 0.679316 0.343603
0.428199 0.680690 0.343725
0.438239 0.681880 0.343053
0.450752 0.683192 0.341802
0.465492 0.684657 0.340154
0.482795 0.686427 0.339300
0.502403 0.688441 0.337499
0.529046 0.685664 0.360052
0.557000 0.679744 0.395758
0.582330 0.673396 0.431067
0.604211 0.666926 0.465736
0.621698 0.660273 0.499245
0.634241 0.653803 0.530999
0.641505 0.647578 0.560815
0.643122 0.641779 0.588983
0.638788 0.636805 0.615808
0.639673 0.643244 0.648859
0.675685 0.663416 0.636103
0.711727 0.679042 0.623316
0.748989 0.691951 0.611231
0.786252 0.701991 0.599084
0.822354 0.708919 0.586572
0.857328 0.713649 0.574426
0.891386 0.716396 0.562432
0.924254 0.717586 0.550835
0.955779 0.717281 0.539544
0.979583 0.724117 0.551659
1.000000 0.737179 0.575799
1.000000 0.750851 0.601465
0.434699 0.697292 0.372168
0.437110 0.698268 0.373175
0.440101 0.699306 0.374151
0.444984 0.700435 0.375036
0.452003 0.701595 0.375280
0.460945 0.702785 0.374853
0.471534 0.703975 0.373785
0.484474 0.705470 0.372839
0.499702 0.707240 0.371344
0.517174 0.709346 0.370306
0.537896 0.710780 0.373175
0.565698 0.705287 0.406897
0.591333 0.699489 0.440192
0.614221 0.693446 0.473121
0.633661 0.687343 0.505180
0.649073 0.681483 0.535821
0.660182 0.676020 0.564996
0.666773 0.671015 0.592462
0.668605 0.666773 0.618524
0.665766 0.663752 0.644373
0.668086 0.671107 0.675715
0.704860 0.692592 0.664912
0.742000 0.709560 0.652979
0.780026 0.723873 0.642206
0.817014 0.734951 0.631800
0.852750 0.743282 0.621820
0.887022 0.749294 0.612451
0.919890 0.753414 0.603723
0.951049 0.755947 0.595727
0.980255 0.757046 0.588708
1.000000 0.758633 0.589288
1.000000 0.771328 0.614130
0.465736 0.722866 0.408606
0.467536 0.723384 0.409155
0.469337 0.723934 0.409155
0.473182 0.724697 0.409125
0.479042 0.725612 0.409155
0.486580 0.726589 0.408606
0.495857 0.727901 0.407752
0.507317 0.729580 0.406867
0.521019 0.731563 0.405737
0.536767 0.734005 0.405219
0.554650 0.736934 0.404150
0.578882 0.735103 0.422553
0.604822 0.729854 0.454200
0.628473 0.724208 0.485389
0.649165 0.718563 0.515648
0.666468 0.713039 0.544701
0.680110 0.707790 0.572259
0.689967 0.702968 0.598627
0.695857 0.698634 0.623713
0.697536 0.694942 0.647852
0.694972 0.692287 0.671839
0.696986 0.699519 0.703090
0.733181 0.720394 0.691310
0.770077 0.737240 0.678737
0.807645 0.752010 0.668788
0.843992 0.763699 0.659815
0.878782 0.772793 0.651759
0.912016 0.779660 0.644709
0.943206 0.784787 0.638880
0.972320 0.788266 0.633997
0.998901 0.790616 0.630762
1.000000 0.792416 0.629755
0.493080 0.747097 0.439399
0.494606 0.747738 0.439765
0.496468 0.748409 0.440101
0.499947 0.749142 0.440497
0.504875 0.750057 0.440192
0.511589 0.751125 0.439826
0.519890 0.752407 0.439033
0.529961 0.754086 0.438056
0.542138 0.756161 0.437415
0.556359 0.758602 0.436622
0.572625 0.761532 0.435798
0.590967 0.764553 0.435950
0.617182 0.759762 0.465949
0.641596 0.754696 0.495705
0.663447 0.749691 0.524651
0.682582 0.744839 0.552453
0.698604 0.740139 0.578973
0.711543 0.735836 0.604425
0.720546 0.731441 0.628443
0.725734 0.727230 0.651301
0.726955 0.723384 0.673854
0.724697 0.721309 0.699214
0.727474 0.729366 0.731930
0.763546 0.750546 0.720699
0.796750 0.764370 0.705623
0.833829 0.779690 0.696773
0.869413 0.791867 0.689052
0.903075 0.801480 0.682734
0.934600 0.808988 0.677821
0.963775 0.814817 0.674556
0.990265 0.819760 0.673793
1.000000 0.824460 0.676234
0.524437 0.776913 0.473640
0.526024 0.777646 0.474250
0.527520 0.778164 0.474189
0.530510 0.778805 0.474403
0.534874 0.779568 0.474037
0.540490 0.780484 0.473243
0.547723 0.781613 0.472236
0.556542 0.782986 0.471229
0.567315 0.784726 0.470436
0.579797 0.786893 0.469429
0.594110 0.789425 0.468391
0.610346 0.792325 0.467445
0.631769 0.791806 0.480262
0.656245 0.787167 0.508141
0.678676 0.782345 0.535027
0.698390 0.777340 0.560815
0.715267 0.772061 0.585168
0.729397 0.767117 0.608759
0.740932 0.762722 0.631617
0.749599 0.758785 0.653925
0.755062 0.755306 0.676600
0.756619 0.752102 0.700465
0.754757 0.750729 0.727230
0.757382 0.758785 0.760433
0.791257 0.778744 0.749783
0.824735 0.793851 0.736843
0.860685 0.809415 0.729427
0.894560 0.821805 0.723445
0.926116 0.831815 0.719478
0.955108 0.840146 0.717769
0.981231 0.847532 0.719203
1.000000 0.854978 0.724880
0.551873 0.804715 0.502922
0.553216 0.805417 0.503197
0.554772 0.805936 0.503532
0.557427 0.806577 0.503655
0.561395 0.807340 0.503258
0.566644 0.808347 0.502678
0.573419 0.809506 0.502312
0.581567 0.811002 0.501518
0.591485 0.812833 0.500938
0.603204 0.815122 0.500694
0.616480 0.817838 0.500053
0.631464 0.820645 0.499672
0.647700 0.823484 0.498756
0.671199 0.819791 0.521538
0.693751 0.815091 0.546471
0.714260 0.810391 0.570672
0.732570 0.805692 0.593927
0.748592 0.801328 0.616449
0.762387 0.797238 0.638514
0.773861 0.793545 0.660273
0.782589 0.790219 0.683101
0.788113 0.787198 0.707362
0.789639 0.784451 0.732570
0.788052 0.783658 0.760067
0.790921 0.791775 0.792355
0.822171 0.810391 0.783108
0.853025 0.824430 0.770840
0.887053 0.840146 0.765805
0.918608 0.853086 0.762997
0.947417 0.863951 0.762753
0.973053 0.873716 0.765988
0.995087 0.883421 0.773983
0.580865 0.835080 0.533074
0.582055 0.835538 0.533654
0.583307 0.835904 0.533745
0.585443 0.836301 0.533379
0.588769 0.836759 0.532860
0.593408 0.837369 0.532464
0.599176 0.838254 0.531518
0.606531 0.839384 0.530968
0.615320 0.840818 0.530022
0.625635 0.842710 0.529351
0.637568 0.844816 0.528801
0.651148 0.847318 0.528344
0.666102 0.850004 0.527672
0.684718 0.850706 0.534508
0.707485 0.846525 0.557946
0.728573 0.842283 0.580743
0.747890 0.837980 0.602899
0.765286 0.833890 0.624475
0.780911 0.830198 0.645655
0.794553 0.826749 0.667445
0.806027 0.823606 0.690608
0.814755 0.820737 0.715053
0.820035 0.818112 0.740444
0.821439 0.815854 0.765682
0.820218 0.815640 0.792599
0.823056 0.823392 0.823117
0.851133 0.840543 0.815702
0.879210 0.853452 0.804623
0.910216 0.868681 0.801877
0.938903 0.882139 0.802701
0.964355 0.894011 0.806912
0.985962 0.905547 0.816190
0.606409 0.862791 0.559899
0.607324 0.863127 0.560113
0.608484 0.863432 0.560266
0.610498 0.863859 0.559930
0.613855 0.864408 0.559991
0.618372 0.865324 0.559655
0.624323 0.866636 0.559625
0.631678 0.868284 0.559503
0.640497 0.870329 0.559747
0.650843 0.872709 0.560052
0.662501 0.875334 0.560418
0.675624 0.878202 0.560632
0.689967 0.881102 0.560876
0.705379 0.883970 0.560571
0.726314 0.882353 0.576074
0.747951 0.878691 0.597620
0.768002 0.874998 0.618647
0.786496 0.871366 0.639216
0.803616 0.867979 0.660365
0.819242 0.864744 0.682887
0.832883 0.861784 0.706813
0.844083 0.859068 0.731899
0.852262 0.856596 0.757107
0.857084 0.854429 0.781888
0.858274 0.852567 0.806119
0.857359 0.852842 0.831418
0.859953 0.859953 0.859007
0.883970 0.874815 0.853269
0.908080 0.886259 0.844327
0.934844 0.900389 0.844022
0.959380 0.913817 0.848783
0.979980 0.926360 0.858122
0.636103 0.894621 0.590631
0.636866 0.894865 0.590753
0.637751 0.894987 0.590753
0.639551 0.895232 0.590478
0.642451 0.895598 0.590265
0.646418 0.896147 0.589807
0.651545 0.897002 0.589532
0.657923 0.898100 0.589258
0.665675 0.899504 0.589227
0.674739 0.901152 0.589044
0.685054 0.903014 0.588922
0.696651 0.905058 0.588983
0.709407 0.907225 0.588800
0.723354 0.909422 0.588434
