data/fiter_cube/87192323/1023458/file.cube
# Created by Adobe Lightroom plugin Export LUT (1.17.0)
# www.johnrellis.com/lightroom/exportlut.htm
# Preset: 日系清新自然_09 云集
# Color profile: C:\Program Files (x86)\Common Files\Adobe\Color\Profiles\Recommended\AdobeRGB1998.icc
LUT_3D_SIZE 5
DOMAIN_MIN 0.000000 0.000000 0.000000
DOMAIN_MAX 0.903226 0.903226 0.903226
0.000000 0.000000 0.000000
0.343420 0.078309 0.000000
0.706111 0.120943 0.000000
0.947417 0.137606 0.000000
1.000000 0.126162 0.000000
0.114961 0.322454 0.134829
0.317418 0.358587 0.000000
0.692287 0.339879 0.000000
0.939422 0.310094 0.000000
1.000000 0.270146 0.000000
0.325780 0.663294 0.313024
0.426215 0.664240 0.336919
0.690974 0.706477 0.076936
0.930846 0.586877 0.000000
1.000000 0.495491 0.000000
0.558160 0.861967 0.502037
0.604303 0.861967 0.518090
0.721401 0.862028 0.563531
0.885100 0.883055 0.232792
1.000000 0.757992 0.000000
0.729732 0.971557 0.664942
0.747951 0.970062 0.671504
0.800351 0.963653 0.690089
0.863035 0.972198 0.666957
1.000000 0.990448 0.341497
0.000000 0.011292 0.286931
0.317479 0.000000 0.280461
0.680018 0.000000 0.203555
0.925811 0.152499 0.187106
1.000000 0.141726 0.117830
0.093782 0.322881 0.254490
0.302525 0.341650 0.261814
0.675166 0.329198 0.215824
0.921660 0.311986 0.176608
1.000000 0.275059 0.103578
0.339727 0.650507 0.373205
0.451148 0.657404 0.402197
0.670405 0.685603 0.284611
0.914214 0.575982 0.141909
1.000000 0.498207 0.000000
0.596368 0.859007 0.553704
0.633845 0.860929 0.564446
0.743191 0.862577 0.611017
0.884764 0.880797 0.363348
1.000000 0.757290 0.000000
0.748959 0.971283 0.694209
0.763272 0.970336 0.697597
0.817472 0.966979 0.720790
0.876341 0.972045 0.710018
1.000000 0.990539 0.434424
0.000000 0.051637 0.550744
0.301915 0.010956 0.543633
0.643763 0.000000 0.528222
0.901061 0.000000 0.460914
1.000000 0.169802 0.401434
0.000000 0.352667 0.536553
0.271275 0.317967 0.532403
0.638727 0.300511 0.517510
0.897124 0.305119 0.455634
1.000000 0.389960 0.441627
0.241672 0.629847 0.500114
0.381659 0.630610 0.503136
0.631739 0.643885 0.512261
0.889067 0.601343 0.471931
1.000000 0.548974 0.428443
0.557733 0.847410 0.597192
0.624720 0.847623 0.620020
0.765621 0.859556 0.684749
0.882994 0.875212 0.586786
1.000000 0.764309 0.422950
0.746670 0.969665 0.729000
0.778775 0.969848 0.747707
0.839963 0.970489 0.778470
0.903990 0.967987 0.808072
1.000000 0.988006 0.611872
0.000000 0.108705 0.769802
0.250736 0.104707 0.766720
0.586481 0.025330 0.760494
0.870603 0.000000 0.728115
1.000000 0.162203 0.651392
0.000000 0.312627 0.764004
0.234562 0.310399 0.761715
0.579736 0.296818 0.753170
0.863676 0.288914 0.720546
1.000000 0.324498 0.653315
0.102388 0.622217 0.742641
0.291234 0.617609 0.740749
0.575586 0.596918 0.733883
0.846738 0.589319 0.709438
1.000000 0.586206 0.673518
0.443427 0.841733 0.712184
0.520104 0.838651 0.713710
0.690517 0.833616 0.724941
0.850797 0.843748 0.741054
1.000000 0.796841 0.697688
0.712520 0.970581 0.778012
0.743404 0.970367 0.788754
0.829374 0.971893 0.825437
0.922332 0.976257 0.878325
0.998779 0.987091 0.796262
0.000000 0.144747 0.980987
0.129763 0.142519 0.979675
0.504112 0.121004 0.975189
0.801236 0.003754 0.968383
1.000000 0.111086 0.922515
0.000000 0.308568 0.978698
0.130465 0.307378 0.977508
0.504051 0.299687 0.973388
0.800778 0.282719 0.966979
1.000000 0.303227 0.922362
0.000000 0.587701 0.970031
0.266453 0.590723 0.969390
0.528679 0.577020 0.966979
0.800046 0.565911 0.961822
1.000000 0.565057 0.923796
0.337652 0.836210 0.951659
0.413977 0.835264 0.952209
0.584070 0.826719 0.954376
0.796597 0.805753 0.954833
1.000000 0.800656 0.930175
0.609705 0.998566 0.915892
0.646082 0.996674 0.917418
0.750362 0.990692 0.923003
0.883452 0.984009 0.937316
0.990997 0.988342 0.965362
