data/fiter_cube/87192323/1023458/file.cube
# Created by Adobe Lightroom plugin Export LUT (1.17.0)
# www.johnrellis.com/lightroom/exportlut.htm
# Preset: 日系清新自然_09 云集
# Color profile: C:\Program Files (x86)\Common Files\Adobe\Color\Profiles\Recommended\AdobeRGB1998.icc
LUT_3D_SIZE 32
DOMAIN_MIN 0.0 0.0 0.0
DOMAIN_MAX 1.0 1.0 1.0
0.000000 0.000000 0.000000
0.056184 0.003174 0.000000
0.080751 0.006226 0.000000
0.126162 0.016175 0.000000
0.183902 0.036255 0.000000
0.239658 0.056947 0.000000
0.292210 0.068208 0.000000
0.343420 0.078309 0.000000
0.395300 0.086915 0.000000
0.447913 0.094270 0.000000
0.502220 0.100374 0.000000
0.557610 0.106905 0.000000
0.610834 0.111940 0.000000
0.660426 0.116579 0.000000
0.706111 0.120943 0.000000
0.747524 0.123720 0.000000
0.784939 0.126223 0.000000
0.822446 0.128817 0.000000
0.859068 0.131746 0.000000
0.891417 0.134279 0.000000
0.920684 0.136172 0.000000
0.947417 0.137606 0.000000
0.971771 0.138155 0.000000
0.994141 0.138582 0.000000
1.000000 0.137636 0.000000
1.000000 0.136385 0.000000
1.000000 0.134127 0.000000
1.000000 0.130953 0.000000
1.000000 0.126162 0.000000
1.000000 0.120211 0.000000
1.000000 0.111879 0.000000
1.000000 0.101137 0.000000
0.008148 0.050843 0.011749
0.044526 0.061128 0.001862
0.079347 0.060365 0.000000
0.125216 0.067018 0.000000
0.182650 0.077882 0.000000
0.238163 0.086732 0.000000
0.290532 0.093690 0.000000
0.341405 0.100221 0.000000
0.392889 0.106142 0.000000
0.445502 0.112337 0.000000
0.499397 0.117586 0.000000
0.554589 0.122530 0.000000
0.607691 0.127291 0.000000
0.657282 0.130892 0.000000
0.703059 0.133577 0.000000
0.744503 0.136782 0.000000
0.782010 0.138399 0.000000
0.819760 0.140414 0.000000
0.855772 0.142245 0.000000
0.887907 0.143923 0.000000
0.917113 0.145266 0.000000
0.943938 0.145937 0.000000
0.968444 0.146212 0.000000
0.991119 0.145663 0.000000
1.000000 0.144961 0.000000
1.000000 0.143282 0.000000
1.000000 0.140536 0.000000
1.000000 0.137667 0.000000
1.000000 0.132906 0.000000
1.000000 0.127047 0.000000
1.000000 0.118990 0.000000
1.000000 0.108949 0.000000
0.020844 0.078767 0.028626
0.044862 0.078584 0.034516
0.073152 0.088991 0.004028
0.124056 0.096590 0.000000
0.181125 0.104921 0.000000
0.236545 0.112428 0.000000
0.288487 0.117983 0.000000
0.339208 0.122896 0.000000
0.390723 0.127993 0.000000
0.443030 0.132479 0.000000
0.497017 0.136995 0.000000
0.551934 0.141787 0.000000
0.605219 0.145052 0.000000
0.655055 0.147951 0.000000
0.700862 0.150118 0.000000
0.742550 0.151675 0.000000
0.780148 0.153170 0.000000
0.818326 0.154543 0.000000
0.853880 0.155276 0.000000
0.885832 0.156222 0.000000
0.915099 0.156680 0.000000
0.942046 0.156924 0.000000
0.966644 0.156680 0.000000
0.989441 0.155886 0.000000
1.000000 0.154665 0.000000
1.000000 0.152438 0.000000
1.000000 0.149874 0.000000
1.000000 0.146334 0.000000
1.000000 0.141482 0.000000
1.000000 0.135805 0.000000
1.000000 0.127810 0.000000
1.000000 0.118166 0.000000
0.046815 0.119539 0.059693
0.064057 0.119478 0.062013
0.076570 0.120668 0.063569
0.117189 0.140322 0.002045
0.179660 0.151492 0.000000
0.234257 0.152560 0.000000
0.286137 0.156619 0.000000
0.337072 0.160098 0.000000
0.388190 0.163455 0.000000
0.440650 0.166934 0.000000
0.494240 0.170535 0.000000
0.549096 0.173953 0.000000
0.602167 0.176883 0.000000
0.651972 0.178744 0.000000
0.698024 0.179416 0.000000
0.739834 0.179873 0.000000
0.777646 0.179721 0.000000
0.816617 0.180209 0.000000
0.851225 0.179812 0.000000
0.882567 0.179721 0.000000
0.911650 0.179171 0.000000
0.938567 0.178103 0.000000
0.963531 0.176883 0.000000
0.986877 0.175204 0.000000
1.000000 0.173404 0.000000
1.000000 0.170657 0.000000
1.000000 0.167208 0.000000
1.000000 0.164004 0.000000
1.000000 0.158999 0.000000
1.000000 0.153079 0.000000
1.000000 0.145602 0.000000
1.000000 0.136141 0.000000
0.061280 0.170108 0.074922
0.075013 0.170016 0.076997
0.089296 0.169711 0.079622
0.113008 0.176730 0.073152
0.167117 0.198123 0.000000
0.231449 0.206638 0.000000
0.282780 0.203830 0.000000
0.332769 0.201785 0.000000
0.383978 0.204196 0.000000
0.435920 0.207187 0.000000
0.489418 0.209873 0.000000
0.544182 0.212650 0.000000
0.597467 0.214847 0.000000
0.647608 0.215854 0.000000
0.694087 0.215824 0.000000
0.736446 0.214908 0.000000
0.775906 0.213779 0.000000
0.815396 0.213321 0.000000
0.849607 0.211887 0.000000
0.880705 0.210178 0.000000
0.909483 0.208194 0.000000
0.936339 0.206241 0.000000
0.961395 0.203983 0.000000
0.984924 0.201511 0.000000
1.000000 0.198550 0.000000
1.000000 0.195102 0.000000
1.000000 0.191562 0.000000
1.000000 0.187106 0.000000
1.000000 0.182132 0.000000
1.000000 0.176181 0.000000
1.000000 0.168795 0.000000
1.000000 0.160189 0.000000
0.073762 0.221256 0.091218
0.086732 0.221408 0.093324
0.100832 0.221042 0.095644
0.124392 0.220676 0.101686
0.156802 0.233982 0.078126
0.216617 0.253025 0.000000
0.281376 0.259342 0.000000
0.331395 0.254978 0.000000
0.381018 0.249821 0.000000
0.432624 0.249363 0.000000
0.486030 0.251865 0.000000
0.540703 0.254093 0.000000
0.594049 0.255711 0.000000
0.644343 0.255680 0.000000
0.691218 0.255161 0.000000
0.733944 0.253178 0.000000
0.776120 0.251957 0.000000
0.814633 0.249943 0.000000
0.848508 0.247257 0.000000
0.879606 0.244511 0.000000
0.908568 0.241489 0.000000
0.935637 0.238285 0.000000
0.979400 0.239200 0.000000
1.000000 0.235325 0.000000
1.000000 0.231540 0.000000
1.000000 0.226871 0.000000
1.000000 0.222354 0.000000
1.000000 0.217044 0.000000
1.000000 0.211337 0.000000
1.000000 0.204776 0.000000
1.000000 0.197116 0.000000
1.000000 0.188266 0.000000
0.092500 0.275242 0.112490
0.104005 0.275120 0.114168
0.117433 0.274968 0.116732
0.140902 0.274907 0.122164
0.168826 0.275242 0.129458
0.207156 0.293309 0.085023
0.269535 0.309361 0.000000
0.336217 0.314580 0.000000
0.386999 0.309239 0.000000
0.438453 0.304021 0.000000
0.490669 0.298650 0.000000
0.545892 0.300267 0.000000
0.599084 0.300999 0.000000
0.648981 0.300084 0.000000
0.695155 0.298100 0.000000
0.739223 0.295720 0.000000
0.782284 0.293675 0.000000
0.819852 0.290227 0.000000
0.853391 0.286564 0.000000
0.884825 0.282536 0.000000
0.914702 0.278630 0.000000
0.943145 0.274784 0.000000
0.969787 0.270939 0.000000
0.994537 0.266697 0.000000
1.000000 0.262333 0.000000
1.000000 0.257298 0.000000
1.000000 0.251926 0.000000
1.000000 0.246433 0.000000
1.000000 0.240055 0.000000
1.000000 0.233066 0.000000
1.000000 0.225315 0.000000
1.000000 0.216526 0.000000
0.114961 0.322454 0.134829
0.124239 0.322362 0.136324
0.135683 0.322362 0.138552
0.157015 0.322301 0.143130
0.184176 0.322423 0.150546
0.211887 0.328710 0.142794
0.254917 0.344610 0.093568
0.317418 0.358587 0.000000
0.384619 0.362646 0.000000
0.437568 0.358465 0.000000
0.490059 0.353491 0.000000
0.543053 0.348119 0.000000
0.594568 0.342931 0.000000
0.644465 0.341833 0.000000
0.692287 0.339879 0.000000
0.739071 0.337774 0.000000
0.780301 0.334234 0.000000
0.816770 0.329656 0.000000
0.849912 0.324681 0.000000
0.881163 0.319707 0.000000
0.910979 0.314855 0.000000
0.939422 0.310094 0.000000
0.966094 0.305241 0.000000
0.990967 0.300053 0.000000
1.000000 0.294682 0.000000
1.000000 0.289158 0.000000
1.000000 0.283146 0.000000
1.000000 0.276829 0.000000
1.000000 0.270146 0.000000
1.000000 0.262791 0.000000
1.000000 0.254765 0.000000
1.000000 0.245792 0.000000
0.141939 0.369665 0.159579
0.149172 0.369696 0.160922
0.158877 0.369879 0.163088
0.177951 0.369848 0.167239
0.202945 0.370153 0.173373
0.230594 0.370611 0.181674
0.258793 0.381659 0.157931
0.304692 0.395972 0.105684
0.367285 0.408240 0.000000
0.433753 0.411536 0.000000
0.491035 0.408850 0.000000
0.544121 0.403510 0.000000
0.594812 0.396368 0.000000
0.644617 0.388647 0.000000
0.694026 0.384131 0.000000
0.738674 0.380560 0.000000
0.778592 0.375677 0.000000
0.814511 0.369909 0.000000
0.847288 0.363775 0.000000
0.878416 0.357671 0.000000
0.908171 0.352087 0.000000
0.936614 0.346197 0.000000
0.963317 0.340551 0.000000
0.988220 0.334661 0.000000
1.000000 0.328588 0.000000
1.000000 0.321965 0.000000
1.000000 0.315404 0.000000
1.000000 0.308476 0.000000
1.000000 0.301061 0.000000
1.000000 0.293431 0.000000
1.000000 0.284947 0.000000
1.000000 0.275853 0.000000
0.169650 0.417121 0.184726
0.176059 0.417090 0.185855
0.184207 0.417151 0.187381
0.200778 0.417304 0.190982
0.223606 0.417731 0.196384
0.249973 0.418189 0.203403
0.277897 0.420050 0.209720
0.307988 0.434211 0.171969
0.356268 0.447120 0.117861
0.419074 0.458045 0.000000
0.484138 0.460029 0.000000
0.545495 0.458625 0.000000
0.599817 0.453681 0.000000
0.650355 0.446174 0.000000
0.696559 0.436103 0.000000
0.738155 0.424231 0.000000
0.777737 0.417578 0.000000
0.813596 0.410742 0.000000
0.846250 0.403784 0.000000
0.877104 0.396674 0.000000
0.906371 0.389746 0.000000
0.934081 0.383001 0.000000
0.960266 0.376165 0.000000
0.984710 0.369299 0.000000
1.000000 0.362280 0.000000
1.000000 0.355169 0.000000
1.000000 0.347845 0.000000
1.000000 0.340398 0.000000
1.000000 0.332616 0.000000
1.000000 0.324376 0.000000
1.000000 0.315740 0.000000
1.000000 0.306218 0.000000
0.197208 0.463844 0.208713
0.202548 0.463935 0.209659
0.209842 0.464210 0.211215
0.224704 0.464454 0.214206
0.245701 0.465003 0.218967
0.270756 0.466041 0.225376
0.298802 0.467323 0.233585
0.325139 0.474006 0.225559
0.359594 0.487282 0.185550
0.410437 0.499245 0.129152
0.476722 0.512108 0.000000
0.543359 0.514855 0.000000
0.605859 0.512169 0.000000
0.654658 0.502892 0.000000
0.699275 0.491646 0.000000
0.739742 0.478584 0.000000
0.776608 0.464454 0.000000
0.810605 0.451057 0.000000
0.843198 0.443000 0.000000
0.874052 0.435004 0.000000
0.903380 0.427283 0.000000
0.931243 0.419654 0.000000
0.957549 0.412116 0.000000
0.982177 0.404578 0.000000
1.000000 0.396918 0.000000
1.000000 0.388891 0.000000
1.000000 0.380987 0.000000
1.000000 0.372839 0.000000
1.000000 0.364538 0.000000
1.000000 0.355871 0.000000
1.000000 0.346685 0.000000
1.000000 0.336980 0.000000
0.225345 0.512047 0.232456
0.230014 0.512261 0.233433
0.236667 0.512444 0.234806
0.250065 0.512840 0.237583
0.269444 0.513603 0.241825
0.293187 0.514672 0.247593
0.320378 0.516167 0.254948
0.349767 0.518120 0.263767
0.377813 0.531456 0.241520
0.418555 0.546380 0.200168
0.473060 0.558831 0.141909
0.537621 0.568231 0.000000
0.622644 0.585138 0.000000
0.682429 0.577142 0.000000
0.724941 0.562341 0.000000
0.763149 0.546166 0.000000
0.797787 0.529137 0.000000
0.829129 0.511772 0.000000
0.858091 0.494240 0.000000
0.886595 0.481178 0.000000
0.914336 0.471534 0.000000
0.940581 0.462226 0.000000
0.965240 0.452979 0.000000
0.988495 0.443915 0.000000
1.000000 0.434882 0.000000
1.000000 0.425879 0.000000
1.000000 0.416754 0.000000
1.000000 0.407660 0.000000
1.000000 0.398383 0.000000
1.000000 0.388830 0.000000
1.000000 0.379034 0.000000
1.000000 0.368505 0.000000
0.257816 0.567102 0.259129
0.262028 0.567224 0.259922
0.267796 0.567071 0.260960
0.279911 0.566979 0.263157
0.298528 0.568444 0.267521
0.321996 0.570428 0.273503
0.349340 0.573114 0.280949
0.379492 0.576226 0.290135
0.410803 0.581170 0.296971
0.439399 0.595422 0.262028
0.482826 0.608637 0.218601
0.538689 0.619806 0.158419
0.603845 0.628260 0.000000
0.666499 0.626398 0.000000
0.723110 0.615595 0.000000
0.761807 0.599084 0.000000
0.796292 0.581201 0.000000
0.827298 0.562737 0.000000
0.856046 0.544518 0.000000
0.883543 0.526787 0.000000
0.909941 0.509789 0.000000
0.936156 0.498756 0.000000
0.960967 0.488838 0.000000
0.984405 0.478920 0.000000
1.000000 0.469337 0.000000
1.000000 0.459541 0.000000
1.000000 0.449866 0.000000
1.000000 0.440253 0.000000
1.000000 0.430457 0.000000
1.000000 0.420447 0.000000
1.000000 0.410163 0.000000
1.000000 0.399329 0.000000
0.291630 0.618189 0.286198
0.295872 0.618372 0.286992
0.300908 0.618433 0.288151
0.312261 0.618616 0.290379
0.328832 0.619013 0.293858
0.350042 0.619654 0.298955
0.375097 0.620905 0.305394
0.403174 0.622736 0.313420
0.433997 0.625360 0.323369
0.461128 0.633021 0.315251
0.491554 0.645258 0.278508
0.535027 0.656123 0.233219
0.588830 0.664576 0.172549
0.650355 0.670008 0.035431
0.711788 0.668391 0.000000
0.760403 0.651331 0.000000
0.794736 0.632471 0.000000
0.825528 0.613092 0.000000
0.854093 0.593774 0.000000
0.881407 0.575402 0.000000
0.907744 0.557610 0.000000
0.932952 0.540429 0.000000
0.957183 0.524681 0.000000
0.980865 0.514244 0.000000
1.000000 0.503868 0.000000
1.000000 0.493568 0.000000
1.000000 0.483223 0.000000
1.000000 0.472999 0.000000
1.000000 0.462745 0.000000
1.000000 0.452247 0.000000
1.000000 0.441535 0.000000
1.000000 0.430274 0.000000
0.325780 0.663294 0.313024
0.329351 0.663539 0.313787
0.333715 0.663355 0.314580
0.343664 0.663172 0.316472
0.358526 0.662928 0.319554
0.377508 0.662867 0.323888
0.400244 0.663264 0.329564
0.426215 0.664240 0.336919
0.454994 0.666072 0.346075
0.485939 0.668666 0.357000
0.508629 0.678279 0.333654
0.539666 0.688746 0.295323
0.581842 0.697292 0.248661
0.633051 0.703395 0.187167
0.690974 0.706477 0.076936
0.751278 0.705440 0.000000
0.792416 0.682887 0.000000
0.824430 0.663203 0.000000
0.852781 0.642939 0.000000
0.879850 0.623499 0.000000
0.905852 0.604883 0.000000
0.930846 0.586877 0.000000
0.954711 0.569360 0.000000
0.977600 0.552026 0.000000
0.999786 0.538293 0.000000
1.000000 0.527489 0.000000
1.000000 0.516777 0.000000
1.000000 0.506157 0.000000
1.000000 0.495491 0.000000
1.000000 0.484688 0.000000
1.000000 0.473518 0.000000
1.000000 0.461707 0.000000
0.359442 0.702113 0.339452
0.362829 0.702388 0.340246
0.366918 0.702388 0.341192
0.375799 0.702358 0.343114
0.389319 0.702296 0.346136
0.406867 0.702358 0.350347
0.427924 0.702876 0.356054
0.452064 0.703761 0.363134
0.479011 0.705043 0.371801
0.507713 0.706722 0.382055
0.535546 0.709682 0.388190
0.554406 0.719020 0.353277
0.583795 0.726772 0.312627
0.623377 0.732540 0.264256
0.671138 0.736019 0.202090
0.725002 0.737209 0.101991
0.783078 0.735897 0.000000
0.820096 0.712001 0.000000
0.851713 0.691707 0.000000
0.879026 0.671595 0.000000
0.905150 0.652277 0.000000
0.930144 0.633570 0.000000
0.954009 0.615351 0.000000
0.976837 0.597559 0.000000
0.998657 0.580072 0.000000
1.000000 0.562860 0.000000
1.000000 0.550896 0.000000
1.000000 0.539757 0.000000
1.000000 0.528466 0.000000
1.000000 0.517021 0.000000
1.000000 0.505211 0.000000
1.000000 0.492866 0.000000
0.392279 0.734890 0.365240
0.394873 0.734890 0.365850
0.398566 0.734798 0.366674
0.406439 0.734676 0.368475
0.418341 0.734585 0.371221
0.434089 0.734585 0.375250
0.453132 0.734859 0.380621
0.475013 0.735256 0.387152
0.499580 0.736080 0.395300
0.526085 0.737179 0.404883
0.554070 0.738613 0.416022
0.574823 0.743648 0.407141
0.593591 0.751705 0.370672
0.622034 0.758114 0.328923
0.659571 0.762448 0.279393
0.704463 0.764553 0.217594
0.755398 0.764584 0.124941
0.810605 0.762844 0.000000
0.845975 0.739559 0.000000
0.877440 0.718898 0.000000
0.903410 0.698604 0.000000
0.928252 0.679042 0.000000
0.951934 0.659998 0.000000
0.974731 0.641627 0.000000
0.996551 0.623621 0.000000
1.000000 0.605982 0.000000
1.000000 0.588586 0.000000
1.000000 0.572747 0.000000
1.000000 0.561028 0.000000
1.000000 0.549157 0.000000
1.000000 0.536858 0.000000
1.000000 0.523980 0.000000
0.425940 0.764553 0.392035
0.428717 0.764858 0.392981
0.446754 0.776303 0.405646
0.453590 0.776120 0.407385
0.464027 0.775753 0.410010
0.477363 0.775296 0.413489
0.493782 0.774899 0.418036
0.512718 0.774624 0.423743
0.534325 0.774563 0.430823
0.557824 0.774929 0.439307
0.582666 0.775479 0.448951
0.608240 0.776150 0.459632
0.621393 0.782010 0.435340
0.638727 0.788235 0.397101
0.664790 0.792874 0.352728
0.699519 0.795682 0.301427
0.741726 0.796689 0.239292
0.789975 0.795834 0.152285
0.842405 0.793362 0.000000
0.876158 0.770382 0.000000
0.906737 0.748531 0.000000
0.930816 0.727413 0.000000
0.953948 0.707118 0.000000
0.975982 0.687526 0.000000
0.996979 0.668360 0.000000
1.000000 0.649622 0.000000
1.000000 0.631250 0.000000
1.000000 0.613336 0.000000
1.000000 0.595636 0.000000
1.000000 0.581140 0.000000
1.000000 0.568414 0.000000
1.000000 0.555016 0.000000
0.463172 0.793851 0.422187
0.467170 0.795254 0.424292
0.471992 0.796628 0.426490
0.479744 0.797696 0.429633
0.490120 0.798398 0.433051
0.502647 0.798520 0.436927
0.517449 0.798337 0.441291
0.534569 0.798062 0.446632
0.553948 0.798032 0.453193
0.575067 0.798184 0.460731
0.597589 0.798459 0.469429
0.621149 0.798886 0.479286
0.642481 0.800168 0.483894
0.652369 0.806516 0.451087
0.669459 0.811765 0.412696
0.694453 0.815640 0.367834
0.727474 0.817899 0.315587
0.767758 0.818570 0.253971
0.814054 0.817716 0.170840
0.864652 0.815579 0.000000
0.898009 0.794064 0.000000
0.928771 0.772183 0.000000
0.951934 0.751217 0.000000
0.974029 0.730892 0.000000
0.995087 0.711086 0.000000
1.000000 0.691798 0.000000
1.000000 0.672969 0.000000
1.000000 0.654566 0.000000
1.000000 0.636439 0.000000
1.000000 0.618311 0.000000
1.000000 0.599969 0.000000
1.000000 0.585992 0.000000
0.493568 0.816770 0.447120
0.497230 0.817960 0.449165
0.501335 0.819089 0.451148
0.508141 0.820005 0.453925
0.517266 0.820584 0.457191
0.528374 0.820676 0.460670
0.541650 0.820462 0.464790
0.556817 0.820218 0.469703
0.574151 0.820096 0.475532
0.593225 0.820127 0.482521
0.613855 0.820310 0.490700
0.635309 0.820554 0.499641
0.657191 0.820676 0.509148
0.671534 0.823728 0.500145
0.681849 0.829343 0.467048
0.698756 0.833890 0.428626
0.722744 0.837217 0.383551
0.754360 0.839200 0.331182
0.792966 0.839841 0.269535
0.837583 0.839231 0.189456
0.886442 0.837278 0.000000
0.919585 0.817472 0.000000
0.950286 0.795224 0.000000
0.972320 0.774228 0.000000
0.993317 0.753658 0.000000
1.000000 0.733608 0.000000
1.000000 0.714137 0.000000
1.000000 0.695155 0.000000
1.000000 0.676509 0.000000
1.000000 0.657923 0.000000
1.000000 0.639216 0.000000
1.000000 0.619959 0.000000
0.523095 0.838193 0.471992
0.526360 0.839200 0.473793
0.530083 0.840177 0.475715
0.536217 0.840970 0.478370
0.544274 0.841459 0.481331
0.554131 0.841459 0.484596
0.565728 0.841245 0.488319
0.579187 0.840909 0.492744
0.594659 0.840665 0.498054
0.611810 0.840513 0.504387
0.630274 0.840513 0.511650
0.649714 0.840513 0.519677
0.669734 0.840482 0.528313
0.690028 0.840421 0.537591
0.698726 0.845182 0.516014
0.709468 0.850431 0.482826
0.726711 0.854887 0.445106
0.750607 0.858457 0.401312
0.781552 0.860990 0.349767
0.819272 0.862333 0.289067
0.862760 0.862394 0.212131
0.910704 0.861234 0.064363
0.943969 0.842985 0.000000
0.973907 0.820096 0.000000
0.995453 0.798978 0.000000
1.000000 0.778134 0.000000
1.000000 0.757900 0.000000
1.000000 0.738064 0.000000
1.000000 0.718502 0.000000
1.000000 0.699184 0.000000
1.000000 0.679622 0.000000
1.000000 0.659998 0.000000
0.558160 0.861967 0.502037
0.560266 0.862364 0.503044
0.562646 0.862638 0.504082
0.567132 0.862821 0.505760
0.573724 0.862791 0.507958
0.582055 0.862547 0.510643
0.592218 0.862272 0.513970
0.604303 0.861967 0.518090
0.618219 0.861845 0.523217
0.633661 0.861723 0.529046
0.650446 0.861753 0.535912
0.668208 0.861784 0.543328
0.686397 0.861631 0.551293
0.704829 0.861448 0.559655
0.721401 0.862028 0.563531
0.727535 0.867460 0.534966
0.738613 0.872282 0.502373
0.755367 0.876432 0.464454
0.778470 0.879728 0.421088
0.807919 0.882017 0.369879
0.843687 0.883177 0.308904
0.885100 0.883055 0.232792
0.930938 0.881682 0.108034
0.963622 0.864408 0.000000
0.992279 0.840543 0.000000
1.000000 0.819425 0.000000
1.000000 0.798489 0.000000
1.000000 0.778073 0.000000
1.000000 0.757992 0.000000
1.000000 0.738064 0.000000
1.000000 0.718288 0.000000
1.000000 0.698726 0.000000
0.585412 0.880247 0.526055
0.587304 0.880583 0.527062
0.589502 0.880888 0.528161
0.593561 0.881041 0.529625
0.599268 0.880980 0.531579
0.606531 0.880735 0.534020
0.615351 0.880369 0.536858
0.625879 0.879973 0.540459
0.638148 0.879667 0.544884
0.651850 0.879423 0.550134
0.666957 0.879301 0.556268
0.682887 0.879149 0.562921
0.699428 0.878935 0.570123
0.716487 0.878721 0.577813
0.733730 0.878447 0.585992
0.744808 0.880888 0.578546
0.751797 0.886107 0.550500
0.763363 0.890806 0.518456
0.780209 0.894896 0.481331
0.802823 0.898253 0.438758
0.831327 0.900694 0.388617
0.865843 0.902037 0.327977
0.905760 0.902220 0.253025
0.950134 0.901152 0.139559
0.980682 0.883482 0.000000
1.000000 0.859617 0.000000
1.000000 0.838102 0.000000
1.000000 0.817105 0.000000
1.000000 0.796536 0.000000
1.000000 0.776333 0.000000
1.000000 0.756527 0.000000
1.000000 0.737026 0.000000
0.615961 0.899962 0.553674
0.617731 0.900328 0.554681
0.619593 0.900511 0.555566
0.622889 0.900481 0.556756
0.627558 0.900237 0.558282
0.633570 0.899809 0.560082
0.641016 0.899260 0.562371
0.649958 0.898619 0.565240
0.660334 0.897978 0.568750
0.672084 0.897398 0.573083
0.684962 0.896818 0.577996
0.698909 0.896300 0.583581
0.713558 0.895781 0.589685
0.728725 0.895232 0.596307
0.744106 0.894530 0.603265
0.759701 0.893858 0.610620
0.765927 0.897704 0.592126
0.773251 0.902464 0.564141
0.785061 0.906950 0.532341
0.801907 0.910979 0.495888
0.824063 0.914397 0.454017
0.851713 0.916899 0.404456
0.884825 0.918303 0.344396
0.923064 0.918395 0.268864
0.965576 0.917174 0.160098
0.998138 0.902770 0.000000
1.000000 0.878904 0.000000
1.000000 0.856565 0.000000
1.000000 0.835386 0.000000
1.000000 0.814786 0.000000
1.000000 0.794705 0.000000
1.000000 0.775174 0.000000
0.639338 0.915312 0.575463
0.640925 0.915618 0.576379
0.642664 0.915831 0.577264
0.645533 0.915770 0.578271
0.649622 0.915526 0.579614
0.655055 0.915129 0.581353
0.661799 0.914641 0.583520
0.669764 0.914122 0.586236
0.679194 0.913603 0.589593
0.689906 0.913085 0.593591
0.701595 0.912596 0.598199
0.714382 0.912169 0.603449
0.727871 0.911711 0.609277
0.741787 0.911162 0.615381
0.756008 0.910552 0.621881
0.770474 0.909911 0.628717
0.783566 0.910033 0.632197
0.788083 0.914946 0.608118
0.796170 0.919707 0.580865
0.808347 0.924193 0.549889
0.824979 0.928130 0.514458
0.846372 0.931426 0.472816
0.872831 0.933867 0.423438
0.904417 0.935241 0.363928
0.941100 0.935424 0.288670
0.982269 0.934356 0.183047
1.000000 0.921935 0.000000
1.000000 0.897856 0.000000
1.000000 0.874907 0.000000
1.000000 0.853788 0.000000
1.000000 0.833188 0.000000
1.000000 0.813382 0.000000
0.663203 0.930541 0.598260
0.664485 0.930724 0.598932
0.665797 0.930785 0.599542
0.668086 0.930632 0.600244
0.671534 0.930297 0.601251
0.676173 0.929839 0.602625
0.681941 0.929290 0.604395
0.689052 0.928710 0.606775
0.697322 0.928161 0.609735
0.706844 0.927642 0.613336
0.717494 0.927123 0.617548
0.729061 0.926696 0.622400
0.741268 0.926238 0.627649
0.754086 0.925689 0.633356
0.767086 0.925017 0.639246
0.780331 0.924315 0.645411
0.793790 0.923613 0.652003
0.802670 0.925475 0.646021
0.807950 0.930358 0.622400
0.816464 0.935058 0.595636
0.828855 0.939391 0.565393
0.845243 0.943236 0.530297
0.865934 0.946410 0.489021
0.891325 0.948791 0.439948
0.921660 0.950134 0.380621
0.957000 0.950408 0.304784
0.996979 0.949554 0.200931
1.000000 0.939513 0.000000
1.000000 0.915038 0.000000
1.000000 0.891356 0.000000
1.000000 0.870420 0.000000
1.000000 0.850370 0.000000
0.684504 0.944152 0.619013
0.685512 0.944274 0.619593
0.686641 0.944274 0.620050
0.688685 0.944152 0.620752
0.692012 0.943938 0.621881
0.696498 0.943725 0.623529
0.702266 0.943572 0.625818
0.709285 0.943420 0.628656
0.717678 0.943328 0.632349
0.726986 0.943267 0.636439
0.737331 0.943206 0.641199
0.748348 0.943114 0.646265
0.759854 0.942901 0.651667
0.771725 0.942535 0.657252
0.783749 0.942046 0.662867
0.795865 0.941314 0.668635
0.808103 0.940581 0.674617
0.820462 0.939849 0.680903
0.826078 0.943481 0.666560
0.831876 0.948272 0.643641
0.840665 0.952789 0.617639
0.852811 0.956970 0.587945
0.868559 0.960601 0.553429
0.888304 0.963622 0.512718
0.912505 0.965911 0.464179
0.941558 0.967285 0.404669
0.975647 0.967651 0.329137
1.000000 0.966918 0.224765
1.000000 0.958892 0.000000
1.000000 0.933593 0.000000
1.000000 0.908751 0.000000
1.000000 0.887724 0.000000
0.710536 0.959716 0.645075
0.711269 0.959747 0.645380
0.712184 0.959686 0.645747
0.713802 0.959472 0.646235
0.716457 0.959167 0.646998
0.720180 0.958801 0.648249
0.724880 0.958404 0.649836
0.730678 0.958038 0.652033
0.737545 0.957641 0.654810
0.745388 0.957244 0.657984
0.754025 0.956847 0.661616
0.763394 0.956390 0.665675
0.773373 0.955840 0.670039
0.783810 0.955230 0.674708
