data/fiter_cube/87192323/1023458/file.cube
# Created by Adobe Lightroom plugin Export LUT (1.17.0)
# www.johnrellis.com/lightroom/exportlut.htm
# Preset: 日系清新自然_09 云集
# Color profile: C:\Program Files (x86)\Common Files\Adobe\Color\Profiles\Recommended\AdobeRGB1998.icc
LUT_3D_SIZE 8
DOMAIN_MIN 0.000000 0.000000 0.000000
DOMAIN_MAX 0.903226 0.903226 0.903226
0.000000 0.000000 0.000000
0.183902 0.036255 0.000000
0.395300 0.086915 0.000000
0.610834 0.111940 0.000000
0.784939 0.126223 0.000000
0.920684 0.136172 0.000000
1.000000 0.137636 0.000000
1.000000 0.126162 0.000000
0.061280 0.170108 0.074922
0.167117 0.198123 0.000000
0.383978 0.204196 0.000000
0.597467 0.214847 0.000000
0.775906 0.213779 0.000000
0.909483 0.208194 0.000000
1.000000 0.198550 0.000000
1.000000 0.182132 0.000000
0.141939 0.369665 0.159579
0.202945 0.370153 0.173373
0.367285 0.408240 0.000000
0.594812 0.396368 0.000000
0.778592 0.375677 0.000000
0.908171 0.352087 0.000000
1.000000 0.328588 0.000000
1.000000 0.301061 0.000000
0.257816 0.567102 0.259129
0.298528 0.568444 0.267521
0.410803 0.581170 0.296971
0.603845 0.628260 0.000000
0.796292 0.581201 0.000000
0.909941 0.509789 0.000000
1.000000 0.469337 0.000000
1.000000 0.430457 0.000000
0.392279 0.734890 0.365240
0.418341 0.734585 0.371221
0.499580 0.736080 0.395300
0.593591 0.751705 0.370672
0.755398 0.764584 0.124941
0.903410 0.698604 0.000000
0.996551 0.623621 0.000000
1.000000 0.561028 0.000000
0.523095 0.838193 0.471992
0.544274 0.841459 0.481331
0.594659 0.840665 0.498054
0.669734 0.840482 0.528313
0.726711 0.854887 0.445106
0.862760 0.862394 0.212131
0.995453 0.798978 0.000000
1.000000 0.718502 0.000000
0.639338 0.915312 0.575463
0.649622 0.915526 0.579614
0.679194 0.913603 0.589593
0.727871 0.911711 0.609277
0.783566 0.910033 0.632197
0.824979 0.928130 0.514458
0.941100 0.935424 0.288670
1.000000 0.874907 0.000000
0.729732 0.971557 0.664942
0.735042 0.971069 0.666712
0.754147 0.969696 0.674006
0.786770 0.968048 0.688289
0.821439 0.962310 0.700191
0.856077 0.967498 0.688685
0.900267 0.984100 0.577935
1.000000 0.990448 0.341497
0.000000 0.004089 0.164614
0.175113 0.000000 0.164004
0.379034 0.000000 0.113313
0.588830 0.096345 0.097444
0.770504 0.115877 0.000000
0.903746 0.133181 0.000000
1.000000 0.136629 0.000000
1.000000 0.121523 0.000000
0.000000 0.179232 0.144015
0.165835 0.197513 0.152499
0.370916 0.197818 0.123629
0.583917 0.205692 0.086915
0.768002 0.207340 0.000000
0.898314 0.204654 0.000000
0.997436 0.195987 0.000000
1.000000 0.177493 0.000000
0.158022 0.365118 0.203494
0.224460 0.370672 0.220645
0.360845 0.401343 0.155581
0.580896 0.384222 0.012818
0.764431 0.368444 0.000000
0.895048 0.347234 0.000000
0.997559 0.324437 0.000000
1.000000 0.297581 0.000000
0.277287 0.558587 0.291539
0.312261 0.563012 0.296483
0.418341 0.574456 0.326635
0.583490 0.608911 0.162448
0.770352 0.562951 0.000000
0.889952 0.499153 0.000000
0.992218 0.463233 0.000000
1.000000 0.426825 0.000000
0.405402 0.730678 0.386481
0.429358 0.729824 0.391608
0.506035 0.730343 0.413397
0.593500 0.741268 0.398505
0.743435 0.752987 0.193545
0.892241 0.690578 0.000000
0.988891 0.618524 0.000000
1.000000 0.558618 0.000000
0.529778 0.833371 0.483986
0.545434 0.833494 0.488960
0.595026 0.833463 0.505455
0.670192 0.835080 0.536431
0.728084 0.850126 0.467628
0.860380 0.859586 0.259037
0.991516 0.796445 0.000000
1.000000 0.716121 0.000000
0.640070 0.910704 0.580316
0.647913 0.909758 0.582208
0.678340 0.908690 0.593072
0.728573 0.908385 0.614588
0.786740 0.907530 0.642908
0.825559 0.925139 0.530785
0.937713 0.931731 0.318364
1.000000 0.871641 0.000000
0.730983 0.969696 0.669123
0.736873 0.969512 0.671504
0.756191 0.968414 0.679164
0.788968 0.967071 0.693812
0.828183 0.964355 0.711879
0.861082 0.967742 0.702113
0.901884 0.983246 0.592920
1.000000 0.989319 0.367346
0.000000 0.014008 0.326879
0.165499 0.000000 0.324193
0.364446 0.000000 0.316625
0.573297 0.000000 0.293889
0.769192 0.000000 0.234440
0.900053 0.161074 0.241428
1.000000 0.177005 0.217716
1.000000 0.161776 0.181094
0.000000 0.207309 0.318486
0.149752 0.190402 0.316136
0.358099 0.189425 0.307378
0.568902 0.153262 0.278416
0.761318 0.191135 0.252232
0.894743 0.221927 0.237278
0.998169 0.222507 0.212894
1.000000 0.204257 0.176120
0.117647 0.366918 0.288701
0.203098 0.370764 0.291844
0.347997 0.386328 0.295750
0.568994 0.375250 0.266972
0.760250 0.369543 0.249149
0.892363 0.356939 0.229618
0.995453 0.338659 0.205142
1.000000 0.311345 0.166476
0.263188 0.555474 0.345098
0.315007 0.561944 0.356176
0.437232 0.575921 0.387823
0.579370 0.602380 0.314122
0.762966 0.554467 0.239780
0.888609 0.506523 0.216373
0.992248 0.473610 0.191867
1.000000 0.436347 0.148898
0.409949 0.723659 0.430304
0.449317 0.725460 0.443854
0.534752 0.730617 0.471229
0.629480 0.740749 0.498116
0.746609 0.753536 0.339330
0.888792 0.689265 0.210910
0.986145 0.618555 0.172427
1.000000 0.564721 0.114229
0.552239 0.830747 0.525689
0.578607 0.831601 0.538598
0.622797 0.833219 0.552026
0.691218 0.835386 0.579614
0.746395 0.846952 0.545861
0.858976 0.856260 0.380377
0.985931 0.795041 0.182101
1.000000 0.717067 0.084688
0.671351 0.911101 0.623346
0.679286 0.911040 0.625605
0.701869 0.910369 0.630488
0.747066 0.909667 0.648981
0.801114 0.909422 0.675074
0.838376 0.924376 0.595392
0.940673 0.932891 0.424659
1.000000 0.874052 0.072328
0.753597 0.969482 0.702052
0.754482 0.969299 0.699702
0.769375 0.968444 0.703456
0.802029 0.967987 0.719020
0.839139 0.965484 0.735988
0.873899 0.966735 0.739803
0.909636 0.982452 0.644007
1.000000 0.989441 0.455085
0.000000 0.028290 0.476570
0.150790 0.014160 0.475349
0.358770 0.000000 0.467018
0.553246 0.000000 0.458106
0.736965 0.000000 0.433936
0.882292 0.000000 0.388220
0.991852 0.072755 0.349218
1.000000 0.261967 0.360204
0.000000 0.189822 0.473610
0.131380 0.188998 0.471534
0.353796 0.181735 0.463630
0.551415 0.162356 0.454231
0.736873 0.137667 0.428840
0.879973 0.141878 0.383764
0.988251 0.215152 0.357580
1.000000 0.282231 0.356054
0.000000 0.398627 0.454200
0.137972 0.394018 0.453315
0.327245 0.366857 0.448554
0.544671 0.361028 0.440833
0.738094 0.347234 0.411963
0.879301 0.383948 0.398108
0.988952 0.391791 0.386816
1.000000 0.364111 0.354894
0.199130 0.549004 0.432105
0.255802 0.550561 0.433570
0.394598 0.553155 0.438880
0.548211 0.569787 0.442634
0.732876 0.541924 0.410254
0.872038 0.525444 0.396368
0.982086 0.502495 0.376928
1.000000 0.468513 0.346319
0.379492 0.713985 0.482948
0.415961 0.714290 0.489082
0.522789 0.718074 0.515373
0.645136 0.731197 0.562005
0.740108 0.743832 0.483345
0.875883 0.688075 0.405127
0.979095 0.631373 0.371862
1.000000 0.586358 0.336248
0.537713 0.828428 0.559197
0.567132 0.831601 0.571862
0.639399 0.832700 0.601465
0.715846 0.838437 0.634821
0.778866 0.848081 0.649195
0.861326 0.855711 0.520409
0.978668 0.798215 0.392584
1.000000 0.722805 0.334051
0.660578 0.909789 0.642390
0.677058 0.910338 0.650996
0.726772 0.912047 0.678645
0.771786 0.914672 0.698085
0.823270 0.916045 0.723568
0.858946 0.925933 0.684657
0.943175 0.933562 0.548516
1.000000 0.876951 0.354986
0.755612 0.971038 0.723659
0.765530 0.971008 0.729793
0.796048 0.970611 0.749142
0.818112 0.970397 0.754513
0.853635 0.968292 0.770748
0.891539 0.966186 0.790890
0.919799 0.981231 0.714076
1.000000 0.989258 0.563653
0.000000 0.071504 0.617975
0.122805 0.069062 0.616754
0.341405 0.039765 0.610224
0.535821 0.000000 0.601221
0.721706 0.000000 0.591699
0.854368 0.000000 0.548821
0.974731 0.099031 0.508293
1.000000 0.170199 0.473854
0.000000 0.191257 0.614527
0.101534 0.190616 0.614191
0.336126 0.183444 0.608423
0.535485 0.162448 0.601007
0.719387 0.137728 0.588281
0.853788 0.165988 0.546899
0.974060 0.196902 0.508476
1.000000 0.234928 0.476417
0.000000 0.393164 0.602319
0.117342 0.387488 0.601312
0.313085 0.359045 0.600122
0.527092 0.349371 0.593439
0.709865 0.341527 0.575708
0.848203 0.348821 0.539788
0.969055 0.362249 0.511009
1.000000 0.374182 0.486152
0.088502 0.568536 0.588952
0.181125 0.566827 0.587884
0.338628 0.559716 0.584710
0.514946 0.538781 0.577783
0.696162 0.534173 0.561822
0.846616 0.531548 0.541650
0.963958 0.543297 0.533562
1.000000 0.536187 0.518761
0.295079 0.699977 0.563806
0.337011 0.700313 0.564935
0.453315 0.698970 0.568139
0.590997 0.697078 0.578607
0.703578 0.707820 0.578912
0.844877 0.676844 0.547387
0.961242 0.656580 0.533165
1.000000 0.622797 0.504479
0.492622 0.812894 0.596643
0.517266 0.813291 0.601862
0.590295 0.813993 0.619104
0.688258 0.818692 0.651637
0.778012 0.832212 0.694118
0.850248 0.843626 0.625605
0.963287 0.796536 0.549218
1.000000 0.734951 0.502434
0.637415 0.905333 0.668605
0.652369 0.905180 0.673976
0.700557 0.905943 0.693568
0.770199 0.909819 0.728115
0.829252 0.916442 0.758022
0.876066 0.923919 0.768246
0.941497 0.931121 0.655634
1.000000 0.878080 0.522087
0.739193 0.969635 0.739315
0.748470 0.969390 0.743832
0.778866 0.968994 0.759487
0.828275 0.970947 0.790005
0.862852 0.971374 0.804562
0.901701 0.969787 0.825223
0.929198 0.978943 0.787747
1.000000 0.987854 0.665126
0.000000 0.103059 0.744228
0.050538 0.103090 0.743130
0.311559 0.095796 0.737697
0.505241 0.065675 0.735012
0.687678 0.000000 0.727474
0.845457 0.000000 0.703304
0.956909 0.109926 0.657038
1.000000 0.172580 0.617182
0.000000 0.196475 0.738155
0.000000 0.195468 0.736934
0.306432 0.191012 0.733700
0.500877 0.178408 0.730282
0.684047 0.153231 0.722774
0.841855 0.148074 0.699214
0.954284 0.196170 0.655512
1.000000 0.232212 0.617609
0.000000 0.384344 0.734676
0.000000 0.361669 0.734585
0.295201 0.354833 0.731655
0.495552 0.348302 0.726467
0.681453 0.337194 0.717983
0.837064 0.338598 0.693629
0.949645 0.359380 0.656611
1.000000 0.373205 0.624170
0.000000 0.552911 0.724880
0.131441 0.549859 0.723262
0.323613 0.543389 0.720333
0.499489 0.529808 0.719081
0.683223 0.524010 0.712764
0.831174 0.524224 0.690455
0.947631 0.528588 0.665400
1.000000 0.526513 0.639734
0.227207 0.705684 0.706935
0.274022 0.705470 0.706661
0.394812 0.704005 0.705013
0.532708 0.698177 0.701442
0.667140 0.675776 0.694270
0.813291 0.669795 0.679194
0.941558 0.668910 0.670405
1.000000 0.664149 0.656916
0.412055 0.814145 0.680964
0.442023 0.814664 0.682979
0.525414 0.812924 0.686336
0.631769 0.809842 0.692622
0.733669 0.807980 0.705104
0.825040 0.819242 0.709499
0.942718 0.792050 0.682399
1.000000 0.767514 0.663355
0.604791 0.901701 0.712337
0.621210 0.902373 0.716762
0.669612 0.902922 0.729152
0.738949 0.905486 0.751034
0.816617 0.911467 0.783658
0.887144 0.923430 0.824949
0.939544 0.929747 0.760372
1.000000 0.882902 0.675929
0.719783 0.970581 0.769192
0.728817 0.970306 0.772366
0.758907 0.969818 0.783749
0.806577 0.970550 0.805112
0.863859 0.972320 0.836240
0.909636 0.974517 0.861723
0.943328 0.977569 0.868864
0.999756 0.987335 0.770779
0.000000 0.125307 0.859403
0.000000 0.125154 0.858793
0.269596 0.121584 0.856870
0.461494 0.105623 0.853452
0.640558 0.051179 0.847318
0.807797 0.000000 0.840208
0.945892 0.000000 0.808743
1.000000 0.145449 0.758816
0.000000 0.202518 0.858793
0.000000 0.201968 0.858152
0.266880 0.198947 0.856046
0.459846 0.189456 0.852110
0.639551 0.170504 0.846555
0.807675 0.146792 0.839902
0.945373 0.166781 0.808438
1.000000 0.216037 0.759915
0.000000 0.348913 0.854429
0.000000 0.348547 0.853819
0.260960 0.346746 0.851804
0.456703 0.342138 0.848142
0.637110 0.333654 0.843015
0.805722 0.325048 0.836698
0.941283 0.336767 0.805814
1.000000 0.357092 0.762661
0.000000 0.530907 0.845548
0.126741 0.530083 0.844846
0.325658 0.531548 0.843290
0.464607 0.508934 0.841184
0.638239 0.504265 0.836576
0.802609 0.497780 0.830747
0.933898 0.501366 0.802884
1.000000 0.504601 0.768826
0.160372 0.683192 0.834836
0.217655 0.682673 0.834714
0.345281 0.680201 0.834043
0.488258 0.672236 0.832273
0.640070 0.658412 0.829557
0.797299 0.650050 0.824460
0.925109 0.648859 0.802121
1.000000 0.647730 0.779263
0.348241 0.821927 0.822507
0.376806 0.821714 0.822507
0.459174 0.820859 0.822568
0.564050 0.817502 0.822324
0.670497 0.807950 0.820951
0.784756 0.785397 0.815885
0.913725 0.781003 0.801999
1.000000 0.782559 0.796597
0.518822 0.912383 0.797971
0.536828 0.911803 0.798642
0.592767 0.910002 0.801358
0.670985 0.907500 0.806455
0.759457 0.905089 0.815152
0.847501 0.904723 0.830625
0.922362 0.914488 0.839658
1.000000 0.888212 0.812314
0.686427 0.971405 0.812070
0.696010 0.971344 0.814389
0.726925 0.971130 0.821988
0.775784 0.971466 0.836057
0.837095 0.972869 0.857877
0.903319 0.976074 0.889952
0.956146 0.980957 0.925048
0.996155 0.987732 0.876036
0.000000 0.144747 0.980987
0.000000 0.144076 0.980560
0.205539 0.141207 0.979248
0.413550 0.130739 0.976776
0.591699 0.107668 0.973480
0.761532 0.041962 0.969451
0.916838 0.000000 0.964996
1.000000 0.111086 0.922515
0.000000 0.209384 0.980407
0.000000 0.208865 0.979980
0.204562 0.206394 0.978698
0.413245 0.199985 0.976349
0.591455 0.186923 0.973114
0.761166 0.165866 0.969146
0.916503 0.148287 0.964813
1.000000 0.192935 0.922576
0.000000 0.345525 0.978027
0.000000 0.345312 0.977661
0.209079 0.344091 0.976532
0.414710 0.340612 0.974182
0.591882 0.334691 0.971160
0.760250 0.326207 0.967498
0.914733 0.320775 0.963287
1.000000 0.342229 0.922515
0.000000 0.524743 0.972564
0.170047 0.529625 0.971984
0.251408 0.501793 0.972381
0.432959 0.500084 0.970367
0.600122 0.496620 0.967529
0.761135 0.490852 0.964172
0.911345 0.484352 0.960388
1.000000 0.491859 0.922972
0.000000 0.655909 0.966796
0.000000 0.655085 0.966766
0.298436 0.656550 0.966186
0.475868 0.658900 0.965270
0.612787 0.646754 0.963561
0.761715 0.640223 0.960662
0.906096 0.632837 0.957214
1.000000 0.635950 0.924926
0.291142 0.803342 0.954986
0.320378 0.803128 0.955169
0.402655 0.801602 0.955718
0.506950 0.796262 0.956878
0.621668 0.784604 0.958434
0.762631 0.775692 0.956603
0.899413 0.768429 0.953155
1.000000 0.769100 0.928588
0.460426 0.924315 0.942473
0.477424 0.924071 0.942687
0.530083 0.922850 0.943389
0.607355 0.920256 0.944701
0.697688 0.915953 0.946654
0.790219 0.907805 0.949187
0.890654 0.891081 0.949767
0.997742 0.890105 0.936065
0.609705 0.998566 0.915892
0.620935 0.997986 0.916350
0.657618 0.996033 0.917906
0.715755 0.992706 0.920806
0.787320 0.988617 0.925872
0.864286 0.984771 0.934417
0.939025 0.982696 0.949096
0.990997 0.988342 0.965362
