data/fiter_cube/57993848/1023159/file.cube
# Created by Adobe Lightroom plugin Export LUT (1.17.0)
# www.johnrellis.com/lightroom/exportlut.htm
# Preset: 萌宠摄影后期_06 云集
# Color profile: C:\Program Files (x86)\Common Files\Adobe\Color\Profiles\Recommended\AdobeRGB1998.icc
LUT_3D_SIZE 5
DOMAIN_MIN 0.000000 0.000000 0.000000
DOMAIN_MAX 0.903226 0.903226 0.903226
0.079713 0.104128 0.113558
0.214145 0.140230 0.135836
0.434089 0.199222 0.169162
0.655329 0.268559 0.234623
0.865354 0.352178 0.324193
0.112703 0.240177 0.186435
0.225895 0.241733 0.175387
0.444495 0.284611 0.196353
0.658198 0.329656 0.256199
0.875059 0.401434 0.345312
0.228092 0.480385 0.342016
0.350317 0.477302 0.357916
0.478462 0.453346 0.303197
0.678981 0.477974 0.327703
0.878630 0.521569 0.395270
0.429236 0.683345 0.508354
0.491371 0.684260 0.511986
0.643244 0.677790 0.542046
0.688014 0.616419 0.432471
0.883330 0.654017 0.466560
0.636896 0.861784 0.659205
0.656977 0.862425 0.651606
0.771511 0.850889 0.680720
0.856229 0.851530 0.675532
0.922545 0.819303 0.594568
0.067597 0.156649 0.218296
0.185794 0.147677 0.251102
0.446052 0.166354 0.260655
0.639521 0.280400 0.314549
0.850095 0.354833 0.370550
0.104585 0.222446 0.279759
0.237095 0.271031 0.289494
0.448432 0.300420 0.303349
0.645106 0.337743 0.329839
0.854734 0.399145 0.384649
0.217411 0.481514 0.424842
0.319677 0.486305 0.392157
0.468086 0.449866 0.353002
0.668879 0.483162 0.383673
0.871305 0.524346 0.433631
0.447333 0.681636 0.551354
0.484291 0.686244 0.535882
0.650263 0.681971 0.569421
0.685573 0.617700 0.461646
0.883330 0.660792 0.496162
0.644984 0.861906 0.683406
0.663020 0.862852 0.673487
0.773831 0.860929 0.696315
0.862242 0.858030 0.695979
0.924895 0.823819 0.610529
0.000000 0.266453 0.409522
0.118685 0.238987 0.388098
0.379461 0.220035 0.449073
0.685634 0.209018 0.474098
0.868894 0.290684 0.463935
0.130800 0.374151 0.470954
0.206943 0.333593 0.444923
0.427863 0.295659 0.479652
0.679774 0.310491 0.475898
0.863828 0.379156 0.483528
0.223178 0.426368 0.518395
0.311559 0.449958 0.520104
0.507836 0.505821 0.517967
0.671015 0.509087 0.514580
0.867521 0.533715 0.528161
0.369299 0.670924 0.647730
0.442267 0.677852 0.635462
0.613886 0.689326 0.606744
0.689937 0.630335 0.542077
0.890440 0.683528 0.575708
0.616114 0.859434 0.746548
0.655421 0.862242 0.742275
0.735836 0.870603 0.717983
0.867765 0.866514 0.746578
0.918151 0.823362 0.644678
0.064271 0.398932 0.580194
0.155947 0.376989 0.566400
0.288396 0.340246 0.502556
0.568139 0.306737 0.600397
0.912444 0.270878 0.661097
0.207767 0.463783 0.608362
0.242069 0.438422 0.593713
0.323522 0.380011 0.530938
0.587884 0.352697 0.609918
0.907103 0.341588 0.658228
0.332616 0.610925 0.678126
0.401465 0.620081 0.677363
0.470619 0.533074 0.617121
0.652979 0.487495 0.642054
0.900237 0.493477 0.652888
0.429480 0.604425 0.690730
0.471351 0.614740 0.689784
0.583673 0.648402 0.690150
0.729122 0.685908 0.680690
0.892363 0.683284 0.670497
0.546502 0.777798 0.820523
0.578241 0.800046 0.823239
0.679713 0.871458 0.835447
0.841978 0.886687 0.797024
0.915435 0.834012 0.715663
0.281468 0.544640 0.740627
0.309270 0.530907 0.731533
0.374182 0.486671 0.697566
0.464973 0.461219 0.618830
0.760647 0.412696 0.754726
0.332403 0.580224 0.753872
0.353338 0.565270 0.744564
0.404852 0.516564 0.709682
0.477150 0.476295 0.626856
0.766842 0.435401 0.757382
0.446967 0.696681 0.806119
0.476783 0.683925 0.797024
0.500328 0.620661 0.759426
0.531121 0.538537 0.671839
0.798825 0.511345 0.776699
0.520378 0.768307 0.850187
0.547662 0.774929 0.850523
0.638239 0.802213 0.856046
0.680842 0.709957 0.791501
0.868223 0.662562 0.825193
0.606897 0.770047 0.872374
0.626917 0.775845 0.872709
0.698848 0.800595 0.877287
0.810605 0.844144 0.883360
0.930724 0.890471 0.879088
