data/fiter_cube/57993848/1023159/file.cube
# Created by Adobe Lightroom plugin Export LUT (1.17.0)
# www.johnrellis.com/lightroom/exportlut.htm
# Preset: 萌宠摄影后期_06 云集
# Color profile: C:\Program Files (x86)\Common Files\Adobe\Color\Profiles\Recommended\AdobeRGB1998.icc
LUT_3D_SIZE 32
DOMAIN_MIN 0.0 0.0 0.0
DOMAIN_MAX 1.0 1.0 1.0
0.079713 0.104128 0.113558
0.082368 0.104311 0.113497
0.094179 0.105135 0.115084
0.115114 0.108705 0.118166
0.136721 0.116762 0.123201
0.160037 0.124697 0.128481
0.185855 0.132509 0.132387
0.214145 0.140230 0.135836
0.244633 0.147982 0.139345
0.275425 0.155886 0.142916
0.307103 0.163943 0.146822
0.338994 0.172366 0.151583
0.370794 0.181369 0.156710
0.402594 0.190127 0.162600
0.434089 0.199222 0.169162
0.465003 0.207828 0.175875
0.495583 0.216526 0.183261
0.525811 0.225467 0.190738
0.559564 0.235782 0.200320
0.593652 0.246586 0.211215
0.625208 0.257572 0.222782
0.655329 0.268559 0.234623
0.684810 0.279301 0.246250
0.713985 0.290043 0.257786
0.742916 0.300816 0.269657
0.772183 0.312139 0.281743
0.802304 0.324224 0.294621
0.833341 0.337560 0.308782
0.865354 0.352178 0.324193
0.898070 0.368811 0.341680
0.931273 0.387427 0.360845
0.964172 0.408362 0.381994
0.080049 0.106264 0.114839
0.083131 0.107607 0.114900
0.095460 0.110689 0.116060
0.115541 0.116579 0.120119
0.136995 0.123232 0.124941
0.160189 0.130312 0.129824
0.185977 0.137423 0.133028
0.213993 0.144564 0.136843
0.243931 0.151919 0.140017
0.274723 0.159609 0.143557
0.306004 0.167483 0.147463
0.337560 0.175723 0.151949
0.369177 0.184146 0.157137
0.400793 0.192782 0.163027
0.431952 0.201572 0.169223
0.462715 0.209995 0.176333
0.493019 0.218601 0.183261
0.523156 0.227085 0.190585
0.556634 0.237217 0.199893
0.589929 0.247562 0.210483
0.621027 0.258244 0.221683
0.650752 0.268772 0.233341
0.680018 0.279210 0.244755
0.709041 0.289708 0.256229
0.738003 0.300450 0.267826
0.767391 0.311559 0.279820
0.797787 0.323491 0.292607
0.829038 0.336736 0.306889
0.861326 0.351385 0.322301
0.894377 0.367803 0.339513
0.927855 0.386236 0.358618
0.961059 0.407050 0.379828
0.081392 0.117189 0.120974
0.087221 0.117433 0.120851
0.096681 0.120150 0.120272
0.115785 0.125460 0.122866
0.137209 0.131380 0.127565
0.160739 0.137575 0.131289
0.186221 0.143618 0.134524
0.214145 0.150271 0.137819
0.243931 0.157504 0.141115
0.274510 0.164523 0.144686
0.305669 0.172305 0.148257
0.337041 0.180240 0.152865
0.368536 0.188266 0.158022
0.400000 0.196719 0.164034
0.430976 0.205081 0.170352
0.461585 0.213474 0.176822
0.491920 0.221805 0.183841
0.521904 0.230137 0.191409
0.555474 0.239872 0.200473
0.588159 0.250126 0.210880
0.619043 0.260349 0.221927
0.648615 0.270573 0.233158
0.677729 0.280980 0.244541
0.706661 0.291234 0.255833
0.735653 0.301671 0.267247
0.765011 0.312535 0.279088
0.795407 0.324437 0.292058
0.826871 0.337499 0.306157
0.859312 0.352087 0.321569
0.892515 0.368383 0.338811
0.926085 0.386755 0.357855
0.959380 0.407324 0.378851
0.088075 0.136294 0.133883
0.095277 0.136110 0.133089
0.103304 0.136416 0.135134
0.115541 0.139437 0.132753
0.137942 0.145022 0.133059
0.162936 0.151614 0.135134
0.188418 0.156802 0.137942
0.216190 0.162631 0.140658
0.245548 0.168856 0.143618
0.275700 0.175662 0.146914
0.306432 0.182589 0.150607
0.337530 0.189944 0.154879
0.368750 0.197696 0.160250
0.399878 0.205478 0.166201
0.430701 0.213199 0.172213
0.461128 0.221195 0.178744
0.491157 0.228855 0.185855
0.520928 0.236820 0.193027
0.554345 0.246311 0.202243
0.585870 0.255711 0.212100
0.615930 0.265232 0.222660
0.644953 0.274876 0.233494
0.674037 0.284825 0.244755
0.703456 0.294987 0.256138
0.733211 0.305455 0.267613
0.763577 0.316472 0.279911
0.794736 0.328435 0.293095
0.826627 0.341558 0.307286
0.859190 0.355993 0.322759
0.892241 0.371984 0.339940
0.925475 0.389899 0.358648
0.958373 0.409949 0.379248
0.095369 0.156283 0.144442
0.101228 0.155917 0.143435
0.110262 0.155673 0.146120
0.122042 0.157992 0.146456
0.137697 0.160586 0.143038
0.162814 0.166079 0.141970
0.190341 0.173709 0.142977
0.218479 0.179995 0.144961
0.247379 0.185306 0.147402
0.276982 0.191257 0.150515
0.307317 0.197391 0.154116
0.338018 0.204196 0.158572
0.368994 0.211063 0.163699
0.399908 0.218357 0.169528
0.430671 0.225345 0.175540
0.461189 0.232792 0.182040
0.491371 0.240146 0.188998
0.522698 0.248020 0.196597
0.555261 0.256748 0.205600
0.585962 0.265385 0.214908
0.615320 0.274022 0.225223
0.643885 0.283146 0.235569
0.672602 0.292454 0.246677
0.701900 0.302098 0.257694
0.731716 0.312261 0.269322
0.762203 0.322972 0.281529
0.793393 0.334539 0.294621
0.825254 0.347173 0.308568
0.857755 0.361273 0.324010
0.890745 0.376928 0.340948
0.924010 0.394476 0.359503
0.957000 0.414221 0.379980
0.100832 0.179751 0.156771
0.105379 0.179721 0.154269
0.115175 0.179141 0.156435
0.131228 0.178073 0.161257
0.145632 0.183322 0.157656
0.162814 0.184329 0.152804
0.190555 0.189456 0.150362
0.220493 0.198306 0.151522
0.251377 0.206516 0.153048
0.280613 0.211521 0.155734
0.310552 0.216861 0.159365
0.340978 0.222721 0.163943
0.371435 0.228794 0.169039
0.402014 0.235111 0.174563
0.432563 0.241550 0.180270
0.462928 0.248081 0.186709
0.493202 0.254704 0.193820
0.525963 0.262547 0.201755
0.557641 0.270481 0.210269
0.587823 0.278386 0.219791
0.616907 0.286534 0.229679
0.645502 0.295018 0.240299
0.704372 0.316777 0.264622
0.733639 0.326329 0.276158
0.762600 0.336034 0.287785
0.791745 0.346288 0.299962
0.821042 0.357427 0.312749
0.850706 0.369543 0.326543
0.880980 0.383154 0.341619
0.911711 0.398413 0.358190
0.942412 0.415381 0.376257
0.972473 0.434272 0.395880
0.106600 0.210025 0.171633
0.110079 0.210086 0.167697
0.120394 0.209751 0.169375
0.139773 0.208682 0.173953
0.158785 0.209659 0.177035
0.176822 0.215274 0.170626
0.195010 0.213870 0.164065
0.225345 0.218509 0.160555
0.257053 0.227329 0.161837
0.289830 0.236545 0.164370
0.321477 0.243320 0.168032
0.351690 0.248112 0.172671
0.382025 0.253147 0.177584
0.412146 0.258274 0.182712
0.442023 0.263401 0.188418
0.471443 0.268803 0.194614
0.502739 0.275090 0.201633
0.536370 0.282719 0.209934
0.567651 0.289952 0.218936
0.598138 0.297429 0.228824
0.628534 0.305821 0.239658
0.659693 0.314702 0.251255
0.691798 0.324407 0.263218
0.724178 0.334508 0.275853
0.756161 0.344976 0.288670
0.787045 0.355535 0.301457
0.817380 0.366430 0.314366
0.847440 0.378332 0.328191
0.877989 0.391394 0.343114
0.908629 0.405982 0.359289
0.939361 0.422370 0.377081
0.969574 0.440711 0.396338
0.112703 0.240177 0.186435
0.116030 0.240330 0.182528
0.125002 0.240055 0.182162
0.145907 0.239109 0.186465
0.170504 0.237736 0.193515
0.187991 0.241215 0.190951
0.208743 0.246098 0.182925
0.225895 0.241733 0.175387
0.255741 0.244236 0.171023
0.288457 0.253300 0.172457
0.321599 0.262821 0.177005
0.355505 0.272313 0.181338
0.385290 0.276219 0.186038
0.415076 0.280400 0.190860
0.444495 0.284611 0.196353
0.474128 0.289281 0.202182
0.507317 0.295872 0.209628
0.538872 0.302007 0.217441
0.568719 0.307988 0.225803
0.598230 0.314427 0.235019
0.627741 0.321630 0.245365
0.658198 0.329656 0.256199
0.689723 0.338384 0.267704
0.721553 0.347814 0.279820
0.753140 0.357336 0.292027
0.783963 0.367315 0.304448
0.814206 0.377600 0.317235
0.844450 0.388830 0.330602
0.875059 0.401434 0.345312
0.905852 0.415442 0.361273
0.936736 0.431434 0.378912
0.967163 0.449134 0.398138
0.120333 0.272770 0.203891
0.123873 0.272892 0.199741
0.130892 0.272892 0.197391
0.152377 0.272038 0.201602
0.179202 0.270695 0.208286
0.204166 0.269871 0.214847
0.220645 0.274083 0.206577
0.242557 0.277775 0.197086
0.257969 0.270207 0.188388
0.287053 0.270756 0.183078
0.320592 0.279789 0.184817
0.353979 0.289311 0.190585
0.387793 0.298528 0.196017
0.419654 0.305058 0.200870
0.449134 0.308690 0.206271
0.481392 0.313878 0.212711
0.512779 0.318853 0.219486
0.542748 0.323766 0.226688
0.571405 0.328435 0.234501
0.599969 0.333806 0.243046
0.628748 0.340032 0.252537
0.658656 0.346990 0.262760
0.689601 0.354955 0.273869
0.720912 0.363439 0.285527
0.752132 0.372320 0.297276
0.782620 0.381506 0.309239
0.812772 0.391211 0.321752
0.842863 0.401831 0.334722
0.873350 0.413794 0.349035
0.904021 0.427222 0.364782
0.934844 0.442420 0.382086
0.965148 0.459571 0.400763
0.131228 0.305852 0.222324
0.134249 0.306035 0.219059
0.138796 0.306065 0.214755
0.160708 0.305180 0.218814
0.187900 0.303899 0.225101
0.216861 0.302281 0.233799
0.237095 0.303410 0.233585
0.254795 0.306523 0.223697
0.277195 0.309026 0.212619
0.290257 0.298619 0.202853
0.317601 0.296605 0.197055
0.351873 0.305425 0.197604
0.385168 0.314794 0.204746
0.420294 0.324712 0.211551
0.457099 0.335332 0.218814
0.488930 0.340215 0.224674
0.519615 0.344121 0.230961
0.548699 0.347845 0.237736
0.576532 0.351568 0.244785
0.604059 0.355688 0.252934
0.631647 0.360540 0.261418
0.660182 0.366339 0.270817
0.689631 0.372839 0.280919
0.719539 0.380102 0.291447
0.749722 0.387915 0.302525
0.779843 0.396307 0.313970
0.810056 0.405463 0.325902
0.840513 0.415686 0.339025
0.871489 0.427405 0.353368
0.902678 0.440558 0.369177
0.933928 0.455604 0.386481
0.964630 0.472450 0.405463
0.144656 0.338018 0.242985
0.147799 0.338262 0.240299
0.151827 0.338415 0.235843
0.170962 0.337865 0.237827
0.197879 0.336858 0.244144
0.227329 0.335637 0.252323
0.256901 0.334417 0.262913
0.271733 0.336980 0.254215
0.290196 0.338964 0.243046
0.312688 0.340185 0.230625
0.323125 0.327062 0.219699
0.349310 0.322972 0.212406
0.385657 0.332738 0.213169
0.420935 0.343114 0.221408
0.456306 0.352972 0.229282
0.491585 0.362524 0.236759
0.524926 0.369635 0.243107
0.552850 0.372137 0.249058
0.579706 0.374578 0.255406
0.606409 0.377661 0.262669
0.633417 0.381567 0.270665
0.661555 0.386481 0.279515
0.690669 0.392370 0.289097
0.720241 0.398871 0.299199
0.750118 0.406043 0.309819
0.779812 0.413703 0.320775
0.809567 0.422095 0.332189
0.839628 0.431678 0.344823
0.870268 0.442542 0.358618
0.901244 0.455116 0.374090
0.932372 0.469551 0.391058
0.963043 0.485939 0.409857
0.161837 0.371130 0.265263
0.164492 0.371344 0.262608
0.168154 0.371527 0.259220
0.183902 0.371221 0.259220
0.210056 0.370489 0.264958
0.239414 0.369543 0.272618
0.269749 0.368597 0.282200
0.293400 0.368688 0.285954
0.308568 0.370428 0.275212
0.327337 0.371466 0.263218
0.351049 0.372992 0.250889
0.360601 0.358679 0.239872
0.401923 0.364813 0.238682
0.440162 0.374762 0.240146
0.476814 0.384466 0.247349
0.512627 0.393744 0.256107
0.546471 0.401862 0.263981
0.578027 0.408911 0.271489
0.604273 0.411109 0.277562
0.629236 0.412421 0.284184
0.655116 0.414923 0.291417
0.682002 0.418463 0.299321
0.709346 0.422675 0.307683
0.737301 0.427893 0.316594
0.765530 0.433722 0.326238
0.793881 0.440375 0.336584
0.822263 0.447852 0.347356
0.850889 0.456367 0.359167
0.879973 0.466255 0.372381
0.909514 0.477821 0.387030
0.939178 0.491310 0.403326
0.968597 0.506645 0.421271
0.183963 0.410529 0.292790
0.186343 0.410712 0.290501
0.189578 0.410620 0.287205
0.201144 0.410224 0.284642
0.226474 0.408881 0.289494
0.255283 0.407294 0.295933
0.285893 0.405921 0.304448
0.316564 0.404822 0.314946
0.335668 0.407691 0.311498
0.353918 0.410864 0.301640
0.375738 0.413306 0.290288
0.400214 0.414099 0.277348
0.408209 0.397681 0.265599
0.431464 0.388617 0.254612
0.470039 0.398749 0.256413
0.506828 0.408026 0.262303
0.540642 0.416388 0.271397
0.571984 0.423316 0.279454
0.601678 0.429694 0.287205
0.630243 0.435340 0.295018
0.655634 0.436988 0.301610
0.681910 0.439612 0.308782
0.708705 0.443153 0.316472
0.736172 0.447517 0.324987
0.763943 0.452644 0.333959
0.791928 0.458503 0.343572
0.820096 0.465370 0.353887
0.848569 0.473335 0.365301
0.877623 0.482704 0.377996
0.907256 0.493843 0.392493
0.937072 0.506767 0.408606
0.966705 0.521843 0.426459
0.203403 0.442573 0.315221
0.205631 0.442695 0.313329
0.208499 0.442695 0.310552
0.216922 0.443275 0.306371
0.241703 0.442725 0.311284
0.270207 0.442298 0.317937
0.301671 0.442023 0.326421
0.334203 0.442084 0.336858
0.363836 0.442878 0.345953
0.378332 0.444984 0.336034
0.396338 0.446601 0.324895
0.417426 0.447333 0.312291
0.438941 0.445075 0.298222
0.444038 0.426368 0.284703
0.462257 0.412879 0.271305
0.499763 0.422034 0.272435
0.534264 0.429664 0.276188
0.565515 0.436774 0.285649
0.595209 0.443244 0.294316
0.624475 0.449775 0.302739
0.654627 0.457038 0.311711
0.682734 0.461677 0.319188
0.709255 0.464546 0.326513
0.736446 0.468330 0.334386
0.763912 0.472938 0.342870
0.791623 0.478309 0.352026
0.819577 0.484565 0.362097
0.847929 0.491981 0.372992
0.876860 0.500969 0.385534
0.906462 0.511650 0.399603
0.936248 0.524254 0.415564
0.965972 0.538903 0.433326
0.228092 0.480385 0.342016
0.230350 0.480720 0.340429
0.232944 0.480690 0.337743
0.238590 0.480934 0.332433
0.260868 0.479927 0.335698
0.287907 0.478798 0.341253
0.318456 0.477790 0.348730
0.350317 0.477302 0.357916
0.383398 0.477424 0.369146
0.405219 0.478492 0.369482
0.419989 0.479744 0.358831
0.437781 0.480232 0.346746
0.457832 0.479316 0.333074
0.475929 0.474037 0.317906
0.478462 0.453346 0.303197
0.492439 0.436530 0.287327
0.527092 0.443763 0.287968
0.559564 0.449744 0.289769
0.589288 0.456428 0.299840
0.618433 0.462959 0.309239
0.648341 0.470100 0.318395
0.678981 0.477974 0.327703
0.710018 0.486336 0.336889
0.736873 0.489601 0.344427
0.764187 0.493721 0.352453
0.791928 0.498817 0.361364
0.820249 0.504997 0.371221
0.849119 0.512535 0.382513
0.878630 0.521569 0.395270
0.908721 0.532494 0.409644
0.938964 0.545251 0.425971
0.968872 0.560021 0.444221
0.253056 0.515770 0.366918
0.255253 0.516106 0.365606
0.257694 0.516350 0.363622
0.262913 0.516625 0.359014
0.281041 0.516136 0.359930
0.307744 0.515251 0.365270
0.337346 0.514549 0.372229
0.369390 0.514000 0.380774
0.402686 0.513817 0.391211
0.435767 0.514122 0.403174
0.448524 0.514397 0.393866
0.462226 0.513695 0.381781
0.478035 0.511803 0.367956
0.495552 0.508324 0.352392
0.509178 0.499458 0.335698
0.509026 0.476905 0.319463
0.520104 0.458717 0.302953
0.551598 0.463142 0.302342
0.583368 0.469123 0.304753
0.613275 0.476081 0.314641
0.643488 0.483619 0.324895
0.674556 0.491920 0.335149
0.705989 0.500542 0.345037
0.737758 0.509667 0.355169
0.767697 0.516960 0.364508
0.795407 0.521752 0.373175
0.823545 0.527672 0.382971
0.852201 0.534844 0.393988
0.881407 0.543603 0.406439
0.910979 0.553918 0.420356
0.940551 0.566003 0.436072
0.969757 0.580041 0.453620
0.277897 0.546563 0.390021
0.279484 0.546654 0.388891
0.281712 0.546685 0.386816
0.286595 0.546868 0.382605
0.300298 0.546624 0.381659
0.325414 0.545708 0.386481
0.353643 0.544793 0.392767
0.384375 0.543969 0.400580
0.416602 0.543389 0.409979
0.449073 0.543175 0.420874
0.473976 0.543175 0.425574
0.484871 0.542473 0.414069
0.497871 0.540917 0.401373
0.512596 0.537926 0.386755
0.528527 0.533227 0.370245
0.538994 0.522148 0.352850
0.537652 0.499123 0.336065
0.546654 0.479835 0.318700
0.575433 0.482124 0.317235
0.606531 0.488228 0.320256
0.637171 0.495491 0.329046
0.668055 0.503838 0.340032
0.699580 0.512688 0.350866
0.731563 0.522148 0.361517
0.763729 0.531975 0.372320
0.795834 0.542412 0.383520
0.824704 0.549157 0.393591
0.853422 0.556146 0.404334
0.882597 0.564752 0.416724
0.912139 0.574914 0.430640
0.941711 0.586908 0.446235
0.970855 0.600763 0.463935
0.304662 0.575158 0.413184
0.306645 0.575616 0.412512
0.323857 0.589868 0.423102
0.328252 0.589960 0.419776
0.338048 0.589715 0.416846
0.360601 0.588312 0.420996
0.386786 0.586786 0.426459
0.415564 0.585138 0.433173
0.446204 0.583764 0.441474
0.477516 0.582757 0.451331
0.508659 0.581933 0.462440
0.522393 0.580713 0.457160
0.531365 0.578393 0.444160
0.542229 0.574945 0.429450
0.554772 0.570214 0.413245
0.568719 0.563928 0.394965
0.576287 0.550713 0.376532
0.573632 0.526970 0.358282
0.580407 0.506432 0.339666
0.606287 0.506249 0.336950
0.637293 0.512505 0.340459
0.668727 0.520073 0.347845
0.700008 0.529046 0.359625
0.731502 0.538323 0.370886
0.762875 0.547814 0.381659
0.794125 0.557733 0.392737
0.825284 0.568231 0.404120
0.855680 0.578515 0.416022
0.884092 0.586358 0.427619
0.913237 0.596155 0.441169
0.942565 0.607813 0.456672
0.971405 0.621271 0.473915
0.336706 0.604761 0.438941
0.340154 0.606653 0.439551
0.344274 0.608637 0.440162
0.350195 0.610346 0.438666
0.357763 0.611780 0.435706
0.379492 0.611170 0.440131
0.403815 0.610040 0.445380
0.430884 0.608637 0.451637
0.459663 0.607416 0.459297
0.489448 0.606317 0.468208
0.519554 0.605585 0.478401
0.546258 0.604852 0.487098
0.552789 0.602838 0.474952
0.560998 0.599756 0.461250
0.570794 0.595575 0.446052
0.582177 0.590021 0.429175
0.594934 0.583215 0.410590
0.600458 0.568994 0.392065
0.597711 0.545617 0.373632
0.603967 0.525475 0.355230
0.628656 0.524102 0.351415
0.660914 0.531731 0.355993
0.693599 0.539971 0.362463
0.725551 0.549889 0.375097
0.757443 0.559960 0.387121
0.789334 0.570428 0.398993
0.821073 0.581506 0.411231
0.852903 0.593439 0.424170
0.884794 0.606653 0.438270
0.914733 0.617945 0.452461
0.943755 0.629358 0.467720
0.972412 0.642298 0.484352
0.363561 0.628443 0.459907
0.366888 0.630213 0.460517
0.370855 0.632044 0.461128
0.376257 0.633661 0.460121
0.383276 0.635096 0.457679
0.400488 0.634821 0.460029
0.423194 0.633753 0.464912
0.448066 0.632563 0.470710
0.475380 0.631464 0.477790
0.503716 0.630488 0.486030
0.532647 0.629755 0.495338
0.561303 0.629206 0.505516
0.577417 0.627863 0.504967
0.583551 0.625269 0.492744
0.590997 0.621576 0.478706
0.599908 0.616724 0.462898
0.610376 0.610773 0.445716
0.622461 0.603784 0.427283
0.626368 0.588647 0.408667
0.623774 0.565972 0.390600
0.629480 0.545953 0.372045
0.653254 0.543572 0.367193
0.686549 0.552361 0.372686
0.720058 0.561303 0.378790
0.752377 0.571832 0.391608
0.784573 0.582757 0.404425
0.816678 0.594171 0.417334
0.848844 0.606439 0.430915
0.881071 0.619989 0.445533
0.913146 0.634760 0.461494
0.944457 0.650416 0.478401
0.972900 0.662989 0.494484
0.391760 0.652522 0.481178
0.394873 0.654200 0.481941
0.398566 0.655909 0.482521
0.403723 0.657496 0.481941
0.410224 0.658778 0.479744
0.423590 0.658869 0.480446
0.444251 0.657954 0.484901
0.467384 0.656794 0.490150
0.492775 0.655695 0.496498
0.519371 0.654658 0.503716
0.546563 0.653925 0.511925
0.574060 0.653254 0.520897
0.600763 0.652674 0.530358
0.607813 0.650538 0.521843
0.613764 0.647486 0.509789
0.621149 0.643671 0.496101
0.630304 0.639124 0.481117
0.641230 0.633814 0.464454
0.653925 0.627710 0.446815
0.657710 0.612818 0.429297
0.656336 0.591424 0.411749
0.662745 0.572320 0.393835
0.685878 0.569024 0.388037
0.720668 0.579339 0.394812
0.755245 0.589654 0.402228
0.788571 0.601190 0.414984
0.821347 0.613519 0.429389
0.853880 0.626612 0.444373
0.886381 0.640742 0.459968
0.918364 0.655940 0.476478
0.949554 0.671962 0.493538
0.979248 0.688655 0.510948
0.429236 0.683345 0.508354
0.431281 0.684199 0.508598
0.433387 0.684871 0.508385
0.436988 0.685481 0.507164
0.442084 0.686061 0.504875
0.451209 0.686091 0.503349
0.469886 0.685206 0.507256
0.491371 0.684260 0.511986
0.515068 0.683497 0.517815
0.540368 0.682856 0.524468
0.566613 0.682399 0.532036
0.593133 0.681971 0.540215
0.619226 0.681453 0.548760
0.638636 0.680476 0.552514
0.643244 0.677790 0.542046
0.649073 0.674342 0.530053
0.656245 0.670253 0.516899
0.665064 0.665461 0.502251
0.675563 0.659968 0.486091
0.687587 0.653681 0.468299
0.689845 0.637934 0.450599
0.688014 0.616419 0.432471
0.693324 0.596887 0.413947
0.714076 0.591302 0.405951
0.748745 0.602136 0.413153
0.783352 0.613245 0.421424
0.817197 0.625544 0.433967
0.850340 0.639307 0.449928
0.883330 0.654017 0.466560
0.915740 0.669642 0.483650
0.947326 0.686061 0.500938
0.977142 0.703090 0.518517
0.457832 0.707790 0.529229
0.459724 0.708614 0.529473
0.461769 0.709346 0.529229
0.465095 0.710018 0.528161
0.469642 0.710536 0.526146
0.475105 0.710842 0.523003
0.492073 0.709895 0.526360
0.511650 0.708888 0.530480
0.533562 0.708034 0.535485
0.557122 0.707301 0.541375
0.581903 0.706752 0.548089
0.607202 0.706294 0.555352
0.632319 0.705776 0.563104
0.657221 0.705287 0.571405
0.668299 0.703639 0.568078
0.673335 0.700954 0.557794
0.679652 0.697627 0.546563
0.687312 0.693812 0.534051
0.696529 0.689448 0.520409
0.707301 0.684443 0.505303
0.719600 0.678676 0.488563
0.721431 0.662928 0.471778
0.720394 0.642267 0.454017
0.726040 0.623346 0.435767
0.740322 0.612421 0.422705
0.775357 0.624201 0.430976
0.810361 0.636500 0.440436
0.844785 0.649866 0.453040
0.878294 0.665156 0.470619
0.911406 0.681392 0.488472
0.943664 0.698573 0.506493
0.974182 0.716396 0.524620
0.492134 0.737667 0.553887
0.493935 0.738552 0.554070
0.495644 0.739132 0.553887
0.498299 0.739467 0.552697
0.501793 0.739620 0.550317
0.506310 0.739590 0.547326
0.519036 0.738643 0.548241
0.536522 0.737240 0.551476
0.556176 0.735836 0.555474
0.577569 0.734524 0.560266
0.600214 0.733242 0.565698
0.623743 0.732235 0.572015
0.647639 0.731197 0.578973
0.671382 0.730129 0.586450
0.693660 0.729000 0.593774
0.696956 0.726070 0.583520
0.701411 0.722713 0.572595
0.707515 0.719112 0.561028
0.715419 0.715389 0.549004
0.725093 0.711452 0.536187
0.736385 0.707088 0.522179
0.748989 0.701930 0.506462
0.750149 0.685969 0.490669
0.749203 0.665614 0.473152
0.754086 0.646571 0.454627
0.770687 0.637049 0.442573
0.805905 0.649897 0.452064
0.840726 0.663264 0.462928
0.875273 0.677577 0.475349
0.908690 0.694331 0.493965
0.941100 0.711879 0.512322
0.972076 0.730373 0.531060
0.517601 0.761105 0.572320
0.519219 0.761959 0.572534
0.520806 0.762509 0.572381
0.523247 0.762875 0.571191
0.526421 0.762997 0.569116
0.530694 0.763058 0.566339
0.540063 0.762570 0.565667
0.556542 0.761410 0.568811
0.575341 0.760250 0.572686
0.595850 0.759213 0.577386
0.617731 0.758236 0.582757
0.640711 0.757382 0.588983
0.664027 0.756619 0.595850
0.687190 0.755795 0.603174
0.709926 0.754879 0.610956
0.724331 0.753475 0.611963
0.728176 0.750942 0.601801
0.733486 0.748135 0.591089
0.740414 0.745235 0.579950
0.749050 0.742153 0.568200
0.759182 0.738705 0.555962
0.770657 0.734737 0.542687
0.783291 0.729946 0.527794
0.783963 0.713802 0.513054
0.783658 0.694270 0.496620
0.788724 0.675776 0.478950
0.804013 0.664851 0.465522
0.839506 0.679194 0.476631
0.874754 0.694392 0.489143
0.909178 0.710353 0.502770
0.942046 0.728206 0.520684
0.973114 0.747372 0.540063
0.545464 0.786252 0.592462
0.546838 0.786831 0.592493
0.548028 0.787106 0.592218
0.549981 0.787167 0.590967
0.552728 0.787045 0.588861
0.556359 0.786923 0.586236
0.562463 0.786587 0.583764
0.577722 0.785367 0.586664
0.595361 0.784176 0.590326
0.614649 0.783200 0.594812
0.635492 0.782223 0.599939
0.657374 0.781582 0.606012
0.679927 0.780850 0.612634
0.702419 0.780087 0.619745
0.724422 0.779202 0.627161
0.745907 0.778347 0.635096
0.753048 0.776608 0.629480
0.757443 0.774441 0.619593
0.763424 0.772213 0.609155
0.770962 0.769894 0.598291
0.780087 0.767361 0.586908
0.790585 0.764401 0.574640
0.802335 0.760861 0.561547
0.815000 0.756466 0.547295
0.815793 0.740566 0.533593
0.816373 0.722042 0.518334
0.821988 0.704555 0.502190
0.836301 0.692653 0.488075
0.871214 0.707912 0.499947
0.906157 0.724544 0.513481
0.939818 0.742153 0.528313
0.971557 0.761166 0.545647
0.572045 0.809415 0.611688
0.573144 0.809812 0.611780
0.574243 0.810025 0.611353
0.576135 0.810147 0.610285
0.579034 0.810300 0.608728
0.583124 0.810605 0.606683
0.588556 0.811337 0.604395
0.603052 0.811307 0.607355
0.620935 0.811337 0.611963
0.640589 0.811521 0.617365
0.661555 0.811734 0.623407
0.683467 0.811978 0.630121
0.705776 0.812100 0.637293
0.727962 0.811978 0.644770
0.749538 0.811582 0.652491
0.770291 0.810971 0.660334
0.787869 0.810300 0.666011
0.791714 0.808896 0.656947
0.796933 0.807492 0.647486
0.803555 0.805997 0.637507
0.811643 0.804349 0.626917
0.821134 0.802457 0.615656
0.831907 0.800076 0.603449
0.843992 0.797238 0.590326
0.856352 0.793027 0.576349
0.858366 0.778073 0.562860
0.860502 0.760891 0.548791
0.866880 0.744625 0.534417
0.881468 0.733608 0.521508
0.913573 0.747860 0.532464
0.946777 0.765743 0.547021
0.977600 0.784573 0.563592
0.608911 0.839200 0.638331
0.609766 0.839445 0.638300
0.610590 0.839475 0.637873
0.612055 0.839414 0.636744
0.614466 0.839292 0.635065
0.617792 0.839261 0.632929
0.622248 0.839414 0.630488
0.632502 0.839170 0.631159
0.648157 0.838529 0.634913
0.665614 0.837949 0.639460
0.684260 0.837400 0.644495
0.703975 0.836912 0.650263
0.724178 0.836332 0.656458
0.744503 0.835721 0.663172
