data/fiter_cube/57993848/1023159/file.cube
# Created by Adobe Lightroom plugin Export LUT (1.17.0)
# www.johnrellis.com/lightroom/exportlut.htm
# Preset: 萌宠摄影后期_06 云集
# Color profile: C:\Program Files (x86)\Common Files\Adobe\Color\Profiles\Recommended\AdobeRGB1998.icc
LUT_3D_SIZE 8
DOMAIN_MIN 0.000000 0.000000 0.000000
DOMAIN_MAX 0.903226 0.903226 0.903226
0.079713 0.104128 0.113558
0.136721 0.116762 0.123201
0.244633 0.147982 0.139345
0.370794 0.181369 0.156710
0.495583 0.216526 0.183261
0.625208 0.257572 0.222782
0.742916 0.300816 0.269657
0.865354 0.352178 0.324193
0.095369 0.156283 0.144442
0.137697 0.160586 0.143038
0.247379 0.185306 0.147402
0.368994 0.211063 0.163699
0.491371 0.240146 0.188998
0.615320 0.274022 0.225223
0.731716 0.312261 0.269322
0.857755 0.361273 0.324010
0.120333 0.272770 0.203891
0.179202 0.270695 0.208286
0.257969 0.270207 0.188388
0.387793 0.298528 0.196017
0.512779 0.318853 0.219486
0.628748 0.340032 0.252537
0.752132 0.372320 0.297276
0.873350 0.413794 0.349035
0.183963 0.410529 0.292790
0.226474 0.408881 0.289494
0.335668 0.407691 0.311498
0.408209 0.397681 0.265599
0.540642 0.416388 0.271397
0.655634 0.436988 0.301610
0.763943 0.452644 0.333959
0.877623 0.482704 0.377996
0.277897 0.546563 0.390021
0.300298 0.546624 0.381659
0.416602 0.543389 0.409979
0.497871 0.540917 0.401373
0.537652 0.499123 0.336065
0.637171 0.495491 0.329046
0.763729 0.531975 0.372320
0.882597 0.564752 0.416724
0.391760 0.652522 0.481178
0.410224 0.658778 0.479744
0.492775 0.655695 0.496498
0.600763 0.652674 0.530358
0.630304 0.639124 0.481117
0.656336 0.591424 0.411749
0.755245 0.589654 0.402228
0.886381 0.640742 0.459968
0.517601 0.761105 0.572320
0.526421 0.762997 0.569116
0.575341 0.760250 0.572686
0.664027 0.756619 0.595850
0.728176 0.750942 0.601801
0.759182 0.738705 0.555962
0.783658 0.694270 0.496620
0.874754 0.694392 0.489143
0.636896 0.861784 0.659205
0.642115 0.861845 0.656214
0.671778 0.861875 0.655329
0.743618 0.860502 0.676753
0.810269 0.850370 0.696162
0.847990 0.851255 0.683955
0.888396 0.850919 0.645136
0.922545 0.819303 0.594568
0.077668 0.127932 0.159365
0.119478 0.123537 0.168704
0.247501 0.133333 0.175784
0.368444 0.187625 0.203098
0.489845 0.222568 0.222660
0.609308 0.259556 0.251194
0.724422 0.299107 0.286900
0.849607 0.347845 0.333928
0.090883 0.149081 0.178225
0.140200 0.172213 0.186160
0.249241 0.192905 0.196597
0.370733 0.218204 0.209506
0.490272 0.246311 0.228122
0.606348 0.277379 0.254673
0.717189 0.311192 0.287572
0.841855 0.356268 0.332830
0.113405 0.276158 0.253971
0.168551 0.280125 0.234958
0.260136 0.275547 0.222934
0.386999 0.304814 0.237491
0.504753 0.320104 0.252750
0.615625 0.338567 0.275669
0.729152 0.365240 0.308324
0.854276 0.405524 0.353918
0.190799 0.406683 0.326604
0.216434 0.408698 0.308141
0.335882 0.407904 0.332921
0.395575 0.389471 0.281926
0.520653 0.407568 0.288396
0.631006 0.425330 0.312322
0.739132 0.441138 0.339269
0.859312 0.472938 0.380194
0.285924 0.543755 0.413214
0.300511 0.543572 0.399634
0.405463 0.539513 0.414801
0.487709 0.532708 0.408362
0.524376 0.489967 0.343053
0.626917 0.490913 0.339422
0.752895 0.527855 0.381201
0.871550 0.558404 0.420905
0.391852 0.645716 0.490913
0.403449 0.646815 0.484810
0.475319 0.645655 0.492531
0.587427 0.644312 0.527337
0.623438 0.633906 0.485664
0.651698 0.588769 0.419013
0.751247 0.588190 0.409491
0.879759 0.637446 0.464454
0.510735 0.751461 0.574304
0.516472 0.750698 0.568811
0.558770 0.750607 0.567407
0.652308 0.749752 0.592401
0.723690 0.746761 0.603723
0.752682 0.733577 0.557153
0.773800 0.686702 0.495857
0.864744 0.686641 0.487037
0.632258 0.856748 0.661097
0.638636 0.857694 0.658930
0.663203 0.859129 0.653956
0.737301 0.858274 0.675868
0.814817 0.856199 0.704005
0.850950 0.854124 0.691157
0.886778 0.849851 0.647974
0.918364 0.815579 0.594598
0.051118 0.170321 0.245823
0.091279 0.160586 0.239902
0.213443 0.156161 0.283452
0.396460 0.139376 0.305211
0.514855 0.180545 0.292546
0.619440 0.278813 0.334844
0.733700 0.316899 0.357610
0.856779 0.361913 0.390265
0.081666 0.219150 0.280766
0.121645 0.204990 0.273411
0.236576 0.190555 0.302159
0.393835 0.193423 0.304204
0.508782 0.238529 0.306889
0.616114 0.295720 0.336431
0.728908 0.329137 0.357733
0.853300 0.372137 0.390784
0.110567 0.250217 0.316442
0.159915 0.266117 0.320562
0.273472 0.305821 0.325139
0.394629 0.319829 0.331121
0.518730 0.337865 0.341253
0.624567 0.355444 0.353216
0.734646 0.379217 0.372137
0.856291 0.415381 0.403540
0.128908 0.414343 0.420661
0.191745 0.422217 0.412451
0.325994 0.428901 0.383490
0.412268 0.407965 0.351629
0.541405 0.436347 0.374121
0.639521 0.440803 0.382666
0.747250 0.455787 0.399390
0.864561 0.484627 0.428504
0.267887 0.546105 0.477180
0.305028 0.547906 0.471046
0.383734 0.552239 0.446265
0.503136 0.547234 0.463325
0.536126 0.503227 0.396307
0.641199 0.510979 0.401587
0.759487 0.542535 0.433875
0.873411 0.567071 0.461860
0.401190 0.646723 0.536889
0.424323 0.647791 0.534752
0.463478 0.650874 0.515740
0.578058 0.648127 0.543084
0.626123 0.637568 0.518029
0.649348 0.590387 0.450752
0.754726 0.597131 0.446845
0.884428 0.649256 0.500267
0.526940 0.754818 0.610559
0.533928 0.754757 0.605524
0.557305 0.755673 0.589868
0.642908 0.753811 0.604120
0.730068 0.751034 0.626429
0.755612 0.737972 0.579400
0.778042 0.692775 0.520439
0.876249 0.700160 0.516014
0.641901 0.857969 0.687556
0.645533 0.857572 0.683253
0.664515 0.858854 0.673182
0.728267 0.861997 0.684260
0.809506 0.859434 0.711727
0.854765 0.858030 0.709163
0.888457 0.853727 0.665400
0.920867 0.820218 0.610773
0.000000 0.231113 0.355108
0.024720 0.221775 0.350530
0.162142 0.216190 0.324895
0.323583 0.196506 0.398016
0.548882 0.143557 0.438117
0.644892 0.207492 0.413733
0.745418 0.252415 0.406409
0.853178 0.349096 0.444770
0.044434 0.273716 0.384619
0.099001 0.261051 0.377111
0.182101 0.241978 0.346593
0.340581 0.224094 0.410224
0.549187 0.196841 0.437629
0.641627 0.241917 0.414008
0.741085 0.276829 0.407080
0.848783 0.374975 0.452674
0.090669 0.366400 0.436866
0.153902 0.371252 0.437110
0.245029 0.327123 0.406897
0.390936 0.309667 0.441199
0.548455 0.317327 0.438514
0.642786 0.339300 0.426703
0.742061 0.400427 0.454658
0.859709 0.427619 0.470314
0.176944 0.369696 0.457435
0.212284 0.378698 0.458808
0.309758 0.409064 0.461952
0.434852 0.445991 0.462348
0.543053 0.450538 0.461921
0.638544 0.456428 0.463203
0.745815 0.468971 0.470314
0.864683 0.494301 0.488655
0.227634 0.496223 0.543053
0.257633 0.512749 0.543542
0.355352 0.556573 0.541558
0.505272 0.561181 0.522240
0.552972 0.522637 0.470619
0.660212 0.547143 0.494392
0.763851 0.557641 0.501671
0.875608 0.576989 0.516533
0.360540 0.653315 0.602869
0.393561 0.657801 0.601740
0.471992 0.658015 0.586755
0.558770 0.663081 0.570642
0.645289 0.655848 0.574212
0.658778 0.603662 0.506645
0.768734 0.621393 0.513970
0.892210 0.666926 0.551049
0.503258 0.756222 0.654932
0.519890 0.757595 0.653040
0.573114 0.760952 0.646967
0.623255 0.767727 0.626764
0.736904 0.766110 0.659083
0.767117 0.751644 0.621302
0.781765 0.699886 0.555077
0.885466 0.712856 0.551995
0.639887 0.862913 0.728603
0.651423 0.863706 0.727840
0.684718 0.865049 0.723018
0.714076 0.868681 0.704341
0.797299 0.866758 0.724331
0.861906 0.865476 0.740261
0.890288 0.859617 0.693721
0.922454 0.825559 0.635187
0.000000 0.302708 0.460151
0.000000 0.294713 0.455329
0.141238 0.268833 0.432898
0.237766 0.272862 0.390326
0.437812 0.244541 0.498329
0.663142 0.196292 0.542779
0.775692 0.237430 0.524010
0.880674 0.287572 0.517967
0.039460 0.334630 0.478767
0.097353 0.325963 0.473976
0.169192 0.295262 0.449561
0.251194 0.289799 0.399420
0.449683 0.264805 0.505394
0.668849 0.229221 0.544060
0.774929 0.267613 0.524590
0.879515 0.308965 0.518761
0.169650 0.425147 0.526299
0.205081 0.416724 0.520684
0.245945 0.377081 0.495644
0.301671 0.346654 0.445472
0.487709 0.329625 0.526757
0.673365 0.322362 0.542870
0.767666 0.347295 0.525017
0.872190 0.368933 0.518975
0.210117 0.484962 0.561761
0.243168 0.491554 0.562554
0.337469 0.514336 0.565484
0.398108 0.453101 0.522789
0.543084 0.439094 0.553399
0.667201 0.446845 0.545495
0.760372 0.449104 0.531823
0.863432 0.478645 0.540307
0.278660 0.479316 0.570916
0.303044 0.485542 0.571527
0.376165 0.505303 0.571984
0.478340 0.536492 0.570916
0.571496 0.558312 0.565667
0.657984 0.555779 0.560143
0.757565 0.557641 0.557733
0.870726 0.569909 0.563348
0.326787 0.535363 0.625879
0.347723 0.549371 0.626703
0.413001 0.593011 0.628351
0.510735 0.650202 0.630152
0.633753 0.657221 0.614527
0.664210 0.614618 0.561181
0.782040 0.647608 0.584619
0.891020 0.666346 0.595392
0.450141 0.744289 0.714748
0.463508 0.750637 0.715175
0.517388 0.755306 0.703792
0.604944 0.760555 0.684901
0.693202 0.769497 0.668696
0.772396 0.761715 0.669581
0.780056 0.703151 0.592035
0.890257 0.725887 0.600031
0.592401 0.859556 0.774929
0.603815 0.859648 0.772061
0.642206 0.860685 0.763577
0.711116 0.868315 0.757412
0.760800 0.874083 0.734768
0.860746 0.873167 0.769741
0.889128 0.864866 0.729274
0.918090 0.826230 0.661433
0.000000 0.383062 0.561822
0.083833 0.376013 0.557488
0.163149 0.350500 0.538842
0.244816 0.326787 0.502708
0.328466 0.325658 0.484047
0.545708 0.294957 0.583185
0.770199 0.261418 0.637629
0.908812 0.279637 0.633356
0.109071 0.402594 0.568902
0.133181 0.394781 0.564202
0.187808 0.368505 0.546441
0.254887 0.338933 0.510155
0.334722 0.335851 0.486580
0.550622 0.309056 0.585138
0.771633 0.281926 0.637263
0.906645 0.301427 0.632349
0.230014 0.475319 0.602502
0.240055 0.466468 0.597620
0.269078 0.437446 0.580713
0.301884 0.391669 0.546014
0.366644 0.378119 0.504356
0.577203 0.362249 0.599084
0.785306 0.351751 0.641901
0.904662 0.371435 0.633082
0.297459 0.579706 0.653010
0.321660 0.572625 0.647944
0.390112 0.551171 0.631647
0.414679 0.500999 0.600641
0.432441 0.454322 0.540978
0.627588 0.452796 0.626307
0.811093 0.455024 0.652399
0.903655 0.459785 0.634089
0.346410 0.586694 0.660975
0.367651 0.591638 0.661646
0.432593 0.607813 0.663600
0.519615 0.632990 0.666682
0.536553 0.560540 0.612207
0.667781 0.548089 0.643122
0.795987 0.547814 0.640497
0.891539 0.541405 0.623987
0.396338 0.576562 0.663416
0.414221 0.582116 0.664851
0.464118 0.596063 0.665583
0.533349 0.616571 0.665736
0.611353 0.640284 0.662959
0.698451 0.659998 0.657069
0.787625 0.656611 0.650446
0.891234 0.662135 0.650294
0.445106 0.605982 0.725582
0.457465 0.610315 0.727016
0.496803 0.637079 0.729183
0.563226 0.696773 0.734432
0.652888 0.768765 0.742184
0.776883 0.779843 0.726864
0.790677 0.719539 0.650965
0.906737 0.758541 0.678767
0.552514 0.811704 0.818875
0.561547 0.817227 0.819211
0.593347 0.837278 0.821317
0.651972 0.867247 0.823148
0.741543 0.873045 0.799619
0.822721 0.882261 0.780880
0.894438 0.878080 0.785428
0.916197 0.832425 0.703609
0.167514 0.459968 0.647883
0.185336 0.455756 0.645777
0.227787 0.436439 0.632868
0.275242 0.404242 0.608240
0.344976 0.388861 0.564202
0.432593 0.379950 0.573510
0.646418 0.348028 0.660731
0.872435 0.324926 0.732021
0.193637 0.472023 0.650385
0.207919 0.467384 0.648035
0.243656 0.447486 0.635248
0.285100 0.413489 0.609796
0.348119 0.393866 0.565606
0.431495 0.383764 0.570733
0.643091 0.353521 0.657099
0.866545 0.330114 0.726040
0.280400 0.528801 0.676905
0.287968 0.522362 0.673152
0.310155 0.499672 0.658747
0.338506 0.462013 0.632197
0.379004 0.427893 0.586877
0.450599 0.414557 0.579278
0.664057 0.395300 0.668940
0.880278 0.385595 0.733608
0.378759 0.618524 0.719356
0.392981 0.613245 0.714870
0.415198 0.590326 0.699977
0.431373 0.548211 0.673243
0.439460 0.492744 0.627222
0.487251 0.469306 0.594659
0.699275 0.463294 0.688960
0.898619 0.458900 0.740902
0.418036 0.686091 0.753475
0.431800 0.688563 0.753109
0.477150 0.695918 0.752682
0.531762 0.661830 0.729152
0.534600 0.593561 0.683223
0.527855 0.530755 0.606775
0.733730 0.534508 0.706874
0.918303 0.543908 0.743954
0.459846 0.679500 0.756863
0.471717 0.682612 0.757351
0.510643 0.693355 0.759213
0.572992 0.712612 0.763149
0.652369 0.739193 0.767758
0.653742 0.656855 0.704005
0.787655 0.644587 0.737911
0.917510 0.651728 0.741207
0.503960 0.674098 0.764553
0.514397 0.677546 0.765652
0.546441 0.686915 0.766720
0.598199 0.703182 0.768765
0.664424 0.724239 0.768948
0.742123 0.750484 0.766964
0.820462 0.768734 0.758053
0.907469 0.765560 0.749660
0.544579 0.698695 0.824582
0.551812 0.701045 0.825254
0.580468 0.712245 0.830655
0.622034 0.727199 0.835782
0.692592 0.793912 0.842954
0.781827 0.875822 0.855131
0.891936 0.894804 0.841825
0.916655 0.845029 0.764462
0.281468 0.544640 0.740627
0.291508 0.541405 0.738827
0.317296 0.526268 0.728237
0.355352 0.502190 0.710597
0.398901 0.474220 0.680446
0.457343 0.465064 0.632532
0.559197 0.453437 0.670954
0.760647 0.412696 0.754726
0.295415 0.553704 0.742824
0.304417 0.550286 0.740963
0.328618 0.535088 0.730800
0.363226 0.509636 0.712276
0.401556 0.478676 0.682094
0.459144 0.468147 0.633661
0.557549 0.455818 0.668574
0.759365 0.416632 0.752865
0.346380 0.591119 0.757656
0.352850 0.586938 0.755276
0.370001 0.569726 0.744076
0.401465 0.544915 0.727962
0.426001 0.505943 0.696590
0.475624 0.487404 0.645838
0.564813 0.474586 0.670558
0.768063 0.441749 0.757565
0.423346 0.658350 0.787289
0.428412 0.654017 0.785214
0.440467 0.635584 0.774533
0.460487 0.605005 0.756039
0.478126 0.561151 0.724788
0.509422 0.525994 0.673762
0.581750 0.509575 0.677699
0.787442 0.485389 0.769772
0.463722 0.738918 0.827420
0.474678 0.736324 0.826078
0.504753 0.723140 0.817380
0.535943 0.694057 0.799313
0.545251 0.641108 0.766781
0.548760 0.578515 0.715145
0.599359 0.552300 0.683314
0.814786 0.544854 0.787289
0.504753 0.766049 0.845579
0.512963 0.767788 0.845426
0.542077 0.774899 0.845975
0.592737 0.789578 0.848875
0.646967 0.766201 0.831540
0.650355 0.693263 0.785183
0.643854 0.621668 0.704158
0.858824 0.638148 0.818814
0.553826 0.766659 0.856504
0.560937 0.768460 0.856504
0.585870 0.775357 0.857237
0.631495 0.789792 0.860349
0.696101 0.812436 0.865751
0.777493 0.845060 0.874937
0.781064 0.771145 0.816770
0.898466 0.752377 0.846921
0.606897 0.770047 0.872374
0.612604 0.771603 0.872313
0.633906 0.778134 0.873075
0.673335 0.791470 0.875608
0.727565 0.811032 0.878904
0.792966 0.836728 0.882475
0.864927 0.867826 0.885039
0.930724 0.890471 0.879088
