data/fiter_cube/29797953/1022861/file.cube
# Created by Adobe Lightroom plugin Export LUT (1.17.0)
# www.johnrellis.com/lightroom/exportlut.htm
# Preset: 电影灰蓝色_06 云集
# Color profile: C:\Program Files (x86)\Common Files\Adobe\Color\Profiles\Recommended\AdobeRGB1998.icc
LUT_3D_SIZE 32
DOMAIN_MIN 0.0 0.0 0.0
DOMAIN_MAX 1.0 1.0 1.0
0.069123 0.076112 0.088075
0.075380 0.077638 0.088411
0.083864 0.079744 0.089174
0.120363 0.087068 0.090272
0.203861 0.096620 0.088350
0.319921 0.095399 0.080842
0.438666 0.080659 0.066041
0.536248 0.078462 0.029877
0.610132 0.110048 0.000000
0.666285 0.157137 0.000000
0.708644 0.205051 0.000000
0.740444 0.250217 0.000000
0.765682 0.291997 0.000000
0.788418 0.333654 0.000000
0.809598 0.375006 0.070375
0.826963 0.410071 0.105745
0.841550 0.440070 0.137118
0.853971 0.466255 0.166690
0.864744 0.489479 0.195193
0.874571 0.510643 0.223270
0.883696 0.529900 0.250004
0.892149 0.547326 0.275486
0.899870 0.563287 0.299779
0.907012 0.577813 0.322698
0.913664 0.591058 0.344366
0.919829 0.603357 0.365118
0.925628 0.614832 0.384863
0.931090 0.625635 0.403876
0.936187 0.635706 0.422004
0.940887 0.645197 0.439307
0.945312 0.653956 0.455390
0.949340 0.662043 0.470253
0.071015 0.079286 0.090852
0.075441 0.080751 0.089570
0.085695 0.084108 0.089387
0.125582 0.094972 0.089967
0.212436 0.107942 0.086885
0.329381 0.110628 0.078096
0.446113 0.102480 0.061677
0.541009 0.104982 0.019135
0.612818 0.131563 0.000000
0.667994 0.173037 0.000000
0.709499 0.217166 0.000000
0.740810 0.259129 0.000000
0.765743 0.299077 0.000000
0.788479 0.339544 0.000000
0.809293 0.378912 0.069612
0.826383 0.412940 0.105623
0.840879 0.442115 0.136568
0.853300 0.467689 0.165743
0.864073 0.490455 0.194308
0.873960 0.511284 0.222110
0.883116 0.530297 0.248783
0.891600 0.547631 0.274388
0.899382 0.563439 0.298619
0.906584 0.577874 0.321569
0.913268 0.591089 0.343297
0.919493 0.603449 0.364202
0.925353 0.614862 0.383978
0.930785 0.625757 0.403296
0.935912 0.635828 0.421485
0.940703 0.645289 0.438788
0.945129 0.654078 0.454902
0.949187 0.662135 0.469825
0.072755 0.083589 0.094514
0.075624 0.084382 0.097749
0.084962 0.087922 0.091829
0.131472 0.105776 0.089296
0.224308 0.126101 0.084352
0.343114 0.132052 0.073548
0.456214 0.128786 0.052857
0.547509 0.134035 0.004639
0.617060 0.157626 0.000000
0.670466 0.193423 0.000000
0.710994 0.233249 0.000000
0.741695 0.272068 0.000000
0.766293 0.309422 0.000000
0.788968 0.348180 0.000000
0.809384 0.385626 0.069825
0.826352 0.417792 0.105409
0.840665 0.446082 0.136812
0.853025 0.470741 0.165988
0.863798 0.492927 0.194491
0.873686 0.513329 0.222141
0.882841 0.531975 0.248875
0.891325 0.549065 0.274357
0.899138 0.564660 0.298680
0.906340 0.578912 0.321630
0.913054 0.592065 0.343389
0.919280 0.604181 0.364111
0.925139 0.615595 0.384070
0.930632 0.626337 0.403296
0.935760 0.636408 0.421546
0.940551 0.645838 0.438911
0.944976 0.654566 0.455055
0.949035 0.662593 0.470069
0.078279 0.099458 0.105653
0.086030 0.103639 0.112642
0.090394 0.103304 0.118318
0.127565 0.117098 0.093172
0.233646 0.152895 0.081575
0.373419 0.184146 0.056275
0.479042 0.183352 0.010590
0.562921 0.189334 0.000000
0.626917 0.207401 0.000000
0.676844 0.235508 0.000000
0.714839 0.267155 0.000000
0.743984 0.299413 0.000000
0.767880 0.332097 0.000000
0.790372 0.367041 0.000000
0.810117 0.400061 0.070222
0.826627 0.429511 0.107301
0.840726 0.455390 0.138613
0.852903 0.478309 0.167666
0.863554 0.499001 0.195743
0.873289 0.518303 0.223423
0.882414 0.536065 0.249821
0.890867 0.552453 0.275242
0.898741 0.567651 0.299382
0.906004 0.581628 0.322515
0.912810 0.594476 0.344305
0.919127 0.606531 0.365362
0.924987 0.617762 0.385351
0.930480 0.628412 0.404761
0.935637 0.638300 0.422919
0.940429 0.647517 0.440131
0.944823 0.656062 0.456245
0.948882 0.663935 0.471107
0.089845 0.143221 0.132204
0.103059 0.150118 0.141238
0.120027 0.153933 0.154726
0.136416 0.165011 0.152560
0.210575 0.172549 0.089387
0.360327 0.207431 0.057221
0.501061 0.254459 0.000000
0.583703 0.267826 0.000000
0.640681 0.276799 0.000000
0.685664 0.294560 0.000000
0.720211 0.315953 0.000000
0.747280 0.339513 0.000000
0.770291 0.365087 0.000000
0.792355 0.394598 0.000000
0.811276 0.422187 0.073060
0.827359 0.447425 0.110292
0.841184 0.470222 0.142336
0.853178 0.490852 0.171756
0.863706 0.509667 0.200015
0.873381 0.527214 0.227085
0.882353 0.543633 0.253178
0.890745 0.558953 0.278172
0.898558 0.573144 0.302068
0.905791 0.586450 0.324895
0.912535 0.598810 0.346715
0.918853 0.610315 0.367590
0.924743 0.621180 0.387549
0.930236 0.631403 0.406622
0.935363 0.641047 0.424842
0.940093 0.650050 0.441993
0.944518 0.658412 0.458015
0.948547 0.666102 0.472938
0.115297 0.217990 0.177401
0.133700 0.225589 0.187655
0.161501 0.234501 0.205600
0.194522 0.234348 0.230259
0.231785 0.267185 0.179324
0.321660 0.238926 0.076692
0.471443 0.263767 0.000000
0.582757 0.316289 0.000000
0.657710 0.364050 0.000000
0.696651 0.367346 0.000000
0.727352 0.376806 0.000000
0.752102 0.389929 0.000000
0.774533 0.408240 0.000000
0.795438 0.429877 0.000000
0.813413 0.451087 0.078279
0.828885 0.471260 0.116793
0.842252 0.490181 0.149081
0.853941 0.507713 0.178317
0.864225 0.524071 0.206394
0.873777 0.539605 0.233127
0.882628 0.554314 0.258854
0.890929 0.568231 0.283543
0.901488 0.587488 0.317723
0.908293 0.599237 0.339635
0.914641 0.610163 0.360388
0.920592 0.620478 0.380194
0.926146 0.630243 0.399084
0.931273 0.639521 0.417334
0.936126 0.648280 0.434546
0.940673 0.656519 0.450813
0.944823 0.664240 0.466102
0.948669 0.671351 0.480262
0.167025 0.322881 0.243778
0.190372 0.329107 0.254154
0.221683 0.337041 0.269902
0.280278 0.342199 0.304448
0.317540 0.339971 0.338079
0.369543 0.381994 0.204044
0.436744 0.308995 0.053346
0.558312 0.324987 0.000000
0.643946 0.379858 0.000000
0.703365 0.430060 0.000000
0.737209 0.447639 0.000000
0.759915 0.450141 0.000000
0.782132 0.461189 0.000000
0.801663 0.474708 0.022553
0.818326 0.488777 0.094362
0.832670 0.502922 0.130678
0.845182 0.516960 0.161868
0.856229 0.530541 0.190738
0.866117 0.543816 0.218235
0.875395 0.556909 0.244663
0.884184 0.569848 0.270298
0.892485 0.582422 0.295079
0.900237 0.594507 0.319066
0.907378 0.605829 0.341772
0.913970 0.616480 0.363287
0.920012 0.626398 0.383459
0.925597 0.635737 0.402533
0.930785 0.644465 0.420569
0.935607 0.652796 0.437751
0.940124 0.660700 0.454017
0.944305 0.668086 0.469154
0.948119 0.674983 0.483375
0.256901 0.424872 0.322606
0.279393 0.428717 0.332036
0.308568 0.433387 0.345129
0.369177 0.440589 0.378729
0.410285 0.437507 0.405219
0.430365 0.445930 0.407538
0.488716 0.470802 0.231266
0.525322 0.374182 0.030335
0.617365 0.381445 0.000000
0.685115 0.432288 0.000000
0.731044 0.473518 0.000000
0.766995 0.510246 0.000000
0.787686 0.513146 0.000000
0.805631 0.518303 0.060670
0.821164 0.525719 0.108949
0.834653 0.534112 0.143160
0.846555 0.543481 0.173678
0.857084 0.553277 0.201785
0.866667 0.563287 0.228092
0.875669 0.573663 0.253605
0.884245 0.584344 0.278416
0.892332 0.594965 0.302342
0.899962 0.605371 0.325444
0.906981 0.615412 0.347631
0.913512 0.624872 0.368597
0.919493 0.633906 0.388403
0.925048 0.642451 0.407141
0.930236 0.650599 0.424872
0.935058 0.658381 0.441871
0.939544 0.665797 0.458015
0.943694 0.672908 0.473243
0.947509 0.679500 0.487495
0.364569 0.510796 0.403754
0.381567 0.512566 0.410864
0.403388 0.515282 0.420844
0.446174 0.519585 0.443824
0.487617 0.519341 0.470008
0.513207 0.518029 0.494209
0.521263 0.532799 0.443061
0.575341 0.538293 0.269230
0.592279 0.434424 0.059663
0.662837 0.433112 0.000000
0.717037 0.477455 0.000000
0.755337 0.513146 0.000000
0.787015 0.545953 0.000000
0.810422 0.565026 0.090761
0.824704 0.565850 0.130526
0.837278 0.568750 0.161959
0.848447 0.573327 0.190463
0.858518 0.579065 0.216587
0.867643 0.585626 0.241520
0.876310 0.593042 0.265537
0.884581 0.601190 0.289128
0.892454 0.609674 0.311986
0.899870 0.618219 0.334203
0.906767 0.626795 0.355444
0.913146 0.635065 0.375891
0.919066 0.642939 0.395117
0.924529 0.650599 0.413367
0.929656 0.657954 0.430732
0.934447 0.665126 0.447364
0.938903 0.672023 0.463294
0.943023 0.678614 0.478401
0.946777 0.684932 0.492744
0.459480 0.575891 0.475807
0.470649 0.576928 0.481025
0.484657 0.578302 0.487831
0.512016 0.581231 0.502983
0.547021 0.582696 0.526848
0.569055 0.581384 0.544793
0.583948 0.581476 0.565667
0.589166 0.593896 0.474556
0.631281 0.584466 0.310185
0.644800 0.489143 0.097719
0.698451 0.477790 0.000000
0.741054 0.513603 0.000000
0.774777 0.546166 0.065370
0.803220 0.575616 0.115328
0.826658 0.601068 0.155398
0.840391 0.605249 0.185916
0.850950 0.605371 0.211429
0.860410 0.607141 0.235843
0.869078 0.610346 0.258671
0.877317 0.614679 0.280980
0.885252 0.620111 0.302739
0.892729 0.626215 0.323980
0.899840 0.632654 0.344488
0.906493 0.639399 0.364691
0.912688 0.646174 0.383948
0.918517 0.652949 0.402533
0.923949 0.659602 0.420264
0.929046 0.666224 0.437354
0.933776 0.672786 0.453925
0.938201 0.679164 0.469764
0.942290 0.685328 0.484901
0.946014 0.691310 0.499275
0.529778 0.624720 0.534783
0.537102 0.625391 0.538628
0.546715 0.626215 0.543847
0.565362 0.627955 0.555016
0.592615 0.629877 0.575128
0.610224 0.628992 0.588800
0.623896 0.628748 0.603906
0.629633 0.632319 0.604852
0.639307 0.638758 0.506310
0.672328 0.621149 0.353796
0.683497 0.532830 0.141573
0.724361 0.512718 0.000000
0.760983 0.544488 0.074830
0.791562 0.574578 0.126009
0.816739 0.600885 0.167330
0.837369 0.623163 0.205173
0.853422 0.638087 0.236240
0.862272 0.636103 0.257603
0.870420 0.635828 0.277928
0.878264 0.637293 0.297917
0.885801 0.640162 0.318090
0.893004 0.643977 0.337804
0.899870 0.648615 0.357305
0.906340 0.653651 0.376257
0.912383 0.658991 0.394659
0.918059 0.664454 0.412299
0.923369 0.670039 0.429267
0.928374 0.675715 0.445686
0.933043 0.681453 0.461707
0.937438 0.687129 0.477241
0.941436 0.692805 0.492256
0.945098 0.698360 0.506706
0.583337 0.660609 0.583795
0.588220 0.661067 0.586572
0.594690 0.661585 0.590509
0.607080 0.662715 0.598413
0.624994 0.664332 0.611810
0.641566 0.665003 0.625483
0.653590 0.665431 0.637232
0.662470 0.666438 0.649897
0.662684 0.670771 0.625086
0.675044 0.670954 0.534478
0.700557 0.647883 0.392401
0.711727 0.567468 0.186893
0.750057 0.548791 0.092653
0.783536 0.578882 0.136599
0.810147 0.605921 0.183932
0.831876 0.628687 0.224033
0.849821 0.647425 0.258549
0.864744 0.662989 0.288884
0.874388 0.666651 0.310155
0.881468 0.664973 0.327123
0.888334 0.664912 0.344152
0.894926 0.666255 0.361578
0.901274 0.668421 0.378424
0.907256 0.671473 0.395453
0.912963 0.675013 0.412055
0.918334 0.678981 0.428168
0.923400 0.683223 0.443915
0.928191 0.687739 0.459174
0.932677 0.692439 0.474220
0.936858 0.697292 0.488930
0.940703 0.702235 0.503441
0.944213 0.707149 0.517540
0.625055 0.691798 0.625788
0.628351 0.692317 0.627893
0.632685 0.692897 0.630671
0.641260 0.694270 0.636530
0.653101 0.696345 0.645228
0.668177 0.697902 0.658106
0.678096 0.697749 0.666835
0.686732 0.698024 0.676967
0.693019 0.698939 0.688533
0.691310 0.702296 0.642786
0.705165 0.699275 0.561456
0.725093 0.672908 0.430823
0.735988 0.599603 0.236912
0.766232 0.572717 0.133974
0.797116 0.600946 0.174685
0.821073 0.625696 0.221408
0.840665 0.646052 0.260502
0.856901 0.662745 0.293462
0.870542 0.676814 0.322911
0.882322 0.688808 0.348882
0.888823 0.686458 0.363806
0.895109 0.685573 0.378973
0.901122 0.685969 0.394476
0.906920 0.687282 0.409766
0.912474 0.689357 0.424994
0.917693 0.692012 0.440040
0.922667 0.695155 0.454871
0.927337 0.698695 0.469612
0.931762 0.702541 0.484077
0.935882 0.706722 0.498543
0.939666 0.711116 0.512810
0.943084 0.715602 0.526940
0.652979 0.718685 0.657008
0.655421 0.719112 0.658534
0.658503 0.719570 0.660517
0.664973 0.720699 0.664942
0.674342 0.722255 0.671748
0.687495 0.723995 0.683101
0.697444 0.724025 0.691615
0.705562 0.723873 0.699916
0.712276 0.724208 0.709468
0.714992 0.725704 0.711025
0.714595 0.726802 0.655299
0.729030 0.721553 0.580316
0.744350 0.692714 0.459968
0.754452 0.624750 0.276890
0.781094 0.595178 0.172427
0.809201 0.621180 0.211704
0.830747 0.643214 0.255467
0.848386 0.661341 0.293492
0.863279 0.676539 0.325841
0.876097 0.689662 0.354345
0.887236 0.701228 0.380102
0.895354 0.705806 0.399054
0.901122 0.704341 0.412573
0.906706 0.704036 0.426307
0.912047 0.704646 0.440131
0.917113 0.706050 0.454078
0.921935 0.708034 0.467872
0.926513 0.710597 0.481727
0.930816 0.713619 0.495705
0.934844 0.717037 0.509728
0.938537 0.720851 0.523919
0.941894 0.724849 0.537896
0.675196 0.741695 0.683070
0.677180 0.742092 0.684443
0.679683 0.742428 0.686061
0.685115 0.743343 0.689845
0.693019 0.744656 0.695644
0.703639 0.746181 0.704524
0.714473 0.746975 0.714137
0.721920 0.746548 0.720974
0.728664 0.746548 0.728878
0.733913 0.747036 0.737758
0.732784 0.748653 0.721218
0.735073 0.747494 0.666651
0.749508 0.740688 0.596429
0.760983 0.710079 0.485512
0.770413 0.646845 0.314214
0.794125 0.615442 0.208225
0.819791 0.639216 0.246128
0.839322 0.658778 0.287175
0.855497 0.675349 0.324254
0.869413 0.689540 0.356115
0.881407 0.701869 0.384314
0.891814 0.712673 0.409125
0.900877 0.722164 0.431312
0.906462 0.721431 0.444404
0.911589 0.720638 0.456855
0.916533 0.720790 0.469490
0.921233 0.721736 0.482521
0.925658 0.723415 0.495888
0.929870 0.725673 0.509361
0.933806 0.728450 0.523156
0.937377 0.731685 0.537224
0.940642 0.735195 0.551141
0.694209 0.761349 0.705989
0.695979 0.761685 0.707240
0.698116 0.762020 0.708705
0.702785 0.762875 0.712032
0.709682 0.764096 0.717128
0.718379 0.765682 0.724117
0.730007 0.767239 0.734951
0.736934 0.766812 0.740719
0.743313 0.766506 0.747219
0.748684 0.766506 0.754360
0.752529 0.766781 0.762081
0.748898 0.767605 0.730098
0.752773 0.764614 0.676753
0.766995 0.756680 0.609674
0.774990 0.724727 0.507561
0.783902 0.666072 0.348363
0.805325 0.633265 0.241215
0.829038 0.654994 0.277684
0.847196 0.672999 0.317235
0.862333 0.688655 0.354192
0.875364 0.702022 0.385626
0.886595 0.713710 0.413367
0.896330 0.723842 0.437659
0.904753 0.732876 0.459205
0.911284 0.737514 0.476081
0.915984 0.736446 0.487587
0.920562 0.736263 0.499428
0.924834 0.736965 0.511803
0.928862 0.738399 0.524743
0.932677 0.740383 0.537865
0.936126 0.742855 0.551232
0.939269 0.745693 0.564477
0.710323 0.777462 0.725460
0.711727 0.777707 0.726375
0.713588 0.778042 0.727718
0.717647 0.778714 0.730617
0.723629 0.779782 0.735073
0.731197 0.781216 0.741054
0.741054 0.782681 0.749844
0.749172 0.783047 0.756924
0.755093 0.782559 0.762234
0.760342 0.782315 0.768124
0.764645 0.782284 0.774533
0.766415 0.782620 0.777127
0.762509 0.782345 0.736812
0.767758 0.778347 0.684993
0.781369 0.769558 0.620935
0.787137 0.737636 0.527825
0.795743 0.683375 0.380865
0.815457 0.649561 0.273014
0.837675 0.669703 0.308141
0.854673 0.686427 0.346258
0.868803 0.701106 0.382544
0.880949 0.713710 0.413458
0.891417 0.724666 0.440406
0.900450 0.734340 0.464057
0.908293 0.742916 0.485267
0.915038 0.750607 0.504570
0.919707 0.751003 0.516869
0.923857 0.750759 0.528496
0.927794 0.751278 0.540490
0.931456 0.752560 0.553033
0.934844 0.754330 0.565728
0.937865 0.756588 0.578607
0.724361 0.791226 0.742367
0.725704 0.791501 0.743313
0.730159 0.794400 0.747799
0.733639 0.795010 0.750301
0.738888 0.795956 0.754177
0.745418 0.797116 0.759243
0.753597 0.798489 0.766140
0.762631 0.799527 0.774228
0.767941 0.798917 0.778408
0.772885 0.798398 0.783169
0.777127 0.798062 0.788296
0.780331 0.797910 0.793790
0.778622 0.798032 0.783871
0.776455 0.796536 0.745022
0.782528 0.791806 0.695155
0.794491 0.781430 0.633845
0.799344 0.750912 0.549859
0.807767 0.701106 0.415412
0.826139 0.666712 0.307591
0.846830 0.685176 0.341741
0.862608 0.700526 0.377783
0.875578 0.714229 0.413184
0.886778 0.725978 0.443153
0.896361 0.736202 0.469123
0.904601 0.745205 0.491920
0.911711 0.753262 0.512383
0.917845 0.760525 0.531029
0.922850 0.764981 0.546380
0.926635 0.764553 0.557214
0.930205 0.764981 0.568719
0.933501 0.766049 0.580682
0.936461 0.767666 0.593011
0.737514 0.803708 0.757961
0.738888 0.804227 0.759091
0.740719 0.804776 0.760555
0.744106 0.805631 0.763088
0.748959 0.806699 0.766751
0.755001 0.807919 0.771420
0.761959 0.809354 0.777035
0.771054 0.810636 0.785031
0.777066 0.810636 0.789914
0.781735 0.810086 0.793851
0.785946 0.809659 0.798215
0.789395 0.809354 0.802853
0.791836 0.809232 0.807736
0.787991 0.809079 0.787625
0.787381 0.806882 0.750362
0.794278 0.801907 0.702419
0.804898 0.790402 0.643549
0.809293 0.761471 0.567041
0.817624 0.715541 0.443946
0.835080 0.681025 0.337469
0.854490 0.698207 0.370520
0.869291 0.712642 0.405615
0.881437 0.725551 0.439857
0.891783 0.736751 0.469245
0.900633 0.746517 0.494667
0.908232 0.755123 0.517174
0.914763 0.762936 0.537530
0.920409 0.770016 0.556023
0.925322 0.776547 0.573114
0.928954 0.777646 0.585046
0.932158 0.778012 0.596246
0.934997 0.779019 0.607965
0.748287 0.813931 0.770626
0.749569 0.814359 0.771664
0.751156 0.814878 0.772915
0.754177 0.815610 0.775174
0.758541 0.816587 0.778439
0.764034 0.817716 0.782559
0.770413 0.819028 0.787564
0.778286 0.820371 0.794217
0.785672 0.821225 0.800565
0.790036 0.820706 0.803891
0.794125 0.820249 0.807614
0.797665 0.819913 0.811582
0.800443 0.819638 0.815732
0.802121 0.819516 0.819394
0.797116 0.818906 0.791653
0.797757 0.816342 0.755978
0.805325 0.811307 0.710231
0.814725 0.799069 0.654047
0.818967 0.771695 0.583825
0.827176 0.729519 0.472175
0.843870 0.695094 0.367742
0.861967 0.710994 0.399756
0.875761 0.724605 0.434028
0.887053 0.736751 0.466712
0.896544 0.747372 0.495399
0.904662 0.756710 0.520348
0.911620 0.765042 0.542565
0.917632 0.772549 0.562463
0.922789 0.779416 0.580652
0.927214 0.785733 0.597436
0.930816 0.789975 0.611872
0.933532 0.790402 0.623011
0.758175 0.823087 0.782010
0.759304 0.823484 0.782895
0.760739 0.823911 0.784024
0.763485 0.824582 0.786038
0.767453 0.825467 0.788968
0.772488 0.826505 0.792721
0.778317 0.827756 0.797208
0.785061 0.829129 0.802670
0.793240 0.830503 0.809781
0.797848 0.830289 0.813291
0.801694 0.829801 0.816403
0.805203 0.829404 0.819791
0.808133 0.829099 0.823362
0.810361 0.828855 0.827085
0.809323 0.828794 0.822477
0.805875 0.827817 0.795987
0.807706 0.825132 0.762142
0.815854 0.820371 0.718929
0.824308 0.807767 0.665797
0.828733 0.782193 0.601434
0.836881 0.743954 0.502159
0.853056 0.709987 0.401373
0.869810 0.724636 0.432074
0.882567 0.737484 0.465461
0.892943 0.748928 0.496651
0.901549 0.759060 0.524804
0.908843 0.768032 0.549432
0.915160 0.776028 0.570916
0.920592 0.783200 0.590204
0.925170 0.789792 0.607813
0.928985 0.795865 0.624231
0.932006 0.801663 0.640314
0.768124 0.832090 0.793210
0.769039 0.832303 0.793912
0.770169 0.832578 0.794736
0.772549 0.833097 0.796414
0.776120 0.833829 0.799008
0.780667 0.834775 0.802335
0.786038 0.835935 0.806394
0.792142 0.837308 0.811154
0.799619 0.838682 0.817472
0.805753 0.839445 0.822568
0.809384 0.839017 0.825254
0.812772 0.838651 0.828183
0.815702 0.838285 0.831266
0.818112 0.838010 0.834440
0.819852 0.837827 0.837766
0.817075 0.837644 0.826352
0.814847 0.836423 0.801297
0.817502 0.833707 0.769406
0.826017 0.829221 0.728786
0.833463 0.816281 0.678553
0.838132 0.792355 0.618524
0.845945 0.757382 0.530602
0.861509 0.723842 0.433234
0.876677 0.737087 0.462257
0.888457 0.749081 0.493904
0.897978 0.759823 0.523552
0.905791 0.769589 0.551141
0.912474 0.778164 0.574884
0.918242 0.785824 0.595697
0.923033 0.792752 0.614527
0.927062 0.799130 0.631891
0.930053 0.805356 0.649378
0.776333 0.839414 0.802304
0.777157 0.839628 0.802914
0.778256 0.839902 0.803708
0.780484 0.840360 0.805264
0.783719 0.841032 0.807645
0.787900 0.841917 0.810666
0.792935 0.842985 0.814389
0.798550 0.844266 0.818723
0.805142 0.845670 0.824094
0.812528 0.847166 0.830442
0.816098 0.846891 0.833036
0.819303 0.846525 0.835508
0.822202 0.846159 0.838163
0.824674 0.845884 0.840940
0.826688 0.845701 0.843839
0.828092 0.845579 0.846860
0.824186 0.845274 0.830045
0.823056 0.843992 0.806394
0.826444 0.841398 0.776547
0.835325 0.837278 0.738582
0.841917 0.824369 0.691585
0.847044 0.802060 0.634943
0.854643 0.770474 0.558526
0.869780 0.737636 0.465644
0.882994 0.748867 0.491279
0.893919 0.760250 0.521508
0.902678 0.770504 0.550134
0.909789 0.779782 0.576532
0.915892 0.787991 0.599329
0.920989 0.795346 0.619593
0.925170 0.802152 0.638422
0.928191 0.808896 0.657557
0.784573 0.846494 0.811215
0.785336 0.846738 0.811795
0.786313 0.846952 0.812497
0.788327 0.847349 0.813901
0.791348 0.847959 0.816037
0.795193 0.848783 0.818784
0.799802 0.849760 0.822202
0.805051 0.850919 0.826169
0.810819 0.852293 0.830686
0.817746 0.853666 0.836484
0.822843 0.854307 0.840635
0.825711 0.853910 0.842679
0.828458 0.853544 0.844907
0.830869 0.853208 0.847257
0.832914 0.852903 0.849729
0.834470 0.852720 0.852262
0.834409 0.852628 0.851530
0.830900 0.852110 0.833768
0.830686 0.850797 0.811582
0.834684 0.848447 0.783688
0.843778 0.844755 0.748470
0.849638 0.831968 0.704799
0.855222 0.811276 0.651453
0.862760 0.782437 0.583581
0.877287 0.750423 0.496040
0.889250 0.761105 0.521996
0.899290 0.771939 0.550927
0.907317 0.781430 0.577356
0.913695 0.790188 0.602319
0.919066 0.798001 0.624170
0.923369 0.805295 0.644678
0.926482 0.812528 0.665553
0.791348 0.852323 0.818479
0.792050 0.852506 0.818997
0.792996 0.852750 0.819669
0.794858 0.853147 0.821012
0.797665 0.853727 0.822995
0.801328 0.854490 0.825589
0.805692 0.855467 0.828794
0.810666 0.856626 0.832517
0.816129 0.857969 0.836759
0.822416 0.859373 0.841855
0.829007 0.860899 0.847471
0.831846 0.860624 0.849454
0.834440 0.860319 0.851408
0.836790 0.860044 0.853483
0.838895 0.859800 0.855650
0.840635 0.859648 0.857877
0.841978 0.859525 0.860197
0.840513 0.859495 0.854978
0.838010 0.858946 0.838529
0.838560 0.857755 0.818051
0.843046 0.855650 0.792386
0.852171 0.852445 0.760037
0.857328 0.839963 0.719936
0.863371 0.820951 0.670283
0.871153 0.794858 0.609491
0.885008 0.764309 0.529961
0.895384 0.773739 0.553887
0.904540 0.783810 0.580682
0.911772 0.792721 0.605310
0.917418 0.800992 0.629023
0.921813 0.808774 0.651484
0.924926 0.816495 0.674006
0.797818 0.857816 0.825315
0.798489 0.857969 0.825834
0.799313 0.858152 0.826413
0.801083 0.858518 0.827634
0.803677 0.859037 0.829465
0.807126 0.859770 0.831907
0.811246 0.860685 0.834897
0.815976 0.861784 0.838407
0.821195 0.863096 0.842435
0.826780 0.864561 0.846830
0.833158 0.866026 0.852201
0.837705 0.866758 0.855863
0.840116 0.866514 0.857572
0.842374 0.866270 0.859373
0.844450 0.866087 0.861234
0.846220 0.865904 0.863218
0.847684 0.865812 0.865263
0.848783 0.865812 0.867369
0.846433 0.865751 0.858640
0.844785 0.865232 0.843503
0.845945 0.864164 0.824735
0.850767 0.862364 0.801297
0.859434 0.859281 0.771908
0.864469 0.847745 0.735622
0.870848 0.830442 0.689998
0.879088 0.806638 0.633814
0.892363 0.779477 0.566461
0.901244 0.786007 0.584344
0.909392 0.795163 0.608698
0.915801 0.803525 0.632044
0.920439 0.811673 0.655879
0.923644 0.819821 0.680049
0.803616 0.862638 0.831388
0.804227 0.862791 0.831815
0.805020 0.862974 0.832395
0.806638 0.863310 0.833555
0.809232 0.863859 0.835355
0.812528 0.864591 0.837705
0.816587 0.865537 0.840665
0.821256 0.866697 0.844144
0.826383 0.868070 0.848081
0.831846 0.869627 0.852384
0.837858 0.871244 0.857328
0.843992 0.872923 0.862547
0.846433 0.872892 0.864317
0.848631 0.872770 0.865934
0.850614 0.872648 0.867582
0.852384 0.872526 0.869291
0.853910 0.872465 0.871061
0.855161 0.872496 0.872923
0.856077 0.872618 0.874693
0.853269 0.872496 0.863737
0.852354 0.872068 0.850248
0.854002 0.871183 0.833555
0.858946 0.869749 0.812711
0.866758 0.866697 0.786709
0.871885 0.856474 0.754574
0.878569 0.841062 0.713619
0.887449 0.819547 0.662074
0.900206 0.795407 0.604547
0.907530 0.799619 0.617823
0.914427 0.807675 0.639673
0.919402 0.815946 0.663722
0.922698 0.824277 0.688624
0.809751 0.867582 0.837705
0.810330 0.867735 0.838102
0.811063 0.867887 0.838621
0.812650 0.868193 0.839719
0.815091 0.868711 0.841428
0.818235 0.869413 0.843687
0.822080 0.870298 0.846464
0.826474 0.871397 0.849729
0.831357 0.872679 0.853422
0.836576 0.874144 0.857481
0.841978 0.875731 0.861845
0.847868 0.877348 0.866758
0.851926 0.878233 0.870054
0.853880 0.878111 0.871427
