data/fiter_cube/29797953/1022861/file.cube
# Created by Adobe Lightroom plugin Export LUT (1.17.0)
# www.johnrellis.com/lightroom/exportlut.htm
# Preset: 电影灰蓝色_06 云集
# Color profile: C:\Program Files (x86)\Common Files\Adobe\Color\Profiles\Recommended\AdobeRGB1998.icc
LUT_3D_SIZE 5
DOMAIN_MIN 0.000000 0.000000 0.000000
DOMAIN_MAX 0.903226 0.903226 0.903226
0.069123 0.076112 0.088075
0.536248 0.078462 0.029877
0.809598 0.375006 0.070375
0.892149 0.547326 0.275486
0.936187 0.635706 0.422004
0.256901 0.424872 0.322606
0.525322 0.374182 0.030335
0.821164 0.525719 0.108949
0.892332 0.594965 0.302342
0.935058 0.658381 0.441871
0.675196 0.741695 0.683070
0.721920 0.746548 0.720974
0.770413 0.646845 0.314214
0.891814 0.712673 0.409125
0.929870 0.725673 0.509361
0.768124 0.832090 0.793210
0.792142 0.837308 0.811154
0.819852 0.837827 0.837766
0.845945 0.757382 0.530602
0.918242 0.785824 0.595697
0.814633 0.871611 0.842710
0.830991 0.875425 0.854490
0.859983 0.882444 0.877287
0.864591 0.883055 0.872648
0.900908 0.840848 0.711727
0.000000 0.110780 0.232425
0.548486 0.108064 0.298314
0.776516 0.471321 0.366644
0.868559 0.596216 0.444282
0.922667 0.662135 0.514336
0.266087 0.466072 0.426276
0.554314 0.465583 0.366339
0.788510 0.577386 0.415869
0.870726 0.632197 0.462623
0.921996 0.680415 0.527245
0.677607 0.748623 0.697658
0.726925 0.754788 0.730587
0.758816 0.658289 0.440558
0.877348 0.735195 0.534569
0.919677 0.739559 0.578088
0.771359 0.835233 0.799771
0.794705 0.840024 0.815763
0.824308 0.842649 0.842039
0.840269 0.762936 0.578637
0.912779 0.795285 0.638087
0.813748 0.872557 0.843839
0.830167 0.876158 0.855131
0.862394 0.884886 0.879942
0.867369 0.885222 0.878355
0.899016 0.844144 0.728695
0.000000 0.218875 0.488441
0.532433 0.273320 0.643519
0.763394 0.532006 0.590570
0.824979 0.647578 0.617823
0.895903 0.707332 0.653101
0.219944 0.396643 0.451942
0.511955 0.512444 0.606531
0.739895 0.606012 0.613153
0.829740 0.675227 0.632593
0.897246 0.718166 0.657465
0.648096 0.741543 0.716640
0.710292 0.766354 0.747707
0.747372 0.707210 0.643061
0.847349 0.754269 0.678035
0.900237 0.759945 0.681575
0.769345 0.842039 0.813840
0.791440 0.844846 0.823239
0.829465 0.850095 0.847013
0.829435 0.776028 0.667964
0.900725 0.821256 0.732021
0.813504 0.876371 0.850675
0.827512 0.878904 0.858457
0.859464 0.886839 0.879149
0.875456 0.890776 0.892943
0.893706 0.851438 0.766323
0.197910 0.370916 0.643977
0.453559 0.417243 0.699916
0.777188 0.581140 0.775418
0.835904 0.672663 0.718227
0.867643 0.750393 0.753170
0.311986 0.472480 0.599207
0.463996 0.508110 0.671839
0.771847 0.643183 0.778256
0.827481 0.697139 0.726406
0.865202 0.761257 0.760311
0.546685 0.661311 0.668421
0.590906 0.666987 0.673091
0.738247 0.739986 0.768582
0.803861 0.755337 0.753079
0.873289 0.786923 0.774685
0.741939 0.830930 0.816983
0.768734 0.839017 0.827878
0.819364 0.852628 0.847013
0.822385 0.806851 0.773251
0.886778 0.835599 0.803342
0.813413 0.882719 0.864958
0.826200 0.884398 0.869444
0.855283 0.889616 0.881651
0.878691 0.895537 0.895628
0.887724 0.863554 0.815549
0.485939 0.568627 0.772000
0.548302 0.573816 0.792935
0.749599 0.650690 0.850523
0.858976 0.729000 0.839628
0.884337 0.781949 0.819242
0.515312 0.611017 0.749691
0.554925 0.610651 0.774777
0.737453 0.677058 0.841550
0.856229 0.748409 0.843503
0.882597 0.791318 0.823880
0.485084 0.645563 0.696223
0.479988 0.626825 0.682551
0.677821 0.705043 0.797848
0.848356 0.792386 0.855314
0.878355 0.816434 0.837064
0.674525 0.796811 0.804623
0.687526 0.796963 0.805203
0.717769 0.792599 0.802640
0.811307 0.826078 0.850950
0.873655 0.850858 0.857481
0.785611 0.877134 0.867063
0.799527 0.879393 0.870787
0.837339 0.887114 0.882719
0.876036 0.899321 0.899168
0.884184 0.889494 0.883391
