data/fiter_cube/29797953/1022861/file.cube
# Created by Adobe Lightroom plugin Export LUT (1.17.0)
# www.johnrellis.com/lightroom/exportlut.htm
# Preset: 电影灰蓝色_06 云集
# Color profile: C:\Program Files (x86)\Common Files\Adobe\Color\Profiles\Recommended\AdobeRGB1998.icc
LUT_3D_SIZE 8
DOMAIN_MIN 0.000000 0.000000 0.000000
DOMAIN_MAX 0.903226 0.903226 0.903226
0.069123 0.076112 0.088075
0.203861 0.096620 0.088350
0.610132 0.110048 0.000000
0.765682 0.291997 0.000000
0.841550 0.440070 0.137118
0.883696 0.529900 0.250004
0.913664 0.591058 0.344366
0.936187 0.635706 0.422004
0.089845 0.143221 0.132204
0.210575 0.172549 0.089387
0.640681 0.276799 0.000000
0.770291 0.365087 0.000000
0.841184 0.470222 0.142336
0.882353 0.543633 0.253178
0.912535 0.598810 0.346715
0.935363 0.641047 0.424842
0.364569 0.510796 0.403754
0.487617 0.519341 0.470008
0.592279 0.434424 0.059663
0.787015 0.545953 0.000000
0.848447 0.573327 0.190463
0.884581 0.601190 0.289128
0.913146 0.635065 0.375891
0.934447 0.665126 0.447364
0.625055 0.691798 0.625788
0.653101 0.696345 0.645228
0.693019 0.698939 0.688533
0.735988 0.599603 0.236912
0.840665 0.646052 0.260502
0.888823 0.686458 0.363806
0.912474 0.689357 0.424994
0.931762 0.702541 0.484077
0.710323 0.777462 0.725460
0.723629 0.779782 0.735073
0.755093 0.782559 0.762234
0.762509 0.782345 0.736812
0.795743 0.683375 0.380865
0.868803 0.701106 0.382544
0.908293 0.742916 0.485267
0.927794 0.751278 0.540490
0.758175 0.823087 0.782010
0.767453 0.825467 0.788968
0.793240 0.830503 0.809781
0.808133 0.829099 0.823362
0.807706 0.825132 0.762142
0.836881 0.743954 0.502159
0.892943 0.748928 0.496651
0.920592 0.783200 0.590204
0.791348 0.852323 0.818479
0.797665 0.853727 0.822995
0.816129 0.857969 0.836759
0.834440 0.860319 0.851408
0.841978 0.859525 0.860197
0.843046 0.855650 0.792386
0.871153 0.794858 0.609491
0.911772 0.792721 0.605310
0.814633 0.871611 0.842710
0.819852 0.872740 0.846372
0.835782 0.876677 0.858122
0.856962 0.883055 0.875303
0.863218 0.882444 0.880034
0.865965 0.883055 0.881376
0.872374 0.881743 0.832212
0.900908 0.840848 0.711727
0.065675 0.087831 0.130465
0.224918 0.062287 0.148257
0.590539 0.171817 0.156832
0.752834 0.356023 0.191165
0.828702 0.476387 0.255589
0.873228 0.549920 0.324376
0.906188 0.603418 0.392523
0.931060 0.643977 0.453712
0.072786 0.164004 0.170352
0.244053 0.214023 0.174472
0.622950 0.318242 0.174258
0.759304 0.415198 0.200168
0.830076 0.502647 0.262394
0.873198 0.563500 0.329107
0.905577 0.610834 0.394873
0.930327 0.648737 0.455634
0.389319 0.528222 0.438087
0.512596 0.539940 0.496620
0.598352 0.455451 0.195804
0.777462 0.571618 0.248081
0.837400 0.589136 0.299046
0.875792 0.613642 0.356756
0.906065 0.642847 0.417090
0.929625 0.670924 0.474434
0.630152 0.694392 0.634119
0.656947 0.698726 0.651514
0.695888 0.702602 0.691646
0.729580 0.602472 0.300786
0.831754 0.653742 0.335485
0.880186 0.690120 0.413703
0.906157 0.693324 0.457710
0.927520 0.706386 0.506401
0.713649 0.779263 0.730526
0.725765 0.781094 0.738766
0.756130 0.783902 0.764126
0.762814 0.782467 0.742641
0.791012 0.684016 0.411322
0.863737 0.706020 0.422614
0.904112 0.747463 0.513756
0.924498 0.753933 0.558709
0.759426 0.823667 0.784115
0.767544 0.825223 0.789761
0.792111 0.830014 0.809018
0.808469 0.829587 0.823758
0.807645 0.825376 0.767056
0.834409 0.745266 0.519585
0.890013 0.752499 0.519310
0.918425 0.785733 0.603418
0.791287 0.852293 0.818997
0.797147 0.853391 0.822995
0.815427 0.857603 0.836393
0.834592 0.860624 0.851743
0.842527 0.860197 0.860716
0.842649 0.855711 0.795651
0.869230 0.794797 0.615808
0.909972 0.793729 0.613153
0.813993 0.871580 0.842649
0.819272 0.872740 0.846311
0.835233 0.876646 0.857939
0.856413 0.882994 0.874907
0.864256 0.883452 0.881102
0.867063 0.883879 0.882963
0.872190 0.882017 0.834470
0.900053 0.841154 0.715175
0.000000 0.122225 0.273655
0.211398 0.086519 0.390295
0.611170 0.203250 0.356756
0.720027 0.424537 0.391852
0.803922 0.530510 0.429541
0.853208 0.596857 0.471321
0.890898 0.638575 0.505333
0.919493 0.670130 0.538262
0.100923 0.226352 0.278202
0.238621 0.272923 0.388190
0.585168 0.361456 0.394995
0.726284 0.475563 0.412543
0.804868 0.553826 0.441077
0.853483 0.607263 0.475166
0.890715 0.644617 0.507256
0.919127 0.674495 0.540368
0.369451 0.541039 0.497139
0.498512 0.571893 0.533501
0.609522 0.526543 0.427100
0.748562 0.603510 0.472602
0.813657 0.623804 0.478035
0.857176 0.646540 0.496132
0.891539 0.670039 0.522423
0.918517 0.692317 0.552605
0.629969 0.707027 0.656428
0.656306 0.710079 0.666682
0.704097 0.714809 0.700526
0.722652 0.623804 0.444129
0.818753 0.690455 0.507195
0.863493 0.709285 0.536858
0.893156 0.713100 0.553094
0.917601 0.723293 0.577142
0.712520 0.784176 0.739345
0.726528 0.786313 0.747280
0.760372 0.790799 0.771756
0.771176 0.790341 0.769711
0.784329 0.696254 0.502312
0.853758 0.728298 0.534752
0.894865 0.765316 0.595209
0.916381 0.764218 0.613428
0.760708 0.826902 0.790097
0.769680 0.828580 0.795773
0.792844 0.833005 0.811795
0.812406 0.834257 0.828305
0.810025 0.828885 0.785824
0.828275 0.751247 0.571405
0.882628 0.765560 0.585046
0.913024 0.796231 0.647364
0.792996 0.854734 0.823362
0.799100 0.855863 0.827237
0.816648 0.859586 0.839200
0.837339 0.863737 0.855222
0.845823 0.863676 0.863767
0.843473 0.858122 0.809903
0.866392 0.799313 0.644770
0.906279 0.802670 0.650690
0.813107 0.872648 0.843931
0.817746 0.873503 0.846921
0.833890 0.877195 0.858061
0.855161 0.883513 0.874327
0.865995 0.885405 0.882963
0.870176 0.886107 0.887633
0.872282 0.883421 0.843168
0.898222 0.844480 0.731991
0.000000 0.182101 0.426917
0.124910 0.189944 0.501671
0.630274 0.254734 0.592767
0.731624 0.458320 0.532219
0.763607 0.564324 0.550469
0.826719 0.624018 0.572717
0.870634 0.666468 0.597162
0.904204 0.694514 0.616785
0.124788 0.294835 0.423377
0.214054 0.303319 0.498360
0.630060 0.396918 0.599390
0.721523 0.505669 0.545800
0.767422 0.583825 0.560388
0.827695 0.634852 0.578607
0.870817 0.672419 0.600153
0.904417 0.697688 0.617670
0.315160 0.486519 0.497200
0.398535 0.507774 0.514672
0.619532 0.589654 0.616266
0.702510 0.611048 0.592126
0.780880 0.642939 0.592157
0.833127 0.672236 0.601404
0.873533 0.695857 0.615167
0.905333 0.712764 0.626673
0.602716 0.697749 0.667933
0.635706 0.709010 0.682521
0.693080 0.719814 0.698756
0.716213 0.666773 0.594873
0.802609 0.723232 0.635462
0.842405 0.723201 0.630274
0.877012 0.729213 0.633356
0.905821 0.738216 0.642573
0.709499 0.792386 0.757839
0.722286 0.793332 0.761471
0.754574 0.795621 0.773709
0.782498 0.799069 0.797757
0.775204 0.710750 0.593927
0.843809 0.756222 0.640314
0.882567 0.776394 0.665309
0.906401 0.774685 0.670497
0.760555 0.832151 0.799954
0.769650 0.833860 0.804623
0.792447 0.837125 0.816556
0.816190 0.839963 0.833280
0.816068 0.835966 0.813809
0.822019 0.760678 0.632044
0.875212 0.783993 0.658320
0.905608 0.812222 0.705440
0.793149 0.857908 0.829068
0.799222 0.859007 0.832456
0.816739 0.862425 0.842802
0.838224 0.867308 0.857664
0.850309 0.868681 0.867918
0.845945 0.862699 0.831235
0.862119 0.805844 0.683589
0.900816 0.815335 0.699641
0.813870 0.875212 0.848356
0.818448 0.876036 0.851011
0.832090 0.878721 0.859312
0.852079 0.883879 0.872984
0.868040 0.888151 0.885313
0.873503 0.889128 0.890929
0.872587 0.885771 0.856107
0.895476 0.849332 0.755367
0.000000 0.257755 0.539269
0.148501 0.267704 0.581598
0.584497 0.355657 0.683711
0.737911 0.502068 0.666407
0.787808 0.584802 0.635645
0.805417 0.639429 0.638849
0.848569 0.687526 0.664759
0.886809 0.721065 0.687678
0.167269 0.344762 0.530755
0.233524 0.346136 0.573449
0.583001 0.440375 0.676875
0.734554 0.546685 0.671687
0.782345 0.602319 0.640406
0.800717 0.651423 0.645960
0.849485 0.692958 0.667781
0.887205 0.724086 0.689052
0.255711 0.434882 0.488258
0.305058 0.443854 0.494423
0.559136 0.559655 0.643824
0.726253 0.634668 0.685634
0.765408 0.644617 0.651972
0.804440 0.680934 0.662257
0.852476 0.710475 0.677150
0.888579 0.733608 0.692714
0.529259 0.646174 0.638544
0.560082 0.652338 0.644739
0.634363 0.673640 0.666102
0.712367 0.707637 0.700526
0.771206 0.715846 0.691829
0.818936 0.727657 0.689967
0.858793 0.739956 0.693874
0.892241 0.749966 0.698360
0.682429 0.775540 0.754665
0.698665 0.781552 0.762356
0.744076 0.799252 0.785092
0.771603 0.793362 0.785946
0.772030 0.739620 0.683650
0.836973 0.785031 0.725002
0.867460 0.779995 0.717708
0.895140 0.781369 0.718441
0.756863 0.836698 0.813077
0.764767 0.837430 0.815152
0.786557 0.839353 0.821530
0.810178 0.840696 0.830838
0.824765 0.842924 0.841978
0.814755 0.768338 0.683040
0.868589 0.805447 0.727932
0.897612 0.823697 0.754116
0.792447 0.861753 0.837491
0.798001 0.862486 0.839750
0.814542 0.865019 0.847166
0.834897 0.868772 0.857908
0.851194 0.871641 0.869108
0.849943 0.868254 0.854337
0.856809 0.812589 0.722438
0.895048 0.830228 0.749752
0.813474 0.877958 0.853910
0.817746 0.878599 0.855985
0.830930 0.880858 0.862730
0.848844 0.884916 0.873106
0.866087 0.889708 0.884703
0.875792 0.891905 0.892729
0.873533 0.888823 0.871183
0.892119 0.854490 0.779629
0.154208 0.347662 0.626398
0.236759 0.350042 0.648890
0.526543 0.425544 0.709651
0.739345 0.536797 0.769162
0.800351 0.617456 0.730800
0.827573 0.657130 0.703273
0.845945 0.695308 0.707088
0.868070 0.748531 0.745754
0.240726 0.402289 0.615229
0.289830 0.402502 0.638575
0.528008 0.466987 0.701381
0.736873 0.569085 0.767910
0.797910 0.632898 0.732723
0.824369 0.665644 0.705562
0.843229 0.702266 0.711238
0.868528 0.750759 0.746883
0.272465 0.455238 0.549187
0.352636 0.488472 0.585260
0.521721 0.545068 0.672694
0.732082 0.643153 0.769162
0.792233 0.679072 0.742184
0.815030 0.692897 0.714961
0.835142 0.724666 0.725551
0.870695 0.759640 0.751919
0.458534 0.600244 0.620294
0.478584 0.601495 0.621118
0.537713 0.607019 0.624994
0.691554 0.692287 0.735073
0.784146 0.734401 0.757351
0.800015 0.731350 0.732662
0.837705 0.752926 0.744015
0.874968 0.774533 0.760189
0.632166 0.730953 0.723629
0.643641 0.734249 0.727260
0.679713 0.745693 0.739834
0.729702 0.764736 0.760678
0.773983 0.778042 0.771878
0.813352 0.779599 0.763882
0.849058 0.785092 0.763577
0.880888 0.793332 0.768521
0.731930 0.821714 0.806699
0.741878 0.824949 0.810910
0.771420 0.834928 0.824094
0.804227 0.844266 0.836942
0.818967 0.839414 0.837400
0.813016 0.794430 0.756588
0.864073 0.829923 0.792905
0.887968 0.825528 0.788449
0.791775 0.866606 0.850095
0.797177 0.867247 0.851530
0.812894 0.869047 0.855894
0.832151 0.871611 0.862211
0.848325 0.873625 0.868925
0.860655 0.876890 0.879149
0.851865 0.821836 0.764920
0.890227 0.849546 0.803006
0.813535 0.881743 0.862455
0.817563 0.882231 0.863951
0.830167 0.884031 0.868864
0.847105 0.887114 0.876402
0.863432 0.890898 0.884947
0.876555 0.894377 0.893736
0.877470 0.893553 0.888212
0.888670 0.861601 0.808194
0.326879 0.450660 0.696010
0.357092 0.446876 0.708248
0.524407 0.492287 0.746181
0.707546 0.575158 0.804746
0.809659 0.631922 0.816648
0.843290 0.689937 0.780392
0.858854 0.719661 0.762875
0.876158 0.753689 0.773495
0.359197 0.481697 0.687007
0.387427 0.480629 0.699550
0.525200 0.514061 0.739620
0.703426 0.593866 0.800290
0.807736 0.646021 0.816739
0.841947 0.699153 0.782650
0.857450 0.725032 0.765042
0.875303 0.756954 0.775448
0.383642 0.529351 0.649439
0.436255 0.545586 0.666041
0.522210 0.562860 0.713863
0.686610 0.636042 0.783902
0.801419 0.687373 0.817227
0.837736 0.726467 0.790097
0.852811 0.741421 0.771939
0.872404 0.768399 0.782467
0.382238 0.565057 0.616052
0.389014 0.559808 0.611902
0.486305 0.585321 0.641657
0.651087 0.666011 0.746639
0.791775 0.737575 0.819242
0.831937 0.761288 0.801083
0.845945 0.763607 0.781704
0.867247 0.788052 0.795438
0.586206 0.699275 0.709743
0.593774 0.699367 0.709743
0.616724 0.699001 0.709255
0.644160 0.694759 0.705623
0.750668 0.760281 0.794858
0.823911 0.793301 0.812131
0.836942 0.789303 0.794705
0.865782 0.809720 0.809873
0.685878 0.792081 0.787686
0.692836 0.793545 0.789425
0.715358 0.798642 0.795407
0.746609 0.806394 0.804471
0.779843 0.815396 0.815061
0.814176 0.824430 0.824399
0.846555 0.827085 0.820554
0.875090 0.833799 0.825315
0.764858 0.853086 0.841367
0.771023 0.854551 0.843473
0.790616 0.859586 0.850614
0.817716 0.867704 0.861723
0.844022 0.876310 0.873167
0.854490 0.873930 0.873442
0.850248 0.843381 0.821866
0.885985 0.866545 0.847227
0.809751 0.883482 0.870054
0.814176 0.884306 0.871672
0.828367 0.887297 0.877073
0.845212 0.890013 0.882414
0.861692 0.893095 0.888304
0.874998 0.896117 0.894285
0.884184 0.898924 0.900908
0.885344 0.871000 0.840269
0.485939 0.568627 0.772000
0.498207 0.565301 0.778653
0.574334 0.581628 0.799252
0.689784 0.624292 0.831724
0.806302 0.679622 0.865141
0.851987 0.717098 0.846464
0.875334 0.759976 0.828153
0.884337 0.781949 0.819242
0.497475 0.584222 0.765652
0.509483 0.582147 0.772519
0.573022 0.591699 0.794675
0.686763 0.633661 0.828489
0.805325 0.689815 0.864958
0.851102 0.724025 0.847471
0.874662 0.764462 0.829648
0.883787 0.784848 0.820645
0.520806 0.620050 0.741665
0.532952 0.621180 0.749416
0.572839 0.622766 0.776272
0.673304 0.656580 0.816190
0.794827 0.714839 0.859831
0.848142 0.744869 0.850919
0.872557 0.778500 0.834592
0.882078 0.794156 0.825315
0.439979 0.610101 0.685603
0.467567 0.617273 0.694728
0.560510 0.648432 0.730190
0.642878 0.675563 0.788296
0.767056 0.736141 0.844358
0.846769 0.772610 0.859800
0.869505 0.798337 0.842222
0.879698 0.808133 0.832609
0.560449 0.697261 0.730190
0.562432 0.694514 0.727901
0.566583 0.683162 0.718441
0.575952 0.663996 0.706813
0.714595 0.737881 0.809476
0.836667 0.802426 0.863828
0.865965 0.820462 0.851560
0.876982 0.825406 0.842039
0.655024 0.779690 0.791714
0.658778 0.779446 0.791562
0.670588 0.778073 0.790677
0.685420 0.772946 0.786801
0.697139 0.758724 0.775174
0.791775 0.808408 0.841306
0.861936 0.844327 0.862394
0.874388 0.845151 0.853788
0.727199 0.839902 0.837308
0.731624 0.840574 0.838132
0.746059 0.842649 0.840940
0.767910 0.845975 0.845396
0.793423 0.850187 0.850950
0.818235 0.853941 0.856168
0.856931 0.868376 0.873747
0.876432 0.870909 0.871916
0.785611 0.877134 0.867063
0.789853 0.877806 0.868193
0.803891 0.880125 0.872038
0.825315 0.884337 0.878599
0.849424 0.890318 0.887266
0.871366 0.897459 0.896818
0.882353 0.899779 0.900450
0.884184 0.889494 0.883391
