data/fiter_cube/23985691/1023003/file.cube
# Created by Adobe Lightroom plugin Export LUT (1.17.0)
# www.johnrellis.com/lightroom/exportlut.htm
# Preset: 日系风光建筑_04 云集
# Color profile: C:\Program Files (x86)\Common Files\Adobe\Color\Profiles\Recommended\AdobeRGB1998.icc
LUT_3D_SIZE 5
DOMAIN_MIN 0.000000 0.000000 0.000000
DOMAIN_MAX 0.903226 0.903226 0.903226
0.064027 0.086213 0.097078
0.271397 0.078645 0.113924
0.797604 0.162112 0.016724
0.995972 0.450172 0.257969
1.000000 0.662867 0.564721
0.000000 0.199924 0.117678
0.259403 0.202609 0.135225
0.787533 0.348425 0.000000
0.988830 0.511101 0.275547
1.000000 0.689998 0.581231
0.000000 0.645594 0.262730
0.147646 0.629755 0.285161
0.777371 0.638453 0.454108
0.967987 0.685328 0.380011
1.000000 0.753445 0.596612
0.000000 0.903471 0.516381
0.349737 0.888396 0.569421
0.608118 0.850034 0.582025
0.935485 0.854459 0.776242
1.000000 0.865141 0.742977
0.432258 1.000000 0.724544
0.580591 1.000000 0.767941
0.760189 0.986908 0.824216
0.883452 0.980865 0.831785
1.000000 0.959197 0.923430
0.000000 0.103944 0.259464
0.282719 0.094118 0.284855
0.759823 0.316716 0.372961
0.958099 0.557092 0.520562
1.000000 0.717556 0.682490
0.000000 0.278752 0.340734
0.256565 0.286717 0.323156
0.757626 0.430579 0.394141
0.955077 0.593866 0.525048
1.000000 0.733974 0.686793
0.000000 0.684688 0.421424
0.257267 0.673030 0.467506
0.743923 0.660365 0.577539
0.943297 0.711025 0.551324
1.000000 0.787625 0.701808
0.000000 0.910185 0.606470
0.422889 0.894865 0.652247
0.654383 0.855070 0.677790
0.927764 0.864195 0.809995
1.000000 0.877440 0.783505
0.441321 1.000000 0.750301
0.587549 1.000000 0.788876
0.781003 0.990295 0.851225
0.880186 0.982238 0.847654
1.000000 0.963806 0.933349
0.000000 0.272221 0.771542
0.362493 0.327337 0.742824
0.774014 0.439612 0.745418
0.918120 0.723964 0.797848
1.000000 0.822538 0.854215
0.185214 0.480049 0.793973
0.457038 0.519493 0.772183
0.755215 0.555230 0.753262
0.905974 0.753658 0.809445
1.000000 0.827787 0.852720
0.058991 0.771481 0.824521
0.448371 0.764858 0.813748
0.705074 0.726040 0.763729
0.905180 0.794308 0.807370
1.000000 0.849821 0.849058
0.333806 0.929961 0.799924
0.521050 0.917754 0.804440
0.739956 0.885405 0.829221
0.913787 0.886168 0.871763
1.000000 0.900237 0.852354
0.506188 1.000000 0.830838
0.615808 1.000000 0.850217
0.778683 0.999023 0.882750
0.870451 0.982391 0.884794
1.000000 0.972381 0.952422
0.586725 0.651209 0.946899
0.678828 0.702663 0.937560
0.739315 0.646693 0.911131
0.935546 0.760189 0.918303
1.000000 0.890562 0.939727
0.652461 0.728389 0.951049
0.708461 0.752895 0.943328
0.765011 0.723659 0.915038
0.929442 0.782712 0.918853
1.000000 0.898161 0.941711
0.660670 0.826230 0.954040
0.725277 0.838102 0.951385
0.825406 0.851682 0.939025
0.914916 0.839841 0.922148
0.997131 0.922576 0.949187
0.653986 0.937316 0.960571
0.710170 0.936004 0.958434
0.816281 0.933013 0.952667
0.883330 0.897734 0.918517
1.000000 0.937377 0.942992
0.651972 1.000000 0.947295
0.703182 1.000000 0.947265
0.813596 1.000000 0.946624
0.915312 0.992401 0.954284
0.998474 0.984497 0.976043
0.823453 0.856962 1.000000
0.853086 0.875303 1.000000
0.884916 0.878416 0.997192
0.910826 0.819608 0.992004
1.000000 0.919646 0.985901
0.830259 0.868956 1.000000
0.858366 0.885710 1.000000
0.898741 0.899931 0.996735
0.915648 0.844938 0.992035
1.000000 0.926848 0.986877
0.823423 0.892210 1.000000
0.852171 0.903319 1.000000
0.921202 0.936736 0.997681
0.935027 0.912169 0.993194
1.000000 0.946960 0.989837
0.809201 0.935882 1.000000
0.836973 0.940887 1.000000
0.906065 0.955810 0.999451
0.968688 0.974853 0.997192
0.999664 0.972808 0.994018
0.786648 0.991699 1.000000
0.813535 0.992096 1.000000
0.887053 0.993774 1.000000
0.958190 0.996338 0.999115
0.995697 0.996338 0.997192
