data/fiter_cube/23985691/1023003/file.cube
# Created by Adobe Lightroom plugin Export LUT (1.17.0)
# www.johnrellis.com/lightroom/exportlut.htm
# Preset: 日系风光建筑_04 云集
# Color profile: C:\Program Files (x86)\Common Files\Adobe\Color\Profiles\Recommended\AdobeRGB1998.icc
LUT_3D_SIZE 8
DOMAIN_MIN 0.000000 0.000000 0.000000
DOMAIN_MAX 0.903226 0.903226 0.903226
0.064027 0.086213 0.097078
0.108156 0.088899 0.106203
0.358068 0.041505 0.110964
0.688380 0.000000 0.071870
0.872740 0.251225 0.041993
0.976287 0.413703 0.214969
1.000000 0.547173 0.387549
1.000000 0.662867 0.564721
0.060609 0.110872 0.098573
0.106538 0.110628 0.104555
0.359564 0.132723 0.092897
0.678981 0.166201 0.000000
0.867063 0.294530 0.043824
0.967590 0.425086 0.207431
1.000000 0.549950 0.377417
1.000000 0.663539 0.557366
0.000000 0.251225 0.129488
0.041657 0.256535 0.132235
0.341436 0.252110 0.152285
0.672938 0.364691 0.002564
0.866270 0.428656 0.082582
0.965026 0.504479 0.237858
1.000000 0.603723 0.411566
1.000000 0.695186 0.580468
0.000000 0.526574 0.206638
0.000000 0.523491 0.206424
0.223056 0.513329 0.210178
0.675990 0.526390 0.326604
0.866606 0.593103 0.259739
0.960235 0.622248 0.305394
1.000000 0.670436 0.439460
1.000000 0.731716 0.591852
0.000000 0.744472 0.330755
0.000000 0.742153 0.341100
0.273747 0.727535 0.382391
0.558862 0.722683 0.399176
0.832853 0.712337 0.562341
0.939025 0.728603 0.503655
1.000000 0.753262 0.501701
1.000000 0.780270 0.608606
0.000000 0.877653 0.477363
0.000000 0.876616 0.498329
0.384070 0.859129 0.549523
0.539971 0.836851 0.553796
0.761807 0.837247 0.605982
0.916869 0.830686 0.742519
0.992950 0.840055 0.711543
1.000000 0.850645 0.710414
0.186618 0.965087 0.613672
0.302800 0.961334 0.630610
0.496773 0.945892 0.675685
0.643885 0.924834 0.718441
0.695949 0.907927 0.684688
0.890135 0.923095 0.768643
0.978637 0.907164 0.846616
1.000000 0.907256 0.832151
0.432258 1.000000 0.724544
0.485878 1.000000 0.738674
0.615534 1.000000 0.780117
0.734737 0.994751 0.824033
0.778347 0.984070 0.817258
0.843381 0.980255 0.815549
0.973297 0.981872 0.875456
1.000000 0.959197 0.923430
0.059632 0.090455 0.133028
0.110780 0.087007 0.136995
0.333623 0.100008 0.152285
0.662806 0.137758 0.170840
0.858396 0.303777 0.217105
0.956725 0.446113 0.321386
1.000000 0.568139 0.452583
1.000000 0.674830 0.597040
0.019684 0.121462 0.149111
0.102815 0.131258 0.150301
0.338079 0.157015 0.161776
0.660761 0.204044 0.171298
0.855436 0.338201 0.218845
0.952728 0.459663 0.318395
1.000000 0.571740 0.445167
1.000000 0.674556 0.589166
0.000000 0.271000 0.179355
0.059815 0.280980 0.194247
0.337804 0.278416 0.223362
0.659541 0.371374 0.179355
0.851347 0.445899 0.230930
0.949248 0.523796 0.334752
1.000000 0.613733 0.462745
1.000000 0.701686 0.605280
0.000000 0.536248 0.263615
0.000000 0.536339 0.273136
0.257816 0.525811 0.285771
0.653834 0.529442 0.382361
0.843442 0.590112 0.321599
0.941802 0.619837 0.363836
1.000000 0.672999 0.480079
1.000000 0.735714 0.613642
0.000000 0.753262 0.386389
0.000000 0.749264 0.396124
0.313085 0.730526 0.439307
0.544152 0.715084 0.436530
0.819364 0.710506 0.582788
0.927001 0.728725 0.531243
1.000000 0.755428 0.535821
1.000000 0.783688 0.629969
0.000000 0.876280 0.508690
0.000000 0.872190 0.522393
0.389410 0.855497 0.567315
0.550774 0.833402 0.580682
0.753536 0.833310 0.622827
0.911742 0.832547 0.755001
0.988403 0.842588 0.725399
1.000000 0.852567 0.720974
0.198245 0.961364 0.625299
0.300542 0.956420 0.637934
0.493263 0.942016 0.680781
0.652735 0.921172 0.732509
0.700679 0.905821 0.699336
0.884581 0.920195 0.773312
0.975219 0.906096 0.848173
1.000000 0.906188 0.832547
0.424720 1.000000 0.727749
0.480476 1.000000 0.742092
0.612390 1.000000 0.782803
0.733089 0.994293 0.826230
0.787472 0.986114 0.829038
0.842802 0.981048 0.821378
0.971649 0.981598 0.878172
1.000000 0.959350 0.924529
0.000000 0.112459 0.336706
0.049317 0.123323 0.332250
0.373968 0.089998 0.358556
0.653895 0.259739 0.399939
0.837888 0.441077 0.482460
0.932097 0.568719 0.565759
1.000000 0.661830 0.640650
1.000000 0.738460 0.718563
0.000000 0.168124 0.363867
0.075898 0.180728 0.357488
0.360449 0.184024 0.365820
0.635279 0.328923 0.421180
0.832212 0.461402 0.485298
0.928771 0.573846 0.560510
1.000000 0.662989 0.634699
1.000000 0.739406 0.715206
0.000000 0.360052 0.430213
0.000000 0.361364 0.421790
0.335943 0.361730 0.400488
0.639124 0.435157 0.436164
0.830228 0.533379 0.499702
0.926879 0.612512 0.566155
1.000000 0.687160 0.638819
1.000000 0.753689 0.717494
0.000000 0.593774 0.447425
0.000000 0.597559 0.443763
0.343145 0.584375 0.474983
0.642359 0.584802 0.541253
0.822568 0.635615 0.511772
0.923247 0.675929 0.574121
0.998535 0.729335 0.647120
1.000000 0.780087 0.723445
0.000000 0.783963 0.513939
0.000000 0.780514 0.529198
0.385840 0.762509 0.570794
0.559380 0.732052 0.572168
0.807401 0.741756 0.682582
0.911803 0.758999 0.643183
0.990845 0.784665 0.660639
1.000000 0.814755 0.728359
0.000000 0.887083 0.597833
0.187503 0.882353 0.613489
0.453223 0.865415 0.653010
0.613642 0.839963 0.683894
0.740658 0.832181 0.686397
0.902098 0.843626 0.794644
0.978973 0.856016 0.772274
1.000000 0.868101 0.770535
0.290196 0.967254 0.687098
0.370855 0.962554 0.699245
0.532616 0.948241 0.732845
0.675166 0.928038 0.772396
0.730953 0.909575 0.757961
0.876921 0.920592 0.800961
0.972747 0.914885 0.870024
1.000000 0.916045 0.856413
0.436439 1.000000 0.755276
0.482918 1.000000 0.764797
0.614466 1.000000 0.800656
0.737057 0.996735 0.840879
0.803922 0.986481 0.853910
0.836637 0.981292 0.835416
0.968170 0.982483 0.891020
1.000000 0.964019 0.934417
0.000000 0.186435 0.653834
0.000000 0.229435 0.644160
0.345373 0.210910 0.610590
0.678035 0.289494 0.640925
0.830747 0.528130 0.670008
0.898863 0.673976 0.737026
0.976471 0.742489 0.778195
1.000000 0.794369 0.814237
0.000000 0.269261 0.676448
0.112703 0.298375 0.664729
0.374701 0.297368 0.626062
0.670741 0.356481 0.645624
0.823209 0.556481 0.677821
0.896849 0.679316 0.736934
0.975311 0.744900 0.777005
1.000000 0.795224 0.812528
0.000000 0.455940 0.700343
0.136965 0.466072 0.694423
0.441047 0.487922 0.667872
0.648676 0.501061 0.659236
0.800351 0.631067 0.701839
0.897032 0.708949 0.747555
0.977874 0.767697 0.787137
1.000000 0.807828 0.816556
0.000000 0.673640 0.736110
0.000000 0.671656 0.730770
0.425269 0.663752 0.714931
0.618891 0.638788 0.678126
0.791226 0.690425 0.709224
0.893248 0.740505 0.746242
0.975372 0.786893 0.782620
1.000000 0.823636 0.816281
0.000000 0.817136 0.728328
0.065888 0.812833 0.725826
0.448585 0.800198 0.720851
0.639979 0.775692 0.731594
0.790280 0.772793 0.771542
0.889464 0.791409 0.748653
0.975006 0.822782 0.783322
1.000000 0.848447 0.817380
0.174990 0.907805 0.716609
0.320073 0.904875 0.729702
0.522606 0.887755 0.754726
0.672541 0.864652 0.780819
0.734096 0.837095 0.765652
0.895903 0.861173 0.839933
0.970764 0.873381 0.822263
1.000000 0.884733 0.825528
0.372381 0.975982 0.764828
0.438178 0.972168 0.774258
0.580682 0.960266 0.799802
0.704616 0.944091 0.825803
0.775143 0.924315 0.829252
0.864775 0.923125 0.834226
0.968872 0.926696 0.897704
1.000000 0.927489 0.883482
0.488350 1.000000 0.806973
0.529686 1.000000 0.814725
0.630030 1.000000 0.835416
0.736202 1.000000 0.861051
0.825132 0.989410 0.885985
0.854734 0.983185 0.871763
0.961791 0.983673 0.907866
1.000000 0.970184 0.947295
0.209537 0.383459 0.846311
0.338201 0.423194 0.840116
0.482124 0.440314 0.820645
0.600122 0.380743 0.782376
0.830167 0.563714 0.811917
0.915160 0.713436 0.828702
0.966247 0.795926 0.858762
1.000000 0.853483 0.890898
0.297398 0.451575 0.850828
0.386358 0.482185 0.845640
0.516930 0.507042 0.825284
0.610986 0.441138 0.788846
0.825193 0.589197 0.813169
0.911681 0.725063 0.831479
0.964538 0.801633 0.860838
1.000000 0.854398 0.890471
0.384192 0.584161 0.857023
0.456611 0.600153 0.854337
0.580896 0.630701 0.840940
0.644648 0.588617 0.806394
0.809934 0.655390 0.815976
0.898100 0.753475 0.835630
0.957671 0.818631 0.866575
1.000000 0.855497 0.886870
0.379065 0.708827 0.865507
0.449439 0.714168 0.863127
0.598199 0.729458 0.855222
0.708431 0.738796 0.836240
0.791073 0.731991 0.821744
0.880888 0.790768 0.842527
0.959319 0.830961 0.864866
1.000000 0.860075 0.881193
0.372961 0.832486 0.876158
0.441138 0.831296 0.874296
0.583948 0.826047 0.866728
0.702907 0.814969 0.852262
0.766110 0.786923 0.821256
0.873411 0.817288 0.838621
0.960723 0.848539 0.858152
1.000000 0.874449 0.877684
0.387427 0.910155 0.863188
0.448127 0.906920 0.862455
0.582269 0.896513 0.859190
0.702846 0.884672 0.854398
0.775601 0.864164 0.845884
0.881376 0.870481 0.872313
0.959808 0.884733 0.859037
1.000000 0.900969 0.878477
0.480079 0.980499 0.859495
0.521538 0.977508 0.860746
0.626093 0.969329 0.864958
0.726253 0.957977 0.874449
0.796994 0.942870 0.878294
0.832883 0.918242 0.857389
0.962951 0.936584 0.921630
1.000000 0.937285 0.906645
0.534905 1.000000 0.857572
0.568505 1.000000 0.862272
0.654902 1.000000 0.875608
0.742123 1.000000 0.890501
0.820462 0.996490 0.904448
0.880461 0.985229 0.913298
0.949523 0.983948 0.922240
1.000000 0.975799 0.959228
0.539117 0.610895 0.933288
0.578393 0.631647 0.929686
0.653620 0.662135 0.919097
0.696407 0.631312 0.903441
0.768002 0.584955 0.879759
0.917998 0.734524 0.903105
0.979400 0.822263 0.913054
1.000000 0.887602 0.933288
0.562829 0.639948 0.932799
0.596246 0.656672 0.929656
0.672755 0.691707 0.918456
0.704952 0.657588 0.902647
0.764034 0.601740 0.877256
0.914611 0.742245 0.902464
0.977630 0.826413 0.913451
1.000000 0.889708 0.933806
0.630182 0.722835 0.939178
0.657313 0.732723 0.937713
0.709194 0.751614 0.928191
0.746242 0.742367 0.910002
0.762325 0.663874 0.876860
0.909087 0.771542 0.904692
0.973541 0.844175 0.917449
1.000000 0.899443 0.937316
0.633356 0.785580 0.942229
0.660609 0.791623 0.940673
0.729549 0.808316 0.937133
0.788235 0.819089 0.928130
0.798093 0.776028 0.896452
0.903288 0.812436 0.909728
0.968048 0.870817 0.923980
0.998749 0.914641 0.942962
0.622614 0.851377 0.944305
0.650263 0.853971 0.943420
0.717952 0.860136 0.940520
0.786343 0.864744 0.935882
0.836362 0.858946 0.921569
0.886900 0.845151 0.907713
0.956207 0.890562 0.924498
0.999573 0.918395 0.938903
0.612726 0.920745 0.947631
0.640497 0.920958 0.947356
0.704799 0.919799 0.945037
0.771084 0.916930 0.940642
0.827878 0.908751 0.931243
0.861387 0.877653 0.901640
0.953002 0.907378 0.919860
1.000000 0.927306 0.933043
0.615961 0.984009 0.949065
0.640436 0.981842 0.948394
0.699977 0.974762 0.944793
0.767483 0.969390 0.941253
0.832364 0.962860 0.935302
0.881163 0.947234 0.926879
0.958038 0.948211 0.946014
1.000000 0.950744 0.934020
0.630701 1.000000 0.931609
0.650080 1.000000 0.931945
0.702815 1.000000 0.932372
0.768215 1.000000 0.932311
0.837430 1.000000 0.936553
0.897459 0.992523 0.944793
0.927276 0.984436 0.935546
0.999115 0.982818 0.972839
0.717250 0.764889 0.980835
0.733730 0.774319 0.979461
0.776852 0.797208 0.974487
0.797208 0.784634 0.968688
0.819120 0.748074 0.956329
0.887266 0.741268 0.948241
0.977478 0.833677 0.955108
1.000000 0.905486 0.961822
0.725673 0.776486 0.980957
0.740322 0.784421 0.979706
0.780301 0.804654 0.975036
0.802884 0.796170 0.968688
0.822812 0.761257 0.956603
0.885344 0.748135 0.947509
0.976287 0.837766 0.955261
1.000000 0.907408 0.962158
0.748775 0.808499 0.982788
0.757778 0.812100 0.981903
0.792386 0.828305 0.977996
0.826108 0.835599 0.970825
0.837125 0.801999 0.959869
0.881224 0.771664 0.946929
0.974121 0.855161 0.957366
1.000000 0.916747 0.964599
0.752712 0.842222 0.983520
0.765805 0.846281 0.982971
0.807462 0.860746 0.981384
0.849912 0.876219 0.976501
0.863706 0.859983 0.966003
0.873045 0.802426 0.946136
0.970947 0.880003 0.960540
1.000000 0.929686 0.967834
0.745510 0.879454 0.983825
0.758511 0.882048 0.983429
0.798825 0.890715 0.982177
0.852781 0.903990 0.980377
0.896239 0.914275 0.975463
0.889006 0.868528 0.956237
0.966369 0.905516 0.963409
0.999634 0.944030 0.971099
0.736995 0.922850 0.984466
0.749722 0.924010 0.984192
0.789212 0.928008 0.983276
0.842466 0.934295 0.981903
0.895323 0.941466 0.980163
0.931609 0.942962 0.974548
0.960479 0.931823 0.966064
0.996490 0.958862 0.974243
0.726925 0.969238 0.985321
0.739223 0.969390 0.985138
0.777188 0.969757 0.984497
0.829435 0.970550 0.983459
0.883391 0.971405 0.982025
0.926818 0.970489 0.979156
0.942290 0.950286 0.961181
0.997620 0.967926 0.971710
0.708736 1.000000 0.988006
0.720577 1.000000 0.987457
0.758633 1.000000 0.985657
0.812497 1.000000 0.982513
0.871702 1.000000 0.979675
0.922789 0.998047 0.977722
0.957031 0.992554 0.976379
0.997406 0.990173 0.986114
0.823453 0.856962 1.000000
0.833066 0.862943 1.000000
0.861509 0.880430 0.999603
0.880186 0.884215 0.997864
0.890227 0.869413 0.996246
0.905150 0.834379 0.993225
0.968444 0.855070 0.992096
1.000000 0.919646 0.985901
0.825925 0.861021 1.000000
0.835325 0.866789 1.000000
0.863157 0.883665 0.999634
0.884886 0.890806 0.997650
0.893584 0.876097 0.996094
0.906828 0.841733 0.993103
0.967590 0.858213 0.991913
1.000000 0.921630 0.986145
0.831357 0.871794 1.000000
0.840299 0.877104 1.000000
0.867155 0.892882 0.999939
0.900755 0.911681 0.997223
0.905638 0.897978 0.995850
0.913756 0.866270 0.993164
0.965270 0.869596 0.991638
1.000000 0.928985 0.987152
0.827756 0.883696 1.000000
0.838926 0.889036 1.000000
0.871855 0.905547 1.000000
0.904723 0.923461 0.998322
0.924620 0.928161 0.995941
0.926696 0.902770 0.993652
0.961273 0.886442 0.991455
1.000000 0.940337 0.988830
0.819913 0.903075 1.000000
0.829038 0.906004 1.000000
0.857176 0.915465 1.000000
0.896208 0.929747 0.999664
0.936187 0.948821 0.997314
0.944518 0.940795 0.994781
0.954589 0.904540 0.991241
1.000000 0.954070 0.990967
0.811276 0.928618 1.000000
0.819974 0.930358 1.000000
0.847532 0.936278 1.000000
0.886900 0.945708 1.000000
0.928588 0.957549 0.998627
0.962799 0.970153 0.997131
0.962249 0.947662 0.993439
1.000000 0.969146 0.993408
0.800443 0.958495 1.000000
0.808927 0.959319 1.000000
0.835966 0.962188 1.000000
0.876249 0.967102 1.000000
0.919768 0.973571 0.999237
0.957824 0.980621 0.998383
0.983856 0.986999 0.997650
0.998566 0.983703 0.995789
0.786648 0.991699 1.000000
0.794888 0.991821 1.000000
0.822049 0.992218 1.000000
0.863890 0.993133 1.000000
0.909636 0.994446 0.999878
0.949615 0.995941 0.999237
0.979706 0.997375 0.998901
0.995697 0.996338 0.997192
