data/fiter_cube/23985691/1023003/file.cube
# Created by Adobe Lightroom plugin Export LUT (1.17.0)
# www.johnrellis.com/lightroom/exportlut.htm
# Preset: 日系风光建筑_04 云集
# Color profile: C:\Program Files (x86)\Common Files\Adobe\Color\Profiles\Recommended\AdobeRGB1998.icc
LUT_3D_SIZE 32
DOMAIN_MIN 0.0 0.0 0.0
DOMAIN_MAX 1.0 1.0 1.0
0.064027 0.086213 0.097078
0.064027 0.086213 0.097078
0.064027 0.086213 0.097078
0.080537 0.087037 0.100191
0.108156 0.088899 0.106203
0.145296 0.090150 0.111543
0.199710 0.088350 0.113710
0.271397 0.078645 0.113924
0.358068 0.041505 0.110964
0.450233 0.000000 0.105440
0.539513 0.000000 0.096925
0.619013 0.000000 0.085756
0.688380 0.000000 0.071870
0.747616 0.102693 0.052216
0.797604 0.162112 0.016724
0.839536 0.210025 0.000000
0.872740 0.251225 0.041993
0.904112 0.295659 0.092531
0.930327 0.336492 0.134005
0.954376 0.375769 0.173159
0.976287 0.413703 0.214969
0.995972 0.450172 0.257969
1.000000 0.484413 0.301183
1.000000 0.516838 0.344701
1.000000 0.547173 0.387549
1.000000 0.576501 0.430823
1.000000 0.605432 0.475013
1.000000 0.634272 0.519921
1.000000 0.662867 0.564721
1.000000 0.691981 0.610468
1.000000 0.721187 0.656031
1.000000 0.750240 0.700649
0.064027 0.086213 0.097078
0.064027 0.086213 0.097078
0.064027 0.086213 0.097078
0.080537 0.087037 0.100191
0.108125 0.089204 0.106172
0.145907 0.092103 0.110109
0.200046 0.091859 0.112428
0.271031 0.084749 0.112154
0.356420 0.061921 0.109590
0.448188 0.000000 0.103914
0.536736 0.000000 0.095064
0.616236 0.000000 0.083314
0.685145 0.019806 0.069368
0.744625 0.114687 0.042206
0.794827 0.167819 0.003845
0.837034 0.213901 0.000000
0.870512 0.253910 0.040375
0.901732 0.296880 0.091737
0.927703 0.336187 0.130282
0.951598 0.374334 0.169802
0.973602 0.411597 0.210788
0.993500 0.447425 0.252323
1.000000 0.481636 0.295720
1.000000 0.513909 0.338811
1.000000 0.544335 0.381842
1.000000 0.573846 0.425635
1.000000 0.602930 0.470130
1.000000 0.631861 0.515099
1.000000 0.660700 0.560571
1.000000 0.689815 0.606409
1.000000 0.719112 0.652216
1.000000 0.748104 0.696925
0.064027 0.086213 0.097078
0.064027 0.086213 0.097078
0.064027 0.086213 0.097078
0.080903 0.086976 0.100191
0.109560 0.091646 0.104128
0.147768 0.095674 0.107790
0.200961 0.096681 0.110353
0.270848 0.092256 0.110628
0.355688 0.076478 0.107637
0.446662 0.028077 0.101564
0.534874 0.000000 0.091676
0.614282 0.000000 0.079164
0.683375 0.073396 0.063691
0.742855 0.129763 0.025605
0.793088 0.178012 0.000000
0.835447 0.220523 0.000000
0.869230 0.259770 0.039033
0.900359 0.300938 0.090913
0.926055 0.338872 0.129671
0.949889 0.376135 0.168612
0.972076 0.412543 0.208865
0.992096 0.447822 0.250431
1.000000 0.481697 0.293248
1.000000 0.513634 0.336248
1.000000 0.544030 0.379461
1.000000 0.573388 0.423072
1.000000 0.602380 0.467567
1.000000 0.631189 0.512657
1.000000 0.660060 0.558282
1.000000 0.689082 0.604150
1.000000 0.718227 0.650050
1.000000 0.747341 0.695125
0.063630 0.089937 0.097292
0.063600 0.091707 0.097658
0.062745 0.094636 0.097963
0.081880 0.095674 0.099245
0.113588 0.101503 0.099214
0.152102 0.105196 0.102785
0.204837 0.108705 0.105196
0.274479 0.108309 0.104891
0.357610 0.100618 0.102602
0.447395 0.086641 0.095735
0.534630 0.075319 0.084962
0.613245 0.086488 0.069856
0.681666 0.120150 0.041321
0.740871 0.159976 0.000000
0.790982 0.198886 0.000000
0.833341 0.237125 0.000000
0.868101 0.273533 0.040772
0.898589 0.311223 0.090761
0.923766 0.346258 0.129793
0.947326 0.381018 0.166903
0.969390 0.415686 0.205875
0.989502 0.450111 0.248234
1.000000 0.483345 0.290501
1.000000 0.515160 0.333959
1.000000 0.545647 0.377539
1.000000 0.575311 0.422339
1.000000 0.604120 0.466896
1.000000 0.633051 0.512596
1.000000 0.661738 0.558404
1.000000 0.690394 0.604211
1.000000 0.719173 0.649836
1.000000 0.747616 0.694148
0.060609 0.110872 0.098573
0.060212 0.112306 0.098451
0.059968 0.114137 0.099001
0.072175 0.116396 0.099825
0.106538 0.110628 0.104555
0.153262 0.121798 0.099001
0.207767 0.130129 0.097353
0.277836 0.132784 0.096071
0.359564 0.132723 0.092897
0.447364 0.130190 0.085023
0.533074 0.130343 0.072297
0.610986 0.142550 0.046479
0.678981 0.166201 0.000000
0.737728 0.195315 0.000000
0.788052 0.227604 0.000000
0.830808 0.260533 0.000000
0.867063 0.294530 0.043824
0.897154 0.328374 0.092927
0.922240 0.360357 0.131350
0.945678 0.392645 0.168978
0.967590 0.425086 0.207431
0.987823 0.457404 0.247959
1.000000 0.489418 0.290776
1.000000 0.520043 0.333074
1.000000 0.549950 0.377417
1.000000 0.578912 0.421820
1.000000 0.607263 0.466590
1.000000 0.635462 0.511925
1.000000 0.663539 0.557366
1.000000 0.691646 0.602960
1.000000 0.719905 0.648219
1.000000 0.748104 0.692653
0.054597 0.131044 0.101198
0.054444 0.132570 0.101259
0.054078 0.134432 0.101289
0.066804 0.136629 0.102541
0.100008 0.139284 0.105287
0.140230 0.130800 0.110994
0.205875 0.148409 0.102083
0.277317 0.164340 0.092470
0.360967 0.172122 0.083345
0.450538 0.174716 0.071321
0.534264 0.180423 0.056550
0.610254 0.192325 0.021180
0.677180 0.210727 0.000000
0.735805 0.235080 0.000000
0.786130 0.262425 0.000000
0.829007 0.290837 0.000000
0.866392 0.321935 0.055512
0.896025 0.351171 0.097169
0.920989 0.379858 0.135897
0.944549 0.409186 0.172610
0.966613 0.439673 0.211856
0.987060 0.470283 0.252415
1.000000 0.525994 0.330541
1.000000 0.554162 0.373754
1.000000 0.580957 0.415869
1.000000 0.607080 0.458564
1.000000 0.632807 0.500999
1.000000 0.658320 0.543206
1.000000 0.683986 0.585626
1.000000 0.709957 0.628260
1.000000 0.736019 0.670314
1.000000 0.759579 0.707729
0.026917 0.161471 0.108461
0.026612 0.162966 0.108248
0.023865 0.165042 0.108431
0.062196 0.167117 0.113710
0.084749 0.170108 0.114626
0.139162 0.175906 0.116762
0.193729 0.163455 0.122683
0.282048 0.188022 0.110292
0.370855 0.208133 0.092927
0.455421 0.227054 0.074891
0.543297 0.235630 0.047608
0.620172 0.248020 0.000000
0.685420 0.264622 0.000000
0.742245 0.284916 0.000000
0.790860 0.307164 0.000000
0.832639 0.330877 0.000000
0.870359 0.358923 0.068391
0.898985 0.383825 0.110689
0.924010 0.409339 0.148806
0.947906 0.436652 0.187686
0.970703 0.465919 0.228428
0.991913 0.496437 0.272221
1.000000 0.527123 0.319005
1.000000 0.556664 0.365179
1.000000 0.584619 0.410590
1.000000 0.611017 0.454688
1.000000 0.636683 0.498695
1.000000 0.661433 0.540734
1.000000 0.686366 0.583001
1.000000 0.711727 0.625757
1.000000 0.736965 0.667414
1.000000 0.762081 0.708003
0.000000 0.199924 0.117678
0.000000 0.201572 0.117220
0.000000 0.203098 0.118746
0.029297 0.204746 0.122347
0.074525 0.207645 0.122713
0.112428 0.211765 0.123629
0.191104 0.221469 0.125826
0.259403 0.202609 0.135225
0.363348 0.231968 0.118044
0.456947 0.255650 0.093263
0.536278 0.280766 0.066194
0.612207 0.298924 0.011170
0.681239 0.313695 0.000000
0.738979 0.330266 0.000000
0.787533 0.348425 0.000000
0.831937 0.370306 0.000000
0.868162 0.392035 0.073823
0.896208 0.412024 0.114382
0.921019 0.433326 0.153140
0.944823 0.457038 0.190829
0.967559 0.483436 0.231907
0.988830 0.511101 0.275547
1.000000 0.538964 0.319615
1.000000 0.566339 0.364752
1.000000 0.592706 0.409857
1.000000 0.617792 0.453925
1.000000 0.641779 0.496162
1.000000 0.665705 0.538537
1.000000 0.689998 0.581231
1.000000 0.714229 0.623133
1.000000 0.739071 0.665309
1.000000 0.763699 0.706142
0.000000 0.251225 0.129488
0.000000 0.251957 0.130556
0.000000 0.252903 0.131899
0.000000 0.254154 0.132876
0.041657 0.256535 0.132235
0.095796 0.259403 0.132692
0.160922 0.266941 0.134493
0.261723 0.279667 0.137179
0.341436 0.252110 0.152285
0.450324 0.285710 0.131685
0.538933 0.312291 0.102266
0.611322 0.339391 0.067292
0.672938 0.364691 0.002564
0.733211 0.378790 0.000000
0.785702 0.393927 0.000000
0.831235 0.412268 0.014710
0.866270 0.428656 0.082582
0.893919 0.444129 0.123049
0.918547 0.461036 0.159640
0.942290 0.481483 0.197818
0.965026 0.504479 0.237858
0.986389 0.529107 0.279789
1.000000 0.554192 0.322789
1.000000 0.579339 0.367071
1.000000 0.603723 0.411566
1.000000 0.626886 0.454292
1.000000 0.649653 0.496681
1.000000 0.672297 0.538659
1.000000 0.695186 0.580468
1.000000 0.718410 0.622156
1.000000 0.742184 0.663783
1.000000 0.766140 0.704707
0.000000 0.312352 0.145571
0.000000 0.312840 0.146059
0.000000 0.312993 0.145632
0.000000 0.313970 0.145541
0.000000 0.315496 0.146395
0.071595 0.317327 0.144320
0.127199 0.319097 0.145052
0.226719 0.331609 0.148043
0.347326 0.346715 0.152682
0.428931 0.310338 0.176150
0.532403 0.346014 0.153292
0.610681 0.373083 0.123445
0.675715 0.399115 0.089845
0.727260 0.423377 0.058015
0.781491 0.443091 0.048066
0.828275 0.456855 0.069215
0.864988 0.467720 0.092988
0.892515 0.479164 0.131685
0.917052 0.492836 0.170413
0.940642 0.509483 0.207736
0.963104 0.528710 0.246189
0.984070 0.549584 0.285801
1.000000 0.571221 0.326635
1.000000 0.593408 0.369574
1.000000 0.615167 0.411963
1.000000 0.636530 0.453986
1.000000 0.657801 0.495857
1.000000 0.679072 0.537163
1.000000 0.701198 0.579614
1.000000 0.723720 0.621820
1.000000 0.746731 0.663630
1.000000 0.770077 0.704768
0.000000 0.378882 0.162325
0.000000 0.379370 0.161746
0.000000 0.379461 0.161654
0.000000 0.380102 0.160769
0.000000 0.380621 0.161227
0.000000 0.381567 0.159976
0.110323 0.382574 0.160586
0.175051 0.384070 0.161654
0.307652 0.401648 0.167727
0.436194 0.415534 0.177310
0.514336 0.375341 0.209903
0.606043 0.410803 0.187533
0.674098 0.435065 0.160128
0.735378 0.460670 0.131075
0.781949 0.483009 0.115358
0.821866 0.501427 0.109651
0.858946 0.509178 0.128664
0.888182 0.515801 0.152438
0.914031 0.524193 0.178470
0.937682 0.537285 0.214572
0.960266 0.553338 0.252598
0.981384 0.571344 0.292393
1.000000 0.590661 0.332860
1.000000 0.610071 0.373571
1.000000 0.629725 0.415351
1.000000 0.649104 0.456886
1.000000 0.668360 0.497444
1.000000 0.688075 0.538262
1.000000 0.708522 0.579675
1.000000 0.729641 0.621271
1.000000 0.751492 0.662684
1.000000 0.773831 0.703700
0.000000 0.449226 0.181247
0.000000 0.449439 0.180667
0.000000 0.449531 0.180575
0.000000 0.449561 0.180240
0.000000 0.449500 0.180362
0.000000 0.449226 0.183993
0.079988 0.448951 0.181979
0.161013 0.448066 0.181735
0.256596 0.454322 0.185061
0.397833 0.471473 0.195926
0.516258 0.478737 0.214145
0.591516 0.443153 0.254093
0.694087 0.497230 0.253056
0.754696 0.520317 0.232792
0.803861 0.538384 0.209537
0.840024 0.552392 0.196475
0.867613 0.564019 0.192233
0.893950 0.569665 0.206821
0.919707 0.575097 0.230014
0.944335 0.583185 0.254185
0.966827 0.594171 0.283940
0.986694 0.608270 0.321660
1.000000 0.623529 0.360296
1.000000 0.639246 0.398749
1.000000 0.655390 0.437995
1.000000 0.671748 0.476753
1.000000 0.688502 0.515679
1.000000 0.705776 0.554345
1.000000 0.723720 0.592981
1.000000 0.742672 0.632441
1.000000 0.762570 0.672145
1.000000 0.783108 0.711299
0.000000 0.526574 0.206638
0.000000 0.526574 0.206577
0.000000 0.525902 0.206149
0.000000 0.524895 0.205661
0.000000 0.523491 0.206424
0.000000 0.521202 0.210239
0.000000 0.518883 0.211521
0.152621 0.516350 0.211063
0.223056 0.513329 0.210178
0.350774 0.524559 0.219425
0.490608 0.541711 0.237583
0.600000 0.549340 0.270359
0.675990 0.526390 0.326604
0.747341 0.556970 0.315282
0.797971 0.573663 0.295659
0.837003 0.585199 0.275761
0.866606 0.593103 0.259739
0.889342 0.600671 0.254795
0.911742 0.608484 0.257450
0.936706 0.614313 0.280919
0.960235 0.622248 0.305394
0.982208 0.631464 0.330083
1.000000 0.643061 0.363043
1.000000 0.656519 0.401099
1.000000 0.670436 0.439460
1.000000 0.684688 0.477119
1.000000 0.699672 0.515282
1.000000 0.715206 0.553185
1.000000 0.731716 0.591852
1.000000 0.749508 0.631373
1.000000 0.768032 0.670466
1.000000 0.787625 0.709926
0.000000 0.588525 0.232639
0.000000 0.588403 0.232975
0.000000 0.587732 0.232425
0.000000 0.586603 0.232731
0.000000 0.584771 0.234806
0.000000 0.582269 0.239414
0.000000 0.578546 0.248569
0.145235 0.575463 0.245365
0.223819 0.571435 0.243626
0.287297 0.567376 0.241611
0.445075 0.587762 0.264927
0.577173 0.608209 0.294408
0.667292 0.608453 0.333806
0.732845 0.587213 0.391455
0.790463 0.609339 0.379675
0.830350 0.619165 0.360540
0.861204 0.624598 0.340642
0.887358 0.628656 0.319921
0.908782 0.635309 0.315587
0.929778 0.643610 0.313420
0.952728 0.651057 0.331243
0.975219 0.658686 0.355505
0.995514 0.667048 0.380743
1.000000 0.675868 0.406775
1.000000 0.687373 0.442847
1.000000 0.699611 0.479591
1.000000 0.712642 0.517021
1.000000 0.726589 0.554498
1.000000 0.741543 0.592737
1.000000 0.757748 0.631464
1.000000 0.775113 0.670741
1.000000 0.793515 0.709987
0.000000 0.645594 0.262730
0.000000 0.645380 0.262638
0.000000 0.644678 0.263096
0.000000 0.643427 0.263920
0.000000 0.641199 0.266606
0.000000 0.638270 0.271824
0.000000 0.634455 0.281651
0.147646 0.629755 0.285161
0.231235 0.627466 0.284855
0.299168 0.625086 0.284337
0.391150 0.628504 0.291722
0.532677 0.646113 0.320409
0.648493 0.663996 0.354070
0.720943 0.657740 0.396735
0.777371 0.638453 0.454108
0.822019 0.652308 0.441749
0.853819 0.657069 0.423316
0.880369 0.659815 0.403357
0.905516 0.663142 0.383246
0.927398 0.669062 0.374853
0.947662 0.676936 0.373449
0.967987 0.685328 0.380011
0.988800 0.692317 0.404761
1.000000 0.699763 0.429877
1.000000 0.707424 0.455787
1.000000 0.715572 0.482734
1.000000 0.726986 0.519799
1.000000 0.739620 0.557855
1.000000 0.753445 0.596612
1.000000 0.768521 0.635706
1.000000 0.784817 0.675013
1.000000 0.802182 0.714412
0.000000 0.696803 0.294530
0.000000 0.696590 0.295506
0.000000 0.696132 0.295964
0.000000 0.695064 0.297704
0.000000 0.693141 0.301579
0.000000 0.691005 0.308782
0.000000 0.689052 0.320745
0.173953 0.685634 0.337377
0.251102 0.682612 0.334417
0.316106 0.678828 0.332311
0.372930 0.673945 0.329534
0.483772 0.680995 0.346654
0.605493 0.695460 0.378210
0.706538 0.710018 0.413031
0.762905 0.697658 0.455879
0.809110 0.678828 0.510552
0.844388 0.686854 0.497749
0.872374 0.690181 0.480690
0.898192 0.693050 0.462562
0.922942 0.696895 0.445319
0.945403 0.702235 0.433997
0.964996 0.709773 0.433753
0.983490 0.717861 0.435706
1.000000 0.724819 0.455634
1.000000 0.731380 0.480781
1.000000 0.738308 0.507164
1.000000 0.745418 0.533043
1.000000 0.754238 0.563165
1.000000 0.766384 0.601495
1.000000 0.779690 0.639612
1.000000 0.794247 0.678065
1.000000 0.810025 0.716457
0.000000 0.744472 0.330755
0.000000 0.744381 0.331701
0.000000 0.743984 0.332647
0.000000 0.743374 0.335790
0.000000 0.742153 0.341100
0.000000 0.740108 0.349920
0.000000 0.737057 0.361669
0.186526 0.732387 0.376898
0.273747 0.727535 0.382391
0.333410 0.722805 0.379065
0.387060 0.717494 0.375708
0.434699 0.711299 0.370947
0.558862 0.722683 0.399176
0.664912 0.735286 0.432837
0.752682 0.747433 0.468482
0.795224 0.730007 0.510399
0.832853 0.712337 0.562341
0.863310 0.718074 0.550011
0.890288 0.721553 0.534234
0.915221 0.724697 0.518334
0.939025 0.728603 0.503655
0.961425 0.732753 0.489601
0.979706 0.739345 0.489784
0.996796 0.746334 0.491951
1.000000 0.753262 0.501701
1.000000 0.759213 0.527733
1.000000 0.765591 0.554070
1.000000 0.772488 0.580713
1.000000 0.780270 0.608606
1.000000 0.790585 0.641932
1.000000 0.803799 0.680262
1.000000 0.817990 0.718074
0.000000 0.788144 0.369299
0.000000 0.788205 0.370825
0.000000 0.798856 0.384131
0.000000 0.797787 0.387762
0.000000 0.796017 0.394537
0.000000 0.793179 0.403876
0.063691 0.789212 0.416144
0.228000 0.783810 0.430426
0.323369 0.777127 0.447578
0.372045 0.771969 0.441382
0.418006 0.766201 0.436225
0.460212 0.759487 0.429664
0.520256 0.756344 0.431128
0.631586 0.766232 0.464027
0.721431 0.775296 0.498421
0.794919 0.783841 0.533257
0.825345 0.763119 0.573358
0.857725 0.749477 0.621515
0.885832 0.753994 0.608423
0.911070 0.757076 0.594354
0.934447 0.759762 0.579828
0.956603 0.762753 0.566400
0.977447 0.765621 0.552819
0.994446 0.770169 0.549920
1.000000 0.775418 0.551751
1.000000 0.781003 0.555932
1.000000 0.786160 0.576318
1.000000 0.791653 0.601495
1.000000 0.798032 0.627558
1.000000 0.805692 0.655512
1.000000 0.814450 0.684443
1.000000 0.826139 0.719142
0.000000 0.826719 0.410285
0.000000 0.827756 0.413214
0.000000 0.828550 0.416724
0.000000 0.828641 0.422522
0.000000 0.827543 0.430518
0.000000 0.824949 0.440223
0.125917 0.821012 0.452461
0.252598 0.815671 0.466804
0.340215 0.809232 0.482918
0.396643 0.803159 0.487129
0.436622 0.797757 0.481147
0.474220 0.791684 0.474189
0.509117 0.784726 0.465614
0.586053 0.785641 0.479133
0.681483 0.792966 0.512383
0.758755 0.799802 0.545953
0.822141 0.806546 0.579980
0.845365 0.785550 0.617823
0.876768 0.776394 0.662531
0.902831 0.780606 0.650996
0.926665 0.783627 0.638575
0.948821 0.786587 0.627008
0.969604 0.789273 0.615473
0.988647 0.791684 0.604669
1.000000 0.794766 0.599359
1.000000 0.799252 0.601923
1.000000 0.804410 0.607294
1.000000 0.809842 0.619928
1.000000 0.815427 0.646143
1.000000 0.822080 0.673030
1.000000 0.829831 0.700954
1.000000 0.837980 0.728542
0.000000 0.854368 0.444495
0.000000 0.855100 0.447730
0.000000 0.855680 0.451484
0.000000 0.855375 0.456977
0.000000 0.854063 0.465126
0.000000 0.851316 0.475227
0.179690 0.847349 0.487404
0.281254 0.842252 0.501152
0.360754 0.836149 0.516716
0.428321 0.829221 0.533684
0.459937 0.824521 0.526055
0.492287 0.819181 0.518669
0.523156 0.813077 0.510430
0.552331 0.806241 0.500664
0.642237 0.810178 0.526757
0.723781 0.815610 0.559716
0.791073 0.821622 0.592370
0.847623 0.828763 0.624994
0.865873 0.808438 0.660517
0.896025 0.802792 0.701656
0.919829 0.806302 0.691310
0.941802 0.809110 0.681056
0.962341 0.811765 0.671382
0.981140 0.814023 0.662257
0.998322 0.815702 0.653040
1.000000 0.817380 0.645655
1.000000 0.821408 0.649134
1.000000 0.826200 0.655756
1.000000 0.831785 0.665614
1.000000 0.837644 0.688746
1.000000 0.844419 0.715785
1.000000 0.851560 0.742336
0.000000 0.877653 0.477363
0.000000 0.878233 0.480720
0.000000 0.878630 0.484291
0.000000 0.878141 0.490425
0.000000 0.876616 0.498329
0.099214 0.873838 0.508568
0.227390 0.869902 0.520439
0.312078 0.864988 0.534020
0.384070 0.859129 0.549523
0.446509 0.852567 0.565820
0.486580 0.846921 0.569116
0.513481 0.842191 0.561852
0.539971 0.836851 0.553796
0.565667 0.831022 0.544274
0.602716 0.826444 0.540581
0.689845 0.831266 0.573236
0.761807 0.837247 0.605982
0.822202 0.844358 0.638514
0.871550 0.850614 0.670283
0.888212 0.833463 0.704677
0.916869 0.830686 0.742519
0.938415 0.833738 0.734005
0.957977 0.835996 0.725643
0.976318 0.838285 0.718471
0.992950 0.840055 0.711543
1.000000 0.841398 0.704982
1.000000 0.842557 0.698878
1.000000 0.845975 0.702419
1.000000 0.850645 0.710414
1.000000 0.856107 0.721431
1.000000 0.862303 0.738766
1.000000 0.866392 0.759854
0.000000 0.903471 0.516381
0.000000 0.903471 0.518853
0.000000 0.903258 0.521294
0.000000 0.902190 0.526604
0.000000 0.900114 0.534325
0.191135 0.897093 0.543999
0.277867 0.893095 0.555810
0.349737 0.888396 0.569421
0.414191 0.882933 0.584863
0.472084 0.876768 0.601038
0.523735 0.870054 0.617548
0.543908 0.865965 0.609094
0.565637 0.861173 0.601343
0.587091 0.855833 0.592157
0.608118 0.850034 0.582025
0.660426 0.849027 0.591150
0.736110 0.854551 0.622919
0.799344 0.861051 0.654047
0.853086 0.868345 0.684413
0.894438 0.872038 0.713924
0.909606 0.857084 0.744198
0.935485 0.854459 0.776242
0.953765 0.856077 0.768276
0.970367 0.856992 0.760433
0.986450 0.858579 0.754421
1.000000 0.859922 0.748867
1.000000 0.861112 0.744259
1.000000 0.862333 0.740566
1.000000 0.865141 0.742977
1.000000 0.869780 0.751888
1.000000 0.875151 0.763516
1.000000 0.878752 0.773312
0.000000 0.924468 0.548302
0.000000 0.924437 0.550622
0.000000 0.924254 0.553399
0.000000 0.923125 0.558587
0.168460 0.921080 0.566217
0.249241 0.918059 0.575647
0.318242 0.914153 0.587030
0.380987 0.909545 0.600214
0.439521 0.904295 0.614923
0.493111 0.898466 0.630610
0.541772 0.892088 0.646387
0.570794 0.886992 0.648768
0.588922 0.882658 0.641382
0.607355 0.877897 0.633234
0.625605 0.872740 0.623926
0.643580 0.867155 0.613184
0.709163 0.870054 0.635462
0.775937 0.876097 0.666011
0.832364 0.882811 0.695766
0.880552 0.889982 0.724025
0.915312 0.891447 0.751186
0.929290 0.878050 0.777371
0.952331 0.874968 0.803830
0.967834 0.875761 0.797238
0.980713 0.874083 0.787594
0.994965 0.875425 0.783108
1.000000 0.876707 0.779477
1.000000 0.878080 0.776883
1.000000 0.879637 0.775570
1.000000 0.881865 0.777249
1.000000 0.886412 0.786709
1.000000 0.889555 0.795071
0.053010 0.947173 0.585077
0.102937 0.947173 0.587457
0.141909 0.946807 0.590387
0.194186 0.945495 0.595178
0.251408 0.943297 0.602197
0.308324 0.940215 0.611017
0.364416 0.936339 0.621820
0.418738 0.931731 0.634150
0.470527 0.926482 0.647822
0.518975 0.920775 0.662165
0.563531 0.914549 0.676539
0.603540 0.907958 0.690303
0.615686 0.904173 0.681025
0.630549 0.899748 0.672816
0.645472 0.894835 0.663569
0.660578 0.889525 0.653346
0.681575 0.884886 0.645930
0.751736 0.890043 0.675410
0.810788 0.895964 0.704189
0.861234 0.902403 0.731838
0.904692 0.909026 0.757565
0.933684 0.908110 0.781094
0.946044 0.895262 0.802853
0.965911 0.890929 0.824582
0.978882 0.890684 0.818357
0.990692 0.890013 0.812161
1.000000 0.891173 0.809079
1.000000 0.892393 0.806851
1.000000 0.893797 0.805814
1.000000 0.895476 0.806180
1.000000 0.897520 0.808377
1.000000 0.899687 0.814511
0.186618 0.965087 0.613672
0.204807 0.965026 0.616236
0.224552 0.964660 0.618860
0.258946 0.963439 0.623621
0.302800 0.961334 0.630610
0.350195 0.958465 0.639399
0.400000 0.954833 0.650202
0.448951 0.950622 0.662287
0.496773 0.945892 0.675685
0.542412 0.940703 0.689876
0.584192 0.935210 0.703883
0.622644 0.929290 0.717433
0.643885 0.924834 0.718441
0.656458 0.921141 0.711360
0.669306 0.917021 0.703395
0.682460 0.912596 0.694484
0.695949 0.907927 0.684688
0.732113 0.906981 0.690150
0.793576 0.912047 0.718044
0.845640 0.917540 0.744625
0.890135 0.923095 0.768643
0.928679 0.928435 0.789731
0.952056 0.924743 0.808988
0.962829 0.912261 0.827268
0.978637 0.907164 0.846616
0.989624 0.906096 0.840513
0.999603 0.904784 0.834653
1.000000 0.905852 0.832731
1.000000 0.907256 0.832151
1.000000 0.908934 0.832883
1.000000 0.911101 0.835599
1.000000 0.910796 0.835843
0.264134 0.982330 0.643305
0.275883 0.982177 0.645411
0.289769 0.981659 0.647822
0.315373 0.980407 0.652186
0.350561 0.978302 0.658717
0.391333 0.975494 0.667231
0.434821 0.972045 0.677455
0.479225 0.968078 0.689204
0.523278 0.963653 0.702052
0.565484 0.958923 0.715633
0.604974 0.953918 0.729152
0.641444 0.948760 0.742428
0.674067 0.943297 0.754482
0.682124 0.940612 0.746181
0.693080 0.937285 0.739254
0.704341 0.933654 0.731350
0.716243 0.929747 0.723079
0.728542 0.925780 0.714107
0.776516 0.927550 0.730404
0.830167 0.931945 0.755764
0.875700 0.936431 0.778317
0.914855 0.940703 0.798062
0.949065 0.944579 0.815061
0.967315 0.938476 0.831937
0.976135 0.926574 0.849027
0.988525 0.921202 0.866514
0.997864 0.919738 0.860838
1.000000 0.918090 0.855375
1.000000 0.919127 0.854490
1.000000 0.920806 0.855375
1.000000 0.923003 0.858244
1.000000 0.922637 0.858457
0.320623 0.997040 0.669429
0.329931 0.996765 0.671351
0.341222 0.996277 0.673640
0.362768 0.995087 0.677913
0.393866 0.993194 0.684749
0.430640 0.990753 0.693568
0.471290 0.987854 0.704524
0.513298 0.984558 0.717098
0.555444 0.980926 0.730739
0.595911 0.977111 0.744961
0.634211 0.973053 0.759182
0.669062 0.968963 0.772580
0.699275 0.964813 0.783963
0.714809 0.961975 0.784176
0.724941 0.959655 0.779355
0.735164 0.956970 0.773709
0.745663 0.954131 0.767208
0.756680 0.951202 0.760311
0.769162 0.948486 0.753689
0.822782 0.951324 0.776364
0.867918 0.954223 0.796262
0.906615 0.957000 0.813626
0.940307 0.959442 0.829435
0.969665 0.961547 0.844541
0.982483 0.953429 0.860105
0.989044 0.942535 0.875456
0.997986 0.937285 0.890379
1.000000 0.935576 0.885344
1.000000 0.933867 0.880797
1.000000 0.934936 0.881010
1.000000 0.937011 0.883848
1.000000 0.935058 0.881804
0.388220 1.000000 0.701656
0.395422 1.000000 0.703365
0.403967 1.000000 0.705287
0.421790 1.000000 0.709468
0.447608 1.000000 0.715816
0.478981 1.000000 0.724147
0.513817 1.000000 0.734127
0.550744 0.999542 0.745571
0.588067 0.996002 0.758022
0.624628 0.992218 0.770962
0.659083 0.988342 0.783658
0.689967 0.984527 0.795163
0.717006 0.980835 0.804868
0.740108 0.977173 0.812406
