data/fiter_cube/12898295/1023046/file.cube
# Created by Adobe Lightroom plugin Export LUT (1.17.0)
# www.johnrellis.com/lightroom/exportlut.htm
# Preset: 经典婚礼摄影_08 云集
# Color profile: C:\Program Files (x86)\Common Files\Adobe\Color\Profiles\Recommended\AdobeRGB1998.icc
LUT_3D_SIZE 32
DOMAIN_MIN 0.0 0.0 0.0
DOMAIN_MAX 1.0 1.0 1.0
0.000000 0.000000 0.000000
0.013794 0.001129 0.002777
0.031800 0.000397 0.005615
0.061646 0.002106 0.010986
0.080903 0.006470 0.019959
0.103578 0.008606 0.029297
0.131746 0.003113 0.036561
0.164981 0.000000 0.043580
0.203311 0.000000 0.047364
0.246677 0.000000 0.049012
0.294926 0.000000 0.048646
0.346654 0.000000 0.044190
0.400153 0.000000 0.036530
0.453895 0.000000 0.025849
0.505913 0.000000 0.013733
0.555657 0.000000 0.000580
0.602228 0.000000 0.000000
0.646174 0.000000 0.000000
0.696223 0.000000 0.000000
0.743709 0.000000 0.000000
0.785458 0.000000 0.000000
0.823087 0.000000 0.000000
0.856748 0.121920 0.037781
0.887602 0.173861 0.073243
0.916258 0.216190 0.099428
0.943694 0.255589 0.126192
0.970886 0.294163 0.155734
0.998169 0.333349 0.190341
1.000000 0.373724 0.230869
1.000000 0.416419 0.278843
1.000000 0.461982 0.335668
1.000000 0.484871 0.351385
0.003326 0.008484 0.010040
0.011566 0.009552 0.007568
0.034546 0.009369 0.004822
0.063020 0.011078 0.006897
0.081880 0.015412 0.015900
0.103792 0.016815 0.024262
0.131441 0.011749 0.032654
0.163729 0.000000 0.039765
0.201297 0.000000 0.043854
0.243931 0.000000 0.046143
0.291264 0.000000 0.045960
0.342260 0.000000 0.041260
0.394934 0.000000 0.034058
0.448066 0.000000 0.022827
0.499855 0.000000 0.011383
0.549401 0.000000 0.000000
0.596033 0.000000 0.000000
0.640131 0.000000 0.000000
0.690211 0.000000 0.000000
0.736721 0.000000 0.000000
0.778042 0.000000 0.000000
0.815549 0.000000 0.000000
0.849424 0.115389 0.019379
0.880613 0.167544 0.064668
0.909697 0.210056 0.091218
0.937621 0.249729 0.118471
0.965332 0.288304 0.148409
0.993103 0.327642 0.182223
1.000000 0.368322 0.222843
1.000000 0.411048 0.270329
1.000000 0.456519 0.326909
1.000000 0.486030 0.350469
0.005859 0.019348 0.022065
0.014069 0.019226 0.020783
0.028809 0.022797 0.016846
0.063355 0.026032 0.011078
0.082643 0.027985 0.012634
0.104494 0.028199 0.018921
0.131106 0.024018 0.027405
0.162783 0.010285 0.034577
0.199710 0.000000 0.039734
0.241611 0.000000 0.042206
0.288365 0.000000 0.041932
0.338781 0.000000 0.037415
0.391241 0.000000 0.029267
0.444160 0.000000 0.019165
0.495918 0.000000 0.005646
0.545495 0.000000 0.000000
0.592126 0.000000 0.000000
0.636316 0.000000 0.000000
0.686976 0.000000 0.000000
0.732753 0.000000 0.000000
0.773953 0.000000 0.000000
0.811521 0.011383 0.000000
0.845548 0.119753 0.002777
0.876860 0.169162 0.056519
0.906157 0.210605 0.084688
0.934325 0.249149 0.112490
0.962280 0.287480 0.142824
0.990356 0.326574 0.177157
1.000000 0.366888 0.217319
1.000000 0.409522 0.265171
1.000000 0.454688 0.321386
1.000000 0.487617 0.349126
0.016236 0.044800 0.049226
0.024811 0.046845 0.050568
0.030701 0.047089 0.048005
0.058228 0.052277 0.038331
0.081880 0.057282 0.027344
0.105989 0.055726 0.019501
0.132448 0.050782 0.023804
0.163394 0.039033 0.027771
0.199252 0.019135 0.030610
0.240330 0.000000 0.032746
0.285985 0.000000 0.032441
0.335515 0.000000 0.027832
0.387121 0.000000 0.019501
0.439368 0.000000 0.008576
0.490883 0.000000 0.000000
0.540429 0.000000 0.000000
0.587152 0.000000 0.000000
0.631769 0.000000 0.000000
0.682490 0.000000 0.000000
0.726741 0.000000 0.000000
0.766995 0.000000 0.000000
0.804257 0.067994 0.000000
0.838834 0.130800 0.000000
0.871336 0.176394 0.022217
0.902098 0.216739 0.072633
0.931731 0.255283 0.103822
0.960815 0.293462 0.136172
0.989563 0.332158 0.171878
1.000000 0.371771 0.212955
1.000000 0.413184 0.260685
1.000000 0.457008 0.316503
1.000000 0.491005 0.346471
0.026673 0.067079 0.065583
0.035035 0.067811 0.066590
0.040986 0.068330 0.064942
0.052155 0.068055 0.063111
0.073976 0.073762 0.056062
0.102754 0.077790 0.044373
0.131655 0.075044 0.032380
0.162631 0.070924 0.028748
0.197177 0.065156 0.030610
0.236851 0.053346 0.030579
0.281468 0.020874 0.027955
0.329778 0.000000 0.022156
0.380682 0.000000 0.013825
0.432715 0.000000 0.001587
0.484291 0.000000 0.000000
0.534569 0.000000 0.000000
0.582238 0.000000 0.000000
0.631312 0.000000 0.000000
0.680446 0.000000 0.000000
0.723720 0.000000 0.000000
0.763210 0.041291 0.000000
0.800046 0.111940 0.000000
0.834562 0.155245 0.000000
0.867338 0.193637 0.000000
0.898589 0.230228 0.048310
0.928710 0.265995 0.089998
0.958160 0.302220 0.125124
0.987152 0.338933 0.161776
1.000000 0.377050 0.203708
1.000000 0.417029 0.251682
1.000000 0.459693 0.307805
1.000000 0.496254 0.341802
0.035126 0.084993 0.076722
0.042176 0.085908 0.077241
0.051575 0.086976 0.077699
0.056001 0.086549 0.072908
0.068086 0.087861 0.071107
0.092317 0.096834 0.064210
0.129213 0.102998 0.054810
0.161624 0.100587 0.043793
0.197086 0.095064 0.029847
0.235752 0.090394 0.029786
0.279393 0.083558 0.025818
0.326848 0.072847 0.019745
0.376928 0.054353 0.011078
0.428534 0.005829 0.000000
0.480049 0.000000 0.000000
0.530510 0.000000 0.000000
0.578546 0.000000 0.000000
0.631891 0.000000 0.000000
0.679622 0.000000 0.000000
0.722560 0.077821 0.000000
0.762173 0.117678 0.000000
0.799405 0.153964 0.000000
0.877073 0.241764 0.000000
0.907591 0.272831 0.000000
0.936034 0.302373 0.072786
0.963134 0.331914 0.112703
0.989502 0.361975 0.150088
1.000000 0.393347 0.190127
1.000000 0.426764 0.234623
1.000000 0.462867 0.285557
1.000000 0.500603 0.338079
1.000000 0.503380 0.335637
0.039002 0.111818 0.090578
0.046082 0.112734 0.090730
0.054414 0.113741 0.091096
0.061860 0.114290 0.088167
0.068574 0.112459 0.083894
0.084962 0.117342 0.079805
0.118807 0.129854 0.071229
0.166567 0.139620 0.060945
0.204440 0.136690 0.049104
0.245243 0.131716 0.031220
0.289494 0.125521 0.016419
0.337652 0.120668 0.008515
0.387976 0.114473 0.000000
0.439185 0.106600 0.000000
0.489570 0.098756 0.000000
0.538231 0.093050 0.000000
0.591363 0.096193 0.000000
0.644587 0.110506 0.000000
0.691493 0.130129 0.000000
0.735042 0.154055 0.000000
0.776852 0.182406 0.000000
0.817441 0.213779 0.000000
0.856107 0.246921 0.000000
0.892241 0.280125 0.000000
0.925536 0.312505 0.000000
0.955627 0.342473 0.080812
0.983673 0.371710 0.127108
1.000000 0.401495 0.170230
1.000000 0.433326 0.216739
1.000000 0.467384 0.268132
1.000000 0.504356 0.326268
1.000000 0.512291 0.327672
0.037964 0.138643 0.103975
0.046418 0.139315 0.104097
0.054505 0.140291 0.104372
0.066896 0.142061 0.104921
0.069245 0.140017 0.095430
0.081910 0.136538 0.094087
0.104402 0.146761 0.087984
0.144778 0.161501 0.078248
0.201266 0.175021 0.065156
0.243168 0.172763 0.051209
0.287602 0.168460 0.028107
0.333471 0.161807 0.002014
0.382208 0.156924 0.000000
0.432654 0.153353 0.000000
0.482673 0.150179 0.000000
0.535393 0.150027 0.000000
0.590356 0.156222 0.000000
0.640589 0.165835 0.000000
0.685939 0.179232 0.000000
0.728695 0.196628 0.000000
0.769986 0.218326 0.000000
0.810269 0.243992 0.000000
0.848814 0.272160 0.000000
0.885039 0.301244 0.000000
0.918608 0.330266 0.000000
0.949310 0.358007 0.036561
0.977996 0.385138 0.096529
1.000000 0.412634 0.146151
1.000000 0.442481 0.195346
1.000000 0.474647 0.248600
1.000000 0.509911 0.307805
1.000000 0.522881 0.317632
0.037995 0.169223 0.119081
0.046296 0.169894 0.119142
0.055573 0.170504 0.119417
0.068299 0.171969 0.119875
0.076173 0.171359 0.114595
0.083467 0.168093 0.107179
0.099092 0.165164 0.105226
0.128298 0.180575 0.097414
0.175235 0.197635 0.085878
0.242008 0.215854 0.070192
0.287541 0.214237 0.053529
0.334478 0.209781 0.021118
0.381231 0.203677 0.000000
0.428138 0.196567 0.000000
0.482429 0.197269 0.000000
0.537713 0.200534 0.000000
0.589380 0.205844 0.000000
0.637690 0.213748 0.000000
0.682033 0.224125 0.000000
0.724208 0.238163 0.000000
0.765225 0.256107 0.000000
0.805264 0.277653 0.000000
0.843687 0.301671 0.000000
0.879911 0.327214 0.000000
0.913603 0.352911 0.000000
0.944579 0.377783 0.000000
0.973785 0.402808 0.073548
1.000000 0.428473 0.117220
1.000000 0.455818 0.171969
1.000000 0.485634 0.227665
1.000000 0.518639 0.288396
1.000000 0.535241 0.305577
0.038453 0.202976 0.135805
0.048157 0.203159 0.135927
0.058350 0.203738 0.135958
0.070741 0.204776 0.136202
0.085359 0.205722 0.135378
0.087312 0.202487 0.123659
0.101411 0.197482 0.119722
0.120638 0.199557 0.116152
0.156283 0.217288 0.107393
0.209354 0.236332 0.094697
0.285710 0.258915 0.075563
0.334051 0.257542 0.055756
0.382635 0.253849 0.012940
0.435859 0.251835 0.000000
0.487343 0.248295 0.000000
0.538476 0.247776 0.000000
0.589532 0.253056 0.000000
0.637354 0.260441 0.000000
0.681270 0.269383 0.000000
0.722774 0.280949 0.000000
0.762570 0.295323 0.000000
0.800992 0.312596 0.000000
0.837980 0.331945 0.000000
0.873045 0.353033 0.000000
0.906249 0.375006 0.000000
0.937499 0.397131 0.000000
0.967468 0.420172 0.035492
0.996918 0.444495 0.097169
1.000000 0.470771 0.141787
1.000000 0.499245 0.203830
1.000000 0.530938 0.268498
1.000000 0.549187 0.290806
0.039857 0.237369 0.153353
0.049744 0.237858 0.153384
0.060487 0.238224 0.153445
0.073640 0.239139 0.153628
0.091127 0.240452 0.153933
0.098054 0.238468 0.145724
0.104067 0.234470 0.135073
0.121767 0.228855 0.132845
0.146639 0.237613 0.127535
0.188815 0.257542 0.118166
0.248753 0.278782 0.103822
0.336492 0.308690 0.082094
0.393530 0.311498 0.058991
0.444984 0.309392 0.000000
0.494362 0.305852 0.000000
0.541314 0.301701 0.000000
0.585840 0.297795 0.000000
0.632258 0.302861 0.000000
0.675929 0.310246 0.000000
0.717250 0.319768 0.000000
0.757137 0.332097 0.000000
0.795773 0.346960 0.000000
0.833036 0.364111 0.000000
0.868498 0.382574 0.000000
0.901915 0.401953 0.000000
0.933410 0.421515 0.000000
0.963470 0.442023 0.000000
0.993011 0.464027 0.080415
1.000000 0.488106 0.127382
1.000000 0.514519 0.174441
1.000000 0.543816 0.243442
1.000000 0.564599 0.273198
0.045899 0.275486 0.172976
0.055421 0.275792 0.173037
0.064668 0.276066 0.172946
0.077852 0.276707 0.173098
0.095735 0.277836 0.173220
0.111055 0.277897 0.170199
0.112886 0.274083 0.156588
0.126467 0.268742 0.149599
0.145052 0.262272 0.147189
0.179629 0.282353 0.141543
0.231998 0.308049 0.131868
0.302556 0.334173 0.116426
0.434638 0.399023 0.096468
0.497688 0.403235 0.065705
0.546349 0.399298 0.000000
0.591302 0.394324 0.000000
0.632929 0.389166 0.000000
0.670985 0.383917 0.000000
0.707576 0.381781 0.000000
0.746059 0.388556 0.000000
0.783139 0.397498 0.000000
0.818936 0.408515 0.000000
0.853086 0.420966 0.000000
0.885893 0.435126 0.000000
0.917144 0.450233 0.000000
0.946929 0.466316 0.000000
0.975616 0.483375 0.000000
1.000000 0.502037 0.091524
1.000000 0.522759 0.137758
1.000000 0.546014 0.183291
1.000000 0.571954 0.235447
1.000000 0.581476 0.252476
0.057252 0.325444 0.199496
0.064149 0.325566 0.199435
0.071748 0.325231 0.199100
0.086275 0.325048 0.198795
0.104585 0.324834 0.198215
0.125643 0.324743 0.197604
0.131380 0.323583 0.186923
0.135378 0.320958 0.172457
0.158083 0.316960 0.170901
0.182010 0.316716 0.168490
0.228763 0.344884 0.162142
0.293675 0.375311 0.152163
0.376074 0.406409 0.135927
0.478645 0.442512 0.109133
0.544915 0.451057 0.079774
0.590600 0.447639 0.004791
0.631922 0.442451 0.000000
0.668971 0.436072 0.000000
0.703822 0.430365 0.000000
0.737942 0.426551 0.000000
0.773983 0.430610 0.000000
0.810147 0.439551 0.000000
0.844602 0.450019 0.000000
0.877775 0.461921 0.000000
0.909422 0.474922 0.000000
0.939696 0.489082 0.000000
0.968902 0.504356 0.000000
0.997711 0.521263 0.058991
1.000000 0.540368 0.117403
1.000000 0.562127 0.167117
1.000000 0.586603 0.218143
1.000000 0.599603 0.227085
0.069490 0.372290 0.226017
0.075563 0.372717 0.226108
0.082673 0.372747 0.225956
0.097047 0.373022 0.225803
0.116213 0.373297 0.225559
0.138064 0.373785 0.225284
0.152651 0.372778 0.219242
0.154299 0.368872 0.202945
0.166720 0.364294 0.192630
0.190188 0.359014 0.190097
0.220706 0.366735 0.186801
0.274754 0.396185 0.179812
0.344671 0.426398 0.169253
0.428138 0.455726 0.152499
0.525872 0.488685 0.125704
0.590478 0.497780 0.099245
0.630701 0.492226 0.054597
0.666926 0.485267 0.000000
0.701106 0.478676 0.000000
0.734676 0.473793 0.000000
0.768185 0.471229 0.000000
0.801907 0.471199 0.000000
0.837064 0.480110 0.000000
0.870939 0.490547 0.000000
0.903227 0.502037 0.000000
0.934081 0.514549 0.000000
0.963897 0.528252 0.000000
0.993286 0.543603 0.000000
1.000000 0.561181 0.096193
1.000000 0.581415 0.151461
1.000000 0.604456 0.205783
1.000000 0.619013 0.214633
0.086793 0.422705 0.256474
0.092012 0.423041 0.256779
0.098665 0.422644 0.256321
0.112062 0.422095 0.255558
0.130434 0.421149 0.254490
0.151766 0.420325 0.253391
0.175509 0.419898 0.252659
0.176486 0.415198 0.235813
0.177646 0.411017 0.217227
0.200259 0.405432 0.213046
0.224308 0.399878 0.210239
0.263310 0.416632 0.206027
0.322942 0.445991 0.199008
0.395544 0.474769 0.187808
0.477668 0.501335 0.171237
0.566125 0.528496 0.145876
0.631373 0.540185 0.122408
0.666590 0.532769 0.087282
0.699825 0.525475 0.010864
0.732631 0.519646 0.000000
0.765255 0.515831 0.000000
0.798062 0.514122 0.000000
0.830564 0.514244 0.000000
0.863798 0.519188 0.000000
0.896910 0.529412 0.000000
0.928862 0.540948 0.000000
0.959991 0.553979 0.000000
0.990875 0.568994 0.000000
1.000000 0.586236 0.074098
1.000000 0.606104 0.141573
1.000000 0.628656 0.201328
1.000000 0.639368 0.207980
0.107240 0.469612 0.287602
0.112520 0.470069 0.287846
0.118441 0.469978 0.287663
0.130983 0.469703 0.287175
0.148318 0.469093 0.286259
0.169558 0.468605 0.285283
0.193362 0.468513 0.284581
0.204868 0.466224 0.274907
0.205661 0.461921 0.255711
0.214755 0.456947 0.240757
0.239139 0.450172 0.236912
0.262638 0.442695 0.232914
0.310094 0.466255 0.227390
0.371588 0.492592 0.219272
0.443030 0.517357 0.207156
0.520287 0.540185 0.190372
0.599725 0.562341 0.167208
0.666072 0.576928 0.148104
0.699428 0.570092 0.117830
0.732326 0.564599 0.082185
0.765103 0.560723 0.000000
0.797787 0.558618 0.000000
0.830167 0.558007 0.000000
0.862547 0.559228 0.000000
0.894774 0.562127 0.000000
0.927398 0.571588 0.000000
0.959289 0.583581 0.000000
0.990845 0.597467 0.000000
1.000000 0.613245 0.029603
1.000000 0.631281 0.129335
1.000000 0.651759 0.192294
1.000000 0.660487 0.199680
0.130068 0.511589 0.317998
0.134310 0.511589 0.317967
0.139590 0.511223 0.317418
0.150820 0.510735 0.316838
0.167056 0.510155 0.315984
0.186801 0.509483 0.314977
0.209567 0.509148 0.314183
0.231632 0.508293 0.311162
0.231876 0.504112 0.292454
0.232059 0.499733 0.271244
0.251347 0.493721 0.262852
0.275181 0.486702 0.258518
0.302464 0.484749 0.253849
0.355291 0.510033 0.248386
0.418158 0.534081 0.239994
0.487526 0.556237 0.227817
0.560052 0.576715 0.211856
0.632807 0.595544 0.191257
0.698939 0.611749 0.176944
0.730861 0.605890 0.149813
0.762844 0.601404 0.120821
0.794797 0.598535 0.085206
0.826658 0.597101 0.000000
0.858610 0.597528 0.000000
0.890593 0.599664 0.000000
0.922789 0.603449 0.000000
0.955444 0.610346 0.000000
0.987915 0.623346 0.000000
1.000000 0.638239 0.000000
1.000000 0.655329 0.108553
1.000000 0.674830 0.179599
1.000000 0.682246 0.190188
0.156985 0.553216 0.350866
0.161532 0.553918 0.351354
0.188144 0.582574 0.375830
0.198245 0.581872 0.374853
0.212772 0.580682 0.373602
0.230625 0.579034 0.371649
0.251774 0.577234 0.369665
0.275395 0.575372 0.367529
0.282109 0.571283 0.352636
0.281132 0.566278 0.330388
0.285008 0.560662 0.309392
0.308904 0.552697 0.303624
0.331365 0.543359 0.296880
0.364843 0.547692 0.290867
0.420050 0.569726 0.284520
0.481819 0.590112 0.275395
0.546899 0.608576 0.263767
0.612909 0.625299 0.248722
0.678920 0.640955 0.230137
0.742611 0.656855 0.220676
0.772396 0.650935 0.194491
0.802640 0.646693 0.168673
0.833005 0.643915 0.142336
0.863279 0.642634 0.112886
0.893217 0.642420 0.074220
0.923369 0.643885 0.000000
0.954040 0.647150 0.000000
0.985931 0.652857 0.000000
1.000000 0.663996 0.000000
1.000000 0.679652 0.077089
1.000000 0.697810 0.162692
1.000000 0.704494 0.178470
0.192752 0.600092 0.391119
0.199161 0.603723 0.394446
0.206882 0.607202 0.397467
0.218784 0.609979 0.399847
0.234073 0.611597 0.401099
0.251926 0.611536 0.400763
0.271916 0.610407 0.399298
0.294285 0.608789 0.397498
0.311559 0.606531 0.390967
0.310399 0.602136 0.370306
0.309026 0.597559 0.346532
0.323033 0.591211 0.333074
0.345556 0.582757 0.326513
0.366888 0.573266 0.319219
0.407111 0.584527 0.313481
0.461494 0.603845 0.306828
0.520195 0.621637 0.298131
0.581079 0.638025 0.286992
0.643458 0.653590 0.273594
0.705806 0.668635 0.257542
0.768765 0.685786 0.251865
0.799649 0.682368 0.229068
0.829770 0.679652 0.206271
0.859800 0.678157 0.184298
0.889677 0.677699 0.161501
0.919707 0.678767 0.137819
0.950317 0.681636 0.113100
0.982025 0.686732 0.085359
1.000000 0.694514 0.050416
1.000000 0.704921 0.000000
1.000000 0.721798 0.142458
1.000000 0.727321 0.164645
0.222934 0.633814 0.422278
0.229099 0.636835 0.425299
0.236240 0.639948 0.428199
0.247135 0.642329 0.430457
0.261326 0.643732 0.431708
0.277684 0.643671 0.431525
0.296208 0.642695 0.430335
0.316869 0.641291 0.428779
0.340154 0.639918 0.427436
0.342473 0.636622 0.410864
0.341314 0.632898 0.389471
0.340703 0.628748 0.365667
0.362860 0.621302 0.359136
0.384161 0.613062 0.351934
0.404120 0.603510 0.343816
0.450629 0.620508 0.338964
0.503075 0.637415 0.332433
0.558526 0.653315 0.324407
0.616297 0.668482 0.314427
0.675257 0.683314 0.302800
0.734249 0.697719 0.289036
0.794583 0.715114 0.285313
0.827543 0.714412 0.267552
0.857145 0.712795 0.247349
0.886534 0.711971 0.227817
0.916045 0.712490 0.209445
0.946105 0.714565 0.192355
0.977325 0.718959 0.178012
1.000000 0.725948 0.167575
1.000000 0.735531 0.162448
1.000000 0.747677 0.164431
1.000000 0.750851 0.152804
0.256321 0.666133 0.454017
0.262364 0.668879 0.456825
0.269169 0.671595 0.459663
0.279332 0.673762 0.461891
0.292332 0.675013 0.463172
0.307103 0.674891 0.463111
0.324041 0.673976 0.462196
0.343145 0.672663 0.460914
0.364477 0.671229 0.459663
0.377081 0.668971 0.451606
0.375311 0.665766 0.432013
0.373602 0.662165 0.409613
0.382025 0.656947 0.393286
0.402869 0.649805 0.386450
0.422919 0.641932 0.379004
0.447761 0.639185 0.372229
0.495369 0.656397 0.368811
0.546929 0.673030 0.364385
0.601343 0.689265 0.359197
0.657679 0.705165 0.352636
0.714656 0.720668 0.344762
0.771572 0.735683 0.334874
0.829252 0.752987 0.333837
0.863767 0.754971 0.322240
0.893217 0.754788 0.305638
0.922667 0.755520 0.290440
0.952605 0.757626 0.277714
0.983612 0.761746 0.268040
1.000000 0.768307 0.262852
1.000000 0.777249 0.263005
1.000000 0.788571 0.269383
1.000000 0.780270 0.246281
0.307744 0.708248 0.497932
0.311803 0.709377 0.499214
0.315923 0.710262 0.500175
0.323461 0.710750 0.500755
0.333837 0.710719 0.500847
0.346441 0.710018 0.500328
0.361517 0.709102 0.499580
0.379217 0.708095 0.499001
0.399420 0.707210 0.498634
0.421393 0.706294 0.498482
0.420691 0.704189 0.482338
0.419196 0.701686 0.463142
0.417182 0.698512 0.440528
0.433997 0.692714 0.432044
0.452857 0.685908 0.424994
0.471443 0.678645 0.417395
0.501213 0.682124 0.412268
0.546502 0.697444 0.409064
0.594842 0.712367 0.405188
0.645624 0.726955 0.400092
0.697597 0.740993 0.393927
0.749996 0.754482 0.386023
0.802029 0.767300 0.376226
0.855131 0.782467 0.373968
0.889525 0.785275 0.365728
0.918303 0.785763 0.351080
0.947784 0.787716 0.339178
0.978363 0.791562 0.331029
1.000000 0.797665 0.327123
1.000000 0.806058 0.328252
1.000000 0.816983 0.335912
1.000000 0.807919 0.315404
0.347265 0.738125 0.530053
0.350896 0.739254 0.531395
0.355200 0.740230 0.532586
0.362158 0.740749 0.533288
0.371252 0.740749 0.533532
0.382361 0.739986 0.533043
0.395727 0.738979 0.532403
0.411322 0.737789 0.531701
0.429450 0.736812 0.531426
0.449439 0.735866 0.531548
0.458198 0.734432 0.523430
0.456764 0.732418 0.506676
0.454994 0.729915 0.487343
0.459236 0.726406 0.470466
0.477180 0.720882 0.464454
0.495155 0.715053 0.458106
0.513115 0.709010 0.451698
0.547814 0.718349 0.448737
0.591333 0.732937 0.446632
0.637598 0.747219 0.443854
0.685634 0.761135 0.440131
0.734737 0.774594 0.435279
0.783932 0.787442 0.429053
0.832700 0.799527 0.421027
0.876982 0.807797 0.409033
0.911681 0.811917 0.405341
0.940581 0.813748 0.393957
0.970550 0.817380 0.385931
1.000000 0.823087 0.382330
1.000000 0.831052 0.383734
1.000000 0.842222 0.392706
1.000000 0.834348 0.376745
0.401434 0.775937 0.572625
0.405219 0.777188 0.574212
0.408850 0.777890 0.575189
0.414191 0.777920 0.575463
0.421454 0.777371 0.575128
0.430518 0.776272 0.574395
0.441474 0.774777 0.573297
0.454414 0.773037 0.572137
0.469429 0.771267 0.571191
0.486305 0.769558 0.570520
0.501793 0.767605 0.568231
0.499397 0.765255 0.552911
0.496956 0.762692 0.535424
0.494057 0.759701 0.515343
0.504051 0.754635 0.504479
0.519341 0.748562 0.497505
0.534905 0.742336 0.490364
0.551324 0.736538 0.483864
0.589349 0.750118 0.482216
0.631067 0.764034 0.480781
0.675135 0.777829 0.479103
0.720485 0.791012 0.476234
0.766049 0.803189 0.471656
0.811276 0.814328 0.464820
0.855802 0.824277 0.455726
0.901915 0.836362 0.450782
0.936553 0.841459 0.451240
0.965270 0.844419 0.442573
0.995636 0.849393 0.438117
1.000000 0.857115 0.439612
1.000000 0.867887 0.448249
1.000000 0.859617 0.433814
0.441169 0.803250 0.604028
0.444678 0.804440 0.605585
0.448066 0.805142 0.606592
0.452857 0.805234 0.606989
0.459419 0.804715 0.606806
0.467689 0.803861 0.606409
0.477882 0.802731 0.605859
0.489906 0.801450 0.605371
0.503868 0.800259 0.605158
0.519677 0.799161 0.605310
0.536553 0.798123 0.605524
0.541039 0.796811 0.596796
0.539727 0.795285 0.582513
0.538109 0.793423 0.566125
0.538537 0.790829 0.549462
0.553094 0.786191 0.544091
0.568109 0.781399 0.538659
0.583795 0.776974 0.533471
0.604974 0.777401 0.530083
0.641077 0.790311 0.529320
0.679866 0.803098 0.528252
0.720333 0.815427 0.526421
0.761532 0.826932 0.523186
0.802945 0.837522 0.518273
0.844205 0.847105 0.511437
0.885130 0.855772 0.502556
0.928374 0.866789 0.496986
0.963043 0.872984 0.501884
0.992798 0.878233 0.498299
1.000000 0.886168 0.500298
1.000000 0.896757 0.508873
1.000000 0.883970 0.490455
0.486763 0.833280 0.639673
0.489601 0.834073 0.640772
0.491890 0.834348 0.641230
0.495613 0.834073 0.641230
0.500603 0.833341 0.640742
0.507317 0.832303 0.640040
0.515709 0.831052 0.639277
0.525963 0.829862 0.638758
0.538293 0.828824 0.638514
0.552270 0.828092 0.638819
0.567590 0.827390 0.639338
0.579675 0.826932 0.637110
0.579126 0.826108 0.625299
0.578393 0.825010 0.611688
0.577111 0.823453 0.595941
0.584405 0.820554 0.586175
0.598566 0.816678 0.581842
0.613458 0.813077 0.577752
0.629511 0.810086 0.574670
0.654017 0.815183 0.573114
0.687709 0.827024 0.572412
0.723384 0.838499 0.571099
0.760220 0.849271 0.568719
0.797757 0.859281 0.565057
0.835599 0.868437 0.559747
0.873503 0.876677 0.552819
0.911528 0.884398 0.544305
0.952483 0.894652 0.538201
0.987060 0.901671 0.546685
1.000000 0.909453 0.548150
1.000000 0.919707 0.555230
1.000000 0.906371 0.537987
0.527367 0.860685 0.671992
0.529381 0.861173 0.672694
0.531426 0.861418 0.673121
0.534752 0.861357 0.673274
0.539818 0.861112 0.673396
0.546868 0.861021 0.673762
0.556298 0.861387 0.674922
0.567773 0.862089 0.676539
0.581384 0.863188 0.678889
0.596643 0.864652 0.681758
0.613153 0.866300 0.684962
0.630488 0.868009 0.688289
0.635126 0.869291 0.682216
0.636652 0.870085 0.672694
0.637537 0.870359 0.661219
0.637720 0.870024 0.647639
0.651301 0.867674 0.645045
0.665553 0.865446 0.642695
0.680842 0.863798 0.641169
0.697078 0.862730 0.640314
0.722438 0.870512 0.639399
0.752102 0.880400 0.637873
0.783139 0.889647 0.635431
0.815274 0.898283 0.631922
0.848173 0.906157 0.627222
0.881834 0.913573 0.621546
0.916106 0.920500 0.614832
0.950866 0.926940 0.606958
0.989319 0.936278 0.600763
1.000000 0.942626 0.611261
1.000000 0.943267 0.608423
1.000000 0.927947 0.590539
0.585351 0.899657 0.718441
0.586786 0.899962 0.718868
0.588067 0.899901 0.718929
0.590478 0.899565 0.718746
0.594263 0.899077 0.718441
0.599603 0.898589 0.718288
0.606714 0.898283 0.718502
0.615534 0.898253 0.719173
0.626154 0.898528 0.720333
0.638422 0.899016 0.721950
0.651820 0.899657 0.723812
0.666285 0.900481 0.725948
0.675563 0.901183 0.724056
0.676478 0.901640 0.715389
