data/fiter_cube/12898295/1023046/file.cube
# Created by Adobe Lightroom plugin Export LUT (1.17.0)
# www.johnrellis.com/lightroom/exportlut.htm
# Preset: 经典婚礼摄影_08 云集
# Color profile: C:\Program Files (x86)\Common Files\Adobe\Color\Profiles\Recommended\AdobeRGB1998.icc
LUT_3D_SIZE 5
DOMAIN_MIN 0.000000 0.000000 0.000000
DOMAIN_MAX 0.903226 0.903226 0.903226
0.000000 0.000000 0.000000
0.164981 0.000000 0.043580
0.505913 0.000000 0.013733
0.823087 0.000000 0.000000
1.000000 0.373724 0.230869
0.037964 0.138643 0.103975
0.144778 0.161501 0.078248
0.482673 0.150179 0.000000
0.810269 0.243992 0.000000
1.000000 0.442481 0.195346
0.086793 0.422705 0.256474
0.176486 0.415198 0.235813
0.477668 0.501335 0.171237
0.798062 0.514122 0.000000
1.000000 0.586236 0.074098
0.307744 0.708248 0.497932
0.379217 0.708095 0.499001
0.452857 0.685908 0.424994
0.749996 0.754482 0.386023
1.000000 0.797665 0.327123
0.625238 0.927977 0.751369
0.653620 0.927947 0.753658
0.698390 0.919982 0.731228
0.783597 0.932128 0.720943
0.973236 0.979126 0.691859
0.024170 0.041016 0.117037
0.137087 0.029053 0.131960
0.470039 0.000000 0.171084
0.784634 0.028809 0.188540
1.000000 0.353582 0.262089
0.035248 0.125765 0.147555
0.145541 0.154696 0.166262
0.463325 0.156954 0.167391
0.778927 0.226688 0.176974
1.000000 0.413489 0.255375
0.080446 0.414832 0.297490
0.209689 0.416388 0.299260
0.443671 0.463355 0.246708
0.764889 0.473610 0.119356
1.000000 0.573877 0.229740
0.310643 0.705318 0.523949
0.385412 0.705501 0.526787
0.470436 0.687068 0.466560
0.742733 0.747097 0.438422
1.000000 0.790188 0.378912
0.617609 0.925597 0.758267
0.646540 0.925475 0.760311
0.728298 0.930999 0.767269
0.791653 0.936858 0.742153
0.973602 0.979675 0.712734
0.000000 0.097017 0.310674
0.182528 0.092348 0.343999
0.460029 0.008179 0.378820
0.781369 0.214237 0.456306
0.984070 0.425696 0.538506
0.057557 0.176394 0.310155
0.180331 0.196567 0.348699
0.464515 0.225559 0.403937
0.769528 0.314427 0.465858
0.987030 0.458534 0.530205
0.020569 0.375067 0.390356
0.191226 0.391333 0.400916
0.442695 0.447639 0.444068
0.750362 0.483040 0.455024
0.991791 0.571069 0.499886
0.295415 0.704829 0.603113
0.371984 0.700374 0.599847
0.544579 0.697749 0.601221
0.733700 0.736049 0.572351
0.994354 0.761837 0.490883
0.590814 0.914611 0.781765
0.622705 0.917845 0.785580
0.712245 0.925963 0.794034
0.787961 0.930938 0.769955
0.967376 0.974151 0.754574
0.135042 0.206302 0.583429
0.279454 0.194491 0.604120
0.562005 0.208438 0.656153
0.756039 0.278141 0.654871
0.965850 0.497719 0.715846
0.150912 0.267124 0.582300
0.269902 0.275914 0.598322
0.552911 0.318364 0.657435
0.749874 0.371374 0.660853
0.960967 0.531121 0.718441
0.126986 0.413916 0.561517
0.214908 0.416388 0.561089
0.483345 0.477790 0.632471
0.738705 0.557733 0.685634
0.960815 0.631159 0.736568
0.263401 0.648402 0.662165
0.331182 0.649714 0.662287
0.505486 0.666407 0.674739
0.714900 0.710201 0.709651
0.974853 0.745571 0.723568
0.562005 0.908843 0.837369
0.595209 0.912200 0.840909
0.688472 0.922210 0.849088
0.812284 0.936889 0.855497
0.963958 0.969085 0.830869
0.449897 0.470161 0.837827
0.505608 0.465095 0.841337
0.658900 0.450111 0.854765
0.836423 0.455604 0.873136
0.944182 0.505272 0.844907
0.461372 0.473976 0.841123
0.511894 0.473701 0.844205
0.654505 0.481636 0.855070
0.833585 0.509941 0.874235
0.942321 0.543175 0.848600
0.425757 0.591577 0.833890
0.464454 0.585779 0.838926
0.615717 0.591638 0.853300
0.813962 0.626947 0.877684
0.942382 0.650385 0.866453
0.477272 0.745144 0.857755
0.497261 0.741512 0.856107
0.565393 0.729854 0.853361
0.754116 0.741756 0.880888
0.952148 0.803677 0.907958
0.583215 0.900908 0.914763
0.600855 0.901976 0.915648
0.665431 0.907988 0.920775
0.781338 0.921935 0.931579
0.963684 0.962371 0.962432
