data/fiter_cube/12898295/1023046/file.cube
# Created by Adobe Lightroom plugin Export LUT (1.17.0)
# www.johnrellis.com/lightroom/exportlut.htm
# Preset: 经典婚礼摄影_08 云集
# Color profile: C:\Program Files (x86)\Common Files\Adobe\Color\Profiles\Recommended\AdobeRGB1998.icc
LUT_3D_SIZE 8
DOMAIN_MIN 0.000000 0.000000 0.000000
DOMAIN_MAX 0.903226 0.903226 0.903226
0.000000 0.000000 0.000000
0.080903 0.006470 0.019959
0.203311 0.000000 0.047364
0.400153 0.000000 0.036530
0.602228 0.000000 0.000000
0.785458 0.000000 0.000000
0.916258 0.216190 0.099428
1.000000 0.373724 0.230869
0.026673 0.067079 0.065583
0.073976 0.073762 0.056062
0.197177 0.065156 0.030610
0.380682 0.000000 0.013825
0.582238 0.000000 0.000000
0.763210 0.041291 0.000000
0.898589 0.230228 0.048310
1.000000 0.377050 0.203708
0.037995 0.169223 0.119081
0.076173 0.171359 0.114595
0.175235 0.197635 0.085878
0.381231 0.203677 0.000000
0.589380 0.205844 0.000000
0.765225 0.256107 0.000000
0.913603 0.352911 0.000000
1.000000 0.455818 0.171969
0.057252 0.325444 0.199496
0.104585 0.324834 0.198215
0.158083 0.316960 0.170901
0.376074 0.406409 0.135927
0.631922 0.442451 0.000000
0.773983 0.430610 0.000000
0.909422 0.474922 0.000000
1.000000 0.540368 0.117403
0.130068 0.511589 0.317998
0.167056 0.510155 0.315984
0.231876 0.504112 0.292454
0.302464 0.484749 0.253849
0.560052 0.576715 0.211856
0.762844 0.601404 0.120821
0.890593 0.599664 0.000000
1.000000 0.638239 0.000000
0.256321 0.666133 0.454017
0.292332 0.675013 0.463172
0.364477 0.671229 0.459663
0.382025 0.656947 0.393286
0.495369 0.656397 0.368811
0.714656 0.720668 0.344762
0.893217 0.754788 0.305638
1.000000 0.768307 0.262852
0.441169 0.803250 0.604028
0.459419 0.804715 0.606806
0.503868 0.800259 0.605158
0.539727 0.795285 0.582513
0.568109 0.781399 0.538659
0.679866 0.803098 0.528252
0.844205 0.847105 0.511437
0.992798 0.878233 0.498299
0.625238 0.927977 0.751369
0.633326 0.927642 0.751644
0.663661 0.928618 0.755276
0.716915 0.934051 0.766171
0.702510 0.922667 0.712795
0.763943 0.927367 0.718349
0.860624 0.957916 0.716640
0.973236 0.979126 0.691859
0.013703 0.016571 0.071839
0.068635 0.012238 0.073426
0.181521 0.000000 0.089113
0.368383 0.000000 0.094270
0.573907 0.000000 0.086946
0.752010 0.000000 0.084535
0.889403 0.188876 0.108003
1.000000 0.348730 0.202579
0.022766 0.062654 0.081392
0.073243 0.072328 0.089906
0.183200 0.072786 0.092866
0.363439 0.000000 0.091859
0.565454 0.000000 0.082521
0.741634 0.000000 0.076051
0.876371 0.209079 0.094484
0.997406 0.352270 0.176150
0.040711 0.163058 0.133547
0.089509 0.169680 0.139101
0.172946 0.191104 0.119814
0.362249 0.190890 0.078767
0.564569 0.193973 0.062379
0.738399 0.235264 0.034363
0.880858 0.318364 0.074464
1.000000 0.427192 0.164828
0.065309 0.313268 0.209110
0.110689 0.315618 0.210758
0.167391 0.314580 0.189761
0.345983 0.374060 0.160891
0.578393 0.395514 0.075807
0.730861 0.391272 0.000000
0.874052 0.439246 0.000000
1.000000 0.513420 0.133394
0.135348 0.503807 0.327581
0.168734 0.500938 0.324376
0.247349 0.494911 0.311864
0.291752 0.462409 0.259953
0.531609 0.549126 0.223514
0.738766 0.578302 0.146914
0.871519 0.579095 0.000000
1.000000 0.621729 0.073701
0.247257 0.653590 0.452247
0.271946 0.653468 0.451789
0.344182 0.651118 0.449134
0.370916 0.641352 0.390723
0.481666 0.640833 0.370306
0.706386 0.712459 0.356573
0.884428 0.746181 0.318151
1.000000 0.756771 0.266331
0.417456 0.787503 0.591302
0.429206 0.784817 0.588800
0.478370 0.782620 0.589319
0.530755 0.781704 0.577935
0.558495 0.771664 0.534173
0.666987 0.790860 0.522545
0.831327 0.834226 0.503990
0.980438 0.864927 0.486915
0.609705 0.918578 0.742824
0.620142 0.919646 0.744747
0.652216 0.921324 0.749203
0.707393 0.927398 0.760769
0.718929 0.931701 0.731472
0.769192 0.931182 0.726864
0.856931 0.954192 0.716762
0.968048 0.975006 0.690822
0.019776 0.050935 0.139315
0.074708 0.041840 0.147463
0.172763 0.026001 0.159457
0.376379 0.000000 0.191135
0.574731 0.000000 0.207889
0.756252 0.013275 0.228489
0.894285 0.226352 0.252140
1.000000 0.369177 0.306493
0.042756 0.081758 0.146670
0.081819 0.087617 0.157748
0.174228 0.091798 0.169375
0.364477 0.077974 0.194888
0.568231 0.000000 0.207004
0.746151 0.115297 0.220768
0.885100 0.243320 0.241764
1.000000 0.377752 0.296330
0.034333 0.153902 0.174594
0.085237 0.163210 0.180453
0.178256 0.189944 0.197269
0.358709 0.197482 0.198398
0.574243 0.210727 0.204440
0.744137 0.252354 0.211154
0.882353 0.330144 0.231327
1.000000 0.432685 0.286961
0.015503 0.323827 0.260960
0.105715 0.330144 0.265141
0.218448 0.341436 0.272374
0.356695 0.376287 0.247929
0.575830 0.381994 0.193698
0.738735 0.397650 0.187930
0.880674 0.448066 0.212955
1.000000 0.520470 0.274083
0.123659 0.507012 0.370459
0.170535 0.508141 0.371923
0.274083 0.508751 0.373449
0.334997 0.490486 0.330297
0.543481 0.556115 0.312169
0.737118 0.573907 0.252354
0.870817 0.569512 0.171145
1.000000 0.621454 0.244785
0.249363 0.656428 0.485969
0.278965 0.656672 0.487098
0.355200 0.653864 0.486091
0.421607 0.645106 0.460121
0.478920 0.627375 0.411963
0.698146 0.703700 0.412634
0.875151 0.737697 0.381964
1.000000 0.753323 0.334966
0.425422 0.792111 0.616785
0.439796 0.790433 0.615839
0.485908 0.786069 0.613916
0.557275 0.782528 0.615137
0.569055 0.772000 0.562097
0.665736 0.785641 0.552331
0.834745 0.837736 0.550378
0.986389 0.872923 0.542565
0.604761 0.918212 0.752743
0.611139 0.917021 0.751583
0.641810 0.917144 0.753902
0.702449 0.926055 0.768582
0.730526 0.929412 0.751797
0.772000 0.931853 0.739742
0.857939 0.954650 0.734401
0.971160 0.978363 0.714199
0.000000 0.078584 0.242741
0.080873 0.073579 0.255955
0.213230 0.067079 0.288304
0.355718 0.000000 0.295079
0.585046 0.000000 0.342412
0.747127 0.138949 0.373449
0.873289 0.267369 0.411902
0.993561 0.381964 0.448371
0.034028 0.109621 0.255772
0.092683 0.113313 0.264744
0.214878 0.119875 0.294987
0.358068 0.110933 0.304112
0.584527 0.126101 0.350317
0.740658 0.185306 0.374609
0.868711 0.283024 0.405493
0.991760 0.390295 0.441321
0.047974 0.174533 0.253330
0.091554 0.181094 0.257023
0.197269 0.210025 0.295048
0.355261 0.231907 0.324468
0.577478 0.263798 0.369726
0.738521 0.304723 0.394751
0.881376 0.374060 0.418524
1.000000 0.452888 0.447974
0.008850 0.294011 0.308934
0.094697 0.301396 0.313787
0.206668 0.325139 0.330480
0.354833 0.364446 0.360327
0.557061 0.378851 0.364233
0.725978 0.405921 0.371191
0.870085 0.454139 0.389929
0.998810 0.525109 0.431647
0.092714 0.515282 0.445502
0.154849 0.518853 0.448371
0.277623 0.523613 0.451606
0.409461 0.525353 0.452918
0.547295 0.554345 0.427863
0.726223 0.554803 0.370520
0.869627 0.571099 0.365637
1.000000 0.622065 0.413001
0.257176 0.670863 0.549279
0.296513 0.677455 0.556695
0.376349 0.672755 0.553887
0.477699 0.667964 0.552056
0.520134 0.645808 0.502892
0.702480 0.706294 0.509361
0.870115 0.731899 0.475715
1.000000 0.742061 0.419348
0.424598 0.794736 0.651850
0.443366 0.795529 0.653559
0.497963 0.796109 0.657038
0.571771 0.796170 0.660395
0.618677 0.789944 0.636408
0.673030 0.785245 0.606165
0.836545 0.839292 0.610224
0.986389 0.872404 0.598260
0.607080 0.922545 0.777859
0.616480 0.923430 0.779049
0.643824 0.924224 0.780026
0.693355 0.927092 0.784573
0.755642 0.930388 0.791257
0.777127 0.934142 0.762478
0.856931 0.953399 0.760220
0.973236 0.980468 0.746029
0.000000 0.119753 0.384741
0.098421 0.116030 0.396857
0.236820 0.115145 0.425360
0.423468 0.090822 0.470344
0.563043 0.092378 0.469642
0.749752 0.233860 0.521355
0.868894 0.329686 0.546990
0.979278 0.446296 0.594415
0.044739 0.146456 0.391485
0.112123 0.150393 0.402228
0.240116 0.156924 0.430152
0.427222 0.155550 0.476600
0.564324 0.162142 0.476661
0.747768 0.271458 0.525872
0.867491 0.353887 0.550835
0.978424 0.459693 0.596399
0.064210 0.215274 0.375525
0.112184 0.223270 0.389288
0.226322 0.241245 0.423621
0.415625 0.274540 0.481727
0.560540 0.290715 0.492164
0.733455 0.358618 0.532158
0.858183 0.415259 0.556420
0.972961 0.494270 0.596521
0.059693 0.307164 0.398138
0.108614 0.311742 0.400793
0.207340 0.327276 0.410437
0.375006 0.380529 0.471595
0.555169 0.426917 0.516869
0.720790 0.466987 0.549310
0.851041 0.500969 0.569238
0.978943 0.542046 0.585412
0.087373 0.455909 0.471931
0.139254 0.460304 0.475013
0.248966 0.473152 0.483497
0.384436 0.496590 0.500938
0.527428 0.528252 0.525811
0.699489 0.542321 0.529168
0.848600 0.570001 0.539178
0.983734 0.615167 0.561547
0.206821 0.642206 0.582971
0.243778 0.645075 0.585748
0.341863 0.652430 0.593164
0.463874 0.661769 0.602869
0.563348 0.654841 0.594324
0.687098 0.688380 0.585992
0.853361 0.702480 0.547082
0.995148 0.724849 0.545739
0.414557 0.793729 0.694301
0.430518 0.792630 0.693629
0.483772 0.791409 0.693782
0.559380 0.792538 0.695888
0.638087 0.792782 0.694392
0.673945 0.776791 0.653346
0.828397 0.830381 0.663355
0.979675 0.858213 0.641260
0.583124 0.912596 0.794797
0.591180 0.912413 0.794644
0.619135 0.912779 0.794797
0.675319 0.922728 0.804501
0.735622 0.927031 0.807187
0.783688 0.932280 0.794400
0.845487 0.942809 0.783841
0.967498 0.974060 0.774197
0.109926 0.189639 0.553338
0.169100 0.186404 0.560723
0.297215 0.178592 0.578149
0.466407 0.179934 0.610163
0.623346 0.183993 0.638941
0.727871 0.247349 0.627222
0.867247 0.402106 0.666011
0.971557 0.493843 0.697902
0.129458 0.201907 0.549126
0.173770 0.203525 0.553887
0.291508 0.207889 0.571923
0.458839 0.215946 0.605524
0.620081 0.229252 0.638178
0.723140 0.279179 0.626398
0.863859 0.419409 0.666590
0.969482 0.503349 0.697993
0.125490 0.274876 0.545037
0.164797 0.276310 0.550164
0.281498 0.288182 0.569421
0.453254 0.316411 0.610559
0.626215 0.354772 0.652003
0.722530 0.382513 0.639612
0.861234 0.485664 0.679164
0.968688 0.544213 0.706081
0.105104 0.353735 0.519982
0.139498 0.354314 0.519158
0.248783 0.374517 0.547936
0.427527 0.423224 0.608209
0.627344 0.493935 0.669459
0.728176 0.514611 0.668025
0.862333 0.574609 0.702174
0.971710 0.606073 0.720607
0.143435 0.474830 0.566857
0.176333 0.476844 0.567895
0.262150 0.483040 0.570733
0.372320 0.492805 0.575769
0.550835 0.546838 0.630732
0.709957 0.603479 0.675227
0.847898 0.636042 0.703639
0.967681 0.658442 0.719203
0.215244 0.607294 0.621515
0.246433 0.611536 0.625208
0.326665 0.617914 0.629877
0.434943 0.628779 0.637964
0.552789 0.644709 0.649805
0.681239 0.677089 0.676234
0.839384 0.697230 0.686427
0.981323 0.725093 0.698421
0.379431 0.776974 0.728359
0.402258 0.779904 0.731563
0.465309 0.784695 0.737057
0.554925 0.795438 0.748318
0.650477 0.808682 0.760586
0.726986 0.804593 0.751492
0.829068 0.829007 0.738186
0.984894 0.844663 0.703639
0.571801 0.912871 0.831785
0.579797 0.912566 0.831388
0.608392 0.912840 0.831296
0.658228 0.917388 0.834745
0.719295 0.923064 0.837430
0.791928 0.931609 0.841245
0.842130 0.937102 0.822263
0.965637 0.971160 0.819059
0.254063 0.292515 0.696132
0.289708 0.291630 0.700618
0.389166 0.282383 0.711543
0.520775 0.279210 0.729397
0.664637 0.306584 0.754604
0.767239 0.311254 0.762417
0.841642 0.380774 0.740780
0.955596 0.516533 0.773892
0.268956 0.290196 0.696315
0.301396 0.289006 0.700343
0.388678 0.291752 0.709102
0.514153 0.300999 0.725277
0.658076 0.329320 0.750790
0.762753 0.335821 0.759915
0.837064 0.396307 0.738674
0.951843 0.522606 0.771664
0.261326 0.351812 0.696620
0.290105 0.353491 0.699062
0.378332 0.359991 0.707942
0.506493 0.376593 0.725978
0.649989 0.409155 0.751553
0.763149 0.427955 0.766842
0.838285 0.470375 0.749844
0.954406 0.570550 0.783139
0.234134 0.435828 0.681605
0.258640 0.435828 0.684535
0.343389 0.442054 0.699702
0.480476 0.464240 0.721492
0.632837 0.504234 0.751186
0.766140 0.545953 0.780453
0.840909 0.566155 0.768185
0.957000 0.634211 0.798489
0.234104 0.526177 0.681544
0.251011 0.524773 0.680232
0.305150 0.521355 0.677455
0.404913 0.525109 0.688045
0.581140 0.569970 0.734310
0.754879 0.638056 0.786343
0.838193 0.652461 0.783993
0.957397 0.698421 0.813077
0.299260 0.638483 0.718379
0.315679 0.638758 0.718532
0.367407 0.639582 0.718990
0.443458 0.640925 0.719966
0.532616 0.640131 0.718746
0.695216 0.687404 0.765560
0.841489 0.747036 0.810239
0.961456 0.769741 0.831083
0.389593 0.751431 0.764614
0.404608 0.752804 0.765835
0.450111 0.755612 0.768063
0.519005 0.761257 0.772580
0.603052 0.769314 0.778683
0.702419 0.784176 0.790005
0.818143 0.813291 0.813291
0.970642 0.831998 0.821988
0.519921 0.890684 0.850614
0.530297 0.891691 0.851652
0.568292 0.897673 0.857542
0.625086 0.905577 0.864805
0.700130 0.917113 0.875273
0.787900 0.933043 0.889128
0.867124 0.944335 0.892302
0.964874 0.968261 0.879667
0.449897 0.470161 0.837827
0.467872 0.469429 0.839322
0.522820 0.463416 0.842588
0.609155 0.455543 0.850034
0.711147 0.443397 0.859983
0.817777 0.456916 0.872374
0.890471 0.443610 0.873594
0.944182 0.505272 0.844907
0.452399 0.469001 0.837461
0.469856 0.468299 0.838956
0.524254 0.463111 0.842588
0.608667 0.454505 0.849454
0.708644 0.451301 0.858946
0.814694 0.471290 0.871305
0.888029 0.458350 0.872587
0.942260 0.514366 0.844480
0.457191 0.485328 0.840635
0.472908 0.485969 0.841733
0.521935 0.485512 0.843656
0.604608 0.492348 0.851194
0.701930 0.501396 0.859434
0.807950 0.521050 0.871641
0.885283 0.513085 0.874998
0.941375 0.553948 0.849424
0.434638 0.551873 0.839567
0.450568 0.552544 0.841825
0.500008 0.551354 0.845121
0.585260 0.557183 0.851225
0.687556 0.568688 0.860716
0.797116 0.589471 0.874510
0.883360 0.591638 0.882109
0.942321 0.615442 0.860105
0.418921 0.632746 0.828336
0.430884 0.632227 0.830442
0.467781 0.626856 0.835111
0.535088 0.619104 0.846555
0.650690 0.630091 0.858946
0.773342 0.653803 0.874815
0.879484 0.675990 0.890898
0.943664 0.690272 0.875303
0.459815 0.719783 0.848722
0.465614 0.718257 0.847898
0.487098 0.713680 0.845975
0.525017 0.705928 0.843961
0.588037 0.695399 0.846342
0.730922 0.716945 0.875059
0.877531 0.769192 0.906645
0.950530 0.781003 0.901061
0.516106 0.810636 0.878019
0.521569 0.810025 0.877684
0.540917 0.808469 0.877073
0.577386 0.807218 0.877623
0.630091 0.805173 0.878599
0.699031 0.801480 0.879698
0.834318 0.826596 0.906706
0.958587 0.873411 0.931640
0.583215 0.900908 0.914763
0.588281 0.901152 0.914977
0.606958 0.902434 0.916045
0.641871 0.905638 0.918822
0.692988 0.910765 0.923033
0.761318 0.919005 0.929381
0.849271 0.933623 0.940307
0.963684 0.962371 0.962432
