data/fiter_cube/28334299/1023165/file.cube
# Created by Adobe Lightroom plugin Export LUT (1.17.0)
# www.johnrellis.com/lightroom/exportlut.htm
# Preset: 梦幻人像_04 云集
# Color profile: C:\Program Files (x86)\Common Files\Adobe\Color\Profiles\Recommended\AdobeRGB1998.icc
LUT_3D_SIZE 5
DOMAIN_MIN 0.000000 0.000000 0.000000
DOMAIN_MAX 0.903226 0.903226 0.903226
0.000000 0.000000 0.000000
0.262974 0.011810 0.003388
0.598566 0.063050 0.000000
0.859983 0.162203 0.122042
1.000000 0.267124 0.237400
0.099886 0.199954 0.117586
0.218082 0.219059 0.111818
0.585016 0.287419 0.078645
0.849210 0.314611 0.155001
1.000000 0.371740 0.275029
0.221286 0.444373 0.268711
0.275547 0.424567 0.273533
0.497719 0.510094 0.271489
0.820768 0.563500 0.270909
1.000000 0.578759 0.370886
0.381964 0.674708 0.454627
0.419989 0.667872 0.462837
0.530541 0.638972 0.527947
0.702235 0.723629 0.480110
0.971771 0.784176 0.523186
0.590387 0.881865 0.674464
0.609064 0.877714 0.678279
0.659876 0.855924 0.691859
0.760189 0.871427 0.744778
0.908812 0.930297 0.733059
0.000000 0.035950 0.181430
0.218997 0.000000 0.208286
0.549615 0.000000 0.230961
0.818845 0.089418 0.250675
1.000000 0.254948 0.317174
0.000000 0.211032 0.207553
0.228214 0.222202 0.216556
0.555352 0.246830 0.235813
0.814817 0.287785 0.270146
1.000000 0.359747 0.342351
0.176059 0.456916 0.299229
0.290806 0.450202 0.318761
0.478859 0.488045 0.315953
0.801572 0.549065 0.348791
1.000000 0.581994 0.437629
0.374060 0.681971 0.475257
0.432227 0.677150 0.492927
0.535851 0.647486 0.540032
0.699886 0.719966 0.509819
0.970184 0.783810 0.555444
0.591241 0.885893 0.687007
0.609979 0.881682 0.689357
0.674128 0.871366 0.712184
0.769772 0.875212 0.763119
0.912535 0.933135 0.750301
0.000000 0.066773 0.456214
0.215763 0.000000 0.464088
0.476295 0.000000 0.477333
0.752071 0.000000 0.484749
0.995148 0.222721 0.511955
0.000000 0.221408 0.474769
0.188754 0.186007 0.481819
0.489448 0.054292 0.491798
0.755734 0.205905 0.486732
0.996521 0.358312 0.532555
0.000000 0.479438 0.488899
0.177188 0.484993 0.493812
0.488991 0.489357 0.492897
0.765194 0.536004 0.539086
0.991089 0.578759 0.581659
0.184909 0.702144 0.519738
0.307866 0.696223 0.526940
0.545861 0.683467 0.586206
0.701900 0.718105 0.596857
0.971130 0.785275 0.655238
0.504143 0.893248 0.683864
0.551751 0.893278 0.698054
0.671748 0.887266 0.738308
0.775540 0.864073 0.792142
0.909575 0.928374 0.777371
0.000000 0.125338 0.713405
0.175204 0.000000 0.713405
0.435431 0.000000 0.713680
0.694636 0.000000 0.714199
0.936004 0.000000 0.703853
0.000000 0.200504 0.717769
0.160281 0.175021 0.717952
0.424689 0.000000 0.720455
0.693874 0.000000 0.713588
0.933867 0.163760 0.701778
0.179110 0.483253 0.721157
0.299016 0.492409 0.724483
0.437995 0.444251 0.726619
0.695613 0.364538 0.715816
0.946502 0.471138 0.717952
0.000000 0.701381 0.723873
0.216342 0.701686 0.723415
0.464271 0.708217 0.727108
0.697139 0.705623 0.718898
0.962799 0.762142 0.774319
0.238224 0.920043 0.739712
0.334783 0.918883 0.744320
0.538293 0.916442 0.763577
0.773495 0.902739 0.820157
0.914336 0.928801 0.838163
0.000000 0.266209 0.924620
0.101198 0.226383 0.925505
0.395148 0.000000 0.927398
0.644648 0.000000 0.927489
0.906493 0.000000 0.925261
0.000000 0.261326 0.925109
0.122774 0.222354 0.925963
0.393713 0.000000 0.927886
0.635554 0.000000 0.928252
0.907164 0.000000 0.925811
0.195712 0.482185 0.925353
0.243229 0.465644 0.927611
0.390112 0.401434 0.930571
0.611627 0.220462 0.932341
0.911986 0.125399 0.929870
0.343999 0.711269 0.922118
0.397833 0.713741 0.923095
0.545251 0.724331 0.928038
0.660304 0.670924 0.936431
0.920317 0.589715 0.936217
0.278630 0.907012 0.926299
0.335790 0.908568 0.927337
0.491005 0.915282 0.931853
0.704952 0.925383 0.937835
0.924224 0.929534 0.937072
