data/fiter_cube/28334299/1023165/file.cube
# Created by Adobe Lightroom plugin Export LUT (1.17.0)
# www.johnrellis.com/lightroom/exportlut.htm
# Preset: 梦幻人像_04 云集
# Color profile: C:\Program Files (x86)\Common Files\Adobe\Color\Profiles\Recommended\AdobeRGB1998.icc
LUT_3D_SIZE 8
DOMAIN_MIN 0.000000 0.000000 0.000000
DOMAIN_MAX 0.903226 0.903226 0.903226
0.000000 0.000000 0.000000
0.130098 0.011658 0.007996
0.307958 0.012940 0.000000
0.505089 0.033051 0.000000
0.673396 0.088014 0.015473
0.827237 0.147890 0.106630
0.943084 0.203037 0.166751
1.000000 0.267124 0.237400
0.060060 0.101228 0.065064
0.114229 0.113863 0.063966
0.299779 0.142824 0.014984
0.488930 0.159792 0.002014
0.660609 0.177218 0.048615
0.807767 0.205631 0.109407
0.927886 0.240574 0.165957
1.000000 0.292271 0.237003
0.115999 0.230686 0.136416
0.145846 0.221408 0.140017
0.250858 0.252567 0.130343
0.475807 0.310979 0.099947
0.670802 0.335149 0.111421
0.810727 0.343816 0.151400
0.939696 0.365454 0.211154
1.000000 0.396216 0.281712
0.185489 0.365087 0.220432
0.204166 0.357305 0.219089
0.273228 0.340490 0.253361
0.421332 0.429633 0.225010
0.652888 0.491615 0.200381
0.819211 0.503136 0.227756
0.935058 0.504265 0.272374
1.000000 0.516472 0.336553
0.257481 0.519860 0.317144
0.272313 0.514794 0.315618
0.322148 0.500053 0.324468
0.407813 0.509972 0.357916
0.554498 0.570001 0.317937
0.740871 0.603388 0.296727
0.899138 0.630060 0.344945
1.000000 0.643427 0.414282
0.347387 0.639796 0.418433
0.366796 0.644373 0.426978
0.405280 0.633967 0.434546
0.475868 0.614984 0.475563
0.540368 0.641382 0.476844
0.671931 0.692287 0.445533
0.845701 0.731167 0.446632
0.982513 0.762203 0.507408
0.467994 0.760922 0.545708
0.477729 0.760830 0.548791
0.501579 0.751919 0.551629
0.544213 0.739834 0.567620
0.606622 0.721035 0.611383
0.668360 0.768215 0.595789
0.789120 0.812497 0.576318
0.935698 0.840940 0.586572
0.590387 0.881865 0.674464
0.595636 0.880430 0.675166
0.615900 0.876890 0.680537
0.653712 0.873472 0.696986
0.691463 0.850767 0.713802
0.746792 0.860502 0.745022
0.813352 0.901366 0.742702
0.908812 0.930297 0.733059
0.000000 0.016602 0.090639
0.111543 0.000000 0.104860
0.281834 0.000000 0.115816
0.473060 0.000000 0.121035
0.650080 0.000000 0.131838
0.795254 0.121675 0.159670
0.918730 0.185306 0.198001
1.000000 0.254032 0.254154
0.006775 0.105592 0.103029
0.121431 0.117128 0.113069
0.283146 0.127749 0.121645
0.469001 0.139376 0.127504
0.647517 0.158541 0.138155
0.786709 0.189639 0.163119
0.907622 0.226780 0.197971
1.000000 0.279026 0.251987
0.097078 0.236698 0.152926
0.159731 0.234897 0.166445
0.251682 0.251652 0.163272
0.466255 0.300511 0.156802
0.647944 0.319432 0.165988
0.785702 0.328771 0.190066
0.911406 0.347601 0.229038
1.000000 0.381415 0.288701
0.180117 0.364355 0.231174
0.209964 0.361028 0.235416
0.274876 0.344030 0.259373
0.400275 0.406531 0.234897
0.620661 0.463294 0.214176
0.783963 0.477333 0.241337
0.905730 0.483345 0.277653
1.000000 0.501671 0.337285
0.260807 0.521111 0.330388
0.274754 0.514672 0.326757
0.320745 0.497688 0.328710
0.398840 0.493629 0.359289
0.537560 0.551568 0.318364
0.724575 0.587793 0.300114
0.885740 0.618677 0.352789
1.000000 0.634882 0.418402
0.343725 0.634211 0.421118
0.355627 0.631739 0.421546
0.393896 0.622248 0.427222
0.464881 0.606226 0.465797
0.533318 0.631250 0.476631
0.666529 0.686244 0.450538
0.839750 0.725460 0.451209
0.976440 0.755764 0.508537
0.456306 0.749569 0.538018
0.462135 0.745693 0.536675
0.488411 0.738766 0.540887
0.533806 0.730495 0.558618
0.600549 0.713649 0.606653
0.660517 0.758938 0.592126
0.778317 0.801358 0.569757
0.925902 0.830381 0.577081
0.580987 0.875303 0.668544
0.587762 0.875090 0.670619
0.609064 0.872282 0.676417
0.647852 0.869566 0.693019
0.700893 0.860227 0.724697
0.751583 0.862974 0.752255
0.811124 0.898955 0.743038
0.904784 0.926360 0.729671
0.000000 0.043610 0.218296
0.112367 0.000000 0.226688
0.256229 0.000000 0.245518
0.432837 0.000000 0.265049
0.634119 0.000000 0.271336
0.789639 0.000000 0.281163
0.918395 0.174746 0.310491
1.000000 0.266819 0.351781
0.002228 0.112276 0.227451
0.107301 0.100679 0.236790
0.260990 0.055116 0.250248
0.434272 0.074311 0.260990
0.633570 0.000000 0.263890
0.781186 0.147402 0.281865
0.910307 0.220706 0.309636
1.000000 0.294102 0.352300
0.000000 0.245945 0.243229
0.112917 0.250919 0.247776
0.263066 0.256931 0.251530
0.448890 0.272831 0.265446
0.639918 0.295842 0.284886
0.780484 0.318395 0.304479
0.907256 0.347753 0.332280
1.000000 0.390448 0.376226
0.080842 0.390112 0.275334
0.153170 0.390997 0.278904
0.294011 0.388769 0.304936
0.413123 0.416846 0.305425
0.632807 0.468055 0.321599
0.779141 0.479744 0.349218
0.904601 0.493660 0.379400
1.000000 0.517388 0.425360
0.203250 0.534264 0.352728
0.242924 0.534112 0.358618
0.342138 0.527703 0.379522
0.425971 0.501335 0.416724
0.549187 0.561700 0.381506
0.734310 0.595300 0.372869
0.889006 0.628595 0.438025
0.999023 0.644404 0.486946
0.316045 0.644770 0.437598
0.344488 0.644099 0.446082
0.410498 0.636469 0.463966
0.469429 0.619471 0.481239
0.539239 0.626734 0.507897
0.663752 0.681880 0.484321
0.838987 0.724971 0.488777
0.978393 0.760525 0.553491
0.449714 0.761257 0.555749
0.466377 0.759060 0.561364
0.499184 0.750973 0.566705
0.540520 0.739437 0.575402
0.602716 0.721767 0.613245
0.664057 0.758297 0.613550
0.784298 0.806455 0.598230
0.935119 0.840299 0.612757
0.578363 0.881102 0.680262
0.587610 0.879118 0.682948
0.607385 0.874907 0.685512
0.649836 0.874632 0.702846
0.698817 0.865110 0.727230
0.756893 0.861784 0.765011
0.814633 0.900084 0.757778
0.908721 0.929381 0.747402
0.000000 0.061860 0.367468
0.105043 0.000000 0.373724
0.250553 0.000000 0.387915
0.401160 0.000000 0.396063
0.569818 0.000000 0.409949
0.740658 0.000000 0.419226
0.886381 0.073548 0.426795
1.000000 0.263218 0.460945
0.000000 0.105531 0.382757
0.099763 0.093050 0.386999
0.247044 0.000000 0.396826
0.406378 0.000000 0.401770
0.574975 0.000000 0.411200
0.739803 0.000000 0.417273
0.883665 0.168917 0.427710
1.000000 0.292638 0.462104
0.068879 0.257786 0.385992
0.137728 0.258518 0.389685
0.233890 0.228580 0.401678
0.413214 0.188174 0.409033
0.592767 0.235843 0.418097
0.753170 0.286625 0.433448
0.897307 0.357977 0.467628
1.000000 0.404181 0.491554
0.000000 0.396124 0.400061
0.059632 0.400183 0.403967
0.237552 0.410010 0.413214
0.417884 0.415167 0.414862
0.602411 0.443275 0.442267
0.748592 0.468086 0.466377
0.885801 0.494606 0.492317
1.000000 0.523980 0.522362
0.000000 0.563104 0.428046
0.032624 0.561425 0.427283
0.263188 0.558038 0.431922
0.450874 0.547570 0.472816
0.558251 0.567132 0.475257
0.740627 0.610285 0.504204
0.884794 0.636927 0.543084
0.993408 0.650233 0.569055
0.226810 0.667659 0.475593
0.269291 0.672297 0.484627
0.374090 0.665431 0.501091
0.498268 0.654444 0.539330
0.567468 0.633631 0.571557
0.672908 0.688960 0.549035
0.848875 0.731960 0.553765
0.981506 0.766812 0.621576
0.390753 0.774014 0.566186
0.413672 0.774044 0.572625
0.480598 0.772183 0.592981
0.559045 0.766323 0.618372
0.615412 0.750118 0.637507
0.678157 0.764279 0.656977
0.790249 0.810849 0.639155
0.941283 0.845457 0.653681
0.544366 0.894316 0.687831
0.557916 0.894255 0.692531
0.599908 0.891630 0.706722
0.653193 0.886564 0.723812
0.699611 0.876860 0.738399
0.763943 0.864164 0.781064
0.818692 0.900359 0.780026
0.912718 0.931975 0.771633
0.000000 0.075074 0.540276
0.059205 0.000000 0.542473
0.248081 0.000000 0.545129
0.390845 0.000000 0.551049
0.548577 0.000000 0.556481
0.691096 0.000000 0.546044
0.841794 0.000000 0.550896
0.981842 0.167178 0.566217
0.000000 0.097444 0.546136
0.075502 0.083436 0.550103
0.240574 0.000000 0.552941
0.387884 0.000000 0.554620
0.551354 0.000000 0.559472
0.692012 0.000000 0.545739
0.843473 0.000000 0.552300
0.981872 0.223880 0.569482
0.000000 0.257755 0.555413
0.000000 0.246494 0.558404
0.215640 0.216464 0.559564
0.377447 0.145968 0.563500
0.555016 0.083192 0.563775
0.687648 0.196872 0.540276
0.843931 0.265232 0.556756
0.979553 0.346014 0.577996
0.000000 0.406104 0.555932
0.122408 0.407355 0.558770
0.270634 0.413062 0.566735
0.384558 0.385290 0.572107
0.559686 0.343847 0.569451
0.697536 0.408301 0.558190
0.852750 0.451606 0.582422
0.985412 0.492439 0.602533
0.000000 0.549279 0.563622
0.000000 0.551019 0.565393
0.220310 0.554467 0.567926
0.396612 0.558373 0.569696
0.551019 0.554253 0.561303
0.709407 0.580682 0.587427
0.858305 0.605035 0.611353
0.981750 0.627375 0.633722
0.000000 0.677424 0.546075
0.000000 0.677790 0.545678
0.205966 0.673548 0.545983
0.404242 0.665980 0.559045
0.565423 0.651850 0.595148
0.666926 0.679652 0.605890
0.852445 0.735286 0.645136
0.979156 0.763149 0.689601
0.255192 0.787228 0.595544
0.287327 0.785611 0.597467
0.380499 0.781888 0.607630
0.499306 0.777981 0.630365
0.614740 0.769986 0.664363
0.684688 0.754147 0.696529
0.788083 0.806485 0.679225
0.945068 0.842588 0.692988
0.460395 0.898436 0.690486
0.474830 0.897459 0.692683
0.523156 0.894896 0.701839
0.610010 0.897612 0.729854
0.694881 0.889982 0.756863
0.756466 0.876646 0.782345
0.817411 0.894316 0.802243
0.911437 0.929198 0.792752
0.000000 0.114931 0.687922
0.000000 0.083986 0.687892
0.231968 0.000000 0.684291
0.372473 0.000000 0.684016
0.515618 0.000000 0.687098
0.669368 0.000000 0.687404
0.809873 0.000000 0.677058
0.949218 0.000000 0.679805
0.000000 0.093935 0.682277
0.011292 0.078035 0.682216
0.225071 0.000000 0.682429
0.365606 0.000000 0.682582
0.511070 0.000000 0.685359
0.667048 0.000000 0.684840
0.807767 0.000000 0.674434
0.948211 0.009735 0.679011
0.000000 0.243107 0.692958
0.000000 0.236362 0.692226
0.202029 0.211337 0.691402
0.355261 0.153292 0.695033
0.506889 0.000000 0.693782
0.671534 0.000000 0.689754
0.809964 0.129305 0.675135
0.951385 0.264103 0.684596
0.161501 0.424842 0.698360
0.189487 0.421759 0.699184
0.265476 0.409400 0.703517
0.371191 0.376959 0.710262
0.508690 0.306035 0.709285
0.682734 0.290562 0.702144
0.815885 0.375158 0.685420
0.960143 0.431037 0.699397
0.121340 0.543572 0.694697
0.177676 0.545129 0.695979
0.303258 0.551690 0.699641
0.448859 0.567651 0.704738
0.532250 0.538811 0.702235
0.674250 0.494484 0.693904
0.816098 0.539879 0.690242
0.964172 0.578271 0.710933
0.000000 0.667292 0.688563
0.048127 0.670130 0.691279
0.245060 0.673335 0.693660
0.398199 0.677180 0.695827
0.532280 0.678492 0.694636
0.668086 0.675837 0.688350
0.837919 0.713832 0.725978
0.969818 0.741176 0.752834
0.000000 0.806271 0.689357
0.000000 0.808133 0.690333
0.198642 0.809110 0.688899
0.371710 0.808225 0.690089
0.539513 0.801022 0.701564
0.697536 0.787442 0.735988
0.794797 0.809720 0.743496
0.956725 0.854795 0.782040
0.312016 0.915740 0.726253
0.335332 0.914702 0.727199
0.406012 0.912169 0.731685
0.507622 0.910979 0.743587
0.628443 0.906371 0.765072
0.752468 0.897490 0.802976
0.825101 0.887938 0.837858
0.914336 0.929534 0.828641
0.000000 0.173373 0.809873
0.000000 0.156558 0.810544
0.188388 0.061585 0.809934
0.354498 0.000000 0.808896
0.491371 0.000000 0.809354
0.631678 0.000000 0.806241
0.781399 0.000000 0.804044
0.924712 0.000000 0.797574
0.000000 0.163577 0.807950
0.000000 0.146273 0.808438
0.201938 0.017456 0.807980
0.349767 0.000000 0.807706
0.486336 0.000000 0.807828
0.627985 0.000000 0.804471
0.778988 0.000000 0.801572
0.921813 0.000000 0.794308
0.000000 0.234257 0.813443
0.000000 0.228092 0.813413
0.185519 0.204105 0.813413
0.335424 0.146426 0.814328
0.476570 0.000000 0.812619
0.623713 0.000000 0.808682
0.783505 0.000000 0.806180
0.925994 0.000000 0.796475
0.098939 0.409735 0.819577
0.137026 0.404395 0.819730
0.224857 0.385229 0.821073
0.339727 0.350103 0.821530
0.469215 0.284001 0.820005
0.616724 0.132082 0.816129
0.789792 0.169345 0.812619
0.929198 0.294347 0.798795
0.262547 0.560906 0.815824
0.291783 0.563287 0.816129
0.376745 0.572900 0.818540
0.436347 0.559289 0.822232
0.501549 0.510887 0.822812
0.615778 0.425788 0.819089
0.790280 0.416175 0.813199
0.929351 0.482582 0.799954
0.220859 0.668971 0.813718
0.254124 0.670375 0.814511
0.343999 0.675349 0.817105
0.454200 0.683345 0.821805
0.574243 0.694148 0.827756
0.652949 0.663050 0.826871
0.794766 0.613916 0.817838
0.936126 0.661616 0.812833
0.141238 0.789792 0.813535
0.188174 0.790921 0.814481
0.291844 0.793606 0.816403
0.406806 0.798062 0.819577
0.526574 0.802640 0.822354
0.658839 0.806485 0.823484
0.791806 0.801114 0.814817
0.950500 0.841215 0.853056
0.033936 0.920836 0.814817
0.127871 0.921324 0.814817
0.248997 0.924529 0.815976
0.364294 0.927947 0.814817
0.489113 0.930541 0.811887
0.667231 0.923857 0.827359
0.831998 0.911711 0.866209
0.919646 0.930846 0.877958
0.000000 0.266209 0.924620
0.000000 0.255467 0.925261
0.158480 0.211398 0.925750
0.321721 0.083101 0.926970
0.467628 0.000000 0.927550
0.609766 0.000000 0.927398
0.754665 0.000000 0.926970
0.906493 0.000000 0.925261
0.000000 0.263249 0.924102
0.000000 0.252476 0.924681
0.163943 0.208957 0.925383
0.322972 0.077974 0.926299
0.467750 0.000000 0.926909
0.606287 0.000000 0.927062
0.752346 0.000000 0.926268
0.905577 0.000000 0.924346
0.000000 0.260777 0.925017
0.000000 0.250126 0.925414
0.170962 0.206699 0.925689
0.320958 0.135042 0.927855
0.457130 0.000000 0.928618
0.596429 0.000000 0.928618
0.747860 0.000000 0.927733
0.907042 0.000000 0.925628
0.000000 0.385809 0.927642
0.000000 0.381567 0.928099
0.189792 0.363561 0.928588
0.315160 0.328099 0.930114
0.443519 0.261601 0.931548
0.582605 0.089174 0.932250
0.740139 0.000000 0.931609
0.910735 0.000000 0.928862
0.309575 0.571130 0.922484
0.319646 0.569024 0.923491
0.348486 0.557519 0.925780
0.387671 0.525689 0.930144
0.468177 0.478798 0.932036
0.578973 0.396094 0.933776
0.726467 0.224277 0.934600
0.913878 0.306920 0.931395
0.347692 0.684993 0.920897
0.364538 0.685817 0.921080
0.418067 0.688808 0.922210
0.499062 0.694697 0.924956
0.563134 0.683101 0.930236
0.620020 0.630579 0.935485
0.733852 0.541131 0.937957
0.919524 0.537224 0.935760
0.319951 0.789914 0.922667
0.336767 0.790341 0.922850
0.390082 0.791653 0.923857
0.472145 0.795041 0.926452
0.579187 0.802121 0.930297
0.707790 0.818082 0.935912
0.786374 0.795682 0.939910
0.921660 0.746548 0.936492
0.278630 0.907012 0.926299
0.296513 0.907378 0.926513
0.353216 0.909209 0.927794
0.439734 0.913054 0.930449
0.546960 0.917754 0.933410
0.671687 0.923735 0.936889
0.806332 0.930327 0.940398
0.924224 0.929534 0.937072
