data/fiter_cube/28334299/1023165/file.cube
# Created by Adobe Lightroom plugin Export LUT (1.17.0)
# www.johnrellis.com/lightroom/exportlut.htm
# Preset: 梦幻人像_04 云集
# Color profile: C:\Program Files (x86)\Common Files\Adobe\Color\Profiles\Recommended\AdobeRGB1998.icc
LUT_3D_SIZE 32
DOMAIN_MIN 0.0 0.0 0.0
DOMAIN_MAX 1.0 1.0 1.0
0.000000 0.000000 0.000000
0.021973 0.001007 0.001495
0.050568 0.003082 0.002716
0.087129 0.006744 0.006348
0.130098 0.011658 0.007996
0.174899 0.012085 0.009064
0.219120 0.012757 0.007141
0.262974 0.011810 0.003388
0.307958 0.012940 0.000000
0.354314 0.016449 0.000000
0.402869 0.016480 0.000000
0.453437 0.022278 0.000000
0.505089 0.033051 0.000000
0.554528 0.048096 0.000000
0.598566 0.063050 0.000000
0.637903 0.075959 0.000000
0.673396 0.088014 0.015473
0.712123 0.101747 0.048707
0.753902 0.117769 0.072602
0.791989 0.132876 0.089998
0.827237 0.147890 0.106630
0.859983 0.162203 0.122042
0.889769 0.175784 0.137240
0.917327 0.189578 0.152193
0.943084 0.203037 0.166751
0.967559 0.216739 0.182284
0.991302 0.231998 0.198581
1.000000 0.248600 0.217075
1.000000 0.267124 0.237400
1.000000 0.288457 0.261112
1.000000 0.313115 0.288701
1.000000 0.342107 0.320806
0.006806 0.015015 0.007263
0.018158 0.017823 0.007813
0.049500 0.023072 0.007630
0.087617 0.033295 0.009552
0.130037 0.043214 0.011933
0.174228 0.048737 0.010498
0.217899 0.050263 0.007599
0.261051 0.053773 0.004791
0.305455 0.054841 0.000000
0.351598 0.058808 0.000000
0.399512 0.059968 0.000000
0.449378 0.063386 0.000000
0.500511 0.068391 0.000000
0.549798 0.074861 0.000000
0.594049 0.082338 0.000000
0.633448 0.091432 0.000000
0.669093 0.101106 0.017029
0.707881 0.113313 0.049165
0.748379 0.126680 0.071473
0.785702 0.139773 0.088808
0.820615 0.152956 0.104829
0.853300 0.166171 0.119722
0.883360 0.179141 0.134554
0.911315 0.191440 0.149355
0.937469 0.204562 0.163912
0.962432 0.218021 0.178714
0.986755 0.232517 0.195254
1.000000 0.248783 0.213535
1.000000 0.266850 0.234134
1.000000 0.287602 0.257481
1.000000 0.311711 0.284520
1.000000 0.339910 0.316289
0.016449 0.035401 0.016144
0.026246 0.033600 0.021454
0.044984 0.043488 0.019074
0.085908 0.059907 0.016815
0.130190 0.067414 0.014954
0.173922 0.071809 0.013092
0.216861 0.074464 0.009918
0.259495 0.076143 0.006287
0.303380 0.078279 0.002106
0.349248 0.080201 0.000000
0.396765 0.082460 0.000000
0.446509 0.086122 0.000000
0.497444 0.089784 0.000000
0.546868 0.095583 0.000000
0.591058 0.101778 0.000000
0.630793 0.108827 0.000000
0.666438 0.116182 0.022675
0.705715 0.126650 0.053101
0.745296 0.138064 0.073030
0.782193 0.149905 0.089418
0.817044 0.161929 0.104738
0.849790 0.173953 0.119326
0.880003 0.185672 0.133944
0.908110 0.197452 0.148531
0.934447 0.209598 0.162936
0.959625 0.222171 0.178103
0.984253 0.236179 0.194217
1.000000 0.251743 0.212436
1.000000 0.269444 0.232700
1.000000 0.289799 0.256321
1.000000 0.313237 0.283207
1.000000 0.340978 0.314794
0.036286 0.071901 0.040803
0.047883 0.070863 0.042908
0.060212 0.070100 0.050996
0.080842 0.080415 0.042695
0.125216 0.092775 0.031403
0.174411 0.101045 0.020294
0.216953 0.104250 0.015595
0.259098 0.107057 0.011444
0.302464 0.109560 0.007111
0.347601 0.111849 0.000824
0.394659 0.115267 0.000000
0.443763 0.119081 0.000000
0.494179 0.123568 0.000000
0.543297 0.128237 0.000000
0.587701 0.132753 0.000000
0.627344 0.138338 0.008057
0.663142 0.143465 0.032258
0.703273 0.152224 0.060426
0.741238 0.160983 0.076295
0.776883 0.170138 0.090700
0.810971 0.179568 0.105135
0.843473 0.189548 0.119722
0.874205 0.199710 0.134127
0.903288 0.210605 0.148653
0.930938 0.221836 0.163088
0.957366 0.233768 0.179080
0.982879 0.247135 0.195712
1.000000 0.262242 0.214542
1.000000 0.278996 0.235080
1.000000 0.298222 0.258030
1.000000 0.320531 0.284672
1.000000 0.346685 0.315312
0.060060 0.101228 0.065064
0.064973 0.100252 0.065492
0.071992 0.098390 0.067475
0.084871 0.100435 0.071382
0.114229 0.113863 0.063966
0.161501 0.126345 0.050996
0.210300 0.135378 0.034821
0.257084 0.139895 0.020600
0.299779 0.142824 0.014984
0.344060 0.146456 0.010407
0.390570 0.150301 0.006226
0.438911 0.154788 0.002838
0.488930 0.159792 0.002014
0.538140 0.164858 0.003418
0.583154 0.169131 0.008942
0.623590 0.173129 0.023987
0.660609 0.177218 0.048615
0.702083 0.184543 0.067903
0.739193 0.191135 0.082216
0.774258 0.197848 0.095979
0.807767 0.205631 0.109407
0.839902 0.213474 0.123049
0.870542 0.221927 0.136995
0.899870 0.230838 0.151125
0.927886 0.240574 0.165957
0.954711 0.251102 0.181552
0.980438 0.263340 0.198032
1.000000 0.276707 0.216648
1.000000 0.292271 0.237003
1.000000 0.310155 0.259983
1.000000 0.330999 0.286015
1.000000 0.355871 0.316838
0.071321 0.133089 0.080812
0.076387 0.131930 0.080842
0.082277 0.130068 0.081270
0.096315 0.125856 0.087984
0.112642 0.133639 0.087007
0.148013 0.148074 0.077272
0.196445 0.159365 0.065522
0.245457 0.169833 0.052949
0.295598 0.176761 0.037324
0.343206 0.181643 0.027710
0.389136 0.186404 0.024720
0.436957 0.191684 0.023682
0.486519 0.197299 0.023072
0.535637 0.202274 0.025025
0.580652 0.206516 0.032136
0.621332 0.209964 0.049348
0.661982 0.214511 0.064790
0.701900 0.220005 0.077668
0.738399 0.225284 0.090669
0.773312 0.230594 0.103487
0.807004 0.236545 0.116762
0.839536 0.242741 0.129854
0.906981 0.269505 0.167056
0.933898 0.277745 0.181918
0.958923 0.286076 0.196902
0.982422 0.295415 0.212772
1.000000 0.305913 0.229435
1.000000 0.318090 0.247807
1.000000 0.332280 0.268498
1.000000 0.349310 0.291814
1.000000 0.369299 0.318486
1.000000 0.393133 0.349065
0.085939 0.169345 0.099977
0.090181 0.168185 0.099794
0.095827 0.166567 0.099916
0.107576 0.163272 0.102480
0.127108 0.157198 0.114412
0.146670 0.171878 0.106416
0.186404 0.186862 0.095064
0.236179 0.197238 0.082185
0.288426 0.210147 0.070436
0.342046 0.220584 0.065553
0.397955 0.229465 0.058778
0.448402 0.235782 0.054505
0.498024 0.241764 0.055238
0.545983 0.246616 0.056703
0.589105 0.249638 0.062287
0.629206 0.252079 0.069886
0.672724 0.257481 0.082399
0.711818 0.261570 0.093477
0.748196 0.265537 0.105776
0.783993 0.270237 0.118410
0.819760 0.276127 0.132631
0.855131 0.283055 0.147616
0.889067 0.291173 0.163699
0.920867 0.299504 0.180636
0.949950 0.308324 0.197848
0.975921 0.317357 0.214694
0.999542 0.327031 0.232242
1.000000 0.337896 0.250645
1.000000 0.350561 0.271092
1.000000 0.365759 0.294041
1.000000 0.383795 0.320043
1.000000 0.405829 0.350408
0.099886 0.199954 0.117586
0.103792 0.198978 0.117250
0.108705 0.197421 0.117159
0.118746 0.194430 0.118379
0.136355 0.188846 0.126314
0.153231 0.189639 0.132326
0.177157 0.204166 0.123293
0.218082 0.219059 0.111818
0.268315 0.229191 0.099641
0.322515 0.244755 0.087190
0.378332 0.258183 0.084413
0.436255 0.269780 0.080079
0.494453 0.279179 0.074708
0.542077 0.284459 0.074708
0.585016 0.287419 0.078645
0.630945 0.292546 0.086549
0.671321 0.295964 0.095979
0.708522 0.298436 0.105959
0.743893 0.300999 0.115785
0.779019 0.304417 0.127810
0.814237 0.308995 0.141024
0.849210 0.314611 0.155001
0.883024 0.321141 0.170169
0.914763 0.327977 0.186587
0.944060 0.335454 0.202976
0.970397 0.343114 0.219577
0.994476 0.351232 0.236637
1.000000 0.360540 0.254643
1.000000 0.371740 0.275029
1.000000 0.385290 0.297826
1.000000 0.401831 0.324010
1.000000 0.422034 0.354009
0.115999 0.230686 0.136416
0.119295 0.229770 0.136172
0.123842 0.228733 0.136202
0.132387 0.225742 0.136629
0.145846 0.221408 0.140017
0.166171 0.214847 0.152193
0.181643 0.222416 0.151064
0.208621 0.237217 0.142000
0.250858 0.252567 0.130343
0.302251 0.264469 0.118715
0.357855 0.280980 0.107912
0.416114 0.297032 0.103120
0.475807 0.310979 0.099947
0.534691 0.321447 0.095918
0.589715 0.330114 0.097444
0.632532 0.333562 0.103700
0.670802 0.335149 0.111421
0.706813 0.336614 0.119570
0.741299 0.337835 0.129000
0.775906 0.340337 0.139284
0.810727 0.343816 0.151400
0.845365 0.348241 0.164675
0.878904 0.353552 0.179294
0.910491 0.359319 0.195010
0.939696 0.365454 0.211154
0.966247 0.371527 0.227237
0.990570 0.378485 0.244144
1.000000 0.386419 0.261967
1.000000 0.396216 0.281712
1.000000 0.408026 0.304112
1.000000 0.422980 0.329992
1.000000 0.441382 0.359747
0.133059 0.261784 0.156130
0.135958 0.260838 0.155764
0.139467 0.259556 0.155612
0.147311 0.257053 0.155795
0.158724 0.253269 0.157473
0.176211 0.247532 0.165469
0.195010 0.241154 0.177676
0.211032 0.255528 0.170382
0.240726 0.270878 0.161227
0.284031 0.286534 0.149660
0.336278 0.299901 0.137331
0.393072 0.316716 0.127687
0.455909 0.336919 0.121065
0.521538 0.355993 0.120516
0.580468 0.367956 0.120729
0.631739 0.373999 0.122530
0.671778 0.375494 0.128267
0.707454 0.376135 0.135592
0.741665 0.376715 0.144442
0.775540 0.377905 0.154177
0.809201 0.380255 0.164706
0.842283 0.383062 0.176944
0.874388 0.386694 0.189792
0.904875 0.390723 0.204044
0.933562 0.395178 0.218723
0.960235 0.400214 0.234379
0.985138 0.405982 0.251072
1.000000 0.413153 0.269108
1.000000 0.421912 0.289372
1.000000 0.433051 0.312474
1.000000 0.447150 0.339055
1.000000 0.464607 0.369604
0.149416 0.292058 0.175326
0.152010 0.291447 0.175265
0.155245 0.290379 0.175082
0.162203 0.288273 0.175113
0.172305 0.284855 0.175998
0.185763 0.280308 0.179690
0.206058 0.273869 0.191806
0.222202 0.274815 0.197665
0.241886 0.290105 0.190005
0.274266 0.305974 0.180758
0.319341 0.322972 0.169528
0.376898 0.341497 0.158236
0.437781 0.360693 0.149935
0.503410 0.382879 0.140414
0.562951 0.398718 0.141726
0.615259 0.407599 0.144381
0.661891 0.411933 0.147738
0.704952 0.413886 0.152377
0.738705 0.413642 0.159762
0.772274 0.414191 0.168124
0.805600 0.415656 0.178256
0.838651 0.417853 0.189578
0.870634 0.420844 0.202609
0.901244 0.424079 0.216037
0.929870 0.427710 0.230716
0.956512 0.431586 0.245701
0.981353 0.436225 0.261784
1.000000 0.442054 0.279332
1.000000 0.449622 0.299260
1.000000 0.459388 0.321996
1.000000 0.471992 0.348363
1.000000 0.487953 0.378698
0.165866 0.324285 0.195438
0.168063 0.323674 0.195254
0.171054 0.322728 0.195224
0.177249 0.320684 0.194949
0.186709 0.317723 0.195499
0.198581 0.313878 0.197574
0.216342 0.308446 0.206119
0.236271 0.301640 0.219120
0.251225 0.310399 0.218540
0.276036 0.328801 0.212009
0.313970 0.348791 0.204227
0.363531 0.368933 0.193637
0.450355 0.414405 0.192660
0.514855 0.432868 0.184634
0.576318 0.450935 0.176028
0.628901 0.461250 0.179324
0.675715 0.466743 0.184604
0.719295 0.469368 0.189914
0.760159 0.470192 0.195560
0.796872 0.469947 0.202396
0.827909 0.469306 0.211582
0.858213 0.469368 0.222416
0.887297 0.469825 0.233646
0.915190 0.471107 0.246433
0.941497 0.472786 0.259739
0.966155 0.475227 0.274205
0.989288 0.478248 0.289708
1.000000 0.482612 0.306676
1.000000 0.488594 0.325658
1.000000 0.496864 0.347997
1.000000 0.507866 0.373632
1.000000 0.522332 0.403632
0.185489 0.365087 0.220432
0.187564 0.364477 0.220188
0.190311 0.363226 0.219852
0.195865 0.360937 0.219425
0.204166 0.357305 0.219089
0.214969 0.352758 0.219852
0.229068 0.347997 0.224094
0.251621 0.343969 0.237980
0.273228 0.340490 0.253361
0.291630 0.360327 0.248692
0.322179 0.382116 0.242832
0.365698 0.405402 0.235142
0.421332 0.429633 0.225010
0.485939 0.452064 0.211521
0.546441 0.466499 0.205905
0.603540 0.482826 0.199283
0.652888 0.491615 0.200381
0.697688 0.496986 0.206699
0.739803 0.500084 0.213260
0.780240 0.501976 0.219730
0.819211 0.503136 0.227756
0.851804 0.503075 0.236728
0.880766 0.502953 0.247501
0.908629 0.503319 0.259586
0.935058 0.504265 0.272374
0.959930 0.505730 0.286137
0.983307 0.507927 0.300999
1.000000 0.511467 0.317937
1.000000 0.516472 0.336553
1.000000 0.523827 0.358984
1.000000 0.533867 0.384680
1.000000 0.546990 0.414405
0.202121 0.401068 0.242344
0.204288 0.400671 0.242374
0.206790 0.400092 0.242161
0.212314 0.398627 0.242008
0.220676 0.396185 0.242161
0.231510 0.393103 0.243290
0.244755 0.389441 0.246036
0.264317 0.384680 0.256016
0.286839 0.379339 0.270848
0.305821 0.383490 0.279332
0.327764 0.404150 0.274022
0.361486 0.426734 0.267399
0.406744 0.449897 0.258976
0.461707 0.472175 0.247807
0.523217 0.491707 0.233921
0.576074 0.498543 0.228428
0.627893 0.511772 0.222568
0.674678 0.519524 0.220859
0.718227 0.525444 0.228641
0.760037 0.529778 0.236332
0.800351 0.532982 0.245060
0.838926 0.535210 0.254063
0.875059 0.536339 0.263706
0.903197 0.536339 0.275212
0.929808 0.536736 0.287816
0.954894 0.537530 0.300969
0.978515 0.539208 0.315618
1.000000 0.541924 0.332097
1.000000 0.546258 0.351171
1.000000 0.552911 0.373419
1.000000 0.561883 0.399176
1.000000 0.573816 0.428565
0.221286 0.444373 0.268711
0.223239 0.444068 0.268650
0.225498 0.442847 0.268132
0.230564 0.440925 0.267552
0.238163 0.437720 0.266972
0.247990 0.433753 0.266941
0.260227 0.429450 0.268589
0.275547 0.424567 0.273533
0.298344 0.419104 0.287358
0.321050 0.413519 0.303655
0.339055 0.426703 0.305058
0.364477 0.448371 0.299199
0.400366 0.470436 0.292119
0.445472 0.491493 0.283024
0.497719 0.510094 0.271489
0.554498 0.525811 0.257267
0.602350 0.527642 0.251469
0.650660 0.539330 0.246342
0.696437 0.547112 0.242802
0.739559 0.554009 0.251347
0.781033 0.559411 0.260960
0.820768 0.563500 0.270909
0.858183 0.566308 0.281407
0.893339 0.568109 0.292332
0.924590 0.568963 0.304295
0.950134 0.569696 0.317815
0.974426 0.571313 0.333013
0.997436 0.574151 0.350439
1.000000 0.578759 0.370886
1.000000 0.585412 0.394354
1.000000 0.594293 0.421149
1.000000 0.605341 0.450752
0.239506 0.484932 0.293828
0.241550 0.484688 0.293828
0.243656 0.484077 0.293584
0.248447 0.482307 0.293004
0.255772 0.479530 0.292393
0.265568 0.476234 0.292454
0.277409 0.472511 0.293645
0.291325 0.468513 0.296941
0.312169 0.463447 0.307408
0.335576 0.457649 0.322759
0.357671 0.452918 0.338659
0.375280 0.472328 0.332860
0.401709 0.491402 0.325719
0.436683 0.509575 0.316869
0.479011 0.526360 0.306432
0.527367 0.541375 0.294163
0.580529 0.554650 0.279881
0.625727 0.555596 0.273991
0.672724 0.566003 0.270970
0.718868 0.575555 0.269200
0.762692 0.583764 0.276951
0.804257 0.590600 0.288975
0.843351 0.595636 0.300938
0.880095 0.599420 0.313542
0.914275 0.602167 0.326513
0.946014 0.604089 0.340215
0.972412 0.605707 0.355566
0.995361 0.608331 0.373419
1.000000 0.612207 0.393561
1.000000 0.617670 0.416266
1.000000 0.624964 0.441535
1.000000 0.634089 0.469093
0.257481 0.519860 0.317144
0.258915 0.519432 0.316930
0.261021 0.518578 0.316594
0.265354 0.517052 0.316106
0.272313 0.514794 0.315618
0.281315 0.511711 0.315435
0.292607 0.508171 0.316228
0.305730 0.504448 0.318700
0.322148 0.500053 0.324468
0.345830 0.494514 0.338842
0.369207 0.488685 0.355413
0.388342 0.492226 0.364080
0.407813 0.509972 0.357916
0.434852 0.527092 0.350561
0.468910 0.542931 0.341283
0.508965 0.557153 0.330480
0.554498 0.570001 0.317937
0.604791 0.581689 0.304112
0.649378 0.583795 0.298009
0.695125 0.592767 0.296635
0.740871 0.603388 0.296727
0.784421 0.611963 0.302495
0.825071 0.619471 0.316381
0.863310 0.625483 0.330266
0.899138 0.630060 0.344945
0.932341 0.633783 0.360204
0.963043 0.636927 0.376471
0.990997 0.639948 0.394293
1.000000 0.643427 0.414282
1.000000 0.648249 0.436408
1.000000 0.654505 0.460914
1.000000 0.662654 0.488197
0.277470 0.552972 0.341405
0.279271 0.553094 0.341680
0.295933 0.573022 0.358343
0.300145 0.571466 0.357671
0.306432 0.569055 0.357244
0.314794 0.565850 0.356847
0.325017 0.562036 0.357305
0.337285 0.557580 0.358740
0.351659 0.553002 0.362554
0.372808 0.547570 0.373846
0.396277 0.541405 0.389502
0.419013 0.534661 0.406897
0.434424 0.543725 0.406806
0.453498 0.558495 0.398901
0.478981 0.572442 0.389929
0.510643 0.585321 0.379553
0.548150 0.597192 0.367773
0.591089 0.608270 0.354528
0.639033 0.618860 0.340398
0.683253 0.621759 0.333501
0.727016 0.628595 0.333410
0.771572 0.639246 0.334752
0.813931 0.647364 0.338659
0.852659 0.654902 0.354253
0.888457 0.660365 0.369390
0.921630 0.664576 0.384588
0.952331 0.667903 0.400458
0.980713 0.670985 0.417273
1.000000 0.674250 0.435889
1.000000 0.678004 0.456703
1.000000 0.683162 0.480049
1.000000 0.689906 0.505943
0.302831 0.588220 0.370367
0.306340 0.590478 0.372595
0.310399 0.592523 0.374823
0.316106 0.593683 0.376715
0.323522 0.593408 0.378027
0.332219 0.591638 0.378943
0.342138 0.588556 0.379736
0.353735 0.584863 0.381415
0.367315 0.580804 0.384802
0.383948 0.576196 0.391730
0.407050 0.570581 0.406592
0.429816 0.564416 0.423011
0.450294 0.558953 0.438514
0.463264 0.572656 0.431586
0.481849 0.585779 0.423468
0.506340 0.598230 0.414191
0.536736 0.610101 0.403540
0.572778 0.621485 0.391821
0.614313 0.632563 0.379522
0.660945 0.643366 0.366278
0.705196 0.648035 0.359747
0.748440 0.654383 0.362005
0.792691 0.666285 0.365698
0.834409 0.675196 0.370672
0.872313 0.682979 0.385748
0.907256 0.689418 0.402899
0.939666 0.694545 0.420111
0.969512 0.699031 0.437873
0.996796 0.703273 0.457130
1.000000 0.707454 0.477821
1.000000 0.711727 0.500008
1.000000 0.717067 0.524712
0.324285 0.614038 0.393622
0.327642 0.616083 0.395941
0.331579 0.617853 0.398077
0.337041 0.618921 0.400092
0.344060 0.618738 0.401709
0.352178 0.617121 0.402686
0.361547 0.614435 0.403754
0.372503 0.611109 0.405585
0.385412 0.607630 0.409064
0.399847 0.603632 0.414313
0.420356 0.598810 0.426307
0.442451 0.593256 0.441596
0.463355 0.586877 0.457557
0.479042 0.588159 0.464759
0.492195 0.600641 0.457649
0.510643 0.612848 0.449500
0.534478 0.624689 0.440192
0.564080 0.636194 0.429816
0.599145 0.647517 0.419074
0.639673 0.658808 0.407813
0.684810 0.669795 0.395758
0.729122 0.676204 0.389837
0.771359 0.681697 0.394110
0.814817 0.694301 0.399817
0.855283 0.703670 0.406317
0.892332 0.711391 0.419409
0.926207 0.718318 0.437507
0.957519 0.724147 0.456184
0.986145 0.729458 0.475898
1.000000 0.734249 0.496590
1.000000 0.738888 0.518822
1.000000 0.743893 0.543267
0.347387 0.639796 0.418433
0.350805 0.641749 0.420844
0.354620 0.643488 0.423072
0.359960 0.644434 0.425147
0.366796 0.644373 0.426978
0.374334 0.642908 0.428229
0.383124 0.640406 0.429450
0.393317 0.637385 0.431403
0.405280 0.633967 0.434546
0.418647 0.630152 0.439063
0.434638 0.626032 0.446937
0.455726 0.620752 0.460853
0.475868 0.614984 0.475563
0.494911 0.608728 0.490700
0.506889 0.616266 0.490303
0.521019 0.628717 0.483772
0.540368 0.641382 0.476844
0.565240 0.654047 0.469551
0.595575 0.666804 0.461738
0.631281 0.679652 0.453895
0.671931 0.692287 0.445533
0.717006 0.704646 0.436652
0.761624 0.712886 0.432074
0.803159 0.717861 0.438697
0.845701 0.731167 0.446632
0.885008 0.740993 0.455299
0.921080 0.748684 0.467079
0.953307 0.756008 0.487037
0.982513 0.762203 0.507408
1.000000 0.767544 0.528618
1.000000 0.772213 0.550927
1.000000 0.777310 0.576135
0.381964 0.674708 0.454627
0.384192 0.675410 0.455818
0.386481 0.675868 0.456764
0.390295 0.675563 0.457710
0.395727 0.674678 0.458747
0.402197 0.672877 0.459480
0.410285 0.670527 0.460822
0.419989 0.667872 0.462837
0.431189 0.665126 0.466102
0.443885 0.662074 0.470619
0.457679 0.658869 0.476661
0.476204 0.654627 0.488075
0.495674 0.649409 0.501579
0.514092 0.643732 0.515404
0.530541 0.638972 0.527947
0.540703 0.650965 0.522332
0.555413 0.663111 0.516320
0.575006 0.675319 0.509789
0.599664 0.687648 0.503105
0.629206 0.699886 0.495857
0.663569 0.711910 0.488289
0.702235 0.723629 0.480110
0.744839 0.734768 0.471443
0.787533 0.742428 0.465705
0.826749 0.745449 0.472267
0.867796 0.758572 0.480873
0.905852 0.768765 0.490852
0.940887 0.776577 0.502373
0.971771 0.784176 0.523186
0.998932 0.790463 0.544823
1.000000 0.796139 0.568292
1.000000 0.801755 0.594385
0.408576 0.700984 0.482582
0.410681 0.701717 0.483772
0.413001 0.702327 0.484962
0.416632 0.702205 0.485969
0.421424 0.701381 0.486885
0.427283 0.699611 0.487556
0.434272 0.697353 0.488472
0.442695 0.694759 0.490059
0.452705 0.692042 0.492683
0.464027 0.689143 0.496437
0.476631 0.686152 0.501549
0.491188 0.682673 0.509056
0.509758 0.677943 0.521416
0.527825 0.672877 0.534325
0.545037 0.667292 0.547662
0.558129 0.669154 0.553582
0.569604 0.681209 0.548760
0.585412 0.693446 0.543511
0.605859 0.705898 0.538140
0.630976 0.718379 0.532647
0.660639 0.730831 0.526818
0.694667 0.743038 0.520592
0.732601 0.754818 0.514122
0.774014 0.765927 0.507042
0.810239 0.768399 0.494575
0.848325 0.771633 0.502190
0.887999 0.783658 0.512078
0.924926 0.794247 0.523583
0.958526 0.802426 0.536889
0.987915 0.809751 0.556817
1.000000 0.816953 0.582147
1.000000 0.823484 0.609644
0.443091 0.735042 0.518944
0.445197 0.736019 0.520378
0.447150 0.736385 0.521263
0.449958 0.735958 0.521813
0.453681 0.734676 0.522087
0.458412 0.732753 0.522301
0.464210 0.730251 0.522545
0.471138 0.727260 0.523186
0.479255 0.723903 0.524407
0.488746 0.720577 0.526818
0.499153 0.716915 0.530022
0.510704 0.713161 0.534630
0.526482 0.708553 0.543969
0.543145 0.703182 0.555077
0.559014 0.697353 0.566369
0.574182 0.691066 0.578149
0.584039 0.697780 0.577111
0.595972 0.709010 0.572045
0.612421 0.720974 0.567376
0.633539 0.733486 0.562890
0.659144 0.746151 0.558434
0.688746 0.758480 0.553704
0.721859 0.770199 0.548272
0.758053 0.780911 0.541833
0.796963 0.790555 0.534539
0.836515 0.797543 0.527367
0.873381 0.801205 0.535943
0.910704 0.811032 0.546563
0.945647 0.821256 0.559411
0.977264 0.829679 0.575433
1.000000 0.837095 0.596979
1.000000 0.844480 0.625696
0.467994 0.760922 0.545708
0.469947 0.761898 0.547051
0.471748 0.762325 0.547936
0.474372 0.761959 0.548577
0.477729 0.760830 0.548791
0.482063 0.759152 0.548974
0.487434 0.757015 0.549371
0.493874 0.754574 0.550164
0.501579 0.751919 0.551629
0.510582 0.749142 0.553826
0.520470 0.746242 0.556939
0.531456 0.743282 0.561212
0.544213 0.739834 0.567620
0.560662 0.735348 0.578180
0.576715 0.730312 0.589258
0.592340 0.724971 0.600824
0.606622 0.721035 0.611383
0.615991 0.732113 0.607172
0.629389 0.743801 0.603174
0.646845 0.755947 0.599390
0.668360 0.768215 0.595789
0.693812 0.780301 0.591791
0.722499 0.791836 0.587396
0.754360 0.802640 0.582269
0.789120 0.812497 0.576318
0.826291 0.821408 0.569696
0.864897 0.828611 0.562768
0.900328 0.832334 0.572930
0.935698 0.840940 0.586572
0.968688 0.851560 0.603388
0.997162 0.860014 0.623377
1.000000 0.866911 0.647242
0.495796 0.789975 0.575677
0.497383 0.790646 0.576684
0.498604 0.790646 0.577081
0.500572 0.790036 0.577234
0.503319 0.788724 0.577111
0.506859 0.786954 0.576989
0.511467 0.784787 0.577020
0.517144 0.782345 0.577386
0.524224 0.779934 0.578576
0.532311 0.777554 0.580499
0.541527 0.775051 0.583307
0.551995 0.772610 0.587274
0.563165 0.769894 0.592187
0.578393 0.766110 0.601343
0.594263 0.761685 0.611933
0.609766 0.756771 0.622950
0.624903 0.751705 0.634577
0.636805 0.753536 0.639887
0.647333 0.764675 0.636378
0.661646 0.776364 0.633173
0.679652 0.788205 0.630091
0.701198 0.799985 0.626947
0.725948 0.811276 0.623377
0.753719 0.821958 0.619226
0.784207 0.831846 0.614405
0.817227 0.840848 0.609003
0.852750 0.849180 0.603082
0.890562 0.856809 0.596948
0.924193 0.860533 0.608789
0.957458 0.867918 0.625605
0.987396 0.878233 0.645777
1.000000 0.886351 0.669398
0.521263 0.817014 0.603174
0.522454 0.817380 0.603784
0.523613 0.817411 0.604211
0.525505 0.816983 0.604456
0.528374 0.816159 0.604669
0.532464 0.815274 0.605432
0.537987 0.814572 0.606836
0.544915 0.814023 0.609033
0.553307 0.813535 0.612024
0.562951 0.813230 0.616022
0.573632 0.812833 0.620752
0.585260 0.812192 0.626307
0.597436 0.811154 0.632441
0.611017 0.809201 0.640223
0.627619 0.806149 0.651362
0.643427 0.802243 0.662409
0.658808 0.797971 0.673732
0.673884 0.793729 0.685756
0.684016 0.801022 0.686488
0.695430 0.811978 0.683833
0.710079 0.823056 0.681422
0.727901 0.834012 0.678859
0.748501 0.844541 0.675898
0.771847 0.854490 0.672541
0.797726 0.863737 0.668696
0.826322 0.872465 0.664607
0.857267 0.880583 0.660334
0.890440 0.887968 0.655756
0.925566 0.894774 0.651209
0.956207 0.897978 0.664302
0.984680 0.902983 0.684382
1.000000 0.911376 0.708003
0.560266 0.854734 0.643915
0.561212 0.854856 0.644282
0.561975 0.854643 0.644373
0.563470 0.854002 0.644404
0.565728 0.852934 0.644312
0.569024 0.851713 0.644526
0.573541 0.850431 0.645258
0.579217 0.849149 0.646479
0.586175 0.847959 0.648493
0.594232 0.846738 0.651179
0.603296 0.845426 0.654597
0.613275 0.843961 0.658717
0.623896 0.842252 0.663478
0.635004 0.840146 0.668910
