data/fiter_cube/49007420/1023421/file.cube
# Created by Adobe Lightroom plugin Export LUT (1.17.0)
# www.johnrellis.com/lightroom/exportlut.htm
# Preset: 05 - 日系情绪-夏 [云集]
# Color profile: C:\Program Files (x86)\Common Files\Adobe\Color\Profiles\Recommended\AdobeRGB1998.icc
LUT_3D_SIZE 8
DOMAIN_MIN 0.000000 0.000000 0.000000
DOMAIN_MAX 0.903226 0.903226 0.903226
0.066560 0.089662 0.103578
0.077729 0.090242 0.105409
0.119417 0.089021 0.108553
0.208408 0.070924 0.110994
0.334173 0.000000 0.112978
0.487465 0.000000 0.115999
0.699184 0.000000 0.128328
0.870939 0.000000 0.173281
0.064424 0.101839 0.109712
0.076356 0.099641 0.106600
0.119326 0.099550 0.107607
0.205600 0.089876 0.109895
0.328771 0.001099 0.111360
0.479591 0.000000 0.113710
0.684138 0.000000 0.123720
0.861387 0.000000 0.166262
0.012970 0.161379 0.135195
0.063722 0.154421 0.124269
0.122347 0.144839 0.112215
0.224002 0.147158 0.103700
0.347753 0.129519 0.104097
0.516564 0.061250 0.104250
0.722042 0.000000 0.115053
0.881804 0.000000 0.165438
0.000000 0.290501 0.187900
0.000000 0.281895 0.173526
0.122164 0.247715 0.155703
0.245060 0.265568 0.119966
0.417762 0.277043 0.067109
0.577722 0.255772 0.063966
0.746273 0.242771 0.080262
0.887083 0.249302 0.144320
0.000000 0.484321 0.272923
0.000000 0.476326 0.258518
0.000000 0.451057 0.222385
0.246372 0.385931 0.223545
0.408850 0.427771 0.129366
0.600153 0.441108 0.000000
0.757198 0.425574 0.000000
0.891630 0.437476 0.091737
0.000000 0.690211 0.381567
0.000000 0.696803 0.376471
0.000000 0.677943 0.338170
0.235874 0.631800 0.297032
0.407752 0.569207 0.293004
0.601892 0.625696 0.150698
0.787289 0.643915 0.000000
0.903319 0.626886 0.000000
0.000000 0.865263 0.513787
0.000000 0.864652 0.507744
0.000000 0.852537 0.479164
0.233158 0.829496 0.451972
0.454536 0.778042 0.432441
0.594842 0.758602 0.398322
0.770169 0.795102 0.238926
0.905303 0.794400 0.000000
0.000000 0.966766 0.644678
0.000000 0.964965 0.641169
0.000000 0.958587 0.634516
0.347662 0.945251 0.643885
0.535149 0.916655 0.630823
0.669825 0.886900 0.647761
0.769589 0.890837 0.600092
0.890288 0.902708 0.428046
0.064698 0.090730 0.117342
0.077089 0.091218 0.112398
0.117891 0.092836 0.110536
0.203586 0.087739 0.109926
0.325597 0.000000 0.111543
0.473182 0.000000 0.114046
0.673091 0.000000 0.123781
0.851560 0.000000 0.163790
0.058869 0.103822 0.123964
0.076478 0.101991 0.118837
0.120577 0.102907 0.114199
0.205753 0.101534 0.108614
0.326543 0.062684 0.109987
0.475044 0.000000 0.112215
0.662837 0.000000 0.120333
0.841215 0.000000 0.157382
0.000000 0.164584 0.153628
0.056245 0.158816 0.143435
0.124880 0.148104 0.127108
0.222416 0.147219 0.111788
0.341863 0.138308 0.103059
0.499153 0.089662 0.103151
0.686793 0.000000 0.110842
0.858762 0.000000 0.153658
0.000000 0.287388 0.205447
0.000000 0.281010 0.193454
0.119875 0.254398 0.170138
0.234531 0.255253 0.138918
0.385809 0.255985 0.097780
0.535332 0.241764 0.071595
0.708034 0.228214 0.078279
0.865660 0.229923 0.132204
0.000000 0.482490 0.292638
0.000000 0.473091 0.277989
0.000000 0.445594 0.239597
0.239384 0.378424 0.231052
0.389227 0.408148 0.152071
0.576959 0.420813 0.000000
0.739132 0.413733 0.000000
0.879942 0.425299 0.081239
0.000000 0.679561 0.393408
0.000000 0.675563 0.382269
0.000000 0.657923 0.345006
0.219913 0.618494 0.301671
0.399054 0.556115 0.304662
0.595514 0.619104 0.179080
0.780117 0.635859 0.000000
0.896544 0.618097 0.000000
0.000000 0.853147 0.516442
0.000000 0.848539 0.505913
0.000000 0.838376 0.478553
0.204440 0.819486 0.451392
0.445014 0.772335 0.435157
0.585260 0.748501 0.404517
0.758480 0.784237 0.250980
0.896056 0.783993 0.000000
0.000000 0.963165 0.646815
0.000000 0.962127 0.644312
0.000000 0.956390 0.637140
0.324651 0.943816 0.643702
0.549096 0.921721 0.654353
0.674556 0.890074 0.661616
0.767391 0.889281 0.608392
0.886625 0.900175 0.436194
0.035767 0.092775 0.174258
0.079011 0.092378 0.167880
0.130709 0.091615 0.152163
0.224704 0.066957 0.138003
0.341009 0.000000 0.125521
0.499031 0.000000 0.111269
0.695460 0.000000 0.122347
0.865446 0.000000 0.168215
0.000000 0.109194 0.182803
0.063294 0.104189 0.178134
0.131350 0.105501 0.159060
0.221836 0.087465 0.141695
0.340795 0.063111 0.129458
0.498756 0.000000 0.108949
0.688899 0.000000 0.118990
0.860990 0.000000 0.163424
0.000000 0.171145 0.213169
0.000000 0.167880 0.206424
0.130068 0.159060 0.184360
0.231846 0.153567 0.166751
0.363592 0.140658 0.143709
0.521660 0.117037 0.111482
0.702144 0.000000 0.107607
0.865446 0.000000 0.155001
0.000000 0.318853 0.289952
0.000000 0.317327 0.280735
0.093690 0.292363 0.238193
0.251347 0.273381 0.206821
0.404181 0.262760 0.171786
0.556817 0.251652 0.126650
0.727016 0.253483 0.072114
0.876188 0.248692 0.136294
0.000000 0.506554 0.370916
0.000000 0.500481 0.358526
0.000000 0.476387 0.317784
0.254002 0.420783 0.285985
0.410590 0.429816 0.230869
0.591760 0.428901 0.160098
0.748409 0.420508 0.035065
0.885588 0.432715 0.085054
0.000000 0.697078 0.464271
0.000000 0.693294 0.454261
0.000000 0.675319 0.417334
0.215274 0.638209 0.369848
0.405371 0.556023 0.363165
0.594934 0.619257 0.262455
0.778225 0.631678 0.144991
0.900450 0.621241 0.000000
0.000000 0.865080 0.577874
0.000000 0.861509 0.568811
0.000000 0.849760 0.539788
0.163088 0.828336 0.503532
0.443153 0.784207 0.478706
0.589319 0.750149 0.463355
0.764981 0.792294 0.337499
0.902434 0.791714 0.187564
0.000000 0.966827 0.684596
0.000000 0.964813 0.679255
0.000000 0.958618 0.668269
0.283330 0.947845 0.671839
0.561181 0.923735 0.696956
0.677974 0.894957 0.689876
0.769284 0.890410 0.653712
0.886381 0.902953 0.505882
0.000000 0.093812 0.284092
0.003082 0.092226 0.283360
0.169436 0.087617 0.269932
0.257511 0.065156 0.239658
0.386999 0.000000 0.212650
0.514031 0.000000 0.172305
0.692134 0.000000 0.144228
0.862272 0.000000 0.166445
0.000000 0.107393 0.296544
0.000000 0.107271 0.294133
0.165591 0.106600 0.280858
0.260380 0.093111 0.247837
0.385657 0.000000 0.217288
0.509056 0.000000 0.183566
0.690394 0.000000 0.147341
0.861295 0.000000 0.163546
0.000000 0.179141 0.313176
0.000000 0.174197 0.308629
0.107301 0.160739 0.300877
0.260319 0.170321 0.271580
0.388281 0.137728 0.238926
0.533104 0.101747 0.211734
0.721981 0.000000 0.164858
0.877134 0.000000 0.161410
0.000000 0.309178 0.378424
0.000000 0.306188 0.372503
0.000000 0.298650 0.352941
0.256626 0.285405 0.316442
0.398627 0.272892 0.286107
0.555413 0.254978 0.245060
0.729335 0.240635 0.184878
0.883055 0.246342 0.141604
0.000000 0.525536 0.490608
0.000000 0.523033 0.483314
0.000000 0.521477 0.463050
0.230442 0.478492 0.394446
0.426734 0.449348 0.351385
0.600183 0.435096 0.299779
0.756710 0.423468 0.229496
0.893462 0.432105 0.116487
0.000000 0.737057 0.598047
0.000000 0.740658 0.594720
0.000000 0.720821 0.554559
0.145388 0.686397 0.493263
0.433265 0.615656 0.454536
0.609674 0.637934 0.390082
0.782254 0.634546 0.306828
0.903349 0.614710 0.200107
0.000000 0.880003 0.674220
0.000000 0.878843 0.668269
0.000000 0.871946 0.645014
0.000000 0.854948 0.606195
0.460822 0.817350 0.583551
0.605127 0.760098 0.565759
0.768887 0.800443 0.459602
0.902098 0.793088 0.338079
0.000000 0.975341 0.754391
0.000000 0.974456 0.750973
0.000000 0.969421 0.737179
0.136110 0.957427 0.721981
0.525414 0.933288 0.730007
0.680690 0.904265 0.733333
0.770718 0.891142 0.715816
0.883360 0.905760 0.602899
0.000000 0.095369 0.437995
0.000000 0.092287 0.439155
0.170291 0.076020 0.435492
0.328832 0.002197 0.416968
0.446479 0.000000 0.375128
0.604578 0.000000 0.343236
0.735409 0.000000 0.275822
0.867582 0.000000 0.237095
0.000000 0.112032 0.444434
0.000000 0.110994 0.446937
0.155550 0.102754 0.444129
0.331548 0.086976 0.425971
0.448096 0.000000 0.382452
0.603815 0.000000 0.348180
0.733852 0.000000 0.278264
0.868437 0.000000 0.238804
0.000000 0.186343 0.447608
0.000000 0.179202 0.450690
0.000000 0.167300 0.455940
0.327153 0.185428 0.453315
0.446082 0.172000 0.403296
0.589227 0.092805 0.359075
0.720760 0.000000 0.283055
0.867765 0.000000 0.240696
0.000000 0.307683 0.496345
0.000000 0.303410 0.491310
0.000000 0.290745 0.476570
0.235111 0.282200 0.472236
0.441474 0.311650 0.441932
0.574701 0.265171 0.384283
0.716670 0.222751 0.326818
0.879118 0.173587 0.242374
0.000000 0.483314 0.574945
0.000000 0.481849 0.571099
0.000000 0.475074 0.555108
0.121340 0.465156 0.527092
0.414069 0.445228 0.478523
0.573816 0.424475 0.431678
0.739040 0.402258 0.366979
0.887755 0.388678 0.273594
0.000000 0.704555 0.680293
0.000000 0.704585 0.677211
0.000000 0.701900 0.663203
0.000000 0.701625 0.640406
0.379919 0.653620 0.558495
0.598566 0.633234 0.519097
0.769436 0.621241 0.459052
0.897704 0.598566 0.357427
0.000000 0.890990 0.783444
0.000000 0.890440 0.780331
0.000000 0.885222 0.763210
0.000000 0.871031 0.725582
0.371191 0.841733 0.671656
0.608759 0.781155 0.648707
0.760678 0.799893 0.584710
0.892668 0.784695 0.477302
0.000000 0.979431 0.827817
0.000000 0.978241 0.824277
0.000000 0.973877 0.811887
0.000000 0.967651 0.795804
0.417853 0.947784 0.774289
0.672175 0.916075 0.782132
0.767025 0.887755 0.773617
0.875273 0.905180 0.691859
0.000000 0.096834 0.637842
0.000000 0.091402 0.639155
0.138338 0.059297 0.638575
0.392309 0.000000 0.645869
0.543786 0.000000 0.617395
0.659266 0.000000 0.552575
0.801785 0.000000 0.514458
0.907103 0.000000 0.439277
0.000000 0.117861 0.631220
0.000000 0.115145 0.631952
0.097902 0.099458 0.636286
0.378637 0.049287 0.642329
0.538689 0.000000 0.616968
0.653986 0.000000 0.553307
0.797574 0.000000 0.515648
0.904356 0.000000 0.439124
0.000000 0.191989 0.642695
0.000000 0.181460 0.644678
0.000000 0.177859 0.649500
0.341894 0.182528 0.657099
0.544610 0.193881 0.643030
0.654047 0.176455 0.574578
0.793332 0.115938 0.530968
0.900755 0.000000 0.445533
0.000000 0.322545 0.649104
0.000000 0.315984 0.643458
0.000000 0.297917 0.642847
0.205997 0.293645 0.669703
0.545617 0.363500 0.685298
0.658228 0.355749 0.618555
0.787991 0.316197 0.560449
0.895872 0.194339 0.454627
0.000000 0.480140 0.700771
0.000000 0.477455 0.698268
0.000000 0.467445 0.688014
0.000000 0.447791 0.669001
0.394629 0.441535 0.668635
0.629847 0.497871 0.643061
0.754849 0.438300 0.563287
0.875914 0.385595 0.471901
0.000000 0.662257 0.759152
0.000000 0.663966 0.759304
0.000000 0.661799 0.752255
0.000000 0.657374 0.738155
0.288548 0.648646 0.713527
0.589837 0.637018 0.673030
0.744961 0.614221 0.618433
0.885985 0.582849 0.525750
0.000000 0.865385 0.841978
0.000000 0.868925 0.843442
0.000000 0.875303 0.843717
0.000000 0.874998 0.834531
0.245792 0.871580 0.818509
0.587457 0.830716 0.761959
0.756771 0.806943 0.725704
0.881132 0.785367 0.652522
0.000000 0.981476 0.892882
0.000000 0.981109 0.891539
0.000000 0.980163 0.887327
0.000000 0.978698 0.880644
0.272038 0.963043 0.857328
0.605646 0.935912 0.832120
0.771115 0.898131 0.829648
0.868986 0.907103 0.789090
0.000000 0.103609 0.813260
0.000000 0.097597 0.815671
0.116793 0.060975 0.818357
0.412970 0.000000 0.823117
0.627436 0.000000 0.824979
0.729488 0.000000 0.787381
0.814328 0.000000 0.712459
0.916716 0.000000 0.675685
0.000000 0.128023 0.808591
0.000000 0.124605 0.810941
0.000000 0.105959 0.814023
0.394934 0.057252 0.818021
0.615564 0.105043 0.820462
0.724849 0.000000 0.786404
0.807736 0.000000 0.709224
0.911742 0.090761 0.671626
0.000000 0.189090 0.812650
0.000000 0.189731 0.813535
0.000000 0.189487 0.816190
0.344182 0.189639 0.821225
0.593774 0.230259 0.824765
0.727901 0.212375 0.802274
0.808042 0.237217 0.727504
0.910735 0.258427 0.689693
0.000000 0.330327 0.805814
0.000000 0.322210 0.806302
0.000000 0.297063 0.812161
0.168215 0.296208 0.822782
0.540398 0.346960 0.830564
0.725795 0.399756 0.823026
0.806027 0.405890 0.757168
0.904936 0.400580 0.712978
0.000000 0.483375 0.821988
0.000000 0.478218 0.819150
0.000000 0.460517 0.810819
0.000000 0.426307 0.801053
0.371313 0.431983 0.822446
0.705043 0.560601 0.835538
0.790616 0.552667 0.781491
0.891081 0.527977 0.732815
0.000000 0.654963 0.855222
0.000000 0.653132 0.854093
0.000000 0.646418 0.849943
0.000000 0.632776 0.842222
0.000000 0.605402 0.826780
0.568841 0.622675 0.828794
0.776913 0.701259 0.816342
0.871702 0.642908 0.748196
0.000000 0.818479 0.885924
0.000000 0.819150 0.885771
0.000000 0.818997 0.883635
0.000000 0.818906 0.879728
0.000000 0.816007 0.871489
0.498909 0.810483 0.857267
0.741695 0.800809 0.831022
0.857725 0.776120 0.782956
0.000000 0.953307 0.922118
0.000000 0.953948 0.921965
0.000000 0.958892 0.923613
0.000000 0.965789 0.925689
0.068086 0.963989 0.921935
0.539940 0.952514 0.912810
0.756802 0.924498 0.887083
0.865965 0.909789 0.870024
0.000000 0.139620 0.929625
0.000000 0.136477 0.930083
0.218448 0.122194 0.929534
0.454932 0.110140 0.929686
0.651911 0.166659 0.928710
0.800534 0.283726 0.924437
0.858122 0.171878 0.891966
0.912596 0.246525 0.833310
0.000000 0.161807 0.928252
0.000000 0.159945 0.928771
0.183627 0.150912 0.928588
0.440620 0.145693 0.928527
0.643641 0.195102 0.927703
0.797696 0.312230 0.923827
0.856260 0.209018 0.892515
0.910216 0.269535 0.833341
0.000000 0.220279 0.927611
0.000000 0.220859 0.927855
0.000000 0.220829 0.927337
0.390845 0.231510 0.929015
0.618952 0.276829 0.928038
0.790249 0.398901 0.924620
0.856077 0.323522 0.899901
0.906554 0.359350 0.840879
0.000000 0.330449 0.925383
0.000000 0.324315 0.926238
0.000000 0.305180 0.927672
0.235874 0.320958 0.928862
0.560632 0.369970 0.928771
0.766262 0.484413 0.926177
0.857389 0.471229 0.913329
0.901244 0.485695 0.855711
0.000000 0.493324 0.921263
0.000000 0.487984 0.920928
0.000000 0.463386 0.920439
0.000000 0.419898 0.925231
0.398749 0.445136 0.927428
0.710658 0.553491 0.925963
0.844266 0.619013 0.918853
0.892851 0.619501 0.873533
0.000000 0.657496 0.933440
0.000000 0.653864 0.932616
0.000000 0.640772 0.930114
0.000000 0.614435 0.925933
0.000000 0.565301 0.918395
0.567315 0.612665 0.925505
0.833616 0.764736 0.927398
0.886015 0.754116 0.896818
0.000000 0.813870 0.945830
0.000000 0.812680 0.945434
0.000000 0.808560 0.944091
0.000000 0.801236 0.941894
0.000000 0.788083 0.937713
0.349493 0.765713 0.929137
0.734096 0.790799 0.924620
0.878416 0.848783 0.915953
0.000000 0.929595 0.955901
0.000000 0.929442 0.955596
0.000000 0.929290 0.954864
0.000000 0.929259 0.953735
0.000000 0.927489 0.951324
0.448676 0.922576 0.946838
0.697810 0.915404 0.939391
0.861357 0.908019 0.926024
