data/fiter_cube/49007420/1023421/file.cube
# Created by Adobe Lightroom plugin Export LUT (1.17.0)
# www.johnrellis.com/lightroom/exportlut.htm
# Preset: 05 - 日系情绪-夏 [云集]
# Color profile: C:\Program Files (x86)\Common Files\Adobe\Color\Profiles\Recommended\AdobeRGB1998.icc
LUT_3D_SIZE 32
DOMAIN_MIN 0.0 0.0 0.0
DOMAIN_MAX 1.0 1.0 1.0
0.066560 0.089662 0.103578
0.067384 0.089845 0.103792
0.069215 0.089937 0.103975
0.072541 0.090089 0.104585
0.077729 0.090242 0.105409
0.084382 0.090455 0.106172
0.093080 0.090486 0.106905
0.104677 0.090120 0.107759
0.119417 0.089021 0.108553
0.137087 0.087160 0.109194
0.158083 0.083619 0.109957
0.182040 0.078370 0.110475
0.208408 0.070924 0.110994
0.237156 0.058930 0.111727
0.267948 0.022583 0.112154
0.300206 0.000000 0.112734
0.334173 0.000000 0.112978
0.369482 0.000000 0.113710
0.406012 0.000000 0.114229
0.445411 0.000000 0.115023
0.487465 0.000000 0.115999
0.537621 0.000000 0.117464
0.595361 0.000000 0.119844
0.649622 0.000000 0.123232
0.699184 0.000000 0.128328
0.745449 0.000000 0.135012
0.789456 0.000000 0.144259
0.831266 0.000000 0.156802
0.870939 0.000000 0.173281
0.907683 0.000000 0.194919
0.941253 0.000000 0.223148
0.971435 0.000000 0.259464
0.066560 0.090822 0.104189
0.067689 0.090394 0.103975
0.069093 0.090517 0.103944
0.072847 0.090944 0.104524
0.077638 0.091157 0.105135
0.084291 0.091371 0.105898
0.092988 0.091402 0.106844
0.104616 0.091035 0.107485
0.118868 0.090059 0.108278
0.136385 0.088289 0.109163
0.157168 0.085267 0.109651
0.180606 0.080751 0.110414
0.206699 0.073457 0.110964
0.235264 0.062379 0.111482
0.265476 0.033204 0.111940
0.297398 0.000000 0.112337
0.330907 0.000000 0.112856
0.365820 0.000000 0.113405
0.402350 0.000000 0.113954
0.441413 0.000000 0.114809
0.483253 0.000000 0.115633
0.533196 0.000000 0.117159
0.589136 0.000000 0.119448
0.642573 0.000000 0.122683
0.691951 0.000000 0.127169
0.738308 0.000000 0.133730
0.782803 0.000000 0.142641
0.825406 0.000000 0.154574
0.865812 0.000000 0.170687
0.903349 0.000000 0.191928
0.937621 0.000000 0.219425
0.968383 0.000000 0.255161
0.065980 0.092317 0.105013
0.067567 0.091859 0.104799
0.069123 0.091981 0.104280
0.072602 0.092134 0.104463
0.077852 0.092317 0.105043
0.084108 0.092561 0.105806
0.092805 0.092622 0.106783
0.104463 0.092226 0.107424
0.118715 0.091554 0.108186
0.136080 0.089906 0.108827
0.156497 0.087373 0.109560
0.179934 0.083070 0.110109
0.205997 0.076143 0.110658
0.234318 0.066285 0.111177
0.264347 0.044099 0.111635
0.296330 0.000000 0.112245
0.329534 0.000000 0.112764
0.364294 0.000000 0.113130
0.400519 0.000000 0.113710
0.439612 0.000000 0.114351
0.481361 0.000000 0.115419
0.531823 0.000000 0.116884
0.586725 0.000000 0.118898
0.639460 0.000000 0.121859
0.688563 0.000000 0.126436
0.734859 0.000000 0.132570
0.779477 0.000000 0.141451
0.822354 0.000000 0.153384
0.863218 0.000000 0.169100
0.901122 0.000000 0.190036
0.935729 0.000000 0.217380
0.966735 0.000000 0.252628
0.065339 0.096284 0.107027
0.066865 0.096101 0.106783
0.068940 0.095338 0.106813
0.072175 0.095308 0.105165
0.077699 0.095186 0.105074
0.084443 0.095064 0.105623
0.093385 0.095369 0.106569
0.104982 0.095003 0.107210
0.119142 0.094636 0.107942
0.136385 0.093355 0.108583
0.156741 0.091218 0.109285
0.180117 0.087465 0.109834
0.205875 0.081788 0.110353
0.233860 0.073518 0.110872
0.263981 0.059602 0.111330
0.295506 0.019379 0.111727
0.328557 0.000000 0.112215
0.363073 0.000000 0.112581
0.398993 0.000000 0.113191
0.437324 0.000000 0.113893
0.478737 0.000000 0.114778
0.529503 0.000000 0.115999
0.582971 0.000000 0.118166
0.635492 0.000000 0.120790
0.685573 0.000000 0.125307
0.733089 0.000000 0.131655
0.778744 0.000000 0.140383
0.822202 0.000000 0.152560
0.863127 0.000000 0.168154
0.900816 0.000000 0.189181
0.935058 0.000000 0.216098
0.965698 0.000000 0.250675
0.064424 0.101839 0.109712
0.066133 0.101442 0.109285
0.068238 0.100984 0.109071
0.071870 0.099001 0.109133
0.076356 0.099641 0.106600
0.084352 0.099733 0.105501
0.093477 0.099733 0.106020
0.104952 0.099641 0.106874
0.119326 0.099550 0.107607
0.136507 0.098848 0.108217
0.156680 0.097230 0.108675
0.179873 0.094392 0.109163
0.205600 0.089876 0.109895
0.233494 0.083284 0.110353
0.263645 0.072877 0.110567
0.295354 0.054810 0.111116
0.328771 0.001099 0.111360
0.363500 0.000000 0.111879
0.399634 0.000000 0.112428
0.437995 0.000000 0.112886
0.479591 0.000000 0.113710
0.530999 0.000000 0.115145
0.582818 0.000000 0.116823
0.634577 0.000000 0.119722
0.684138 0.000000 0.123720
0.731563 0.000000 0.129915
0.777096 0.000000 0.138705
0.820462 0.000000 0.150484
0.861387 0.000000 0.166262
0.899077 0.000000 0.186831
0.933410 0.000000 0.213687
0.964233 0.000000 0.248020
0.061982 0.110262 0.113558
0.063386 0.109957 0.112947
0.065858 0.109285 0.112337
0.070619 0.107210 0.111147
0.075563 0.104707 0.111055
0.082551 0.105745 0.107790
0.093874 0.106783 0.105898
0.105989 0.106600 0.106294
0.120729 0.106416 0.106813
0.138094 0.106203 0.107362
0.158419 0.105318 0.107973
0.181765 0.103395 0.108400
0.207309 0.100130 0.108858
0.235386 0.094759 0.109285
0.265415 0.086885 0.109651
0.297459 0.074464 0.110170
0.330877 0.052705 0.110292
0.365820 0.000000 0.110719
0.401892 0.000000 0.111208
0.440620 0.000000 0.111543
0.485847 0.000000 0.112459
0.536645 0.000000 0.113619
0.634028 0.000000 0.117159
0.685969 0.000000 0.121218
0.733272 0.000000 0.127504
0.777066 0.000000 0.135897
0.817716 0.000000 0.146853
0.855650 0.000000 0.161105
0.890776 0.000000 0.179294
0.923217 0.000000 0.202487
0.952605 0.000000 0.231754
0.978943 0.000000 0.268223
0.055238 0.124392 0.119753
0.058503 0.123873 0.118593
0.061524 0.122896 0.117433
0.067445 0.121248 0.115267
0.075715 0.116701 0.114504
0.082521 0.114260 0.113344
0.093263 0.115999 0.109346
0.109224 0.118441 0.106294
0.125460 0.118379 0.106050
0.144717 0.117647 0.106355
0.166354 0.117220 0.106874
0.190555 0.116030 0.107362
0.217136 0.113313 0.107668
0.245792 0.109071 0.107942
0.275883 0.102541 0.108186
0.307561 0.093172 0.108339
0.340887 0.079408 0.108827
0.375677 0.056794 0.109133
0.412299 0.000000 0.109407
0.453071 0.000000 0.109987
0.505455 0.000000 0.110536
0.561059 0.000000 0.112001
0.618463 0.000000 0.113863
0.673793 0.000000 0.117525
0.725032 0.000000 0.123568
0.771145 0.000000 0.131991
0.813169 0.000000 0.142855
0.851621 0.000000 0.156893
0.887266 0.000000 0.175021
0.919707 0.000000 0.197757
0.949371 0.000000 0.226322
0.975982 0.000000 0.262211
0.039948 0.140780 0.126528
0.044434 0.140200 0.125429
0.051057 0.139162 0.124025
0.061006 0.137240 0.120882
0.071168 0.133333 0.117372
0.082490 0.126711 0.118410
0.091920 0.125826 0.115480
0.106020 0.128389 0.110719
0.126619 0.132052 0.106935
0.145846 0.132204 0.105318
0.168338 0.131594 0.105562
0.192996 0.130190 0.105623
0.219821 0.128603 0.106050
0.248264 0.125551 0.106264
0.278447 0.120943 0.106386
0.310002 0.114168 0.106477
0.343236 0.104677 0.106661
0.377874 0.091432 0.106905
0.414252 0.071290 0.107332
0.460151 0.007294 0.107485
0.510124 0.000000 0.108064
0.563317 0.000000 0.108919
0.618433 0.000000 0.110689
0.671962 0.000000 0.114107
0.722011 0.000000 0.119600
0.767605 0.000000 0.127962
0.809354 0.000000 0.138552
0.847959 0.000000 0.152377
0.883787 0.000000 0.170108
0.916564 0.000000 0.192630
0.946532 0.000000 0.221073
0.973449 0.000000 0.256565
0.012970 0.161379 0.135195
0.019440 0.160678 0.133883
0.026276 0.159854 0.132387
0.045197 0.157717 0.128634
0.063722 0.154421 0.124269
0.079042 0.147646 0.122286
0.092134 0.139101 0.123659
0.104189 0.141268 0.118379
0.122347 0.144839 0.112215
0.148806 0.150118 0.106996
0.171206 0.150057 0.104677
0.196414 0.149325 0.103700
0.224002 0.147158 0.103700
0.252873 0.144594 0.103822
0.282933 0.141421 0.103853
0.314611 0.136507 0.103792
0.347753 0.129519 0.104097
0.382361 0.120333 0.104189
0.423957 0.108278 0.103944
0.468574 0.090486 0.103975
0.516564 0.061250 0.104250
0.568139 0.000000 0.105013
0.621485 0.000000 0.106508
0.673274 0.000000 0.109834
0.722042 0.000000 0.115053
0.766690 0.000000 0.123232
0.807919 0.000000 0.133791
0.846189 0.000000 0.147646
0.881804 0.000000 0.165438
0.914488 0.000000 0.187778
0.944335 0.000000 0.216129
0.971283 0.090150 0.251133
0.000000 0.186252 0.145205
0.000000 0.185428 0.143862
0.000000 0.184573 0.142031
0.010834 0.182406 0.138125
0.044221 0.179080 0.133150
0.068940 0.173709 0.126833
0.090608 0.164187 0.128511
0.104341 0.156039 0.129122
0.120302 0.160281 0.121431
0.142794 0.164645 0.113619
0.174533 0.171908 0.106569
0.199954 0.171176 0.103517
0.227268 0.170321 0.100740
0.257206 0.167758 0.100557
0.288518 0.163973 0.100343
0.320806 0.160586 0.100313
0.356268 0.155886 0.100130
0.395575 0.150118 0.099763
0.436133 0.142397 0.099519
0.479438 0.131899 0.099611
0.525536 0.118746 0.099458
0.574212 0.099916 0.100130
0.624414 0.073518 0.101137
0.673060 0.002777 0.104036
0.719722 0.000000 0.109468
0.763516 0.000000 0.117006
0.804715 0.000000 0.127535
0.843442 0.000000 0.141543
0.879576 0.000000 0.159915
0.912871 0.000000 0.182712
0.943145 0.090517 0.211582
0.970397 0.161990 0.247440
0.000000 0.213931 0.156466
0.000000 0.213474 0.155215
0.000000 0.212528 0.153262
0.000000 0.210452 0.149447
0.000000 0.207309 0.143862
0.053712 0.202548 0.138125
0.082307 0.194217 0.134188
0.104829 0.183200 0.136355
0.120394 0.177768 0.134463
0.140383 0.183291 0.125246
0.167178 0.188724 0.115389
0.204654 0.197940 0.105379
0.232609 0.196292 0.101534
0.262150 0.194827 0.097536
0.294774 0.192599 0.095949
0.331060 0.189181 0.095216
0.368109 0.185702 0.094331
0.405921 0.181643 0.094118
0.445258 0.175998 0.093568
0.487343 0.169436 0.093202
0.532189 0.161624 0.093141
0.579767 0.152377 0.092958
0.628717 0.141695 0.094057
0.676295 0.129824 0.096712
0.721798 0.116670 0.102144
0.764431 0.103670 0.110109
0.804593 0.094240 0.120943
0.842588 0.092866 0.135439
0.878202 0.105715 0.153750
0.911070 0.130922 0.177005
0.941253 0.166842 0.205753
0.968536 0.211337 0.241611
0.000000 0.246464 0.169833
0.000000 0.245853 0.168338
0.000000 0.244877 0.166476
0.000000 0.242954 0.162509
0.000000 0.239780 0.156680
0.002167 0.235294 0.150240
0.066041 0.229007 0.142519
0.099367 0.217655 0.143343
0.122683 0.204959 0.146090
0.140414 0.203708 0.140780
0.164614 0.210422 0.129641
0.196628 0.217746 0.117128
0.260258 0.245548 0.101869
0.295781 0.244205 0.095247
0.332036 0.242405 0.088075
0.369879 0.239902 0.082490
0.408972 0.234867 0.081361
0.448219 0.228733 0.080598
0.487770 0.224216 0.079927
0.529564 0.219638 0.079408
0.573510 0.214817 0.079255
0.618769 0.209873 0.079805
0.663081 0.204166 0.082094
0.706233 0.198581 0.086213
0.747494 0.193179 0.093721
0.786496 0.189212 0.104005
0.823178 0.187350 0.117403
0.857694 0.189731 0.133791
0.889921 0.198306 0.153780
0.920043 0.214023 0.178408
0.947753 0.238590 0.208438
0.973175 0.271794 0.245518
0.000000 0.290501 0.187900
0.000000 0.289860 0.186618
0.000000 0.288365 0.184207
0.000000 0.285893 0.179873
0.000000 0.281895 0.173526
0.000000 0.276585 0.166110
0.021546 0.270085 0.158907
0.085481 0.259953 0.152316
0.122164 0.247715 0.155703
0.147158 0.234867 0.159731
0.170779 0.242039 0.150484
0.203555 0.253696 0.136782
0.245060 0.265568 0.119966
0.301549 0.283085 0.099245
0.342473 0.283024 0.088563
0.380224 0.280247 0.078676
0.417762 0.277043 0.067109
0.456001 0.270878 0.066255
0.494942 0.263737 0.065339
0.535393 0.258976 0.064515
0.577722 0.255772 0.063966
0.621485 0.252689 0.063905
0.664240 0.249393 0.066163
0.706081 0.245853 0.071595
0.746273 0.242771 0.080262
0.784421 0.240574 0.091615
0.820615 0.240177 0.105715
0.854856 0.242557 0.123232
0.887083 0.249302 0.144320
0.917296 0.262333 0.169528
0.945190 0.282048 0.200198
0.970825 0.310185 0.237797
0.000000 0.332921 0.205570
0.000000 0.332494 0.204257
0.000000 0.331334 0.202426
0.000000 0.329107 0.197910
0.000000 0.325353 0.191531
0.000000 0.320897 0.184146
0.000000 0.315099 0.176242
0.062196 0.307652 0.168032
0.113161 0.295232 0.166445
0.149355 0.281346 0.170657
0.175143 0.269108 0.173678
0.203769 0.281285 0.160067
0.241093 0.293950 0.143313
0.286564 0.306432 0.122133
0.345098 0.323491 0.095369
0.388922 0.323766 0.079408
0.425788 0.318730 0.065248
0.462440 0.313970 0.037842
0.500603 0.308202 0.026520
0.540551 0.302007 0.023163
0.582635 0.296696 0.019684
0.625269 0.294987 0.019165
0.666957 0.293065 0.024994
0.707851 0.291020 0.040253
0.747219 0.289220 0.059846
0.784726 0.288182 0.074342
0.820371 0.288365 0.092012
0.854124 0.291020 0.111208
0.886015 0.297429 0.133913
0.916014 0.308507 0.160922
0.943847 0.325475 0.192721
0.969451 0.349737 0.231357
0.000000 0.383948 0.227604
0.000000 0.383581 0.226352
0.000000 0.382116 0.224063
0.000000 0.379309 0.219547
0.000000 0.374945 0.212741
0.000000 0.369390 0.204379
0.000000 0.362921 0.195590
0.000000 0.355688 0.187716
0.090059 0.345098 0.177737
0.144076 0.330694 0.181918
0.179599 0.315404 0.186831
0.206485 0.309026 0.185702
0.239445 0.322515 0.169680
0.280491 0.335576 0.149660
0.328649 0.348028 0.124331
0.387823 0.363928 0.091249
0.434333 0.365057 0.066682
0.470405 0.358495 0.034089
0.507286 0.353307 0.000000
0.546288 0.348638 0.000000
0.587427 0.343572 0.000000
0.629267 0.338262 0.000000
0.669947 0.335790 0.000000
0.709895 0.334661 0.000000
0.748501 0.333745 0.000000
0.785794 0.333684 0.038483
0.821592 0.335119 0.072267
0.855680 0.338781 0.096895
0.887877 0.345525 0.123232
0.917998 0.356542 0.153536
0.945830 0.372717 0.188296
0.971344 0.395361 0.229465
0.000000 0.435096 0.250095
0.000000 0.434760 0.248905
0.000000 0.433753 0.246983
0.000000 0.431312 0.242710
0.000000 0.427375 0.235874
0.000000 0.422431 0.227695
0.000000 0.416663 0.218540
0.000000 0.409857 0.209567
0.062959 0.401373 0.201572
0.129885 0.387152 0.195804
0.179294 0.370581 0.200473
0.213443 0.352483 0.205478
0.241398 0.351568 0.198276
0.276738 0.364202 0.179263
0.319463 0.376287 0.156039
0.368444 0.387488 0.126680
0.427527 0.402441 0.086793
0.477424 0.406256 0.041596
0.514733 0.399786 0.000000
0.553918 0.396033 0.000000
0.594965 0.393713 0.000000
0.636530 0.389746 0.000000
0.677180 0.384924 0.000000
0.716762 0.381048 0.000000
0.754726 0.380926 0.000000
0.791348 0.381476 0.000000
0.826383 0.383246 0.023011
0.859586 0.386847 0.077577
0.890776 0.393225 0.110323
0.919799 0.402808 0.144228
0.946593 0.416724 0.181308
0.971221 0.436103 0.223850
0.000000 0.484321 0.272923
0.000000 0.483589 0.271489
0.000000 0.482521 0.269627
0.000000 0.479988 0.265019
0.000000 0.476326 0.258518
0.000000 0.471443 0.250309
0.000000 0.465919 0.240970
0.000000 0.459174 0.231296
0.000000 0.451057 0.222385
0.098207 0.439857 0.208530
0.168673 0.423377 0.213138
0.213809 0.405493 0.218204
0.246372 0.385931 0.223545
0.276493 0.392584 0.209812
0.314397 0.405158 0.188510
0.358679 0.416815 0.162142
0.408850 0.427771 0.129366
0.467750 0.442237 0.081636
0.521630 0.449500 0.000000
0.560266 0.444038 0.000000
0.600153 0.441108 0.000000
0.640406 0.438819 0.000000
0.680262 0.434699 0.000000
0.719387 0.430335 0.000000
0.757198 0.425574 0.000000
0.793332 0.425788 0.000000
0.828000 0.427771 0.000000
0.860807 0.431495 0.029358
0.891630 0.437476 0.091737
0.920348 0.446174 0.131777
0.946838 0.458869 0.172519
0.971221 0.476509 0.217960
0.000000 0.536004 0.297887
0.000000 0.536065 0.296727
0.000000 0.566308 0.310582
0.000000 0.563745 0.306065
0.000000 0.559533 0.299168
0.000000 0.553857 0.289860
0.000000 0.547021 0.279240
0.000000 0.538750 0.267735
0.000000 0.529534 0.256809
0.081147 0.519066 0.248356
0.157961 0.502464 0.237125
0.219425 0.482826 0.241611
0.262577 0.460883 0.246311
0.293492 0.438972 0.250004
0.327001 0.451514 0.228885
0.367620 0.463569 0.203372
0.414191 0.474830 0.172854
0.465919 0.485603 0.133547
0.524804 0.499092 0.073579
0.582269 0.509453 0.000000
0.619684 0.502586 0.000000
0.657557 0.497780 0.000000
0.694972 0.494026 0.000000
0.731685 0.488930 0.000000
0.766659 0.483040 0.000000
0.800381 0.477211 0.000000
0.832578 0.474769 0.000000
0.863279 0.476753 0.000000
0.892760 0.481178 0.063783
0.920653 0.488777 0.115877
0.946654 0.499855 0.161776
0.970581 0.515251 0.210056
0.000000 0.596338 0.328771
0.000000 0.599908 0.329442
0.000000 0.603082 0.329747
0.000000 0.604700 0.327520
0.000000 0.604059 0.322545
0.000000 0.600458 0.314611
0.000000 0.594965 0.304631
0.000000 0.587549 0.293126
0.000000 0.579217 0.281682
0.000000 0.569512 0.271489
0.119692 0.556786 0.252201
0.204715 0.537865 0.256443
0.258946 0.516686 0.261143
0.298375 0.493477 0.265568
0.328130 0.479255 0.262852
0.363500 0.491493 0.239536
0.405524 0.503319 0.212161
0.453132 0.514855 0.179263
0.505852 0.526329 0.136538
0.564538 0.540307 0.067445
0.624079 0.553613 0.000000
0.661646 0.547478 0.000000
0.698573 0.542718 0.000000
0.734676 0.539025 0.000000
0.769375 0.533776 0.000000
0.802731 0.528588 0.000000
0.834653 0.523705 0.000000
0.865171 0.520623 0.000000
0.893980 0.524590 0.000000
0.921263 0.530938 0.095125
0.946685 0.540490 0.149660
0.970184 0.553979 0.201938
0.000000 0.643915 0.354467
0.000000 0.646998 0.355261
0.000000 0.650050 0.355718
0.000000 0.651514 0.353765
0.000000 0.651087 0.348791
0.000000 0.648035 0.341375
0.000000 0.643122 0.331548
0.000000 0.636805 0.320531
0.000000 0.629541 0.308904
0.000000 0.620966 0.297856
0.106294 0.610773 0.289067
0.181765 0.595056 0.273808
0.250462 0.574914 0.277958
0.299596 0.552636 0.282261
0.335698 0.528099 0.286534
0.365881 0.522362 0.276799
0.403204 0.534569 0.251835
0.446632 0.546624 0.222568
0.495613 0.558801 0.186770
0.549371 0.571130 0.140444
0.606867 0.584558 0.060822
0.667018 0.599664 0.000000
0.703487 0.593469 0.000000
0.738827 0.588464 0.000000
0.772641 0.584070 0.000000
0.805142 0.578759 0.000000
0.836210 0.573877 0.000000
0.865934 0.570001 0.000000
0.894499 0.567834 0.000000
0.921202 0.571527 0.063478
0.946105 0.579553 0.134188
0.969268 0.591119 0.191836
0.000000 0.690211 0.381567
0.000000 0.693080 0.382300
0.000000 0.695827 0.382757
0.000000 0.697261 0.381048
0.000000 0.696803 0.376471
0.000000 0.694240 0.369177
0.000000 0.690059 0.360327
0.000000 0.684474 0.349462
0.000000 0.677943 0.338170
0.000000 0.670192 0.326726
0.000000 0.661189 0.316686
0.153719 0.649592 0.297124
0.235874 0.631800 0.297032
0.295903 0.611536 0.300969
0.340826 0.589014 0.304997
0.374701 0.564446 0.309300
0.407752 0.569207 0.293004
0.448341 0.583215 0.267308
0.494972 0.597467 0.236790
0.546624 0.611627 0.199649
0.601892 0.625696 0.150698
0.659846 0.639918 0.064942
0.719142 0.655482 0.000000
0.754116 0.649256 0.000000
0.787289 0.643915 0.000000
0.818662 0.639185 0.000000
0.848295 0.633997 0.000000
0.876432 0.629755 0.000000
0.903319 0.626886 0.000000
0.928740 0.625696 0.038605
0.952422 0.628717 0.131777
0.974151 0.638361 0.195773
0.000000 0.747189 0.418219
0.000000 0.748257 0.418280
0.000000 0.748836 0.417548
0.000000 0.748379 0.414405
0.000000 0.746792 0.409522
0.000000 0.744045 0.402747
0.000000 0.740261 0.393957
0.000000 0.735714 0.384039
0.000000 0.730495 0.373205
0.000000 0.724392 0.362707
0.000000 0.717159 0.352911
0.160433 0.708095 0.345495
0.224186 0.694545 0.325841
0.295323 0.676631 0.329107
0.348760 0.656428 0.332555
0.390112 0.634424 0.336217
0.422004 0.610651 0.340185
0.457588 0.623865 0.316258
0.499062 0.637079 0.288609
0.545678 0.649958 0.256260
0.596185 0.662501 0.216831
0.649287 0.674586 0.165316
0.703517 0.686030 0.079408
0.758602 0.699214 0.000000
0.790433 0.691707 0.000000
0.820890 0.685603 0.000000
0.849851 0.680629 0.000000
0.877317 0.676051 0.000000
0.903441 0.672633 0.000000
0.928161 0.670680 0.000000
0.951476 0.670588 0.119722
0.973419 0.673793 0.185275
0.000000 0.787869 0.447364
0.000000 0.788846 0.447364
0.000000 0.789609 0.447089
0.000000 0.789303 0.444404
0.000000 0.788022 0.440009
0.000000 0.785489 0.433234
0.000000 0.782010 0.424994
0.000000 0.777890 0.415747
0.000000 0.773129 0.405707
0.000000 0.767575 0.395575
0.000000 0.761227 0.386084
0.135317 0.753506 0.378424
0.217838 0.743587 0.361822
0.287266 0.728634 0.356054
0.348089 0.711238 0.359106
0.396185 0.692226 0.362463
0.434638 0.671534 0.366155
0.466255 0.658076 0.364233
0.503319 0.671199 0.339635
0.545647 0.684138 0.311070
0.592370 0.696742 0.277806
0.642267 0.708827 0.237675
0.694087 0.720272 0.185763
0.746120 0.730861 0.105348
0.790646 0.735256 0.000000
0.820798 0.728176 0.000000
0.849241 0.722194 0.000000
0.876249 0.717556 0.000000
0.901823 0.713649 0.000000
0.926116 0.710994 0.000000
0.949187 0.710353 0.107668
0.971008 0.712184 0.179660
0.000000 0.833860 0.485023
0.000000 0.834897 0.485328
0.000000 0.835294 0.484840
0.000000 0.834592 0.482094
0.000000 0.832944 0.477516
0.000000 0.830350 0.471199
0.000000 0.826902 0.463416
0.000000 0.822599 0.454108
0.000000 0.817624 0.444221
0.000000 0.812009 0.434180
0.000000 0.805417 0.424628
0.118044 0.797910 0.416510
0.231693 0.788846 0.411048
0.281346 0.777188 0.388525
0.347143 0.761105 0.389929
0.399237 0.743282 0.391241
0.441474 0.724117 0.393561
0.476112 0.704128 0.396674
0.507408 0.699367 0.387671
0.545037 0.712001 0.362615
0.587518 0.724453 0.333898
0.633448 0.736294 0.300084
0.681483 0.746914 0.259068
0.730190 0.756313 0.206455
0.778134 0.764431 0.129580
0.822538 0.770809 0.000000
0.851560 0.765103 0.000000
0.877501 0.758907 0.000000
0.902098 0.754055 0.000000
0.925505 0.750454 0.000000
0.947936 0.748745 0.098543
0.969390 0.749508 0.178134
0.000000 0.865263 0.513787
0.000000 0.866209 0.514336
0.000000 0.866545 0.513878
0.000000 0.866056 0.511803
0.000000 0.864652 0.507744
0.000000 0.862547 0.502159
0.000000 0.859770 0.495460
0.000000 0.856413 0.487526
0.000000 0.852537 0.479164
0.000000 0.848020 0.470649
0.000000 0.842802 0.462776
0.109224 0.836759 0.456275
0.233158 0.829496 0.451972
0.300359 0.820798 0.440589
0.352667 0.808713 0.429328
0.408576 0.793942 0.430610
0.454536 0.778042 0.432441
0.493263 0.761257 0.435279
0.525597 0.743771 0.439063
0.557519 0.747158 0.424140
0.594842 0.758602 0.398322
0.635920 0.769406 0.368658
0.679652 0.779171 0.333654
0.724788 0.787716 0.291356
0.770169 0.795102 0.238926
0.814450 0.801450 0.166903
0.853178 0.804654 0.075471
0.881224 0.800229 0.000000
0.905303 0.794400 0.000000
0.927886 0.790066 0.000000
0.949401 0.787381 0.106111
0.970214 0.787228 0.187961
0.000000 0.895598 0.545983
0.000000 0.896025 0.545922
0.000000 0.896025 0.545403
0.000000 0.895262 0.543206
0.000000 0.893858 0.539300
0.000000 0.891814 0.534234
0.000000 0.889281 0.528161
0.000000 0.886259 0.521202
0.000000 0.882902 0.514092
0.000000 0.879118 0.507286
0.000000 0.874662 0.500877
0.114626 0.869657 0.495979
0.239750 0.863584 0.493111
0.323339 0.856138 0.493233
0.361761 0.847807 0.471778
0.418494 0.835599 0.472663
0.466285 0.822354 0.474067
0.507012 0.808286 0.476081
0.542321 0.793606 0.479408
0.572259 0.778439 0.483894
0.604028 0.787655 0.462104
0.639948 0.797452 0.435981
0.678859 0.806302 0.405249
0.719814 0.814054 0.368963
0.761746 0.820676 0.326024
0.803555 0.826291 0.273167
0.844450 0.831266 0.204807
0.878843 0.832181 0.131380
0.905425 0.828367 0.025574
0.928069 0.823026 0.000000
0.948974 0.819608 0.108339
0.969177 0.818357 0.192416
0.000000 0.920134 0.575158
0.000000 0.920348 0.575158
0.000000 0.920287 0.574701
0.000000 0.919738 0.572839
0.000000 0.918761 0.569970
0.000000 0.917601 0.566613
0.000000 0.916381 0.562890
0.000000 0.914916 0.559136
0.000000 0.913207 0.555627
0.000000 0.911162 0.552697
0.000000 0.908507 0.550896
0.172854 0.905058 0.550469
0.280583 0.900664 0.552300
0.361639 0.894926 0.556756
0.421424 0.888334 0.556725
0.457252 0.880369 0.543297
0.503136 0.870146 0.544671
0.543267 0.859281 0.546502
0.578698 0.847959 0.549523
0.609674 0.836179 0.553460
0.636530 0.827939 0.553521
0.665675 0.835904 0.530175
0.697963 0.842954 0.502708
0.732784 0.849119 0.470466
0.769253 0.854337 0.432715
0.806546 0.858732 0.387793
0.843900 0.862547 0.334295
0.880735 0.865751 0.268162
0.910491 0.864561 0.204898
0.934783 0.860563 0.154208
0.955322 0.855863 0.149844
0.973968 0.853422 0.224979
0.000000 0.948394 0.615442
0.000000 0.948394 0.615259
0.000000 0.948180 0.614740
0.000000 0.947509 0.613153
0.000000 0.946441 0.610681
0.000000 0.945068 0.607691
0.000000 0.943420 0.604425
0.000000 0.941527 0.601190
0.000000 0.939269 0.598291
0.000000 0.936614 0.596094
0.000000 0.933379 0.594812
0.214237 0.929473 0.595178
0.309483 0.924773 0.597650
0.386145 0.919127 0.602899
