data/fiter_cube/49007420/1023421/file.cube
# Created by Adobe Lightroom plugin Export LUT (1.17.0)
# www.johnrellis.com/lightroom/exportlut.htm
# Preset: 05 - 日系情绪-夏 [云集]
# Color profile: C:\Program Files (x86)\Common Files\Adobe\Color\Profiles\Recommended\AdobeRGB1998.icc
LUT_3D_SIZE 5
DOMAIN_MIN 0.000000 0.000000 0.000000
DOMAIN_MAX 0.903226 0.903226 0.903226
0.066560 0.089662 0.103578
0.104677 0.090120 0.107759
0.267948 0.022583 0.112154
0.537621 0.000000 0.117464
0.870939 0.000000 0.173281
0.039948 0.140780 0.126528
0.106020 0.128389 0.110719
0.278447 0.120943 0.106386
0.563317 0.000000 0.108919
0.883787 0.000000 0.170108
0.000000 0.383948 0.227604
0.000000 0.355688 0.187716
0.328649 0.348028 0.124331
0.629267 0.338262 0.000000
0.887877 0.345525 0.123232
0.000000 0.747189 0.418219
0.000000 0.735714 0.384039
0.348760 0.656428 0.332555
0.649287 0.674586 0.165316
0.903441 0.672633 0.000000
0.000000 0.966766 0.644678
0.000000 0.960662 0.635676
0.455390 0.927733 0.636927
0.694942 0.879149 0.654200
0.890288 0.902708 0.428046
0.053162 0.092287 0.153079
0.109743 0.092622 0.137423
0.269657 0.067292 0.120790
0.533257 0.000000 0.113069
0.855100 0.000000 0.164034
0.000000 0.147890 0.183291
0.110323 0.138643 0.161929
0.284062 0.127718 0.133211
0.551415 0.015290 0.104280
0.861967 0.000000 0.157321
0.000000 0.400305 0.301396
0.000000 0.373968 0.258701
0.318242 0.338018 0.193820
0.607599 0.325750 0.090822
0.882811 0.345251 0.118563
0.000000 0.755764 0.483345
0.000000 0.744808 0.451484
0.346075 0.674006 0.381170
0.649073 0.675074 0.256291
0.902800 0.670192 0.000000
0.000000 0.969238 0.678981
0.000000 0.963378 0.668482
0.456672 0.936584 0.677089
0.704555 0.887022 0.689754
0.889952 0.905303 0.498024
0.000000 0.094453 0.357458
0.134554 0.085298 0.351537
0.344274 0.000000 0.300420
0.593042 0.000000 0.229679
0.867033 0.000000 0.167727
0.000000 0.161532 0.370825
0.000000 0.144808 0.371710
0.350896 0.145296 0.326635
0.582727 0.000000 0.240909
0.873747 0.000000 0.163088
0.000000 0.392462 0.473457
0.000000 0.384100 0.455299
0.332219 0.361059 0.393225
0.608087 0.332097 0.320256
0.887663 0.320989 0.180636
0.000000 0.785458 0.682002
0.000000 0.775509 0.656062
0.273106 0.725338 0.555657
0.651728 0.684901 0.470253
0.898070 0.650568 0.302068
0.000000 0.975677 0.787930
0.000000 0.972747 0.777005
0.302007 0.952697 0.746242
0.701778 0.900053 0.752438
0.877958 0.903929 0.640742
0.000000 0.097230 0.677394
0.000000 0.071168 0.682460
0.503899 0.000000 0.694026
0.700557 0.000000 0.591852
0.909239 0.000000 0.498238
0.000000 0.159121 0.681514
0.000000 0.158450 0.686580
0.476753 0.162112 0.698787
0.693751 0.126040 0.604303
0.902159 0.000000 0.500969
0.000000 0.390692 0.696895
0.000000 0.375097 0.685695
0.283513 0.350988 0.697078
0.673365 0.417731 0.649073
0.887114 0.302739 0.512749
0.000000 0.709621 0.801877
0.000000 0.704768 0.793698
0.000000 0.698604 0.773007
0.629816 0.681453 0.717189
0.877226 0.629084 0.590143
0.000000 0.978973 0.903807
0.000000 0.978790 0.900908
0.000000 0.975494 0.890806
0.651637 0.933898 0.848905
0.867124 0.907134 0.809964
0.000000 0.139620 0.929625
0.133181 0.126711 0.929625
0.557305 0.125490 0.929473
0.819577 0.259770 0.921294
0.912596 0.246525 0.833310
0.000000 0.204654 0.928405
0.000000 0.203494 0.928618
0.524376 0.223789 0.928893
0.813138 0.361151 0.921660
0.908354 0.335973 0.839475
0.000000 0.409735 0.921965
0.000000 0.382757 0.923766
0.318090 0.377630 0.927459
0.783444 0.552941 0.924132
0.897002 0.550469 0.863676
0.000000 0.700679 0.937652
0.000000 0.690883 0.935576
0.000000 0.650599 0.928557
0.610010 0.658289 0.924926
0.884123 0.781552 0.902037
0.000000 0.929595 0.955901
0.000000 0.929290 0.955077
0.000000 0.928771 0.952789
0.520958 0.920897 0.945312
0.861357 0.908019 0.926024
