data/fiter_cube/48671653/1023257/file.cube
# Created by Adobe Lightroom plugin Export LUT (1.17.0)
# www.johnrellis.com/lightroom/exportlut.htm
# Preset: 青橙风光风景_06 云集
# Color profile: C:\Program Files (x86)\Common Files\Adobe\Color\Profiles\Recommended\AdobeRGB1998.icc
LUT_3D_SIZE 32
DOMAIN_MIN 0.0 0.0 0.0
DOMAIN_MAX 1.0 1.0 1.0
0.094728 0.094728 0.094728
0.105653 0.095064 0.094667
0.120272 0.095460 0.094423
0.147616 0.096223 0.093782
0.180270 0.097627 0.092531
0.213199 0.099458 0.091005
0.246250 0.101564 0.088716
0.279057 0.104341 0.085786
0.311986 0.107454 0.082155
0.345129 0.111269 0.077607
0.379034 0.115572 0.072175
0.413519 0.120546 0.064363
0.448432 0.126192 0.051453
0.483925 0.132601 0.024750
0.519738 0.139437 0.000000
0.555779 0.146548 0.000000
0.591852 0.153384 0.000000
0.626490 0.160555 0.000000
0.659236 0.167117 0.000000
0.691341 0.173434 0.000000
0.722988 0.179324 0.000000
0.754360 0.184848 0.000000
0.785367 0.189883 0.000000
0.816007 0.194522 0.000000
0.846281 0.198703 0.000000
0.876280 0.202518 0.000000
0.905974 0.205936 0.000000
0.935485 0.208682 0.000000
0.964843 0.211185 0.000000
0.994141 0.213413 0.000000
1.000000 0.215244 0.000000
1.000000 0.217014 0.000000
0.095583 0.098970 0.095125
0.106905 0.098970 0.094057
0.121828 0.099245 0.093538
0.149660 0.099763 0.092348
0.182376 0.100710 0.090761
0.215152 0.102602 0.089204
0.247990 0.104616 0.087098
0.280644 0.107485 0.084108
0.313268 0.110567 0.080720
0.346532 0.114046 0.076051
0.380316 0.118471 0.070069
0.414710 0.123262 0.062257
0.449622 0.128695 0.047486
0.485084 0.135073 0.019318
0.520806 0.141787 0.000000
0.556817 0.148836 0.000000
0.592798 0.155764 0.000000
0.627253 0.162600 0.000000
0.659937 0.169100 0.000000
0.691981 0.175204 0.000000
0.723598 0.180911 0.000000
0.754879 0.186404 0.000000
0.785824 0.191318 0.000000
0.816434 0.195773 0.000000
0.846677 0.199954 0.000000
0.876646 0.203769 0.000000
0.906279 0.206973 0.000000
0.935760 0.209964 0.000000
0.965087 0.212345 0.000000
0.994354 0.214481 0.000000
1.000000 0.216220 0.000000
1.000000 0.218021 0.000000
0.095979 0.105074 0.095888
0.108125 0.105684 0.093935
0.123262 0.105379 0.092927
0.150820 0.105623 0.091737
0.183871 0.106325 0.089876
0.217319 0.107271 0.087434
0.250370 0.108949 0.084688
0.282689 0.111452 0.081880
0.315312 0.114504 0.078309
0.348272 0.117891 0.073457
0.381964 0.122072 0.067597
0.416358 0.127016 0.059388
0.451118 0.132265 0.039429
0.486580 0.138674 0.011933
0.522148 0.145205 0.000000
0.558160 0.151858 0.000000
0.594079 0.158755 0.000000
0.628412 0.165316 0.000000
0.661006 0.171695 0.000000
0.692897 0.177646 0.000000
0.724483 0.183108 0.000000
0.755642 0.188357 0.000000
0.786496 0.193362 0.000000
0.817014 0.197726 0.000000
0.847227 0.201877 0.000000
0.877104 0.205386 0.000000
0.906706 0.208682 0.000000
0.936126 0.211460 0.000000
0.965423 0.213748 0.000000
0.994629 0.215885 0.000000
1.000000 0.217533 0.000000
1.000000 0.219242 0.000000
0.098451 0.118959 0.097017
0.108858 0.118807 0.096223
0.125948 0.119753 0.092409
0.153048 0.118257 0.090303
0.186404 0.117983 0.088441
0.219638 0.118776 0.085969
0.252659 0.119905 0.082856
0.285588 0.121553 0.078981
0.318517 0.123568 0.074220
0.351934 0.126223 0.068177
0.385626 0.130068 0.061158
0.419837 0.134707 0.047364
0.454536 0.140139 0.023102
0.489723 0.145998 0.000000
0.525231 0.152163 0.000000
0.561120 0.158663 0.000000
0.596857 0.165072 0.000000
0.630884 0.171298 0.000000
0.663203 0.177249 0.000000
0.694881 0.182834 0.000000
0.726253 0.188205 0.000000
0.757259 0.192966 0.000000
0.787991 0.197665 0.000000
0.818326 0.201907 0.000000
0.848386 0.205570 0.000000
0.878172 0.209049 0.000000
0.907622 0.211978 0.000000
0.936950 0.214725 0.000000
0.966125 0.216983 0.000000
0.995239 0.218845 0.000000
1.000000 0.220462 0.000000
1.000000 0.221988 0.000000
0.101411 0.134218 0.099458
0.109957 0.132174 0.100679
0.123751 0.134646 0.096223
0.151614 0.134096 0.090639
0.186648 0.134890 0.086275
0.223209 0.134920 0.083528
0.256291 0.135317 0.080354
0.289006 0.136416 0.076326
0.321904 0.138033 0.071321
0.355138 0.140780 0.064881
0.389105 0.143679 0.054810
0.423621 0.147799 0.033509
0.458564 0.152499 0.006653
0.493874 0.157656 0.000000
0.529595 0.162936 0.000000
0.565484 0.168734 0.000000
0.601007 0.174746 0.000000
0.634668 0.180423 0.000000
0.666682 0.185702 0.000000
0.698024 0.190860 0.000000
0.729030 0.195651 0.000000
0.759823 0.200168 0.000000
0.790280 0.204318 0.000000
0.820401 0.208286 0.000000
0.850217 0.211643 0.000000
0.879789 0.214694 0.000000
0.909056 0.217350 0.000000
0.938201 0.219730 0.000000
0.967224 0.221805 0.000000
0.996155 0.223545 0.000000
1.000000 0.224826 0.000000
1.000000 0.226047 0.000000
0.105806 0.148592 0.102846
0.113191 0.146731 0.104067
0.122377 0.146395 0.103365
0.148959 0.151675 0.093446
0.181308 0.150484 0.088319
0.221561 0.153597 0.080690
0.261021 0.154269 0.076570
0.293523 0.154910 0.072328
0.326116 0.156039 0.066957
0.359411 0.158053 0.059907
0.393378 0.160952 0.044465
0.427863 0.164523 0.020325
0.462715 0.168521 0.000000
0.498085 0.173007 0.000000
0.533654 0.177768 0.000000
0.569512 0.182956 0.000000
0.604883 0.188205 0.000000
0.638422 0.193088 0.000000
0.670344 0.197574 0.000000
0.701686 0.201755 0.000000
0.732753 0.205631 0.000000
0.763241 0.209598 0.000000
0.793301 0.213169 0.000000
0.823148 0.216434 0.000000
0.852659 0.219486 0.000000
0.881956 0.222171 0.000000
0.910979 0.224552 0.000000
0.939879 0.226505 0.000000
0.968688 0.228275 0.000000
0.997467 0.229679 0.000000
1.000000 0.230686 0.000000
1.000000 0.231601 0.000000
0.111086 0.163546 0.107393
0.117861 0.161746 0.108553
0.124941 0.159548 0.109743
0.144381 0.163912 0.103273
0.178866 0.169039 0.092897
0.214145 0.169467 0.086244
0.257023 0.173892 0.076051
0.298100 0.175814 0.066804
0.331518 0.176425 0.060700
0.364813 0.178073 0.048615
0.398718 0.180545 0.027710
0.433143 0.183413 0.003418
0.467994 0.186954 0.000000
0.503349 0.190829 0.000000
0.538811 0.195163 0.000000
0.574517 0.199557 0.000000
0.609491 0.204013 0.000000
0.642664 0.208072 0.000000
0.674250 0.211917 0.000000
0.705287 0.215427 0.000000
0.736019 0.218814 0.000000
0.766537 0.221744 0.000000
0.796689 0.224430 0.000000
0.826535 0.226719 0.000000
0.855741 0.229160 0.000000
0.884642 0.231266 0.000000
0.913420 0.233188 0.000000
0.942016 0.234806 0.000000
0.970581 0.236057 0.000000
0.999054 0.237217 0.000000
1.000000 0.237980 0.000000
1.000000 0.238590 0.000000
0.117433 0.179599 0.112795
0.123110 0.178103 0.113680
0.129671 0.176028 0.114809
0.144137 0.176577 0.112825
0.174319 0.184298 0.101869
0.209415 0.185794 0.093812
0.249210 0.190311 0.085267
0.292821 0.195346 0.073610
0.335180 0.198306 0.059693
0.371008 0.199710 0.033204
0.405097 0.201785 0.006989
0.439551 0.204288 0.000000
0.474342 0.207279 0.000000
0.509514 0.210544 0.000000
0.545037 0.214145 0.000000
0.580560 0.217960 0.000000
0.615015 0.221714 0.000000
0.647730 0.225071 0.000000
0.678889 0.228061 0.000000
0.709529 0.230991 0.000000
0.739956 0.233707 0.000000
0.770077 0.236088 0.000000
0.799954 0.238132 0.000000
0.829526 0.239963 0.000000
0.858824 0.241306 0.000000
0.887907 0.242344 0.000000
0.916289 0.243656 0.000000
0.944579 0.244633 0.000000
0.972808 0.245335 0.000000
1.000000 0.246006 0.000000
1.000000 0.246494 0.000000
1.000000 0.246647 0.000000
0.124178 0.197543 0.118746
0.129397 0.195865 0.119448
0.135592 0.194003 0.120516
0.146548 0.190463 0.122042
0.171695 0.198154 0.113527
0.208194 0.206241 0.102022
0.244724 0.207431 0.094972
0.285649 0.212711 0.084627
0.329717 0.217868 0.070924
0.373571 0.221561 0.048554
0.411414 0.223301 0.009674
0.446479 0.225925 0.000000
0.481849 0.229099 0.000000
0.516960 0.231968 0.000000
0.552209 0.235019 0.000000
0.587549 0.238285 0.000000
0.621454 0.241154 0.000000
0.653651 0.243717 0.000000
0.684291 0.245945 0.000000
0.714534 0.248173 0.000000
0.744503 0.250065 0.000000
0.774258 0.251835 0.000000
0.803708 0.253361 0.000000
0.832914 0.254643 0.000000
0.861875 0.255589 0.000000
0.890623 0.256016 0.000000
0.919158 0.256229 0.000000
0.947539 0.255924 0.000000
0.975433 0.256016 0.000000
1.000000 0.256046 0.000000
1.000000 0.256046 0.000000
1.000000 0.255863 0.000000
0.131441 0.216281 0.124697
0.136080 0.215000 0.125307
0.141878 0.212924 0.126009
0.152102 0.208896 0.127596
0.171756 0.212436 0.123384
0.204746 0.221744 0.112734
0.244114 0.228763 0.102388
0.281682 0.230503 0.094301
0.323369 0.235935 0.082795
0.368017 0.241276 0.066804
0.413123 0.245792 0.030182
0.453254 0.247745 0.000000
0.488746 0.250431 0.000000
0.524620 0.253666 0.000000
0.560510 0.257145 0.000000
0.595422 0.259770 0.000000
0.628748 0.261906 0.000000
0.660304 0.263676 0.000000
0.690425 0.265202 0.000000
0.720119 0.266636 0.000000
0.749660 0.267979 0.000000
0.778958 0.269108 0.000000
0.808042 0.269963 0.000000
0.836790 0.270665 0.000000
0.865354 0.271061 0.000000
0.893706 0.271122 0.000000
0.921874 0.270848 0.000000
0.949981 0.270054 0.000000
0.978058 0.268864 0.000000
1.000000 0.267552 0.000000
1.000000 0.266850 0.000000
1.000000 0.266026 0.000000
0.138369 0.236057 0.130709
0.142824 0.234714 0.131167
0.148348 0.232761 0.131685
0.158358 0.228824 0.133028
0.173373 0.227237 0.132235
0.202243 0.236271 0.123384
0.241642 0.247166 0.109926
0.278264 0.248997 0.102388
0.319646 0.254246 0.091829
0.362341 0.259922 0.078920
0.407721 0.265599 0.058961
0.454170 0.270817 0.003265
0.495888 0.273167 0.000000
0.532311 0.275669 0.000000
0.568414 0.278782 0.000000
0.603723 0.282017 0.000000
0.636744 0.283909 0.000000
0.667628 0.284916 0.000000
0.697169 0.285679 0.000000
0.726436 0.286198 0.000000
0.755459 0.286900 0.000000
0.784237 0.287327 0.000000
0.812833 0.287694 0.000000
0.841123 0.287816 0.000000
0.869230 0.287694 0.000000
0.897185 0.287236 0.000000
0.924926 0.286442 0.000000
0.952667 0.285344 0.000000
0.980377 0.283757 0.000000
1.000000 0.281712 0.000000
1.000000 0.279118 0.000000
1.000000 0.277287 0.000000
0.145602 0.256199 0.136385
0.149569 0.254887 0.136995
0.155062 0.252934 0.137484
0.164675 0.249027 0.138674
0.176455 0.243168 0.140352
0.201633 0.250980 0.133089
0.236820 0.261570 0.121675
0.278599 0.271061 0.108888
0.317906 0.272892 0.099458
0.358831 0.278569 0.087465
0.402564 0.284489 0.071382
0.448585 0.290501 0.034485
0.496315 0.296361 0.000000
0.538964 0.299046 0.000000
0.576898 0.301518 0.000000
0.611597 0.303685 0.000000
0.644617 0.305577 0.000000
0.675746 0.307164 0.000000
0.704616 0.307073 0.000000
0.733333 0.306981 0.000000
0.761776 0.306767 0.000000
0.790005 0.306767 0.000000
0.818051 0.306432 0.000000
0.845914 0.305943 0.000000
0.873564 0.305272 0.000000
0.900999 0.304356 0.000000
0.928313 0.303105 0.000000
0.955627 0.301579 0.000000
0.982940 0.299596 0.000000
1.000000 0.297215 0.000000
1.000000 0.294377 0.000000
1.000000 0.290837 0.000000
0.153017 0.276341 0.142397
0.156680 0.275090 0.142672
0.161532 0.273320 0.143160
0.170993 0.269322 0.144198
0.182559 0.263493 0.145571
0.201846 0.265415 0.142184
0.233616 0.275731 0.131991
0.274083 0.287694 0.117800
0.317174 0.295842 0.105898
0.356756 0.297551 0.094911
0.399023 0.303563 0.080720
0.443671 0.309728 0.059541
0.490547 0.316075 0.000000
0.539269 0.322393 0.000000
0.582330 0.325261 0.000000
0.620142 0.326970 0.000000
0.652491 0.327764 0.000000
0.683070 0.328283 0.000000
0.712398 0.328985 0.000000
0.740780 0.328527 0.000000
0.768612 0.327703 0.000000
0.796323 0.326787 0.000000
0.823789 0.325994 0.000000
0.851102 0.324865 0.000000
0.878202 0.323613 0.000000
0.905150 0.322148 0.000000
0.932036 0.320500 0.000000
0.958892 0.318486 0.000000
0.985779 0.316167 0.000000
1.000000 0.313481 0.000000
1.000000 0.310307 0.000000
1.000000 0.306554 0.000000
0.160067 0.296696 0.148226
0.163790 0.295262 0.148531
0.168246 0.293584 0.149020
0.177340 0.289830 0.149844
0.188785 0.283879 0.150973
0.203159 0.279667 0.150912
0.231876 0.289769 0.142184
0.268772 0.301549 0.129641
0.312871 0.313481 0.113375
0.352361 0.316594 0.102693
0.396796 0.322820 0.088685
0.440192 0.329107 0.070588
0.485725 0.335607 0.024842
0.533288 0.342077 0.000000
0.582147 0.348455 0.000000
0.624079 0.350561 0.000000
0.660945 0.351019 0.000000
0.690822 0.350683 0.000000
0.719631 0.350225 0.000000
0.748257 0.350286 0.000000
0.775937 0.349432 0.000000
0.803037 0.347814 0.000000
0.829923 0.346227 0.000000
0.856687 0.344488 0.000000
0.883238 0.342748 0.000000
0.909606 0.340734 0.000000
0.936004 0.338506 0.000000
0.962371 0.336095 0.000000
0.988830 0.333440 0.000000
1.000000 0.330327 0.000000
1.000000 0.326940 0.000000
1.000000 0.322881 0.000000
0.167391 0.316930 0.154055
0.170748 0.315587 0.154360
0.175082 0.313848 0.154726
0.183780 0.310002 0.155459
0.195102 0.304204 0.156588
0.206821 0.296635 0.157809
0.231052 0.303380 0.151431
0.264927 0.315038 0.140291
0.306676 0.328191 0.124910
0.352178 0.339055 0.109224
0.393866 0.342199 0.096468
0.437781 0.348699 0.079530
0.482124 0.355261 0.051728
0.528618 0.361883 0.000000
0.576593 0.368505 0.000000
0.623407 0.373602 0.000000
0.663142 0.374548 0.000000
0.699184 0.373877 0.000000
0.727321 0.372595 0.000000
0.755459 0.371618 0.000000
0.783291 0.371069 0.000000
0.810178 0.369451 0.000000
0.836454 0.367193 0.000000
0.862577 0.364843 0.000000
0.888548 0.362432 0.000000
0.914397 0.359869 0.000000
0.940215 0.357214 0.000000
0.966125 0.354406 0.000000
0.992065 0.351232 0.000000
1.000000 0.347753 0.000000
1.000000 0.343999 0.000000
1.000000 0.339666 0.000000
0.174563 0.337102 0.160067
0.177920 0.335851 0.160372
0.181949 0.334112 0.160586
0.190066 0.330388 0.161196
0.201114 0.324559 0.162081
0.212955 0.316991 0.163058
0.230961 0.316747 0.160220
0.262028 0.328130 0.150576
0.300816 0.341314 0.136843
0.346929 0.355871 0.117464
0.393011 0.365423 0.103029
0.436347 0.368383 0.087739
0.479438 0.375067 0.066651
0.524895 0.381811 0.005127
0.571923 0.388556 0.000000
0.618128 0.393866 0.000000
0.661982 0.397314 0.000000
0.699672 0.397223 0.000000
0.734646 0.395789 0.000000
0.763027 0.393957 0.000000
0.790341 0.392462 0.000000
0.817441 0.391333 0.000000
0.843351 0.388800 0.000000
0.868833 0.385748 0.000000
0.894194 0.382757 0.000000
0.919432 0.379675 0.000000
0.944701 0.376379 0.000000
0.970062 0.373083 0.000000
0.995514 0.369543 0.000000
1.000000 0.365728 0.000000
1.000000 0.361639 0.000000
1.000000 0.357031 0.000000
0.182010 0.357366 0.166049
0.185031 0.356054 0.166079
0.188998 0.354498 0.166415
0.196841 0.350713 0.166934
0.207462 0.344945 0.167727
0.219059 0.337407 0.168490
0.231510 0.329870 0.168795
0.260227 0.341039 0.160189
0.296025 0.354009 0.148257
0.339117 0.368536 0.131441
0.386816 0.382147 0.112398
0.428840 0.386694 0.098207
0.477760 0.394965 0.076967
0.521996 0.401770 0.034089
0.568109 0.408637 0.000000
0.613519 0.414160 0.000000
0.657038 0.417762 0.000000
0.698360 0.419745 0.000000
0.734829 0.418891 0.000000
0.768795 0.416999 0.000000
0.797726 0.414801 0.000000
0.824247 0.412634 0.000000
0.850523 0.410925 0.000000
0.875364 0.407294 0.000000
0.900084 0.403601 0.000000
0.924712 0.399908 0.000000
0.949432 0.396124 0.000000
0.974243 0.392279 0.000000
0.999115 0.388281 0.000000
1.000000 0.384131 0.000000
1.000000 0.379553 0.000000
1.000000 0.374640 0.000000
0.189303 0.377661 0.172000
0.192233 0.376318 0.172061
0.195956 0.374701 0.172274
0.203464 0.370947 0.172580
0.213657 0.365362 0.173251
0.225040 0.357763 0.173831
0.236423 0.348547 0.174685
0.259129 0.353643 0.169100
0.292485 0.366400 0.158724
0.332738 0.380957 0.144289
0.379950 0.397101 0.123384
0.428412 0.409400 0.105196
0.472633 0.414160 0.087739
0.520531 0.422278 0.059571
0.565789 0.429389 0.000000
0.610712 0.435065 0.000000
0.653986 0.438941 0.000000
0.695094 0.441047 0.000000
0.733852 0.441535 0.000000
0.769009 0.440070 0.000000
0.801999 0.437659 0.000000
0.831357 0.434852 0.000000
0.857053 0.432105 0.000000
0.882139 0.429206 0.000000
0.906218 0.424872 0.000000
0.930236 0.420600 0.000000
0.954314 0.416266 0.000000
0.978546 0.411933 0.000000
1.000000 0.407446 0.000000
1.000000 0.402747 0.000000
1.000000 0.397864 0.000000
1.000000 0.392554 0.000000
0.196719 0.398413 0.177829
0.199344 0.397223 0.177859
0.203037 0.395483 0.177890
0.210117 0.391943 0.178286
0.219974 0.386267 0.178775
0.231205 0.378790 0.179324
0.242557 0.369421 0.179904
0.258854 0.366491 0.177646
0.290043 0.379248 0.168307
0.327672 0.393683 0.155612
0.372290 0.409857 0.137575
0.422522 0.426276 0.113924
0.472786 0.438788 0.093965
0.519554 0.443549 0.070344
0.565637 0.451240 0.001129
0.610040 0.457130 0.000000
0.652918 0.461067 0.000000
0.693751 0.463294 0.000000
0.732479 0.463874 0.000000
0.768765 0.462959 0.000000
0.802365 0.460670 0.000000
0.834257 0.457618 0.000000
0.863828 0.454139 0.000000
0.888670 0.450874 0.000000
0.912505 0.446601 0.000000
0.935943 0.441657 0.000000
0.959411 0.436713 0.000000
0.983032 0.431861 0.000000
1.000000 0.426947 0.000000
1.000000 0.421790 0.000000
1.000000 0.416510 0.000000
1.000000 0.410803 0.000000
0.204135 0.420294 0.183230
0.206668 0.419074 0.183444
0.210147 0.417456 0.183566
0.216983 0.413794 0.183810
0.226719 0.408118 0.184115
0.237644 0.400641 0.184604
0.249027 0.391272 0.184939
0.259739 0.380224 0.185183
0.288609 0.392401 0.177066
0.324224 0.406928 0.165652
0.366491 0.423163 0.150027
0.415564 0.441169 0.126986
0.467231 0.456641 0.103273
0.512444 0.463233 0.082399
0.567407 0.474434 0.022278
0.611261 0.480354 0.000000
0.653712 0.484382 0.000000
0.694331 0.486610 0.000000
0.732845 0.487098 0.000000
0.769070 0.486122 0.000000
0.802914 0.483803 0.000000
0.834684 0.480507 0.000000
0.865507 0.476844 0.000000
0.895048 0.472572 0.000000
0.919005 0.468696 0.000000
0.941772 0.463081 0.000000
0.964630 0.457557 0.000000
0.987640 0.452155 0.000000
1.000000 0.446723 0.000000
1.000000 0.441108 0.000000
1.000000 0.435370 0.000000
1.000000 0.429267 0.000000
0.211307 0.443397 0.188815
0.213931 0.442145 0.188785
0.217227 0.440436 0.188968
0.223880 0.436774 0.189120
0.233341 0.431128 0.189273
0.244388 0.423499 0.189639
0.255711 0.414130 0.189853
0.266484 0.402991 0.190036
0.287999 0.406073 0.185183
0.321843 0.420691 0.174990
0.362036 0.437079 0.160830
0.409003 0.455268 0.140902
0.462593 0.475105 0.110231
0.515190 0.489601 0.085786
0.563104 0.496254 0.048646
0.614252 0.504845 0.000000
0.656275 0.508812 0.000000
0.696620 0.510948 0.000000
0.734890 0.511406 0.000000
0.770962 0.510185 0.000000
0.804685 0.507713 0.000000
0.836179 0.504021 0.000000
0.865995 0.499580 0.000000
0.895628 0.495247 0.000000
0.924163 0.490242 0.000000
0.947753 0.484871 0.000000
0.969970 0.478737 0.000000
0.992340 0.472724 0.000000
1.000000 0.466682 0.000000
1.000000 0.460670 0.000000
1.000000 0.454505 0.000000
1.000000 0.447974 0.000000
0.218723 0.467689 0.193820
0.221103 0.466529 0.193912
0.224247 0.464759 0.194003
0.230838 0.461158 0.194064
0.240177 0.455390 0.194308
0.251164 0.447791 0.194553
0.262455 0.438270 0.194583
0.273533 0.426978 0.194705
0.287999 0.420356 0.192630
0.320409 0.435035 0.183352
0.358923 0.451606 0.170687
0.404028 0.470130 0.152804
0.455665 0.490333 0.126467
0.511162 0.509392 0.093111
0.566888 0.525109 0.048005
0.614862 0.529473 0.000000
0.660517 0.534600 0.000000
0.700587 0.536553 0.000000
0.738582 0.536797 0.000000
0.774472 0.535332 0.000000
0.808103 0.532586 0.000000
0.839414 0.528588 0.000000
0.868528 0.523522 0.000000
0.896147 0.517937 0.000000
0.924712 0.512840 0.000000
0.952209 0.507195 0.000000
0.975402 0.500175 0.000000
0.997162 0.493538 0.000000
1.000000 0.486976 0.000000
1.000000 0.480415 0.000000
1.000000 0.473732 0.000000
1.000000 0.466804 0.000000
0.225986 0.493599 0.198672
0.228336 0.492378 0.198672
0.231479 0.490700 0.198642
0.238010 0.486915 0.198734
0.247135 0.481209 0.198917
0.258091 0.473457 0.198978
0.269535 0.463813 0.199039
0.280797 0.452338 0.198917
0.291112 0.439033 0.198703
0.319707 0.450202 0.191135
0.356939 0.467048 0.179477
0.400305 0.485725 0.163455
0.450202 0.506279 0.139895
0.506737 0.528496 0.102846
0.562737 0.545617 0.061646
0.612207 0.554040 0.000000
0.666133 0.561700 0.000000
0.706111 0.563531 0.000000
0.743893 0.563439 0.000000
0.779538 0.561700 0.000000
0.812955 0.558556 0.000000
0.844114 0.554070 0.000000
0.873045 0.548638 0.000000
0.899870 0.542290 0.000000
0.925261 0.535424 0.000000
0.952789 0.529595 0.000000
0.979217 0.522301 0.000000
1.000000 0.514549 0.000000
1.000000 0.507439 0.000000
1.000000 0.500328 0.000000
1.000000 0.493141 0.000000
1.000000 0.485756 0.000000
0.233188 0.521386 0.202914
0.235477 0.520165 0.203037
0.238590 0.518395 0.202976
0.245060 0.514611 0.203098
0.254215 0.508782 0.203098
0.265171 0.500969 0.203159
0.276890 0.491157 0.203098
0.288365 0.479438 0.202976
0.299107 0.465797 0.202579
0.319768 0.466133 0.198123
0.355749 0.483345 0.187350
0.397772 0.502373 0.172519
0.446326 0.523369 0.151461
0.500816 0.545525 0.119448
0.559167 0.566674 0.066499
0.615991 0.582635 0.000000
0.663386 0.586999 0.000000
0.713252 0.591943 0.000000
0.750729 0.591547 0.000000
0.786130 0.589349 0.000000
0.819272 0.585687 0.000000
0.850217 0.580743 0.000000
0.878965 0.574762 0.000000
0.905608 0.567803 0.000000
0.930236 0.560174 0.000000
0.953429 0.552117 0.000000
0.979950 0.545464 0.000000
1.000000 0.536492 0.000000
1.000000 0.528038 0.000000
1.000000 0.520378 0.000000
1.000000 0.512718 0.000000
1.000000 0.504814 0.000000
0.240238 0.551171 0.206699
0.242496 0.549950 0.206760
0.245640 0.548180 0.206821
0.252079 0.544457 0.206760
0.261387 0.538506 0.206790
0.272496 0.530541 0.206790
0.284398 0.520531 0.206821
0.296391 0.508598 0.206607
0.307530 0.494697 0.206180
0.320317 0.483284 0.204685
0.355352 0.500725 0.194614
0.396582 0.520287 0.180758
0.443702 0.541497 0.161318
0.496407 0.563439 0.132937
0.554131 0.585840 0.084169
0.612421 0.604364 0.000000
0.670741 0.620203 0.000000
0.715511 0.620172 0.000000
0.759152 0.621088 0.000000
0.794247 0.618433 0.000000
0.827115 0.614221 0.000000
0.857816 0.608637 0.000000
0.886320 0.602014 0.000000
0.912718 0.594415 0.000000
0.937194 0.586175 0.000000
0.959838 0.577356 0.000000
0.980804 0.567926 0.000000
1.000000 0.559503 0.000000
1.000000 0.549676 0.000000
1.000000 0.540581 0.000000
1.000000 0.532372 0.000000
1.000000 0.523949 0.000000
0.247318 0.582330 0.210330
0.249851 0.581079 0.210300
0.252842 0.579400 0.210178
0.259403 0.575769 0.210147
0.268650 0.570031 0.210208
0.280003 0.562249 0.210086
0.292210 0.552361 0.209934
0.304692 0.540337 0.209628
0.316533 0.526055 0.209293
0.326879 0.510002 0.208621
0.355871 0.519707 0.201022
0.396246 0.539635 0.188022
0.442084 0.560723 0.169955
0.493355 0.582605 0.144289
0.549248 0.604822 0.103090
0.609705 0.627008 0.000000
0.667323 0.642756 0.000000
0.718196 0.650385 0.000000
0.766659 0.651820 0.000000
0.804013 0.649073 0.000000
0.836606 0.644221 0.000000
0.866972 0.637934 0.000000
0.895171 0.630518 0.000000
0.921263 0.622248 0.000000
0.945464 0.613245 0.000000
0.967834 0.603723 0.000000
0.988556 0.593622 0.000000
1.000000 0.582666 0.000000
1.000000 0.572595 0.000000
1.000000 0.561883 0.000000
1.000000 0.552087 0.000000
1.000000 0.543145 0.000000
0.254582 0.614710 0.213565
0.256840 0.613550 0.213443
0.260136 0.611841 0.213535
0.266545 0.608362 0.213321
0.276188 0.602747 0.213138
0.287602 0.595239 0.212955
0.300389 0.585657 0.212558
0.313390 0.573968 0.212284
0.325994 0.560113 0.211765
0.337194 0.544060 0.211154
0.357244 0.540642 0.206729
0.396826 0.560510 0.194430
0.441688 0.581445 0.177615
0.491524 0.603113 0.153780
0.546075 0.625177 0.117220
0.604761 0.647181 0.006104
0.664912 0.666468 0.000000
0.723476 0.681636 0.000000
0.768765 0.682155 0.000000
0.815518 0.681636 0.000000
0.847684 0.675868 0.000000
0.877684 0.668757 0.000000
0.905516 0.660517 0.000000
0.931304 0.651331 0.000000
0.955138 0.641505 0.000000
0.977173 0.631128 0.000000
0.997589 0.620203 0.000000
1.000000 0.608423 0.000000
1.000000 0.595850 0.000000
1.000000 0.584619 0.000000
1.000000 0.572930 0.000000
1.000000 0.562371 0.000000
0.261845 0.648493 0.216373
0.264195 0.647364 0.216434
0.267338 0.645869 0.216403
0.273960 0.642481 0.216251
0.283696 0.637110 0.215976
0.295506 0.629877 0.215640
0.308629 0.620661 0.215244
0.322240 0.609461 0.214694
0.335668 0.596063 0.214084
0.348119 0.580560 0.213291
0.359442 0.563622 0.212161
0.398444 0.583368 0.200443
0.442481 0.604089 0.184421
0.491279 0.625574 0.162020
