data/fiter_cube/48671653/1023257/file.cube
# Created by Adobe Lightroom plugin Export LUT (1.17.0)
# www.johnrellis.com/lightroom/exportlut.htm
# Preset: 青橙风光风景_06 云集
# Color profile: C:\Program Files (x86)\Common Files\Adobe\Color\Profiles\Recommended\AdobeRGB1998.icc
LUT_3D_SIZE 8
DOMAIN_MIN 0.000000 0.000000 0.000000
DOMAIN_MAX 0.903226 0.903226 0.903226
0.094728 0.094728 0.094728
0.180270 0.097627 0.092531
0.311986 0.107454 0.082155
0.448432 0.126192 0.051453
0.591852 0.153384 0.000000
0.722988 0.179324 0.000000
0.846281 0.198703 0.000000
0.964843 0.211185 0.000000
0.101411 0.134218 0.099458
0.186648 0.134890 0.086275
0.321904 0.138033 0.071321
0.458564 0.152499 0.006653
0.601007 0.174746 0.000000
0.729030 0.195651 0.000000
0.850217 0.211643 0.000000
0.967224 0.221805 0.000000
0.124178 0.197543 0.118746
0.171695 0.198154 0.113527
0.329717 0.217868 0.070924
0.481849 0.229099 0.000000
0.621454 0.241154 0.000000
0.744503 0.250065 0.000000
0.861875 0.255589 0.000000
0.975433 0.256016 0.000000
0.153017 0.276341 0.142397
0.182559 0.263493 0.145571
0.317174 0.295842 0.105898
0.490547 0.316075 0.000000
0.652491 0.327764 0.000000
0.768612 0.327703 0.000000
0.878202 0.323613 0.000000
0.985779 0.316167 0.000000
0.182010 0.357366 0.166049
0.207462 0.344945 0.167727
0.296025 0.354009 0.148257
0.477760 0.394965 0.076967
0.657038 0.417762 0.000000
0.797726 0.414801 0.000000
0.900084 0.403601 0.000000
0.999115 0.388281 0.000000
0.211307 0.443397 0.188815
0.233341 0.431128 0.189273
0.287999 0.406073 0.185183
0.462593 0.475105 0.110231
0.656275 0.508812 0.000000
0.804685 0.507713 0.000000
0.924163 0.490242 0.000000
1.000000 0.466682 0.000000
0.240238 0.551171 0.206699
0.261387 0.538506 0.206790
0.307530 0.494697 0.206180
0.443702 0.541497 0.161318
0.670741 0.620203 0.000000
0.827115 0.614221 0.000000
0.937194 0.586175 0.000000
1.000000 0.549676 0.000000
0.269261 0.684047 0.219272
0.291569 0.673182 0.218601
0.345953 0.634150 0.216129
0.444678 0.629328 0.190768
0.659846 0.713985 0.000000
0.870665 0.744564 0.000000
0.978790 0.702083 0.000000
1.000000 0.648341 0.000000
0.058198 0.124300 0.171328
0.155093 0.134859 0.155642
0.294835 0.142702 0.139345
0.440894 0.161776 0.111879
0.593133 0.184970 0.000000
0.728969 0.209354 0.000000
0.850095 0.219577 0.000000
0.966674 0.224613 0.000000
0.035889 0.166201 0.173556
0.162570 0.162570 0.162570
0.302495 0.166354 0.143618
0.447883 0.179416 0.110658
0.597864 0.201328 0.000000
0.732906 0.224216 0.000000
0.853819 0.231083 0.000000
0.968963 0.234379 0.000000
0.110445 0.227909 0.166079
0.173465 0.221592 0.170535
0.315129 0.229099 0.146578
0.467109 0.237186 0.113680
0.614527 0.252689 0.000641
0.744564 0.267277 0.000000
0.863401 0.272526 0.000000
0.976715 0.267063 0.000000
0.146731 0.305272 0.181521
0.190890 0.292973 0.183230
0.307866 0.305791 0.160678
0.481453 0.321050 0.120211
0.643427 0.330724 0.002899
0.764920 0.333928 0.000000
0.879393 0.335485 0.000000
0.986450 0.324956 0.000000
0.182345 0.382300 0.200687
0.212284 0.369207 0.199344
0.287846 0.356939 0.189456
0.472663 0.401709 0.139528
0.651453 0.421271 0.051087
0.793057 0.417182 0.000000
0.899809 0.410132 0.000000
0.999695 0.394690 0.000000
0.210758 0.465400 0.217472
0.236240 0.452766 0.216922
0.285344 0.409949 0.213962
0.452308 0.476265 0.163607
0.652216 0.513542 0.085237
0.801602 0.511009 0.000000
0.922515 0.492775 0.000000
1.000000 0.471534 0.000000
0.236973 0.571557 0.232364
0.261204 0.558831 0.231510
0.313207 0.513848 0.227787
0.433967 0.540337 0.196445
0.662715 0.621881 0.076753
0.824460 0.618097 0.000000
0.935637 0.588983 0.000000
1.000000 0.553948 0.000000
0.262943 0.699611 0.243473
0.287266 0.688838 0.241978
0.346654 0.649836 0.236637
0.433783 0.625971 0.217258
0.649348 0.712612 0.082094
0.866239 0.748226 0.000000
0.977386 0.705013 0.000000
1.000000 0.651392 0.000000
0.000000 0.190738 0.297948
0.000000 0.188785 0.291600
0.249760 0.203220 0.250980
0.390387 0.216648 0.240574
0.552514 0.221378 0.212467
0.702510 0.239139 0.175265
0.841764 0.249516 0.075013
0.970703 0.255711 0.000000
0.000000 0.225193 0.297490
0.063600 0.217319 0.290074
0.255406 0.222507 0.256260
0.398535 0.230106 0.244236
0.559014 0.235843 0.215732
0.707454 0.249699 0.174044
0.845090 0.258610 0.067292
0.972717 0.263798 0.000000
0.000000 0.288090 0.303197
0.090455 0.283085 0.295354
0.271580 0.271580 0.271580
0.426734 0.272129 0.249882
0.582269 0.278111 0.218296
0.723232 0.286290 0.171756
0.854765 0.292515 0.060670
0.977935 0.295079 0.000000
0.000000 0.365209 0.294499
0.131106 0.365942 0.288060
0.280095 0.333867 0.276860
0.451423 0.344945 0.252537
0.613672 0.349187 0.224308
0.745296 0.350469 0.179385
0.869566 0.349554 0.072633
0.986786 0.345556 0.000000
0.114870 0.448829 0.296513
0.180270 0.441138 0.293492
0.292363 0.403479 0.284794
0.445258 0.425727 0.260868
0.630701 0.438422 0.231846
0.775753 0.433112 0.190188
0.889952 0.422583 0.090700
0.999054 0.409308 0.000000
0.172793 0.533959 0.308080
0.218296 0.525444 0.305516
0.307561 0.482307 0.294499
0.414984 0.476234 0.273014
0.635615 0.530938 0.239628
0.789181 0.526574 0.199039
0.914397 0.506920 0.113741
1.000000 0.482765 0.000000
0.208225 0.638331 0.321691
0.248692 0.627100 0.319677
0.324376 0.582757 0.302617
0.399847 0.532708 0.281163
0.630488 0.625666 0.234440
0.813626 0.633082 0.193027
0.928893 0.602686 0.108034
1.000000 0.563806 0.000000
0.243290 0.752560 0.335973
0.274327 0.742153 0.330846
0.343542 0.704433 0.308995
0.410803 0.632105 0.285771
0.610040 0.705562 0.236698
0.848264 0.760616 0.139712
0.971069 0.717617 0.000000
1.000000 0.660304 0.000000
0.000000 0.275273 0.439948
0.000000 0.280034 0.436622
0.139376 0.247715 0.413916
0.348821 0.278508 0.350652
0.480720 0.290501 0.354131
0.649744 0.295567 0.321447
0.807584 0.306004 0.291844
0.952270 0.302831 0.225406
0.000000 0.306798 0.440864
0.000000 0.298283 0.435309
0.157565 0.270939 0.414405
0.353277 0.291203 0.354833
0.486946 0.300267 0.354162
0.655177 0.305516 0.324132
0.811185 0.314397 0.292729
0.954803 0.307805 0.220798
0.000000 0.354955 0.445747
0.000000 0.348791 0.439612
0.185824 0.330694 0.419104
0.367498 0.330480 0.368536
0.509453 0.336706 0.356725
0.674159 0.338689 0.332250
0.824216 0.341558 0.293431
0.963195 0.328588 0.208713
0.000000 0.432898 0.457527
0.000000 0.428748 0.451606
0.201450 0.415167 0.430762
0.392370 0.392370 0.392370
0.556725 0.391791 0.370123
0.706569 0.392187 0.340307
0.845731 0.388159 0.293492
0.975402 0.372045 0.201236
0.000000 0.513634 0.451545
0.000000 0.513542 0.447761
0.238529 0.511620 0.431525
0.398444 0.454810 0.395117
0.589868 0.472724 0.378851
0.741787 0.468696 0.353979
0.868956 0.458045 0.306035
0.988739 0.436469 0.210147
0.000000 0.635035 0.457557
0.045563 0.628016 0.452308
0.277623 0.599695 0.433753
0.406378 0.528557 0.398566
0.591547 0.559228 0.379309
0.764462 0.558190 0.362341
0.896696 0.540978 0.322637
1.000000 0.510765 0.221897
0.023011 0.723903 0.461372
0.158602 0.717189 0.457008
0.305272 0.690089 0.440772
0.415778 0.618311 0.401251
0.557641 0.617243 0.369726
0.789883 0.660822 0.358495
0.914733 0.632258 0.323857
1.000000 0.591699 0.236301
0.138155 0.825864 0.467872
0.201114 0.819760 0.463813
0.324102 0.794949 0.447242
0.426978 0.728237 0.402808
0.533288 0.683680 0.357183
0.806699 0.776394 0.323400
0.956847 0.743282 0.288121
1.000000 0.683589 0.189364
0.000000 0.367407 0.588647
0.000000 0.376532 0.587884
0.000000 0.349248 0.571862
0.295781 0.327367 0.531579
0.446021 0.350469 0.448371
0.570184 0.370916 0.467384
0.742824 0.389105 0.439460
0.912718 0.410315 0.431861
0.000000 0.393835 0.590661
0.000000 0.390021 0.587396
0.000000 0.364904 0.572076
0.289158 0.335180 0.534813
0.449714 0.360204 0.452064
0.575402 0.378393 0.468727
0.747463 0.395636 0.441535
0.915648 0.414221 0.431067
0.000000 0.435035 0.593927
0.000000 0.429480 0.589685
0.000000 0.411261 0.575158
0.293919 0.380194 0.544091
0.462745 0.392432 0.464576
0.593561 0.404089 0.471992
0.763668 0.417945 0.448005
0.926329 0.426184 0.425849
0.000000 0.497047 0.603204
0.000000 0.493111 0.599145
0.000000 0.480323 0.583917
0.318090 0.457465 0.553887
0.485756 0.446143 0.486824
0.625269 0.452552 0.474983
0.792905 0.453742 0.454017
0.946899 0.440284 0.404456
0.000000 0.582513 0.616541
0.000000 0.579950 0.612696
0.000000 0.570733 0.598383
0.338506 0.552605 0.569940
0.519707 0.519707 0.519707
0.683864 0.515892 0.495003
0.832700 0.506889 0.457923
0.969787 0.484169 0.393866
0.000000 0.681727 0.627802
0.000000 0.677363 0.621637
0.088167 0.666926 0.603571
0.378058 0.660700 0.580621
0.521996 0.583154 0.518425
0.722957 0.603571 0.513390
0.866789 0.591058 0.483406
0.988006 0.559045 0.411261
0.000000 0.795010 0.627192
0.000000 0.794919 0.624048
0.202609 0.793698 0.612634
0.417426 0.756710 0.585565
0.524712 0.659602 0.516258
0.735409 0.693690 0.505791
0.890593 0.678706 0.494026
1.000000 0.641169 0.432868
0.000000 0.901488 0.621332
0.000000 0.897459 0.618952
0.252384 0.881498 0.610010
0.433814 0.844999 0.587304
0.528985 0.756741 0.513207
0.702174 0.761349 0.468940
0.929931 0.783047 0.474983
1.000000 0.726070 0.416999
0.000000 0.446418 0.719966
0.000000 0.453101 0.719661
0.000000 0.442420 0.712398
0.000000 0.415045 0.692805
0.445502 0.419257 0.640284
0.548516 0.425422 0.551537
0.665614 0.466316 0.585626
0.849973 0.506065 0.587579
0.000000 0.465156 0.721431
0.000000 0.470680 0.721096
0.000000 0.453437 0.712764
0.000000 0.427741 0.693538
0.447486 0.430152 0.642847
0.551629 0.433295 0.554559
0.669306 0.472236 0.587152
0.852445 0.510491 0.586847
0.000000 0.507378 0.725368
0.000000 0.502953 0.723293
0.000000 0.488655 0.715053
0.109102 0.467597 0.696681
0.448554 0.462165 0.652461
0.562371 0.460487 0.564935
0.682612 0.492500 0.591852
0.861753 0.525109 0.582971
0.000000 0.556695 0.731746
0.000000 0.553521 0.729519
0.000000 0.544335 0.721035
0.168917 0.528893 0.703670
0.439948 0.506493 0.669795
0.581079 0.506706 0.583001
0.707057 0.525475 0.597223
0.882139 0.556512 0.589960
0.000000 0.625483 0.741482
0.000000 0.623590 0.739376
0.000000 0.617578 0.731502
0.202182 0.606744 0.715389
0.457252 0.587549 0.685328
0.608026 0.567529 0.609186
0.745235 0.569604 0.595850
0.917479 0.581140 0.585016
0.000000 0.711788 0.753902
0.000000 0.710872 0.752041
0.000000 0.707637 0.745083
0.241123 0.701106 0.731014
0.484199 0.687648 0.705257
0.649042 0.648981 0.648981
0.810971 0.643214 0.623194
0.956786 0.625483 0.578912
0.000000 0.826017 0.780880
0.000000 0.826261 0.779660
0.000000 0.826871 0.774838
0.279332 0.810941 0.750301
0.533623 0.801297 0.726009
0.647059 0.710384 0.643458
0.851102 0.735225 0.651453
0.980529 0.710994 0.611475
0.000000 0.930663 0.775967
0.000000 0.930449 0.773709
0.000000 0.929137 0.765805
0.357885 0.924895 0.754360
0.571405 0.895933 0.732479
0.645319 0.792355 0.636286
0.875883 0.827420 0.636408
1.000000 0.790555 0.617517
0.000000 0.513054 0.839048
0.000000 0.517845 0.838865
0.000000 0.523461 0.836881
0.000000 0.507530 0.827176
0.317296 0.501305 0.807248
0.585168 0.522026 0.744442
0.658412 0.517784 0.661921
0.777249 0.587457 0.718776
0.000000 0.525383 0.839841
0.000000 0.529686 0.839658
0.000000 0.531182 0.837308
0.000000 0.516564 0.827665
0.322881 0.510674 0.807980
0.587182 0.530022 0.746944
0.660426 0.523674 0.663874
0.779904 0.591058 0.719722
0.000000 0.559197 0.842679
0.000000 0.562860 0.842496
0.000000 0.557092 0.839261
0.000000 0.545769 0.829953
0.338293 0.541344 0.810941
0.593744 0.557000 0.755978
0.667597 0.543816 0.670741
0.789303 0.603510 0.722805
0.000000 0.606622 0.847684
0.000000 0.608728 0.847349
0.000000 0.600031 0.843717
0.000000 0.591760 0.834897
0.353368 0.589014 0.817044
0.603571 0.602319 0.771267
0.680262 0.577173 0.682948
0.806882 0.624140 0.726894
0.000000 0.666987 0.854520
0.000000 0.665126 0.853666
0.000000 0.659632 0.850370
0.000000 0.652430 0.843168
0.345769 0.648157 0.827756
0.590631 0.642634 0.794186
0.699245 0.622980 0.701259
0.834165 0.653956 0.729519
0.000000 0.737575 0.862547
0.000000 0.736721 0.861784
0.000000 0.734493 0.858824
0.000000 0.731533 0.852659
0.356634 0.728481 0.840543
0.599847 0.719265 0.814084
0.728664 0.687098 0.729824
0.873899 0.696040 0.724758
0.000000 0.821653 0.871977
0.000000 0.821683 0.871336
0.000000 0.821988 0.868894
0.000000 0.822812 0.863951
0.406287 0.823606 0.854337
0.633204 0.818021 0.834867
0.777401 0.777401 0.777401
0.936309 0.769192 0.749752
0.000000 0.936187 0.900206
0.000000 0.937133 0.899901
0.000000 0.940307 0.898680
0.000000 0.945159 0.895750
0.427100 0.937987 0.880308
0.686183 0.925292 0.858061
0.770932 0.838743 0.767056
0.966644 0.858396 0.782803
0.000000 0.566918 0.945769
0.000000 0.570306 0.945617
0.000000 0.582300 0.945098
0.000000 0.580987 0.941741
0.187442 0.598505 0.932341
0.555657 0.636896 0.912505
0.730892 0.647303 0.859129
0.789548 0.636072 0.793393
0.000000 0.574212 0.946136
0.000000 0.577447 0.945983
0.000000 0.588830 0.945495
0.000000 0.586969 0.942107
0.190860 0.604334 0.932799
0.557092 0.642145 0.913451
0.731991 0.652216 0.860716
0.790646 0.639643 0.794430
0.000000 0.595514 0.947509
0.000000 0.598413 0.947387
0.000000 0.608789 0.946899
0.000000 0.606592 0.943572
0.190921 0.623133 0.934569
0.560540 0.659602 0.916869
0.735653 0.669154 0.866453
0.794491 0.651820 0.798154
0.000000 0.625483 0.950195
0.000000 0.628168 0.950072
0.000000 0.637659 0.949584
0.000000 0.637385 0.946777
0.142458 0.651728 0.938323
0.559625 0.686580 0.922301
0.741238 0.698177 0.877379
0.801541 0.672572 0.804837
0.000000 0.677668 0.953674
0.000000 0.678798 0.953582
0.000000 0.682124 0.953307
0.000000 0.677333 0.952209
0.000000 0.685603 0.944884
0.541894 0.719631 0.929900
0.748348 0.740322 0.893797
0.812345 0.703182 0.815213
0.000000 0.743282 0.957855
0.000000 0.744381 0.957794
0.000000 0.747921 0.957549
0.000000 0.744137 0.956390
0.000000 0.739834 0.952209
0.490517 0.761593 0.940276
0.737819 0.779202 0.915099
0.828580 0.746670 0.830747
0.000000 0.819089 0.962463
0.000000 0.820310 0.962402
0.000000 0.824369 0.962188
0.000000 0.822812 0.960906
0.000000 0.824643 0.957153
0.477241 0.835203 0.949157
0.736110 0.843656 0.932555
0.854398 0.809201 0.855650
0.000000 0.903410 0.967041
0.000000 0.904875 0.966979
0.000000 0.908934 0.966674
0.000000 0.911009 0.965332
0.000000 0.916411 0.962066
0.530175 0.925139 0.956115
0.770596 0.931487 0.946715
0.904784 0.904784 0.904784
