data/fiter_cube/48671653/1023257/file.cube
# Created by Adobe Lightroom plugin Export LUT (1.17.0)
# www.johnrellis.com/lightroom/exportlut.htm
# Preset: 青橙风光风景_06 云集
# Color profile: C:\Program Files (x86)\Common Files\Adobe\Color\Profiles\Recommended\AdobeRGB1998.icc
LUT_3D_SIZE 5
DOMAIN_MIN 0.000000 0.000000 0.000000
DOMAIN_MAX 0.903226 0.903226 0.903226
0.094728 0.094728 0.094728
0.279057 0.104341 0.085786
0.519738 0.139437 0.000000
0.754360 0.184848 0.000000
0.964843 0.211185 0.000000
0.117433 0.179599 0.112795
0.292821 0.195346 0.073610
0.545037 0.214145 0.000000
0.770077 0.236088 0.000000
0.972808 0.245335 0.000000
0.167391 0.316930 0.154055
0.264927 0.315038 0.140291
0.576593 0.368505 0.000000
0.810178 0.369451 0.000000
0.992065 0.351232 0.000000
0.218723 0.467689 0.193820
0.273533 0.426978 0.194705
0.566888 0.525109 0.048005
0.839414 0.528588 0.000000
1.000000 0.486976 0.000000
0.269261 0.684047 0.219272
0.331670 0.646815 0.216922
0.544640 0.671839 0.137667
0.903990 0.735683 0.000000
1.000000 0.648341 0.000000
0.000000 0.172244 0.264927
0.225193 0.184634 0.226261
0.486213 0.201328 0.193729
0.746548 0.231205 0.101411
0.970214 0.247745 0.000000
0.000000 0.255711 0.268711
0.242954 0.242954 0.242954
0.510002 0.248417 0.198337
0.759548 0.268315 0.095430
0.976623 0.278935 0.000000
0.115023 0.389715 0.260868
0.261784 0.356847 0.255314
0.551629 0.384680 0.207126
0.795621 0.382483 0.110994
0.994079 0.373846 0.000000
0.198886 0.539635 0.284062
0.291142 0.496376 0.274571
0.537591 0.533593 0.223331
0.829618 0.541833 0.132998
1.000000 0.499245 0.000000
0.246952 0.735927 0.303655
0.326299 0.699641 0.288945
0.506737 0.662501 0.244724
0.894926 0.748928 0.000000
1.000000 0.657252 0.000000
0.000000 0.322148 0.515526
0.000000 0.307286 0.499947
0.397803 0.314885 0.399878
0.652552 0.336858 0.382147
0.935607 0.352697 0.336095
0.000000 0.382269 0.519554
0.000000 0.360754 0.502220
0.411109 0.350256 0.412726
0.671473 0.363928 0.390906
0.945037 0.365881 0.326421
0.000000 0.510979 0.540581
0.000000 0.499001 0.523156
0.455573 0.455573 0.455573
0.733059 0.451453 0.409644
0.972930 0.425513 0.304112
0.000000 0.686488 0.543145
0.173434 0.685817 0.529137
0.463874 0.574701 0.456886
0.788571 0.599603 0.434241
1.000000 0.552331 0.326421
0.000000 0.863859 0.543938
0.257603 0.845701 0.532647
0.475532 0.741878 0.455665
0.833463 0.790494 0.397223
1.000000 0.701778 0.310277
0.000000 0.464363 0.751034
0.000000 0.469764 0.747677
0.238651 0.426978 0.714656
0.575280 0.446448 0.578485
0.833738 0.527764 0.628229
0.000000 0.512047 0.755184
0.000000 0.500877 0.749386
0.263737 0.465949 0.717830
0.584802 0.471687 0.587671
0.842588 0.541527 0.626795
0.000000 0.601465 0.766293
0.000000 0.594141 0.759945
0.305669 0.573022 0.731807
0.616571 0.550103 0.618341
0.877073 0.590661 0.623499
0.000000 0.741390 0.785519
0.000000 0.739376 0.780331
0.353338 0.731136 0.758755
0.681239 0.681209 0.681239
0.952361 0.661952 0.623316
0.000000 0.934020 0.812284
0.000000 0.933196 0.804959
0.446967 0.925414 0.783597
0.675898 0.802670 0.668238
0.993530 0.807797 0.662043
0.000000 0.566918 0.945769
0.000000 0.578454 0.945281
0.000000 0.585534 0.937926
0.625727 0.658137 0.902586
0.789548 0.636072 0.793393
0.000000 0.589105 0.947051
0.000000 0.599329 0.946593
0.000000 0.604974 0.939361
0.618250 0.665797 0.906920
0.793240 0.647944 0.796963
0.000000 0.649409 0.951843
0.000000 0.652918 0.951568
0.000000 0.658503 0.946014
0.610071 0.708431 0.920409
0.806363 0.686488 0.809476
0.000000 0.761349 0.958984
0.000000 0.765011 0.958770
0.000000 0.760525 0.955901
0.561456 0.782406 0.938720
0.833860 0.760128 0.835843
0.000000 0.903410 0.967041
0.000000 0.908293 0.966827
0.000000 0.913207 0.964019
0.602594 0.927214 0.954223
0.904784 0.904784 0.904784
