data/fiter_cube/89350833/1022876/file.cube
# Created by Adobe Lightroom plugin Export LUT (1.24.0)
# www.johnrellis.com/lightroom/exportlut.htm
# Preset: 婚礼接亲预设[余晖]-6 父母合影
# Color profile: C:\Windows\System32\Spool\Drivers\Color\AppleRGB.icc
LUT_3D_SIZE 32
DOMAIN_MIN 0.0 0.0 0.0
DOMAIN_MAX 1.0 1.0 1.0
0.055116 0.108461 0.126741
0.055818 0.108644 0.126833
0.058961 0.108949 0.127047
0.064851 0.109346 0.127321
0.073671 0.109834 0.127535
0.086366 0.110475 0.127749
0.103670 0.111116 0.127901
0.126772 0.111635 0.127901
0.157839 0.111818 0.127687
0.199649 0.111208 0.127291
0.254215 0.108766 0.126467
0.321935 0.103670 0.125093
0.400427 0.095338 0.122927
0.486244 0.083375 0.119875
0.572992 0.071260 0.115816
0.653651 0.063478 0.111147
0.726192 0.064942 0.105592
0.791257 0.075013 0.099519
0.848661 0.091981 0.093019
0.903807 0.114443 0.086366
0.958221 0.142733 0.079347
1.000000 0.169009 0.075471
1.000000 0.193851 0.074342
1.000000 0.216129 0.077089
1.000000 0.236973 0.083955
1.000000 0.257115 0.093782
1.000000 0.277287 0.107485
1.000000 0.297856 0.124941
1.000000 0.319768 0.146029
1.000000 0.343236 0.171572
1.000000 0.368811 0.202304
1.000000 0.397162 0.237888
0.054963 0.109194 0.127077
0.055543 0.109133 0.127169
0.059602 0.109621 0.126955
0.065614 0.110231 0.127077
0.075044 0.110750 0.127260
0.087739 0.111513 0.127443
0.104952 0.112367 0.127474
0.127932 0.113130 0.127443
0.158938 0.113619 0.127291
0.200443 0.113375 0.126802
0.254368 0.111727 0.125826
0.321111 0.107607 0.124239
0.398474 0.100740 0.121981
0.483040 0.090700 0.118868
0.569024 0.080781 0.114626
0.649226 0.075380 0.109590
0.721462 0.077272 0.103975
0.786526 0.086763 0.097780
0.843900 0.102235 0.091066
0.900389 0.123537 0.083833
0.953002 0.149325 0.076905
0.995117 0.174075 0.072053
1.000000 0.196750 0.070924
1.000000 0.217838 0.072816
1.000000 0.237705 0.078340
1.000000 0.256565 0.087922
1.000000 0.276036 0.100526
1.000000 0.295750 0.117250
1.000000 0.316869 0.138003
1.000000 0.339727 0.162661
1.000000 0.364446 0.192203
1.000000 0.392065 0.227481
0.055177 0.111269 0.127932
0.055756 0.111330 0.127810
0.057862 0.110872 0.128481
0.062409 0.112001 0.128237
0.076722 0.113649 0.127016
0.091554 0.114809 0.126680
0.109499 0.116030 0.126619
0.133242 0.117342 0.126436
0.165225 0.118624 0.126009
0.207919 0.119448 0.125154
0.262699 0.119173 0.123842
0.329564 0.116823 0.121920
0.406867 0.112276 0.119142
0.490394 0.105928 0.115541
0.574578 0.100465 0.110689
0.652735 0.099397 0.105135
0.723354 0.103548 0.099062
0.786893 0.113283 0.092134
0.843778 0.127932 0.084627
0.902586 0.148562 0.076265
0.952636 0.171572 0.068482
0.993591 0.193698 0.063172
1.000000 0.213870 0.060914
1.000000 0.232792 0.063264
1.000000 0.250645 0.069184
1.000000 0.267918 0.078523
1.000000 0.285710 0.091768
1.000000 0.303990 0.108675
1.000000 0.323888 0.129732
1.000000 0.345525 0.154879
1.000000 0.369238 0.184573
1.000000 0.395697 0.219638
0.054963 0.114961 0.129152
0.055238 0.115175 0.128817
0.058473 0.115114 0.128878
0.061494 0.114076 0.130220
0.065400 0.115175 0.131044
0.083772 0.118929 0.128725
0.111910 0.122072 0.126558
0.141421 0.124636 0.125460
0.175326 0.126864 0.124666
0.219944 0.128969 0.123445
0.276371 0.130343 0.121553
0.344335 0.130343 0.118776
0.421485 0.129000 0.115053
0.504356 0.127230 0.110170
0.586114 0.127413 0.104036
0.661280 0.130251 0.097536
0.729213 0.137057 0.090303
0.790585 0.147524 0.082429
0.849210 0.162356 0.073396
0.904997 0.181796 0.062867
0.951476 0.201328 0.053651
0.990417 0.220005 0.047089
1.000000 0.237736 0.044068
1.000000 0.254704 0.046357
1.000000 0.270909 0.053254
1.000000 0.286961 0.064424
1.000000 0.303349 0.079683
1.000000 0.320653 0.098543
1.000000 0.338842 0.120699
1.000000 0.358679 0.146609
1.000000 0.380346 0.176974
1.000000 0.404028 0.211063
0.054322 0.120668 0.130983
0.054444 0.120912 0.130343
0.057832 0.120851 0.130190
0.063020 0.120272 0.130922
0.067414 0.118837 0.133028
0.068910 0.119203 0.135866
0.091310 0.125307 0.132326
0.125032 0.131167 0.128847
0.174807 0.137240 0.124819
0.231785 0.141909 0.121614
0.289372 0.144686 0.119356
0.357702 0.147005 0.116030
0.434272 0.148470 0.111727
0.516075 0.150118 0.105959
0.596185 0.153964 0.098939
0.670741 0.160861 0.090578
0.737911 0.170932 0.081147
0.799435 0.184146 0.070222
0.860807 0.202762 0.055787
0.911894 0.221653 0.039490
0.954925 0.238529 0.024506
0.991638 0.254398 0.006043
1.000000 0.269291 0.000000
1.000000 0.283482 0.004364
1.000000 0.297398 0.024842
1.000000 0.311101 0.042756
1.000000 0.325414 0.061982
1.000000 0.340429 0.083650
1.000000 0.356359 0.107607
1.000000 0.373999 0.134981
1.000000 0.393439 0.165957
1.000000 0.415106 0.200626
0.052949 0.129366 0.133516
0.053376 0.129580 0.132876
0.056031 0.129732 0.132204
0.062196 0.129549 0.132143
0.070619 0.128054 0.133974
0.075929 0.126192 0.137270
0.076387 0.125338 0.142184
0.101167 0.134249 0.138705
0.143282 0.143801 0.133394
0.204898 0.153719 0.127138
0.289769 0.163455 0.119112
0.380713 0.170413 0.111177
0.457984 0.174777 0.105623
0.538079 0.179995 0.098726
0.615290 0.187167 0.090272
0.686183 0.196719 0.080598
0.751858 0.208621 0.069245
0.817716 0.225803 0.053712
0.872984 0.242802 0.035767
0.920073 0.259983 0.000458
0.960845 0.276219 0.000000
0.996033 0.292149 0.000000
1.000000 0.336767 0.000000
1.000000 0.347967 0.000000
1.000000 0.358465 0.000000
1.000000 0.369024 0.033295
1.000000 0.379919 0.065034
1.000000 0.392004 0.093965
1.000000 0.405310 0.123720
1.000000 0.420417 0.155154
1.000000 0.437385 0.188876
1.000000 0.456336 0.225986
0.049561 0.144900 0.137789
0.049775 0.145113 0.136965
0.052461 0.145205 0.135409
0.061006 0.144961 0.135256
0.071199 0.144228 0.135531
0.083680 0.141634 0.139223
0.091341 0.139010 0.144228
0.092195 0.137270 0.151003
0.118593 0.148653 0.150454
0.176028 0.164706 0.141787
0.257267 0.180972 0.131502
0.361547 0.196445 0.118532
0.479957 0.211460 0.101625
0.589319 0.226047 0.082490
0.659846 0.235782 0.071748
0.729030 0.248997 0.057557
0.797910 0.266789 0.036255
0.855497 0.283268 0.000000
0.904204 0.298711 0.000000
0.946929 0.314519 0.000000
0.985077 0.329839 0.000000
1.000000 0.345006 0.000000
1.000000 0.359472 0.000000
1.000000 0.372686 0.000000
1.000000 0.384924 0.000000
1.000000 0.394781 0.000000
1.000000 0.403937 0.019074
1.000000 0.413733 0.065492
1.000000 0.424903 0.100160
1.000000 0.437385 0.134340
1.000000 0.451850 0.169650
1.000000 0.468513 0.207889
0.043336 0.163272 0.142397
0.044099 0.163424 0.141390
0.045258 0.163577 0.138735
0.056489 0.163180 0.138491
0.068544 0.162692 0.138216
0.084749 0.160739 0.140169
0.100038 0.157473 0.145327
0.109895 0.154330 0.152163
0.111635 0.151583 0.160861
0.134737 0.163546 0.166110
0.204318 0.185946 0.154330
0.297826 0.208133 0.140139
0.410346 0.229191 0.122683
0.530846 0.250401 0.100282
0.652216 0.276707 0.068666
0.751400 0.300877 0.018036
0.810697 0.315343 0.000000
0.861448 0.328496 0.000000
0.905669 0.340887 0.000000
0.945647 0.353735 0.000000
0.981689 0.366217 0.000000
1.000000 0.378820 0.000000
1.000000 0.391150 0.000000
1.000000 0.402197 0.000000
1.000000 0.412787 0.000000
1.000000 0.421668 0.000000
1.000000 0.430030 0.000000
1.000000 0.437903 0.004211
1.000000 0.446632 0.069123
1.000000 0.456825 0.109834
1.000000 0.469062 0.148318
1.000000 0.483436 0.188846
0.029389 0.188144 0.147921
0.030671 0.188449 0.146914
0.032532 0.188540 0.143465
0.046113 0.188083 0.142184
0.063722 0.187259 0.141756
0.080934 0.186038 0.141238
0.103853 0.182742 0.146059
0.122835 0.178683 0.153262
0.135378 0.175143 0.162539
0.139590 0.172030 0.174228
0.154788 0.181704 0.188937
0.238163 0.212009 0.172946
0.349462 0.243839 0.154910
0.478065 0.275273 0.131472
0.601221 0.305699 0.101472
0.706691 0.333440 0.062715
0.796323 0.358068 0.000000
0.868650 0.377752 0.000000
0.910094 0.387274 0.000000
0.947417 0.397284 0.000000
0.981598 0.407507 0.000000
1.000000 0.417731 0.000000
1.000000 0.427710 0.000000
1.000000 0.436957 0.000000
1.000000 0.445258 0.000000
1.000000 0.452491 0.000000
1.000000 0.459174 0.000000
1.000000 0.465705 0.000000
1.000000 0.472480 0.021424
1.000000 0.480201 0.082582
1.000000 0.489906 0.126345
1.000000 0.501732 0.169100
0.000000 0.221195 0.154421
0.000000 0.221164 0.153048
0.000000 0.221164 0.149172
0.020142 0.220523 0.145937
0.051881 0.219242 0.145388
0.076204 0.217594 0.144778
0.100923 0.215366 0.145693
0.130343 0.210880 0.153414
0.153231 0.206485 0.163272
0.169772 0.202640 0.175631
0.180423 0.201480 0.192966
0.189334 0.208988 0.221561
0.288151 0.250034 0.204532
0.410681 0.289555 0.180636
0.538598 0.327153 0.151156
0.652277 0.360815 0.116732
0.750057 0.390021 0.074342
0.830655 0.413916 0.000000
0.896574 0.432044 0.000000
0.950866 0.445655 0.000000
0.984344 0.452918 0.000000
1.000000 0.459571 0.000000
1.000000 0.465919 0.000000
1.000000 0.471839 0.000000
1.000000 0.477516 0.000000
1.000000 0.482643 0.000000
1.000000 0.487678 0.000000
1.000000 0.492958 0.000000
1.000000 0.498604 0.000000
1.000000 0.504662 0.040345
1.000000 0.512444 0.100282
1.000000 0.522271 0.148806
0.000000 0.260380 0.161898
0.000000 0.260533 0.160281
0.000000 0.260502 0.155673
0.000000 0.260105 0.149966
0.022248 0.258701 0.149325
0.064790 0.256931 0.148623
0.095460 0.255131 0.147829
0.131868 0.252934 0.152682
0.169131 0.250767 0.163882
0.200565 0.248020 0.178378
0.224002 0.244755 0.196597
0.237156 0.242069 0.219211
0.246159 0.247562 0.252903
0.335698 0.289616 0.247471
0.464515 0.337041 0.217807
0.585473 0.378637 0.184573
0.691005 0.413519 0.148287
0.780392 0.442634 0.107576
0.854154 0.464942 0.057923
0.914885 0.481300 0.000000
0.965362 0.492836 0.000000
1.000000 0.500572 0.000000
1.000000 0.504906 0.000000
1.000000 0.508751 0.000000
1.000000 0.512444 0.000000
1.000000 0.515801 0.000000
1.000000 0.519158 0.000000
1.000000 0.522820 0.000000
1.000000 0.526970 0.000000
1.000000 0.531701 0.040192
1.000000 0.536950 0.074281
1.000000 0.544213 0.125216
0.000000 0.308782 0.171115
0.000000 0.308904 0.169406
0.000000 0.308873 0.164157
0.000000 0.309941 0.156039
0.000000 0.310063 0.154299
0.041169 0.310063 0.153658
0.089906 0.309392 0.152651
0.128054 0.308446 0.151705
0.179294 0.305638 0.163455
0.223758 0.302251 0.179324
0.260685 0.298253 0.199161
0.288853 0.294560 0.223270
0.354681 0.327245 0.279088
0.364843 0.331212 0.324224
0.444373 0.377508 0.338964
0.571405 0.434730 0.301244
0.680140 0.478553 0.261936
0.770809 0.511650 0.222354
0.844358 0.534936 0.183719
0.904936 0.550286 0.144137
0.954711 0.559899 0.102815
0.996643 0.564599 0.049470
1.000000 0.565789 0.000000
1.000000 0.564385 0.000000
1.000000 0.563470 0.000000
1.000000 0.563653 0.000000
1.000000 0.564294 0.000000
1.000000 0.565362 0.000000
1.000000 0.567102 0.044099
1.000000 0.569543 0.077119
1.000000 0.572656 0.103883
1.000000 0.576471 0.129366
0.000000 0.392737 0.190158
0.000000 0.392920 0.188083
0.000000 0.393011 0.181247
0.000000 0.393011 0.170169
0.000000 0.391516 0.163912
0.000000 0.388647 0.162753
0.083803 0.385901 0.161196
0.136202 0.383246 0.159670
0.188632 0.380774 0.163241
0.251713 0.378119 0.182712
0.306249 0.376349 0.206546
0.353368 0.374945 0.235966
0.390173 0.374060 0.270848
0.413581 0.373175 0.310796
0.424140 0.375952 0.357824
0.475319 0.414221 0.398138
0.595819 0.474922 0.360967
0.698024 0.520592 0.322911
0.783169 0.554253 0.286046
0.852232 0.577020 0.250492
0.909148 0.591852 0.216342
0.956573 0.600458 0.181613
0.996551 0.604059 0.145205
1.000000 0.604334 0.104616
1.000000 0.601740 0.049897
1.000000 0.597314 0.000000
1.000000 0.594629 0.000000
1.000000 0.594446 0.000000
1.000000 0.594965 0.043000
1.000000 0.596307 0.079408
1.000000 0.598352 0.108461
1.000000 0.601129 0.134524
0.000000 0.460700 0.209689
0.000000 0.460731 0.207919
0.000000 0.459510 0.199252
0.000000 0.457923 0.186465
0.000000 0.455329 0.174960
0.000000 0.450813 0.173007
0.069703 0.446326 0.171023
0.135012 0.441962 0.168734
0.185977 0.438422 0.166659
0.250767 0.435279 0.179629
0.316381 0.433051 0.204410
0.372625 0.431189 0.233951
0.419654 0.429816 0.268467
0.454658 0.428138 0.307378
0.476204 0.426123 0.350256
0.481300 0.423529 0.394598
0.504387 0.450019 0.456703
0.617182 0.513176 0.422065
0.713710 0.561212 0.388220
0.792844 0.594903 0.355322
0.857481 0.617609 0.323919
0.911131 0.631952 0.293309
0.955871 0.639673 0.262364
0.994263 0.642847 0.230869
1.000000 0.642298 0.197024
1.000000 0.639094 0.160525
1.000000 0.633845 0.118868
1.000000 0.627283 0.064363
1.000000 0.623438 0.046723
1.000000 0.623560 0.085054
1.000000 0.624537 0.114565
1.000000 0.626398 0.142550
0.000000 0.522789 0.233677
0.000000 0.522881 0.231937
0.000000 0.521599 0.222690
0.000000 0.519524 0.208865
0.000000 0.516716 0.191196
0.000000 0.511162 0.188510
0.063355 0.505699 0.185733
0.137972 0.500816 0.183169
0.194064 0.496345 0.180423
0.244327 0.492836 0.178225
0.320165 0.490486 0.204227
0.385443 0.488899 0.235019
0.440406 0.487526 0.269993
0.484138 0.485725 0.309087
0.515892 0.483406 0.351171
0.534325 0.479957 0.394568
0.538293 0.475959 0.437079
0.553552 0.496681 0.499580
0.641138 0.553979 0.485298
0.729793 0.601984 0.454902
0.801968 0.634852 0.426398
0.861601 0.656672 0.399176
0.911101 0.669947 0.372290
0.953307 0.677333 0.345495
0.989807 0.680232 0.317571
1.000000 0.679591 0.287694
1.000000 0.676448 0.255802
1.000000 0.671443 0.222049
1.000000 0.665095 0.185367
1.000000 0.657801 0.144839
1.000000 0.653620 0.132509
1.000000 0.654810 0.161776
0.000000 0.581872 0.263554
0.000000 0.582635 0.262272
0.000000 0.582177 0.253330
0.000000 0.580987 0.239567
0.000000 0.579431 0.221195
0.000000 0.575494 0.213748
0.083833 0.571130 0.210971
0.157107 0.566674 0.207980
0.214603 0.562341 0.204868
0.266423 0.558251 0.202029
0.326238 0.554376 0.210452
0.397498 0.550866 0.242039
0.456611 0.547448 0.276951
0.504753 0.543450 0.314946
0.542412 0.539361 0.355383
0.569116 0.535027 0.396857
0.585260 0.531212 0.438544
0.590326 0.528069 0.480049
0.602930 0.545678 0.538354
0.665583 0.594781 0.547295
0.746120 0.642359 0.522301
0.811856 0.674617 0.498909
0.865995 0.695430 0.476387
0.911528 0.708370 0.454292
0.950774 0.715419 0.431434
0.985046 0.718379 0.407996
1.000000 0.718227 0.383276
1.000000 0.715480 0.356512
1.000000 0.710933 0.328038
1.000000 0.704555 0.296330
1.000000 0.696773 0.260899
1.000000 0.687709 0.221530
0.000000 0.634943 0.296971
0.000000 0.634913 0.296330
0.000000 0.634241 0.287266
0.000000 0.632959 0.273442
0.000000 0.631464 0.255894
0.000000 0.628656 0.242527
0.113313 0.624201 0.239414
0.178714 0.619898 0.235996
0.234134 0.615595 0.232639
0.284337 0.611200 0.229221
0.331090 0.607172 0.226047
0.397650 0.603510 0.248508
0.462531 0.600000 0.283909
0.515892 0.596368 0.321843
0.559167 0.592248 0.361852
0.592340 0.587976 0.401953
0.616144 0.583825 0.442145
0.630976 0.580774 0.482460
0.637201 0.578851 0.522820
0.646998 0.592889 0.576471
0.686671 0.631525 0.604517
0.759060 0.677241 0.583581
0.818540 0.707881 0.563958
0.867857 0.727901 0.545525
0.909911 0.740505 0.526970
0.946441 0.747890 0.508202
0.978546 0.751522 0.489204
1.000000 0.752163 0.468818
1.000000 0.750484 0.447150
1.000000 0.746883 0.423743
1.000000 0.741604 0.398077
1.000000 0.734707 0.369207
0.069886 0.684993 0.337194
0.087282 0.685847 0.337438
0.159579 0.713893 0.359503
0.158236 0.713008 0.346593
0.156222 0.711757 0.329046
0.162692 0.709651 0.310033
0.210666 0.704891 0.305303
0.256016 0.699886 0.300267
0.299565 0.694881 0.295262
0.342473 0.689845 0.290379
0.383276 0.684993 0.285527
0.425269 0.679896 0.283452
0.491920 0.674556 0.320165
0.547234 0.669123 0.357916
0.592462 0.663691 0.396185
0.628443 0.658473 0.434394
0.655756 0.653437 0.472175
0.675257 0.648859 0.509422
0.687251 0.645106 0.546654
0.691829 0.642542 0.583307
0.697627 0.651362 0.628290
0.717586 0.677729 0.666835
0.779110 0.718257 0.649531
0.830106 0.745083 0.633295
0.873136 0.762661 0.617517
0.910430 0.773861 0.601556
0.943145 0.780606 0.585657
0.972595 0.784146 0.569207
0.999390 0.785336 0.552697
1.000000 0.784573 0.535332
1.000000 0.782010 0.516533
1.000000 0.777768 0.495705
0.196231 0.736446 0.391669
0.210452 0.738643 0.394812
0.216159 0.740719 0.390723
0.219974 0.742214 0.381964
0.221927 0.742916 0.368597
0.220890 0.742519 0.349859
0.254215 0.739193 0.343938
0.291356 0.734890 0.339055
0.328923 0.730587 0.334142
0.366430 0.726345 0.329534
0.403052 0.722103 0.324743
0.439307 0.717617 0.319707
0.487526 0.712551 0.332128
0.545556 0.707362 0.368872
0.593957 0.702022 0.405737
0.633265 0.697078 0.442603
0.664942 0.692348 0.479316
0.689296 0.688289 0.515679
0.706996 0.684840 0.551812
0.718410 0.682551 0.587274
0.723384 0.680964 0.621027
0.728267 0.687739 0.659968
0.738186 0.707118 0.704677
0.790585 0.743801 0.693416
0.836515 0.769162 0.680354
0.875731 0.786343 0.667781
0.909728 0.797726 0.655390
0.939849 0.805203 0.643305
0.967041 0.809781 0.631312
0.991852 0.812131 0.619074
1.000000 0.812558 0.606287
1.000000 0.811246 0.592126
0.264195 0.766964 0.430549
0.275547 0.768673 0.433600
0.281376 0.770413 0.430671
0.284703 0.771817 0.423499
0.286809 0.772671 0.412299
0.286107 0.772610 0.395941
0.303502 0.770565 0.386084
0.333898 0.767178 0.381994
0.365362 0.763607 0.377478
0.397192 0.759915 0.373144
0.429389 0.756252 0.368444
0.461402 0.752316 0.363684
0.492317 0.747890 0.358038
0.545129 0.742824 0.384680
0.595361 0.737667 0.420264
0.636927 0.732662 0.455573
0.671077 0.727962 0.490547
0.698756 0.723903 0.525628
0.720272 0.720363 0.560204
0.736080 0.717983 0.594018
0.746334 0.716426 0.626154
0.751675 0.715969 0.656825
0.755581 0.720577 0.689815
0.764889 0.737392 0.730159
0.802335 0.766476 0.730983
0.843717 0.790524 0.720333
0.879271 0.807156 0.710323
0.910399 0.818692 0.700954
0.938201 0.826780 0.692012
0.963256 0.832242 0.683436
0.986145 0.835569 0.674800
1.000000 0.837095 0.665736
0.330297 0.794705 0.472206
0.340520 0.796201 0.475593
0.346685 0.797757 0.474098
0.350286 0.799130 0.468360
0.351751 0.799893 0.458625
0.350958 0.799985 0.444648
0.357214 0.798978 0.431983
0.380743 0.795926 0.427741
0.405768 0.792691 0.422950
0.431891 0.789273 0.418158
0.458808 0.785855 0.413428
0.486122 0.782254 0.408331
0.513329 0.778439 0.402991
0.544976 0.774289 0.403388
0.596521 0.769467 0.437934
0.640284 0.765072 0.472786
0.677607 0.761318 0.508263
0.708461 0.758358 0.543481
0.733700 0.756252 0.578363
0.753536 0.755093 0.611810
0.768460 0.754818 0.643641
0.778714 0.755306 0.673640
0.784543 0.756130 0.701015
0.787716 0.759274 0.728206
0.796597 0.773770 0.763027
0.821530 0.795773 0.772732
0.857633 0.817685 0.764797
0.888914 0.833341 0.757656
0.916503 0.844694 0.751308
0.941253 0.852873 0.745357
0.963409 0.858640 0.739742
0.983490 0.862425 0.734096
0.417182 0.826291 0.530907
0.423255 0.826658 0.532647
0.426612 0.826963 0.530205
0.426764 0.827176 0.523552
0.425818 0.827237 0.514122
0.424109 0.826993 0.501671
0.422492 0.826688 0.487037
0.440620 0.824308 0.483253
0.460273 0.821927 0.479316
0.481636 0.819455 0.475746
0.503929 0.816922 0.471748
0.526787 0.814237 0.467659
0.549584 0.811154 0.462928
0.572351 0.807797 0.457221
0.608392 0.803555 0.471077
0.651759 0.798978 0.504112
0.688899 0.794919 0.537194
0.719966 0.791501 0.569635
0.745815 0.788815 0.601038
0.766598 0.786893 0.630915
0.782986 0.785550 0.659205
0.795254 0.784817 0.685908
0.803494 0.784512 0.710445
0.808011 0.784421 0.732815
0.809995 0.785702 0.754452
0.817319 0.797177 0.784115
0.833371 0.813931 0.799771
0.866056 0.834775 0.793454
0.894713 0.850004 0.788144
0.920012 0.861418 0.783597
0.942504 0.869810 0.779507
0.962737 0.875914 0.775631
0.474128 0.845518 0.571954
0.479164 0.845731 0.573480
0.483070 0.845914 0.572351
0.482734 0.846128 0.566400
0.481941 0.846220 0.558404
0.480201 0.846098 0.547784
0.478370 0.846006 0.535271
0.487953 0.844541 0.528771
0.503563 0.842466 0.525048
0.520836 0.840513 0.521752
0.539239 0.838437 0.518517
0.558129 0.836179 0.514549
0.577417 0.833707 0.510399
0.597009 0.831113 0.505730
0.616754 0.828305 0.500725
0.656794 0.824063 0.527550
0.694179 0.820218 0.559045
0.725948 0.816861 0.589502
0.752560 0.814267 0.618708
0.774624 0.812284 0.646662
0.792813 0.810910 0.673365
0.807095 0.810208 0.698329
0.817929 0.809903 0.721584
0.825467 0.810086 0.743008
0.828092 0.808316 0.759915
0.830076 0.809323 0.778561
0.836423 0.818753 0.804105
0.845823 0.831388 0.824277
0.875486 0.851102 0.819486
0.901488 0.865843 0.815549
0.924437 0.877043 0.812497
0.944884 0.885527 0.809903
0.541405 0.866545 0.622644
0.545708 0.866728 0.624170
0.548882 0.866758 0.623316
0.547997 0.866758 0.618158
0.546380 0.866575 0.610925
0.544091 0.866300 0.601678
0.541375 0.865904 0.590478
0.543725 0.864866 0.581231
0.554376 0.862852 0.577020
0.566308 0.860746 0.572564
0.579278 0.858457 0.567987
0.593500 0.856260 0.563470
0.608331 0.853849 0.558618
0.623590 0.851316 0.553277
0.639307 0.848539 0.547387
0.660945 0.845274 0.549432
0.697139 0.841001 0.577569
0.728481 0.837461 0.605280
0.755673 0.834714 0.632563
0.778927 0.832822 0.659205
0.798428 0.831540 0.684535
0.814359 0.830716 0.708156
0.826688 0.830106 0.729702
0.835904 0.829587 0.749264
0.842069 0.829099 0.767056
0.845579 0.828763 0.783352
0.847166 0.829191 0.799069
0.852506 0.836698 0.820981
0.858549 0.846738 0.842069
0.883452 0.864469 0.840574
0.907347 0.878813 0.837949
0.928435 0.889952 0.836149
0.581811 0.879973 0.654658
0.585748 0.880217 0.656428
0.589593 0.880339 0.656428
0.589563 0.880491 0.652674
0.588708 0.880491 0.647059
0.587366 0.880491 0.639796
0.585687 0.880461 0.630854
0.585473 0.880247 0.621851
0.594751 0.878843 0.618891
0.605219 0.877379 0.616022
0.616449 0.875822 0.612940
0.628534 0.874174 0.609613
0.641260 0.872465 0.606226
0.654353 0.870573 0.602319
0.667659 0.868498 0.597742
0.681361 0.866331 0.593042
0.707179 0.863096 0.606287
0.737514 0.859586 0.631281
0.764004 0.856779 0.655787
0.786984 0.854612 0.679561
0.806607 0.853025 0.702327
0.822995 0.851865 0.723568
0.836332 0.851072 0.743252
0.846891 0.850492 0.761410
0.854826 0.850095 0.778164
0.860410 0.849790 0.793637
0.863798 0.849760 0.807980
0.865232 0.850004 0.821378
0.870176 0.856504 0.840391
0.876005 0.865568 0.859434
0.894285 0.880095 0.863127
0.915587 0.893584 0.861601
0.624964 0.894041 0.689509
0.627832 0.894102 0.690639
0.631281 0.894011 0.690913
0.630701 0.894011 0.687343
0.629511 0.893980 0.682246
0.627955 0.893858 0.675837
0.626246 0.893828 0.668299
0.624628 0.893767 0.659724
0.630671 0.892760 0.656092
0.639124 0.891539 0.653498
0.648524 0.890318 0.651087
0.658839 0.889128 0.648676
0.669673 0.887785 0.646113
0.680873 0.886381 0.643183
0.692134 0.884794 0.639582
0.703914 0.883055 0.635798
0.716121 0.881285 0.631861
0.744442 0.877958 0.653285
0.770260 0.875120 0.675471
0.792996 0.872862 0.697139
0.812619 0.871153 0.717708
0.829404 0.869902 0.737240
0.843503 0.868986 0.755489
0.855009 0.868315 0.772396
0.864225 0.867796 0.788113
0.871183 0.867460 0.802609
0.876127 0.867277 0.816098
0.879149 0.867216 0.828580
0.880552 0.867399 0.840299
0.884794 0.872770 0.856565
0.890288 0.880888 0.873777
0.903136 0.892576 0.881254
0.659907 0.905852 0.718257
0.662013 0.905821 0.718959
0.665522 0.905669 0.719631
0.665156 0.905791 0.716732
0.664881 0.905943 0.713130
0.664820 0.906218 0.708827
0.665217 0.906706 0.704189
0.666041 0.907317 0.699062
0.671321 0.907530 0.696803
0.680629 0.907317 0.697230
0.690608 0.907134 0.697627
0.700832 0.906889 0.697963
0.711208 0.906493 0.697841
0.721462 0.905943 0.697200
0.731502 0.905150 0.695857
0.741329 0.904082 0.693721
0.751217 0.902922 0.691035
0.766293 0.901183 0.695277
0.789822 0.898589 0.714107
0.810697 0.896422 0.732326
0.829007 0.894743 0.749722
0.844907 0.893431 0.766262
0.858427 0.892271 0.781674
0.869780 0.891356 0.796139
0.879057 0.890501 0.809537
0.886381 0.889830 0.821988
0.892027 0.889342 0.833677
0.896025 0.889036 0.844663
0.898589 0.888945 0.854948
0.899840 0.889128 0.864683
0.903288 0.893339 0.878019
0.908232 0.900267 0.892729
0.706172 0.920867 0.756344
0.707851 0.920836 0.756924
0.710964 0.920653 0.757687
0.710445 0.920714 0.755215
0.709773 0.920714 0.751980
0.709163 0.920806 0.748104
0.708736 0.920989 0.743771
0.708492 0.921263 0.738918
0.709957 0.921477 0.734859
0.716426 0.921019 0.734249
0.723384 0.920531 0.733486
0.730800 0.920104 0.732784
0.738491 0.919554 0.731838
0.746334 0.918914 0.730587
0.754391 0.918090 0.729030
