data/fiter_cube/89350833/1022876/file.cube
# Created by Adobe Lightroom plugin Export LUT (1.24.0)
# www.johnrellis.com/lightroom/exportlut.htm
# Preset: 婚礼接亲预设[余晖]-6 父母合影
# Color profile: C:\Windows\System32\Spool\Drivers\Color\AppleRGB.icc
LUT_3D_SIZE 8
DOMAIN_MIN 0.000000 0.000000 0.000000
DOMAIN_MAX 0.903226 0.903226 0.903226
0.055116 0.108461 0.126741
0.073671 0.109834 0.127535
0.157839 0.111818 0.127687
0.400427 0.095338 0.122927
0.726192 0.064942 0.105592
0.958221 0.142733 0.079347
1.000000 0.236973 0.083955
1.000000 0.319768 0.146029
0.054322 0.120668 0.130983
0.067414 0.118837 0.133028
0.174807 0.137240 0.124819
0.434272 0.148470 0.111727
0.737911 0.170932 0.081147
0.954925 0.238529 0.024506
1.000000 0.297398 0.024842
1.000000 0.356359 0.107607
0.029389 0.188144 0.147921
0.063722 0.187259 0.141756
0.135378 0.175143 0.162539
0.349462 0.243839 0.154910
0.796323 0.358068 0.000000
0.981598 0.407507 0.000000
1.000000 0.445258 0.000000
1.000000 0.472480 0.021424
0.000000 0.392737 0.190158
0.000000 0.391516 0.163912
0.188632 0.380774 0.163241
0.390173 0.374060 0.270848
0.595819 0.474922 0.360967
0.909148 0.591852 0.216342
1.000000 0.601740 0.049897
1.000000 0.594965 0.043000
0.000000 0.634943 0.296971
0.000000 0.631464 0.255894
0.234134 0.615595 0.232639
0.462531 0.600000 0.283909
0.616144 0.583825 0.442145
0.686671 0.631525 0.604517
0.909911 0.740505 0.526970
1.000000 0.750484 0.447150
0.330297 0.794705 0.472206
0.351751 0.799893 0.458625
0.405768 0.792691 0.422950
0.513329 0.778439 0.402991
0.677607 0.761318 0.508263
0.768460 0.754818 0.643641
0.796597 0.773770 0.763027
0.916503 0.844694 0.751308
0.581811 0.879973 0.654658
0.588708 0.880491 0.647059
0.594751 0.878843 0.618891
0.641260 0.872465 0.606226
0.707179 0.863096 0.606287
0.806607 0.853025 0.702327
0.854826 0.850095 0.778164
0.870176 0.856504 0.840391
0.734157 0.930968 0.779965
0.738277 0.930938 0.777096
0.738125 0.932189 0.762753
0.763485 0.931273 0.761807
0.782162 0.925261 0.745663
0.838804 0.920836 0.776120
0.891356 0.916442 0.829191
0.916228 0.913848 0.869017
0.055573 0.109346 0.133852
0.069306 0.110384 0.134218
0.140078 0.112062 0.139406
0.348302 0.101381 0.143740
0.675624 0.055726 0.136080
0.921935 0.126192 0.120302
1.000000 0.227817 0.114626
1.000000 0.310674 0.133211
0.054017 0.120943 0.138582
0.073518 0.125246 0.141268
0.163943 0.133486 0.142367
0.392706 0.136049 0.139956
0.702632 0.142489 0.126497
0.926390 0.207858 0.107668
1.000000 0.282689 0.101930
1.000000 0.349767 0.123720
0.036194 0.187442 0.165347
0.076387 0.195529 0.164431
0.149477 0.186160 0.176699
0.388037 0.251896 0.165896
0.780087 0.326116 0.080995
0.951873 0.373968 0.064668
1.000000 0.419196 0.085115
1.000000 0.461128 0.135195
0.000000 0.373877 0.220645
0.029053 0.383368 0.215213
0.183291 0.373846 0.189334
0.367651 0.354925 0.274907
0.575891 0.448280 0.335698
0.890166 0.557183 0.215122
1.000000 0.572778 0.082551
1.000000 0.582391 0.149172
0.000000 0.623346 0.333928
0.146181 0.621851 0.328374
0.243992 0.607324 0.274571
0.443610 0.585016 0.296788
0.600916 0.567437 0.442054
0.688319 0.626825 0.588739
0.908659 0.731289 0.520378
1.000000 0.740688 0.445380
0.320378 0.785245 0.487800
0.381384 0.784115 0.492439
0.406012 0.781216 0.444709
0.512322 0.769070 0.428016
0.669459 0.754726 0.513085
0.766110 0.752132 0.648585
0.795132 0.773007 0.765011
0.917601 0.841855 0.746639
0.560021 0.873045 0.649928
0.586694 0.870451 0.653498
0.584680 0.870176 0.619928
0.633967 0.864866 0.609796
0.695521 0.858030 0.602075
0.800198 0.848020 0.698299
0.849149 0.843900 0.772641
0.864469 0.850370 0.835477
0.723201 0.928496 0.777127
0.738979 0.927886 0.782071
0.742611 0.928801 0.770657
0.762264 0.928862 0.765408
0.790585 0.926879 0.761196
0.838956 0.921630 0.780514
0.890532 0.915892 0.830076
0.915618 0.913146 0.869413
0.053651 0.110842 0.166629
0.085267 0.112062 0.171511
0.148501 0.114015 0.176364
0.393072 0.072999 0.211002
0.667292 0.000000 0.217990
0.904021 0.126986 0.257939
1.000000 0.271733 0.296391
1.000000 0.378149 0.339483
0.037690 0.129488 0.175265
0.075654 0.130800 0.183566
0.163790 0.137789 0.189639
0.389715 0.126101 0.213413
0.671656 0.131167 0.236027
0.907622 0.211765 0.259312
1.000000 0.317388 0.290471
1.000000 0.407874 0.333104
0.000000 0.190005 0.202670
0.069581 0.198978 0.208316
0.187991 0.221317 0.221378
0.479744 0.256291 0.229618
0.756954 0.307622 0.244388
0.933989 0.375555 0.265843
1.000000 0.441871 0.302342
1.000000 0.501274 0.350256
0.000000 0.403204 0.311620
0.065736 0.415839 0.315190
0.261112 0.430823 0.308324
0.440711 0.413916 0.354559
0.674281 0.516869 0.396490
0.929290 0.572045 0.312169
1.000000 0.591241 0.329015
1.000000 0.615991 0.381506
0.081636 0.636622 0.431922
0.212284 0.638483 0.433570
0.371771 0.639948 0.429877
0.471870 0.623041 0.386450
0.642786 0.612116 0.517479
0.743038 0.679194 0.622705
0.925292 0.746578 0.569970
1.000000 0.744320 0.502861
0.357610 0.789395 0.558587
0.412879 0.788296 0.562402
0.513970 0.784146 0.568414
0.555138 0.775998 0.524010
0.674708 0.761959 0.557061
0.774441 0.761410 0.678401
0.809384 0.790036 0.783536
0.930144 0.850858 0.761044
0.575555 0.876768 0.689387
0.602472 0.874723 0.692958
0.656550 0.870207 0.700526
0.667353 0.867826 0.669520
0.712947 0.860807 0.654047
0.805478 0.853361 0.721157
0.857694 0.852934 0.792844
0.875761 0.864103 0.853971
0.717800 0.929717 0.788602
0.732753 0.928588 0.791958
0.766690 0.927031 0.801236
0.775357 0.929381 0.789364
0.800534 0.927520 0.784634
0.839445 0.924529 0.791440
0.893797 0.919310 0.839872
0.919524 0.917144 0.877928
0.036988 0.112032 0.257877
0.100679 0.110933 0.272801
0.243992 0.104433 0.303044
0.389197 0.082216 0.310613
0.741604 0.000000 0.396155
0.913024 0.128542 0.415412
1.000000 0.306126 0.456397
1.000000 0.483131 0.540978
0.000000 0.136477 0.280034
0.071534 0.136660 0.294621
0.250065 0.141390 0.325628
0.419074 0.135958 0.335241
0.738674 0.138888 0.407538
0.895232 0.232822 0.425147
0.980102 0.390021 0.483772
1.000000 0.505364 0.540734
0.000000 0.215274 0.303044
0.000000 0.219181 0.311070
0.197635 0.233555 0.348516
0.462837 0.276707 0.385443
0.715999 0.333562 0.433478
0.867460 0.428046 0.480415
0.981476 0.518853 0.529351
1.000000 0.580865 0.562799
0.000000 0.390265 0.392706
0.000000 0.401709 0.400061
0.264775 0.433692 0.423499
0.482643 0.462135 0.441627
0.742214 0.520226 0.459937
0.891630 0.570581 0.496468
0.982727 0.619409 0.537072
1.000000 0.660212 0.575921
0.157443 0.658137 0.552941
0.258854 0.657801 0.552270
0.416266 0.658350 0.551995
0.554162 0.662348 0.547539
0.677119 0.651514 0.592554
0.799924 0.723323 0.654566
0.952300 0.752377 0.615442
1.000000 0.751583 0.604211
0.407141 0.800473 0.648798
0.464607 0.802182 0.655512
0.552087 0.797910 0.657404
0.643030 0.794430 0.659297
0.687373 0.782620 0.623194
0.791836 0.780850 0.721614
0.842802 0.817960 0.793332
0.948760 0.857542 0.772793
0.586969 0.879881 0.734829
0.611261 0.879057 0.737118
0.663569 0.876768 0.742397
0.727230 0.873930 0.751766
0.745846 0.869566 0.725612
0.811887 0.862547 0.749477
0.866056 0.861692 0.813199
0.885100 0.876097 0.871336
0.712245 0.934325 0.809598
0.727443 0.933684 0.812284
0.763943 0.931670 0.820127
0.806699 0.930236 0.831144
0.815183 0.930114 0.815915
0.841611 0.928008 0.809812
0.896941 0.923583 0.851316
0.924681 0.922423 0.888914
0.000000 0.108217 0.437751
0.116304 0.101991 0.456916
0.320745 0.074739 0.494545
0.572656 0.046174 0.545464
0.714046 0.042695 0.538659
0.926452 0.218784 0.600000
1.000000 0.388617 0.617395
1.000000 0.531212 0.655146
0.000000 0.139467 0.456153
0.055238 0.139101 0.473976
0.310155 0.134096 0.511467
0.584649 0.164858 0.564904
0.724178 0.181643 0.558923
0.915312 0.326574 0.615076
0.984863 0.454810 0.631403
1.000000 0.572015 0.668574
0.000000 0.237400 0.446326
0.000000 0.239963 0.470924
0.236088 0.252720 0.525933
0.561334 0.324102 0.581170
0.715602 0.368170 0.583764
0.876768 0.470558 0.627619
0.950439 0.555901 0.650935
0.996033 0.633631 0.685451
0.000000 0.407477 0.523522
0.000000 0.414160 0.530236
0.193973 0.427955 0.544091
0.476875 0.462654 0.579553
0.705531 0.545617 0.620325
0.838590 0.602533 0.650111
0.915709 0.660395 0.681971
0.986938 0.703243 0.708156
0.000000 0.613092 0.603754
0.145113 0.619623 0.608820
0.363684 0.633753 0.619684
0.552331 0.663111 0.644129
0.685939 0.672419 0.646754
0.847532 0.714961 0.667689
0.935210 0.743587 0.696590
0.994476 0.767636 0.720485
0.378363 0.789425 0.706233
0.441352 0.790555 0.710903
0.540978 0.789303 0.713954
0.634516 0.787442 0.713344
0.714351 0.786160 0.708034
0.797086 0.787289 0.747005
0.874815 0.835233 0.795621
0.973388 0.852445 0.776150
0.596582 0.879667 0.781613
0.616022 0.877958 0.780880
0.661036 0.875334 0.781033
0.721431 0.875120 0.785794
0.779324 0.873777 0.789487
0.803433 0.866300 0.765682
0.870268 0.866026 0.828183
0.900908 0.887816 0.872984
0.708827 0.932372 0.833890
0.721492 0.931945 0.834836
0.749203 0.930968 0.836790
0.791318 0.931731 0.843961
0.838163 0.930785 0.854246
0.851347 0.929686 0.840116
0.895781 0.925994 0.859281
0.927092 0.924804 0.896605
0.000000 0.096742 0.663813
0.178561 0.083864 0.676448
0.408270 0.045045 0.699886
0.649378 0.086854 0.734279
0.825772 0.211734 0.759579
0.905028 0.278172 0.729732
0.987243 0.462257 0.743252
1.000000 0.599359 0.760708
0.000000 0.145113 0.662196
0.112032 0.142245 0.673335
0.381537 0.138827 0.698238
0.635645 0.193912 0.734066
0.813077 0.312383 0.757687
0.891081 0.359930 0.731228
0.972473 0.519158 0.749172
1.000000 0.630762 0.766751
0.000000 0.270329 0.664851
0.000000 0.266850 0.681178
0.317113 0.284916 0.708827
0.606043 0.362097 0.738369
0.795773 0.494850 0.765347
0.868223 0.520043 0.746609
0.947112 0.631647 0.770230
0.989166 0.695338 0.783780
0.000000 0.438392 0.678523
0.000000 0.435920 0.678767
0.133028 0.433478 0.685115
0.538354 0.504723 0.737026
0.768032 0.628534 0.772793
0.849454 0.665858 0.771572
0.926635 0.727993 0.794949
0.971283 0.758511 0.803891
0.000000 0.618433 0.716243
0.000000 0.621241 0.718044
0.293980 0.627405 0.721553
0.483833 0.636805 0.726589
0.679072 0.670069 0.744991
0.824918 0.741176 0.776394
0.901823 0.772885 0.794430
0.951080 0.800534 0.811582
0.284611 0.767636 0.754818
0.356634 0.771389 0.758450
0.479744 0.775540 0.762264
0.611231 0.783017 0.768673
0.727016 0.798428 0.782437
0.808286 0.805661 0.786740
0.911467 0.835843 0.807950
0.968536 0.850553 0.823728
0.579553 0.880705 0.824216
0.612757 0.881346 0.827207
0.676661 0.882109 0.832822
0.745815 0.884306 0.840299
0.795499 0.883635 0.840177
0.836851 0.881315 0.834928
0.881651 0.878294 0.853208
0.930205 0.906828 0.881621
0.719692 0.933867 0.868589
0.731075 0.933318 0.868711
0.757778 0.932586 0.869688
0.794644 0.932921 0.872770
0.832181 0.933318 0.875517
0.872221 0.933440 0.880156
0.893034 0.930968 0.870756
0.933013 0.930846 0.909636
0.152041 0.100801 0.818082
0.275334 0.094759 0.825528
0.474678 0.098085 0.835935
0.675715 0.177249 0.848905
0.836606 0.342504 0.857542
0.928435 0.429358 0.858518
0.969940 0.484627 0.826017
1.000000 0.613489 0.822721
0.060822 0.161105 0.812894
0.229374 0.162783 0.819486
0.449317 0.178103 0.829923
0.658015 0.252720 0.842161
0.821012 0.398718 0.850919
0.913268 0.482063 0.852262
0.956146 0.523095 0.822507
0.996185 0.634241 0.822049
0.000000 0.286931 0.813993
0.086946 0.290166 0.819913
0.399542 0.321813 0.828214
0.631098 0.399451 0.838315
0.797421 0.521660 0.846860
0.891325 0.609583 0.852049
0.935424 0.634485 0.832517
0.980438 0.712459 0.839506
0.000000 0.441566 0.794095
0.000000 0.439673 0.800076
0.263523 0.450965 0.815274
0.574578 0.523156 0.831418
0.766964 0.626703 0.843656
0.875456 0.719692 0.857481
0.918578 0.729885 0.846159
0.967559 0.779568 0.857389
0.000000 0.608545 0.807767
0.000000 0.605524 0.806302
0.194553 0.599115 0.804044
0.396063 0.592462 0.802670
0.695644 0.675929 0.828641
0.849149 0.767727 0.852689
0.903136 0.791348 0.853666
0.957153 0.830137 0.871580
0.220890 0.755734 0.825956
0.287236 0.756466 0.826200
0.411109 0.758602 0.826505
0.546075 0.763607 0.827268
0.667292 0.770382 0.828214
0.798154 0.797330 0.842222
0.896483 0.847898 0.867887
0.947204 0.866789 0.880064
0.492592 0.859953 0.850736
0.527398 0.860838 0.851774
0.598016 0.862516 0.853605
0.681849 0.866270 0.857115
0.761898 0.871702 0.861814
0.834684 0.882872 0.872129
0.886290 0.886656 0.874327
0.954711 0.905821 0.889128
0.674556 0.931945 0.890043
0.694362 0.931975 0.891386
0.739040 0.932952 0.895567
0.790860 0.934447 0.901030
0.843015 0.937346 0.908568
0.878660 0.938689 0.910552
0.909331 0.939086 0.909453
0.940429 0.938598 0.925048
0.302525 0.158236 0.916503
0.385443 0.166964 0.918425
0.535821 0.198581 0.919463
0.696101 0.286290 0.920775
0.828458 0.419806 0.918822
0.919738 0.571496 0.914824
0.975341 0.602747 0.914244
0.999481 0.637171 0.886076
0.272984 0.217288 0.912779
0.362310 0.227726 0.914305
0.521996 0.262760 0.915648
0.685451 0.345006 0.916350
0.818875 0.467536 0.914794
0.910735 0.603265 0.911833
0.965881 0.632929 0.911254
0.991669 0.660273 0.885496
0.186404 0.331609 0.907774
0.303563 0.344457 0.908507
0.487465 0.381506 0.908904
0.664607 0.458991 0.910216
0.800473 0.560845 0.908751
0.894011 0.665461 0.907988
0.949279 0.699336 0.908873
0.977478 0.715236 0.888884
0.000000 0.449866 0.895995
0.087037 0.453407 0.899107
0.410742 0.493568 0.901518
0.621851 0.558923 0.903075
0.774716 0.643915 0.904173
0.876677 0.726802 0.907042
0.935607 0.768765 0.910948
0.964904 0.777890 0.897307
0.000000 0.595514 0.886595
0.000000 0.592157 0.886656
0.127962 0.580804 0.885466
0.483772 0.607416 0.892943
0.721950 0.694362 0.896910
0.850980 0.767941 0.903868
0.924712 0.824308 0.913756
0.955200 0.831785 0.907012
0.146578 0.738033 0.890379
0.212802 0.736233 0.889494
0.331060 0.732601 0.887480
0.463569 0.729824 0.885344
0.590997 0.727596 0.883146
0.808133 0.800473 0.899809
0.915160 0.865934 0.919219
0.951354 0.882414 0.921294
0.448249 0.849699 0.901854
0.479316 0.849973 0.901732
0.546075 0.850889 0.901457
0.629603 0.853758 0.901915
0.713313 0.858122 0.902861
0.789578 0.862608 0.903868
0.880552 0.881437 0.913237
0.947021 0.916777 0.930327
0.628901 0.920897 0.916716
0.646906 0.921111 0.916930
0.688136 0.922026 0.917876
0.741970 0.924224 0.919890
0.798856 0.927611 0.922820
0.855375 0.932403 0.926970
0.908141 0.939635 0.933806
0.944488 0.944762 0.938689
