data/fiter_cube/89350833/1022876/file.cube
# Created by Adobe Lightroom plugin Export LUT (1.24.0)
# www.johnrellis.com/lightroom/exportlut.htm
# Preset: 婚礼接亲预设[余晖]-6 父母合影
# Color profile: C:\Windows\System32\Spool\Drivers\Color\AppleRGB.icc
LUT_3D_SIZE 5
DOMAIN_MIN 0.000000 0.000000 0.000000
DOMAIN_MAX 0.903226 0.903226 0.903226
0.055116 0.108461 0.126741
0.126772 0.111635 0.127901
0.572992 0.071260 0.115816
1.000000 0.169009 0.075471
1.000000 0.319768 0.146029
0.043336 0.163272 0.142397
0.109895 0.154330 0.152163
0.652216 0.276707 0.068666
1.000000 0.378820 0.000000
1.000000 0.446632 0.069123
0.000000 0.522789 0.233677
0.137972 0.500816 0.183169
0.515892 0.483406 0.351171
0.861601 0.656672 0.399176
1.000000 0.665095 0.185367
0.417182 0.826291 0.530907
0.440620 0.824308 0.483253
0.608392 0.803555 0.471077
0.795254 0.784817 0.685908
0.894713 0.850004 0.788144
0.734157 0.930968 0.779965
0.737881 0.931731 0.766873
0.765866 0.926177 0.747341
0.854887 0.919493 0.790677
0.916228 0.913848 0.869017
0.054841 0.110323 0.153384
0.116335 0.113741 0.159182
0.501640 0.027222 0.185458
0.947784 0.148775 0.219394
1.000000 0.343969 0.272068
0.035584 0.163088 0.177676
0.141909 0.183841 0.189944
0.611597 0.228641 0.197086
0.967773 0.341375 0.216434
1.000000 0.459510 0.287907
0.000000 0.515770 0.338384
0.242557 0.524193 0.328313
0.527367 0.492775 0.404028
0.875578 0.655634 0.437049
1.000000 0.668238 0.351629
0.440711 0.824765 0.594018
0.551873 0.820462 0.608331
0.628626 0.806882 0.550591
0.801602 0.791745 0.712520
0.907347 0.858305 0.794766
0.728542 0.931640 0.791836
0.766201 0.929534 0.801846
0.787442 0.929534 0.783963
0.858152 0.923400 0.804898
0.920958 0.918700 0.879271
0.000000 0.110994 0.338354
0.229801 0.097719 0.381994
0.559075 0.026642 0.419471
0.949554 0.220005 0.516869
1.000000 0.498390 0.594842
0.000000 0.199191 0.356237
0.164218 0.205325 0.417578
0.603845 0.270176 0.479744
0.906859 0.423407 0.549523
1.000000 0.611414 0.643153
0.000000 0.502800 0.498878
0.247257 0.525719 0.515099
0.594293 0.573175 0.547692
0.893309 0.657588 0.597284
1.000000 0.719966 0.657465
0.473426 0.825559 0.707515
0.562463 0.820859 0.707759
0.703090 0.817502 0.711818
0.816739 0.808377 0.760006
0.938476 0.868223 0.801083
0.706844 0.932464 0.818997
0.740993 0.931640 0.822843
0.820676 0.929564 0.841062
0.851408 0.927153 0.820554
0.924620 0.922271 0.890898
0.000000 0.094820 0.701930
0.361608 0.056458 0.728573
0.755856 0.181949 0.778622
0.925231 0.324529 0.755673
1.000000 0.603967 0.777768
0.000000 0.229740 0.704372
0.274632 0.241245 0.730892
0.722164 0.388922 0.775753
0.892638 0.502586 0.763272
0.992187 0.678126 0.791348
0.000000 0.514000 0.710262
0.002045 0.511009 0.711452
0.598901 0.572442 0.751827
0.848569 0.699519 0.781308
0.960845 0.778683 0.816922
0.354803 0.798367 0.786099
0.482856 0.800290 0.787991
0.685328 0.812100 0.798459
0.830350 0.828855 0.811673
0.963256 0.862852 0.838621
0.721553 0.934020 0.877012
0.755367 0.934051 0.879271
0.818448 0.934874 0.884062
0.881926 0.934997 0.887816
0.933867 0.931670 0.912108
0.302525 0.158236 0.916503
0.495308 0.186404 0.919097
0.767117 0.349371 0.920287
0.934630 0.588159 0.914519
0.999481 0.637171 0.886076
0.222019 0.303838 0.910277
0.457008 0.341955 0.911559
0.745083 0.484199 0.911986
0.916625 0.679072 0.909880
0.981415 0.705165 0.889189
0.000000 0.516991 0.886198
0.193149 0.516411 0.892332
0.669306 0.624414 0.897765
0.883482 0.761074 0.905364
0.959197 0.803891 0.900999
0.258762 0.773404 0.894804
0.377539 0.771511 0.892973
0.574731 0.770962 0.889891
0.828458 0.823667 0.902739
0.950042 0.891417 0.923461
0.628901 0.920897 0.916716
0.676234 0.921691 0.917540
0.770474 0.925811 0.921233
0.869108 0.933898 0.928344
0.944488 0.944762 0.938689
