data/fiter_cube/46928955/1023410/file.cube
# Created by Adobe Lightroom plugin Export LUT (1.17.0)
# www.johnrellis.com/lightroom/exportlut.htm
# Preset: 室内干净明亮通透人像_03 云集
# Color profile: C:\Program Files (x86)\Common Files\Adobe\Color\Profiles\Recommended\AdobeRGB1998.icc
LUT_3D_SIZE 32
DOMAIN_MIN 0.0 0.0 0.0
DOMAIN_MAX 1.0 1.0 1.0
0.109529 0.027771 0.077852
0.109529 0.027771 0.077852
0.116701 0.030884 0.079133
0.135927 0.037415 0.083711
0.158694 0.055116 0.091585
0.187991 0.075410 0.099550
0.225101 0.085847 0.105409
0.267552 0.095003 0.110903
0.314855 0.101595 0.116030
0.366125 0.107210 0.121584
0.421668 0.111604 0.128176
0.479713 0.117739 0.135439
0.539117 0.125277 0.143252
0.597375 0.136904 0.151827
0.647059 0.154147 0.162448
0.687587 0.175631 0.174868
0.721370 0.199008 0.188602
0.759152 0.230106 0.208774
0.793393 0.262608 0.231327
0.824491 0.294926 0.256443
0.853819 0.327459 0.284337
0.882017 0.360235 0.315038
0.909026 0.392798 0.347875
0.935424 0.425757 0.382666
0.961730 0.459205 0.419165
0.988495 0.494484 0.458503
1.000000 0.531914 0.500359
1.000000 0.568841 0.541985
1.000000 0.603937 0.582513
1.000000 0.636103 0.623835
1.000000 0.648829 0.643427
1.000000 0.645747 0.641840
0.109529 0.027771 0.077852
0.109529 0.027771 0.077852
0.115724 0.029389 0.079194
0.134981 0.051850 0.085206
0.157504 0.074067 0.094148
0.186557 0.088045 0.101259
0.222934 0.097383 0.106569
0.264714 0.105196 0.111666
0.311223 0.111543 0.116426
0.362005 0.116640 0.122225
0.416663 0.121157 0.128573
0.473976 0.127138 0.135622
0.532616 0.134615 0.143252
0.590814 0.144900 0.151827
0.641199 0.160342 0.162081
0.682368 0.180026 0.173709
0.716640 0.201846 0.187594
0.754116 0.230991 0.206577
0.787533 0.261357 0.228183
0.818112 0.292058 0.251835
0.847105 0.323339 0.278660
0.875120 0.354986 0.308354
0.902037 0.386877 0.340368
0.928527 0.419074 0.374304
0.954864 0.452155 0.410437
0.981811 0.487160 0.449256
1.000000 0.524804 0.491768
1.000000 0.562707 0.534447
1.000000 0.598749 0.575738
1.000000 0.632044 0.617395
1.000000 0.649836 0.643885
1.000000 0.646754 0.642359
0.110018 0.050477 0.080507
0.110536 0.056306 0.080934
0.114229 0.061616 0.083589
0.133639 0.077424 0.089082
0.155825 0.091981 0.097597
0.184817 0.102327 0.103120
0.220493 0.110903 0.108125
0.261936 0.117556 0.112551
0.307897 0.123690 0.117494
0.358221 0.128603 0.122957
0.412360 0.133333 0.129122
0.469581 0.139040 0.136202
0.527977 0.145937 0.143709
0.586175 0.155917 0.152285
0.637140 0.169802 0.162112
0.678950 0.187320 0.173770
0.713558 0.207950 0.187198
0.751003 0.235691 0.205997
0.783932 0.264073 0.227054
0.814267 0.293553 0.250248
0.843259 0.323796 0.276402
0.871305 0.354559 0.305516
0.898222 0.385992 0.337255
0.924712 0.417578 0.370977
0.951080 0.450294 0.406653
0.978058 0.484810 0.445350
1.000000 0.522423 0.487709
1.000000 0.560540 0.530755
1.000000 0.597009 0.572717
1.000000 0.630823 0.614405
1.000000 0.651148 0.644495
1.000000 0.648035 0.643000
0.114076 0.096803 0.093751
0.114473 0.098573 0.094606
0.116640 0.100801 0.094881
0.129244 0.105776 0.103853
0.153689 0.119234 0.103792
0.182895 0.127687 0.107332
0.218296 0.134615 0.111482
0.259434 0.140352 0.115755
0.304936 0.145388 0.120241
0.354772 0.149935 0.125399
0.408118 0.155245 0.131258
0.464515 0.161013 0.138094
0.522332 0.167941 0.145693
0.580316 0.176822 0.153933
0.631861 0.188418 0.163424
0.674189 0.204044 0.175082
0.709407 0.221744 0.188022
0.747005 0.246860 0.206516
0.778897 0.272129 0.226383
0.808347 0.298680 0.248264
0.836759 0.326543 0.273228
0.864469 0.355657 0.301396
0.891722 0.385992 0.332464
0.918975 0.417731 0.366674
0.946593 0.451148 0.403662
0.974884 0.486915 0.444190
1.000000 0.525231 0.487678
1.000000 0.563867 0.531579
1.000000 0.600183 0.573693
1.000000 0.633417 0.614862
1.000000 0.654139 0.646082
1.000000 0.650813 0.644404
0.118013 0.130526 0.106905
0.118227 0.131807 0.107210
0.118318 0.133455 0.107698
0.129335 0.135592 0.111055
0.146334 0.144564 0.119631
0.177829 0.159243 0.118410
0.213718 0.162387 0.116304
0.253971 0.167819 0.119814
0.298741 0.172732 0.123781
0.347662 0.177707 0.128786
0.400336 0.182712 0.134401
0.456092 0.188693 0.140932
0.513573 0.195346 0.147982
0.571527 0.203677 0.156252
0.624659 0.213840 0.165743
0.668544 0.226841 0.176883
0.706783 0.243351 0.190860
0.743862 0.265110 0.209323
0.775479 0.287785 0.228580
0.804685 0.311772 0.249973
0.832700 0.337224 0.274296
0.860105 0.364446 0.301762
0.887205 0.393042 0.332494
0.914580 0.423743 0.366400
0.942412 0.456306 0.403296
0.971038 0.491402 0.443671
1.000000 0.529320 0.487343
1.000000 0.567254 0.531151
1.000000 0.602991 0.572869
1.000000 0.636072 0.613733
1.000000 0.658778 0.648432
1.000000 0.655085 0.646540
0.118013 0.166262 0.120180
0.118044 0.167269 0.120089
0.118624 0.168215 0.119753
0.126192 0.170077 0.116915
0.145785 0.174166 0.125673
0.170626 0.185641 0.136324
0.211215 0.201205 0.134463
0.251316 0.201022 0.128389
0.294560 0.203342 0.129580
0.343145 0.208530 0.133577
0.395300 0.214054 0.139376
0.450507 0.219974 0.145663
0.507622 0.226596 0.152743
0.565606 0.234501 0.160555
0.619440 0.243595 0.169680
0.664210 0.254643 0.180850
0.705135 0.270146 0.195804
0.741421 0.288853 0.213687
0.772976 0.308812 0.232670
0.802365 0.330541 0.254582
0.830686 0.354406 0.279026
0.858579 0.380377 0.307256
0.924987 0.458381 0.391638
0.952331 0.489784 0.428809
0.979431 0.522179 0.467506
1.000000 0.555291 0.506798
1.000000 0.586908 0.544335
1.000000 0.616754 0.580285
1.000000 0.645106 0.615900
1.000000 0.668788 0.653559
1.000000 0.664881 0.651575
1.000000 0.660853 0.649439
0.114839 0.210208 0.137240
0.115206 0.210849 0.136995
0.115511 0.211673 0.136690
0.124880 0.214145 0.135134
0.144717 0.216129 0.135836
0.174228 0.223301 0.145113
0.211032 0.236759 0.157687
0.261936 0.253178 0.157046
0.307347 0.252232 0.148379
0.350744 0.247379 0.142885
0.404578 0.253330 0.148226
0.461067 0.259678 0.154330
0.518791 0.266453 0.161379
0.576440 0.273930 0.169223
0.627527 0.281834 0.178225
0.669673 0.290806 0.189548
0.712978 0.306828 0.206851
0.748501 0.323613 0.225498
0.780056 0.342321 0.246403
0.810575 0.363867 0.270512
0.841184 0.389227 0.299260
0.872496 0.418524 0.333654
0.904173 0.451179 0.372564
0.935943 0.486061 0.414771
0.967163 0.522271 0.458686
0.997345 0.557733 0.501457
1.000000 0.590478 0.540917
1.000000 0.620478 0.577569
1.000000 0.648737 0.613306
1.000000 0.672633 0.651545
1.000000 0.672419 0.655451
1.000000 0.668025 0.653162
0.110079 0.248234 0.152956
0.110384 0.248753 0.153048
0.110811 0.249332 0.152499
0.119570 0.251347 0.151583
0.136873 0.254276 0.144839
0.170504 0.255497 0.155123
0.208957 0.266392 0.165805
0.253483 0.280919 0.178805
0.310704 0.299077 0.181064
0.359564 0.299107 0.169863
0.404456 0.293858 0.162509
0.452522 0.292180 0.161074
0.509758 0.299016 0.167758
0.567102 0.306523 0.175051
0.619287 0.313909 0.184054
0.666865 0.324041 0.196719
0.708125 0.336797 0.213016
0.742489 0.350256 0.230808
0.773587 0.365728 0.250736
0.803677 0.384619 0.274327
0.833951 0.407050 0.302281
0.864866 0.433661 0.335790
0.896178 0.463722 0.373663
0.927581 0.496376 0.414618
0.958709 0.530632 0.457557
0.989014 0.564660 0.499886
1.000000 0.596429 0.539117
1.000000 0.625940 0.575799
1.000000 0.653834 0.611505
1.000000 0.677424 0.649409
1.000000 0.681300 0.660090
1.000000 0.676387 0.657496
0.102876 0.287419 0.170840
0.102968 0.287938 0.170626
0.103639 0.288487 0.170413
0.113039 0.290166 0.169619
0.139315 0.293217 0.167330
0.166232 0.295415 0.165682
0.206332 0.298344 0.177676
0.252567 0.311894 0.190005
0.304295 0.328069 0.205692
0.368658 0.349432 0.211368
0.420294 0.350256 0.196231
0.465919 0.344762 0.187106
0.506889 0.336034 0.179141
0.560052 0.339879 0.182803
0.614557 0.348333 0.192050
0.664332 0.359014 0.205722
0.704005 0.368780 0.220981
0.737667 0.379706 0.238499
0.768399 0.392584 0.258030
0.798367 0.408881 0.281285
0.828336 0.429175 0.309117
0.858976 0.453285 0.341650
0.889982 0.481056 0.378668
0.921080 0.511650 0.419013
0.952026 0.543938 0.461006
0.982422 0.576257 0.502495
1.000000 0.606683 0.541100
1.000000 0.635004 0.577050
1.000000 0.661921 0.612329
1.000000 0.684779 0.649439
1.000000 0.691463 0.665644
1.000000 0.686000 0.662623
0.093843 0.327581 0.190127
0.094484 0.327733 0.189853
0.095033 0.328130 0.189456
0.106386 0.329503 0.188418
0.137667 0.332280 0.187716
0.161654 0.335332 0.179934
0.204685 0.336645 0.189303
0.250645 0.343572 0.202609
0.303319 0.358923 0.217655
0.361303 0.377142 0.236606
0.431464 0.401282 0.248142
0.483803 0.402197 0.228092
0.529229 0.397253 0.215793
0.569665 0.388708 0.205997
0.613062 0.384436 0.202365
0.661585 0.393866 0.215793
0.701137 0.402441 0.231327
0.734951 0.411719 0.249058
0.765621 0.423072 0.268864
0.795102 0.437201 0.292058
0.824338 0.454749 0.319310
0.853544 0.475624 0.350072
0.883116 0.499702 0.384619
0.912871 0.526665 0.422492
0.942931 0.555962 0.462379
0.973175 0.586358 0.502739
1.000000 0.615778 0.541161
1.000000 0.643885 0.577447
1.000000 0.670741 0.613153
1.000000 0.693874 0.650690
1.000000 0.702724 0.671778
1.000000 0.696651 0.668391
0.084169 0.366247 0.210147
0.084596 0.366613 0.210086
0.086000 0.367041 0.209506
0.099977 0.368597 0.208927
0.134401 0.371283 0.208133
0.170565 0.374640 0.206516
0.201450 0.377752 0.202579
0.250095 0.379706 0.216403
0.302586 0.391516 0.231907
0.361761 0.409400 0.250950
0.424659 0.429664 0.274418
0.499733 0.457649 0.294011
0.553155 0.459571 0.269078
0.599695 0.457313 0.256535
0.635370 0.448432 0.245579
0.663416 0.436072 0.236362
0.695369 0.433936 0.241672
0.728817 0.441566 0.258762
0.759426 0.450904 0.278386
0.788937 0.463111 0.301488
0.818021 0.478859 0.327977
0.847288 0.498054 0.358953
0.876829 0.520592 0.393317
0.906615 0.545922 0.430610
0.936645 0.573602 0.469825
0.966949 0.601953 0.508782
0.998260 0.629419 0.545678
1.000000 0.655848 0.580835
1.000000 0.681361 0.615534
1.000000 0.703975 0.652277
1.000000 0.714931 0.678645
1.000000 0.708309 0.674891
0.074830 0.407416 0.233310
0.075502 0.407752 0.233097
0.076661 0.408270 0.232914
0.095460 0.409583 0.232029
0.132815 0.412299 0.231327
0.174990 0.415625 0.231815
0.203494 0.419867 0.223606
0.250950 0.422705 0.231662
0.302037 0.425544 0.248203
0.362280 0.443397 0.267460
0.426764 0.463752 0.291569
0.497597 0.490059 0.323888
0.615961 0.559777 0.399207
0.657649 0.556237 0.369451
0.688197 0.546075 0.350530
0.712886 0.532403 0.331548
0.733150 0.516442 0.314855
0.750790 0.499397 0.299474
0.779324 0.507134 0.320134
0.807431 0.518456 0.344884
0.835264 0.532677 0.372534
0.863157 0.550164 0.403449
0.891234 0.570153 0.436530
0.919799 0.593072 0.472023
0.949004 0.617365 0.507958
0.979156 0.641321 0.541924
1.000000 0.664332 0.574090
1.000000 0.686519 0.605249
1.000000 0.708339 0.636988
1.000000 0.725429 0.672786
1.000000 0.728023 0.686244
1.000000 0.720790 0.682002
0.064607 0.461158 0.266300
0.065766 0.461433 0.266178
0.068025 0.461219 0.265232
0.093751 0.461891 0.264134
0.134829 0.463447 0.262791
0.179141 0.465309 0.261936
0.221256 0.468482 0.260166
0.252598 0.472694 0.252171
0.310460 0.475685 0.269108
0.367864 0.484199 0.290471
0.441444 0.511986 0.321386
0.521782 0.545159 0.363134
0.595972 0.576745 0.413703
0.659785 0.608698 0.472724
0.693935 0.603754 0.439948
0.720211 0.592889 0.415412
0.741634 0.578729 0.392523
0.759976 0.562646 0.370520
0.776425 0.546105 0.352667
0.797757 0.541283 0.353582
0.825528 0.553918 0.380346
0.853422 0.569574 0.410254
0.881285 0.587854 0.442420
0.909758 0.608942 0.476967
0.938933 0.631434 0.511559
0.969116 0.653834 0.544457
1.000000 0.675685 0.575647
1.000000 0.697139 0.606409
1.000000 0.718379 0.637873
1.000000 0.735897 0.673182
1.000000 0.741726 0.694301
1.000000 0.733944 0.689693
0.055543 0.503075 0.294865
0.059327 0.503349 0.294682
0.060304 0.503227 0.294072
0.089601 0.503838 0.292851
0.133883 0.505150 0.291386
0.179660 0.507195 0.290501
0.228183 0.510155 0.291081
0.259556 0.514824 0.280888
0.310277 0.520531 0.288640
0.374121 0.530053 0.313481
0.443000 0.549340 0.345220
0.518029 0.576257 0.385718
0.587366 0.601740 0.433600
0.645686 0.625574 0.486549
0.695857 0.653559 0.545006
0.723568 0.647761 0.510979
0.745998 0.635523 0.480171
0.764981 0.621149 0.453986
0.782834 0.606317 0.429358
0.799680 0.591669 0.410315
0.816953 0.577722 0.393683
0.843992 0.589776 0.419257
0.872099 0.606897 0.450843
0.900786 0.626673 0.484688
0.930266 0.647761 0.518151
0.960815 0.668818 0.549859
0.992676 0.689662 0.580529
1.000000 0.710231 0.610529
1.000000 0.730983 0.641718
1.000000 0.748562 0.676570
1.000000 0.756008 0.702998
1.000000 0.747646 0.697810
0.045808 0.547173 0.327581
0.049073 0.547478 0.327459
0.051240 0.547387 0.326818
0.086152 0.547814 0.325628
0.134127 0.549004 0.323919
0.180972 0.550774 0.322606
0.231785 0.556176 0.325017
0.279484 0.562646 0.324956
0.312779 0.571069 0.315526
0.379919 0.577295 0.340215
0.443427 0.584405 0.370031
0.512718 0.603479 0.408881
0.579126 0.624506 0.454475
0.636255 0.644862 0.503777
0.683040 0.665339 0.549798
0.726528 0.691554 0.600122
0.749630 0.685756 0.568750
0.769192 0.674403 0.538720
0.786801 0.662104 0.514763
0.804562 0.649622 0.491829
0.822171 0.637385 0.472511
0.840177 0.625422 0.455756
0.862699 0.625452 0.459419
0.891508 0.644007 0.492531
0.921447 0.663874 0.525048
0.952819 0.684382 0.556512
0.985962 0.705104 0.587121
1.000000 0.725978 0.617853
1.000000 0.747311 0.650141
1.000000 0.764675 0.686183
1.000000 0.770687 0.712093
1.000000 0.761837 0.706569
0.060609 0.594110 0.366003
0.063172 0.594873 0.366247
0.066468 0.595422 0.366247
0.093568 0.596887 0.366125
0.142977 0.599084 0.365942
0.193088 0.602197 0.366308
0.244846 0.605829 0.368200
0.300908 0.610010 0.373144
0.338018 0.615961 0.365789
0.388922 0.621057 0.374365
0.452461 0.624628 0.402777
0.510765 0.629572 0.435431
0.573266 0.645808 0.476997
0.627924 0.662593 0.520043
0.673579 0.680018 0.559869
0.712459 0.697749 0.595789
0.752468 0.723201 0.642664
0.773220 0.718257 0.614313
0.792020 0.709255 0.587457
0.809812 0.700526 0.568444
0.828183 0.692042 0.550652
0.846738 0.683589 0.535302
0.865629 0.675013 0.521904
0.886137 0.667018 0.509117
0.916350 0.684382 0.537621
0.948730 0.704067 0.568078
0.982818 0.724117 0.598108
1.000000 0.744381 0.628321
1.000000 0.765133 0.660365
1.000000 0.780880 0.695888
1.000000 0.785702 0.721736
1.000000 0.776364 0.715724
0.098238 0.635584 0.404517
0.099428 0.635859 0.404456
0.101198 0.636011 0.403967
0.118593 0.636713 0.403693
0.162692 0.637964 0.403204
0.209354 0.639643 0.403601
0.259281 0.641749 0.405402
0.313634 0.644099 0.409888
0.363195 0.647211 0.413153
0.394659 0.652369 0.405066
0.456611 0.654505 0.431006
0.513603 0.657069 0.461402
0.567529 0.664057 0.496620
0.620844 0.679286 0.535576
0.666072 0.695186 0.571649
0.704616 0.711238 0.604364
0.739132 0.727565 0.634913
0.776516 0.751369 0.677455
0.797147 0.748989 0.655421
0.815640 0.741817 0.630274
0.833371 0.735256 0.613855
0.851804 0.729000 0.598749
0.870634 0.722927 0.585901
0.890379 0.716945 0.575067
0.912261 0.711940 0.565270
0.940948 0.719539 0.575494
0.975952 0.739376 0.605219
1.000000 0.759640 0.635401
1.000000 0.780484 0.667597
1.000000 0.796170 0.703334
1.000000 0.800931 0.731624
1.000000 0.791104 0.725154
0.142519 0.670069 0.440284
0.143740 0.670741 0.440894
0.173526 0.690272 0.462409
0.184115 0.690608 0.462135
0.218784 0.691035 0.462379
0.260044 0.691402 0.463233
0.306706 0.691768 0.465736
0.357977 0.692256 0.471229
0.414710 0.692744 0.482094
0.450202 0.695705 0.481361
0.492012 0.698268 0.490700
0.544305 0.699397 0.517388
0.588891 0.701015 0.543725
0.632898 0.710353 0.573449
0.674495 0.724666 0.603937
0.711421 0.739284 0.632502
0.745205 0.754238 0.660487
0.776669 0.769223 0.687800
0.811826 0.791073 0.725856
0.831968 0.790127 0.708644
0.849271 0.783413 0.684291
0.866758 0.777371 0.666987
0.884977 0.772091 0.652522
0.903899 0.767208 0.640620
0.923583 0.761929 0.629938
0.945922 0.758053 0.620813
0.972320 0.757412 0.615839
1.000000 0.776150 0.644251
1.000000 0.796109 0.675441
1.000000 0.811490 0.710689
1.000000 0.816251 0.741878
1.000000 0.805997 0.734951
0.195560 0.704952 0.479805
0.200107 0.707607 0.482734
0.204807 0.710353 0.485725
0.213077 0.712886 0.487953
0.245029 0.714839 0.490639
0.283818 0.715755 0.493141
0.327276 0.716152 0.496345
0.375219 0.716182 0.502068
0.428443 0.716243 0.512413
0.474952 0.717159 0.521874
0.502953 0.720577 0.520378
0.548058 0.721920 0.539605
0.590631 0.723140 0.562432
0.627253 0.724941 0.584894
0.666682 0.736904 0.612055
0.703243 0.750576 0.638849
0.736995 0.764553 0.665339
0.768673 0.778836 0.691615
0.799069 0.793729 0.717891
0.833677 0.815122 0.753719
0.854826 0.816922 0.742702
0.872831 0.812131 0.721187
0.891112 0.807645 0.704921
0.910033 0.804013 0.692378
0.929656 0.800443 0.682002
0.950927 0.797116 0.673304
0.975555 0.795743 0.666712
1.000000 0.797177 0.663111
1.000000 0.811795 0.683589
1.000000 0.827115 0.718715
1.000000 0.831571 0.752346
1.000000 0.820981 0.745083
0.237736 0.730220 0.509972
0.242374 0.732631 0.512871
0.247044 0.735134 0.515801
0.252201 0.737423 0.518029
0.276097 0.739071 0.520592
0.310765 0.739681 0.523369
0.350896 0.739773 0.527001
0.395483 0.739590 0.532982
0.445014 0.739315 0.542992
0.495857 0.739223 0.557244
0.524285 0.742031 0.557855
0.553704 0.744900 0.562402
0.594141 0.745937 0.582391
0.629633 0.747463 0.602350
0.661738 0.750942 0.622736
0.697688 0.763851 0.648127
0.731197 0.777096 0.673365
0.762936 0.790738 0.698573
0.793637 0.805051 0.723842
0.823850 0.820188 0.749325
0.857939 0.841093 0.782834
0.880156 0.845365 0.777340
0.898344 0.841825 0.758236
0.916991 0.838254 0.742702
0.936187 0.835447 0.731197
0.956481 0.833005 0.722744
0.979309 0.831510 0.715999
1.000000 0.832425 0.712123
1.000000 0.836576 0.712154
1.000000 0.842344 0.725490
1.000000 0.846921 0.763027
1.000000 0.835966 0.755428
0.281956 0.754513 0.540551
0.286259 0.756832 0.543450
0.290929 0.759182 0.546441
0.295750 0.761288 0.548913
0.309148 0.762844 0.550896
0.340734 0.763241 0.554070
0.376989 0.763058 0.558038
0.418524 0.762539 0.564111
0.463630 0.762051 0.573419
0.508568 0.761898 0.585016
0.543938 0.763241 0.592554
0.564904 0.766598 0.590112
0.597436 0.768307 0.601709
0.631891 0.769741 0.619654
0.662593 0.771603 0.637812
0.693874 0.778439 0.659144
0.728054 0.792050 0.684657
0.761013 0.806516 0.710384
0.793271 0.821805 0.736507
0.825132 0.837888 0.762753
0.856748 0.854673 0.788510
0.891844 0.876188 0.820127
0.915068 0.882444 0.819394
0.933501 0.880064 0.803372
0.952819 0.877592 0.789578
0.973114 0.876432 0.780728
0.995148 0.875731 0.775082
1.000000 0.876890 0.771878
1.000000 0.880797 0.772213
1.000000 0.873869 0.779171
1.000000 0.862974 0.775906
1.000000 0.851102 0.766018
0.344579 0.787198 0.585321
0.346685 0.788327 0.586847
0.348943 0.789212 0.588006
0.351202 0.790036 0.588891
0.354498 0.790646 0.588983
0.379828 0.790463 0.591669
0.413367 0.789975 0.596063
0.450813 0.789548 0.602411
0.490089 0.789487 0.610773
0.529290 0.790005 0.620661
0.566979 0.791196 0.631800
0.587976 0.794522 0.630579
0.608301 0.797848 0.629999
0.641321 0.799191 0.646357
0.671504 0.800778 0.663172
0.699153 0.802792 0.680507
0.730251 0.812558 0.702571
0.762844 0.826169 0.726864
0.794766 0.840482 0.751339
0.826200 0.855344 0.775570
0.857176 0.870573 0.799161
0.887633 0.886076 0.821805
0.920409 0.905028 0.848783
0.942107 0.910796 0.849699
0.959319 0.908232 0.834806
0.978332 0.906065 0.821927
0.999054 0.905882 0.815518
1.000000 0.906981 0.812467
1.000000 0.907988 0.812802
1.000000 0.900175 0.818936
1.000000 0.891234 0.818906
1.000000 0.870878 0.788113
0.392523 0.810697 0.619959
0.395026 0.811765 0.621607
0.397223 0.812772 0.623041
0.399573 0.813626 0.624109
0.401831 0.814206 0.624628
0.414160 0.814145 0.625605
0.442969 0.813504 0.629389
0.474495 0.812985 0.634424
0.508202 0.812863 0.640894
0.542321 0.813352 0.648646
0.575891 0.814542 0.657435
0.602564 0.816892 0.661891
0.619226 0.820462 0.658289
0.644739 0.822873 0.665736
0.674922 0.824582 0.681697
0.702968 0.826658 0.698177
0.729030 0.829313 0.715297
0.761501 0.842344 0.738735
0.793729 0.856382 0.762539
0.825589 0.871000 0.786069
0.857053 0.885985 0.809018
0.888121 0.901244 0.831083
0.918303 0.916442 0.852110
0.949615 0.934020 0.876219
0.964813 0.934539 0.873991
0.981598 0.932555 0.860868
1.000000 0.931426 0.850065
1.000000 0.932494 0.845914
1.000000 0.930449 0.846189
1.000000 0.923095 0.851469
1.000000 0.917082 0.856901
1.000000 0.898466 0.829618
0.452186 0.842161 0.667994
0.454353 0.843442 0.669886
0.455879 0.844266 0.670924
0.457069 0.844694 0.671321
0.458106 0.844755 0.671046
0.459541 0.844541 0.670069
0.479286 0.843687 0.671656
0.504417 0.842679 0.674342
0.531670 0.841978 0.678035
0.559991 0.841794 0.682612
0.588586 0.842100 0.688075
0.617762 0.843046 0.695186
0.634394 0.845640 0.691829
0.649470 0.848478 0.687312
0.678492 0.848997 0.700832
0.705837 0.849821 0.715053
0.731441 0.851164 0.729946
0.757626 0.855680 0.747066
0.789517 0.868864 0.769558
0.821500 0.883085 0.792386
0.853330 0.897795 0.814725
0.884550 0.912535 0.836118
0.914549 0.926818 0.856229
0.942931 0.940398 0.874815
0.971038 0.955108 0.895384
0.989837 0.960296 0.899413
1.000000 0.958862 0.888151
1.000000 0.958495 0.879393
1.000000 0.951202 0.878721
1.000000 0.944396 0.882841
1.000000 0.940215 0.890349
1.000000 0.923491 0.866148
0.489387 0.866148 0.701686
0.491402 0.867460 0.703365
0.492744 0.868284 0.704494
0.493660 0.868772 0.704829
0.494514 0.868864 0.704646
0.495430 0.868803 0.703975
0.502281 0.868528 0.703670
0.523949 0.867979 0.705776
0.547936 0.867796 0.708675
0.573266 0.868162 0.712459
0.599756 0.868864 0.717189
0.627497 0.870237 0.723415
0.650050 0.872496 0.726070
0.664637 0.875669 0.721492
0.685389 0.877775 0.724697
0.713344 0.878752 0.738399
0.739803 0.880217 0.752651
0.765042 0.882383 0.767605
0.793332 0.890227 0.786099
0.825376 0.903624 0.807431
0.857145 0.917388 0.828305
0.888273 0.931090 0.848417
0.918120 0.944396 0.867369
0.946349 0.957061 0.885008
0.972656 0.968902 0.901335
0.997711 0.981201 0.918975
1.000000 0.985901 0.924254
1.000000 0.978149 0.916442
1.000000 0.970123 0.912749
1.000000 0.964111 0.914885
1.000000 0.960082 0.919524
1.000000 0.945556 0.898131
0.525750 0.894865 0.738399
0.526818 0.895842 0.739590
0.527520 0.896269 0.740017
0.527947 0.896330 0.739864
0.528252 0.896056 0.739193
0.528740 0.895659 0.738186
0.529351 0.895293 0.737087
0.542229 0.894865 0.737179
0.563165 0.894713 0.739010
0.586145 0.895140 0.741939
0.610773 0.896025 0.745754
0.636744 0.897581 0.751034
0.663661 0.899443 0.757382
0.679011 0.902495 0.754086
0.693202 0.905486 0.749630
0.719356 0.906615 0.759884
0.746334 0.907713 0.773037
0.772244 0.909483 0.786831
0.797299 0.912139 0.801328
0.827573 0.922454 0.820066
0.859281 0.935210 0.839658
0.890196 0.947906 0.858579
0.919890 0.960174 0.876463
0.947936 0.971832 0.893278
0.973938 0.982666 0.908782
0.997803 0.992737 0.923125
1.000000 0.996826 0.939300
1.000000 0.990875 0.946868
1.000000 0.984497 0.941161
1.000000 0.979309 0.940826
1.000000 0.976196 0.944762
1.000000 0.964233 0.925841
0.555291 0.922698 0.770352
0.556054 0.923369 0.771054
0.556573 0.923796 0.771420
0.557153 0.923980 0.771420
0.557824 0.924193 0.771298
0.559014 0.924712 0.771511
0.560937 0.925902 0.772274
0.564202 0.927642 0.773373
0.584497 0.929717 0.776852
0.607233 0.932311 0.781247
0.631800 0.935393 0.786374
0.657771 0.938720 0.792172
0.684779 0.942077 0.798703
0.707118 0.945617 0.801572
0.721828 0.949371 0.798276
0.740322 0.951904 0.798886
0.768582 0.952850 0.810941
0.795560 0.954192 0.823301
0.821805 0.956268 0.836210
0.847288 0.959289 0.849699
0.878721 0.970123 0.867094
0.909087 0.980743 0.883879
0.937774 0.990784 0.899687
0.964538 1.000000 0.914458
0.985473 1.000000 0.928740
0.996796 1.000000 0.942748
1.000000 1.000000 0.955901
1.000000 0.998413 0.969604
1.000000 0.995972 0.976776
1.000000 0.992950 0.973754
1.000000 0.988800 0.968292
1.000000 0.979065 0.949584
0.596033 0.965942 0.815091
0.596582 0.966400 0.815457
0.596735 0.966461 0.815427
0.596857 0.966308 0.815091
0.597162 0.966064 0.814542
0.597681 0.965942 0.814084
0.598718 0.966247 0.813870
0.600336 0.966979 0.813993
0.607782 0.968017 0.814481
0.627649 0.969268 0.816587
0.649531 0.970764 0.819242
0.673182 0.972564 0.822629
0.698299 0.974487 0.826841
0.724666 0.976379 0.831998
