data/fiter_cube/46928955/1023410/file.cube
# Created by Adobe Lightroom plugin Export LUT (1.17.0)
# www.johnrellis.com/lightroom/exportlut.htm
# Preset: 室内干净明亮通透人像_03 云集
# Color profile: C:\Program Files (x86)\Common Files\Adobe\Color\Profiles\Recommended\AdobeRGB1998.icc
LUT_3D_SIZE 5
DOMAIN_MIN 0.000000 0.000000 0.000000
DOMAIN_MAX 0.903226 0.903226 0.903226
0.109529 0.027771 0.077852
0.267552 0.095003 0.110903
0.647059 0.154147 0.162448
0.882017 0.360235 0.315038
1.000000 0.603937 0.582513
0.110079 0.248234 0.152956
0.253483 0.280919 0.178805
0.619287 0.313909 0.184054
0.864866 0.433661 0.335790
1.000000 0.653834 0.611505
0.045808 0.547173 0.327581
0.279484 0.562646 0.324956
0.683040 0.665339 0.549798
0.840177 0.625422 0.455756
1.000000 0.747311 0.650141
0.344579 0.787198 0.585321
0.450813 0.789548 0.602411
0.671504 0.800778 0.663172
0.887633 0.886076 0.821805
1.000000 0.907988 0.812802
0.626307 0.997986 0.843778
0.631189 1.000000 0.843687
0.745846 0.995209 0.845182
0.916350 1.000000 0.904387
1.000000 1.000000 0.993011
0.104402 0.110933 0.182437
0.233890 0.169680 0.207858
0.632197 0.217288 0.237491
0.850309 0.378332 0.327489
1.000000 0.593652 0.562585
0.077363 0.255711 0.241855
0.264164 0.295109 0.254826
0.622004 0.346105 0.278294
0.841001 0.443641 0.360296
1.000000 0.633967 0.582483
0.000000 0.553765 0.407965
0.278752 0.571099 0.410620
0.653529 0.638636 0.559319
0.813230 0.605005 0.471717
1.000000 0.742184 0.641840
0.282536 0.787015 0.615808
0.444251 0.788327 0.633936
0.668208 0.799435 0.680507
0.882841 0.882750 0.832120
1.000000 0.905516 0.810849
0.608301 0.997803 0.854093
0.613458 0.999695 0.853758
0.753902 1.000000 0.868528
0.918578 1.000000 0.914580
1.000000 1.000000 0.999969
0.000000 0.220920 0.392065
0.207401 0.267613 0.402197
0.576837 0.355138 0.502403
0.835325 0.477821 0.569421
1.000000 0.611658 0.659632
0.000000 0.305791 0.452369
0.242985 0.344335 0.467628
0.591028 0.434791 0.534569
0.832731 0.532036 0.595544
1.000000 0.643885 0.672175
0.000000 0.539635 0.574762
0.230503 0.557946 0.585168
0.623621 0.617823 0.626368
0.813291 0.654719 0.648951
1.000000 0.739406 0.714473
0.000000 0.786160 0.723201
0.335088 0.782773 0.718471
0.643091 0.791379 0.738369
0.873838 0.877501 0.862303
1.000000 0.875822 0.802487
0.529778 0.993591 0.889433
0.542535 0.999237 0.890562
0.692561 1.000000 0.890196
0.903288 1.000000 0.921843
1.000000 1.000000 1.000000
0.000000 0.348028 0.656092
0.182742 0.367651 0.665156
0.551293 0.534112 0.677974
0.769558 0.587762 0.749172
1.000000 0.674891 0.837583
0.000000 0.403113 0.676600
0.246067 0.424475 0.682765
0.563775 0.555566 0.694270
0.768032 0.613214 0.755184
1.000000 0.687861 0.837583
0.000000 0.526268 0.720272
0.204318 0.534569 0.722408
0.574334 0.611688 0.739284
0.770901 0.685298 0.780484
1.000000 0.743679 0.851713
0.206363 0.736507 0.806821
0.342992 0.739925 0.806241
0.577935 0.761227 0.816678
0.815122 0.824094 0.861814
1.000000 0.860441 0.875669
0.409674 0.997742 0.953796
0.448707 1.000000 0.954620
0.591882 1.000000 0.957366
0.848936 1.000000 0.948791
1.000000 1.000000 1.000000
0.279026 0.519799 0.884031
0.377508 0.538598 0.883940
0.599390 0.625940 0.884611
0.773892 0.739986 0.891142
0.982788 0.757595 0.948608
0.290837 0.545037 0.886503
0.384741 0.560662 0.886564
0.590753 0.629847 0.888304
0.773617 0.750210 0.890715
0.982269 0.767849 0.949676
0.000000 0.578607 0.907897
0.176211 0.589746 0.905608
0.561120 0.658656 0.904021
0.775479 0.771267 0.906004
0.997223 0.815000 0.964050
0.166690 0.780728 0.956023
0.271611 0.776669 0.952819
0.465675 0.767605 0.948425
0.740261 0.796841 0.951751
1.000000 0.908690 0.987091
0.424231 0.978515 1.000000
0.458625 0.978851 1.000000
0.570306 0.980591 1.000000
0.756741 0.986938 1.000000
1.000000 1.000000 1.000000
