data/fiter_cube/46928955/1023410/file.cube
# Created by Adobe Lightroom plugin Export LUT (1.17.0)
# www.johnrellis.com/lightroom/exportlut.htm
# Preset: 室内干净明亮通透人像_03 云集
# Color profile: C:\Program Files (x86)\Common Files\Adobe\Color\Profiles\Recommended\AdobeRGB1998.icc
LUT_3D_SIZE 8
DOMAIN_MIN 0.000000 0.000000 0.000000
DOMAIN_MAX 0.903226 0.903226 0.903226
0.109529 0.027771 0.077852
0.158694 0.055116 0.091585
0.314855 0.101595 0.116030
0.539117 0.125277 0.143252
0.721370 0.199008 0.188602
0.853819 0.327459 0.284337
0.961730 0.459205 0.419165
1.000000 0.603937 0.582513
0.118013 0.130526 0.106905
0.146334 0.144564 0.119631
0.298741 0.172732 0.123781
0.513573 0.195346 0.147982
0.706783 0.243351 0.190860
0.832700 0.337224 0.274296
0.942412 0.456306 0.403296
1.000000 0.602991 0.572869
0.102876 0.287419 0.170840
0.139315 0.293217 0.167330
0.304295 0.328069 0.205692
0.506889 0.336034 0.179141
0.704005 0.368780 0.220981
0.828336 0.429175 0.309117
0.952026 0.543938 0.461006
1.000000 0.661921 0.612329
0.064607 0.461158 0.266300
0.134829 0.463447 0.262791
0.310460 0.475685 0.269108
0.595972 0.576745 0.413703
0.741634 0.578729 0.392523
0.825528 0.553918 0.380346
0.938933 0.631434 0.511559
1.000000 0.718379 0.637873
0.098238 0.635584 0.404517
0.162692 0.637964 0.403204
0.363195 0.647211 0.413153
0.567529 0.664057 0.496620
0.739132 0.727565 0.634913
0.833371 0.735256 0.613855
0.912261 0.711940 0.565270
1.000000 0.780484 0.667597
0.281956 0.754513 0.540551
0.309148 0.762844 0.550896
0.463630 0.762051 0.573419
0.597436 0.768307 0.601709
0.728054 0.792050 0.684657
0.856748 0.854673 0.788510
0.952819 0.877592 0.789578
1.000000 0.880797 0.772213
0.489387 0.866148 0.701686
0.494514 0.868864 0.704646
0.547936 0.867796 0.708675
0.650050 0.872496 0.726070
0.739803 0.880217 0.752651
0.857145 0.917388 0.828305
0.972656 0.968902 0.901335
1.000000 0.970123 0.912749
0.626307 0.997986 0.843778
0.627466 0.998199 0.843412
0.633509 1.000000 0.844419
0.715511 1.000000 0.855161
0.777310 1.000000 0.841978
0.888212 1.000000 0.890288
0.974884 1.000000 0.948791
1.000000 1.000000 0.993011
0.104860 0.067445 0.123049
0.145205 0.094850 0.128817
0.299474 0.130648 0.138705
0.510155 0.181674 0.157839
0.702510 0.236179 0.188327
0.825040 0.324071 0.265263
0.934966 0.439033 0.388922
1.000000 0.584192 0.556909
0.104952 0.136812 0.144045
0.151797 0.158785 0.149325
0.294621 0.193149 0.157168
0.501976 0.225528 0.167422
0.696223 0.271061 0.192935
0.815091 0.342229 0.265507
0.921294 0.442359 0.380499
1.000000 0.581842 0.546166
0.069734 0.289097 0.201846
0.147219 0.299687 0.202853
0.304265 0.329015 0.232883
0.493385 0.336767 0.205142
0.687068 0.369879 0.225498
0.807950 0.420111 0.291844
0.921202 0.511254 0.418921
1.000000 0.636988 0.581292
0.000000 0.452125 0.286351
0.139345 0.458442 0.286381
0.310216 0.473335 0.287602
0.564080 0.548821 0.404761
0.704952 0.541405 0.366186
0.794522 0.522423 0.346258
0.906859 0.593286 0.463447
1.000000 0.694179 0.607965
0.000000 0.633234 0.424933
0.161227 0.634180 0.421729
0.361700 0.639094 0.428901
0.547784 0.646876 0.485481
0.718471 0.705653 0.617121
0.813779 0.714656 0.597436
0.896605 0.696437 0.547082
1.000000 0.765682 0.649256
0.240024 0.745815 0.540978
0.280583 0.746761 0.542718
0.435859 0.747036 0.560418
0.582177 0.754879 0.591547
0.717189 0.780270 0.677058
0.849668 0.847929 0.786252
0.944579 0.869871 0.784817
1.000000 0.871336 0.760800
0.457130 0.851774 0.686763
0.456764 0.850370 0.683864
0.526452 0.850889 0.692805
0.641291 0.858732 0.719936
0.731044 0.871275 0.746181
0.847013 0.907225 0.821256
0.961395 0.958312 0.893523
1.000000 0.966644 0.900908
0.611536 0.987213 0.837156
0.614252 0.989166 0.838376
0.621363 0.993439 0.840238
0.705745 1.000000 0.851652
0.786801 1.000000 0.854704
0.891691 1.000000 0.895171
0.974029 1.000000 0.947875
1.000000 1.000000 0.990692
0.100404 0.126345 0.208682
0.133852 0.144808 0.207919
0.277134 0.196963 0.240085
0.525811 0.204318 0.260746
0.721065 0.272953 0.291600
0.831815 0.378454 0.355444
0.942962 0.481758 0.436652
1.000000 0.607568 0.576776
0.098054 0.176242 0.234836
0.149508 0.195712 0.236667
0.285130 0.238010 0.252873
0.524987 0.243992 0.268864
0.710262 0.307622 0.300694
0.821988 0.392004 0.356146
0.932464 0.486946 0.433783
1.000000 0.611749 0.573724
0.051270 0.295384 0.280339
0.135348 0.308080 0.285924
0.313848 0.340826 0.298680
0.520348 0.366522 0.311406
0.703792 0.409094 0.345525
0.814603 0.462196 0.393133
0.924926 0.541588 0.468299
1.000000 0.648524 0.590478
0.000000 0.474220 0.383551
0.039429 0.481727 0.383429
0.325689 0.499763 0.384588
0.571221 0.559747 0.481575
0.695125 0.539117 0.429175
0.800504 0.559319 0.456245
0.914580 0.623865 0.527428
1.000000 0.707820 0.621759
0.000000 0.639765 0.492317
0.108309 0.643397 0.492958
0.359564 0.650111 0.498817
0.565332 0.657527 0.544182
0.723659 0.715145 0.659541
0.809445 0.714748 0.626978
0.894347 0.699092 0.580774
1.000000 0.772061 0.658045
0.193149 0.748928 0.582971
0.265782 0.749966 0.586145
0.432227 0.749416 0.599512
0.593194 0.752468 0.630304
0.709926 0.773007 0.689967
0.842893 0.842863 0.797177
0.937041 0.863127 0.790890
1.000000 0.871061 0.766140
0.423377 0.858274 0.715511
0.428748 0.857694 0.714199
0.519219 0.855222 0.720058
0.631678 0.859068 0.736934
0.726131 0.871000 0.757076
0.844907 0.906218 0.831022
0.967895 0.965148 0.907713
1.000000 0.968597 0.914427
0.594415 0.989441 0.850401
0.595087 0.988434 0.848600
0.601038 0.990814 0.848508
0.692409 1.000000 0.861021
0.789914 1.000000 0.869963
0.890898 1.000000 0.901335
0.975402 1.000000 0.954376
1.000000 1.000000 0.997955
0.062287 0.186130 0.319493
0.109560 0.195956 0.325322
0.256565 0.276555 0.327276
0.470100 0.298100 0.399512
0.695521 0.333104 0.440467
0.824155 0.415229 0.485176
0.929442 0.514855 0.547692
1.000000 0.604211 0.611170
0.080079 0.233768 0.351873
0.137118 0.243656 0.355077
0.274479 0.300145 0.353399
0.479377 0.327001 0.413733
0.696284 0.362158 0.452613
0.818784 0.441169 0.497627
0.923247 0.525536 0.550164
1.000000 0.611200 0.612024
0.000000 0.314366 0.396185
0.110170 0.322911 0.402533
0.298253 0.359747 0.417578
0.504723 0.411414 0.457191
0.701472 0.454505 0.498695
0.814206 0.523552 0.544701
0.932189 0.591791 0.594690
1.000000 0.657954 0.642329
0.000000 0.460182 0.476936
0.025147 0.468818 0.483009
0.294957 0.497261 0.502617
0.547021 0.543999 0.538140
0.686183 0.563775 0.550072
0.794491 0.597528 0.577386
0.912444 0.645777 0.615290
1.000000 0.711116 0.669642
0.000000 0.650019 0.597864
0.000000 0.652064 0.597406
0.300175 0.659846 0.597650
0.568231 0.664851 0.613214
0.717586 0.713649 0.698238
0.792691 0.698177 0.650141
0.902098 0.719539 0.657252
1.000000 0.778408 0.710079
0.073304 0.760159 0.663294
0.214786 0.765927 0.670375
0.410346 0.762875 0.671748
0.590387 0.764645 0.689479
0.711269 0.779446 0.726162
0.845853 0.848692 0.827176
0.932799 0.857420 0.805722
1.000000 0.858427 0.768612
0.347448 0.863340 0.758175
0.390509 0.864164 0.761166
0.497688 0.865843 0.768185
0.616541 0.871763 0.778531
0.729244 0.884092 0.793881
0.846403 0.911101 0.851621
0.974029 0.971832 0.925292
1.000000 0.967834 0.923064
0.565209 1.000000 0.881102
0.568597 1.000000 0.881437
0.577966 1.000000 0.879515
0.662867 1.000000 0.879667
0.783169 1.000000 0.890959
0.885893 1.000000 0.910582
0.976776 1.000000 0.962676
1.000000 1.000000 1.000000
0.000000 0.255985 0.470161
0.019532 0.262913 0.475929
0.242161 0.309239 0.484688
0.433295 0.403265 0.508385
0.650568 0.424689 0.584680
0.783261 0.496315 0.613581
0.914702 0.558312 0.664210
1.000000 0.620203 0.713436
0.000000 0.292790 0.493721
0.094789 0.298100 0.499886
0.253544 0.330053 0.507012
0.448859 0.426825 0.523033
0.651118 0.445869 0.590661
0.783413 0.513298 0.622065
0.915648 0.569421 0.669520
1.000000 0.628809 0.715541
0.000000 0.347814 0.532433
0.060365 0.360082 0.539330
0.285863 0.395300 0.555505
0.485054 0.479713 0.563775
0.651942 0.509606 0.609918
0.779721 0.555901 0.640101
0.914336 0.599847 0.679957
1.000000 0.652613 0.716976
0.000000 0.464607 0.588251
0.000000 0.469184 0.591028
0.269596 0.486976 0.602380
0.517296 0.543420 0.622034
0.663264 0.595575 0.648493
0.789120 0.623651 0.677974
0.913207 0.658595 0.704097
1.000000 0.699092 0.729213
0.000000 0.601434 0.648493
0.062226 0.605921 0.651057
0.308537 0.619593 0.657923
0.525963 0.644007 0.671565
0.680537 0.678370 0.699245
0.779171 0.689693 0.700649
0.899962 0.720790 0.722316
1.000000 0.766232 0.755734
0.000000 0.743862 0.726040
0.121096 0.745388 0.726925
0.330510 0.746456 0.726619
0.521447 0.751339 0.732326
0.677241 0.760830 0.740536
0.822904 0.828397 0.833402
0.907500 0.822080 0.794919
1.000000 0.849851 0.800778
0.233433 0.863371 0.813840
0.290745 0.862058 0.812528
0.427588 0.860533 0.811368
0.564508 0.864775 0.813169
0.694545 0.876005 0.820096
0.822873 0.897429 0.854917
0.969055 0.968231 0.936065
1.000000 0.959991 0.920470
0.493202 0.994720 0.906645
0.495644 0.994873 0.905791
0.520287 0.996246 0.903258
0.614282 1.000000 0.906584
0.727718 1.000000 0.903838
0.863401 1.000000 0.916808
0.973297 1.000000 0.965820
1.000000 1.000000 1.000000
0.000000 0.334081 0.631952
0.000000 0.338933 0.634485
0.230381 0.364691 0.642267
0.457984 0.462776 0.651240
0.609491 0.536950 0.673335
0.749294 0.565240 0.721859
0.880797 0.616999 0.763607
1.000000 0.666011 0.820829
0.000000 0.354620 0.634363
0.055085 0.358343 0.636805
0.239536 0.377264 0.644007
0.457160 0.466682 0.650996
0.609186 0.545403 0.671992
0.746426 0.571862 0.721004
0.878691 0.622065 0.763912
1.000000 0.669520 0.820066
0.000000 0.406500 0.662928
0.112245 0.414466 0.664332
0.297307 0.440497 0.670588
0.482673 0.505516 0.677729
0.628901 0.592218 0.691279
0.750118 0.607446 0.735775
0.883330 0.649226 0.777859
1.000000 0.689845 0.826261
0.000000 0.479835 0.691524
0.000000 0.481697 0.691188
0.256840 0.493385 0.695216
0.516991 0.568719 0.715724
0.661982 0.653742 0.730770
0.764004 0.666133 0.767849
0.899474 0.696956 0.805600
1.000000 0.726925 0.838804
0.000000 0.588403 0.726589
0.100435 0.591547 0.727901
0.297520 0.602838 0.732021
0.488685 0.626917 0.739559
0.653529 0.671901 0.756771
0.765469 0.714931 0.785275
0.906188 0.740230 0.818021
1.000000 0.769955 0.839689
0.150118 0.704494 0.770962
0.219486 0.708705 0.774228
0.365209 0.716793 0.777859
0.520134 0.730495 0.784726
0.645960 0.750301 0.796353
0.786801 0.794949 0.832914
0.905516 0.810056 0.835966
1.000000 0.844541 0.857847
0.297093 0.845762 0.853788
0.335943 0.849424 0.857084
0.427008 0.857023 0.863005
0.532555 0.867887 0.869932
0.642817 0.881346 0.875090
0.795773 0.897368 0.879637
0.967376 0.967803 0.953185
1.000000 0.944335 0.918791
0.416999 1.000000 0.946868
0.417670 1.000000 0.946319
0.461738 1.000000 0.945647
0.550896 1.000000 0.945251
0.666804 1.000000 0.939574
0.815518 1.000000 0.937560
0.967041 1.000000 0.971221
1.000000 1.000000 1.000000
0.000000 0.411536 0.754360
0.137423 0.418402 0.758175
0.283635 0.439643 0.761837
0.480720 0.516106 0.766354
0.633661 0.617365 0.769406
0.722530 0.638178 0.796750
0.846616 0.659541 0.839567
1.000000 0.712215 0.885466
0.079591 0.421515 0.750698
0.154086 0.427222 0.753933
0.288212 0.446418 0.757992
0.473213 0.513909 0.761318
0.627955 0.613245 0.764248
0.716060 0.636744 0.789334
0.837247 0.656062 0.830930
0.991180 0.706508 0.877134
0.108400 0.461616 0.769619
0.193637 0.470222 0.770565
0.327520 0.490333 0.772580
0.483528 0.538750 0.776577
0.634211 0.626825 0.779049
0.723690 0.663783 0.800748
0.844785 0.681422 0.843107
1.000000 0.730129 0.890135
0.000000 0.500145 0.791226
0.000000 0.504723 0.790311
0.289891 0.529442 0.791531
0.504295 0.586877 0.798978
0.639521 0.648890 0.805722
0.740475 0.709987 0.823697
0.858244 0.721981 0.862730
1.000000 0.762325 0.904082
0.000000 0.595666 0.815213
0.000000 0.595270 0.813443
0.247013 0.597955 0.811063
0.418921 0.608789 0.810452
0.620569 0.667506 0.822141
0.750057 0.749905 0.837064
0.859739 0.758968 0.872221
1.000000 0.798886 0.914366
0.142214 0.707637 0.850126
0.199222 0.708980 0.850278
0.327428 0.713954 0.850706
0.467475 0.723354 0.852811
0.590204 0.732204 0.855344
0.744381 0.773098 0.872038
0.883299 0.826932 0.902647
1.000000 0.864408 0.931640
0.310857 0.825071 0.894072
0.341436 0.827390 0.895506
0.419471 0.831083 0.896849
0.515129 0.838468 0.900114
0.617426 0.847776 0.903227
0.740200 0.867643 0.911772
0.916777 0.922362 0.943999
1.000000 0.933745 0.945861
0.408515 0.960754 0.956756
0.422370 0.962951 0.957855
0.472724 0.977844 0.966522
0.539178 0.995514 0.974945
0.625086 1.000000 0.983215
0.744656 1.000000 0.985504
0.945312 1.000000 0.979706
1.000000 1.000000 1.000000
0.279026 0.519799 0.884031
0.313787 0.526574 0.885466
0.404791 0.545373 0.883696
0.532830 0.591669 0.884611
0.657862 0.662013 0.884001
0.756435 0.740749 0.883879
0.844816 0.733822 0.913420
0.982788 0.757595 0.948608
0.278630 0.524407 0.881590
0.312627 0.530724 0.883055
0.404120 0.549401 0.882322
0.526146 0.590204 0.882475
0.653620 0.660090 0.882200
0.754269 0.740902 0.881712
0.840391 0.733852 0.910307
0.978576 0.757290 0.946227
0.272953 0.546868 0.886381
0.319554 0.555657 0.886687
0.405737 0.568933 0.884398
0.523583 0.603937 0.890074
0.649592 0.665492 0.889067
0.754177 0.743465 0.887297
0.841032 0.748074 0.912993
0.981079 0.770382 0.949401
0.000000 0.561395 0.900145
0.162264 0.568994 0.901091
0.359411 0.594812 0.898863
0.519341 0.632959 0.900450
0.635309 0.673365 0.902708
0.756405 0.752193 0.902770
0.848722 0.778103 0.923125
0.991760 0.797940 0.958862
0.000000 0.629267 0.918486
0.000000 0.629938 0.919371
0.157656 0.624994 0.916472
0.403479 0.642481 0.913787
0.606561 0.691279 0.914519
0.740780 0.753140 0.917388
0.855131 0.815793 0.933196
1.000000 0.838193 0.971954
0.036164 0.744015 0.943908
0.129366 0.742000 0.942382
0.254856 0.737514 0.938903
0.383978 0.732540 0.935729
0.508354 0.724178 0.933379
0.708522 0.771145 0.942138
0.882994 0.879210 0.956481
1.000000 0.893858 0.985626
0.292119 0.865965 0.977508
0.310948 0.864988 0.976745
0.368963 0.862760 0.975158
0.453437 0.862455 0.975463
0.551171 0.861997 0.976806
0.668086 0.862333 0.980499
0.863279 0.895995 0.986725
1.000000 0.966400 0.994110
0.424231 0.978515 1.000000
0.434272 0.978607 1.000000
0.469947 0.978973 1.000000
0.531395 0.979858 1.000000
0.614069 0.981659 1.000000
0.723171 0.985443 1.000000
0.880613 0.993835 1.000000
1.000000 1.000000 1.000000
