data/fiter_cube/38543845/1023265/file.cube
# Created by Adobe Lightroom plugin Export LUT (1.17.0)
# www.johnrellis.com/lightroom/exportlut.htm
# Preset: 清新通透胶片预设_01 云集
# Color profile: C:\Program Files (x86)\Common Files\Adobe\Color\Profiles\Recommended\AdobeRGB1998.icc
LUT_3D_SIZE 8
DOMAIN_MIN 0.000000 0.000000 0.000000
DOMAIN_MAX 0.903226 0.903226 0.903226
0.175509 0.185122 0.177218
0.318608 0.189242 0.190707
0.681392 0.072236 0.186221
0.822477 0.000000 0.169772
0.895293 0.114168 0.194125
0.939910 0.256962 0.272526
0.967559 0.352331 0.353094
0.986419 0.422858 0.424842
0.196719 0.268956 0.221408
0.248692 0.283848 0.205173
0.648585 0.355138 0.162448
0.804898 0.304906 0.152621
0.883330 0.298009 0.197971
0.931243 0.340215 0.276188
0.961822 0.394049 0.353216
0.983001 0.446021 0.424659
0.203677 0.581933 0.389136
0.233524 0.556115 0.345739
0.497993 0.575067 0.361913
0.754543 0.593439 0.273045
0.854978 0.541405 0.242618
0.911620 0.517235 0.316686
0.948913 0.516381 0.389075
0.973388 0.527855 0.451148
0.402106 0.719326 0.572900
0.405310 0.709865 0.554223
0.409949 0.676814 0.488411
0.643977 0.708034 0.563073
0.797299 0.719570 0.557916
0.878630 0.664637 0.409247
0.926757 0.632837 0.434028
0.956939 0.617395 0.479622
0.534203 0.780148 0.667720
0.534783 0.775753 0.660365
0.530571 0.760891 0.631678
0.539330 0.741787 0.586908
0.709041 0.764401 0.658564
0.817350 0.778073 0.678279
0.883452 0.742641 0.586481
0.933288 0.703517 0.525231
0.610010 0.818418 0.721950
0.612085 0.817075 0.719753
0.608606 0.808133 0.704860
0.601587 0.791745 0.677516
0.641047 0.784970 0.666499
0.751827 0.802365 0.710842
0.838407 0.817319 0.742000
0.891142 0.798337 0.688380
0.658625 0.848508 0.758755
0.658564 0.847257 0.756619
0.656214 0.841581 0.747494
0.652338 0.831510 0.731502
0.645319 0.816007 0.707485
0.702358 0.819455 0.715663
0.785519 0.831907 0.747433
0.857145 0.846128 0.786709
0.694484 0.872496 0.786923
0.694179 0.871580 0.785336
0.693355 0.868406 0.779843
0.692378 0.862852 0.770535
0.687037 0.852873 0.754116
0.685573 0.842435 0.737209
0.754726 0.852323 0.759457
0.821836 0.862730 0.787686
0.205020 0.219242 0.260655
0.339940 0.186282 0.362066
0.665370 0.006073 0.405035
0.800351 0.160494 0.396521
0.878386 0.211582 0.370031
0.923430 0.323674 0.405219
0.954192 0.397467 0.446052
0.976562 0.453712 0.488746
0.172854 0.287144 0.291173
0.302892 0.340520 0.351171
0.644434 0.287816 0.354772
0.791775 0.302068 0.356207
0.868528 0.341253 0.374670
0.916655 0.387366 0.407721
0.949432 0.430426 0.445014
0.973449 0.471901 0.486793
0.240818 0.611414 0.481239
0.382513 0.603784 0.506310
0.525566 0.593530 0.491188
0.744289 0.593256 0.406104
0.840391 0.552850 0.401953
0.897856 0.533410 0.430121
0.936858 0.531701 0.465217
0.964477 0.542504 0.504143
0.428504 0.725338 0.606409
0.479255 0.718532 0.613825
0.488991 0.690883 0.567559
0.645838 0.706569 0.602045
0.787198 0.715541 0.586969
0.866941 0.664729 0.477424
0.916167 0.637079 0.492409
0.949310 0.624018 0.522728
0.548882 0.782742 0.683192
0.567315 0.778286 0.685084
0.568566 0.763333 0.662470
0.553765 0.737209 0.611627
0.708736 0.762203 0.672602
0.813962 0.776883 0.688167
0.878813 0.742061 0.604181
0.928191 0.706050 0.556512
0.614405 0.818784 0.727993
0.624445 0.816403 0.729519
0.624964 0.807614 0.717433
0.617212 0.791714 0.691249
0.644160 0.782864 0.675380
0.753017 0.802090 0.719142
0.837613 0.817472 0.747585
0.889220 0.798062 0.695094
0.659937 0.847898 0.761379
0.665766 0.846036 0.762203
0.664332 0.840635 0.753811
0.660578 0.830991 0.738399
0.653559 0.815915 0.715145
0.703273 0.817990 0.719875
0.785306 0.830869 0.751156
0.856138 0.845457 0.788327
0.697993 0.872129 0.790097
0.700343 0.871183 0.790005
0.699428 0.868101 0.784573
0.698207 0.862608 0.775265
0.695338 0.854124 0.761227
0.691310 0.842679 0.743282
0.756130 0.852018 0.762936
0.822263 0.862455 0.790494
0.191562 0.241764 0.546136
0.362463 0.287083 0.615198
0.661128 0.459022 0.708736
0.744533 0.523766 0.686824
0.842130 0.493080 0.665217
0.888518 0.523095 0.654200
0.921599 0.548699 0.651026
0.953124 0.549248 0.635218
0.188296 0.310399 0.480690
0.338109 0.384649 0.571252
0.648341 0.553185 0.701564
0.737362 0.563928 0.687221
0.835782 0.526574 0.663905
0.882841 0.541192 0.650904
0.920836 0.548058 0.638361
0.951019 0.559686 0.633631
0.245884 0.551507 0.578851
0.358770 0.566278 0.593652
0.558740 0.607721 0.633631
0.728145 0.622797 0.666712
0.817258 0.593500 0.639460
0.872709 0.590631 0.632532
0.913085 0.593561 0.631708
0.943755 0.601038 0.636194
0.480110 0.754269 0.691859
0.529412 0.748928 0.696101
0.619806 0.732509 0.702480
0.670893 0.719081 0.691096
0.781979 0.718410 0.665675
0.849821 0.686976 0.640894
0.896666 0.669368 0.639002
0.931640 0.660060 0.642329
0.573785 0.796414 0.722438
0.595819 0.792935 0.725826
0.644892 0.781704 0.731716
0.646052 0.757321 0.703487
0.722103 0.768490 0.720150
0.813260 0.780880 0.723018
0.870603 0.745602 0.660121
0.915496 0.722835 0.649287
0.628809 0.826322 0.749996
0.640375 0.824125 0.752163
0.668879 0.816526 0.756008
0.670741 0.801083 0.738705
0.659022 0.780728 0.705135
0.759121 0.803555 0.745235
0.837339 0.819852 0.766171
0.886046 0.800412 0.720455
0.668452 0.852262 0.774929
0.674922 0.850584 0.776059
0.693965 0.844968 0.778927
0.694453 0.835172 0.766903
0.684474 0.820218 0.743740
0.711543 0.817075 0.738033
0.791043 0.832761 0.770230
0.858427 0.849302 0.802731
0.700252 0.874540 0.797086
0.704585 0.873381 0.797910
0.721401 0.869383 0.802121
0.721218 0.864256 0.794125
0.716609 0.855894 0.779812
0.711055 0.844907 0.761929
0.762997 0.852323 0.776211
0.827420 0.864591 0.804471
0.332586 0.360540 0.695827
0.429175 0.405310 0.717983
0.633967 0.550652 0.771511
0.765347 0.644587 0.806912
0.805142 0.651392 0.783078
0.856962 0.653620 0.773526
0.904021 0.630793 0.751888
0.932921 0.632776 0.738430
0.328557 0.413733 0.670710
0.417884 0.454261 0.696376
0.621881 0.580713 0.758328
0.762325 0.671901 0.805142
0.801450 0.669673 0.783932
0.854673 0.662867 0.773281
0.901946 0.638880 0.751339
0.930449 0.640925 0.738827
0.232273 0.437201 0.575097
0.281926 0.445014 0.578302
0.546654 0.592798 0.702632
0.753414 0.723964 0.799161
0.790829 0.711513 0.784604
0.849973 0.690150 0.772396
0.892485 0.674586 0.754635
0.921630 0.672114 0.744015
0.410803 0.674586 0.701411
0.455604 0.677150 0.704524
0.565362 0.687953 0.715480
0.672511 0.710323 0.734920
0.779507 0.737575 0.772030
0.834531 0.712764 0.751614
0.879179 0.700496 0.738460
0.914336 0.696254 0.732418
0.607263 0.816434 0.780484
0.628717 0.816312 0.783444
0.674098 0.808591 0.785275
0.718685 0.794125 0.783047
0.738979 0.776333 0.767819
0.811185 0.779232 0.757961
0.861631 0.757198 0.737819
0.901396 0.743679 0.731960
0.650324 0.840452 0.786007
0.662104 0.839292 0.788144
0.690364 0.832670 0.790646
0.723354 0.821408 0.791714
0.723201 0.800046 0.770474
0.770840 0.808072 0.780362
0.837949 0.822477 0.789700
0.882261 0.800656 0.749722
0.679957 0.859678 0.796628
0.686824 0.858427 0.797787
0.706996 0.853910 0.800778
0.733303 0.845701 0.803586
0.733913 0.831724 0.788785
0.724971 0.816709 0.763943
0.799527 0.835599 0.795926
0.861082 0.853208 0.819455
0.708370 0.879149 0.811917
0.713008 0.878264 0.812802
0.727108 0.875029 0.815152
0.750423 0.869047 0.819760
0.750546 0.860807 0.809415
0.742458 0.850126 0.791348
0.772732 0.852903 0.794888
0.835080 0.867918 0.823667
0.467933 0.489418 0.769406
0.510735 0.513909 0.777218
0.623102 0.588678 0.802365
0.748074 0.683162 0.840665
0.821317 0.719478 0.857237
0.842527 0.714321 0.834867
0.871916 0.729549 0.828794
0.912200 0.704982 0.812406
0.461646 0.512108 0.756069
0.504784 0.535058 0.765347
0.618036 0.604578 0.793729
0.743374 0.693019 0.835660
0.819852 0.731655 0.856229
0.840665 0.723781 0.835203
0.871061 0.734371 0.829068
0.911437 0.708919 0.812222
0.364355 0.505303 0.696559
0.424994 0.533776 0.713954
0.575830 0.614801 0.758938
0.720027 0.706935 0.814725
0.814939 0.762600 0.852689
0.833829 0.748379 0.834470
0.868406 0.746242 0.828092
0.909056 0.719326 0.809720
0.353521 0.582055 0.686885
0.379217 0.582910 0.686336
0.452766 0.587640 0.685298
0.653223 0.691371 0.761105
0.802090 0.789700 0.842771
0.824063 0.777462 0.832273
0.865141 0.760281 0.822995
0.904540 0.734859 0.802762
0.518242 0.731563 0.758389
0.538811 0.732418 0.759426
0.596674 0.735958 0.762905
0.664881 0.744625 0.770626
0.728878 0.760250 0.784024
0.811582 0.791623 0.819913
0.854429 0.769192 0.802152
0.892760 0.756252 0.788785
0.646784 0.836240 0.814481
0.658656 0.836423 0.815976
0.694331 0.837369 0.820951
0.743679 0.841093 0.830167
0.769772 0.827237 0.823484
0.780911 0.811246 0.809659
0.837156 0.817411 0.805509
0.879881 0.800900 0.787381
0.696010 0.869688 0.826505
0.702235 0.868528 0.826993
0.721462 0.864622 0.828519
0.747158 0.858061 0.829587
0.770230 0.847562 0.827359
0.767453 0.829252 0.808591
0.807584 0.838193 0.819303
0.863584 0.854398 0.831937
0.717372 0.884855 0.831296
0.721736 0.884031 0.831846
0.735714 0.881254 0.833555
0.757076 0.877073 0.836332
0.779294 0.869841 0.837858
0.779294 0.859312 0.825742
0.780636 0.852720 0.812528
0.842710 0.871214 0.842313
0.562493 0.588098 0.818021
0.582696 0.599298 0.821378
0.643183 0.635401 0.832883
0.725307 0.689326 0.853605
0.810361 0.747066 0.878752
0.852354 0.763058 0.883726
0.868193 0.756344 0.867704
0.891478 0.765927 0.861479
0.556756 0.595300 0.808896
0.577142 0.606012 0.812802
0.639338 0.642115 0.826444
0.721645 0.694209 0.848936
0.807462 0.751553 0.875944
0.851225 0.769619 0.882902
0.866911 0.761593 0.867521
0.890471 0.769650 0.861570
0.523735 0.602197 0.781582
0.546746 0.613184 0.787015
0.618433 0.651789 0.805142
0.708186 0.705592 0.834287
0.798154 0.764034 0.867277
0.849149 0.790402 0.881346
0.863706 0.778866 0.867552
0.887572 0.782620 0.862364
0.360876 0.551446 0.706966
0.399512 0.565240 0.716609
0.522148 0.618250 0.749142
0.666712 0.700649 0.799802
0.774929 0.769528 0.848142
0.846311 0.815885 0.879026
0.858976 0.801114 0.866941
0.884581 0.797787 0.862181
0.471473 0.669276 0.749538
0.483986 0.669306 0.748836
0.523003 0.669795 0.746487
0.578302 0.672786 0.743435
0.712215 0.743893 0.800168
0.831937 0.826261 0.867582
0.850950 0.817288 0.861906
0.884581 0.801450 0.854124
0.586175 0.769223 0.796201
0.597162 0.769833 0.796841
0.628717 0.771542 0.798245
0.672114 0.775570 0.801541
0.719478 0.783078 0.807614
0.771206 0.797177 0.819181
0.841642 0.825376 0.850034
0.878233 0.808652 0.836240
0.678431 0.855741 0.841764
0.686427 0.856046 0.842741
0.711025 0.856931 0.845701
0.748074 0.859770 0.851438
0.790249 0.866117 0.860472
0.809354 0.855283 0.854307
0.818448 0.843229 0.843778
0.867247 0.852537 0.844297
0.733608 0.893553 0.858000
0.737819 0.892912 0.858335
0.751400 0.890745 0.859403
0.771420 0.887388 0.860777
0.792264 0.882322 0.860929
0.811917 0.874510 0.859373
0.810971 0.862364 0.846098
0.853239 0.876829 0.863462
0.629969 0.656214 0.853941
0.640711 0.661830 0.855711
0.673732 0.678645 0.861021
0.724697 0.706600 0.871031
0.786282 0.743587 0.884886
0.848478 0.787655 0.901152
0.873106 0.791440 0.900877
0.887053 0.785306 0.889708
0.625330 0.658015 0.848142
0.636316 0.663569 0.850156
0.669978 0.680629 0.856321
0.721492 0.708522 0.867277
0.783749 0.745693 0.882200
0.846372 0.789548 0.899382
0.871855 0.794064 0.899870
0.885771 0.786709 0.888823
0.610193 0.663722 0.832853
0.621576 0.669123 0.835172
0.658076 0.687098 0.843137
0.712978 0.716579 0.857115
0.777920 0.754940 0.875273
0.842344 0.799374 0.895476
0.871183 0.808835 0.899321
0.884764 0.800168 0.889525
0.541955 0.643641 0.796872
0.559075 0.650782 0.800198
0.615778 0.678279 0.813535
0.686336 0.716060 0.835172
0.761685 0.760586 0.860868
0.833158 0.809140 0.887572
0.870176 0.828244 0.898436
0.882963 0.817075 0.889769
0.466957 0.642451 0.763088
0.471778 0.640467 0.761044
0.488899 0.634089 0.754482
0.592523 0.674098 0.779263
0.716121 0.744991 0.828824
0.809964 0.806363 0.870359
0.867185 0.844297 0.895872
0.880034 0.833097 0.888609
0.551781 0.725765 0.793515
0.558312 0.725490 0.792844
0.579431 0.724819 0.790677
0.610803 0.723781 0.787137
0.645136 0.721645 0.781979
0.755764 0.781888 0.831479
0.860349 0.856596 0.890349
0.876860 0.849302 0.886748
0.631617 0.801358 0.827909
0.637751 0.801816 0.828214
0.656611 0.802884 0.828916
0.686000 0.805386 0.830655
0.722286 0.809720 0.833677
0.764706 0.817807 0.839902
0.812131 0.833127 0.852415
0.874540 0.857481 0.878508
0.704372 0.875334 0.865354
0.709773 0.875578 0.865904
0.729366 0.877226 0.868620
0.758358 0.880034 0.872953
0.794064 0.885069 0.879728
0.833585 0.893462 0.889921
0.850278 0.886168 0.886259
0.866209 0.884672 0.885740
0.679133 0.703548 0.881804
0.684779 0.705928 0.882506
0.703273 0.713375 0.884520
0.735897 0.728389 0.889006
0.779080 0.750973 0.895872
0.827298 0.780728 0.905119
0.874052 0.815274 0.916167
0.889158 0.811795 0.913756
0.676478 0.704616 0.878691
0.682277 0.707057 0.879515
0.701289 0.714839 0.881926
0.734096 0.729915 0.886778
0.777737 0.752773 0.894224
0.826322 0.782681 0.903960
0.873198 0.816983 0.915496
0.888731 0.813962 0.913420
0.666377 0.707057 0.869169
0.672389 0.709621 0.870146
0.692531 0.717983 0.873350
0.728298 0.735225 0.880034
0.773678 0.759121 0.889097
0.823545 0.789548 0.900511
0.871305 0.824063 0.913634
0.888365 0.823575 0.913054
0.635676 0.701442 0.850614
0.644770 0.705684 0.852049
0.669429 0.716304 0.857084
0.710506 0.736080 0.866361
0.762081 0.763760 0.879026
0.816892 0.797360 0.894102
0.867674 0.833494 0.910430
0.888365 0.838071 0.912963
0.549798 0.674006 0.812375
0.561547 0.677943 0.814694
0.599176 0.691402 0.822690
0.660060 0.718379 0.839109
0.731197 0.756252 0.859556
0.799588 0.797543 0.881956
0.859800 0.839658 0.904540
0.888762 0.854704 0.913115
0.551415 0.709010 0.810239
0.553826 0.707820 0.808988
0.562280 0.703578 0.804807
0.575860 0.695521 0.797299
0.643000 0.715908 0.811276
0.759762 0.783230 0.857145
0.844968 0.841398 0.894011
0.890806 0.873411 0.914580
0.611322 0.771786 0.832914
0.614588 0.771542 0.832456
0.626032 0.770718 0.831052
0.645167 0.769680 0.829038
0.670008 0.768124 0.826169
0.700038 0.766598 0.822782
0.804593 0.824735 0.866972
0.892943 0.890501 0.916106
0.674708 0.837980 0.861265
0.678340 0.838224 0.861418
0.691371 0.839445 0.862211
0.714290 0.842191 0.864195
0.745083 0.846860 0.867643
0.781918 0.854276 0.873472
0.824796 0.866484 0.883604
0.872190 0.886442 0.900572
