data/fiter_cube/38543845/1023265/file.cube
# Created by Adobe Lightroom plugin Export LUT (1.17.0)
# www.johnrellis.com/lightroom/exportlut.htm
# Preset: 清新通透胶片预设_01 云集
# Color profile: C:\Program Files (x86)\Common Files\Adobe\Color\Profiles\Recommended\AdobeRGB1998.icc
LUT_3D_SIZE 32
DOMAIN_MIN 0.0 0.0 0.0
DOMAIN_MAX 1.0 1.0 1.0
0.175509 0.185122 0.177218
0.204288 0.184970 0.177859
0.217411 0.186648 0.179965
0.223148 0.192630 0.186099
0.318608 0.189242 0.190707
0.439796 0.169192 0.191501
0.541344 0.139193 0.190311
0.620203 0.106691 0.188754
0.681392 0.072236 0.186221
0.729549 0.013397 0.182315
0.767300 0.000000 0.177859
0.797269 0.000000 0.173281
0.822477 0.000000 0.169772
0.844511 0.000000 0.169192
0.863645 0.000000 0.172793
0.880522 0.061982 0.181552
0.895293 0.114168 0.194125
0.908019 0.153597 0.210147
0.919341 0.189670 0.228946
0.930449 0.225498 0.250736
0.939910 0.256962 0.272526
0.948180 0.284916 0.294011
0.955383 0.309819 0.314916
0.961730 0.332586 0.334783
0.967559 0.352331 0.353094
0.972839 0.371130 0.371130
0.977752 0.388830 0.388525
0.982269 0.405982 0.406378
0.986419 0.422858 0.424842
0.990234 0.439460 0.443244
0.993561 0.456336 0.462348
0.996338 0.473610 0.482521
0.181796 0.207645 0.188479
0.194461 0.208377 0.189792
0.212680 0.208896 0.187961
0.221378 0.204318 0.189487
0.314733 0.210178 0.192233
0.434089 0.200931 0.191318
0.535882 0.180972 0.189487
0.615015 0.159884 0.187350
0.676936 0.139834 0.184298
0.725917 0.122286 0.180362
0.764096 0.104677 0.175631
0.794583 0.084047 0.171237
0.820005 0.071199 0.168093
0.842161 0.069978 0.167849
0.861540 0.086122 0.172061
0.878508 0.113863 0.181552
0.893431 0.144564 0.194461
0.906340 0.174929 0.210086
0.917906 0.205295 0.228794
0.928923 0.236423 0.249882
0.938445 0.264714 0.271122
0.946807 0.290349 0.292515
0.954131 0.314244 0.312993
0.960662 0.335271 0.332311
0.966613 0.354620 0.350744
0.972015 0.372839 0.368688
0.977050 0.390021 0.386389
0.981628 0.407050 0.404639
0.985962 0.423346 0.422461
0.989807 0.440040 0.441382
0.993256 0.456397 0.460304
0.996124 0.473457 0.480415
0.192477 0.219730 0.200687
0.195529 0.219730 0.200198
0.205173 0.220005 0.201907
0.214328 0.217655 0.201450
0.310094 0.233860 0.193790
0.427710 0.235752 0.191104
0.528893 0.223941 0.188235
0.608972 0.208591 0.185214
0.671656 0.194125 0.181552
0.721675 0.178622 0.177310
0.760586 0.164950 0.172396
0.791531 0.152987 0.168063
0.817380 0.141817 0.165438
0.839811 0.136507 0.166384
0.859312 0.143709 0.171206
0.876555 0.157443 0.181033
0.891569 0.178744 0.194705
0.904662 0.201205 0.210178
0.916503 0.225864 0.229496
0.927489 0.252628 0.250309
0.937163 0.277470 0.271336
0.945617 0.300572 0.292271
0.953033 0.322484 0.312779
0.959716 0.342016 0.331762
0.965698 0.360449 0.350347
0.971221 0.377478 0.368109
0.976349 0.393988 0.385718
0.981048 0.410315 0.403937
0.985412 0.426246 0.422004
0.989380 0.442145 0.440436
0.992920 0.458167 0.459419
0.995850 0.474861 0.479469
0.205234 0.221530 0.210452
0.206058 0.221408 0.210849
0.207004 0.221134 0.211246
0.210422 0.224247 0.211887
0.276768 0.259892 0.206210
0.409857 0.293187 0.191531
0.517082 0.293339 0.184360
0.598474 0.283787 0.179690
0.662715 0.271702 0.174807
0.714137 0.259007 0.169589
0.754269 0.246128 0.164858
0.786221 0.233402 0.161135
0.812467 0.222873 0.160220
0.835325 0.216983 0.162844
0.855314 0.217044 0.169375
0.872801 0.222904 0.181399
0.888212 0.234134 0.195529
0.901549 0.247898 0.212192
0.913756 0.265080 0.231144
0.924773 0.284031 0.251743
0.934508 0.303197 0.272374
0.943145 0.322148 0.293095
0.950835 0.340276 0.313176
0.957763 0.357275 0.332341
0.964111 0.373510 0.350866
0.969879 0.389227 0.369207
0.975189 0.404425 0.387121
0.980011 0.419684 0.405524
0.984497 0.434394 0.423377
0.988556 0.449134 0.441657
0.992126 0.464179 0.460273
0.995148 0.479622 0.479683
0.196719 0.268956 0.221408
0.197787 0.266728 0.218418
0.199252 0.263462 0.214847
0.203189 0.261845 0.208103
0.248692 0.283848 0.205173
0.361578 0.327062 0.195163
0.485817 0.358221 0.179538
0.578698 0.363256 0.169680
0.648585 0.355138 0.162448
0.701991 0.343633 0.156710
0.744106 0.330449 0.152438
0.777554 0.317205 0.150698
0.804898 0.304906 0.152621
0.828458 0.297276 0.158389
0.849149 0.293431 0.168673
0.867277 0.294224 0.181979
0.883330 0.298009 0.197971
0.897246 0.304784 0.215396
0.910124 0.315343 0.235538
0.921294 0.327398 0.255863
0.931243 0.340215 0.276188
0.940093 0.353918 0.296025
0.948028 0.367468 0.315953
0.955261 0.380957 0.334813
0.961822 0.394049 0.353216
0.967803 0.407080 0.371374
0.973327 0.420020 0.388983
0.978393 0.432929 0.406897
0.983001 0.446021 0.424659
0.987213 0.459205 0.442451
0.990936 0.472755 0.460914
0.994110 0.487007 0.480140
0.168338 0.358282 0.242344
0.172000 0.354528 0.236881
0.176303 0.349065 0.230076
0.184543 0.338201 0.217685
0.214633 0.342260 0.205875
0.310033 0.370306 0.210239
0.437110 0.404395 0.214511
0.548150 0.427436 0.169558
0.625849 0.430030 0.148074
0.686549 0.424567 0.139101
0.732326 0.412726 0.136049
0.767453 0.398627 0.138247
0.795773 0.385718 0.145052
0.820279 0.375433 0.155612
0.841733 0.368536 0.169223
0.860594 0.364813 0.185428
0.877317 0.363622 0.202976
0.892210 0.365484 0.221805
0.905455 0.370062 0.242008
0.917021 0.376165 0.262272
0.927306 0.383856 0.282536
0.936614 0.392157 0.302556
0.949035 0.415015 0.339361
0.955962 0.424506 0.357916
0.962188 0.433845 0.375708
0.967803 0.443244 0.393042
0.972992 0.452857 0.409827
0.977722 0.462715 0.426520
0.982086 0.472999 0.443061
0.986053 0.483772 0.459907
0.989532 0.495155 0.477394
0.992554 0.507073 0.494911
0.146700 0.450813 0.281285
0.152773 0.446723 0.274937
0.160464 0.441566 0.267521
0.173678 0.430518 0.252689
0.189792 0.413794 0.233310
0.261265 0.428382 0.228885
0.381201 0.456062 0.248020
0.505486 0.484138 0.284611
0.602136 0.503593 0.216007
0.669184 0.500847 0.165072
0.718196 0.490486 0.131411
0.758450 0.478370 0.132357
0.788174 0.464546 0.144503
0.813291 0.452125 0.159945
0.835203 0.442084 0.176852
0.854429 0.434485 0.194583
0.871550 0.429145 0.212833
0.887755 0.427283 0.233616
0.901366 0.427314 0.254459
0.913451 0.428962 0.275578
0.924376 0.432776 0.296727
0.934295 0.437842 0.317662
0.943145 0.444221 0.338231
0.951080 0.451179 0.358373
0.958099 0.458412 0.377203
0.964324 0.465705 0.395117
0.969879 0.473152 0.412146
0.974945 0.480934 0.428565
0.979614 0.489174 0.444678
0.983825 0.498024 0.461158
0.987610 0.507408 0.477790
0.990814 0.517876 0.495460
0.160891 0.522911 0.331548
0.166384 0.519707 0.326329
0.172976 0.514855 0.318639
0.185855 0.505028 0.303777
0.202090 0.490059 0.283574
0.218357 0.471046 0.260960
0.323583 0.496834 0.273167
0.442725 0.521782 0.302251
0.556298 0.547997 0.343145
0.637690 0.563134 0.297948
0.696559 0.559533 0.239109
0.739071 0.545953 0.189273
0.772610 0.530602 0.165438
0.801694 0.517388 0.170687
0.824582 0.505547 0.188144
0.844816 0.495369 0.205631
0.863706 0.488014 0.225406
0.880125 0.482307 0.245182
0.894224 0.478218 0.265049
0.906798 0.475837 0.285100
0.918181 0.475532 0.305241
0.928588 0.476600 0.325109
0.937926 0.479194 0.344793
0.946258 0.482612 0.363958
0.953735 0.486549 0.381933
0.960327 0.491188 0.399329
0.966278 0.496040 0.415564
0.971710 0.501396 0.431403
0.976684 0.507591 0.447395
0.981170 0.514397 0.463203
0.985199 0.522148 0.479713
0.988678 0.530907 0.496651
0.203677 0.581933 0.389136
0.207095 0.579309 0.384375
0.212375 0.575921 0.378363
0.221500 0.568139 0.365209
0.233524 0.556115 0.345739
0.246555 0.540154 0.323186
0.274174 0.532860 0.300542
0.388037 0.554467 0.328099
0.497993 0.575067 0.361913
0.594598 0.596399 0.400885
0.665827 0.611139 0.384161
0.716732 0.606928 0.325292
0.754543 0.593439 0.273045
0.784665 0.575738 0.224155
0.811215 0.562188 0.217136
0.835416 0.550866 0.224949
0.854978 0.541405 0.242618
0.871855 0.533104 0.260716
0.886473 0.526116 0.279332
0.899687 0.520653 0.297673
0.911620 0.517235 0.316686
0.922515 0.515129 0.335119
0.932311 0.514549 0.353674
0.941100 0.514977 0.371466
0.948913 0.516381 0.389075
0.955962 0.518090 0.405158
0.962310 0.520684 0.420691
0.968078 0.523888 0.435920
0.973388 0.527855 0.451148
0.978180 0.532769 0.466377
0.982452 0.538750 0.482460
0.986267 0.545525 0.498634
0.255711 0.628321 0.444709
0.258366 0.626368 0.441077
0.260502 0.623438 0.435218
0.266331 0.617426 0.423957
0.274449 0.608301 0.407538
0.283391 0.595666 0.386267
0.292332 0.580041 0.362402
0.342168 0.582391 0.353307
0.447730 0.600061 0.383642
0.543511 0.617273 0.418250
0.623713 0.633265 0.454841
0.687068 0.647639 0.459754
0.731350 0.643610 0.405249
0.765896 0.631464 0.354284
0.795560 0.616754 0.307134
0.821134 0.600732 0.267735
0.844083 0.589868 0.271550
0.863340 0.579217 0.279667
0.878569 0.570397 0.296910
0.892271 0.562951 0.313481
0.904692 0.556939 0.330388
0.915923 0.552361 0.347112
0.926116 0.548882 0.363561
0.935241 0.546654 0.380102
0.943481 0.545403 0.396002
0.950958 0.545006 0.411139
0.957763 0.545464 0.426032
0.963989 0.546807 0.440558
0.969665 0.549096 0.455695
0.974823 0.552392 0.470649
0.979431 0.556664 0.486122
0.983490 0.562158 0.502373
0.305913 0.664515 0.493294
0.307805 0.663081 0.490608
0.309178 0.660853 0.486152
0.312474 0.656214 0.476753
0.317388 0.649042 0.462837
0.323095 0.639338 0.444495
0.329381 0.627100 0.423011
0.334813 0.612268 0.398962
0.404730 0.622370 0.404425
0.499336 0.637140 0.435950
0.581018 0.651789 0.469368
0.650019 0.665217 0.503685
0.704646 0.677424 0.525170
0.744167 0.674556 0.477180
0.776699 0.664668 0.430457
0.804532 0.651118 0.384955
0.828916 0.635279 0.339117
0.849912 0.621424 0.317357
0.868254 0.610681 0.320867
0.883940 0.601038 0.329595
0.896971 0.593378 0.344579
0.908812 0.586969 0.359686
0.919493 0.581903 0.375555
0.929168 0.577874 0.390387
0.937865 0.574792 0.405341
0.945739 0.572473 0.419593
0.952972 0.570977 0.433326
0.959564 0.570550 0.446937
0.965576 0.571008 0.461006
0.971130 0.572503 0.475135
0.976074 0.575189 0.490120
0.980377 0.579156 0.505974
0.353246 0.693812 0.534783
0.355474 0.692714 0.533135
0.356512 0.691096 0.529839
0.358190 0.687587 0.522667
0.360754 0.682124 0.511467
0.364050 0.674678 0.496620
0.367681 0.665034 0.478187
0.370825 0.653193 0.456458
0.376226 0.641627 0.432380
0.460426 0.655299 0.452644
0.542657 0.668177 0.483650
0.613306 0.680934 0.516503
0.680446 0.699641 0.560449
0.726833 0.709590 0.591424
0.761349 0.707362 0.550805
0.791104 0.698451 0.509148
0.816892 0.685664 0.466560
0.839322 0.670497 0.423163
0.859129 0.654078 0.379889
0.876127 0.642634 0.374426
0.891356 0.632715 0.377234
0.904082 0.624170 0.386084
0.914824 0.617273 0.398962
0.924529 0.611505 0.412085
0.933349 0.606653 0.424872
0.941344 0.602747 0.437507
0.948699 0.599695 0.449897
0.955505 0.597467 0.461921
0.961700 0.596246 0.474372
0.967376 0.596094 0.487037
0.972503 0.597192 0.500908
0.977050 0.599481 0.515587
0.402106 0.719326 0.572900
0.404486 0.718502 0.572076
0.404334 0.717159 0.569299
0.404974 0.714351 0.563531
0.405310 0.709865 0.554223
0.405982 0.703914 0.542077
0.407141 0.696407 0.526757
0.408423 0.687190 0.508751
0.409949 0.676814 0.488411
0.430060 0.674708 0.472877
0.512627 0.686122 0.502190
0.583520 0.697261 0.532769
0.643977 0.708034 0.563073
0.695949 0.718288 0.592218
0.738705 0.728145 0.628321
0.770016 0.727260 0.594781
0.797299 0.719570 0.557916
0.820951 0.707942 0.520317
0.842039 0.694057 0.481575
0.861265 0.679103 0.442054
0.878630 0.664637 0.409247
0.893309 0.655238 0.411200
0.906462 0.646357 0.413977
0.917357 0.638849 0.422644
0.926757 0.632837 0.434028
0.935271 0.627619 0.445380
0.943114 0.623285 0.456519
0.950286 0.619898 0.468177
0.956939 0.617395 0.479622
0.963012 0.616114 0.492226
0.968566 0.615747 0.504875
0.973510 0.616815 0.519158
0.440009 0.737179 0.600885
0.442329 0.736416 0.600244
0.442298 0.735409 0.598199
0.442237 0.733181 0.593622
0.442390 0.729976 0.586725
0.442939 0.725582 0.577447
0.443793 0.720150 0.565972
0.444099 0.713344 0.551812
0.444465 0.705257 0.535271
0.444770 0.695827 0.516594
0.482216 0.699031 0.514519
0.552514 0.708156 0.541375
0.612726 0.717159 0.568353
0.664576 0.725887 0.594476
0.709987 0.734646 0.619471
0.750027 0.744106 0.648585
0.777768 0.743923 0.629877
0.802457 0.737240 0.597131
0.824460 0.726802 0.563928
0.844450 0.714473 0.530266
0.862974 0.700923 0.495369
0.880095 0.686793 0.459754
0.895048 0.675166 0.442329
0.907866 0.666651 0.444160
0.919524 0.658473 0.446296
0.928985 0.651972 0.454658
0.937285 0.646601 0.464851
0.944915 0.642145 0.475471
0.951965 0.638636 0.486488
0.958495 0.636133 0.497871
0.964355 0.634882 0.510521
0.969696 0.634730 0.523980
0.476967 0.753689 0.627039
0.479377 0.753140 0.627100
0.479042 0.752285 0.625208
0.478737 0.750546 0.621668
0.478431 0.747768 0.615991
0.477607 0.744045 0.608087
0.477241 0.739437 0.598627
0.476448 0.733883 0.586908
0.475959 0.727382 0.573419
0.475288 0.719844 0.557946
0.474159 0.711147 0.540337
0.525139 0.718379 0.550103
0.585077 0.725887 0.574182
0.636713 0.733394 0.597864
0.682124 0.741024 0.620630
0.722377 0.748623 0.641840
0.760006 0.757656 0.665064
0.784787 0.757961 0.657893
0.807340 0.752499 0.629541
0.827970 0.743587 0.600427
0.846983 0.732601 0.570886
0.864652 0.720302 0.540307
0.881041 0.707271 0.508843
0.896544 0.693629 0.475593
0.909239 0.684657 0.471534
0.920623 0.676905 0.472999
0.931121 0.669520 0.474922
0.939361 0.664271 0.484474
0.946899 0.660060 0.495064
0.953796 0.656855 0.506432
0.960052 0.654780 0.518761
0.965667 0.653895 0.532250
0.508232 0.768032 0.649256
0.510674 0.767605 0.649561
0.510369 0.766964 0.648219
0.509941 0.765469 0.645228
0.509453 0.763149 0.640620
0.508598 0.759976 0.634241
0.507805 0.756100 0.626581
0.507042 0.751553 0.617304
0.506157 0.746120 0.606317
0.504723 0.739895 0.593500
0.502800 0.732692 0.578607
0.506218 0.727901 0.563256
0.560693 0.734279 0.580621
0.611810 0.740383 0.601556
0.656580 0.746822 0.621851
0.696529 0.753475 0.641230
0.732784 0.760220 0.659449
0.768521 0.769100 0.678187
0.791409 0.770138 0.680507
0.812406 0.766110 0.656367
0.831785 0.758724 0.631434
0.849821 0.749050 0.605615
0.866606 0.737972 0.578973
0.882353 0.726040 0.551354
0.897246 0.713497 0.522423
0.910979 0.701564 0.497841
0.922057 0.694209 0.499336
0.932219 0.687404 0.501640
0.941588 0.681086 0.504570
0.948913 0.676967 0.514763
0.955474 0.673976 0.526574
0.961456 0.672114 0.538933
0.534203 0.780148 0.667720
0.536095 0.779721 0.667872
0.535882 0.779080 0.666712
0.535485 0.777798 0.664332
0.534783 0.775753 0.660365
0.533989 0.773037 0.655207
0.533135 0.769711 0.648890
0.531792 0.765591 0.640833
0.530571 0.760891 0.631678
0.529046 0.755459 0.620996
0.527276 0.749294 0.608850
0.524804 0.742245 0.594934
0.539330 0.741787 0.586908
0.589563 0.747005 0.605615
0.633906 0.752590 0.624079
0.673274 0.758389 0.641810
0.709041 0.764401 0.658564
0.742061 0.770565 0.674311
0.774350 0.777768 0.689876
0.797910 0.780941 0.699184
0.817350 0.778073 0.678279
0.835447 0.771939 0.656550
0.852384 0.763516 0.634272
0.868345 0.753628 0.610895
0.883452 0.742641 0.586481
0.897734 0.731136 0.561334
0.911467 0.719234 0.534966
0.923339 0.709895 0.522698
0.933288 0.703517 0.525231
0.942473 0.697749 0.528679
0.950774 0.692744 0.533776
0.957092 0.690181 0.546105
0.557061 0.790982 0.683925
0.558892 0.790616 0.684138
0.566644 0.793759 0.688838
0.566155 0.792569 0.686732
0.565270 0.790768 0.683436
0.564233 0.788327 0.679042
0.562951 0.785245 0.673518
0.561395 0.781582 0.666835
0.559716 0.777279 0.658991
0.557824 0.772427 0.649958
0.555596 0.766903 0.639612
0.552850 0.760616 0.627893
0.549432 0.753567 0.614527
0.575097 0.756161 0.615320
0.617823 0.760800 0.631525
0.656031 0.765774 0.647181
0.690791 0.770993 0.662318
0.722683 0.776394 0.676448
0.752773 0.781888 0.689876
0.781613 0.787472 0.702693
0.805600 0.792142 0.717037
0.823453 0.790097 0.698634
0.840208 0.784878 0.679622
0.855924 0.777584 0.660304
0.870787 0.768643 0.639826
0.885008 0.758572 0.618372
0.898650 0.747829 0.595850
0.911772 0.736690 0.572686
0.924437 0.725460 0.549096
0.934539 0.718715 0.547631
0.943450 0.713436 0.551629
0.951568 0.709041 0.557305
0.578943 0.801602 0.699336
0.581201 0.801724 0.700191
0.581964 0.801724 0.700008
0.582483 0.801114 0.698939
0.582452 0.799863 0.696712
0.581964 0.797910 0.693324
0.580652 0.795254 0.688563
0.579400 0.792050 0.682948
0.577996 0.788327 0.676387
0.576165 0.784024 0.668696
0.573968 0.779141 0.659907
0.571618 0.773648 0.650050
0.568475 0.767483 0.638727
0.565667 0.761105 0.626246
0.600031 0.766171 0.634241
0.637476 0.770474 0.648554
0.671626 0.775082 0.662348
0.702998 0.779995 0.675685
0.732418 0.785031 0.688350
0.760433 0.790127 0.700465
0.787259 0.795163 0.712001
0.811276 0.800687 0.729824
0.828153 0.799405 0.713832
0.843870 0.795254 0.697078
0.858732 0.788998 0.680049
0.872831 0.781277 0.662440
0.886412 0.772457 0.644038
0.899565 0.762844 0.624811
0.912261 0.752834 0.605097
0.924498 0.742641 0.585321
0.935912 0.733303 0.569207
0.944518 0.728786 0.574578
0.595361 0.810208 0.711147
0.597162 0.810330 0.711849
0.597772 0.810361 0.711757
0.598108 0.809812 0.710719
0.598077 0.808713 0.708827
0.597528 0.806973 0.705837
0.596735 0.804685 0.701991
0.595453 0.801846 0.697108
0.594171 0.798581 0.691554
0.592554 0.794766 0.684993
0.590906 0.790524 0.677699
0.588739 0.785672 0.669276
0.586114 0.780209 0.659754
0.582910 0.774136 0.649012
0.586267 0.771786 0.639277
0.621698 0.775692 0.651240
0.654994 0.779782 0.663813
0.685725 0.784146 0.676051
0.714534 0.788724 0.687892
0.741817 0.793454 0.699336
0.767971 0.798154 0.710353
0.793271 0.802976 0.721035
0.816892 0.808652 0.737087
0.832792 0.808103 0.727657
0.847684 0.804746 0.712459
0.861784 0.799435 0.697108
0.875212 0.792752 0.681666
0.888182 0.785153 0.666072
0.900786 0.776761 0.650050
0.912963 0.768002 0.633753
0.924804 0.758968 0.617456
0.936126 0.750057 0.601740
0.610010 0.818418 0.721950
0.611231 0.818479 0.722316
0.611810 0.818479 0.722255
0.612116 0.818051 0.721401
0.612085 0.817075 0.719753
0.611627 0.815579 0.717250
0.610834 0.813535 0.713863
0.609888 0.811063 0.709773
0.608606 0.808133 0.704860
0.607294 0.804746 0.699275
0.605707 0.800961 0.692897
0.603906 0.796628 0.685695
0.601587 0.791745 0.677516
0.598932 0.786374 0.668421
0.595727 0.780423 0.658228
0.608331 0.781247 0.654719
0.641047 0.784970 0.666499
0.671260 0.789029 0.678035
0.699519 0.793332 0.689265
0.726253 0.797818 0.700221
0.751827 0.802365 0.710842
0.776486 0.806851 0.721065
0.800320 0.811398 0.731228
0.823484 0.817288 0.745724
0.838407 0.817319 0.742000
0.852567 0.814694 0.728084
0.865965 0.810330 0.714473
0.878752 0.804807 0.701411
0.891142 0.798337 0.688380
0.903105 0.791318 0.675380
0.914733 0.783932 0.662715
0.925872 0.776425 0.650568
0.625818 0.827390 0.733577
0.626123 0.827298 0.733486
0.626368 0.827115 0.733211
0.626184 0.826566 0.732204
0.625971 0.825620 0.730617
0.625452 0.824155 0.728328
0.624811 0.822385 0.725429
0.623987 0.820249 0.721889
0.623011 0.817716 0.717739
0.621942 0.814817 0.712978
0.620661 0.811490 0.707546
0.619104 0.807706 0.701381
0.617273 0.803433 0.694423
0.614984 0.798642 0.686641
0.612238 0.793362 0.677974
0.609125 0.787564 0.668391
0.630274 0.791073 0.670985
0.659358 0.794614 0.681300
0.686610 0.798367 0.691524
0.712428 0.802335 0.701564
0.737118 0.806332 0.711269
0.760891 0.810391 0.720790
0.783841 0.814389 0.730159
0.806088 0.818418 0.739528
0.828763 0.824430 0.752499
0.842832 0.824765 0.753628
0.856413 0.822873 0.740841
0.869352 0.819394 0.728481
0.881773 0.814755 0.716793
0.893736 0.809476 0.705776
0.905303 0.803647 0.695247
0.916503 0.797513 0.685237
0.637385 0.834592 0.742367
0.637537 0.834501 0.742184
0.637720 0.834379 0.742000
0.637720 0.833860 0.741146
0.637446 0.833005 0.739712
0.636988 0.831785 0.737728
0.636347 0.830198 0.735134
0.635492 0.828244 0.731960
0.634638 0.825956 0.728267
0.633722 0.823392 0.724086
0.632624 0.820432 0.719326
0.631342 0.817105 0.714046
0.629725 0.813352 0.708003
0.627863 0.809110 0.701259
0.625696 0.804440 0.693782
0.623041 0.799313 0.685573
0.623774 0.796170 0.677882
0.648371 0.799832 0.684230
0.674922 0.803189 0.693751
0.700038 0.806790 0.703090
0.724025 0.810483 0.712245
0.747127 0.814237 0.721248
0.769497 0.817990 0.730220
0.791165 0.821683 0.739101
0.811246 0.824704 0.746853
0.833646 0.830930 0.758663
0.847074 0.831601 0.764340
0.860197 0.830472 0.752590
0.872801 0.827848 0.741421
0.884977 0.824155 0.731014
0.896696 0.819913 0.721675
0.907958 0.815213 0.713069
0.649561 0.842283 0.751675
0.649775 0.842252 0.751583
0.649897 0.842130 0.751339
0.649744 0.841642 0.750576
0.649348 0.840787 0.749172
0.648890 0.839689 0.747341
0.648157 0.838193 0.744961
0.647333 0.836393 0.742061
0.646418 0.834318 0.738705
0.645472 0.831937 0.734920
0.644251 0.829160 0.730495
0.642969 0.826139 0.725673
0.641474 0.822721 0.720333
0.639734 0.818906 0.714290
0.637629 0.814664 0.707607
0.635279 0.809995 0.700343
0.632654 0.804959 0.692439
0.638483 0.804837 0.687098
0.664057 0.807767 0.695705
0.688411 0.811032 0.704372
0.711788 0.814420 0.712978
0.734249 0.817868 0.721492
0.756008 0.821256 0.729946
0.777096 0.824674 0.738338
0.797391 0.827939 0.746548
0.816953 0.831296 0.754788
0.838926 0.837736 0.765621
0.851804 0.838651 0.775204
0.864500 0.838254 0.764553
0.876799 0.836454 0.754665
0.888701 0.833738 0.745632
0.900114 0.830503 0.737758
0.658625 0.848508 0.758755
0.658900 0.848508 0.758785
0.658930 0.848386 0.758511
0.658869 0.847990 0.757839
0.658564 0.847257 0.756619
0.658137 0.846250 0.755001
0.657618 0.844968 0.752956
0.656947 0.843381 0.750423
0.656214 0.841581 0.747494
0.655360 0.839506 0.744137
0.654475 0.837125 0.740352
0.653498 0.834501 0.736141
0.652338 0.831510 0.731502
0.650965 0.828183 0.726284
0.649317 0.824521 0.720546
0.647364 0.820432 0.714199
0.645319 0.816007 0.707485
0.643061 0.811307 0.700221
0.656336 0.813596 0.699794
0.679805 0.816434 0.707729
0.702358 0.819455 0.715663
0.724086 0.822538 0.723598
0.745205 0.825681 0.731563
0.765652 0.828794 0.739498
0.785519 0.831907 0.747433
0.804654 0.834989 0.755306
0.823056 0.838102 0.763210
0.843656 0.843992 0.773495
0.857145 0.846128 0.786709
0.869535 0.846555 0.777493
0.881559 0.845670 0.769009
0.893248 0.844022 0.761563
0.667964 0.854795 0.766079
0.668025 0.854734 0.765927
0.668055 0.854612 0.765713
0.667872 0.854215 0.765011
0.667597 0.853544 0.763943
0.667140 0.852628 0.762417
0.666529 0.851469 0.760525
0.665949 0.850065 0.758267
0.665309 0.848447 0.755612
0.664607 0.846586 0.752651
0.663813 0.844541 0.749264
0.663050 0.842191 0.745571
0.662043 0.839597 0.741421
0.660945 0.836698 0.736843
0.659632 0.833433 0.731807
0.658137 0.829892 0.726345
0.656367 0.825986 0.720363
0.654536 0.821836 0.714046
0.654292 0.818631 0.707790
0.672206 0.821836 0.711116
0.693935 0.824521 0.718410
0.714992 0.827329 0.725887
0.735470 0.830167 0.733364
0.755428 0.833066 0.740963
0.774807 0.835935 0.748531
0.793576 0.838865 0.756130
0.811734 0.841825 0.763821
0.829191 0.844846 0.771511
0.848539 0.850278 0.781521
0.862730 0.853483 0.794644
0.874723 0.854582 0.789792
0.886564 0.854673 0.782895
0.676234 0.860533 0.772610
0.676326 0.860502 0.772549
0.676326 0.860349 0.772274
0.676204 0.860014 0.771695
0.675959 0.859464 0.770718
0.675746 0.858701 0.769497
0.675532 0.857816 0.768002
0.675288 0.856748 0.766201
0.675105 0.855497 0.764157
0.674952 0.854093 0.761807
0.674678 0.852445 0.759121
0.674342 0.850584 0.756100
0.673823 0.848447 0.752651
0.673152 0.846067 0.748867
0.672236 0.843320 0.744564
0.671046 0.840299 0.739834
0.669734 0.836973 0.734707
0.668299 0.833402 0.729244
0.666865 0.829587 0.723598
0.670344 0.829282 0.718868
0.690211 0.831754 0.724910
0.710414 0.834257 0.731807
0.730068 0.836820 0.738857
0.749294 0.839445 0.746029
0.768093 0.842100 0.753292
0.786313 0.844846 0.760616
0.804044 0.847654 0.768032
0.821164 0.850553 0.775540
0.837644 0.853544 0.783169
0.855711 0.858640 0.792905
0.870420 0.862852 0.805814
0.881834 0.864652 0.805417
0.686610 0.867094 0.780667
0.686610 0.867033 0.780514
0.686580 0.866880 0.780301
0.686427 0.866575 0.779751
0.686152 0.866026 0.778836
0.685847 0.865354 0.777615
0.685542 0.864500 0.776211
0.685237 0.863493 0.774533
0.684871 0.862333 0.772519
0.684535 0.860960 0.770260
0.684138 0.859464 0.767727
0.683589 0.857694 0.764828
0.683131 0.855772 0.761715
0.682429 0.853605 0.758206
