data/fiter_cube/38543845/1023265/file.cube
# Created by Adobe Lightroom plugin Export LUT (1.17.0)
# www.johnrellis.com/lightroom/exportlut.htm
# Preset: 清新通透胶片预设_01 云集
# Color profile: C:\Program Files (x86)\Common Files\Adobe\Color\Profiles\Recommended\AdobeRGB1998.icc
LUT_3D_SIZE 5
DOMAIN_MIN 0.000000 0.000000 0.000000
DOMAIN_MAX 0.903226 0.903226 0.903226
0.175509 0.185122 0.177218
0.620203 0.106691 0.188754
0.863645 0.000000 0.172793
0.948180 0.284916 0.294011
0.986419 0.422858 0.424842
0.160891 0.522911 0.331548
0.442725 0.521782 0.302251
0.824582 0.505547 0.188144
0.928588 0.476600 0.325109
0.976684 0.507591 0.447395
0.476967 0.753689 0.627039
0.476448 0.733883 0.586908
0.682124 0.741024 0.620630
0.864652 0.720302 0.540307
0.946899 0.660060 0.495064
0.625818 0.827390 0.733577
0.623987 0.820249 0.721889
0.612238 0.793362 0.677974
0.760891 0.810391 0.720790
0.881773 0.814755 0.716793
0.694484 0.872496 0.786923
0.693507 0.869383 0.781552
0.688228 0.857511 0.761593
0.699825 0.845304 0.739467
0.821836 0.862730 0.787686
0.178836 0.223850 0.484352
0.613458 0.375006 0.661341
0.815122 0.429755 0.626917
0.903105 0.489509 0.608118
0.959533 0.520714 0.597955
0.197299 0.500816 0.528038
0.513115 0.563836 0.588800
0.791257 0.542962 0.591821
0.894804 0.547723 0.586236
0.951965 0.570428 0.602869
0.521721 0.770809 0.689113
0.605219 0.755520 0.699794
0.693050 0.743008 0.689204
0.849973 0.720821 0.622004
0.928649 0.684535 0.619837
0.639857 0.832731 0.753079
0.667445 0.826139 0.757748
0.660151 0.799863 0.722164
0.766567 0.811612 0.745602
0.879271 0.816678 0.737606
0.700832 0.874357 0.795743
0.717464 0.870481 0.800046
0.712795 0.860014 0.782101
0.709163 0.844785 0.753475
0.826963 0.864805 0.801816
0.407477 0.428687 0.738918
0.583001 0.536950 0.776150
0.797971 0.688350 0.836515
0.852445 0.702205 0.808042
0.926360 0.661677 0.774746
0.316594 0.462593 0.659937
0.533074 0.574365 0.732631
0.792142 0.735164 0.832853
0.847929 0.722316 0.808164
0.920500 0.683467 0.775418
0.470008 0.707179 0.733913
0.556420 0.712001 0.739284
0.702998 0.737545 0.762020
0.833066 0.751064 0.786160
0.902525 0.729244 0.763607
0.668849 0.852445 0.807675
0.695430 0.846921 0.809537
0.748653 0.829709 0.809842
0.783139 0.816770 0.798611
0.875059 0.815244 0.777249
0.711635 0.881498 0.820371
0.726589 0.878782 0.822934
0.764462 0.869047 0.828428
0.756954 0.850675 0.802243
0.838071 0.868894 0.832029
0.579339 0.605371 0.826932
0.633692 0.636378 0.836545
0.762142 0.717220 0.867918
0.857939 0.770748 0.888426
0.890135 0.770260 0.868742
0.558282 0.618128 0.803433
0.617823 0.649317 0.816892
0.753109 0.730129 0.857389
0.855619 0.789670 0.886687
0.887266 0.782223 0.868925
0.406104 0.601373 0.728725
0.439002 0.596490 0.722255
0.688746 0.721279 0.805142
0.848722 0.826200 0.880949
0.880339 0.810513 0.868101
0.600336 0.778164 0.805142
0.627527 0.778988 0.805722
0.696162 0.785580 0.810880
0.780850 0.805600 0.827024
0.875364 0.820432 0.846708
0.738308 0.895995 0.865385
0.752224 0.894163 0.866514
0.787137 0.888640 0.868467
0.821469 0.876982 0.865965
0.855985 0.878325 0.868681
0.679133 0.703548 0.881804
0.697322 0.710842 0.883818
0.756466 0.738766 0.892180
0.839414 0.789120 0.907744
0.889158 0.811795 0.913756
0.670558 0.707118 0.872465
0.689937 0.715175 0.875395
0.752010 0.744900 0.886259
0.836912 0.796109 0.904723
0.888609 0.820981 0.913268
0.601160 0.689967 0.834623
0.631983 0.702327 0.841062
0.719814 0.745327 0.862364
0.823697 0.807462 0.893400
0.888396 0.845914 0.912871
0.567529 0.725399 0.815885
0.576837 0.722438 0.812558
0.604242 0.711208 0.801022
0.768978 0.791867 0.857939
0.891112 0.877531 0.914794
0.674708 0.837980 0.861265
0.687098 0.838987 0.861906
0.728908 0.844266 0.865721
0.791989 0.856779 0.875517
0.872190 0.886442 0.900572
