data/fiter_cube/37639453/1023436/file.cube
# Created by Adobe Lightroom plugin Export LUT (1.17.0)
# www.johnrellis.com/lightroom/exportlut.htm
# Preset: 油管牛人_02 云集
# Color profile: C:\Program Files (x86)\Common Files\Adobe\Color\Profiles\Recommended\AdobeRGB1998.icc
LUT_3D_SIZE 32
DOMAIN_MIN 0.0 0.0 0.0
DOMAIN_MAX 1.0 1.0 1.0
0.010803 0.007141 0.013214
0.021118 0.007752 0.013947
0.035706 0.007691 0.013581
0.056153 0.007263 0.015167
0.071626 0.009216 0.015106
0.088167 0.010407 0.016785
0.110903 0.007874 0.017609
0.140444 0.000000 0.018219
0.176761 0.000000 0.016083
0.219059 0.000000 0.012696
0.266331 0.000000 0.006409
0.317449 0.000000 0.000000
0.370306 0.000000 0.000000
0.423377 0.000000 0.000000
0.475135 0.000000 0.000000
0.524224 0.000000 0.000000
0.570855 0.000000 0.000000
0.614405 0.000000 0.000000
0.661585 0.000000 0.000000
0.706416 0.000000 0.000000
0.745815 0.000000 0.000000
0.780728 0.000000 0.000000
0.812009 0.000000 0.000000
0.840482 0.000000 0.000000
0.866606 0.000000 0.000000
0.891417 0.000000 0.000000
0.915404 0.000000 0.000000
0.938872 0.000000 0.000000
0.962036 0.000000 0.000000
0.985016 0.000000 0.000000
1.000000 0.000000 0.000000
1.000000 0.011170 0.000000
0.010315 0.014099 0.016968
0.019471 0.014954 0.016663
0.034302 0.014893 0.015198
0.056092 0.014252 0.016754
0.071595 0.016205 0.016693
0.088502 0.017182 0.018341
0.111421 0.014405 0.019165
0.140658 0.004822 0.018708
0.176913 0.000000 0.016480
0.219059 0.000000 0.013092
0.265934 0.000000 0.006806
0.316594 0.000000 0.000000
0.369146 0.000000 0.000000
0.421729 0.000000 0.000000
0.473152 0.000000 0.000000
0.522148 0.000000 0.000000
0.568627 0.000000 0.000000
0.612146 0.000000 0.000000
0.658808 0.000000 0.000000
0.702968 0.000000 0.000000
0.741878 0.000000 0.000000
0.776883 0.000000 0.000000
0.808194 0.000000 0.000000
0.836790 0.000000 0.000000
0.863249 0.000000 0.000000
0.888273 0.000000 0.000000
0.912535 0.000000 0.000000
0.936278 0.000000 0.000000
0.959655 0.000000 0.000000
0.982879 0.000000 0.000000
1.000000 0.000000 0.000000
1.000000 0.018769 0.000000
0.010407 0.023255 0.022705
0.019959 0.022919 0.021393
0.030488 0.023529 0.021088
0.054353 0.025086 0.020264
0.071321 0.025574 0.020264
0.088655 0.027558 0.020722
0.111574 0.024781 0.020447
0.141390 0.014527 0.019959
0.177615 0.000000 0.017609
0.219577 0.000000 0.014130
0.266606 0.000000 0.006531
0.317357 0.000000 0.000000
0.369451 0.000000 0.000000
0.422065 0.000000 0.000000
0.473365 0.000000 0.000000
0.522240 0.000000 0.000000
0.568597 0.000000 0.000000
0.611780 0.000000 0.000000
0.658534 0.000000 0.000000
0.702083 0.000000 0.000000
0.740780 0.000000 0.000000
0.775509 0.000000 0.000000
0.806851 0.000000 0.000000
0.835386 0.000000 0.000000
0.861845 0.000000 0.000000
0.886931 0.000000 0.000000
0.911284 0.000000 0.000000
0.935088 0.000000 0.000000
0.958587 0.000000 0.000000
0.981872 0.000000 0.000000
1.000000 0.000000 0.000000
1.000000 0.055116 0.000000
0.012726 0.038972 0.032197
0.023194 0.038392 0.033051
0.032746 0.038025 0.031739
0.049714 0.039704 0.033295
0.069154 0.046235 0.029572
0.089174 0.049592 0.026398
0.113252 0.048463 0.024750
0.144015 0.039582 0.022827
0.181003 0.015656 0.019257
0.223575 0.000000 0.014038
0.270665 0.000000 0.005768
0.321202 0.000000 0.000000
0.373358 0.000000 0.000000
0.425452 0.000000 0.000000
0.476509 0.000000 0.000000
0.524926 0.000000 0.000000
0.570794 0.000000 0.000000
0.613703 0.000000 0.000000
0.659907 0.000000 0.000000
0.701717 0.000000 0.000000
0.739376 0.000000 0.000000
0.773678 0.000000 0.000000
0.805020 0.000000 0.000000
0.833921 0.000000 0.000000
0.861021 0.000000 0.000000
0.886778 0.000000 0.000000
0.911437 0.000000 0.000000
0.935424 0.000000 0.000000
0.958892 0.000000 0.000000
0.981964 0.000000 0.000000
1.000000 0.000000 0.000000
1.000000 0.092958 0.000000
0.015686 0.057801 0.046509
0.023713 0.058595 0.045136
0.029450 0.059236 0.041596
0.048951 0.058137 0.041260
0.064668 0.060731 0.042206
0.083101 0.065400 0.037568
0.113893 0.068879 0.030030
0.146700 0.067567 0.026154
0.184543 0.060700 0.021729
0.227512 0.036194 0.014557
0.275456 0.000000 0.004242
0.326360 0.000000 0.000000
0.378943 0.000000 0.000000
0.430945 0.000000 0.000000
0.481819 0.000000 0.000000
0.530358 0.000000 0.000000
0.575891 0.000000 0.000000
0.620233 0.000000 0.000000
0.665309 0.000000 0.000000
0.705440 0.000000 0.000000
0.741787 0.000000 0.000000
0.775204 0.000000 0.000000
0.805936 0.000000 0.000000
0.834531 0.000000 0.000000
0.861387 0.000000 0.000000
0.886961 0.000000 0.000000
0.911498 0.000000 0.000000
0.935332 0.000000 0.000000
0.958556 0.000000 0.000000
0.981445 0.000000 0.000000
1.000000 0.030152 0.000000
1.000000 0.129915 0.000000
0.016632 0.071595 0.057404
0.020569 0.072145 0.056397
0.029023 0.072511 0.053742
0.044709 0.072480 0.049348
0.063661 0.072389 0.049592
0.078309 0.076143 0.048829
0.103029 0.082856 0.045075
0.143496 0.090608 0.032319
0.191409 0.092561 0.020264
0.235538 0.085451 0.011933
0.284459 0.071687 0.000000
0.335698 0.027863 0.000000
0.388312 0.000000 0.000000
0.440681 0.000000 0.000000
0.491463 0.000000 0.000000
0.539513 0.000000 0.000000
0.584497 0.000000 0.000000
0.630457 0.000000 0.000000
0.673457 0.000000 0.000000
0.712245 0.000000 0.000000
0.747616 0.000000 0.000000
0.780270 0.000000 0.000000
0.836027 0.000000 0.000000
0.862058 0.000000 0.000000
0.886107 0.000000 0.000000
0.908873 0.000000 0.000000
0.930877 0.000000 0.000000
0.952239 0.000000 0.000000
0.973358 0.004456 0.000000
0.994415 0.108705 0.000000
1.000000 0.154788 0.000000
1.000000 0.193790 0.000000
0.010346 0.090639 0.066133
0.016083 0.091035 0.064881
0.022858 0.091951 0.063386
0.035065 0.093324 0.058015
0.061341 0.092226 0.056001
0.077638 0.093507 0.055573
0.099153 0.100984 0.054414
0.132937 0.111238 0.049470
0.185794 0.122957 0.029023
0.249241 0.129091 0.004089
0.306584 0.124361 0.000000
0.359686 0.111055 0.000000
0.412421 0.091188 0.000000
0.464118 0.058991 0.000000
0.512902 0.000000 0.000000
0.559075 0.000000 0.000000
0.603723 0.000000 0.000000
0.650446 0.000000 0.000000
0.691829 0.000000 0.000000
0.729458 0.000000 0.000000
0.764767 0.000000 0.000000
0.798062 0.000000 0.000000
0.829038 0.000000 0.000000
0.857572 0.000000 0.000000
0.883726 0.000000 0.000000
0.907591 0.000000 0.000000
0.929961 0.000000 0.000000
0.951324 0.087190 0.000000
0.972320 0.127443 0.000000
0.993072 0.162051 0.000000
1.000000 0.193790 0.000000
1.000000 0.224735 0.000000
0.000336 0.114137 0.073274
0.004211 0.115175 0.072053
0.009857 0.115908 0.070466
0.025208 0.117494 0.066590
0.049989 0.117464 0.060029
0.073487 0.115419 0.059846
0.094789 0.119783 0.059541
0.123903 0.130617 0.057740
0.165652 0.143709 0.050874
0.227756 0.158816 0.021485
0.299321 0.167269 0.000000
0.371740 0.168582 0.000000
0.425940 0.157168 0.000000
0.477455 0.143069 0.000000
0.525444 0.125246 0.000000
0.570703 0.105684 0.000000
0.618128 0.086336 0.000000
0.661402 0.063569 0.000000
0.700038 0.021576 0.000000
0.735683 0.000000 0.000000
0.769436 0.000000 0.000000
0.801450 0.000000 0.000000
0.831296 0.035004 0.000000
0.858885 0.073671 0.000000
0.884337 0.096712 0.000000
0.907713 0.119692 0.000000
0.929625 0.140597 0.000000
0.950774 0.161990 0.000000
0.971527 0.184817 0.000000
0.992065 0.208133 0.000000
1.000000 0.232517 0.000000
1.000000 0.258183 0.000000
0.000000 0.144747 0.081727
0.000000 0.145510 0.080659
0.000000 0.146059 0.078889
0.002228 0.147799 0.074464
0.024414 0.149386 0.064973
0.064302 0.147219 0.062776
0.090181 0.143709 0.062257
0.117586 0.153109 0.060914
0.155245 0.167025 0.057923
0.205112 0.182528 0.049744
0.275792 0.200381 0.005463
0.352941 0.210758 0.000000
0.431434 0.215793 0.000000
0.494362 0.211704 0.000000
0.541650 0.199802 0.000000
0.589685 0.190402 0.000000
0.634546 0.181643 0.000000
0.674861 0.173922 0.000000
0.710658 0.166751 0.000000
0.744228 0.161929 0.000000
0.776272 0.160342 0.000000
0.806790 0.162509 0.000000
0.835386 0.167453 0.000000
0.862058 0.174899 0.000000
0.886717 0.184268 0.000000
0.909300 0.194217 0.000000
0.930724 0.206119 0.000000
0.951324 0.219852 0.000000
0.971618 0.235386 0.000000
0.991730 0.252659 0.000000
1.000000 0.271855 0.000000
1.000000 0.292729 0.000000
0.000000 0.180606 0.091890
0.000000 0.181064 0.090425
0.000000 0.181643 0.088350
0.000000 0.183230 0.083833
0.000000 0.185275 0.076509
0.033570 0.184024 0.065095
0.081117 0.180026 0.064912
0.111757 0.176272 0.064607
0.146517 0.190982 0.061891
0.191775 0.207675 0.056611
0.249668 0.224979 0.046021
0.326177 0.244327 0.000000
0.406012 0.256840 0.000000
0.485054 0.264500 0.000000
0.559503 0.271244 0.000000
0.611139 0.267124 0.000000
0.653712 0.260410 0.000000
0.691096 0.252811 0.000000
0.724544 0.246708 0.000000
0.755734 0.241520 0.000000
0.785306 0.238590 0.000000
0.813382 0.238346 0.000000
0.839811 0.239384 0.000000
0.864652 0.242466 0.000000
0.888029 0.247227 0.000000
0.910033 0.253361 0.000000
0.931121 0.261295 0.000000
0.951629 0.270848 0.000000
0.971771 0.282597 0.000000
0.991791 0.296300 0.000000
1.000000 0.312352 0.000000
1.000000 0.329992 0.000000
0.000000 0.219211 0.102602
0.000000 0.219760 0.101503
0.000000 0.220401 0.099397
0.000000 0.221561 0.094759
0.000000 0.223575 0.087282
0.000000 0.224704 0.073030
0.062348 0.220615 0.067597
0.102968 0.215335 0.067231
0.138277 0.215579 0.066072
0.180606 0.232975 0.062593
0.234012 0.251926 0.055329
0.298283 0.270359 0.040864
0.379858 0.292241 0.000000
0.464668 0.309148 0.000000
0.544945 0.321324 0.000000
0.616114 0.331182 0.000000
0.670588 0.334813 0.000000
0.705104 0.325841 0.000000
0.736080 0.317357 0.000000
0.765499 0.311162 0.000000
0.793362 0.306767 0.000000
0.820035 0.304173 0.000000
0.845335 0.303502 0.000000
0.869078 0.304265 0.000000
0.891539 0.306737 0.000000
0.912566 0.309789 0.000000
0.932830 0.314183 0.000000
0.952575 0.320562 0.000000
0.972198 0.328954 0.000000
0.991760 0.339452 0.000000
1.000000 0.351873 0.000000
1.000000 0.366735 0.000000
0.000000 0.261753 0.115511
0.000000 0.262211 0.113710
0.000000 0.262730 0.111879
0.000000 0.263828 0.107637
0.000000 0.265446 0.100557
0.000000 0.267308 0.090181
0.000000 0.264652 0.071778
0.087465 0.259068 0.071107
0.130404 0.252079 0.070039
0.170626 0.257908 0.068086
0.220645 0.277745 0.064210
0.284062 0.301152 0.057038
0.380072 0.343053 0.040040
0.470375 0.369818 0.000000
0.553033 0.388190 0.000000
0.626673 0.401953 0.000000
0.689387 0.411475 0.000000
0.737972 0.414954 0.000000
0.770321 0.408453 0.000000
0.795285 0.397986 0.000000
0.819333 0.389990 0.000000
0.842222 0.383490 0.000000
0.864012 0.379126 0.000000
0.884825 0.376135 0.000000
0.904662 0.374609 0.000000
0.923766 0.374548 0.000000
0.942229 0.375830 0.000000
0.960388 0.378943 0.000000
0.978515 0.383764 0.000000
0.996826 0.390814 0.000000
1.000000 0.400092 0.000000
1.000000 0.411688 0.000000
0.000000 0.313573 0.131533
0.000000 0.313817 0.130037
0.000000 0.313878 0.127840
0.000000 0.313970 0.123445
0.000000 0.314488 0.116091
0.000000 0.315221 0.106355
0.000000 0.314458 0.085756
0.056580 0.308141 0.076570
0.118685 0.300725 0.075502
0.163729 0.293248 0.073701
0.213993 0.310460 0.072175
0.277592 0.337255 0.068452
0.352728 0.365515 0.061982
0.433509 0.391913 0.054627
0.521752 0.419654 0.000000
0.599054 0.438605 0.000000
0.665766 0.451728 0.000000
0.720699 0.458503 0.000000
0.766567 0.461402 0.000000
0.803098 0.462379 0.000000
0.825620 0.451637 0.000000
0.847379 0.443030 0.000000
0.867948 0.436164 0.000000
0.887785 0.430793 0.000000
0.906828 0.427131 0.000000
0.925078 0.424537 0.000000
0.942931 0.423743 0.000000
0.960540 0.424750 0.000000
0.978210 0.427497 0.000000
0.996094 0.432471 0.000000
1.000000 0.439765 0.000000
1.000000 0.449378 0.000000
0.000000 0.358007 0.146609
0.000000 0.358129 0.145144
0.000000 0.358068 0.143404
0.000000 0.358190 0.138918
0.000000 0.358251 0.132143
0.000000 0.358404 0.122896
0.000000 0.359014 0.110903
0.000000 0.355657 0.084657
0.098634 0.350011 0.083223
0.155184 0.343328 0.081666
0.202426 0.335027 0.079103
0.261082 0.360479 0.077668
0.329992 0.387762 0.075746
0.407599 0.415717 0.072663
0.489509 0.443397 0.068727
0.568292 0.467384 0.053132
0.638911 0.484810 0.000000
0.697841 0.495003 0.000000
0.747433 0.500450 0.000000
0.790555 0.503593 0.000000
0.826200 0.504936 0.000000
0.852934 0.501488 0.000000
0.872618 0.492500 0.000000
0.891630 0.485237 0.000000
0.909819 0.479316 0.000000
0.927398 0.475044 0.000000
0.944579 0.472145 0.000000
0.961608 0.471077 0.000000
0.978729 0.471992 0.000000
0.996155 0.475044 0.000000
1.000000 0.480507 0.000000
1.000000 0.488350 0.000000
0.000000 0.404181 0.164004
0.000000 0.404700 0.162753
0.000000 0.404822 0.160922
0.000000 0.405371 0.156771
0.000000 0.406104 0.150729
0.000000 0.406836 0.142245
0.000000 0.407630 0.131350
0.000000 0.406714 0.106935
0.061585 0.400305 0.093812
0.141176 0.392584 0.091341
0.195102 0.383886 0.088899
0.245243 0.381445 0.086397
0.309636 0.407843 0.086213
0.381994 0.435157 0.086213
0.459297 0.462165 0.086366
0.537163 0.488411 0.087343
0.609766 0.511223 0.090639
0.673335 0.526268 0.005158
0.726497 0.534936 0.000000
0.772427 0.540154 0.000000
0.812619 0.543206 0.000000
0.847532 0.544884 0.000000
0.875914 0.545739 0.000000
0.895415 0.538323 0.000000
0.912902 0.530632 0.000000
0.929931 0.524681 0.000000
0.946777 0.520470 0.000000
0.963561 0.518212 0.000000
0.980438 0.517998 0.000000
0.997620 0.519829 0.000000
1.000000 0.523949 0.000000
1.000000 0.530541 0.000000
0.000000 0.456123 0.185306
0.000000 0.456519 0.184237
0.000000 0.456641 0.182528
0.000000 0.456916 0.178653
0.000000 0.456947 0.172885
0.000000 0.457252 0.164462
0.000000 0.457862 0.154391
0.000000 0.458259 0.141421
0.000000 0.452888 0.108217
0.121431 0.444739 0.105562
0.186069 0.434638 0.101686
0.237949 0.423041 0.097444
0.291142 0.426856 0.095491
0.358129 0.452277 0.097780
0.430304 0.477821 0.100160
0.504814 0.502953 0.103273
0.577996 0.528130 0.108248
0.645686 0.550317 0.121798
0.703792 0.563958 0.089052
0.753628 0.572686 0.031678
0.796689 0.578302 0.000000
0.834470 0.581750 0.000000
0.867582 0.583703 0.000000
0.895262 0.584588 0.000000
0.917601 0.583093 0.000000
0.933989 0.575647 0.000000
0.950134 0.569726 0.000000
0.966217 0.565789 0.000000
0.982422 0.563836 0.000000
0.998871 0.563836 0.000000
1.000000 0.565972 0.000000
1.000000 0.570520 0.000000
0.000000 0.502678 0.206760
0.000000 0.502708 0.205386
0.000000 0.502464 0.203769
0.000000 0.502373 0.200015
0.000000 0.502220 0.194491
0.000000 0.502098 0.187045
0.000000 0.501823 0.177493
0.000000 0.501610 0.165743
0.000000 0.498665 0.136843
0.089021 0.490700 0.120363
0.171328 0.480781 0.116609
0.229465 0.469245 0.111574
0.278538 0.455940 0.106264
0.336278 0.467933 0.106935
0.404639 0.492622 0.110475
0.475532 0.516991 0.115908
0.546715 0.541192 0.122377
0.615717 0.565667 0.130770
0.677974 0.586206 0.150607
0.731807 0.599359 0.132235
0.778012 0.607630 0.108675
0.818112 0.613092 0.085756
0.853300 0.616358 0.054292
0.884428 0.618372 0.000000
0.911803 0.619287 0.000000
0.934539 0.620264 0.000000
0.952087 0.616052 0.000000
0.967681 0.610773 0.000000
0.983429 0.607507 0.000000
0.999329 0.606134 0.000000
1.000000 0.606958 0.014618
1.000000 0.610040 0.064393
0.000000 0.547265 0.229587
0.000000 0.547662 0.228458
0.000000 0.566552 0.237949
0.000000 0.566033 0.234043
0.000000 0.565240 0.228519
0.000000 0.564233 0.221012
0.000000 0.562829 0.211704
0.000000 0.561059 0.199924
0.000000 0.559014 0.185946
0.030549 0.551751 0.146273
0.163638 0.541100 0.140871
0.229892 0.528557 0.134646
0.283085 0.514214 0.127657
0.328954 0.497902 0.120027
0.392706 0.517876 0.124422
0.461341 0.541497 0.131533
0.530236 0.564874 0.139528
0.596857 0.587915 0.150240
0.660090 0.609949 0.162631
0.715816 0.627497 0.186435
0.764401 0.639582 0.179660
0.806271 0.646601 0.164767
0.842802 0.650996 0.152438
0.874784 0.653620 0.139834
0.903075 0.654658 0.125460
0.928527 0.654780 0.108644
0.950195 0.654871 0.110506
0.969390 0.655238 0.124300
0.984253 0.650141 0.123690
0.999573 0.647272 0.126894
1.000000 0.646662 0.134493
1.000000 0.648219 0.146426
0.000000 0.594415 0.256657
0.000000 0.596796 0.256962
0.000000 0.599237 0.257328
0.000000 0.601038 0.255344
0.000000 0.602014 0.251011
0.000000 0.601770 0.244663
0.000000 0.600488 0.235904
0.000000 0.598688 0.225376
0.000000 0.596643 0.212345
0.000000 0.592035 0.181094
0.140383 0.582422 0.159823
0.216495 0.570855 0.153658
0.275029 0.556970 0.146090
0.323949 0.541680 0.138125
0.369512 0.529656 0.130861
0.435615 0.552789 0.138735
0.502586 0.575616 0.147585
0.567864 0.597894 0.158572
0.630304 0.619348 0.171817
0.689357 0.640223 0.188083
0.740871 0.656703 0.213901
0.787015 0.669398 0.217105
0.826322 0.676478 0.207034
0.860533 0.680964 0.198520
0.890562 0.683589 0.190738
0.917449 0.685023 0.182650
0.941833 0.685603 0.173129
0.963958 0.686061 0.167330
0.983001 0.687831 0.182925
0.999573 0.687251 0.192538
1.000000 0.685328 0.198276
1.000000 0.685664 0.206882
0.000000 0.632502 0.279911
0.000000 0.634668 0.280766
0.000000 0.636805 0.281193
0.000000 0.638331 0.279301
0.000000 0.639124 0.275731
0.000000 0.638666 0.269871
0.000000 0.637354 0.261753
0.000000 0.635492 0.251377
0.000000 0.633326 0.239658
0.069551 0.630549 0.224979
0.111116 0.623285 0.181216
0.202762 0.612512 0.174655
0.266545 0.599664 0.166903
0.319249 0.585077 0.158175
0.364477 0.568444 0.148348
0.413642 0.565362 0.145144
0.478798 0.587732 0.154360
0.542870 0.609339 0.166140
0.604211 0.630152 0.180362
0.662776 0.650416 0.196872
0.717800 0.669917 0.216129
0.765530 0.685512 0.244022
0.808957 0.698451 0.256657
0.845518 0.705287 0.249851
0.877379 0.709590 0.243961
0.905699 0.712276 0.238956
0.931182 0.713954 0.234012
0.954589 0.715145 0.229374
0.976471 0.716121 0.224796
0.995697 0.718135 0.234897
1.000000 0.721553 0.253605
1.000000 0.721126 0.262272
0.000000 0.668330 0.304540
0.000000 0.670283 0.305394
0.000000 0.672023 0.305486
0.000000 0.673335 0.303960
0.000000 0.673884 0.300572
0.000000 0.673335 0.295109
0.000000 0.672023 0.287572
0.000000 0.670161 0.278569
0.000000 0.667842 0.267247
0.043275 0.665095 0.254704
0.119570 0.660151 0.220401
0.187869 0.651118 0.197543
0.257389 0.639643 0.189456
0.314000 0.626398 0.180056
0.362463 0.611627 0.170321
0.404700 0.595117 0.159091
0.458930 0.601434 0.161349
0.522606 0.623255 0.174960
0.583948 0.644373 0.190280
0.642725 0.664942 0.209018
0.698207 0.684718 0.230594
0.749966 0.703639 0.254002
0.794064 0.718318 0.284367
0.834287 0.731380 0.305882
0.868009 0.738003 0.303105
0.897612 0.742367 0.300145
0.924041 0.745266 0.299168
0.948119 0.747433 0.298863
0.970489 0.749233 0.298131
0.991485 0.750942 0.298314
1.000000 0.752895 0.302251
1.000000 0.756985 0.323857
0.000000 0.709407 0.335302
0.000000 0.710140 0.335576
0.000000 0.710628 0.334874
0.000000 0.710658 0.332708
0.000000 0.710353 0.329351
0.000000 0.709316 0.323949
0.000000 0.707973 0.317388
0.000000 0.706081 0.308598
0.000000 0.704128 0.299199
0.050385 0.701564 0.287755
0.163455 0.698451 0.272984
0.180667 0.692195 0.227481
0.255039 0.681849 0.218997
0.314061 0.670069 0.209232
0.364996 0.656580 0.198489
0.409522 0.641749 0.186831
0.449012 0.625696 0.174868
0.506676 0.639643 0.183993
0.566888 0.659663 0.200961
0.624262 0.679011 0.219730
0.678584 0.697475 0.240757
0.729335 0.715145 0.264103
0.776303 0.731930 0.288975
0.816129 0.744564 0.319402
0.853025 0.757046 0.347814
0.884306 0.763272 0.347173
0.912200 0.767727 0.346563
0.937407 0.771115 0.348241
0.960540 0.774014 0.350835
0.982147 0.776547 0.354162
1.000000 0.779019 0.357580
1.000000 0.781735 0.362341
0.000000 0.740505 0.360723
0.000000 0.741146 0.360723
0.000000 0.741726 0.360418
0.000000 0.741787 0.358556
0.000000 0.741360 0.355230
0.000000 0.740230 0.350652
0.000000 0.738674 0.344060
0.000000 0.736782 0.336584
0.000000 0.734585 0.328099
0.060761 0.732082 0.318151
0.173556 0.729000 0.306737
0.202152 0.724544 0.272251
0.249393 0.716487 0.247227
0.310735 0.706020 0.237491
0.363317 0.694148 0.226658
0.409735 0.681147 0.214969
0.451270 0.667048 0.202609
0.489693 0.653620 0.190707
0.549187 0.673091 0.208286
0.606287 0.691920 0.227817
0.660273 0.709987 0.250065
0.710994 0.727199 0.274083
0.758206 0.743618 0.300053
0.801602 0.759121 0.327214
0.834867 0.767208 0.351659
0.869169 0.779629 0.387335
0.898680 0.786007 0.389197
0.925261 0.790799 0.391394
0.949401 0.794797 0.395850
0.971801 0.798428 0.401465
0.992859 0.801999 0.408515
1.000000 0.805844 0.416815
0.000000 0.775235 0.391516
0.000000 0.775875 0.391424
0.000000 0.776181 0.391211
0.000000 0.775906 0.389441
0.000000 0.775021 0.386084
0.000000 0.773709 0.381659
0.000000 0.771786 0.375982
0.000000 0.769406 0.368688
0.000000 0.766690 0.360510
0.092683 0.763668 0.351415
0.187442 0.759976 0.340612
0.243015 0.755764 0.324193
0.250187 0.750118 0.279393
0.311040 0.740230 0.268833
0.363104 0.729152 0.257267
0.409674 0.716945 0.245090
0.451301 0.703731 0.231510
0.489235 0.689784 0.217960
0.530877 0.684627 0.212802
0.587366 0.702846 0.232883
0.641321 0.720455 0.255589
0.691920 0.737209 0.280003
0.738979 0.752926 0.305730
0.782315 0.767544 0.332586
0.821653 0.781003 0.359777
0.854307 0.790677 0.389075
0.885924 0.802884 0.431617
0.913481 0.809140 0.435431
0.938537 0.814237 0.440284
0.961669 0.818723 0.446845
0.983276 0.823331 0.456550
1.000000 0.828183 0.467903
0.000000 0.801694 0.416144
0.000000 0.802335 0.416327
0.000000 0.802640 0.416083
0.000000 0.802365 0.414527
0.000000 0.801480 0.411719
0.000000 0.800229 0.408026
0.000000 0.798489 0.402777
0.000000 0.796475 0.397009
0.000000 0.794064 0.390295
0.121462 0.791348 0.382483
0.204501 0.788113 0.373816
0.266697 0.784390 0.364294
0.283635 0.780179 0.330083
0.317571 0.773159 0.304204
0.369177 0.763699 0.293156
0.415290 0.753170 0.280980
0.457435 0.741695 0.267643
0.495949 0.729610 0.254063
0.531426 0.716976 0.239689
0.576013 0.719417 0.243809
0.629236 0.736110 0.267063
0.679438 0.751919 0.292058
0.726101 0.766812 0.318334
0.769039 0.780697 0.345586
0.808347 0.793545 0.373602
0.844083 0.805509 0.401526
0.873930 0.814328 0.430457
0.902678 0.825803 0.475380
0.928588 0.832883 0.486824
0.952453 0.838651 0.495125
0.974762 0.844266 0.505852
0.995758 0.850126 0.519890
0.000000 0.828580 0.442847
0.000000 0.828916 0.442817
0.000000 0.828916 0.442359
0.000000 0.828458 0.441138
0.000000 0.827451 0.438392
0.000000 0.826047 0.435035
0.000000 0.824277 0.430549
0.000000 0.822202 0.425544
0.000000 0.819852 0.419684
0.153445 0.817258 0.413336
0.226505 0.814206 0.406134
0.285161 0.810880 0.398505
0.326818 0.807034 0.383948
0.328985 0.802976 0.340917
0.377905 0.794736 0.329931
0.422644 0.785580 0.318090
0.463874 0.775662 0.305364
0.502037 0.765042 0.291752
0.537652 0.754177 0.277958
0.571069 0.742733 0.263218
0.618128 0.751339 0.277287
0.667750 0.766262 0.302831
0.713954 0.780270 0.329656
0.756710 0.793362 0.357305
0.795895 0.805539 0.385473
0.831540 0.816861 0.413855
0.864042 0.827573 0.442329
0.892210 0.836423 0.471077
0.917510 0.846220 0.516075
0.942077 0.854276 0.534325
0.965087 0.860960 0.545953
0.986816 0.867613 0.559716
0.000000 0.852659 0.468238
0.000000 0.852811 0.468238
0.000000 0.852750 0.467903
0.000000 0.852384 0.466987
0.000000 0.851621 0.464942
0.000000 0.850706 0.462531
0.000000 0.849760 0.459968
0.000000 0.848631 0.457252
0.116060 0.847379 0.454108
0.203983 0.845823 0.450660
0.268376 0.843931 0.447089
0.323705 0.841489 0.442725
0.373480 0.838437 0.437873
0.384924 0.835813 0.408026
0.408515 0.830900 0.383520
0.449317 0.823484 0.372442
0.487678 0.815305 0.360296
0.523766 0.806638 0.347234
0.558282 0.797604 0.333837
0.591119 0.788235 0.319921
0.622248 0.778408 0.305028
0.669947 0.791073 0.330480
0.714748 0.803494 0.358160
0.756130 0.815122 0.386481
0.794034 0.825956 0.415167
0.828519 0.836149 0.443793
0.859953 0.845762 0.472663
0.888487 0.854887 0.501213
0.914366 0.863462 0.528679
0.936339 0.871702 0.570733
0.959136 0.880430 0.594781
0.981079 0.887907 0.609186
0.000000 0.881376 0.502831
0.000000 0.881376 0.502617
0.000000 0.881193 0.502342
0.000000 0.880583 0.501183
0.000000 0.879667 0.499611
0.000000 0.878477 0.497505
0.000000 0.877104 0.495155
0.102327 0.875517 0.492470
0.189822 0.873655 0.489723
0.252995 0.871550 0.487007
0.307195 0.869108 0.483925
0.356573 0.866270 0.480507
0.402106 0.862943 0.476814
0.433112 0.859617 0.464729
