data/fiter_cube/37639453/1023436/file.cube
# Created by Adobe Lightroom plugin Export LUT (1.17.0)
# www.johnrellis.com/lightroom/exportlut.htm
# Preset: 油管牛人_02 云集
# Color profile: C:\Program Files (x86)\Common Files\Adobe\Color\Profiles\Recommended\AdobeRGB1998.icc
LUT_3D_SIZE 8
DOMAIN_MIN 0.000000 0.000000 0.000000
DOMAIN_MAX 0.903226 0.903226 0.903226
0.010803 0.007141 0.013214
0.071626 0.009216 0.015106
0.176761 0.000000 0.016083
0.370306 0.000000 0.000000
0.570855 0.000000 0.000000
0.745815 0.000000 0.000000
0.866606 0.000000 0.000000
0.962036 0.000000 0.000000
0.015686 0.057801 0.046509
0.064668 0.060731 0.042206
0.184543 0.060700 0.021729
0.378943 0.000000 0.000000
0.575891 0.000000 0.000000
0.741787 0.000000 0.000000
0.861387 0.000000 0.000000
0.958556 0.000000 0.000000
0.000000 0.144747 0.081727
0.024414 0.149386 0.064973
0.155245 0.167025 0.057923
0.431434 0.215793 0.000000
0.634546 0.181643 0.000000
0.776272 0.160342 0.000000
0.886717 0.184268 0.000000
0.971618 0.235386 0.000000
0.000000 0.313573 0.131533
0.000000 0.314488 0.116091
0.118685 0.300725 0.075502
0.352728 0.365515 0.061982
0.665766 0.451728 0.000000
0.825620 0.451637 0.000000
0.906828 0.427131 0.000000
0.978210 0.427497 0.000000
0.000000 0.502678 0.206760
0.000000 0.502220 0.194491
0.000000 0.498665 0.136843
0.278538 0.455940 0.106264
0.546715 0.541192 0.122377
0.778012 0.607630 0.108675
0.911803 0.619287 0.000000
0.983429 0.607507 0.000000
0.000000 0.668330 0.304540
0.000000 0.673884 0.300572
0.000000 0.667842 0.267247
0.257389 0.639643 0.189456
0.458930 0.601434 0.161349
0.698207 0.684718 0.230594
0.868009 0.738003 0.303105
0.970489 0.749233 0.298131
0.000000 0.801694 0.416144
0.000000 0.801480 0.411719
0.000000 0.794064 0.390295
0.283635 0.780179 0.330083
0.457435 0.741695 0.267643
0.629236 0.736110 0.267063
0.808347 0.793545 0.373602
0.928588 0.832883 0.486824
0.000000 0.903075 0.529870
0.000000 0.901427 0.527794
0.244419 0.895964 0.522271
0.436591 0.886442 0.517235
0.514061 0.865660 0.441352
0.641138 0.842069 0.399390
0.783627 0.856046 0.452613
0.900420 0.887755 0.562127
0.022736 0.014496 0.065705
0.070008 0.013245 0.068971
0.163943 0.000000 0.065980
0.343481 0.000000 0.055756
0.544671 0.000000 0.000000
0.717739 0.000000 0.000000
0.846738 0.000000 0.000000
0.949737 0.000000 0.000000
0.022522 0.055695 0.070619
0.067445 0.064424 0.075624
0.172793 0.046998 0.072786
0.359319 0.000000 0.055207
0.556756 0.000000 0.000000
0.721767 0.000000 0.000000
0.844602 0.000000 0.000000
0.946258 0.000000 0.000000
0.000000 0.149111 0.110292
0.040040 0.157198 0.105592
0.162112 0.172763 0.093690
0.420356 0.204898 0.038972
0.610864 0.159976 0.000000
0.754788 0.127169 0.000000
0.865660 0.143496 0.000000
0.958373 0.205936 0.000000
0.000000 0.314275 0.163180
0.000000 0.318090 0.154482
0.125521 0.312322 0.114717
0.343633 0.354467 0.114778
0.637201 0.425391 0.000000
0.797604 0.422644 0.000000
0.887358 0.403449 0.000000
0.966522 0.410040 0.000000
0.000000 0.506432 0.239384
0.000000 0.504814 0.228489
0.018067 0.500877 0.190921
0.280125 0.455818 0.140902
0.533471 0.527703 0.159243
0.766873 0.596368 0.155550
0.903807 0.611536 0.108370
0.976257 0.599023 0.104067
0.000000 0.664485 0.326696
0.000000 0.663813 0.318669
0.000000 0.658747 0.288945
0.257481 0.635950 0.215488
0.454627 0.595087 0.186069
0.695491 0.681727 0.257359
0.864408 0.735073 0.325933
0.966735 0.745846 0.317693
0.000000 0.794369 0.426276
0.000000 0.791653 0.419287
0.000000 0.785885 0.400061
0.303349 0.774777 0.358923
0.456092 0.739773 0.286076
0.623468 0.730220 0.279240
0.802152 0.787564 0.381323
0.923705 0.827481 0.487556
0.000000 0.899565 0.535698
0.000000 0.898619 0.534386
0.237156 0.893614 0.529259
0.432807 0.884581 0.524468
0.528923 0.870695 0.467689
0.645594 0.844999 0.419043
0.781613 0.854276 0.460029
0.897917 0.885405 0.565728
0.019562 0.023102 0.138857
0.075868 0.015351 0.152377
0.204257 0.000000 0.170108
0.393286 0.000000 0.158633
0.532433 0.000000 0.120699
0.693568 0.000000 0.107607
0.834226 0.000000 0.074067
0.945037 0.000000 0.000000
0.009705 0.070192 0.143191
0.066285 0.069215 0.157443
0.199741 0.036011 0.174990
0.378302 0.000000 0.158724
0.521752 0.000000 0.127871
0.698665 0.000000 0.111788
0.834562 0.000000 0.076600
0.944213 0.000000 0.000000
0.000000 0.146792 0.171542
0.030152 0.158328 0.178592
0.186313 0.194583 0.197238
0.384619 0.172396 0.180087
0.584222 0.122286 0.160616
0.735378 0.063996 0.134340
0.852598 0.082124 0.099397
0.950988 0.166384 0.027863
0.000000 0.348577 0.272313
0.000000 0.352819 0.267155
0.168063 0.361089 0.246494
0.377813 0.378973 0.234012
0.657771 0.436500 0.223728
0.783444 0.408453 0.192508
0.878965 0.394171 0.159304
0.961975 0.401556 0.125460
0.000000 0.530907 0.337957
0.000000 0.532189 0.332799
0.123873 0.531426 0.311406
0.324071 0.503410 0.254368
0.558862 0.547509 0.277501
0.774685 0.606531 0.291569
0.899840 0.616327 0.280613
0.969512 0.596887 0.252506
0.000000 0.680659 0.410193
0.000000 0.680323 0.406226
0.023377 0.674922 0.385595
0.303624 0.659602 0.324559
0.468299 0.602228 0.268711
0.697810 0.683314 0.344854
0.861997 0.737057 0.408362
0.964752 0.751766 0.410163
0.000000 0.804501 0.492134
0.000000 0.802335 0.487373
0.087190 0.795041 0.470253
0.349065 0.781949 0.440986
0.474769 0.751431 0.364691
0.626184 0.730312 0.340215
0.805631 0.791897 0.449592
0.925292 0.834440 0.548852
0.000000 0.902647 0.577569
0.000000 0.900725 0.573938
0.245212 0.895018 0.567773
0.444343 0.887236 0.565820
0.546960 0.873899 0.520836
0.652522 0.849577 0.471565
0.781888 0.854124 0.497353
0.898863 0.887510 0.601343
0.000000 0.025788 0.268040
0.041382 0.009308 0.285740
0.256870 0.000000 0.341375
0.454353 0.000000 0.342687
0.646418 0.000000 0.327642
0.733883 0.000000 0.267643
0.813169 0.000000 0.207187
0.919097 0.000000 0.181735
0.000000 0.075166 0.276280
0.004486 0.073854 0.290776
0.245670 0.000000 0.341985
0.452003 0.000000 0.347997
0.638392 0.000000 0.329168
0.724910 0.000000 0.266270
0.805051 0.000000 0.202457
0.920745 0.000000 0.185519
0.000000 0.162112 0.267948
0.000000 0.169924 0.274144
0.194278 0.194949 0.328649
0.438575 0.205753 0.363592
0.609796 0.145418 0.331914
0.705715 0.000000 0.267399
0.822049 0.000000 0.239322
0.935607 0.000000 0.215000
0.000000 0.307012 0.333562
0.000000 0.317723 0.339513
0.187655 0.352453 0.359533
0.415076 0.405921 0.392187
0.598505 0.378790 0.360632
0.736843 0.356756 0.328588
0.848905 0.347845 0.297337
0.946502 0.360571 0.269566
0.000000 0.572686 0.491859
0.000000 0.577142 0.494209
0.177066 0.573785 0.474952
0.404730 0.564660 0.440711
0.586877 0.571221 0.427405
0.782315 0.618158 0.445563
0.878874 0.599023 0.415137
0.956603 0.581689 0.376013
0.000000 0.712154 0.539818
0.000000 0.715358 0.540032
0.176730 0.707546 0.523064
0.395575 0.693874 0.492897
0.523949 0.655024 0.423957
0.710964 0.696529 0.472023
0.863066 0.746242 0.522728
0.960021 0.760952 0.529259
0.000000 0.817777 0.586969
0.000000 0.816892 0.584436
0.205295 0.811887 0.573846
0.402686 0.800656 0.552056
0.525292 0.779477 0.496864
0.633814 0.734432 0.431098
0.809140 0.796963 0.540185
0.925444 0.839384 0.615686
0.000000 0.909483 0.651423
0.119020 0.908446 0.649531
0.290532 0.903563 0.640711
0.453132 0.894133 0.629175
0.597681 0.878874 0.618585
0.666407 0.858366 0.553338
0.779507 0.852567 0.547417
0.899321 0.889647 0.648981
0.000000 0.017975 0.420172
0.000000 0.000000 0.435340
0.259281 0.000000 0.482918
0.515373 0.000000 0.540307
0.680812 0.000000 0.531914
0.809628 0.000000 0.511742
0.869657 0.000000 0.444160
0.939086 0.000000 0.385351
0.000000 0.082094 0.421424
0.000000 0.079225 0.436622
0.251347 0.000000 0.482429
0.514611 0.000000 0.544121
0.676875 0.000000 0.533989
0.804654 0.000000 0.513176
0.865934 0.000000 0.444495
0.936370 0.000000 0.382513
0.000000 0.181155 0.400549
0.000000 0.188235 0.419715
0.207462 0.199741 0.466590
0.496071 0.218418 0.546349
0.661585 0.233066 0.539605
0.782864 0.247013 0.511711
0.849577 0.134463 0.439307
0.924254 0.000000 0.363561
0.000000 0.299138 0.419623
0.000000 0.306004 0.423560
0.162173 0.330510 0.437964
0.413703 0.389441 0.514092
0.640558 0.434760 0.554192
0.750393 0.399725 0.509728
0.822324 0.290043 0.420294
0.914366 0.201358 0.350500
0.000000 0.478157 0.499794
0.000000 0.485206 0.503746
0.197482 0.506920 0.515801
0.416052 0.542229 0.537835
0.606500 0.588037 0.567315
0.730617 0.554345 0.526513
0.836332 0.525902 0.483742
0.933196 0.512627 0.444984
0.000000 0.709102 0.634028
0.000000 0.711482 0.635798
0.239139 0.716670 0.640101
0.446113 0.714199 0.630091
0.581659 0.694911 0.589349
0.716915 0.702785 0.586023
0.863890 0.749722 0.620478
0.944762 0.739467 0.596246
0.000000 0.831662 0.695735
0.070527 0.829618 0.692531
0.295140 0.823514 0.682460
0.453132 0.813718 0.664393
0.578210 0.797971 0.632380
0.660731 0.761044 0.564202
0.809354 0.798886 0.622614
0.925444 0.840360 0.674739
0.184573 0.911589 0.731106
0.234806 0.910155 0.729030
0.349004 0.905425 0.721523
0.480751 0.900542 0.711818
0.594507 0.888792 0.688594
0.683223 0.870878 0.645319
0.767666 0.845731 0.592981
0.896910 0.888853 0.694911
0.000000 0.003906 0.577203
0.031830 0.000000 0.587518
0.291661 0.000000 0.619196
0.537072 0.000000 0.674769
0.715694 0.000000 0.701320
0.813687 0.025879 0.668238
0.906157 0.294713 0.660060
0.960388 0.268284 0.612360
0.000000 0.091585 0.569696
0.000000 0.086122 0.579492
0.279698 0.016052 0.612604
0.524468 0.000000 0.667720
0.709346 0.000000 0.698116
0.808774 0.162081 0.667353
0.902892 0.329259 0.661494
0.957580 0.289647 0.611536
0.000000 0.193729 0.558587
0.000000 0.198215 0.568597
0.244938 0.210300 0.603174
0.495674 0.231144 0.658198
0.700832 0.276616 0.700740
0.800229 0.334356 0.674128
0.892699 0.420142 0.666957
0.950500 0.358434 0.612238
0.000000 0.302068 0.504936
0.000000 0.306584 0.509148
0.170260 0.338811 0.561181
0.432624 0.387549 0.634302
0.687312 0.474189 0.706325
0.789273 0.503349 0.689662
0.876951 0.525078 0.674678
0.939452 0.436133 0.607202
0.000000 0.455085 0.569451
0.000000 0.459510 0.571588
0.158724 0.473610 0.578241
0.354162 0.495857 0.589563
0.594751 0.565087 0.658839
0.764431 0.622217 0.694270
0.845945 0.586694 0.655665
0.916686 0.473915 0.563378
0.000000 0.623346 0.637934
0.000000 0.628199 0.641108
0.241276 0.639307 0.647272
0.427588 0.657282 0.657801
0.592981 0.682856 0.673060
0.736995 0.723751 0.701442
0.828061 0.692927 0.662867
0.919890 0.668269 0.623255
0.116365 0.813413 0.749508
0.202579 0.816037 0.752316
0.353918 0.821958 0.758999
0.515160 0.826383 0.765835
0.640833 0.825559 0.761410
0.720546 0.806577 0.721218
0.817441 0.808865 0.714778
0.931853 0.846464 0.747860
0.341588 0.918486 0.820188
0.368627 0.917052 0.818448
0.446540 0.912688 0.812345
0.542229 0.907164 0.802426
0.631556 0.899290 0.784146
0.712398 0.886931 0.752560
0.775326 0.859220 0.690791
0.897032 0.890806 0.752499
0.109804 0.042054 0.709133
0.188815 0.009369 0.715938
0.350408 0.000000 0.735103
0.543114 0.000000 0.766873
0.730922 0.074922 0.804807
0.837339 0.185977 0.807279
0.896635 0.327214 0.767269
0.963897 0.472602 0.764614
0.081605 0.111116 0.702724
0.172702 0.107118 0.709438
0.338750 0.085603 0.729030
0.532494 0.059998 0.760616
0.722194 0.162722 0.799344
0.831754 0.233494 0.803708
0.892088 0.349401 0.764920
0.960632 0.482002 0.762783
0.000000 0.214481 0.692714
0.099611 0.216800 0.698665
0.303014 0.224674 0.718441
0.507774 0.247501 0.751400
0.702815 0.316564 0.791379
0.823911 0.373144 0.803616
0.886931 0.448524 0.771481
0.957336 0.548486 0.773098
0.000000 0.330694 0.656794
0.000000 0.333776 0.664637
0.195529 0.337713 0.692378
0.448310 0.378637 0.730678
0.665278 0.452338 0.776303
0.812314 0.524681 0.805051
0.878843 0.565332 0.781888
0.951720 0.626429 0.785092
0.000000 0.442817 0.641840
0.000000 0.442756 0.640955
0.000000 0.443244 0.639429
0.314794 0.466590 0.672236
0.582391 0.536522 0.741024
0.792508 0.640284 0.802670
0.865232 0.659266 0.788266
0.939574 0.678370 0.783902
0.000000 0.598383 0.697658
0.000000 0.599786 0.697963
0.169589 0.604059 0.699062
0.342199 0.610407 0.700893
0.493874 0.618341 0.701900
0.715389 0.692927 0.764614
0.853025 0.751278 0.800565
0.921477 0.719509 0.769986
0.117891 0.742458 0.752895
0.183261 0.744228 0.753994
0.310918 0.748714 0.756313
0.450904 0.757076 0.760800
0.589563 0.769406 0.767117
0.716457 0.789639 0.779416
0.830625 0.823545 0.804807
0.906340 0.792233 0.765072
0.324834 0.885100 0.834104
0.353826 0.885985 0.835233
0.444129 0.890471 0.840970
0.552026 0.897063 0.849088
0.664057 0.903807 0.857877
0.760311 0.905882 0.857511
0.816342 0.891966 0.821530
0.899840 0.895354 0.818173
0.298253 0.140017 0.826535
0.335180 0.138888 0.829587
0.439033 0.135378 0.838010
0.580072 0.156344 0.853788
0.727199 0.233310 0.873960
0.850340 0.346685 0.891508
0.923735 0.403784 0.889982
0.958801 0.501122 0.848753
0.286259 0.175448 0.822812
0.324041 0.175784 0.825925
0.430640 0.176761 0.834867
0.573236 0.197604 0.850645
0.721920 0.267155 0.871244
0.847807 0.374640 0.890105
0.920745 0.424323 0.888426
0.956817 0.513481 0.848417
0.234012 0.260044 0.813565
0.278202 0.262333 0.816617
0.396674 0.269688 0.825650
0.551873 0.299138 0.843961
0.706477 0.361089 0.865232
0.842008 0.463661 0.888273
0.913756 0.497139 0.886900
0.952819 0.563104 0.851469
0.000000 0.356664 0.794827
0.103731 0.352178 0.799008
0.308110 0.366491 0.809964
0.497475 0.399512 0.829465
0.673518 0.461585 0.854032
0.821897 0.555291 0.880980
0.903990 0.591028 0.886687
0.947753 0.632959 0.857969
0.000000 0.462898 0.749935
0.000000 0.464454 0.755093
0.099367 0.467323 0.770565
0.367773 0.478950 0.799802
0.597772 0.531884 0.831907
0.781735 0.621149 0.866239
0.890715 0.678767 0.886290
0.941497 0.707301 0.866514
0.000000 0.601099 0.778653
0.000000 0.599390 0.777493
0.000000 0.593500 0.773983
0.234318 0.581262 0.768063
0.426886 0.580499 0.779843
0.702907 0.666041 0.839139
0.878111 0.766934 0.890043
0.936278 0.783536 0.879484
0.101564 0.736141 0.818662
0.152193 0.735866 0.818204
0.254887 0.734951 0.816922
0.371588 0.734401 0.815549
0.493629 0.733547 0.812863
0.610071 0.730434 0.807645
0.808042 0.793484 0.858030
0.927276 0.847990 0.889830
0.327214 0.847929 0.857176
0.347845 0.848203 0.857267
0.412634 0.849485 0.857816
0.506218 0.852415 0.859342
0.608850 0.857267 0.861723
0.711360 0.865141 0.865721
0.811215 0.879118 0.873899
0.911498 0.908415 0.896941
