data/fiter_cube/37639453/1023436/file.cube
# Created by Adobe Lightroom plugin Export LUT (1.17.0)
# www.johnrellis.com/lightroom/exportlut.htm
# Preset: 油管牛人_02 云集
# Color profile: C:\Program Files (x86)\Common Files\Adobe\Color\Profiles\Recommended\AdobeRGB1998.icc
LUT_3D_SIZE 5
DOMAIN_MIN 0.000000 0.000000 0.000000
DOMAIN_MAX 0.903226 0.903226 0.903226
0.010803 0.007141 0.013214
0.140444 0.000000 0.018219
0.475135 0.000000 0.000000
0.780728 0.000000 0.000000
0.962036 0.000000 0.000000
0.000336 0.114137 0.073274
0.123903 0.130617 0.057740
0.525444 0.125246 0.000000
0.801450 0.000000 0.000000
0.971527 0.184817 0.000000
0.000000 0.404181 0.164004
0.000000 0.406714 0.106935
0.459297 0.462165 0.086366
0.847532 0.544884 0.000000
0.980438 0.517998 0.000000
0.000000 0.709407 0.335302
0.000000 0.706081 0.308598
0.364996 0.656580 0.198489
0.729335 0.715145 0.264103
0.960540 0.774014 0.350835
0.000000 0.903075 0.529870
0.184207 0.897642 0.523491
0.463294 0.874449 0.473030
0.670954 0.835813 0.387884
0.900420 0.887755 0.562127
0.028992 0.021088 0.112795
0.155184 0.000000 0.135225
0.437232 0.000000 0.103212
0.735073 0.000000 0.058228
0.943816 0.000000 0.000000
0.000000 0.115419 0.138247
0.144106 0.150454 0.157900
0.478584 0.068788 0.129549
0.763394 0.000000 0.073335
0.951476 0.093751 0.000000
0.000000 0.430518 0.269169
0.055268 0.434974 0.247105
0.460212 0.457282 0.216709
0.830320 0.530877 0.191196
0.969879 0.507134 0.145266
0.000000 0.719783 0.415778
0.000000 0.716579 0.398077
0.392340 0.675654 0.296544
0.730648 0.716182 0.349126
0.956817 0.776486 0.428229
0.000000 0.904997 0.569238
0.204074 0.899504 0.563470
0.521538 0.880156 0.551934
0.679774 0.843046 0.444953
0.901244 0.889769 0.597955
0.000000 0.023133 0.344366
0.194278 0.000000 0.396155
0.577630 0.000000 0.439490
0.792233 0.000000 0.371466
0.922728 0.000000 0.259281
0.000000 0.148257 0.335393
0.154330 0.158450 0.388159
0.568444 0.148043 0.454108
0.771420 0.000000 0.370153
0.913512 0.000000 0.258152
0.000000 0.394568 0.419471
0.122042 0.421729 0.434333
0.518791 0.501976 0.484138
0.762509 0.454047 0.420264
0.940642 0.439979 0.359930
0.000000 0.752956 0.615900
0.146456 0.745327 0.601465
0.497627 0.723384 0.555077
0.740291 0.726925 0.543664
0.950256 0.783108 0.590021
0.069825 0.909178 0.688136
0.281407 0.905669 0.682246
0.527306 0.890867 0.658045
0.692195 0.855497 0.580072
0.896788 0.887816 0.668116
0.000000 0.004761 0.607691
0.246891 0.000000 0.637659
0.647608 0.000000 0.724239
0.836149 0.151675 0.693782
0.961944 0.335027 0.656947
0.000000 0.169558 0.595331
0.210056 0.175235 0.625269
0.619959 0.209567 0.711849
0.825834 0.318730 0.696559
0.953765 0.392218 0.656306
0.000000 0.366522 0.548638
0.000000 0.376623 0.552880
0.505547 0.462867 0.661036
0.797269 0.563622 0.708309
0.931975 0.509178 0.645930
0.000000 0.658137 0.671229
0.207828 0.664973 0.674067
0.512535 0.692500 0.689815
0.762356 0.750790 0.728939
0.914549 0.698390 0.657893
0.356420 0.917266 0.834257
0.452064 0.916106 0.836057
0.606958 0.907073 0.818845
0.741573 0.888518 0.771115
0.896849 0.891051 0.767178
0.298253 0.140017 0.826535
0.408362 0.135256 0.835203
0.654475 0.187106 0.863523
0.869261 0.360784 0.891142
0.958801 0.501122 0.848753
0.255436 0.238224 0.817350
0.377417 0.243992 0.826627
0.636866 0.298589 0.856535
0.862425 0.447547 0.888579
0.954345 0.549828 0.851011
0.000000 0.415290 0.775113
0.183047 0.416999 0.789456
0.545647 0.464088 0.829587
0.837003 0.611963 0.881254
0.944518 0.669093 0.861570
0.000000 0.638666 0.790616
0.000000 0.634699 0.787869
0.338476 0.617487 0.778561
0.728878 0.698329 0.842252
0.934081 0.799832 0.881895
0.327214 0.847929 0.857176
0.392859 0.849027 0.857633
0.557183 0.854551 0.860441
0.736599 0.867948 0.867185
0.911498 0.908415 0.896941
