data/fiter_cube/87192323/1023452/file.cube
# Created by Adobe Lightroom plugin Export LUT (1.17.0)
# www.johnrellis.com/lightroom/exportlut.htm
# Preset: 日系清新自然_03 云集
# Color profile: C:\Program Files (x86)\Common Files\Adobe\Color\Profiles\Recommended\AdobeRGB1998.icc
LUT_3D_SIZE 8
DOMAIN_MIN 0.000000 0.000000 0.000000
DOMAIN_MAX 0.903226 0.903226 0.903226
0.000000 0.000000 0.000000
0.229526 0.074403 0.000000
0.508141 0.163699 0.000000
0.760739 0.246555 0.000000
0.918364 0.306371 0.000000
1.000000 0.339574 0.000000
1.000000 0.349187 0.000000
1.000000 0.340185 0.000000
0.000000 0.228489 0.170657
0.175937 0.241611 0.000000
0.493996 0.329229 0.000000
0.748745 0.369848 0.000000
0.910582 0.390082 0.000000
1.000000 0.397406 0.000000
1.000000 0.392523 0.000000
1.000000 0.375097 0.000000
0.000000 0.452491 0.319158
0.000000 0.450843 0.261509
0.365484 0.478431 0.000000
0.726345 0.575036 0.000000
0.901274 0.571527 0.000000
1.000000 0.545556 0.000000
1.000000 0.516320 0.000000
1.000000 0.477180 0.000000
0.000000 0.651392 0.432837
0.000000 0.649561 0.407813
0.000000 0.647333 0.276738
0.552239 0.692103 0.000000
0.877562 0.738552 0.000000
0.999390 0.725978 0.000000
1.000000 0.670954 0.000000
1.000000 0.613428 0.000000
0.000000 0.801266 0.517784
0.000000 0.799741 0.505608
0.000000 0.798947 0.435859
0.082002 0.809506 0.237613
0.673701 0.826108 0.000000
0.962005 0.843351 0.000000
1.000000 0.813657 0.000000
1.000000 0.764187 0.000000
0.000000 0.911833 0.586419
0.000000 0.913146 0.582818
0.000000 0.912474 0.537682
0.000000 0.912749 0.446357
0.364508 0.922484 0.275212
0.763210 0.924529 0.032349
1.000000 0.929778 0.000000
1.000000 0.878996 0.000000
0.000000 1.000000 0.652247
0.000000 1.000000 0.650599
0.000000 1.000000 0.622675
0.132723 1.000000 0.560204
0.239994 1.000000 0.462165
0.512444 1.000000 0.311711
0.827970 0.997162 0.000000
1.000000 0.989776 0.000000
0.000000 1.000000 0.711147
0.068849 1.000000 0.712825
0.289830 1.000000 0.703639
0.334691 1.000000 0.661616
0.371374 1.000000 0.594598
0.415503 1.000000 0.495460
0.624842 1.000000 0.368048
0.867887 1.000000 0.094636
0.000000 0.000000 0.256657
0.206729 0.000000 0.246555
0.483497 0.000000 0.186831
0.741512 0.193027 0.160525
0.908476 0.281712 0.013794
1.000000 0.328923 0.000000
1.000000 0.354589 0.000000
1.000000 0.345190 0.000000
0.000000 0.209354 0.261570
0.191653 0.228244 0.246494
0.471321 0.266148 0.211856
0.734859 0.324041 0.156191
0.903593 0.361639 0.010864
1.000000 0.382666 0.000000
1.000000 0.393042 0.000000
1.000000 0.378790 0.000000
0.000000 0.451698 0.369116
0.078614 0.448310 0.349432
0.370672 0.469734 0.223667
0.717983 0.561181 0.143099
0.892576 0.550042 0.000000
1.000000 0.527855 0.000000
1.000000 0.506706 0.000000
1.000000 0.478157 0.000000
0.000000 0.646784 0.460883
0.000000 0.644862 0.447578
0.072694 0.644038 0.347631
0.549767 0.679194 0.202060
0.863157 0.724941 0.087922
0.987762 0.711055 0.000000
1.000000 0.659327 0.000000
1.000000 0.611536 0.000000
0.000000 0.798672 0.537926
0.000000 0.796292 0.528130
0.000000 0.793515 0.469123
0.148074 0.799710 0.298741
0.672938 0.817227 0.196567
0.955261 0.836912 0.008087
1.000000 0.810208 0.000000
1.000000 0.757412 0.000000
0.000000 0.907805 0.599542
0.000000 0.906554 0.594232
0.000000 0.904692 0.558373
0.142702 0.905913 0.473274
0.382452 0.916808 0.323400
0.767025 0.921508 0.202853
1.000000 0.926970 0.000000
1.000000 0.877134 0.000000
0.000000 1.000000 0.660395
0.000000 0.997955 0.657496
0.136629 0.994781 0.638148
0.222019 0.996155 0.578851
0.296056 0.997498 0.486854
0.525414 1.000000 0.350652
0.830350 0.993957 0.186221
1.000000 0.986969 0.000000
0.000000 1.000000 0.716670
0.000000 1.000000 0.718410
0.334112 1.000000 0.717800
0.372992 1.000000 0.676783
0.416938 1.000000 0.616388
0.455512 1.000000 0.525536
0.638300 1.000000 0.402045
0.871519 1.000000 0.194766
0.000000 0.000000 0.461158
0.178927 0.000000 0.456611
0.433204 0.000000 0.441138
0.687465 0.000000 0.419776
0.892210 0.000000 0.371862
1.000000 0.310094 0.376959
1.000000 0.340703 0.315099
1.000000 0.324926 0.180697
0.000000 0.232944 0.458625
0.141054 0.209689 0.454658
0.426795 0.202762 0.439033
0.688014 0.183474 0.417670
0.887388 0.279667 0.400610
0.997833 0.365515 0.375891
1.000000 0.380499 0.313878
1.000000 0.359747 0.181674
0.000000 0.409155 0.456947
0.108766 0.415839 0.452430
0.403235 0.438819 0.431647
0.689754 0.479957 0.424201
0.878691 0.508080 0.408087
0.991547 0.513237 0.376379
1.000000 0.498360 0.316777
1.000000 0.462257 0.189944
0.000000 0.655665 0.552544
0.000000 0.653681 0.542077
0.348760 0.643305 0.504021
0.577935 0.667536 0.413153
0.860777 0.718227 0.399573
0.980468 0.694697 0.377417
1.000000 0.652491 0.323064
1.000000 0.599268 0.205905
0.000000 0.800809 0.601587
0.000000 0.798856 0.594385
0.306188 0.790311 0.570947
0.379004 0.789303 0.474098
0.700282 0.813016 0.402228
0.952789 0.834134 0.372015
1.000000 0.812711 0.330419
1.000000 0.749142 0.225864
0.000000 0.908690 0.648188
0.000000 0.906981 0.644160
0.286351 0.899718 0.631067
0.376532 0.897978 0.566796
0.456977 0.906737 0.449744
0.787625 0.915312 0.394354
1.000000 0.921996 0.344121
1.000000 0.876951 0.262242
0.000000 1.000000 0.699702
0.000000 0.999054 0.697383
0.297093 0.991547 0.691981
0.405035 0.988647 0.650233
0.442817 0.989837 0.569970
0.582727 0.996521 0.466041
0.850584 0.990997 0.379461
1.000000 0.983062 0.300999
0.000000 1.000000 0.743374
0.000000 1.000000 0.743069
0.361303 1.000000 0.748989
0.487831 1.000000 0.732021
0.517967 1.000000 0.675624
0.553582 1.000000 0.604273
0.685634 1.000000 0.501976
0.889067 1.000000 0.380163
0.000000 0.000000 0.626947
0.147524 0.000000 0.625086
0.417426 0.000000 0.615229
0.646906 0.000000 0.598566
0.821317 0.000000 0.552270
0.973571 0.192813 0.518090
1.000000 0.337285 0.501427
1.000000 0.433661 0.496376
0.000000 0.209445 0.627344
0.107668 0.206943 0.624781
0.409735 0.194919 0.615076
0.644923 0.160128 0.598322
0.822660 0.182650 0.554345
0.971588 0.293736 0.526055
1.000000 0.404150 0.517937
1.000000 0.451331 0.493141
0.000000 0.434913 0.620661
0.000000 0.437659 0.618280
0.369879 0.412177 0.610742
0.633265 0.404974 0.594446
0.827207 0.439429 0.569848
0.969390 0.509606 0.568597
1.000000 0.567895 0.568414
1.000000 0.526848 0.495583
0.000000 0.582635 0.620111
0.000000 0.586481 0.617578
0.359686 0.601465 0.607996
0.610407 0.626856 0.586908
0.828580 0.673732 0.603662
0.957519 0.692409 0.599756
1.000000 0.680629 0.566918
1.000000 0.635798 0.498756
0.000000 0.792660 0.702113
0.000000 0.798734 0.701625
0.295140 0.795254 0.679469
0.579828 0.777737 0.643061
0.740902 0.797299 0.584588
0.944457 0.836027 0.594720
1.000000 0.817105 0.571588
1.000000 0.763119 0.506371
0.000000 0.913481 0.735225
0.000000 0.913481 0.732021
0.294285 0.904723 0.715602
0.556939 0.890562 0.696101
0.600855 0.890654 0.613947
0.827176 0.908019 0.576287
1.000000 0.919097 0.557916
1.000000 0.886748 0.517998
0.000000 1.000000 0.766690
0.000000 1.000000 0.764187
0.295750 0.994263 0.756893
0.545281 0.982513 0.749233
0.601801 0.981201 0.688685
0.663539 0.987366 0.600336
0.884977 0.984771 0.558770
1.000000 0.976532 0.520409
0.000000 1.000000 0.796475
0.000000 1.000000 0.795773
0.327886 1.000000 0.793820
0.565515 1.000000 0.799191
0.637873 1.000000 0.763699
0.662837 1.000000 0.699489
0.748959 1.000000 0.621729
0.918914 1.000000 0.554406
0.000000 0.075990 0.759609
0.091432 0.072724 0.758175
0.374365 0.046082 0.751888
0.598047 0.000000 0.741695
0.801999 0.000000 0.725460
0.926452 0.087984 0.661067
1.000000 0.271794 0.622858
1.000000 0.389532 0.594446
0.000000 0.214267 0.758633
0.060670 0.213565 0.757778
0.369543 0.206485 0.751797
0.594812 0.191104 0.741024
0.799619 0.160220 0.724666
0.924132 0.219333 0.662318
1.000000 0.341863 0.629786
1.000000 0.435401 0.604425
0.000000 0.429114 0.753658
0.099062 0.425605 0.752529
0.350011 0.401862 0.747768
0.585382 0.400488 0.737758
0.789792 0.394598 0.721004
0.916350 0.424842 0.670039
1.000000 0.503502 0.654688
1.000000 0.556451 0.637385
0.000000 0.576135 0.749569
0.000000 0.579919 0.747738
0.352422 0.596643 0.741634
0.581018 0.603235 0.731655
0.774990 0.603174 0.717067
0.917021 0.633875 0.700771
1.000000 0.679744 0.703304
1.000000 0.709133 0.698451
0.000000 0.704189 0.747341
0.005493 0.707607 0.745998
0.362737 0.719753 0.739895
0.582788 0.740169 0.728817
0.755825 0.759213 0.710567
0.922301 0.806119 0.740810
1.000000 0.814481 0.734371
1.000000 0.789517 0.691951
0.000000 0.869413 0.807584
0.000000 0.872190 0.807828
0.292088 0.881743 0.807675
0.535149 0.888853 0.793149
0.726925 0.873594 0.756252
0.855772 0.892699 0.713985
1.000000 0.918608 0.731014
1.000000 0.894011 0.701839
0.000000 1.000000 0.864866
0.000000 1.000000 0.860533
0.258976 0.993927 0.846921
0.520714 0.983185 0.827207
0.711116 0.969818 0.807431
0.747433 0.970642 0.733242
0.916289 0.976257 0.703822
1.000000 0.969696 0.686702
0.000000 1.000000 0.872007
0.000000 1.000000 0.869780
0.287388 1.000000 0.862791
0.524712 1.000000 0.854978
0.717189 1.000000 0.852781
0.764340 1.000000 0.804746
0.807675 1.000000 0.735988
0.948089 1.000000 0.699336
0.000000 0.127993 0.875425
0.000000 0.129610 0.874357
0.327367 0.128817 0.869657
0.538262 0.121065 0.863310
0.736172 0.103365 0.853849
0.915312 0.081575 0.835477
1.000000 0.202487 0.763943
1.000000 0.325841 0.708217
0.000000 0.226963 0.872160
0.000000 0.226688 0.871031
0.326146 0.224796 0.867216
0.536339 0.220340 0.860777
0.733944 0.214755 0.851225
0.912200 0.209018 0.833738
1.000000 0.274205 0.764889
1.000000 0.373419 0.712520
0.000000 0.413855 0.870054
0.000000 0.400214 0.869352
0.331670 0.400122 0.865537
0.538750 0.401343 0.859129
0.733883 0.406073 0.849271
0.905821 0.407874 0.832731
1.000000 0.437110 0.772244
1.000000 0.503288 0.729976
0.000000 0.584741 0.865568
0.146914 0.586114 0.864012
0.383642 0.593774 0.860136
0.561028 0.592615 0.856413
0.738949 0.597406 0.848173
0.897612 0.595666 0.833982
0.998474 0.603418 0.786526
1.000000 0.655024 0.762112
0.000000 0.688502 0.861540
0.156466 0.692805 0.860533
0.376287 0.709133 0.856535
0.568109 0.735592 0.849790
0.732021 0.742641 0.841306
0.882506 0.740230 0.829129
0.991333 0.763210 0.812894
1.000000 0.797055 0.808957
0.000000 0.798703 0.859586
0.186374 0.802274 0.859281
0.387030 0.812711 0.855772
0.570001 0.829007 0.849424
0.728389 0.847318 0.839933
0.868315 0.865782 0.826444
0.988159 0.906615 0.861845
1.000000 0.902037 0.846494
0.000000 0.942412 0.914763
0.000000 0.944762 0.915373
0.333135 0.951476 0.915953
0.524285 0.962768 0.917540
0.692805 0.974365 0.907683
0.850706 0.960266 0.873838
0.944121 0.968536 0.837064
1.000000 0.970459 0.848325
0.000000 1.000000 0.978546
0.000000 1.000000 0.974853
0.240513 1.000000 0.962463
0.493690 1.000000 0.943328
0.687526 1.000000 0.922271
0.847288 1.000000 0.911925
0.875578 1.000000 0.858976
0.974060 1.000000 0.835172
0.000000 0.167269 0.973968
0.000000 0.170138 0.974701
0.275425 0.172854 0.972076
0.479347 0.173678 0.968048
0.666651 0.174014 0.961822
0.842710 0.174960 0.953491
1.000000 0.185214 0.933318
1.000000 0.270115 0.844327
0.000000 0.237949 0.967895
0.000000 0.239506 0.968505
0.277073 0.239780 0.966369
0.477790 0.239292 0.962005
0.662867 0.238468 0.955291
0.837064 0.236301 0.946075
0.993805 0.238895 0.925841
1.000000 0.294499 0.840574
0.000000 0.395422 0.968872
0.000000 0.395514 0.968078
0.301427 0.395453 0.964935
0.489448 0.397070 0.960510
0.667536 0.398993 0.953033
0.837613 0.404181 0.944549
0.990723 0.410437 0.928191
1.000000 0.442267 0.850156
0.174685 0.573693 0.966247
0.250645 0.576867 0.964630
0.400031 0.584833 0.960845
0.528923 0.575128 0.958251
0.686336 0.576928 0.951904
0.843442 0.581659 0.945251
0.985565 0.581109 0.932189
1.000000 0.592889 0.862760
0.117372 0.681880 0.958831
0.209384 0.685817 0.956970
0.376135 0.701564 0.952758
0.551812 0.718074 0.948852
0.693721 0.715846 0.944274
0.837400 0.716396 0.937255
0.971252 0.713893 0.926116
1.000000 0.725307 0.875059
0.135225 0.773495 0.956085
0.222263 0.777157 0.955383
0.383856 0.789578 0.952972
0.548333 0.810147 0.949798
0.701991 0.835477 0.944610
0.842832 0.849088 0.939605
0.963500 0.849516 0.931365
1.000000 0.869169 0.906889
0.187198 0.872892 0.958740
0.257389 0.875944 0.958862
0.402747 0.884398 0.956970
0.558953 0.898375 0.954101
0.708125 0.915007 0.948089
0.843748 0.933623 0.940581
0.952850 0.950378 0.931640
1.000000 0.970397 0.951446
0.000000 0.986816 0.992767
0.169100 0.988342 0.992767
0.363500 0.994781 0.994598
0.532067 1.000000 0.995178
0.688655 1.000000 0.995392
0.829038 1.000000 0.987701
0.947875 1.000000 0.967315
0.991882 1.000000 0.943114
0.000000 0.191196 1.000000
0.000000 0.192691 1.000000
0.209812 0.192660 1.000000
0.412696 0.194064 1.000000
0.587549 0.194217 1.000000
0.754879 0.194003 1.000000
0.912474 0.193668 1.000000
1.000000 0.201907 1.000000
0.000000 0.245853 1.000000
0.000000 0.246921 1.000000
0.216556 0.246464 1.000000
0.414466 0.246525 1.000000
0.587762 0.246555 1.000000
0.753933 0.246464 1.000000
0.910491 0.243778 1.000000
1.000000 0.247196 0.998474
0.000000 0.376928 1.000000
0.000000 0.377478 1.000000
0.246891 0.375738 1.000000
0.430823 0.381048 1.000000
0.595941 0.382147 1.000000
0.756130 0.383032 1.000000
0.908751 0.384619 1.000000
1.000000 0.384710 0.997223
0.231937 0.554345 1.000000
0.272221 0.555200 1.000000
0.330938 0.536156 1.000000
0.473365 0.538811 1.000000
0.619654 0.541192 1.000000
0.765896 0.542229 1.000000
0.908629 0.541863 1.000000
1.000000 0.538079 0.997223
0.156802 0.659419 1.000000
0.231785 0.662898 1.000000
0.374823 0.671260 1.000000
0.531823 0.687160 1.000000
0.642145 0.678401 1.000000
0.773007 0.677760 1.000000
0.907073 0.680659 1.000000
1.000000 0.684688 0.996765
0.133761 0.742245 1.000000
0.204196 0.745174 1.000000
0.345769 0.756161 1.000000
0.498299 0.775998 1.000000
0.657862 0.799313 1.000000
0.794491 0.811246 1.000000
0.914519 0.822385 1.000000
1.000000 0.832853 0.999390
0.177554 0.827176 1.000000
0.234623 0.829648 1.000000
0.364569 0.838407 1.000000
0.516350 0.855131 1.000000
0.670222 0.879637 1.000000
0.814359 0.911223 1.000000
0.932158 0.936461 1.000000
1.000000 0.938415 0.998230
0.259068 0.918853 1.000000
0.299748 0.920226 1.000000
0.411994 0.926452 1.000000
0.556634 0.938872 1.000000
0.702846 0.955047 1.000000
0.835111 0.972808 1.000000
0.940948 0.989380 1.000000
0.999237 0.999145 0.998810
