data/fiter_cube/87192323/1023452/file.cube
# Created by Adobe Lightroom plugin Export LUT (1.17.0)
# www.johnrellis.com/lightroom/exportlut.htm
# Preset: 日系清新自然_03 云集
# Color profile: C:\Program Files (x86)\Common Files\Adobe\Color\Profiles\Recommended\AdobeRGB1998.icc
LUT_3D_SIZE 5
DOMAIN_MIN 0.000000 0.000000 0.000000
DOMAIN_MAX 0.903226 0.903226 0.903226
0.000000 0.000000 0.000000
0.438636 0.141695 0.000000
0.850095 0.280797 0.000000
1.000000 0.344091 0.000000
1.000000 0.340185 0.000000
0.000000 0.401434 0.287541
0.318608 0.422736 0.000000
0.832578 0.531518 0.000000
1.000000 0.501579 0.000000
1.000000 0.447486 0.000000
0.000000 0.732753 0.478279
0.000000 0.729915 0.401343
0.621027 0.768215 0.000000
1.000000 0.779232 0.000000
1.000000 0.687617 0.000000
0.000000 0.938811 0.604639
0.000000 0.937377 0.574426
0.110445 0.938415 0.416388
0.782132 0.945434 0.044068
1.000000 0.906188 0.000000
0.000000 1.000000 0.711147
0.280766 1.000000 0.711208
0.344335 1.000000 0.628199
0.441260 1.000000 0.451728
0.867887 1.000000 0.094636
0.000000 0.000000 0.414374
0.377020 0.000000 0.398199
0.819486 0.000000 0.333318
1.000000 0.314977 0.291966
1.000000 0.324224 0.000000
0.000000 0.361761 0.413642
0.350256 0.389014 0.390906
0.806455 0.452552 0.360052
1.000000 0.469764 0.293309
1.000000 0.432258 0.000000
0.000000 0.732479 0.553552
0.237766 0.723476 0.522118
0.634638 0.749966 0.354955
0.996490 0.773342 0.299260
1.000000 0.674311 0.038880
0.000000 0.937407 0.650111
0.200504 0.931792 0.639155
0.361395 0.930358 0.518029
0.800565 0.940307 0.346410
1.000000 0.903593 0.190585
0.000000 1.000000 0.736080
0.311986 1.000000 0.741634
0.474067 1.000000 0.689296
0.524254 1.000000 0.535119
0.884092 1.000000 0.341558
0.000000 0.028138 0.697566
0.337011 0.000000 0.690089
0.731441 0.000000 0.665187
0.981323 0.196567 0.581384
1.000000 0.412818 0.545708
0.000000 0.388037 0.692592
0.300237 0.355077 0.687312
0.723903 0.338140 0.663447
0.976226 0.437049 0.605524
1.000000 0.572076 0.606470
0.000000 0.648310 0.687037
0.286900 0.660334 0.679896
0.689479 0.698360 0.651362
0.965148 0.760372 0.677272
1.000000 0.721157 0.605371
0.000000 0.938262 0.796292
0.171878 0.930419 0.778775
0.645747 0.908324 0.740444
0.861143 0.924834 0.647578
1.000000 0.912383 0.613062
0.000000 1.000000 0.830198
0.238895 1.000000 0.826261
0.644282 1.000000 0.824979
0.718166 1.000000 0.732601
0.933104 1.000000 0.625360
0.000000 0.137789 0.899870
0.256565 0.140536 0.896941
0.622095 0.130648 0.886320
0.938506 0.114382 0.860563
1.000000 0.298497 0.739254
0.000000 0.353643 0.896513
0.263554 0.353307 0.893248
0.621393 0.354925 0.882567
0.931121 0.360266 0.857847
1.000000 0.442023 0.750759
0.000000 0.633722 0.887175
0.319463 0.651331 0.882841
0.639490 0.662348 0.871916
0.907561 0.654780 0.848661
1.000000 0.704616 0.795590
0.096376 0.821103 0.888090
0.346044 0.829831 0.884184
0.646296 0.857206 0.874113
0.892149 0.889189 0.854246
1.000000 0.922332 0.876677
0.000000 1.000000 0.990539
0.167453 1.000000 0.990387
0.591272 1.000000 0.958343
0.877134 1.000000 0.927581
0.979309 1.000000 0.865202
0.000000 0.191196 1.000000
0.139162 0.192599 1.000000
0.501579 0.194400 1.000000
0.796170 0.195712 1.000000
1.000000 0.201907 1.000000
0.000000 0.342046 1.000000
0.184115 0.342473 1.000000
0.510277 0.345129 1.000000
0.795651 0.347906 1.000000
1.000000 0.352819 0.998291
0.195438 0.603937 1.000000
0.353002 0.615198 1.000000
0.559930 0.609186 1.000000
0.801236 0.605798 1.000000
1.000000 0.609705 0.996490
0.164553 0.765133 1.000000
0.323430 0.775387 1.000000
0.585168 0.811063 1.000000
0.830564 0.843534 1.000000
1.000000 0.863890 0.999542
0.259068 0.918853 1.000000
0.379187 0.924285 1.000000
0.630915 0.946715 1.000000
0.864805 0.977295 1.000000
0.999237 0.999145 0.998810
