data/fiter_cube/87192323/1023452/file.cube
# Created by Adobe Lightroom plugin Export LUT (1.17.0)
# www.johnrellis.com/lightroom/exportlut.htm
# Preset: 日系清新自然_03 云集
# Color profile: C:\Program Files (x86)\Common Files\Adobe\Color\Profiles\Recommended\AdobeRGB1998.icc
LUT_3D_SIZE 32
DOMAIN_MIN 0.0 0.0 0.0
DOMAIN_MAX 1.0 1.0 1.0
0.000000 0.000000 0.000000
0.065614 0.005615 0.000000
0.093782 0.014557 0.000000
0.153170 0.043061 0.000000
0.229526 0.074403 0.000000
0.301671 0.096956 0.000000
0.370611 0.119142 0.000000
0.438636 0.141695 0.000000
0.508141 0.163699 0.000000
0.578790 0.185733 0.000000
0.645777 0.206851 0.000000
0.706661 0.227176 0.000000
0.760739 0.246555 0.000000
0.808438 0.264347 0.000000
0.850095 0.280797 0.000000
0.886473 0.294560 0.000000
0.918364 0.306371 0.000000
0.946441 0.316716 0.000000
0.971344 0.325658 0.000000
0.995666 0.333318 0.000000
1.000000 0.339574 0.000000
1.000000 0.344091 0.000000
1.000000 0.347082 0.000000
1.000000 0.348913 0.000000
1.000000 0.349187 0.000000
1.000000 0.348516 0.000000
1.000000 0.346807 0.000000
1.000000 0.344030 0.000000
1.000000 0.340185 0.000000
1.000000 0.334844 0.000000
1.000000 0.327489 0.000000
1.000000 0.339147 0.000000
0.000000 0.069917 0.045838
0.044709 0.072328 0.000000
0.091279 0.080842 0.000000
0.151369 0.099031 0.000000
0.227512 0.119844 0.000000
0.299413 0.137209 0.000000
0.368505 0.153292 0.000000
0.436439 0.171206 0.000000
0.505577 0.189029 0.000000
0.576349 0.208499 0.000000
0.643183 0.227298 0.000000
0.704097 0.245029 0.000000
0.758328 0.261723 0.000000
0.806119 0.278233 0.000000
0.847959 0.292485 0.000000
0.884428 0.305364 0.000000
0.916442 0.316075 0.000000
0.944701 0.325048 0.000000
0.969757 0.333196 0.000000
0.994171 0.340093 0.000000
1.000000 0.345617 0.000000
1.000000 0.349615 0.000000
1.000000 0.352178 0.000000
1.000000 0.353399 0.000000
1.000000 0.353613 0.000000
1.000000 0.352728 0.000000
1.000000 0.350561 0.000000
1.000000 0.347845 0.000000
1.000000 0.343816 0.000000
1.000000 0.338384 0.000000
1.000000 0.330999 0.000000
1.000000 0.340398 0.000000
0.000000 0.100160 0.073579
0.000000 0.100923 0.036378
0.074891 0.104738 0.000000
0.148684 0.132815 0.000000
0.225010 0.159365 0.000000
0.297246 0.175143 0.000000
0.365881 0.188540 0.000000
0.433753 0.203067 0.000000
0.503014 0.218418 0.000000
0.573632 0.235294 0.000000
0.640742 0.251438 0.000000
0.701839 0.267002 0.000000
0.756344 0.281682 0.000000
0.804257 0.296117 0.000000
0.846220 0.308568 0.000000
0.882994 0.318944 0.000000
0.915099 0.328649 0.000000
0.943420 0.336584 0.000000
0.968658 0.343328 0.000000
0.993194 0.349279 0.000000
1.000000 0.354009 0.000000
1.000000 0.357214 0.000000
1.000000 0.359350 0.000000
1.000000 0.360021 0.000000
1.000000 0.359777 0.000000
1.000000 0.358251 0.000000
1.000000 0.356115 0.000000
1.000000 0.353033 0.000000
1.000000 0.348638 0.000000
1.000000 0.343267 0.000000
1.000000 0.335454 0.000000
1.000000 0.343603 0.000000
0.000000 0.160098 0.119631
0.000000 0.160678 0.101472
0.000000 0.161288 0.064424
0.123537 0.171023 0.000000
0.218753 0.204807 0.000000
0.293095 0.234073 0.000000
0.362127 0.245212 0.000000
0.430365 0.256657 0.000000
0.499611 0.268894 0.000000
0.570428 0.282750 0.000000
0.637476 0.296056 0.000000
0.698878 0.308537 0.000000
0.753292 0.320317 0.000000
0.801480 0.330907 0.000000
0.843717 0.339422 0.000000
0.880674 0.347570 0.000000
0.913024 0.354070 0.000000
0.941466 0.359655 0.000000
0.966827 0.364385 0.000000
0.991485 0.368566 0.000000
1.000000 0.371618 0.000000
1.000000 0.373449 0.000000
1.000000 0.374365 0.000000
1.000000 0.374090 0.000000
1.000000 0.372900 0.000000
1.000000 0.370764 0.000000
1.000000 0.367651 0.000000
1.000000 0.364172 0.000000
1.000000 0.359228 0.000000
1.000000 0.353338 0.000000
1.000000 0.345373 0.000000
1.000000 0.352148 0.000000
0.000000 0.228489 0.170657
0.000000 0.228519 0.157198
0.000000 0.228519 0.133272
0.000000 0.231266 0.024537
0.175937 0.241611 0.000000
0.279911 0.271214 0.000000
0.353063 0.298131 0.000000
0.424353 0.318730 0.000000
0.493996 0.329229 0.000000
0.564813 0.341466 0.000000
0.632227 0.352178 0.000000
0.693812 0.361700 0.000000
0.748745 0.369848 0.000000
0.797421 0.376928 0.000000
0.840177 0.382147 0.000000
0.877684 0.386725 0.000000
0.910582 0.390082 0.000000
0.939391 0.392737 0.000000
0.965270 0.394659 0.000000
0.990082 0.396521 0.000000
1.000000 0.397406 0.000000
1.000000 0.397467 0.000000
1.000000 0.396643 0.000000
1.000000 0.395148 0.000000
1.000000 0.392523 0.000000
1.000000 0.389319 0.000000
1.000000 0.385504 0.000000
1.000000 0.380621 0.000000
1.000000 0.375097 0.000000
1.000000 0.368597 0.000000
1.000000 0.360266 0.000000
1.000000 0.365362 0.000000
0.000000 0.289860 0.214176
0.000000 0.290288 0.204898
0.000000 0.289769 0.187625
0.000000 0.289006 0.143099
0.067597 0.294743 0.000000
0.224033 0.304906 0.000000
0.337469 0.332982 0.000000
0.410864 0.358587 0.000000
0.486488 0.385687 0.000000
0.559686 0.401556 0.000000
0.627466 0.411780 0.000000
0.689448 0.419226 0.000000
0.744625 0.424842 0.000000
0.793851 0.428748 0.000000
0.837034 0.431342 0.000000
0.874846 0.432471 0.000000
0.908049 0.432776 0.000000
0.937194 0.432349 0.000000
0.963897 0.431983 0.000000
0.988739 0.431037 0.000000
1.000000 0.429664 0.000000
1.000000 0.427527 0.000000
1.000000 0.427863 0.000000
1.000000 0.424353 0.000000
1.000000 0.419898 0.000000
1.000000 0.414984 0.000000
1.000000 0.409491 0.000000
1.000000 0.403235 0.000000
1.000000 0.396368 0.000000
1.000000 0.388647 0.000000
1.000000 0.379767 0.000000
1.000000 0.393561 0.000000
0.000000 0.349401 0.254093
0.000000 0.349432 0.247349
0.000000 0.349126 0.234531
0.000000 0.348363 0.203983
0.000000 0.347295 0.141054
0.129244 0.356725 0.000000
0.273381 0.367071 0.000000
0.397498 0.395636 0.000000
0.474220 0.421820 0.000000
0.553552 0.449928 0.000000
0.628351 0.474159 0.000000
0.690578 0.479072 0.000000
0.745785 0.481239 0.000000
0.794705 0.481666 0.000000
0.837583 0.481086 0.000000
0.874968 0.479530 0.000000
0.907897 0.477516 0.000000
0.937346 0.475532 0.000000
0.964904 0.473793 0.000000
0.990082 0.471290 0.000000
1.000000 0.467903 0.000000
1.000000 0.463783 0.000000
1.000000 0.459449 0.000000
1.000000 0.454322 0.000000
1.000000 0.448707 0.000000
1.000000 0.442390 0.000000
1.000000 0.435676 0.000000
1.000000 0.428321 0.000000
1.000000 0.420325 0.000000
1.000000 0.411749 0.000000
1.000000 0.402106 0.000000
1.000000 0.412818 0.000000
0.000000 0.401434 0.287541
0.000000 0.401495 0.282994
0.000000 0.401129 0.273777
0.000000 0.400336 0.250614
0.000000 0.399359 0.209323
0.000000 0.400305 0.116732
0.181674 0.411810 0.000000
0.318608 0.422736 0.000000
0.446876 0.447303 0.000000
0.532311 0.480049 0.000000
0.609796 0.505821 0.000000
0.680049 0.527001 0.000000
0.739712 0.536889 0.000000
0.789212 0.534905 0.000000
0.832578 0.531518 0.000000
0.870481 0.527398 0.000000
0.903868 0.522759 0.000000
0.934691 0.518425 0.000000
0.961975 0.514244 0.000000
0.987030 0.510063 0.000000
1.000000 0.506493 0.000000
1.000000 0.501579 0.000000
1.000000 0.495247 0.000000
1.000000 0.488350 0.000000
1.000000 0.481025 0.000000
1.000000 0.473426 0.000000
1.000000 0.465217 0.000000
1.000000 0.456580 0.000000
1.000000 0.447486 0.000000
1.000000 0.437720 0.000000
1.000000 0.427436 0.000000
1.000000 0.435554 0.000000
0.000000 0.452491 0.319158
0.000000 0.452491 0.315587
0.000000 0.452308 0.309514
0.000000 0.451575 0.291814
0.000000 0.450843 0.261509
0.000000 0.449622 0.212924
0.000000 0.455604 0.090578
0.230900 0.466957 0.000000
0.365484 0.478431 0.000000
0.496193 0.499916 0.000000
0.589044 0.536706 0.000000
0.661891 0.558251 0.000000
0.726345 0.575036 0.000000
0.782742 0.587488 0.000000
0.827726 0.585168 0.000000
0.866117 0.578302 0.000000
0.901274 0.571527 0.000000
0.931853 0.564721 0.000000
0.959045 0.557641 0.000000
0.984131 0.551354 0.000000
1.000000 0.545556 0.000000
1.000000 0.539849 0.000000
1.000000 0.533745 0.000000
1.000000 0.525200 0.000000
1.000000 0.516320 0.000000
1.000000 0.506981 0.000000
1.000000 0.497444 0.000000
1.000000 0.487465 0.000000
1.000000 0.477180 0.000000
1.000000 0.466377 0.000000
1.000000 0.455024 0.000000
1.000000 0.461006 0.000000
0.000000 0.503197 0.349187
0.000000 0.503166 0.346593
0.000000 0.502953 0.342351
0.000000 0.502312 0.327977
0.000000 0.501579 0.304845
0.000000 0.500572 0.269200
0.000000 0.499428 0.212650
0.078187 0.509880 0.102052
0.280674 0.522210 0.000000
0.412970 0.534478 0.000000
0.541924 0.551904 0.000000
0.640681 0.588403 0.000000
0.708003 0.605890 0.000000
0.767056 0.618433 0.000000
0.818631 0.627619 0.000000
0.863279 0.632593 0.000000
0.898405 0.623346 0.000000
0.929137 0.613489 0.000000
0.956481 0.604181 0.000000
0.981598 0.595209 0.000000
1.000000 0.587121 0.000000
1.000000 0.579339 0.000000
1.000000 0.571710 0.000000
1.000000 0.563897 0.000000
1.000000 0.553368 0.000000
1.000000 0.542626 0.000000
1.000000 0.531609 0.000000
1.000000 0.520439 0.000000
1.000000 0.508873 0.000000
1.000000 0.497017 0.000000
1.000000 0.484688 0.000000
1.000000 0.489265 0.000000
0.000000 0.553094 0.378088
0.000000 0.553155 0.375860
0.000000 0.552941 0.372564
0.000000 0.552575 0.361364
0.000000 0.551873 0.342290
0.000000 0.551324 0.314549
0.000000 0.550530 0.273960
0.000000 0.550256 0.208804
0.162844 0.564843 0.113375
0.329564 0.577020 0.005676
0.459693 0.588006 0.000000
0.583978 0.600427 0.000000
0.688228 0.636439 0.000000
0.751125 0.650660 0.000000
0.805478 0.660029 0.000000
0.852079 0.665705 0.000000
0.892058 0.668605 0.000000
0.924834 0.663813 0.000000
0.952422 0.651881 0.000000
0.977783 0.640711 0.000000
1.000000 0.630274 0.000000
1.000000 0.620447 0.000000
1.000000 0.611109 0.000000
1.000000 0.601892 0.000000
1.000000 0.592340 0.000000
1.000000 0.580011 0.000000
1.000000 0.567529 0.000000
1.000000 0.555047 0.000000
1.000000 0.542351 0.000000
1.000000 0.529290 0.000000
1.000000 0.515923 0.000000
1.000000 0.518578 0.000000
0.000000 0.601892 0.405463
0.000000 0.601862 0.403510
0.000000 0.601617 0.400732
0.000000 0.601282 0.392248
0.000000 0.600916 0.376165
0.000000 0.600336 0.353216
0.000000 0.599939 0.321630
0.000000 0.599359 0.276310
0.000000 0.605188 0.171847
0.224704 0.617060 0.123964
0.376776 0.628077 0.031830
0.504601 0.639033 0.000000
0.636347 0.658198 0.000000
0.746670 0.693446 0.000000
0.802914 0.702266 0.000000
0.850828 0.706600 0.000000
0.891539 0.707851 0.000000
0.926329 0.707027 0.000000
0.956512 0.705013 0.000000
0.981750 0.693263 0.000000
1.000000 0.679866 0.000000
1.000000 0.667170 0.000000
1.000000 0.655055 0.000000
1.000000 0.643549 0.000000
1.000000 0.632349 0.000000
1.000000 0.620203 0.000000
1.000000 0.606104 0.000000
1.000000 0.591943 0.000000
1.000000 0.577813 0.000000
1.000000 0.563378 0.000000
1.000000 0.548882 0.000000
1.000000 0.553826 0.000000
0.000000 0.651392 0.432837
0.000000 0.651301 0.431189
0.000000 0.650904 0.428626
0.000000 0.650263 0.421851
0.000000 0.649561 0.407813
0.000000 0.648707 0.388190
0.000000 0.647974 0.361913
0.000000 0.647333 0.326329
0.000000 0.647333 0.276738
0.000000 0.658381 0.171756
0.281590 0.670649 0.135592
0.426184 0.682063 0.064546
0.552239 0.692103 0.000000
0.668482 0.697322 0.000000
0.783505 0.731899 0.000000
0.834501 0.737331 0.000000
0.877562 0.738552 0.000000
0.914244 0.737270 0.000000
0.946105 0.734524 0.000000
0.974426 0.731228 0.000000
0.999390 0.725978 0.000000
1.000000 0.711208 0.000000
1.000000 0.697230 0.000000
1.000000 0.683833 0.000000
1.000000 0.670954 0.000000
1.000000 0.658381 0.000000
1.000000 0.644221 0.000000
1.000000 0.628931 0.000000
1.000000 0.613428 0.000000
1.000000 0.598077 0.000000
1.000000 0.582513 0.000000
1.000000 0.585321 0.000000
0.000000 0.692470 0.455818
0.000000 0.692317 0.454261
0.000000 0.691981 0.452064
0.000000 0.691402 0.447028
0.000000 0.690913 0.434791
0.000000 0.690700 0.418097
0.000000 0.690608 0.395727
0.000000 0.690608 0.366888
0.000000 0.690883 0.328374
0.000000 0.691585 0.274662
0.127443 0.705013 0.182376
0.331792 0.715572 0.146914
0.467781 0.724971 0.080751
0.588678 0.732692 0.000000
0.697444 0.733028 0.000000
0.811093 0.762325 0.000000
0.861814 0.768490 0.000000
0.900694 0.767269 0.000000
0.934539 0.764157 0.000000
0.964538 0.760281 0.000000
0.991211 0.755886 0.000000
1.000000 0.751095 0.000000
1.000000 0.740627 0.000000
1.000000 0.725521 0.000000
1.000000 0.710903 0.000000
1.000000 0.696712 0.000000
1.000000 0.682826 0.000000
1.000000 0.666651 0.000000
1.000000 0.650141 0.000000
1.000000 0.633570 0.000000
1.000000 0.617029 0.000000
1.000000 0.618555 0.000000
0.000000 0.732753 0.478279
0.000000 0.732753 0.477089
0.000000 0.732418 0.475227
0.000000 0.731838 0.471260
0.000000 0.731228 0.460609
0.000000 0.730617 0.445563
0.000000 0.730190 0.426123
0.000000 0.729915 0.401343
0.000000 0.729976 0.369787
0.000000 0.730465 0.328344
0.000000 0.735012 0.255375
0.209415 0.746426 0.192294
0.377234 0.755215 0.157198
0.505364 0.762692 0.095308
0.621027 0.768215 0.000000
0.725032 0.766751 0.000000
0.834653 0.788998 0.000000
0.886229 0.796872 0.000000
0.922148 0.793912 0.000000
0.953887 0.789761 0.000000
0.982086 0.784787 0.000000
1.000000 0.779232 0.000000
1.000000 0.773098 0.000000
1.000000 0.766506 0.000000
1.000000 0.751705 0.000000
1.000000 0.736080 0.000000
1.000000 0.720821 0.000000
1.000000 0.705287 0.000000
1.000000 0.687617 0.000000
1.000000 0.670069 0.000000
1.000000 0.652399 0.000000
1.000000 0.655085 0.000000
0.000000 0.769192 0.499123
0.000000 0.769162 0.498024
0.000000 0.768917 0.496529
0.000000 0.768460 0.493050
0.000000 0.767880 0.484443
0.000000 0.767514 0.471077
0.000000 0.767300 0.453834
0.000000 0.767208 0.432288
0.000000 0.767239 0.405554
0.000000 0.767483 0.371954
0.000000 0.767849 0.328038
0.000000 0.776089 0.227848
0.270298 0.783536 0.202762
0.418219 0.790036 0.167666
0.538994 0.795132 0.109468
0.648737 0.798703 0.000000
0.748379 0.796139 0.000000
0.854948 0.812680 0.000000
0.908721 0.823148 0.000000
0.942718 0.819394 0.000000
0.972717 0.814389 0.000000
0.999176 0.808408 0.000000
1.000000 0.801663 0.000000
1.000000 0.794278 0.000000
1.000000 0.786465 0.000000
1.000000 0.776669 0.000000
1.000000 0.759792 0.000000
1.000000 0.743557 0.000000
1.000000 0.725826 0.000000
1.000000 0.707027 0.000000
1.000000 0.688258 0.000000
1.000000 0.689723 0.000000
0.000000 0.801266 0.517784
0.000000 0.801144 0.516777
0.000000 0.800839 0.515435
0.000000 0.800290 0.512291
0.000000 0.799741 0.505608
0.000000 0.799405 0.493629
0.000000 0.799130 0.478340
0.000000 0.799008 0.459205
0.000000 0.798947 0.435859
0.000000 0.799069 0.407263
0.000000 0.799435 0.371832
0.000000 0.799832 0.325994
0.082002 0.809506 0.237613
0.321355 0.815518 0.212161
0.455451 0.820462 0.177127
0.569055 0.823972 0.123049
0.673701 0.826108 0.000000
0.769528 0.822904 0.000000
0.872374 0.835538 0.000000
0.930083 0.848234 0.000000
0.962005 0.843351 0.000000
0.990021 0.837217 0.000000
1.000000 0.830076 0.000000
1.000000 0.822141 0.000000
1.000000 0.813657 0.000000
1.000000 0.804685 0.000000
1.000000 0.795377 0.000000
1.000000 0.781674 0.000000
1.000000 0.764187 0.000000
1.000000 0.744381 0.000000
1.000000 0.724605 0.000000
1.000000 0.724208 0.000000
0.000000 0.831205 0.535729
0.000000 0.831235 0.534966
0.000000 0.839139 0.538811
0.000000 0.838529 0.536126
0.000000 0.837705 0.530877
0.000000 0.837217 0.519829
0.000000 0.836728 0.505852
0.000000 0.836240 0.488380
0.000000 0.835935 0.467506
0.000000 0.835813 0.442390
0.000000 0.835843 0.412146
0.000000 0.835874 0.374914
0.000000 0.837491 0.320562
0.200259 0.845670 0.250797
0.370397 0.849851 0.224918
0.493233 0.853025 0.189700
0.601038 0.855070 0.137789
0.700893 0.855833 0.000000
0.793088 0.851804 0.000000
0.890684 0.860960 0.000000
0.953491 0.874693 0.000000
0.982757 0.868223 0.000000
1.000000 0.860533 0.000000
1.000000 0.851865 0.000000
1.000000 0.842374 0.000000
1.000000 0.832334 0.000000
1.000000 0.821927 0.000000
1.000000 0.811307 0.000000
1.000000 0.800656 0.000000
1.000000 0.782071 0.000000
1.000000 0.761288 0.000000
1.000000 0.758999 0.000000
0.000000 0.861234 0.554223
0.000000 0.862150 0.554131
0.000000 0.862913 0.553704
0.000000 0.863371 0.552056
0.000000 0.863188 0.548852
0.000000 0.863157 0.539208
0.000000 0.862943 0.526421
0.000000 0.862638 0.510918
0.000000 0.862455 0.492012
0.000000 0.862394 0.469978
0.000000 0.862425 0.443610
0.000000 0.862486 0.412177
0.000000 0.862455 0.373999
0.000000 0.867338 0.300298
0.265324 0.872465 0.258640
0.410010 0.875486 0.232242
0.524102 0.877623 0.197269
0.626276 0.878752 0.145480
0.721981 0.878874 0.000000
0.810819 0.874693 0.000000
0.903838 0.881285 0.000000
0.972137 0.896696 0.000000
0.999420 0.889220 0.000000
1.000000 0.880461 0.000000
1.000000 0.870665 0.000000
1.000000 0.860075 0.000000
1.000000 0.848936 0.000000
1.000000 0.837461 0.000000
1.000000 0.825742 0.000000
1.000000 0.813870 0.000000
1.000000 0.798245 0.000000
1.000000 0.794095 0.000000
0.000000 0.887022 0.570397
0.000000 0.887755 0.570397
0.000000 0.888487 0.570123
0.000000 0.888792 0.568627
0.000000 0.888609 0.566003
0.000000 0.888487 0.558099
0.000000 0.888334 0.546441
0.000000 0.888121 0.532372
0.000000 0.888029 0.515343
0.000000 0.888029 0.495460
0.000000 0.888090 0.472358
0.000000 0.888243 0.444862
0.000000 0.888273 0.412512
0.000000 0.888273 0.373541
0.086183 0.895109 0.288518
0.318456 0.897978 0.267002
0.446174 0.900084 0.239567
0.553124 0.901335 0.203922
0.650477 0.901762 0.152071
0.742245 0.901305 0.000977
0.828153 0.896849 0.000000
0.916655 0.901091 0.000000
0.986145 0.914427 0.000000
1.000000 0.909239 0.000000
1.000000 0.899229 0.000000
1.000000 0.888243 0.000000
1.000000 0.876493 0.000000
1.000000 0.864225 0.000000
1.000000 0.851560 0.000000
1.000000 0.838712 0.000000
1.000000 0.825406 0.000000
1.000000 0.821592 0.000000
0.000000 0.911833 0.586419
0.000000 0.912505 0.586481
0.000000 0.913146 0.586206
0.000000 0.913390 0.585016
0.000000 0.913146 0.582818
0.000000 0.912840 0.576623
0.000000 0.912718 0.566003
0.000000 0.912566 0.553094
0.000000 0.912474 0.537682
0.000000 0.912444 0.519646
0.000000 0.912566 0.498787
0.000000 0.912657 0.474495
0.000000 0.912749 0.446357
0.000000 0.912810 0.413123
0.082918 0.913268 0.371679
0.202060 0.920195 0.297276
0.364508 0.922484 0.275212
0.480781 0.924132 0.247440
0.581689 0.925078 0.211337
0.674922 0.925261 0.159854
0.763210 0.924529 0.032349
0.846616 0.920043 0.000000
0.931151 0.922026 0.000000
1.000000 0.932860 0.000000
1.000000 0.929778 0.000000
1.000000 0.918364 0.000000
1.000000 0.905943 0.000000
1.000000 0.892760 0.000000
1.000000 0.878996 0.000000
1.000000 0.864897 0.000000
1.000000 0.850736 0.000000
1.000000 0.845487 0.000000
0.000000 0.938811 0.604639
0.000000 0.939025 0.604364
0.000000 0.939086 0.603906
0.000000 0.938842 0.602655
0.000000 0.938231 0.600610
0.000000 0.937560 0.595880
0.000000 0.937469 0.586175
0.000000 0.937377 0.574426
0.000000 0.937469 0.560357
0.000000 0.937621 0.543908
0.000000 0.937865 0.525078
0.000000 0.938109 0.503349
0.000000 0.938262 0.478431
0.000000 0.938384 0.449775
0.110445 0.938415 0.416388
0.138155 0.941405 0.360204
0.273472 0.945678 0.308324
0.407355 0.947082 0.284794
0.513939 0.947845 0.256382
0.608942 0.947906 0.218814
0.697536 0.947143 0.166079
0.782132 0.945434 0.044068
0.862333 0.940246 0.000000
0.942412 0.939757 0.000000
1.000000 0.948028 0.000000
1.000000 0.946929 0.000000
1.000000 0.934234 0.000000
1.000000 0.920623 0.000000
1.000000 0.906188 0.000000
1.000000 0.891173 0.000000
1.000000 0.875944 0.000000
1.000000 0.869200 0.000000
0.000000 0.961303 0.620172
0.000000 0.961486 0.620050
0.000000 0.961608 0.619806
0.000000 0.961334 0.618708
0.000000 0.960693 0.617090
0.000000 0.959747 0.614099
0.000000 0.959655 0.605005
0.000000 0.959564 0.594079
0.000000 0.959564 0.581140
0.000000 0.959655 0.566094
0.000000 0.959869 0.548943
0.000000 0.960113 0.529229
0.000000 0.960327 0.506767
0.079164 0.960479 0.481392
0.132387 0.960662 0.452399
0.169741 0.960876 0.418982
0.175235 0.966003 0.347051
0.328496 0.967956 0.317784
0.445350 0.968750 0.293523
0.543908 0.968902 0.263706
0.633631 0.968353 0.225437
0.718288 0.966979 0.170840
0.799405 0.964691 0.048829
0.876860 0.959167 0.000000
0.951843 0.955444 0.000000
1.000000 0.961425 0.000000
1.000000 0.962341 0.000000
1.000000 0.948455 0.000000
1.000000 0.933532 0.000000
1.000000 0.917845 0.000000
1.000000 0.901701 0.000000
1.000000 0.892973 0.000000
0.000000 0.984863 0.637476
0.000000 0.985077 0.637507
0.000000 0.985046 0.637232
0.000000 0.984619 0.636408
0.000000 0.983795 0.634974
0.000000 0.982544 0.633265
0.000000 0.982208 0.625208
0.000000 0.981964 0.614862
0.000000 0.981720 0.602655
0.000000 0.981598 0.588586
0.000000 0.981506 0.572534
0.000000 0.981537 0.554406
0.069429 0.981567 0.534020
0.122683 0.981537 0.511040
0.159213 0.981476 0.485237
0.189059 0.981415 0.455970
0.215854 0.981384 0.422583
0.238560 0.986999 0.347875
0.374670 0.987640 0.326360
0.479133 0.987823 0.301061
0.570733 0.987427 0.270115
0.655634 0.986267 0.229892
0.736233 0.984192 0.172396
0.813931 0.981109 0.020661
0.888518 0.974975 0.000000
0.960967 0.970611 0.000000
1.000000 0.974243 0.000000
1.000000 0.976745 0.000000
1.000000 0.961364 0.000000
1.000000 0.945037 0.000000
1.000000 0.928038 0.000000
1.000000 0.917174 0.000000
0.000000 1.000000 0.652247
0.000000 1.000000 0.652308
0.000000 1.000000 0.652186
0.000000 1.000000 0.651545
0.000000 1.000000 0.650599
0.000000 1.000000 0.649348
0.000000 1.000000 0.643366
0.000000 1.000000 0.633875
0.000000 1.000000 0.622675
0.000000 1.000000 0.609827
0.000000 1.000000 0.595148
0.091279 1.000000 0.578668
0.132723 1.000000 0.560204
0.164431 1.000000 0.539483
0.192416 1.000000 0.516594
0.216983 1.000000 0.490944
0.239994 1.000000 0.462165
0.253117 1.000000 0.419165
0.306615 1.000000 0.360845
0.418769 1.000000 0.338354
0.512444 1.000000 0.311711
0.597436 1.000000 0.278904
0.677272 1.000000 0.236515
0.753750 1.000000 0.175662
0.827970 0.997162 0.000000
0.900023 0.990570 0.000000
0.969299 0.984710 0.000000
1.000000 0.986389 0.000000
1.000000 0.989776 0.000000
1.000000 0.972839 0.000000
1.000000 0.954894 0.000000
1.000000 0.941741 0.000000
0.000000 1.000000 0.667445
0.000000 1.000000 0.667445
0.000000 1.000000 0.667323
0.000000 1.000000 0.666896
0.000000 1.000000 0.666255
0.000000 1.000000 0.665492
0.000000 1.000000 0.661433
0.000000 1.000000 0.652705
0.007843 1.000000 0.642206
0.089754 1.000000 0.630488
0.125399 1.000000 0.617029
0.154604 1.000000 0.601953
0.180392 1.000000 0.585168
0.203799 1.000000 0.566430
0.225742 1.000000 0.545769
0.246433 1.000000 0.522911
0.266575 1.000000 0.497688
0.286198 1.000000 0.469917
0.286290 1.000000 0.414496
0.362127 1.000000 0.373754
0.457832 1.000000 0.349767
0.542535 1.000000 0.321691
0.621241 1.000000 0.286870
0.696254 1.000000 0.242466
0.768826 1.000000 0.177707
0.839719 1.000000 0.000000
0.909300 1.000000 0.000000
0.975677 0.996857 0.000000
1.000000 0.996429 0.000000
1.000000 0.997559 0.000000
1.000000 0.982879 0.000000
1.000000 0.966339 0.000000
0.000000 1.000000 0.681575
0.000000 1.000000 0.681636
0.000000 1.000000 0.681605
0.000000 1.000000 0.681453
0.000000 1.000000 0.681270
0.000000 1.000000 0.681331
0.115572 1.000000 0.679866
0.136843 1.000000 0.672206
0.158267 1.000000 0.663203
0.179507 1.000000 0.652857
0.200504 1.000000 0.641199
0.220523 1.000000 0.627893
0.240208 1.000000 0.613153
0.258793 1.000000 0.596674
0.276524 1.000000 0.578271
0.293553 1.000000 0.558160
0.310185 1.000000 0.536034
0.326940 1.000000 0.512047
0.344030 1.000000 0.486030
0.332036 1.000000 0.418738
0.419928 1.000000 0.395056
0.500603 1.000000 0.369940
0.575341 1.000000 0.339879
0.646876 1.000000 0.303532
0.716365 1.000000 0.257481
0.784390 1.000000 0.192508
0.851560 1.000000 0.028870
0.918456 1.000000 0.000000
0.981811 1.000000 0.000000
1.000000 1.000000 0.000000
1.000000 1.000000 0.000000
1.000000 0.990875 0.000000
0.000000 1.000000 0.697902
0.000000 1.000000 0.698054
0.000000 1.000000 0.698085
0.000000 1.000000 0.698238
0.000000 1.000000 0.698543
0.102266 1.000000 0.699184
0.210513 1.000000 0.700069
0.220249 1.000000 0.692836
0.231998 1.000000 0.684382
0.244785 1.000000 0.674647
0.258030 1.000000 0.663569
0.272038 1.000000 0.651179
0.286320 1.000000 0.637446
0.300908 1.000000 0.622309
