data/fiter_cube/95423152/1023249/file.cube
# Created by Adobe Lightroom plugin Export LUT (1.17.0)
# www.johnrellis.com/lightroom/exportlut.htm
# Preset: 黑暗巧克力情绪人像_08 云集
# Color profile: C:\Program Files (x86)\Common Files\Adobe\Color\Profiles\Recommended\AdobeRGB1998.icc
LUT_3D_SIZE 32
DOMAIN_MIN 0.0 0.0 0.0
DOMAIN_MAX 1.0 1.0 1.0
0.000000 0.000000 0.000000
0.000000 0.000000 0.000000
0.002319 0.000763 0.000946
0.050477 0.004028 0.009125
0.078187 0.006836 0.019074
0.098634 0.008789 0.027680
0.119753 0.010163 0.032410
0.141482 0.006806 0.035706
0.164370 0.002258 0.035981
0.187961 0.000000 0.035370
0.212619 0.000000 0.033814
0.237766 0.000000 0.031128
0.263798 0.000000 0.028016
0.291112 0.000000 0.025269
0.318853 0.000000 0.026368
0.347234 0.000000 0.030610
0.376776 0.000000 0.035126
0.407507 0.000000 0.038544
0.439063 0.000000 0.043153
0.472541 0.000000 0.045869
0.509239 0.000000 0.046540
0.549035 0.000000 0.045747
0.590875 0.000000 0.043732
0.634730 0.000000 0.041016
0.680171 0.000000 0.036072
0.724483 0.000000 0.035859
0.766598 0.000000 0.036988
0.806149 0.000000 0.045930
0.842710 0.000000 0.058473
0.876127 0.000000 0.068696
0.906493 0.000000 0.082124
0.934295 0.000000 0.097902
0.000000 0.000000 0.000000
0.000000 0.000000 0.000000
0.006012 0.001282 0.001892
0.052522 0.003601 0.009094
0.078798 0.011200 0.018677
0.099367 0.016541 0.025879
0.120546 0.017670 0.031678
0.142672 0.016083 0.034730
0.165530 0.012482 0.034882
0.189334 0.005829 0.035340
0.213809 0.000000 0.032593
0.239200 0.000000 0.029664
0.265354 0.000000 0.026490
0.292729 0.000000 0.023590
0.320623 0.000000 0.025696
0.349065 0.000000 0.029786
0.378668 0.000000 0.034058
0.409430 0.000000 0.038300
0.441199 0.000000 0.041596
0.474830 0.000000 0.045197
0.511589 0.000000 0.045686
0.551385 0.000000 0.044709
0.593225 0.000000 0.043549
0.637110 0.000000 0.039246
0.682368 0.000000 0.035431
0.726558 0.000000 0.033692
0.768368 0.000000 0.035126
0.807645 0.000000 0.044068
0.843900 0.000000 0.058747
0.877073 0.000000 0.069429
0.907317 0.000000 0.082673
0.934936 0.000000 0.098421
0.002808 0.005341 0.001648
0.002655 0.006531 0.001556
0.010254 0.007599 0.002350
0.054200 0.016144 0.008026
0.079500 0.023743 0.017578
0.100526 0.027466 0.024872
0.121675 0.029572 0.030549
0.143771 0.028931 0.033478
0.166934 0.024689 0.033600
0.190677 0.019013 0.032837
0.215305 0.013153 0.030945
0.240726 0.005280 0.027985
0.267033 0.000000 0.024537
0.294377 0.000000 0.021424
0.321935 0.000000 0.025849
0.350652 0.000000 0.029633
0.380468 0.000000 0.033722
0.411139 0.000000 0.036957
0.442878 0.000000 0.041077
0.476783 0.000000 0.043183
0.513542 0.000000 0.045747
0.553277 0.000000 0.043549
0.595209 0.000000 0.040803
0.638911 0.000000 0.037598
0.684077 0.000000 0.033448
0.728054 0.000000 0.031861
0.769589 0.000000 0.035401
0.808713 0.000000 0.043305
0.844877 0.000000 0.056672
0.877836 0.000000 0.068818
0.907897 0.000000 0.082582
0.935424 0.000000 0.098360
0.020569 0.040742 0.011292
0.021363 0.042939 0.012146
0.031891 0.043549 0.011841
0.055695 0.039063 0.013672
0.079194 0.047242 0.017853
0.102266 0.054292 0.022278
0.123812 0.055360 0.026825
0.146090 0.055299 0.029603
0.169131 0.053559 0.030579
0.193240 0.050263 0.029541
0.217960 0.046998 0.027405
0.243442 0.040681 0.024170
0.269871 0.036957 0.020356
0.297063 0.031800 0.020569
0.324590 0.026642 0.024750
0.353460 0.018128 0.028229
0.383307 0.007050 0.032044
0.414282 0.000000 0.035798
0.446326 0.000000 0.039460
0.480201 0.000000 0.041352
0.517357 0.000000 0.041993
0.556909 0.000000 0.041688
0.598840 0.000000 0.038453
0.642206 0.000000 0.035157
0.686793 0.000000 0.032074
0.730190 0.000000 0.029541
0.771328 0.000000 0.031098
0.810025 0.000000 0.040314
0.845884 0.000000 0.054566
0.878630 0.000000 0.067872
0.908568 0.000000 0.081880
0.936004 0.000000 0.097810
0.044312 0.067597 0.023224
0.043915 0.068025 0.024201
0.053742 0.068147 0.022766
0.069306 0.068238 0.021851
0.077852 0.063539 0.025452
0.096681 0.065736 0.028534
0.125856 0.074342 0.023713
0.149752 0.075868 0.024659
0.173129 0.075471 0.025330
0.197238 0.075257 0.023865
0.222263 0.073701 0.021485
0.247898 0.072694 0.016663
0.274418 0.072145 0.013550
0.301122 0.070771 0.018006
0.328771 0.068818 0.021942
0.357580 0.066590 0.025055
0.387396 0.063233 0.029572
0.418341 0.057374 0.033143
0.450172 0.045472 0.036652
0.484382 0.027588 0.037720
0.521630 0.002960 0.038880
0.561486 0.000000 0.036347
0.603204 0.000000 0.032715
0.646509 0.000000 0.028504
0.690700 0.000000 0.025269
0.733547 0.000000 0.022827
0.774044 0.000000 0.026520
0.812284 0.000000 0.035065
0.847684 0.000000 0.050721
0.880064 0.000000 0.066499
0.909728 0.000000 0.080568
0.936919 0.000000 0.097078
0.059052 0.083803 0.032563
0.060090 0.084016 0.032441
0.065888 0.083680 0.032136
0.076265 0.084260 0.029023
0.089418 0.083406 0.029114
0.095796 0.077302 0.034485
0.113100 0.077455 0.037720
0.144259 0.087373 0.028870
0.177798 0.097292 0.016541
0.202152 0.097322 0.014740
0.227359 0.096956 0.011872
0.252934 0.096468 0.008942
0.278843 0.095766 0.010254
0.305699 0.095216 0.014282
0.333684 0.094148 0.016663
0.362463 0.093141 0.021576
0.392309 0.091341 0.025635
0.423285 0.089326 0.028473
0.455238 0.085908 0.031434
0.489448 0.081636 0.033021
0.526787 0.075929 0.032227
0.566217 0.066621 0.030671
0.598138 0.050813 0.027344
0.641413 0.018860 0.022034
0.685878 0.000000 0.015991
0.729091 0.000000 0.013153
0.770169 0.000000 0.015198
0.808896 0.000000 0.021759
0.844785 0.000000 0.037232
0.877592 0.000000 0.059327
0.907530 0.000000 0.075257
0.935119 0.000000 0.091768
0.066865 0.098512 0.039155
0.070253 0.098695 0.037751
0.074556 0.099031 0.037293
0.083375 0.099001 0.034363
0.096651 0.098939 0.031952
0.108064 0.097475 0.033265
0.112673 0.089937 0.040620
0.127718 0.087861 0.045594
0.160830 0.099306 0.033600
0.196475 0.110903 0.016480
0.230594 0.119631 0.003937
0.255650 0.119295 0.004273
0.281559 0.119051 0.006439
0.308690 0.118776 0.009064
0.336950 0.118715 0.011933
0.366094 0.118379 0.016236
0.396307 0.117647 0.019623
0.427405 0.116701 0.021942
0.459113 0.114778 0.024567
0.493263 0.112520 0.024598
0.529778 0.109468 0.024994
0.568505 0.105623 0.022095
0.608667 0.100374 0.018463
0.650568 0.094240 0.013123
0.693446 0.086610 0.006622
0.735195 0.078523 0.003082
0.775235 0.070527 0.004456
0.812985 0.065003 0.011414
0.848081 0.062318 0.028473
0.880156 0.064698 0.055604
0.909667 0.074006 0.072419
0.936767 0.088228 0.090303
0.078065 0.114443 0.042847
0.081239 0.114565 0.041444
0.084596 0.114626 0.041077
0.092622 0.114809 0.038056
0.104250 0.114565 0.035737
0.117037 0.114107 0.033173
0.128054 0.112551 0.036530
0.130678 0.103029 0.045289
0.143618 0.099092 0.052461
0.178531 0.112093 0.043153
0.216068 0.125460 0.027314
0.256657 0.139254 0.005951
0.288518 0.143893 0.000000
0.315953 0.144106 0.000549
0.344366 0.144320 0.003876
0.374029 0.144625 0.007202
0.404303 0.144320 0.011078
0.435370 0.143832 0.013855
0.467475 0.143191 0.015259
0.501915 0.141939 0.016419
0.538659 0.140841 0.014252
0.577325 0.138674 0.010376
0.617426 0.136660 0.004120
0.658900 0.133394 0.000000
0.700954 0.129915 0.000000
0.741909 0.126772 0.000000
0.780850 0.123659 0.000000
0.817716 0.121462 0.000000
0.851774 0.120760 0.017762
0.883146 0.122438 0.046235
0.911986 0.127382 0.068879
0.938537 0.135256 0.087861
0.088991 0.130434 0.048096
0.091646 0.130526 0.047852
0.094881 0.130556 0.047578
0.101900 0.130709 0.045838
0.112428 0.130678 0.042359
0.125124 0.130739 0.038331
0.136812 0.129580 0.040314
0.147616 0.127718 0.045777
0.149142 0.117189 0.054383
0.159213 0.110903 0.060975
0.195621 0.124758 0.053742
0.235019 0.139040 0.038331
0.277958 0.154421 0.015106
0.323980 0.170443 0.000000
0.352789 0.170993 0.000000
0.382544 0.171267 0.000000
0.413092 0.171633 0.000000
0.444587 0.171756 0.001862
0.476753 0.171511 0.003571
0.511559 0.171450 0.003113
0.548455 0.171237 0.000000
0.586847 0.170413 0.000000
0.626612 0.169406 0.000000
0.668025 0.168490 0.000000
0.709194 0.167391 0.000000
0.748836 0.165408 0.000000
0.786831 0.164340 0.000000
0.822629 0.163210 0.000000
0.855741 0.163424 0.002136
0.886351 0.164736 0.032532
0.914458 0.167727 0.064393
0.940429 0.173587 0.084474
0.099184 0.146944 0.055207
0.101534 0.147036 0.054963
0.104463 0.147066 0.053864
0.110811 0.147005 0.052491
0.120333 0.147158 0.050599
0.132143 0.147066 0.047669
0.145480 0.146853 0.044648
0.156497 0.145266 0.047578
0.166415 0.142336 0.052155
0.167758 0.131319 0.060426
0.175998 0.123354 0.066285
0.212528 0.137087 0.061646
0.254032 0.153079 0.051514
0.299290 0.169924 0.030854
0.348882 0.188327 0.001312
0.392126 0.199557 0.000000
0.422827 0.200046 0.000000
0.454414 0.200290 0.000000
0.486976 0.200687 0.000000
0.522087 0.201205 0.000000
0.558984 0.201572 0.000000
0.597467 0.201968 0.000000
0.637446 0.202182 0.000000
0.678370 0.202274 0.000000
0.718471 0.201999 0.000000
0.756985 0.201450 0.000000
0.793729 0.200931 0.000000
0.828244 0.200656 0.000000
0.860197 0.200748 0.000000
0.889738 0.201755 0.016632
0.916960 0.203983 0.056855
0.942290 0.207980 0.079500
0.109529 0.163851 0.060792
0.111421 0.163821 0.060273
0.114229 0.163943 0.060090
0.119966 0.163912 0.059327
0.128817 0.163607 0.057465
0.139559 0.163668 0.054475
0.152529 0.163424 0.051179
0.165347 0.162417 0.049714
0.176394 0.160739 0.053590
0.184817 0.156527 0.058808
0.186252 0.145357 0.064790
0.193576 0.136568 0.070893
0.229007 0.149386 0.068238
0.272374 0.166567 0.061677
0.319707 0.185000 0.048157
0.371923 0.204776 0.017578
0.428840 0.225986 0.000000
0.466346 0.230838 0.000000
0.499428 0.231296 0.000000
0.534630 0.232151 0.000000
0.571374 0.233219 0.000000
0.609522 0.234104 0.000000
0.649042 0.235080 0.000000
0.689021 0.235782 0.000000
0.727993 0.236149 0.000000
0.765255 0.236118 0.000000
0.800687 0.235935 0.000000
0.833982 0.235813 0.000000
0.864836 0.235782 0.000000
0.893400 0.236301 0.000000
0.919890 0.237827 0.041840
0.944488 0.240940 0.074586
0.119814 0.180484 0.065095
0.121553 0.180453 0.064576
0.124117 0.180423 0.064454
0.129305 0.180392 0.063691
0.137240 0.180301 0.062348
0.147494 0.180056 0.060822
0.159396 0.179751 0.058656
0.173159 0.179294 0.054322
0.184695 0.177890 0.055482
0.195987 0.175967 0.058961
0.203189 0.170565 0.063203
0.204379 0.159091 0.069093
0.208286 0.147860 0.074647
0.241733 0.159152 0.074342
0.285985 0.177432 0.068971
0.334905 0.196994 0.061067
0.388647 0.217807 0.036316
0.447700 0.240391 0.000000
0.506218 0.260288 0.000000
0.541619 0.261723 0.000000
0.578637 0.263401 0.000000
0.616815 0.264958 0.000000
0.656245 0.266484 0.000000
0.695918 0.267918 0.000000
0.734127 0.268681 0.000000
0.770504 0.269017 0.000000
0.805173 0.269047 0.000000
0.837552 0.268833 0.000000
0.867735 0.268864 0.000000
0.895689 0.268986 0.000000
0.921569 0.269963 0.016327
0.945739 0.271977 0.065187
0.129274 0.195926 0.068818
0.131014 0.195987 0.068696
0.133394 0.195956 0.068177
0.138186 0.195926 0.067506
0.145449 0.195956 0.066651
0.154910 0.195773 0.065278
0.166171 0.195499 0.063203
0.179019 0.195102 0.060883
0.192691 0.194186 0.058442
0.203464 0.192325 0.060578
0.214420 0.190311 0.062593
0.220005 0.183413 0.067262
0.221073 0.171878 0.073365
0.226047 0.161349 0.079469
0.257450 0.170840 0.080873
0.303777 0.190585 0.076753
0.354711 0.211398 0.068910
0.411078 0.233829 0.052766
0.473396 0.258030 0.005188
0.542229 0.284794 0.000000
0.594110 0.297826 0.000000
0.632197 0.299687 0.000000
0.670741 0.301274 0.000000
0.709010 0.302831 0.000000
0.745663 0.303471 0.000000
0.780484 0.303563 0.000000
0.813565 0.303288 0.000000
0.844511 0.303044 0.000000
0.873289 0.302312 0.000000
0.900145 0.302159 0.000000
0.925048 0.302251 0.000000
0.948363 0.303258 0.053529
0.140047 0.212894 0.074250
0.141665 0.212955 0.073793
0.143862 0.212833 0.073335
0.148196 0.212924 0.073060
0.154971 0.212833 0.071931
0.163790 0.212558 0.070344
0.174441 0.212192 0.068482
0.186343 0.211765 0.066041
0.199588 0.210910 0.062959
0.212070 0.209445 0.062531
0.222904 0.207431 0.064973
0.233768 0.205264 0.067140
0.238041 0.197299 0.072358
0.239139 0.185519 0.078279
0.242985 0.174502 0.084321
0.272313 0.181949 0.087587
0.320592 0.202976 0.083894
0.373968 0.225284 0.076539
0.433112 0.249454 0.063996
0.500084 0.276432 0.020081
0.572595 0.305211 0.000000
0.645960 0.334173 0.000000
0.685756 0.337530 0.000000
0.722255 0.338354 0.000000
0.757168 0.338659 0.000000
0.790433 0.338445 0.000000
0.821836 0.337804 0.000000
0.851316 0.336797 0.000000
0.878782 0.335637 0.000000
0.904479 0.334661 0.000000
0.928405 0.334112 0.000000
0.950927 0.334417 0.025238
0.150942 0.229557 0.078828
0.152193 0.229526 0.079103
0.153994 0.229526 0.078645
0.158267 0.229496 0.077760
0.164523 0.229313 0.077089
0.172763 0.229252 0.075563
0.182650 0.228763 0.073915
0.193851 0.228183 0.071778
0.206424 0.227420 0.069032
0.220066 0.226352 0.065278
0.231235 0.224491 0.066621
0.242100 0.222354 0.069184
0.252903 0.220066 0.071595
0.256046 0.210880 0.076722
0.257115 0.199100 0.082795
0.259983 0.187350 0.088869
0.286900 0.192752 0.093324
0.337041 0.215091 0.090150
0.393011 0.239048 0.083833
0.456428 0.265629 0.071412
0.527977 0.295201 0.033478
0.603143 0.325841 0.000000
0.678065 0.356237 0.000000
0.735866 0.375219 0.000000
0.769039 0.374640 0.000000
0.800504 0.373754 0.000000
0.830198 0.372320 0.000000
0.858000 0.370581 0.000000
0.884062 0.368688 0.000000
0.908476 0.367041 0.000000
0.931395 0.365606 0.000000
0.953033 0.364843 0.000000
0.161379 0.246189 0.083925
0.162753 0.246036 0.083864
0.164248 0.246067 0.083467
0.168246 0.245945 0.082673
0.174136 0.245670 0.081758
0.181735 0.245365 0.080415
0.190829 0.244938 0.078584
0.201389 0.244327 0.076295
0.213230 0.243473 0.073793
0.226139 0.242435 0.070771
0.239292 0.241001 0.068269
0.250156 0.239078 0.070375
0.261051 0.236912 0.072694
0.272099 0.234775 0.075227
0.273991 0.224491 0.081300
0.275181 0.212619 0.087190
0.276982 0.200168 0.093599
0.300694 0.202945 0.099153
0.353460 0.226993 0.096223
0.413031 0.253147 0.090059
0.480690 0.282261 0.077516
0.556481 0.314244 0.045808
0.633967 0.346654 0.000000
0.708248 0.377447 0.000000
0.771725 0.403388 0.000000
0.809995 0.409430 0.000000
0.838041 0.406989 0.000000
0.864469 0.404517 0.000000
0.889250 0.401862 0.000000
0.912596 0.399207 0.000000
0.934661 0.397009 0.000000
0.955627 0.395392 0.000000
0.172000 0.262882 0.088472
0.173129 0.262852 0.088136
0.174838 0.262852 0.087739
0.178378 0.262638 0.087312
0.183719 0.262425 0.086458
0.190890 0.262058 0.085237
0.199496 0.261570 0.083558
0.209598 0.260929 0.081147
0.220798 0.260075 0.078889
0.233127 0.259037 0.075776
0.246433 0.257725 0.071992
0.258518 0.256107 0.071565
0.269383 0.253971 0.073854
0.280369 0.251774 0.076020
0.290959 0.249180 0.078859
0.292027 0.238224 0.085451
0.293248 0.226352 0.091737
0.294530 0.213382 0.097658
0.314702 0.213077 0.104402
0.370520 0.239048 0.101930
0.434150 0.267735 0.095552
0.506889 0.299779 0.082185
0.586114 0.334051 0.054200
0.665705 0.368231 0.000000
0.737789 0.398657 0.000000
0.798001 0.423590 0.000000
0.846433 0.442542 0.000000
0.871336 0.439002 0.000000
0.894774 0.435309 0.000000
0.917021 0.431891 0.000000
0.938079 0.428626 0.000000
0.958221 0.426032 0.000000
0.182315 0.279576 0.092653
0.183505 0.279454 0.092348
0.183688 0.277348 0.091646
0.187015 0.277256 0.090913
0.192081 0.277134 0.090089
0.198764 0.276799 0.088930
0.206851 0.276371 0.087343
0.216403 0.275761 0.085359
0.227207 0.274968 0.082918
0.239017 0.274022 0.080354
0.251835 0.272892 0.076814
0.265324 0.271458 0.073030
0.276493 0.269749 0.074067
0.287572 0.267735 0.076509
0.298833 0.265782 0.079377
0.308263 0.262181 0.082216
0.309606 0.251377 0.089174
0.311040 0.239597 0.095308
0.312444 0.226810 0.101350
0.328710 0.223178 0.108705
0.387213 0.250828 0.106691
0.455238 0.282170 0.100343
0.533104 0.317235 0.086091
0.615167 0.353613 0.059846
0.695430 0.388800 0.000000
0.765011 0.418921 0.000000
0.822202 0.443030 0.000000
0.868315 0.461860 0.000000
0.900328 0.469093 0.000000
0.921477 0.464607 0.000000
0.941650 0.460456 0.000000
0.960998 0.456947 0.000000
0.192752 0.296361 0.096437
0.193515 0.296086 0.096223
0.194858 0.295750 0.095735
0.197910 0.295354 0.095155
0.202457 0.294957 0.094209
0.208774 0.294530 0.093141
0.216556 0.294011 0.091402
0.225742 0.293462 0.089815
0.236057 0.292729 0.087221
0.247379 0.291844 0.084504
0.259800 0.290715 0.081209
0.273014 0.289433 0.077638
0.286168 0.287877 0.074617
0.297276 0.286046 0.076936
0.308629 0.284184 0.079103
0.320043 0.282170 0.081788
0.328527 0.277714 0.085542
0.329931 0.266728 0.092164
0.331365 0.254734 0.098604
0.332891 0.241733 0.105135
0.349004 0.237766 0.112428
0.406531 0.264042 0.111360
0.479713 0.298405 0.104524
0.562066 0.336370 0.089906
0.647181 0.374914 0.062409
0.726223 0.410407 0.000000
0.792569 0.439643 0.000000
0.846036 0.462562 0.000000
0.888731 0.480079 0.000000
0.923308 0.493629 0.000000
0.945159 0.492470 0.000000
0.963775 0.487922 0.000000
0.204013 0.315221 0.100191
0.204868 0.314946 0.099977
0.206119 0.314641 0.099489
0.208865 0.314214 0.098970
0.213260 0.313848 0.098054
0.219455 0.313420 0.096803
0.227054 0.312840 0.095125
0.235630 0.312352 0.093355
0.245670 0.311620 0.091157
0.256809 0.310704 0.088289
0.268894 0.309636 0.085206
0.281804 0.308415 0.081209
0.295445 0.306981 0.076905
0.307897 0.305364 0.076265
0.319341 0.303593 0.078676
0.330999 0.301701 0.081025
0.342718 0.299809 0.083467
0.350225 0.294163 0.087984
0.351720 0.283055 0.095155
0.353246 0.270756 0.101900
0.354772 0.257664 0.107973
0.370611 0.253178 0.115572
0.427161 0.277897 0.115602
0.506279 0.315740 0.107759
0.593164 0.356603 0.092195
0.680079 0.397101 0.065431
0.756802 0.432197 0.000000
0.819303 0.460365 0.000000
0.868833 0.481971 0.000000
0.908415 0.498360 0.000000
0.940673 0.510979 0.000000
0.966644 0.519127 0.000000
0.215946 0.335546 0.103212
0.216739 0.335149 0.103059
0.218021 0.334844 0.102846
0.220706 0.334478 0.102083
0.224979 0.334051 0.101228
0.230900 0.333684 0.099977
0.238071 0.333165 0.098390
0.246616 0.332708 0.096407
0.256535 0.331945 0.094301
0.267308 0.331121 0.091768
0.279179 0.330022 0.088258
0.291844 0.328923 0.084749
0.305364 0.327520 0.080323
0.319615 0.326085 0.075380
0.331365 0.324407 0.077089
0.343206 0.322576 0.079042
0.355047 0.320684 0.081880
0.367041 0.318700 0.084535
0.373175 0.311711 0.089723
0.374670 0.300084 0.097139
0.376104 0.287694 0.104250
0.377630 0.274205 0.110689
0.393225 0.269078 0.117983
0.448432 0.292027 0.119020
0.533165 0.333288 0.110384
0.623529 0.376654 0.094209
0.711116 0.418372 0.067079
0.784634 0.452888 0.004181
0.843412 0.479805 0.000000
0.889586 0.500267 0.000000
0.926665 0.515953 0.000000
0.957153 0.528222 0.000000
0.227817 0.356512 0.105867
0.228672 0.356298 0.105409
0.230045 0.356115 0.105379
0.232761 0.355901 0.104585
0.237064 0.355535 0.103731
0.242863 0.355200 0.102510
0.249973 0.354833 0.101137
0.258274 0.354223 0.099245
0.267887 0.353552 0.096712
0.278508 0.352667 0.094240
0.290227 0.351659 0.090822
0.302800 0.350469 0.086824
0.316228 0.349218 0.082460
0.330327 0.347723 0.077394
0.344274 0.346166 0.073945
0.356207 0.344518 0.076265
0.368414 0.342779 0.078706
0.380743 0.340887 0.081331
0.393103 0.338933 0.084138
0.398322 0.330785 0.090364
0.400000 0.319005 0.098268
0.401740 0.306340 0.105592
0.403662 0.292790 0.112795
0.419318 0.287297 0.120363
0.473762 0.308476 0.122164
0.564630 0.353735 0.112886
0.659358 0.400214 0.095491
0.745144 0.442023 0.071901
0.814572 0.475410 0.032746
0.868956 0.500908 0.000000
0.911742 0.520378 0.000000
0.946014 0.535119 0.000000
0.241550 0.380804 0.107851
0.242435 0.380621 0.107637
0.243656 0.380377 0.107210
0.246250 0.380133 0.106874
0.250614 0.379828 0.105776
0.256321 0.379522 0.104555
0.263310 0.379126 0.102998
0.271550 0.378668 0.101045
0.281132 0.377966 0.098787
0.291783 0.377142 0.095857
0.303471 0.376196 0.092439
0.316014 0.375067 0.088472
0.329381 0.373785 0.083894
0.343572 0.372442 0.078798
0.358526 0.370886 0.072419
0.371923 0.369329 0.070893
0.384375 0.367620 0.073762
0.397040 0.365850 0.076143
0.409918 0.363958 0.079316
0.422858 0.362097 0.081910
0.426856 0.352514 0.089906
0.428687 0.340368 0.098268
0.430762 0.327428 0.106386
0.432929 0.313481 0.114076
0.449500 0.307988 0.122164
0.503319 0.327459 0.124849
0.600580 0.376867 0.114595
0.697871 0.425879 0.097658
0.780117 0.467018 0.079866
0.844816 0.498970 0.066865
0.894835 0.523186 0.064240
0.933379 0.540887 0.066621
0.255924 0.406806 0.108980
0.256657 0.406653 0.108766
0.257877 0.406378 0.108583
0.260624 0.406287 0.107973
0.264897 0.406104 0.107057
0.270634 0.405798 0.105592
0.277623 0.405524 0.103975
0.286046 0.405188 0.101717
0.295720 0.404608 0.099123
0.306523 0.404028 0.096315
0.318303 0.403174 0.092561
0.331060 0.402289 0.088716
0.344701 0.401160 0.083680
0.359136 0.400031 0.078004
0.374273 0.398749 0.071626
0.390204 0.397284 0.063447
0.403388 0.395972 0.065522
0.416754 0.394415 0.068605
0.430152 0.392798 0.071473
0.443641 0.390997 0.074159
0.457221 0.389105 0.077363
0.460243 0.378088 0.087648
0.462623 0.365667 0.096925
0.465217 0.352483 0.106172
0.468116 0.338323 0.114595
0.484047 0.331640 0.122805
0.537163 0.349096 0.127504
0.640925 0.402991 0.116518
0.737667 0.453040 0.101961
0.815305 0.493111 0.091768
0.874113 0.523033 0.091127
0.918730 0.545068 0.097200
0.272831 0.437873 0.108858
0.273625 0.437629 0.108919
0.274846 0.437507 0.108186
0.277531 0.437354 0.107851
0.281804 0.437110 0.106691
0.287633 0.436866 0.105165
0.294713 0.436591 0.103731
0.303197 0.436316 0.101411
0.313024 0.435767 0.098482
0.323796 0.435126 0.095613
0.335760 0.434363 0.091676
0.348730 0.433509 0.087129
0.362676 0.432410 0.081544
0.377325 0.431373 0.075166
0.392889 0.430121 0.067475
0.409155 0.428870 0.058015
0.425086 0.427497 0.044556
0.438972 0.426246 0.051484
0.453040 0.424781 0.056916
0.467353 0.423285 0.061280
0.481758 0.421698 0.064729
0.495857 0.419562 0.068971
0.498665 0.407630 0.081910
0.501732 0.394965 0.093141
0.505150 0.381415 0.103700
0.508965 0.367071 0.113100
0.524681 0.359258 0.122713
0.576532 0.374334 0.129702
0.685451 0.432349 0.118898
0.778622 0.482094 0.110140
0.848569 0.519158 0.109285
0.901274 0.546807 0.117556
0.291600 0.472969 0.107607
0.292485 0.472724 0.107424
0.293797 0.472572 0.106966
0.296483 0.472511 0.106508
0.300908 0.472419 0.105226
0.306798 0.472297 0.103822
0.314092 0.472175 0.101991
0.322789 0.471901 0.099306
0.332860 0.471412 0.096193
0.343999 0.470893 0.092531
0.356176 0.470283 0.088258
0.369482 0.469398 0.083345
0.383764 0.468513 0.076783
0.399054 0.467506 0.069612
0.415106 0.466499 0.060121
0.432044 0.465400 0.038148
0.449622 0.464179 0.009369
0.465583 0.463111 0.003601
0.480537 0.461982 0.010071
0.495735 0.460761 0.017243
0.511254 0.459510 0.025971
0.526970 0.458320 0.036042
0.540826 0.455299 0.050202
0.544579 0.443214 0.072023
0.548669 0.430304 0.086244
0.553155 0.416571 0.098848
0.558160 0.401801 0.110536
0.574182 0.393103 0.121614
0.624750 0.405707 0.132601
0.733303 0.464973 0.124636
0.818357 0.511742 0.123659
0.881468 0.546593 0.133608
0.313176 0.513115 0.105104
0.314153 0.512932 0.104616
0.315496 0.512810 0.104097
0.318303 0.512779 0.103395
0.322728 0.512596 0.102083
0.328588 0.512505 0.100557
0.335912 0.512016 0.098299
0.344640 0.511498 0.095552
0.354742 0.510796 0.091829
0.365911 0.510002 0.087770
0.378332 0.509087 0.082673
0.391852 0.508141 0.076234
0.406409 0.507103 0.068757
0.422034 0.506065 0.058930
0.438514 0.505058 0.036378
0.455970 0.504173 0.006867
0.474372 0.503319 0.000000
0.493294 0.502342 0.000000
0.509239 0.501549 0.000000
0.525475 0.500816 0.000000
0.542016 0.500008 0.000000
0.558923 0.499275 0.000000
0.576349 0.498665 0.000000
0.590265 0.495003 0.000000
0.595361 0.482918 0.049989
0.600824 0.470039 0.074952
0.607019 0.456275 0.091432
0.613611 0.441505 0.105745
0.628626 0.430976 0.119112
0.681880 0.444800 0.133303
0.778164 0.497078 0.134524
0.855833 0.541650 0.144503
0.336248 0.556176 0.100587
0.337194 0.556085 0.100038
0.338598 0.555993 0.099702
0.341588 0.556054 0.098543
0.346227 0.556054 0.097292
0.352453 0.556054 0.095216
0.360052 0.555901 0.092531
0.369146 0.555718 0.089204
0.379675 0.555413 0.084993
0.391547 0.554986 0.079988
0.404639 0.554528 0.073213
0.418860 0.553948 0.065370
0.434272 0.553399 0.051881
0.450752 0.552819 0.026398
