data/fiter_cube/95423152/1023249/file.cube
# Created by Adobe Lightroom plugin Export LUT (1.17.0)
# www.johnrellis.com/lightroom/exportlut.htm
# Preset: 黑暗巧克力情绪人像_08 云集
# Color profile: C:\Program Files (x86)\Common Files\Adobe\Color\Profiles\Recommended\AdobeRGB1998.icc
LUT_3D_SIZE 8
DOMAIN_MIN 0.000000 0.000000 0.000000
DOMAIN_MAX 0.903226 0.903226 0.903226
0.000000 0.000000 0.000000
0.078187 0.006836 0.019074
0.164370 0.002258 0.035981
0.263798 0.000000 0.028016
0.376776 0.000000 0.035126
0.509239 0.000000 0.046540
0.680171 0.000000 0.036072
0.842710 0.000000 0.058473
0.044312 0.067597 0.023224
0.077852 0.063539 0.025452
0.173129 0.075471 0.025330
0.274418 0.072145 0.013550
0.387396 0.063233 0.029572
0.521630 0.002960 0.038880
0.690700 0.000000 0.025269
0.847684 0.000000 0.050721
0.088991 0.130434 0.048096
0.112428 0.130678 0.042359
0.149142 0.117189 0.054383
0.277958 0.154421 0.015106
0.413092 0.171633 0.000000
0.548455 0.171237 0.000000
0.709194 0.167391 0.000000
0.855741 0.163424 0.002136
0.129274 0.195926 0.068818
0.145449 0.195956 0.066651
0.192691 0.194186 0.058442
0.221073 0.171878 0.073365
0.354711 0.211398 0.068910
0.594110 0.297826 0.000000
0.745663 0.303471 0.000000
0.873289 0.302312 0.000000
0.172000 0.262882 0.088472
0.183719 0.262425 0.086458
0.220798 0.260075 0.078889
0.269383 0.253971 0.073854
0.293248 0.226352 0.091737
0.434150 0.267735 0.095552
0.737789 0.398657 0.000000
0.894774 0.435309 0.000000
0.215946 0.335546 0.103212
0.224979 0.334051 0.101228
0.256535 0.331945 0.094301
0.305364 0.327520 0.080323
0.355047 0.320684 0.081880
0.376104 0.287694 0.104250
0.533165 0.333288 0.110384
0.843412 0.479805 0.000000
0.272831 0.437873 0.108858
0.281804 0.437110 0.106691
0.313024 0.435767 0.098482
0.362676 0.432410 0.081544
0.425086 0.427497 0.044556
0.481758 0.421698 0.064729
0.505150 0.381415 0.103700
0.685451 0.432349 0.118898
0.364019 0.607202 0.095308
0.374304 0.607172 0.091829
0.408850 0.606683 0.076692
0.465614 0.605158 0.012970
0.543786 0.607752 0.000000
0.626001 0.607477 0.000000
0.704952 0.607599 0.000000
0.738949 0.557824 0.076478
0.024170 0.032349 0.072389
0.086793 0.000000 0.076753
0.165988 0.026032 0.082063
0.253849 0.024842 0.089418
0.366522 0.000000 0.096132
0.501030 0.000000 0.101289
0.674708 0.000000 0.101045
0.841032 0.000000 0.107942
0.039246 0.071199 0.068208
0.085084 0.076173 0.073854
0.164736 0.083619 0.083864
0.260929 0.081605 0.089326
0.374945 0.073274 0.096223
0.510826 0.018738 0.100252
0.684291 0.000000 0.099245
0.846098 0.000000 0.106966
0.080385 0.133211 0.074952
0.114290 0.135622 0.087251
0.153292 0.125734 0.088014
0.283970 0.165682 0.086519
0.401892 0.169528 0.092103
0.539452 0.168673 0.093874
0.706172 0.162539 0.088991
0.855253 0.157809 0.097292
0.127413 0.199863 0.093568
0.148104 0.200137 0.098543
0.193362 0.198398 0.090791
0.225437 0.178592 0.099275
0.366766 0.223453 0.102937
0.590417 0.294987 0.070375
0.744503 0.300755 0.059907
0.873198 0.300206 0.076783
0.173831 0.266270 0.112825
0.185275 0.265934 0.111116
0.221683 0.263767 0.104250
0.272038 0.258213 0.098207
0.297459 0.231785 0.111421
0.444923 0.277470 0.118502
0.746883 0.406439 0.025086
0.893889 0.433936 0.000000
0.216861 0.339300 0.123384
0.226200 0.338781 0.121889
0.257725 0.336400 0.115267
0.306584 0.331579 0.102937
0.357275 0.324163 0.102052
0.378851 0.291173 0.119814
0.542229 0.340856 0.127504
0.848295 0.485237 0.073671
0.272068 0.442573 0.127565
0.281621 0.442451 0.125673
0.312993 0.440681 0.118196
0.362829 0.436530 0.103670
0.426123 0.430579 0.078401
0.483833 0.424689 0.087556
0.508629 0.385016 0.118349
0.694484 0.439521 0.134127
0.360143 0.610590 0.117647
0.370489 0.610254 0.114321
0.405463 0.609461 0.102663
0.462806 0.607660 0.075776
0.538964 0.606470 0.000000
0.623651 0.607294 0.000000
0.704768 0.608667 0.000000
0.740291 0.559594 0.097658
0.062623 0.047089 0.153201
0.101228 0.026032 0.157534
0.181064 0.000000 0.159548
0.276097 0.000000 0.163607
0.365911 0.000000 0.167056
0.467781 0.000000 0.171084
0.637537 0.000000 0.176150
0.822141 0.000000 0.185702
0.079713 0.091798 0.144686
0.105928 0.090913 0.148959
0.177188 0.080018 0.155612
0.270390 0.076448 0.161013
0.361028 0.081758 0.166140
0.471351 0.051484 0.171084
0.647211 0.000000 0.176913
0.826993 0.000000 0.186099
0.094301 0.140627 0.134768
0.117250 0.144076 0.138369
0.181033 0.160952 0.156893
0.261723 0.161837 0.159976
0.367834 0.164034 0.167971
0.500389 0.158053 0.174044
0.673915 0.136690 0.177432
0.840024 0.121645 0.185611
0.122316 0.200961 0.140749
0.139925 0.204135 0.143587
0.197848 0.215488 0.158450
0.239780 0.200504 0.156832
0.398962 0.256535 0.173648
0.553399 0.274754 0.176638
0.717281 0.280583 0.176455
0.859922 0.284154 0.184512
0.146883 0.271580 0.140200
0.163210 0.273716 0.143191
0.225406 0.277379 0.164797
0.278355 0.271550 0.153964
0.308232 0.247745 0.161501
0.476905 0.307256 0.177676
0.768551 0.428901 0.172976
0.884276 0.424964 0.182010
0.193423 0.346319 0.150515
0.212680 0.347326 0.159091
0.258671 0.348302 0.169894
0.307805 0.343328 0.159182
0.363439 0.335332 0.152773
0.388434 0.303838 0.163638
0.572198 0.366461 0.177279
0.860319 0.501884 0.179721
0.252995 0.449592 0.163546
0.269871 0.450538 0.170840
0.306462 0.449622 0.170047
0.358312 0.445411 0.158083
0.424109 0.438788 0.139162
0.485969 0.431495 0.139559
0.512535 0.391638 0.158602
0.712276 0.455970 0.177768
0.339879 0.615778 0.172457
0.352056 0.615991 0.171633
0.389288 0.615412 0.163302
0.449042 0.612390 0.145876
0.528222 0.610681 0.116548
0.618128 0.609949 0.077058
0.701198 0.610132 0.089662
0.739010 0.561151 0.146029
0.090944 0.061433 0.242191
0.122591 0.056489 0.244602
0.201877 0.001526 0.256107
0.293492 0.000000 0.256596
0.417731 0.000000 0.271794
0.528038 0.000000 0.271977
0.663661 0.000000 0.275303
0.812192 0.000000 0.274510
0.103792 0.105806 0.231876
0.127901 0.103487 0.235264
0.197574 0.089631 0.248264
0.289220 0.060304 0.252567
0.414099 0.000000 0.268589
0.521935 0.000000 0.268223
0.658473 0.000000 0.271092
0.808957 0.000000 0.269505
0.121523 0.164034 0.215244
0.141512 0.166323 0.217807
0.195743 0.170047 0.234073
0.284001 0.160128 0.246494
0.394751 0.155032 0.255161
0.498451 0.143801 0.255161
0.634119 0.085481 0.254551
0.810391 0.000000 0.263767
0.135744 0.214633 0.205417
0.153201 0.217166 0.208042
0.204257 0.228946 0.219730
0.293675 0.258824 0.251896
0.378820 0.252659 0.248356
0.504021 0.251682 0.254643
0.672847 0.246250 0.261540
0.836851 0.249332 0.273899
0.168826 0.272740 0.210391
0.181765 0.275822 0.212833
0.222293 0.287633 0.221317
0.297124 0.308659 0.240940
0.340948 0.287114 0.236210
0.551080 0.369360 0.268803
0.736721 0.403174 0.279118
0.866606 0.408179 0.289250
0.186557 0.350439 0.211093
0.197848 0.352026 0.211673
0.234226 0.361639 0.214755
0.315831 0.371588 0.236454
0.378668 0.361273 0.221073
0.411444 0.331395 0.226902
0.632532 0.417365 0.255558
0.881254 0.539147 0.301854
0.201419 0.458167 0.201724
0.211643 0.459785 0.200137
0.268894 0.464271 0.213962
0.350866 0.466468 0.230747
0.420722 0.457557 0.212558
0.492317 0.447395 0.203098
0.525353 0.408148 0.215091
0.749447 0.490761 0.247410
0.256748 0.623468 0.196719
0.277409 0.623682 0.202457
0.342321 0.624811 0.221653
0.421790 0.624140 0.224949
0.507286 0.620996 0.202609
0.607263 0.617395 0.168734
0.696284 0.615229 0.173068
0.739315 0.566308 0.205844
0.128664 0.083375 0.341527
0.154482 0.079957 0.344335
0.226505 0.056641 0.356939
0.332525 0.000000 0.380713
0.431220 0.000000 0.373968
0.583215 0.000000 0.401007
0.732876 0.000000 0.413031
0.851408 0.000000 0.406470
0.135805 0.121431 0.332860
0.157626 0.118837 0.335729
0.223362 0.106508 0.348730
0.326665 0.046113 0.374090
0.427344 0.000000 0.370520
0.580224 0.000000 0.397894
0.728267 0.000000 0.408392
0.848844 0.000000 0.402747
0.149111 0.185855 0.313268
0.167025 0.186648 0.317693
0.219974 0.183932 0.331121
0.311559 0.170504 0.355779
0.418524 0.146761 0.361944
0.573724 0.087831 0.389502
0.713313 0.000000 0.393683
0.840024 0.000000 0.389624
0.161929 0.242191 0.293187
0.177523 0.243961 0.295323
0.225071 0.250340 0.303807
0.301854 0.261570 0.334752
0.412543 0.254093 0.354711
0.555200 0.241276 0.370397
0.683833 0.211887 0.365759
0.820371 0.176852 0.361212
0.177646 0.293736 0.280552
0.191257 0.295995 0.282811
0.235203 0.305455 0.292180
0.307591 0.327886 0.314427
0.426368 0.372229 0.362707
0.528496 0.355901 0.349889
0.683742 0.354803 0.356054
0.838193 0.369482 0.373785
0.214328 0.357092 0.287968
0.226261 0.359625 0.290532
0.261357 0.370459 0.298375
0.318578 0.392615 0.311894
0.413550 0.425116 0.333227
0.466133 0.390082 0.321324
0.727901 0.508690 0.386328
0.874449 0.549859 0.422644
0.223636 0.464546 0.299687
0.233555 0.466896 0.300237
0.265476 0.475013 0.300511
0.316442 0.490303 0.296727
0.422705 0.502190 0.310521
0.510369 0.483925 0.283757
0.555596 0.442512 0.290166
0.803433 0.551812 0.358099
0.233829 0.631434 0.308934
0.243809 0.632868 0.306432
0.275669 0.637903 0.295933
0.343694 0.643488 0.283513
0.475135 0.643824 0.301122
0.584802 0.636194 0.268528
0.691615 0.628443 0.254704
0.744717 0.579370 0.278172
0.170108 0.102785 0.468818
0.193515 0.098390 0.472023
0.262486 0.075013 0.485298
0.364294 0.000000 0.508171
0.496284 0.000000 0.539666
0.602747 0.000000 0.524773
0.760220 0.000000 0.550439
0.886748 0.000000 0.548547
0.172305 0.136904 0.463386
0.193912 0.133608 0.466926
0.260075 0.118624 0.480079
0.360174 0.065064 0.503380
0.493080 0.000000 0.536889
0.600610 0.000000 0.522667
0.759243 0.000000 0.548730
0.885283 0.000000 0.546380
0.171969 0.203830 0.441016
0.190494 0.202487 0.445045
0.249485 0.196475 0.458534
0.343938 0.179507 0.483040
0.475898 0.129732 0.520226
0.591424 0.032593 0.513481
0.754574 0.000000 0.541192
0.878904 0.000000 0.537255
0.182956 0.269596 0.404578
0.197391 0.270939 0.409400
0.244694 0.274327 0.427192
0.325261 0.272404 0.454047
0.449165 0.259434 0.493141
0.579644 0.232792 0.501518
0.747707 0.198032 0.528435
0.866270 0.186435 0.519463
0.195377 0.333440 0.387976
0.208530 0.334661 0.389776
0.251225 0.339483 0.397192
0.318883 0.348913 0.414221
0.426307 0.366644 0.465736
0.577600 0.361120 0.497230
0.736751 0.354864 0.509331
0.845274 0.345251 0.493111
0.212100 0.390600 0.372747
0.224063 0.392187 0.374334
0.263157 0.399786 0.381903
0.327367 0.416754 0.398962
0.424048 0.450538 0.432807
0.591119 0.517266 0.504875
0.699916 0.491371 0.480079
0.836820 0.507256 0.496071
0.244572 0.473793 0.386328
0.255253 0.475898 0.388067
0.291447 0.484260 0.395148
0.349187 0.500877 0.407355
0.423224 0.529015 0.419440
0.550317 0.565637 0.443091
0.618891 0.517021 0.421515
0.856840 0.659632 0.547967
0.265141 0.635950 0.430671
0.274632 0.637629 0.430335
0.305760 0.643214 0.428260
0.355230 0.652552 0.421118
0.424842 0.666560 0.405158
0.564141 0.672084 0.413916
0.685359 0.654139 0.367773
0.754788 0.605768 0.383551
0.219028 0.127779 0.634760
0.241245 0.123262 0.638605
0.306462 0.100710 0.645960
0.401984 0.000000 0.659480
0.520134 0.000000 0.679713
0.650263 0.000000 0.694728
0.765530 0.000000 0.682765
0.885832 0.000000 0.678828
0.214176 0.155612 0.623438
0.235660 0.152132 0.627222
0.300053 0.135256 0.635615
0.395056 0.086305 0.650111
0.512200 0.000000 0.670436
0.642573 0.000000 0.686458
0.757198 0.000000 0.674037
0.880064 0.000000 0.672328
0.202213 0.225071 0.610864
0.223270 0.222721 0.613214
0.286717 0.213230 0.621149
0.381598 0.192233 0.636957
0.499458 0.144839 0.658473
0.635554 0.000000 0.681086
0.755398 0.000000 0.671839
0.881651 0.000000 0.671870
0.191470 0.306126 0.583398
0.208255 0.304112 0.586114
0.265446 0.298070 0.595941
0.360204 0.290562 0.615412
0.480079 0.272862 0.641260
0.626398 0.238651 0.675319
0.753506 0.194034 0.669062
0.880735 0.191257 0.667750
0.200595 0.378241 0.538201
0.214237 0.376532 0.537774
0.258000 0.373175 0.541161
0.331701 0.375799 0.569360
0.444953 0.374578 0.606226
0.597192 0.369635 0.647669
0.740871 0.349432 0.654627
0.874083 0.373205 0.658473
0.210056 0.452979 0.518364
0.223026 0.453315 0.519493
0.264469 0.454658 0.523796
0.329656 0.458595 0.534752
0.422248 0.466194 0.554711
0.575494 0.500572 0.616754
0.739895 0.513207 0.650965
0.863645 0.534417 0.652094
0.227359 0.523949 0.501640
0.239536 0.525902 0.503685
0.277897 0.530205 0.508202
0.340093 0.539940 0.518456
0.430945 0.556878 0.536004
0.564813 0.593194 0.572961
0.744991 0.669978 0.653040
0.834348 0.653223 0.633753
0.269627 0.640589 0.530205
0.280949 0.641962 0.531212
0.322362 0.650813 0.538506
0.388525 0.660731 0.546624
0.479957 0.673548 0.558587
0.573754 0.692317 0.564446
0.700557 0.711818 0.581231
0.777462 0.666682 0.554925
0.270085 0.178103 0.765957
0.287388 0.174716 0.767483
0.340185 0.157687 0.769619
0.421424 0.118929 0.776150
0.520806 0.000000 0.785245
0.633906 0.000000 0.797116
0.753933 0.000000 0.802182
0.867185 0.000000 0.795285
0.266575 0.198306 0.761013
0.283757 0.195315 0.762631
0.336675 0.180819 0.765469
0.417578 0.148867 0.771756
0.517235 0.060304 0.781399
0.630610 0.000000 0.793698
0.751034 0.000000 0.799039
0.864744 0.000000 0.792264
0.255802 0.256962 0.751156
0.272923 0.254643 0.752468
0.325475 0.243687 0.754879
0.409094 0.226047 0.764523
0.509026 0.187839 0.774472
0.623102 0.099214 0.787137
0.746487 0.000000 0.795315
0.862394 0.000000 0.789395
0.235630 0.333837 0.736355
0.254307 0.332921 0.738247
0.308843 0.326360 0.742000
0.392828 0.315465 0.750942
0.495552 0.295598 0.763363
0.612757 0.261112 0.778714
0.741634 0.207065 0.792264
0.860929 0.143618 0.787259
0.229252 0.418219 0.707118
0.244846 0.417670 0.709621
0.291020 0.412970 0.715419
0.366003 0.404791 0.728817
0.472419 0.395941 0.743435
0.595209 0.382696 0.762478
0.734463 0.366369 0.786007
0.857877 0.349950 0.783200
0.228305 0.503319 0.684627
0.240269 0.501518 0.684108
0.279301 0.496345 0.683925
0.343206 0.488350 0.686763
0.444953 0.490547 0.706844
0.580865 0.504021 0.739467
0.731319 0.524437 0.773739
0.857786 0.532464 0.782376
0.240085 0.595178 0.674434
0.251438 0.594415 0.674220
0.289494 0.592523 0.674556
0.354498 0.591547 0.677882
0.444160 0.592401 0.684718
0.561730 0.601160 0.698146
0.723232 0.648981 0.747311
0.850553 0.670344 0.773159
0.270787 0.690791 0.670375
0.281529 0.690486 0.670130
0.318883 0.690944 0.670710
0.383337 0.693477 0.673701
0.470863 0.697993 0.678614
0.582086 0.706966 0.687861
0.713497 0.729763 0.710475
0.852018 0.792569 0.774990
