data/fiter_cube/95423152/1023249/file.cube
# Created by Adobe Lightroom plugin Export LUT (1.17.0)
# www.johnrellis.com/lightroom/exportlut.htm
# Preset: 黑暗巧克力情绪人像_08 云集
# Color profile: C:\Program Files (x86)\Common Files\Adobe\Color\Profiles\Recommended\AdobeRGB1998.icc
LUT_3D_SIZE 5
DOMAIN_MIN 0.000000 0.000000 0.000000
DOMAIN_MAX 0.903226 0.903226 0.903226
0.000000 0.000000 0.000000
0.141482 0.006806 0.035706
0.318853 0.000000 0.026368
0.549035 0.000000 0.045747
0.842710 0.000000 0.058473
0.078065 0.114443 0.042847
0.130678 0.103029 0.045289
0.344366 0.144320 0.003876
0.577325 0.138674 0.010376
0.851774 0.120760 0.017762
0.150942 0.229557 0.078828
0.193851 0.228183 0.071778
0.257115 0.199100 0.082795
0.603143 0.325841 0.000000
0.884062 0.368688 0.000000
0.227817 0.356512 0.105867
0.258274 0.354223 0.099245
0.344274 0.346166 0.073945
0.401740 0.306340 0.105592
0.814572 0.475410 0.032746
0.364019 0.607202 0.095308
0.398016 0.606897 0.081697
0.504112 0.608209 0.000000
0.645502 0.607691 0.000000
0.738949 0.557824 0.076478
0.055421 0.047333 0.132479
0.156741 0.002411 0.138155
0.311192 0.005188 0.144381
0.514549 0.000000 0.155245
0.829282 0.000000 0.166812
0.083680 0.122774 0.117708
0.155581 0.138460 0.135012
0.312047 0.143374 0.145968
0.543267 0.128756 0.156008
0.840970 0.074800 0.164889
0.130526 0.236545 0.123934
0.197574 0.241520 0.145724
0.269657 0.217807 0.144015
0.637507 0.354650 0.149142
0.874907 0.358312 0.155795
0.217105 0.364904 0.149508
0.257572 0.364355 0.156191
0.345312 0.355474 0.135866
0.409277 0.316747 0.150546
0.828855 0.491615 0.155856
0.346227 0.612207 0.157168
0.381994 0.611810 0.148836
0.490059 0.609308 0.113466
0.639307 0.608331 0.035248
0.737514 0.559075 0.131960
0.109377 0.072419 0.289982
0.191196 0.051209 0.300877
0.359503 0.000000 0.312932
0.597986 0.000000 0.339147
0.831754 0.000000 0.339300
0.132418 0.161501 0.267552
0.189425 0.159701 0.280552
0.349187 0.131228 0.302953
0.577874 0.023377 0.323827
0.820523 0.000000 0.323766
0.157321 0.253880 0.242802
0.205295 0.263096 0.251896
0.357580 0.313664 0.305303
0.551324 0.300877 0.301213
0.837095 0.308354 0.321843
0.202609 0.375860 0.251164
0.237491 0.384894 0.255192
0.361975 0.411597 0.276341
0.453498 0.367559 0.263432
0.874235 0.564050 0.361486
0.223239 0.629236 0.240635
0.264897 0.632380 0.231388
0.445594 0.633082 0.260380
0.624598 0.623774 0.207919
0.742336 0.572503 0.240024
0.182803 0.108003 0.511223
0.253727 0.088746 0.521996
0.436835 0.000000 0.561425
0.649226 0.000000 0.567864
0.890410 0.000000 0.583398
0.179446 0.191104 0.489387
0.243290 0.183261 0.501274
0.420539 0.131777 0.544274
0.642023 0.000000 0.560510
0.889006 0.000000 0.578637
0.192538 0.311864 0.430396
0.237247 0.312840 0.437018
0.379156 0.319860 0.494179
0.619654 0.288029 0.537255
0.868345 0.282200 0.550652
0.217899 0.420142 0.400977
0.256291 0.426978 0.407874
0.372778 0.456672 0.437873
0.634455 0.558221 0.544396
0.836820 0.546380 0.532189
0.275883 0.637537 0.459968
0.306065 0.642725 0.459419
0.398291 0.660426 0.451820
0.593042 0.679835 0.449470
0.759152 0.616846 0.419013
0.270085 0.178103 0.765957
0.323888 0.163455 0.768704
0.469398 0.075319 0.780514
0.664363 0.000000 0.800748
0.867185 0.000000 0.795285
0.260319 0.240818 0.755215
0.314183 0.230838 0.758602
0.460151 0.186893 0.771847
0.656458 0.000000 0.793362
0.863890 0.000000 0.791226
0.232273 0.376959 0.723354
0.281071 0.370550 0.728664
0.428656 0.352148 0.745571
0.634119 0.310826 0.774105
0.859037 0.255772 0.784756
0.233982 0.528649 0.684657
0.272679 0.524407 0.684230
0.390112 0.513909 0.689784
0.613733 0.537011 0.739376
0.855955 0.568658 0.779995
0.270787 0.690791 0.670375
0.306645 0.690608 0.670375
0.424414 0.695521 0.675929
0.613062 0.710780 0.691676
0.852018 0.792569 0.774990
