data/fiter_cube/69340301/1022766/file.cube
# Created by Adobe Lightroom plugin Export LUT (1.17.0)
# www.johnrellis.com/lightroom/exportlut.htm
# Preset: 小武拉莫温柔色调_01 云集
# Color profile: C:\Program Files (x86)\Common Files\Adobe\Color\Profiles\Recommended\AdobeRGB1998.icc
LUT_3D_SIZE 32
DOMAIN_MIN 0.0 0.0 0.0
DOMAIN_MAX 1.0 1.0 1.0
0.000000 0.000000 0.000000
0.128267 0.061860 0.000000
0.191379 0.091585 0.000000
0.326574 0.155062 0.000000
0.461769 0.217014 0.000000
0.552209 0.257786 0.000000
0.610315 0.284031 0.000000
0.651423 0.302922 0.000000
0.694240 0.322362 0.000000
0.745388 0.345556 0.000000
0.806271 0.372900 0.000000
0.871214 0.402350 0.000000
0.932097 0.430060 0.000000
0.983764 0.453864 0.000000
1.000000 0.472877 0.000000
1.000000 0.487373 0.000000
1.000000 0.502892 0.000000
1.000000 0.511345 0.000000
1.000000 0.516381 0.000000
1.000000 0.519554 0.000000
1.000000 0.521477 0.000000
1.000000 0.522606 0.000000
1.000000 0.523217 0.000000
1.000000 0.523461 0.000000
1.000000 0.523369 0.000000
1.000000 0.523186 0.000000
1.000000 0.522850 0.000000
1.000000 0.522454 0.000000
1.000000 0.521965 0.000000
1.000000 0.521447 0.000000
1.000000 0.520836 0.000000
1.000000 0.520256 0.000000
0.057160 0.111727 0.007599
0.122042 0.107576 0.000000
0.192477 0.110994 0.000000
0.331548 0.172488 0.000000
0.466407 0.230686 0.000000
0.554406 0.267552 0.000000
0.610986 0.290684 0.000000
0.651148 0.307591 0.000000
0.693202 0.325811 0.000000
0.743374 0.347845 0.000000
0.802945 0.374273 0.000000
0.866575 0.402716 0.000000
0.926940 0.429969 0.000000
0.978759 0.453620 0.000000
1.000000 0.472419 0.000000
1.000000 0.487770 0.000000
1.000000 0.502739 0.000000
1.000000 0.511192 0.000000
1.000000 0.516289 0.000000
1.000000 0.519646 0.000000
1.000000 0.521752 0.000000
1.000000 0.523003 0.000000
1.000000 0.523583 0.000000
1.000000 0.523796 0.000000
1.000000 0.523796 0.000000
1.000000 0.523583 0.000000
1.000000 0.523217 0.000000
1.000000 0.522789 0.000000
1.000000 0.522271 0.000000
1.000000 0.521721 0.000000
1.000000 0.521111 0.000000
1.000000 0.520470 0.000000
0.081941 0.158511 0.015991
0.132906 0.149874 0.052827
0.183261 0.160311 0.000000
0.336584 0.196658 0.000000
0.472114 0.248325 0.000000
0.558190 0.280430 0.000000
0.612726 0.300023 0.000000
0.652094 0.314611 0.000000
0.693751 0.331365 0.000000
0.743404 0.352239 0.000000
0.802396 0.377844 0.000000
0.865721 0.405646 0.000000
0.925628 0.432319 0.000000
0.977356 0.455634 0.000000
1.000000 0.474159 0.000000
1.000000 0.489815 0.000000
1.000000 0.503990 0.000000
1.000000 0.512108 0.000000
1.000000 0.517144 0.000000
1.000000 0.520531 0.000000
1.000000 0.522576 0.000000
1.000000 0.523735 0.000000
1.000000 0.524315 0.000000
1.000000 0.524498 0.000000
1.000000 0.524437 0.000000
1.000000 0.524193 0.000000
1.000000 0.523827 0.000000
1.000000 0.523369 0.000000
1.000000 0.522789 0.000000
1.000000 0.522179 0.000000
1.000000 0.521538 0.000000
1.000000 0.520867 0.000000
0.125734 0.247105 0.012116
0.168612 0.238071 0.052827
0.206180 0.230686 0.067506
0.307317 0.267002 0.000000
0.471565 0.298192 0.000000
0.569757 0.309300 0.000000
0.620203 0.321324 0.000000
0.658442 0.331212 0.000000
0.700252 0.345373 0.000000
0.750271 0.364660 0.000000
0.808713 0.388769 0.000000
0.870726 0.415137 0.000000
0.929076 0.440375 0.000000
0.979156 0.462165 0.000000
1.000000 0.479438 0.000000
1.000000 0.495613 0.000000
1.000000 0.507774 0.000000
1.000000 0.515099 0.000000
1.000000 0.519677 0.000000
1.000000 0.522667 0.000000
1.000000 0.524529 0.000000
1.000000 0.525566 0.000000
1.000000 0.526085 0.000000
1.000000 0.526177 0.000000
1.000000 0.525994 0.000000
1.000000 0.525658 0.000000
1.000000 0.525139 0.000000
1.000000 0.524590 0.000000
1.000000 0.523919 0.000000
1.000000 0.523217 0.000000
1.000000 0.522515 0.000000
1.000000 0.521721 0.000000
0.167727 0.328313 0.000000
0.200961 0.320165 0.014923
0.233219 0.308873 0.055573
0.300267 0.319310 0.000000
0.415991 0.358221 0.000000
0.548180 0.369299 0.000000
0.627375 0.350835 0.000000
0.665278 0.355077 0.000000
0.707485 0.365515 0.000000
0.758022 0.382696 0.000000
0.816037 0.404639 0.000000
0.876707 0.429023 0.000000
0.933471 0.452247 0.000000
0.982177 0.472297 0.000000
1.000000 0.488289 0.000000
1.000000 0.504387 0.000000
1.000000 0.514641 0.000000
1.000000 0.520836 0.000000
1.000000 0.524590 0.000000
1.000000 0.526879 0.000000
1.000000 0.528283 0.000000
1.000000 0.528923 0.000000
1.000000 0.529076 0.000000
1.000000 0.528862 0.000000
1.000000 0.528496 0.000000
1.000000 0.527886 0.000000
1.000000 0.527245 0.000000
1.000000 0.526452 0.000000
1.000000 0.525719 0.000000
1.000000 0.524865 0.000000
1.000000 0.523980 0.000000
1.000000 0.523125 0.000000
0.203891 0.390143 0.000000
0.228641 0.383886 0.000000
0.255070 0.374792 0.002594
0.296269 0.355474 0.065248
0.392401 0.398291 0.000000
0.496620 0.424811 0.000000
0.598444 0.420783 0.000000
0.663844 0.398016 0.000000
0.723354 0.395361 0.000000
0.775937 0.410163 0.000000
0.834470 0.430030 0.000000
0.893370 0.451575 0.000000
0.946960 0.471687 0.000000
0.992523 0.488746 0.000000
1.000000 0.504387 0.000000
1.000000 0.517082 0.000000
1.000000 0.524651 0.000000
1.000000 0.529076 0.000000
1.000000 0.531640 0.000000
1.000000 0.533043 0.000000
1.000000 0.533684 0.000000
1.000000 0.533745 0.000000
1.000000 0.534783 0.000000
1.000000 0.533806 0.000000
1.000000 0.532738 0.000000
1.000000 0.531670 0.000000
1.000000 0.530632 0.000000
1.000000 0.529534 0.000000
1.000000 0.528527 0.000000
1.000000 0.527459 0.000000
1.000000 0.526482 0.000000
1.000000 0.525444 0.000000
0.240177 0.447333 0.000000
0.259129 0.441810 0.000000
0.281193 0.434424 0.000000
0.318242 0.418708 0.025238
0.363348 0.404211 0.064729
0.481971 0.472175 0.000000
0.566094 0.481392 0.000000
0.645136 0.466865 0.000000
0.722347 0.455451 0.000000
0.825010 0.461738 0.000000
0.888945 0.478248 0.000000
0.943236 0.494636 0.000000
0.988434 0.508293 0.000000
1.000000 0.520287 0.000000
1.000000 0.532250 0.000000
1.000000 0.538109 0.000000
1.000000 0.540917 0.000000
1.000000 0.542077 0.000000
1.000000 0.542412 0.000000
1.000000 0.542138 0.000000
1.000000 0.541558 0.000000
1.000000 0.540642 0.000000
1.000000 0.539513 0.000000
1.000000 0.538262 0.000000
1.000000 0.536889 0.000000
1.000000 0.535485 0.000000
1.000000 0.534142 0.000000
1.000000 0.532799 0.000000
1.000000 0.531518 0.000000
1.000000 0.530236 0.000000
1.000000 0.529015 0.000000
1.000000 0.527825 0.000000
0.267430 0.479377 0.000000
0.281254 0.475196 0.000000
0.298161 0.469429 0.000000
0.328679 0.457191 0.000000
0.364508 0.438514 0.065400
0.430671 0.459144 0.000000
0.540246 0.515892 0.000000
0.602472 0.510582 0.000000
0.678676 0.501213 0.000000
0.768551 0.502892 0.000000
0.877623 0.516594 0.000000
0.962615 0.526299 0.000000
1.000000 0.537041 0.000000
1.000000 0.547875 0.000000
1.000000 0.552605 0.000000
1.000000 0.554070 0.000000
1.000000 0.554101 0.000000
1.000000 0.553216 0.000000
1.000000 0.552087 0.000000
1.000000 0.550713 0.000000
1.000000 0.549157 0.000000
1.000000 0.547448 0.000000
1.000000 0.545647 0.000000
1.000000 0.543816 0.000000
1.000000 0.541924 0.000000
1.000000 0.540154 0.000000
1.000000 0.538415 0.000000
1.000000 0.536736 0.000000
1.000000 0.535149 0.000000
1.000000 0.533562 0.000000
1.000000 0.532097 0.000000
1.000000 0.530694 0.000000
0.292729 0.504967 0.000000
0.302983 0.501671 0.000000
0.316289 0.497230 0.000000
0.340917 0.487648 0.000000
0.372045 0.472877 0.053498
0.402930 0.453651 0.087160
0.488899 0.504173 0.000000
0.585809 0.548974 0.000000
0.632654 0.534569 0.000000
0.719722 0.539513 0.000000
0.822416 0.553460 0.000000
0.940215 0.574853 0.000000
1.000000 0.578607 0.000000
1.000000 0.576867 0.000000
1.000000 0.575433 0.000000
1.000000 0.572717 0.000000
1.000000 0.569635 0.000000
1.000000 0.566583 0.000000
1.000000 0.563622 0.000000
1.000000 0.560845 0.000000
1.000000 0.558160 0.000000
1.000000 0.555505 0.000000
1.000000 0.552880 0.000000
1.000000 0.550378 0.000000
1.000000 0.547967 0.000000
1.000000 0.545617 0.000000
1.000000 0.543450 0.000000
1.000000 0.541375 0.000000
1.000000 0.539422 0.000000
1.000000 0.537560 0.000000
1.000000 0.535790 0.000000
1.000000 0.534112 0.000000
0.314214 0.525994 0.000000
0.322179 0.523369 0.000000
0.332067 0.519951 0.000000
0.352422 0.512230 0.000000
0.378973 0.500572 0.046235
0.407294 0.484993 0.081544
0.453712 0.493202 0.042420
0.535485 0.538476 0.000000
0.619532 0.572595 0.000000
0.667323 0.562554 0.000000
0.781430 0.591547 0.000000
0.898344 0.617060 0.000000
0.996307 0.627771 0.000000
1.000000 0.618158 0.000000
1.000000 0.599298 0.000000
1.000000 0.593103 0.000000
1.000000 0.587304 0.000000
1.000000 0.581811 0.000000
1.000000 0.576989 0.000000
1.000000 0.572534 0.000000
1.000000 0.568444 0.000000
1.000000 0.564691 0.000000
1.000000 0.561089 0.000000
1.000000 0.557824 0.000000
1.000000 0.554742 0.000000
1.000000 0.551904 0.000000
1.000000 0.549187 0.000000
1.000000 0.546715 0.000000
1.000000 0.544305 0.000000
1.000000 0.542138 0.000000
1.000000 0.540063 0.000000
1.000000 0.538079 0.000000
0.330449 0.542779 0.000000
0.336797 0.540826 0.000000
0.345220 0.538048 0.000000
0.361944 0.532128 0.000000
0.384985 0.522759 0.050385
0.410590 0.510582 0.079683
0.436744 0.495186 0.102083
0.499550 0.528893 0.000000
0.576501 0.568505 0.000000
0.657069 0.600488 0.000000
0.716365 0.602228 0.000000
0.847715 0.646540 0.000000
0.953491 0.666255 0.000000
1.000000 0.665583 0.000000
1.000000 0.647944 0.000000
1.000000 0.621515 0.000000
1.000000 0.605646 0.000000
1.000000 0.597986 0.000000
1.000000 0.591119 0.000000
1.000000 0.585107 0.000000
1.000000 0.579706 0.000000
1.000000 0.574792 0.000000
1.000000 0.570336 0.000000
1.000000 0.566217 0.000000
1.000000 0.562463 0.000000
1.000000 0.558953 0.000000
1.000000 0.555688 0.000000
1.000000 0.552697 0.000000
1.000000 0.549920 0.000000
1.000000 0.547265 0.000000
1.000000 0.544854 0.000000
1.000000 0.542596 0.000000
0.344732 0.558556 0.000000
0.350011 0.556939 0.000000
0.357031 0.554711 0.000000
0.371099 0.549950 0.020081
0.391730 0.543542 0.062623
0.416022 0.534874 0.084779
0.441840 0.523644 0.105165
0.476081 0.523308 0.105379
0.542565 0.562127 0.000000
0.615778 0.597742 0.000000
0.699367 0.633387 0.000000
0.771389 0.646845 0.000000
0.974975 0.747402 0.000000
1.000000 0.741085 0.000000
1.000000 0.715785 0.000000
1.000000 0.682643 0.000000
1.000000 0.648371 0.000000
1.000000 0.617945 0.000000
1.000000 0.608453 0.000000
1.000000 0.600214 0.000000
1.000000 0.592981 0.000000
1.000000 0.586633 0.000000
1.000000 0.580957 0.000000
1.000000 0.575860 0.000000
1.000000 0.571191 0.000000
1.000000 0.567010 0.000000
1.000000 0.563165 0.000000
1.000000 0.559594 0.000000
1.000000 0.556298 0.000000
1.000000 0.553216 0.000000
1.000000 0.550408 0.000000
1.000000 0.547753 0.000000
0.364874 0.583764 0.043000
0.369329 0.582574 0.052125
0.375311 0.580560 0.060548
0.387427 0.576562 0.071962
0.404883 0.570428 0.085573
0.426032 0.562036 0.100679
0.449256 0.551873 0.115938
0.472999 0.539849 0.131563
0.519127 0.558495 0.099916
0.582330 0.592981 0.000000
0.668452 0.639979 0.000000
0.770382 0.691585 0.000000
0.863645 0.721859 0.000000
0.995239 0.767910 0.000000
1.000000 0.758755 0.000000
1.000000 0.732052 0.000000
1.000000 0.698726 0.000000
1.000000 0.664912 0.000000
1.000000 0.632776 0.000000
1.000000 0.614527 0.000000
1.000000 0.606043 0.000000
1.000000 0.598505 0.000000
1.000000 0.591821 0.000000
1.000000 0.585809 0.000000
1.000000 0.580346 0.000000
1.000000 0.575433 0.000000
1.000000 0.570947 0.000000
1.000000 0.566827 0.000000
1.000000 0.563012 0.000000
1.000000 0.559503 0.000000
1.000000 0.556237 0.000000
1.000000 0.553246 0.000000
0.376440 0.597864 0.076539
0.380285 0.596735 0.079866
0.385077 0.595026 0.083070
0.395514 0.591363 0.089906
0.410376 0.585779 0.099580
0.428901 0.578302 0.110506
0.449897 0.569451 0.123354
0.472023 0.559106 0.136324
0.495064 0.548577 0.149050
0.549859 0.581476 0.087312
0.617731 0.619776 0.000000
0.715816 0.677516 0.000000
0.820493 0.731807 0.000000
0.909911 0.759640 0.000000
1.000000 0.792477 0.000000
1.000000 0.775509 0.000000
1.000000 0.746029 0.000000
1.000000 0.712764 0.000000
1.000000 0.679438 0.000000
1.000000 0.647822 0.000000
1.000000 0.619928 0.000000
1.000000 0.611231 0.000000
1.000000 0.603479 0.000000
1.000000 0.596551 0.000000
1.000000 0.590295 0.000000
1.000000 0.584619 0.000000
1.000000 0.579461 0.000000
1.000000 0.574731 0.000000
1.000000 0.570367 0.000000
1.000000 0.566339 0.000000
1.000000 0.562646 0.000000
1.000000 0.559258 0.000000
0.386297 0.610468 0.096529
0.389746 0.609461 0.098787
0.393774 0.607813 0.100893
0.402411 0.604364 0.106294
0.415412 0.599115 0.113161
0.431647 0.592493 0.121798
0.450538 0.584710 0.132021
0.471015 0.575738 0.143313
0.492317 0.565728 0.155489
0.525353 0.572168 0.148653
0.580926 0.604944 0.067659
0.657404 0.651118 0.000000
0.767941 0.719814 0.000000
0.868833 0.770687 0.000000
0.949432 0.791928 0.000000
1.000000 0.811612 0.000000
1.000000 0.789273 0.000000
1.000000 0.758358 0.000000
1.000000 0.725093 0.000000
1.000000 0.692317 0.000000
1.000000 0.661219 0.000000
1.000000 0.632044 0.000000
1.000000 0.615930 0.000000
1.000000 0.607996 0.000000
1.000000 0.600885 0.000000
1.000000 0.594446 0.000000
1.000000 0.588617 0.000000
1.000000 0.583246 0.000000
1.000000 0.578332 0.000000
1.000000 0.573846 0.000000
1.000000 0.569665 0.000000
1.000000 0.565789 0.000000
0.396002 0.623529 0.112581
0.398993 0.622766 0.114595
0.402502 0.621424 0.116670
0.410315 0.618372 0.120943
0.421851 0.613703 0.127321
0.436561 0.607691 0.135317
0.453681 0.600732 0.144625
0.472602 0.592920 0.154879
0.492836 0.584192 0.165682
0.513237 0.574548 0.176608
0.555261 0.595544 0.151278
0.616938 0.633814 0.000000
0.703334 0.688563 0.000000
0.820340 0.762448 0.000000
0.908812 0.802579 0.000000
0.977630 0.815244 0.000000
1.000000 0.824613 0.000000
1.000000 0.800473 0.000000
1.000000 0.769009 0.000000
1.000000 0.736080 0.000000
1.000000 0.703822 0.000000
1.000000 0.673213 0.000000
1.000000 0.644526 0.000000
1.000000 0.620172 0.000000
1.000000 0.612207 0.000000
1.000000 0.604974 0.000000
1.000000 0.598352 0.000000
1.000000 0.592340 0.000000
1.000000 0.586877 0.000000
1.000000 0.581811 0.000000
1.000000 0.577142 0.000000
1.000000 0.572808 0.000000
0.404974 0.636225 0.125460
0.407294 0.635279 0.126833
0.410590 0.633845 0.128939
0.417243 0.631006 0.132418
0.427466 0.626612 0.138033
0.440467 0.620966 0.145235
0.455756 0.614435 0.153597
0.472877 0.606928 0.162783
0.491279 0.598596 0.172610
0.510338 0.589563 0.182925
0.533379 0.585809 0.188083
0.584375 0.618402 0.146151
0.653498 0.663294 0.000000
0.749233 0.725948 0.000000
0.867918 0.800809 0.000000
0.942596 0.829343 0.000000
1.000000 0.835080 0.000000
1.000000 0.835813 0.000000
1.000000 0.810117 0.000000
1.000000 0.778378 0.000000
1.000000 0.745724 0.000000
1.000000 0.714046 0.000000
1.000000 0.683955 0.000000
1.000000 0.655756 0.000000
1.000000 0.629236 0.000000
1.000000 0.616022 0.000000
1.000000 0.608698 0.000000
1.000000 0.601984 0.000000
1.000000 0.595850 0.000000
1.000000 0.590265 0.000000
1.000000 0.585077 0.000000
1.000000 0.580285 0.000000
0.415229 0.651148 0.138735
0.417853 0.650690 0.140169
0.435126 0.668513 0.156680
0.441016 0.665248 0.160037
0.449775 0.660060 0.164797
0.460700 0.653559 0.170932
0.473823 0.645624 0.178042
0.488441 0.636896 0.185855
0.504479 0.627405 0.194797
0.521324 0.617426 0.203952
0.538262 0.606836 0.213291
0.571374 0.618524 0.203799
0.631464 0.659602 0.147646
0.714412 0.716487 0.000000
0.818936 0.785702 0.000000
0.930907 0.853666 0.000000
0.989441 0.867613 0.000000
1.000000 0.862547 0.000000
1.000000 0.850553 0.000000
1.000000 0.820981 0.000000
1.000000 0.787716 0.000000
1.000000 0.754818 0.000000
1.000000 0.723384 0.000000
1.000000 0.693782 0.000000
1.000000 0.665980 0.000000
1.000000 0.639857 0.000000
1.000000 0.619532 0.000000
1.000000 0.612146 0.000000
1.000000 0.605402 0.000000
1.000000 0.599176 0.000000
1.000000 0.593439 0.000000
1.000000 0.588159 0.000000
0.429969 0.672786 0.154116
0.433845 0.674647 0.156893
0.438514 0.676173 0.160403
0.445686 0.675776 0.164981
0.454994 0.673030 0.170993
0.465766 0.667720 0.177157
0.477943 0.660578 0.184421
0.491493 0.652186 0.192081
0.506249 0.643030 0.200412
0.521721 0.633295 0.209293
0.537560 0.622980 0.218296
0.553307 0.612055 0.227176
0.599023 0.641108 0.201419
0.665614 0.687861 0.128298
0.753445 0.748501 0.000000
0.856870 0.816098 0.000000
0.957000 0.873594 0.000000
1.000000 0.881224 0.000000
1.000000 0.872496 0.000000
1.000000 0.856870 0.000000
1.000000 0.827268 0.000000
1.000000 0.794522 0.000000
1.000000 0.762295 0.000000
1.000000 0.731533 0.000000
1.000000 0.702510 0.000000
1.000000 0.675196 0.000000
1.000000 0.649439 0.000000
1.000000 0.625208 0.000000
1.000000 0.615381 0.000000
1.000000 0.608545 0.000000
1.000000 0.602289 0.000000
1.000000 0.596521 0.000000
0.439704 0.689296 0.162875
0.443488 0.691157 0.165469
0.447822 0.692775 0.168551
0.454444 0.692531 0.172732
0.463111 0.689937 0.178317
0.472908 0.684871 0.184329
0.484138 0.677852 0.191043
0.496529 0.669612 0.198489
0.510124 0.660700 0.206516
0.524529 0.651057 0.215152
0.539361 0.640803 0.224002
0.554162 0.629969 0.232975
0.575189 0.627924 0.234562
0.629908 0.667201 0.197086
0.703182 0.719539 0.098604
0.793912 0.782040 0.000000
0.893584 0.845609 0.000000
0.981079 0.892119 0.000000
1.000000 0.894530 0.000000
1.000000 0.882170 0.000000
1.000000 0.862913 0.000000
1.000000 0.833280 0.000000
1.000000 0.800809 0.000000
1.000000 0.769162 0.000000
1.000000 0.739010 0.000000
1.000000 0.710506 0.000000
1.000000 0.683589 0.000000
1.000000 0.658289 0.000000
1.000000 0.634302 0.000000
1.000000 0.618402 0.000000
1.000000 0.611566 0.000000
1.000000 0.605249 0.000000
0.450477 0.708461 0.171359
0.454200 0.710536 0.173678
0.458473 0.712306 0.176394
0.464729 0.712184 0.180423
0.472816 0.709804 0.185611
0.481910 0.704768 0.191318
0.492103 0.697902 0.197726
0.503471 0.689601 0.204807
0.516014 0.680507 0.212558
0.529290 0.670588 0.221073
0.543053 0.660273 0.229770
0.556847 0.649195 0.238346
0.570123 0.637415 0.246555
0.602380 0.651179 0.236576
0.663508 0.696132 0.189700
0.742428 0.753048 0.021332
0.834989 0.816373 0.000000
0.930938 0.876005 0.000000
1.000000 0.912596 0.000000
1.000000 0.910033 0.000000
1.000000 0.893736 0.000000
1.000000 0.870115 0.000000
1.000000 0.839170 0.000000
1.000000 0.806760 0.000000
1.000000 0.775601 0.000000
1.000000 0.746029 0.000000
1.000000 0.718044 0.000000
1.000000 0.691707 0.000000
1.000000 0.666682 0.000000
1.000000 0.643122 0.000000
1.000000 0.621393 0.000000
1.000000 0.614710 0.000000
0.471901 0.743984 0.184634
0.474434 0.744656 0.186221
0.477272 0.744656 0.187961
0.482063 0.742916 0.191043
0.488746 0.739132 0.195346
0.496742 0.733394 0.200656
0.506188 0.726253 0.206760
0.516930 0.718074 0.213870
0.529015 0.709102 0.221927
0.541863 0.699367 0.230472
0.555108 0.688899 0.239384
0.568231 0.677485 0.248417
0.580652 0.665126 0.257053
0.592340 0.652125 0.265080
0.640040 0.685267 0.240879
0.708888 0.736965 0.182101
0.791531 0.796353 0.000000
0.881468 0.856016 0.000000
0.968231 0.906798 0.000000
1.000000 0.930877 0.000000
1.000000 0.921813 0.000000
1.000000 0.901366 0.000000
1.000000 0.874754 0.000000
1.000000 0.843595 0.000000
1.000000 0.811673 0.000000
1.000000 0.781186 0.000000
1.000000 0.752163 0.000000
1.000000 0.724758 0.000000
1.000000 0.698848 0.000000
1.000000 0.674372 0.000000
1.000000 0.651453 0.000000
1.000000 0.630335 0.000000
0.485603 0.769863 0.191806
0.488167 0.770687 0.193118
0.491005 0.771084 0.195041
0.495705 0.769436 0.197971
0.501946 0.765866 0.202121
0.509392 0.760098 0.207126
0.518151 0.752773 0.213016
0.528130 0.744381 0.219547
0.539391 0.735073 0.227390
0.551476 0.725063 0.235691
0.563989 0.714321 0.244450
0.576440 0.702754 0.253422
0.588342 0.690181 0.262211
0.599603 0.676753 0.270848
0.616480 0.671443 0.273777
0.675746 0.717433 0.239048
0.749264 0.772763 0.168338
0.832547 0.831662 0.000000
0.917540 0.885985 0.000000
0.996033 0.928862 0.000000
1.000000 0.943236 0.000000
1.000000 0.929992 0.000000
1.000000 0.907134 0.000000
1.000000 0.878782 0.000000
1.000000 0.847349 0.000000
1.000000 0.816037 0.000000
1.000000 0.786160 0.000000
1.000000 0.757809 0.000000
1.000000 0.731014 0.000000
1.000000 0.705776 0.000000
1.000000 0.682277 0.000000
1.000000 0.660975 0.000000
0.509026 0.811124 0.202823
0.511681 0.812314 0.204471
0.514305 0.812345 0.205905
0.518364 0.810178 0.208621
0.523888 0.805875 0.212161
0.530602 0.799557 0.216678
0.538415 0.791409 0.222141
0.547326 0.781888 0.228550
0.557214 0.771298 0.235508
0.567926 0.759823 0.243351
0.578912 0.747494 0.251499
0.590082 0.734554 0.259922
0.600946 0.720729 0.268467
0.610895 0.705959 0.276646
0.619745 0.690333 0.284367
0.648188 0.700496 0.276249
0.711025 0.749233 0.234073
0.785336 0.804288 0.149691
0.865782 0.859648 0.000000
0.944945 0.908049 0.000000
1.000000 0.944060 0.000000
1.000000 0.950988 0.000000
1.000000 0.934844 0.000000
1.000000 0.910460 0.000000
1.000000 0.881529 0.000000
1.000000 0.850858 0.000000
1.000000 0.820157 0.000000
1.000000 0.790951 0.000000
1.000000 0.763363 0.000000
1.000000 0.737484 0.000000
1.000000 0.713527 0.000000
1.000000 0.691890 0.000000
0.522271 0.839109 0.208713
0.524895 0.840269 0.210300
0.527520 0.840482 0.211795
0.531456 0.838499 0.214389
0.536889 0.834501 0.217746
0.543542 0.828672 0.222049
0.551568 0.821317 0.227359
0.560632 0.812680 0.233555
0.570825 0.802945 0.240665
0.581994 0.792447 0.248539
0.593378 0.781003 0.256748
0.605158 0.768704 0.265446
0.616510 0.755459 0.274266
0.626917 0.740963 0.282994
0.636194 0.725338 0.291295
0.644312 0.709071 0.299199
0.688258 0.738186 0.279698
0.755428 0.790249 0.230777
0.829831 0.844297 0.131716
0.905364 0.894011 0.000000
0.975769 0.933593 0.000000
1.000000 0.960540 0.000000
1.000000 0.959380 0.000000
1.000000 0.940032 0.000000
1.000000 0.914183 0.000000
1.000000 0.884489 0.000000
1.000000 0.854185 0.000000
1.000000 0.824155 0.000000
1.000000 0.795804 0.000000
1.000000 0.769314 0.000000
1.000000 0.744869 0.000000
1.000000 0.722957 0.000000
0.538628 0.872587 0.216617
0.540917 0.873167 0.218021
0.542992 0.872709 0.219181
0.546502 0.870329 0.221256
0.551324 0.866056 0.224247
0.557610 0.860288 0.228122
0.565270 0.853056 0.233158
0.574212 0.844694 0.238895
0.584497 0.835447 0.245762
0.595758 0.825681 0.253117
0.607568 0.814817 0.261448
0.619867 0.803464 0.270054
0.631830 0.790951 0.279057
0.643030 0.776913 0.287999
0.652735 0.761471 0.296483
0.661219 0.744961 0.304845
0.668513 0.727901 0.312810
0.728145 0.775692 0.280491
0.796262 0.827604 0.225681
0.867613 0.877684 0.110475
0.936431 0.920226 0.000000
0.998322 0.951659 0.000000
1.000000 0.971527 0.000000
1.000000 0.964599 0.000000
1.000000 0.943359 0.000000
1.000000 0.916838 0.000000
1.000000 0.886961 0.000000
1.000000 0.857084 0.000000
1.000000 0.828092 0.000000
1.000000 0.800931 0.000000
1.000000 0.775937 0.000000
1.000000 0.753750 0.000000
0.551324 0.901549 0.223819
0.553185 0.901701 0.224796
0.555200 0.901305 0.226017
0.558740 0.899382 0.228031
0.564202 0.896208 0.230991
0.571435 0.892180 0.235111
0.580835 0.887877 0.240665
0.592035 0.882963 0.247135
0.604913 0.877562 0.254551
0.619013 0.871611 0.263066
0.633967 0.864805 0.272099
0.649287 0.856870 0.281437
0.664240 0.847410 0.291142
0.678187 0.836057 0.300603
0.690669 0.822599 0.309941
0.701076 0.807004 0.318730
0.709926 0.790036 0.327367
0.730678 0.789456 0.326329
0.792599 0.838132 0.288853
0.856809 0.884611 0.229099
0.918791 0.924315 0.103792
0.975463 0.954345 0.000000
1.000000 0.973968 0.000000
1.000000 0.984649 0.000000
1.000000 0.971130 0.000000
1.000000 0.947387 0.000000
1.000000 0.919677 0.000000
1.000000 0.889555 0.000000
1.000000 0.860288 0.000000
1.000000 0.832425 0.000000
1.000000 0.806973 0.000000
1.000000 0.784451 0.000000
0.575036 0.945495 0.240757
0.576593 0.945403 0.241520
0.578271 0.944610 0.242405
0.581567 0.942596 0.244083
0.586694 0.939452 0.246494
0.593591 0.935332 0.249760
0.602289 0.930541 0.254063
0.612634 0.925200 0.259403
0.624720 0.919158 0.265873
0.637842 0.912383 0.272892
0.651850 0.904631 0.280674
0.666346 0.896025 0.288945
0.680903 0.886168 0.297459
0.694942 0.874784 0.306310
