data/fiter_cube/69340301/1022766/file.cube
# Created by Adobe Lightroom plugin Export LUT (1.17.0)
# www.johnrellis.com/lightroom/exportlut.htm
# Preset: 小武拉莫温柔色调_01 云集
# Color profile: C:\Program Files (x86)\Common Files\Adobe\Color\Profiles\Recommended\AdobeRGB1998.icc
LUT_3D_SIZE 8
DOMAIN_MIN 0.000000 0.000000 0.000000
DOMAIN_MAX 0.903226 0.903226 0.903226
0.000000 0.000000 0.000000
0.461769 0.217014 0.000000
0.694240 0.322362 0.000000
0.932097 0.430060 0.000000
1.000000 0.502892 0.000000
1.000000 0.521477 0.000000
1.000000 0.523369 0.000000
1.000000 0.521965 0.000000
0.167727 0.328313 0.000000
0.415991 0.358221 0.000000
0.707485 0.365515 0.000000
0.933471 0.452247 0.000000
1.000000 0.514641 0.000000
1.000000 0.528283 0.000000
1.000000 0.528496 0.000000
1.000000 0.525719 0.000000
0.292729 0.504967 0.000000
0.372045 0.472877 0.053498
0.632654 0.534569 0.000000
1.000000 0.578607 0.000000
1.000000 0.569635 0.000000
1.000000 0.558160 0.000000
1.000000 0.547967 0.000000
1.000000 0.539422 0.000000
0.364874 0.583764 0.043000
0.404883 0.570428 0.085573
0.519127 0.558495 0.099916
0.863645 0.721859 0.000000
1.000000 0.698726 0.000000
1.000000 0.606043 0.000000
1.000000 0.580346 0.000000
1.000000 0.563012 0.000000
0.404974 0.636225 0.125460
0.427466 0.626612 0.138033
0.491279 0.598596 0.172610
0.653498 0.663294 0.000000
1.000000 0.835080 0.000000
1.000000 0.745724 0.000000
1.000000 0.629236 0.000000
1.000000 0.595850 0.000000
0.450477 0.708461 0.171359
0.472816 0.709804 0.185611
0.516014 0.680507 0.212558
0.570123 0.637415 0.246555
0.834989 0.816373 0.000000
1.000000 0.893736 0.000000
1.000000 0.775601 0.000000
1.000000 0.666682 0.000000
0.522271 0.839109 0.208713
0.536889 0.834501 0.217746
0.570825 0.802945 0.240665
0.616510 0.755459 0.274266
0.688258 0.738186 0.279698
0.975769 0.933593 0.000000
1.000000 0.914183 0.000000
1.000000 0.795804 0.000000
0.584497 0.970214 0.251408
0.596338 0.965179 0.256504
0.635737 0.949371 0.275029
0.696498 0.923827 0.306096
0.733822 0.856229 0.330602
0.860288 0.900542 0.289311
1.000000 0.989715 0.000000
1.000000 0.920775 0.000000
0.114534 0.090883 0.343236
0.399908 0.000000 0.350195
0.640528 0.316564 0.122103
0.871275 0.416876 0.000000
1.000000 0.503624 0.000000
1.000000 0.524285 0.000000
1.000000 0.525689 0.000000
1.000000 0.523003 0.000000
0.000000 0.350927 0.275181
0.399695 0.336156 0.226352
0.665980 0.356603 0.022004
0.896666 0.445106 0.000000
1.000000 0.516960 0.000000
1.000000 0.531426 0.000000
1.000000 0.530541 0.000000
1.000000 0.526574 0.000000
0.271427 0.512810 0.131502
0.382605 0.480659 0.176089
0.625147 0.524620 0.000000
0.997162 0.562463 0.000000
1.000000 0.568475 0.000000
1.000000 0.559869 0.000000
1.000000 0.549340 0.000000
1.000000 0.540032 0.000000
0.363073 0.576928 0.124269
0.407385 0.563684 0.144564
0.522728 0.557488 0.127413
0.809140 0.673060 0.000000
1.000000 0.690913 0.000000
1.000000 0.606317 0.000000
1.000000 0.581048 0.000000
1.000000 0.563287 0.000000
0.410895 0.627558 0.143221
0.431861 0.617334 0.149569
0.492042 0.588220 0.169009
0.648035 0.653010 0.000000
0.972625 0.808133 0.000000
1.000000 0.744076 0.000000
1.000000 0.630182 0.000000
1.000000 0.595880 0.000000
0.448432 0.689479 0.168551
0.462806 0.682460 0.177157
0.504814 0.658045 0.202457
0.560388 0.622431 0.235904
0.825559 0.804440 0.000000
1.000000 0.888975 0.000000
1.000000 0.774929 0.000000
1.000000 0.666224 0.000000
0.508293 0.808743 0.202640
0.517266 0.797696 0.208927
0.551507 0.771328 0.231968
0.600153 0.732753 0.266606
0.679713 0.728023 0.270237
0.968658 0.925414 0.000000
1.000000 0.911284 0.000000
1.000000 0.794858 0.000000
0.576226 0.956939 0.243503
0.589136 0.953460 0.250004
0.628504 0.938140 0.269535
0.688716 0.913085 0.301427
0.745693 0.867918 0.335943
0.865049 0.904875 0.289433
1.000000 0.988739 0.000000
1.000000 0.919951 0.000000
0.214694 0.161776 0.562005
0.333257 0.000000 0.564355
0.603052 0.000000 0.502525
0.787259 0.152773 0.279576
1.000000 0.522301 0.293889
1.000000 0.548577 0.172702
1.000000 0.538628 0.000000
1.000000 0.526879 0.000000
0.249760 0.330266 0.532769
0.349035 0.310582 0.537346
0.588159 0.254246 0.479438
0.758419 0.408240 0.356237
1.000000 0.532372 0.280735
1.000000 0.551965 0.143557
1.000000 0.541619 0.000000
1.000000 0.529839 0.000000
0.000000 0.561303 0.414221
0.256931 0.550011 0.403510
0.599542 0.519066 0.404150
0.898528 0.538537 0.298344
1.000000 0.581109 0.214359
1.000000 0.573999 0.000000
1.000000 0.556817 0.000000
1.000000 0.541619 0.000000
0.240238 0.613611 0.229923
0.367559 0.602197 0.315160
0.506340 0.556298 0.341588
0.813504 0.688502 0.301427
1.000000 0.674342 0.000000
1.000000 0.609918 0.000000
1.000000 0.584649 0.000000
1.000000 0.564019 0.000000
0.382940 0.650599 0.266209
0.418433 0.640131 0.281010
0.493568 0.607477 0.293950
0.640497 0.652552 0.261814
0.983215 0.817533 0.000000
1.000000 0.740047 0.000000
1.000000 0.629358 0.000000
1.000000 0.595850 0.000000
0.439765 0.704005 0.247745
0.458625 0.695186 0.255253
0.505974 0.665644 0.269657
0.560174 0.624109 0.279393
0.822843 0.800381 0.000000
1.000000 0.881865 0.000000
1.000000 0.772763 0.000000
1.000000 0.664363 0.000000
0.511559 0.812253 0.233585
0.522728 0.801846 0.238865
0.555047 0.769589 0.252720
0.598230 0.723201 0.273075
0.686946 0.731685 0.256626
0.975616 0.927214 0.000000
1.000000 0.908507 0.000000
1.000000 0.792569 0.000000
0.578088 0.951049 0.243351
0.586786 0.945159 0.247288
0.623346 0.927489 0.265568
0.685786 0.906371 0.299809
0.740169 0.859953 0.333837
0.865293 0.904082 0.285222
1.000000 0.989075 0.000000
1.000000 0.918151 0.000000
0.303716 0.258396 0.648402
0.349004 0.222385 0.649989
0.506371 0.000000 0.646052
0.709743 0.000000 0.589410
0.951232 0.000000 0.451759
1.000000 0.421576 0.381628
1.000000 0.599268 0.392584
1.000000 0.570794 0.277104
0.366796 0.382544 0.635157
0.389502 0.355200 0.636194
0.509667 0.222873 0.636683
0.706386 0.225589 0.586694
0.947723 0.131594 0.431006
1.000000 0.508354 0.414466
1.000000 0.601587 0.386419
1.000000 0.570245 0.262425
0.347906 0.495094 0.601129
0.414130 0.501152 0.598077
0.519738 0.491371 0.600458
0.688777 0.470863 0.554864
0.920775 0.587152 0.511101
1.000000 0.636286 0.461158
1.000000 0.621576 0.389441
1.000000 0.578424 0.241581
0.000000 0.646540 0.492653
0.230747 0.643091 0.490089
0.474647 0.609949 0.509514
0.762173 0.662165 0.527153
1.000000 0.677974 0.454871
1.000000 0.666133 0.416663
1.000000 0.630915 0.329351
1.000000 0.586450 0.149477
0.183993 0.695277 0.301488
0.290318 0.684718 0.337713
0.494514 0.649409 0.453346
0.599939 0.626184 0.452399
0.976806 0.831449 0.457618
1.000000 0.742428 0.342260
1.000000 0.643275 0.165560
1.000000 0.602472 0.000000
0.367864 0.748898 0.303319
0.418006 0.748196 0.341070
0.509667 0.711025 0.393988
0.570520 0.656001 0.392981
0.793820 0.787778 0.359564
1.000000 0.889494 0.304356
1.000000 0.770779 0.077668
1.000000 0.652155 0.000000
0.466255 0.842100 0.305455
0.494362 0.836820 0.330999
0.547417 0.809689 0.347417
0.603418 0.761593 0.353765
0.653315 0.705196 0.359106
0.965393 0.925902 0.000000
1.000000 0.906432 0.000000
1.000000 0.786709 0.000000
0.555352 0.965362 0.310887
0.569909 0.961791 0.315373
0.609522 0.945708 0.315557
0.670497 0.915099 0.322728
0.732479 0.862913 0.343847
0.858335 0.898039 0.289891
1.000000 0.988830 0.000000
1.000000 0.914946 0.000000
0.393866 0.341161 0.764248
0.417090 0.320073 0.764004
0.496895 0.212131 0.757015
0.670039 0.000000 0.743191
0.872435 0.000000 0.715267
1.000000 0.000000 0.598322
1.000000 0.137575 0.419440
1.000000 0.458320 0.411566
0.425238 0.413916 0.747890
0.443183 0.397803 0.750668
0.507469 0.317327 0.747158
0.668727 0.186557 0.736080
0.862760 0.149264 0.706813
1.000000 0.000000 0.587274
1.000000 0.294652 0.443397
1.000000 0.501305 0.431037
0.453193 0.515465 0.704707
0.480201 0.522148 0.708858
0.530083 0.493263 0.711635
0.653010 0.424201 0.704402
0.828916 0.401740 0.678157
1.000000 0.329961 0.532525
1.000000 0.528710 0.500877
1.000000 0.617517 0.479988
0.377966 0.606378 0.671168
0.417548 0.605127 0.668482
0.513970 0.600549 0.662074
0.623011 0.574426 0.658747
0.834714 0.565972 0.596887
1.000000 0.677058 0.572625
1.000000 0.683314 0.536126
1.000000 0.655665 0.472236
0.121004 0.726314 0.558526
0.226719 0.725612 0.558068
0.415686 0.706538 0.558556
0.586206 0.658350 0.577356
0.926452 0.781704 0.576715
1.000000 0.737362 0.538872
1.000000 0.708034 0.504082
1.000000 0.662074 0.418189
0.151125 0.781765 0.389136
0.229191 0.775631 0.394781
0.396063 0.748836 0.432868
0.564874 0.696864 0.507378
0.677668 0.697322 0.499458
1.000000 0.887999 0.516960
1.000000 0.777157 0.454505
1.000000 0.665370 0.286320
0.276066 0.873594 0.297612
0.329320 0.865782 0.323369
0.458625 0.841611 0.395483
0.579095 0.797299 0.450752
0.636530 0.726131 0.436713
0.900145 0.887083 0.399145
1.000000 0.913115 0.383276
1.000000 0.784543 0.199649
0.406653 0.974640 0.281895
0.434791 0.970245 0.301946
0.518212 0.955413 0.359930
0.621149 0.937987 0.404578
0.698421 0.890654 0.393164
0.771511 0.828733 0.400855
1.000000 0.982757 0.106294
1.000000 0.913176 0.000000
0.476539 0.406287 0.907744
0.492744 0.391272 0.906126
0.547814 0.324559 0.898161
0.663661 0.062501 0.900145
0.842252 0.000000 0.868345
0.994568 0.000000 0.812222
1.000000 0.000000 0.697475
1.000000 0.000000 0.517815
0.483253 0.445563 0.886229
0.497078 0.432471 0.884520
0.550591 0.379217 0.883787
0.655360 0.222965 0.881743
0.828977 0.000000 0.852598
0.985229 0.000000 0.803525
1.000000 0.000000 0.690150
1.000000 0.000000 0.513146
0.500481 0.540764 0.867918
0.513268 0.532341 0.865873
0.561120 0.500206 0.862486
0.655818 0.421637 0.859800
0.816556 0.347448 0.832822
0.972351 0.311864 0.788174
1.000000 0.263157 0.666285
1.000000 0.222629 0.497841
0.465187 0.618067 0.818418
0.482979 0.612207 0.814298
0.526024 0.592828 0.814054
0.630671 0.563134 0.824277
0.802976 0.501915 0.810208
0.969848 0.462440 0.751858
1.000000 0.414343 0.602625
1.000000 0.524376 0.553124
0.352728 0.722560 0.759823
0.382177 0.720912 0.758907
0.459236 0.712917 0.755032
0.564508 0.692226 0.748898
0.732509 0.642634 0.739895
0.957305 0.665248 0.666072
1.000000 0.735164 0.641962
1.000000 0.713924 0.591608
0.000000 0.829343 0.633967
0.142306 0.831815 0.635279
0.320623 0.829557 0.629389
0.477729 0.799161 0.610285
0.647761 0.731472 0.611658
1.000000 0.866941 0.662074
1.000000 0.785824 0.633295
1.000000 0.733211 0.560204
0.000000 0.922576 0.480232
0.000000 0.920623 0.481819
0.273381 0.905547 0.481971
0.438453 0.876982 0.485573
0.631098 0.814145 0.544182
0.765682 0.790433 0.528893
1.000000 0.918151 0.572930
1.000000 0.795010 0.510185
0.000000 1.000000 0.305180
0.000000 1.000000 0.304540
0.254704 0.988922 0.342016
0.469551 0.969024 0.424079
0.638880 0.931670 0.489265
0.735134 0.860716 0.466926
0.975097 0.963806 0.434150
1.000000 0.925505 0.434638
0.528161 0.451759 0.990814
0.540917 0.442390 0.991608
0.581781 0.398779 0.990082
0.658289 0.284184 0.988708
0.784451 0.000000 0.983062
0.964508 0.000000 0.957794
1.000000 0.000000 0.866758
1.000000 0.000000 0.760189
0.528679 0.474464 0.982147
0.540978 0.465858 0.982910
0.581231 0.427253 0.981750
0.655390 0.329290 0.979461
0.777737 0.000000 0.974151
0.954803 0.000000 0.947570
1.000000 0.000000 0.861082
1.000000 0.000000 0.755032
0.527611 0.539818 0.971801
0.539330 0.532982 0.971405
0.580285 0.506126 0.969360
0.655238 0.444526 0.967224
0.769772 0.288304 0.963226
0.947051 0.198978 0.937499
1.000000 0.179324 0.855375
1.000000 0.107301 0.745449
0.475685 0.598779 0.948211
0.487160 0.594720 0.947631
0.553124 0.595300 0.948089
0.629114 0.550683 0.947845
0.752438 0.470649 0.944945
0.935393 0.395727 0.924407
1.000000 0.370214 0.841947
1.000000 0.328771 0.720119
0.417853 0.711330 0.904509
0.432563 0.706020 0.902739
0.484932 0.688960 0.899809
0.574853 0.661067 0.901488
0.690181 0.603967 0.907958
0.896727 0.516258 0.892790
1.000000 0.488411 0.802274
1.000000 0.451484 0.663478
0.248508 0.841733 0.855467
0.279240 0.839994 0.855070
0.357916 0.833158 0.853635
0.452186 0.817807 0.852873
0.605035 0.783780 0.850706
0.826139 0.717922 0.848020
1.000000 0.727718 0.753475
1.000000 0.761563 0.721767
0.000000 0.944030 0.720577
0.000000 0.944366 0.720333
0.079133 0.942351 0.716365
0.321996 0.939178 0.704433
0.475532 0.913603 0.670680
0.711940 0.845640 0.675593
1.000000 0.928161 0.802457
1.000000 0.857176 0.768338
0.000000 1.000000 0.550958
0.000000 1.000000 0.550683
0.000000 1.000000 0.551507
0.237491 1.000000 0.546532
0.412360 0.987518 0.519615
0.658778 0.941253 0.569909
0.817868 0.859464 0.545342
1.000000 0.939788 0.665949
0.566155 0.494270 1.000000
0.574151 0.487373 1.000000
0.600519 0.456794 1.000000
0.650385 0.385901 1.000000
0.728389 0.181369 1.000000
0.866239 0.000000 1.000000
1.000000 0.000000 1.000000
1.000000 0.000000 0.896483
0.564904 0.507347 1.000000
0.573022 0.501030 1.000000
0.600183 0.473335 1.000000
0.650294 0.408637 1.000000
0.728237 0.240146 1.000000
0.863798 0.000000 1.000000
1.000000 0.000000 1.000000
1.000000 0.000000 0.895415
0.557061 0.548333 1.000000
0.565362 0.542962 1.000000
0.593805 0.520806 1.000000
0.648554 0.475715 1.000000
0.727962 0.369024 1.000000
0.856535 0.089021 1.000000
1.000000 0.000000 1.000000
1.000000 0.000000 0.893431
0.529534 0.607202 1.000000
0.545922 0.609277 1.000000
0.574731 0.591455 1.000000
0.627039 0.551812 1.000000
0.713985 0.485573 1.000000
0.839597 0.348302 1.000000
1.000000 0.237064 1.000000
1.000000 0.248356 0.890105
0.483253 0.679622 0.995087
0.497627 0.677272 0.995514
0.528710 0.664424 0.996979
0.592584 0.652979 1.000000
0.671077 0.592645 1.000000
0.800961 0.490486 1.000000
1.000000 0.399329 0.995544
1.000000 0.393011 0.880034
0.350866 0.798550 0.974884
0.363806 0.794736 0.974548
0.409277 0.781460 0.974304
0.495399 0.757595 0.975647
0.646967 0.740017 0.977935
0.752377 0.673884 0.988312
0.968383 0.554559 0.985962
1.000000 0.543481 0.865660
0.000000 0.953063 0.949401
0.000000 0.951415 0.949340
0.148104 0.945403 0.949493
0.297673 0.932128 0.949706
0.442176 0.906706 0.950286
0.675074 0.868498 0.950530
0.887236 0.809323 0.952636
1.000000 0.799924 0.862181
0.000000 1.000000 0.796689
0.000000 1.000000 0.796017
0.000000 1.000000 0.794461
0.000000 1.000000 0.791623
0.277195 1.000000 0.781491
0.459297 1.000000 0.753353
0.729885 0.968627 0.753994
1.000000 0.984558 0.958953
