data/fiter_cube/69340301/1022766/file.cube
# Created by Adobe Lightroom plugin Export LUT (1.17.0)
# www.johnrellis.com/lightroom/exportlut.htm
# Preset: 小武拉莫温柔色调_01 云集
# Color profile: C:\Program Files (x86)\Common Files\Adobe\Color\Profiles\Recommended\AdobeRGB1998.icc
LUT_3D_SIZE 5
DOMAIN_MIN 0.000000 0.000000 0.000000
DOMAIN_MAX 0.903226 0.903226 0.903226
0.000000 0.000000 0.000000
0.651423 0.302922 0.000000
1.000000 0.472877 0.000000
1.000000 0.522606 0.000000
1.000000 0.521965 0.000000
0.267430 0.479377 0.000000
0.602472 0.510582 0.000000
1.000000 0.552605 0.000000
1.000000 0.547448 0.000000
1.000000 0.535149 0.000000
0.386297 0.610468 0.096529
0.471015 0.575738 0.143313
0.949432 0.791928 0.000000
1.000000 0.632044 0.000000
1.000000 0.578332 0.000000
0.471901 0.743984 0.184634
0.516930 0.718074 0.213870
0.640040 0.685267 0.240879
1.000000 0.901366 0.000000
1.000000 0.698848 0.000000
0.584497 0.970214 0.251408
0.623285 0.954101 0.268986
0.706600 0.880797 0.312444
0.915190 0.936156 0.225498
1.000000 0.920775 0.000000
0.187594 0.135897 0.522057
0.572442 0.000000 0.478859
0.908812 0.467079 0.251987
1.000000 0.534081 0.000000
1.000000 0.524590 0.000000
0.000000 0.529656 0.389929
0.573053 0.488136 0.360327
1.000000 0.541100 0.163027
1.000000 0.555261 0.000000
1.000000 0.537011 0.000000
0.362005 0.621302 0.242985
0.471687 0.583734 0.266117
0.899474 0.748470 0.000000
1.000000 0.631495 0.000000
1.000000 0.578943 0.000000
0.471748 0.735988 0.227146
0.518242 0.708278 0.248142
0.650538 0.690608 0.237217
1.000000 0.894804 0.000000
1.000000 0.697047 0.000000
0.584833 0.962371 0.249607
0.622156 0.945922 0.266972
0.719356 0.891539 0.319127
0.922087 0.941527 0.222049
1.000000 0.918975 0.000000
0.350744 0.303807 0.701717
0.450935 0.183932 0.697383
0.793179 0.000000 0.654322
1.000000 0.180728 0.402472
1.000000 0.585199 0.403235
0.427070 0.484474 0.655268
0.491157 0.460975 0.657618
0.762783 0.391211 0.632166
1.000000 0.535607 0.484657
1.000000 0.618097 0.410407
0.091249 0.682002 0.523400
0.392981 0.662959 0.526757
0.849180 0.724758 0.552056
1.000000 0.699306 0.482368
1.000000 0.624628 0.318029
0.301396 0.789670 0.306950
0.453864 0.757992 0.398413
0.597528 0.662074 0.431159
1.000000 0.899565 0.406928
1.000000 0.677211 0.000000
0.491829 0.965118 0.294499
0.564446 0.954284 0.355291
0.682826 0.902281 0.357336
0.884794 0.913390 0.301427
1.000000 0.912688 0.000000
0.485969 0.413855 0.925048
0.537255 0.363012 0.922667
0.735622 0.000000 0.916167
1.000000 0.000000 0.826627
1.000000 0.000000 0.584558
0.503716 0.514611 0.897002
0.548272 0.483162 0.895293
0.721218 0.301305 0.889830
0.994751 0.224033 0.809262
1.000000 0.103182 0.569238
0.433539 0.657832 0.812894
0.490608 0.643732 0.808225
0.653681 0.581750 0.809384
0.969024 0.492592 0.725917
1.000000 0.547570 0.571618
0.000000 0.864958 0.660029
0.244633 0.858366 0.652338
0.510460 0.815579 0.611902
1.000000 0.882231 0.691157
1.000000 0.749722 0.588251
0.000000 1.000000 0.375921
0.000000 1.000000 0.375067
0.507683 0.967956 0.463142
0.750668 0.857298 0.487587
1.000000 0.927764 0.488533
0.566155 0.494270 1.000000
0.591821 0.467323 1.000000
0.685206 0.316869 1.000000
0.909972 0.000000 1.000000
1.000000 0.000000 0.896483
0.561181 0.536919 1.000000
0.588495 0.515984 1.000000
0.685939 0.411444 1.000000
0.902892 0.000000 1.000000
1.000000 0.000000 0.894285
0.494331 0.629389 1.000000
0.532677 0.625269 1.000000
0.645899 0.568963 1.000000
0.867796 0.397650 1.000000
1.000000 0.330114 0.886198
0.306615 0.835813 0.970642
0.354711 0.824643 0.970306
0.521202 0.783047 0.972869
0.783780 0.706844 0.983154
1.000000 0.595270 0.861265
0.000000 1.000000 0.796689
0.000000 1.000000 0.794858
0.132204 1.000000 0.788113
0.515343 1.000000 0.746242
1.000000 0.984558 0.958953
