data/fiter_cube/48671653/1023261/file.cube
# Created by Adobe Lightroom plugin Export LUT (1.17.0)
# www.johnrellis.com/lightroom/exportlut.htm
# Preset: 青橙风光风景_10 云集
# Color profile: C:\Program Files (x86)\Common Files\Adobe\Color\Profiles\Recommended\AdobeRGB1998.icc
LUT_3D_SIZE 8
DOMAIN_MIN 0.000000 0.000000 0.000000
DOMAIN_MAX 0.903226 0.903226 0.903226
0.117067 0.168246 0.179171
0.119203 0.167880 0.178927
0.168399 0.173739 0.186618
0.315496 0.196139 0.219791
0.544915 0.241886 0.289952
0.731075 0.359167 0.401495
0.858061 0.541894 0.556756
0.931609 0.729488 0.734493
0.114870 0.173983 0.180087
0.126497 0.176455 0.178134
0.197024 0.177951 0.181430
0.359014 0.193484 0.211765
0.580468 0.241215 0.282811
0.751583 0.364630 0.396887
0.868345 0.546838 0.554406
0.936370 0.731014 0.733120
0.036713 0.283757 0.208377
0.073884 0.294530 0.190799
0.273198 0.302647 0.158083
0.520897 0.252781 0.167117
0.691035 0.283482 0.245609
0.815824 0.401129 0.373877
0.901488 0.568627 0.542748
0.952178 0.737209 0.726741
0.000000 0.551202 0.301854
0.000000 0.558892 0.284123
0.130800 0.583429 0.169039
0.604364 0.572076 0.000000
0.812650 0.498726 0.000000
0.901671 0.520165 0.298741
0.949828 0.620172 0.507378
0.977264 0.750881 0.709407
0.000000 0.812467 0.469886
0.000000 0.815061 0.458534
0.095033 0.819425 0.400336
0.483803 0.827665 0.177646
0.835904 0.798856 0.000000
0.953216 0.708431 0.000000
1.000000 0.707668 0.409583
1.000000 0.774990 0.665827
0.000000 0.945525 0.625879
0.000000 0.945159 0.622065
0.305333 0.942138 0.605737
0.502007 0.940368 0.515038
0.724636 0.935393 0.305333
0.959106 0.910094 0.000000
1.000000 0.821134 0.000000
1.000000 0.809201 0.529931
0.234867 1.000000 0.738521
0.316747 1.000000 0.739803
0.490913 0.998352 0.745144
0.660365 0.988800 0.755703
0.728847 0.989746 0.675502
0.856352 0.983673 0.485298
1.000000 0.964630 0.114046
1.000000 0.877440 0.000000
0.514305 1.000000 0.813687
0.512810 1.000000 0.812100
0.622522 1.000000 0.825895
0.753017 1.000000 0.851926
0.841917 1.000000 0.872831
0.848234 1.000000 0.800778
0.922087 1.000000 0.648951
1.000000 0.991974 0.249577
0.115877 0.167819 0.182345
0.118959 0.167727 0.179782
0.170016 0.176883 0.189059
0.338293 0.193179 0.213352
0.565209 0.239384 0.283513
0.742092 0.360418 0.397223
0.862486 0.543359 0.555077
0.932799 0.730098 0.734432
0.112276 0.175601 0.186252
0.122164 0.174014 0.184360
0.191379 0.184054 0.190463
0.377935 0.194095 0.205692
0.596979 0.241611 0.276402
0.761105 0.366949 0.392554
0.872251 0.548577 0.552758
0.937438 0.731624 0.733059
0.063508 0.269017 0.223819
0.095613 0.276860 0.218692
0.254826 0.288975 0.176242
0.503532 0.259464 0.192538
0.698970 0.290532 0.239536
0.821317 0.405646 0.369574
0.904082 0.570550 0.541100
0.952941 0.737850 0.726833
0.000000 0.535790 0.331914
0.000000 0.541588 0.321569
0.145785 0.563043 0.230350
0.589319 0.558251 0.088655
0.803983 0.496986 0.151461
0.903502 0.524010 0.294835
0.951049 0.621790 0.505974
0.977630 0.751492 0.709682
0.000000 0.804471 0.498726
0.000000 0.806851 0.489967
0.167666 0.810819 0.444068
0.482582 0.819333 0.259129
0.829404 0.793759 0.000000
0.949035 0.709010 0.086183
1.000000 0.708400 0.408881
1.000000 0.775448 0.666529
0.000000 0.941558 0.646662
0.000000 0.941070 0.643641
0.337896 0.938079 0.629999
0.529290 0.934783 0.562158
0.722042 0.933227 0.368627
0.955688 0.908751 0.000000
1.000000 0.822873 0.065278
1.000000 0.809354 0.532189
0.280278 1.000000 0.751553
0.349004 1.000000 0.752865
0.507591 0.996216 0.758206
0.667445 0.987182 0.768002
0.738003 0.987488 0.702693
0.855497 0.982727 0.530785
1.000000 0.964324 0.241672
1.000000 0.878843 0.000000
0.522332 1.000000 0.820127
0.520958 1.000000 0.818631
0.627893 1.000000 0.831785
0.755489 1.000000 0.856504
0.850095 1.000000 0.882078
0.853361 1.000000 0.815152
0.921782 1.000000 0.679164
1.000000 0.991882 0.331670
0.090181 0.167941 0.249821
0.129732 0.167544 0.220768
0.164736 0.175967 0.205600
0.311467 0.213077 0.247349
0.542473 0.279454 0.319493
0.758663 0.364782 0.391485
0.869718 0.547326 0.553735
0.934234 0.732540 0.736477
0.019684 0.202029 0.281163
0.113893 0.181643 0.252934
0.175753 0.192508 0.218265
0.325750 0.235752 0.262364
0.567651 0.291814 0.326177
0.775570 0.373419 0.387457
0.878813 0.552636 0.551263
0.938720 0.734035 0.735134
0.000000 0.293400 0.301549
0.052705 0.285130 0.291630
0.206882 0.259251 0.262669
0.411566 0.295293 0.296849
0.648524 0.344335 0.341619
0.818173 0.430030 0.396704
0.908690 0.574975 0.539696
0.953704 0.740169 0.729152
0.000000 0.493751 0.398993
0.000000 0.498360 0.398657
0.228916 0.511650 0.380102
0.539269 0.517052 0.271580
0.769711 0.509117 0.358862
0.880156 0.554437 0.414160
0.953399 0.625483 0.504997
0.977813 0.753414 0.712703
0.000000 0.782101 0.567895
0.000000 0.783200 0.565728
0.281895 0.784085 0.547906
0.482521 0.789273 0.436500
0.803494 0.775235 0.287419
0.929870 0.717525 0.382727
0.991150 0.725643 0.497017
1.000000 0.776669 0.670985
0.000000 0.930388 0.700313
0.203525 0.929046 0.700374
0.416541 0.925353 0.695857
0.585779 0.920043 0.669184
0.718654 0.923735 0.528832
0.940520 0.903685 0.367712
1.000000 0.831937 0.410101
1.000000 0.809873 0.543481
0.367468 0.997284 0.787594
0.421241 0.995392 0.789456
0.551568 0.989685 0.795163
0.687251 0.982147 0.802945
0.764981 0.980407 0.772732
0.853422 0.979400 0.652705
1.000000 0.963165 0.467079
1.000000 0.886107 0.381872
0.549676 1.000000 0.840665
0.547967 1.000000 0.839017
0.639643 1.000000 0.849088
0.761257 1.000000 0.870207
0.852628 1.000000 0.892332
0.869017 1.000000 0.853971
0.921874 1.000000 0.758358
1.000000 0.991485 0.523644
0.000000 0.172030 0.434455
0.102052 0.170871 0.394873
0.213474 0.189914 0.288975
0.306096 0.210056 0.288914
0.526757 0.277958 0.362402
0.712215 0.403052 0.461921
0.853849 0.576684 0.590021
0.933165 0.737362 0.743099
0.000000 0.214389 0.470100
0.000000 0.199649 0.435981
0.235660 0.210300 0.323583
0.320623 0.232486 0.304509
0.536736 0.304387 0.378058
0.716243 0.428565 0.476753
0.860655 0.585992 0.594568
0.937163 0.738796 0.742275
0.000000 0.391547 0.540948
0.000000 0.378088 0.530144
0.234470 0.299687 0.444923
0.366003 0.310460 0.356664
0.566979 0.390173 0.430182
0.736934 0.510369 0.527092
0.883268 0.618769 0.609583
0.951568 0.744442 0.737362
0.000000 0.569574 0.567559
0.000000 0.560723 0.557885
0.209354 0.524926 0.521202
0.434913 0.444129 0.444190
0.655055 0.516289 0.506615
0.813748 0.599542 0.570092
0.917937 0.678737 0.634913
0.975586 0.756649 0.722499
0.000000 0.762722 0.650660
0.000000 0.758602 0.648676
0.385260 0.741390 0.641474
0.530816 0.737667 0.613642
0.747738 0.736080 0.509361
0.889921 0.741787 0.624750
0.955200 0.766964 0.675105
1.000000 0.786862 0.705501
0.289708 0.910002 0.765347
0.352087 0.909148 0.766201
0.491371 0.906462 0.766964
0.625360 0.902220 0.758633
0.721828 0.903044 0.691524
0.910796 0.893278 0.592950
0.983215 0.851469 0.665705
1.000000 0.847684 0.730220
0.461952 0.986175 0.834104
0.501091 0.984588 0.835691
0.601984 0.980041 0.840421
0.710353 0.974823 0.845518
0.801694 0.969909 0.845304
0.852811 0.973999 0.773495
0.987335 0.960998 0.675227
1.000000 0.901976 0.661952
0.595819 1.000000 0.872435
0.594324 1.000000 0.871183
0.658930 1.000000 0.875517
0.761501 1.000000 0.888121
0.853452 1.000000 0.906615
0.889891 1.000000 0.897002
0.924712 1.000000 0.838071
1.000000 0.990875 0.714839
0.000000 0.191440 0.661402
0.000000 0.190066 0.634180
0.320043 0.196414 0.539361
0.384771 0.223056 0.416205
0.520470 0.270359 0.424781
0.707332 0.403998 0.517021
0.843046 0.576593 0.632685
0.927459 0.746426 0.764675
0.000000 0.232975 0.687739
0.000000 0.232486 0.663233
0.328038 0.230900 0.571038
0.403967 0.251835 0.435645
0.530694 0.297276 0.439338
0.711696 0.428443 0.529686
0.843900 0.593683 0.642481
0.927031 0.756161 0.771725
0.000000 0.468269 0.762600
0.000000 0.439948 0.743771
0.286381 0.353826 0.667353
0.462348 0.349218 0.500542
0.561273 0.384802 0.486854
0.725216 0.504845 0.570642
0.847074 0.646143 0.674495
0.926452 0.786099 0.793729
0.000000 0.670619 0.781216
0.000000 0.663722 0.776242
0.192355 0.633265 0.755856
0.509575 0.519493 0.663722
0.602747 0.516197 0.559716
0.744625 0.611994 0.633234
0.851102 0.724392 0.728237
0.947173 0.798093 0.796231
0.000000 0.814389 0.794888
0.000000 0.809354 0.790860
0.304570 0.788907 0.774319
0.532006 0.745693 0.735195
0.648524 0.655604 0.645441
0.806332 0.731044 0.715053
0.907805 0.789883 0.770932
0.970886 0.829252 0.809140
0.233310 0.910887 0.827634
0.326268 0.907530 0.827054
0.507500 0.896452 0.824979
0.666682 0.879515 0.821378
0.741176 0.875029 0.803159
0.869932 0.872923 0.738613
0.953887 0.875090 0.820096
0.991943 0.877745 0.834653
0.560815 0.970581 0.878691
0.592340 0.968627 0.880034
0.662196 0.966186 0.883360
0.741665 0.964019 0.886839
0.810269 0.963104 0.885710
0.861479 0.964050 0.858946
0.966918 0.957397 0.807279
1.000000 0.921752 0.828702
0.653681 1.000000 0.906859
0.652613 1.000000 0.906065
0.705562 1.000000 0.909209
0.775509 1.000000 0.914183
0.846769 0.999237 0.921599
0.911467 0.995361 0.933165
0.929564 0.998444 0.896727
1.000000 0.990234 0.837461
0.000000 0.239902 0.840726
0.131441 0.234195 0.827512
0.423926 0.234043 0.778164
0.551263 0.274205 0.661006
0.589532 0.282750 0.571405
0.706508 0.396338 0.588037
0.839750 0.579980 0.684596
0.927123 0.747555 0.794156
0.000000 0.287419 0.851530
0.074861 0.285710 0.840330
0.424140 0.282322 0.794400
0.564355 0.308415 0.683467
0.601404 0.316014 0.586511
0.710842 0.421363 0.598627
0.840726 0.596765 0.692775
0.927214 0.755520 0.798825
0.000000 0.507408 0.881834
0.096681 0.491890 0.873716
0.392004 0.426520 0.840360
0.592523 0.422126 0.751064
0.632563 0.421668 0.630640
0.724147 0.499672 0.633021
0.844205 0.648493 0.719173
0.927886 0.780728 0.813901
0.000000 0.725399 0.905241
0.000000 0.721157 0.903471
0.333623 0.694148 0.891966
0.585687 0.603601 0.836454
0.672694 0.568994 0.694636
0.742885 0.608911 0.685084
0.850706 0.718105 0.758450
0.929900 0.816831 0.836332
0.000000 0.850919 0.905455
0.000000 0.847898 0.903990
0.388617 0.837064 0.898192
0.587701 0.816037 0.885557
0.714199 0.737209 0.829007
0.765072 0.718166 0.745388
0.861204 0.788998 0.802548
0.933227 0.860807 0.865934
0.213840 0.931487 0.908690
0.308263 0.928679 0.907622
0.487617 0.919280 0.903471
0.642725 0.904326 0.894499
0.744747 0.881041 0.874907
0.794186 0.815213 0.808713
0.904479 0.867643 0.860349
0.965728 0.895628 0.887938
0.468238 0.981689 0.919097
0.512291 0.979065 0.919005
0.624231 0.971160 0.918914
0.738979 0.961334 0.919127
0.829038 0.952178 0.919768
0.874113 0.951080 0.913298
0.946136 0.949279 0.882048
0.990539 0.942138 0.915740
0.670039 1.000000 0.935180
0.672328 1.000000 0.934874
0.737331 1.000000 0.937713
0.807858 0.994324 0.942016
0.860105 0.993225 0.945586
0.908232 0.993011 0.949065
0.941436 0.993957 0.941741
0.996918 0.989502 0.911528
0.232303 0.347753 0.944671
0.337377 0.347662 0.939666
0.527214 0.354406 0.920012
0.670619 0.384894 0.875090
0.720882 0.445106 0.775753
0.753994 0.418982 0.726040
0.842802 0.578119 0.750393
0.926726 0.762905 0.832944
0.250614 0.374731 0.946410
0.346227 0.376837 0.941802
0.528557 0.389136 0.923735
0.673030 0.422278 0.882292
0.728573 0.470680 0.788602
0.759701 0.447486 0.736233
0.843687 0.595026 0.756191
0.926818 0.763333 0.833524
0.329564 0.567620 0.954894
0.353887 0.541894 0.952514
0.516472 0.525566 0.938445
0.675685 0.536217 0.904265
0.749691 0.552911 0.827481
0.777310 0.534630 0.768154
0.846891 0.646937 0.775204
0.927672 0.784726 0.844114
0.009247 0.744106 0.967987
0.278386 0.739559 0.965423
0.527520 0.729000 0.955108
0.668421 0.690730 0.932982
0.771481 0.676020 0.878935
0.797910 0.652857 0.808377
0.852750 0.716579 0.803616
0.929931 0.819547 0.862058
0.135531 0.860105 0.967071
0.268986 0.858946 0.966430
0.476112 0.855406 0.964172
0.647974 0.849546 0.959899
0.775540 0.803433 0.929046
0.815885 0.762081 0.845548
0.861906 0.787655 0.836790
0.934203 0.859373 0.884245
0.327611 0.934936 0.964446
0.391791 0.933379 0.963958
0.542168 0.928862 0.962310
0.682734 0.923308 0.959442
0.786496 0.915648 0.954559
0.851102 0.875303 0.925658
0.875853 0.855375 0.873381
0.941222 0.900084 0.909239
0.454505 0.984192 0.963470
0.497230 0.982300 0.963165
0.606867 0.976684 0.962127
0.721187 0.969818 0.960479
0.814115 0.963043 0.957641
0.877195 0.953613 0.950378
0.896239 0.913939 0.910765
0.967010 0.943755 0.940917
0.566430 1.000000 0.965515
0.570764 1.000000 0.965148
0.661982 1.000000 0.964752
0.765011 1.000000 0.964691
0.852934 0.993103 0.965759
0.917205 0.987427 0.968566
0.950805 0.988708 0.969482
0.989044 0.987915 0.955169
0.471656 0.532921 0.996063
0.515099 0.539117 0.993927
0.626673 0.562188 0.986084
0.743526 0.603784 0.970306
0.827298 0.653132 0.941375
0.862119 0.680537 0.898283
0.881010 0.655634 0.862364
0.934051 0.788998 0.881376
0.474525 0.534997 0.996307
0.516808 0.541192 0.994232
0.626673 0.564019 0.986542
0.742916 0.605280 0.971038
0.827176 0.654505 0.942626
0.862455 0.683040 0.899290
0.882017 0.658045 0.864469
0.934112 0.789181 0.881895
0.490852 0.625269 0.997192
0.518853 0.621180 0.995850
0.625727 0.636164 0.989014
0.740932 0.662074 0.975280
0.827726 0.692866 0.950042
0.864744 0.714199 0.904723
0.886107 0.681544 0.873991
0.934386 0.789944 0.883696
0.445014 0.750820 0.999939
0.516686 0.758724 0.997925
0.668086 0.783902 0.991180
0.738033 0.763363 0.982971
0.827420 0.770230 0.963653
0.874022 0.775875 0.923064
0.895171 0.751980 0.894530
0.935821 0.822385 0.895537
0.092073 0.846403 1.000000
0.256229 0.846586 1.000000
0.484321 0.848386 1.000000
0.714595 0.853605 0.992187
0.822629 0.849851 0.979217
0.883787 0.839750 0.951324
0.906493 0.821653 0.917388
0.938689 0.860624 0.911040
0.243565 0.921202 0.998230
0.332006 0.920409 0.997803
0.513146 0.918791 0.996429
0.677089 0.919005 0.994385
0.800137 0.922148 0.992065
0.887816 0.909331 0.977691
0.914763 0.885618 0.936004
0.943877 0.900206 0.929381
0.370703 0.974762 0.994598
0.395117 0.974121 0.994415
0.546471 0.969879 0.993378
0.696284 0.965820 0.991852
0.812741 0.964416 0.990265
0.891905 0.964660 0.988769
0.937072 0.950256 0.977722
0.952361 0.938048 0.949645
0.575830 1.000000 0.991424
0.576074 1.000000 0.991363
0.577020 1.000000 0.991119
0.712215 1.000000 0.990082
0.823911 0.994568 0.989136
0.900969 0.991119 0.988495
0.950530 0.988922 0.987701
0.965515 0.972412 0.971344
