data/fiter_cube/48671653/1023261/file.cube
# Created by Adobe Lightroom plugin Export LUT (1.17.0)
# www.johnrellis.com/lightroom/exportlut.htm
# Preset: 青橙风光风景_10 云集
# Color profile: C:\Program Files (x86)\Common Files\Adobe\Color\Profiles\Recommended\AdobeRGB1998.icc
LUT_3D_SIZE 5
DOMAIN_MIN 0.000000 0.000000 0.000000
DOMAIN_MAX 0.903226 0.903226 0.903226
0.117067 0.168246 0.179171
0.148104 0.171115 0.183169
0.428260 0.213565 0.249729
0.768704 0.400702 0.436896
0.931609 0.729488 0.734493
0.084962 0.240909 0.196841
0.215732 0.255406 0.167239
0.569574 0.228092 0.215824
0.824277 0.427375 0.420752
0.947234 0.735103 0.729000
0.000000 0.697749 0.381201
0.000000 0.711299 0.314183
0.739620 0.705013 0.000000
0.952819 0.617731 0.280858
0.992126 0.761501 0.692592
0.000000 0.965850 0.658656
0.288731 0.962188 0.650385
0.612818 0.957214 0.515618
0.979706 0.927489 0.000000
1.000000 0.819455 0.436866
0.514305 1.000000 0.813687
0.587671 1.000000 0.820706
0.805875 1.000000 0.865934
0.856474 1.000000 0.770260
1.000000 0.991974 0.249577
0.102205 0.167697 0.222293
0.145174 0.171786 0.194308
0.429511 0.240665 0.271763
0.788510 0.405676 0.429572
0.934051 0.731716 0.735561
0.026520 0.248112 0.256413
0.172976 0.227298 0.232792
0.531487 0.278782 0.284245
0.837034 0.436103 0.412940
0.948913 0.737331 0.730343
0.000000 0.662745 0.465370
0.142123 0.671626 0.444617
0.704952 0.674922 0.213596
0.939086 0.637354 0.390753
0.992370 0.763149 0.695186
0.097810 0.955444 0.712703
0.387488 0.951141 0.711147
0.646754 0.945464 0.636133
0.967224 0.924193 0.329381
1.000000 0.819425 0.448768
0.540948 1.000000 0.834195
0.604486 1.000000 0.839628
0.810422 1.000000 0.878141
0.870481 1.000000 0.821988
1.000000 0.991638 0.472175
0.000000 0.179019 0.550927
0.240574 0.184604 0.441077
0.411566 0.234867 0.352056
0.749142 0.443793 0.516564
0.932952 0.740688 0.747250
0.000000 0.381628 0.652308
0.191775 0.291112 0.557702
0.454322 0.316777 0.403082
0.759243 0.516533 0.557519
0.945251 0.746670 0.745663
0.000000 0.711940 0.697749
0.087892 0.686000 0.672572
0.553582 0.553368 0.548272
0.839872 0.690730 0.665431
0.976165 0.788510 0.757290
0.407050 0.924437 0.814450
0.531212 0.920928 0.817563
0.713313 0.916289 0.810758
0.919951 0.910246 0.698116
1.000000 0.879240 0.799954
0.623774 1.000000 0.889799
0.661921 1.000000 0.891081
0.807858 1.000000 0.905638
0.903319 0.999023 0.907286
1.000000 0.990570 0.783688
0.000000 0.259983 0.873320
0.397162 0.251682 0.836820
0.597864 0.327733 0.645716
0.745907 0.438239 0.630640
0.926909 0.749752 0.803159
0.000000 0.457832 0.897673
0.367712 0.406348 0.871733
0.641108 0.422614 0.714473
0.755917 0.512352 0.660883
0.927489 0.774044 0.816892
0.000000 0.800656 0.924865
0.301915 0.790646 0.920348
0.676020 0.699245 0.863951
0.781552 0.686580 0.742702
0.931670 0.837339 0.854948
0.306859 0.948730 0.926238
0.487190 0.940673 0.923583
0.721675 0.919554 0.911925
0.823301 0.844938 0.839445
0.965545 0.909300 0.903258
0.650019 1.000000 0.941619
0.702754 1.000000 0.942657
0.841459 0.991302 0.949645
0.920592 0.991821 0.954894
0.994842 0.989227 0.924743
0.471656 0.532921 0.996063
0.596002 0.554681 0.988647
0.790951 0.628534 0.958099
0.871214 0.673854 0.894835
0.934051 0.788998 0.881376
0.476143 0.583398 0.997314
0.595422 0.600427 0.990570
0.789578 0.657130 0.962585
0.872435 0.691157 0.899199
0.934295 0.789700 0.883116
0.263432 0.797269 1.000000
0.536767 0.802823 0.998169
0.783810 0.811429 0.980774
0.883024 0.805539 0.922423
0.937041 0.841062 0.902861
0.268894 0.936492 0.997253
0.477424 0.933684 0.995972
0.747860 0.932860 0.992584
0.901610 0.921141 0.977600
0.945647 0.909911 0.934295
0.575830 1.000000 0.991424
0.576745 1.000000 0.991211
0.772580 0.997284 0.989563
0.915679 0.990570 0.988373
0.965515 0.972412 0.971344
