data/fiter_cube/48671653/1023261/file.cube
# Created by Adobe Lightroom plugin Export LUT (1.17.0)
# www.johnrellis.com/lightroom/exportlut.htm
# Preset: 青橙风光风景_10 云集
# Color profile: C:\Program Files (x86)\Common Files\Adobe\Color\Profiles\Recommended\AdobeRGB1998.icc
LUT_3D_SIZE 32
DOMAIN_MIN 0.0 0.0 0.0
DOMAIN_MAX 1.0 1.0 1.0
0.117067 0.168246 0.179171
0.116884 0.168124 0.179049
0.116701 0.168002 0.178958
0.117098 0.167697 0.178744
0.119203 0.167880 0.178927
0.124239 0.168429 0.179660
0.133669 0.169497 0.180972
0.148104 0.171115 0.183169
0.168399 0.173739 0.186618
0.194766 0.177584 0.191653
0.227665 0.182712 0.198856
0.267765 0.189029 0.208255
0.315496 0.196139 0.219791
0.369787 0.204166 0.233585
0.428260 0.213565 0.249729
0.487770 0.225559 0.268589
0.544915 0.241886 0.289952
0.597528 0.263615 0.313817
0.644923 0.290349 0.339910
0.689296 0.322301 0.369085
0.731075 0.359167 0.401495
0.768704 0.400702 0.436896
0.802304 0.445869 0.475013
0.832029 0.493294 0.515038
0.858061 0.541894 0.556756
0.880797 0.590845 0.600214
0.900206 0.639643 0.645624
0.916991 0.685969 0.690761
0.931609 0.729488 0.734493
0.944488 0.770016 0.775631
0.956023 0.807279 0.813291
0.966491 0.841184 0.847379
0.117189 0.167941 0.179080
0.116884 0.167971 0.179202
0.116670 0.168002 0.179080
0.117311 0.167819 0.178714
0.119966 0.167788 0.178805
0.125429 0.168429 0.179385
0.135195 0.169436 0.180697
0.150393 0.171084 0.182773
0.171023 0.173739 0.186069
0.197787 0.177432 0.191135
0.231083 0.182498 0.198215
0.271611 0.188693 0.207523
0.319615 0.195651 0.219089
0.374212 0.203586 0.232883
0.432471 0.213046 0.249149
0.491920 0.225132 0.267887
0.548577 0.241581 0.289220
0.600671 0.263554 0.313207
0.647700 0.290562 0.339330
0.691768 0.322667 0.368627
0.733120 0.359564 0.401038
0.770443 0.401190 0.436561
0.803769 0.446357 0.474708
0.833249 0.493812 0.514794
0.859098 0.542382 0.556542
0.881682 0.591211 0.599969
0.900908 0.639887 0.645441
0.917601 0.686183 0.690608
0.932097 0.729610 0.734340
0.944884 0.770108 0.775509
0.956329 0.807309 0.813199
0.966766 0.841184 0.847227
0.117281 0.167666 0.178958
0.116976 0.167697 0.179080
0.116670 0.167849 0.179202
0.117464 0.168063 0.178805
0.120638 0.168154 0.178622
0.127047 0.168673 0.179110
0.137575 0.169589 0.180148
0.153384 0.171237 0.182223
0.174716 0.173709 0.185428
0.201968 0.177340 0.190249
0.235874 0.182223 0.197330
0.277012 0.188327 0.206546
0.325475 0.195102 0.218021
0.380163 0.202914 0.231937
0.438483 0.212131 0.248020
0.497383 0.224460 0.266941
0.553674 0.241306 0.288334
0.605005 0.263554 0.312261
0.651514 0.290776 0.338598
0.695155 0.323033 0.367895
0.736049 0.360266 0.400458
0.772824 0.401984 0.436103
0.805783 0.447150 0.474281
0.834897 0.494606 0.514488
0.860533 0.543023 0.556268
0.882811 0.591760 0.599725
0.901884 0.640284 0.645167
0.918395 0.686488 0.690394
0.932738 0.729854 0.734188
0.945403 0.770230 0.775357
0.956725 0.807340 0.813016
0.967071 0.841184 0.847105
0.116762 0.168704 0.179019
0.116487 0.169009 0.178866
0.116732 0.169284 0.178744
0.118593 0.169345 0.178927
0.123110 0.169711 0.178592
0.131075 0.170047 0.178561
0.143252 0.170962 0.179355
0.160555 0.172427 0.181033
0.183047 0.174502 0.183871
0.211429 0.177798 0.188479
0.246616 0.182132 0.195254
0.288945 0.187778 0.204379
0.338293 0.194156 0.215732
0.393347 0.201694 0.229526
0.451362 0.210880 0.245853
0.509453 0.223484 0.264683
0.564233 0.241001 0.286229
0.614343 0.263798 0.310399
0.659571 0.291478 0.336950
0.702358 0.324224 0.366369
0.742184 0.361669 0.399145
0.778073 0.403601 0.434943
0.810208 0.448890 0.473304
0.838621 0.496162 0.513603
0.863615 0.544518 0.555566
0.885374 0.592920 0.599115
0.903960 0.641230 0.644678
0.920134 0.687160 0.689967
0.934173 0.730312 0.733761
0.946532 0.770504 0.774960
0.957641 0.807492 0.812680
0.967803 0.841215 0.846799
0.114870 0.173983 0.180087
0.114870 0.174380 0.179812
0.114900 0.175235 0.179019
0.118135 0.176547 0.178012
0.126497 0.176455 0.178134
0.137942 0.176211 0.177707
0.153445 0.175875 0.177890
0.172549 0.176577 0.178958
0.197024 0.177951 0.181430
0.227451 0.180148 0.185489
0.264286 0.183536 0.191836
0.308385 0.188144 0.200534
0.359014 0.193484 0.211765
0.414191 0.200412 0.225528
0.471473 0.209781 0.241855
0.527855 0.222721 0.260899
0.580468 0.241215 0.282811
0.628565 0.264866 0.307195
0.672084 0.293400 0.334081
0.713497 0.326574 0.363928
0.751583 0.364630 0.396887
0.786160 0.406683 0.433082
0.816953 0.451789 0.471656
0.844297 0.498909 0.512261
0.868345 0.546838 0.554406
0.889311 0.594934 0.598138
0.907256 0.642695 0.643824
0.922820 0.688197 0.689174
0.936370 0.731014 0.733120
0.948333 0.770901 0.774350
0.959075 0.807675 0.812161
0.968902 0.841245 0.846281
0.110506 0.186496 0.182956
0.110506 0.187015 0.182559
0.111025 0.188357 0.181491
0.112612 0.191043 0.177737
0.124880 0.193423 0.176577
0.144106 0.192355 0.176303
0.165621 0.190433 0.175998
0.190097 0.188052 0.176059
0.217594 0.187045 0.177737
0.250278 0.187228 0.181033
0.289891 0.188663 0.186526
0.336065 0.190982 0.194797
0.387427 0.195071 0.205814
0.442420 0.200961 0.219577
0.498177 0.210208 0.236088
0.552117 0.223972 0.255375
0.601862 0.243259 0.277623
0.647211 0.268009 0.302464
0.688716 0.297032 0.329686
0.728023 0.330816 0.360082
0.764065 0.369116 0.393591
0.796658 0.411200 0.430274
0.825803 0.456123 0.469337
0.851743 0.502831 0.510216
0.874632 0.550317 0.552728
0.894560 0.597620 0.596704
0.911620 0.644831 0.642542
0.926390 0.689723 0.688106
0.939269 0.732021 0.732113
0.950683 0.771542 0.773495
0.960967 0.807980 0.811337
0.970428 0.841306 0.845609
0.101717 0.208896 0.188388
0.102113 0.209445 0.187655
0.102663 0.210941 0.186343
0.104829 0.214115 0.182284
0.114656 0.218479 0.175753
0.140230 0.220951 0.173800
0.173739 0.218723 0.172885
0.206546 0.212924 0.172519
0.241276 0.208164 0.172549
0.282475 0.203555 0.174868
0.324773 0.201114 0.179263
0.372442 0.200229 0.186648
0.424323 0.201755 0.197177
0.478126 0.206271 0.210849
0.531395 0.214847 0.227726
0.581506 0.229191 0.247471
0.627893 0.249271 0.270237
0.669978 0.274418 0.295781
0.709133 0.303777 0.323674
0.745602 0.337926 0.354711
0.779171 0.376165 0.388891
0.809445 0.417823 0.426215
0.836698 0.462287 0.465888
0.860899 0.508293 0.507347
0.882322 0.554894 0.550347
0.900969 0.601221 0.594598
0.916991 0.647517 0.640772
0.930846 0.691707 0.686549
0.942901 0.733394 0.730770
0.953643 0.772335 0.772305
0.963317 0.808377 0.810300
0.972290 0.841398 0.844663
0.084962 0.240909 0.196841
0.085725 0.241917 0.195743
0.086854 0.243442 0.194034
0.090455 0.246799 0.189517
0.097719 0.251804 0.179141
0.123262 0.257359 0.172366
0.166201 0.258793 0.169192
0.215732 0.255406 0.167239
0.261784 0.243961 0.166781
0.310643 0.236912 0.166140
0.365911 0.227695 0.168765
0.418036 0.221317 0.175082
0.469093 0.218601 0.184878
0.520378 0.220493 0.198581
0.569574 0.228092 0.215824
0.615351 0.241825 0.236362
0.657649 0.261570 0.259983
0.696651 0.286229 0.286503
0.732692 0.315404 0.315251
0.765988 0.348852 0.347387
0.796506 0.386481 0.382605
0.824277 0.427375 0.420752
0.849302 0.470771 0.461311
0.871580 0.515496 0.503563
0.891264 0.560937 0.547051
0.908568 0.606073 0.591852
0.923308 0.651057 0.638392
0.936065 0.694240 0.684535
0.947234 0.735103 0.729000
0.957153 0.773373 0.770779
0.966186 0.808865 0.808927
0.974548 0.841489 0.843412
0.036713 0.283757 0.208377
0.040894 0.284886 0.207034
0.047333 0.286503 0.205173
0.059876 0.289616 0.200381
0.073884 0.294530 0.190799
0.094453 0.300938 0.174289
0.141451 0.308232 0.166659
0.204623 0.307866 0.161868
0.273198 0.302647 0.158083
0.334447 0.284764 0.157107
0.395087 0.273899 0.155917
0.459419 0.262303 0.157504
0.520897 0.252781 0.167117
0.567681 0.250248 0.180911
0.611810 0.254795 0.198886
0.652918 0.265965 0.220676
0.691035 0.283482 0.245609
0.726680 0.306554 0.273381
0.758633 0.333532 0.303838
0.788357 0.365332 0.337346
0.815824 0.401129 0.373877
0.840818 0.440345 0.413428
0.863371 0.481910 0.455116
0.883604 0.525017 0.498360
0.901488 0.568627 0.542748
0.917113 0.611994 0.588190
0.930510 0.655482 0.635218
0.942077 0.697414 0.681849
0.952178 0.737209 0.726741
0.961212 0.774655 0.768826
0.969451 0.809506 0.807218
0.977173 0.841642 0.841917
0.000000 0.337896 0.223728
0.000000 0.339025 0.222263
0.000000 0.340520 0.220066
0.000000 0.343664 0.214969
0.000000 0.348272 0.205783
0.053346 0.353887 0.189609
0.105379 0.362402 0.169314
0.172549 0.370947 0.157076
0.259495 0.367620 0.149783
0.347448 0.360204 0.142672
0.420539 0.335149 0.140902
0.487343 0.320806 0.139620
0.553826 0.309941 0.138918
0.612665 0.300511 0.153231
0.656428 0.299107 0.174319
0.692927 0.305241 0.198337
0.727291 0.318181 0.225528
0.758236 0.336797 0.255680
0.786221 0.360266 0.288212
0.812253 0.388495 0.323766
0.836515 0.421332 0.362249
0.858671 0.457557 0.403540
0.878691 0.496437 0.446845
0.896666 0.537011 0.491402
0.912596 0.578210 0.537041
0.926574 0.619379 0.583398
0.938476 0.660914 0.631159
0.948730 0.701289 0.678401
0.957702 0.739803 0.723812
0.965759 0.776272 0.766323
0.973175 0.810330 0.805081
0.980133 0.841886 0.840085
0.000000 0.402350 0.243931
0.000000 0.403357 0.242344
0.000000 0.404913 0.240055
0.000000 0.407813 0.234775
0.000000 0.412085 0.225559
0.000000 0.417395 0.210544
0.000000 0.424964 0.179080
0.133242 0.434333 0.161257
0.223941 0.441596 0.142702
0.332036 0.435767 0.130098
0.434180 0.426551 0.116274
0.512047 0.395148 0.113252
0.576623 0.379126 0.112917
0.636988 0.368322 0.114199
0.690303 0.361303 0.130922
0.734859 0.362341 0.164675
0.764096 0.367773 0.196750
0.790555 0.379461 0.230747
0.814481 0.396643 0.266880
0.836973 0.419654 0.305608
0.858061 0.447608 0.346777
0.877348 0.479530 0.390417
0.894926 0.514611 0.435889
0.910613 0.551720 0.482460
0.924529 0.589899 0.529595
0.936736 0.628290 0.577142
0.947082 0.667384 0.625849
0.955993 0.705898 0.673945
0.963806 0.742947 0.720058
0.970764 0.778134 0.763149
0.977264 0.811276 0.802396
0.983429 0.842161 0.837766
0.000000 0.474922 0.269932
0.000000 0.475807 0.268376
0.000000 0.477089 0.266026
0.000000 0.479652 0.260807
0.000000 0.483619 0.251621
0.000000 0.488319 0.237247
0.000000 0.493660 0.214389
0.058595 0.503166 0.175082
0.182254 0.512902 0.148318
0.296269 0.516533 0.120974
0.416968 0.508721 0.096834
0.523247 0.498573 0.063844
0.595666 0.461677 0.058656
0.655818 0.445991 0.060822
0.709712 0.435615 0.070008
0.757565 0.430243 0.094423
0.796963 0.430365 0.149233
0.822507 0.434394 0.195254
0.842710 0.443397 0.237430
0.861936 0.459052 0.280888
0.879942 0.480598 0.326146
0.896544 0.506920 0.373114
0.911559 0.536858 0.421546
0.925078 0.569604 0.470588
0.936980 0.603845 0.519921
0.947448 0.638941 0.569055
0.956298 0.675105 0.618952
0.963775 0.711360 0.668269
0.970336 0.746578 0.715328
0.976196 0.780392 0.759243
0.981720 0.812467 0.799100
0.987030 0.842557 0.834958
0.000000 0.551202 0.301854
0.000000 0.552148 0.300450
0.000000 0.553185 0.298070
0.000000 0.555444 0.292943
0.000000 0.558892 0.284123
0.000000 0.562982 0.270481
0.000000 0.567620 0.249454
0.000000 0.573968 0.205020
0.130800 0.583429 0.169039
0.252049 0.592096 0.129702
0.381689 0.590875 0.087343
0.504082 0.581750 0.000000
0.604364 0.572076 0.000000
0.667567 0.531731 0.000000
0.725216 0.516808 0.000000
0.771908 0.505516 0.000000
0.812650 0.498726 0.000000
0.845029 0.495705 0.126131
0.870085 0.499641 0.195438
0.886381 0.506523 0.247440
0.901671 0.520165 0.298741
0.915740 0.539391 0.350561
0.928496 0.563195 0.402838
0.939818 0.590570 0.455360
0.949828 0.620172 0.507378
0.958556 0.651362 0.558801
0.965881 0.684138 0.610254
0.971984 0.717708 0.661067
0.977264 0.750881 0.709407
0.981994 0.783078 0.754330
0.986511 0.813901 0.795041
0.990906 0.843076 0.831540
0.000000 0.626825 0.339452
0.000000 0.627466 0.337743
0.000000 0.628351 0.335668
0.000000 0.630243 0.330999
0.000000 0.632929 0.322576
0.000000 0.636347 0.310033
0.000000 0.640131 0.291325
0.000000 0.643732 0.262669
0.000000 0.651698 0.203555
0.214878 0.659602 0.163302
0.335882 0.666133 0.105989
0.471290 0.660517 0.000000
0.584375 0.651423 0.000000
0.676600 0.642603 0.000000
0.730556 0.601160 0.000000
0.783719 0.585260 0.000000
0.822995 0.571221 0.000000
0.856901 0.561761 0.000000
0.884764 0.556207 0.095705
0.908293 0.559411 0.195468
0.922759 0.565423 0.261570
0.934600 0.576715 0.320623
0.945251 0.593378 0.378485
0.954650 0.614466 0.435584
0.962890 0.638758 0.491279
0.969940 0.665583 0.545647
0.975799 0.694423 0.599115
0.980499 0.725032 0.651972
0.984558 0.755856 0.701930
0.988159 0.786160 0.748226
0.991608 0.815549 0.790005
0.995056 0.843656 0.827390
0.000000 0.697749 0.381201
0.000000 0.698299 0.379919
0.000000 0.699001 0.377905
0.000000 0.700618 0.373510
0.000000 0.702754 0.366003
0.000000 0.705653 0.354833
0.000000 0.708553 0.338445
0.000000 0.711299 0.314183
0.000000 0.714717 0.270329
0.177249 0.722560 0.210910
0.307530 0.727901 0.160189
0.425879 0.731167 0.078370
0.554498 0.722194 0.000000
0.656275 0.713313 0.000000
0.739620 0.705013 0.000000
0.784268 0.663142 0.000000
0.831968 0.645441 0.000000
0.864958 0.629297 0.000000
0.893858 0.617639 0.000000
0.918669 0.610712 0.042206
0.938628 0.611200 0.193301
0.952819 0.617731 0.280858
0.961700 0.626795 0.346777
0.969360 0.641108 0.410040
0.975891 0.659693 0.470619
0.981415 0.681605 0.528801
0.985901 0.706172 0.585107
0.989319 0.733364 0.640406
0.992126 0.761501 0.692592
0.994598 0.789700 0.740566
0.997009 0.817472 0.783810
0.999451 0.844388 0.822324
0.000000 0.760403 0.425849
0.000000 0.760800 0.424628
0.000000 0.761318 0.422950
0.000000 0.762448 0.418982
0.000000 0.764004 0.412360
0.000000 0.765988 0.402625
0.000000 0.768032 0.388769
0.000000 0.770016 0.368780
0.063783 0.771359 0.339513
0.146883 0.776761 0.269291
0.284825 0.780789 0.224063
0.400397 0.783505 0.164431
0.513725 0.782254 0.071870
0.626673 0.773190 0.000000
0.717342 0.764523 0.000000
0.792264 0.756680 0.000000
0.829129 0.715602 0.000000
0.871946 0.696284 0.000000
0.900389 0.679011 0.000000
0.925750 0.666407 0.000000
0.947631 0.657862 0.000000
0.964324 0.656123 0.195010
0.977325 0.662593 0.303655
0.983703 0.670222 0.376745
0.988800 0.682734 0.444099
0.992920 0.699428 0.507378
0.996155 0.719387 0.567376
0.998383 0.742733 0.625788
0.999969 0.767880 0.680720
1.000000 0.793759 0.731044
1.000000 0.819730 0.776211
1.000000 0.845274 0.816159
0.000000 0.812467 0.469886
0.000000 0.812772 0.468788
0.000000 0.813138 0.467384
0.000000 0.813931 0.463996
0.000000 0.815061 0.458534
0.000000 0.816312 0.450477
0.000000 0.817655 0.439094
0.000000 0.818753 0.422919
0.095033 0.819425 0.400336
0.227878 0.819394 0.367285
0.274388 0.825132 0.293645
0.382727 0.826993 0.243503
0.483803 0.827665 0.177646
0.588891 0.823423 0.089052
0.687709 0.814542 0.000000
0.768338 0.806302 0.000000
0.835904 0.798856 0.000000
0.867033 0.759518 0.000000
0.906065 0.739345 0.000000
0.931060 0.721950 0.000000
0.953216 0.708431 0.000000
0.972320 0.698360 0.000000
0.986084 0.694789 0.200870
0.996185 0.699123 0.320073
1.000000 0.707668 0.409583
1.000000 0.718837 0.479774
1.000000 0.734096 0.545129
1.000000 0.753140 0.607263
1.000000 0.774990 0.665827
1.000000 0.798306 0.719112
1.000000 0.822232 0.766751
1.000000 0.846342 0.808591
0.000000 0.855161 0.511864
0.000000 0.855344 0.510918
0.000000 0.855619 0.509819
0.000000 0.856077 0.506920
0.000000 0.856779 0.502464
0.000000 0.857542 0.496010
0.000000 0.858244 0.486946
0.000000 0.858671 0.474311
0.143252 0.858762 0.457221
0.256321 0.858274 0.433112
0.287419 0.861601 0.367742
0.377142 0.863249 0.321965
0.468238 0.863645 0.268376
0.555657 0.863218 0.198489
0.652918 0.857023 0.121981
0.739742 0.848783 0.000000
0.812192 0.841215 0.000000
0.873747 0.834348 0.000000
0.900206 0.797177 0.000000
0.935698 0.776089 0.000000
0.957549 0.758511 0.000000
0.976745 0.744137 0.000000
0.993347 0.732662 0.000000
1.000000 0.727901 0.211185
1.000000 0.730587 0.339330
1.000000 0.739803 0.444190
1.000000 0.750149 0.516655
1.000000 0.764675 0.583703
1.000000 0.782895 0.646967
1.000000 0.803372 0.704158
1.000000 0.825162 0.754910
1.000000 0.847562 0.799283
0.000000 0.890806 0.551995
0.000000 0.890929 0.551263
0.000000 0.891051 0.550195
0.000000 0.891325 0.548150
0.000000 0.891691 0.544610
0.000000 0.891997 0.539635
0.000000 0.892271 0.532586
0.000000 0.892210 0.523186
0.196689 0.891844 0.510613
0.292149 0.890959 0.493294
0.368688 0.889616 0.469001
0.388708 0.893828 0.399725
0.465095 0.894255 0.354253
0.542138 0.893919 0.298070
0.618128 0.892760 0.226139
0.707973 0.885283 0.160891
0.784787 0.877653 0.000000
0.850065 0.870665 0.000000
0.906615 0.864225 0.000000
0.929564 0.829435 0.000000
0.961395 0.807187 0.000000
0.980407 0.789425 0.000000
0.997009 0.774319 0.000000
1.000000 0.761837 0.000000
1.000000 0.756069 0.225345
1.000000 0.757687 0.360876
1.000000 0.766567 0.474769
1.000000 0.777371 0.554040
1.000000 0.791684 0.622980
1.000000 0.809079 0.685237
1.000000 0.828458 0.740139
1.000000 0.848997 0.787747
0.000000 0.920745 0.590143
0.000000 0.920775 0.589624
0.000000 0.920836 0.588891
0.000000 0.920928 0.587274
0.000000 0.920958 0.584649
0.000000 0.920958 0.580957
0.000000 0.920684 0.575860
0.138277 0.920195 0.569116
0.251408 0.919402 0.560174
0.332891 0.918181 0.548150
0.402106 0.916686 0.531792
0.436072 0.917723 0.489143
0.476326 0.919707 0.436835
0.539788 0.919554 0.390112
0.605890 0.918639 0.332219
0.674739 0.916411 0.262516
0.755062 0.908934 0.203464
0.823392 0.901884 0.113558
0.882841 0.895293 0.000000
0.934997 0.889250 0.000000
0.955169 0.856809 0.000000
0.983551 0.833402 0.000000
1.000000 0.815427 0.000000
1.000000 0.799802 0.000000
1.000000 0.786496 0.000000
1.000000 0.780209 0.242710
1.000000 0.781186 0.384588
1.000000 0.789242 0.501732
1.000000 0.801419 0.592218
1.000000 0.815457 0.661036
1.000000 0.832151 0.721340
1.000000 0.850675 0.773281
0.000000 0.945525 0.625879
0.000000 0.945525 0.625513
0.000000 0.945495 0.624933
0.000000 0.945373 0.623896
0.000000 0.945159 0.622065
0.000000 0.944762 0.619532
0.091981 0.944182 0.616114
0.221653 0.943328 0.611658
0.305333 0.942138 0.605737
0.375158 0.940703 0.597955
0.437232 0.938994 0.587457
0.493843 0.937041 0.573083
0.502007 0.940368 0.515038
0.550256 0.940520 0.475807
0.603601 0.940002 0.428077
0.660212 0.938903 0.369116
0.724636 0.935393 0.305333
0.794919 0.928557 0.248203
0.856352 0.922026 0.170443
0.910735 0.915862 0.000000
0.959106 0.910094 0.000000
0.977447 0.879911 0.000000
1.000000 0.855253 0.000000
1.000000 0.837186 0.000000
1.000000 0.821134 0.000000
1.000000 0.807401 0.000000
1.000000 0.800900 0.262974
1.000000 0.801633 0.409979
1.000000 0.809201 0.529931
1.000000 0.822599 0.629938
1.000000 0.836393 0.697261
1.000000 0.852628 0.754910
0.000000 0.965850 0.658656
0.000000 0.965789 0.658442
0.000000 0.965667 0.658076
0.000000 0.965423 0.657465
0.000000 0.964996 0.656397
0.092531 0.964294 0.654932
0.209873 0.963378 0.652979
0.288731 0.962188 0.650385
0.356237 0.960784 0.647028
0.417334 0.959106 0.642512
0.473518 0.957244 0.636652
0.525811 0.955138 0.628656
0.561730 0.954437 0.607233
0.573175 0.957214 0.555413
0.612818 0.957214 0.515618
0.657923 0.956573 0.467353
0.706447 0.955322 0.407935
0.766598 0.951080 0.349981
0.828641 0.944793 0.294041
0.884306 0.938750 0.221164
0.934356 0.932982 0.101106
0.979706 0.927489 0.000000
0.997253 0.899870 0.000000
1.000000 0.873655 0.000000
1.000000 0.855528 0.000000
1.000000 0.839139 0.000000
1.000000 0.825223 0.000000
1.000000 0.818784 0.285557
1.000000 0.819455 0.436866
1.000000 0.826902 0.559106
1.000000 0.840513 0.662013
1.000000 0.854948 0.731319
0.000000 0.982361 0.688350
0.000000 0.982208 0.688289
0.000000 0.982086 0.688167
0.000000 0.981659 0.687892
0.138338 0.981048 0.687465
0.218814 0.980133 0.686885
0.285557 0.979004 0.686213
0.346563 0.977630 0.685206
0.404273 0.975982 0.683925
0.458564 0.974090 0.682155
0.509911 0.972045 0.679866
0.558801 0.969757 0.677028
0.603967 0.967376 0.672755
0.608087 0.969909 0.630213
0.633997 0.970520 0.596643
0.666072 0.970581 0.555840
0.703792 0.969970 0.507164
0.745663 0.968811 0.447120
0.801877 0.963989 0.395544
0.857115 0.958312 0.340002
0.907744 0.952728 0.269688
0.954284 0.947295 0.169436
0.997101 0.942046 0.000000
1.000000 0.916716 0.000000
1.000000 0.888884 0.000000
1.000000 0.870909 0.000000
1.000000 0.854246 0.000000
1.000000 0.840482 0.000000
1.000000 0.834257 0.310002
1.000000 0.835142 0.465187
1.000000 0.842832 0.589837
1.000000 0.856352 0.691585
0.113863 0.995697 0.714992
0.133364 0.995544 0.715053
0.157076 0.995331 0.715023
0.197024 0.994842 0.715114
0.244938 0.994079 0.715236
0.295567 0.993042 0.715480
0.347082 0.991730 0.715785
0.398413 0.990173 0.716121
0.449073 0.988342 0.716518
0.498238 0.986267 0.717006
0.546227 0.983948 0.717830
0.591089 0.981598 0.718318
0.632746 0.979187 0.718135
0.667628 0.977264 0.713802
0.664576 0.980560 0.669703
0.685420 0.981170 0.637049
0.711543 0.981292 0.596704
0.742824 0.980896 0.547082
0.778897 0.979858 0.486763
0.831510 0.974731 0.440681
0.880949 0.969574 0.385504
0.927367 0.964416 0.316045
0.970916 0.959350 0.222721
1.000000 0.954284 0.000000
1.000000 0.930816 0.000000
1.000000 0.902373 0.000000
1.000000 0.883848 0.000000
1.000000 0.866880 0.000000
1.000000 0.853544 0.065187
1.000000 0.847715 0.336431
1.000000 0.849027 0.494636
1.000000 0.857298 0.621485
0.234867 1.000000 0.738521
0.244297 1.000000 0.738643
0.256962 1.000000 0.738796
0.282170 1.000000 0.739193
0.316747 1.000000 0.739803
0.356878 1.000000 0.740658
0.400183 1.000000 0.741817
0.445136 1.000000 0.743252
0.490913 0.998352 0.745144
0.536797 0.996063 0.747646
0.580560 0.993652 0.750362
0.622004 0.991211 0.753109
0.660365 0.988800 0.755703
0.695552 0.986450 0.757656
0.704250 0.987579 0.736233
0.712154 0.989105 0.706691
0.728847 0.989746 0.675502
0.750149 0.989960 0.636408
0.776242 0.989715 0.587243
0.810056 0.988251 0.530877
0.856352 0.983673 0.485298
0.900938 0.979004 0.429908
0.943786 0.974304 0.360479
0.984833 0.969512 0.268650
1.000000 0.964630 0.114046
1.000000 0.942687 0.000000
1.000000 0.914153 0.000000
1.000000 0.894682 0.000000
1.000000 0.877440 0.000000
1.000000 0.864836 0.110811
1.000000 0.859556 0.364416
1.000000 0.861509 0.525750
0.308598 1.000000 0.759152
0.316197 1.000000 0.759365
0.325811 1.000000 0.759609
0.345739 1.000000 0.760250
0.373907 1.000000 0.761257
0.408301 1.000000 0.762692
0.446418 1.000000 0.764553
0.487678 1.000000 0.767056
0.530175 1.000000 0.770230
0.571923 1.000000 0.773892
0.612451 1.000000 0.777951
0.650690 0.999115 0.782284
0.686305 0.996643 0.786679
0.719295 0.994293 0.790860
0.749203 0.992126 0.794522
0.743099 0.995026 0.764157
0.752590 0.995972 0.740780
0.765743 0.996643 0.711421
0.783017 0.996979 0.674006
0.804776 0.996948 0.626062
0.836606 0.995087 0.574884
0.877317 0.991089 0.528466
0.917632 0.986908 0.472572
0.957397 0.982574 0.402533
0.996429 0.978058 0.310155
1.000000 0.973358 0.169131
1.000000 0.952667 0.000000
1.000000 0.924285 0.000000
1.000000 0.903746 0.000000
1.000000 0.886168 0.000000
1.000000 0.874632 0.146944
1.000000 0.870024 0.394202
0.380072 1.000000 0.778164
0.379889 1.000000 0.777981
0.379522 1.000000 0.777676
0.396277 1.000000 0.778500
0.421485 1.000000 0.779873
0.452461 1.000000 0.781827
0.487892 1.000000 0.784451
0.526024 1.000000 0.787808
0.565301 1.000000 0.791806
0.604028 1.000000 0.796384
0.641566 1.000000 0.801419
0.677241 1.000000 0.806790
0.710567 1.000000 0.812406
0.741421 1.000000 0.817960
0.769528 0.998535 0.823270
0.781247 0.998535 0.815763
0.780087 1.000000 0.793118
0.787198 1.000000 0.771603
0.797360 1.000000 0.744350
0.811185 1.000000 0.708980
0.829160 1.000000 0.662898
0.859098 1.000000 0.617670
0.894926 0.997192 0.570672
0.931548 0.993469 0.513115
0.968688 0.989471 0.441566
1.000000 0.985229 0.347417
1.000000 0.980713 0.207126
1.000000 0.961059 0.000000
1.000000 0.932891 0.000000
1.000000 0.911315 0.000000
1.000000 0.894102 0.000000
1.000000 0.883146 0.180667
0.450996 1.000000 0.796414
0.450813 1.000000 0.796201
0.450629 1.000000 0.795987
0.450080 1.000000 0.795468
0.461433 1.000000 0.795987
0.490608 1.000000 0.798489
0.523888 1.000000 0.801694
0.559319 1.000000 0.805600
0.595941 1.000000 0.810208
0.632441 1.000000 0.815518
0.667720 1.000000 0.821286
0.701320 1.000000 0.827451
0.732815 1.000000 0.833890
0.761929 1.000000 0.840360
