data/fiter_cube/95423152/1023244/file.cube
# Created by Adobe Lightroom plugin Export LUT (1.17.0)
# www.johnrellis.com/lightroom/exportlut.htm
# Preset: 黑暗巧克力情绪人像_03 云集
# Color profile: C:\Program Files (x86)\Common Files\Adobe\Color\Profiles\Recommended\AdobeRGB1998.icc
LUT_3D_SIZE 8
DOMAIN_MIN 0.000000 0.000000 0.000000
DOMAIN_MAX 0.903226 0.903226 0.903226
0.000000 0.000000 0.000000
0.069947 0.006500 0.015442
0.161166 0.000000 0.032197
0.266239 0.000000 0.024811
0.393011 0.000000 0.011231
0.547875 0.000000 0.000000
0.732937 0.000000 0.000000
0.884306 0.000000 0.000000
0.034852 0.060609 0.018463
0.070375 0.057649 0.020691
0.169741 0.065095 0.020996
0.277623 0.046387 0.010071
0.406806 0.000000 0.000000
0.562921 0.000000 0.000000
0.743587 0.000000 0.000000
0.888640 0.000000 0.000000
0.077028 0.126986 0.039399
0.103273 0.127108 0.031220
0.144167 0.112398 0.039277
0.287510 0.154818 0.000000
0.440589 0.174441 0.000000
0.595819 0.173037 0.000000
0.761959 0.160098 0.000000
0.895201 0.135561 0.000000
0.122927 0.194247 0.037324
0.140688 0.194095 0.029175
0.189853 0.191501 0.008881
0.217502 0.165927 0.040558
0.367681 0.212070 0.000000
0.648554 0.318608 0.000000
0.796780 0.315862 0.000000
0.909758 0.299229 0.000000
0.166598 0.264042 0.059052
0.179568 0.263340 0.052949
0.219455 0.260410 0.027161
0.269444 0.253086 0.009735
0.292119 0.221530 0.058930
0.453773 0.271275 0.007355
0.784390 0.415930 0.000000
0.927337 0.440589 0.000000
0.212955 0.342718 0.064271
0.223239 0.341039 0.060243
0.257969 0.338384 0.035309
0.310613 0.333227 0.000000
0.361852 0.324987 0.000000
0.382086 0.287327 0.058106
0.566644 0.344549 0.000000
0.884855 0.496925 0.000000
0.277714 0.460487 0.022248
0.288121 0.459571 0.009339
0.323491 0.458137 0.000000
0.379278 0.454566 0.000000
0.447669 0.449500 0.000000
0.509789 0.443305 0.000000
0.535180 0.398596 0.000000
0.745693 0.464149 0.038361
0.382147 0.656641 0.000000
0.393988 0.656733 0.000000
0.433112 0.656611 0.000000
0.496925 0.655787 0.000000
0.584314 0.659785 0.000000
0.674372 0.659327 0.000000
0.760128 0.658747 0.000000
0.796353 0.600275 0.000000
0.018250 0.022644 0.061677
0.078950 0.000000 0.065705
0.162936 0.004517 0.070375
0.262242 0.000000 0.072663
0.389227 0.000000 0.072541
0.545281 0.000000 0.062013
0.733181 0.000000 0.001190
0.887327 0.000000 0.000000
0.022309 0.062287 0.055604
0.076478 0.067536 0.062989
0.164004 0.076081 0.070649
0.270146 0.069154 0.070527
0.399359 0.038300 0.068849
0.556512 0.000000 0.053498
0.742306 0.000000 0.000000
0.891569 0.000000 0.000000
0.071046 0.129061 0.061707
0.107851 0.129824 0.073121
0.146517 0.117464 0.073426
0.291142 0.162417 0.058259
0.430945 0.171359 0.037446
0.588769 0.168917 0.000000
0.762631 0.157473 0.000000
0.898650 0.141543 0.000000
0.123629 0.197757 0.079774
0.141970 0.197269 0.078981
0.190463 0.194705 0.068177
0.220981 0.171420 0.077882
0.379187 0.222477 0.064637
0.645411 0.314427 0.000000
0.797574 0.313512 0.000000
0.912840 0.301579 0.000000
0.167086 0.266789 0.087831
0.180026 0.266270 0.085206
0.219669 0.263401 0.075166
0.271550 0.256657 0.065797
0.295811 0.226078 0.082643
0.464485 0.280064 0.070497
0.791867 0.421912 0.000000
0.929290 0.441840 0.000000
0.212924 0.346044 0.090425
0.223636 0.345281 0.087984
0.258457 0.342443 0.077394
0.311345 0.336706 0.051484
0.363775 0.327947 0.045594
0.384222 0.290013 0.080720
0.575189 0.351324 0.059419
0.887541 0.498512 0.000000
0.276066 0.464942 0.074434
0.287144 0.464881 0.070161
0.322972 0.462867 0.048554
0.379004 0.458320 0.000000
0.448280 0.452094 0.000000
0.511528 0.446021 0.000000
0.538384 0.401190 0.020020
0.752560 0.468391 0.038056
0.378424 0.659693 0.000000
0.390295 0.659388 0.000000
0.430976 0.658930 0.000000
0.496803 0.657649 0.000000
0.583276 0.657771 0.000000
0.674189 0.658625 0.000000
0.761440 0.659510 0.000000
0.798154 0.601129 0.000000
0.039429 0.044343 0.139315
0.093874 0.007294 0.145907
0.178225 0.000000 0.147097
0.277714 0.000000 0.149050
0.374884 0.000000 0.148287
0.503044 0.000000 0.148928
0.699672 0.000000 0.147189
0.873289 0.000000 0.149935
0.069703 0.084443 0.131472
0.096956 0.082948 0.135439
0.174075 0.069429 0.142061
0.270176 0.062593 0.144808
0.368078 0.049195 0.146090
0.514244 0.000000 0.149386
0.709377 0.000000 0.146212
0.877226 0.000000 0.148775
0.082673 0.130770 0.119234
0.106996 0.134707 0.123018
0.171023 0.150454 0.138796
0.269902 0.157656 0.143557
0.392340 0.158602 0.148196
0.547875 0.148013 0.147250
0.734951 0.116060 0.140505
0.887388 0.086366 0.141848
0.107790 0.199680 0.124056
0.127535 0.202731 0.125734
0.191928 0.208377 0.137514
0.232120 0.189578 0.136629
0.408728 0.251804 0.146426
0.607141 0.288792 0.137301
0.774594 0.290440 0.124483
0.903075 0.283207 0.125521
0.135805 0.273381 0.117372
0.163607 0.274540 0.128908
0.220493 0.274662 0.140536
0.276036 0.267399 0.128847
0.304173 0.239139 0.136660
0.494453 0.306554 0.142611
0.809171 0.439002 0.091585
0.922240 0.431434 0.088014
0.194797 0.353643 0.131258
0.215793 0.354467 0.141054
0.256596 0.352270 0.140414
0.310735 0.346166 0.126101
0.368139 0.336889 0.118837
0.391760 0.300206 0.131777
0.603662 0.374273 0.130495
0.896666 0.510460 0.069703
0.260899 0.471809 0.136782
0.274479 0.471595 0.137575
0.312840 0.469581 0.129030
0.371618 0.465034 0.110842
0.444984 0.457954 0.076814
0.511589 0.450599 0.076600
0.539910 0.405127 0.109712
0.765286 0.479622 0.114168
0.354711 0.663539 0.115572
0.367376 0.663874 0.109560
0.411078 0.663630 0.092195
0.480110 0.661158 0.026917
0.570764 0.660853 0.000000
0.668971 0.659937 0.000000
0.759884 0.659907 0.000000
0.797971 0.599451 0.011597
0.080323 0.044892 0.230289
0.115999 0.029786 0.232975
0.201450 0.000000 0.244999
0.298711 0.000000 0.243931
0.435004 0.000000 0.258579
0.551507 0.000000 0.253086
0.701045 0.000000 0.249943
0.853330 0.000000 0.243503
0.092378 0.097475 0.218265
0.118868 0.094453 0.221836
0.195010 0.074800 0.235508
0.293980 0.001648 0.239109
0.425788 0.000000 0.251560
0.543664 0.000000 0.247410
0.694881 0.000000 0.243473
0.854551 0.000000 0.240726
0.108553 0.157534 0.200107
0.130495 0.159854 0.202182
0.189670 0.163912 0.218875
0.287999 0.153353 0.230838
0.398779 0.145602 0.232609
0.514061 0.120912 0.229221
0.684016 0.000000 0.228580
0.865782 0.000000 0.240391
0.121401 0.205539 0.186587
0.140505 0.208255 0.189212
0.197726 0.222690 0.203006
0.282902 0.246921 0.227176
0.405829 0.257969 0.232883
0.555596 0.257420 0.235569
0.736843 0.249699 0.236454
0.886137 0.246555 0.244388
0.150820 0.275364 0.192935
0.165713 0.278325 0.194766
0.210605 0.290318 0.200229
0.291417 0.299657 0.211612
0.332189 0.273014 0.209049
0.566186 0.364538 0.235935
0.793637 0.424659 0.244327
0.909026 0.415045 0.248539
0.165377 0.359564 0.184787
0.178256 0.360998 0.184329
0.230930 0.369543 0.192081
0.313970 0.370794 0.205142
0.380316 0.358770 0.189914
0.410925 0.323247 0.196414
0.661280 0.420661 0.215213
0.913359 0.540185 0.243229
0.181430 0.482002 0.161471
0.207553 0.482551 0.169253
0.282109 0.485451 0.194217
0.358068 0.482307 0.193881
0.436988 0.472602 0.170413
0.514214 0.462593 0.160494
0.548852 0.417456 0.176150
0.795407 0.508110 0.200809
0.273838 0.671077 0.163149
0.296849 0.670954 0.170993
0.367895 0.671321 0.196078
0.446174 0.670253 0.177707
0.545220 0.668605 0.143038
0.655940 0.664851 0.076234
0.753231 0.663111 0.085573
0.796811 0.602716 0.152926
0.118715 0.069886 0.331518
0.147860 0.064057 0.334722
0.227665 0.000000 0.348577
0.343877 0.000000 0.373327
0.450721 0.000000 0.365118
0.632258 0.000000 0.399115
0.766445 0.000000 0.392920
0.885710 0.000000 0.383642
0.123568 0.112459 0.321263
0.148867 0.109010 0.324376
0.222232 0.090608 0.338842
0.337804 0.000000 0.366918
0.446448 0.000000 0.360815
0.628534 0.000000 0.394385
0.761227 0.000000 0.387121
0.883207 0.000000 0.379400
0.136141 0.180697 0.297368
0.156100 0.181460 0.302281
0.214328 0.177493 0.317540
0.317937 0.159030 0.345037
0.436927 0.127962 0.349859
0.607172 0.000000 0.373754
0.744320 0.000000 0.368536
0.874632 0.000000 0.365118
0.147189 0.238254 0.276371
0.164645 0.240238 0.278508
0.217258 0.247837 0.287938
0.303685 0.261753 0.320867
0.431342 0.253330 0.339300
0.566400 0.234775 0.339818
0.709895 0.193271 0.334386
0.855650 0.155276 0.334813
0.161898 0.286900 0.259617
0.177432 0.289342 0.261845
0.226108 0.300420 0.272129
0.310185 0.329808 0.299748
0.418189 0.361120 0.330846
0.586847 0.380804 0.341497
0.750301 0.377600 0.344305
0.887816 0.383490 0.358526
0.193149 0.366735 0.271550
0.205325 0.369604 0.272953
0.244846 0.380926 0.278660
0.308690 0.404456 0.286992
0.410163 0.415473 0.292699
0.459174 0.374273 0.285832
0.751736 0.504448 0.346471
0.914153 0.566003 0.399084
0.193118 0.489601 0.275669
0.205478 0.491859 0.274784
0.243717 0.499886 0.270878
0.310674 0.514488 0.263645
0.430365 0.512413 0.270909
0.527337 0.493996 0.244816
0.573846 0.445991 0.253696
0.839811 0.559777 0.318425
0.194858 0.681727 0.271824
0.208652 0.683040 0.267460
0.251102 0.687556 0.249271
0.377050 0.688655 0.269474
0.502556 0.687160 0.263340
0.627710 0.679408 0.220310
0.744900 0.672938 0.207279
0.799222 0.612634 0.242588
0.161227 0.086336 0.464759
0.188388 0.078889 0.468574
0.266545 0.004730 0.483742
0.381628 0.000000 0.510307
0.519097 0.000000 0.531853
0.642725 0.000000 0.523003
0.808957 0.000000 0.543877
0.914946 0.000000 0.524468
0.160555 0.126345 0.457771
0.186404 0.121706 0.461952
0.262028 0.098726 0.477180
0.375677 0.000000 0.504051
0.515129 0.000000 0.528099
0.640406 0.000000 0.520195
0.807919 0.000000 0.541375
0.913481 0.000000 0.522210
0.154025 0.199069 0.430579
0.176577 0.197543 0.435187
0.245151 0.189578 0.450721
0.353582 0.165835 0.479469
0.499428 0.090150 0.513787
0.630915 0.000000 0.509026
0.803006 0.000000 0.531762
0.907103 0.000000 0.512993
0.167208 0.267979 0.387488
0.183780 0.268803 0.390997
0.236301 0.273625 0.411444
0.327489 0.271824 0.444648
0.474342 0.253635 0.491279
0.618738 0.221500 0.493660
0.789334 0.182803 0.511864
0.894347 0.177401 0.496529
0.177066 0.334539 0.370916
0.192630 0.336034 0.372839
0.241154 0.342168 0.381048
0.318456 0.355688 0.401465
0.444465 0.379797 0.459174
0.617121 0.373846 0.485542
0.756497 0.356207 0.477516
0.872862 0.353948 0.473915
0.193515 0.388678 0.350378
0.207218 0.390661 0.352239
0.252018 0.399878 0.360662
0.325902 0.422248 0.381384
0.442298 0.467262 0.423957
0.590845 0.510979 0.469825
0.766537 0.539147 0.492348
0.884489 0.544457 0.505821
0.226902 0.497688 0.378454
0.237949 0.499886 0.379248
0.274662 0.509270 0.383062
0.333776 0.527092 0.388647
0.418372 0.556176 0.393347
0.553979 0.565698 0.392889
0.627985 0.509483 0.379736
0.881590 0.659632 0.520378
0.228428 0.686183 0.415869
0.241306 0.687709 0.414801
0.282139 0.692775 0.410224
0.344488 0.701167 0.398505
0.428321 0.712795 0.375250
0.589837 0.707424 0.380133
0.730709 0.691798 0.334295
0.802884 0.633234 0.359075
0.210605 0.107790 0.641657
0.237308 0.100069 0.646235
0.312963 0.048280 0.654536
0.421363 0.000000 0.669947
0.554559 0.000000 0.692775
0.691157 0.000000 0.697688
0.812863 0.000000 0.680995
0.922026 0.000000 0.660945
0.202090 0.141543 0.627558
0.228550 0.136172 0.632258
0.303868 0.109468 0.641871
0.411994 0.000000 0.658473
0.544640 0.000000 0.681666
0.681453 0.000000 0.687282
0.803006 0.000000 0.670649
0.916014 0.000000 0.653986
0.179385 0.220005 0.612726
0.206424 0.216953 0.615534
0.283665 0.204105 0.624689
0.393652 0.174929 0.643122
0.528649 0.092744 0.667903
0.673548 0.000000 0.680903
0.801724 0.000000 0.667689
0.917510 0.000000 0.653956
0.163149 0.310491 0.578515
0.184115 0.307897 0.581628
0.251072 0.299229 0.594171
0.364233 0.289677 0.617639
0.504234 0.266209 0.648280
0.664790 0.220798 0.675837
0.800137 0.172671 0.663966
0.915709 0.202182 0.651942
0.170443 0.387976 0.530785
0.188022 0.385901 0.530022
0.241215 0.381170 0.532616
0.324865 0.381750 0.558953
0.458869 0.383520 0.606134
0.638819 0.378515 0.656001
0.784817 0.361120 0.647089
0.906218 0.404120 0.647608
0.177371 0.464393 0.504814
0.193942 0.464790 0.505943
0.244572 0.467170 0.511192
0.321782 0.473548 0.524804
0.431189 0.486152 0.550408
0.610956 0.531029 0.621729
0.780789 0.547967 0.646448
0.883238 0.556603 0.639277
0.194369 0.535241 0.482887
0.209567 0.537865 0.485359
0.256687 0.543664 0.490852
0.330694 0.556756 0.503349
0.439124 0.579767 0.526635
0.600824 0.625116 0.575921
0.754940 0.674495 0.634424
0.878355 0.704982 0.664393
0.265751 0.687221 0.536797
0.280186 0.688441 0.537865
0.332128 0.696956 0.545617
0.398474 0.706355 0.549218
0.483955 0.716884 0.551263
0.591180 0.730983 0.555810
0.720027 0.732631 0.552087
0.809476 0.682002 0.537743
0.259617 0.158358 0.774289
0.280308 0.153323 0.776089
0.341955 0.126925 0.778317
0.434363 0.013275 0.785672
0.545861 0.000000 0.795834
0.671870 0.000000 0.808927
0.798550 0.000000 0.807553
0.910765 0.000000 0.788724
0.253391 0.182193 0.768460
0.274327 0.177890 0.770321
0.336645 0.156893 0.773465
0.429023 0.102632 0.780545
0.541100 0.000000 0.791318
0.667842 0.000000 0.805051
0.794949 0.000000 0.803861
0.907897 0.000000 0.785367
0.233860 0.248936 0.757015
0.255467 0.246036 0.758541
0.319066 0.231510 0.761166
0.416480 0.207126 0.772335
0.530083 0.148501 0.783627
0.658381 0.000000 0.797757
0.789456 0.000000 0.799527
0.905150 0.000000 0.782010
0.197055 0.334356 0.739803
0.222965 0.333288 0.742061
0.292454 0.324956 0.746304
0.393194 0.311315 0.756802
0.511803 0.285557 0.771145
0.645075 0.238132 0.788693
0.783139 0.165072 0.796292
0.902678 0.098054 0.779812
0.178744 0.425971 0.704677
0.200229 0.425177 0.707790
0.259281 0.418708 0.714565
0.354803 0.410285 0.730526
0.481422 0.401038 0.747951
0.622705 0.385657 0.770443
0.772885 0.367163 0.789425
0.897154 0.369360 0.776974
0.167269 0.521843 0.684291
0.185550 0.519646 0.683619
0.240085 0.513085 0.683223
0.320897 0.503410 0.686610
0.437629 0.500175 0.704067
0.604639 0.524559 0.744656
0.772641 0.556329 0.785306
0.890440 0.569512 0.778805
0.173342 0.623590 0.674128
0.191989 0.622705 0.673915
0.246891 0.620539 0.674464
0.332067 0.619623 0.678889
0.443549 0.621088 0.687922
0.586114 0.633173 0.705440
0.755886 0.682368 0.755795
0.877897 0.705928 0.774533
0.201236 0.727016 0.667689
0.217685 0.726589 0.667353
0.271489 0.726741 0.667964
0.357061 0.729152 0.671443
0.466621 0.732723 0.677455
0.600122 0.739345 0.689265
0.747707 0.760189 0.719570
0.861875 0.801053 0.771572
