data/fiter_cube/95423152/1023244/file.cube
# Created by Adobe Lightroom plugin Export LUT (1.17.0)
# www.johnrellis.com/lightroom/exportlut.htm
# Preset: 黑暗巧克力情绪人像_03 云集
# Color profile: C:\Program Files (x86)\Common Files\Adobe\Color\Profiles\Recommended\AdobeRGB1998.icc
LUT_3D_SIZE 32
DOMAIN_MIN 0.0 0.0 0.0
DOMAIN_MAX 1.0 1.0 1.0
0.000000 0.000000 0.000000
0.000000 0.000000 0.000000
0.000000 0.000000 0.000000
0.030121 0.003052 0.005463
0.069947 0.006500 0.015442
0.092775 0.004852 0.023255
0.114626 0.000000 0.028779
0.137301 0.000000 0.031556
0.161166 0.000000 0.032197
0.185885 0.000000 0.032013
0.211643 0.000000 0.029541
0.238468 0.000000 0.026886
0.266239 0.000000 0.024811
0.295598 0.000000 0.022766
0.326421 0.000000 0.020874
0.358862 0.000000 0.016785
0.393011 0.000000 0.011231
0.428809 0.000000 0.003632
0.465736 0.000000 0.000000
0.505455 0.000000 0.000000
0.547875 0.000000 0.000000
0.592645 0.000000 0.000000
0.639338 0.000000 0.000000
0.687007 0.000000 0.000000
0.732937 0.000000 0.000000
0.775875 0.000000 0.000000
0.815518 0.000000 0.000000
0.851713 0.000000 0.000000
0.884306 0.000000 0.000000
0.913725 0.000000 0.000000
0.940307 0.000000 0.053193
0.964324 0.000000 0.090578
0.000000 0.000000 0.000000
0.000000 0.000000 0.000000
0.000000 0.000000 0.000000
0.034180 0.002380 0.005402
0.070893 0.006043 0.015412
0.093385 0.005615 0.023133
0.115541 0.001190 0.028351
0.138338 0.000000 0.030701
0.162325 0.000000 0.031220
0.187167 0.000000 0.030884
0.212985 0.000000 0.028382
0.239933 0.000000 0.025605
0.267857 0.000000 0.023255
0.297368 0.000000 0.022156
0.328344 0.000000 0.018891
0.360998 0.000000 0.015595
0.395361 0.000000 0.008606
0.431312 0.000000 0.001892
0.468360 0.000000 0.000000
0.508232 0.000000 0.000000
0.550774 0.000000 0.000000
0.595392 0.000000 0.000000
0.641901 0.000000 0.000000
0.689509 0.000000 0.000000
0.735225 0.000000 0.000000
0.777768 0.000000 0.000000
0.817136 0.000000 0.000000
0.853025 0.000000 0.000000
0.885374 0.000000 0.000000
0.914611 0.000000 0.000000
0.941009 0.000000 0.053040
0.964904 0.000000 0.090852
0.000000 0.000000 0.000000
0.000000 0.000000 0.000000
0.000000 0.000000 0.000000
0.036347 0.004334 0.006256
0.071565 0.010407 0.015015
0.094362 0.014343 0.022309
0.116487 0.012085 0.027314
0.139498 0.006867 0.029541
0.163455 0.000000 0.029938
0.188510 0.000000 0.029480
0.214603 0.000000 0.026734
0.241428 0.000000 0.023835
0.269535 0.000000 0.021302
0.299138 0.000000 0.019928
0.330297 0.000000 0.016510
0.363134 0.000000 0.013001
0.397559 0.000000 0.006653
0.433539 0.000000 0.000000
0.470649 0.000000 0.000000
0.510552 0.000000 0.000000
0.553094 0.000000 0.000000
0.597620 0.000000 0.000000
0.644129 0.000000 0.000000
0.691463 0.000000 0.000000
0.736904 0.000000 0.000000
0.779232 0.000000 0.000000
0.818357 0.000000 0.000000
0.854002 0.000000 0.000000
0.886198 0.000000 0.000000
0.915251 0.000000 0.000000
0.941527 0.000000 0.051820
0.965301 0.000000 0.090486
0.013092 0.025727 0.007294
0.014069 0.026703 0.008270
0.014710 0.030060 0.009064
0.040162 0.028229 0.008545
0.072602 0.035767 0.012848
0.095766 0.039246 0.020111
0.118074 0.038941 0.023804
0.141512 0.034058 0.026978
0.165743 0.027710 0.027100
0.191135 0.018585 0.025177
0.217166 0.006439 0.023377
0.244358 0.000000 0.019989
0.272709 0.000000 0.017060
0.302403 0.000000 0.015320
0.333806 0.000000 0.012634
0.366827 0.000000 0.007507
0.401373 0.000000 0.000702
0.437568 0.000000 0.000000
0.474800 0.000000 0.000000
0.514977 0.000000 0.000000
0.557549 0.000000 0.000000
0.602106 0.000000 0.000000
0.648341 0.000000 0.000000
0.695186 0.000000 0.000000
0.739803 0.000000 0.000000
0.781430 0.000000 0.000000
0.819944 0.000000 0.000000
0.855192 0.000000 0.000000
0.887053 0.000000 0.000000
0.915892 0.000000 0.000000
0.942046 0.000000 0.048219
0.965789 0.000000 0.089509
0.034852 0.060609 0.018463
0.034455 0.061097 0.019440
0.035645 0.061463 0.019348
0.059022 0.062013 0.017426
0.070375 0.057649 0.020691
0.091371 0.060792 0.022553
0.121218 0.067933 0.019471
0.144991 0.067079 0.021180
0.169741 0.065095 0.020996
0.195102 0.062959 0.019684
0.221469 0.059297 0.017365
0.248966 0.052888 0.013550
0.277623 0.046387 0.010071
0.307683 0.039155 0.007752
0.339086 0.029419 0.004425
0.372076 0.017151 0.000000
0.406806 0.000000 0.000000
0.442725 0.000000 0.000000
0.480140 0.000000 0.000000
0.520409 0.000000 0.000000
0.562921 0.000000 0.000000
0.607446 0.000000 0.000000
0.653437 0.000000 0.000000
0.699794 0.000000 0.000000
0.743587 0.000000 0.000000
0.784573 0.000000 0.000000
0.822507 0.000000 0.000000
0.857176 0.000000 0.000000
0.888640 0.000000 0.000000
0.917144 0.000000 0.000000
0.943023 0.000000 0.040345
0.966491 0.000000 0.087800
0.052613 0.078157 0.026825
0.052491 0.078523 0.026703
0.053223 0.078828 0.027680
0.066285 0.078950 0.025879
0.081453 0.078401 0.023713
0.089143 0.072419 0.028870
0.108522 0.073182 0.030762
0.142458 0.083894 0.021607
0.174044 0.089479 0.013519
0.200076 0.088441 0.010681
0.226719 0.087404 0.007630
0.254582 0.085878 0.003143
0.283391 0.083925 0.000000
0.313817 0.083040 0.000000
0.345495 0.081117 0.000000
0.378698 0.078614 0.000000
0.413519 0.074434 0.000000
0.449348 0.069245 0.000000
0.486793 0.061707 0.000000
0.527031 0.043061 0.000000
0.569329 0.010925 0.000000
0.613367 0.000000 0.000000
0.648280 0.000000 0.000000
0.694606 0.000000 0.000000
0.738918 0.000000 0.000000
0.780301 0.000000 0.000000
0.818753 0.000000 0.000000
0.853910 0.000000 0.000000
0.885801 0.000000 0.000000
0.914702 0.000000 0.000000
0.940917 0.000000 0.019776
0.964752 0.000000 0.081575
0.062593 0.093477 0.032532
0.062531 0.093782 0.032441
0.062928 0.094301 0.032227
0.073426 0.094270 0.030396
0.087160 0.094118 0.027039
0.101106 0.092683 0.027131
0.106630 0.085145 0.033143
0.123842 0.083864 0.037629
0.159823 0.096162 0.024079
0.199069 0.108949 0.005768
0.230625 0.112856 0.000000
0.258518 0.112398 0.000000
0.287663 0.112215 0.000000
0.318242 0.112154 0.000000
0.350408 0.111818 0.000000
0.384009 0.111330 0.000000
0.418830 0.109651 0.000000
0.454810 0.107332 0.000000
0.492226 0.104097 0.000000
0.532006 0.099886 0.000000
0.573419 0.094148 0.000000
0.616327 0.085267 0.000000
0.660334 0.074128 0.000000
0.704433 0.054444 0.000000
0.746487 0.007324 0.000000
0.786191 0.000000 0.000000
0.823362 0.000000 0.000000
0.857542 0.000000 0.000000
0.888609 0.000000 0.000000
0.916930 0.000000 0.000000
0.942626 0.000000 0.006195
0.966094 0.000000 0.078126
0.069215 0.110323 0.036622
0.069642 0.110536 0.036500
0.072786 0.110445 0.036286
0.081880 0.110445 0.033356
0.094453 0.110506 0.029908
0.109712 0.110109 0.027192
0.121584 0.108217 0.029541
0.125277 0.098817 0.036866
0.139834 0.095277 0.043336
0.177951 0.109102 0.027192
0.219516 0.123445 0.004486
0.265019 0.138949 0.000000
0.296544 0.140902 0.000000
0.327611 0.141604 0.000000
0.360143 0.142214 0.000000
0.394018 0.142184 0.000000
0.429053 0.142123 0.000000
0.465400 0.141451 0.000000
0.503258 0.140230 0.000000
0.542901 0.138247 0.000000
0.584192 0.135653 0.000000
0.626764 0.131624 0.000000
0.670314 0.126741 0.000000
0.713252 0.119966 0.000000
0.753994 0.111543 0.000000
0.792569 0.102113 0.000000
0.828519 0.090791 0.000000
0.861692 0.078492 0.000000
0.891844 0.065522 0.000000
0.919371 0.051423 0.000000
0.944518 0.047669 0.000000
0.967468 0.063111 0.073915
0.077028 0.126986 0.039399
0.080201 0.127077 0.039063
0.083650 0.127138 0.037629
0.091798 0.127108 0.034699
0.103273 0.127108 0.031220
0.117189 0.126772 0.027405
0.130495 0.125643 0.025940
0.142306 0.123842 0.029114
0.144167 0.112398 0.039277
0.155550 0.106020 0.048005
0.195377 0.121279 0.029541
0.239170 0.137392 0.004334
0.287510 0.154818 0.000000
0.338262 0.171939 0.000000
0.371008 0.172824 0.000000
0.405097 0.173892 0.000000
0.440589 0.174441 0.000000
0.477394 0.174685 0.000000
0.515343 0.174563 0.000000
0.554925 0.174044 0.000000
0.595819 0.173037 0.000000
0.637964 0.171176 0.000000
0.680903 0.168551 0.000000
0.722591 0.165042 0.000000
0.761959 0.160098 0.000000
0.799130 0.154360 0.000000
0.833951 0.148257 0.000000
0.865873 0.141512 0.000000
0.895201 0.135561 0.000000
0.921996 0.130800 0.000000
0.946471 0.129061 0.000000
0.968933 0.132509 0.067964
0.089052 0.143984 0.039094
0.091798 0.143923 0.037781
0.095033 0.143923 0.037415
0.102083 0.144076 0.034394
0.112367 0.143923 0.031006
0.125338 0.143771 0.025971
0.140139 0.143435 0.020508
0.151644 0.141482 0.023804
0.162173 0.138399 0.027710
0.163302 0.126436 0.038972
0.171786 0.117220 0.050874
0.212711 0.133211 0.032013
0.258732 0.151034 0.006073
0.309728 0.170596 0.000000
0.366735 0.192172 0.000000
0.417609 0.206363 0.000000
0.453468 0.207370 0.000000
0.490211 0.208072 0.000000
0.528313 0.208743 0.000000
0.567620 0.208988 0.000000
0.608484 0.209232 0.000000
0.650446 0.208682 0.000000
0.692683 0.207462 0.000000
0.733028 0.205356 0.000000
0.771115 0.201999 0.000000
0.806882 0.198032 0.000000
0.840177 0.193332 0.000000
0.870787 0.188327 0.000000
0.898924 0.183474 0.000000
0.924773 0.179324 0.000000
0.948516 0.177462 0.000000
0.970367 0.178836 0.058839
0.101259 0.161135 0.036072
0.103273 0.161227 0.035767
0.106416 0.161227 0.034302
0.112886 0.161166 0.032441
0.122347 0.160830 0.029145
0.133974 0.160739 0.024140
0.147799 0.160311 0.018738
0.161074 0.159121 0.016907
0.172519 0.157076 0.020050
0.180972 0.152316 0.025360
0.182132 0.139956 0.038666
0.189670 0.130159 0.050477
0.228977 0.144503 0.036164
0.277256 0.164187 0.009186
0.331090 0.185489 0.000000
0.391089 0.208865 0.000000
0.458198 0.234501 0.000000
0.505699 0.243565 0.000000
0.543603 0.244388 0.000000
0.582818 0.245335 0.000000
0.623194 0.245975 0.000000
0.664363 0.246159 0.000000
0.705074 0.245487 0.000000
0.743771 0.243839 0.000000
0.780240 0.241245 0.000000
0.814420 0.237613 0.000000
0.846311 0.233524 0.000000
0.875731 0.229252 0.000000
0.902831 0.224857 0.000000
0.927794 0.221012 0.000000
0.950805 0.218509 0.000000
0.972045 0.218967 0.038697
0.112947 0.178347 0.032532
0.114992 0.178256 0.032319
0.117800 0.178134 0.030945
0.123568 0.178073 0.029053
0.132326 0.177890 0.025666
0.143038 0.177523 0.021912
0.155703 0.177188 0.016541
0.170199 0.176516 0.009674
0.181735 0.174716 0.011566
0.192996 0.172396 0.015839
0.199496 0.165743 0.024079
0.200565 0.153262 0.037140
0.204593 0.141085 0.051362
0.241428 0.153811 0.042908
0.291081 0.174624 0.014832
0.346502 0.197147 0.000000
0.408698 0.222080 0.000000
0.478157 0.249363 0.000000
0.551781 0.277348 0.000000
0.590906 0.278599 0.000000
0.631373 0.279789 0.000000
0.672663 0.281163 0.000000
0.712734 0.281315 0.000000
0.750515 0.280095 0.000000
0.785946 0.277623 0.000000
0.819150 0.274510 0.000000
0.850065 0.270726 0.000000
0.878660 0.266545 0.000000
0.905058 0.262242 0.000000
0.929503 0.258366 0.000000
0.952056 0.255528 0.000000
0.972869 0.254948 0.003662
0.122927 0.194247 0.037324
0.124819 0.194186 0.036011
0.127321 0.194156 0.035645
0.132570 0.194125 0.033753
0.140688 0.194095 0.029175
0.150851 0.193851 0.025330
0.162814 0.193423 0.020050
0.176150 0.192752 0.014405
0.189853 0.191501 0.008881
0.200870 0.189364 0.012024
0.211978 0.186801 0.015259
0.216861 0.178744 0.025299
0.217502 0.165927 0.040558
0.222873 0.154513 0.054536
0.257481 0.165347 0.052064
0.309392 0.187778 0.024140
0.367681 0.212070 0.000000
0.433173 0.238743 0.000000
0.506401 0.268193 0.000000
0.585443 0.299626 0.000000
0.648554 0.318608 0.000000
0.688685 0.319738 0.000000
0.727199 0.319890 0.000000
0.763088 0.318425 0.000000
0.796780 0.315862 0.000000
0.828153 0.312352 0.000000
0.857420 0.308415 0.000000
0.884550 0.303899 0.000000
0.909758 0.299229 0.000000
0.933104 0.294957 0.000000
0.954742 0.291478 0.000000
0.974884 0.290074 0.000000
0.134035 0.211856 0.044404
0.135775 0.211704 0.043183
0.138064 0.211704 0.041718
0.142885 0.211643 0.039826
0.150332 0.211398 0.036530
0.159823 0.211093 0.031678
0.171054 0.210666 0.026398
0.183749 0.209964 0.018677
0.197604 0.209049 0.011688
0.209934 0.207156 0.009979
0.220859 0.204685 0.014313
0.231937 0.202029 0.017487
0.235386 0.192660 0.030549
0.235996 0.179721 0.045686
0.240208 0.167758 0.059480
0.272709 0.176394 0.060182
0.327214 0.200381 0.034913
0.388159 0.226413 0.000000
0.457435 0.255283 0.000000
0.535576 0.287602 0.000000
0.617456 0.320928 0.000000
0.697200 0.353155 0.000000
0.741390 0.358953 0.000000
0.775723 0.357214 0.000000
0.807401 0.353979 0.000000
0.836942 0.349920 0.000000
0.864561 0.345281 0.000000
0.890318 0.340337 0.000000
0.914305 0.335149 0.000000
0.936614 0.330358 0.000000
0.957427 0.326360 0.000000
0.976806 0.324010 0.000000
0.145022 0.229068 0.049348
0.146395 0.228946 0.049256
0.148470 0.228946 0.048157
0.153079 0.228885 0.046662
0.159823 0.228672 0.043366
0.168826 0.228367 0.038514
0.179446 0.227787 0.032349
0.191318 0.227176 0.025727
0.204654 0.226017 0.016846
0.218784 0.224765 0.007507
0.229679 0.222446 0.010712
0.240604 0.219883 0.014984
0.251591 0.217166 0.019165
0.253758 0.206516 0.034424
0.254490 0.193545 0.051148
0.257572 0.180789 0.062470
0.287358 0.186984 0.065461
0.344305 0.212619 0.047089
0.408820 0.240787 0.000000
0.483101 0.272587 0.000000
0.565637 0.307469 0.000000
0.649866 0.342565 0.000000
0.727993 0.374731 0.000000
0.788327 0.396612 0.000000
0.818082 0.392523 0.000000
0.845731 0.387457 0.000000
0.871672 0.382116 0.000000
0.895933 0.376226 0.000000
0.918578 0.370459 0.000000
0.939818 0.364965 0.000000
0.959686 0.360174 0.000000
0.978363 0.356847 0.000000
0.155703 0.246403 0.054749
0.156954 0.246281 0.054658
0.158907 0.246281 0.052766
0.163180 0.246128 0.051392
0.169497 0.245762 0.048249
0.177798 0.245304 0.044038
0.187564 0.244755 0.037995
0.199039 0.243961 0.030457
0.211521 0.242954 0.022705
0.225071 0.241642 0.012482
0.238224 0.239933 0.006806
0.249210 0.237613 0.010925
0.260410 0.235111 0.015961
0.271611 0.232456 0.019837
0.272404 0.220462 0.038697
0.273289 0.207401 0.055055
0.275303 0.193820 0.065278
0.301762 0.197299 0.070008
0.361517 0.224765 0.055360
0.430488 0.255680 0.002625
0.510124 0.290562 0.000000
0.596094 0.327581 0.000000
0.681849 0.364202 0.000000
0.756374 0.395331 0.000000
0.817105 0.419776 0.000000
0.854002 0.425086 0.000000
0.878355 0.418708 0.000000
0.901274 0.412055 0.000000
0.922820 0.405524 0.000000
0.943084 0.399268 0.000000
0.962219 0.393744 0.000000
0.980255 0.389685 0.000000
0.166598 0.264042 0.059052
0.167727 0.264012 0.058961
0.169680 0.263890 0.058198
0.173678 0.263767 0.056031
0.179568 0.263340 0.052949
0.187198 0.263035 0.049378
0.196567 0.262394 0.044251
0.207340 0.261540 0.036927
0.219455 0.260410 0.027161
0.232456 0.259190 0.016938
0.246311 0.257633 0.006531
0.258396 0.255528 0.005737
0.269444 0.253086 0.009735
0.280674 0.250401 0.014801
0.290501 0.246616 0.022461
0.291295 0.234623 0.042176
0.292119 0.221530 0.058930
0.293126 0.207279 0.067140
0.316594 0.207645 0.074556
0.379950 0.237491 0.061555
0.453773 0.271275 0.007355
0.538720 0.309331 0.000000
0.628077 0.348821 0.000000
0.713527 0.385931 0.000000
0.784390 0.415930 0.000000
0.841123 0.439155 0.000000
0.885405 0.455787 0.000000
0.906950 0.448188 0.000000
0.927337 0.440589 0.000000
0.946624 0.433387 0.000000
0.964874 0.427008 0.000000
0.982208 0.422034 0.000000
0.177218 0.281743 0.061616
0.178653 0.281621 0.060700
0.178775 0.279454 0.060456
0.182589 0.279179 0.058930
0.188083 0.278935 0.056825
0.195468 0.278569 0.053315
0.204379 0.278050 0.048768
0.214603 0.277256 0.040986
0.226047 0.276371 0.033234
0.238773 0.275151 0.022004
0.252110 0.273716 0.011597
0.266178 0.272190 0.000000
0.277379 0.269932 0.003479
0.288609 0.267704 0.008087
0.300114 0.265232 0.012604
0.308904 0.260410 0.021851
0.309880 0.248386 0.043488
0.310948 0.235294 0.060212
0.312047 0.221042 0.068635
0.330724 0.217624 0.078096
0.398108 0.249973 0.064942
0.477394 0.286992 0.009339
0.567041 0.328038 0.000000
0.659419 0.369726 0.000000
0.742550 0.406561 0.000000
0.810513 0.435981 0.000000
0.863523 0.457893 0.000000
0.905089 0.474037 0.000000
0.931823 0.475776 0.000000
0.950164 0.467720 0.000000
0.967620 0.460426 0.000000
0.984283 0.454536 0.000000
0.188266 0.299809 0.063233
0.189090 0.299443 0.062928
0.190585 0.299107 0.062104
0.193851 0.298711 0.061097
0.198978 0.298161 0.059571
0.206058 0.297642 0.056214
0.214481 0.297032 0.050996
0.224338 0.296330 0.045991
0.235630 0.295415 0.035004
0.247745 0.294285 0.024872
0.260929 0.292973 0.013245
0.274846 0.291447 0.000244
0.288060 0.289647 0.000000
0.299443 0.287449 0.000000
0.311070 0.285130 0.002869
0.322911 0.282811 0.007874
0.330419 0.276829 0.020386
0.331579 0.264652 0.043122
0.332799 0.251469 0.060945
0.334081 0.237003 0.070130
0.352728 0.233188 0.079652
0.419837 0.264408 0.067781
0.505486 0.305150 0.006287
0.599634 0.349157 0.000000
0.693416 0.392370 0.000000
0.773556 0.428809 0.000000
0.836728 0.456580 0.000000
0.885496 0.476844 0.000000
0.923644 0.491737 0.000000
0.953674 0.502007 0.000000
0.970336 0.493782 0.000000
0.986328 0.486976 0.000000
0.200259 0.320317 0.064271
0.201144 0.319982 0.063935
0.202396 0.319677 0.063111
0.205600 0.319219 0.062165
0.210727 0.318669 0.060609
0.217380 0.318181 0.058167
0.225498 0.317601 0.053712
0.235203 0.316869 0.046418
0.246098 0.315984 0.036500
0.258030 0.314885 0.026276
0.270817 0.313603 0.013611
0.284703 0.312047 0.000000
0.299260 0.310460 0.000000
0.311528 0.308537 0.000000
0.323369 0.306432 0.000000
0.335424 0.304173 0.000000
0.347570 0.301823 0.000000
0.353979 0.294682 0.015839
0.355322 0.282231 0.039948
0.356634 0.268711 0.060273
0.357916 0.254032 0.070436
0.376776 0.250004 0.080171
0.443244 0.279820 0.069825
0.535515 0.324529 0.000763
0.634028 0.371527 0.000000
0.727993 0.416114 0.000000
0.803738 0.451179 0.000000
0.862089 0.477180 0.000000
0.906706 0.496010 0.000000
0.941680 0.509819 0.000000
0.969574 0.520256 0.000000
0.988190 0.519280 0.000000
0.212955 0.342718 0.064271
0.214054 0.342321 0.063539
0.215244 0.341985 0.063203
0.218448 0.341558 0.062226
0.223239 0.341039 0.060243
0.229679 0.340581 0.058259
0.237888 0.339910 0.053010
0.247196 0.339269 0.045350
0.257969 0.338384 0.035309
0.269657 0.337346 0.023957
0.282414 0.336217 0.010986
0.296147 0.334752 0.000000
0.310613 0.333227 0.000000
0.325292 0.331395 0.000000
0.337285 0.329412 0.000000
0.349493 0.327276 0.000000
0.361852 0.324987 0.000000
0.374304 0.322576 0.000000
0.379461 0.313878 0.005585
0.380743 0.301061 0.032471
0.382086 0.287327 0.058106
0.383337 0.272160 0.069459
0.402258 0.267674 0.079652
0.468116 0.295964 0.070680
0.566644 0.344549 0.000000
0.669734 0.395270 0.000000
0.760494 0.439155 0.000000
0.831357 0.472633 0.000000
0.884855 0.496925 0.000000
0.925933 0.514641 0.000000
0.958221 0.527977 0.000000
0.983124 0.537713 0.000000
0.226291 0.366186 0.062715
0.227237 0.365972 0.062318
0.228641 0.365789 0.061830
0.231754 0.365454 0.060365
0.236576 0.365148 0.059083
0.243015 0.364691 0.055207
0.251011 0.364141 0.048951
0.260227 0.363500 0.040955
0.270695 0.362676 0.029786
0.282383 0.361517 0.017395
0.295079 0.360388 0.004334
0.308782 0.358984 0.000000
0.323186 0.357488 0.000000
0.338354 0.355779 0.000000
0.352392 0.354009 0.000000
0.365026 0.351995 0.000000
0.377783 0.349920 0.000000
0.390723 0.347692 0.000000
0.403784 0.345495 0.000000
0.407782 0.335363 0.000000
0.409400 0.322362 0.019471
0.411139 0.308293 0.049653
0.413001 0.293217 0.066987
0.432471 0.288396 0.078431
0.498726 0.315557 0.069947
0.604700 0.369268 0.000000
0.709773 0.422126 0.000000
0.795499 0.464576 0.000000
0.860227 0.495857 0.000000
0.908843 0.518517 0.000000
0.945861 0.535210 0.000000
0.973754 0.547417 0.000000
0.241642 0.393835 0.059388
0.242649 0.393591 0.058991
0.243961 0.393378 0.057679
0.247044 0.393042 0.055756
0.251835 0.392798 0.052399
0.258213 0.392370 0.047211
0.266270 0.391943 0.039765
0.275364 0.391302 0.029908
0.285985 0.390539 0.018402
0.297704 0.389502 0.005646
0.310460 0.388434 0.000000
0.324315 0.387121 0.000000
0.338781 0.385657 0.000000
0.354253 0.384039 0.000000
0.370367 0.382361 0.000000
0.383978 0.380499 0.000000
0.397162 0.378576 0.000000
0.410590 0.376532 0.000000
0.424262 0.374395 0.000000
0.437903 0.372198 0.000000
0.440833 0.360510 0.000000
0.442756 0.347173 0.000000
0.444862 0.332647 0.033478
0.447181 0.317021 0.061341
0.468544 0.312810 0.074647
0.535698 0.339422 0.072908
0.648615 0.397986 0.000000
0.751644 0.451057 0.000000
0.830625 0.491249 0.000000
0.888884 0.520378 0.000000
0.931182 0.540887 0.000000
0.963012 0.556390 0.000000
0.258091 0.423987 0.047730
0.259007 0.423774 0.046998
0.260319 0.423529 0.046021
0.263432 0.423285 0.042115
0.268223 0.423102 0.037415
0.274662 0.422889 0.031098
0.282780 0.422492 0.021057
0.292180 0.422034 0.012696
0.303044 0.421546 0.000000
0.315099 0.420783 0.000000
0.328099 0.419837 0.000000
0.342199 0.418891 0.000000
0.357366 0.417609 0.000000
0.373205 0.416327 0.000000
0.389837 0.414954 0.000000
0.406622 0.413397 0.000000
0.420630 0.411933 0.000000
0.434974 0.410224 0.000000
0.449470 0.408362 0.000000
0.464057 0.406409 0.000000
0.478309 0.403937 0.000000
0.480690 0.391150 0.000000
0.483375 0.377447 0.000000
0.486397 0.362707 0.006134
0.489845 0.347143 0.051575
0.511070 0.341924 0.072755
0.578454 0.367193 0.075929
0.696559 0.429969 0.001251
0.793393 0.481392 0.000000
0.863706 0.518364 0.000000
0.913603 0.544305 0.000000
0.950500 0.563958 0.078981
0.277714 0.460487 0.022248
0.278691 0.460212 0.020356
0.280156 0.460029 0.019074
0.283268 0.459785 0.015137
0.288121 0.459571 0.009339
0.294743 0.459358 0.002686
0.302770 0.459052 0.000000
0.312383 0.458717 0.000000
0.323491 0.458137 0.000000
0.335851 0.457465 0.000000
0.349218 0.456703 0.000000
0.363836 0.455604 0.000000
0.379278 0.454566 0.000000
0.395605 0.453315 0.000000
0.412909 0.452155 0.000000
0.430854 0.450782 0.000000
0.447669 0.449500 0.000000
0.462776 0.448096 0.000000
0.478248 0.446601 0.000000
0.493904 0.445045 0.000000
0.509789 0.443305 0.000000
0.523796 0.439918 0.000000
0.527153 0.427100 0.000000
0.530938 0.413336 0.000000
0.535180 0.398596 0.000000
0.539940 0.382696 0.037018
0.561303 0.376318 0.069886
0.628595 0.400031 0.080507
0.745693 0.464149 0.038361
0.831388 0.511070 0.017731
0.891966 0.544427 0.069764
0.935515 0.569329 0.112795
0.299779 0.501579 0.000000
0.300847 0.501244 0.000000
0.302220 0.501213 0.000000
0.305516 0.501061 0.000000
0.310582 0.501030 0.000000
0.317327 0.500969 0.000000
0.325811 0.500847 0.000000
0.335760 0.500511 0.000000
0.347082 0.500237 0.000000
0.359838 0.499641 0.000000
0.373785 0.498909 0.000000
0.388830 0.498207 0.000000
0.405035 0.497200 0.000000
0.422156 0.496254 0.000000
0.440223 0.495369 0.000000
0.459205 0.494331 0.000000
0.478981 0.493263 0.000000
0.495827 0.492287 0.000000
0.512413 0.491341 0.000000
0.529351 0.490272 0.000000
0.546471 0.489235 0.000000
0.564019 0.488258 0.000000
0.578576 0.484474 0.000000
0.583276 0.471473 0.000000
0.588525 0.457527 0.000000
0.594476 0.442664 0.000000
0.601038 0.426459 0.012512
0.623346 0.419409 0.065919
0.685969 0.438605 0.088746
0.791989 0.498512 0.080171
0.866697 0.541527 0.099763
0.918730 0.573022 0.137362
0.325292 0.549157 0.000000
0.326238 0.548974 0.000000
0.327825 0.548913 0.000000
0.331090 0.548821 0.000000
0.336370 0.548699 0.000000
0.343297 0.548516 0.000000
0.351751 0.548180 0.000000
0.361883 0.547662 0.000000
0.373541 0.546929 0.000000
0.386389 0.546166 0.000000
0.400427 0.545281 0.000000
0.415930 0.544274 0.000000
0.432532 0.543359 0.000000
0.450294 0.542504 0.000000
0.469154 0.541680 0.000000
0.488991 0.541009 0.000000
0.509575 0.540429 0.000000
0.530205 0.539971 0.000000
0.547784 0.539544 0.000000
0.565911 0.539147 0.000000
0.584497 0.538750 0.000000
0.603754 0.538628 0.000000
0.623621 0.538628 0.000000
0.639277 0.534752 0.000000
0.645930 0.521935 0.000000
0.652796 0.507744 0.000000
0.659205 0.491585 0.000000
0.666041 0.474037 0.000000
0.685695 0.464027 0.064363
0.742702 0.479561 0.102113
0.833341 0.532097 0.117891
0.897490 0.572351 0.153506
0.352331 0.600061 0.000000
0.353521 0.599969 0.000000
0.355108 0.600000 0.000000
0.358648 0.600031 0.000000
0.364111 0.600061 0.000000
0.371283 0.600092 0.000000
0.380255 0.600122 0.000000
0.390814 0.599939 0.000000
0.402991 0.599695 0.000000
0.416632 0.599451 0.000000
0.431861 0.599023 0.000000
0.448096 0.598657 0.000000
0.465370 0.598322 0.000000
0.483894 0.598047 0.000000
