data/fiter_cube/95423152/1023244/file.cube
# Created by Adobe Lightroom plugin Export LUT (1.17.0)
# www.johnrellis.com/lightroom/exportlut.htm
# Preset: 黑暗巧克力情绪人像_03 云集
# Color profile: C:\Program Files (x86)\Common Files\Adobe\Color\Profiles\Recommended\AdobeRGB1998.icc
LUT_3D_SIZE 5
DOMAIN_MIN 0.000000 0.000000 0.000000
DOMAIN_MAX 0.903226 0.903226 0.903226
0.000000 0.000000 0.000000
0.137301 0.000000 0.031556
0.326421 0.000000 0.020874
0.592645 0.000000 0.000000
0.884306 0.000000 0.000000
0.069215 0.110323 0.036622
0.125277 0.098817 0.036866
0.360143 0.142214 0.000000
0.626764 0.131624 0.000000
0.891844 0.065522 0.000000
0.145022 0.229068 0.049348
0.191318 0.227176 0.025727
0.254490 0.193545 0.051148
0.649866 0.342565 0.000000
0.918578 0.370459 0.000000
0.226291 0.366186 0.062715
0.260227 0.363500 0.040955
0.352392 0.354009 0.000000
0.411139 0.308293 0.049653
0.860227 0.495857 0.000000
0.382147 0.656641 0.000000
0.420783 0.656733 0.000000
0.539879 0.659571 0.000000
0.695033 0.658991 0.000000
0.796353 0.600275 0.000000
0.030640 0.044251 0.119173
0.152804 0.000000 0.126436
0.315953 0.000000 0.127443
0.563226 0.000000 0.129824
0.878782 0.000000 0.124880
0.072480 0.113161 0.103243
0.145754 0.128359 0.118654
0.327703 0.136873 0.127687
0.595270 0.109773 0.124208
0.887968 0.000000 0.114900
0.120089 0.236423 0.103883
0.192020 0.237705 0.123964
0.264530 0.208865 0.121370
0.680751 0.366308 0.079347
0.914641 0.362463 0.035676
0.219760 0.374517 0.128695
0.256626 0.371649 0.124178
0.352575 0.361028 0.094362
0.416602 0.316197 0.114565
0.869688 0.504936 0.000000
0.361151 0.660334 0.085420
0.403143 0.660151 0.062745
0.527489 0.658991 0.000000
0.692134 0.658412 0.000000
0.796353 0.598230 0.000000
0.099336 0.059846 0.278721
0.189487 0.002777 0.290349
0.370825 0.000000 0.301457
0.626154 0.000000 0.321141
0.869444 0.000000 0.314244
0.119997 0.155428 0.251682
0.182528 0.152682 0.266270
0.359564 0.116152 0.289281
0.600824 0.000000 0.300267
0.858610 0.000000 0.295689
0.142153 0.245609 0.222568
0.195377 0.255924 0.232456
0.347631 0.301823 0.276982
0.611261 0.315282 0.285649
0.886809 0.313725 0.298711
0.179324 0.387945 0.227817
0.219364 0.397101 0.228275
0.361456 0.410346 0.241337
0.454047 0.359075 0.230716
0.906065 0.564263 0.312291
0.190768 0.679225 0.183230
0.287388 0.679255 0.206729
0.471443 0.677974 0.218662
0.672694 0.669978 0.146914
0.798611 0.607507 0.197116
0.174166 0.090455 0.510033
0.256199 0.048859 0.522759
0.463935 0.000000 0.568811
0.692805 0.000000 0.566979
0.921782 0.000000 0.561273
0.162112 0.185092 0.483040
0.238315 0.174594 0.496925
0.442756 0.091341 0.547845
0.685573 0.000000 0.557855
0.916930 0.000000 0.554284
0.173495 0.314824 0.417548
0.225345 0.315435 0.423560
0.387243 0.324285 0.487160
0.661158 0.286381 0.528191
0.894499 0.286870 0.528862
0.197635 0.420264 0.378607
0.242191 0.428687 0.386389
0.377935 0.468635 0.423560
0.637629 0.554467 0.511955
0.883574 0.589563 0.549218
0.240177 0.687800 0.449134
0.280339 0.692409 0.446509
0.395453 0.707973 0.432532
0.617762 0.712612 0.416327
0.804623 0.642206 0.396887
0.259617 0.158358 0.774289
0.323125 0.136110 0.777340
0.488228 0.000000 0.790524
0.705196 0.000000 0.812070
0.910765 0.000000 0.788724
0.241489 0.231174 0.761837
0.307073 0.217624 0.765621
0.475471 0.153323 0.780697
0.696040 0.000000 0.804746
0.906920 0.000000 0.784024
0.186191 0.381201 0.724300
0.249760 0.372381 0.730434
0.432349 0.351659 0.750332
0.668025 0.298802 0.783474
0.899748 0.255833 0.777554
0.172854 0.550011 0.684810
0.229099 0.544762 0.684169
0.377722 0.531914 0.690974
0.641993 0.562615 0.745418
0.886992 0.605554 0.777066
0.201236 0.727016 0.667689
0.254551 0.726497 0.667506
0.409033 0.730861 0.674189
0.635889 0.742489 0.694270
0.861875 0.801053 0.771572
