data/fiter_cube/51215349/1023014/file.cube
# Created by Adobe Lightroom plugin Export LUT (1.17.0)
# www.johnrellis.com/lightroom/exportlut.htm
# Preset: 日系旅行街拍胶片_01 云集后期
# Color profile: C:\Program Files (x86)\Common Files\Adobe\Color\Profiles\Recommended\AdobeRGB1998.icc
LUT_3D_SIZE 5
DOMAIN_MIN 0.000000 0.000000 0.000000
DOMAIN_MAX 0.903226 0.903226 0.903226
0.140963 0.141390 0.149508
0.182406 0.136416 0.148714
0.583520 0.000000 0.120180
0.925597 0.257206 0.000000
1.000000 0.460517 0.000000
0.140352 0.152743 0.150271
0.172915 0.165103 0.147219
0.549401 0.222873 0.107393
0.913848 0.384588 0.000000
1.000000 0.529747 0.000000
0.125673 0.299107 0.184939
0.174777 0.329107 0.191958
0.540185 0.476539 0.092042
0.896361 0.605707 0.000000
1.000000 0.673976 0.000000
0.000000 0.718563 0.344274
0.146517 0.729000 0.350042
0.477852 0.699397 0.353613
0.855619 0.767056 0.183322
0.985321 0.792508 0.270420
0.519829 0.899077 0.660365
0.586358 0.894377 0.675746
0.719203 0.877592 0.713130
0.800229 0.868742 0.684443
0.951293 0.895476 0.640131
0.139010 0.143191 0.160494
0.177188 0.134463 0.170901
0.554589 0.000000 0.144106
0.903105 0.261234 0.000000
1.000000 0.460578 0.000000
0.136812 0.163394 0.172274
0.174533 0.175906 0.184665
0.549615 0.200198 0.156313
0.897581 0.365850 0.000000
1.000000 0.520287 0.000000
0.117708 0.323156 0.229648
0.173465 0.362493 0.242893
0.516014 0.463996 0.188846
0.881590 0.594934 0.107088
0.999725 0.669612 0.069245
0.000000 0.732906 0.418830
0.197910 0.742855 0.434058
0.522210 0.723781 0.457130
0.848936 0.770108 0.327092
0.976349 0.800137 0.408789
0.525444 0.899809 0.681910
0.591150 0.895140 0.695613
0.728573 0.885527 0.734981
0.804166 0.870420 0.715785
0.947143 0.897765 0.684382
0.074403 0.163943 0.328862
0.131746 0.146944 0.367407
0.543603 0.000000 0.428656
0.907347 0.000000 0.353216
1.000000 0.467659 0.354070
0.127260 0.239750 0.350866
0.139712 0.223514 0.400610
0.554131 0.000000 0.455024
0.894408 0.311376 0.419043
1.000000 0.528832 0.381262
0.000000 0.444495 0.459876
0.138857 0.474647 0.484169
0.552361 0.561517 0.560998
0.863218 0.626398 0.536950
0.980621 0.689784 0.499855
0.000000 0.759457 0.597223
0.272740 0.768521 0.611200
0.608423 0.772671 0.654170
0.828458 0.789914 0.626398
0.949676 0.827512 0.663996
0.554040 0.900542 0.748104
0.611872 0.897826 0.756832
0.727535 0.890929 0.774472
0.814633 0.877104 0.775998
0.934813 0.897948 0.753536
0.000000 0.264012 0.708644
0.000000 0.218631 0.723171
0.507408 0.000000 0.760220
0.857603 0.000000 0.719203
0.968231 0.555657 0.708248
0.000000 0.407294 0.715267
0.000000 0.355077 0.730282
0.488197 0.186648 0.762966
0.850004 0.176120 0.725917
0.960693 0.612116 0.722835
0.248631 0.616388 0.725093
0.380316 0.627558 0.729946
0.575952 0.627436 0.761929
0.822934 0.578454 0.752956
0.944732 0.745632 0.771359
0.369024 0.793790 0.778195
0.465278 0.793088 0.779629
0.666407 0.799893 0.791348
0.819852 0.822385 0.816190
0.933959 0.841703 0.806455
0.605371 0.897490 0.826963
0.649836 0.896696 0.830350
0.752804 0.898039 0.841825
0.835508 0.896727 0.847715
0.922545 0.902342 0.834318
0.365148 0.546777 0.874327
0.352850 0.493385 0.878660
0.538384 0.389471 0.887999
0.814176 0.000000 0.898009
0.947021 0.468971 0.855650
0.490852 0.640101 0.867399
0.473762 0.601709 0.871611
0.558038 0.496651 0.882963
0.802457 0.208042 0.895201
0.941619 0.526879 0.856352
0.614618 0.757900 0.856718
0.625483 0.752560 0.859098
0.663874 0.720790 0.870054
0.775540 0.586481 0.885283
0.929717 0.679835 0.865843
0.665705 0.837247 0.869047
0.683253 0.835630 0.868101
0.743526 0.835325 0.868559
0.808164 0.828000 0.880583
0.920165 0.820127 0.884276
0.722194 0.901701 0.888762
0.736782 0.901427 0.889250
0.789334 0.903349 0.893462
0.850034 0.904723 0.897215
0.915648 0.912627 0.906218
