data/fiter_cube/51215349/1023014/file.cube
# Created by Adobe Lightroom plugin Export LUT (1.17.0)
# www.johnrellis.com/lightroom/exportlut.htm
# Preset: 日系旅行街拍胶片_01 云集后期
# Color profile: C:\Program Files (x86)\Common Files\Adobe\Color\Profiles\Recommended\AdobeRGB1998.icc
LUT_3D_SIZE 8
DOMAIN_MIN 0.000000 0.000000 0.000000
DOMAIN_MAX 0.903226 0.903226 0.903226
0.140963 0.141390 0.149508
0.142977 0.141054 0.149508
0.206058 0.134829 0.148104
0.413245 0.090394 0.137728
0.724453 0.000000 0.090761
0.901823 0.215152 0.000000
0.975677 0.355871 0.000000
1.000000 0.460517 0.000000
0.140932 0.141573 0.149508
0.142397 0.142367 0.149416
0.198001 0.147341 0.147463
0.384619 0.137514 0.137514
0.703883 0.108431 0.087770
0.883970 0.247166 0.000000
0.966491 0.369726 0.000000
1.000000 0.470771 0.000000
0.139376 0.162173 0.151705
0.143099 0.166293 0.151858
0.191623 0.179782 0.146212
0.377691 0.225803 0.128847
0.707942 0.305150 0.000000
0.882017 0.394018 0.000000
0.969726 0.478798 0.000000
1.000000 0.545251 0.000000
0.133761 0.233890 0.168215
0.143221 0.239139 0.169192
0.186282 0.244663 0.174319
0.381628 0.341009 0.131258
0.735592 0.475227 0.000000
0.884001 0.559380 0.000000
0.962005 0.595026 0.000000
1.000000 0.630213 0.000000
0.083986 0.410468 0.212161
0.103059 0.419623 0.210697
0.188602 0.453315 0.216861
0.309178 0.439796 0.204593
0.661982 0.582635 0.000000
0.858762 0.625360 0.000000
0.946715 0.677119 0.000000
0.998047 0.718776 0.000000
0.000000 0.657984 0.301427
0.000000 0.675288 0.309087
0.174228 0.685634 0.309667
0.388128 0.671839 0.329290
0.560845 0.674647 0.262303
0.829099 0.739467 0.126619
0.937163 0.745327 0.099763
0.988769 0.780667 0.231144
0.132021 0.824063 0.468635
0.204807 0.825437 0.475349
0.344549 0.821164 0.486702
0.532921 0.811185 0.537530
0.605188 0.784329 0.487434
0.756344 0.806638 0.435645
0.910674 0.830991 0.361730
0.974090 0.826902 0.378546
0.519829 0.899077 0.660365
0.540398 0.897551 0.664424
0.606561 0.893126 0.681666
0.692073 0.888151 0.710384
0.743069 0.873228 0.710658
0.782376 0.866117 0.686763
0.877470 0.889616 0.682582
0.951293 0.895476 0.640131
0.140871 0.141390 0.149966
0.142611 0.141085 0.150240
0.196841 0.138491 0.148348
0.375860 0.129091 0.139101
0.694728 0.082368 0.092317
0.876341 0.223941 0.000000
0.962890 0.348486 0.000000
1.000000 0.450324 0.000000
0.140871 0.142061 0.150362
0.142580 0.142794 0.151034
0.194827 0.147707 0.149050
0.368566 0.151247 0.138857
0.686030 0.157351 0.087068
0.867277 0.260929 0.000000
0.955627 0.365881 0.000000
1.000000 0.459724 0.000000
0.138277 0.162295 0.156497
0.144106 0.169345 0.158724
0.192477 0.182498 0.154269
0.365911 0.221866 0.139559
0.680354 0.289067 0.066621
0.862760 0.384253 0.000000
0.954894 0.461006 0.000000
1.000000 0.530083 0.000000
0.135622 0.233036 0.177005
0.146426 0.240879 0.180484
0.191501 0.254215 0.187930
0.354894 0.320653 0.152590
0.681300 0.429511 0.037415
0.855924 0.522087 0.000000
0.946838 0.570367 0.000000
1.000000 0.615045 0.000000
0.082887 0.417029 0.229740
0.104707 0.423438 0.228275
0.176577 0.451392 0.222995
0.299168 0.424140 0.220890
0.631464 0.557366 0.099794
0.843198 0.609491 0.000000
0.938628 0.666835 0.000000
0.993957 0.709773 0.000000
0.000000 0.649012 0.315587
0.000000 0.653834 0.315282
0.164309 0.666499 0.316320
0.381170 0.663508 0.343267
0.546715 0.663661 0.282414
0.823362 0.735805 0.174655
0.932616 0.742519 0.160403
0.984863 0.777432 0.257420
0.072419 0.813077 0.464729
0.153201 0.811185 0.464485
0.312688 0.809812 0.476936
0.506889 0.805173 0.524346
0.601312 0.780697 0.495735
0.746304 0.800015 0.441779
0.903655 0.824765 0.366491
0.969635 0.821286 0.377966
0.497688 0.896239 0.653437
0.523033 0.895232 0.659724
0.594263 0.891051 0.677882
0.684840 0.886351 0.708125
0.756222 0.877806 0.729763
0.787411 0.868559 0.699794
0.874998 0.888334 0.686275
0.949004 0.893767 0.641352
0.136690 0.144808 0.171298
0.141360 0.140536 0.176761
0.199649 0.130159 0.185245
0.403754 0.000000 0.169894
0.723415 0.000000 0.142336
0.886198 0.207614 0.091493
0.967590 0.369238 0.000000
1.000000 0.470832 0.000000
0.139071 0.151095 0.173617
0.141512 0.149264 0.181277
0.198489 0.140749 0.188144
0.393622 0.099245 0.176913
0.709468 0.000000 0.147738
0.877897 0.243473 0.092103
0.962371 0.384833 0.000000
1.000000 0.483192 0.000000
0.135836 0.179080 0.188815
0.146700 0.183780 0.193393
0.195010 0.197879 0.207340
0.389624 0.216281 0.196445
0.711879 0.266545 0.160433
0.874388 0.367254 0.100313
0.958282 0.460731 0.000000
1.000000 0.538537 0.000000
0.131533 0.250919 0.215579
0.144259 0.265080 0.223819
0.201480 0.302129 0.242832
0.389044 0.361456 0.223209
0.707179 0.459571 0.187259
0.866423 0.522881 0.143862
0.951537 0.572259 0.093507
1.000000 0.621027 0.000000
0.000000 0.451087 0.289464
0.067536 0.465156 0.294896
0.189395 0.502953 0.308873
0.357275 0.509667 0.317876
0.661769 0.593683 0.235080
0.848783 0.628656 0.207065
0.936828 0.682734 0.230014
0.990814 0.716060 0.243076
0.000000 0.673457 0.390143
0.000000 0.679530 0.395178
0.203891 0.691157 0.407263
0.429114 0.697475 0.446448
0.549950 0.667933 0.384192
0.817136 0.739803 0.318700
0.924804 0.750546 0.329381
0.976532 0.790341 0.416175
0.164889 0.824247 0.528923
0.223453 0.823056 0.531518
0.359869 0.818936 0.541497
0.522026 0.812467 0.568505
0.631067 0.791592 0.569085
0.743160 0.800504 0.518730
0.898619 0.831174 0.481910
0.962676 0.833951 0.511437
0.509300 0.897826 0.679530
0.525719 0.896117 0.680659
0.593683 0.891447 0.694942
0.689631 0.887877 0.726223
0.766476 0.880247 0.754025
0.794003 0.871580 0.726253
0.872038 0.888640 0.715114
0.944915 0.896208 0.685878
0.116243 0.151858 0.247990
0.119387 0.146792 0.259403
0.186007 0.131411 0.293065
0.383032 0.000000 0.313542
0.715999 0.000000 0.296941
0.885924 0.000000 0.254704
0.963470 0.301946 0.233921
1.000000 0.443458 0.190036
0.129488 0.174655 0.261967
0.128908 0.167697 0.272770
0.184329 0.148135 0.303929
0.387518 0.074311 0.322057
0.717037 0.000000 0.298833
0.880949 0.000000 0.263584
0.959930 0.332647 0.239780
1.000000 0.458625 0.193027
0.140261 0.218570 0.273899
0.154147 0.224216 0.281804
0.188693 0.224582 0.321691
0.395575 0.182284 0.349676
0.724666 0.130007 0.324193
0.877958 0.336339 0.319493
0.959014 0.463813 0.304265
1.000000 0.535241 0.249149
0.096071 0.313176 0.330449
0.116396 0.322423 0.338964
0.199802 0.357733 0.371283
0.402960 0.417365 0.425330
0.703609 0.467506 0.406806
0.858061 0.523980 0.385779
0.943297 0.579492 0.363409
0.996918 0.629053 0.334112
0.000000 0.487221 0.404273
0.000000 0.501610 0.412787
0.192630 0.555688 0.448402
0.439338 0.606531 0.498970
0.678157 0.638636 0.471138
0.840848 0.674128 0.479744
0.924956 0.709682 0.482429
0.979156 0.733211 0.467781
0.000000 0.721096 0.521019
0.000000 0.732784 0.534356
0.278111 0.736751 0.546593
0.493019 0.740139 0.573938
0.621424 0.718318 0.568750
0.813169 0.761257 0.530236
0.910369 0.777188 0.548730
0.960632 0.812406 0.595331
0.242435 0.836362 0.613367
0.298466 0.836454 0.618433
0.433448 0.834226 0.633448
0.577905 0.828885 0.656428
0.698573 0.818448 0.687709
0.747463 0.805814 0.629816
0.888640 0.839231 0.614374
0.950378 0.846952 0.640162
0.554253 0.901549 0.731228
0.573205 0.900603 0.734310
0.622797 0.897002 0.740902
0.694636 0.891997 0.754452
0.764065 0.886625 0.771450
0.805356 0.877501 0.765835
0.866300 0.888243 0.751736
0.939147 0.898863 0.737057
0.000000 0.182559 0.438849
0.000000 0.169558 0.452369
0.118196 0.151308 0.487007
0.387396 0.000000 0.537072
0.682918 0.000000 0.541588
0.864500 0.000000 0.486275
0.950927 0.303441 0.482582
0.990814 0.531243 0.523583
0.000000 0.217960 0.456367
0.000000 0.203677 0.470558
0.107820 0.173495 0.502190
0.389624 0.000000 0.551293
0.682582 0.000000 0.545983
0.863462 0.000000 0.494118
0.947601 0.360693 0.499855
0.989166 0.546410 0.529137
0.077455 0.302312 0.465095
0.095918 0.305303 0.481758
0.131594 0.275212 0.524498
0.366979 0.193759 0.574670
0.678767 0.062470 0.562097
0.853056 0.247715 0.519280
0.932982 0.502129 0.554009
0.984131 0.584833 0.536767
0.000000 0.415290 0.514519
0.054749 0.422644 0.521172
0.240909 0.451667 0.546441
0.411261 0.468696 0.600610
0.677974 0.430060 0.608911
0.839353 0.533379 0.594873
0.920867 0.617670 0.597284
0.978241 0.652277 0.558465
0.000000 0.583154 0.584497
0.000000 0.590570 0.590326
0.230198 0.610773 0.606867
0.475227 0.640253 0.634791
0.667964 0.672145 0.666957
0.818326 0.694484 0.655177
0.905913 0.720058 0.641962
0.963439 0.743282 0.621607
0.000000 0.700710 0.610986
0.000000 0.707271 0.616938
0.278080 0.723323 0.633112
0.511833 0.745693 0.664149
0.668147 0.755306 0.688289
0.797055 0.774105 0.679774
0.892271 0.802487 0.700557
0.946715 0.825559 0.708980
0.308232 0.839506 0.696437
0.351965 0.839292 0.698909
0.476814 0.839689 0.710445
0.607324 0.836912 0.725856
0.704555 0.832303 0.737026
0.760311 0.814084 0.722621
0.875456 0.843931 0.712154
0.937926 0.856352 0.730648
0.572412 0.901518 0.773342
0.587427 0.900389 0.774502
0.632959 0.897093 0.778439
0.702419 0.895537 0.789975
0.760037 0.891203 0.795377
0.818784 0.884977 0.808133
0.854398 0.883970 0.783017
0.931548 0.899290 0.777890
0.000000 0.246921 0.674739
0.000000 0.226139 0.680476
0.000000 0.194491 0.693416
0.361059 0.073304 0.721798
0.663905 0.000000 0.736782
0.837217 0.000000 0.694484
0.930449 0.245518 0.653681
0.971099 0.574487 0.690181
0.000000 0.287938 0.672145
0.000000 0.267369 0.677028
0.000000 0.221103 0.692531
0.347265 0.132235 0.718044
0.655329 0.000000 0.734737
0.833097 0.000000 0.694087
0.927092 0.296452 0.656916
0.968658 0.590661 0.694728
0.000000 0.421027 0.683589
0.004547 0.416876 0.689784
0.131106 0.367864 0.708766
0.350286 0.286625 0.731289
0.651179 0.102663 0.749355
0.829221 0.221958 0.708248
0.918395 0.453559 0.681605
0.961273 0.652125 0.718746
0.199069 0.553063 0.694270
0.248203 0.556512 0.695430
0.378607 0.572900 0.707149
0.479744 0.557763 0.743160
0.648493 0.469306 0.768276
0.822629 0.512993 0.739742
0.906157 0.626886 0.728054
0.951354 0.734401 0.757595
0.208988 0.659266 0.718318
0.263920 0.662776 0.720638
0.406317 0.673762 0.727993
0.570733 0.693507 0.740230
0.677607 0.700740 0.762783
0.803769 0.680781 0.761837
0.892393 0.735958 0.761044
0.945373 0.775235 0.763272
0.258915 0.761990 0.747250
0.314153 0.765011 0.750668
0.441413 0.768490 0.756008
0.585565 0.774197 0.764645
0.704463 0.783261 0.776150
0.799374 0.802090 0.795804
0.883391 0.816800 0.792752
0.938842 0.829740 0.785611
0.401495 0.841398 0.776913
0.436988 0.841276 0.778531
0.524865 0.837858 0.779873
0.639582 0.839811 0.789609
0.737484 0.847227 0.803891
0.802792 0.849577 0.810727
0.869749 0.856168 0.800137
0.929870 0.872648 0.813230
0.601495 0.898985 0.817960
0.614771 0.898375 0.818662
0.657038 0.897154 0.821775
0.718624 0.897459 0.828946
0.774075 0.896971 0.834348
0.819486 0.894224 0.836027
0.852079 0.884672 0.825620
0.924559 0.901884 0.823789
0.000000 0.361761 0.806424
0.000000 0.343908 0.810910
0.000000 0.298955 0.816892
0.360967 0.231479 0.826352
0.613611 0.000000 0.836484
0.815976 0.000000 0.835904
0.907927 0.189731 0.789639
0.959289 0.508812 0.772244
0.000000 0.399481 0.799252
0.000000 0.382727 0.803464
0.000000 0.324620 0.810727
0.349432 0.261082 0.819638
0.598566 0.000000 0.829801
0.805081 0.000000 0.829129
0.901091 0.197910 0.782284
0.956146 0.497322 0.763943
0.280858 0.541497 0.802396
0.304692 0.538140 0.804562
0.301274 0.484932 0.811337
0.395239 0.405707 0.821408
0.594873 0.285710 0.830991
0.799405 0.208225 0.833127
0.897002 0.385534 0.793271
0.950866 0.592798 0.783780
0.446021 0.659876 0.799954
0.455695 0.657404 0.800687
0.498116 0.652766 0.806332
0.542229 0.622797 0.819730
0.621759 0.545464 0.831632
0.791592 0.479133 0.840299
0.889128 0.571221 0.810849
0.943511 0.687648 0.804868
0.471962 0.723232 0.803494
0.488808 0.722805 0.802579
0.550774 0.726131 0.802457
0.640620 0.737209 0.805722
0.682582 0.719905 0.823056
0.768826 0.656428 0.837247
0.874327 0.687587 0.819516
0.935149 0.761349 0.821164
0.503593 0.789700 0.816800
0.522667 0.790341 0.817288
0.581567 0.792630 0.818906
0.660822 0.798032 0.822873
0.737118 0.805142 0.828000
0.794766 0.808682 0.842252
0.870146 0.797391 0.842557
0.929564 0.832273 0.845762
0.563775 0.851530 0.836423
0.581781 0.852171 0.837613
0.627222 0.852110 0.839231
0.689204 0.853117 0.842618
0.751431 0.854368 0.846067
0.812619 0.859220 0.852598
0.869383 0.870451 0.864530
0.924712 0.878355 0.861967
0.630335 0.897856 0.856596
0.639918 0.897276 0.856626
0.681453 0.897520 0.859953
0.726955 0.895659 0.861112
0.779232 0.895476 0.863981
0.834165 0.900450 0.871946
0.872465 0.901762 0.874479
0.918212 0.905760 0.867460
0.365148 0.546777 0.874327
0.365423 0.534691 0.876280
0.369787 0.484260 0.879454
0.472572 0.432807 0.884733
0.611688 0.324437 0.891264
0.775662 0.000000 0.898314
0.901579 0.243534 0.893431
0.947021 0.468971 0.855650
0.397467 0.572168 0.870665
0.397131 0.561364 0.872648
0.384588 0.507744 0.876799
0.474556 0.456611 0.881712
0.607446 0.355261 0.888548
0.769253 0.000000 0.895964
0.897215 0.264195 0.890959
0.944732 0.475196 0.853788
0.511345 0.658381 0.864927
0.515465 0.653590 0.866209
0.491066 0.610559 0.869474
0.524651 0.560235 0.878264
0.619501 0.480110 0.884947
0.759121 0.311009 0.892607
0.889036 0.381659 0.889097
0.939757 0.540520 0.856046
0.574029 0.725185 0.860166
0.585168 0.726284 0.861570
0.610285 0.722164 0.864073
0.622034 0.692866 0.871336
0.655024 0.633570 0.879637
0.754269 0.537926 0.888304
0.877958 0.533410 0.888762
0.933440 0.636316 0.862669
0.634058 0.781674 0.857237
0.645380 0.783566 0.857939
0.670466 0.784146 0.857511
0.686305 0.776425 0.863188
0.709712 0.753536 0.871916
0.753658 0.696803 0.880980
0.861845 0.656275 0.887541
0.926696 0.725551 0.870817
0.650202 0.823178 0.864439
0.654994 0.822324 0.863828
0.674769 0.820768 0.862852
0.710780 0.820554 0.862852
0.758511 0.823026 0.864469
0.789364 0.813382 0.878050
0.851621 0.778286 0.891325
0.922118 0.805875 0.882567
0.681209 0.865263 0.875425
0.685634 0.864775 0.875181
0.702358 0.863615 0.874784
0.734340 0.863676 0.875700
0.775540 0.864714 0.877623
0.822690 0.868589 0.881498
0.864073 0.872374 0.892576
0.915587 0.862119 0.891386
0.722194 0.901701 0.888762
0.725948 0.901457 0.888731
0.742428 0.901579 0.889616
0.772824 0.902861 0.892241
0.805539 0.903471 0.894285
0.840787 0.904295 0.896483
0.878111 0.906767 0.899962
0.915648 0.912627 0.906218
