data/fiter_cube/51215349/1023014/file.cube
# Created by Adobe Lightroom plugin Export LUT (1.17.0)
# www.johnrellis.com/lightroom/exportlut.htm
# Preset: 日系旅行街拍胶片_01 云集后期
# Color profile: C:\Program Files (x86)\Common Files\Adobe\Color\Profiles\Recommended\AdobeRGB1998.icc
LUT_3D_SIZE 32
DOMAIN_MIN 0.0 0.0 0.0
DOMAIN_MAX 1.0 1.0 1.0
0.140963 0.141390 0.149508
0.140963 0.141390 0.149508
0.140963 0.141390 0.149508
0.141176 0.141360 0.149508
0.142977 0.141054 0.149508
0.149508 0.140108 0.149416
0.163210 0.138064 0.149172
0.182406 0.136416 0.148714
0.206058 0.134829 0.148104
0.236942 0.132021 0.147005
0.279759 0.126314 0.145327
0.338689 0.114412 0.142428
0.413245 0.090394 0.137728
0.498207 0.012207 0.130373
0.583520 0.000000 0.120180
0.660182 0.000000 0.106905
0.724453 0.000000 0.090761
0.788357 0.000000 0.063233
0.836118 0.103883 0.000000
0.872679 0.166690 0.000000
0.901823 0.215152 0.000000
0.925597 0.257206 0.000000
0.945068 0.293706 0.000000
0.961517 0.326665 0.000000
0.975677 0.355871 0.000000
0.988159 0.383215 0.000000
0.999542 0.409430 0.000000
1.000000 0.435187 0.000000
1.000000 0.460517 0.000000
1.000000 0.486793 0.000000
1.000000 0.514458 0.046296
1.000000 0.545129 0.144472
0.140963 0.141390 0.149508
0.140963 0.141390 0.149508
0.140963 0.141390 0.149508
0.141176 0.141360 0.149508
0.142763 0.141085 0.149508
0.149142 0.140169 0.149416
0.162448 0.138735 0.149142
0.181125 0.137606 0.148653
0.204288 0.136202 0.148074
0.234592 0.133730 0.146975
0.275944 0.128908 0.145388
0.333104 0.118807 0.142550
0.405676 0.098482 0.138033
0.489265 0.054231 0.130922
0.574182 0.000000 0.121065
0.651789 0.000000 0.108003
0.717006 0.000000 0.092226
0.781369 0.000000 0.065980
0.829160 0.105928 0.001587
0.866361 0.165225 0.000000
0.896300 0.212192 0.000000
0.920745 0.253452 0.000000
0.940856 0.290074 0.000000
0.957916 0.322423 0.000000
0.972564 0.352453 0.000000
0.985534 0.379919 0.000000
0.997375 0.406348 0.000000
1.000000 0.432380 0.000000
1.000000 0.458106 0.000000
1.000000 0.484321 0.000000
1.000000 0.511803 0.012757
1.000000 0.542290 0.135286
0.140963 0.141390 0.149508
0.140963 0.141390 0.149508
0.140963 0.141390 0.149508
0.141176 0.141360 0.149508
0.142580 0.141115 0.149508
0.148714 0.140597 0.149386
0.161471 0.139986 0.149081
0.179782 0.139162 0.148592
0.202731 0.138064 0.148013
0.232151 0.135988 0.146944
0.272648 0.132143 0.145327
0.328862 0.123629 0.142519
0.400366 0.106600 0.138064
0.483314 0.074006 0.131044
0.568109 0.000000 0.121218
0.646448 0.000000 0.108248
0.712337 0.000000 0.092287
0.777005 0.018402 0.066194
0.824949 0.117525 0.001862
0.862577 0.170932 0.000000
0.893034 0.215915 0.000000
0.917967 0.256107 0.000000
0.938506 0.291478 0.000000
0.955871 0.323552 0.000000
0.970825 0.352972 0.000000
0.984009 0.380377 0.000000
0.996063 0.406744 0.000000
1.000000 0.432624 0.000000
1.000000 0.458228 0.000000
1.000000 0.484504 0.000000
1.000000 0.511833 0.000000
1.000000 0.541985 0.130373
0.140963 0.141390 0.149508
0.140963 0.141390 0.149508
0.140963 0.141390 0.149508
0.141176 0.141360 0.149508
0.142489 0.141665 0.149477
0.148165 0.141909 0.149294
0.160555 0.142092 0.148959
0.178561 0.142245 0.148531
0.201022 0.141695 0.147799
0.230045 0.140566 0.146822
0.269596 0.137911 0.145235
0.324285 0.131868 0.142428
0.394263 0.119997 0.137789
0.476051 0.098512 0.130892
0.560876 0.064210 0.120821
0.639612 0.000000 0.107851
0.706874 0.010895 0.091157
0.771664 0.091432 0.064393
0.819120 0.141054 0.000000
0.856657 0.186069 0.000000
0.887449 0.225925 0.000000
0.912932 0.262913 0.000000
0.934356 0.297429 0.000000
0.952667 0.329046 0.000000
0.968627 0.358434 0.000000
0.982605 0.386389 0.000000
0.995178 0.412757 0.000000
1.000000 0.438575 0.000000
1.000000 0.463844 0.000000
1.000000 0.489204 0.000000
1.000000 0.515709 0.000000
1.000000 0.544701 0.128023
0.140932 0.141573 0.149508
0.141115 0.141726 0.149508
0.141115 0.141726 0.149508
0.141085 0.141909 0.149477
0.142397 0.142367 0.149416
0.147402 0.143618 0.149203
0.158755 0.145510 0.148898
0.176120 0.146822 0.148257
0.198001 0.147341 0.147463
0.225834 0.147402 0.146487
0.263798 0.146517 0.144839
0.316442 0.143862 0.142031
0.384619 0.137514 0.137514
0.465400 0.125216 0.130404
0.551049 0.108949 0.120150
0.631586 0.097810 0.106538
0.703883 0.108431 0.087770
0.767941 0.139742 0.058900
0.815488 0.176303 0.000000
0.853147 0.212711 0.000000
0.883970 0.247166 0.000000
0.909697 0.280797 0.000000
0.931426 0.312200 0.000000
0.950164 0.341802 0.000000
0.966491 0.369726 0.000000
0.980835 0.396551 0.000000
0.993622 0.421912 0.000000
1.000000 0.446509 0.000000
1.000000 0.470771 0.000000
1.000000 0.495338 0.000000
1.000000 0.520989 0.000000
1.000000 0.549310 0.125216
0.141115 0.142916 0.149538
0.141085 0.143099 0.149538
0.141085 0.143099 0.149538
0.141238 0.143404 0.149508
0.142153 0.143771 0.149599
0.146731 0.145571 0.149203
0.158175 0.148592 0.148653
0.174411 0.152377 0.147860
0.195682 0.154635 0.147066
0.223056 0.155978 0.146029
0.260258 0.157382 0.144259
0.311772 0.158114 0.141238
0.378607 0.156741 0.136507
0.458961 0.152468 0.129091
0.544518 0.146426 0.118288
0.626093 0.145571 0.103334
0.702449 0.158816 0.081727
0.765499 0.185519 0.039857
0.813077 0.216037 0.000000
0.851225 0.246921 0.000000
0.882475 0.278233 0.000000
0.908721 0.307622 0.000000
0.953796 0.380102 0.000000
0.969146 0.404211 0.000000
0.982300 0.426337 0.000000
0.993896 0.446967 0.000000
1.000000 0.467079 0.000000
1.000000 0.486915 0.000000
1.000000 0.507378 0.000000
1.000000 0.528923 0.000000
1.000000 0.552453 0.099947
1.000000 0.578943 0.177707
0.140902 0.146517 0.149722
0.140871 0.146670 0.149722
0.141054 0.146822 0.149691
0.141115 0.147463 0.149783
0.143038 0.147829 0.149722
0.147158 0.149783 0.149294
0.158145 0.154086 0.148348
0.177310 0.158541 0.147219
0.198978 0.163027 0.146365
0.227268 0.168551 0.144808
0.267185 0.173312 0.142641
0.322637 0.177951 0.138949
0.393042 0.182071 0.132937
0.474983 0.184360 0.123781
0.559533 0.186984 0.111116
0.638300 0.194278 0.093690
0.717403 0.215488 0.063386
0.777432 0.242252 0.000000
0.823117 0.270024 0.000000
0.860624 0.298344 0.000000
0.892241 0.328069 0.000000
0.919158 0.357519 0.000000
0.941985 0.386389 0.000000
0.961059 0.413519 0.000000
0.976989 0.437781 0.000000
0.990112 0.459052 0.000000
1.000000 0.478828 0.000000
1.000000 0.498024 0.000000
1.000000 0.517357 0.000000
1.000000 0.537682 0.000000
1.000000 0.559869 0.090761
1.000000 0.585107 0.171359
0.140352 0.152743 0.150271
0.140322 0.152926 0.150271
0.140291 0.153079 0.150240
0.140414 0.153841 0.150027
0.143435 0.155123 0.150454
0.147005 0.155337 0.150332
0.156039 0.160220 0.148928
0.172915 0.165103 0.147219
0.197086 0.169314 0.145815
0.224430 0.175692 0.144228
0.262333 0.184451 0.141726
0.314946 0.196658 0.137484
0.383795 0.206210 0.131044
0.464668 0.214511 0.121279
0.549401 0.222873 0.107393
0.636530 0.237644 0.085084
0.711543 0.259953 0.039185
0.770413 0.283970 0.000000
0.816281 0.308263 0.000000
0.854246 0.333104 0.000000
0.886412 0.358679 0.000000
0.913848 0.384588 0.000000
0.937041 0.410254 0.000000
0.956634 0.434302 0.000000
0.973022 0.455909 0.000000
0.986633 0.475715 0.000000
0.998291 0.493935 0.000000
1.000000 0.511528 0.000000
1.000000 0.529747 0.000000
1.000000 0.548791 0.000000
1.000000 0.569848 0.084047
1.000000 0.593835 0.167788
0.139376 0.162173 0.151705
0.139345 0.162478 0.151553
0.139498 0.162753 0.151522
0.139742 0.163729 0.151431
0.143099 0.166293 0.151858
0.148135 0.166445 0.152010
0.154116 0.167025 0.151492
0.169314 0.174716 0.148836
0.191623 0.179782 0.146212
0.222965 0.184451 0.143984
0.259770 0.194278 0.141207
0.311040 0.208286 0.136385
0.377691 0.225803 0.128847
0.457862 0.246128 0.117067
0.546960 0.261784 0.100008
0.635492 0.282841 0.071412
0.707942 0.305150 0.000000
0.765652 0.328130 0.000000
0.811429 0.349767 0.000000
0.849638 0.371344 0.000000
0.882017 0.394018 0.000000
0.909697 0.416480 0.000000
0.933196 0.438392 0.000000
0.953033 0.459510 0.000000
0.969726 0.478798 0.000000
0.983642 0.496162 0.000000
0.995605 0.512688 0.000000
1.000000 0.528679 0.000000
1.000000 0.545251 0.000000
1.000000 0.562829 0.000000
1.000000 0.582452 0.079622
1.000000 0.604913 0.166354
0.138064 0.174685 0.153964
0.138247 0.174807 0.153933
0.138247 0.174929 0.153780
0.139162 0.176425 0.153628
0.142092 0.178988 0.153323
0.149477 0.180453 0.155306
0.155886 0.179995 0.155032
0.165286 0.182681 0.153353
0.186374 0.192599 0.149111
0.214908 0.198917 0.145174
0.256901 0.205386 0.141085
0.306615 0.220310 0.136355
0.371588 0.239567 0.128389
0.453559 0.263706 0.115206
0.547906 0.294987 0.091829
0.634455 0.328496 0.041871
0.706508 0.352453 0.000000
0.764340 0.374945 0.000000
0.809842 0.394720 0.000000
0.847501 0.413550 0.000000
0.879088 0.432197 0.000000
0.905913 0.450385 0.000000
0.928893 0.467964 0.000000
0.948486 0.485115 0.000000
0.965270 0.501305 0.000000
0.979583 0.516716 0.000000
0.992096 0.531548 0.000000
1.000000 0.546563 0.000000
1.000000 0.562127 0.000000
1.000000 0.578973 0.000000
1.000000 0.597681 0.081270
1.000000 0.619318 0.171206
0.136782 0.188663 0.157046
0.136782 0.188785 0.156893
0.137087 0.189364 0.156832
0.138766 0.190890 0.156771
0.142275 0.193484 0.156985
0.150240 0.196628 0.159701
0.158236 0.196567 0.160342
0.166140 0.195895 0.159640
0.180301 0.202548 0.156130
0.208804 0.216190 0.150149
0.245701 0.224918 0.143832
0.303777 0.235691 0.136721
0.371252 0.258305 0.127932
0.455726 0.286259 0.113344
0.546227 0.317937 0.089082
0.630518 0.352667 0.029480
0.701350 0.388220 0.000000
0.758602 0.416785 0.000000
0.804166 0.435615 0.000000
0.842222 0.452094 0.000000
0.874266 0.467872 0.000000
0.901610 0.483436 0.000000
0.924956 0.499062 0.000000
0.944945 0.513878 0.000000
0.961975 0.527947 0.000000
0.976532 0.541131 0.000000
0.989197 0.553918 0.000000
1.000000 0.567071 0.000000
1.000000 0.580896 0.000000
1.000000 0.596124 0.000000
1.000000 0.613367 0.080659
1.000000 0.633600 0.173495
0.135164 0.205966 0.161105
0.135836 0.206455 0.161196
0.136660 0.207248 0.161227
0.138827 0.208896 0.161410
0.142733 0.211734 0.161959
0.149111 0.215488 0.162997
0.161318 0.217777 0.167391
0.170108 0.216739 0.166598
0.179568 0.215152 0.165591
0.201297 0.228916 0.159609
0.239811 0.248295 0.151125
0.292302 0.264622 0.141054
0.421149 0.313634 0.119356
0.516503 0.349920 0.095247
0.607996 0.387091 0.045747
0.684901 0.422766 0.000000
0.746334 0.454902 0.000000
0.794003 0.481788 0.000000
0.831937 0.504753 0.000000
0.863645 0.518883 0.000000
0.890684 0.530053 0.000000
0.913970 0.540703 0.000000
0.934112 0.550683 0.000000
0.951629 0.560937 0.000000
0.966857 0.570886 0.000000
0.980133 0.580407 0.000000
0.991760 0.590021 0.000000
1.000000 0.600183 0.000000
1.000000 0.611322 0.000000
1.000000 0.624140 0.000000
1.000000 0.639277 0.118532
1.000000 0.657618 0.203067
0.133761 0.233890 0.168215
0.134401 0.234379 0.168399
0.135653 0.235050 0.168429
0.138369 0.236606 0.168704
0.143221 0.239139 0.169192
0.149874 0.242741 0.170138
0.162875 0.247501 0.174807
0.175051 0.246830 0.175601
0.186282 0.244663 0.174319
0.199771 0.245823 0.172122
0.236851 0.273899 0.163790
0.301030 0.311711 0.149783
0.381628 0.341009 0.131258
0.498634 0.370336 0.100160
0.593011 0.409216 0.057282
0.672389 0.444678 0.000000
0.735592 0.475227 0.000000
0.784512 0.500053 0.000000
0.823758 0.521386 0.000000
0.856352 0.541192 0.000000
0.884001 0.559380 0.000000
0.907805 0.568902 0.000000
0.928252 0.578332 0.000000
0.946288 0.586786 0.000000
0.962005 0.595026 0.000000
0.975647 0.603326 0.000000
0.987732 0.611566 0.000000
0.998505 0.620356 0.000000
1.000000 0.630213 0.000000
1.000000 0.641871 0.000000
1.000000 0.655787 0.119265
1.000000 0.672816 0.206088
0.131228 0.262181 0.175723
0.132174 0.263035 0.175845
0.133639 0.263584 0.175967
0.136477 0.265415 0.176181
0.141451 0.268132 0.176577
0.148379 0.272221 0.177096
0.158083 0.278202 0.177768
0.177279 0.281559 0.184268
0.191196 0.280430 0.182986
0.206607 0.280400 0.182071
0.231083 0.293492 0.177462
0.284855 0.332158 0.164675
0.368872 0.379004 0.143465
0.461677 0.409277 0.115938
0.578241 0.433387 0.065888
0.659144 0.467628 0.000000
0.723445 0.495827 0.000000
0.774105 0.518914 0.000000
0.814878 0.538659 0.000000
0.848783 0.556970 0.000000
0.877592 0.574548 0.000000
0.902037 0.591485 0.000000
0.923095 0.604547 0.000000
0.941558 0.612818 0.000000
0.957641 0.620569 0.000000
0.971740 0.627466 0.000000
0.984161 0.634668 0.000000
0.995239 0.642206 0.000000
1.000000 0.650935 0.000000
1.000000 0.661402 0.000000
1.000000 0.674159 0.127474
1.000000 0.689998 0.215122
0.125673 0.299107 0.184939
0.126619 0.299992 0.185031
0.128054 0.300755 0.185153
0.131411 0.302495 0.185183
0.136873 0.305486 0.185214
0.144015 0.311192 0.185489
0.153902 0.319615 0.185519
0.174777 0.329107 0.191958
0.195529 0.329686 0.193576
0.214115 0.327977 0.191989
0.233341 0.325811 0.190036
0.272404 0.352728 0.180880
0.343847 0.399695 0.162448
0.444800 0.450568 0.131258
0.540185 0.476539 0.092042
0.643977 0.492073 0.000000
0.712245 0.518669 0.000000
0.764462 0.539788 0.000000
0.806485 0.557702 0.000000
0.841550 0.574304 0.000000
0.871122 0.590173 0.000000
0.896361 0.605707 0.000000
0.917937 0.620722 0.000000
0.936706 0.635523 0.000000
0.953246 0.644587 0.000000
0.967864 0.651698 0.000000
0.980926 0.658289 0.000000
0.992523 0.665675 0.000000
1.000000 0.673976 0.000000
1.000000 0.684016 0.000000
1.000000 0.696315 0.151095
1.000000 0.711482 0.240238
0.111940 0.350378 0.197574
0.113039 0.351965 0.197635
0.114687 0.353338 0.197818
0.118532 0.356481 0.197787
0.124758 0.361089 0.197452
0.133333 0.368048 0.197330
0.145083 0.376684 0.196353
0.162509 0.387335 0.196475
0.197330 0.394354 0.207279
0.220890 0.390478 0.204807
0.244297 0.385260 0.201877
0.266911 0.379370 0.198856
0.324926 0.421210 0.182467
0.411139 0.469001 0.157015
0.518425 0.515312 0.115389
0.605829 0.533257 0.060273
0.693446 0.540612 0.000000
0.753414 0.560601 0.000000
0.797971 0.577722 0.000000
0.834928 0.593469 0.000000
0.865965 0.608545 0.000000
0.892271 0.623011 0.000000
0.914611 0.637110 0.000000
0.933898 0.650904 0.000000
0.950683 0.664363 0.000000
0.965270 0.677241 0.000000
0.978607 0.683528 0.000000
0.990417 0.690089 0.000000
1.000000 0.697597 0.000000
1.000000 0.706264 0.064271
1.000000 0.717006 0.171603
1.000000 0.730465 0.259037
0.083986 0.410468 0.212161
0.085481 0.411597 0.211948
0.088319 0.412757 0.211826
0.093935 0.415412 0.211460
0.103059 0.419623 0.210697
0.115145 0.425635 0.209720
0.130312 0.433387 0.208194
0.149294 0.443153 0.206149
0.188602 0.453315 0.216861
0.223148 0.451575 0.219516
0.250889 0.445075 0.215579
0.277287 0.437446 0.211368
0.309178 0.439796 0.204593
0.383429 0.486488 0.182925
0.479500 0.531609 0.151186
0.585565 0.571710 0.100221
0.661982 0.582635 0.000000
0.735622 0.583642 0.000000
0.788205 0.597803 0.000000
0.826596 0.611902 0.000000
0.858762 0.625360 0.000000
0.885985 0.638575 0.000000
0.909178 0.651453 0.000000
0.929259 0.664454 0.000000
0.946715 0.677119 0.000000
0.961852 0.689601 0.000000
0.975219 0.701961 0.000000
0.987213 0.712001 0.000000
0.998047 0.718776 0.000000
1.000000 0.726986 0.093782
1.000000 0.736873 0.192172
1.000000 0.749264 0.280278
0.000000 0.475471 0.229099
0.000000 0.477546 0.229313
0.000000 0.516564 0.240208
0.000000 0.518883 0.239384
0.000000 0.522362 0.238224
0.058045 0.526604 0.236362
0.097932 0.531823 0.233890
0.133089 0.538476 0.231327
0.176181 0.546227 0.234257
0.239933 0.549340 0.253666
0.273777 0.540002 0.246830
0.305455 0.529076 0.239475
0.334081 0.516075 0.231754
0.382391 0.529320 0.217533
0.470130 0.570855 0.190616
0.568750 0.607324 0.153262
0.665431 0.639063 0.094240
0.728206 0.642481 0.000000
0.785306 0.635065 0.000000
0.828489 0.642267 0.000000
0.859586 0.652430 0.000000
0.886168 0.662959 0.000000
0.908934 0.673793 0.000000
0.928557 0.684596 0.000000
0.945403 0.695033 0.000000
0.960082 0.705470 0.000000
0.973083 0.715938 0.000000
0.984680 0.726741 0.000000
0.995117 0.738125 0.000000
1.000000 0.746731 0.119631
1.000000 0.755734 0.212070
1.000000 0.766873 0.300511
0.000000 0.550469 0.252598
0.000000 0.556329 0.254185
0.000000 0.562402 0.255772
0.000000 0.568902 0.256779
0.000000 0.575067 0.256992
0.000000 0.579980 0.255650
0.064759 0.584802 0.254154
0.119295 0.589899 0.252171
0.164797 0.595911 0.251102
0.235660 0.601007 0.272251
0.284245 0.595300 0.275395
0.317815 0.584680 0.266209
0.348486 0.571893 0.256321
0.375769 0.557427 0.245914
0.439826 0.582116 0.226566
0.529412 0.617548 0.197971
0.621973 0.648402 0.159854
0.708980 0.675319 0.101076
0.762875 0.674769 0.000000
0.811765 0.664881 0.000000
0.850889 0.669368 0.000000
0.879026 0.679072 0.000000
0.903044 0.688930 0.000000
0.923583 0.699062 0.000000
0.941192 0.708949 0.000000
0.956542 0.718807 0.000000
0.969970 0.728847 0.000000
0.981903 0.739193 0.000427
0.992584 0.749996 0.100526
1.000000 0.761410 0.154543
1.000000 0.773983 0.234928
1.000000 0.784146 0.323949
0.000000 0.606561 0.274937
0.000000 0.611719 0.277012
0.000000 0.616876 0.278752
0.000000 0.622339 0.280156
0.000000 0.627314 0.280797
0.000000 0.631128 0.279973
0.000000 0.634668 0.279026
0.111086 0.638331 0.277989
0.164981 0.642756 0.277958
0.225620 0.646815 0.286900
0.301152 0.646784 0.312230
0.335302 0.636744 0.301305
0.366705 0.625116 0.289525
0.395270 0.611566 0.276829
0.420417 0.595880 0.263218
0.500267 0.630213 0.240726
0.586633 0.660243 0.212070
0.671077 0.686336 0.175082
0.748836 0.708797 0.123140
0.794949 0.705470 0.062531
0.836606 0.693904 0.000000
0.872068 0.696132 0.000000
0.897246 0.705074 0.000000
0.918700 0.714199 0.000000
0.936980 0.723354 0.000000
0.952758 0.732509 0.000000
0.966552 0.741726 0.067994
0.978759 0.751400 0.111788
0.989593 0.761685 0.153628
0.999054 0.772396 0.197421
1.000000 0.783688 0.248051
1.000000 0.797757 0.337835
0.000000 0.657984 0.301427
0.000000 0.662348 0.303868
0.000000 0.666835 0.306035
0.000000 0.671351 0.308110
0.000000 0.675288 0.309087
0.000000 0.678126 0.309270
0.000000 0.680354 0.308629
0.115206 0.682856 0.308782
0.174228 0.685634 0.309667
0.227298 0.688411 0.311742
0.308476 0.689143 0.339879
0.357580 0.682490 0.342901
0.388128 0.671839 0.329290
0.416724 0.659968 0.315221
0.442847 0.646296 0.299565
0.480507 0.644038 0.283299
0.560845 0.674647 0.262303
0.642176 0.701106 0.236637
0.719265 0.723873 0.205020
0.789151 0.743740 0.164401
0.829099 0.739467 0.126619
0.864927 0.727932 0.073274
0.896391 0.728328 0.005554
0.918486 0.736843 0.067689
0.937163 0.745327 0.099763
0.952941 0.753811 0.131777
0.966522 0.762417 0.162814
0.978393 0.771328 0.195346
0.988769 0.780667 0.231144
0.997589 0.790524 0.272587
1.000000 0.800839 0.320409
1.000000 0.811398 0.375433
0.000000 0.718563 0.344274
0.000000 0.720394 0.345464
0.000000 0.722042 0.346685
0.000000 0.723629 0.347692
0.000000 0.725124 0.348241
0.000000 0.726314 0.348180
0.071138 0.727474 0.348730
0.146517 0.729000 0.350042
0.203708 0.730831 0.353033
0.257877 0.732662 0.357092
0.323827 0.733425 0.373388
0.399481 0.730343 0.401770
0.426917 0.721401 0.387243
0.453132 0.711147 0.371130
0.477852 0.699397 0.353613
0.501091 0.686519 0.335637
0.549493 0.694484 0.317937
0.623407 0.718929 0.299107
0.695460 0.739925 0.276249
0.762600 0.757931 0.248814
0.822782 0.773648 0.214908
0.855619 0.767056 0.183322
0.885527 0.754574 0.145235
0.913024 0.752316 0.123629
0.932219 0.759670 0.146273
0.948638 0.767269 0.171511
0.962707 0.775235 0.200656
0.974823 0.783658 0.233738
0.985321 0.792508 0.270420
0.994171 0.801816 0.312016
1.000000 0.811551 0.359594
1.000000 0.821317 0.411566
0.000000 0.757168 0.379889
0.000000 0.758663 0.381445
0.000000 0.760067 0.383062
0.000000 0.761288 0.384253
0.000000 0.762173 0.385351
0.026978 0.762692 0.386175
0.128359 0.762966 0.387182
0.184909 0.763302 0.388983
0.237156 0.763821 0.392523
0.288853 0.764279 0.397559
0.340215 0.764553 0.404944
0.418250 0.761837 0.436591
0.460365 0.755550 0.439643
0.483528 0.747158 0.424079
0.505913 0.737606 0.406348
0.527794 0.727230 0.388098
0.548669 0.715846 0.368383
0.606134 0.731930 0.354009
0.673182 0.752377 0.338262
0.737545 0.769924 0.319524
0.796994 0.785092 0.296880
0.849912 0.798489 0.268681
0.877836 0.791531 0.242161
0.903899 0.779904 0.211368
0.925902 0.772091 0.177401
0.943053 0.778927 0.201816
0.957855 0.786313 0.229221
0.970489 0.794095 0.261784
0.981231 0.802487 0.299596
0.990265 0.811429 0.342107
0.997498 0.820798 0.390234
1.000000 0.830167 0.442115
0.000000 0.798367 0.430030
0.000000 0.799680 0.432105
0.000000 0.800443 0.433753
0.071992 0.800748 0.434791
0.121981 0.800656 0.435828
0.164858 0.800076 0.436500
0.207095 0.799252 0.437812
0.249149 0.798184 0.439704
0.292943 0.796963 0.443061
0.338079 0.795682 0.447883
0.383581 0.794064 0.454108
0.441199 0.791104 0.471626
0.503044 0.785702 0.496864
0.519982 0.778317 0.480690
0.536889 0.769833 0.462409
0.554162 0.760403 0.442420
0.571649 0.750240 0.421607
0.591699 0.741299 0.401160
0.652857 0.761044 0.389715
0.713497 0.778347 0.377173
0.771145 0.793423 0.362493
0.823728 0.806485 0.343389
0.870268 0.817777 0.319066
0.893980 0.810208 0.293095
0.916503 0.798459 0.261784
0.938750 0.793027 0.239506
0.953704 0.799374 0.266789
0.966552 0.806180 0.297246
0.977478 0.813626 0.332952
0.986481 0.821958 0.376684
0.993652 0.830503 0.423438
0.998901 0.839353 0.474159
0.132021 0.824063 0.468635
0.145541 0.825071 0.470954
0.158663 0.825650 0.472389
0.179202 0.825772 0.474098
0.204807 0.825437 0.475349
0.234806 0.824735 0.477028
0.268711 0.823758 0.479225
0.305333 0.822538 0.482338
0.344549 0.821164 0.486702
0.386236 0.819669 0.492866
0.428687 0.817960 0.500481
0.471138 0.815946 0.509239
0.532921 0.811185 0.537530
0.563073 0.805661 0.539635
0.576440 0.799252 0.523888
0.590478 0.792111 0.506462
0.605188 0.784329 0.487434
0.620905 0.776211 0.467994
0.649256 0.776211 0.452491
0.703670 0.792538 0.444953
0.756344 0.806638 0.435645
0.805905 0.818814 0.423590
0.850797 0.829404 0.407446
0.890776 0.838651 0.385687
0.910674 0.830991 0.361730
0.930266 0.820066 0.332097
0.950256 0.813779 0.309453
0.963165 0.819974 0.341833
0.974090 0.826902 0.378546
0.983032 0.834379 0.420600
0.989899 0.842191 0.467048
0.994934 0.850401 0.516716
0.239780 0.848051 0.513359
0.247929 0.848569 0.515129
0.255131 0.848692 0.516350
0.267918 0.848325 0.517357
0.286046 0.847532 0.518395
0.308568 0.846433 0.519890
0.335790 0.845029 0.522087
0.366613 0.843473 0.525536
0.401038 0.841764 0.530266
0.437690 0.839963 0.536675
0.475502 0.838010 0.544518
0.513329 0.835996 0.553857
0.558953 0.832547 0.571557
0.605005 0.827787 0.593072
0.615229 0.822843 0.579797
0.625940 0.817258 0.564538
0.637568 0.811185 0.548119
0.650416 0.804837 0.531029
0.664576 0.798428 0.513573
0.698604 0.804471 0.504082
0.746090 0.817868 0.499031
0.791562 0.829465 0.492134
0.833768 0.839506 0.482063
0.872160 0.848234 0.468025
0.906615 0.855833 0.448920
0.923461 0.848325 0.426642
0.940673 0.838315 0.399695
0.959075 0.831571 0.374853
0.969940 0.837552 0.411749
0.978973 0.844205 0.452033
0.986114 0.851255 0.495583
0.991241 0.858762 0.543389
0.325292 0.866484 0.555138
0.330785 0.866667 0.556451
0.336889 0.866667 0.557549
0.347417 0.866331 0.558892
0.363470 0.865660 0.560967
0.384680 0.864927 0.564263
0.411231 0.864134 0.569177
0.441810 0.863279 0.575769
0.475563 0.862364 0.584039
0.510643 0.861418 0.593835
0.545800 0.860258 0.604547
0.579797 0.859037 0.615747
0.612390 0.857450 0.627497
0.654597 0.853758 0.649989
0.675319 0.850309 0.653407
0.683497 0.846586 0.642359
0.692226 0.842496 0.630213
0.701839 0.838193 0.616876
0.712917 0.833921 0.603723
0.725154 0.829709 0.590234
0.759518 0.838865 0.587152
0.797055 0.849027 0.584558
0.832578 0.857755 0.579492
0.865537 0.865293 0.571771
0.895872 0.871794 0.560449
0.923766 0.877440 0.544732
0.937285 0.870512 0.526055
0.951598 0.861753 0.503471
0.967803 0.854795 0.479194
0.975830 0.859648 0.514977
0.982391 0.865660 0.555718
0.987152 0.871824 0.598016
0.444465 0.886961 0.616968
0.447944 0.886931 0.617975
0.451759 0.886748 0.618769
0.458839 0.886168 0.619623
0.469978 0.885283 0.621241
0.484901 0.884184 0.623682
0.503502 0.882933 0.627344
0.525109 0.881559 0.632197
0.549493 0.880095 0.638209
0.575463 0.878569 0.645441
0.601831 0.876890 0.653285
0.627710 0.875242 0.661585
0.652277 0.873533 0.669612
0.681636 0.870726 0.683101
