data/fiter_cube/10491141/1023203/file.cube
# Created by Adobe Lightroom plugin Export LUT (1.17.0)
# www.johnrellis.com/lightroom/exportlut.htm
# Preset: 莫兰迪丛林_02 云集
# Color profile: C:\Program Files (x86)\Common Files\Adobe\Color\Profiles\Recommended\AdobeRGB1998.icc
LUT_3D_SIZE 32
DOMAIN_MIN 0.0 0.0 0.0
DOMAIN_MAX 1.0 1.0 1.0
0.069123 0.076112 0.088075
0.070832 0.076570 0.088289
0.073274 0.077272 0.088472
0.078218 0.078553 0.089387
0.085969 0.080690 0.090425
0.097230 0.083528 0.091554
0.112703 0.086610 0.092226
0.132265 0.090059 0.092866
0.156558 0.093385 0.093111
0.185733 0.096498 0.093111
0.219669 0.099336 0.092714
0.259068 0.100832 0.092012
0.303441 0.100618 0.090547
0.349767 0.098512 0.089204
0.395483 0.095918 0.087221
0.439063 0.094179 0.085359
0.481270 0.095674 0.083345
0.520867 0.101472 0.082002
0.555627 0.112917 0.081605
0.587121 0.128756 0.081910
0.616327 0.148074 0.083253
0.643427 0.170596 0.085725
0.668513 0.194949 0.089540
0.691279 0.220554 0.095155
0.711971 0.247074 0.103090
0.730983 0.274296 0.113344
0.748775 0.302495 0.126467
0.766506 0.332799 0.142428
0.784787 0.365728 0.162051
0.803738 0.401343 0.186252
0.823148 0.439185 0.216983
0.842954 0.478798 0.255192
0.069764 0.077058 0.088563
0.070588 0.077302 0.088808
0.074067 0.078218 0.088106
0.079500 0.079469 0.088472
0.088136 0.081666 0.089479
0.099733 0.084382 0.090608
0.115419 0.087861 0.091768
0.135195 0.091096 0.092103
0.159640 0.094423 0.092317
0.188937 0.097810 0.092256
0.223056 0.100526 0.092073
0.262455 0.101991 0.091341
0.306615 0.101778 0.089815
0.352667 0.099825 0.088106
0.397925 0.097322 0.086122
0.441108 0.096010 0.084230
0.482826 0.097230 0.082551
0.521630 0.103456 0.080995
0.555779 0.114137 0.080507
0.587091 0.129580 0.080568
0.616022 0.148745 0.081697
0.642969 0.170840 0.084047
0.668025 0.195102 0.087678
0.690730 0.220401 0.093507
0.711421 0.246525 0.101228
0.730526 0.273716 0.111452
0.748348 0.301823 0.124514
0.766049 0.331975 0.140627
0.784390 0.364813 0.159976
0.803342 0.400366 0.184085
0.822751 0.438087 0.214542
0.842557 0.477516 0.252598
0.070253 0.078401 0.089296
0.071229 0.078920 0.090333
0.072450 0.079438 0.090272
0.080018 0.081086 0.088624
0.090822 0.083223 0.088472
0.103182 0.086244 0.089540
0.119326 0.089448 0.090669
0.139376 0.092927 0.091218
0.164218 0.096407 0.091646
0.193362 0.099702 0.091524
0.228061 0.102296 0.090974
0.267674 0.103670 0.090120
0.311894 0.103395 0.088502
0.357580 0.101686 0.086671
0.402289 0.099397 0.084932
0.444923 0.098177 0.082643
0.486183 0.099947 0.080903
0.524193 0.105806 0.079133
0.557671 0.116976 0.078645
0.588525 0.132174 0.078767
0.617182 0.151125 0.079683
0.643885 0.172641 0.082185
0.668757 0.196475 0.086000
0.691279 0.221500 0.091493
0.711879 0.247623 0.099397
0.730831 0.274357 0.109743
0.748531 0.302312 0.122835
0.766201 0.332341 0.138735
0.784512 0.364996 0.158114
0.803464 0.400305 0.182071
0.822843 0.437751 0.212436
0.842618 0.477180 0.250401
0.072145 0.081483 0.091768
0.073335 0.082246 0.093324
0.073976 0.082795 0.093782
0.076081 0.083497 0.093416
0.088472 0.087068 0.090730
0.107668 0.091432 0.088716
0.128939 0.094820 0.088197
0.149599 0.098268 0.089204
0.174868 0.101625 0.089204
0.204898 0.104524 0.089204
0.239933 0.106966 0.088441
0.280186 0.108095 0.087282
0.324285 0.107637 0.085664
0.369024 0.106111 0.083619
0.412726 0.104097 0.081361
0.454108 0.103517 0.079255
0.494148 0.105989 0.077058
0.530541 0.112276 0.075380
0.562707 0.123018 0.074708
0.592340 0.137758 0.074739
0.620203 0.155917 0.075898
0.646265 0.177127 0.077913
0.670680 0.200381 0.081788
0.692927 0.225223 0.087587
0.713375 0.250767 0.095674
0.732265 0.277379 0.106142
0.749874 0.304967 0.119539
0.767575 0.334691 0.135714
0.785763 0.367041 0.155154
0.804532 0.401923 0.179294
0.823728 0.438819 0.209323
0.843320 0.477607 0.246983
0.074159 0.085664 0.094362
0.075441 0.086397 0.095583
0.076783 0.087678 0.097230
0.078279 0.089296 0.098085
0.081697 0.089143 0.097017
0.098360 0.094728 0.093599
0.129580 0.103700 0.089021
0.160220 0.109133 0.086976
0.192813 0.112123 0.085237
0.223636 0.114504 0.085267
0.259434 0.116182 0.084138
0.300481 0.116579 0.082521
0.343633 0.115755 0.080507
0.387030 0.114321 0.078065
0.428962 0.112856 0.075532
0.468696 0.112947 0.072724
0.507012 0.115999 0.070314
0.541405 0.123018 0.068025
0.571801 0.133547 0.067475
0.600061 0.148165 0.067201
0.626520 0.165499 0.068360
0.651606 0.185946 0.070527
0.675013 0.208103 0.074708
0.696498 0.231937 0.080995
0.716335 0.256626 0.089418
0.734737 0.282353 0.100404
0.751980 0.309270 0.114290
0.769436 0.338231 0.130648
0.787411 0.369940 0.150057
0.805997 0.403998 0.174166
0.825040 0.440223 0.204196
0.844511 0.478340 0.241794
0.076875 0.091279 0.097475
0.077943 0.092561 0.098573
0.079591 0.093996 0.100435
0.082307 0.096620 0.102785
0.085817 0.098817 0.103243
0.089967 0.097475 0.101381
0.110445 0.104433 0.097047
0.155032 0.118685 0.089326
0.200504 0.129213 0.084352
0.242710 0.132235 0.080903
0.289128 0.133059 0.076509
0.329595 0.131930 0.074342
0.370916 0.130159 0.071809
0.411994 0.128420 0.068482
0.451392 0.127199 0.065431
0.489082 0.128176 0.061830
0.524498 0.131777 0.059083
0.556115 0.139010 0.055299
0.584436 0.149386 0.053712
0.610834 0.162936 0.052888
0.635889 0.179660 0.055421
0.659693 0.198978 0.059510
0.690639 0.230198 0.065858
0.710018 0.252628 0.074342
0.727901 0.275914 0.085054
0.744564 0.300084 0.097627
0.760830 0.325750 0.112642
0.777554 0.353765 0.129885
0.794919 0.384161 0.150332
0.812863 0.416846 0.175326
0.831266 0.451545 0.206119
0.850034 0.488045 0.244022
0.080171 0.099916 0.101381
0.081453 0.101259 0.102663
0.083497 0.103243 0.104799
0.088136 0.107881 0.109499
0.092287 0.112001 0.111238
0.098085 0.113741 0.110536
0.102388 0.110262 0.107210
0.125612 0.117189 0.101747
0.181399 0.136202 0.091188
0.245975 0.151614 0.080629
0.308751 0.159426 0.071351
0.361059 0.158053 0.063447
0.409979 0.154818 0.051667
0.447242 0.151736 0.044343
0.482643 0.150149 0.035523
0.517510 0.151217 0.027497
0.549004 0.155367 0.020417
0.577111 0.162081 0.016175
0.602777 0.172030 0.013611
0.627131 0.185214 0.013581
0.650843 0.201205 0.016419
0.673426 0.219883 0.024231
0.694453 0.240574 0.037690
0.713771 0.262181 0.056641
0.731563 0.284855 0.070375
0.747921 0.307927 0.085481
0.764004 0.332799 0.101717
0.780484 0.359625 0.119692
0.797543 0.388861 0.140658
0.815152 0.420294 0.165652
0.833280 0.453742 0.196292
0.851865 0.489204 0.234104
0.084932 0.111940 0.106569
0.086336 0.113558 0.107942
0.088411 0.115908 0.110140
0.093599 0.121340 0.115236
0.100160 0.128054 0.120485
0.107912 0.134951 0.123537
0.114626 0.134005 0.120027
0.118837 0.127047 0.114931
0.142733 0.132326 0.108339
0.208591 0.155581 0.094453
0.294682 0.176364 0.075624
0.369757 0.187533 0.057496
0.427100 0.188449 0.028534
0.473274 0.185092 0.002808
0.514519 0.182559 0.000000
0.544579 0.182467 0.000000
0.571710 0.184939 0.000000
0.596246 0.190341 0.000000
0.619043 0.198154 0.000000
0.641047 0.209201 0.000000
0.662593 0.223239 0.000000
0.683162 0.239445 0.000000
0.702419 0.257603 0.000000
0.720302 0.277012 0.006989
0.736965 0.297337 0.038849
0.752499 0.318822 0.067323
0.768124 0.341955 0.086152
0.784207 0.367407 0.106020
0.800900 0.395209 0.127962
0.818173 0.425177 0.153689
0.835966 0.457191 0.184390
0.854307 0.491341 0.222416
0.091646 0.129061 0.113741
0.093385 0.130922 0.115389
0.095583 0.133822 0.117891
0.101045 0.139559 0.123445
0.111147 0.149477 0.132967
0.119570 0.157382 0.136629
0.131258 0.167330 0.140780
0.137575 0.160616 0.132448
0.140352 0.149050 0.124910
0.162112 0.150179 0.117281
0.238804 0.177676 0.099702
0.336919 0.201083 0.073915
0.421424 0.215457 0.029999
0.490730 0.226535 0.000000
0.531823 0.224399 0.000000
0.567163 0.223392 0.000000
0.596735 0.223728 0.000000
0.617853 0.226230 0.000000
0.637598 0.231205 0.000000
0.657130 0.239414 0.000000
0.676265 0.250431 0.000000
0.694545 0.263737 0.000000
0.711879 0.278935 0.000000
0.728237 0.295567 0.000000
0.743526 0.313481 0.000000
0.758267 0.332708 0.017609
0.773342 0.354009 0.062715
0.788937 0.377661 0.087037
0.805142 0.403632 0.111635
0.821988 0.431769 0.138582
0.839384 0.462043 0.169955
0.857420 0.494575 0.208072
0.100740 0.151827 0.123568
0.102663 0.153964 0.125368
0.105287 0.156741 0.127932
0.111421 0.163149 0.133852
0.122438 0.173526 0.144167
0.134890 0.185000 0.152865
0.148074 0.196780 0.158480
0.161563 0.203616 0.159365
0.167239 0.192844 0.147738
0.167147 0.175509 0.137087
0.184024 0.170047 0.128267
0.271458 0.201541 0.106935
0.375830 0.227085 0.076356
0.470008 0.246372 0.000000
0.535790 0.261295 0.000000
0.581506 0.269566 0.000000
0.610590 0.268742 0.000000
0.636133 0.269474 0.000000
0.658045 0.271580 0.000000
0.674739 0.275853 0.000000
0.691035 0.282811 0.000000
0.706874 0.292363 0.000000
0.722011 0.303838 0.000000
0.736568 0.317021 0.000000
0.750484 0.331884 0.000000
0.764553 0.348730 0.000000
0.779080 0.368017 0.000000
0.794186 0.389715 0.053773
0.809995 0.413794 0.088289
0.826444 0.440009 0.118990
0.843534 0.468544 0.152468
0.861357 0.499336 0.191379
0.112490 0.179568 0.135592
0.114748 0.181643 0.137667
0.117739 0.184726 0.140352
0.124575 0.191440 0.146700
0.136355 0.202365 0.157321
0.153902 0.217136 0.172152
0.168612 0.230167 0.178561
0.188205 0.246464 0.186496
0.200229 0.246006 0.181308
0.203983 0.230045 0.165774
0.199466 0.206241 0.151705
0.208408 0.192050 0.141207
0.307256 0.227817 0.116945
0.413733 0.255436 0.082277
0.508415 0.278141 0.000000
0.571008 0.295903 0.000000
0.619898 0.313817 0.000000
0.646815 0.315465 0.000000
0.668299 0.315038 0.000000
0.688075 0.316411 0.000000
0.705623 0.319402 0.000000
0.719356 0.324834 0.000000
0.732784 0.332677 0.000000
0.745754 0.342351 0.000000
0.758785 0.354284 0.000000
0.772122 0.368536 0.000000
0.785916 0.385290 0.000000
0.800412 0.404486 0.000000
0.815579 0.426032 0.038819
0.831449 0.449928 0.091371
0.848051 0.476143 0.129305
0.865507 0.504753 0.170016
0.128115 0.212558 0.150332
0.130404 0.214939 0.152499
0.133700 0.218143 0.155520
0.141268 0.224887 0.162081
0.154147 0.236240 0.173129
0.173526 0.251774 0.188998
0.193759 0.268284 0.201541
0.215000 0.285588 0.210330
0.242588 0.306218 0.221012
0.248386 0.293553 0.205936
0.249302 0.272343 0.186496
0.239384 0.241764 0.168917
0.242374 0.221073 0.158419
0.352605 0.260899 0.131075
0.458839 0.291203 0.092958
0.547356 0.316472 0.000000
0.609949 0.337987 0.000000
0.652613 0.355993 0.000000
0.684504 0.368627 0.000000
0.701991 0.366522 0.000000
0.718318 0.366064 0.000000
0.733730 0.367102 0.000000
0.747402 0.369512 0.000000
0.758877 0.375555 0.000000
0.770748 0.384222 0.000000
0.783108 0.395483 0.000000
0.796048 0.409247 0.000000
0.809628 0.425391 0.000000
0.823911 0.443915 0.000000
0.838987 0.464912 0.037629
0.854856 0.488380 0.101534
0.871763 0.514366 0.147097
0.148714 0.253147 0.168948
0.151339 0.255528 0.171145
0.155062 0.258701 0.174197
0.163272 0.265782 0.181033
0.177218 0.277012 0.192264
0.197910 0.292546 0.208316
0.225223 0.311650 0.228580
0.247868 0.328527 0.238132
0.276402 0.348486 0.250004
0.308415 0.368078 0.261295
0.307897 0.346929 0.236759
0.306004 0.321782 0.212222
0.290074 0.284337 0.190127
0.276036 0.248722 0.173617
0.383154 0.286473 0.145968
0.486305 0.318944 0.108064
0.569177 0.345830 0.026062
0.632593 0.369574 0.000000
0.671809 0.386969 0.000000
0.704036 0.403021 0.000000
0.724300 0.407202 0.000000
0.738705 0.405432 0.000000
0.752590 0.405524 0.000000
0.766598 0.407507 0.000000
0.779904 0.411994 0.000000
0.791531 0.420050 0.000000
0.803769 0.430701 0.000000
0.816648 0.443824 0.000000
0.830259 0.459571 0.000000
0.844755 0.477821 0.000000
0.860197 0.498573 0.024445
0.876707 0.522057 0.110109
0.172183 0.295476 0.188449
0.175265 0.297887 0.190768
0.179355 0.300908 0.194003
0.188357 0.307805 0.201022
0.203067 0.318578 0.212345
0.224643 0.333074 0.228672
0.254368 0.351293 0.250919
0.283848 0.370184 0.268345
0.312718 0.389380 0.281682
0.346685 0.411139 0.297276
0.369116 0.418250 0.298283
0.364691 0.394263 0.268864
0.358892 0.365698 0.238315
0.337133 0.322698 0.210941
0.316228 0.280308 0.189914
0.411872 0.312169 0.162570
0.510704 0.345861 0.125399
0.587671 0.373663 0.071443
0.647639 0.397803 0.000000
0.688991 0.416236 0.000000
0.718837 0.431189 0.000000
0.743984 0.444587 0.000000
0.757473 0.442634 0.000000
0.771084 0.442786 0.000000
0.784848 0.444831 0.000000
0.798886 0.448676 0.000000
0.812192 0.454994 0.000000
0.824399 0.465095 0.000000
0.837369 0.477729 0.000000
0.851286 0.493080 0.000000
0.866178 0.511009 0.000000
0.882322 0.531823 0.021515
0.200839 0.339971 0.210727
0.203983 0.342290 0.213260
0.208377 0.345190 0.216342
0.218143 0.351873 0.223941
0.234257 0.361822 0.235843
0.256962 0.375311 0.252689
0.287266 0.391730 0.275212
0.322759 0.410559 0.300786
0.349798 0.427771 0.313848
0.381170 0.447089 0.328893
0.415412 0.468086 0.346136
0.424964 0.462806 0.334478
0.417578 0.437293 0.301854
0.408392 0.406653 0.266850
0.382452 0.360113 0.233677
0.356023 0.312047 0.207553
0.438056 0.337102 0.180575
0.531975 0.371588 0.144808
0.604639 0.400580 0.098512
0.661891 0.425177 0.000000
0.704677 0.443885 0.000000
0.732357 0.457435 0.000000
0.756619 0.470344 0.000000
0.775875 0.478187 0.000000
0.789181 0.478553 0.000000
0.802884 0.480690 0.000000
0.816861 0.484535 0.000000
0.831357 0.490150 0.000000
0.845335 0.498573 0.000000
0.858762 0.511040 0.000000
0.873289 0.526177 0.000000
0.889067 0.544335 0.000000
0.235813 0.385626 0.236759
0.239322 0.387762 0.239475
0.243839 0.390265 0.242863
0.254215 0.396124 0.250492
0.270848 0.404944 0.262791
0.293889 0.416754 0.279973
0.322911 0.431098 0.301518
0.357641 0.448127 0.327855
0.388159 0.464942 0.346868
0.416114 0.481788 0.361273
0.446479 0.499794 0.377386
0.478218 0.518517 0.395087
0.474342 0.501549 0.369329
0.464363 0.475135 0.333837
0.452399 0.443244 0.295598
0.423651 0.394812 0.257603
0.393591 0.343267 0.226200
0.461250 0.360510 0.199466
0.551354 0.396674 0.165988
0.621057 0.427192 0.125185
0.675502 0.451881 0.058228
0.717250 0.469703 0.000000
0.745449 0.482673 0.000000
0.769650 0.496071 0.000000
0.792660 0.510246 0.000000
0.807645 0.513664 0.000000
0.821195 0.515801 0.000000
0.835203 0.519707 0.000000
0.849851 0.525200 0.000000
0.865293 0.532219 0.000000
0.880430 0.542748 0.000000
0.895628 0.557733 0.000000
0.274632 0.427466 0.265293
0.277989 0.429175 0.267796
0.282475 0.431403 0.271214
0.292760 0.436347 0.278752
0.308721 0.443824 0.290684
0.330266 0.453895 0.306859
0.357000 0.466255 0.327123
0.388739 0.480690 0.351507
0.422522 0.496620 0.377295
0.447333 0.511131 0.390845
0.473945 0.526909 0.405951
0.501366 0.543297 0.422400
0.523857 0.555322 0.433356
0.514611 0.533806 0.400793
0.504082 0.507591 0.363958
0.491096 0.476143 0.323644
0.461463 0.427619 0.282963
0.429511 0.374182 0.246708
0.483467 0.383734 0.219394
0.569512 0.421546 0.188663
0.636378 0.452674 0.152041
0.687892 0.476631 0.103731
0.727382 0.493355 0.000000
0.758022 0.506584 0.000000
0.782223 0.520409 0.000000
0.805203 0.534783 0.000000
0.825254 0.546349 0.000000
0.838834 0.548760 0.000000
0.853025 0.552605 0.000000
0.868040 0.558099 0.000000
0.884092 0.565301 0.000000
0.901457 0.574304 0.000000
0.315251 0.466133 0.295232
0.318914 0.467689 0.297826
0.331151 0.476539 0.307012
0.340795 0.480659 0.314366
0.355688 0.486915 0.325628
0.375158 0.495064 0.340581
0.399298 0.505180 0.359564
0.427192 0.516991 0.381811
0.458289 0.530480 0.407568
0.483711 0.543877 0.425788
0.506126 0.557366 0.439643
0.529198 0.571557 0.454566
0.552453 0.586236 0.470253
0.563012 0.587793 0.468208
0.553460 0.566339 0.435126
0.542382 0.540673 0.397345
0.529198 0.509850 0.355383
0.500237 0.462470 0.312139
0.467292 0.408087 0.271550
0.507713 0.409674 0.242802
0.589288 0.448402 0.214664
0.652918 0.479469 0.181827
0.701015 0.502007 0.142580
0.738277 0.517784 0.084382
0.771084 0.531365 0.000000
0.795621 0.545342 0.000000
0.818326 0.559411 0.000000
0.839933 0.573327 0.000000
0.856413 0.580102 0.000000
0.870909 0.584009 0.000000
0.886503 0.589715 0.000000
0.903288 0.597223 0.000000
0.358648 0.503166 0.327398
0.362615 0.505180 0.330510
0.367803 0.507713 0.334447
0.377478 0.511894 0.341955
0.391516 0.517723 0.352972
0.409552 0.524895 0.367254
0.431220 0.533562 0.384741
0.455848 0.543633 0.405310
0.482979 0.555261 0.428901
0.509758 0.567926 0.452644
0.529198 0.579950 0.465400
0.549310 0.592615 0.479133
0.569543 0.605371 0.493629
0.589380 0.618067 0.508537
0.591028 0.611414 0.494911
0.582025 0.591150 0.462135
0.571344 0.566339 0.424598
0.558648 0.536797 0.382391
0.531060 0.491341 0.338048
0.499214 0.438025 0.295018
0.527214 0.432105 0.265293
0.605432 0.471809 0.240604
0.666133 0.502373 0.211185
0.711604 0.524163 0.178439
0.747860 0.540002 0.135103
0.781033 0.554559 0.043061
0.808469 0.568597 0.000000
0.831266 0.582910 0.000000
0.853117 0.596826 0.000000
0.874022 0.609857 0.000000
0.889067 0.614221 0.000000
0.905180 0.620142 0.000000
0.398138 0.534630 0.357610
0.401801 0.536339 0.360601
0.406439 0.538445 0.364294
0.414984 0.541955 0.371130
0.427619 0.546929 0.381353
0.443458 0.553002 0.394507
0.462348 0.560357 0.410559
0.483772 0.569055 0.429389
0.507042 0.579156 0.450813
0.531701 0.590539 0.474342
0.551629 0.601678 0.490883
0.569024 0.612543 0.503532
0.586481 0.623590 0.516869
0.603815 0.634607 0.530724
0.620630 0.645502 0.545006
0.615442 0.632502 0.520775
0.607385 0.613764 0.488533
0.597864 0.590814 0.451698
0.585931 0.562615 0.409796
0.559869 0.519127 0.365026
0.529412 0.467720 0.319890
0.546349 0.454658 0.288670
0.621363 0.494728 0.267704
0.678645 0.524681 0.242710
0.721584 0.545769 0.215091
0.757778 0.562402 0.178927
0.791318 0.577844 0.125154
0.821653 0.591699 0.000000
0.844694 0.606165 0.000000
0.866880 0.620081 0.000000
0.888518 0.633600 0.000000
0.906981 0.642786 0.000000
0.436347 0.563622 0.388006
0.439521 0.565087 0.390723
0.443641 0.566918 0.394141
0.451270 0.569940 0.400549
0.462104 0.574151 0.409918
0.475746 0.579461 0.421942
0.491920 0.585779 0.436530
0.510277 0.593347 0.453620
0.530449 0.601953 0.473091
0.551812 0.611505 0.494453
0.572717 0.621637 0.515679
0.587701 0.630976 0.527337
0.602808 0.640528 0.539605
0.617853 0.650172 0.552483
0.632654 0.659785 0.565759
0.643671 0.665827 0.572992
0.637079 0.651789 0.546044
0.630121 0.634760 0.514916
0.622156 0.614008 0.479377
0.612177 0.588556 0.438697
0.588281 0.547631 0.394446
0.559808 0.498726 0.347845
0.567163 0.479133 0.314519
0.638758 0.519280 0.297704
0.692195 0.548272 0.277684
0.733028 0.569116 0.255131
0.769619 0.587366 0.225528
0.803586 0.603815 0.183993
0.835172 0.617853 0.118807
0.860441 0.631708 0.081727
0.883024 0.645655 0.076600
0.904509 0.658717 0.073304
0.475563 0.593042 0.421088
0.477913 0.594049 0.423163
0.480873 0.595239 0.425849
0.486824 0.597559 0.431342
0.495796 0.600916 0.439612
0.507195 0.605249 0.450477
0.520958 0.610590 0.463661
0.536614 0.616876 0.479194
0.554040 0.624140 0.496956
0.572656 0.632197 0.516533
0.591821 0.640986 0.537652
0.607202 0.649531 0.552697
0.620233 0.657771 0.564111
0.633173 0.666163 0.575647
0.645991 0.674830 0.587335
0.658839 0.683955 0.598993
0.663691 0.684230 0.596796
0.657130 0.670283 0.571710
0.650813 0.654566 0.541741
0.643793 0.635554 0.506981
0.635279 0.612207 0.467262
0.613855 0.574060 0.423072
0.586969 0.527245 0.375433
0.585565 0.501244 0.339452
0.653346 0.540826 0.326299
0.703395 0.568933 0.310765
0.743465 0.590448 0.292271
0.780484 0.610315 0.268559
0.814847 0.627832 0.235813
0.846983 0.642481 0.188815
0.875273 0.655116 0.139437
0.897704 0.669032 0.143252
0.507805 0.617578 0.450660
0.509850 0.618463 0.452583
0.512383 0.619440 0.455055
0.517540 0.621363 0.460090
0.525078 0.624140 0.467536
0.534813 0.627680 0.477211
0.546532 0.632074 0.489204
0.559899 0.637263 0.503105
0.574945 0.643336 0.519280
0.590997 0.650111 0.537133
0.607813 0.657557 0.556542
0.623957 0.665370 0.575311
0.635187 0.672694 0.585382
0.646632 0.680598 0.595697
0.658228 0.688960 0.606104
0.669886 0.697719 0.616571
0.681636 0.706874 0.626947
0.681514 0.701564 0.617212
0.675105 0.687678 0.594171
0.668574 0.672206 0.566522
0.662379 0.654719 0.533227
0.655329 0.633570 0.494789
0.636622 0.598627 0.451911
0.612726 0.555108 0.404150
0.602869 0.522423 0.363989
0.666804 0.561151 0.354772
0.714015 0.588739 0.343755
0.754360 0.611841 0.329534
0.791745 0.633204 0.311589
0.826413 0.651881 0.286961
0.858488 0.666865 0.252171
0.888762 0.679225 0.203677
0.539391 0.641199 0.481697
0.541131 0.641901 0.483528
0.543297 0.642725 0.485756
0.547448 0.644221 0.490089
0.553735 0.646387 0.496651
0.561883 0.649226 0.505241
0.571710 0.652735 0.515892
0.583124 0.656947 0.528466
0.595819 0.661860 0.542962
0.609613 0.667414 0.558984
0.623865 0.673671 0.576074
0.638453 0.680842 0.593652
0.650141 0.688197 0.605890
0.660151 0.695583 0.614801
0.670405 0.703365 0.623804
0.680781 0.711513 0.632898
0.691402 0.719997 0.641932
0.702235 0.728756 0.651240
0.697902 0.718166 0.635279
0.691676 0.704463 0.614099
0.685206 0.689174 0.588739
0.678706 0.672053 0.557916
0.672389 0.652461 0.520928
0.656031 0.620386 0.479194
0.634974 0.580133 0.431800
0.621851 0.545312 0.390784
0.680690 0.582177 0.385473
0.725795 0.609827 0.378882
0.766537 0.634791 0.369268
0.803830 0.657191 0.357214
0.837980 0.676143 0.340307
0.870024 0.692378 0.318975
0.565362 0.660487 0.508995
0.566888 0.661097 0.510613
0.568780 0.661799 0.512627
0.572320 0.663020 0.516594
0.577722 0.664851 0.522576
0.584802 0.667201 0.530480
0.593317 0.670222 0.540185
0.603235 0.673823 0.551690
0.614374 0.678187 0.564843
0.626398 0.683406 0.579187
0.638941 0.689448 0.594324
0.651972 0.696437 0.610132
0.664668 0.704097 0.625238
0.673671 0.711177 0.633173
0.682979 0.718654 0.641199
0.692500 0.726406 0.649439
0.702358 0.734340 0.658076
0.712459 0.742519 0.667140
0.720211 0.747677 0.672145
0.714809 0.735897 0.653986
0.709010 0.722560 0.634211
0.702602 0.707546 0.611017
0.695827 0.690669 0.582910
0.688808 0.671321 0.548486
0.674678 0.642176 0.508354
0.656672 0.605554 0.462196
0.646082 0.574121 0.422217
0.694789 0.603967 0.418616
0.739193 0.633051 0.417090
0.779751 0.659174 0.412268
0.816587 0.682368 0.406806
0.850523 0.702602 0.400580
0.589868 0.678492 0.536217
0.591150 0.679011 0.537682
0.592615 0.679561 0.539361
0.595697 0.680568 0.542870
0.600244 0.682124 0.548180
0.606287 0.684230 0.555261
0.613642 0.686946 0.563867
0.622187 0.690394 0.574060
0.631861 0.694606 0.585626
0.642267 0.699611 0.598230
0.653376 0.705409 0.611688
0.664942 0.712093 0.625757
0.676814 0.719539 0.640131
0.686671 0.726802 0.650385
0.695186 0.733730 0.657954
0.704067 0.740932 0.665888
0.713191 0.748318 0.674250
0.722560 0.755825 0.682918
0.732174 0.763546 0.691981
0.735866 0.763821 0.690425
0.730800 0.752651 0.672389
0.725399 0.739925 0.652766
0.719356 0.725551 0.631250
0.712703 0.709285 0.605798
0.705226 0.690303 0.574670
0.691615 0.662715 0.537133
0.676387 0.629633 0.493050
0.668360 0.601862 0.455329
0.708400 0.625574 0.452461
0.752651 0.656092 0.454963
0.792966 0.683680 0.456428
0.829404 0.708095 0.459327
0.612146 0.695827 0.561791
0.613123 0.696223 0.563012
0.614435 0.696742 0.564538
0.617029 0.697719 0.567620
0.621057 0.699306 0.572442
0.626429 0.701503 0.578790
0.632990 0.704402 0.586725
0.640711 0.707973 0.595972
0.649409 0.712337 0.606561
0.658900 0.717464 0.618067
0.668971 0.723323 0.630335
0.679469 0.729946 0.643091
0.690517 0.737087 0.656611
0.701808 0.744656 0.670588
0.709834 0.751186 0.678126
0.718105 0.757839 0.685847
0.726589 0.764614 0.693874
0.735256 0.771511 0.702235
0.744167 0.778531 0.710903
0.753201 0.785641 0.719692
0.753262 0.781827 0.712001
0.748562 0.771389 0.694362
0.743618 0.759548 0.674922
0.738216 0.746090 0.653712
0.732082 0.730800 0.630549
0.724514 0.712551 0.602991
0.711299 0.686519 0.569574
0.696864 0.655634 0.528313
0.690791 0.631250 0.493477
0.725490 0.651545 0.491707
0.769711 0.683986 0.499763
0.809354 0.712886 0.509148
0.634852 0.715389 0.588434
0.635706 0.715785 0.589410
0.636713 0.716213 0.590661
0.638911 0.717128 0.593286
0.642267 0.718593 0.597375
0.646693 0.720607 0.602747
0.652216 0.723262 0.609461
0.658717 0.726528 0.617365
0.666072 0.730495 0.626368
0.674220 0.735103 0.636316
0.682948 0.740414 0.647028
0.692470 0.746273 0.658839
0.702663 0.752712 0.671717
0.713436 0.759640 0.685573
