data/fiter_cube/10491141/1023203/file.cube
# Created by Adobe Lightroom plugin Export LUT (1.17.0)
# www.johnrellis.com/lightroom/exportlut.htm
# Preset: 莫兰迪丛林_02 云集
# Color profile: C:\Program Files (x86)\Common Files\Adobe\Color\Profiles\Recommended\AdobeRGB1998.icc
LUT_3D_SIZE 8
DOMAIN_MIN 0.000000 0.000000 0.000000
DOMAIN_MAX 0.903226 0.903226 0.903226
0.069123 0.076112 0.088075
0.085969 0.080690 0.090425
0.156558 0.093385 0.093111
0.303441 0.100618 0.090547
0.481270 0.095674 0.083345
0.616327 0.148074 0.083253
0.711971 0.247074 0.103090
0.784787 0.365728 0.162051
0.074159 0.085664 0.094362
0.081697 0.089143 0.097017
0.192813 0.112123 0.085237
0.343633 0.115755 0.080507
0.507012 0.115999 0.070314
0.626520 0.165499 0.068360
0.716335 0.256626 0.089418
0.787411 0.369940 0.150057
0.091646 0.129061 0.113741
0.111147 0.149477 0.132967
0.140352 0.149050 0.124910
0.421424 0.215457 0.029999
0.596735 0.223728 0.000000
0.676265 0.250431 0.000000
0.743526 0.313481 0.000000
0.805142 0.403632 0.111635
0.148714 0.253147 0.168948
0.177218 0.277012 0.192264
0.276402 0.348486 0.250004
0.290074 0.284337 0.190127
0.569177 0.345830 0.026062
0.724300 0.407202 0.000000
0.779904 0.411994 0.000000
0.830259 0.459571 0.000000
0.274632 0.427466 0.265293
0.308721 0.443824 0.290684
0.422522 0.496620 0.377295
0.523857 0.555322 0.433356
0.461463 0.427619 0.282963
0.636378 0.452674 0.152041
0.782223 0.520409 0.000000
0.853025 0.552605 0.000000
0.436347 0.563622 0.388006
0.462104 0.574151 0.409918
0.530449 0.601953 0.473091
0.602808 0.640528 0.539605
0.637079 0.651789 0.546044
0.588281 0.547631 0.394446
0.692195 0.548272 0.277684
0.835172 0.617853 0.118807
0.565362 0.660487 0.508995
0.577722 0.664851 0.522576
0.614374 0.678187 0.564843
0.664668 0.704097 0.625238
0.702358 0.734340 0.658076
0.709010 0.722560 0.634211
0.674678 0.642176 0.508354
0.739193 0.633051 0.417090
0.653529 0.733394 0.610407
0.659907 0.736446 0.618250
0.680873 0.747738 0.644038
0.715145 0.768338 0.687678
0.748196 0.790494 0.726162
0.780056 0.814847 0.757259
0.774533 0.792081 0.713893
0.747768 0.728481 0.620264
0.071473 0.081209 0.100740
0.089876 0.080415 0.104189
0.138796 0.103700 0.116274
0.283635 0.119814 0.119936
0.463142 0.124788 0.118563
0.599359 0.165499 0.121096
0.700771 0.254643 0.137881
0.776761 0.369329 0.189425
0.074159 0.089418 0.101076
0.086824 0.098329 0.111940
0.171267 0.115328 0.112459
0.322576 0.129732 0.112367
0.490211 0.137728 0.109621
0.613062 0.180789 0.111849
0.706477 0.264347 0.128450
0.779477 0.372992 0.179110
0.093019 0.132906 0.119997
0.114992 0.155367 0.144045
0.152316 0.165560 0.147311
0.425452 0.221042 0.079683
0.578485 0.221836 0.041993
0.663294 0.253086 0.060761
0.733333 0.314977 0.090028
0.796933 0.404059 0.149264
0.150484 0.253941 0.176761
0.180606 0.278782 0.202182
0.284367 0.350896 0.269810
0.297551 0.293462 0.210025
0.568872 0.349889 0.087160
0.714443 0.399390 0.000000
0.770474 0.407599 0.000000
0.823056 0.458137 0.000000
0.277928 0.426886 0.274022
0.309911 0.442054 0.297551
0.418860 0.492317 0.380591
0.524773 0.554955 0.445411
0.462776 0.431189 0.298283
0.637934 0.457710 0.173342
0.780270 0.522606 0.000000
0.849271 0.550774 0.000000
0.433692 0.560052 0.389960
0.456001 0.568383 0.408606
0.523735 0.596185 0.469825
0.599817 0.636561 0.540551
0.637964 0.652674 0.554406
0.589593 0.550652 0.405798
0.693599 0.552270 0.291569
0.834958 0.619379 0.146334
0.560601 0.656825 0.505974
0.571984 0.660517 0.518242
0.609369 0.674281 0.560601
0.661280 0.700649 0.622736
0.700862 0.732357 0.658534
0.709041 0.722988 0.637934
0.673548 0.641932 0.512291
0.738766 0.633204 0.420905
0.650355 0.730892 0.607691
0.657069 0.734188 0.615839
0.678340 0.745602 0.641840
0.712825 0.766384 0.685389
0.749233 0.791379 0.728939
0.780575 0.815213 0.759243
0.775082 0.792966 0.716976
0.747189 0.728298 0.621881
0.067292 0.092042 0.147311
0.084260 0.088594 0.164553
0.201938 0.080354 0.174563
0.238010 0.167666 0.192172
0.400061 0.193027 0.206882
0.561517 0.226749 0.215061
0.677028 0.297612 0.231113
0.760250 0.401709 0.278813
0.085451 0.115877 0.147189
0.090639 0.117678 0.168673
0.199344 0.117067 0.183108
0.240330 0.189548 0.205966
0.430152 0.200778 0.206424
0.576837 0.235996 0.211368
0.684382 0.305394 0.225895
0.764157 0.405859 0.272648
0.092714 0.153048 0.154818
0.111574 0.166201 0.168917
0.184176 0.210178 0.216220
0.383520 0.233249 0.200229
0.529503 0.250553 0.196719
0.632136 0.286229 0.197757
0.713100 0.345220 0.211154
0.780819 0.428901 0.254337
0.142916 0.250034 0.185153
0.171206 0.274022 0.210086
0.290471 0.351507 0.303502
0.340520 0.339269 0.282658
0.597620 0.391302 0.189731
0.702235 0.407202 0.159426
0.754391 0.424689 0.172274
0.809781 0.476387 0.211948
0.262821 0.416358 0.277287
0.298436 0.433845 0.303899
0.408576 0.485451 0.386694
0.527855 0.552972 0.472969
0.488899 0.462379 0.360266
0.657313 0.490974 0.251102
0.782376 0.543145 0.178286
0.843015 0.555108 0.143252
0.422950 0.553094 0.392126
0.447791 0.562249 0.412482
0.516289 0.590265 0.472572
0.598444 0.631525 0.552483
0.647028 0.661952 0.587060
0.597711 0.564477 0.444709
0.701930 0.569635 0.340429
0.836057 0.632898 0.250401
0.554772 0.653285 0.506859
0.566918 0.657252 0.519524
0.603876 0.670619 0.559869
0.654902 0.695674 0.619348
0.699367 0.729671 0.664027
0.714443 0.730343 0.656336
0.676722 0.649500 0.536767
0.746181 0.645991 0.450263
0.644282 0.727260 0.604181
0.650233 0.729915 0.611139
0.671778 0.741054 0.636988
0.707027 0.762417 0.680659
0.747799 0.789303 0.731502
0.780545 0.814878 0.763394
0.778622 0.797879 0.729824
0.749203 0.732326 0.632532
0.013916 0.118196 0.245335
0.061921 0.116854 0.265202
0.221958 0.066407 0.333867
0.431830 0.000000 0.302770
0.444892 0.214664 0.281224
0.455085 0.301671 0.316442
0.613336 0.346532 0.334966
0.722927 0.434668 0.377752
0.087037 0.160403 0.251438
0.085023 0.152193 0.270817
0.213077 0.123262 0.334020
0.430823 0.117128 0.311894
0.435218 0.243198 0.292454
0.478645 0.308476 0.320104
0.624598 0.353887 0.335546
0.727901 0.438270 0.375036
0.116426 0.216770 0.249180
0.139467 0.227420 0.261997
0.206546 0.250980 0.322850
0.414771 0.261723 0.338293
0.403174 0.328832 0.337865
0.555169 0.344640 0.333989
0.665705 0.390692 0.341802
0.748165 0.460182 0.371801
0.140597 0.285374 0.258488
0.164767 0.298100 0.271519
0.256779 0.338659 0.317082
0.394965 0.400519 0.386877
0.567376 0.418433 0.355383
0.648737 0.428290 0.342016
0.715572 0.452033 0.337926
0.779812 0.499428 0.357366
0.231846 0.402075 0.282658
0.264012 0.414191 0.301579
0.370001 0.462165 0.375311
0.512474 0.535058 0.486305
0.521355 0.503777 0.442725
0.682155 0.538231 0.368261
0.765957 0.554406 0.339300
0.821988 0.566094 0.326726
0.398230 0.538994 0.389227
0.424170 0.549462 0.409247
0.494423 0.577264 0.466438
0.583062 0.620203 0.548669
0.653712 0.668086 0.617212
0.612848 0.588312 0.502251
0.716884 0.599176 0.417182
0.837125 0.653498 0.373236
0.537530 0.643946 0.500542
0.550469 0.648402 0.513115
0.589593 0.662837 0.553002
0.642420 0.687251 0.611170
0.695552 0.724331 0.670253
0.725399 0.744717 0.687922
0.681331 0.660761 0.571771
0.758328 0.664607 0.490822
0.635554 0.721706 0.600946
0.641749 0.724636 0.607935
0.661280 0.734676 0.630060
0.694240 0.754177 0.668910
0.740017 0.783078 0.726711
0.778897 0.812955 0.767788
0.785000 0.806546 0.750759
0.752193 0.738277 0.648371
0.000000 0.168460 0.375006
0.004883 0.167819 0.390112
0.193912 0.150423 0.438758
0.455909 0.000000 0.483070
0.604486 0.161898 0.437537
0.603052 0.310338 0.397345
0.582269 0.394629 0.412634
0.656916 0.474006 0.463508
0.085420 0.211765 0.377966
0.086671 0.202914 0.392645
0.201633 0.189334 0.438758
0.454749 0.107515 0.487129
0.601434 0.211337 0.443488
0.596826 0.330510 0.403113
0.575494 0.404761 0.417578
0.664515 0.477577 0.464546
0.175662 0.279637 0.351354
0.194400 0.292119 0.371374
0.240909 0.298161 0.429480
0.445350 0.262669 0.497322
0.590906 0.327611 0.461463
0.572930 0.386358 0.420386
0.559655 0.431647 0.431342
0.688380 0.489693 0.465858
0.193301 0.365026 0.376074
0.220127 0.372961 0.384680
0.306310 0.398688 0.413611
0.420996 0.434516 0.476478
0.560266 0.452644 0.482277
0.534936 0.462806 0.457740
0.640772 0.474220 0.451179
0.727352 0.514641 0.464271
0.249699 0.433326 0.378790
0.274266 0.440986 0.388312
0.351873 0.465003 0.419623
0.463020 0.504784 0.471290
0.552026 0.544854 0.521874
0.663355 0.554589 0.490700
0.716976 0.550042 0.468269
0.778714 0.569085 0.462348
0.360540 0.523064 0.400092
0.380743 0.529656 0.410803
0.442573 0.550347 0.445228
0.538933 0.590051 0.518608
0.629725 0.643030 0.606561
0.626551 0.612055 0.559869
0.739071 0.635218 0.502800
0.828153 0.659937 0.477394
0.505974 0.626368 0.486000
0.518669 0.630610 0.496925
0.559014 0.645289 0.533562
0.615595 0.669245 0.590051
0.673823 0.705013 0.653468
0.731991 0.754025 0.715023
0.686885 0.673548 0.608179
0.776425 0.688106 0.538933
0.617090 0.709651 0.589746
0.623285 0.712215 0.596277
0.643275 0.721645 0.617823
0.675044 0.740780 0.652857
0.718166 0.768307 0.703517
0.771420 0.805631 0.766964
0.794797 0.819089 0.778286
0.754879 0.744747 0.667445
0.085542 0.243229 0.496407
0.123415 0.242710 0.505730
0.235538 0.233310 0.536248
0.440223 0.176211 0.585290
0.622858 0.173770 0.595636
0.696010 0.328679 0.545617
0.703120 0.432136 0.514092
0.703273 0.504570 0.525383
0.149935 0.278965 0.494148
0.159518 0.272679 0.503197
0.249454 0.264652 0.533013
0.436286 0.222080 0.581292
0.619287 0.219150 0.595636
0.693233 0.351751 0.548150
0.699397 0.442176 0.515953
0.699825 0.507897 0.525933
0.253361 0.361913 0.477821
0.269718 0.367102 0.489937
0.298833 0.356298 0.524865
0.432502 0.341070 0.572808
0.610925 0.334234 0.600336
0.686427 0.422248 0.559655
0.687617 0.475105 0.523980
0.687098 0.524987 0.532586
0.293126 0.422278 0.465980
0.311864 0.426703 0.470832
0.373358 0.442725 0.488380
0.448310 0.467170 0.554955
0.596979 0.461311 0.608850
0.677180 0.509758 0.579095
0.666041 0.518456 0.535760
0.661097 0.546838 0.540490
0.324224 0.504204 0.488685
0.342626 0.507927 0.493507
0.400732 0.519951 0.509880
0.482216 0.539452 0.537011
0.564446 0.566278 0.588067
0.649897 0.578607 0.589502
0.620874 0.559380 0.549187
0.704433 0.576593 0.553307
0.384039 0.550805 0.486763
0.399908 0.554711 0.492805
0.448127 0.566217 0.511376
0.515587 0.585870 0.541863
0.588861 0.614588 0.583551
0.645930 0.642817 0.622858
0.726162 0.647333 0.595239
0.782437 0.645319 0.572137
0.482429 0.620172 0.510613
0.493812 0.623590 0.516960
0.528344 0.633875 0.536980
0.578241 0.650507 0.569512
0.640375 0.677852 0.624933
0.707515 0.727779 0.699336
0.697932 0.692988 0.651514
0.804929 0.721187 0.605737
0.589868 0.696345 0.575799
0.596551 0.697749 0.581079
0.617914 0.704921 0.600519
0.650050 0.721950 0.633936
0.691249 0.748501 0.679042
0.746639 0.786343 0.744076
0.806058 0.832242 0.807034
0.760006 0.755489 0.695674
0.251164 0.345403 0.600000
0.271702 0.345861 0.606531
0.338476 0.339269 0.624414
0.461494 0.317845 0.653346
0.620447 0.267460 0.689326
0.702693 0.354314 0.662898
0.756558 0.462348 0.632837
0.777737 0.545098 0.622156
0.271183 0.366247 0.593713
0.283360 0.363714 0.600305
0.342809 0.358068 0.618585
0.457557 0.339300 0.647730
0.612451 0.295537 0.683742
0.698756 0.365423 0.661067
0.752071 0.466194 0.629755
0.772671 0.543725 0.617731
0.356664 0.444495 0.584100
0.368658 0.446235 0.591485
0.377081 0.425422 0.610651
0.464088 0.416236 0.640375
0.598779 0.391608 0.676753
0.697017 0.427649 0.669551
0.749081 0.507774 0.639063
0.768399 0.565759 0.624872
0.392126 0.484565 0.550347
0.401740 0.488899 0.557488
0.437476 0.503532 0.584070
0.482002 0.504936 0.625727
0.580499 0.499001 0.665339
0.692958 0.509392 0.682246
0.744778 0.564141 0.653895
0.758053 0.592035 0.630579
0.413092 0.544915 0.562890
0.422278 0.545403 0.564416
0.454749 0.548974 0.571466
0.505303 0.556359 0.585321
0.566644 0.576379 0.640284
0.673854 0.579919 0.684688
0.735073 0.612543 0.664118
0.736660 0.615534 0.630488
0.443488 0.609461 0.583154
0.452857 0.610498 0.585382
0.483223 0.614191 0.593133
0.529717 0.620752 0.606714
0.585199 0.630152 0.625391
0.647089 0.652155 0.668757
0.717494 0.662867 0.674342
0.695460 0.640253 0.631891
0.496681 0.641688 0.580529
0.505028 0.643519 0.583886
0.529747 0.648066 0.593469
0.568322 0.656336 0.610193
0.614038 0.668269 0.633051
0.664515 0.690730 0.666499
0.713741 0.719478 0.705074
0.792538 0.720638 0.674128
0.571283 0.689784 0.600275
0.576837 0.691341 0.603449
0.597467 0.698970 0.617029
0.625330 0.710262 0.635767
0.658900 0.727565 0.660243
0.708125 0.755703 0.706508
0.779477 0.807797 0.787961
0.768399 0.771939 0.735897
0.412970 0.464424 0.682826
0.422889 0.463874 0.686275
0.454231 0.456886 0.695918
0.518334 0.444770 0.715175
0.613825 0.420508 0.742397
0.718441 0.413611 0.762509
0.770565 0.487221 0.734493
0.816526 0.564843 0.716457
0.418189 0.475013 0.678920
0.426856 0.474189 0.682399
0.456580 0.468208 0.692470
0.516716 0.456458 0.711452
0.609827 0.434424 0.738949
0.715419 0.424292 0.761074
0.768124 0.492805 0.733516
0.814908 0.568261 0.716060
0.463813 0.525353 0.668940
0.464027 0.521202 0.672419
0.468147 0.504662 0.683070
0.520592 0.500023 0.704433
0.602502 0.483803 0.732296
0.708827 0.465858 0.760861
0.764034 0.520775 0.736172
0.813138 0.586572 0.720119
0.477790 0.556054 0.646906
0.485481 0.558618 0.651575
0.509697 0.564538 0.666011
0.528557 0.553338 0.690333
0.592432 0.546777 0.720638
0.694362 0.531548 0.758602
0.760708 0.564111 0.745418
0.812009 0.615930 0.728573
0.495735 0.590967 0.634180
0.501488 0.591363 0.635431
0.516747 0.589563 0.637324
0.543572 0.595880 0.657374
0.583795 0.600885 0.698482
0.663935 0.597833 0.742061
0.758602 0.609033 0.760830
0.809018 0.649378 0.737575
0.517540 0.641840 0.647761
0.521172 0.641199 0.647974
0.534539 0.639765 0.649531
0.558556 0.638209 0.653590
0.591821 0.636957 0.660975
0.640864 0.654475 0.716335
0.745907 0.665248 0.772763
0.805417 0.693019 0.751400
0.547906 0.692988 0.667323
0.551324 0.692836 0.667872
0.563653 0.692653 0.670314
0.586023 0.693874 0.676295
0.616419 0.696895 0.686305
0.653864 0.703212 0.702754
0.707057 0.721401 0.748836
0.791257 0.739315 0.762020
0.592279 0.719448 0.668849
0.594842 0.719722 0.669764
0.604669 0.721645 0.673945
0.622522 0.726314 0.682704
0.646754 0.734005 0.695888
0.680171 0.746029 0.715755
0.728298 0.767086 0.748745
0.784604 0.799283 0.793454
