data/fiter_cube/10491141/1023203/file.cube
# Created by Adobe Lightroom plugin Export LUT (1.17.0)
# www.johnrellis.com/lightroom/exportlut.htm
# Preset: 莫兰迪丛林_02 云集
# Color profile: C:\Program Files (x86)\Common Files\Adobe\Color\Profiles\Recommended\AdobeRGB1998.icc
LUT_3D_SIZE 5
DOMAIN_MIN 0.000000 0.000000 0.000000
DOMAIN_MAX 0.903226 0.903226 0.903226
0.069123 0.076112 0.088075
0.132265 0.090059 0.092866
0.395483 0.095918 0.087221
0.643427 0.170596 0.085725
0.784787 0.365728 0.162051
0.084932 0.111940 0.106569
0.118837 0.127047 0.114931
0.514519 0.182559 0.000000
0.683162 0.239445 0.000000
0.800900 0.395209 0.127962
0.200839 0.339971 0.210727
0.322759 0.410559 0.300786
0.382452 0.360113 0.233677
0.732357 0.457435 0.000000
0.845335 0.498573 0.000000
0.475563 0.593042 0.421088
0.536614 0.616876 0.479194
0.645991 0.674830 0.587335
0.613855 0.574060 0.423072
0.814847 0.627832 0.235813
0.653529 0.733394 0.610407
0.674342 0.744015 0.635981
0.733516 0.779019 0.711757
0.786465 0.818936 0.761990
0.747768 0.728481 0.620264
0.069795 0.088258 0.130587
0.161257 0.082002 0.150301
0.326055 0.166110 0.179721
0.603845 0.222019 0.189639
0.764858 0.390234 0.251408
0.086000 0.130251 0.136263
0.148348 0.171847 0.181674
0.447517 0.205570 0.168582
0.649958 0.268742 0.172457
0.781033 0.413245 0.232151
0.196201 0.335424 0.224186
0.315251 0.403662 0.314855
0.408331 0.391089 0.298894
0.731746 0.475471 0.121248
0.832456 0.507042 0.120241
0.469459 0.587366 0.426337
0.530877 0.611566 0.482918
0.645289 0.671565 0.597955
0.619867 0.585534 0.458412
0.818387 0.638453 0.290837
0.647547 0.729641 0.606836
0.668666 0.740169 0.632319
0.730343 0.777340 0.710048
0.789334 0.821683 0.770596
0.749722 0.732418 0.630823
0.000000 0.140780 0.310307
0.146761 0.127474 0.369085
0.532830 0.069001 0.372564
0.510918 0.330632 0.355688
0.695430 0.454810 0.425086
0.140291 0.230930 0.295201
0.179110 0.242283 0.365240
0.523766 0.252293 0.397253
0.499825 0.373510 0.379492
0.715785 0.469276 0.423560
0.185702 0.362341 0.319219
0.274052 0.394690 0.357153
0.484932 0.480873 0.460456
0.671626 0.495552 0.414527
0.779080 0.534783 0.410773
0.418402 0.557244 0.411719
0.482094 0.581109 0.462013
0.622339 0.649226 0.594141
0.637415 0.617762 0.545037
0.828214 0.670253 0.440375
0.626764 0.715724 0.595392
0.647059 0.725521 0.617823
0.705623 0.760739 0.685389
0.785306 0.817411 0.776913
0.752834 0.740597 0.656397
0.125643 0.265202 0.522454
0.223362 0.259953 0.549371
0.551751 0.154635 0.627100
0.711269 0.364904 0.567346
0.722683 0.515709 0.547387
0.260624 0.365118 0.511742
0.280583 0.348425 0.540887
0.534356 0.306737 0.618402
0.704372 0.426856 0.576379
0.712276 0.528161 0.549432
0.328557 0.472663 0.494606
0.381964 0.484169 0.508446
0.509789 0.520104 0.583856
0.684932 0.551659 0.600702
0.669673 0.565148 0.558953
0.416785 0.576928 0.512871
0.457221 0.585534 0.527764
0.560662 0.614923 0.575708
0.663111 0.661921 0.643488
0.783536 0.663386 0.597528
0.583886 0.695918 0.579950
0.602197 0.701717 0.593103
0.661860 0.728511 0.648737
0.754849 0.791867 0.755367
0.761563 0.758724 0.704189
0.412970 0.464424 0.682826
0.443641 0.458991 0.692622
0.562524 0.434699 0.727932
0.736599 0.430274 0.760342
0.816526 0.564843 0.716457
0.452033 0.512230 0.672877
0.458198 0.497414 0.683803
0.558404 0.480385 0.719936
0.729488 0.466896 0.758938
0.814115 0.581750 0.719448
0.486885 0.567437 0.630488
0.501793 0.572351 0.644160
0.555077 0.575616 0.692744
0.708400 0.559625 0.760739
0.810758 0.631769 0.732845
0.527550 0.656519 0.653925
0.540246 0.655360 0.655421
0.582513 0.653803 0.663722
0.655818 0.669337 0.723232
0.803555 0.704402 0.754665
0.592279 0.719448 0.668849
0.601373 0.720943 0.672480
0.633845 0.729793 0.688746
0.690486 0.750149 0.722408
0.784604 0.799283 0.793454
