data/fiter_cube/57993848/1023156/file.cube
# Created by Adobe Lightroom plugin Export LUT (1.17.0)
# www.johnrellis.com/lightroom/exportlut.htm
# Preset: 萌宠摄影后期_03 云集
# Color profile: C:\Program Files (x86)\Common Files\Adobe\Color\Profiles\Recommended\AdobeRGB1998.icc
LUT_3D_SIZE 32
DOMAIN_MIN 0.0 0.0 0.0
DOMAIN_MAX 1.0 1.0 1.0
0.130434 0.144442 0.143679
0.131289 0.144503 0.143679
0.132784 0.144442 0.143648
0.137301 0.144594 0.143679
0.147921 0.144900 0.143679
0.166079 0.144808 0.143465
0.192599 0.143893 0.143130
0.227726 0.141573 0.142336
0.272068 0.136049 0.140963
0.325383 0.124788 0.138979
0.386725 0.104280 0.136141
0.452247 0.064454 0.132143
0.517723 0.000000 0.127352
0.578851 0.000000 0.121889
0.630732 0.000000 0.116609
0.674708 0.000000 0.111421
0.713527 0.000000 0.106386
0.754574 0.000000 0.100557
0.788693 0.000000 0.095613
0.819760 0.000000 0.091279
0.848753 0.000000 0.087739
0.876158 0.100008 0.085786
0.901915 0.150301 0.085725
0.926482 0.190036 0.088380
0.949950 0.224338 0.093385
0.972686 0.256199 0.101778
0.994965 0.286931 0.114107
1.000000 0.316411 0.130465
1.000000 0.344976 0.151431
1.000000 0.372869 0.176974
1.000000 0.400122 0.207401
1.000000 0.426612 0.242130
0.130282 0.145144 0.143801
0.131136 0.145174 0.143771
0.132357 0.145327 0.143893
0.136629 0.145876 0.143893
0.146883 0.146426 0.143893
0.164340 0.146670 0.143679
0.190127 0.146334 0.143313
0.224430 0.144411 0.142550
0.267765 0.139620 0.141238
0.320409 0.129885 0.139132
0.380774 0.111879 0.136385
0.445838 0.078706 0.132509
0.511162 0.000000 0.127932
0.572656 0.000000 0.122530
0.625208 0.000000 0.117281
0.669825 0.000000 0.112154
0.709560 0.000000 0.106996
0.749660 0.000000 0.101381
0.783352 0.000000 0.096620
0.814237 0.000000 0.092348
0.843259 0.000000 0.088655
0.870787 0.102693 0.086305
0.896727 0.150851 0.085847
0.921569 0.189181 0.087861
0.945373 0.223392 0.092378
0.968475 0.255283 0.100557
0.991211 0.285832 0.112154
1.000000 0.315526 0.128481
1.000000 0.344060 0.148928
1.000000 0.372107 0.174319
1.000000 0.399329 0.204410
1.000000 0.425818 0.239078
0.130251 0.146487 0.143832
0.131533 0.146456 0.143801
0.132570 0.146487 0.143954
0.136141 0.147097 0.144289
0.145418 0.148135 0.144259
0.162173 0.148867 0.144045
0.187015 0.149142 0.143526
0.220462 0.147829 0.142763
0.263188 0.144167 0.141451
0.315099 0.135714 0.139559
0.374975 0.120211 0.136660
0.439765 0.093416 0.132967
0.505455 0.015595 0.128298
0.567498 0.000000 0.123079
0.620783 0.000000 0.117769
0.666072 0.000000 0.112581
0.706844 0.000000 0.107424
0.746212 0.000000 0.101869
0.779782 0.000000 0.097261
0.810697 0.000000 0.093141
0.839902 0.035523 0.089448
0.867582 0.114321 0.086976
0.893706 0.158541 0.086763
0.918669 0.194736 0.088258
0.942626 0.227970 0.092988
0.965942 0.258854 0.100649
0.988922 0.288914 0.112398
1.000000 0.318242 0.128450
1.000000 0.346502 0.148867
1.000000 0.374243 0.174228
1.000000 0.401221 0.204196
1.000000 0.427527 0.238865
0.130159 0.150271 0.144167
0.132113 0.149996 0.144289
0.134188 0.149844 0.144411
0.137392 0.150332 0.144442
0.145480 0.151827 0.144900
0.158633 0.152865 0.144747
0.182162 0.154299 0.144198
0.214725 0.154574 0.143221
0.256138 0.152499 0.141909
0.307256 0.146548 0.140017
0.366308 0.134981 0.137148
0.430854 0.115084 0.133639
0.496468 0.082460 0.129152
0.559167 0.000000 0.124117
0.613886 0.000000 0.118502
0.660060 0.000000 0.113405
0.702724 0.000000 0.108095
0.741238 0.000000 0.103029
0.774258 0.000000 0.098421
0.804807 0.000000 0.094697
0.833890 0.093324 0.091035
0.861631 0.137545 0.088746
0.888273 0.175174 0.088106
0.914092 0.208896 0.089906
0.939117 0.240604 0.094728
0.963470 0.270817 0.103029
0.987213 0.300023 0.115358
1.000000 0.328740 0.132143
1.000000 0.356176 0.153048
1.000000 0.382757 0.178378
1.000000 0.408606 0.208225
1.000000 0.433753 0.242252
0.129763 0.158755 0.144503
0.132235 0.158419 0.144320
0.135592 0.157961 0.144594
0.140780 0.158145 0.144747
0.148318 0.159762 0.144717
0.162631 0.161807 0.144900
0.176150 0.160769 0.145205
0.205539 0.162722 0.144259
0.245151 0.163241 0.142916
0.294438 0.160708 0.140993
0.352483 0.153475 0.138338
0.416510 0.140688 0.134859
0.482673 0.120882 0.130526
0.546685 0.094270 0.125399
0.603693 0.061921 0.120119
0.651942 0.005249 0.114687
0.697444 0.000000 0.109133
0.736019 0.026184 0.104250
0.769375 0.075715 0.100069
0.800168 0.108583 0.096284
0.829221 0.140597 0.093263
0.857053 0.172366 0.091402
0.883848 0.202976 0.091279
0.910002 0.232425 0.093385
0.935424 0.261021 0.098817
0.960235 0.289158 0.107424
0.984283 0.316625 0.120241
1.000000 0.343175 0.137026
1.000000 0.369085 0.158175
1.000000 0.394507 0.183841
1.000000 0.419226 0.213779
1.000000 0.443427 0.247990
0.127718 0.174014 0.144320
0.130922 0.173800 0.143954
0.135653 0.173098 0.144076
0.144747 0.171481 0.144625
0.154269 0.173739 0.144472
0.168643 0.176974 0.144167
0.191470 0.179873 0.144350
0.208194 0.176150 0.144869
0.233921 0.174868 0.144656
0.281651 0.175845 0.142672
0.338506 0.173404 0.140078
0.402289 0.166354 0.136873
0.468727 0.154818 0.132479
0.534081 0.140383 0.127504
0.593225 0.126864 0.121889
0.645350 0.118837 0.116274
0.691676 0.119814 0.110842
0.730434 0.129183 0.106233
0.764462 0.144015 0.102266
0.795895 0.163973 0.098909
0.825620 0.187320 0.096498
0.854154 0.212436 0.095247
0.909148 0.276707 0.104402
0.934020 0.300877 0.111849
0.957702 0.323919 0.121920
0.980346 0.346258 0.134890
1.000000 0.368109 0.151156
1.000000 0.389532 0.170779
1.000000 0.410925 0.193942
1.000000 0.432227 0.221042
1.000000 0.453285 0.251530
1.000000 0.473762 0.284855
0.123415 0.201602 0.143191
0.127565 0.200992 0.142550
0.134157 0.200229 0.142794
0.147097 0.198337 0.143343
0.163210 0.198093 0.143679
0.181155 0.203159 0.143435
0.206546 0.209140 0.142824
0.241733 0.212894 0.142824
0.261387 0.203433 0.143984
0.281071 0.195254 0.145113
0.333349 0.195346 0.142794
0.398383 0.193637 0.139132
0.465919 0.188663 0.134737
0.532067 0.181857 0.129305
0.591760 0.176455 0.123568
0.648157 0.177371 0.117800
0.693965 0.182376 0.112734
0.732662 0.191562 0.108339
0.767086 0.204562 0.105104
0.799710 0.222263 0.102724
0.831388 0.244266 0.101656
0.862425 0.269078 0.103059
0.892515 0.295323 0.107546
0.921355 0.320958 0.115663
0.948394 0.345525 0.127352
0.973205 0.367712 0.141756
0.996185 0.388708 0.159030
1.000000 0.408789 0.179080
1.000000 0.428748 0.202731
1.000000 0.448646 0.229801
1.000000 0.468330 0.260227
1.000000 0.487770 0.293858
0.116213 0.235721 0.141390
0.121462 0.235172 0.140383
0.129335 0.234257 0.140841
0.145785 0.232242 0.141360
0.168795 0.228946 0.142458
0.190188 0.233097 0.142214
0.217472 0.241154 0.141512
0.254368 0.250065 0.140536
0.301823 0.255070 0.140291
0.323430 0.239353 0.142458
0.343938 0.225956 0.144045
0.377417 0.218112 0.143771
0.445136 0.218997 0.139376
0.512535 0.218021 0.134066
0.580682 0.219760 0.127993
0.636378 0.223270 0.121981
0.682521 0.229129 0.117281
0.721798 0.237217 0.113344
0.756954 0.248569 0.110445
0.790280 0.263798 0.108583
0.822477 0.282780 0.108461
0.853880 0.304692 0.110628
0.884276 0.327977 0.116121
0.913512 0.350896 0.124666
0.941009 0.372808 0.136812
0.966400 0.393133 0.151827
0.990051 0.412116 0.169345
1.000000 0.430610 0.189761
1.000000 0.449226 0.213840
1.000000 0.467689 0.241306
1.000000 0.486305 0.272435
1.000000 0.504601 0.306249
0.103670 0.280461 0.137758
0.110475 0.279820 0.136904
0.120699 0.278996 0.137362
0.141329 0.276829 0.138064
0.169650 0.273655 0.139467
0.200809 0.271214 0.140719
0.229648 0.280949 0.139773
0.268864 0.292638 0.138033
0.318700 0.304662 0.136110
0.378943 0.312779 0.135683
0.400183 0.289921 0.139376
0.419135 0.269505 0.142031
0.437385 0.252171 0.144137
0.498909 0.253666 0.140200
0.566613 0.259434 0.134188
0.623163 0.265415 0.128389
0.670558 0.272221 0.123720
0.711025 0.280613 0.120150
0.747189 0.291112 0.117678
0.781308 0.305028 0.116579
0.814145 0.322271 0.117311
0.846036 0.342016 0.120394
0.876829 0.362921 0.126894
0.906371 0.383612 0.136568
0.934295 0.403235 0.149691
0.960235 0.421241 0.165164
0.984405 0.438605 0.183383
1.000000 0.455421 0.204440
1.000000 0.472419 0.228702
1.000000 0.489479 0.256687
1.000000 0.506706 0.287938
1.000000 0.523796 0.321874
0.080323 0.334966 0.131380
0.091157 0.334386 0.131197
0.105318 0.333410 0.131716
0.132235 0.331334 0.132631
0.166751 0.328099 0.134279
0.206668 0.323491 0.136538
0.243259 0.327398 0.136904
0.283635 0.340185 0.135042
0.335180 0.355322 0.132265
0.395727 0.370123 0.129610
0.463966 0.381079 0.129397
0.486275 0.354192 0.135042
0.505058 0.329839 0.139376
0.521202 0.307469 0.142550
0.548302 0.294255 0.143008
0.608148 0.303716 0.137240
0.658320 0.313115 0.132570
0.700954 0.322576 0.129335
0.738430 0.333471 0.127687
0.773404 0.346532 0.127413
0.806424 0.362036 0.128817
0.837980 0.379217 0.133028
0.868376 0.397101 0.140017
0.897642 0.414832 0.149996
0.925658 0.431891 0.163088
0.952056 0.448280 0.179263
0.977081 0.464363 0.197879
1.000000 0.480323 0.220066
1.000000 0.496498 0.245701
1.000000 0.512779 0.274754
1.000000 0.529320 0.307347
1.000000 0.545739 0.342565
0.000000 0.394965 0.122988
0.043732 0.394537 0.122896
0.077150 0.393774 0.123415
0.115663 0.392065 0.124727
0.159609 0.389227 0.126925
0.207401 0.385321 0.129641
0.259281 0.379644 0.133150
0.300847 0.393042 0.131228
0.352636 0.408515 0.128481
0.416571 0.428168 0.124758
0.486976 0.447944 0.122438
0.557519 0.463203 0.125490
0.571283 0.429572 0.133394
0.582910 0.398749 0.139040
0.593103 0.371283 0.142947
0.602564 0.346807 0.146456
0.641871 0.348150 0.144137
0.686610 0.359045 0.141085
0.725795 0.370123 0.139559
0.762051 0.383032 0.139803
0.796139 0.397833 0.142458
0.828672 0.413916 0.147280
0.859861 0.430701 0.155703
0.889769 0.447059 0.166964
0.918334 0.462806 0.180941
0.945251 0.477607 0.197665
0.970672 0.492164 0.216892
0.994690 0.506767 0.239445
1.000000 0.521569 0.265385
1.000000 0.536706 0.294957
1.000000 0.552087 0.327825
1.000000 0.567590 0.363409
0.000000 0.460578 0.111086
0.000000 0.460182 0.111604
0.000000 0.459358 0.112612
0.088838 0.457923 0.114199
0.148501 0.455512 0.116884
0.206027 0.451881 0.120272
0.266117 0.446876 0.124880
0.322667 0.450324 0.127047
0.377234 0.468238 0.124697
0.440375 0.487251 0.122347
0.508690 0.506584 0.121553
0.573114 0.523064 0.124819
0.663783 0.564935 0.154299
0.670253 0.529442 0.156863
0.675349 0.495796 0.158663
0.680049 0.464759 0.160281
0.685176 0.436805 0.161868
0.697444 0.418524 0.163058
0.735897 0.429725 0.163302
0.771450 0.441871 0.165866
0.804715 0.454688 0.170748
0.836210 0.468147 0.178286
0.866178 0.481422 0.188510
0.895048 0.494667 0.201511
0.922667 0.507408 0.217105
0.948760 0.519829 0.235142
0.973327 0.532036 0.255467
0.996490 0.544182 0.278294
1.000000 0.556695 0.304265
1.000000 0.569696 0.333593
1.000000 0.583062 0.365606
1.000000 0.596704 0.399969
0.000000 0.537499 0.095979
0.000000 0.537530 0.096834
0.000000 0.536889 0.097902
0.010071 0.535912 0.100618
0.137758 0.534112 0.104372
0.210697 0.531029 0.109194
0.281712 0.526909 0.115480
0.352941 0.521569 0.123049
0.411383 0.532341 0.124758
0.472694 0.548455 0.126589
0.537285 0.565667 0.131807
0.600488 0.583612 0.141726
0.656794 0.599115 0.158602
0.705409 0.609308 0.187015
0.711452 0.577325 0.185550
0.715755 0.546471 0.183719
0.719417 0.517174 0.181918
0.723476 0.490547 0.180819
0.729274 0.467811 0.181094
0.755886 0.469123 0.183627
0.790585 0.482063 0.188998
0.823270 0.495277 0.196963
0.854063 0.508293 0.207767
0.883726 0.520958 0.221195
0.912047 0.533196 0.237003
0.938903 0.545037 0.255375
0.964324 0.556634 0.276005
0.988220 0.568292 0.299535
1.000000 0.580194 0.325841
1.000000 0.592767 0.355779
1.000000 0.605676 0.388342
1.000000 0.618952 0.423255
0.000000 0.600824 0.090028
0.000000 0.600519 0.091096
0.000000 0.599542 0.092775
0.000000 0.597742 0.096132
0.132296 0.594629 0.100801
0.214450 0.590387 0.107271
0.290257 0.585321 0.114656
0.364141 0.579248 0.123354
0.432807 0.576165 0.132204
0.488350 0.588464 0.137545
0.545922 0.602014 0.146151
0.602625 0.616510 0.159182
0.656275 0.631373 0.176394
0.703304 0.643580 0.198581
0.744442 0.652064 0.231724
0.747890 0.620844 0.223972
0.750149 0.590723 0.216739
0.752743 0.563043 0.211246
0.756802 0.538476 0.207736
0.763363 0.518578 0.206638
0.775906 0.506737 0.208652
0.809964 0.520439 0.217624
0.841978 0.533715 0.229007
0.872618 0.546593 0.243076
0.901823 0.558709 0.259709
0.929595 0.570306 0.278721
0.955779 0.581598 0.299992
0.980499 0.592889 0.323949
1.000000 0.604547 0.351080
1.000000 0.616754 0.381506
1.000000 0.629358 0.414588
1.000000 0.642329 0.449409
0.000000 0.650019 0.098543
0.000000 0.649775 0.099977
0.000000 0.648737 0.101259
0.000000 0.646601 0.104463
0.136446 0.643153 0.109560
0.221897 0.638605 0.115602
0.298924 0.633204 0.123568
0.373510 0.626978 0.132723
0.445686 0.620294 0.143771
0.504021 0.623560 0.153964
0.555444 0.634455 0.164950
0.606500 0.646479 0.179904
0.655451 0.659052 0.198367
0.701350 0.671687 0.219760
0.741054 0.681331 0.244572
0.776516 0.688472 0.280095
0.778561 0.658503 0.267338
0.780026 0.629969 0.255802
0.782742 0.604486 0.247410
0.787594 0.582818 0.242374
0.794888 0.565454 0.240513
0.804868 0.552544 0.241978
0.829129 0.556756 0.251011
0.860777 0.569940 0.265873
0.891051 0.582422 0.283391
0.919951 0.594415 0.303441
0.947387 0.606226 0.326360
0.973388 0.618128 0.352392
0.997620 0.630304 0.381445
1.000000 0.642939 0.413550
1.000000 0.655848 0.447761
1.000000 0.668482 0.482155
0.000000 0.690730 0.118013
0.000000 0.690547 0.119600
0.000000 0.689876 0.120974
0.000000 0.688197 0.124239
0.152102 0.685420 0.128817
0.236332 0.681636 0.135195
0.312993 0.676967 0.143191
0.387488 0.671351 0.152865
0.458961 0.664942 0.164279
0.524285 0.658289 0.177981
0.569482 0.666621 0.190097
0.614130 0.675776 0.205295
0.657191 0.685267 0.223117
0.698177 0.695064 0.243107
0.736782 0.704891 0.265110
0.770474 0.712154 0.289555
0.802335 0.719051 0.327062
0.804318 0.691005 0.311742
0.806546 0.665064 0.298833
0.810666 0.642939 0.289921
0.816953 0.624475 0.284581
0.825437 0.609888 0.283207
0.836179 0.599237 0.285649
0.850736 0.594018 0.293248
0.882139 0.607202 0.312016
0.912047 0.619745 0.333562
0.940398 0.631891 0.357610
0.967041 0.643977 0.384588
0.991791 0.656092 0.414130
1.000000 0.668360 0.445655
1.000000 0.680507 0.477913
1.000000 0.692287 0.510216
0.000000 0.724453 0.143313
0.000000 0.723995 0.144106
0.000000 0.723201 0.145724
0.067842 0.721553 0.148562
0.172274 0.718959 0.152926
0.250675 0.715389 0.158785
0.324681 0.710903 0.166323
0.396674 0.705470 0.175540
0.465461 0.699397 0.186587
0.528405 0.693050 0.199680
0.579339 0.692164 0.214237
0.619654 0.700038 0.229648
0.659022 0.708400 0.247623
0.696681 0.716945 0.267369
0.732387 0.725490 0.288701
0.766018 0.733944 0.310979
0.795834 0.739895 0.335363
0.825315 0.746944 0.374609
0.827878 0.721004 0.358007
0.831052 0.697597 0.344518
0.836088 0.677668 0.334966
0.843076 0.661280 0.329564
0.852201 0.648463 0.328466
0.863706 0.639582 0.332280
0.877623 0.634577 0.341314
0.901579 0.640955 0.360113
0.931029 0.653864 0.385473
0.958770 0.666590 0.413275
0.984466 0.679255 0.443397
1.000000 0.691737 0.474617
1.000000 0.703883 0.506188
1.000000 0.715267 0.537346
0.000000 0.755520 0.173373
0.000000 0.755489 0.174990
0.090913 0.771267 0.196262
0.161257 0.769467 0.198703
0.229709 0.766567 0.202701
0.297002 0.762478 0.207706
0.364813 0.757351 0.214267
0.431098 0.751369 0.222385
0.494240 0.744961 0.232792
0.551965 0.738491 0.245335
0.603937 0.732113 0.259556
0.641321 0.735622 0.275273
0.675135 0.741939 0.292332
0.708003 0.748653 0.311070
0.739590 0.755489 0.331060
0.769986 0.762417 0.351781
0.799527 0.769314 0.373724
0.826017 0.773770 0.396979
0.852934 0.780117 0.436103
0.855680 0.755856 0.418250
0.859312 0.734096 0.403357
0.864866 0.715724 0.393103
0.872343 0.700771 0.387427
0.881804 0.689235 0.386664
0.893187 0.681025 0.390631
0.906798 0.676600 0.400427
0.922911 0.676448 0.416876
0.950774 0.688869 0.443427
0.976989 0.701411 0.471931
1.000000 0.713893 0.501976
1.000000 0.726009 0.532769
1.000000 0.736568 0.561883
0.020661 0.787686 0.211734
0.094301 0.789273 0.215427
0.136477 0.790646 0.219394
0.191867 0.790860 0.224460
0.252781 0.789609 0.229984
0.315465 0.786618 0.236027
0.378637 0.782223 0.242466
0.440681 0.776822 0.250462
0.499947 0.771084 0.260258
0.554314 0.765133 0.271977
0.604303 0.759213 0.285405
0.646998 0.755550 0.300511
0.677760 0.761105 0.316930
0.707820 0.766934 0.334539
0.736995 0.772915 0.353094
0.765286 0.778927 0.372656
0.792966 0.785031 0.393011
0.820340 0.791196 0.414130
0.845212 0.795254 0.436835
0.871244 0.802090 0.475715
0.874601 0.780087 0.459876
0.879362 0.760861 0.447486
0.885863 0.744564 0.438849
0.894194 0.731472 0.434791
0.904234 0.721431 0.435279
0.916381 0.714931 0.441382
0.930602 0.712184 0.453712
0.947021 0.713527 0.472877
0.969451 0.722377 0.499397
0.994476 0.735164 0.528801
1.000000 0.747372 0.558862
1.000000 0.757290 0.586053
0.135561 0.812070 0.243626
0.160494 0.813321 0.247410
0.187228 0.814450 0.251286
0.229862 0.814542 0.255955
0.282139 0.813291 0.261448
0.338079 0.810452 0.267094
0.395880 0.806394 0.273381
0.452918 0.801541 0.280858
0.507744 0.796353 0.290074
0.559136 0.790921 0.301122
0.606592 0.785550 0.314092
0.649897 0.780179 0.328435
0.682795 0.780758 0.343694
0.710323 0.785885 0.360540
0.737179 0.791104 0.378058
0.763424 0.796384 0.396185
0.789303 0.801724 0.415015
0.815030 0.807187 0.434638
0.840940 0.812894 0.454749
0.864622 0.816587 0.475868
0.889342 0.823423 0.513573
0.893370 0.803616 0.500023
0.898924 0.786465 0.489662
0.906065 0.772000 0.482948
0.914855 0.760342 0.480171
0.925475 0.751797 0.482277
0.938079 0.746700 0.490059
0.952789 0.745449 0.504356
0.969451 0.748196 0.525597
0.987427 0.754788 0.553460
1.000000 0.766659 0.581781
1.000000 0.776608 0.608362
0.196872 0.835325 0.278538
0.213016 0.836484 0.281163
0.234012 0.837400 0.285008
0.269078 0.837369 0.289647
0.314031 0.836088 0.294835
0.363470 0.833433 0.300206
0.415106 0.829709 0.306035
0.466896 0.825254 0.313054
0.517388 0.820401 0.321721
0.565148 0.815396 0.331884
0.609766 0.810361 0.343786
0.651026 0.805325 0.357031
0.688685 0.800168 0.371130
0.714076 0.804410 0.386908
0.738949 0.809140 0.403693
0.763638 0.814084 0.421241
0.788357 0.819364 0.439918
0.813169 0.824887 0.458930
0.838315 0.830686 0.478737
0.863737 0.836667 0.499092
0.886625 0.840665 0.520134
0.909209 0.846311 0.554833
0.914794 0.829801 0.546044
0.921294 0.814847 0.538109
0.929290 0.802457 0.533745
0.938903 0.792782 0.533501
0.950256 0.786160 0.538231
0.963470 0.782956 0.548760
0.978363 0.783291 0.565545
0.994324 0.787106 0.588464
1.000000 0.792782 0.614649
1.000000 0.800931 0.641596
0.267582 0.863127 0.326665
0.276249 0.863493 0.326787
0.290379 0.863401 0.328862
0.317082 0.862486 0.331701
0.353765 0.860655 0.335515
0.395972 0.857847 0.340002
0.441199 0.854337 0.345403
0.487343 0.850431 0.352300
0.533135 0.846281 0.360754
0.577264 0.841978 0.370886
0.619013 0.837675 0.382605
0.657984 0.833219 0.395392
0.693843 0.828580 0.408728
0.723354 0.826963 0.422919
0.745968 0.830930 0.438087
0.768582 0.835080 0.453712
0.791348 0.839414 0.469917
0.814420 0.844022 0.486549
0.837766 0.848753 0.503777
0.861357 0.853635 0.521355
0.884916 0.858579 0.539208
0.905913 0.861448 0.557519
0.925383 0.864775 0.587427
0.931273 0.850095 0.580560
0.937957 0.836362 0.573510
0.946258 0.825284 0.570397
0.956329 0.817044 0.571984
0.968139 0.812009 0.578973
0.981537 0.810239 0.591913
0.995544 0.811124 0.609522
1.000000 0.814389 0.631434
1.000000 0.819974 0.657008
0.316808 0.883452 0.364385
0.322393 0.883879 0.363470
0.334112 0.883909 0.365545
0.356847 0.883024 0.368414
0.387854 0.881285 0.371954
0.424018 0.878691 0.375952
0.463203 0.875456 0.380743
0.503868 0.871763 0.386786
0.545220 0.867887 0.394476
0.585657 0.863859 0.403662
0.624475 0.859831 0.414343
0.661067 0.855741 0.426032
0.695216 0.851499 0.438178
0.727291 0.847166 0.450996
0.750546 0.848753 0.464515
0.771664 0.852445 0.478737
0.792996 0.856352 0.493507
0.814786 0.860441 0.508812
0.836881 0.864622 0.524712
0.859220 0.869017 0.541009
0.881621 0.873503 0.557641
0.903929 0.877989 0.574487
0.923613 0.880430 0.591760
0.940703 0.882261 0.618860
0.944976 0.867063 0.609339
0.952117 0.854826 0.603693
0.960967 0.845243 0.602625
0.971435 0.838590 0.606470
0.983307 0.834806 0.615473
0.995727 0.833402 0.628717
1.000000 0.834745 0.646998
1.000000 0.838376 0.669154
0.375677 0.906584 0.412451
0.379217 0.907103 0.411139
0.388006 0.907012 0.412329
0.405646 0.906004 0.414527
0.430121 0.904204 0.417060
0.459449 0.901640 0.420111
0.492226 0.898497 0.423896
0.527001 0.894865 0.428534
0.562860 0.890898 0.434363
0.598505 0.886870 0.441535
0.633265 0.882658 0.449744
0.666712 0.878508 0.459083
0.698634 0.874266 0.469215
0.728817 0.869902 0.479774
0.756130 0.866270 0.490547
0.775082 0.868864 0.502068
0.794553 0.871641 0.514214
0.814603 0.874754 0.527276
0.835294 0.878294 0.541375
0.856413 0.882170 0.556420
0.877745 0.886229 0.571954
0.898955 0.890257 0.587701
0.919799 0.894041 0.603265
0.937865 0.895598 0.618738
0.952392 0.895720 0.642359
0.958709 0.884184 0.639643
0.966217 0.873411 0.635798
0.975311 0.865232 0.636469
0.985321 0.859251 0.640864
0.996307 0.855955 0.650324
1.000000 0.855375 0.664729
1.000000 0.857115 0.683253
0.415564 0.923705 0.447761
0.418708 0.924193 0.446906
0.424109 0.924254 0.446448
0.438697 0.923400 0.448341
0.459358 0.921752 0.450629
0.484627 0.919554 0.453468
0.513237 0.916838 0.457038
0.544091 0.913725 0.461555
0.576379 0.910307 0.467048
0.608972 0.906859 0.473854
0.641077 0.903258 0.481483
0.672633 0.899687 0.490333
0.702876 0.896025 0.499886
0.731868 0.892210 0.509728
0.759640 0.888212 0.519890
0.781888 0.887419 0.530388
0.800107 0.889769 0.541344
0.818875 0.892363 0.553063
0.838224 0.895293 0.565698
0.858000 0.898497 0.579248
0.877897 0.901793 0.593286
0.897795 0.905058 0.607568
0.917418 0.908232 0.621729
0.936584 0.911192 0.635706
0.953063 0.912047 0.649683
0.965270 0.910704 0.670710
0.971588 0.900633 0.670283
0.979187 0.891081 0.667781
0.987945 0.883848 0.669490
0.997559 0.879118 0.675807
1.000000 0.876860 0.686732
1.000000 0.876799 0.701625
0.455329 0.941253 0.484962
0.457618 0.941558 0.483803
0.459693 0.941619 0.481422
0.471382 0.940703 0.482734
0.488228 0.939117 0.484352
0.509392 0.937041 0.486458
0.533959 0.934478 0.489326
0.561028 0.931640 0.493111
0.589868 0.928618 0.498024
0.619287 0.925536 0.504051
0.648920 0.922332 0.511070
0.678279 0.919188 0.519280
0.706935 0.915923 0.527977
0.734707 0.912505 0.537194
0.761440 0.908873 0.546532
0.787564 0.905089 0.556176
0.805447 0.906310 0.565850
0.822934 0.908324 0.576257
0.840940 0.910643 0.587549
0.859373 0.913207 0.599634
0.878050 0.915862 0.612390
0.896696 0.918547 0.625452
0.915129 0.921111 0.638483
0.933257 0.923552 0.651453
0.950927 0.925811 0.664118
0.965728 0.925811 0.676326
0.975677 0.923095 0.694545
0.981628 0.913970 0.695277
0.988983 0.905394 0.694026
0.997436 0.899413 0.697444
1.000000 0.895659 0.705135
1.000000 0.894072 0.716732
0.488167 0.956817 0.517418
0.489754 0.956970 0.516258
0.491463 0.957031 0.514092
0.499519 0.956451 0.513725
0.514458 0.955200 0.515587
0.533440 0.953674 0.518456
0.556023 0.951965 0.522515
0.580987 0.950164 0.527703
0.607843 0.948211 0.534142
0.635462 0.946258 0.541588
0.663325 0.944182 0.549859
0.691005 0.942016 0.558770
0.718135 0.939696 0.567987
0.744717 0.937041 0.577417
0.770626 0.934112 0.586786
0.795987 0.930816 0.595911
0.818479 0.928679 0.605158
0.834470 0.930053 0.614313
0.851011 0.931640 0.624262
0.867887 0.933379 0.634791
0.884916 0.935149 0.645960
0.901976 0.936950 0.657343
0.918639 0.938537 0.668421
0.934936 0.939879 0.679133
0.950866 0.941039 0.689693
0.966369 0.942046 0.700008
0.979370 0.941222 0.710506
0.986847 0.937102 0.725856
0.992157 0.928954 0.727871
0.998871 0.921416 0.727871
1.000000 0.916350 0.732448
1.000000 0.913146 0.740383
0.530755 0.975433 0.560784
0.531853 0.975555 0.559655
0.532982 0.975463 0.557733
0.537499 0.975006 0.555322
0.549310 0.973846 0.556664
0.564599 0.972320 0.558618
0.582971 0.970611 0.561486
0.603723 0.968688 0.565209
0.626398 0.966613 0.569909
0.650294 0.964446 0.575555
0.674800 0.962127 0.581903
0.699611 0.959747 0.588952
0.724453 0.957214 0.596582
0.749172 0.954498 0.604517
