data/fiter_cube/57993848/1023156/file.cube
# Created by Adobe Lightroom plugin Export LUT (1.17.0)
# www.johnrellis.com/lightroom/exportlut.htm
# Preset: 萌宠摄影后期_03 云集
# Color profile: C:\Program Files (x86)\Common Files\Adobe\Color\Profiles\Recommended\AdobeRGB1998.icc
LUT_3D_SIZE 5
DOMAIN_MIN 0.000000 0.000000 0.000000
DOMAIN_MAX 0.903226 0.903226 0.903226
0.130434 0.144442 0.143679
0.227726 0.141573 0.142336
0.630732 0.000000 0.116609
0.876158 0.100008 0.085786
1.000000 0.344976 0.151431
0.116213 0.235721 0.141390
0.254368 0.250065 0.140536
0.580682 0.219760 0.127993
0.853880 0.304692 0.110628
1.000000 0.449226 0.213840
0.000000 0.650019 0.098543
0.373510 0.626978 0.132723
0.741054 0.681331 0.244572
0.804868 0.552544 0.241978
0.997620 0.630304 0.381445
0.267582 0.863127 0.326665
0.487343 0.850431 0.352300
0.745968 0.830930 0.438087
0.905913 0.861448 0.557519
0.981537 0.810239 0.591913
0.558892 0.988708 0.591333
0.621210 0.983215 0.594965
0.771786 0.963470 0.626917
0.901091 0.958495 0.688869
0.994324 0.957885 0.750088
0.119722 0.142977 0.215152
0.208469 0.132601 0.205570
0.644617 0.000000 0.177218
0.864225 0.000000 0.197696
1.000000 0.331029 0.249271
0.104707 0.198001 0.225681
0.227481 0.231113 0.219730
0.615503 0.211032 0.210239
0.846159 0.290196 0.218143
1.000000 0.435157 0.291020
0.000000 0.638544 0.367864
0.300267 0.624445 0.277989
0.703975 0.654078 0.385565
0.787228 0.539696 0.309728
0.992309 0.630304 0.437934
0.394354 0.852476 0.522698
0.473487 0.849058 0.462470
0.739101 0.823911 0.521355
0.895842 0.859098 0.626001
0.974456 0.808774 0.623774
0.594934 0.984283 0.672694
0.614191 0.983368 0.638727
0.770871 0.967987 0.674311
0.901671 0.959472 0.725032
0.991455 0.959106 0.780575
0.000000 0.117678 0.590661
0.210269 0.072511 0.565332
0.600336 0.000000 0.518975
0.860227 0.000000 0.470619
1.000000 0.206668 0.454139
0.000000 0.181949 0.619165
0.214359 0.221225 0.586969
0.614832 0.166995 0.529290
0.853819 0.244327 0.481971
1.000000 0.405188 0.502098
0.000000 0.511864 0.609125
0.195285 0.541802 0.597436
0.622004 0.595911 0.568353
0.813199 0.584314 0.540673
0.995392 0.628077 0.579339
0.163821 0.854704 0.738003
0.431403 0.840970 0.714199
0.688014 0.821042 0.660029
0.876158 0.856138 0.749599
0.955871 0.791775 0.678859
0.558801 0.982818 0.788632
0.627558 0.978790 0.787350
0.733577 0.972778 0.752651
0.893309 0.956298 0.788144
0.982971 0.959380 0.838499
0.000000 0.000000 0.835416
0.231815 0.000000 0.828000
0.565362 0.000000 0.796872
0.817563 0.000000 0.762264
1.000000 0.314702 0.724605
0.000000 0.161837 0.843320
0.242588 0.171603 0.834104
0.578882 0.149905 0.799741
0.812680 0.247715 0.759701
0.995392 0.417060 0.729000
0.000000 0.455695 0.849668
0.183871 0.506798 0.844450
0.631250 0.603296 0.808865
0.797452 0.577935 0.755398
0.988769 0.599847 0.745510
0.000000 0.735836 0.837766
0.359716 0.743832 0.832120
0.633326 0.775357 0.823392
0.809567 0.802213 0.799832
0.972717 0.788785 0.782284
0.357366 0.993957 0.935943
0.479194 0.988495 0.926116
0.687984 0.976684 0.897734
0.855131 0.963287 0.861814
0.974609 0.962249 0.906340
0.000000 0.000000 0.969268
0.233860 0.000000 0.966247
0.547509 0.000000 0.957244
0.757015 0.000000 0.939574
0.965332 0.000000 0.911803
0.000000 0.000000 0.967895
0.198459 0.000000 0.964965
0.542382 0.000000 0.956115
0.753597 0.000000 0.935149
0.958953 0.242832 0.907958
0.000000 0.201266 0.975616
0.000000 0.232761 0.972503
0.572686 0.502464 0.952300
0.751583 0.496132 0.930053
0.951476 0.538140 0.908202
0.000000 0.607019 0.968688
0.000000 0.624537 0.966033
0.493690 0.686976 0.959564
0.784604 0.775631 0.944610
0.955291 0.775723 0.925200
0.000000 0.848478 0.967712
0.193454 0.853208 0.965759
0.579675 0.877134 0.962371
0.801541 0.918395 0.957031
0.950622 0.947753 0.947387
