data/fiter_cube/57993848/1023156/file.cube
# Created by Adobe Lightroom plugin Export LUT (1.17.0)
# www.johnrellis.com/lightroom/exportlut.htm
# Preset: 萌宠摄影后期_03 云集
# Color profile: C:\Program Files (x86)\Common Files\Adobe\Color\Profiles\Recommended\AdobeRGB1998.icc
LUT_3D_SIZE 8
DOMAIN_MIN 0.000000 0.000000 0.000000
DOMAIN_MAX 0.903226 0.903226 0.903226
0.130434 0.144442 0.143679
0.147921 0.144900 0.143679
0.272068 0.136049 0.140963
0.517723 0.000000 0.127352
0.713527 0.000000 0.106386
0.848753 0.000000 0.087739
0.949950 0.224338 0.093385
1.000000 0.344976 0.151431
0.129763 0.158755 0.144503
0.148318 0.159762 0.144717
0.245151 0.163241 0.142916
0.482673 0.120882 0.130526
0.697444 0.000000 0.109133
0.829221 0.140597 0.093263
0.935424 0.261021 0.098817
1.000000 0.369085 0.158175
0.103670 0.280461 0.137758
0.169650 0.273655 0.139467
0.318700 0.304662 0.136110
0.437385 0.252171 0.144137
0.670558 0.272221 0.123720
0.814145 0.322271 0.117311
0.934295 0.403235 0.149691
1.000000 0.472419 0.228702
0.000000 0.537499 0.095979
0.137758 0.534112 0.104372
0.411383 0.532341 0.124758
0.656794 0.599115 0.158602
0.719417 0.517174 0.181918
0.790585 0.482063 0.188998
0.912047 0.533196 0.237003
1.000000 0.580194 0.325841
0.000000 0.724453 0.143313
0.172274 0.718959 0.152926
0.465461 0.699397 0.186587
0.659022 0.708400 0.247623
0.795834 0.739895 0.335363
0.836088 0.677668 0.334966
0.877623 0.634577 0.341314
0.984466 0.679255 0.443397
0.196872 0.835325 0.278538
0.314031 0.836088 0.294835
0.517388 0.820401 0.321721
0.688685 0.800168 0.371130
0.788357 0.819364 0.439918
0.886625 0.840665 0.520134
0.929290 0.802457 0.533745
0.978363 0.783291 0.565545
0.415564 0.923705 0.447761
0.459358 0.921752 0.450629
0.576379 0.910307 0.467048
0.702876 0.896025 0.499886
0.800107 0.889769 0.541344
0.877897 0.901793 0.593286
0.953063 0.912047 0.649683
0.987945 0.883848 0.669490
0.558892 0.988708 0.591333
0.573236 0.987488 0.586358
0.641505 0.981445 0.599634
0.732235 0.973419 0.625971
0.819211 0.957916 0.644068
0.886259 0.957671 0.679408
0.944488 0.960143 0.716640
0.994324 0.957885 0.750088
0.129152 0.144350 0.155581
0.143282 0.143404 0.154452
0.270634 0.116121 0.150301
0.513207 0.000000 0.145174
0.708675 0.000000 0.132967
0.831022 0.000000 0.126467
0.934722 0.199527 0.133242
1.000000 0.330571 0.176608
0.127657 0.152865 0.157076
0.145998 0.158968 0.156741
0.258183 0.158541 0.156191
0.491707 0.102541 0.148867
0.696315 0.000000 0.136202
0.819821 0.118196 0.130068
0.923491 0.243687 0.136812
1.000000 0.354498 0.180301
0.101503 0.273472 0.186160
0.150576 0.271366 0.162356
0.306065 0.294560 0.171115
0.435096 0.251499 0.166506
0.662470 0.265324 0.152316
0.801602 0.308110 0.150576
0.915526 0.381231 0.172000
1.000000 0.456855 0.237491
0.000000 0.521996 0.200992
0.093935 0.521508 0.155032
0.393042 0.512108 0.177096
0.622644 0.569299 0.211887
0.681239 0.480659 0.204532
0.767575 0.457282 0.201663
0.891630 0.511101 0.239384
0.998444 0.565759 0.322332
0.000000 0.716762 0.253788
0.130861 0.713191 0.205417
0.445441 0.692103 0.231052
0.641779 0.692622 0.281712
0.777737 0.723690 0.362188
0.819394 0.663142 0.348425
0.862608 0.620111 0.342809
0.976898 0.670893 0.441413
0.241550 0.825711 0.349462
0.280827 0.824643 0.318059
0.496162 0.809689 0.342412
0.674891 0.791073 0.389776
0.780179 0.811612 0.460517
0.880217 0.836728 0.541955
0.922850 0.798520 0.545739
0.972168 0.777676 0.566522
0.424689 0.914336 0.481300
0.434974 0.912749 0.456458
0.560174 0.902281 0.473701
0.693050 0.889891 0.508263
0.794919 0.884611 0.551598
0.872740 0.897337 0.602106
0.947356 0.907652 0.655482
0.983001 0.879423 0.669306
0.562371 0.984649 0.609857
0.570214 0.984680 0.599176
0.634974 0.979461 0.606897
0.727382 0.971740 0.632898
0.821134 0.960937 0.662867
0.887053 0.958343 0.692500
0.943236 0.959472 0.724269
0.992645 0.957000 0.755276
0.109438 0.141634 0.256291
0.144869 0.138308 0.246921
0.250553 0.121035 0.237156
0.527367 0.000000 0.234440
0.735256 0.000000 0.201846
0.849241 0.000000 0.231235
0.946227 0.204776 0.248753
1.000000 0.340002 0.287541
0.087343 0.151156 0.264500
0.139406 0.156466 0.253513
0.258427 0.146334 0.239353
0.526238 0.000000 0.229252
0.728176 0.000000 0.219150
0.838193 0.094820 0.233402
0.937255 0.254459 0.250462
1.000000 0.368414 0.292912
0.078004 0.225986 0.267430
0.124147 0.237461 0.265568
0.277073 0.274632 0.256992
0.508782 0.267308 0.249332
0.700557 0.278935 0.248966
0.819211 0.324620 0.256413
0.923491 0.392126 0.280003
1.000000 0.463111 0.332647
0.000000 0.535576 0.402747
0.000000 0.536004 0.375677
0.345647 0.522362 0.298924
0.609827 0.565576 0.365087
0.653651 0.459419 0.295689
0.784543 0.482887 0.303014
0.900969 0.528344 0.340673
1.000000 0.576654 0.408331
0.000000 0.715816 0.447578
0.171237 0.712123 0.431189
0.404456 0.699825 0.365484
0.635309 0.688350 0.413916
0.769192 0.727016 0.499367
0.803555 0.658778 0.439307
0.864836 0.629877 0.416999
0.978424 0.677882 0.498238
0.308782 0.821653 0.515648
0.383246 0.817838 0.512444
0.477211 0.811185 0.453315
0.658808 0.791348 0.484321
0.770230 0.804898 0.540551
0.868925 0.833433 0.612207
0.910948 0.794797 0.593652
0.967041 0.777676 0.602106
0.501274 0.910063 0.613092
0.510430 0.908934 0.597284
0.551171 0.904906 0.548913
0.682155 0.891051 0.570794
0.790219 0.880766 0.603235
0.868711 0.896239 0.652766
0.943725 0.910002 0.706630
0.980957 0.884367 0.709987
0.600000 0.980865 0.690425
0.602869 0.980377 0.679164
0.623529 0.979431 0.645869
0.719783 0.972656 0.670558
0.813748 0.961730 0.694881
0.886046 0.957855 0.723842
0.941863 0.959838 0.754910
0.989868 0.958282 0.785092
0.000000 0.130068 0.478828
0.071534 0.122286 0.470954
0.254185 0.093477 0.435218
0.489815 0.000000 0.419226
0.715541 0.000000 0.400061
0.841825 0.000000 0.372137
0.946319 0.000000 0.354589
1.000000 0.311498 0.415839
0.000000 0.145602 0.493996
0.000000 0.144900 0.483589
0.259922 0.126284 0.445869
0.499214 0.000000 0.424292
0.716335 0.000000 0.402289
0.838865 0.000000 0.373144
0.942107 0.069306 0.361547
1.000000 0.351812 0.423713
0.000000 0.229740 0.509575
0.000000 0.236759 0.505699
0.282536 0.273320 0.469520
0.519677 0.251865 0.435706
0.718074 0.246036 0.414099
0.838651 0.291691 0.401068
0.936126 0.408759 0.441444
1.000000 0.466499 0.463172
0.000000 0.413794 0.508995
0.000000 0.424903 0.503929
0.274144 0.472633 0.498817
0.537896 0.510094 0.474281
0.682521 0.493599 0.448676
0.798978 0.508232 0.450507
0.906188 0.539483 0.470008
1.000000 0.579797 0.509697
0.000000 0.724666 0.654231
0.000000 0.719722 0.637751
0.357977 0.703059 0.585779
0.602228 0.681270 0.539910
0.749477 0.721187 0.613947
0.769589 0.634821 0.514580
0.874418 0.648188 0.522393
0.982544 0.683528 0.571618
0.180209 0.830320 0.662135
0.307500 0.829892 0.659724
0.498329 0.815457 0.636378
0.633539 0.802579 0.597498
0.761837 0.802457 0.635279
0.860258 0.835721 0.699763
0.896117 0.788968 0.651087
0.960174 0.772641 0.642329
0.448432 0.913542 0.702358
0.488808 0.911559 0.700710
0.588434 0.904997 0.694362
0.662684 0.900206 0.655726
0.781796 0.885893 0.677668
0.865537 0.897581 0.719722
0.938567 0.912596 0.766812
0.975433 0.885863 0.751797
0.592889 0.983124 0.760678
0.613153 0.981842 0.761166
0.670375 0.977234 0.761807
0.701442 0.976196 0.721981
0.799435 0.964996 0.740322
0.883330 0.957153 0.764431
0.939300 0.960143 0.794217
0.985870 0.959808 0.823117
0.000000 0.100587 0.675990
0.000000 0.085542 0.672053
0.265599 0.000000 0.652094
0.460731 0.000000 0.613916
0.681910 0.000000 0.603754
0.821439 0.000000 0.567468
0.929137 0.000000 0.551659
1.000000 0.239445 0.544335
0.000000 0.127169 0.682185
0.000000 0.118746 0.679225
0.266361 0.066896 0.659052
0.467781 0.000000 0.618189
0.683345 0.000000 0.604700
0.820523 0.000000 0.570703
0.927794 0.178378 0.555840
1.000000 0.291356 0.549035
0.000000 0.201480 0.703304
0.000000 0.218631 0.696864
0.295262 0.267735 0.670619
0.495583 0.247379 0.631067
0.683833 0.251926 0.605707
0.812222 0.317205 0.577020
0.920165 0.359869 0.566339
1.000000 0.403357 0.559045
0.000000 0.397467 0.699702
0.000000 0.411048 0.696956
0.276249 0.461769 0.687587
0.546136 0.515435 0.650416
0.684901 0.508019 0.616083
0.806210 0.512108 0.598871
0.915129 0.515740 0.585779
1.000000 0.561639 0.607996
0.000000 0.592340 0.688045
0.000000 0.599420 0.685664
0.320867 0.619593 0.676600
0.548791 0.651606 0.670008
0.684565 0.662867 0.644953
0.775540 0.641230 0.613519
0.885252 0.649805 0.616632
0.987396 0.670527 0.637507
0.000000 0.808774 0.786404
0.000000 0.813413 0.785458
0.374823 0.810941 0.766629
0.584039 0.793973 0.721553
0.718288 0.779477 0.684688
0.839353 0.824338 0.756130
0.865324 0.757107 0.674159
0.965606 0.771603 0.691066
0.332097 0.916716 0.806760
0.387976 0.913573 0.802029
0.517144 0.905455 0.787350
0.646967 0.896574 0.766659
0.741329 0.889860 0.734859
0.850767 0.890135 0.767178
0.930114 0.911620 0.815610
0.966339 0.878965 0.780728
0.521447 0.984802 0.825101
0.545647 0.983093 0.823209
0.615106 0.978119 0.817441
0.709071 0.973968 0.814847
0.766629 0.969818 0.783474
0.869657 0.956786 0.801053
0.933654 0.958984 0.829740
0.980743 0.960204 0.857969
0.000000 0.000000 0.813230
0.000000 0.000000 0.810697
0.285191 0.000000 0.798856
0.484565 0.000000 0.778286
0.646052 0.000000 0.754482
0.795499 0.000000 0.736416
0.910887 0.158450 0.709194
1.000000 0.309178 0.695949
0.000000 0.081117 0.811826
0.000000 0.059083 0.808865
0.278172 0.000000 0.798154
0.486091 0.000000 0.777523
0.643824 0.000000 0.751217
0.792752 0.000000 0.733700
0.907988 0.238804 0.708766
1.000000 0.345098 0.697292
0.000000 0.193942 0.824643
0.000000 0.217105 0.820340
0.322515 0.249912 0.807370
0.514702 0.245487 0.786893
0.649256 0.247623 0.753841
0.791165 0.307591 0.735775
0.903838 0.410559 0.715999
1.000000 0.446693 0.706508
0.000000 0.368414 0.834653
0.000000 0.386542 0.832639
0.292699 0.451118 0.825132
0.573358 0.535180 0.799832
0.670192 0.514305 0.765286
0.791867 0.529900 0.746151
0.902525 0.554803 0.732540
0.999329 0.558190 0.721248
0.000000 0.568994 0.821897
0.000000 0.579034 0.820615
0.345678 0.610712 0.815488
0.567102 0.653468 0.807065
0.690822 0.672541 0.777005
0.785550 0.659205 0.747494
0.895445 0.653346 0.736202
0.994354 0.650935 0.727260
0.000000 0.709163 0.809171
0.113191 0.713924 0.809171
0.399115 0.724788 0.804257
0.570275 0.743709 0.798520
0.684016 0.766598 0.791958
0.786221 0.776883 0.772824
0.873350 0.756100 0.746151
0.977569 0.768429 0.759091
0.141268 0.872587 0.886046
0.260319 0.877012 0.886259
0.435676 0.889738 0.884672
0.582940 0.906004 0.878202
0.713771 0.895903 0.842802
0.822568 0.885191 0.814176
0.923552 0.912902 0.865812
0.957275 0.865415 0.807431
0.406317 0.991943 0.912016
0.441382 0.990021 0.908995
0.535882 0.984497 0.899168
0.647822 0.978149 0.884886
0.755245 0.970306 0.868193
0.835569 0.963806 0.844724
0.926604 0.957946 0.867674
0.975952 0.961944 0.897063
0.000000 0.000000 0.906432
0.000000 0.000000 0.906828
0.313054 0.000000 0.901701
0.493629 0.000000 0.892332
0.637385 0.000000 0.875242
0.768460 0.000000 0.860899
0.887144 0.000000 0.837644
0.986908 0.283696 0.810300
0.000000 0.000000 0.900908
0.000000 0.000000 0.901335
0.294713 0.000000 0.896788
0.486397 0.000000 0.885863
0.630945 0.000000 0.867308
0.758846 0.000000 0.850523
0.876097 0.000000 0.826810
0.977966 0.291691 0.801175
0.000000 0.158206 0.911955
0.000000 0.184665 0.909667
0.323064 0.185824 0.901915
0.507012 0.183658 0.889921
0.641260 0.203708 0.869749
0.758907 0.240604 0.850980
0.877226 0.332311 0.831418
0.980011 0.435706 0.811429
0.000000 0.279332 0.924193
0.000000 0.291875 0.921416
0.302159 0.405035 0.910094
0.561852 0.503380 0.894804
0.666072 0.497292 0.876280
0.762112 0.491890 0.855314
0.879301 0.523522 0.839658
0.979614 0.564019 0.821469
0.000000 0.505089 0.913481
0.000000 0.516258 0.911376
0.242496 0.557549 0.906432
0.524865 0.619440 0.901732
0.684474 0.662440 0.879454
0.755734 0.632502 0.850584
0.869139 0.640192 0.835355
0.974578 0.664363 0.827695
0.000000 0.670741 0.903868
0.000000 0.676356 0.903136
0.336828 0.694942 0.900542
0.545159 0.724453 0.897887
0.683345 0.759640 0.894011
0.787778 0.780453 0.875395
0.876036 0.766476 0.851041
0.974701 0.765988 0.844419
0.090242 0.792782 0.900725
0.236240 0.796078 0.900999
0.420935 0.804654 0.899077
0.570428 0.820127 0.896452
0.687098 0.840055 0.891752
0.786007 0.864195 0.888121
0.879088 0.874388 0.874022
0.961089 0.857359 0.855650
0.213931 0.922942 0.950439
0.283024 0.924102 0.950439
0.433051 0.930816 0.952667
0.569421 0.947509 0.952728
0.689754 0.973968 0.951415
0.812131 0.967132 0.924681
0.905882 0.958282 0.904356
0.971130 0.963867 0.934478
0.000000 0.000000 0.969268
0.000000 0.000000 0.969268
0.289738 0.000000 0.965026
0.475471 0.000000 0.960174
0.614435 0.000000 0.953216
0.730922 0.000000 0.942535
0.859709 0.000000 0.938170
0.965332 0.000000 0.911803
0.000000 0.000000 0.966705
0.000000 0.000000 0.966705
0.295384 0.000000 0.962982
0.465980 0.000000 0.957855
0.611078 0.000000 0.950683
0.728176 0.000000 0.939513
0.854551 0.000000 0.933654
0.960357 0.000000 0.907713
0.000000 0.014862 0.967102
0.000000 0.000000 0.966461
0.250950 0.000000 0.962005
0.462593 0.000000 0.959625
0.613519 0.000000 0.950958
0.727626 0.000000 0.937560
0.849119 0.157473 0.930144
0.955993 0.287022 0.905882
0.000000 0.139773 0.973175
0.000000 0.156435 0.972869
0.153140 0.265782 0.967010
0.490639 0.367864 0.959228
0.625940 0.387701 0.950896
0.732143 0.406378 0.938262
0.844266 0.424689 0.928985
0.953765 0.468269 0.907927
0.000000 0.323430 0.974304
0.000000 0.330785 0.974853
0.000000 0.368627 0.973266
0.348119 0.470130 0.965026
0.641199 0.600641 0.949157
0.734463 0.589258 0.936950
0.833829 0.579980 0.925322
0.951629 0.608392 0.911345
0.000000 0.555657 0.967590
0.000000 0.561028 0.966583
0.000000 0.582818 0.963775
0.320134 0.623987 0.959899
0.582818 0.680690 0.956512
0.756283 0.743740 0.944762
0.840665 0.728267 0.933867
0.957214 0.749447 0.924834
0.000000 0.722194 0.964843
0.000000 0.725032 0.964080
0.000000 0.735042 0.961852
0.408026 0.755947 0.959380
0.611048 0.788815 0.957031
0.757137 0.833402 0.955840
0.873838 0.870115 0.949432
0.951507 0.855100 0.929442
0.000000 0.848478 0.967712
0.000000 0.849668 0.966979
0.277928 0.855192 0.965301
0.498238 0.867887 0.963500
0.650233 0.887846 0.960937
0.773617 0.911864 0.957549
0.876585 0.937407 0.955901
0.950622 0.947753 0.947387
