data/fiter_cube/59424107/1023392/file.cube
# Created by Adobe Lightroom plugin Export LUT (1.17.0)
# www.johnrellis.com/lightroom/exportlut.htm
# Preset: 背光使用_05 云集
# Color profile: C:\Program Files (x86)\Common Files\Adobe\Color\Profiles\Recommended\AdobeRGB1998.icc
LUT_3D_SIZE 8
DOMAIN_MIN 0.000000 0.000000 0.000000
DOMAIN_MAX 0.903226 0.903226 0.903226
0.020203 0.060060 0.056794
0.072663 0.062196 0.059236
0.217441 0.000000 0.056001
0.482612 0.000000 0.000000
0.716304 0.000000 0.000000
0.879423 0.000000 0.000000
0.984192 0.000000 0.000000
1.000000 0.288396 0.105531
0.020478 0.078248 0.065034
0.066896 0.080873 0.059754
0.222354 0.077058 0.046571
0.485573 0.000000 0.000000
0.716426 0.000000 0.000000
0.876005 0.000000 0.000000
0.981323 0.092042 0.000000
1.000000 0.312108 0.090333
0.000000 0.144076 0.087709
0.031159 0.153231 0.077607
0.178622 0.172000 0.044495
0.504875 0.247868 0.000000
0.738430 0.240269 0.000000
0.885405 0.240482 0.000000
0.986755 0.301976 0.000000
1.000000 0.406653 0.056825
0.000000 0.308629 0.137484
0.000000 0.319066 0.126772
0.124422 0.336706 0.068879
0.409644 0.399451 0.000000
0.731655 0.472541 0.000000
0.900450 0.477241 0.000000
0.989136 0.481086 0.000000
1.000000 0.526024 0.000000
0.000000 0.524498 0.219883
0.000000 0.531640 0.211643
0.000000 0.552789 0.163424
0.317876 0.567529 0.064912
0.626734 0.607446 0.000000
0.859464 0.630854 0.000000
0.984253 0.646418 0.000000
1.000000 0.657069 0.000000
0.000000 0.698726 0.326390
0.000000 0.704860 0.325628
0.000000 0.713954 0.319921
0.289097 0.721096 0.243351
0.530083 0.731228 0.175631
0.793362 0.751003 0.000000
0.954681 0.764462 0.000000
1.000000 0.774136 0.000000
0.000000 0.836088 0.454841
0.000000 0.837491 0.456550
0.152010 0.838682 0.462898
0.385473 0.841154 0.450599
0.524681 0.839200 0.389410
0.727993 0.846616 0.332860
0.916533 0.856138 0.212772
1.000000 0.858396 0.136385
0.000000 0.940795 0.607202
0.010407 0.940063 0.610163
0.330510 0.937377 0.622553
0.533196 0.932616 0.646052
0.611231 0.931304 0.590234
0.742275 0.926452 0.567010
0.884398 0.930053 0.521630
0.995178 0.933623 0.424720
0.025238 0.064973 0.078340
0.066773 0.067170 0.074739
0.205966 0.020508 0.071504
0.472663 0.000000 0.001038
0.713344 0.000000 0.000000
0.872648 0.000000 0.000000
0.979370 0.000000 0.000000
1.000000 0.291081 0.091402
0.018067 0.080293 0.082368
0.068086 0.085298 0.083589
0.209293 0.082826 0.075929
0.476814 0.000000 0.000000
0.716213 0.000000 0.000000
0.872526 0.000000 0.000000
0.977600 0.138643 0.000000
1.000000 0.313725 0.072969
0.000000 0.146822 0.109377
0.054597 0.158236 0.109804
0.184360 0.177646 0.083589
0.496529 0.239628 0.000000
0.730068 0.251133 0.000000
0.880369 0.264042 0.000000
0.981109 0.308934 0.000000
1.000000 0.404211 0.000000
0.000000 0.309209 0.166262
0.000000 0.320958 0.161990
0.136965 0.344488 0.116640
0.405219 0.395239 0.000000
0.717037 0.462348 0.000000
0.888975 0.472084 0.000000
0.983520 0.479561 0.000000
1.000000 0.522515 0.000000
0.000000 0.526085 0.251865
0.000000 0.532067 0.245518
0.106477 0.552544 0.226291
0.320348 0.562554 0.139956
0.619867 0.601709 0.000000
0.853422 0.628290 0.000000
0.981109 0.645655 0.000000
1.000000 0.655451 0.000000
0.000000 0.695979 0.349828
0.000000 0.699153 0.347326
0.005982 0.708309 0.342718
0.300633 0.717769 0.279698
0.531090 0.727901 0.226383
0.791043 0.749935 0.064942
0.952209 0.765438 0.000000
1.000000 0.773007 0.000000
0.000000 0.831876 0.468391
0.000000 0.832151 0.468544
0.149416 0.834073 0.474769
0.407599 0.836881 0.480476
0.529686 0.837217 0.413489
0.726528 0.844327 0.363104
0.912657 0.854032 0.260227
1.000000 0.857786 0.206882
0.000000 0.938903 0.614313
0.000000 0.938506 0.617639
0.324804 0.936095 0.629664
0.529412 0.931609 0.652247
0.620935 0.932341 0.609339
0.745724 0.926726 0.584680
0.883421 0.929625 0.539879
0.992981 0.933043 0.449012
0.000000 0.073610 0.148226
0.069123 0.073701 0.146029
0.176455 0.071962 0.140444
0.436774 0.000000 0.142000
0.691981 0.000000 0.121553
0.866453 0.000000 0.079072
0.982025 0.179294 0.000000
1.000000 0.320500 0.094850
0.000000 0.093843 0.155428
0.061799 0.095735 0.160800
0.181186 0.100984 0.152255
0.438025 0.000000 0.149783
0.692836 0.000000 0.131594
0.865202 0.087831 0.083253
0.980407 0.224094 0.000000
1.000000 0.342840 0.081270
0.000000 0.156863 0.179019
0.004578 0.164920 0.182498
0.193881 0.193881 0.192966
0.457038 0.218509 0.182437
0.706844 0.251072 0.155093
0.870054 0.293309 0.100649
0.980499 0.348760 0.000000
1.000000 0.420630 0.000000
0.000000 0.319554 0.250095
0.000000 0.333196 0.253849
0.181094 0.368627 0.253880
0.416999 0.411749 0.208072
0.718776 0.478859 0.192599
0.876646 0.486671 0.148653
0.980407 0.505150 0.000000
1.000000 0.534264 0.000000
0.000000 0.531914 0.337133
0.000000 0.539330 0.337163
0.141573 0.560327 0.335973
0.353491 0.576837 0.291600
0.625879 0.610803 0.232944
0.851591 0.644617 0.221866
0.977447 0.667933 0.167758
1.000000 0.662623 0.000000
0.000000 0.698543 0.423102
0.000000 0.701869 0.424231
0.119112 0.710201 0.426368
0.370825 0.720638 0.410620
0.544671 0.726497 0.359136
0.787198 0.751156 0.298405
0.946288 0.775021 0.292180
1.000000 0.784726 0.215702
0.000000 0.833555 0.527123
0.000000 0.833982 0.528283
0.179904 0.834897 0.533227
0.436866 0.835691 0.547875
0.555871 0.837461 0.496803
0.731777 0.843656 0.462348
0.909087 0.856626 0.400092
1.000000 0.865049 0.381445
0.000000 0.939086 0.650446
0.000000 0.938354 0.651179
0.311803 0.935698 0.660212
0.523583 0.931762 0.680110
0.640131 0.931090 0.657801
0.753597 0.926726 0.633478
0.881987 0.929808 0.600275
0.988006 0.934234 0.531975
0.000000 0.086091 0.283360
0.000000 0.085664 0.284642
0.202518 0.070771 0.284855
0.381445 0.054475 0.281376
0.645167 0.000000 0.300755
0.830076 0.095949 0.309117
0.959960 0.282383 0.306004
1.000000 0.372168 0.254795
0.000000 0.107454 0.293523
0.000000 0.111147 0.300328
0.203708 0.106203 0.299290
0.385595 0.119142 0.293889
0.646235 0.087587 0.312413
0.829435 0.185214 0.319860
0.958862 0.316136 0.312505
1.000000 0.390478 0.255039
0.000000 0.179599 0.312688
0.000000 0.183963 0.316350
0.180880 0.205020 0.337530
0.397192 0.249821 0.335668
0.650690 0.270359 0.350164
0.834195 0.349157 0.359258
0.960906 0.424353 0.345861
1.000000 0.465980 0.275334
0.000000 0.314641 0.360204
0.000000 0.324071 0.364355
0.148257 0.359503 0.378546
0.412573 0.426154 0.406867
0.664607 0.474739 0.414191
0.838865 0.513634 0.409796
0.958312 0.550347 0.384558
1.000000 0.574304 0.315923
0.000000 0.530083 0.449042
0.000000 0.538384 0.452338
0.125246 0.566308 0.465888
0.410864 0.592004 0.472541
0.621668 0.619043 0.442542
0.841733 0.673365 0.473548
0.956634 0.693446 0.453925
1.000000 0.696559 0.383886
0.000000 0.705287 0.532555
0.000000 0.710109 0.535332
0.138064 0.716579 0.536950
0.416785 0.725368 0.543053
0.572595 0.731258 0.514214
0.781704 0.756741 0.489815
0.936339 0.792508 0.510643
1.000000 0.806546 0.478401
0.000000 0.834867 0.611627
0.000000 0.835782 0.612940
0.194003 0.837491 0.617029
0.440894 0.838712 0.624537
0.595697 0.841947 0.608148
0.738247 0.844297 0.582208
0.901610 0.859892 0.550774
0.996826 0.873747 0.551507
0.000000 0.940002 0.713466
0.000000 0.939635 0.714199
0.297551 0.937743 0.715389
0.498848 0.933532 0.721645
0.680873 0.927550 0.737484
0.762570 0.927489 0.698970
0.878447 0.930083 0.677272
0.980194 0.935790 0.633356
0.000000 0.106905 0.446632
0.000000 0.106661 0.448035
0.185855 0.097414 0.450477
0.398901 0.060487 0.455207
0.589349 0.175051 0.454322
0.786893 0.295232 0.482063
0.927306 0.378454 0.502800
1.000000 0.509392 0.542931
0.000000 0.124849 0.452644
0.000000 0.133242 0.457649
0.182864 0.130922 0.459907
0.401251 0.124849 0.465187
0.589746 0.221286 0.463142
0.786282 0.327001 0.491249
0.926360 0.402045 0.510796
1.000000 0.522057 0.545190
0.000000 0.201205 0.455543
0.000000 0.203922 0.461494
0.151003 0.224460 0.485084
0.398932 0.252293 0.492836
0.590082 0.340215 0.492134
0.782681 0.412604 0.517845
0.922759 0.468208 0.533379
1.000000 0.560113 0.548913
0.000000 0.324529 0.495552
0.000000 0.329992 0.497475
0.057679 0.351812 0.505028
0.380133 0.412757 0.533288
0.594110 0.485389 0.540520
0.783352 0.523613 0.560204
0.922667 0.579156 0.574548
1.000000 0.619501 0.549645
0.000000 0.493416 0.545373
0.000000 0.499825 0.547295
0.000000 0.522637 0.553674
0.372259 0.563561 0.568688
0.602869 0.618921 0.598291
0.798276 0.660273 0.614435
0.927703 0.695033 0.613764
1.000000 0.715511 0.581750
0.000000 0.681941 0.617182
0.000000 0.688777 0.621424
0.000000 0.700832 0.626886
0.402625 0.720027 0.641077
0.599237 0.733669 0.644678
0.767697 0.757107 0.631952
0.926299 0.807889 0.670771
1.000000 0.817136 0.646693
0.000000 0.833066 0.702876
0.000000 0.834104 0.704128
0.197452 0.836301 0.706600
0.433478 0.837705 0.706905
0.611322 0.840024 0.706203
0.737301 0.842344 0.683986
0.890990 0.861723 0.673274
0.986145 0.881529 0.686610
0.000000 0.938018 0.779965
0.000000 0.937469 0.779751
0.299748 0.935607 0.779080
0.477241 0.934203 0.778805
0.642054 0.930114 0.776913
0.767849 0.928862 0.764797
0.871031 0.929534 0.749264
0.971038 0.936797 0.724605
0.000000 0.144442 0.606867
0.000000 0.145113 0.607263
0.161624 0.144839 0.608026
0.393072 0.147860 0.614496
0.597498 0.187137 0.622980
0.744747 0.354833 0.609339
0.889464 0.502861 0.653651
0.987457 0.587396 0.691218
0.000000 0.163912 0.607324
0.000000 0.169619 0.608606
0.157443 0.173739 0.611383
0.390143 0.183932 0.616327
0.595514 0.226932 0.624750
0.742824 0.379187 0.613550
0.888243 0.515923 0.657618
0.986664 0.595850 0.693782
0.000000 0.232059 0.611109
0.000000 0.232792 0.614649
0.126711 0.260197 0.626154
0.383795 0.285435 0.630457
0.595514 0.337102 0.637354
0.741360 0.457435 0.632959
0.886931 0.561395 0.674281
0.985321 0.626093 0.704005
0.000000 0.345556 0.627100
0.000000 0.347967 0.626520
0.000000 0.359289 0.626123
0.362249 0.418830 0.651575
0.590051 0.470893 0.661006
0.742977 0.561303 0.665858
0.887724 0.627039 0.700618
0.984955 0.671321 0.718318
0.000000 0.491402 0.659541
0.000000 0.495369 0.659693
0.000000 0.509606 0.660395
0.311498 0.535882 0.663142
0.558526 0.589960 0.684230
0.742397 0.657221 0.699611
0.889067 0.691310 0.722255
0.984100 0.734463 0.734249
0.000000 0.645075 0.696681
0.000000 0.649195 0.697780
0.000000 0.661311 0.699367
0.343816 0.681483 0.703853
0.555993 0.709651 0.714839
0.752224 0.756710 0.745663
0.902312 0.795834 0.765652
0.984863 0.815915 0.758877
0.000000 0.798795 0.752529
0.000000 0.803159 0.755428
0.000000 0.815732 0.763973
0.388098 0.830411 0.774990
0.599878 0.840330 0.783993
0.754788 0.848234 0.785092
0.882078 0.865324 0.777798
0.978241 0.893309 0.801175
0.000000 0.935698 0.835660
0.000000 0.935393 0.835752
0.291783 0.934447 0.836362
0.481239 0.933684 0.838376
0.629480 0.931060 0.834165
0.767758 0.928862 0.828977
0.865080 0.929198 0.816373
0.962799 0.939055 0.808133
0.000000 0.224949 0.762234
0.000000 0.226963 0.761471
0.212741 0.235538 0.760800
0.419806 0.253208 0.760037
0.610925 0.293095 0.758633
0.768765 0.368658 0.763577
0.863981 0.527733 0.747829
0.959686 0.673548 0.794980
0.000000 0.250370 0.765225
0.000000 0.252445 0.764523
0.212711 0.261509 0.763729
0.419776 0.280583 0.762631
0.611536 0.321355 0.761898
0.769986 0.394965 0.767147
0.865171 0.544823 0.753231
0.960510 0.683497 0.799222
0.000000 0.291936 0.763546
0.000000 0.294408 0.764614
0.188724 0.332250 0.766934
0.409125 0.354955 0.766445
0.604669 0.395239 0.766690
0.765988 0.461707 0.771695
0.862730 0.585595 0.762020
0.959319 0.702358 0.804410
0.000000 0.390173 0.761776
0.000000 0.391211 0.761501
0.000000 0.401587 0.765682
0.374517 0.452766 0.772122
0.585412 0.490150 0.773526
0.757595 0.546502 0.778225
0.859556 0.644007 0.776120
0.958892 0.733028 0.813504
0.000000 0.525658 0.783688
0.000000 0.527520 0.783200
0.000000 0.532586 0.780514
0.255558 0.536706 0.774319
0.540124 0.586389 0.784665
0.743252 0.634516 0.791104
0.860349 0.713619 0.797635
0.960357 0.774258 0.826719
0.000000 0.666346 0.806668
0.000000 0.667994 0.806149
0.000000 0.673365 0.804318
0.296025 0.680171 0.800809
0.486580 0.687526 0.796109
0.702358 0.720790 0.805081
0.860990 0.785855 0.821012
0.962768 0.820737 0.840604
0.000000 0.791958 0.828275
0.000000 0.792905 0.827878
0.075013 0.796933 0.827207
0.350683 0.803220 0.826322
0.536522 0.812467 0.826810
0.710079 0.827573 0.831510
0.870451 0.864256 0.853483
0.967987 0.892302 0.866148
0.000000 0.912566 0.867521
0.000000 0.913115 0.867643
0.207462 0.913756 0.867002
0.408942 0.919036 0.870054
0.590570 0.928954 0.878477
0.756832 0.930114 0.880980
0.874113 0.932860 0.879820
0.957580 0.942779 0.876219
0.319371 0.432807 0.902220
0.350103 0.434791 0.901457
0.445472 0.444434 0.899596
0.575006 0.460426 0.895750
0.713313 0.488289 0.890623
0.834226 0.532891 0.884947
0.914611 0.590753 0.882567
0.956725 0.707576 0.864622
0.319097 0.451118 0.902922
0.349798 0.452949 0.902129
0.444404 0.461463 0.900267
0.574578 0.477150 0.896605
0.712764 0.503349 0.891539
0.833738 0.545861 0.885924
0.915129 0.602380 0.884154
0.956970 0.715084 0.866331
0.227024 0.468177 0.904723
0.275914 0.473487 0.904204
0.430793 0.510552 0.901701
0.562524 0.522179 0.897612
0.704433 0.544457 0.892973
0.828794 0.582330 0.887938
0.912688 0.634119 0.886015
0.956237 0.734890 0.870054
0.000000 0.534142 0.905364
0.145296 0.535851 0.904875
0.322087 0.545586 0.903838
0.526940 0.584222 0.900084
0.681636 0.601434 0.895567
0.816068 0.632349 0.890684
0.907378 0.678004 0.888487
0.954864 0.764096 0.875578
0.000000 0.642054 0.908721
0.000000 0.640864 0.908019
0.215640 0.637171 0.906340
0.385077 0.628962 0.904295
0.627985 0.664912 0.900664
0.791073 0.688991 0.895933
0.899962 0.729885 0.892912
0.953643 0.802487 0.884062
0.090608 0.756191 0.914733
0.157443 0.756435 0.914519
0.276707 0.755978 0.913481
0.398627 0.751156 0.911070
0.520928 0.737118 0.906462
0.732235 0.750301 0.902220
0.883330 0.784054 0.898039
0.951720 0.845914 0.894652
0.216220 0.853788 0.921691
0.250065 0.854032 0.921538
0.338079 0.854185 0.920958
0.447944 0.852995 0.919341
0.569116 0.849638 0.916655
0.690364 0.841642 0.911864
0.844053 0.845274 0.907683
0.951720 0.896269 0.911162
0.312047 0.927672 0.930846
0.335882 0.927794 0.930877
0.404791 0.927611 0.930449
0.502892 0.926696 0.929290
0.616999 0.925475 0.927764
0.736385 0.924895 0.926024
0.851896 0.928130 0.924590
0.954559 0.947784 0.935058
