data/fiter_cube/59424107/1023392/file.cube
# Created by Adobe Lightroom plugin Export LUT (1.17.0)
# www.johnrellis.com/lightroom/exportlut.htm
# Preset: 背光使用_05 云集
# Color profile: C:\Program Files (x86)\Common Files\Adobe\Color\Profiles\Recommended\AdobeRGB1998.icc
LUT_3D_SIZE 32
DOMAIN_MIN 0.0 0.0 0.0
DOMAIN_MAX 1.0 1.0 1.0
0.020203 0.060060 0.056794
0.026673 0.060548 0.056580
0.034272 0.060975 0.057191
0.054810 0.061769 0.058228
0.072663 0.062196 0.059236
0.094026 0.062318 0.059724
0.124880 0.058747 0.059724
0.166232 0.039796 0.059174
0.217441 0.000000 0.056001
0.276982 0.000000 0.048737
0.343206 0.000000 0.034394
0.413184 0.000000 0.012390
0.482612 0.000000 0.000000
0.548852 0.000000 0.000000
0.610956 0.000000 0.000000
0.666468 0.000000 0.000000
0.716304 0.000000 0.000000
0.761074 0.000000 0.000000
0.805631 0.000000 0.000000
0.844663 0.000000 0.000000
0.879423 0.000000 0.000000
0.910460 0.000000 0.000000
0.937987 0.000000 0.000000
0.962402 0.000000 0.000000
0.984192 0.000000 0.000000
1.000000 0.085725 0.000000
1.000000 0.172427 0.000000
1.000000 0.233585 0.000275
1.000000 0.288396 0.105531
1.000000 0.341283 0.160861
1.000000 0.394079 0.216251
1.000000 0.447700 0.275212
0.020478 0.061891 0.058137
0.025788 0.062501 0.057130
0.034974 0.062837 0.056886
0.055329 0.063630 0.057954
0.072847 0.064515 0.059022
0.094148 0.064637 0.059541
0.125185 0.061463 0.059480
0.166262 0.047730 0.058900
0.217319 0.002594 0.055451
0.276768 0.000000 0.047974
0.343023 0.000000 0.033112
0.412512 0.000000 0.010956
0.481788 0.000000 0.000000
0.547906 0.000000 0.000000
0.609766 0.000000 0.000000
0.665309 0.000000 0.000000
0.715084 0.000000 0.000000
0.760006 0.000000 0.000000
0.804135 0.000000 0.000000
0.842954 0.000000 0.000000
0.877623 0.000000 0.000000
0.908721 0.000000 0.000000
0.936309 0.000000 0.000000
0.960876 0.000000 0.000000
0.982910 0.000000 0.000000
1.000000 0.090730 0.000000
1.000000 0.173770 0.000000
1.000000 0.234287 0.000000
1.000000 0.288640 0.101534
1.000000 0.340917 0.157717
1.000000 0.393622 0.213565
1.000000 0.446937 0.272465
0.020203 0.064668 0.059449
0.024140 0.065339 0.058900
0.032410 0.065705 0.057313
0.054475 0.066773 0.057435
0.072908 0.067506 0.058778
0.094179 0.067597 0.059266
0.125429 0.065126 0.059144
0.166720 0.056092 0.058381
0.217624 0.016144 0.053712
0.277043 0.000000 0.046754
0.343145 0.000000 0.030060
0.412757 0.000000 0.008576
0.481849 0.000000 0.000000
0.547936 0.000000 0.000000
0.609644 0.000000 0.000000
0.665003 0.000000 0.000000
0.714687 0.000000 0.000000
0.760037 0.000000 0.000000
0.803708 0.000000 0.000000
0.842313 0.000000 0.000000
0.876860 0.000000 0.000000
0.907988 0.000000 0.000000
0.935607 0.000000 0.000000
0.960235 0.000000 0.000000
0.982300 0.000000 0.000000
1.000000 0.102998 0.000000
1.000000 0.179416 0.000000
1.000000 0.238010 0.000000
1.000000 0.291295 0.099245
1.000000 0.342840 0.155856
1.000000 0.394903 0.211917
1.000000 0.447913 0.271092
0.020661 0.070497 0.061494
0.025391 0.071382 0.061799
0.031281 0.071504 0.060426
0.051453 0.071901 0.058869
0.072114 0.073671 0.057832
0.095430 0.074891 0.057588
0.126894 0.073579 0.057954
0.168368 0.068238 0.055573
0.219547 0.049348 0.051209
0.279210 0.000000 0.042603
0.345098 0.000000 0.024964
0.414557 0.000000 0.002258
0.483223 0.000000 0.000000
0.549065 0.000000 0.000000
0.610468 0.000000 0.000000
0.665675 0.000000 0.000000
0.715053 0.000000 0.000000
0.760830 0.000000 0.000000
0.803647 0.000000 0.000000
0.841520 0.000000 0.000000
0.875792 0.000000 0.000000
0.906706 0.000000 0.000000
0.934508 0.000000 0.000000
0.959319 0.000000 0.000000
0.981689 0.000000 0.000000
1.000000 0.129213 0.000000
1.000000 0.194430 0.000000
1.000000 0.249149 0.000000
1.000000 0.299840 0.095918
1.000000 0.349798 0.154391
1.000000 0.400122 0.210269
1.000000 0.451759 0.269657
0.020478 0.078248 0.065034
0.024201 0.078798 0.064942
0.029725 0.079255 0.063966
0.044800 0.079591 0.062470
0.066896 0.080873 0.059754
0.091341 0.084718 0.056672
0.128054 0.087343 0.054108
0.170809 0.085084 0.051850
0.222354 0.077058 0.046571
0.282231 0.059388 0.033814
0.347997 0.000000 0.015686
0.417151 0.000000 0.000000
0.485573 0.000000 0.000000
0.550927 0.000000 0.000000
0.612146 0.000000 0.000000
0.667079 0.000000 0.000000
0.716426 0.000000 0.000000
0.762936 0.000000 0.000000
0.804929 0.000000 0.000000
0.842283 0.000000 0.000000
0.876005 0.000000 0.000000
0.906706 0.000000 0.000000
0.934234 0.000000 0.000000
0.959014 0.000000 0.000000
0.981323 0.092042 0.000000
1.000000 0.162417 0.000000
1.000000 0.216281 0.000000
1.000000 0.265019 0.000000
1.000000 0.312108 0.090333
1.000000 0.359564 0.151003
1.000000 0.407721 0.207462
1.000000 0.457771 0.267216
0.018311 0.087800 0.069093
0.022095 0.088594 0.068605
0.029572 0.089479 0.068421
0.039918 0.090303 0.065522
0.061799 0.091432 0.063813
0.082521 0.093904 0.060243
0.119234 0.100740 0.054139
0.167819 0.105379 0.047089
0.227146 0.105684 0.034668
0.287449 0.098756 0.019776
0.353399 0.084627 0.000000
0.422583 0.054780 0.000000
0.490211 0.000000 0.000000
0.555169 0.000000 0.000000
0.615656 0.000000 0.000000
0.670100 0.000000 0.000000
0.719051 0.000000 0.000000
0.766171 0.000000 0.000000
0.807187 0.000000 0.000000
0.843992 0.000000 0.000000
0.877440 0.000000 0.000000
0.907836 0.000000 0.000000
0.945281 0.056703 0.000000
0.968627 0.128878 0.000000
0.989441 0.176699 0.000000
1.000000 0.219883 0.000000
1.000000 0.261357 0.000000
1.000000 0.302251 0.000000
1.000000 0.343725 0.102052
1.000000 0.386877 0.161715
1.000000 0.431464 0.218235
1.000000 0.478096 0.277897
0.013153 0.101930 0.073701
0.018097 0.102541 0.073610
0.024262 0.103609 0.073060
0.036316 0.105715 0.070192
0.056672 0.106447 0.067140
0.076844 0.109255 0.064210
0.106600 0.113100 0.059724
0.157931 0.124361 0.048219
0.219303 0.132998 0.026947
0.293400 0.139559 0.000061
0.366186 0.138857 0.000000
0.435096 0.131685 0.000000
0.502312 0.120607 0.000000
0.566125 0.104585 0.000000
0.625177 0.083223 0.000000
0.677852 0.053101 0.000000
0.727199 0.000000 0.000000
0.773587 0.000000 0.000000
0.813657 0.000000 0.000000
0.849973 0.000000 0.000000
0.883360 0.067872 0.000000
0.913939 0.106600 0.000000
0.941466 0.144350 0.000000
0.966033 0.180728 0.000000
0.987793 0.216648 0.000000
1.000000 0.251957 0.000000
1.000000 0.287694 0.000000
1.000000 0.324041 0.000000
1.000000 0.361639 0.092042
1.000000 0.401282 0.155154
1.000000 0.443122 0.213016
1.000000 0.487495 0.273594
0.004547 0.119997 0.079866
0.009522 0.120699 0.079408
0.014008 0.122042 0.078859
0.028870 0.124727 0.076722
0.045472 0.126772 0.070283
0.070283 0.127657 0.068544
0.098939 0.132967 0.063752
0.138399 0.138277 0.056245
0.202823 0.154635 0.032441
0.274418 0.168399 0.000000
0.355871 0.182132 0.000000
0.441566 0.192630 0.000000
0.508629 0.189822 0.000000
0.571832 0.184451 0.000000
0.629938 0.176761 0.000000
0.681880 0.168215 0.000000
0.732387 0.162600 0.000000
0.776913 0.158602 0.000000
0.815763 0.157992 0.000000
0.851225 0.161654 0.000000
0.883940 0.171542 0.000000
0.914000 0.187137 0.000000
0.941131 0.207950 0.000000
0.965454 0.232181 0.000000
0.987060 0.258701 0.000000
1.000000 0.287236 0.000000
1.000000 0.316960 0.000000
1.000000 0.348608 0.000000
1.000000 0.382635 0.077943
1.000000 0.418769 0.147707
1.000000 0.457710 0.207706
1.000000 0.499245 0.268772
0.000000 0.144076 0.087709
0.000000 0.144991 0.086946
0.000000 0.146365 0.086122
0.011231 0.149416 0.084108
0.031159 0.153231 0.077607
0.062196 0.154635 0.071839
0.090486 0.157656 0.068116
0.129213 0.164828 0.060700
0.178622 0.172000 0.044495
0.254826 0.194461 0.001923
0.334966 0.214359 0.000000
0.420569 0.232517 0.000000
0.504875 0.247868 0.000000
0.579187 0.253269 0.000000
0.636011 0.248753 0.000000
0.689570 0.244205 0.000000
0.738430 0.240269 0.000000
0.781247 0.236637 0.000000
0.818784 0.234592 0.000000
0.853361 0.235538 0.000000
0.885405 0.240482 0.000000
0.914916 0.250004 0.000000
0.941527 0.263859 0.000000
0.965454 0.281468 0.000000
0.986755 0.301976 0.000000
1.000000 0.324743 0.000000
1.000000 0.349584 0.000000
1.000000 0.376867 0.000000
1.000000 0.406653 0.056825
1.000000 0.439246 0.139498
1.000000 0.475074 0.202426
1.000000 0.513603 0.264530
0.000000 0.174655 0.097261
0.000000 0.175662 0.096559
0.000000 0.177035 0.095521
0.000000 0.180240 0.093050
0.008850 0.185183 0.088655
0.033539 0.188296 0.075135
0.080598 0.189700 0.071839
0.119203 0.195621 0.065187
0.167605 0.205142 0.050355
0.226291 0.214878 0.014466
0.312047 0.243320 0.000000
0.397375 0.266972 0.000000
0.482795 0.286870 0.000000
0.563989 0.302464 0.000000
0.640314 0.315068 0.000000
0.698024 0.314488 0.000000
0.745266 0.309758 0.000000
0.786557 0.304845 0.000000
0.823148 0.301610 0.000000
0.856687 0.300206 0.000000
0.887755 0.302251 0.000000
0.916197 0.307744 0.000000
0.942016 0.316625 0.000000
0.965209 0.329107 0.000000
0.986145 0.344305 0.000000
1.000000 0.362463 0.000000
1.000000 0.383215 0.000000
1.000000 0.406622 0.000000
1.000000 0.432868 0.000000
1.000000 0.462348 0.130190
1.000000 0.495064 0.196750
1.000000 0.530816 0.261143
0.000000 0.211551 0.108278
0.000000 0.212650 0.107607
0.000000 0.214084 0.106416
0.000000 0.217563 0.103853
0.000000 0.222843 0.099245
0.000000 0.228367 0.086519
0.062715 0.230777 0.075257
0.106447 0.232609 0.070069
0.155367 0.242741 0.056916
0.213260 0.254887 0.016785
0.279850 0.267094 0.000000
0.372625 0.299016 0.000000
0.459083 0.323735 0.000000
0.545251 0.344762 0.000000
0.624201 0.360571 0.000000
0.692622 0.371191 0.000000
0.751156 0.376165 0.000000
0.791012 0.369451 0.000000
0.826444 0.363806 0.000000
0.859281 0.360113 0.000000
0.889586 0.359655 0.000000
0.917418 0.362127 0.000000
0.942748 0.367926 0.000000
0.965606 0.376715 0.000000
0.986175 0.388251 0.000000
1.000000 0.402411 0.000000
1.000000 0.419104 0.000000
1.000000 0.438605 0.000000
1.000000 0.461341 0.000000
1.000000 0.487037 0.118379
1.000000 0.516197 0.189456
1.000000 0.548882 0.255680
0.000000 0.255497 0.121645
0.000000 0.256657 0.120821
0.000000 0.258396 0.119478
0.000000 0.261601 0.116518
0.000000 0.267094 0.111574
0.000000 0.274266 0.104402
0.000000 0.278172 0.078950
0.089937 0.280278 0.072999
0.140169 0.284337 0.063752
0.198642 0.297917 0.024170
0.264378 0.311772 0.000000
0.338689 0.326909 0.000000
0.449317 0.371832 0.000000
0.537743 0.396490 0.000000
0.618860 0.413764 0.000000
0.688960 0.424414 0.000000
0.749722 0.431830 0.000000
0.801083 0.436530 0.000000
0.839933 0.432898 0.000000
0.870848 0.426917 0.000000
0.899290 0.423316 0.000000
0.925261 0.423102 0.000000
0.948913 0.425269 0.000000
0.970367 0.430488 0.000000
0.989746 0.438239 0.000000
1.000000 0.448707 0.000000
1.000000 0.461707 0.000000
1.000000 0.477333 0.000000
1.000000 0.496040 0.000000
1.000000 0.518029 0.113802
1.000000 0.543481 0.188418
1.000000 0.572442 0.256321
0.000000 0.308629 0.137484
0.000000 0.309819 0.136538
0.000000 0.311131 0.135042
0.000000 0.314275 0.132204
0.000000 0.319066 0.126772
0.000000 0.325628 0.119844
0.000000 0.331731 0.099580
0.051026 0.334478 0.077638
0.124422 0.336706 0.068879
0.182681 0.344762 0.042390
0.250523 0.362493 0.000000
0.326360 0.381323 0.000000
0.409644 0.399451 0.000000
0.510491 0.431434 0.000000
0.594842 0.452308 0.000000
0.668116 0.464881 0.000000
0.731655 0.472541 0.000000
0.785428 0.477150 0.000000
0.831571 0.480201 0.000000
0.872465 0.482795 0.000000
0.900450 0.477241 0.000000
0.925872 0.474220 0.000000
0.949004 0.473945 0.000000
0.970123 0.476234 0.000000
0.989136 0.481086 0.000000
1.000000 0.488289 0.000000
1.000000 0.498177 0.000000
1.000000 0.510674 0.000000
1.000000 0.526024 0.000000
1.000000 0.544854 0.094392
1.000000 0.567102 0.179294
1.000000 0.592828 0.249790
0.000000 0.361181 0.154360
0.000000 0.362280 0.153231
0.000000 0.363561 0.152010
0.000000 0.366339 0.148898
0.000000 0.370672 0.143954
0.000000 0.376776 0.137026
0.000000 0.384527 0.127596
0.000000 0.388312 0.085420
0.099123 0.391913 0.075959
0.165591 0.396521 0.062654
0.232639 0.410712 0.000183
0.306767 0.428656 0.000000
0.386419 0.445838 0.000000
0.471107 0.461402 0.000000
0.567437 0.486763 0.000000
0.645045 0.502159 0.000000
0.711147 0.510735 0.000000
0.767971 0.515831 0.000000
0.816770 0.518791 0.000000
0.859556 0.521782 0.000000
0.897124 0.525261 0.000000
0.926787 0.525048 0.000000
0.949493 0.522393 0.000000
0.970184 0.522240 0.000000
0.988891 0.524437 0.000000
1.000000 0.528862 0.000000
1.000000 0.535668 0.000000
1.000000 0.545220 0.000000
1.000000 0.557671 0.000000
1.000000 0.573327 0.071077
1.000000 0.592340 0.169436
1.000000 0.615045 0.244266
0.000000 0.415015 0.173220
0.000000 0.416022 0.172335
0.000000 0.417090 0.170779
0.000000 0.419593 0.168002
0.000000 0.423713 0.163363
0.000000 0.430365 0.157168
0.000000 0.438270 0.148989
0.000000 0.445228 0.122194
0.042084 0.449409 0.089540
0.147402 0.452857 0.076936
0.212497 0.456764 0.057954
0.285618 0.473243 0.000000
0.362768 0.489143 0.000000
0.444007 0.504021 0.000000
0.528496 0.517113 0.000000
0.618341 0.535515 0.000000
0.689082 0.546624 0.000000
0.749111 0.552514 0.000000
0.800687 0.555901 0.000000
0.845975 0.558801 0.000000
0.885435 0.562005 0.000000
0.919829 0.565850 0.000000
0.949645 0.569909 0.000000
0.970275 0.567712 0.000000
0.988617 0.567346 0.000000
1.000000 0.569451 0.000000
1.000000 0.573816 0.000000
1.000000 0.580896 0.000000
1.000000 0.590753 0.000000
1.000000 0.603754 0.021851
1.000000 0.619928 0.162448
1.000000 0.639704 0.241215
0.000000 0.471870 0.195743
0.000000 0.472969 0.194797
0.000000 0.474128 0.193729
0.000000 0.476783 0.191226
0.000000 0.480781 0.187198
0.000000 0.486122 0.181338
0.000000 0.492714 0.174258
0.000000 0.500481 0.165866
0.000000 0.505058 0.110292
0.122560 0.507347 0.098695
0.197971 0.509606 0.083894
0.265202 0.515892 0.055024
0.339788 0.530053 0.000000
0.417792 0.543481 0.000000
0.498299 0.555291 0.000000
0.580224 0.565270 0.000000
0.662776 0.577661 0.000000
0.728054 0.586572 0.000000
0.783200 0.590997 0.000000
0.831357 0.594354 0.000000
0.873350 0.597559 0.000000
0.909789 0.601221 0.000000
0.941070 0.605310 0.000000
0.968170 0.609644 0.000000
0.989075 0.611139 0.000000
1.000000 0.610864 0.000000
1.000000 0.612757 0.000000
1.000000 0.617273 0.000000
1.000000 0.624353 0.000000
1.000000 0.634333 0.000000
1.000000 0.647364 0.153384
1.000000 0.663752 0.236210
0.000000 0.524498 0.219883
0.000000 0.525353 0.218814
0.000000 0.526268 0.217990
0.000000 0.528405 0.215549
0.000000 0.531640 0.211643
0.000000 0.535943 0.206973
0.000000 0.541222 0.200778
0.000000 0.547601 0.193973
0.000000 0.552789 0.163424
0.087495 0.555901 0.125612
0.180728 0.557671 0.113252
0.248478 0.559136 0.097444
0.317876 0.567529 0.064912
0.392676 0.579614 0.000000
0.469734 0.590448 0.000000
0.547936 0.599603 0.000000
0.626734 0.607446 0.000000
0.703334 0.616144 0.000000
0.763760 0.623377 0.000000
0.814878 0.627405 0.000000
0.859464 0.630854 0.000000
0.898070 0.634333 0.000000
0.931273 0.638056 0.000000
0.959777 0.642054 0.000000
0.984253 0.646418 0.000000
1.000000 0.650660 0.000000
1.000000 0.650385 0.000000
1.000000 0.652491 0.000000
1.000000 0.657069 0.000000
1.000000 0.664454 0.000000
1.000000 0.674769 0.143282
1.000000 0.688136 0.231388
0.000000 0.573297 0.244999
0.000000 0.574060 0.244450
0.000000 0.583612 0.248508
0.000000 0.585229 0.246281
0.000000 0.587793 0.243076
0.000000 0.590875 0.239078
0.000000 0.594934 0.234257
0.000000 0.599451 0.228489
0.050721 0.604639 0.221195
0.060945 0.607965 0.164431
0.169314 0.608972 0.150790
0.241611 0.609674 0.138338
0.304570 0.609766 0.122072
0.375830 0.619287 0.090272
0.449470 0.628779 0.000000
0.524620 0.637110 0.000000
0.600488 0.644404 0.000000
0.675776 0.650568 0.000000
0.745846 0.655909 0.000000
0.800809 0.661524 0.000000
0.847532 0.665095 0.000000
0.888121 0.668421 0.000000
0.922820 0.671901 0.000000
0.952605 0.675410 0.000000
0.977966 0.678462 0.000000
0.999512 0.682216 0.000000
1.000000 0.685908 0.000000
1.000000 0.687465 0.000000
1.000000 0.689479 0.000000
1.000000 0.694240 0.000000
1.000000 0.701778 0.130343
1.000000 0.712306 0.225742
0.000000 0.620111 0.272526
0.000000 0.621698 0.272679
0.000000 0.623438 0.272313
0.000000 0.625818 0.271397
0.000000 0.628595 0.269169
0.000000 0.631525 0.266331
0.000000 0.634852 0.262547
0.000000 0.638544 0.258549
0.006073 0.642817 0.254948
0.112764 0.646296 0.224582
0.155612 0.648463 0.185977
0.231327 0.648859 0.174777
0.295232 0.648829 0.161776
0.356573 0.650202 0.144320
0.427070 0.659083 0.115053
0.498939 0.667140 0.064271
0.571832 0.674128 0.000000
0.644770 0.680171 0.000000
0.715938 0.685451 0.000000
0.780453 0.688533 0.000000
0.831052 0.693507 0.000000
0.874296 0.697475 0.000000
0.911406 0.701289 0.000000
0.943114 0.704921 0.000000
0.970062 0.707973 0.000000
0.993072 0.710780 0.000000
1.000000 0.714260 0.000000
1.000000 0.717891 0.000000
1.000000 0.721157 0.000000
1.000000 0.723445 0.000000
1.000000 0.728481 0.116609
1.000000 0.736324 0.220615
0.000000 0.660487 0.298741
0.000000 0.661830 0.299016
0.000000 0.663416 0.299168
0.000000 0.665339 0.298314
0.000000 0.667597 0.296971
0.000000 0.670100 0.294743
0.000000 0.672755 0.292058
0.000000 0.675715 0.289220
0.000000 0.679133 0.287144
0.157229 0.682582 0.280949
0.159274 0.685664 0.229435
0.226261 0.686244 0.213535
0.289769 0.686000 0.202029
0.348272 0.685542 0.188785
0.410101 0.688869 0.170565
0.478614 0.696498 0.143679
0.548272 0.703090 0.103517
0.618219 0.708827 0.000000
0.687526 0.713771 0.000000
0.754543 0.718288 0.000000
0.813596 0.720333 0.000000
0.859648 0.724422 0.000000
0.899290 0.728695 0.000000
0.932982 0.732662 0.000000
0.961639 0.736019 0.000000
0.986023 0.738552 0.000000
1.000000 0.740963 0.000000
1.000000 0.744228 0.000000
1.000000 0.747616 0.000000
1.000000 0.751339 0.000000
1.000000 0.754330 0.100313
1.000000 0.759670 0.215244
0.000000 0.698726 0.326390
0.000000 0.699977 0.326818
0.000000 0.701228 0.326970
0.000000 0.702907 0.326696
0.000000 0.704860 0.325628
0.000000 0.706844 0.324224
0.000000 0.709010 0.322393
0.000000 0.711421 0.320806
0.000000 0.713954 0.319921
0.169894 0.716762 0.320226
0.202152 0.719448 0.291325
0.226474 0.721431 0.253239
0.289097 0.721096 0.243351
0.346258 0.720546 0.231846
0.400885 0.719692 0.218662
0.463478 0.724788 0.199985
0.530083 0.731228 0.175631
0.597406 0.736995 0.143435
0.664546 0.742123 0.094087
0.730434 0.746639 0.000000
0.793362 0.751003 0.000000
0.847318 0.752773 0.000000
0.888609 0.756100 0.000000
0.924407 0.760616 0.000000
0.954681 0.764462 0.000000
0.980285 0.767330 0.000000
1.000000 0.769100 0.000000
1.000000 0.771298 0.000000
1.000000 0.774136 0.000000
1.000000 0.777218 0.000000
1.000000 0.780667 0.113924
1.000000 0.784360 0.218357
0.000000 0.738521 0.358251
0.000000 0.739162 0.358526
0.000000 0.739742 0.358495
0.000000 0.740719 0.358038
0.000000 0.741939 0.357183
0.000000 0.743313 0.356390
0.000000 0.744839 0.355474
0.000000 0.746639 0.355077
0.000000 0.748684 0.355505
0.180758 0.750820 0.357153
0.248417 0.753048 0.352056
0.249668 0.755856 0.305791
0.297307 0.756130 0.288853
0.352056 0.755520 0.278569
0.404456 0.754543 0.267094
0.456367 0.753689 0.254002
0.519097 0.759487 0.235782
0.582849 0.764706 0.213565
0.646632 0.769314 0.185275
0.709834 0.773404 0.147768
0.770993 0.777127 0.086519
0.828702 0.780575 0.000000
0.876829 0.781796 0.000000
0.912932 0.783749 0.000000
0.945037 0.787930 0.000000
0.972198 0.791196 0.000000
0.995300 0.793393 0.000000
1.000000 0.794522 0.000000
1.000000 0.796902 0.000000
1.000000 0.799435 0.000000
1.000000 0.802274 0.134096
1.000000 0.805539 0.226108
0.000000 0.772335 0.388403
0.000000 0.772885 0.388556
0.000000 0.773434 0.388830
0.000000 0.774228 0.388800
0.000000 0.775113 0.388373
0.000000 0.776059 0.387976
0.000000 0.777218 0.387945
0.000000 0.778439 0.388342
0.065736 0.779812 0.389776
0.194003 0.781277 0.392279
0.273045 0.782712 0.396246
0.293126 0.784939 0.368292
0.308629 0.786770 0.332647
0.360418 0.786130 0.323491
0.410468 0.785275 0.313634
0.459510 0.784146 0.302312
0.511650 0.785031 0.289067
0.571893 0.789944 0.271641
0.632685 0.794339 0.251530
0.693172 0.798215 0.226413
0.752285 0.801633 0.194675
0.808865 0.804807 0.151705
0.861204 0.808011 0.078706
0.904051 0.809049 0.000000
0.934264 0.808530 0.000000
0.963165 0.812284 0.000000
0.987640 0.815091 0.000000
1.000000 0.816739 0.000000
1.000000 0.817624 0.000000
1.000000 0.819883 0.000000
1.000000 0.822293 0.151766
1.000000 0.825040 0.241032
0.000000 0.806638 0.422553
0.000000 0.807126 0.422889
0.000000 0.807523 0.423285
0.000000 0.807980 0.423377
0.000000 0.808469 0.423224
0.000000 0.808988 0.423468
0.000000 0.809567 0.423896
0.000000 0.810147 0.424842
0.112947 0.810758 0.426825
0.215427 0.811368 0.429877
0.289769 0.811978 0.434028
0.339086 0.812894 0.428809
0.338750 0.815305 0.387121
0.374548 0.815244 0.369177
0.421088 0.814084 0.360143
0.467170 0.812711 0.349584
0.512840 0.811154 0.338415
0.565209 0.813199 0.324834
0.622370 0.817166 0.308232
0.679866 0.820737 0.289097
0.736477 0.823941 0.266423
0.791257 0.826780 0.238193
0.842649 0.829465 0.202548
0.889464 0.832212 0.152102
0.927184 0.832731 0.113252
0.954345 0.832212 0.090730
0.980102 0.835416 0.061891
1.000000 0.837491 0.000000
1.000000 0.838376 0.000000
1.000000 0.839414 0.000000
1.000000 0.841428 0.170413
1.000000 0.843626 0.257328
0.000000 0.836088 0.454841
0.000000 0.836545 0.455329
0.000000 0.836881 0.455787
0.000000 0.837186 0.456092
0.000000 0.837491 0.456550
0.000000 0.837827 0.457160
0.000000 0.838102 0.458381
0.000000 0.838437 0.460182
0.152010 0.838682 0.462898
0.239567 0.838987 0.466651
0.309148 0.839231 0.471412
0.372259 0.839322 0.477333
0.385473 0.841154 0.450599
0.394812 0.842893 0.416388
0.438392 0.841855 0.408423
0.481483 0.840604 0.399237
0.524681 0.839200 0.389410
0.567864 0.837705 0.378698
0.620478 0.840696 0.365820
0.674464 0.843839 0.350835
0.727993 0.846616 0.332860
0.780117 0.849119 0.311711
0.829648 0.851408 0.286046
0.875273 0.853696 0.254063
0.916533 0.856138 0.212772
0.949584 0.856260 0.184543
0.972717 0.854429 0.170199
0.995514 0.856992 0.158602
1.000000 0.858396 0.136385
1.000000 0.858640 0.092988
1.000000 0.860075 0.193759
1.000000 0.861814 0.277989
0.000000 0.864714 0.489906
0.000000 0.864988 0.490333
0.000000 0.865110 0.490852
0.000000 0.865263 0.491157
0.000000 0.865263 0.491920
0.000000 0.865263 0.492927
0.000000 0.865232 0.494392
0.065888 0.865110 0.496620
0.191257 0.865019 0.499855
0.266728 0.864927 0.503899
0.332372 0.864714 0.509056
0.392737 0.864439 0.515282
0.432105 0.864866 0.510002
0.432410 0.867216 0.474098
0.459693 0.867277 0.456336
0.499886 0.866056 0.448341
0.540185 0.864652 0.439643
0.580560 0.863249 0.430213
0.623011 0.862638 0.419898
0.673304 0.865354 0.407507
0.723537 0.867735 0.393164
0.772702 0.869871 0.376226
0.819699 0.871763 0.356085
0.863584 0.873625 0.331914
0.903624 0.875608 0.302007
0.940093 0.877653 0.264866
0.968933 0.877287 0.240848
0.988739 0.874418 0.227543
1.000000 0.875975 0.218997
1.000000 0.876799 0.203525
1.000000 0.877012 0.212711
1.000000 0.878325 0.294560
0.000000 0.890929 0.525658
0.000000 0.891051 0.526146
0.000000 0.891142 0.526543
0.000000 0.891173 0.527276
0.000000 0.891142 0.528374
0.000000 0.891142 0.530022
0.000000 0.891173 0.532586
0.152529 0.891173 0.535973
0.236149 0.891203 0.540398
0.303899 0.891142 0.545586
0.365576 0.890867 0.551873
0.423499 0.890471 0.559106
0.477790 0.889982 0.566644
0.486397 0.891936 0.541894
0.492683 0.893889 0.511223
0.529656 0.892729 0.504540
0.567041 0.891386 0.497322
0.604547 0.889982 0.489540
0.642267 0.888548 0.481117
0.683986 0.888823 0.471412
0.729976 0.890684 0.459968
0.775143 0.892302 0.446357
0.818418 0.893767 0.429633
0.859037 0.895171 0.410254
0.896635 0.896605 0.387182
0.931212 0.898131 0.359197
0.962982 0.899809 0.325261
0.987762 0.898711 0.302647
1.000000 0.894804 0.290013
1.000000 0.895171 0.283268
1.000000 0.895109 0.270970
1.000000 0.895384 0.321508
0.000000 0.918090 0.568170
0.000000 0.918151 0.568566
0.000000 0.918120 0.568963
0.000000 0.917937 0.569665
0.000000 0.917662 0.570886
0.000000 0.917296 0.572625
0.139040 0.916899 0.575128
0.218692 0.916381 0.578302
0.283726 0.915831 0.582300
0.343481 0.915099 0.587335
0.399786 0.914153 0.593133
0.452949 0.913176 0.599451
0.503593 0.912078 0.606104
0.533593 0.912200 0.599817
