data/fiter_cube/59424107/1023392/file.cube
# Created by Adobe Lightroom plugin Export LUT (1.17.0)
# www.johnrellis.com/lightroom/exportlut.htm
# Preset: 背光使用_05 云集
# Color profile: C:\Program Files (x86)\Common Files\Adobe\Color\Profiles\Recommended\AdobeRGB1998.icc
LUT_3D_SIZE 5
DOMAIN_MIN 0.000000 0.000000 0.000000
DOMAIN_MAX 0.903226 0.903226 0.903226
0.020203 0.060060 0.056794
0.166232 0.039796 0.059174
0.610956 0.000000 0.000000
0.910460 0.000000 0.000000
1.000000 0.288396 0.105531
0.004547 0.119997 0.079866
0.138399 0.138277 0.056245
0.629938 0.176761 0.000000
0.914000 0.187137 0.000000
1.000000 0.382635 0.077943
0.000000 0.415015 0.173220
0.000000 0.445228 0.122194
0.528496 0.517113 0.000000
0.919829 0.565850 0.000000
1.000000 0.590753 0.000000
0.000000 0.738521 0.358251
0.000000 0.746639 0.355077
0.404456 0.754543 0.267094
0.828702 0.780575 0.000000
1.000000 0.796902 0.000000
0.000000 0.940795 0.607202
0.274815 0.938262 0.618219
0.575311 0.930449 0.622980
0.780423 0.927459 0.558556
0.995178 0.933623 0.424720
0.012268 0.071473 0.123690
0.136843 0.073060 0.116701
0.581872 0.000000 0.096651
0.902190 0.000000 0.000000
1.000000 0.310216 0.088960
0.000000 0.130129 0.145785
0.150332 0.154513 0.154574
0.596368 0.172396 0.114778
0.904692 0.248417 0.000000
1.000000 0.392859 0.036927
0.000000 0.424598 0.266484
0.080812 0.456092 0.263005
0.524956 0.516045 0.160098
0.911650 0.577173 0.000000
1.000000 0.596338 0.000000
0.000000 0.739406 0.431281
0.000000 0.746853 0.434241
0.442634 0.756954 0.384863
0.825040 0.781796 0.277440
1.000000 0.804562 0.193851
0.000000 0.940520 0.641749
0.266392 0.938018 0.650660
0.617273 0.929137 0.684108
0.785489 0.927337 0.613764
0.990173 0.934722 0.512078
0.000000 0.095155 0.365759
0.147250 0.087648 0.368414
0.490852 0.097536 0.368536
0.849943 0.221134 0.397345
1.000000 0.446296 0.415045
0.000000 0.168673 0.377844
0.111879 0.181003 0.402777
0.498878 0.253971 0.405554
0.846281 0.341588 0.429572
1.000000 0.496498 0.420935
0.000000 0.407568 0.457923
0.000000 0.434730 0.467048
0.514794 0.532891 0.509941
0.854307 0.605737 0.524743
1.000000 0.653254 0.466377
0.000000 0.739315 0.603265
0.000000 0.746456 0.607355
0.519951 0.758755 0.613642
0.810086 0.786679 0.578515
1.000000 0.832273 0.586267
0.000000 0.938384 0.745449
0.246128 0.937224 0.746731
0.573114 0.931487 0.749447
0.789975 0.926726 0.726314
0.975372 0.935821 0.678096
0.000000 0.157412 0.643091
0.063722 0.160494 0.645045
0.498482 0.182254 0.652216
0.776486 0.397406 0.644160
0.979828 0.608331 0.720974
0.000000 0.217227 0.646967
0.000000 0.243320 0.655512
0.492500 0.287541 0.661372
0.772915 0.466133 0.658961
0.977966 0.633722 0.728511
0.000000 0.418585 0.670924
0.000000 0.428870 0.669764
0.452949 0.501549 0.689357
0.772335 0.622858 0.706874
0.977569 0.706935 0.750637
0.000000 0.682856 0.732876
0.000000 0.691218 0.732570
0.446235 0.720760 0.738186
0.784054 0.785428 0.776059
0.979431 0.835355 0.789944
0.000000 0.934173 0.846586
0.209140 0.933745 0.846952
0.555322 0.932555 0.849607
0.797238 0.929595 0.842222
0.960967 0.939605 0.826078
0.319371 0.432807 0.902220
0.417212 0.441474 0.900267
0.644648 0.472602 0.893248
0.858946 0.547051 0.883604
0.956725 0.707576 0.864622
0.250553 0.458045 0.904112
0.406073 0.492409 0.901427
0.637537 0.518578 0.894835
0.855772 0.583856 0.885863
0.956237 0.728145 0.868589
0.000000 0.583856 0.905943
0.194461 0.581964 0.905241
0.578607 0.625269 0.900542
0.836454 0.671046 0.892576
0.954376 0.782620 0.879637
0.120119 0.781399 0.915770
0.257359 0.781674 0.914916
0.468513 0.774044 0.910674
0.759487 0.773068 0.902983
0.951720 0.858396 0.898436
0.312047 0.927672 0.930846
0.384222 0.927733 0.930632
0.558709 0.926055 0.928557
0.765988 0.925109 0.925566
0.954559 0.947784 0.935058
