data/fiter_cube/35558087/1023152/file.cube
# Created by Adobe Lightroom plugin Export LUT (1.17.0)
# www.johnrellis.com/lightroom/exportlut.htm
# Preset: 明亮通透美食摄影_05 云集
# Color profile: C:\Program Files (x86)\Common Files\Adobe\Color\Profiles\Recommended\AdobeRGB1998.icc
LUT_3D_SIZE 8
DOMAIN_MIN 0.000000 0.000000 0.000000
DOMAIN_MAX 0.903226 0.903226 0.903226
0.000000 0.000000 0.000000
0.108980 0.000000 0.000000
0.231724 0.000000 0.000000
0.371374 0.000000 0.000000
0.532372 0.000000 0.000000
0.705135 0.000000 0.000000
0.866392 0.000000 0.000000
1.000000 0.000000 0.000000
0.000000 0.112978 0.029877
0.094453 0.101076 0.037903
0.232731 0.114168 0.000000
0.372595 0.114321 0.000000
0.533349 0.108034 0.000000
0.705318 0.085664 0.000000
0.866361 0.000000 0.000000
1.000000 0.000000 0.000000
0.000000 0.251499 0.087404
0.000000 0.259892 0.000000
0.199069 0.214969 0.070069
0.352178 0.236545 0.000000
0.535637 0.258122 0.000000
0.705928 0.262425 0.000000
0.866178 0.256657 0.000000
1.000000 0.241672 0.000000
0.000000 0.419593 0.139040
0.000000 0.427283 0.092287
0.080232 0.450477 0.000000
0.317906 0.344152 0.102480
0.444038 0.342626 0.115145
0.706752 0.414374 0.000000
0.865751 0.414862 0.000000
1.000000 0.403449 0.000000
0.000000 0.616388 0.199954
0.000000 0.622797 0.166964
0.000000 0.645411 0.000000
0.284123 0.645594 0.000000
0.449500 0.486671 0.138338
0.537346 0.446296 0.191531
0.821927 0.549310 0.000000
0.999939 0.555871 0.000000
0.000000 0.794308 0.257237
0.000000 0.798306 0.232364
0.000000 0.812314 0.070405
0.000000 0.831937 0.000000
0.447517 0.800778 0.000000
0.602045 0.652003 0.179263
0.661067 0.574060 0.279881
0.939178 0.689601 0.216190
0.000000 0.932586 0.305241
0.000000 0.934783 0.286473
0.000000 0.942443 0.200839
0.000000 0.955718 0.000000
0.198795 0.964080 0.000000
0.583795 0.915587 0.000000
0.753964 0.813596 0.270268
0.826352 0.747402 0.451667
0.000000 1.000000 0.343725
0.000000 1.000000 0.329473
0.000000 1.000000 0.270909
0.000000 1.000000 0.026093
0.000000 1.000000 0.000000
0.390356 1.000000 0.000000
0.704707 1.000000 0.132876
0.897246 0.956023 0.481849
0.015015 0.015839 0.109102
0.101076 0.038819 0.104524
0.236210 0.000000 0.115511
0.379309 0.000000 0.091249
0.539635 0.000000 0.067903
0.710079 0.000000 0.000000
0.869413 0.000000 0.000000
1.000000 0.000000 0.000000
0.000000 0.112428 0.116518
0.108003 0.110719 0.115999
0.237339 0.098573 0.107546
0.379522 0.073548 0.090272
0.540154 0.000000 0.063539
0.710018 0.000000 0.000000
0.869291 0.000000 0.000000
1.000000 0.000000 0.000000
0.000000 0.247898 0.141665
0.047456 0.252384 0.133303
0.210697 0.226017 0.122652
0.375219 0.242313 0.095094
0.540673 0.246616 0.037598
0.710079 0.244602 0.000000
0.868864 0.234562 0.000000
1.000000 0.217258 0.000000
0.000000 0.414893 0.186282
0.000000 0.420874 0.168856
0.057496 0.445472 0.000000
0.325872 0.351781 0.140566
0.462837 0.353216 0.141268
0.710048 0.408728 0.000000
0.868040 0.406043 0.000000
1.000000 0.393164 0.000000
0.000000 0.610864 0.242985
0.000000 0.616876 0.221927
0.000000 0.639673 0.000000
0.268223 0.651118 0.000000
0.455604 0.492744 0.167208
0.552178 0.456245 0.204868
0.831052 0.550103 0.000000
1.000000 0.550835 0.000000
0.000000 0.790616 0.296056
0.000000 0.794675 0.275456
0.000000 0.808927 0.173251
0.000000 0.830106 0.000000
0.442420 0.804135 0.000000
0.605768 0.655543 0.202914
0.670985 0.581323 0.289158
0.943877 0.689845 0.228305
0.000000 0.930602 0.337743
0.000000 0.932860 0.321233
0.000000 0.940642 0.250095
0.000000 0.954101 0.000000
0.200656 0.963470 0.000000
0.582116 0.918090 0.000000
0.755795 0.815000 0.287602
0.831174 0.751034 0.458595
0.000000 1.000000 0.370581
0.000000 1.000000 0.357610
0.000000 1.000000 0.305516
0.000000 1.000000 0.160769
0.000000 1.000000 0.000000
0.387396 1.000000 0.000000
0.704341 1.000000 0.171206
0.898161 0.956207 0.492500
0.031617 0.035248 0.234012
0.117525 0.048249 0.229465
0.217807 0.071412 0.226658
0.359228 0.000000 0.250401
0.546471 0.000000 0.251591
0.718990 0.000000 0.217075
0.877348 0.000000 0.173831
1.000000 0.000000 0.143862
0.000000 0.104860 0.248386
0.101442 0.105318 0.243778
0.222965 0.122683 0.233555
0.368780 0.090974 0.251774
0.548241 0.000000 0.241459
0.720546 0.000000 0.197055
0.877073 0.000000 0.172519
1.000000 0.000000 0.141909
0.000000 0.244327 0.254856
0.000000 0.243839 0.255802
0.226719 0.234531 0.250828
0.384558 0.217838 0.235416
0.549493 0.194156 0.217929
0.719448 0.163607 0.195987
0.876005 0.127047 0.168399
1.000000 0.082979 0.134676
0.000000 0.399878 0.274784
0.000000 0.404334 0.273350
0.166262 0.414801 0.259464
0.347692 0.371435 0.239963
0.525505 0.381140 0.230167
0.717586 0.386908 0.195834
0.874144 0.374151 0.161776
1.000000 0.355749 0.121767
0.000000 0.594812 0.327794
0.000000 0.599115 0.322972
0.000000 0.612909 0.297887
0.222782 0.651057 0.173465
0.474617 0.510979 0.250187
0.603845 0.488136 0.253544
0.861418 0.549554 0.172854
1.000000 0.533562 0.103792
0.000000 0.779995 0.375738
0.000000 0.782986 0.370031
0.000000 0.793698 0.340429
0.000000 0.820127 0.169650
0.422919 0.815122 0.144228
0.618189 0.667018 0.274968
0.705257 0.605158 0.322484
0.960113 0.689357 0.271122
0.000000 0.924804 0.411749
0.000000 0.926421 0.406897
0.000000 0.932860 0.377935
0.000000 0.947082 0.261814
0.216342 0.960357 0.129061
0.576104 0.926909 0.145937
0.762142 0.819638 0.345037
0.847990 0.763638 0.482795
0.000000 1.000000 0.438422
0.000000 1.000000 0.435431
0.000000 1.000000 0.407843
0.000000 1.000000 0.323552
0.000000 1.000000 0.134524
0.382910 1.000000 0.170474
0.703517 1.000000 0.266697
0.901335 0.957000 0.528679
0.037110 0.046937 0.378607
0.128542 0.057771 0.376196
0.241917 0.094392 0.365301
0.351598 0.101625 0.366247
0.503502 0.059174 0.396307
0.701411 0.000000 0.418311
0.877653 0.000000 0.393957
1.000000 0.000000 0.343053
0.000000 0.104616 0.390723
0.102296 0.108003 0.387457
0.241001 0.129885 0.374609
0.355444 0.140902 0.371099
0.507561 0.122469 0.398230
0.706752 0.000000 0.414954
0.878630 0.000000 0.386481
1.000000 0.000000 0.332372
0.000000 0.238651 0.411261
0.000000 0.229252 0.412970
0.208164 0.216648 0.401587
0.364569 0.239017 0.384009
0.523674 0.232975 0.403662
0.723262 0.071321 0.397345
0.881773 0.000000 0.356207
1.000000 0.000000 0.309117
0.000000 0.395758 0.413184
0.000000 0.395666 0.414008
0.140902 0.392615 0.414405
0.362768 0.376349 0.404822
0.549889 0.356481 0.384741
0.724483 0.334417 0.365698
0.880735 0.308965 0.340154
1.000000 0.281529 0.309819
0.000000 0.563867 0.425116
0.000000 0.567529 0.425849
0.000000 0.579095 0.426154
0.308415 0.593805 0.416632
0.505852 0.538506 0.384833
0.691035 0.534783 0.376562
0.875547 0.531853 0.347997
1.000000 0.504692 0.313054
0.000000 0.759701 0.476265
0.000000 0.762539 0.474311
0.000000 0.771756 0.466377
0.245304 0.785794 0.448676
0.400763 0.820279 0.361913
0.639734 0.685115 0.390997
0.764462 0.641688 0.388495
0.987091 0.684810 0.353918
0.000000 0.914580 0.505455
0.000000 0.916136 0.502800
0.000000 0.921324 0.493721
0.190311 0.929381 0.480659
0.277623 0.950744 0.359136
0.575372 0.937377 0.363989
0.774014 0.827085 0.441444
0.877592 0.784054 0.525689
0.000000 1.000000 0.520775
0.000000 1.000000 0.518547
0.000000 1.000000 0.511925
0.112825 1.000000 0.500877
0.231418 1.000000 0.410864
0.442084 1.000000 0.383490
0.705684 1.000000 0.395880
0.907103 0.958251 0.588281
0.055726 0.065064 0.547143
0.141909 0.070863 0.545098
0.267216 0.097475 0.537072
0.385107 0.151461 0.519799
0.504631 0.130617 0.525597
0.667720 0.062379 0.558556
0.842527 0.000000 0.579339
1.000000 0.000000 0.555108
0.000000 0.114870 0.556146
0.109468 0.117891 0.553704
0.259800 0.133577 0.544762
0.386114 0.175326 0.526513
0.507103 0.163882 0.528923
0.670619 0.127016 0.560113
0.845670 0.000000 0.578058
1.000000 0.000000 0.549889
0.000000 0.222049 0.578241
0.000000 0.211337 0.577203
0.206577 0.217075 0.567346
0.381994 0.244144 0.546014
0.514611 0.252720 0.539452
0.679652 0.244266 0.564660
0.856657 0.160128 0.572045
1.000000 0.000000 0.528679
0.000000 0.396155 0.588861
0.000000 0.391272 0.589899
0.000000 0.370977 0.592370
0.339574 0.353124 0.577417
0.524193 0.381262 0.554162
0.691981 0.389227 0.570886
0.875517 0.305669 0.552758
1.000000 0.200870 0.499702
0.000000 0.563195 0.587854
0.000000 0.563226 0.588525
0.000000 0.562036 0.589899
0.279149 0.556176 0.588830
0.521630 0.539788 0.577722
0.718746 0.524071 0.555413
0.876463 0.503777 0.531273
1.000000 0.474586 0.497444
0.000000 0.730678 0.586969
0.000000 0.731991 0.585809
0.000000 0.736263 0.581292
0.212955 0.749020 0.584161
0.488045 0.762783 0.588617
0.672877 0.708125 0.555138
0.840177 0.688899 0.540063
1.000000 0.678096 0.515068
0.000000 0.897520 0.611536
0.000000 0.899016 0.610620
0.000000 0.904051 0.607385
0.142092 0.911833 0.603296
0.476875 0.919127 0.615625
0.611383 0.941955 0.582269
0.792874 0.836942 0.570062
0.919524 0.808560 0.589960
0.000000 1.000000 0.620447
0.000000 1.000000 0.619074
0.000000 1.000000 0.615015
0.116945 1.000000 0.612573
0.474739 1.000000 0.637140
0.544854 1.000000 0.575555
0.727901 1.000000 0.573083
0.915740 0.960052 0.664881
0.084932 0.095369 0.720027
0.160464 0.100282 0.718746
0.289158 0.120058 0.713771
0.419745 0.159274 0.702480
0.539696 0.223087 0.683040
0.666651 0.177554 0.693538
0.824063 0.166720 0.718898
0.962493 0.273930 0.733272
0.000000 0.135164 0.724941
0.128328 0.138308 0.723507
0.277958 0.151949 0.718288
0.415900 0.183230 0.706142
0.540307 0.240909 0.686580
0.668025 0.205234 0.695491
0.825406 0.200229 0.719661
0.962982 0.297307 0.733333
0.000000 0.217746 0.738613
0.000000 0.219669 0.736873
0.216953 0.228183 0.730495
0.397101 0.250736 0.718257
0.540673 0.297368 0.698573
0.672724 0.285924 0.701930
0.829862 0.292485 0.722042
0.968322 0.346380 0.731106
0.000000 0.373968 0.752834
0.000000 0.367498 0.752132
0.000000 0.346685 0.749142
0.337255 0.350256 0.738186
0.534966 0.388434 0.717983
0.679774 0.404334 0.711543
0.836088 0.420478 0.725704
0.979309 0.414923 0.722866
0.000000 0.550591 0.752956
0.000000 0.547845 0.753536
0.000000 0.537163 0.755245
0.202029 0.515770 0.757168
0.499428 0.513573 0.743740
0.689387 0.551904 0.722194
0.842679 0.569604 0.730983
0.995636 0.508598 0.702815
0.000000 0.720363 0.750759
0.000000 0.720333 0.751156
0.000000 0.719905 0.752163
0.146487 0.718288 0.752834
0.451698 0.715328 0.751125
0.693385 0.708614 0.741482
0.862455 0.699458 0.722713
0.993469 0.683955 0.701595
0.000000 0.881315 0.740780
0.000000 0.881926 0.739834
0.000000 0.883818 0.735988
0.000000 0.885679 0.727169
0.422675 0.891112 0.730312
0.689296 0.897856 0.758480
0.823545 0.852140 0.728145
0.966979 0.839200 0.716762
0.000000 1.000000 0.729854
0.000000 1.000000 0.729274
0.000000 1.000000 0.727291
0.000000 1.000000 0.725917
0.439490 1.000000 0.737118
0.701472 1.000000 0.782773
0.793790 1.000000 0.773007
0.928771 0.962707 0.762875
0.150759 0.157382 0.866697
0.202731 0.164065 0.868132
0.316289 0.181949 0.864500
0.445350 0.216495 0.857603
0.574426 0.272557 0.846738
0.692470 0.340398 0.832425
0.810330 0.295323 0.839689
0.949340 0.347051 0.857237
0.106996 0.176852 0.860685
0.174380 0.182010 0.861784
0.300114 0.196841 0.858579
0.433997 0.227024 0.851408
0.564538 0.277195 0.839231
0.682124 0.342443 0.822324
0.799374 0.296208 0.828824
0.939757 0.337774 0.846708
0.000000 0.244541 0.873075
0.000000 0.247288 0.871824
0.248631 0.257725 0.866636
0.412268 0.282292 0.858915
0.556725 0.324559 0.845090
0.684382 0.394202 0.826963
0.806271 0.364721 0.836240
0.948089 0.411810 0.854887
0.000000 0.353826 0.885832
0.000000 0.348852 0.884306
0.000000 0.344396 0.879332
0.356786 0.367132 0.872648
0.542260 0.406134 0.859556
0.692653 0.473548 0.842985
0.817655 0.471504 0.847654
0.954589 0.509178 0.860777
0.000000 0.511498 0.884428
0.000000 0.506065 0.883085
0.000000 0.488716 0.881956
0.175204 0.474220 0.878416
0.485512 0.496468 0.867369
0.680293 0.551904 0.848661
0.814817 0.574975 0.844205
0.954833 0.611383 0.859159
0.000000 0.678584 0.878935
0.000000 0.676905 0.879210
0.000000 0.670893 0.880064
0.000000 0.661280 0.882628
0.395331 0.651331 0.884001
0.671717 0.681727 0.874083
0.833005 0.722560 0.858885
0.960632 0.741695 0.866972
0.000000 0.846738 0.879973
0.000000 0.847837 0.881224
0.000000 0.848142 0.881987
0.000000 0.849271 0.883482
0.391333 0.848783 0.881926
0.641718 0.850126 0.879240
0.842344 0.852476 0.874754
0.976165 0.851225 0.865049
0.000000 1.000000 0.868040
0.000000 1.000000 0.867185
0.000000 1.000000 0.867613
0.000000 1.000000 0.862760
0.379675 1.000000 0.855222
0.643458 0.996643 0.863005
0.859922 0.990265 0.898070
0.946807 0.966430 0.876432
0.231998 0.236088 0.965515
0.265110 0.242435 0.965789
0.351598 0.258762 0.962127
0.466712 0.294865 0.958679
0.589654 0.350225 0.952270
0.710201 0.427588 0.942290
0.814908 0.487312 0.935882
0.914031 0.451972 0.941375
0.209598 0.245243 0.963012
0.246281 0.250950 0.963317
0.339300 0.266911 0.960327
0.457404 0.299779 0.956054
0.582879 0.352941 0.949676
0.705043 0.428046 0.939605
0.810056 0.487190 0.931853
0.910033 0.451484 0.937530
0.091188 0.282414 0.964080
0.165133 0.286717 0.963745
0.292668 0.298650 0.959503
0.435004 0.333715 0.958648
0.570794 0.381720 0.951202
0.698390 0.449897 0.939513
0.808347 0.516136 0.930205
0.909850 0.484504 0.937163
0.000000 0.340703 0.970001
0.000000 0.345220 0.970031
0.157229 0.356878 0.966613
0.378210 0.385260 0.962951
0.546105 0.432105 0.956146
0.691707 0.497566 0.945281
0.812467 0.576196 0.932952
0.914519 0.550072 0.941039
0.000000 0.460273 0.973053
0.000000 0.458503 0.973663
0.000000 0.450294 0.971893
0.204227 0.448707 0.969451
0.482673 0.490089 0.961120
0.667414 0.550378 0.949798
0.810513 0.630182 0.937133
0.920317 0.634333 0.945373
0.000000 0.616266 0.972320
0.000000 0.612696 0.971679
0.000000 0.600702 0.970703
0.000000 0.580163 0.971344
0.336706 0.579797 0.969238
0.632898 0.640009 0.962676
0.819547 0.718807 0.954009
0.937072 0.754604 0.958556
0.000000 0.781125 0.974090
0.000000 0.779599 0.973785
0.000000 0.774777 0.973358
0.000000 0.768765 0.974517
0.286229 0.765347 0.975891
0.573846 0.775540 0.977295
0.820096 0.825772 0.972045
0.943725 0.859586 0.960906
0.000000 0.950744 0.979126
0.000000 0.950439 0.978820
0.000000 0.950469 0.978637
0.000000 0.951812 0.979217
0.334142 0.953704 0.979095
0.599481 0.956390 0.977874
0.806302 0.959625 0.975769
0.957092 0.962280 0.972015
