data/fiter_cube/35558087/1023152/file.cube
# Created by Adobe Lightroom plugin Export LUT (1.17.0)
# www.johnrellis.com/lightroom/exportlut.htm
# Preset: 明亮通透美食摄影_05 云集
# Color profile: C:\Program Files (x86)\Common Files\Adobe\Color\Profiles\Recommended\AdobeRGB1998.icc
LUT_3D_SIZE 32
DOMAIN_MIN 0.0 0.0 0.0
DOMAIN_MAX 1.0 1.0 1.0
0.000000 0.000000 0.000000
0.023713 0.000000 0.000488
0.053162 0.000244 0.000702
0.080812 0.000183 0.000000
0.108980 0.000000 0.000000
0.138247 0.000000 0.000000
0.168521 0.000000 0.000000
0.199649 0.000000 0.000000
0.231724 0.000000 0.000000
0.264805 0.000000 0.000000
0.299199 0.000000 0.000000
0.334722 0.000000 0.000000
0.371374 0.000000 0.000000
0.409430 0.000000 0.000000
0.448859 0.000000 0.000000
0.489784 0.000000 0.000000
0.532372 0.000000 0.000000
0.576104 0.000000 0.000000
0.619135 0.000000 0.000000
0.661860 0.000000 0.000000
0.705135 0.000000 0.000000
0.747646 0.000000 0.000000
0.788693 0.000000 0.000000
0.828275 0.000000 0.000000
0.866392 0.000000 0.000000
0.903044 0.000000 0.000000
0.938079 0.000000 0.000000
0.971649 0.000000 0.000000
1.000000 0.000000 0.000000
1.000000 0.000000 0.000000
1.000000 0.000000 0.000000
1.000000 0.000000 0.000000
0.000000 0.023590 0.002441
0.017121 0.020478 0.004364
0.050141 0.023072 0.003265
0.080903 0.023560 0.000153
0.109010 0.024140 0.000000
0.138247 0.023407 0.000000
0.168704 0.021271 0.000000
0.199741 0.018494 0.000000
0.231846 0.013245 0.000000
0.264988 0.007843 0.000000
0.299321 0.000214 0.000000
0.334813 0.000000 0.000000
0.371527 0.000000 0.000000
0.409613 0.000000 0.000000
0.449012 0.000000 0.000000
0.489967 0.000000 0.000000
0.532403 0.000000 0.000000
0.576196 0.000000 0.000000
0.619257 0.000000 0.000000
0.661891 0.000000 0.000000
0.705196 0.000000 0.000000
0.747585 0.000000 0.000000
0.788663 0.000000 0.000000
0.828275 0.000000 0.000000
0.866423 0.000000 0.000000
0.903014 0.000000 0.000000
0.938079 0.000000 0.000000
0.971618 0.000000 0.000000
1.000000 0.000000 0.000000
1.000000 0.000000 0.000000
1.000000 0.000000 0.000000
1.000000 0.000000 0.000000
0.000000 0.055238 0.007294
0.005097 0.057710 0.000275
0.043153 0.049195 0.009949
0.076936 0.053681 0.008698
0.109041 0.055329 0.000000
0.138460 0.055512 0.000000
0.168673 0.054994 0.000000
0.199741 0.052888 0.000000
0.231907 0.050599 0.000000
0.265110 0.047242 0.000000
0.299443 0.040986 0.000000
0.334997 0.033234 0.000000
0.371710 0.022339 0.000000
0.409796 0.010681 0.000000
0.449104 0.000000 0.000000
0.490150 0.000000 0.000000
0.532616 0.000000 0.000000
0.576318 0.000000 0.000000
0.619379 0.000000 0.000000
0.661921 0.000000 0.000000
0.705226 0.000000 0.000000
0.747616 0.000000 0.000000
0.788663 0.000000 0.000000
0.828244 0.000000 0.000000
0.866392 0.000000 0.000000
0.903014 0.000000 0.000000
0.938048 0.000000 0.000000
0.971588 0.000000 0.000000
1.000000 0.000000 0.000000
1.000000 0.000000 0.000000
1.000000 0.000000 0.000000
1.000000 0.000000 0.000000
0.000000 0.082856 0.015320
0.000000 0.084169 0.001892
0.012940 0.084840 0.000000
0.071260 0.076143 0.021942
0.097780 0.077974 0.029755
0.138491 0.083375 0.000000
0.168826 0.083803 0.000000
0.200076 0.083894 0.000000
0.232181 0.083711 0.000000
0.265415 0.083101 0.000000
0.299779 0.081880 0.000000
0.335302 0.080323 0.000000
0.371954 0.078828 0.000000
0.410010 0.076020 0.000000
0.449470 0.071962 0.000000
0.490425 0.066438 0.000000
0.532921 0.058564 0.000000
0.576593 0.039368 0.000000
0.619379 0.013397 0.000000
0.661891 0.000000 0.000000
0.705257 0.000000 0.000000
0.747646 0.000000 0.000000
0.788693 0.000000 0.000000
0.828244 0.000000 0.000000
0.866392 0.000000 0.000000
0.903014 0.000000 0.000000
0.938018 0.000000 0.000000
0.971588 0.000000 0.000000
1.000000 0.000000 0.000000
1.000000 0.000000 0.000000
1.000000 0.000000 0.000000
1.000000 0.000000 0.000000
0.000000 0.112978 0.029877
0.000000 0.114107 0.015259
0.000000 0.115572 0.000000
0.055329 0.115724 0.000000
0.094453 0.101076 0.037903
0.116060 0.098726 0.054231
0.160281 0.109590 0.017853
0.200381 0.113497 0.000000
0.232731 0.114168 0.000000
0.265812 0.114656 0.000000
0.300237 0.114687 0.000000
0.335821 0.114687 0.000000
0.372595 0.114321 0.000000
0.410529 0.113710 0.000000
0.449958 0.112398 0.000000
0.490883 0.110658 0.000000
0.533349 0.108034 0.000000
0.576928 0.104707 0.000000
0.619532 0.099519 0.000000
0.662043 0.093446 0.000000
0.705318 0.085664 0.000000
0.747738 0.075959 0.000000
0.788724 0.062806 0.000000
0.828275 0.033539 0.000000
0.866361 0.000000 0.000000
0.902953 0.000000 0.000000
0.937957 0.000000 0.000000
0.971496 0.000000 0.000000
1.000000 0.000000 0.000000
1.000000 0.000000 0.000000
1.000000 0.000000 0.000000
1.000000 0.000000 0.000000
0.000000 0.145235 0.048585
0.000000 0.146273 0.033326
0.000000 0.147799 0.010712
0.000000 0.149966 0.000000
0.086213 0.148013 0.000000
0.118990 0.127565 0.048005
0.134157 0.118349 0.068879
0.181033 0.133852 0.039979
0.228244 0.143221 0.000000
0.266300 0.145937 0.000000
0.300847 0.147066 0.000000
0.336461 0.147677 0.000000
0.373114 0.148440 0.000000
0.411200 0.148684 0.000000
0.450538 0.148928 0.000000
0.491524 0.148745 0.000000
0.533989 0.148043 0.000000
0.577478 0.147158 0.000000
0.619562 0.144900 0.000000
0.662135 0.142214 0.000000
0.705409 0.138735 0.000000
0.747799 0.133974 0.000000
0.788754 0.128481 0.000000
0.828275 0.122408 0.000000
0.866331 0.115084 0.000000
0.902892 0.106813 0.000000
0.937896 0.097536 0.000000
0.971435 0.086122 0.000000
1.000000 0.072724 0.000000
1.000000 0.054536 0.000000
1.000000 0.015503 0.000000
1.000000 0.000000 0.000000
0.000000 0.179141 0.063416
0.000000 0.180056 0.054841
0.000000 0.181399 0.034791
0.000000 0.184237 0.000000
0.037415 0.186862 0.000000
0.115908 0.178317 0.000000
0.144259 0.155306 0.057038
0.152468 0.137758 0.082551
0.202182 0.157412 0.061585
0.251835 0.170016 0.013672
0.301579 0.178805 0.000000
0.337194 0.180331 0.000000
0.373907 0.181765 0.000000
0.411963 0.182986 0.000000
0.451423 0.183963 0.000000
0.492256 0.184970 0.000000
0.534691 0.185794 0.000000
0.577722 0.186038 0.000000
0.619745 0.185245 0.000000
0.662287 0.184054 0.000000
0.705562 0.182559 0.000000
0.747890 0.179965 0.000000
0.788754 0.176913 0.000000
0.828275 0.172946 0.000000
0.866300 0.168551 0.000000
0.902831 0.163333 0.000000
0.937804 0.157687 0.000000
0.971283 0.151492 0.000000
1.000000 0.144686 0.000000
1.000000 0.137728 0.000000
1.000000 0.129854 0.000000
1.000000 0.122164 0.000000
0.000000 0.214450 0.075257
0.000000 0.215305 0.069184
0.000000 0.216587 0.060090
0.000000 0.219120 0.010590
0.000000 0.222599 0.000000
0.083314 0.223728 0.000000
0.144900 0.209415 0.000000
0.171115 0.184543 0.063600
0.175082 0.160891 0.094392
0.223270 0.180697 0.076661
0.275090 0.196353 0.042573
0.327245 0.207980 0.000000
0.374731 0.214878 0.000000
0.412757 0.216800 0.000000
0.452216 0.218723 0.000000
0.493111 0.220523 0.000000
0.535302 0.222293 0.000000
0.577935 0.223270 0.000000
0.619898 0.223758 0.000000
0.662501 0.223575 0.000000
0.705715 0.223117 0.000000
0.747951 0.221958 0.000000
0.788815 0.220005 0.000000
0.828275 0.217441 0.000000
0.866239 0.214054 0.000000
0.902739 0.210300 0.000000
0.937652 0.206027 0.000000
0.971130 0.201358 0.000000
1.000000 0.196292 0.000000
1.000000 0.190829 0.000000
1.000000 0.185245 0.000000
1.000000 0.179171 0.000000
0.000000 0.251499 0.087404
0.000000 0.252323 0.082094
0.000000 0.253452 0.074525
0.000000 0.255924 0.046845
0.000000 0.259892 0.000000
0.000000 0.263340 0.000000
0.119661 0.260868 0.000000
0.174289 0.241947 0.000000
0.199069 0.214969 0.070069
0.203861 0.189548 0.102449
0.243992 0.203616 0.093233
0.297826 0.222049 0.067048
0.352178 0.236545 0.000000
0.408118 0.248264 0.000000
0.453101 0.253422 0.000000
0.493812 0.255833 0.000000
0.535637 0.258122 0.000000
0.578210 0.260197 0.000000
0.620142 0.261112 0.000000
0.662715 0.261906 0.000000
0.705928 0.262425 0.000000
0.748074 0.262089 0.000000
0.788876 0.260899 0.000000
0.828214 0.259220 0.000000
0.866178 0.256657 0.000000
0.902617 0.253422 0.000000
0.937530 0.249943 0.000000
0.970977 0.246036 0.000000
1.000000 0.241672 0.000000
1.000000 0.236881 0.000000
1.000000 0.231968 0.000000
1.000000 0.226719 0.000000
0.000000 0.290379 0.099245
0.000000 0.291173 0.094667
0.000000 0.292302 0.087465
0.000000 0.294682 0.068788
0.000000 0.298497 0.000000
0.000000 0.302892 0.000000
0.063264 0.307073 0.000000
0.155184 0.299351 0.000000
0.204501 0.275425 0.000000
0.227817 0.246464 0.076570
0.232670 0.218753 0.110780
0.264317 0.225925 0.110048
0.320012 0.247288 0.085908
0.376562 0.264286 0.043519
0.434668 0.278599 0.000000
0.494179 0.290867 0.000000
0.535973 0.293919 0.000000
0.578485 0.296513 0.000000
0.620386 0.298161 0.000000
0.662898 0.299626 0.000000
0.706081 0.300908 0.000000
0.748196 0.301152 0.000000
0.788907 0.300664 0.000000
0.828214 0.299351 0.000000
0.866087 0.297307 0.000000
0.902464 0.294713 0.000000
0.937377 0.291630 0.000000
0.970764 0.288121 0.000000
1.000000 0.284092 0.000000
1.000000 0.279667 0.000000
1.000000 0.275029 0.000000
1.000000 0.270146 0.000000
0.000000 0.331334 0.111940
0.000000 0.332097 0.107759
0.000000 0.333196 0.101167
0.000000 0.335546 0.085145
0.000000 0.339178 0.035340
0.000000 0.344182 0.000000
0.000000 0.348760 0.000000
0.104921 0.351995 0.000000
0.191043 0.339422 0.000000
0.235874 0.309850 0.000000
0.257359 0.278569 0.084321
0.259983 0.247044 0.119844
0.283848 0.247593 0.127932
0.341192 0.271489 0.104250
0.399603 0.291051 0.073793
0.459846 0.308019 0.000000
0.522606 0.323003 0.000000
0.578668 0.332738 0.000000
0.620569 0.334997 0.000000
0.663172 0.337041 0.000000
0.706294 0.338842 0.000000
0.748257 0.339666 0.000000
0.788968 0.339605 0.000000
0.828183 0.338750 0.000000
0.865995 0.337041 0.000000
0.902342 0.334722 0.000000
0.937163 0.331853 0.000000
0.970520 0.328557 0.000000
1.000000 0.324773 0.000000
1.000000 0.320592 0.000000
1.000000 0.316075 0.000000
1.000000 0.311315 0.000000
0.000000 0.374426 0.125063
0.000000 0.375219 0.121218
0.000000 0.376257 0.115480
0.000000 0.378424 0.101167
0.000000 0.382147 0.071077
0.000000 0.386999 0.000000
0.000000 0.392584 0.000000
0.000000 0.397955 0.000000
0.151949 0.395544 0.000000
0.227024 0.378027 0.000000
0.268070 0.345098 0.000000
0.287388 0.311101 0.093111
0.288762 0.276921 0.129488
0.302312 0.268193 0.145510
0.361425 0.294713 0.123018
0.422004 0.317113 0.095155
0.484688 0.336767 0.035737
0.549798 0.354406 0.000000
0.614405 0.368811 0.000000
0.663447 0.374365 0.000000
0.706508 0.376654 0.000000
0.748379 0.377874 0.000000
0.788937 0.378149 0.000000
0.828122 0.377569 0.000000
0.865904 0.376135 0.000000
0.902190 0.374090 0.000000
0.936950 0.371344 0.000000
0.970214 0.368139 0.000000
1.000000 0.364538 0.000000
1.000000 0.360388 0.000000
1.000000 0.355932 0.000000
1.000000 0.351019 0.000000
0.000000 0.419593 0.139040
0.000000 0.420356 0.135470
0.000000 0.421485 0.130251
0.000000 0.423682 0.117372
0.000000 0.427283 0.092287
0.000000 0.432166 0.005249
0.000000 0.438422 0.000000
0.000000 0.444038 0.000000
0.080232 0.450477 0.000000
0.195346 0.440375 0.000000
0.262974 0.416693 0.000000
0.300481 0.380591 0.008911
0.317906 0.344152 0.102480
0.318425 0.307897 0.139437
0.320378 0.288060 0.162692
0.381140 0.317388 0.141726
0.444038 0.342626 0.115145
0.508965 0.364996 0.076051
0.576165 0.385046 0.000000
0.642725 0.401587 0.000000
0.706752 0.414374 0.000000
0.748531 0.415869 0.000000
0.788968 0.416449 0.000000
0.828061 0.416052 0.000000
0.865751 0.414862 0.000000
0.901976 0.412940 0.000000
0.936675 0.410346 0.000000
0.969909 0.407141 0.000000
1.000000 0.403449 0.000000
1.000000 0.399329 0.000000
1.000000 0.394812 0.000000
1.000000 0.389807 0.000000
0.000000 0.467262 0.153902
0.000000 0.468055 0.150271
0.000000 0.469093 0.145510
0.000000 0.471321 0.134127
0.000000 0.474861 0.112154
0.000000 0.479469 0.067536
0.000000 0.485542 0.000000
0.000000 0.492012 0.000000
0.000000 0.498299 0.000000
0.128481 0.504295 0.000000
0.237797 0.485969 0.000000
0.299565 0.456092 0.000000
0.333867 0.417243 0.022889
0.349279 0.378058 0.111330
0.348455 0.339422 0.149294
0.338109 0.307439 0.179538
0.400732 0.339605 0.159731
0.465675 0.367559 0.134432
0.533745 0.393225 0.100557
0.603204 0.415869 0.003815
0.671717 0.434668 0.000000
0.736477 0.448554 0.000000
0.788937 0.454627 0.000000
0.828000 0.454444 0.000000
0.865599 0.453346 0.000000
0.901732 0.451484 0.000000
0.936339 0.448859 0.000000
0.969543 0.445655 0.000000
1.000000 0.441962 0.000000
1.000000 0.437781 0.000000
1.000000 0.433112 0.000000
1.000000 0.427955 0.000000
0.000000 0.516625 0.169100
0.000000 0.517357 0.165835
0.000000 0.518273 0.161349
0.000000 0.520562 0.150240
0.000000 0.523980 0.130556
0.000000 0.528679 0.094972
0.000000 0.534539 0.000000
0.000000 0.541680 0.000000
0.000000 0.548180 0.000000
0.000000 0.555322 0.000000
0.186465 0.553338 0.000000
0.280369 0.532921 0.000000
0.336828 0.496803 0.000000
0.368292 0.455146 0.038911
0.381628 0.413062 0.120577
0.379370 0.371801 0.159213
0.366705 0.336004 0.190036
0.420081 0.361242 0.177523
0.487739 0.392523 0.153292
0.559503 0.422004 0.122438
0.631159 0.447272 0.071656
0.701015 0.467964 0.000000
0.765042 0.482216 0.000000
0.823026 0.490852 0.000000
0.865415 0.491646 0.000000
0.901457 0.489784 0.000000
0.935973 0.487129 0.000000
0.969146 0.483925 0.000000
1.000000 0.480140 0.000000
1.000000 0.475898 0.000000
1.000000 0.471077 0.000000
1.000000 0.465675 0.000000
0.000000 0.567163 0.184543
0.000000 0.567834 0.181491
0.000000 0.568719 0.177096
0.000000 0.570794 0.166964
0.000000 0.573938 0.149142
0.000000 0.578363 0.118318
0.000000 0.583856 0.045319
0.000000 0.590539 0.000000
0.000000 0.597620 0.000000
0.000000 0.604242 0.000000
0.102052 0.611566 0.000000
0.237278 0.600610 0.000000
0.322118 0.578820 0.000000
0.374640 0.538048 0.000000
0.403723 0.493996 0.054932
0.414954 0.449226 0.129549
0.411109 0.405249 0.168887
0.397772 0.366979 0.199374
0.440009 0.383276 0.194949
0.511650 0.418708 0.172427
0.586389 0.451484 0.143587
0.660304 0.479347 0.102602
0.730343 0.501152 0.000000
0.793545 0.515770 0.000000
0.850431 0.524407 0.000000
0.901091 0.527947 0.000000
0.935607 0.525231 0.000000
0.968688 0.521965 0.000000
1.000000 0.518059 0.000000
1.000000 0.513695 0.000000
1.000000 0.508659 0.000000
1.000000 0.503105 0.000000
0.000000 0.616388 0.199954
0.000000 0.617029 0.196872
0.000000 0.617853 0.192966
0.000000 0.619806 0.183383
0.000000 0.622797 0.166964
0.000000 0.626856 0.140566
0.000000 0.631922 0.092439
0.000000 0.638148 0.000000
0.000000 0.645411 0.000000
0.000000 0.651820 0.000000
0.000000 0.658625 0.000000
0.153017 0.666011 0.000000
0.284123 0.645594 0.000000
0.362249 0.620172 0.000000
0.411597 0.577966 0.000000
0.439551 0.533379 0.066102
0.449500 0.486671 0.138338
0.444312 0.440131 0.178500
0.430671 0.399817 0.208988
0.461433 0.406378 0.212528
0.537346 0.446296 0.191531
0.614679 0.481910 0.164614
0.690364 0.512108 0.129610
0.759670 0.534447 0.072724
0.821927 0.549310 0.000000
0.877653 0.557946 0.000000
0.927428 0.561303 0.000000
0.968231 0.559899 0.000000
0.999939 0.555871 0.000000
1.000000 0.551263 0.000000
1.000000 0.546075 0.000000
1.000000 0.540246 0.000000
0.000000 0.664149 0.214939
0.000000 0.664698 0.212100
0.000000 0.665553 0.208347
0.000000 0.667292 0.199344
0.000000 0.670008 0.184268
0.000000 0.673671 0.160647
0.000000 0.678279 0.121553
0.000000 0.683864 0.000000
0.000000 0.690394 0.000000
0.000000 0.697139 0.000000
0.000000 0.702998 0.000000
0.020203 0.709346 0.000000
0.217685 0.708248 0.000000
0.328161 0.687770 0.000000
0.401282 0.659632 0.000000
0.448493 0.617731 0.000000
0.475746 0.573053 0.076387
0.485878 0.526238 0.146944
0.480079 0.477760 0.188052
0.466529 0.435554 0.218784
0.484718 0.430976 0.230594
0.564752 0.475196 0.211154
0.644770 0.513695 0.186099
0.720912 0.545342 0.156588
0.789334 0.567987 0.116091
0.850492 0.583124 0.008728
0.904936 0.591699 0.000000
0.953399 0.594903 0.000000
0.996429 0.593408 0.000000
1.000000 0.588769 0.000000
1.000000 0.583398 0.000000
1.000000 0.577295 0.000000
0.000000 0.709895 0.229465
0.000000 0.710414 0.226963
0.000000 0.711116 0.223209
0.000000 0.712703 0.214969
0.000000 0.715084 0.201022
0.000000 0.718349 0.179660
0.000000 0.722469 0.146273
0.000000 0.727352 0.083528
0.000000 0.733211 0.000000
0.000000 0.739773 0.000000
0.000000 0.745266 0.000000
0.000000 0.750790 0.000000
0.128878 0.756710 0.000000
0.271855 0.747646 0.000000
0.369879 0.727718 0.000000
0.439216 0.697719 0.000000
0.485695 0.657740 0.000000
0.512902 0.613825 0.087190
0.523522 0.567041 0.156313
0.518822 0.518425 0.197940
0.505119 0.474128 0.229282
0.510643 0.457771 0.249393
0.594202 0.505669 0.231846
0.676539 0.547112 0.209903
0.752163 0.579278 0.184848
0.819608 0.602258 0.154116
0.879515 0.617456 0.110231
0.932555 0.626032 0.000000
0.979522 0.628962 0.000000
1.000000 0.626947 0.000000
1.000000 0.620569 0.000000
1.000000 0.614252 0.000000
0.000000 0.753292 0.243626
0.000000 0.753750 0.241184
0.000000 0.754391 0.237644
0.000000 0.755764 0.230045
0.000000 0.757900 0.217014
0.000000 0.760769 0.197574
0.000000 0.764370 0.168368
0.000000 0.768765 0.120546
0.000000 0.773861 0.000000
0.000000 0.779660 0.000000
0.000000 0.785519 0.000000
0.000000 0.790280 0.000000
0.000000 0.795377 0.000000
0.181827 0.800778 0.000000
0.319982 0.784665 0.000000
0.409674 0.765316 0.000000
0.476081 0.734310 0.000000
0.522057 0.696559 0.000000
0.550591 0.654932 0.099947
0.562554 0.609247 0.166781
0.559106 0.560784 0.209049
0.545403 0.514549 0.240787
0.539330 0.487037 0.269505
0.625940 0.538384 0.254582
0.709590 0.581842 0.236088
0.784421 0.614405 0.215763
0.850645 0.637568 0.192752
0.909056 0.652857 0.163394
0.960510 0.661311 0.120272
1.000000 0.663935 0.000000
1.000000 0.661402 0.000000
1.000000 0.653956 0.000000
0.000000 0.794308 0.257237
0.000000 0.794705 0.254887
0.000000 0.795254 0.251591
0.000000 0.796475 0.244358
0.000000 0.798306 0.232364
0.000000 0.800839 0.214542
0.000000 0.804013 0.188785
0.000000 0.807858 0.149569
0.000000 0.812314 0.070405
0.000000 0.817411 0.000000
0.000000 0.823178 0.000000
0.000000 0.827604 0.000000
0.000000 0.831937 0.000000
0.089052 0.836515 0.000000
0.244541 0.836057 0.000000
0.363928 0.819272 0.000000
0.447517 0.800778 0.000000
0.511742 0.769223 0.000000
0.557549 0.733761 0.000000
0.587396 0.694728 0.116182
0.602045 0.652003 0.179263
0.601190 0.605097 0.221683
0.587579 0.557214 0.253880
0.576104 0.523369 0.289799
0.661067 0.574060 0.279881
0.744228 0.618280 0.265995
0.817929 0.651057 0.250858
0.882567 0.674403 0.235355
0.939178 0.689601 0.216190
0.988739 0.698024 0.190707
1.000000 0.700496 0.153109
1.000000 0.697505 0.080446
0.000000 0.832761 0.270085
0.000000 0.833127 0.267948
0.000000 0.833585 0.264927
0.000000 0.834623 0.258183
0.000000 0.836271 0.247013
0.000000 0.838468 0.230655
0.000000 0.841245 0.207584
0.000000 0.844541 0.174044
0.000000 0.848447 0.118563
0.000000 0.852873 0.000000
0.000000 0.857908 0.000000
0.000000 0.862730 0.000000
0.000000 0.866361 0.000000
0.000000 0.870146 0.000000
0.162173 0.874083 0.000000
0.299962 0.867338 0.000000
0.404669 0.851377 0.000000
0.483772 0.832364 0.000000
0.546105 0.802487 0.000000
0.592065 0.769436 0.000000
0.623438 0.733303 0.135622
0.640894 0.693690 0.195193
0.644251 0.650355 0.236942
0.633570 0.603845 0.269566
0.627497 0.572992 0.308446
0.698512 0.612390 0.309606
0.780697 0.656947 0.301335
0.852781 0.689906 0.292821
0.915373 0.713222 0.284794
0.969787 0.728511 0.275090
1.000000 0.737118 0.262181
1.000000 0.739223 0.242985
0.000000 0.868620 0.282444
0.000000 0.868925 0.280461
0.000000 0.869352 0.277653
0.000000 0.870237 0.271183
0.000000 0.871641 0.260899
0.000000 0.873533 0.245884
0.000000 0.875944 0.224979
0.000000 0.878813 0.195651
0.000000 0.882200 0.151156
0.000000 0.886046 0.052735
0.000000 0.890379 0.000000
0.000000 0.895109 0.000000
0.000000 0.898436 0.000000
0.000000 0.901518 0.000000
0.000000 0.904753 0.000000
0.213138 0.908080 0.000000
0.347692 0.896147 0.000000
0.442695 0.881224 0.000000
0.518456 0.861692 0.000000
0.579553 0.834043 0.000000
0.625757 0.803799 0.029053
0.658717 0.770626 0.158968
0.679072 0.734554 0.215061
0.686671 0.695064 0.256382
0.681636 0.652857 0.289372
0.681971 0.626123 0.331426
0.738460 0.653529 0.345739
0.819089 0.698360 0.344610
0.888823 0.731350 0.344366
0.948913 0.754818 0.345251
1.000000 0.770748 0.346899
1.000000 0.778286 0.343908
0.000000 0.901884 0.294255
0.000000 0.902159 0.292302
0.000000 0.902464 0.289677
0.000000 0.903258 0.283757
0.000000 0.904479 0.274083
0.000000 0.906096 0.260258
0.000000 0.908141 0.241306
0.000000 0.910613 0.215183
0.000000 0.913451 0.177859
0.000000 0.916777 0.116121
0.000000 0.920470 0.000000
0.000000 0.924529 0.000000
0.000000 0.928313 0.000000
0.000000 0.930785 0.000000
0.000000 0.933379 0.000000
0.139010 0.936004 0.000000
0.270329 0.935546 0.000000
0.390570 0.922789 0.000000
0.478279 0.908995 0.000000
0.551812 0.889342 0.000000
0.611810 0.864103 0.000000
0.658473 0.836667 0.100313
0.693355 0.806882 0.186069
0.716732 0.774441 0.239780
0.728664 0.739315 0.280980
0.729152 0.701625 0.314794
0.736690 0.680476 0.361303
0.781155 0.698360 0.391516
0.859251 0.743160 0.399756
0.925872 0.776333 0.410468
0.981567 0.799680 0.422431
1.000000 0.814145 0.432837
0.000000 0.932586 0.305241
0.000000 0.932769 0.303563
0.000000 0.933104 0.300999
0.000000 0.933745 0.295567
0.000000 0.934783 0.286473
0.000000 0.936156 0.273838
0.000000 0.937896 0.256504
0.000000 0.940002 0.233097
0.000000 0.942443 0.200839
0.000000 0.945251 0.152926
0.000000 0.948425 0.029023
0.000000 0.951904 0.000000
0.000000 0.955718 0.000000
0.000000 0.957977 0.000000
0.000000 0.959991 0.000000
0.000000 0.962036 0.000000
0.198795 0.964080 0.000000
0.324224 0.959167 0.000000
0.429572 0.947478 0.000000
0.511620 0.934966 0.000000
0.583795 0.915587 0.000000
0.643214 0.892790 0.000000
0.690669 0.868284 0.143893
0.727382 0.841947 0.217746
0.753964 0.813596 0.270268
0.770352 0.783169 0.312444
0.776272 0.750484 0.347967
0.791501 0.735988 0.401099
0.826352 0.747402 0.451667
0.900603 0.791989 0.472084
0.960479 0.822965 0.491249
1.000000 0.844999 0.511955
0.000000 0.960937 0.315831
0.000000 0.961120 0.314183
0.000000 0.961364 0.311803
0.000000 0.961913 0.306676
0.000000 0.962768 0.298375
0.000000 0.963958 0.286625
0.000000 0.965423 0.270726
0.000000 0.967193 0.249577
0.000000 0.969268 0.221073
0.000000 0.971649 0.181338
0.000000 0.974304 0.115602
0.000000 0.977264 0.000000
0.000000 0.980468 0.000000
0.000000 0.983246 0.000000
0.000000 0.984710 0.000000
0.000000 0.986206 0.000000
0.113558 0.987701 0.000000
0.244877 0.989166 0.000000
0.370367 0.980896 0.000000
0.465614 0.970397 0.000000
0.543175 0.959228 0.000000
0.615015 0.940551 0.000000
0.674098 0.920348 0.049866
0.722499 0.898924 0.186862
0.761318 0.876097 0.255192
0.791043 0.852018 0.308293
0.811826 0.826596 0.353155
0.823575 0.799893 0.392493
0.845640 0.792355 0.455055
0.871641 0.798734 0.525628
0.937804 0.839750 0.553246
0.991150 0.869993 0.583307
0.000000 0.987060 0.325750
0.000000 0.987182 0.324224
0.000000 0.987396 0.321996
0.000000 0.987884 0.317113
0.000000 0.988586 0.309300
0.000000 0.989563 0.298436
0.000000 0.990784 0.283818
0.000000 0.992279 0.264652
0.000000 0.994018 0.239384
0.000000 0.995972 0.205203
0.000000 0.998230 0.154879
0.000000 1.000000 0.017029
0.000000 1.000000 0.000000
0.000000 1.000000 0.000000
0.000000 1.000000 0.000000
0.000000 1.000000 0.000000
0.000000 1.000000 0.000000
0.184970 1.000000 0.000000
0.295811 1.000000 0.000000
0.411322 1.000000 0.000000
0.499092 0.991760 0.000000
0.574701 0.981018 0.000000
0.645472 0.964416 0.000000
0.704738 0.946929 0.136812
0.754452 0.928618 0.233310
0.795468 0.909545 0.300572
0.828367 0.889860 0.356878
0.853300 0.869657 0.407019
0.869169 0.848112 0.450782
0.894408 0.844724 0.517693
0.913634 0.849180 0.608667
0.972625 0.888090 0.644312
0.000000 1.000000 0.334966
0.000000 1.000000 0.333471
0.000000 1.000000 0.331518
0.000000 1.000000 0.327001
0.000000 1.000000 0.319738
0.000000 1.000000 0.309636
0.000000 1.000000 0.296208
0.000000 1.000000 0.278599
0.000000 1.000000 0.255802
0.000000 1.000000 0.225895
0.000000 1.000000 0.184482
0.000000 1.000000 0.116854
0.000000 1.000000 0.000000
0.000000 1.000000 0.000000
