data/fiter_cube/35558087/1023152/file.cube
# Created by Adobe Lightroom plugin Export LUT (1.17.0)
# www.johnrellis.com/lightroom/exportlut.htm
# Preset: 明亮通透美食摄影_05 云集
# Color profile: C:\Program Files (x86)\Common Files\Adobe\Color\Profiles\Recommended\AdobeRGB1998.icc
LUT_3D_SIZE 5
DOMAIN_MIN 0.000000 0.000000 0.000000
DOMAIN_MAX 0.903226 0.903226 0.903226
0.000000 0.000000 0.000000
0.199649 0.000000 0.000000
0.448859 0.000000 0.000000
0.747646 0.000000 0.000000
1.000000 0.000000 0.000000
0.000000 0.214450 0.075257
0.171115 0.184543 0.063600
0.452216 0.218723 0.000000
0.747951 0.221958 0.000000
1.000000 0.196292 0.000000
0.000000 0.516625 0.169100
0.000000 0.541680 0.000000
0.381628 0.413062 0.120577
0.701015 0.467964 0.000000
1.000000 0.480140 0.000000
0.000000 0.832761 0.270085
0.000000 0.844541 0.174044
0.162173 0.874083 0.000000
0.640894 0.693690 0.195193
0.915373 0.713222 0.284794
0.000000 1.000000 0.343725
0.000000 1.000000 0.291478
0.000000 1.000000 0.000000
0.482704 1.000000 0.000000
0.897246 0.956023 0.481849
0.030549 0.032136 0.201083
0.186954 0.065461 0.194308
0.460334 0.000000 0.214572
0.759365 0.000000 0.152621
1.000000 0.000000 0.090486
0.000000 0.209964 0.218662
0.195865 0.202152 0.215518
0.464149 0.169406 0.189029
0.758572 0.108125 0.148287
1.000000 0.000000 0.075837
0.000000 0.499611 0.276646
0.000000 0.514611 0.251652
0.402716 0.433265 0.216434
0.745602 0.475196 0.149966
1.000000 0.455818 0.000000
0.000000 0.823270 0.363806
0.000000 0.833097 0.330175
0.150851 0.868528 0.000000
0.651270 0.703212 0.265080
0.931395 0.716976 0.316533
0.000000 1.000000 0.422248
0.000000 1.000000 0.391455
0.000000 1.000000 0.182986
0.478370 1.000000 0.072267
0.900298 0.956756 0.517174
0.045899 0.056489 0.460121
0.225254 0.084260 0.451667
0.426123 0.117525 0.443824
0.725124 0.000000 0.497627
1.000000 0.000000 0.451026
0.000000 0.189822 0.488655
0.177493 0.186374 0.479133
0.435065 0.217838 0.455970
0.740810 0.116793 0.493996
1.000000 0.000000 0.428809
0.000000 0.479500 0.500511
0.000000 0.478614 0.502434
0.439246 0.456001 0.491035
0.764858 0.422126 0.453498
1.000000 0.374456 0.399939
0.000000 0.789914 0.538048
0.000000 0.797848 0.534630
0.365698 0.819333 0.523003
0.686397 0.730282 0.471199
0.981323 0.721767 0.449256
0.000000 1.000000 0.569024
0.000000 1.000000 0.563470
0.330663 1.000000 0.564446
0.538048 1.000000 0.488167
0.910979 0.959075 0.624079
0.098512 0.108034 0.760220
0.261845 0.125551 0.756161
0.489754 0.195804 0.736904
0.705318 0.199924 0.733272
0.959960 0.293919 0.766323
0.000000 0.200839 0.772061
0.198856 0.209415 0.766873
0.481209 0.257633 0.746944
0.709194 0.278996 0.738582
0.961517 0.362463 0.766781
0.000000 0.455756 0.791226
0.000000 0.436378 0.792020
0.410224 0.423438 0.775021
0.710872 0.472663 0.743038
0.972290 0.507195 0.760708
0.000000 0.755673 0.787015
0.000000 0.755428 0.787961
0.297063 0.753689 0.788846
0.733822 0.747829 0.778195
0.989319 0.731380 0.747921
0.000000 1.000000 0.758236
0.000000 1.000000 0.756741
0.266789 1.000000 0.757839
0.746120 1.000000 0.814481
0.932952 0.963684 0.790494
0.231998 0.236088 0.965515
0.326238 0.253086 0.963073
0.528130 0.320256 0.956085
0.739101 0.450721 0.939635
0.914031 0.451972 0.941375
0.148287 0.272801 0.964935
0.281315 0.286931 0.962524
0.509972 0.346654 0.955322
0.730922 0.465278 0.937011
0.911528 0.478340 0.938842
0.000000 0.395300 0.971557
0.000000 0.388586 0.969635
0.422950 0.430426 0.960143
0.711482 0.531945 0.940429
0.915984 0.586908 0.941985
0.000000 0.659968 0.975158
0.000000 0.650599 0.974151
0.000000 0.622797 0.975128
0.676600 0.683497 0.963775
0.938293 0.779355 0.958923
0.000000 0.950744 0.979126
0.000000 0.950347 0.978576
0.092195 0.952758 0.979370
0.654902 0.957214 0.977478
0.957092 0.962280 0.972015
