data/fiter_cube/63078869/1022676/file.cube
# Created by Adobe Lightroom plugin Export LUT (1.17.0)
# www.johnrellis.com/lightroom/exportlut.htm
# Preset: 暗调胶片街拍_05 云集
# Color profile: C:\Program Files (x86)\Common Files\Adobe\Color\Profiles\Recommended\AdobeRGB1998.icc
LUT_3D_SIZE 5
DOMAIN_MIN 0.000000 0.000000 0.000000
DOMAIN_MAX 0.903226 0.903226 0.903226
0.014374 0.048188 0.049042
0.085145 0.068116 0.053101
0.180270 0.102052 0.047547
0.416388 0.172061 0.000000
0.710536 0.225650 0.000000
0.031037 0.084443 0.079408
0.076753 0.094545 0.066651
0.178836 0.122133 0.056947
0.409857 0.191409 0.000000
0.727260 0.250278 0.000000
0.052918 0.115389 0.105592
0.053773 0.114046 0.104097
0.172030 0.178012 0.079042
0.440040 0.261723 0.000000
0.727230 0.314427 0.000000
0.069123 0.158511 0.136507
0.068482 0.150668 0.133547
0.088380 0.181216 0.122438
0.365637 0.319921 0.013214
0.757565 0.413031 0.000000
0.086885 0.226932 0.178897
0.084474 0.211856 0.171847
0.074830 0.177737 0.149722
0.221500 0.335790 0.139315
0.721614 0.534264 0.000000
0.024262 0.089174 0.095369
0.065949 0.090974 0.101595
0.162325 0.109285 0.095827
0.358801 0.158236 0.077516
0.675593 0.211734 0.000000
0.039734 0.098817 0.093202
0.069734 0.108278 0.103243
0.167544 0.127932 0.097658
0.363806 0.177829 0.075624
0.683192 0.234714 0.000000
0.063905 0.131594 0.118013
0.068269 0.129976 0.122988
0.157443 0.174014 0.107698
0.394171 0.242985 0.064149
0.710964 0.305882 0.000000
0.081697 0.179294 0.153475
0.081056 0.170535 0.150362
0.089967 0.187564 0.138247
0.359564 0.319646 0.088991
0.750423 0.409735 0.000000
0.100221 0.251469 0.194888
0.096101 0.234073 0.186984
0.083101 0.183169 0.159762
0.220035 0.343755 0.156191
0.728023 0.540337 0.000000
0.021729 0.147036 0.164523
0.067231 0.145693 0.168887
0.138705 0.143252 0.179904
0.345525 0.106233 0.157382
0.661402 0.178500 0.142092
0.044770 0.160464 0.166110
0.076967 0.163485 0.173129
0.141726 0.159518 0.182010
0.339696 0.169223 0.163394
0.671748 0.205661 0.139040
0.070314 0.173220 0.151553
0.089143 0.181430 0.161379
0.158358 0.206912 0.182132
0.372076 0.241855 0.168185
0.697169 0.286839 0.130037
0.099672 0.233005 0.178775
0.111635 0.231876 0.189273
0.116121 0.205234 0.188876
0.358862 0.336248 0.181643
0.735409 0.404547 0.124208
0.134829 0.329107 0.231907
0.144747 0.323919 0.237278
0.124849 0.259953 0.213199
0.178653 0.326909 0.193973
0.713222 0.541680 0.125551
0.033631 0.280522 0.293339
0.105653 0.282536 0.299351
0.162020 0.232792 0.289952
0.298466 0.225956 0.293919
0.654536 0.136690 0.311711
0.068879 0.291539 0.290776
0.112673 0.291417 0.294713
0.165743 0.249119 0.289555
0.296544 0.239292 0.291875
0.650782 0.150698 0.300420
0.072541 0.315465 0.281498
0.112123 0.315526 0.284276
0.198856 0.313970 0.294377
0.308019 0.277379 0.289677
0.660365 0.271611 0.281376
0.120912 0.324773 0.249790
0.142916 0.328374 0.254643
0.210697 0.348943 0.275120
0.359930 0.387457 0.296178
0.716274 0.414679 0.279545
0.209781 0.475410 0.275761
0.225162 0.472999 0.284245
0.264012 0.458228 0.305272
0.185641 0.311803 0.259983
0.706722 0.572442 0.277165
0.275456 0.524437 0.444617
0.316014 0.526207 0.448402
0.387579 0.506157 0.447700
0.419379 0.396002 0.422553
0.614649 0.409400 0.433600
0.269657 0.528313 0.439155
0.308537 0.529686 0.442847
0.392828 0.518517 0.447089
0.418189 0.409186 0.421668
0.613642 0.419226 0.432624
0.249638 0.554101 0.431189
0.279973 0.552575 0.433906
0.396979 0.556237 0.447333
0.438758 0.473640 0.433112
0.622004 0.460914 0.435859
0.257694 0.612482 0.426856
0.283146 0.611414 0.429236
0.374426 0.611749 0.441779
0.541131 0.621576 0.474800
0.647150 0.544579 0.448768
0.304784 0.615106 0.375463
0.322972 0.615015 0.377813
0.395880 0.624750 0.392096
0.514336 0.643153 0.422644
0.689418 0.669123 0.463111
