data/fiter_cube/63078869/1022676/file.cube
# Created by Adobe Lightroom plugin Export LUT (1.17.0)
# www.johnrellis.com/lightroom/exportlut.htm
# Preset: 暗调胶片街拍_05 云集
# Color profile: C:\Program Files (x86)\Common Files\Adobe\Color\Profiles\Recommended\AdobeRGB1998.icc
LUT_3D_SIZE 8
DOMAIN_MIN 0.000000 0.000000 0.000000
DOMAIN_MAX 0.903226 0.903226 0.903226
0.014374 0.048188 0.049042
0.060822 0.059815 0.051026
0.094179 0.071412 0.053468
0.145144 0.089357 0.050660
0.226566 0.118288 0.039338
0.374487 0.161624 0.000000
0.542107 0.198337 0.000000
0.710536 0.225650 0.000000
0.019165 0.067536 0.064393
0.054994 0.074372 0.056886
0.091524 0.078614 0.056336
0.139681 0.094331 0.055024
0.218814 0.122011 0.045411
0.346136 0.160433 0.000000
0.513298 0.198795 0.000000
0.694575 0.229496 0.000000
0.034058 0.088563 0.083070
0.035157 0.088197 0.083711
0.084108 0.101869 0.069734
0.143923 0.116487 0.062074
0.230442 0.146029 0.050019
0.362493 0.185489 0.000000
0.554559 0.229892 0.000000
0.723232 0.256687 0.000000
0.047822 0.106783 0.098573
0.048676 0.105013 0.098726
0.058137 0.113985 0.092927
0.136507 0.148531 0.078798
0.271794 0.197055 0.037873
0.404639 0.233616 0.000000
0.571588 0.269993 0.000000
0.727718 0.293309 0.000000
0.059205 0.126406 0.113680
0.059205 0.125002 0.113588
0.058839 0.123873 0.111604
0.091676 0.152895 0.103365
0.208286 0.206973 0.076814
0.387915 0.270787 0.000000
0.569482 0.313085 0.000000
0.732265 0.339361 0.000000
0.066682 0.150057 0.130678
0.067414 0.149844 0.131380
0.066804 0.141604 0.128054
0.068727 0.158663 0.120668
0.145235 0.205570 0.111025
0.325963 0.293187 0.047883
0.572412 0.374121 0.000000
0.755337 0.398657 0.000000
0.075319 0.180911 0.151186
0.075502 0.178470 0.150393
0.073610 0.166812 0.144717
0.070314 0.159335 0.137270
0.099062 0.206821 0.130831
0.234775 0.285008 0.114351
0.499031 0.404822 0.000000
0.731380 0.461189 0.000000
0.086885 0.226932 0.178897
0.086336 0.222141 0.176730
0.083436 0.207401 0.169772
0.079011 0.183597 0.157382
0.072999 0.208011 0.145907
0.172213 0.302892 0.144167
0.432044 0.434607 0.104524
0.721614 0.534264 0.000000
0.016663 0.071046 0.075349
0.042725 0.071778 0.079377
0.084382 0.082704 0.078706
0.132357 0.096254 0.077852
0.210147 0.118837 0.072267
0.328099 0.151431 0.050080
0.493263 0.187716 0.000000
0.677089 0.218204 0.000000
0.021118 0.076570 0.072389
0.045808 0.082704 0.080446
0.083803 0.089113 0.080446
0.131594 0.100710 0.078370
0.207340 0.123049 0.072236
0.318761 0.154116 0.051392
0.474372 0.189822 0.000000
0.659541 0.221378 0.000000
0.041382 0.093965 0.088411
0.046815 0.095033 0.092409
0.080781 0.106172 0.085206
0.135500 0.117861 0.079347
0.211978 0.140993 0.072358
0.328038 0.174655 0.046815
0.496193 0.214084 0.000000
0.683497 0.246647 0.000000
0.053895 0.111330 0.103426
0.055085 0.110353 0.103944
0.059907 0.116762 0.099733
0.126436 0.143282 0.088838
0.229709 0.175937 0.070832
0.345525 0.209751 0.029633
0.509300 0.249638 0.000000
0.689479 0.281926 0.000000
0.062867 0.131807 0.119020
0.062776 0.129946 0.118410
0.062226 0.125307 0.116213
0.089082 0.151095 0.107973
0.192203 0.196201 0.087404
0.356847 0.254765 0.011170
0.536736 0.300053 0.000000
0.709285 0.331090 0.000000
0.069184 0.153323 0.133791
0.069368 0.151278 0.133120
0.068574 0.143465 0.130037
0.069368 0.157046 0.123140
0.140658 0.202396 0.115694
0.317113 0.288060 0.069306
0.558160 0.367071 0.000000
0.740200 0.392340 0.000000
0.076967 0.181582 0.152285
0.076539 0.177859 0.150454
0.074952 0.167697 0.145693
0.072084 0.157656 0.138735
0.097230 0.204135 0.133333
0.226017 0.278477 0.119051
0.475349 0.390845 0.000000
0.710201 0.450629 0.000000
0.088746 0.228000 0.179843
0.088075 0.224308 0.178317
0.085481 0.209873 0.171664
0.080720 0.186465 0.159609
0.076265 0.212039 0.151705
0.172915 0.306645 0.149111
0.425391 0.431525 0.112276
0.711666 0.528923 0.000000
0.026337 0.095705 0.103456
0.040589 0.096437 0.106081
0.073121 0.097475 0.110323
0.130068 0.097353 0.103304
0.212100 0.122499 0.102754
0.332280 0.152285 0.094423
0.504448 0.184451 0.058961
0.688899 0.210391 0.000000
0.034211 0.101045 0.103944
0.047822 0.102235 0.106508
0.073487 0.102937 0.110780
0.126619 0.108675 0.105501
0.205966 0.127230 0.102663
0.322881 0.155642 0.093721
0.491218 0.188449 0.059358
0.680812 0.216129 0.000000
0.045838 0.106569 0.099825
0.056336 0.109804 0.104005
0.078218 0.118288 0.111604
0.133150 0.127260 0.108522
0.215091 0.147860 0.104402
0.333196 0.177035 0.092470
0.499916 0.211337 0.049439
0.685023 0.239506 0.000000
0.060700 0.125185 0.111025
0.064912 0.127504 0.116793
0.070924 0.128176 0.123659
0.129183 0.155947 0.116335
0.231510 0.182620 0.104616
0.352667 0.214237 0.089693
0.521416 0.251194 0.022156
0.698787 0.279026 0.000000
0.070375 0.148379 0.130251
0.074067 0.149935 0.134737
0.075715 0.144686 0.135195
0.091768 0.163638 0.129641
0.200443 0.209445 0.116335
0.366400 0.260472 0.084657
0.538476 0.300084 0.000000
0.712062 0.328771 0.000000
0.080598 0.173617 0.149630
0.082094 0.172519 0.150607
0.080690 0.163546 0.147250
0.077424 0.163546 0.139712
0.139223 0.209354 0.134768
0.310887 0.288151 0.106813
0.551751 0.363775 0.000000
0.741634 0.392065 0.000000
0.091127 0.206912 0.170993
0.090181 0.202914 0.169253
0.087007 0.189303 0.162692
0.081636 0.168643 0.151583
0.097047 0.207828 0.146365
0.227695 0.287755 0.138216
0.485725 0.400427 0.058015
0.727687 0.458869 0.000000
0.103456 0.255283 0.197452
0.101350 0.248783 0.194400
0.096956 0.231357 0.186343
0.090486 0.206210 0.173983
0.084047 0.208347 0.162661
0.165652 0.306706 0.162173
0.424842 0.439307 0.137118
0.718379 0.535424 0.000000
0.025971 0.125368 0.139071
0.044068 0.126925 0.142306
0.068452 0.120272 0.144320
0.110964 0.125399 0.152316
0.202762 0.112184 0.150179
0.308965 0.141360 0.136873
0.472450 0.166659 0.125368
0.666590 0.187991 0.093629
0.038453 0.132326 0.141756
0.052552 0.133120 0.144015
0.071107 0.126711 0.146181
0.112917 0.131472 0.154360
0.202701 0.117556 0.145571
0.306645 0.148043 0.136782
0.467597 0.173159 0.124666
0.664302 0.194888 0.091035
0.042969 0.141115 0.140719
0.057221 0.142184 0.142489
0.079683 0.145205 0.149599
0.120058 0.143954 0.154940
0.204013 0.152956 0.146151
0.325902 0.175967 0.141695
0.506126 0.205509 0.128481
0.688808 0.225223 0.089693
0.063325 0.147768 0.132509
0.069032 0.150576 0.135592
0.087404 0.159915 0.147189
0.127108 0.173983 0.156985
0.215061 0.187015 0.149996
0.334874 0.211643 0.142397
0.507225 0.243015 0.124269
0.696254 0.268162 0.082765
0.078218 0.176638 0.142855
0.082429 0.177188 0.147280
0.096071 0.180880 0.162417
0.100435 0.181125 0.164370
0.206332 0.228428 0.161166
0.369116 0.267552 0.144717
0.540154 0.301244 0.121645
0.714229 0.324285 0.073793
0.090059 0.204379 0.164889
0.095613 0.208713 0.170901
0.107576 0.208560 0.181582
0.102815 0.188693 0.173617
0.142550 0.230259 0.170138
0.322728 0.306279 0.156924
0.564446 0.370336 0.119020
0.742000 0.391974 0.065034
0.104341 0.241642 0.189120
0.107912 0.242069 0.192172
0.117983 0.240269 0.199832
0.106844 0.211246 0.184756
0.101411 0.218021 0.170840
0.229801 0.305943 0.172702
0.495155 0.412940 0.134463
0.736507 0.463447 0.014984
0.127932 0.308202 0.224979
0.130556 0.306432 0.226322
0.132723 0.292821 0.225193
0.115328 0.252354 0.205203
0.096437 0.201602 0.176364
0.150301 0.302647 0.182101
0.416175 0.448798 0.172427
0.723201 0.543786 0.071199
0.014191 0.173251 0.194186
0.038483 0.174716 0.196933
0.077852 0.171420 0.200168
0.110658 0.154635 0.197910
0.172702 0.163119 0.210117
0.298650 0.140505 0.217319
0.466529 0.069337 0.183291
0.655085 0.173251 0.187259
0.028351 0.178836 0.195254
0.052216 0.181308 0.199222
0.083284 0.179904 0.204257
0.111788 0.160128 0.199069
0.172976 0.167697 0.210025
0.301732 0.144228 0.214969
0.466560 0.110384 0.185702
0.656550 0.181918 0.186648
0.047303 0.193149 0.197910
0.064057 0.194614 0.200259
0.091463 0.194491 0.204654
0.115236 0.177127 0.201694
0.173831 0.182498 0.209751
0.301610 0.156527 0.199496
0.458198 0.187564 0.189914
0.655360 0.206271 0.181033
0.053315 0.205173 0.193729
0.065003 0.205661 0.195041
0.092409 0.208652 0.200870
0.129946 0.211215 0.209751
0.196475 0.202182 0.208377
0.310979 0.214267 0.198581
0.480171 0.233677 0.191928
0.675990 0.247807 0.173465
0.079896 0.205142 0.174594
0.086397 0.208011 0.177584
0.106447 0.216068 0.187076
0.136873 0.228031 0.205844
0.199069 0.246952 0.210941
0.334600 0.264469 0.201602
0.507103 0.289097 0.189853
0.696498 0.308965 0.169192
0.100557 0.241611 0.176944
0.105257 0.242130 0.181277
0.118502 0.242130 0.193912
0.139651 0.243046 0.212894
0.136538 0.234775 0.203983
0.312505 0.315892 0.209262
0.557824 0.370977 0.196811
0.731533 0.388556 0.175845
0.120089 0.290654 0.207706
0.123873 0.289342 0.210330
0.135958 0.286656 0.219425
0.153872 0.281315 0.232090
0.131075 0.233127 0.208103
0.208225 0.310307 0.210239
0.486305 0.419532 0.198520
0.735256 0.464149 0.169772
0.148653 0.362249 0.243320
0.151400 0.359777 0.244755
0.159976 0.351049 0.249027
0.175113 0.341039 0.257389
0.136995 0.270665 0.223545
0.127169 0.281041 0.201144
0.379980 0.446235 0.211704
0.713649 0.548058 0.173678
0.021302 0.267185 0.282994
0.064302 0.268315 0.285161
0.107393 0.260594 0.284581
0.129427 0.226596 0.278996
0.183139 0.201358 0.264866
0.271458 0.213169 0.278935
0.447883 0.191714 0.298802
0.665553 0.058442 0.284977
0.038209 0.261479 0.274510
0.066072 0.261265 0.275669
0.107607 0.258366 0.278416
0.128054 0.227420 0.273686
0.179721 0.202731 0.261082
0.267491 0.215549 0.276249
0.445502 0.193332 0.295720
0.662409 0.074128 0.280217
0.068421 0.280247 0.278172
0.081453 0.278660 0.278080
0.118807 0.276585 0.280858
0.152651 0.259281 0.279301
0.185458 0.220737 0.264958
0.273594 0.233860 0.278569
0.458106 0.205875 0.291386
0.666499 0.120089 0.267796
0.070924 0.295781 0.274235
0.084291 0.294255 0.274052
0.121950 0.294469 0.277501
0.176852 0.300542 0.288457
0.203433 0.262028 0.278599
0.297642 0.269200 0.287785
0.488746 0.232822 0.282139
0.676905 0.251164 0.271580
0.079316 0.298009 0.258335
0.090059 0.299413 0.260075
0.120424 0.303655 0.265660
0.163821 0.310857 0.275425
0.216648 0.307622 0.282536
0.315465 0.286381 0.274907
0.484413 0.302220 0.267979
0.683314 0.317235 0.263005
0.107546 0.290349 0.229953
0.115511 0.294835 0.233738
0.138949 0.302739 0.241367
0.175418 0.315007 0.253941
0.216312 0.322545 0.272038
0.321965 0.355749 0.279271
0.533532 0.381323 0.273411
0.720455 0.393530 0.261936
0.153262 0.372045 0.236728
0.162631 0.375677 0.240513
0.179263 0.375311 0.251347
0.204532 0.371679 0.268528
0.229587 0.358404 0.284154
0.198367 0.319188 0.259068
0.497047 0.451850 0.273838
0.750179 0.488899 0.269993
0.195346 0.451728 0.270115
0.198856 0.449531 0.272007
0.210849 0.443214 0.278691
0.230533 0.434241 0.289708
0.243076 0.406867 0.296391
0.171603 0.299718 0.250126
0.320623 0.436652 0.258701
0.709865 0.566735 0.257877
0.121401 0.376623 0.355047
0.140475 0.380255 0.357977
0.186679 0.380285 0.361425
0.223606 0.359350 0.358495
0.239322 0.302495 0.348058
0.299046 0.266575 0.334447
0.413062 0.281987 0.346166
0.620447 0.296056 0.372656
0.117372 0.370703 0.348974
0.134890 0.373602 0.351568
0.180270 0.374701 0.355566
0.216281 0.354559 0.352575
0.230747 0.299138 0.342321
0.287510 0.263035 0.328161
0.397955 0.277348 0.339788
0.608331 0.287572 0.366796
0.133761 0.391058 0.352026
0.147158 0.390936 0.352850
0.186679 0.389227 0.355138
0.232944 0.378363 0.356023
0.239872 0.320928 0.345220
0.293156 0.280491 0.330571
0.410224 0.298436 0.343786
0.627527 0.306126 0.369085
0.141909 0.415717 0.352331
0.151888 0.413214 0.351904
0.188144 0.410254 0.353307
0.248905 0.411109 0.359289
0.272160 0.370947 0.353460
0.308690 0.315190 0.337743
0.430976 0.334783 0.350286
0.649653 0.328008 0.367041
0.129610 0.426429 0.341833
0.139345 0.424140 0.341436
0.173342 0.421332 0.342535
0.226383 0.421698 0.347784
0.295140 0.419135 0.354864
0.309178 0.350835 0.338781
0.435157 0.364111 0.348516
0.670100 0.347112 0.354192
0.139742 0.428931 0.325170
0.149325 0.429908 0.326207
0.179355 0.433417 0.330144
0.226047 0.441413 0.337957
0.284276 0.450263 0.348699
0.362982 0.445319 0.357549
0.488197 0.410040 0.348882
0.683101 0.432563 0.344335
0.168765 0.426490 0.299443
0.177768 0.430030 0.301732
0.203769 0.436591 0.306920
0.245853 0.448127 0.316014
0.299016 0.459297 0.326818
0.359380 0.465980 0.342565
0.501488 0.501884 0.350500
0.725216 0.518639 0.347356
0.242374 0.527764 0.302953
0.249241 0.529259 0.304265
0.279271 0.541650 0.311742
0.321721 0.550927 0.321813
0.352148 0.542473 0.337652
0.374060 0.513725 0.350652
0.267674 0.397589 0.304784
0.704585 0.605341 0.342779
0.275456 0.524437 0.444617
0.290318 0.526818 0.446998
0.328466 0.526543 0.449439
0.371221 0.518425 0.450233
0.378759 0.473243 0.443519
0.406134 0.412634 0.427527
0.486152 0.377569 0.419409
0.614649 0.409400 0.433600
0.269200 0.521508 0.440131
0.283604 0.523766 0.442451
0.322606 0.524620 0.445777
0.367010 0.517174 0.446876
0.378393 0.475135 0.440467
0.402350 0.413367 0.425238
0.481117 0.377173 0.416846
0.610895 0.409125 0.431464
0.264500 0.528038 0.436439
0.277134 0.529137 0.437995
0.312535 0.527276 0.439673
0.380011 0.534905 0.450080
0.401007 0.501152 0.442542
0.406622 0.430945 0.426825
0.483131 0.391241 0.417762
0.612299 0.421393 0.431708
0.253758 0.544457 0.434119
0.267857 0.546258 0.436225
0.305974 0.545769 0.439033
0.373907 0.550713 0.447852
0.429358 0.540093 0.450416
0.426581 0.471717 0.436439
0.494331 0.421820 0.423896
0.619562 0.446662 0.434974
0.247379 0.566033 0.428351
0.259312 0.567773 0.430488
0.289677 0.566430 0.433356
0.342382 0.566766 0.441047
0.432136 0.571130 0.452888
0.459510 0.529595 0.448127
0.499001 0.457282 0.428077
0.627161 0.480110 0.438331
0.247135 0.597589 0.424140
0.254398 0.596124 0.424048
0.281621 0.593744 0.425910
0.330968 0.593500 0.432197
0.404334 0.596643 0.445228
0.518547 0.611048 0.470192
0.519219 0.523552 0.442451
0.644831 0.533501 0.448096
0.281010 0.615839 0.408179
0.288121 0.616266 0.409308
0.312871 0.618860 0.413733
0.360204 0.627283 0.424659
0.418799 0.633753 0.438331
0.491981 0.640925 0.457588
0.582696 0.632288 0.472175
0.670649 0.575769 0.448463
0.304784 0.615106 0.375463
0.309667 0.614679 0.375952
0.329747 0.615473 0.378820
0.368597 0.619806 0.385962
0.426184 0.629786 0.399176
0.495644 0.640467 0.417243
0.571344 0.649470 0.439857
0.689418 0.669123 0.463111
