data/fiter_cube/63078869/1022676/file.cube
# Created by Adobe Lightroom plugin Export LUT (1.17.0)
# www.johnrellis.com/lightroom/exportlut.htm
# Preset: 暗调胶片街拍_05 云集
# Color profile: C:\Program Files (x86)\Common Files\Adobe\Color\Profiles\Recommended\AdobeRGB1998.icc
LUT_3D_SIZE 32
DOMAIN_MIN 0.0 0.0 0.0
DOMAIN_MAX 1.0 1.0 1.0
0.014374 0.048188 0.049042
0.019318 0.050233 0.048768
0.026734 0.051942 0.049287
0.045502 0.055726 0.050233
0.060822 0.059815 0.051026
0.068849 0.062623 0.051789
0.076722 0.065217 0.052552
0.085145 0.068116 0.053101
0.094179 0.071412 0.053468
0.104524 0.075471 0.053437
0.116548 0.079225 0.053101
0.130220 0.083955 0.052186
0.145144 0.089357 0.050660
0.161898 0.095583 0.049104
0.180270 0.102052 0.047547
0.200351 0.109407 0.044190
0.226566 0.118288 0.039338
0.261173 0.129519 0.030976
0.296452 0.140322 0.017823
0.334203 0.151186 0.001770
0.374487 0.161624 0.000000
0.416388 0.172061 0.000000
0.458381 0.181552 0.000000
0.500328 0.190188 0.000000
0.542107 0.198337 0.000000
0.583795 0.205783 0.000000
0.626184 0.212894 0.000000
0.668605 0.219455 0.000000
0.710536 0.225650 0.000000
0.751553 0.231174 0.000000
0.792935 0.236484 0.000000
0.834684 0.241367 0.000000
0.014435 0.051637 0.051179
0.018219 0.053834 0.050111
0.026032 0.054658 0.049897
0.044831 0.059022 0.049958
0.060487 0.061738 0.051545
0.068147 0.063691 0.052491
0.076081 0.066590 0.053162
0.084291 0.069154 0.052979
0.093507 0.071931 0.053407
0.103944 0.075593 0.053468
0.115511 0.079500 0.053162
0.128847 0.084321 0.052277
0.143404 0.089570 0.050843
0.159854 0.095369 0.050294
0.177920 0.101778 0.048859
0.197482 0.108949 0.046204
0.222751 0.117708 0.040772
0.255436 0.128206 0.031556
0.288731 0.138827 0.020813
0.324987 0.149264 0.006317
0.363867 0.159762 0.000000
0.404883 0.169833 0.000000
0.446387 0.179446 0.000000
0.488289 0.188235 0.000000
0.530297 0.196597 0.000000
0.572656 0.204318 0.000000
0.615869 0.211765 0.000000
0.659419 0.218570 0.000000
0.702510 0.224979 0.000000
0.744503 0.230686 0.000000
0.786404 0.236149 0.000000
0.828641 0.241245 0.000000
0.015442 0.055818 0.054078
0.016693 0.057465 0.053101
0.024781 0.058900 0.051179
0.043977 0.060945 0.050507
0.060182 0.063172 0.052155
0.067781 0.065949 0.052949
0.075563 0.067536 0.053040
0.083742 0.070100 0.053681
0.092958 0.073182 0.054841
0.103212 0.076844 0.054078
0.114870 0.080690 0.053803
0.127901 0.084901 0.053071
0.142367 0.090150 0.051667
0.158602 0.096040 0.051118
0.176364 0.102266 0.048981
0.195743 0.109285 0.046540
0.221134 0.118044 0.041108
0.252201 0.128206 0.033783
0.284642 0.138277 0.022766
0.320043 0.148684 0.007904
0.358495 0.158968 0.000000
0.399145 0.169284 0.000000
0.440528 0.178897 0.000000
0.482307 0.187961 0.000000
0.524315 0.196292 0.000000
0.566796 0.204166 0.000000
0.610376 0.211551 0.000000
0.654597 0.218753 0.000000
0.698329 0.225071 0.000000
0.740810 0.231022 0.000000
0.782956 0.236576 0.000000
0.825406 0.241672 0.000000
0.017273 0.061585 0.059724
0.018219 0.061494 0.060578
0.019440 0.064302 0.058595
0.040955 0.066957 0.052857
0.059998 0.067597 0.052247
0.067781 0.068910 0.053254
0.075502 0.070466 0.054170
0.083680 0.072816 0.054810
0.092653 0.075563 0.055238
0.102632 0.078737 0.055390
0.114168 0.082185 0.054353
0.127047 0.086671 0.053559
0.141390 0.091585 0.053071
0.157229 0.097505 0.051759
0.174868 0.103761 0.049653
0.194034 0.110323 0.048280
0.219516 0.119265 0.043214
0.248966 0.129000 0.035615
0.279545 0.138643 0.025727
0.312993 0.148592 0.012299
0.349798 0.158602 0.000000
0.389380 0.168795 0.000000
0.430732 0.178592 0.000000
0.473793 0.187900 0.000000
0.517967 0.196841 0.000000
0.562921 0.205295 0.000000
0.608423 0.213138 0.000000
0.653712 0.220432 0.000000
0.697780 0.226993 0.000000
0.740200 0.232883 0.000000
0.781674 0.238193 0.000000
0.823362 0.243290 0.000000
0.019165 0.067536 0.064393
0.020111 0.067475 0.065217
0.019989 0.068330 0.064759
0.027985 0.072023 0.061280
0.054994 0.074372 0.056886
0.066835 0.073762 0.054871
0.074678 0.074800 0.055848
0.082765 0.076356 0.055818
0.091524 0.078614 0.056336
0.101656 0.081666 0.056489
0.112734 0.085451 0.056214
0.125521 0.089509 0.056336
0.139681 0.094331 0.055024
0.155581 0.099855 0.053803
0.173098 0.105989 0.051728
0.192477 0.112642 0.049470
0.218814 0.122011 0.045411
0.247379 0.131502 0.037079
0.277531 0.140810 0.027497
0.310430 0.150576 0.014466
0.346136 0.160433 0.000000
0.384985 0.170596 0.000000
0.425818 0.180087 0.000000
0.468879 0.189700 0.000000
0.513298 0.198795 0.000000
0.558801 0.207431 0.000000
0.604639 0.215396 0.000000
0.650294 0.222873 0.000000
0.694575 0.229496 0.000000
0.737057 0.235294 0.000000
0.778744 0.240757 0.000000
0.820554 0.245823 0.000000
0.023011 0.073579 0.069337
0.022980 0.073182 0.069734
0.023133 0.072786 0.069795
0.023041 0.075563 0.067597
0.041230 0.079713 0.064240
0.063081 0.080354 0.059480
0.073610 0.080690 0.057160
0.082368 0.080995 0.057343
0.091493 0.083009 0.057862
0.101289 0.085969 0.058717
0.112428 0.089204 0.058625
0.125032 0.093416 0.057862
0.139010 0.098054 0.057404
0.154971 0.103609 0.056092
0.172549 0.109499 0.054017
0.193057 0.116487 0.050568
0.219425 0.125856 0.046662
0.247593 0.135134 0.039460
0.277623 0.144564 0.028626
0.310704 0.154299 0.015351
0.346960 0.164370 0.000000
0.386389 0.174502 0.000000
0.500053 0.202090 0.000000
0.543114 0.210544 0.000000
0.584863 0.218051 0.000000
0.625483 0.224826 0.000000
0.664729 0.230869 0.000000
0.702785 0.236301 0.000000
0.739773 0.241398 0.000000
0.776638 0.245945 0.000000
0.813687 0.250340 0.000000
0.850492 0.254429 0.000000
0.026093 0.079805 0.074525
0.027008 0.079744 0.075227
0.027008 0.079744 0.075227
0.026856 0.080110 0.075196
0.031220 0.083345 0.071687
0.054322 0.086458 0.067720
0.070588 0.087739 0.063172
0.083009 0.089143 0.059968
0.093538 0.089845 0.060334
0.104280 0.092592 0.060334
0.115999 0.096193 0.060090
0.129458 0.100313 0.060029
0.144259 0.105287 0.059144
0.160800 0.110567 0.057221
0.178683 0.116670 0.054780
0.202426 0.125032 0.050660
0.230198 0.134554 0.045502
0.259678 0.144137 0.035676
0.291661 0.153902 0.023896
0.327947 0.164492 0.008362
0.369726 0.175845 0.000000
0.416663 0.187564 0.000000
0.467109 0.199344 0.000000
0.518395 0.210330 0.000000
0.568139 0.219821 0.000000
0.613672 0.227756 0.000000
0.656001 0.234440 0.000000
0.695583 0.240452 0.000000
0.733486 0.245396 0.000000
0.770382 0.250065 0.000000
0.807614 0.254459 0.000000
0.844724 0.258579 0.000000
0.031037 0.084443 0.079408
0.031189 0.084108 0.079438
0.031189 0.084108 0.079438
0.032288 0.083680 0.080140
0.030304 0.085786 0.077333
0.042023 0.089113 0.074556
0.061616 0.091249 0.071962
0.076753 0.094545 0.066651
0.090822 0.096834 0.062989
0.103243 0.098299 0.062654
0.115663 0.101564 0.061952
0.128908 0.105745 0.061402
0.143618 0.110231 0.060548
0.159854 0.115541 0.059266
0.178836 0.122133 0.056947
0.203250 0.130861 0.053223
0.229313 0.139498 0.048157
0.257389 0.148714 0.038239
0.288396 0.158267 0.026886
0.323522 0.168704 0.009827
0.364019 0.179690 0.000000
0.409857 0.191409 0.000000
0.459144 0.203220 0.000000
0.509697 0.214145 0.000000
0.559228 0.224002 0.000000
0.605127 0.232181 0.000000
0.648127 0.239078 0.000000
0.688472 0.245090 0.000000
0.727260 0.250278 0.000000
0.764675 0.255100 0.000000
0.802335 0.259586 0.000000
0.839841 0.263767 0.000000
0.034058 0.088563 0.083070
0.033997 0.088258 0.083406
0.035157 0.088197 0.083711
0.035309 0.087861 0.083742
0.035157 0.088197 0.083711
0.036622 0.091524 0.080659
0.051545 0.095216 0.078187
0.067933 0.096742 0.075807
0.084108 0.101869 0.069734
0.100069 0.105715 0.065522
0.114199 0.108492 0.064424
0.129122 0.111849 0.062989
0.143923 0.116487 0.062074
0.160281 0.121645 0.060761
0.182132 0.129488 0.059052
0.205356 0.137514 0.055085
0.230442 0.146029 0.050019
0.257694 0.154818 0.042023
0.287938 0.164218 0.028656
0.322606 0.174380 0.011719
0.362493 0.185489 0.000000
0.407355 0.197177 0.000000
0.455787 0.208865 0.000000
0.505577 0.219974 0.000000
0.554559 0.229892 0.000000
0.600427 0.238193 0.000000
0.643580 0.245182 0.000000
0.684230 0.251347 0.000000
0.723232 0.256687 0.000000
0.760708 0.261295 0.000000
0.798276 0.265782 0.000000
0.835752 0.269932 0.000000
0.037842 0.092744 0.087129
0.037842 0.092744 0.087129
0.038025 0.092439 0.087129
0.037964 0.092134 0.087465
0.039429 0.091463 0.087800
0.036957 0.094240 0.085267
0.045441 0.097841 0.083040
0.061494 0.101503 0.080659
0.075135 0.103517 0.078492
0.092409 0.110048 0.072755
0.110567 0.115053 0.067567
0.126192 0.118593 0.065827
0.143984 0.122835 0.063966
0.163272 0.129763 0.062409
0.184817 0.137392 0.060182
0.208011 0.145480 0.056916
0.233707 0.154025 0.050568
0.261631 0.163027 0.041871
0.291997 0.172519 0.027802
0.326207 0.182528 0.008423
0.364630 0.193210 0.000000
0.407111 0.204227 0.000000
0.452338 0.215427 0.000000
0.499275 0.225742 0.000000
0.546471 0.235355 0.000000
0.592004 0.243931 0.000000
0.636042 0.251255 0.000000
0.678218 0.257755 0.000000
0.718685 0.263493 0.000000
0.757473 0.268437 0.000000
0.796078 0.273075 0.000000
0.834470 0.277287 0.000000
0.040345 0.097017 0.090639
0.040497 0.096742 0.090669
0.040681 0.096437 0.090700
0.042176 0.096101 0.090700
0.042145 0.095827 0.091005
0.042237 0.096407 0.090425
0.042237 0.100008 0.087282
0.054170 0.103914 0.085634
0.068482 0.108278 0.083131
0.083192 0.111025 0.080934
0.101808 0.118593 0.075471
0.122560 0.125582 0.069123
0.142214 0.131411 0.066957
0.165103 0.138277 0.063966
0.187106 0.145724 0.061158
0.210086 0.153597 0.058595
0.235294 0.161990 0.051301
0.262547 0.170626 0.041840
0.292546 0.179843 0.027741
0.326299 0.189761 0.009339
0.364233 0.200473 0.000000
0.406134 0.211612 0.000000
0.451301 0.222843 0.000000
0.497963 0.233494 0.000000
0.544610 0.243137 0.000000
0.589654 0.251621 0.000000
0.633173 0.259007 0.000000
0.675013 0.265507 0.000000
0.715267 0.271183 0.000000
0.753964 0.276127 0.000000
0.792630 0.280705 0.000000
0.831144 0.285130 0.000000
0.043977 0.101015 0.094270
0.043977 0.101015 0.094270
0.044129 0.100740 0.094301
0.044282 0.100496 0.094331
0.044617 0.099947 0.094362
0.046265 0.099062 0.094697
0.043336 0.102663 0.092012
0.049317 0.106477 0.089967
0.062501 0.110811 0.087984
0.076509 0.115724 0.085420
0.092439 0.119631 0.083009
0.114931 0.129915 0.076936
0.153750 0.150332 0.069459
0.181277 0.160006 0.065156
0.212436 0.170047 0.059693
0.243992 0.179782 0.050446
0.272740 0.188663 0.037720
0.302983 0.197543 0.021363
0.334936 0.206516 0.003174
0.370306 0.215885 0.000000
0.408637 0.225803 0.000000
0.449622 0.235538 0.000000
0.492103 0.245060 0.000000
0.535485 0.254032 0.000000
0.578302 0.262058 0.000000
0.619806 0.269139 0.000000
0.659358 0.275090 0.000000
0.697108 0.280156 0.000000
0.733364 0.284642 0.000000
0.769253 0.288823 0.000000
0.805295 0.292668 0.000000
0.841764 0.296422 0.000000
0.047822 0.106783 0.098573
0.047822 0.106783 0.098573
0.047944 0.106508 0.098573
0.048188 0.106020 0.098634
0.048676 0.105013 0.098726
0.049378 0.104250 0.098268
0.048341 0.105318 0.097444
0.047974 0.109285 0.094514
0.058137 0.113985 0.092927
0.070375 0.119417 0.090761
0.087312 0.125643 0.088838
0.108461 0.134401 0.085878
0.136507 0.148531 0.078798
0.170840 0.164248 0.068544
0.201297 0.175448 0.063325
0.235477 0.186557 0.054444
0.271794 0.197055 0.037873
0.301335 0.205844 0.021607
0.332830 0.214572 0.002472
0.367102 0.223850 0.000000
0.404639 0.233616 0.000000
0.444862 0.243320 0.000000
0.486580 0.252934 0.000000
0.529229 0.261906 0.000000
0.571588 0.269993 0.000000
0.612787 0.277104 0.000000
0.652674 0.283238 0.000000
0.690822 0.288609 0.000000
0.727718 0.293309 0.000000
0.764034 0.297429 0.000000
0.800717 0.301457 0.000000
0.837766 0.305394 0.000000
0.049989 0.111086 0.102052
0.050111 0.110842 0.102052
0.050263 0.110597 0.102083
0.050660 0.110140 0.101869
0.051331 0.109163 0.101717
0.051850 0.108431 0.101564
0.051331 0.107485 0.101625
0.049897 0.111177 0.099123
0.054017 0.116487 0.097108
0.065278 0.122225 0.095583
0.079713 0.129641 0.093660
0.098604 0.136172 0.091585
0.122713 0.147189 0.087526
0.153811 0.163088 0.079042
0.191318 0.180301 0.067048
0.223728 0.191928 0.060121
0.259220 0.203281 0.046052
0.297948 0.214145 0.022187
0.331060 0.223178 0.000732
0.364965 0.232425 0.000000
0.402045 0.242252 0.000000
0.442023 0.252171 0.000000
0.483406 0.261875 0.000000
0.525902 0.270970 0.000000
0.568292 0.279393 0.000000
0.609461 0.286503 0.000000
0.649500 0.292790 0.000000
0.687831 0.298344 0.000000
0.725002 0.302953 0.000000
0.761532 0.307317 0.000000
0.798520 0.311284 0.000000
0.835966 0.315251 0.000000
0.052918 0.115389 0.105592
0.052918 0.115389 0.105592
0.053040 0.115145 0.105592
0.053620 0.114687 0.105196
0.053101 0.113832 0.105257
0.053773 0.112886 0.105104
0.054139 0.112184 0.105165
0.053773 0.114046 0.104097
0.052674 0.119020 0.101259
0.061189 0.125063 0.100099
0.072877 0.131838 0.098390
0.090089 0.140200 0.096010
0.110964 0.146883 0.094270
0.138155 0.160647 0.088716
0.172030 0.178012 0.079042
0.212558 0.196597 0.063813
0.246830 0.208835 0.053254
0.284062 0.220401 0.031983
0.324895 0.231754 0.004028
0.364416 0.242008 0.000000
0.400824 0.251713 0.000000
0.440040 0.261723 0.000000
0.480781 0.271305 0.000000
0.523033 0.280583 0.000000
0.565484 0.289036 0.000000
0.607416 0.296757 0.000000
0.648676 0.303563 0.000000
0.688533 0.309361 0.000000
0.727230 0.314427 0.000000
0.765042 0.319127 0.000000
0.803189 0.323552 0.000000
0.841428 0.327520 0.000000
0.056550 0.120943 0.109499
0.056672 0.120729 0.109529
0.056794 0.120516 0.109560
0.056916 0.120302 0.109560
0.056397 0.119478 0.109651
0.057038 0.118593 0.109499
0.057832 0.117464 0.109377
0.057496 0.116854 0.109010
0.055787 0.121889 0.106996
0.059052 0.127871 0.104555
0.067811 0.134737 0.102998
0.082155 0.142702 0.101076
0.101900 0.151858 0.098421
0.123934 0.157809 0.096651
0.153628 0.173953 0.089296
0.189700 0.192203 0.078126
0.232639 0.211765 0.060517
0.269810 0.225132 0.041749
0.310246 0.238132 0.014130
0.355779 0.251041 0.000000
0.403693 0.263401 0.000000
0.443580 0.273686 0.000000
0.484962 0.283635 0.000000
0.527520 0.293156 0.000000
0.570214 0.301946 0.000000
0.612451 0.309697 0.000000
0.653742 0.316533 0.000000
0.693355 0.322362 0.000000
0.731411 0.327214 0.000000
0.768521 0.331640 0.000000
0.805692 0.335607 0.000000
0.842832 0.339452 0.000000
0.059205 0.126406 0.113680
0.059205 0.126406 0.113680
0.059266 0.126192 0.113710
0.059449 0.125582 0.113741
0.059205 0.125002 0.113588
0.059785 0.123751 0.113283
0.059632 0.122744 0.113191
0.059876 0.121096 0.112673
0.058839 0.123873 0.111604
0.057801 0.129580 0.108003
0.063966 0.136172 0.107027
0.075502 0.143832 0.105501
0.091676 0.152895 0.103365
0.113832 0.162966 0.100191
0.137545 0.169375 0.098146
0.169711 0.187564 0.089754
0.208286 0.206973 0.076814
0.254093 0.227787 0.055238
0.295048 0.242802 0.024598
0.338933 0.256779 0.000000
0.387915 0.270787 0.000000
0.440833 0.283909 0.000000
0.484047 0.294347 0.000000
0.526604 0.304112 0.000000
0.569482 0.313085 0.000000
0.612024 0.321172 0.000000
0.653742 0.328252 0.000000
0.693874 0.334325 0.000000
0.732265 0.339361 0.000000
0.769680 0.343816 0.000000
0.807248 0.347936 0.000000
0.844724 0.351812 0.000000
0.060975 0.132357 0.117983
0.061067 0.132143 0.118013
0.062318 0.136233 0.121157
0.062745 0.135286 0.121035
0.062806 0.134401 0.120546
0.062593 0.132937 0.119905
0.062806 0.131228 0.119661
0.062745 0.129549 0.118837
0.062409 0.128603 0.117922
0.060975 0.134646 0.115969
0.063142 0.141573 0.112947
0.071931 0.149599 0.111727
0.086183 0.158938 0.109926
0.106447 0.169284 0.107179
0.131258 0.180026 0.103456
0.159670 0.189181 0.100557
0.196719 0.210086 0.089937
0.240909 0.232059 0.073762
0.292119 0.254643 0.034607
0.338567 0.271122 0.000000
0.386572 0.285710 0.000000
0.439033 0.299779 0.000000
0.493965 0.312291 0.000000
0.541314 0.321874 0.000000
0.581170 0.329473 0.000000
0.620508 0.336248 0.000000
0.658900 0.342168 0.000000
0.696651 0.347448 0.000000
0.733730 0.352026 0.000000
0.770809 0.356329 0.000000
0.808194 0.360449 0.000000
0.845365 0.364263 0.000000
0.063508 0.139162 0.122957
0.063661 0.139498 0.123507
0.063905 0.139803 0.123842
0.063813 0.139803 0.124025
0.064179 0.139101 0.123903
0.064210 0.138033 0.123629
0.064118 0.136233 0.123049
0.064179 0.134249 0.122286
0.064088 0.131655 0.121157
0.063233 0.135103 0.120089
0.061921 0.142061 0.116609
0.067353 0.149966 0.115084
0.078737 0.158785 0.113893
0.095674 0.168765 0.111635
0.117861 0.180026 0.108614
0.143923 0.190463 0.104982
0.174716 0.201968 0.100893
0.214511 0.224094 0.088716
0.261997 0.247623 0.069886
0.316136 0.271305 0.015503
0.366674 0.289403 0.000000
0.418891 0.305516 0.000000
0.474311 0.320378 0.000000
0.530663 0.332891 0.000000
0.582300 0.342168 0.000000
0.622126 0.349340 0.000000
0.660822 0.355413 0.000000
0.698604 0.360540 0.000000
0.735592 0.365209 0.000000
0.772519 0.369421 0.000000
0.809781 0.373602 0.000000
0.846830 0.377234 0.000000
0.065278 0.144472 0.126925
0.065431 0.144961 0.127230
0.065705 0.145113 0.127565
0.065614 0.145113 0.127749
0.065919 0.144411 0.127626
0.065675 0.143069 0.127230
0.065736 0.141176 0.126467
0.065492 0.138949 0.125582
0.065339 0.136660 0.124514
0.065064 0.135988 0.123415
0.063783 0.142489 0.121675
0.064485 0.150393 0.118318
0.072999 0.158785 0.117433
0.086671 0.168673 0.115816
0.105867 0.179629 0.113497
0.130312 0.191897 0.109682
0.158206 0.202579 0.106416
0.192264 0.216770 0.100649
0.236179 0.240818 0.086519
0.287327 0.266087 0.063813
0.345006 0.290837 0.000000
0.400214 0.310582 0.000000
0.455818 0.327520 0.000000
0.513268 0.342473 0.000000
0.569421 0.354192 0.000000
0.623255 0.362737 0.000000
0.662593 0.368688 0.000000
0.699916 0.373754 0.000000
0.736599 0.378302 0.000000
0.773220 0.382452 0.000000
0.810300 0.386542 0.000000
0.847044 0.390173 0.000000
0.066682 0.150057 0.130678
0.066835 0.150362 0.131167
0.066987 0.150820 0.131472
0.067109 0.150515 0.131502
0.067414 0.149844 0.131380
0.067292 0.148409 0.130831
0.066865 0.146639 0.130098
0.066835 0.144137 0.129091
0.066804 0.141604 0.128054
0.066560 0.138674 0.126711
0.065644 0.142611 0.125429
0.064240 0.150301 0.122621
0.068727 0.158663 0.120668
0.079438 0.168246 0.119387
0.095613 0.179202 0.117678
0.117311 0.191501 0.114992
0.145235 0.205570 0.111025
0.176089 0.217288 0.107637
0.216159 0.236240 0.100282
0.267155 0.264530 0.082856
0.325963 0.293187 0.047883
0.391119 0.320653 0.000000
0.452796 0.342168 0.000000
0.513146 0.359899 0.000000
0.572412 0.374121 0.000000
0.628351 0.384375 0.000000
0.679652 0.390845 0.000000
0.720058 0.394934 0.000000
0.755337 0.398657 0.000000
0.790860 0.402197 0.000000
0.826474 0.405524 0.000000
0.861570 0.408606 0.000000
0.069123 0.158511 0.136507
0.069520 0.158480 0.136690
0.069581 0.158328 0.136690
0.069368 0.157900 0.136568
0.069581 0.156680 0.136202
0.069093 0.155184 0.135500
0.069001 0.153017 0.134524
0.068482 0.150668 0.133547
0.068299 0.147799 0.132265
0.068208 0.144839 0.130800
0.067567 0.144076 0.129641
0.066133 0.151797 0.128176
0.066468 0.160525 0.124331
0.074830 0.170138 0.123659
0.088380 0.181216 0.122438
0.107759 0.193790 0.120485
0.132906 0.207919 0.117281
0.164645 0.224216 0.112703
0.199588 0.236851 0.109407
0.246128 0.260319 0.098848
0.302434 0.290501 0.077150
0.365637 0.319921 0.013214
0.432685 0.346838 0.000000
0.494850 0.367132 0.000000
0.554650 0.383459 0.000000
0.612421 0.396155 0.000000
0.666316 0.404974 0.000000
0.715389 0.410163 0.000000
0.757565 0.413031 0.000000
0.792813 0.416449 0.000000
0.827970 0.419715 0.000000
0.862669 0.422950 0.000000
0.070954 0.164797 0.140810
0.071290 0.164920 0.140963
0.071351 0.164767 0.140963
0.071351 0.163912 0.140719
0.071077 0.162905 0.140352
0.070802 0.161196 0.139559
0.070832 0.158968 0.138460
0.070222 0.156283 0.137240
0.070222 0.153201 0.135836
0.069825 0.150088 0.134279
0.069276 0.146395 0.132387
0.068116 0.151400 0.131563
0.067140 0.159762 0.129152
0.070466 0.169619 0.126558
0.081331 0.180697 0.125978
0.097719 0.193271 0.124605
0.120211 0.207675 0.122164
0.148989 0.224094 0.118624
0.185000 0.242618 0.113466
0.224582 0.256504 0.110048
0.278080 0.285130 0.095644
0.340856 0.317784 0.067597
0.409125 0.348516 0.000000
0.479530 0.375494 0.000000
0.531426 0.388556 0.000000
0.590753 0.403937 0.000000
0.647669 0.415717 0.000000
0.699550 0.423346 0.000000
0.746822 0.427497 0.000000
0.791470 0.429786 0.000000
0.826841 0.433295 0.000000
0.861814 0.436866 0.000000
0.073823 0.174105 0.146914
0.073762 0.174105 0.147066
0.073884 0.173983 0.146944
0.073915 0.173159 0.146731
0.073518 0.171695 0.146090
0.073182 0.169528 0.145083
0.072694 0.166903 0.143771
0.072419 0.163790 0.142336
0.071992 0.160342 0.140597
0.071199 0.156649 0.138674
0.070680 0.152529 0.136416
0.069947 0.151522 0.134829
0.068482 0.159701 0.133700
0.067811 0.169406 0.129702
0.075380 0.179934 0.129091
0.089143 0.192111 0.128023
0.108248 0.205814 0.126284
0.133333 0.221592 0.123598
0.165682 0.239841 0.119478
0.204440 0.258885 0.113436
0.249973 0.275425 0.109987
0.309697 0.308598 0.091035
0.376806 0.342382 0.051270
0.446784 0.372442 0.000000
0.515709 0.397192 0.000000
0.576135 0.414130 0.000000
0.634058 0.427955 0.000000
0.687526 0.437385 0.000000
0.736141 0.443305 0.000000
0.782010 0.446906 0.000000
0.825406 0.448890 0.000000
0.862669 0.451698 0.000000
0.075319 0.180911 0.151186
0.075624 0.181033 0.151339
0.075685 0.180911 0.151339
0.075380 0.180026 0.151003
0.075502 0.178470 0.150393
0.074891 0.176150 0.149294
0.074891 0.173465 0.148043
0.074311 0.170382 0.146517
0.073610 0.166812 0.144717
0.073060 0.162875 0.142733
0.072389 0.158511 0.140261
0.071229 0.154025 0.137911
0.070314 0.159335 0.137270
0.069306 0.169039 0.135286
0.071382 0.180209 0.132265
0.082307 0.192721 0.131807
0.099062 0.206821 0.130831
0.121889 0.223056 0.128969
0.151858 0.241855 0.125704
0.189822 0.263523 0.120607
0.234775 0.285008 0.114351
0.287572 0.304051 0.108949
0.354894 0.341314 0.083070
0.426673 0.375555 0.002899
0.499031 0.404822 0.000000
0.567163 0.427436 0.000000
0.625360 0.441871 0.000000
0.680903 0.453498 0.000000
0.731380 0.461189 0.000000
0.778500 0.466163 0.000000
0.823056 0.469459 0.000000
0.864775 0.471565 0.000000
0.077607 0.189578 0.156527
0.077943 0.189548 0.156680
0.077760 0.189181 0.156558
0.077577 0.188235 0.156100
0.077272 0.186282 0.155154
0.076753 0.183963 0.154086
0.076265 0.180941 0.152651
0.076081 0.177493 0.150942
0.075319 0.173556 0.148959
0.074495 0.169528 0.146914
0.073640 0.164950 0.144411
0.072877 0.160098 0.141726
0.071595 0.158724 0.139925
0.070985 0.168276 0.139498
0.070008 0.179538 0.136294
0.076692 0.192111 0.135042
0.090455 0.206424 0.134676
0.110780 0.222812 0.133486
0.137850 0.241642 0.131197
0.172793 0.263737 0.127291
0.217014 0.288609 0.120912
0.267918 0.312139 0.113619
0.327886 0.334661 0.105135
0.400763 0.373297 0.071199
0.475868 0.407263 0.000000
0.548180 0.434607 0.000000
0.614130 0.454444 0.000000
0.668513 0.465919 0.000000
0.720272 0.475319 0.000000
0.768795 0.481941 0.000000
0.814817 0.486732 0.000000
0.857847 0.490364 0.000000
0.079713 0.198001 0.161746
0.079713 0.198001 0.161746
0.079866 0.197787 0.161654
0.079530 0.196536 0.161105
0.079438 0.194766 0.160464
0.078859 0.192691 0.159426
0.078676 0.189944 0.158175
0.078309 0.186801 0.156802
0.077729 0.183352 0.155154
0.077028 0.179477 0.153231
0.076387 0.174777 0.150912
0.075532 0.169711 0.148257
0.074495 0.164157 0.145113
0.073579 0.170748 0.144930
0.072389 0.183078 0.144137
0.073121 0.197391 0.140566
0.085695 0.213169 0.141115
0.104524 0.231479 0.140810
0.131197 0.252720 0.139498
0.166262 0.277134 0.136599
0.210941 0.304906 0.131319
0.266819 0.335332 0.122286
0.328405 0.361395 0.113375
0.399939 0.387915 0.099184
0.480354 0.427161 0.034089
0.557488 0.458656 0.000000
0.626795 0.481147 0.000000
0.685451 0.494820 0.000000
0.732357 0.500847 0.000000
0.778683 0.506828 0.000000
0.824491 0.511986 0.000000
0.866911 0.515740 0.000000
0.083894 0.214237 0.171481
0.084108 0.213901 0.171389
0.083742 0.213291 0.171206
0.083619 0.211948 0.170443
0.083345 0.209598 0.169406
0.082612 0.206851 0.168154
0.081941 0.203464 0.166415
0.081483 0.199557 0.164675
0.080537 0.195377 0.162570
0.079988 0.190433 0.160067
0.078859 0.185000 0.157259
0.077913 0.179110 0.154269
0.076509 0.172763 0.150668
0.075135 0.170016 0.147921
