data/fiter_cube/49007420/1023417/file.cube
# Created by Adobe Lightroom plugin Export LUT (1.17.0)
# www.johnrellis.com/lightroom/exportlut.htm
# Preset: 01 - 日系情绪 [云集]
# Color profile: C:\Program Files (x86)\Common Files\Adobe\Color\Profiles\Recommended\AdobeRGB1998.icc
LUT_3D_SIZE 32
DOMAIN_MIN 0.0 0.0 0.0
DOMAIN_MAX 1.0 1.0 1.0
0.176333 0.193759 0.196353
0.177188 0.193851 0.196445
0.178470 0.194034 0.196506
0.181460 0.194400 0.196628
0.187167 0.195071 0.196750
0.194797 0.195834 0.196933
0.204623 0.196628 0.197024
0.217533 0.197696 0.197116
0.234806 0.198886 0.196933
0.257542 0.200046 0.196689
0.286564 0.201083 0.196139
0.321843 0.202121 0.195346
0.363378 0.202518 0.194156
0.410132 0.202518 0.192691
0.460639 0.202609 0.190799
0.512749 0.202823 0.188388
0.564233 0.204807 0.185367
0.612665 0.209628 0.182010
0.658137 0.218448 0.178256
0.702876 0.231846 0.173953
0.743648 0.248997 0.169314
0.781308 0.268894 0.164553
0.815854 0.290745 0.159640
0.847288 0.313298 0.155062
0.876249 0.335576 0.151125
0.903441 0.357336 0.148013
0.929442 0.378180 0.146304
0.954253 0.397894 0.146944
0.977783 0.416358 0.150576
0.999756 0.433936 0.157900
1.000000 0.450752 0.170199
1.000000 0.467262 0.187900
0.176425 0.194553 0.196628
0.177157 0.194705 0.196597
0.178470 0.194858 0.196536
0.181491 0.195102 0.196658
0.187320 0.195865 0.196780
0.195071 0.196597 0.196963
0.204868 0.197543 0.197055
0.217655 0.198611 0.197147
0.234897 0.199680 0.196963
0.257542 0.201083 0.196719
0.286412 0.202365 0.196139
0.321538 0.203342 0.195377
0.362890 0.204013 0.194278
0.409522 0.204196 0.192782
0.459754 0.204440 0.190829
0.511711 0.205020 0.188388
0.563104 0.207004 0.185397
0.611475 0.211978 0.182040
0.657038 0.220676 0.178286
0.701228 0.233829 0.174075
0.741787 0.250645 0.169375
0.779324 0.270146 0.164706
0.813901 0.291691 0.159823
0.845426 0.313909 0.155184
0.874540 0.336095 0.151095
0.901884 0.357946 0.147921
0.928038 0.378698 0.146212
0.953002 0.398383 0.146639
0.976715 0.416907 0.150118
0.998810 0.434455 0.157443
1.000000 0.451209 0.169345
1.000000 0.467597 0.186923
0.176638 0.195712 0.196841
0.177218 0.195621 0.196933
0.178256 0.195956 0.196780
0.181552 0.196262 0.196780
0.187533 0.196872 0.196933
0.195285 0.197726 0.196963
0.205081 0.198642 0.197086
0.217838 0.199741 0.197147
0.235050 0.201022 0.196963
0.257755 0.202396 0.196719
0.286687 0.203861 0.196231
0.321874 0.205142 0.195407
0.363134 0.205936 0.194217
0.409705 0.206577 0.192691
0.459907 0.207065 0.190799
0.511772 0.207736 0.188357
0.563043 0.210086 0.185336
0.611261 0.215274 0.181979
0.656947 0.224063 0.178195
0.700740 0.237156 0.173892
0.741176 0.253696 0.169345
0.778592 0.272892 0.164553
0.813169 0.294377 0.159640
0.844694 0.316228 0.155001
0.873838 0.338384 0.150912
0.901183 0.359716 0.147829
0.927398 0.380346 0.146090
0.952453 0.399939 0.146517
0.976196 0.418341 0.149996
0.998383 0.435737 0.157321
1.000000 0.452369 0.169284
1.000000 0.468666 0.186709
0.177127 0.198062 0.197513
0.177676 0.198093 0.197604
0.178531 0.197971 0.197910
0.181094 0.199008 0.197452
0.187381 0.200137 0.197208
0.195804 0.200320 0.197086
0.205692 0.201175 0.197177
0.218753 0.202426 0.197116
0.236179 0.203861 0.196994
0.259098 0.205570 0.196719
0.288029 0.207309 0.196078
0.323430 0.209018 0.195224
0.364721 0.210452 0.194156
0.411261 0.211551 0.192691
0.461280 0.212528 0.190646
0.513054 0.214054 0.188235
0.564019 0.216892 0.185031
0.611963 0.222507 0.181643
0.657740 0.231571 0.177737
0.700587 0.244327 0.173556
0.740444 0.260533 0.169039
0.777523 0.279423 0.164279
0.812131 0.300298 0.159365
0.843870 0.321996 0.154635
0.873320 0.343786 0.150576
0.901030 0.365026 0.147494
0.927428 0.385443 0.145846
0.952575 0.404639 0.146578
0.976318 0.422644 0.150088
0.998413 0.439582 0.157656
1.000000 0.455848 0.169650
1.000000 0.471656 0.187045
0.177523 0.202457 0.198215
0.178134 0.202365 0.198184
0.179141 0.202213 0.198489
0.180972 0.202396 0.198672
0.186038 0.204501 0.198032
0.195163 0.206241 0.197452
0.206027 0.206302 0.197269
0.219974 0.206760 0.197238
0.237675 0.208530 0.196963
0.260868 0.210666 0.196628
0.290166 0.212955 0.196139
0.325597 0.215366 0.195315
0.367102 0.217441 0.194156
0.413733 0.219303 0.192569
0.463783 0.221195 0.190524
0.515618 0.223575 0.187747
0.566552 0.227268 0.184665
0.614282 0.233524 0.181033
0.660243 0.243320 0.177157
0.702388 0.256291 0.172763
0.741512 0.271977 0.168307
0.778225 0.290379 0.163485
0.812467 0.310613 0.158724
0.844083 0.331640 0.153964
0.873411 0.352758 0.150027
0.901061 0.373449 0.146944
0.927398 0.393072 0.145693
0.952483 0.411536 0.146517
0.976135 0.428931 0.150271
0.998169 0.445380 0.158175
1.000000 0.461006 0.170382
1.000000 0.476417 0.188113
0.177707 0.208499 0.199069
0.178195 0.208438 0.198947
0.179385 0.208164 0.199161
0.181552 0.207736 0.199588
0.185092 0.208896 0.199496
0.192660 0.211917 0.198520
0.205356 0.214817 0.197604
0.219913 0.215610 0.197452
0.239811 0.216037 0.197086
0.263981 0.218143 0.196689
0.293889 0.221134 0.196109
0.329839 0.224277 0.195254
0.371618 0.227298 0.194034
0.418433 0.230137 0.192325
0.468727 0.233188 0.189944
0.520348 0.236484 0.187259
0.570886 0.241367 0.183963
0.619043 0.248722 0.180148
0.664149 0.259129 0.176059
0.705653 0.272160 0.171664
0.744289 0.287938 0.167025
0.780667 0.305791 0.162356
0.827878 0.335332 0.155825
0.857939 0.355261 0.151736
0.885771 0.374853 0.148531
0.912016 0.393347 0.146792
0.936980 0.411017 0.146761
0.960662 0.427588 0.149050
0.982971 0.443366 0.154726
1.000000 0.458289 0.163943
1.000000 0.472724 0.177676
1.000000 0.487007 0.196506
0.178073 0.216434 0.200076
0.178439 0.216403 0.199741
0.179599 0.216129 0.200046
0.182193 0.215671 0.200565
0.185550 0.215061 0.201389
0.191165 0.217868 0.200687
0.202121 0.222477 0.199344
0.220249 0.227909 0.197787
0.240818 0.230045 0.197360
0.267948 0.231907 0.196750
0.301854 0.233188 0.195987
0.339117 0.237369 0.194888
0.381994 0.241459 0.193545
0.429480 0.245457 0.191623
0.479744 0.249454 0.189120
0.530663 0.254002 0.186038
0.580133 0.260014 0.182559
0.628992 0.269047 0.178470
0.673213 0.280308 0.174075
0.714137 0.293889 0.169619
0.752895 0.310124 0.164889
0.789731 0.328710 0.159854
0.824063 0.348608 0.154910
0.855497 0.368597 0.150759
0.884489 0.387823 0.147799
0.911284 0.405798 0.146181
0.936492 0.422736 0.146609
0.960235 0.438361 0.149477
0.982513 0.453162 0.155428
1.000000 0.467323 0.165133
1.000000 0.480934 0.179049
1.000000 0.494545 0.198032
0.178439 0.226291 0.201572
0.178866 0.226261 0.201053
0.180026 0.226017 0.201236
0.182803 0.225437 0.201755
0.186740 0.224613 0.202701
0.191257 0.224582 0.203525
0.199863 0.229740 0.202182
0.214603 0.236454 0.200504
0.239750 0.245762 0.198154
0.267155 0.250004 0.197269
0.301732 0.253452 0.196231
0.343297 0.255558 0.194797
0.389197 0.258091 0.193118
0.436835 0.263279 0.190829
0.486976 0.268498 0.188205
0.537438 0.274205 0.184878
0.587884 0.281865 0.181003
0.635065 0.291630 0.176761
0.677668 0.302770 0.172305
0.717433 0.316045 0.167910
0.755367 0.331609 0.163241
0.791379 0.349248 0.158328
0.825040 0.367864 0.153597
0.856016 0.386450 0.149660
0.884672 0.404150 0.147066
0.911315 0.420935 0.145907
0.936339 0.436530 0.146700
0.959960 0.451057 0.150057
0.982177 0.465003 0.156527
1.000000 0.478096 0.166537
1.000000 0.490944 0.181033
1.000000 0.503655 0.200565
0.179049 0.239658 0.203403
0.179477 0.239506 0.202976
0.180423 0.239322 0.202884
0.183474 0.238651 0.203403
0.187839 0.237827 0.204318
0.192874 0.236667 0.205417
0.199649 0.238956 0.205661
0.211948 0.246525 0.203861
0.232273 0.256260 0.201602
0.264897 0.269261 0.198276
0.301732 0.277226 0.196384
0.343725 0.282170 0.194522
0.392035 0.285527 0.192447
0.445411 0.286595 0.189731
0.496376 0.291630 0.186740
0.547784 0.299107 0.183108
0.597345 0.307836 0.178897
0.642756 0.317876 0.174502
0.683619 0.328801 0.170260
0.722286 0.341588 0.165774
0.759182 0.356420 0.161013
0.794400 0.372961 0.156191
0.827268 0.390204 0.151797
0.857664 0.407050 0.148257
0.885832 0.423255 0.146151
0.912108 0.438361 0.145754
0.936919 0.452613 0.147127
0.960296 0.465949 0.151156
0.982269 0.478553 0.158297
1.000000 0.490639 0.169039
1.000000 0.502434 0.183993
1.000000 0.514275 0.203983
0.179171 0.257267 0.205386
0.179568 0.257145 0.204990
0.180331 0.256931 0.204471
0.183688 0.256291 0.205081
0.188510 0.255192 0.205905
0.194522 0.253941 0.207126
0.201205 0.252384 0.208652
0.211551 0.258793 0.207706
0.228855 0.269383 0.205325
0.255680 0.282383 0.202213
0.296605 0.299199 0.197757
0.343786 0.311406 0.194278
0.392523 0.317937 0.191531
0.446021 0.322454 0.188357
0.503899 0.325780 0.184573
0.560388 0.328435 0.180453
0.608301 0.337804 0.176059
0.652033 0.347723 0.171633
0.691463 0.358373 0.167391
0.728756 0.370520 0.162936
0.764370 0.384161 0.158511
0.798245 0.398962 0.154025
0.829862 0.414282 0.150118
0.859220 0.429145 0.147097
0.886748 0.443336 0.145602
0.912657 0.456947 0.145968
0.937255 0.469856 0.147921
0.960510 0.481910 0.152926
0.982391 0.493538 0.160861
1.000000 0.504601 0.172457
1.000000 0.515496 0.188266
1.000000 0.526421 0.208865
0.178439 0.279637 0.207401
0.178897 0.279454 0.206912
0.179446 0.279271 0.206088
0.182986 0.278508 0.206607
0.188602 0.277379 0.207431
0.195590 0.275975 0.208621
0.203677 0.274266 0.210239
0.212375 0.273411 0.211887
0.227878 0.284855 0.209567
0.251438 0.298924 0.206485
0.285985 0.315496 0.202213
0.335637 0.335821 0.196048
0.394324 0.353613 0.190372
0.449683 0.362005 0.186343
0.507195 0.368200 0.181888
0.563439 0.372290 0.177310
0.615869 0.374640 0.172824
0.660578 0.380011 0.168551
0.698604 0.389746 0.164309
0.734798 0.400824 0.160006
0.769345 0.413153 0.155764
0.802335 0.426490 0.151705
0.833219 0.439948 0.148501
0.861936 0.453040 0.146273
0.888884 0.465644 0.145724
0.914336 0.477546 0.146670
0.938445 0.488777 0.149935
0.961303 0.499519 0.155642
0.982818 0.509697 0.164340
1.000000 0.519554 0.176730
1.000000 0.529412 0.193118
1.000000 0.539452 0.214420
0.176791 0.307073 0.209598
0.177310 0.306950 0.208896
0.178042 0.306645 0.208011
0.181491 0.305852 0.208042
0.187839 0.304784 0.208927
0.195865 0.303227 0.210239
0.205234 0.301335 0.211948
0.215579 0.299046 0.214023
0.228367 0.302770 0.214389
0.249454 0.317662 0.211368
0.280613 0.335393 0.207095
0.324804 0.356786 0.201236
0.393164 0.388708 0.192355
0.467109 0.414099 0.182650
0.525322 0.422522 0.177188
0.580835 0.428321 0.171878
0.631769 0.431983 0.166903
0.676936 0.433387 0.162631
0.717769 0.433539 0.159274
0.752407 0.441260 0.155764
0.784848 0.451392 0.152316
0.815488 0.462013 0.149508
0.844144 0.472541 0.147463
0.871061 0.483070 0.146975
0.896605 0.493172 0.147707
0.920867 0.502892 0.150240
0.943908 0.512016 0.155001
0.965728 0.520836 0.161959
0.986236 0.529351 0.172122
1.000000 0.537713 0.185397
1.000000 0.546166 0.202945
1.000000 0.555016 0.224826
0.173678 0.342016 0.211826
0.174258 0.341802 0.211063
0.175113 0.341375 0.209995
0.178408 0.340551 0.209354
0.185885 0.338903 0.210422
0.195377 0.336919 0.211795
0.206455 0.334539 0.213626
0.218570 0.331975 0.215793
0.231479 0.329259 0.218601
0.250462 0.340826 0.217319
0.279973 0.360937 0.213077
0.321599 0.384070 0.207248
0.376959 0.409918 0.199252
0.446265 0.437232 0.188205
0.525811 0.465339 0.175174
0.581231 0.472755 0.169162
0.631556 0.477119 0.163973
0.676081 0.478828 0.159548
0.716640 0.479194 0.156252
0.754696 0.479530 0.153292
0.789853 0.481636 0.150729
0.819486 0.490303 0.148745
0.847257 0.499092 0.147829
0.873533 0.507774 0.148043
0.898497 0.516258 0.149722
0.922240 0.524407 0.153262
0.944884 0.532219 0.158724
0.966339 0.539666 0.166812
0.986511 0.546929 0.177584
1.000000 0.554223 0.191836
1.000000 0.561669 0.209873
1.000000 0.569512 0.232486
0.169558 0.378607 0.214054
0.170230 0.378332 0.213107
0.171084 0.378027 0.212070
0.173983 0.377173 0.210544
0.182620 0.375433 0.211734
0.193698 0.373449 0.213199
0.206516 0.371618 0.215213
0.220768 0.369360 0.217716
0.235996 0.366766 0.220737
0.252140 0.364385 0.224247
0.279026 0.384466 0.220218
0.316686 0.407660 0.214694
0.366491 0.433112 0.207218
0.428901 0.459724 0.197177
0.501579 0.486397 0.184024
0.581903 0.514580 0.168246
0.631373 0.519127 0.162783
0.675441 0.521080 0.158572
0.715633 0.521508 0.155123
0.753414 0.521996 0.152285
0.789181 0.522454 0.150240
0.822354 0.522576 0.149233
0.851102 0.526146 0.149325
0.876738 0.533196 0.150668
0.901091 0.540154 0.153414
0.924376 0.546746 0.158053
0.946532 0.553094 0.164614
0.967529 0.559289 0.173404
0.987304 0.565423 0.185122
1.000000 0.571618 0.200076
1.000000 0.578058 0.218875
1.000000 0.584985 0.242222
0.163638 0.420691 0.216739
0.164431 0.420600 0.215763
0.165438 0.420203 0.214572
0.167575 0.419501 0.212009
0.178012 0.417853 0.213169
0.190829 0.415747 0.214939
0.205753 0.413367 0.217044
0.222232 0.410529 0.219791
0.239780 0.407660 0.222995
0.258244 0.404456 0.226932
0.279911 0.409125 0.228458
0.314214 0.431922 0.223392
0.359411 0.456641 0.216526
0.416144 0.482338 0.207614
0.482734 0.507713 0.196262
0.554742 0.531670 0.181888
0.631098 0.557794 0.164858
0.675532 0.560449 0.160067
0.715297 0.561059 0.156649
0.752804 0.561517 0.154025
0.788144 0.561852 0.152285
0.820981 0.561700 0.151919
0.851408 0.560937 0.152682
0.879911 0.559472 0.155032
0.904082 0.564111 0.158968
0.926879 0.569421 0.164553
0.948669 0.574640 0.172274
0.969329 0.579736 0.182376
0.988800 0.584802 0.195163
1.000000 0.590051 0.211215
1.000000 0.595605 0.231144
1.000000 0.601770 0.255650
0.156893 0.465400 0.219944
0.157687 0.465370 0.219089
0.158907 0.465034 0.217807
0.161471 0.464332 0.214908
0.172061 0.462745 0.215122
0.187228 0.460761 0.216953
0.204471 0.458228 0.219364
0.223606 0.455451 0.222324
0.243717 0.452308 0.225895
0.264591 0.448890 0.229984
0.285863 0.444953 0.234684
0.314611 0.457435 0.233463
0.355444 0.480568 0.227359
0.406867 0.504509 0.219547
0.467323 0.527855 0.209689
0.534020 0.550164 0.197665
0.602045 0.571221 0.183230
0.671260 0.593469 0.167025
0.715480 0.597772 0.161837
0.752926 0.598474 0.159487
0.788174 0.598993 0.158206
0.820829 0.598779 0.158328
0.851041 0.597833 0.160006
0.879393 0.596277 0.162875
0.906004 0.594141 0.167636
0.930510 0.592981 0.174105
0.951690 0.596796 0.182681
0.971740 0.600732 0.193759
0.990539 0.604669 0.207614
1.000000 0.608820 0.224247
1.000000 0.613336 0.244633
1.000000 0.618524 0.269383
0.150393 0.508904 0.224399
0.151400 0.508751 0.223301
0.152804 0.508324 0.221958
0.155795 0.507591 0.218875
0.166201 0.506126 0.217777
0.183322 0.504112 0.219883
0.203067 0.501610 0.222324
0.224430 0.498665 0.225406
0.246891 0.495399 0.229191
0.270085 0.491707 0.233524
0.293584 0.487709 0.238499
0.316960 0.483345 0.244022
0.353948 0.503777 0.239414
0.400885 0.526055 0.232700
0.456245 0.547753 0.224491
0.517540 0.568353 0.214511
0.581170 0.587884 0.202792
0.644373 0.606226 0.188937
0.708522 0.626184 0.173983
0.752895 0.632471 0.168643
0.787747 0.632929 0.167758
0.820005 0.632593 0.168246
0.850004 0.631586 0.170443
0.878141 0.629969 0.174105
0.904692 0.627619 0.179355
0.929656 0.624720 0.186496
0.953094 0.621271 0.195163
0.973602 0.621424 0.206668
0.991882 0.624384 0.221103
1.000000 0.627619 0.238499
1.000000 0.631250 0.259434
1.000000 0.635645 0.285008
0.145937 0.550866 0.230533
0.147127 0.550866 0.229343
0.148562 0.559258 0.229496
0.152102 0.558495 0.225986
0.161959 0.557092 0.223514
0.182315 0.554833 0.225498
0.205020 0.552056 0.228214
0.229191 0.548791 0.231449
0.254673 0.545190 0.235447
0.280583 0.541253 0.240177
0.306584 0.536950 0.245182
0.332280 0.532097 0.251164
0.360662 0.533196 0.254673
0.404425 0.553399 0.249027
0.455390 0.573022 0.242252
0.512016 0.591760 0.233951
0.571099 0.609400 0.224491
0.630274 0.626123 0.213535
0.688502 0.642206 0.200656
0.747738 0.660182 0.187503
0.791165 0.667597 0.182956
0.822538 0.666835 0.184054
0.851835 0.665400 0.186648
0.879301 0.663386 0.190890
0.905089 0.660548 0.196506
0.929412 0.657130 0.203769
0.952209 0.653193 0.212619
0.973480 0.648981 0.223484
0.993194 0.644648 0.236790
1.000000 0.646540 0.254490
1.000000 0.649348 0.275853
1.000000 0.652979 0.301671
0.145785 0.592462 0.239261
0.147036 0.593378 0.238407
0.149050 0.594232 0.237064
0.153109 0.594568 0.233860
0.160708 0.594232 0.229740
0.183139 0.592615 0.232059
0.207370 0.590234 0.234775
0.233677 0.587152 0.238193
0.260594 0.583825 0.242161
0.288182 0.580102 0.246769
0.315923 0.575891 0.252171
0.343511 0.571344 0.258091
0.370214 0.566217 0.264775
0.404944 0.574060 0.265110
0.451850 0.592157 0.259586
0.503868 0.609369 0.253056
0.558679 0.625696 0.245457
0.614313 0.641413 0.236820
0.669795 0.656672 0.226993
0.724178 0.671565 0.215671
0.779538 0.688380 0.204379
0.822080 0.696834 0.201724
0.851164 0.695552 0.204593
0.878416 0.693568 0.209171
0.904051 0.690791 0.215122
0.928252 0.687343 0.222812
0.950835 0.683375 0.232212
0.971893 0.679042 0.243778
0.991394 0.674556 0.257603
1.000000 0.670130 0.274113
1.000000 0.667781 0.294285
1.000000 0.670680 0.320317
0.151095 0.628443 0.249851
0.152865 0.629236 0.249149
0.154971 0.629999 0.247868
0.159091 0.630304 0.244663
0.165164 0.630121 0.239139
0.187472 0.628626 0.241001
0.213504 0.626337 0.243900
0.240787 0.623621 0.247227
0.269169 0.620539 0.251286
0.298375 0.616968 0.256046
0.327520 0.613092 0.261570
0.356481 0.608789 0.267582
0.384649 0.603906 0.274235
0.411810 0.598596 0.281529
0.452949 0.612055 0.278782
0.500786 0.627741 0.273716
0.551507 0.642969 0.267765
0.603540 0.657679 0.261051
0.655940 0.671992 0.253391
0.707820 0.686122 0.244999
0.758175 0.699947 0.235447
0.809262 0.715572 0.226200
0.850767 0.724819 0.226047
0.877775 0.722896 0.230777
0.903166 0.720150 0.237034
0.927062 0.716609 0.244846
0.949371 0.712551 0.254459
0.970153 0.708095 0.266178
0.989380 0.703456 0.280491
1.000000 0.698878 0.297398
1.000000 0.694514 0.317418
1.000000 0.690822 0.341100
0.163699 0.662013 0.263371
0.165499 0.662715 0.262638
0.167453 0.663386 0.261448
0.171725 0.663661 0.258274
0.177920 0.663478 0.253025
0.197360 0.662226 0.252903
0.223789 0.660151 0.255741
0.251682 0.657557 0.259190
0.281010 0.654566 0.263279
0.310857 0.651240 0.268101
0.341009 0.647517 0.273594
0.371099 0.643336 0.279789
0.400336 0.638727 0.286442
0.428443 0.633753 0.293736
0.458045 0.632044 0.299718
0.502251 0.646693 0.296056
0.549432 0.661128 0.291966
0.598260 0.675196 0.287205
0.647913 0.689113 0.281987
0.697261 0.702785 0.276127
0.745327 0.716182 0.269749
0.791897 0.729213 0.262638
0.839414 0.744106 0.255558
0.879698 0.753964 0.258518
0.904784 0.751278 0.265415
0.928252 0.747738 0.273808
0.950103 0.743435 0.284001
0.970336 0.738766 0.296391
0.989044 0.733852 0.311070
1.000000 0.728939 0.328527
1.000000 0.724331 0.349065
1.000000 0.720363 0.373327
0.185519 0.696864 0.281987
0.187045 0.697108 0.281041
0.188785 0.697230 0.279667
0.192630 0.697108 0.276402
0.198184 0.696590 0.271061
0.213901 0.695399 0.268864
0.240299 0.693385 0.271763
0.268437 0.691005 0.275303
0.298253 0.688289 0.279545
0.328893 0.685206 0.284550
0.359716 0.681819 0.290227
0.390509 0.677974 0.296513
0.420569 0.673610 0.303349
0.449348 0.668910 0.310857
0.476692 0.663874 0.318791
0.510307 0.667659 0.321996
0.553399 0.680873 0.319158
0.598322 0.693965 0.315923
0.644221 0.706874 0.312230
0.689906 0.719478 0.308141
0.734737 0.731838 0.303655
0.778347 0.743954 0.298619
0.820768 0.755947 0.292943
0.863951 0.769162 0.287022
0.902892 0.779507 0.292271
0.926726 0.776608 0.300603
0.948302 0.772274 0.310918
0.968261 0.767453 0.323430
0.986633 0.762387 0.338323
1.000000 0.757229 0.355840
1.000000 0.752346 0.376440
1.000000 0.748074 0.400519
0.211307 0.726741 0.301915
0.212985 0.726955 0.300999
0.214878 0.727108 0.299870
0.218509 0.726986 0.296635
0.223850 0.726558 0.291630
0.235294 0.725551 0.287419
0.260624 0.723598 0.290288
0.288426 0.721279 0.293736
0.317937 0.718563 0.298039
0.348363 0.715572 0.302953
0.379187 0.712306 0.308690
0.409857 0.708644 0.315099
0.439887 0.704524 0.321935
0.469154 0.700130 0.329564
0.496712 0.695521 0.337591
0.522728 0.690700 0.346319
0.559350 0.699489 0.346807
0.600671 0.711849 0.345006
0.642908 0.723934 0.342992
0.685237 0.735836 0.340673
0.727108 0.747585 0.338048
0.768063 0.759304 0.335088
0.808103 0.770962 0.331640
0.847288 0.782498 0.327581
0.885100 0.792630 0.320378
0.922393 0.803189 0.327733
0.945769 0.800870 0.338079
0.965484 0.795956 0.350500
0.983612 0.790646 0.365240
1.000000 0.785275 0.382757
1.000000 0.780148 0.403296
1.000000 0.775631 0.427070
0.246494 0.757473 0.327276
0.248142 0.757748 0.326604
0.249821 0.757809 0.325383
0.253117 0.757565 0.322393
0.257816 0.757046 0.317357
0.264927 0.756161 0.311315
0.289006 0.754147 0.314092
0.315496 0.751736 0.317388
0.343786 0.748867 0.321355
0.373175 0.745785 0.326055
0.403143 0.742306 0.331518
0.432898 0.738613 0.337621
0.462379 0.734615 0.344366
0.490730 0.730312 0.351720
0.517540 0.725734 0.359503
0.542931 0.720943 0.367987
0.568170 0.717830 0.375860
0.605310 0.728969 0.374884
0.643732 0.740200 0.373754
0.682673 0.751431 0.372778
0.721401 0.762753 0.371710
0.759609 0.774044 0.370245
0.797024 0.785275 0.368383
0.833616 0.796323 0.365728
0.869718 0.807065 0.362463
0.906004 0.817594 0.358526
0.940642 0.827298 0.367620
0.962951 0.825132 0.379950
0.980713 0.819486 0.394232
0.996918 0.813779 0.411139
1.000000 0.808286 0.431037
1.000000 0.803403 0.454292
0.283146 0.783749 0.353063
0.284672 0.783993 0.352605
0.286503 0.784054 0.351598
0.289464 0.783841 0.348821
0.293767 0.783383 0.344274
0.299443 0.782681 0.338109
0.319799 0.780941 0.339544
0.344793 0.778683 0.342901
0.371923 0.776120 0.346960
0.400305 0.773281 0.351843
0.429175 0.770169 0.357336
0.458259 0.766781 0.363622
0.486793 0.763180 0.370581
0.514214 0.759304 0.377966
0.540520 0.755245 0.385901
0.565484 0.750973 0.394354
0.589166 0.746670 0.403449
0.616358 0.748440 0.409064
0.650843 0.758938 0.409094
0.686030 0.769558 0.409186
0.721248 0.780331 0.409125
0.756283 0.791165 0.408881
0.790738 0.801968 0.408209
0.824613 0.812711 0.407050
0.858183 0.823117 0.405371
0.891661 0.833005 0.402991
0.925139 0.842283 0.400214
0.957244 0.851041 0.410956
0.978149 0.848905 0.425574
0.993988 0.842863 0.442023
1.000000 0.836942 0.461219
1.000000 0.831632 0.483772
0.326085 0.809751 0.383093
0.327367 0.809903 0.382605
0.328771 0.809842 0.381567
0.331487 0.809567 0.379034
0.335088 0.809079 0.374914
0.340185 0.808377 0.369238
0.355657 0.806851 0.368627
0.378851 0.804685 0.371923
0.403967 0.802243 0.375982
0.430396 0.799588 0.380713
0.457588 0.796689 0.386267
0.485054 0.793637 0.392554
0.512016 0.790402 0.399481
0.538415 0.786893 0.406958
0.563622 0.783200 0.414832
0.587732 0.779355 0.423224
0.610681 0.775418 0.432074
0.632532 0.771542 0.441627
0.660670 0.777646 0.444862
0.692103 0.787747 0.445563
0.723842 0.798062 0.446235
0.755581 0.808499 0.446815
0.786984 0.818906 0.447150
0.818082 0.829221 0.447028
0.848966 0.839109 0.446479
0.879850 0.848447 0.445411
0.910765 0.857206 0.444007
0.941650 0.865232 0.442084
0.971191 0.872923 0.453559
0.990478 0.870603 0.470130
1.000000 0.864286 0.488289
1.000000 0.858488 0.509697
0.371679 0.834531 0.414832
0.372808 0.834562 0.414343
0.374060 0.834562 0.413397
0.376379 0.834348 0.411261
0.380163 0.833982 0.407813
0.385199 0.833524 0.403418
0.397345 0.832670 0.401831
0.418982 0.831083 0.405798
0.442725 0.829252 0.410620
0.467659 0.827329 0.416144
0.493324 0.825162 0.422461
0.519158 0.822812 0.429297
0.544793 0.820249 0.436774
0.569665 0.817380 0.444556
0.593683 0.814298 0.452644
0.616632 0.811002 0.460975
0.638544 0.807614 0.469703
0.659510 0.804257 0.478981
0.679774 0.801419 0.488533
0.706966 0.811063 0.489723
0.734676 0.820890 0.491035
0.762539 0.830777 0.492134
0.790372 0.840543 0.493019
0.818112 0.850065 0.493599
0.845914 0.859098 0.493904
0.873808 0.867613 0.493843
0.901884 0.875486 0.493355
0.929931 0.882750 0.492622
0.957855 0.889311 0.491554
0.984619 0.895567 0.502983
1.000000 0.892729 0.521233
1.000000 0.886320 0.541619
0.427680 0.861875 0.453712
0.428595 0.861875 0.453285
0.429664 0.861784 0.452522
0.431525 0.861540 0.450690
0.434668 0.861112 0.447883
0.438911 0.860624 0.444099
0.446601 0.859831 0.441169
0.464790 0.858213 0.444526
0.485023 0.856382 0.448676
0.506584 0.854368 0.453620
0.528923 0.852201 0.459174
0.551781 0.849851 0.465309
0.574670 0.847379 0.472084
0.597284 0.844724 0.479255
