data/fiter_cube/49007420/1023417/file.cube
# Created by Adobe Lightroom plugin Export LUT (1.17.0)
# www.johnrellis.com/lightroom/exportlut.htm
# Preset: 01 - 日系情绪 [云集]
# Color profile: C:\Program Files (x86)\Common Files\Adobe\Color\Profiles\Recommended\AdobeRGB1998.icc
LUT_3D_SIZE 8
DOMAIN_MIN 0.000000 0.000000 0.000000
DOMAIN_MAX 0.903226 0.903226 0.903226
0.176333 0.193759 0.196353
0.187167 0.195071 0.196750
0.234806 0.198886 0.196933
0.363378 0.202518 0.194156
0.564233 0.204807 0.185367
0.743648 0.248997 0.169314
0.876249 0.335576 0.151125
0.977783 0.416358 0.150576
0.177523 0.202457 0.198215
0.186038 0.204501 0.198032
0.237675 0.208530 0.196963
0.367102 0.217441 0.194156
0.566552 0.227268 0.184665
0.741512 0.271977 0.168307
0.873411 0.352758 0.150027
0.976135 0.428931 0.150271
0.179049 0.239658 0.203403
0.187839 0.237827 0.204318
0.232273 0.256260 0.201602
0.392035 0.285527 0.192447
0.597345 0.307836 0.178897
0.759182 0.356420 0.161013
0.885832 0.423255 0.146151
0.982269 0.478553 0.158297
0.173678 0.342016 0.211826
0.185885 0.338903 0.210422
0.231479 0.329259 0.218601
0.376959 0.409918 0.199252
0.631556 0.477119 0.163973
0.789853 0.481636 0.150729
0.898497 0.516258 0.149722
0.986511 0.546929 0.177584
0.150393 0.508904 0.224399
0.166201 0.506126 0.217777
0.246891 0.495399 0.229191
0.353948 0.503777 0.239414
0.581170 0.587884 0.202792
0.787747 0.632929 0.167758
0.904692 0.627619 0.179355
0.991882 0.624384 0.221103
0.163699 0.662013 0.263371
0.177920 0.663478 0.253025
0.281010 0.654566 0.263279
0.400336 0.638727 0.286442
0.549432 0.661128 0.291966
0.745327 0.716182 0.269749
0.904784 0.751278 0.265415
0.989044 0.733852 0.311070
0.283146 0.783749 0.353063
0.293767 0.783383 0.344274
0.371923 0.776120 0.346960
0.486793 0.763180 0.370581
0.589166 0.746670 0.403449
0.721248 0.780331 0.409125
0.858183 0.823117 0.405371
0.978149 0.848905 0.425574
0.478828 0.885954 0.489967
0.485054 0.885313 0.485481
0.527031 0.881651 0.486732
0.606836 0.874388 0.509667
0.680812 0.861692 0.533318
0.756130 0.860563 0.566644
0.843778 0.893065 0.573877
0.934447 0.917082 0.576104
0.177707 0.194919 0.204379
0.185550 0.195743 0.204440
0.232609 0.196262 0.205112
0.356268 0.202029 0.207126
0.554040 0.198917 0.200443
0.731685 0.235874 0.188418
0.867216 0.322911 0.175418
0.972168 0.409613 0.178042
0.176608 0.204013 0.206149
0.187747 0.206027 0.207675
0.235813 0.210666 0.208621
0.362890 0.216556 0.207309
0.559777 0.221500 0.199771
0.733242 0.261387 0.187472
0.865873 0.342016 0.174655
0.970459 0.422400 0.177798
0.179538 0.243626 0.212589
0.191806 0.245792 0.214969
0.235050 0.258305 0.213962
0.390509 0.278172 0.207218
0.587793 0.300877 0.196780
0.749111 0.345922 0.183810
0.875517 0.412360 0.173892
0.975891 0.472633 0.186007
0.175601 0.346960 0.225925
0.189944 0.348882 0.225284
0.238041 0.340032 0.230900
0.373175 0.404425 0.217197
0.615930 0.460639 0.190677
0.774777 0.469184 0.180484
0.887999 0.507408 0.180209
0.980529 0.542718 0.204959
0.159457 0.514977 0.246983
0.178439 0.513878 0.242313
0.251011 0.502434 0.244541
0.354711 0.499886 0.257572
0.574731 0.581811 0.227115
0.780667 0.625910 0.201389
0.899870 0.622065 0.212192
0.987915 0.622919 0.249516
0.183597 0.662684 0.290501
0.202152 0.661799 0.283330
0.282078 0.654139 0.279393
0.403296 0.639033 0.301884
0.548119 0.658198 0.311955
0.743862 0.714778 0.296330
0.901976 0.748959 0.296880
0.986419 0.731899 0.336614
0.302556 0.781033 0.377905
0.310369 0.779568 0.368292
0.370459 0.774075 0.359533
0.487373 0.762081 0.383154
0.590875 0.746456 0.415717
0.719295 0.777707 0.423896
0.855375 0.820218 0.421332
0.975189 0.846159 0.441627
0.488869 0.883909 0.504631
0.495583 0.883635 0.500908
0.527855 0.881041 0.495430
0.607599 0.873899 0.517601
0.686702 0.864744 0.546349
0.758480 0.860807 0.577356
0.843778 0.892241 0.582727
0.933715 0.916136 0.584588
0.180819 0.196780 0.239353
0.192508 0.197604 0.240757
0.231662 0.202609 0.243351
0.367620 0.196841 0.260288
0.567102 0.119478 0.240696
0.726925 0.208072 0.249790
0.863554 0.304814 0.250431
0.969726 0.402655 0.263554
0.179629 0.208164 0.244266
0.193545 0.210239 0.246006
0.235264 0.215122 0.247807
0.370428 0.209567 0.259037
0.563500 0.180423 0.247532
0.727657 0.240238 0.250980
0.863249 0.327001 0.250645
0.969207 0.417578 0.264836
0.175113 0.252934 0.251560
0.187961 0.256168 0.254185
0.244999 0.265721 0.261692
0.385138 0.275914 0.261784
0.582116 0.292210 0.259648
0.743740 0.334569 0.256382
0.870695 0.403021 0.257450
0.971832 0.469429 0.275456
0.158022 0.371008 0.272465
0.179355 0.373968 0.273411
0.257755 0.381231 0.281590
0.390173 0.415381 0.282383
0.622004 0.447272 0.273289
0.769528 0.467262 0.270939
0.884092 0.506737 0.276768
0.977050 0.544823 0.301305
0.135561 0.534142 0.301152
0.172732 0.535973 0.302861
0.273747 0.538384 0.309453
0.382788 0.518090 0.322606
0.587549 0.588891 0.312902
0.780850 0.621912 0.306706
0.898344 0.615869 0.317510
0.982971 0.627344 0.347814
0.174105 0.673701 0.348425
0.217258 0.673762 0.351476
0.318853 0.671229 0.356329
0.430488 0.655421 0.363439
0.557488 0.657832 0.382025
0.744228 0.714656 0.381292
0.897246 0.745968 0.394049
0.982727 0.731533 0.425727
0.305608 0.787839 0.428595
0.338140 0.786313 0.432136
0.416144 0.781308 0.435248
0.506828 0.769894 0.438148
0.607233 0.753536 0.464149
0.722744 0.776944 0.480751
0.856474 0.822171 0.488228
0.972625 0.847410 0.513481
0.488808 0.887327 0.533776
0.508263 0.885710 0.537499
0.558129 0.882048 0.544457
0.618250 0.877470 0.550866
0.694575 0.868040 0.575067
0.763180 0.859159 0.606256
0.846250 0.891844 0.615351
0.934447 0.916869 0.621607
0.186404 0.199527 0.336461
0.205417 0.200137 0.339910
0.271366 0.200900 0.348516
0.373327 0.203525 0.354376
0.591455 0.227970 0.401343
0.752895 0.176913 0.387243
0.873442 0.185122 0.349584
0.963867 0.371588 0.375494
0.182437 0.214908 0.345739
0.202884 0.215488 0.348028
0.272801 0.217441 0.354925
0.378882 0.223636 0.360021
0.593835 0.255955 0.404059
0.750790 0.206271 0.382696
0.869078 0.245884 0.355200
0.960967 0.397192 0.378637
0.163119 0.270451 0.353552
0.182284 0.271214 0.356909
0.266392 0.278782 0.368963
0.393011 0.296605 0.375952
0.597559 0.320775 0.402350
0.749050 0.291234 0.368139
0.860960 0.390417 0.379278
0.962524 0.466407 0.396277
0.131106 0.387579 0.371771
0.157900 0.391669 0.374792
0.250004 0.405280 0.384985
0.412512 0.425422 0.401617
0.599634 0.438453 0.398993
0.747707 0.465003 0.398535
0.868467 0.504723 0.404242
0.966735 0.547662 0.423926
0.000000 0.569909 0.409735
0.109651 0.570184 0.409491
0.262669 0.571435 0.412390
0.442084 0.569421 0.432074
0.602106 0.595392 0.442420
0.776455 0.612787 0.447181
0.886931 0.618463 0.452888
0.972961 0.635523 0.470100
0.134798 0.694850 0.444984
0.194827 0.696376 0.448219
0.330388 0.692805 0.454719
0.486427 0.685023 0.473243
0.585473 0.663050 0.485298
0.749905 0.718410 0.498604
0.891752 0.743069 0.514488
0.977050 0.730251 0.531762
0.294804 0.798550 0.501946
0.331121 0.797574 0.504570
0.433845 0.793210 0.514427
0.551751 0.785367 0.530083
0.637232 0.769833 0.538506
0.730953 0.776913 0.557336
0.858274 0.824216 0.571221
0.967987 0.846677 0.596429
0.485939 0.894896 0.581018
0.506310 0.893828 0.584070
0.566094 0.889769 0.593866
0.643915 0.883818 0.609735
0.706630 0.875334 0.619165
0.773434 0.865751 0.644312
0.849607 0.890501 0.661097
0.935546 0.917571 0.672389
0.202182 0.201144 0.493416
0.231052 0.200534 0.496162
0.321202 0.197086 0.503471
0.457527 0.192447 0.515953
0.591241 0.212436 0.521752
0.759060 0.343206 0.561425
0.876097 0.413092 0.573663
0.966461 0.434455 0.556878
0.195132 0.220829 0.499153
0.226169 0.220798 0.502037
0.320226 0.219883 0.508446
0.458900 0.220432 0.519219
0.593530 0.245945 0.524804
0.759426 0.374853 0.564569
0.875273 0.427527 0.573175
0.965942 0.443122 0.554131
0.144289 0.283665 0.507988
0.190127 0.288243 0.512078
0.306554 0.295598 0.517632
0.460975 0.310124 0.528740
0.598901 0.345800 0.533349
0.758114 0.461738 0.573388
0.871092 0.465248 0.566857
0.963836 0.464424 0.538811
0.104311 0.413855 0.514183
0.151949 0.415320 0.516350
0.272374 0.421576 0.523888
0.455085 0.444770 0.539910
0.607080 0.480751 0.547967
0.755764 0.533227 0.574456
0.866148 0.506676 0.542687
0.955566 0.538750 0.535363
0.000000 0.570092 0.531243
0.103822 0.572473 0.533379
0.265934 0.578729 0.539544
0.446174 0.586755 0.550011
0.613733 0.596429 0.563561
0.749538 0.600671 0.558129
0.862821 0.614160 0.556786
0.958129 0.634791 0.564813
0.000000 0.716548 0.561578
0.124025 0.715999 0.561761
0.303410 0.712184 0.562219
0.481666 0.704524 0.567376
0.629572 0.694240 0.582177
0.752682 0.717800 0.599298
0.884428 0.732876 0.612543
0.967651 0.730007 0.619715
0.274632 0.812528 0.591485
0.313207 0.811063 0.592065
0.420813 0.806271 0.595422
0.550744 0.798703 0.604273
0.665431 0.789181 0.618708
0.736446 0.770504 0.627955
0.859556 0.824216 0.650324
0.962554 0.842588 0.672267
0.469520 0.902190 0.638575
0.489815 0.900969 0.640040
0.551171 0.897093 0.645472
0.637690 0.892790 0.658442
0.722377 0.885283 0.676143
0.783078 0.875090 0.688289
0.851072 0.886290 0.708827
0.936156 0.917235 0.725612
0.274052 0.204288 0.645228
0.305455 0.203250 0.646479
0.399786 0.199741 0.649500
0.531151 0.202914 0.656764
0.662013 0.242649 0.667140
0.757900 0.328130 0.664485
0.872618 0.504021 0.693385
0.955291 0.613550 0.722927
0.266911 0.230808 0.645136
0.298955 0.230442 0.646052
0.395758 0.229496 0.649561
0.528862 0.236881 0.656611
0.660182 0.277562 0.666407
0.756710 0.357336 0.664485
0.871733 0.520531 0.694667
0.954742 0.618250 0.722835
0.237186 0.313817 0.650874
0.275395 0.315404 0.651759
0.385077 0.321569 0.655177
0.526940 0.338964 0.661433
0.660822 0.382696 0.669856
0.757565 0.446357 0.669368
0.871550 0.573541 0.702419
0.954070 0.634943 0.723201
0.169039 0.441077 0.648981
0.216190 0.441688 0.650690
0.345525 0.448341 0.658228
0.519982 0.476387 0.667048
0.661830 0.511070 0.676631
0.761410 0.554009 0.679927
0.873594 0.644129 0.717617
0.954192 0.654963 0.718379
0.151217 0.586084 0.654292
0.204379 0.586694 0.655329
0.334203 0.588739 0.658717
0.490120 0.593347 0.664332
0.647089 0.611322 0.677424
0.760494 0.640436 0.687251
0.870359 0.685237 0.715724
0.953063 0.661799 0.688838
0.167880 0.709255 0.666194
0.222873 0.710018 0.667811
0.352270 0.710201 0.671107
0.501732 0.709987 0.676600
0.637201 0.711696 0.684413
0.761563 0.720119 0.698024
0.863584 0.721645 0.692622
0.951751 0.729885 0.693294
0.272465 0.826688 0.693965
0.311955 0.826719 0.694972
0.416541 0.825467 0.696895
0.544884 0.820798 0.699184
0.667079 0.812345 0.702571
0.772793 0.802426 0.715663
0.864317 0.826780 0.734401
0.957946 0.838651 0.750301
0.454444 0.914458 0.713619
0.475074 0.913268 0.714168
0.537865 0.909636 0.716365
0.624170 0.904692 0.721767
0.715480 0.898100 0.732113
0.799405 0.890288 0.750759
0.853574 0.879149 0.762966
0.937621 0.917876 0.788540
0.394202 0.229587 0.773312
0.420447 0.231083 0.774472
0.497383 0.237613 0.776028
0.601343 0.262821 0.779232
0.706966 0.321508 0.783444
0.801205 0.403632 0.789517
0.869810 0.489601 0.780209
0.947814 0.632807 0.798764
0.388525 0.261021 0.771481
0.414954 0.262669 0.772519
0.492897 0.269657 0.774197
0.597589 0.293767 0.777066
0.703792 0.348119 0.781094
0.798215 0.423133 0.787015
0.867063 0.501762 0.778134
0.946014 0.637781 0.797757
0.374609 0.356420 0.774075
0.402472 0.358526 0.774411
0.484901 0.367712 0.775479
0.593683 0.391852 0.778073
0.701503 0.436408 0.781765
0.796933 0.494972 0.788205
0.867460 0.555444 0.782650
0.946227 0.670954 0.805844
0.322850 0.475593 0.774289
0.355200 0.476814 0.774838
0.466743 0.494514 0.775998
0.585443 0.512840 0.779232
0.698268 0.542412 0.783932
0.796201 0.582971 0.791958
0.868711 0.625025 0.790646
0.946136 0.716213 0.817350
0.298222 0.604211 0.768399
0.329015 0.603662 0.768246
0.420203 0.603113 0.768673
0.550011 0.608911 0.775357
0.682582 0.628809 0.783169
0.789212 0.656886 0.792752
0.867124 0.689937 0.796872
0.945220 0.767758 0.830961
0.320867 0.714443 0.775204
0.350683 0.713985 0.775570
0.437446 0.712551 0.776944
0.547631 0.711147 0.779660
0.659052 0.711482 0.783413
0.779934 0.730251 0.796933
0.869413 0.760525 0.809567
0.945312 0.808011 0.837247
0.363104 0.813687 0.787930
0.389929 0.813504 0.788693
0.466285 0.812253 0.790311
0.565240 0.811185 0.793454
0.670710 0.811124 0.797543
0.772580 0.815213 0.804562
0.866728 0.826535 0.817380
0.942962 0.828305 0.811337
0.450568 0.917723 0.803250
0.469245 0.917388 0.803555
0.529992 0.917266 0.805844
0.612116 0.916350 0.808438
0.704952 0.914092 0.812741
0.795926 0.907805 0.819913
0.874357 0.900206 0.834440
0.939178 0.919097 0.855039
0.515953 0.332433 0.886503
0.532921 0.337621 0.886809
0.584710 0.354864 0.886473
0.659876 0.391760 0.886931
0.741299 0.446601 0.887510
0.820249 0.511009 0.888701
0.893736 0.568322 0.892088
0.945769 0.625360 0.877348
0.514611 0.360296 0.885344
0.531609 0.365270 0.885618
0.583551 0.381323 0.885527
0.658656 0.414710 0.885771
0.740200 0.464851 0.886503
0.819242 0.524071 0.887846
0.892576 0.577600 0.891142
0.944793 0.632013 0.877012
0.510582 0.442786 0.883970
0.527642 0.446479 0.884092
0.579980 0.458289 0.883696
0.657282 0.485939 0.885069
0.738979 0.523095 0.885863
0.817624 0.567773 0.887327
0.891051 0.612482 0.891051
0.943694 0.659205 0.879057
0.499886 0.543694 0.882872
0.518334 0.546319 0.883146
0.573449 0.553948 0.883146
0.652186 0.570336 0.884154
0.735836 0.595178 0.885771
0.815885 0.627436 0.888151
0.889708 0.663172 0.892424
0.942901 0.700832 0.883757
0.463233 0.630945 0.879240
0.483436 0.631952 0.879881
0.542840 0.634302 0.881071
0.632868 0.645136 0.883299
0.724575 0.661341 0.885252
0.810056 0.685542 0.888457
0.887083 0.716732 0.893828
0.941955 0.751369 0.890166
0.465766 0.721523 0.880491
0.481331 0.720912 0.880247
0.530755 0.719356 0.879911
0.603449 0.717708 0.880064
0.698451 0.723354 0.883452
0.800778 0.746304 0.890074
0.885283 0.777401 0.898039
0.942260 0.812284 0.900267
0.491646 0.808316 0.887358
0.505608 0.807858 0.887297
0.550256 0.806485 0.887358
0.619074 0.805447 0.888060
0.700404 0.806455 0.889281
0.784115 0.812070 0.891295
0.877745 0.837125 0.900633
0.941314 0.869169 0.908904
0.526329 0.903349 0.896880
0.538323 0.903014 0.896880
0.578576 0.902373 0.897276
0.642451 0.902037 0.898375
0.717433 0.902678 0.900084
0.796262 0.904875 0.902678
0.873167 0.909606 0.907042
0.939452 0.919036 0.915831
