data/fiter_cube/49007420/1023417/file.cube
# Created by Adobe Lightroom plugin Export LUT (1.17.0)
# www.johnrellis.com/lightroom/exportlut.htm
# Preset: 01 - 日系情绪 [云集]
# Color profile: C:\Program Files (x86)\Common Files\Adobe\Color\Profiles\Recommended\AdobeRGB1998.icc
LUT_3D_SIZE 5
DOMAIN_MIN 0.000000 0.000000 0.000000
DOMAIN_MAX 0.903226 0.903226 0.903226
0.176333 0.193759 0.196353
0.217533 0.197696 0.197116
0.460639 0.202609 0.190799
0.781308 0.268894 0.164553
0.977783 0.416358 0.150576
0.178439 0.226291 0.201572
0.214603 0.236454 0.200504
0.486976 0.268498 0.188205
0.791379 0.349248 0.158328
0.982177 0.465003 0.156527
0.163638 0.420691 0.216739
0.222232 0.410529 0.219791
0.482734 0.507713 0.196262
0.820981 0.561700 0.151919
0.988800 0.584802 0.195163
0.185519 0.696864 0.281987
0.268437 0.691005 0.275303
0.476692 0.663874 0.318791
0.778347 0.743954 0.298619
0.986633 0.762387 0.338323
0.478828 0.885954 0.489967
0.509545 0.883177 0.482582
0.641077 0.866209 0.516960
0.777646 0.869230 0.568780
0.934447 0.917082 0.576104
0.179934 0.196201 0.226139
0.213626 0.200687 0.228367
0.460029 0.160098 0.227695
0.763485 0.235752 0.228428
0.969360 0.402960 0.236576
0.177066 0.234379 0.234409
0.222690 0.242741 0.241184
0.473976 0.258396 0.239750
0.775784 0.326024 0.230747
0.972412 0.454810 0.245579
0.154452 0.442908 0.267857
0.236362 0.448402 0.272526
0.484047 0.504326 0.269078
0.812741 0.543328 0.254765
0.982330 0.585473 0.294438
0.208377 0.705501 0.351873
0.309789 0.703517 0.355230
0.502098 0.676265 0.377996
0.778195 0.743893 0.383673
0.982025 0.761318 0.424811
0.495369 0.887755 0.528649
0.544182 0.884184 0.534691
0.655390 0.872343 0.553857
0.782956 0.868956 0.601282
0.935058 0.917754 0.613581
0.190921 0.200534 0.411902
0.269169 0.199741 0.420783
0.481392 0.200961 0.436194
0.791928 0.292210 0.488869
0.970794 0.339330 0.442420
0.155947 0.255283 0.428077
0.258244 0.262638 0.436713
0.496284 0.288945 0.451881
0.787472 0.357000 0.482246
0.963714 0.429419 0.455756
0.060487 0.480903 0.452827
0.213931 0.491554 0.461036
0.519768 0.518486 0.486763
0.779538 0.541161 0.482216
0.962280 0.591852 0.498970
0.145480 0.732540 0.511589
0.304173 0.728603 0.514061
0.574029 0.714931 0.540429
0.781857 0.745815 0.565332
0.971374 0.756527 0.590204
0.476356 0.897551 0.606989
0.540978 0.894194 0.615106
0.683253 0.884001 0.641962
0.792416 0.866972 0.670436
0.935393 0.916838 0.696742
0.299687 0.206760 0.676936
0.394934 0.204044 0.680415
0.612726 0.228244 0.692103
0.789273 0.367620 0.694575
0.952087 0.641260 0.751034
0.276890 0.294591 0.680690
0.381933 0.298741 0.683589
0.609735 0.336309 0.693538
0.787686 0.449714 0.696925
0.950591 0.662257 0.754726
0.184573 0.518853 0.678035
0.312688 0.520684 0.680354
0.593591 0.550835 0.695796
0.785824 0.606744 0.706722
0.950286 0.692073 0.747219
0.223178 0.739162 0.698970
0.347509 0.737789 0.700740
0.581598 0.736599 0.709285
0.790890 0.746975 0.728634
0.949157 0.752773 0.721736
0.448676 0.917723 0.734768
0.515160 0.914458 0.736629
0.668482 0.905699 0.745480
0.819394 0.892790 0.771969
0.937865 0.917937 0.804746
0.515953 0.332433 0.886503
0.568872 0.348913 0.886503
0.700618 0.417548 0.887236
0.839445 0.527520 0.889281
0.945769 0.625360 0.877348
0.512718 0.419623 0.884764
0.566125 0.432898 0.884794
0.698817 0.484779 0.885771
0.837430 0.568200 0.888212
0.944244 0.651667 0.878782
0.476356 0.584039 0.881621
0.548089 0.596490 0.882078
0.687648 0.617060 0.883848
0.832090 0.662867 0.888273
0.942290 0.724483 0.886442
0.474250 0.744045 0.882841
0.522881 0.742458 0.882536
0.649958 0.740536 0.882933
0.820188 0.767971 0.891997
0.942016 0.826871 0.902464
0.526329 0.903349 0.896880
0.565850 0.902525 0.897124
0.679225 0.902220 0.899199
0.816037 0.905791 0.903532
0.939452 0.919036 0.915831
