data/fiter_cube/29797953/1022862/file.cube
# Created by Adobe Lightroom plugin Export LUT (1.17.0)
# www.johnrellis.com/lightroom/exportlut.htm
# Preset: 电影灰蓝色_07 云集
# Color profile: C:\Program Files (x86)\Common Files\Adobe\Color\Profiles\Recommended\AdobeRGB1998.icc
LUT_3D_SIZE 32
DOMAIN_MIN 0.0 0.0 0.0
DOMAIN_MAX 1.0 1.0 1.0
0.069123 0.076112 0.088075
0.072938 0.076967 0.088228
0.077211 0.078035 0.088899
0.091157 0.081453 0.089693
0.122805 0.087678 0.090669
0.171084 0.094209 0.090089
0.233829 0.098512 0.087526
0.310552 0.097597 0.082765
0.392950 0.089754 0.074434
0.470436 0.082277 0.063386
0.538323 0.086702 0.040803
0.594202 0.109560 0.010986
0.639887 0.143008 0.000000
0.677424 0.180179 0.000000
0.707210 0.216770 0.000000
0.732937 0.253239 0.000000
0.754025 0.287510 0.016754
0.772244 0.319432 0.061097
0.788510 0.349645 0.084352
0.803738 0.378546 0.106386
0.818112 0.406165 0.128664
0.831662 0.432136 0.151095
0.844388 0.456611 0.174228
0.856382 0.479683 0.198398
0.867796 0.501274 0.223056
0.878782 0.521721 0.248081
0.889372 0.541161 0.273289
0.899565 0.559747 0.298985
0.909453 0.577508 0.325017
0.918914 0.594568 0.351232
0.927855 0.610925 0.377752
0.936248 0.626490 0.404120
0.070314 0.078035 0.089326
0.071748 0.078859 0.090059
0.077577 0.080446 0.089296
0.092683 0.084810 0.089693
0.125612 0.091798 0.090517
0.174441 0.099428 0.089448
0.237461 0.104402 0.086915
0.314336 0.104585 0.081544
0.395911 0.098909 0.073182
0.472724 0.093629 0.061707
0.539788 0.099153 0.036469
0.594995 0.120272 0.006714
0.640284 0.151278 0.000000
0.677516 0.187106 0.000000
0.707179 0.221958 0.000000
0.732662 0.257694 0.000000
0.753445 0.290593 0.014557
0.771511 0.321477 0.059846
0.787716 0.350958 0.083467
0.802914 0.379431 0.105379
0.817288 0.406561 0.127291
0.830869 0.432349 0.149722
0.843656 0.456611 0.172824
0.855711 0.479438 0.196841
0.867185 0.501122 0.221592
0.878172 0.521538 0.246799
0.888853 0.540948 0.271916
0.899107 0.559594 0.297856
0.909056 0.577325 0.323827
0.918547 0.594415 0.350225
0.927581 0.610712 0.376654
0.935973 0.626337 0.403021
0.071565 0.080598 0.091310
0.073518 0.081575 0.093080
0.075135 0.082338 0.093019
0.092470 0.088838 0.091279
0.129152 0.098543 0.090059
0.179263 0.107057 0.088960
0.242710 0.113161 0.085817
0.319524 0.114321 0.080354
0.400519 0.110628 0.071504
0.476143 0.107820 0.059480
0.542351 0.114504 0.030335
0.596857 0.133974 0.000397
0.641535 0.163058 0.000000
0.678370 0.196628 0.000000
0.707607 0.230014 0.000000
0.732998 0.263951 0.000000
0.753475 0.295689 0.013245
0.771267 0.325780 0.059144
0.787442 0.354314 0.082918
0.802609 0.382147 0.104891
0.816983 0.408789 0.126802
0.830564 0.434089 0.149264
0.843381 0.458045 0.172519
0.855406 0.480659 0.196506
0.866880 0.502068 0.221317
0.877928 0.522362 0.246342
0.888579 0.541650 0.271519
0.898894 0.560204 0.297520
0.908843 0.577874 0.323522
0.918364 0.594873 0.349950
0.927398 0.611109 0.376318
0.935821 0.626642 0.402716
0.074891 0.087098 0.095521
0.077852 0.089052 0.098360
0.080385 0.089235 0.099275
0.085328 0.091798 0.098482
0.123140 0.108766 0.093904
0.190555 0.127413 0.086427
0.255589 0.134218 0.082734
0.333104 0.136843 0.076112
0.412055 0.135805 0.065980
0.485389 0.136141 0.048341
0.549065 0.143984 0.016266
0.601740 0.161685 0.000000
0.645075 0.187350 0.000000
0.680690 0.217288 0.000000
0.709224 0.246983 0.000000
0.734127 0.278691 0.000000
0.753964 0.307774 0.010132
0.771511 0.335546 0.058686
0.787381 0.362463 0.082765
0.802365 0.388678 0.104952
0.816587 0.414160 0.126925
0.830106 0.438392 0.149294
0.842924 0.461769 0.172610
0.855070 0.484016 0.196841
0.866667 0.505089 0.221744
0.877806 0.525170 0.246921
0.888579 0.544244 0.272435
0.898894 0.562554 0.298283
0.908873 0.579950 0.324315
0.918334 0.596674 0.350591
0.927306 0.612665 0.376837
0.935698 0.627893 0.403021
0.079866 0.100435 0.102052
0.083864 0.102663 0.105287
0.089082 0.105074 0.109255
0.095155 0.105196 0.109773
0.105837 0.111330 0.107485
0.163760 0.138430 0.098604
0.259983 0.165591 0.081636
0.353094 0.175143 0.066438
0.429206 0.174868 0.051820
0.498817 0.177035 0.021424
0.559014 0.184665 0.000000
0.608881 0.200443 0.000000
0.650233 0.222080 0.000000
0.684321 0.247379 0.000000
0.712215 0.273625 0.000000
0.735927 0.300908 0.000000
0.755245 0.326482 0.006226
0.772396 0.351751 0.058656
0.788113 0.376165 0.083680
0.802884 0.400366 0.106325
0.816892 0.423957 0.128420
0.830289 0.446876 0.150912
0.843015 0.468910 0.174075
0.855100 0.490181 0.198245
0.866667 0.510460 0.223178
0.877775 0.529839 0.248386
0.888487 0.548302 0.273808
0.898802 0.565972 0.299260
0.908690 0.582971 0.325322
0.918181 0.599298 0.351324
0.927153 0.614923 0.377508
0.935546 0.629908 0.403479
0.087648 0.123568 0.111818
0.092378 0.126558 0.115602
0.099794 0.130190 0.121279
0.110353 0.131411 0.125307
0.120974 0.132967 0.124361
0.137972 0.141634 0.119997
0.213993 0.177462 0.107027
0.331914 0.208743 0.080323
0.451545 0.230381 0.003937
0.517205 0.230961 0.000000
0.572778 0.237125 0.000000
0.619104 0.249363 0.000000
0.657771 0.266331 0.000000
0.689631 0.285985 0.000000
0.716609 0.307958 0.000000
0.738766 0.330053 0.000000
0.757259 0.351507 0.003143
0.774044 0.373205 0.059174
0.789425 0.394934 0.085603
0.804013 0.416510 0.108583
0.817868 0.437995 0.131350
0.831113 0.459113 0.154238
0.848478 0.488930 0.188540
0.860014 0.508202 0.213016
0.871031 0.526513 0.237308
0.881621 0.543969 0.261814
0.891814 0.560784 0.286198
0.901640 0.576959 0.311070
0.911101 0.592615 0.336126
0.920165 0.607752 0.361212
0.928740 0.622339 0.386450
0.936736 0.636316 0.411505
0.100465 0.160555 0.127291
0.106813 0.163516 0.131655
0.115511 0.167361 0.138033
0.133242 0.172946 0.149508
0.145541 0.168765 0.148867
0.161257 0.173373 0.145083
0.184360 0.184176 0.138827
0.278477 0.226688 0.122499
0.408209 0.261112 0.085939
0.519158 0.286778 0.000000
0.592584 0.304326 0.000000
0.634516 0.310765 0.000000
0.669551 0.321569 0.000000
0.698848 0.335210 0.000000
0.724056 0.351659 0.000000
0.744228 0.367864 0.000000
0.761807 0.384619 0.005676
0.777920 0.402106 0.064302
0.792874 0.420356 0.091371
0.807156 0.439216 0.115633
0.820981 0.458625 0.139132
0.834318 0.478065 0.163180
0.847013 0.497444 0.187930
0.859037 0.516228 0.213352
0.870481 0.534112 0.238499
0.881285 0.550958 0.263279
0.891539 0.567071 0.288029
0.901366 0.582513 0.312688
0.910826 0.597498 0.337499
0.919829 0.612055 0.362493
0.928374 0.626062 0.387366
0.936400 0.639612 0.412329
0.120302 0.208316 0.148928
0.127565 0.210910 0.153658
0.137392 0.214206 0.160006
0.158572 0.220584 0.174044
0.177096 0.218662 0.178836
0.191073 0.210788 0.176822
0.212955 0.221439 0.170504
0.241978 0.233738 0.162936
0.346563 0.279393 0.146120
0.472145 0.316197 0.106416
0.569299 0.344762 0.029816
0.639979 0.370459 0.000000
0.678462 0.379706 0.000000
0.706447 0.387427 0.000000
0.729000 0.396460 0.000000
0.747616 0.406165 0.000000
0.764431 0.417884 0.005249
0.779904 0.430976 0.067384
0.794430 0.445350 0.095155
0.808377 0.460822 0.120089
0.821836 0.477302 0.143923
0.834867 0.494270 0.167697
0.847318 0.511345 0.192203
0.859190 0.528222 0.217380
0.870451 0.544396 0.242069
0.881132 0.560021 0.266575
0.891325 0.574914 0.290837
0.901152 0.589380 0.315160
0.910552 0.603571 0.339635
0.919554 0.617365 0.364233
0.928069 0.630823 0.389136
0.936065 0.643885 0.413947
0.151064 0.268284 0.178561
0.158755 0.270481 0.183230
0.169528 0.273411 0.189761
0.192203 0.278660 0.203281
0.220645 0.281468 0.217594
0.235752 0.271183 0.214054
0.250858 0.263706 0.209537
0.279576 0.277897 0.201266
0.312963 0.290166 0.192447
0.412970 0.334997 0.178225
0.527062 0.373144 0.139742
0.609735 0.401862 0.092866
0.671656 0.427100 0.000000
0.714260 0.443519 0.000000
0.734401 0.444831 0.000000
0.751797 0.448585 0.000000
0.767819 0.454871 0.014008
0.782681 0.463539 0.073854
0.796658 0.473762 0.102480
0.810178 0.485786 0.126986
0.823270 0.499092 0.150515
0.835966 0.513237 0.174228
0.848112 0.527916 0.198611
0.859709 0.542657 0.223026
0.870787 0.557031 0.247440
0.881315 0.570977 0.271336
0.891417 0.584558 0.295048
0.901091 0.597894 0.318944
0.910430 0.611017 0.342901
0.919341 0.623957 0.367315
0.927794 0.636652 0.391791
0.935729 0.649012 0.416236
0.194003 0.336980 0.215427
0.202335 0.338537 0.220096
0.213352 0.340307 0.226169
0.236851 0.343755 0.239445
0.270695 0.347601 0.258915
0.290532 0.339086 0.259312
0.304723 0.325628 0.253544
0.322911 0.323644 0.246311
0.352758 0.336858 0.237247
0.385016 0.347967 0.227512
0.472847 0.389868 0.217594
0.573449 0.428870 0.182010
0.644953 0.457099 0.146212
0.695827 0.475959 0.102968
0.732784 0.488014 0.001801
0.756619 0.492897 0.000000
0.772000 0.494575 0.037110
0.786282 0.498787 0.085542
0.799741 0.505211 0.112734
0.812680 0.513542 0.136995
0.825254 0.523522 0.160159
0.837369 0.534630 0.183413
0.849027 0.546410 0.206546
0.860227 0.558587 0.230045
0.871031 0.570794 0.253330
0.881407 0.583032 0.276555
0.891417 0.595209 0.299718
0.901030 0.607355 0.323186
0.910307 0.619532 0.347082
0.919219 0.631586 0.371069
0.927642 0.643549 0.395392
0.935546 0.655329 0.419715
0.249760 0.403693 0.259220
0.257847 0.404486 0.263676
0.269078 0.405493 0.269749
0.291386 0.407324 0.282322
0.322759 0.409125 0.300114
0.349889 0.405768 0.311315
0.362432 0.392737 0.304479
0.373358 0.377417 0.296513
0.393988 0.382269 0.287816
0.422370 0.394415 0.278782
0.453681 0.406012 0.270207
0.526177 0.444190 0.265721
0.610559 0.479255 0.232181
0.670893 0.502373 0.201389
0.713649 0.516350 0.169131
0.746242 0.525475 0.132906
0.774502 0.533837 0.082063
0.789792 0.535149 0.099886
0.802640 0.537652 0.125765
0.815122 0.542443 0.148623
0.827237 0.549279 0.171481
0.838926 0.557458 0.193759
0.850278 0.566674 0.216617
0.861173 0.576501 0.239170
0.871733 0.586694 0.261692
0.881865 0.597009 0.283970
0.891661 0.607568 0.306401
0.901122 0.618341 0.329137
0.910277 0.629206 0.352209
0.919036 0.640223 0.375708
0.927398 0.651240 0.399542
0.935210 0.662257 0.423682
0.314977 0.464363 0.308476
0.322087 0.464790 0.312413
0.331548 0.465187 0.317693
0.350439 0.465827 0.328252
0.377111 0.466285 0.343694
0.407263 0.465858 0.361608
0.419104 0.454994 0.356847
0.428229 0.440925 0.348302
0.435737 0.425727 0.339391
0.460853 0.438697 0.332311
0.486519 0.449958 0.324376
0.512108 0.459144 0.315526
0.576776 0.499947 0.323278
0.647089 0.530266 0.294377
0.696071 0.547906 0.267887
0.732052 0.558068 0.240940
0.762448 0.566033 0.211063
0.789029 0.572961 0.176761
0.809934 0.577539 0.152316
0.821439 0.578668 0.173648
0.832639 0.581781 0.194400
0.843503 0.586633 0.215427
0.854093 0.592493 0.235843
0.864378 0.599451 0.256687
0.874357 0.607080 0.277379
0.884031 0.615259 0.298314
0.893370 0.623835 0.319493
0.902464 0.632776 0.340856
0.911284 0.642054 0.362829
0.919768 0.651637 0.385199
0.927794 0.661433 0.408209
0.935424 0.671382 0.431373
0.382940 0.519249 0.360418
0.388586 0.519341 0.363592
0.396033 0.519219 0.367742
0.410986 0.518944 0.376471
0.432136 0.518212 0.388922
0.456062 0.516808 0.403662
0.473548 0.511254 0.409522
0.481758 0.500267 0.402167
0.488899 0.487129 0.393286
0.498207 0.479988 0.384710
0.519524 0.491096 0.378302
0.541192 0.500816 0.371191
0.562676 0.509026 0.363684
0.606378 0.535607 0.366461
0.666804 0.562066 0.341741
0.709102 0.576928 0.318791
0.742306 0.586542 0.295567
0.771237 0.594354 0.269718
0.796872 0.601068 0.241733
0.820066 0.606867 0.210636
0.834653 0.609155 0.210971
0.845121 0.611078 0.229831
0.855314 0.614527 0.249058
0.865263 0.619135 0.268528
0.874968 0.624659 0.287877
0.884428 0.630915 0.307683
0.893584 0.637842 0.327733
0.902495 0.645350 0.348425
0.911162 0.653376 0.369512
0.919524 0.661830 0.391455
0.927489 0.670649 0.413733
0.935027 0.679713 0.436683
0.440467 0.561730 0.406409
0.445106 0.561730 0.409277
0.451057 0.561730 0.412909
0.463233 0.561669 0.420447
0.479988 0.561151 0.431159
0.499550 0.560143 0.444129
0.519493 0.558282 0.457923
0.525261 0.548425 0.450507
0.530358 0.536858 0.441596
0.534630 0.523613 0.431403
0.545129 0.522698 0.423621
0.562860 0.531792 0.417456
0.580743 0.539574 0.410620
0.598413 0.545983 0.403052
0.631586 0.566918 0.407446
0.682826 0.589319 0.385931
0.720058 0.601892 0.364904
0.751369 0.611566 0.344457
0.779141 0.619501 0.322179
0.804105 0.626307 0.298558
0.826780 0.632044 0.273136
0.847013 0.636561 0.247349
0.856809 0.637568 0.264927
0.866484 0.639948 0.282628
0.875883 0.643488 0.300664
0.885069 0.647883 0.319310
0.893980 0.653132 0.338231
0.902739 0.659113 0.357794
0.911192 0.665827 0.378088
0.919432 0.673121 0.399176
0.927276 0.680873 0.421057
0.934691 0.689082 0.443458
0.492470 0.599786 0.451484
0.495857 0.599786 0.453742
0.500008 0.599481 0.456428
0.508873 0.599054 0.462348
0.521508 0.598169 0.470863
0.536370 0.596796 0.481056
0.552056 0.594751 0.492164
0.561395 0.588708 0.493446
0.565270 0.578729 0.485145
0.568566 0.567224 0.475654
0.570977 0.554284 0.464881
0.582940 0.558892 0.458869
0.597925 0.566369 0.452979
0.612787 0.572595 0.446418
0.627161 0.577417 0.439155
0.652979 0.593561 0.442847
0.695735 0.612390 0.425849
0.730007 0.624231 0.406470
0.759945 0.634150 0.388617
0.786770 0.642451 0.369726
0.811032 0.649287 0.349706
0.833097 0.654841 0.328252
0.853269 0.659205 0.304875
0.867796 0.661463 0.298650
0.876890 0.662989 0.315373
0.885832 0.665675 0.332433
0.894560 0.669368 0.350469
0.903136 0.674037 0.369360
0.911467 0.679500 0.388922
0.919554 0.685695 0.409491
0.927276 0.692470 0.430854
0.934569 0.699825 0.452979
0.533318 0.629877 0.490425
0.536004 0.629816 0.492378
0.539178 0.629603 0.494545
0.546014 0.629145 0.499397
0.555840 0.628290 0.506310
0.567681 0.627039 0.514916
0.580346 0.625269 0.524315
0.592401 0.622522 0.532799
0.595392 0.614343 0.525139
0.598077 0.604883 0.516350
0.600122 0.593835 0.506249
0.601984 0.583429 0.496223
0.613886 0.589807 0.490700
0.625879 0.595239 0.484688
0.637720 0.599664 0.478187
0.649409 0.602991 0.471107
0.670283 0.615717 0.473823
0.706569 0.632380 0.461097
0.739467 0.644709 0.444099
0.768399 0.655116 0.429114
0.794339 0.663661 0.413397
0.817868 0.670588 0.396643
0.839322 0.675990 0.378637
0.859037 0.680171 0.359075
0.877226 0.683375 0.337804
0.886992 0.684657 0.348852
0.895445 0.686732 0.365301
0.903746 0.689937 0.382940
0.911833 0.693996 0.401617
0.919677 0.698878 0.420905
0.927184 0.704494 0.441291
0.934264 0.710811 0.462623
0.566125 0.653437 0.524163
0.568017 0.653315 0.525505
0.570581 0.653101 0.527367
0.575830 0.652644 0.531334
0.583612 0.651850 0.537133
0.592950 0.650721 0.544335
0.603265 0.649226 0.552300
0.613642 0.647059 0.560510
0.618952 0.641901 0.559442
0.620996 0.634089 0.551446
0.622827 0.625147 0.542382
0.624231 0.614740 0.532067
0.627924 0.609796 0.523705
0.637903 0.614801 0.518547
0.647822 0.618982 0.512840
0.657679 0.622278 0.506676
0.667445 0.624750 0.500114
0.684718 0.635096 0.502129
0.717189 0.651118 0.493111
0.748653 0.663844 0.478737
0.776577 0.674342 0.465675
0.801602 0.682918 0.452399
0.824308 0.689662 0.438331
0.845121 0.695003 0.423316
0.864317 0.699092 0.407080
0.882048 0.702235 0.389471
0.896117 0.704219 0.380896
0.904173 0.705989 0.397253
0.912047 0.708766 0.414740
0.919677 0.712459 0.433204
0.927001 0.717006 0.452674
0.933928 0.722377 0.473518
0.593591 0.672938 0.554314
0.595300 0.672877 0.555688
0.602228 0.676326 0.562951
0.606287 0.675868 0.566125
0.612238 0.675196 0.570825
0.619348 0.674159 0.576501
0.627283 0.672816 0.582849
0.635401 0.670924 0.589349
0.642512 0.668025 0.594018
0.643824 0.661555 0.587091
0.645075 0.654200 0.579095
0.646082 0.645624 0.569940
0.646662 0.635828 0.559380
0.651514 0.634943 0.552819
0.659693 0.638727 0.547723
0.667903 0.641840 0.542260
0.676173 0.644343 0.536431
0.684443 0.646235 0.530297
0.699367 0.655055 0.531579
0.728969 0.670680 0.525292
0.758938 0.683406 0.512840
0.785672 0.693690 0.501183
0.809659 0.701991 0.489998
0.831479 0.708431 0.478248
0.851469 0.713436 0.465553
0.869871 0.717281 0.451972
0.886870 0.720211 0.437415
0.902678 0.722438 0.422034
0.912291 0.724025 0.429267
0.919646 0.726528 0.446632
0.926787 0.730007 0.465217
0.933501 0.734401 0.485267
0.618097 0.691493 0.582300
0.619806 0.691890 0.583917
0.622004 0.692164 0.585870
0.625788 0.692317 0.589105
0.630915 0.692134 0.593408
0.637079 0.691493 0.598474
0.643763 0.690486 0.603937
0.650690 0.689021 0.609583
0.657649 0.687037 0.615167
0.660487 0.682277 0.613123
0.661189 0.675654 0.606348
0.661860 0.668299 0.598688
0.662348 0.660182 0.589807
0.661860 0.650355 0.579767
0.668482 0.653590 0.575372
0.675593 0.656733 0.570733
0.682856 0.659449 0.565728
0.690394 0.661860 0.560479
0.698207 0.663844 0.555016
0.711879 0.671962 0.555810
0.738979 0.687129 0.551934
0.767758 0.700008 0.541558
0.793576 0.710201 0.531456
0.816709 0.718379 0.522301
0.837797 0.724727 0.512566
0.857176 0.729763 0.502190
0.874998 0.733669 0.491310
0.891478 0.736782 0.480079
0.906706 0.739223 0.468421
0.919646 0.741115 0.461463
0.926513 0.743526 0.479133
0.933043 0.746944 0.498451
0.637415 0.708309 0.604822
0.638880 0.708675 0.606134
0.640650 0.708980 0.607843
0.643732 0.709163 0.610498
0.648096 0.709041 0.614130
0.653193 0.708614 0.618402
0.658961 0.707820 0.623133
0.665064 0.706661 0.628077
0.671199 0.705104 0.633051
0.676265 0.702327 0.635950
0.676875 0.696376 0.630396
0.677272 0.689693 0.623926
0.677333 0.682246 0.616480
0.677180 0.674128 0.608057
0.677638 0.667597 0.600122
0.683955 0.670893 0.596155
0.690578 0.673854 0.591943
0.697444 0.676539 0.587457
0.704524 0.678950 0.582818
0.711879 0.681086 0.578119
0.724453 0.688502 0.578546
0.749142 0.702998 0.576684
0.776791 0.715846 0.568200
0.801572 0.725887 0.559777
0.823850 0.733883 0.552361
0.844236 0.740200 0.544518
0.862943 0.745266 0.536278
0.880156 0.749325 0.527977
0.896025 0.752621 0.519615
0.910552 0.755276 0.511437
0.923888 0.757443 0.503593
0.932464 0.759854 0.512535
0.654383 0.724727 0.624811
0.655573 0.725063 0.625940
0.657069 0.725368 0.627344
0.659693 0.725582 0.629603
0.663386 0.725551 0.632715
0.667811 0.725246 0.636378
0.672816 0.724636 0.640436
0.678218 0.723751 0.644800
0.683864 0.722438 0.649348
0.689448 0.720638 0.653712
0.691554 0.716121 0.651484
0.691951 0.709987 0.645869
0.692042 0.703212 0.639582
0.691798 0.695766 0.632563
0.691218 0.687709 0.624567
0.693050 0.684596 0.618769
0.699184 0.687861 0.615351
0.705562 0.690944 0.611841
0.712245 0.693782 0.608179
0.719173 0.696437 0.604456
0.726284 0.698878 0.600702
0.738003 0.705806 0.601129
0.760525 0.719478 0.600732
0.786984 0.732082 0.594079
0.810819 0.741909 0.587366
0.832273 0.749813 0.581750
0.851865 0.756161 0.576135
0.869780 0.761349 0.570459
0.886229 0.765591 0.564904
0.901244 0.769162 0.559747
0.914855 0.772122 0.555200
0.927001 0.774777 0.552026
0.670527 0.741909 0.644129
0.671382 0.742061 0.644892
0.672450 0.742123 0.645808
0.674617 0.742153 0.647639
0.677699 0.742031 0.650233
0.681605 0.741756 0.653529
0.686152 0.741268 0.657313
0.691249 0.740597 0.661524
0.696620 0.739620 0.665980
0.702052 0.738216 0.670405
0.706325 0.735744 0.672847
0.706783 0.730251 0.667597
0.706996 0.724147 0.661769
0.706935 0.717403 0.655421
0.706477 0.710048 0.648432
0.705592 0.702113 0.640925
0.708980 0.702113 0.636988
0.714748 0.705135 0.633936
0.720790 0.708095 0.630762
0.727077 0.710811 0.627527
0.733577 0.713313 0.624231
0.740230 0.715633 0.620813
0.750820 0.721706 0.620813
0.771084 0.734127 0.621241
0.796353 0.746212 0.615839
0.819242 0.755764 0.610529
0.839994 0.763577 0.606256
0.858854 0.770016 0.602441
0.876097 0.775326 0.598840
0.891783 0.779843 0.595789
0.905852 0.783688 0.593591
0.918334 0.787259 0.593072
0.683955 0.756680 0.660487
0.684718 0.756832 0.661189
0.685756 0.756954 0.662104
0.687648 0.756985 0.663813
0.690547 0.756924 0.666316
0.694087 0.756680 0.669337
0.698329 0.756313 0.672999
0.703029 0.755764 0.676967
0.708125 0.755001 0.681331
0.713283 0.753902 0.685725
0.718349 0.752377 0.689937
0.720089 0.748348 0.687648
0.720363 0.742885 0.682277
0.720455 0.736843 0.676356
0.720272 0.730282 0.669947
0.719783 0.723140 0.663020
0.718532 0.715297 0.655940
0.723873 0.718410 0.653254
0.729488 0.721401 0.650568
0.735317 0.724269 0.647791
0.741390 0.726925 0.645014
0.747616 0.729427 0.642176
0.754025 0.731716 0.639399
0.763821 0.737179 0.639277
0.781308 0.747646 0.639460
0.805631 0.759335 0.635248
0.827787 0.768765 0.631373
0.847807 0.776516 0.628351
0.865965 0.783017 0.626246
0.882444 0.788571 0.624750
0.897154 0.793423 0.624323
0.910124 0.797848 0.625635
0.697566 0.771572 0.677577
0.698329 0.771725 0.678309
0.699214 0.771786 0.679103
0.700954 0.771817 0.680629
0.703517 0.771695 0.682918
0.706752 0.771511 0.685786
0.710628 0.771176 0.689174
0.714992 0.770718 0.692958
0.719722 0.770016 0.697108
0.724575 0.769131 0.701320
0.729397 0.767849 0.705409
0.733181 0.765591 0.707546
0.733425 0.760678 0.702480
0.733547 0.755215 0.696925
0.733425 0.749233 0.690883
0.733089 0.742763 0.684321
0.732509 0.735805 0.677363
0.732723 0.730953 0.671626
0.737911 0.733883 0.669123
0.743374 0.736782 0.666651
0.749050 0.739559 0.664240
0.754910 0.742153 0.661707
0.760891 0.744564 0.659174
0.766964 0.746670 0.656519
0.775845 0.751369 0.656245
0.792020 0.761349 0.658015
0.815427 0.772702 0.654871
0.836728 0.781888 0.652186
0.855985 0.789609 0.650477
0.873289 0.796201 0.650172
0.888701 0.802029 0.651087
0.902190 0.807401 0.653956
0.709224 0.784207 0.692409
0.709895 0.784360 0.693080
0.710719 0.784451 0.693904
0.712337 0.784482 0.695369
0.714717 0.784421 0.697536
0.717800 0.784329 0.700313
0.721462 0.784146 0.703639
0.725673 0.783841 0.707393
0.730220 0.783413 0.711513
0.735012 0.782834 0.715816
0.739803 0.781979 0.720058
0.744472 0.780728 0.724086
0.746029 0.777279 0.722103
0.746273 0.772549 0.717128
0.746365 0.767361 0.711696
0.746304 0.761715 0.705806
0.746059 0.755642 0.699550
0.745693 0.749203 0.692927
0.747433 0.747219 0.688746
0.752499 0.750088 0.686580
0.757778 0.752865 0.684382
0.763272 0.755489 0.682216
0.768856 0.757961 0.679957
0.774594 0.760220 0.677638
0.780423 0.762234 0.675349
0.788602 0.766354 0.675074
0.802976 0.775296 0.677546
0.825559 0.786404 0.675685
0.845975 0.795590 0.674678
0.864317 0.803311 0.674678
0.880461 0.810208 0.676875
0.894530 0.816526 0.681147
0.720577 0.796414 0.707118
0.721157 0.796506 0.707729
0.721889 0.796567 0.708400
0.723354 0.796597 0.709773
0.725582 0.796536 0.711818
0.728450 0.796475 0.714473
0.731930 0.796353 0.717678
0.735897 0.796170 0.721340
0.740291 0.795926 0.725399
0.744961 0.795590 0.729671
0.749722 0.795010 0.734005
0.754421 0.794247 0.738216
0.758145 0.792569 0.740688
0.758450 0.788479 0.736324
0.758663 0.783993 0.731502
0.758724 0.779080 0.726253
0.758724 0.773800 0.720607
0.758633 0.768185 0.714687
0.758480 0.762264 0.708492
0.761563 0.762814 0.705806
0.766506 0.765560 0.703914
0.771603 0.768215 0.702052
0.776883 0.770748 0.700130
0.782284 0.773068 0.698238
0.787808 0.775235 0.696254
0.793454 0.777249 0.694301
0.801144 0.781033 0.694209
0.813993 0.789181 0.697475
0.835325 0.799802 0.696773
0.854765 0.808988 0.697566
0.871946 0.816892 0.699855
0.886717 0.824216 0.705135
0.731075 0.807584 0.720760
0.731563 0.807675 0.721309
0.732296 0.807736 0.721981
0.733669 0.807767 0.723293
0.735836 0.807828 0.725338
0.738674 0.807919 0.728054
0.742153 0.808042 0.731380
0.746212 0.808164 0.735256
0.750698 0.808316 0.739559
0.755489 0.808347 0.744106
0.760403 0.808286 0.748775
0.765347 0.808011 0.753384
0.770047 0.807431 0.757687
0.771878 0.804868 0.756619
0.772244 0.801144 0.752560
0.772519 0.796963 0.748104
0.772702 0.792508 0.743252
0.772885 0.787747 0.738094
0.773007 0.782773 0.732723
0.772732 0.777432 0.727474
0.777310 0.780117 0.725887
0.782101 0.782803 0.724361
0.787015 0.785306 0.722774
0.792111 0.787716 0.721218
0.797360 0.790036 0.719692
0.802701 0.792172 0.718166
0.808194 0.794186 0.716732
0.815427 0.797726 0.716884
0.826658 0.804990 0.720790
0.846403 0.814969 0.721309
0.864378 0.824125 0.724422
0.879942 0.832273 0.729763
0.742306 0.819272 0.735409
0.742824 0.819303 0.735866
0.743465 0.819364 0.736507
0.744747 0.819394 0.737758
0.746822 0.819455 0.739681
0.749508 0.819547 0.742275
0.752773 0.819669 0.745418
0.756588 0.819821 0.749050
0.760891 0.819944 0.753170
0.765469 0.820066 0.757565
0.770260 0.820096 0.762051
0.775082 0.820005 0.766598
0.779751 0.819669 0.770932
0.783688 0.818784 0.773983
