data/fiter_cube/29797953/1022862/file.cube
# Created by Adobe Lightroom plugin Export LUT (1.17.0)
# www.johnrellis.com/lightroom/exportlut.htm
# Preset: 电影灰蓝色_07 云集
# Color profile: C:\Program Files (x86)\Common Files\Adobe\Color\Profiles\Recommended\AdobeRGB1998.icc
LUT_3D_SIZE 5
DOMAIN_MIN 0.000000 0.000000 0.000000
DOMAIN_MAX 0.903226 0.903226 0.903226
0.069123 0.076112 0.088075
0.310552 0.097597 0.082765
0.707210 0.216770 0.000000
0.831662 0.432136 0.151095
0.909453 0.577508 0.325017
0.120302 0.208316 0.148928
0.241978 0.233738 0.162936
0.729000 0.396460 0.000000
0.834867 0.494270 0.167697
0.910552 0.603571 0.339635
0.492470 0.599786 0.451484
0.561395 0.588708 0.493446
0.627161 0.577417 0.439155
0.833097 0.654841 0.328252
0.911467 0.679500 0.388922
0.670527 0.741909 0.644129
0.691249 0.740597 0.661524
0.706477 0.710048 0.648432
0.740230 0.715633 0.620813
0.876097 0.775326 0.598840
0.751888 0.829160 0.747677
0.765927 0.830076 0.761288
0.794369 0.827726 0.785702
0.800534 0.807248 0.762356
0.834867 0.824430 0.758267
0.061891 0.104738 0.186404
0.360479 0.009064 0.230961
0.680140 0.306645 0.263005
0.809079 0.483345 0.329686
0.896025 0.600305 0.424201
0.139773 0.257084 0.243351
0.327794 0.333928 0.315099
0.701198 0.444068 0.302403
0.813931 0.532006 0.346777
0.897093 0.621729 0.433936
0.509453 0.627161 0.498299
0.583185 0.619135 0.544060
0.633051 0.597314 0.501732
0.825284 0.668971 0.430335
0.900694 0.691402 0.475532
0.674861 0.751003 0.659174
0.696010 0.749813 0.676295
0.713680 0.722194 0.669154
0.742184 0.722316 0.640375
0.875547 0.779721 0.621393
0.751095 0.832212 0.751675
0.765499 0.833127 0.765103
0.798703 0.833646 0.795407
0.802609 0.810849 0.771206
0.836179 0.827726 0.767178
0.116335 0.248844 0.471382
0.357275 0.212680 0.550774
0.704982 0.377539 0.525780
0.757382 0.543267 0.532433
0.865629 0.645655 0.587671
0.339513 0.411017 0.448463
0.419379 0.440131 0.533043
0.683711 0.494636 0.548608
0.764340 0.581201 0.551751
0.868589 0.659174 0.591272
0.532616 0.629023 0.585199
0.599939 0.650660 0.616266
0.657130 0.649470 0.621393
0.790372 0.684718 0.605615
0.877134 0.709529 0.610925
0.690547 0.776699 0.708370
0.705287 0.776089 0.715023
0.736019 0.760128 0.728267
0.749630 0.741909 0.690364
0.878111 0.790768 0.673640
0.751522 0.843046 0.768917
0.764431 0.843839 0.778958
0.797269 0.844053 0.804013
0.810727 0.825864 0.797177
0.838376 0.834989 0.788479
0.408637 0.460090 0.648249
0.475715 0.454994 0.673457
0.701137 0.438087 0.732143
0.800412 0.588800 0.681086
0.853971 0.659358 0.678248
0.507469 0.554925 0.632929
0.522393 0.544823 0.661524
0.694179 0.531151 0.732052
0.792111 0.619898 0.687068
0.847807 0.677150 0.687709
0.595819 0.651850 0.654383
0.615656 0.655085 0.657862
0.664668 0.671595 0.701625
0.770138 0.686061 0.701930
0.840879 0.722377 0.711940
0.681910 0.761196 0.734463
0.698848 0.766354 0.742519
0.749050 0.791135 0.775265
0.762692 0.770993 0.755642
0.866575 0.790677 0.744503
0.773770 0.858671 0.815610
0.782956 0.859953 0.820279
0.806027 0.862913 0.831693
0.830655 0.857542 0.842374
0.844541 0.848753 0.822141
0.611292 0.643702 0.779904
0.626001 0.638911 0.790127
0.700984 0.618647 0.823362
0.830594 0.631220 0.839048
0.877256 0.713741 0.794064
0.637354 0.677150 0.771176
0.635798 0.664790 0.782773
0.697536 0.650782 0.817533
0.825650 0.655482 0.839689
0.875059 0.726345 0.798245
0.663722 0.709499 0.736599
0.667933 0.710079 0.741878
0.693172 0.717128 0.794186
0.808896 0.716793 0.842863
0.868894 0.760983 0.810666
0.710933 0.788174 0.792355
0.717739 0.788449 0.793515
0.735622 0.785946 0.794064
0.767544 0.788022 0.820401
0.859525 0.808865 0.829618
0.760189 0.848173 0.829923
0.768887 0.850401 0.833646
0.797513 0.858610 0.846738
0.841276 0.875242 0.870268
0.860777 0.874784 0.872709
