data/fiter_cube/29797953/1022862/file.cube
# Created by Adobe Lightroom plugin Export LUT (1.17.0)
# www.johnrellis.com/lightroom/exportlut.htm
# Preset: 电影灰蓝色_07 云集
# Color profile: C:\Program Files (x86)\Common Files\Adobe\Color\Profiles\Recommended\AdobeRGB1998.icc
LUT_3D_SIZE 8
DOMAIN_MIN 0.000000 0.000000 0.000000
DOMAIN_MAX 0.903226 0.903226 0.903226
0.069123 0.076112 0.088075
0.122805 0.087678 0.090669
0.392950 0.089754 0.074434
0.639887 0.143008 0.000000
0.754025 0.287510 0.016754
0.818112 0.406165 0.128664
0.867796 0.501274 0.223056
0.909453 0.577508 0.325017
0.079866 0.100435 0.102052
0.105837 0.111330 0.107485
0.429206 0.174868 0.051820
0.650233 0.222080 0.000000
0.755245 0.326482 0.006226
0.816892 0.423957 0.128420
0.866667 0.510460 0.223178
0.908690 0.582971 0.325322
0.151064 0.268284 0.178561
0.220645 0.281468 0.217594
0.312963 0.290166 0.192447
0.671656 0.427100 0.000000
0.767819 0.454871 0.014008
0.823270 0.499092 0.150515
0.870787 0.557031 0.247440
0.910430 0.611017 0.342901
0.382940 0.519249 0.360418
0.432136 0.518212 0.388922
0.488899 0.487129 0.393286
0.562676 0.509026 0.363684
0.742306 0.586542 0.295567
0.834653 0.609155 0.210971
0.874968 0.624659 0.287877
0.911162 0.653376 0.369512
0.566125 0.653437 0.524163
0.583612 0.651850 0.537133
0.618952 0.641901 0.559442
0.627924 0.609796 0.523705
0.667445 0.624750 0.500114
0.776577 0.674342 0.465675
0.864317 0.699092 0.407080
0.912047 0.708766 0.414740
0.654383 0.724727 0.624811
0.663386 0.725551 0.632715
0.683864 0.722438 0.649348
0.692042 0.703212 0.639582
0.699184 0.687861 0.615351
0.726284 0.698878 0.600702
0.810819 0.741909 0.587366
0.886229 0.765591 0.564904
0.709224 0.784207 0.692409
0.714717 0.784421 0.697536
0.730220 0.783413 0.711513
0.746029 0.777279 0.722103
0.746059 0.755642 0.699550
0.757778 0.752865 0.684382
0.780423 0.762234 0.675349
0.845975 0.795590 0.674678
0.751888 0.829160 0.747677
0.756283 0.829435 0.751919
0.770169 0.830381 0.765377
0.789334 0.831205 0.783658
0.795468 0.821744 0.779263
0.798337 0.807889 0.764401
0.814572 0.815244 0.760372
0.834867 0.824430 0.758267
0.072084 0.085145 0.113069
0.134951 0.079042 0.125002
0.374975 0.111818 0.131594
0.627405 0.193576 0.135103
0.744106 0.320684 0.155428
0.808103 0.424323 0.203403
0.859983 0.512078 0.274479
0.903960 0.583551 0.357519
0.079652 0.110170 0.120760
0.124636 0.141451 0.149874
0.412268 0.191989 0.139803
0.639765 0.256138 0.135134
0.746761 0.355291 0.157656
0.808682 0.442725 0.206210
0.859525 0.521263 0.275364
0.903258 0.588556 0.357366
0.155215 0.301122 0.207248
0.248417 0.320714 0.261997
0.342473 0.324132 0.247013
0.670710 0.444556 0.153140
0.758328 0.467292 0.174441
0.814755 0.510094 0.226993
0.862913 0.562707 0.293797
0.904906 0.614618 0.372076
0.396826 0.532128 0.385443
0.447303 0.531975 0.414679
0.504570 0.506157 0.425452
0.563836 0.516442 0.391943
0.736172 0.588403 0.332433
0.824949 0.610193 0.274296
0.867491 0.626459 0.328374
0.906065 0.655451 0.395880
0.573175 0.658320 0.538231
0.588830 0.656367 0.549310
0.623896 0.647425 0.573388
0.628656 0.612665 0.535241
0.666011 0.626429 0.512047
0.774014 0.675563 0.480812
0.861357 0.700862 0.428656
0.908049 0.710414 0.439246
0.655665 0.726497 0.629694
0.663111 0.726070 0.635645
0.683192 0.723018 0.651392
0.692866 0.705196 0.644526
0.699153 0.688991 0.620722
0.726284 0.700587 0.607385
0.810269 0.743038 0.594324
0.885069 0.766323 0.572564
0.708522 0.784360 0.693782
0.713497 0.784085 0.698116
0.729122 0.783291 0.712032
0.746456 0.778317 0.725093
0.746548 0.757076 0.702846
0.757321 0.753109 0.686976
0.779416 0.762020 0.677516
0.845121 0.795193 0.676295
0.750912 0.829313 0.747921
0.755428 0.829709 0.752285
0.769467 0.830686 0.765743
0.788876 0.831601 0.784085
0.797452 0.824216 0.783413
0.799496 0.809781 0.767697
0.814603 0.815732 0.762356
0.834531 0.824552 0.759640
0.047181 0.116579 0.223056
0.119081 0.100374 0.274693
0.446754 0.010163 0.276890
0.590906 0.261662 0.295781
0.722560 0.383490 0.320806
0.789456 0.479133 0.360418
0.845487 0.549187 0.400855
0.893278 0.608148 0.451148
0.128573 0.185672 0.222934
0.150729 0.197665 0.279942
0.429938 0.205447 0.297948
0.604761 0.315129 0.311650
0.724422 0.414893 0.331884
0.790280 0.493080 0.364141
0.845579 0.556909 0.402258
0.893156 0.613092 0.452003
0.184115 0.328191 0.301518
0.269688 0.371496 0.342077
0.407263 0.402869 0.376257
0.646967 0.471107 0.359533
0.736355 0.506035 0.366613
0.796841 0.546075 0.385046
0.848661 0.590082 0.416632
0.894163 0.634089 0.461372
0.435462 0.575372 0.459510
0.472175 0.577356 0.473518
0.550408 0.564050 0.510979
0.586114 0.554589 0.476631
0.736049 0.613642 0.441749
0.808103 0.628809 0.425635
0.854429 0.645411 0.446021
0.896300 0.670985 0.481697
0.580865 0.674769 0.566827
0.599237 0.673548 0.579553
0.636103 0.666712 0.604700
0.643549 0.636286 0.581628
0.672084 0.643977 0.561181
0.774380 0.689570 0.537011
0.857877 0.713039 0.498787
0.898924 0.720302 0.514885
0.659266 0.737270 0.644923
0.667781 0.737087 0.651637
0.688655 0.734188 0.667414
0.701991 0.719326 0.668086
0.703243 0.697353 0.641596
0.728420 0.708278 0.629908
0.811154 0.749264 0.618769
0.884306 0.772091 0.601984
0.711086 0.791287 0.704738
0.716518 0.791165 0.709407
0.731991 0.790158 0.722438
0.750607 0.786007 0.737331
0.751553 0.765927 0.718502
0.759609 0.758236 0.700649
0.781582 0.767575 0.692531
0.847471 0.800534 0.692073
0.750210 0.832700 0.752285
0.754208 0.832792 0.755795
0.768612 0.833677 0.769070
0.789120 0.834958 0.787900
0.801175 0.829618 0.793179
0.802426 0.815091 0.777127
0.816037 0.818906 0.770809
0.835874 0.827909 0.768673
0.005798 0.193576 0.394842
0.127169 0.189303 0.431495
0.469184 0.043519 0.512749
0.658137 0.272831 0.458656
0.704738 0.404517 0.440314
0.758694 0.509880 0.478065
0.821836 0.577508 0.509087
0.875975 0.631708 0.543267
0.200534 0.293523 0.398322
0.207706 0.279698 0.434638
0.472786 0.217746 0.520439
0.649775 0.344427 0.471107
0.695979 0.445960 0.460212
0.760342 0.524498 0.484871
0.822416 0.585443 0.512474
0.876463 0.635676 0.543694
0.305547 0.411231 0.425971
0.349462 0.424750 0.438331
0.453407 0.458412 0.502312
0.621027 0.482368 0.500908
0.698970 0.531090 0.502007
0.768551 0.574853 0.511925
0.827695 0.617426 0.530297
0.879240 0.654810 0.552728
0.444007 0.562432 0.514275
0.483070 0.574853 0.529992
0.575952 0.612299 0.576440
0.610925 0.597925 0.564813
0.723232 0.631769 0.551904
0.781613 0.643244 0.547051
0.834226 0.662104 0.551476
0.882139 0.686244 0.567742
0.615320 0.699306 0.630213
0.624903 0.698634 0.633478
0.646479 0.694362 0.638972
0.665858 0.672206 0.639307
0.680476 0.666011 0.616480
0.777218 0.708034 0.602014
0.845243 0.723262 0.586603
0.886717 0.730098 0.592859
0.669459 0.755367 0.675593
0.676265 0.756344 0.679835
0.695460 0.753811 0.691341
0.716091 0.743313 0.702541
0.711818 0.712184 0.673335
0.734371 0.721950 0.662348
0.815274 0.759670 0.652796
0.885008 0.779355 0.638209
0.713161 0.802213 0.720607
0.719020 0.802304 0.725307
0.735592 0.801938 0.738399
0.755184 0.798642 0.752682
0.762173 0.782956 0.746273
0.764126 0.767422 0.722988
0.784695 0.775875 0.714748
0.850889 0.807584 0.713405
0.751400 0.839567 0.762905
0.755581 0.839811 0.766384
0.768276 0.840238 0.776699
0.787930 0.840757 0.792874
0.807828 0.839353 0.809232
0.807797 0.824521 0.792935
0.818204 0.823758 0.783841
0.837888 0.832883 0.782040
0.206088 0.309422 0.532921
0.251804 0.307561 0.551568
0.440040 0.275212 0.607630
0.660121 0.298222 0.626490
0.736172 0.457435 0.577752
0.763882 0.518547 0.553521
0.791653 0.603204 0.592493
0.854734 0.657313 0.624659
0.310521 0.389197 0.531090
0.313787 0.374243 0.549981
0.452216 0.353002 0.603937
0.659083 0.363195 0.631525
0.730739 0.485634 0.583062
0.759731 0.533806 0.559594
0.793271 0.610193 0.595972
0.855619 0.660853 0.625757
0.410468 0.471748 0.503197
0.435004 0.483070 0.515160
0.490425 0.503655 0.586847
0.646815 0.501213 0.637781
0.713710 0.555810 0.598352
0.742763 0.585992 0.585809
0.798550 0.632471 0.606531
0.858518 0.672389 0.628290
0.503410 0.588952 0.579889
0.521355 0.592889 0.584558
0.569970 0.604395 0.597925
0.624994 0.622156 0.632319
0.688838 0.628473 0.621546
0.749416 0.646571 0.619776
0.809689 0.669490 0.623896
0.865629 0.692958 0.631800
0.595514 0.673243 0.636866
0.608698 0.676570 0.642390
0.646967 0.692927 0.664179
0.685695 0.710933 0.687068
0.690761 0.687739 0.662867
0.776699 0.716335 0.653956
0.825650 0.719722 0.646204
0.873442 0.730343 0.647181
0.685084 0.768673 0.716243
0.693263 0.772122 0.721920
0.709133 0.773220 0.728481
0.722530 0.766476 0.728298
0.727657 0.740322 0.715389
0.739773 0.735866 0.696376
0.821714 0.770840 0.689540
0.882109 0.782589 0.679133
0.727321 0.814572 0.753658
0.731136 0.814786 0.755703
0.742489 0.815183 0.761593
0.758724 0.813413 0.770138
0.773709 0.803861 0.776089
0.768002 0.776699 0.747585
0.787869 0.785092 0.739620
0.855772 0.815457 0.737636
0.756771 0.846860 0.781033
0.759823 0.847196 0.782956
0.769375 0.848203 0.789029
0.787259 0.849119 0.801785
0.806882 0.847807 0.815335
0.815732 0.837827 0.813779
0.820340 0.829221 0.798917
0.839811 0.838376 0.796994
0.373236 0.432441 0.629938
0.396124 0.431067 0.639063
0.484260 0.422217 0.668238
0.642695 0.389624 0.714015
0.734005 0.478462 0.685786
0.788663 0.568902 0.663478
0.815732 0.608087 0.647852
0.848905 0.663905 0.671901
0.423865 0.478676 0.625269
0.426886 0.468971 0.635065
0.496040 0.461921 0.663874
0.637659 0.436866 0.709224
0.730953 0.503502 0.687068
0.785336 0.580865 0.665431
0.813352 0.614435 0.649653
0.846921 0.668971 0.674647
0.499428 0.549310 0.604181
0.512383 0.555871 0.616724
0.535363 0.552667 0.651759
0.628077 0.546807 0.697627
0.724239 0.573388 0.695094
0.776303 0.616693 0.673274
0.806485 0.635340 0.656641
0.840818 0.686763 0.684993
0.556695 0.610742 0.621576
0.565087 0.612055 0.622644
0.589532 0.616144 0.626001
0.631128 0.637385 0.677363
0.718624 0.644678 0.710231
0.763516 0.659968 0.683742
0.793545 0.672480 0.673915
0.843168 0.708949 0.696193
0.617487 0.686183 0.674678
0.624323 0.687739 0.676783
0.644312 0.692409 0.683253
0.669856 0.697566 0.691096
0.699458 0.704158 0.711849
0.742367 0.703395 0.697169
0.797910 0.715755 0.697017
0.854032 0.734524 0.704585
0.667445 0.744778 0.716335
0.673732 0.746975 0.719539
0.694453 0.755673 0.731472
0.725643 0.771481 0.752132
0.750942 0.780514 0.765377
0.749386 0.755703 0.738155
0.824002 0.777737 0.732296
0.868009 0.778500 0.725704
0.733425 0.817258 0.777310
0.738796 0.819486 0.780941
0.755673 0.826322 0.792264
0.774746 0.831693 0.802945
0.784237 0.826993 0.802090
0.785367 0.804532 0.789029
0.793973 0.798520 0.770932
0.863828 0.826688 0.769558
0.770077 0.856168 0.808499
0.772915 0.856535 0.809964
0.781979 0.857633 0.814725
0.795102 0.859281 0.821530
0.809964 0.859861 0.829007
0.825925 0.855467 0.837125
0.824033 0.836973 0.818570
0.843473 0.846464 0.816709
0.508415 0.544091 0.702693
0.517601 0.542840 0.707942
0.554772 0.536797 0.726223
0.634607 0.521416 0.757656
0.742916 0.519432 0.782803
0.795438 0.587884 0.750423
0.835630 0.640620 0.730190
0.863310 0.677760 0.725612
0.531212 0.568414 0.699153
0.531853 0.562310 0.704860
0.563012 0.557275 0.723171
0.635096 0.544396 0.754665
0.741176 0.539727 0.782742
0.794095 0.599145 0.751919
0.834195 0.647150 0.731716
0.862272 0.681941 0.727199
0.577142 0.616815 0.684596
0.584375 0.619745 0.691981
0.586908 0.607691 0.712276
0.637232 0.602838 0.744930
0.735439 0.593439 0.783261
0.789914 0.631464 0.756863
0.829343 0.667903 0.736812
0.858885 0.695369 0.732387
0.601343 0.640314 0.661677
0.604364 0.639704 0.661036
0.621759 0.652461 0.683284
0.643641 0.658656 0.726650
0.715511 0.657008 0.773495
0.783322 0.674311 0.765133
0.821530 0.697749 0.744930
0.853483 0.715175 0.739956
0.642115 0.699306 0.704921
0.645411 0.699550 0.705409
0.655482 0.699611 0.706264
0.668025 0.696162 0.704067
0.696651 0.710018 0.748287
0.773800 0.720027 0.776822
0.811246 0.730465 0.754604
0.844907 0.741573 0.751247
0.678706 0.759396 0.750607
0.682429 0.760159 0.751827
0.694514 0.762539 0.755734
0.712062 0.765133 0.760739
0.730831 0.765255 0.763821
0.754971 0.768276 0.779690
0.795377 0.766171 0.766995
0.844175 0.779660 0.772824
0.718593 0.802396 0.780148
0.722469 0.803525 0.781979
0.735256 0.807492 0.788144
0.755978 0.815213 0.799344
0.783902 0.828061 0.816587
0.809964 0.839384 0.831876
0.803281 0.815640 0.806332
0.865934 0.831540 0.803677
0.766873 0.851316 0.818570
0.770443 0.852506 0.820615
0.782193 0.856626 0.827665
0.801389 0.863737 0.839475
0.825101 0.872648 0.854398
0.836728 0.872648 0.858030
0.840787 0.860990 0.852903
0.849516 0.857816 0.841489
0.611292 0.643702 0.779904
0.615229 0.642298 0.782956
0.631800 0.637171 0.793515
0.670375 0.626490 0.811765
0.740291 0.608972 0.836179
0.815305 0.622797 0.841032
0.850858 0.669398 0.809293
0.877256 0.713741 0.794064
0.619959 0.655085 0.777340
0.619593 0.650752 0.780697
0.634546 0.646052 0.791440
0.670680 0.636469 0.809903
0.738247 0.620600 0.834623
0.813840 0.630884 0.841154
0.850065 0.675166 0.810361
0.876585 0.717586 0.795346
0.644617 0.685756 0.768154
0.643915 0.682948 0.771572
0.642634 0.670832 0.783780
0.671077 0.664515 0.803220
0.730739 0.653407 0.829160
0.808713 0.656306 0.841764
0.847379 0.693660 0.814176
0.874357 0.730251 0.799557
0.654292 0.700343 0.743679
0.656855 0.702052 0.748226
0.667384 0.707637 0.764675
0.675013 0.700191 0.789822
0.719387 0.695766 0.818631
0.799527 0.693019 0.843198
0.842985 0.720729 0.820676
0.870970 0.749477 0.806394
0.676753 0.731533 0.752529
0.678126 0.730800 0.752010
0.682063 0.727565 0.749569
0.688808 0.726589 0.756344
0.712001 0.735012 0.799557
0.778439 0.735958 0.838254
0.836912 0.752193 0.829740
0.866575 0.773617 0.815488
0.704067 0.776944 0.784634
0.706020 0.776974 0.784848
0.712367 0.776577 0.785367
0.721279 0.774258 0.784665
0.729519 0.766690 0.779446
0.755245 0.776364 0.815122
0.830289 0.787930 0.843198
0.861082 0.801480 0.826596
0.731075 0.820432 0.814298
0.733486 0.820859 0.815000
0.741451 0.822110 0.817350
0.754635 0.824002 0.821134
0.771572 0.825925 0.825620
0.788052 0.825162 0.827878
0.809018 0.826871 0.841123
0.853819 0.831937 0.839658
0.760189 0.848173 0.829923
0.762814 0.848844 0.831022
0.771786 0.851194 0.834928
0.787381 0.855558 0.841978
0.808835 0.862150 0.852232
0.834592 0.872282 0.866331
0.860777 0.884642 0.882353
0.860777 0.874784 0.872709
