data/fiter_cube/12898295/1023044/file.cube
# Created by Adobe Lightroom plugin Export LUT (1.17.0)
# www.johnrellis.com/lightroom/exportlut.htm
# Preset: 经典婚礼摄影_06 云集
# Color profile: C:\Program Files (x86)\Common Files\Adobe\Color\Profiles\Recommended\AdobeRGB1998.icc
LUT_3D_SIZE 32
DOMAIN_MIN 0.0 0.0 0.0
DOMAIN_MAX 1.0 1.0 1.0
0.035370 0.038544 0.038117
0.049073 0.039673 0.037659
0.061891 0.040925 0.038087
0.078950 0.045655 0.036408
0.102602 0.048493 0.033661
0.133883 0.044495 0.030671
0.172793 0.023896 0.025879
0.217014 0.000000 0.019501
0.265537 0.000000 0.010956
0.316838 0.000000 0.000000
0.370397 0.000000 0.000000
0.424720 0.000000 0.000000
0.478645 0.000000 0.000000
0.531304 0.000000 0.000000
0.581323 0.000000 0.000000
0.628717 0.000000 0.000000
0.673579 0.000000 0.000000
0.715663 0.000000 0.000000
0.755917 0.000000 0.000000
0.794553 0.000000 0.000000
0.829465 0.000000 0.000000
0.861173 0.055970 0.000000
0.889738 0.125551 0.000000
0.915587 0.169345 0.000000
0.939208 0.204990 0.000000
0.960937 0.236973 0.000000
0.981231 0.265995 0.000000
1.000000 0.292821 0.000000
1.000000 0.317632 0.000000
1.000000 0.340948 0.000000
1.000000 0.362707 0.000000
1.000000 0.382971 0.000000
0.035737 0.048402 0.041596
0.047303 0.049592 0.041169
0.061372 0.053071 0.040192
0.078523 0.057527 0.038422
0.102632 0.058839 0.035767
0.133700 0.054841 0.032898
0.172488 0.038300 0.028016
0.216526 0.005371 0.021485
0.264775 0.000000 0.011810
0.315953 0.000000 0.000000
0.369268 0.000000 0.000000
0.423407 0.000000 0.000000
0.477272 0.000000 0.000000
0.529747 0.000000 0.000000
0.579706 0.000000 0.000000
0.627070 0.000000 0.000000
0.671809 0.000000 0.000000
0.713985 0.000000 0.000000
0.754299 0.000000 0.000000
0.792599 0.000000 0.000000
0.827390 0.000000 0.000000
0.859098 0.071748 0.000000
0.887785 0.131563 0.000000
0.913817 0.173190 0.000000
0.937591 0.208072 0.000000
0.959503 0.239353 0.000000
0.979980 0.267948 0.000000
0.999176 0.294621 0.000000
1.000000 0.319402 0.000000
1.000000 0.342565 0.000000
1.000000 0.364233 0.000000
1.000000 0.384283 0.000000
0.036194 0.059632 0.046754
0.048524 0.060182 0.047272
0.060090 0.061921 0.044434
0.078218 0.065492 0.042329
0.102113 0.066712 0.038514
0.133547 0.064637 0.035615
0.172000 0.057618 0.030579
0.216037 0.029664 0.022889
0.264286 0.000000 0.013062
0.315221 0.000000 0.001312
0.368444 0.000000 0.000000
0.422522 0.000000 0.000000
0.476265 0.000000 0.000000
0.528740 0.000000 0.000000
0.578698 0.000000 0.000000
0.626154 0.000000 0.000000
0.670863 0.000000 0.000000
0.712978 0.000000 0.000000
0.753536 0.000000 0.000000
0.791470 0.000000 0.000000
0.826261 0.000000 0.000000
0.858000 0.091615 0.000000
0.886717 0.142611 0.000000
0.912840 0.180728 0.000000
0.936675 0.214237 0.000000
0.958679 0.244450 0.000000
0.979217 0.272435 0.000000
0.998505 0.298466 0.000000
1.000000 0.322820 0.000000
1.000000 0.345739 0.000000
1.000000 0.367010 0.000000
1.000000 0.386908 0.000000
0.038636 0.073884 0.054902
0.052094 0.074586 0.056092
0.062470 0.074739 0.056519
0.075471 0.077302 0.052033
0.100984 0.081941 0.047547
0.133577 0.081758 0.041047
0.172152 0.077577 0.035828
0.216068 0.068849 0.027741
0.264073 0.047303 0.016297
0.315007 0.000000 0.003021
0.367926 0.000000 0.000000
0.421912 0.000000 0.000000
0.475441 0.000000 0.000000
0.527733 0.000000 0.000000
0.577722 0.000000 0.000000
0.625025 0.000000 0.000000
0.669764 0.000000 0.000000
0.711788 0.000000 0.000000
0.752438 0.000000 0.000000
0.789853 0.000000 0.000000
0.824369 0.070436 0.000000
0.856016 0.124178 0.000000
0.884916 0.163699 0.000000
0.911345 0.197452 0.000000
0.935576 0.228275 0.000000
0.957946 0.256809 0.000000
0.978698 0.283360 0.000000
0.998169 0.308446 0.000000
1.000000 0.331823 0.000000
1.000000 0.353704 0.000000
1.000000 0.374212 0.000000
1.000000 0.393378 0.000000
0.041413 0.090303 0.062531
0.052186 0.091279 0.062715
0.063233 0.092195 0.063691
0.075898 0.093324 0.063569
0.094301 0.097963 0.059632
0.129763 0.104921 0.051759
0.170779 0.105287 0.042206
0.215427 0.101411 0.032258
0.263493 0.093385 0.020233
0.314061 0.081758 0.006073
0.366827 0.062562 0.000000
0.420661 0.008087 0.000000
0.474098 0.000000 0.000000
0.526329 0.000000 0.000000
0.576349 0.000000 0.000000
0.623835 0.000000 0.000000
0.668818 0.000000 0.000000
0.711208 0.000000 0.000000
0.752071 0.019348 0.000000
0.789212 0.092012 0.000000
0.823331 0.129946 0.000000
0.854856 0.163485 0.000000
0.883726 0.193790 0.000000
0.910216 0.222385 0.000000
0.934508 0.249760 0.000000
0.957000 0.275303 0.000000
0.977844 0.299809 0.000000
0.997345 0.322881 0.000000
1.000000 0.344823 0.000000
1.000000 0.365576 0.000000
1.000000 0.385046 0.000000
1.000000 0.403326 0.000000
0.040925 0.111330 0.068544
0.050721 0.112612 0.068269
0.060334 0.114168 0.067872
0.075349 0.115755 0.068788
0.093996 0.119142 0.067231
0.119753 0.125124 0.062074
0.165621 0.135927 0.051606
0.212650 0.136873 0.037690
0.263157 0.135042 0.022034
0.313878 0.129244 0.006104
0.366705 0.121584 0.000000
0.420417 0.112093 0.000000
0.473610 0.102144 0.000000
0.525841 0.091920 0.000000
0.575830 0.085756 0.000000
0.623346 0.086152 0.000000
0.668330 0.095125 0.000000
0.711788 0.112367 0.000000
0.752132 0.133455 0.000000
0.788998 0.156588 0.000000
0.823117 0.180606 0.000000
0.854643 0.205142 0.000000
0.894621 0.243503 0.000000
0.919951 0.266819 0.000000
0.943053 0.289189 0.000000
0.964324 0.310765 0.000000
0.984100 0.331518 0.000000
1.000000 0.351293 0.000000
1.000000 0.370367 0.000000
1.000000 0.388678 0.000000
1.000000 0.406012 0.000000
1.000000 0.422278 0.000000
0.032746 0.140108 0.074556
0.042267 0.141268 0.074281
0.053193 0.143191 0.073457
0.071778 0.146059 0.074678
0.094118 0.148714 0.073854
0.119875 0.153964 0.070344
0.153475 0.160830 0.063050
0.208774 0.175143 0.045350
0.261082 0.176791 0.025055
0.316381 0.177218 0.000732
0.371008 0.174441 0.000000
0.424964 0.169833 0.000000
0.478187 0.165499 0.000000
0.530114 0.162264 0.000000
0.579522 0.161288 0.000000
0.626307 0.163699 0.000000
0.670802 0.169833 0.000000
0.715755 0.182315 0.000000
0.755734 0.196658 0.000000
0.792691 0.213382 0.000000
0.827207 0.232914 0.000000
0.859373 0.253239 0.000000
0.888884 0.274449 0.000000
0.915770 0.295598 0.000000
0.940124 0.316106 0.000000
0.962127 0.335729 0.000000
0.982269 0.354559 0.000000
1.000000 0.372503 0.000000
1.000000 0.389807 0.000000
1.000000 0.406683 0.000000
1.000000 0.422644 0.000000
1.000000 0.437842 0.000000
0.014069 0.172885 0.081025
0.023285 0.174075 0.080720
0.037140 0.175967 0.079896
0.063111 0.179690 0.078798
0.090761 0.182528 0.080690
0.121401 0.185641 0.080140
0.152071 0.192599 0.073487
0.191379 0.199954 0.063691
0.252750 0.216892 0.035248
0.308446 0.219730 0.008118
0.366064 0.221744 0.000000
0.423865 0.222751 0.000000
0.477150 0.220615 0.000000
0.528985 0.219242 0.000000
0.578424 0.219547 0.000000
0.625086 0.222049 0.000000
0.671443 0.228733 0.000000
0.715206 0.238529 0.000000
0.754513 0.249516 0.000000
0.791012 0.262547 0.000000
0.825284 0.277714 0.000000
0.857298 0.294224 0.000000
0.886687 0.311894 0.000000
0.913603 0.329503 0.000000
0.937987 0.346990 0.000000
0.960082 0.364202 0.000000
0.980377 0.380591 0.000000
0.999237 0.396551 0.000000
1.000000 0.412299 0.000000
1.000000 0.427527 0.000000
1.000000 0.442298 0.000000
1.000000 0.456245 0.000000
0.000000 0.210544 0.089570
0.000000 0.211917 0.088930
0.011109 0.213504 0.088441
0.048920 0.216953 0.087343
0.086183 0.220951 0.090211
0.119265 0.224063 0.089540
0.155245 0.228244 0.087465
0.190402 0.235508 0.078309
0.233646 0.242863 0.065522
0.299718 0.262333 0.024811
0.357610 0.266484 0.000000
0.416388 0.269780 0.000000
0.474586 0.273167 0.000000
0.528466 0.274479 0.000000
0.577630 0.275059 0.000000
0.625605 0.278386 0.000000
0.672114 0.284581 0.000000
0.715084 0.292119 0.000000
0.753719 0.300542 0.000000
0.789914 0.310948 0.000000
0.823911 0.323156 0.000000
0.855711 0.336522 0.000000
0.885008 0.350927 0.000000
0.911833 0.365789 0.000000
0.936187 0.380682 0.000000
0.958373 0.395026 0.000000
0.978698 0.409400 0.000000
0.997650 0.423285 0.000000
1.000000 0.437232 0.000000
1.000000 0.450874 0.000000
1.000000 0.464271 0.000000
1.000000 0.477028 0.000000
0.000000 0.251743 0.099977
0.000000 0.252811 0.099886
0.000000 0.254246 0.099153
0.019806 0.257420 0.098329
0.078340 0.262089 0.100954
0.117159 0.265080 0.101839
0.156374 0.268437 0.101411
0.194400 0.273594 0.096559
0.233249 0.280888 0.085176
0.278874 0.287755 0.069917
0.347753 0.309300 0.017517
0.406775 0.314427 0.000000
0.465492 0.319097 0.000000
0.522484 0.323827 0.000000
0.578180 0.330449 0.000000
0.627039 0.334020 0.000000
0.673091 0.339025 0.000000
0.715480 0.344945 0.000000
0.753780 0.351568 0.000000
0.789517 0.359258 0.000000
0.823087 0.368811 0.000000
0.854276 0.379278 0.000000
0.883116 0.390509 0.000000
0.909545 0.402319 0.000000
0.933776 0.414527 0.000000
0.955993 0.426795 0.000000
0.976532 0.439094 0.000000
0.995666 0.451484 0.000000
1.000000 0.463905 0.000000
1.000000 0.476173 0.000000
1.000000 0.488350 0.000000
1.000000 0.499947 0.000000
0.000000 0.294285 0.113161
0.000000 0.295232 0.113039
0.000000 0.296635 0.112581
0.000000 0.299565 0.112184
0.064271 0.303838 0.111635
0.115084 0.307683 0.117464
0.156313 0.311070 0.117098
0.199283 0.314672 0.116701
0.237797 0.320775 0.108736
0.279393 0.327672 0.095583
0.326329 0.334295 0.077852
0.396735 0.357214 0.021088
0.455726 0.363134 0.000000
0.515099 0.370031 0.000000
0.571557 0.377264 0.000000
0.624689 0.385229 0.000000
0.672663 0.391485 0.000000
0.714443 0.395789 0.000000
0.752438 0.400244 0.000000
0.787991 0.405921 0.000000
0.821378 0.413031 0.000000
0.852537 0.421210 0.000000
0.881346 0.430335 0.000000
0.907774 0.440009 0.000000
0.931975 0.450019 0.000000
0.954192 0.460182 0.000000
0.974670 0.470619 0.000000
0.993805 0.481209 0.000000
1.000000 0.492012 0.000000
1.000000 0.502800 0.000000
1.000000 0.513542 0.000000
1.000000 0.524102 0.000000
0.000000 0.338628 0.128817
0.000000 0.339544 0.128878
0.000000 0.340734 0.128634
0.000000 0.343267 0.128420
0.047150 0.347295 0.128359
0.113466 0.351843 0.135622
0.156710 0.355108 0.135683
0.200870 0.358495 0.135744
0.246738 0.362219 0.135103
0.284642 0.368811 0.123354
0.327703 0.375250 0.109102
0.375830 0.381933 0.090181
0.457465 0.415290 0.044984
0.518151 0.423743 0.000000
0.575311 0.431464 0.000000
0.628962 0.439124 0.000000
0.679133 0.447089 0.000000
0.724453 0.454444 0.000000
0.761563 0.456977 0.000000
0.795987 0.460273 0.000000
0.828183 0.464698 0.000000
0.858030 0.470192 0.000000
0.885588 0.476417 0.000000
0.910979 0.483375 0.000000
0.934356 0.490883 0.000000
0.955901 0.498878 0.000000
0.975891 0.507012 0.000000
0.994537 0.515496 0.000000
1.000000 0.524315 0.000000
1.000000 0.533349 0.000000
1.000000 0.542535 0.000000
1.000000 0.551537 0.000000
0.000000 0.386847 0.148013
0.000000 0.387549 0.147890
0.000000 0.388525 0.147860
0.000000 0.390570 0.147829
0.018677 0.393713 0.148104
0.100923 0.397864 0.148562
0.158846 0.401099 0.157168
0.204044 0.404181 0.157259
0.250706 0.407538 0.157321
0.295415 0.412116 0.154116
0.336858 0.420233 0.142306
0.383398 0.428473 0.127901
0.433448 0.436255 0.109010
0.505913 0.462226 0.071077
0.564202 0.470924 0.025910
0.618463 0.478645 0.000000
0.669184 0.486061 0.000000
0.715084 0.492531 0.000000
0.756435 0.498421 0.000000
0.793332 0.503136 0.000000
0.825376 0.505913 0.000000
0.855222 0.509636 0.000000
0.882719 0.514183 0.000000
0.908141 0.519493 0.000000
0.931548 0.525383 0.000000
0.953155 0.531701 0.000000
0.973175 0.538506 0.000000
0.991943 0.545586 0.000000
1.000000 0.553124 0.000000
1.000000 0.561028 0.000000
1.000000 0.569116 0.000000
1.000000 0.577203 0.000000
0.000000 0.430915 0.167971
0.000000 0.431525 0.167880
0.000000 0.432349 0.167971
0.000000 0.434150 0.168185
0.000000 0.436805 0.168399
0.098268 0.440528 0.169253
0.161166 0.444221 0.179538
0.206943 0.446998 0.179812
0.254429 0.451301 0.180697
0.303685 0.456062 0.181765
0.347570 0.462287 0.176150
0.389868 0.469490 0.163638
0.435584 0.476204 0.148470
0.483406 0.482307 0.129183
0.551781 0.506279 0.094911
0.607080 0.514611 0.074220
0.658198 0.521721 0.031037
0.704921 0.528099 0.000000
0.747158 0.533440 0.000000
0.786099 0.539055 0.000000
0.822049 0.545068 0.000000
0.852537 0.548333 0.000000
0.880064 0.551507 0.000000
0.905516 0.555413 0.000000
0.928985 0.559869 0.000000
0.950622 0.564843 0.000000
0.970764 0.570214 0.000000
0.989563 0.576135 0.000000
1.000000 0.582483 0.000000
1.000000 0.589258 0.000000
1.000000 0.596399 0.000000
1.000000 0.603632 0.000000
0.000000 0.474281 0.189425
0.000000 0.474891 0.189670
0.000000 0.475532 0.189639
0.000000 0.477150 0.190036
0.000000 0.480079 0.190829
0.097597 0.483864 0.192081
0.152926 0.488441 0.194522
0.212589 0.491554 0.204990
0.259800 0.495064 0.205997
0.308721 0.498970 0.207156
0.358740 0.503136 0.208530
0.399390 0.508965 0.199283
0.441260 0.514733 0.186343
0.485451 0.520104 0.170718
0.530480 0.524651 0.151766
0.594598 0.546624 0.120150
0.646967 0.554864 0.104372
0.694514 0.561151 0.085817
0.737575 0.566430 0.064118
0.777371 0.571710 0.011536
0.814054 0.577111 0.000000
0.847562 0.582757 0.000000
0.877348 0.587732 0.000000
0.902831 0.590356 0.000000
0.926329 0.593591 0.000000
0.948119 0.597498 0.000000
0.968383 0.601923 0.000000
0.987427 0.606897 0.000000
1.000000 0.612451 0.000000
1.000000 0.618433 0.000000
1.000000 0.624720 0.000000
1.000000 0.631159 0.000000
0.000000 0.519310 0.214389
0.000000 0.520012 0.214847
0.000000 0.520653 0.215091
0.000000 0.522210 0.215457
0.000000 0.524559 0.216373
0.101961 0.527733 0.217563
0.156893 0.531609 0.219028
0.220005 0.534936 0.231876
0.267399 0.537774 0.232944
0.315404 0.540856 0.234226
0.364477 0.543999 0.235630
0.412604 0.547478 0.235599
0.450416 0.551904 0.223667
0.490486 0.556023 0.209781
0.531640 0.559716 0.193729
0.573388 0.562921 0.174899
0.634119 0.583398 0.145724
0.683223 0.591516 0.132052
0.727657 0.597162 0.120485
0.768551 0.602625 0.108522
0.806210 0.607996 0.095796
0.840665 0.613397 0.082277
0.871855 0.618769 0.067079
0.900206 0.624140 0.034577
0.924407 0.627497 0.007477
0.946227 0.630365 0.000000
0.966491 0.633722 0.000000
0.985504 0.637751 0.000000
1.000000 0.642206 0.000000
1.000000 0.647150 0.000000
1.000000 0.652369 0.000000
1.000000 0.657954 0.000000
0.000000 0.560723 0.240299
0.000000 0.561151 0.240391
0.000000 0.561669 0.240696
0.000000 0.562921 0.241123
0.000000 0.564813 0.241947
0.108614 0.567315 0.242985
0.162783 0.570520 0.244541
0.219028 0.573877 0.251469
0.274174 0.575982 0.259434
0.321599 0.578424 0.260624
0.369604 0.581079 0.262242
0.418158 0.583764 0.263798
0.461524 0.586938 0.260380
0.498146 0.590539 0.247990
0.536126 0.593683 0.233829
0.574792 0.596429 0.217594
0.613855 0.598871 0.199069
0.670069 0.616846 0.172610
0.716976 0.625513 0.160555
0.758816 0.631067 0.152834
0.797330 0.636439 0.145144
0.832547 0.641566 0.137789
0.864561 0.646601 0.131044
0.893553 0.651728 0.124605
0.919890 0.656764 0.118074
0.943572 0.661524 0.112032
0.963928 0.664057 0.110353
0.983001 0.667201 0.109316
1.000000 0.670802 0.108858
1.000000 0.674983 0.108827
1.000000 0.679530 0.108705
1.000000 0.684352 0.109377
0.000000 0.599695 0.266819
0.000000 0.600275 0.267155
0.000000 0.608392 0.273198
0.000000 0.609400 0.273503
0.052583 0.610864 0.274174
0.125277 0.612757 0.275090
0.177310 0.615137 0.276280
0.225772 0.617945 0.277775
0.288640 0.619593 0.292241
0.335241 0.621363 0.293462
0.382361 0.623285 0.294774
0.429786 0.625208 0.296300
0.476722 0.627070 0.297917
0.514549 0.629480 0.290440
0.549248 0.631891 0.277409
0.584802 0.633936 0.262638
0.621027 0.635737 0.246189
0.657313 0.637293 0.228000
0.708034 0.652033 0.203952
0.752407 0.660853 0.193271
0.791287 0.665919 0.187869
0.826932 0.670741 0.183383
0.859312 0.675380 0.179171
0.888609 0.679866 0.175845
0.915007 0.684230 0.172671
0.939025 0.688594 0.169467
0.961028 0.692988 0.166323
0.980560 0.696132 0.165133
0.998383 0.698817 0.165896
1.000000 0.702144 0.167788
1.000000 0.705928 0.170321
1.000000 0.710048 0.173495
0.000000 0.639185 0.295933
0.000000 0.640528 0.296788
0.000000 0.641993 0.297765
0.000000 0.643702 0.299107
0.076814 0.645686 0.300206
0.137606 0.647669 0.301427
0.187472 0.649805 0.302708
0.234562 0.652186 0.304173
0.293339 0.654200 0.315770
0.343053 0.655329 0.320867
0.389197 0.656733 0.322179
0.435340 0.658167 0.323827
0.480995 0.659510 0.325597
0.525536 0.660822 0.327276
0.557763 0.662715 0.316045
0.590661 0.664363 0.302739
0.624231 0.665827 0.287938
0.658228 0.667079 0.271702
0.692439 0.668330 0.254215
0.739010 0.680995 0.232273
0.781399 0.690303 0.222507
0.818021 0.695430 0.219577
0.851316 0.700160 0.217380
0.881468 0.704707 0.215854
0.908598 0.708919 0.214755
0.933257 0.713130 0.213809
0.955749 0.717342 0.213046
0.976440 0.721614 0.212833
0.995666 0.726009 0.212741
1.000000 0.728603 0.216037
1.000000 0.731746 0.220005
1.000000 0.735256 0.224826
0.000000 0.674525 0.323400
0.000000 0.675654 0.324407
0.000000 0.676905 0.325322
0.000000 0.678401 0.326482
0.101564 0.679988 0.327611
0.153445 0.681605 0.328862
0.200595 0.683223 0.329992
0.245945 0.685084 0.331609
0.291691 0.687312 0.333532
0.353307 0.687739 0.349493
0.398047 0.688808 0.351080
0.442725 0.689784 0.352789
0.486732 0.690730 0.354528
0.529778 0.691676 0.356481
0.569085 0.692653 0.355413
0.599145 0.693935 0.343236
0.630213 0.695125 0.329747
0.661952 0.696162 0.315343
0.694087 0.697200 0.299474
0.726375 0.698360 0.282322
0.768917 0.709102 0.262333
0.809018 0.718654 0.253330
0.843259 0.723690 0.252567
0.874144 0.728237 0.252476
0.901976 0.732479 0.252842
0.927184 0.736538 0.253269
0.950164 0.740475 0.254337
0.971252 0.744594 0.255863
0.990784 0.748745 0.258061
1.000000 0.753048 0.260624
1.000000 0.756558 0.264500
1.000000 0.759518 0.270817
0.000000 0.707851 0.351659
0.000000 0.708827 0.352544
0.000000 0.709957 0.353460
0.076600 0.711208 0.354589
0.127932 0.712520 0.355810
0.172885 0.713771 0.357000
0.216312 0.714992 0.358282
0.259922 0.716396 0.359899
0.304234 0.718013 0.362127
0.364752 0.718441 0.378393
0.408515 0.719020 0.380804
0.451484 0.719631 0.382544
0.493751 0.720180 0.384375
0.535332 0.720790 0.386450
0.576043 0.721462 0.388556
0.609949 0.722408 0.384192
0.638849 0.723659 0.372320
0.668696 0.724849 0.359533
0.699123 0.726101 0.345739
0.729885 0.727413 0.330938
0.760555 0.728847 0.315007
0.799710 0.738308 0.296941
0.837278 0.747799 0.288640
0.868956 0.752651 0.290288
0.897429 0.757107 0.292332
0.923095 0.761196 0.294835
0.946380 0.765103 0.297795
0.967681 0.768978 0.301274
0.987366 0.772915 0.305333
1.000000 0.776944 0.309972
1.000000 0.780941 0.315251
1.000000 0.784878 0.320897
0.027314 0.742489 0.383520
0.065919 0.742977 0.383948
0.087343 0.743435 0.384527
0.120668 0.744076 0.385229
0.158236 0.744808 0.386175
0.197055 0.745541 0.387304
0.237339 0.746426 0.388678
0.278782 0.747433 0.390600
0.321416 0.748745 0.393103
0.366491 0.749935 0.397559
0.424079 0.749538 0.414008
0.464973 0.749966 0.415991
0.505486 0.750301 0.417914
0.545190 0.750576 0.420050
0.584100 0.750881 0.422370
0.622187 0.751247 0.424750
0.650965 0.752071 0.416815
0.678218 0.752956 0.405035
0.706172 0.753902 0.392370
0.734646 0.754818 0.378668
0.763149 0.755795 0.364050
0.791592 0.756802 0.348180
0.826749 0.764492 0.330999
0.861265 0.773373 0.322515
0.890318 0.777859 0.325444
0.916564 0.782010 0.329076
0.940368 0.785946 0.333440
0.962158 0.789822 0.338323
0.982147 0.793698 0.344091
1.000000 0.797574 0.350378
1.000000 0.801480 0.357641
1.000000 0.805417 0.365698
0.110109 0.772030 0.412482
0.120607 0.772488 0.413123
0.133577 0.772915 0.413703
0.157687 0.773373 0.414405
0.188144 0.773922 0.415412
0.222446 0.774350 0.416571
0.259495 0.774929 0.418189
0.298314 0.775540 0.420203
0.339178 0.776272 0.422950
0.381323 0.777127 0.426703
0.439704 0.776486 0.445838
0.478218 0.776638 0.447822
0.516472 0.776761 0.449805
0.554498 0.776822 0.452064
0.591821 0.776944 0.454444
0.628260 0.777157 0.457069
0.663233 0.777493 0.459297
0.688136 0.778378 0.448737
0.713863 0.779202 0.437385
0.740200 0.780117 0.425238
0.766873 0.781033 0.412207
0.793637 0.782010 0.398169
0.820188 0.783078 0.383185
0.852079 0.789609 0.366979
0.882475 0.796658 0.355627
0.909361 0.800961 0.360235
0.933745 0.805081 0.365820
0.955993 0.809018 0.372076
0.976379 0.812894 0.379095
0.995209 0.816770 0.387060
1.000000 0.820737 0.396094
1.000000 0.824826 0.406683
0.161685 0.802090 0.444465
0.169589 0.802518 0.445167
0.179080 0.802762 0.445655
0.197787 0.802976 0.446357
0.223087 0.803159 0.447272
0.253361 0.803250 0.448371
0.286900 0.803372 0.450019
0.323247 0.803464 0.452186
0.361822 0.803586 0.455024
0.401556 0.803799 0.458961
0.447486 0.803555 0.468574
0.495308 0.802365 0.481514
0.530999 0.802121 0.483345
0.566522 0.801816 0.485267
0.601434 0.801511 0.487343
0.635706 0.801236 0.489601
0.669276 0.801114 0.492103
0.698726 0.801358 0.490883
0.722042 0.802090 0.480446
0.746181 0.802945 0.469429
0.770901 0.803891 0.457954
0.795804 0.804807 0.445502
0.820645 0.805722 0.432013
0.845121 0.806577 0.417151
0.873747 0.811887 0.401282
0.902831 0.819699 0.391516
0.927642 0.823789 0.397986
0.950195 0.827726 0.405188
0.970855 0.831571 0.413397
0.989899 0.835447 0.422583
1.000000 0.839414 0.433234
1.000000 0.843626 0.445838
0.202762 0.827634 0.473030
0.208988 0.827939 0.473732
0.217227 0.828183 0.474311
0.232883 0.828305 0.475135
0.255436 0.828336 0.476112
0.282750 0.828305 0.477577
0.314153 0.828214 0.479561
0.348119 0.828122 0.482094
0.384741 0.828061 0.485542
0.422766 0.828031 0.490120
0.461830 0.828000 0.495918
0.515404 0.826352 0.516014
0.548638 0.826017 0.518090
0.581811 0.825681 0.520226
0.614679 0.825315 0.522515
0.646998 0.825010 0.524895
0.678706 0.824796 0.527672
0.709682 0.824765 0.530785
0.734401 0.825284 0.526482
0.756130 0.826078 0.516655
0.778470 0.826932 0.506126
0.801266 0.827787 0.494881
0.824155 0.828641 0.482704
0.846921 0.829465 0.469490
0.869413 0.830289 0.455146
0.895293 0.834775 0.440040
0.921996 0.842069 0.429877
0.944884 0.846098 0.438239
0.965850 0.850034 0.447761
0.985077 0.854002 0.458473
1.000000 0.858061 0.471015
1.000000 0.862303 0.485542
0.244602 0.852323 0.502739
0.250126 0.852506 0.503319
0.256779 0.852567 0.503777
0.270420 0.852506 0.504509
0.289982 0.852323 0.505608
0.314733 0.852079 0.507195
0.343389 0.851774 0.509300
0.375433 0.851408 0.512200
0.409796 0.851041 0.516136
0.445899 0.850736 0.521233
0.483497 0.850370 0.527703
0.529747 0.849210 0.542992
0.568872 0.848081 0.553277
0.599573 0.847684 0.555688
0.629999 0.847227 0.558007
0.660090 0.846830 0.560510
0.689662 0.846464 0.563287
0.718563 0.846342 0.566430
0.746853 0.846433 0.570062
0.767178 0.847135 0.562676
0.787106 0.847990 0.553185
0.807675 0.848844 0.542992
0.828458 0.849699 0.532036
0.849393 0.850553 0.520256
0.870268 0.851377 0.507378
0.890990 0.852201 0.493416
0.914488 0.856046 0.479072
0.939361 0.863157 0.468513
0.960204 0.866758 0.478523
0.979706 0.870848 0.490608
0.997711 0.875059 0.504479
1.000000 0.879393 0.520775
0.285008 0.874907 0.531609
0.289616 0.874998 0.532128
0.295537 0.875029 0.532616
0.307622 0.874907 0.533501
0.325811 0.874754 0.534905
0.348852 0.874510 0.537102
0.376135 0.874327 0.540093
0.406622 0.874113 0.544152
0.440162 0.873899 0.549340
0.475471 0.873686 0.555901
0.512230 0.873381 0.563958
0.550011 0.872953 0.573907
0.597894 0.871031 0.595026
0.625879 0.870756 0.597803
0.653651 0.870451 0.600610
0.680995 0.870054 0.603265
0.707942 0.869749 0.606043
0.734340 0.869505 0.609155
0.760220 0.869535 0.612696
0.784146 0.869810 0.614740
0.801419 0.870665 0.606622
0.819333 0.871519 0.597833
0.837644 0.872374 0.588190
0.856291 0.873228 0.577752
0.875151 0.874083 0.566339
0.894041 0.874907 0.553948
0.913024 0.875822 0.540551
0.934234 0.879088 0.526818
0.957275 0.885985 0.516167
0.975952 0.889189 0.528099
0.993835 0.893370 0.543664
1.000000 0.897704 0.561395
0.332921 0.898466 0.564996
0.336919 0.898497 0.565484
0.341985 0.898405 0.565972
0.352605 0.898161 0.566918
0.368872 0.897795 0.568475
0.389563 0.897307 0.570794
0.414282 0.896788 0.573877
0.442390 0.896178 0.578027
0.473335 0.895476 0.583429
0.506554 0.894713 0.590265
0.541283 0.893797 0.598596
0.576471 0.892912 0.608301
0.619684 0.890929 0.627100
0.649317 0.890013 0.634241
