data/fiter_cube/12898295/1023044/file.cube
# Created by Adobe Lightroom plugin Export LUT (1.17.0)
# www.johnrellis.com/lightroom/exportlut.htm
# Preset: 经典婚礼摄影_06 云集
# Color profile: C:\Program Files (x86)\Common Files\Adobe\Color\Profiles\Recommended\AdobeRGB1998.icc
LUT_3D_SIZE 8
DOMAIN_MIN 0.000000 0.000000 0.000000
DOMAIN_MAX 0.903226 0.903226 0.903226
0.035370 0.038544 0.038117
0.102602 0.048493 0.033661
0.265537 0.000000 0.010956
0.478645 0.000000 0.000000
0.673579 0.000000 0.000000
0.829465 0.000000 0.000000
0.939208 0.204990 0.000000
1.000000 0.317632 0.000000
0.041413 0.090303 0.062531
0.094301 0.097963 0.059632
0.263493 0.093385 0.020233
0.474098 0.000000 0.000000
0.668818 0.000000 0.000000
0.823331 0.129946 0.000000
0.934508 0.249760 0.000000
1.000000 0.344823 0.000000
0.000000 0.210544 0.089570
0.086183 0.220951 0.090211
0.233646 0.242863 0.065522
0.474586 0.273167 0.000000
0.672114 0.284581 0.000000
0.823911 0.323156 0.000000
0.936187 0.380682 0.000000
1.000000 0.437232 0.000000
0.000000 0.386847 0.148013
0.018677 0.393713 0.148104
0.250706 0.407538 0.157321
0.433448 0.436255 0.109010
0.669184 0.486061 0.000000
0.825376 0.505913 0.000000
0.931548 0.525383 0.000000
1.000000 0.553124 0.000000
0.000000 0.560723 0.240299
0.000000 0.564813 0.241947
0.274174 0.575982 0.259434
0.461524 0.586938 0.260380
0.613855 0.598871 0.199069
0.797330 0.636439 0.145144
0.919890 0.656764 0.118074
1.000000 0.670802 0.108858
0.000000 0.707851 0.351659
0.127932 0.712520 0.355810
0.304234 0.718013 0.362127
0.493751 0.720180 0.384375
0.638849 0.723659 0.372320
0.760555 0.728847 0.315007
0.897429 0.757107 0.292332
0.987366 0.772915 0.305333
0.202762 0.827634 0.473030
0.255436 0.828336 0.476112
0.384741 0.828061 0.485542
0.548638 0.826017 0.518090
0.678706 0.824796 0.527672
0.778470 0.826932 0.506126
0.869413 0.830289 0.455146
0.965850 0.850034 0.447761
0.374914 0.918303 0.594720
0.407935 0.917418 0.598810
0.506676 0.914611 0.615930
0.637293 0.910552 0.653437
0.736690 0.905119 0.672694
0.822934 0.905760 0.687251
0.883268 0.910185 0.663508
0.946838 0.914824 0.625147
0.039551 0.054231 0.092287
0.098604 0.059693 0.089448
0.260472 0.000000 0.086244
0.469032 0.000000 0.072724
0.664607 0.000000 0.000000
0.819425 0.000000 0.000000
0.932219 0.206577 0.000000
1.000000 0.316564 0.000000
0.036439 0.097597 0.101106
0.100557 0.105074 0.104738
0.260624 0.101900 0.098482
0.468788 0.031403 0.077363
0.663050 0.000000 0.000000
0.816587 0.143008 0.000000
0.928710 0.251499 0.000000
1.000000 0.343633 0.000000
0.000000 0.215274 0.131167
0.101106 0.228122 0.139406
0.242069 0.248844 0.129366
0.470954 0.275853 0.095003
0.664576 0.287388 0.013428
0.815549 0.323583 0.000000
0.927916 0.377356 0.000000
1.000000 0.434943 0.000000
0.000000 0.386908 0.190372
0.082429 0.394690 0.195865
0.260227 0.410681 0.206027
0.431159 0.433021 0.171420
0.656092 0.477363 0.120058
0.812558 0.497292 0.062593
0.922789 0.519310 0.000000
1.000000 0.549981 0.000000
0.000000 0.560998 0.277256
0.080140 0.564385 0.278477
0.282261 0.575128 0.294438
0.462654 0.583001 0.296635
0.607965 0.593805 0.241245
0.791043 0.632166 0.202396
0.915404 0.654383 0.186923
0.997375 0.668910 0.180331
0.000000 0.704707 0.376043
0.143954 0.706691 0.377691
0.307591 0.712398 0.383581
0.492226 0.716426 0.405890
0.637659 0.721279 0.398505
0.758633 0.727810 0.345922
0.894743 0.756008 0.326452
0.984680 0.771908 0.336706
0.206638 0.823484 0.486061
0.255100 0.823178 0.487434
0.382483 0.823636 0.496651
0.547539 0.823026 0.530632
0.677302 0.822934 0.541558
0.776669 0.825071 0.522240
0.866056 0.827939 0.471443
0.962737 0.847837 0.463600
0.370123 0.916472 0.601404
0.403998 0.915892 0.605676
0.503227 0.913298 0.622156
0.633600 0.909575 0.657435
0.740932 0.906401 0.685603
0.823972 0.906340 0.697536
0.882750 0.909819 0.673213
0.945342 0.914031 0.634272
0.000000 0.071809 0.210910
0.080262 0.071626 0.211185
0.251530 0.064302 0.206485
0.464942 0.000000 0.207889
0.663966 0.000000 0.205356
0.817136 0.098909 0.205692
0.930358 0.238437 0.183566
1.000000 0.334203 0.138430
0.000000 0.117922 0.226078
0.090974 0.122438 0.228458
0.253941 0.131472 0.221256
0.465003 0.093568 0.222110
0.661646 0.065095 0.217288
0.813993 0.182559 0.210788
0.927550 0.278050 0.188144
1.000000 0.360998 0.146578
0.000000 0.239689 0.251560
0.086244 0.247929 0.254765
0.259861 0.267735 0.263828
0.468605 0.277989 0.256535
0.663264 0.299382 0.247440
0.812558 0.339025 0.233616
0.924529 0.391333 0.214176
1.000000 0.445380 0.182101
0.000000 0.397864 0.293217
0.090181 0.405341 0.299290
0.274388 0.426764 0.315679
0.447120 0.447608 0.307164
0.662074 0.487556 0.291020
0.809262 0.502800 0.278294
0.919677 0.527520 0.265019
1.000000 0.557794 0.245731
0.000000 0.564935 0.362768
0.109621 0.569238 0.368414
0.295537 0.581476 0.383032
0.475807 0.593256 0.398535
0.617334 0.603662 0.362249
0.791592 0.637995 0.343297
0.911498 0.658503 0.338415
0.992767 0.672816 0.331792
0.077333 0.706111 0.446601
0.176303 0.708034 0.450904
0.331243 0.713039 0.460670
0.501244 0.718471 0.480781
0.644434 0.722988 0.482307
0.757168 0.729244 0.437415
0.890471 0.757443 0.426734
0.980713 0.775753 0.437934
0.229496 0.824155 0.539666
0.277379 0.824002 0.541955
0.396551 0.823728 0.549554
0.544457 0.823972 0.569970
0.681331 0.822995 0.593652
0.779324 0.826047 0.583642
0.864897 0.830289 0.539513
0.960327 0.851316 0.536584
0.369055 0.916320 0.633722
0.398199 0.915465 0.635431
0.497383 0.912657 0.648707
0.629908 0.909483 0.680049
0.744106 0.906035 0.713832
0.824613 0.906767 0.725032
0.883055 0.910552 0.707576
0.943633 0.915221 0.672724
0.000000 0.093629 0.371527
0.000000 0.096101 0.372656
0.237034 0.089631 0.371649
0.445014 0.109865 0.366918
0.645075 0.127626 0.373144
0.804105 0.135683 0.377264
0.919219 0.239902 0.378698
1.000000 0.345190 0.364294
0.000000 0.145052 0.387182
0.000000 0.149050 0.387457
0.246311 0.149508 0.383978
0.447272 0.173373 0.377722
0.645563 0.189395 0.384070
0.802518 0.196780 0.385229
0.917144 0.283055 0.384344
1.000000 0.368719 0.366430
0.000000 0.264805 0.407507
0.000000 0.271702 0.410224
0.257877 0.285283 0.415625
0.452216 0.307012 0.409735
0.648402 0.319585 0.416846
0.802701 0.339239 0.415412
0.916686 0.402625 0.411627
1.000000 0.452430 0.388251
0.000000 0.422522 0.437964
0.000000 0.427802 0.440375
0.267216 0.443153 0.448249
0.461250 0.464759 0.461646
0.648798 0.479286 0.457038
0.796139 0.500755 0.451057
0.909148 0.529900 0.442573
0.993805 0.561730 0.426856
0.000000 0.574487 0.480903
0.106264 0.576928 0.483680
0.303166 0.586419 0.494301
0.480446 0.603540 0.512169
0.625910 0.615412 0.503319
0.790829 0.645686 0.498939
0.902495 0.660151 0.494636
0.984771 0.676112 0.484993
0.111360 0.710506 0.543572
0.195804 0.713893 0.548272
0.346929 0.717433 0.555901
0.506371 0.724117 0.569543
0.656184 0.730404 0.589014
0.759243 0.735775 0.556054
0.886381 0.762661 0.552758
0.974609 0.781582 0.560662
0.247105 0.824094 0.613001
0.292424 0.824460 0.615229
0.407874 0.825101 0.622126
0.548577 0.825834 0.636225
0.689326 0.826261 0.665126
0.786069 0.829618 0.666133
0.862577 0.833219 0.627985
0.955474 0.854582 0.627283
0.384741 0.916411 0.690028
0.412543 0.916014 0.691676
0.493782 0.914061 0.696590
0.614008 0.910613 0.712581
0.741299 0.906950 0.747921
0.824247 0.907683 0.762539
0.883574 0.911681 0.753964
0.941100 0.916716 0.723781
0.000000 0.131807 0.529595
0.000000 0.134859 0.529656
0.224796 0.136873 0.527337
0.425666 0.127779 0.523827
0.621576 0.205783 0.528038
0.781094 0.289738 0.534447
0.900969 0.337133 0.545678
0.987091 0.411078 0.560510
0.000000 0.181613 0.539422
0.000000 0.184024 0.539513
0.237339 0.186282 0.536217
0.428962 0.181674 0.530480
0.621607 0.249668 0.533989
0.780575 0.321294 0.541100
0.900145 0.362737 0.551415
0.986206 0.428840 0.565057
0.000000 0.297459 0.556481
0.000000 0.302556 0.557916
0.256565 0.309819 0.559319
0.440864 0.311772 0.553491
0.621485 0.361059 0.552880
0.777035 0.406378 0.560388
0.896513 0.434455 0.568231
0.983124 0.481483 0.576837
0.000000 0.442359 0.576928
0.000000 0.446448 0.578302
0.266758 0.458442 0.583459
0.455451 0.471687 0.590143
0.624964 0.495613 0.586450
0.776699 0.515648 0.593561
0.893767 0.530877 0.595422
0.981842 0.560418 0.580438
0.000000 0.588983 0.604364
0.061311 0.591302 0.605829
0.291142 0.598016 0.609857
0.469795 0.608698 0.617792
0.630426 0.624109 0.629267
0.776333 0.635126 0.626184
0.889189 0.651667 0.621424
0.974731 0.670375 0.611292
0.103944 0.710964 0.638483
0.189456 0.712001 0.640040
0.342016 0.714443 0.644495
0.500603 0.719692 0.653956
0.643427 0.729427 0.666529
0.757504 0.739132 0.662470
0.882078 0.766751 0.667170
0.965728 0.779110 0.665797
0.270848 0.822507 0.693782
0.309331 0.822385 0.694636
0.413519 0.822446 0.697993
0.543328 0.823453 0.705043
0.670985 0.826383 0.716304
0.787350 0.831144 0.736995
0.858915 0.834897 0.708858
0.950805 0.856382 0.710109
0.396796 0.913573 0.751217
0.421576 0.912993 0.751888
0.496895 0.911223 0.754482
0.600214 0.910460 0.761013
0.710780 0.908598 0.771725
0.819089 0.908232 0.800107
0.883452 0.912505 0.801175
0.937713 0.917357 0.774319
0.000000 0.185153 0.675288
0.000000 0.187381 0.674708
0.238437 0.189731 0.671351
0.434424 0.189090 0.668452
0.612207 0.209598 0.669612
0.761349 0.325109 0.665126
0.880156 0.447089 0.674159
0.967681 0.511376 0.696071
0.000000 0.226932 0.678309
0.000000 0.228153 0.677424
0.248631 0.230533 0.675227
0.436713 0.230137 0.670832
0.610498 0.247807 0.670680
0.759670 0.352056 0.667292
0.878782 0.463508 0.677363
0.966644 0.523278 0.698817
0.000000 0.337011 0.692531
0.000000 0.337346 0.692714
0.270054 0.342351 0.691432
0.447852 0.343603 0.686061
0.610101 0.352483 0.680690
0.758755 0.434516 0.679500
0.876585 0.518700 0.691585
0.964416 0.564141 0.709865
0.000000 0.472755 0.705898
0.028779 0.474403 0.706020
0.279454 0.480354 0.708003
0.460700 0.488441 0.710079
0.614740 0.488594 0.702632
0.759945 0.543908 0.702419
0.875120 0.595911 0.715236
0.962585 0.621973 0.726223
0.000000 0.605249 0.719417
0.122225 0.606683 0.720027
0.302373 0.610925 0.721981
0.465766 0.617060 0.725765
0.620722 0.624079 0.729152
0.757382 0.646693 0.726558
0.872587 0.668605 0.735988
0.960449 0.682063 0.739498
0.138064 0.720668 0.738186
0.206668 0.721889 0.739315
0.344427 0.723934 0.741207
0.492256 0.727535 0.744594
0.633265 0.733761 0.749935
0.762234 0.747768 0.761227
0.873503 0.759091 0.761166
0.957946 0.771481 0.757107
0.271366 0.825834 0.772488
0.310491 0.826108 0.773404
0.413306 0.825742 0.775143
0.541192 0.825467 0.778592
0.666651 0.826871 0.784543
0.776425 0.833585 0.793576
0.858732 0.839750 0.788846
0.949462 0.861448 0.793759
0.415961 0.912902 0.814908
0.439155 0.912230 0.815244
0.509819 0.910277 0.816648
0.601190 0.909026 0.818814
0.699153 0.908385 0.821805
0.797024 0.909819 0.829740
0.884245 0.914672 0.849241
0.935576 0.919371 0.828489
0.000000 0.254643 0.799710
0.094423 0.256077 0.799313
0.295415 0.258640 0.797116
0.464485 0.260746 0.793149
0.615229 0.266758 0.786404
0.763210 0.325414 0.790524
0.865293 0.455482 0.776852
0.948211 0.600488 0.791592
0.000000 0.288914 0.801205
0.120394 0.289830 0.800717
0.301244 0.291325 0.798489
0.465766 0.292790 0.794125
0.614954 0.297978 0.787503
0.761410 0.349554 0.790860
0.863981 0.471473 0.777981
0.947326 0.608301 0.792996
0.000000 0.379400 0.807370
0.136873 0.379736 0.807248
0.313756 0.385870 0.804898
0.470802 0.386633 0.800534
0.616327 0.389227 0.793881
0.757839 0.423377 0.794583
0.862119 0.526635 0.785122
0.946166 0.638666 0.801083
0.000000 0.502342 0.814115
0.147616 0.502312 0.813779
0.309239 0.503014 0.813291
0.475227 0.509087 0.811093
0.617548 0.507652 0.804807
0.750729 0.520165 0.800900
0.859617 0.602655 0.797116
0.944823 0.681605 0.812802
0.119631 0.625513 0.821073
0.188022 0.625635 0.820981
0.322179 0.625666 0.820920
0.463630 0.624018 0.821042
0.618433 0.628870 0.819120
0.742306 0.624842 0.811124
0.856809 0.681270 0.812039
0.943786 0.731411 0.826841
0.212375 0.735714 0.831022
0.255131 0.735805 0.831083
0.363592 0.736080 0.831327
0.491798 0.736355 0.831815
0.621637 0.737087 0.832609
0.748257 0.741329 0.833707
0.856504 0.764096 0.833066
0.943969 0.786862 0.843290
0.305089 0.827634 0.844022
0.335241 0.827604 0.844236
0.420935 0.827359 0.844694
0.533043 0.827298 0.845701
0.650385 0.828336 0.847440
0.761929 0.832883 0.851194
0.860502 0.845243 0.860014
0.945098 0.855070 0.859983
0.404089 0.914519 0.871855
0.426551 0.914061 0.871946
0.495552 0.912902 0.872587
0.589105 0.911070 0.873381
0.691493 0.909483 0.874968
0.789334 0.910155 0.878752
0.872251 0.916320 0.885344
0.935119 0.922759 0.882841
0.271092 0.362585 0.904265
0.308110 0.363470 0.903838
0.408545 0.366217 0.902068
0.534112 0.371405 0.899077
0.660090 0.380133 0.894682
0.774319 0.393744 0.888853
0.885832 0.480720 0.891997
0.944823 0.605463 0.871336
0.277195 0.388251 0.904387
0.312779 0.388922 0.903990
0.410773 0.390784 0.902281
0.534386 0.394598 0.899290
0.659510 0.401617 0.894926
0.773342 0.413062 0.889128
0.884428 0.494057 0.891936
0.944121 0.613947 0.872038
0.281193 0.459724 0.905821
0.321416 0.463142 0.905272
0.414435 0.463416 0.903532
0.535027 0.465003 0.900877
0.657862 0.467781 0.896605
0.770626 0.473701 0.890837
0.880308 0.537865 0.892607
0.942443 0.642969 0.875334
0.227054 0.543297 0.908415
0.274693 0.544762 0.908110
0.395453 0.550744 0.906737
0.533379 0.560388 0.903868
0.654292 0.559472 0.899840
0.766049 0.560113 0.894408
0.873228 0.599237 0.894285
0.940307 0.686488 0.881224
0.240848 0.654841 0.911009
0.275120 0.654017 0.910887
0.366247 0.650111 0.910307
0.487922 0.642267 0.908873
0.646204 0.656458 0.904936
0.757931 0.652277 0.899779
0.861845 0.665583 0.896666
0.937835 0.739223 0.889586
0.301427 0.758755 0.914549
0.327916 0.758145 0.914366
0.404913 0.756008 0.913817
0.508598 0.751797 0.912963
0.620844 0.744991 0.911711
0.751278 0.748562 0.908537
0.849271 0.743984 0.902495
0.935821 0.798428 0.901183
0.375555 0.846281 0.920226
0.396185 0.845914 0.920134
0.459968 0.844572 0.919829
0.550469 0.842527 0.919371
0.651423 0.840085 0.918822
0.751003 0.837766 0.918151
0.848264 0.838468 0.916960
0.934417 0.860685 0.915923
0.457954 0.916960 0.928008
0.473854 0.916625 0.927977
0.524529 0.915618 0.927947
0.601099 0.914275 0.928038
0.689326 0.913176 0.928252
0.777584 0.913603 0.928954
0.860349 0.917235 0.930816
0.937621 0.928496 0.937407
