data/fiter_cube/12898295/1023044/file.cube
# Created by Adobe Lightroom plugin Export LUT (1.17.0)
# www.johnrellis.com/lightroom/exportlut.htm
# Preset: 经典婚礼摄影_06 云集
# Color profile: C:\Program Files (x86)\Common Files\Adobe\Color\Profiles\Recommended\AdobeRGB1998.icc
LUT_3D_SIZE 5
DOMAIN_MIN 0.000000 0.000000 0.000000
DOMAIN_MAX 0.903226 0.903226 0.903226
0.035370 0.038544 0.038117
0.217014 0.000000 0.019501
0.581323 0.000000 0.000000
0.861173 0.055970 0.000000
1.000000 0.317632 0.000000
0.014069 0.172885 0.081025
0.191379 0.199954 0.063691
0.578424 0.219547 0.000000
0.857298 0.294224 0.000000
1.000000 0.412299 0.000000
0.000000 0.474281 0.189425
0.212589 0.491554 0.204990
0.530480 0.524651 0.151766
0.847562 0.582757 0.000000
1.000000 0.612451 0.000000
0.027314 0.742489 0.383520
0.278782 0.747433 0.390600
0.584100 0.750881 0.422370
0.791592 0.756802 0.348180
0.982147 0.793698 0.344091
0.374914 0.918303 0.594720
0.477180 0.915496 0.609857
0.691524 0.905577 0.667079
0.838773 0.906706 0.684443
0.946838 0.914824 0.625147
0.000000 0.067842 0.173709
0.205570 0.062440 0.170138
0.570459 0.000000 0.167391
0.847837 0.124666 0.144991
1.000000 0.327031 0.000000
0.000000 0.197543 0.207736
0.213138 0.220890 0.217838
0.569726 0.234440 0.200595
0.845335 0.307317 0.168246
1.000000 0.417639 0.093324
0.000000 0.481056 0.296849
0.234379 0.498939 0.314305
0.531243 0.525139 0.295598
0.837613 0.580987 0.261631
0.999573 0.615564 0.242679
0.124971 0.742031 0.455177
0.307103 0.746548 0.465187
0.589502 0.751919 0.494789
0.789639 0.757931 0.438422
0.977386 0.795804 0.438636
0.372900 0.917784 0.625818
0.474861 0.914977 0.638575
0.701930 0.906920 0.701747
0.842710 0.907805 0.719081
0.945037 0.915984 0.664332
0.000000 0.110750 0.453346
0.175937 0.114412 0.452399
0.537743 0.153231 0.449561
0.826596 0.231815 0.462593
0.996307 0.369085 0.471931
0.000000 0.248081 0.480354
0.204623 0.258854 0.482856
0.541772 0.297917 0.476509
0.823423 0.343023 0.485512
0.994293 0.438849 0.480140
0.000000 0.510582 0.525750
0.224216 0.520928 0.530846
0.550561 0.549371 0.549859
0.817197 0.575921 0.542992
0.984497 0.617548 0.525536
0.164065 0.741482 0.608087
0.324468 0.743526 0.612970
0.587945 0.753445 0.634577
0.787076 0.763943 0.625483
0.966278 0.802396 0.629633
0.388067 0.914488 0.719081
0.471321 0.913176 0.723507
0.663691 0.909148 0.742061
0.839902 0.908324 0.782986
0.938964 0.916442 0.747433
0.000000 0.199557 0.706294
0.192172 0.203952 0.704646
0.523247 0.204685 0.697261
0.789517 0.355657 0.694270
0.962188 0.533165 0.722499
0.000000 0.312688 0.718441
0.223514 0.318578 0.716976
0.528679 0.321294 0.707698
0.786587 0.431586 0.702876
0.959411 0.568872 0.730861
0.000000 0.543542 0.737209
0.245090 0.547692 0.738491
0.539147 0.556298 0.740627
0.782498 0.601953 0.733974
0.955932 0.662013 0.755673
0.189090 0.750576 0.768307
0.327703 0.751003 0.768887
0.568902 0.755703 0.773831
0.789303 0.773892 0.788479
0.953704 0.792508 0.784878
0.413550 0.913237 0.829313
0.486671 0.911559 0.830564
0.651606 0.908843 0.834867
0.817655 0.911345 0.844602
0.935058 0.919829 0.841733
0.271092 0.362585 0.904265
0.379675 0.365423 0.902617
0.598047 0.375219 0.897063
0.802884 0.406043 0.888396
0.944823 0.605463 0.871336
0.286107 0.441047 0.905364
0.386725 0.441871 0.903807
0.597559 0.445838 0.898436
0.797482 0.458289 0.888731
0.943023 0.634333 0.874388
0.221073 0.598352 0.909758
0.333928 0.594293 0.908904
0.591485 0.609552 0.904051
0.787686 0.604913 0.894987
0.939025 0.711757 0.884977
0.319890 0.782528 0.915953
0.396368 0.780819 0.915496
0.573175 0.774350 0.914031
0.776364 0.771267 0.910033
0.935271 0.813596 0.904448
0.457954 0.916960 0.928008
0.508873 0.915923 0.927947
0.644556 0.913634 0.928099
0.798886 0.914092 0.929259
0.937621 0.928496 0.937407
