data/fiter_cube/12898295/1023047/file.cube
# Created by Adobe Lightroom plugin Export LUT (1.17.0)
# www.johnrellis.com/lightroom/exportlut.htm
# Preset: 经典婚礼摄影_09 云集
# Color profile: C:\Program Files (x86)\Common Files\Adobe\Color\Profiles\Recommended\AdobeRGB1998.icc
LUT_3D_SIZE 5
DOMAIN_MIN 0.000000 0.000000 0.000000
DOMAIN_MAX 0.903226 0.903226 0.903226
0.000000 0.000000 0.000000
0.214603 0.000000 0.059998
0.556786 0.000000 0.058320
0.799222 0.153841 0.124605
0.981445 0.399359 0.298192
0.019654 0.179019 0.115480
0.151492 0.180301 0.084749
0.530632 0.192050 0.000000
0.786801 0.269993 0.000000
0.989441 0.453956 0.274723
0.092927 0.465095 0.268345
0.170230 0.458900 0.227909
0.411688 0.460548 0.171328
0.753628 0.508354 0.000000
0.975799 0.570916 0.096925
0.308293 0.689143 0.471138
0.373449 0.688350 0.470802
0.428931 0.671839 0.379339
0.630762 0.663264 0.322759
0.933806 0.764614 0.318639
0.551324 0.882292 0.680232
0.578332 0.882719 0.679622
0.598444 0.874205 0.627192
0.709407 0.887053 0.605219
0.894591 0.921813 0.598474
0.031800 0.053956 0.161715
0.181949 0.048463 0.171603
0.522240 0.001434 0.211856
0.764370 0.199680 0.233829
0.959747 0.380835 0.293339
0.021759 0.160922 0.185885
0.185580 0.197726 0.204074
0.511467 0.212314 0.202152
0.757992 0.283604 0.219669
0.959380 0.427588 0.283696
0.113252 0.457496 0.325383
0.243290 0.458991 0.326726
0.406531 0.442420 0.251743
0.737758 0.482246 0.172061
0.960998 0.562768 0.247013
0.320623 0.685451 0.502312
0.386877 0.684932 0.504295
0.450141 0.670558 0.431312
0.629541 0.658289 0.372290
0.930663 0.756741 0.362188
0.547356 0.878965 0.690730
0.574640 0.879301 0.690303
0.629969 0.887358 0.669245
0.716426 0.894377 0.628717
0.900694 0.927581 0.618555
0.079164 0.107485 0.404608
0.249821 0.127291 0.428534
0.509819 0.166445 0.440375
0.754025 0.330694 0.490425
0.937469 0.460761 0.548577
0.009064 0.191958 0.389136
0.239017 0.238102 0.421149
0.509422 0.299657 0.459815
0.741421 0.393042 0.497749
0.940276 0.483680 0.538689
0.085481 0.414435 0.440711
0.231998 0.429755 0.447364
0.477943 0.481056 0.478004
0.720851 0.506554 0.481422
0.943236 0.569512 0.501946
0.338964 0.680903 0.586145
0.398962 0.676692 0.583307
0.535882 0.673854 0.580621
0.641016 0.657740 0.507622
0.934417 0.732692 0.473396
0.536004 0.864256 0.723629
0.563806 0.868589 0.726101
0.639673 0.880125 0.724910
0.707607 0.885710 0.670405
0.887449 0.911467 0.649683
0.262882 0.224399 0.630945
0.358770 0.241428 0.639460
0.584314 0.323339 0.671046
0.730678 0.387366 0.656367
0.923674 0.528283 0.708186
0.256321 0.296880 0.620722
0.348241 0.313237 0.630030
0.574884 0.392828 0.666896
0.723293 0.446601 0.658717
0.918212 0.550286 0.707698
0.147005 0.407324 0.594263
0.232273 0.409705 0.591760
0.511437 0.494606 0.639216
0.712398 0.576867 0.674372
0.920287 0.617639 0.714382
0.292790 0.626154 0.650904
0.352178 0.627375 0.649622
0.503624 0.641718 0.655665
0.684138 0.679927 0.679133
0.931762 0.708949 0.682429
0.532647 0.856382 0.787533
0.562432 0.860349 0.790860
0.634577 0.873411 0.796353
0.742885 0.892760 0.790341
0.887083 0.905211 0.727932
0.532006 0.474952 0.845670
0.572503 0.475837 0.847166
0.683040 0.490883 0.850553
0.820035 0.543816 0.858457
0.913634 0.556359 0.836179
0.531487 0.497414 0.847959
0.568994 0.502403 0.848539
0.677852 0.524132 0.851072
0.819028 0.576043 0.860899
0.914244 0.582391 0.840421
0.434913 0.554589 0.844297
0.478798 0.556268 0.847349
0.641596 0.597223 0.852598
0.803799 0.641993 0.866636
0.918242 0.655329 0.855589
0.451362 0.707424 0.853666
0.473152 0.704768 0.853208
0.538293 0.690761 0.851530
0.737606 0.712184 0.870054
0.928649 0.774411 0.887541
0.526848 0.862455 0.888670
0.543816 0.863737 0.889494
0.602747 0.869474 0.893339
0.718807 0.884154 0.902556
0.936187 0.933928 0.934020
