data/fiter_cube/12898295/1023047/file.cube
# Created by Adobe Lightroom plugin Export LUT (1.17.0)
# www.johnrellis.com/lightroom/exportlut.htm
# Preset: 经典婚礼摄影_09 云集
# Color profile: C:\Program Files (x86)\Common Files\Adobe\Color\Profiles\Recommended\AdobeRGB1998.icc
LUT_3D_SIZE 32
DOMAIN_MIN 0.0 0.0 0.0
DOMAIN_MAX 1.0 1.0 1.0
0.000000 0.000000 0.000000
0.022705 0.000763 0.004761
0.050904 0.001648 0.008240
0.074952 0.006195 0.019409
0.100038 0.011048 0.034913
0.132509 0.007752 0.048524
0.171054 0.000000 0.056153
0.214603 0.000000 0.059998
0.262303 0.000000 0.060914
0.312810 0.000000 0.061097
0.364874 0.000000 0.060822
0.416815 0.000000 0.060060
0.466804 0.000000 0.058991
0.513756 0.000000 0.057832
0.556786 0.000000 0.058320
0.596033 0.000000 0.060090
0.631891 0.000000 0.063050
0.665064 0.000000 0.067750
0.704189 0.000000 0.077638
0.740047 0.000000 0.091157
0.770748 0.103914 0.107057
0.799222 0.153841 0.124605
0.825834 0.193698 0.143374
0.851225 0.229435 0.162844
0.875822 0.262455 0.183993
0.900389 0.294865 0.206821
0.925811 0.328161 0.232853
0.952636 0.362860 0.263066
0.981445 0.399359 0.298192
1.000000 0.438178 0.338445
1.000000 0.479500 0.383825
1.000000 0.516808 0.415564
0.004730 0.012848 0.012879
0.016876 0.014435 0.010285
0.052369 0.017823 0.005768
0.075959 0.019989 0.012787
0.100832 0.023621 0.027314
0.132418 0.019776 0.042664
0.169955 0.005737 0.053010
0.212314 0.000000 0.057404
0.259129 0.000000 0.059358
0.309026 0.000000 0.059632
0.360388 0.000000 0.059052
0.411627 0.000000 0.057618
0.461311 0.000000 0.055177
0.508171 0.000000 0.054047
0.551202 0.000000 0.053407
0.590570 0.000000 0.055116
0.626551 0.000000 0.059480
0.659968 0.000000 0.063844
0.699214 0.000000 0.073243
0.734401 0.000000 0.085939
0.764767 0.100282 0.101625
0.792813 0.149050 0.119203
0.819272 0.188205 0.137362
0.844694 0.223117 0.156710
0.869383 0.256077 0.177310
0.894194 0.288365 0.199863
0.919890 0.321874 0.226108
0.946960 0.356725 0.255772
0.975982 0.393439 0.290776
1.000000 0.432319 0.330663
1.000000 0.473854 0.376226
1.000000 0.514366 0.417212
0.007355 0.032868 0.030671
0.018585 0.034699 0.025879
0.040070 0.035950 0.023072
0.074739 0.042817 0.014252
0.101442 0.042237 0.019226
0.132631 0.038605 0.034607
0.169009 0.024903 0.047120
0.210391 0.000000 0.053101
0.256504 0.000000 0.055726
0.305699 0.000000 0.056336
0.356695 0.000000 0.055329
0.407752 0.000000 0.052705
0.457374 0.000000 0.050385
0.504265 0.000000 0.047669
0.547448 0.000000 0.046235
0.586999 0.000000 0.048371
0.623102 0.000000 0.052796
0.656641 0.000000 0.059632
0.696407 0.000000 0.069215
0.731167 0.002655 0.082124
0.761440 0.105715 0.097536
0.789364 0.150912 0.114839
0.815824 0.188540 0.132998
0.841245 0.222446 0.152010
0.865934 0.254887 0.172854
0.890806 0.286778 0.195560
0.916655 0.319890 0.221256
0.943877 0.354803 0.251286
0.973083 0.391394 0.286076
1.000000 0.430335 0.326055
1.000000 0.471656 0.371618
1.000000 0.513939 0.417639
0.021790 0.062654 0.060456
0.032197 0.063874 0.059815
0.042267 0.064698 0.056458
0.065217 0.065583 0.050721
0.096010 0.071595 0.036988
0.134310 0.067964 0.017426
0.169589 0.063203 0.031159
0.209812 0.053376 0.042054
0.254643 0.023560 0.046571
0.302953 0.000000 0.046174
0.353033 0.000000 0.044800
0.403449 0.000000 0.041382
0.452491 0.000000 0.036164
0.499184 0.000000 0.031739
0.542565 0.000000 0.030152
0.582238 0.000000 0.029664
0.618585 0.000000 0.034791
0.652888 0.000000 0.044526
0.692561 0.000000 0.059174
0.726101 0.068574 0.072663
0.755856 0.118593 0.088197
0.783261 0.157015 0.105623
0.809842 0.191928 0.124269
0.836027 0.224887 0.143954
0.861997 0.257237 0.165743
0.888151 0.289860 0.189609
0.915038 0.323339 0.216587
0.942992 0.358282 0.247227
0.972412 0.394568 0.282383
1.000000 0.432898 0.322698
1.000000 0.473213 0.367620
1.000000 0.515465 0.416480
0.033997 0.083162 0.073793
0.044617 0.084962 0.074250
0.048035 0.085542 0.069459
0.063020 0.085451 0.067292
0.081331 0.087160 0.063752
0.118105 0.097200 0.056031
0.162142 0.096468 0.036500
0.207309 0.089937 0.023377
0.250614 0.083558 0.025788
0.297337 0.074067 0.027497
0.346502 0.055818 0.024231
0.396277 0.010376 0.019715
0.445075 0.000000 0.013519
0.492012 0.000000 0.007965
0.535912 0.000000 0.004059
0.576501 0.000000 0.001923
0.613916 0.000000 0.005341
0.652064 0.000000 0.012604
0.690486 0.072389 0.031342
0.723323 0.111055 0.057527
0.752529 0.143648 0.076326
0.779568 0.174502 0.094667
0.806027 0.204349 0.113924
0.832273 0.234318 0.134920
0.858488 0.264897 0.157107
0.885008 0.295964 0.181521
0.912169 0.328344 0.208560
0.940246 0.362158 0.239872
0.969726 0.397467 0.274846
1.000000 0.434943 0.315190
1.000000 0.474617 0.360479
1.000000 0.516869 0.410681
0.037049 0.108705 0.085847
0.047395 0.110506 0.085878
0.054292 0.111849 0.084504
0.060548 0.111696 0.076844
0.076936 0.111635 0.074434
0.100587 0.113130 0.070253
0.143404 0.126589 0.062409
0.192020 0.129366 0.047059
0.245701 0.124361 0.021668
0.294408 0.117800 0.012512
0.342504 0.111604 0.005676
0.391516 0.103975 0.000000
0.439948 0.095705 0.000000
0.486854 0.087343 0.000000
0.531090 0.081514 0.000000
0.572198 0.080690 0.000000
0.610071 0.087800 0.000000
0.651850 0.106722 0.000000
0.689265 0.128786 0.000000
0.721889 0.151858 0.015167
0.751308 0.175418 0.056397
0.778714 0.200198 0.080659
0.843687 0.273655 0.129671
0.869780 0.300999 0.154208
0.895109 0.328038 0.179477
0.920256 0.355474 0.206424
0.945739 0.383886 0.236088
0.972290 0.413642 0.268803
1.000000 0.445594 0.305730
1.000000 0.479713 0.346960
1.000000 0.516106 0.392309
1.000000 0.534051 0.403388
0.029877 0.145144 0.101106
0.040589 0.146426 0.100893
0.053773 0.148043 0.100832
0.059449 0.148348 0.091829
0.074098 0.146700 0.086488
0.097261 0.147097 0.082551
0.126894 0.148470 0.077333
0.177066 0.164889 0.067872
0.232578 0.171084 0.049805
0.292149 0.169345 0.016968
0.351965 0.161318 0.000000
0.401282 0.156588 0.000000
0.449348 0.152132 0.000000
0.495430 0.148165 0.000000
0.538323 0.146090 0.000000
0.577783 0.146578 0.000000
0.619074 0.154055 0.000000
0.661585 0.167666 0.000000
0.698177 0.183383 0.000000
0.731289 0.201144 0.000000
0.762387 0.221897 0.010773
0.793301 0.246220 0.069245
0.824399 0.273594 0.099367
0.854948 0.302556 0.129061
0.884398 0.331975 0.158785
0.912200 0.360510 0.188632
0.939208 0.388739 0.219699
0.966430 0.417823 0.253574
0.995026 0.448707 0.291173
1.000000 0.481727 0.332616
1.000000 0.517052 0.378363
1.000000 0.541833 0.397833
0.019654 0.179019 0.115480
0.031525 0.179965 0.115480
0.048127 0.181216 0.115206
0.062501 0.182162 0.110109
0.069459 0.180636 0.097963
0.090822 0.177493 0.094728
0.118959 0.178805 0.090181
0.151492 0.180301 0.084749
0.205509 0.198459 0.074220
0.264439 0.207645 0.055818
0.326146 0.208682 0.015320
0.387640 0.203494 0.000000
0.441627 0.197024 0.000000
0.487556 0.193942 0.000000
0.530632 0.192050 0.000000
0.572595 0.193179 0.000000
0.617639 0.200992 0.000000
0.657435 0.210117 0.000000
0.692866 0.221195 0.000000
0.725490 0.234592 0.000000
0.756344 0.250858 0.000000
0.786801 0.269993 0.000000
0.817594 0.292699 0.069154
0.847990 0.317784 0.105074
0.877470 0.344060 0.137484
0.905516 0.370275 0.169070
0.932860 0.396643 0.201633
0.960540 0.424201 0.236362
0.989441 0.453956 0.274723
1.000000 0.485908 0.317174
1.000000 0.520500 0.363561
1.000000 0.551049 0.390753
0.010559 0.215763 0.131746
0.023590 0.216617 0.131746
0.043275 0.217472 0.131716
0.067903 0.219669 0.131014
0.069795 0.217990 0.116182
0.087373 0.214633 0.108217
0.112673 0.211948 0.104250
0.143862 0.213382 0.098817
0.179141 0.214603 0.092470
0.233951 0.231449 0.082185
0.298161 0.245518 0.062104
0.360876 0.249027 0.016388
0.421790 0.246525 0.000000
0.479530 0.239261 0.000000
0.526757 0.237339 0.000000
0.573785 0.241093 0.000000
0.615900 0.245579 0.000000
0.654078 0.251987 0.000000
0.688685 0.259709 0.000000
0.720974 0.269749 0.000000
0.751736 0.282444 0.000000
0.782040 0.297856 0.000000
0.812650 0.316899 0.000000
0.842893 0.338323 0.072023
0.872404 0.361486 0.112703
0.900664 0.384955 0.147799
0.928283 0.409247 0.182223
0.956176 0.434913 0.218509
0.985260 0.463020 0.258000
1.000000 0.493477 0.301122
1.000000 0.526726 0.348516
1.000000 0.559167 0.384405
0.003204 0.254368 0.149660
0.018555 0.254795 0.149386
0.038819 0.255406 0.149081
0.067994 0.256809 0.148531
0.077577 0.256138 0.138918
0.083375 0.253391 0.122957
0.109285 0.248783 0.118929
0.137362 0.247013 0.114015
0.171237 0.248447 0.108095
0.208530 0.249638 0.100771
0.262089 0.263310 0.091493
0.330877 0.282109 0.068513
0.393378 0.287358 0.023743
0.458076 0.290349 0.000000
0.519829 0.289860 0.000000
0.573419 0.287297 0.000000
0.614771 0.290135 0.000000
0.652644 0.294438 0.000000
0.686946 0.300053 0.000000
0.718746 0.307225 0.000000
0.748684 0.316594 0.000000
0.777646 0.328130 0.000000
0.806912 0.342626 0.000000
0.836149 0.359533 0.000000
0.865019 0.378668 0.073152
0.893339 0.399237 0.117708
0.921569 0.421637 0.156985
0.950378 0.446143 0.196384
0.980529 0.473365 0.238102
1.000000 0.503227 0.283360
1.000000 0.536217 0.333196
1.000000 0.569757 0.375830
0.000793 0.291447 0.167758
0.015595 0.291966 0.167636
0.040131 0.292454 0.167239
0.069886 0.293675 0.166720
0.088380 0.294285 0.162417
0.089631 0.291875 0.145266
0.107301 0.288090 0.134829
0.133272 0.283177 0.130007
0.165072 0.283238 0.124056
0.201083 0.284642 0.117739
0.240177 0.285527 0.109865
0.296086 0.299657 0.100282
0.371160 0.324559 0.077241
0.436957 0.334234 0.034333
0.498909 0.337926 0.000000
0.554986 0.337774 0.000000
0.605585 0.334813 0.000000
0.646906 0.334020 0.000000
0.681209 0.337346 0.000000
0.713100 0.342260 0.000000
0.743282 0.349279 0.000000
0.772335 0.358282 0.000000
0.801816 0.370397 0.000000
0.831266 0.384894 0.000000
0.860441 0.401343 0.000000
0.889006 0.419135 0.078798
0.917266 0.438941 0.128420
0.946136 0.461067 0.171695
0.976318 0.486244 0.216037
1.000000 0.514366 0.262852
1.000000 0.545830 0.314061
1.000000 0.580011 0.367041
0.005249 0.330419 0.187533
0.022919 0.330755 0.187411
0.049042 0.331151 0.187289
0.074647 0.331975 0.186770
0.099825 0.333318 0.186038
0.103304 0.331365 0.171298
0.106386 0.328466 0.152285
0.133700 0.323644 0.147189
0.160647 0.318853 0.142031
0.196353 0.321233 0.135805
0.237491 0.326635 0.129824
0.281865 0.330755 0.122103
0.366308 0.369024 0.119020
0.446540 0.396857 0.094453
0.511376 0.406897 0.062806
0.569329 0.411017 0.000000
0.620447 0.411109 0.000000
0.665736 0.408209 0.000000
0.704952 0.402258 0.000000
0.735073 0.402930 0.000000
0.762936 0.406317 0.000000
0.790829 0.412665 0.000000
0.818753 0.421332 0.000000
0.846830 0.432502 0.000000
0.874846 0.445563 0.000000
0.902708 0.460426 0.061952
0.930449 0.477150 0.110536
0.958526 0.496407 0.161227
0.987884 0.518486 0.208804
1.000000 0.543969 0.258366
1.000000 0.572625 0.310735
1.000000 0.602258 0.346441
0.030396 0.379767 0.214450
0.050477 0.379828 0.214298
0.065583 0.379614 0.213657
0.086580 0.379339 0.212863
0.110750 0.379248 0.211643
0.123323 0.377295 0.202152
0.122225 0.373571 0.181704
0.138735 0.371405 0.169314
0.168276 0.369696 0.165042
0.201541 0.370611 0.160281
0.243717 0.377081 0.155459
0.289433 0.383215 0.148806
0.338140 0.388800 0.141329
0.396338 0.400305 0.131106
0.476692 0.430488 0.109133
0.538537 0.441566 0.082399
0.593042 0.446418 0.024506
0.641108 0.447028 0.000000
0.683467 0.444648 0.000000
0.721187 0.440162 0.000000
0.754269 0.436622 0.000000
0.782284 0.440436 0.000000
0.810208 0.446815 0.000000
0.838346 0.455695 0.000000
0.866484 0.466560 0.000000
0.894530 0.479438 0.000000
0.922759 0.494118 0.066773
0.951537 0.511345 0.119112
0.981445 0.531762 0.174990
1.000000 0.555901 0.229068
1.000000 0.583520 0.284825
1.000000 0.614008 0.334569
0.063111 0.418189 0.237491
0.072145 0.418738 0.237705
0.082185 0.418952 0.237522
0.100465 0.419745 0.237247
0.124056 0.420600 0.236759
0.146761 0.421271 0.234073
0.146426 0.419532 0.215793
0.145907 0.417823 0.193484
0.175143 0.414435 0.188418
0.204318 0.411109 0.182895
0.240909 0.413275 0.177584
0.283879 0.418494 0.171786
0.329320 0.423133 0.164828
0.376135 0.426459 0.155978
0.428534 0.433112 0.145296
0.505577 0.462562 0.125643
0.562829 0.472755 0.101961
0.613642 0.477729 0.071168
0.659571 0.479347 0.000000
0.700313 0.478096 0.000000
0.737209 0.475135 0.000000
0.771817 0.471839 0.000000
0.802487 0.473762 0.000000
0.831052 0.480812 0.000000
0.859556 0.490089 0.000000
0.888060 0.501244 0.000000
0.916747 0.514397 0.000000
0.946227 0.529992 0.077150
0.976959 0.548821 0.135592
1.000000 0.571527 0.197910
1.000000 0.598016 0.258000
1.000000 0.628443 0.319219
0.092927 0.465095 0.268345
0.099336 0.465461 0.268406
0.106783 0.465248 0.267857
0.122316 0.464942 0.267063
0.143069 0.464363 0.265965
0.167086 0.463874 0.264347
0.172030 0.461616 0.249821
0.170230 0.458900 0.227909
0.182834 0.455726 0.212222
0.211521 0.451972 0.206485
0.240330 0.448280 0.200290
0.280186 0.452125 0.194888
0.323095 0.456275 0.188785
0.367315 0.459205 0.180850
0.411688 0.460548 0.171328
0.457984 0.462776 0.159945
0.531945 0.491707 0.142702
0.585534 0.501640 0.121981
0.634333 0.507561 0.097444
0.678370 0.510063 0.065431
0.717647 0.509941 0.000000
0.753628 0.508354 0.000000
0.788479 0.506950 0.000000
0.823178 0.506615 0.000000
0.852567 0.514000 0.000000
0.881895 0.524193 0.000000
0.911864 0.536797 0.000000
0.942931 0.552209 0.014557
0.975799 0.570916 0.096925
1.000000 0.593500 0.165621
1.000000 0.620172 0.234958
1.000000 0.650385 0.293278
0.120912 0.505486 0.297642
0.126589 0.505913 0.297917
0.132998 0.505791 0.297490
0.146273 0.505638 0.296971
0.164706 0.505180 0.295842
0.187350 0.504845 0.294499
0.201694 0.503838 0.286717
0.199832 0.501549 0.266239
0.197757 0.499306 0.241642
0.223301 0.495094 0.233982
0.250797 0.490364 0.227146
0.280644 0.486793 0.220066
0.319890 0.488777 0.213321
0.360388 0.490028 0.205722
0.401282 0.490211 0.196658
0.442084 0.489204 0.185763
0.483253 0.488350 0.174105
0.554223 0.516808 0.160006
0.607538 0.528923 0.141909
0.655818 0.536767 0.122652
0.698726 0.540856 0.101411
0.737209 0.542290 0.075257
0.773648 0.543053 0.004242
0.809720 0.544457 0.000000
0.845518 0.546563 0.000000
0.879637 0.551598 0.000000
0.910430 0.563317 0.000000
0.942260 0.577813 0.000000
0.975647 0.595361 0.068971
1.000000 0.616297 0.124849
1.000000 0.641047 0.203189
1.000000 0.669673 0.267704
0.148165 0.539422 0.324773
0.152193 0.539452 0.324651
0.157748 0.539086 0.324193
0.168948 0.538659 0.323339
0.185336 0.538140 0.322393
0.205325 0.537591 0.321080
0.228428 0.537133 0.319524
0.226017 0.534752 0.300267
0.223636 0.532433 0.277195
0.232547 0.529320 0.258946
0.258885 0.524804 0.252140
0.285374 0.519982 0.244816
0.317357 0.518029 0.237675
0.355718 0.519097 0.230564
0.394568 0.519188 0.222202
0.433021 0.518120 0.212406
0.471321 0.516289 0.201541
0.509209 0.514244 0.189517
0.574182 0.539391 0.179355
0.629877 0.555871 0.162631
0.676081 0.564172 0.147189
0.717250 0.568872 0.131167
0.754971 0.571496 0.113283
0.792233 0.574762 0.089479
0.829343 0.578546 0.037842
0.866361 0.583215 0.000000
0.903655 0.588952 0.000000
0.938293 0.600671 0.000000
0.972686 0.617548 0.000000
1.000000 0.637873 0.097627
1.000000 0.661921 0.160525
1.000000 0.690272 0.236332
0.176547 0.571862 0.352758
0.180728 0.572442 0.353216
0.208865 0.595880 0.375067
0.218357 0.595239 0.374182
0.232120 0.594263 0.372808
0.249363 0.592798 0.370855
0.269718 0.591150 0.368536
0.275425 0.588586 0.355077
0.271611 0.585626 0.332280
0.268009 0.582757 0.305913
0.288426 0.577935 0.295384
0.312902 0.572229 0.286656
0.337194 0.565576 0.277043
0.370367 0.563592 0.268742
0.406561 0.562585 0.260166
0.442725 0.560784 0.250340
0.478767 0.558343 0.239475
0.514214 0.555596 0.227726
0.549248 0.552819 0.215000
0.607385 0.573754 0.208438
0.662806 0.592035 0.193545
0.705592 0.599512 0.181796
0.744411 0.604181 0.170138
0.782193 0.608728 0.156130
0.819181 0.613123 0.138521
0.855894 0.618036 0.115724
0.892699 0.623774 0.083009
0.930419 0.631006 0.000000
0.969970 0.640528 0.000000
1.000000 0.659724 0.035950
1.000000 0.682887 0.128023
1.000000 0.710170 0.199557
0.211490 0.607874 0.386206
0.217716 0.610895 0.389136
0.225132 0.613733 0.391821
0.236515 0.616052 0.393896
0.251072 0.617273 0.394812
0.267857 0.617090 0.394354
0.286778 0.616083 0.392615
0.301213 0.614221 0.386175
0.297642 0.611780 0.365942
0.293889 0.609155 0.342077
0.298772 0.605859 0.321141
0.321843 0.600732 0.313054
0.344793 0.594659 0.303655
0.368139 0.588067 0.293400
0.402228 0.586969 0.285252
0.436530 0.585229 0.276127
0.470863 0.583032 0.265995
0.504875 0.580621 0.255131
0.539025 0.578332 0.243809
0.573053 0.576532 0.231968
0.627222 0.595453 0.227604
0.682734 0.615839 0.216648
0.724300 0.624140 0.208347
0.763546 0.630976 0.199374
0.802090 0.637751 0.188510
0.840391 0.644800 0.175296
0.878752 0.652613 0.159548
0.917815 0.661616 0.140810
0.958556 0.672755 0.118441
1.000000 0.686336 0.086275
1.000000 0.704982 0.091524
1.000000 0.731655 0.160281
0.237797 0.633326 0.410895
0.243534 0.635859 0.413581
0.250340 0.638361 0.416114
0.260563 0.640284 0.418128
0.273838 0.641352 0.419135
0.289006 0.641169 0.418555
0.306188 0.640192 0.417304
0.325444 0.638880 0.415320
0.324712 0.636957 0.398932
0.321019 0.634882 0.377417
0.317479 0.632868 0.352514
0.333806 0.628901 0.340673
0.355444 0.623468 0.331762
0.377203 0.617365 0.321904
0.402197 0.612329 0.311986
0.434760 0.610803 0.303532
0.467262 0.608820 0.294072
0.499947 0.606653 0.284062
0.532738 0.604669 0.273564
0.565789 0.603113 0.262852
0.598840 0.601953 0.252049
0.649500 0.619135 0.249821
0.704097 0.640711 0.243229
0.744900 0.650172 0.237827
0.784787 0.659144 0.230991
0.824308 0.668208 0.222507
0.863767 0.677729 0.213199
0.903899 0.688441 0.203220
0.945556 0.701015 0.192721
0.989563 0.715908 0.181582
1.000000 0.733547 0.170016
1.000000 0.754147 0.157473
0.265415 0.657343 0.435737
0.271092 0.659602 0.438361
0.277409 0.661830 0.440803
0.286809 0.663539 0.442725
0.298955 0.664454 0.443732
0.312505 0.664210 0.443366
0.327977 0.663325 0.442267
0.345342 0.662074 0.440558
0.353033 0.660548 0.431189
0.349218 0.658747 0.412024
0.345281 0.657008 0.389563
0.347570 0.654536 0.368536
0.367590 0.649897 0.360174
0.388067 0.644678 0.350835
0.408820 0.638911 0.340856
0.436011 0.635981 0.332097
0.468086 0.635157 0.324529
0.500542 0.634577 0.316625
0.533440 0.634241 0.308598
0.566705 0.634363 0.300694
0.600122 0.634852 0.292485
0.633509 0.635706 0.284184
0.681300 0.651637 0.285222
0.735561 0.675074 0.284367
0.778103 0.687922 0.282506
0.819974 0.700374 0.279454
0.861631 0.713008 0.275883
0.903685 0.726406 0.272282
0.947143 0.741329 0.269322
0.992706 0.758389 0.267338
1.000000 0.777890 0.266545
1.000000 0.795285 0.264317
0.308293 0.689143 0.471138
0.311955 0.690028 0.472206
0.315892 0.690730 0.473060
0.322637 0.691066 0.473487
0.332128 0.690913 0.473548
0.343725 0.690272 0.472816
0.357488 0.689357 0.471931
0.373449 0.688350 0.470802
0.388800 0.687465 0.468055
0.385748 0.686458 0.451911
0.382727 0.685542 0.432959
0.379065 0.684382 0.410071
0.391272 0.681209 0.397436
0.409888 0.676814 0.388891
0.428931 0.671839 0.379339
0.448341 0.666438 0.369085
0.476814 0.665064 0.361639
0.507012 0.664271 0.354192
0.537560 0.663691 0.346563
0.568536 0.663325 0.338811
0.599664 0.663172 0.330968
0.630762 0.663264 0.322759
0.661555 0.663386 0.314183
0.704738 0.676509 0.314855
0.759457 0.701991 0.316777
0.802548 0.716854 0.316899
0.845701 0.731960 0.316747
0.889220 0.747646 0.317144
0.933806 0.764614 0.318639
0.980377 0.783383 0.321447
1.000000 0.804593 0.325902
1.000000 0.823453 0.328985
0.339239 0.710628 0.495766
0.342565 0.711543 0.496925
0.346380 0.712337 0.497993
0.352667 0.712703 0.498482
0.361089 0.712581 0.498604
0.371221 0.711910 0.497993
0.383307 0.710903 0.497108
0.397498 0.709834 0.496040
0.413764 0.708797 0.495186
0.415717 0.707881 0.484077
0.412634 0.707118 0.467506
0.409277 0.706203 0.447761
0.409216 0.704677 0.427741
0.426246 0.701076 0.420081
0.444038 0.697108 0.411749
0.462318 0.692836 0.402655
0.482673 0.689082 0.393744
0.511254 0.688838 0.387671
0.540398 0.688746 0.381506
0.570062 0.688930 0.375006
0.600214 0.689509 0.368872
0.630579 0.690333 0.362402
0.660975 0.691432 0.355779
0.691188 0.692683 0.348669
0.725734 0.698970 0.341711
0.781765 0.727169 0.346990
0.826230 0.744717 0.349737
0.870970 0.762692 0.353368
0.916625 0.781613 0.357916
0.964233 0.802335 0.364355
1.000000 0.826200 0.373816
1.000000 0.849363 0.383581
0.382025 0.739956 0.529808
0.385321 0.741085 0.531182
0.388617 0.741695 0.532006
0.393500 0.741695 0.532128
0.400153 0.741146 0.531731
0.408392 0.740139 0.530785
0.418463 0.738735 0.529503
0.430091 0.737148 0.527977
0.443549 0.735500 0.526482
0.451179 0.733913 0.520226
0.447120 0.732296 0.504631
0.443061 0.730922 0.486824
0.438788 0.729458 0.466102
0.446540 0.726345 0.452827
0.461402 0.721981 0.444221
0.476814 0.717281 0.434821
0.493050 0.712490 0.425025
0.514244 0.709712 0.416876
0.541436 0.709804 0.411139
0.570001 0.710597 0.405921
0.599176 0.711940 0.401190
0.628717 0.713436 0.395911
0.657984 0.714809 0.390173
0.686793 0.715816 0.383459
0.714931 0.716518 0.375860
0.752895 0.727321 0.375860
0.808438 0.756771 0.385473
0.855894 0.778378 0.390204
0.902281 0.799100 0.397040
0.950744 0.821683 0.405890
1.000000 0.847715 0.418372
1.000000 0.873228 0.431403
0.411048 0.761929 0.554101
0.414191 0.763058 0.555474
0.417151 0.763729 0.556268
0.421576 0.763790 0.556573
0.427527 0.763302 0.556207
0.435035 0.762478 0.555566
0.444373 0.761410 0.554711
0.455238 0.760220 0.553704
0.467903 0.759030 0.552819
0.482124 0.758022 0.552087
0.478920 0.757046 0.538750
0.475929 0.756313 0.523644
0.472694 0.755520 0.506249
0.471015 0.754299 0.487495
0.484993 0.750912 0.480323
0.499641 0.747158 0.472602
0.515068 0.743343 0.464576
0.531609 0.739742 0.456428
0.555047 0.739315 0.450904
0.581872 0.740566 0.446571
0.609613 0.742245 0.442603
0.637842 0.744228 0.438422
0.666072 0.746151 0.433845
0.694118 0.747860 0.428534
0.721859 0.749355 0.422461
0.749203 0.750668 0.415564
0.785275 0.760952 0.415930
0.841062 0.792294 0.430823
0.893309 0.819638 0.439460
0.943847 0.845518 0.451698
0.998077 0.874266 0.466835
1.000000 0.895201 0.474739
0.444526 0.788022 0.582666
0.446967 0.788846 0.583642
0.449073 0.789120 0.584039
0.452613 0.788846 0.583886
0.457343 0.788113 0.583215
0.463661 0.787076 0.582300
0.471656 0.785855 0.581231
0.481300 0.784665 0.580255
0.492836 0.783597 0.579461
0.505974 0.782834 0.579065
0.509606 0.782193 0.571496
0.507439 0.781949 0.558679
0.504997 0.781704 0.543694
0.502037 0.781216 0.526085
0.508202 0.779263 0.514153
0.521904 0.776150 0.507561
0.536309 0.772885 0.500420
0.551781 0.769894 0.493416
0.568719 0.767483 0.486824
0.593957 0.769009 0.483223
0.620294 0.771054 0.479988
0.647303 0.773434 0.476783
0.674525 0.775784 0.473243
0.701778 0.778103 0.469154
0.728878 0.780240 0.464363
0.755734 0.782193 0.458930
0.782620 0.784268 0.453193
0.816953 0.794003 0.453559
0.873075 0.827268 0.473426
0.931121 0.861173 0.486458
0.986389 0.892363 0.503227
1.000000 0.915068 0.512535
0.474525 0.813016 0.609247
0.476387 0.813565 0.609888
0.478309 0.813809 0.610285
0.481575 0.813748 0.610285
0.486580 0.813535 0.610224
0.493355 0.813413 0.610376
0.502434 0.813809 0.611109
0.513542 0.814572 0.612299
0.526574 0.815763 0.614008
0.540978 0.817350 0.616052
0.552544 0.819150 0.615442
0.553185 0.821134 0.606470
0.553399 0.822904 0.595483
0.553002 0.824277 0.582208
0.552453 0.825040 0.566674
0.566125 0.823270 0.561975
0.580316 0.821225 0.556786
0.595361 0.819333 0.551446
0.611749 0.817990 0.546685
0.631006 0.818051 0.542626
0.655726 0.820554 0.540246
0.681209 0.823362 0.537896
0.706966 0.826139 0.535119
0.733059 0.828977 0.532097
0.759152 0.831662 0.528527
0.785306 0.834318 0.524529
0.811856 0.837369 0.520592
0.838743 0.840757 0.516594
0.872282 0.851011 0.518059
0.930358 0.887877 0.542748
0.996338 0.930053 0.558526
1.000000 0.933165 0.549126
0.521569 0.852445 0.651240
0.522972 0.852811 0.651637
0.524254 0.852750 0.651606
0.526635 0.852415 0.651270
0.530419 0.851896 0.650690
0.535637 0.851377 0.650202
0.542565 0.851102 0.649958
0.550988 0.851133 0.649897
0.561028 0.851560 0.650141
0.572412 0.852232 0.650538
0.584741 0.853117 0.650813
0.585962 0.854154 0.642786
0.585504 0.855161 0.632227
0.584833 0.856046 0.619867
