data/fiter_cube/12898295/1023047/file.cube
# Created by Adobe Lightroom plugin Export LUT (1.17.0)
# www.johnrellis.com/lightroom/exportlut.htm
# Preset: 经典婚礼摄影_09 云集
# Color profile: C:\Program Files (x86)\Common Files\Adobe\Color\Profiles\Recommended\AdobeRGB1998.icc
LUT_3D_SIZE 8
DOMAIN_MIN 0.000000 0.000000 0.000000
DOMAIN_MAX 0.903226 0.903226 0.903226
0.000000 0.000000 0.000000
0.100038 0.011048 0.034913
0.262303 0.000000 0.060914
0.466804 0.000000 0.058991
0.631891 0.000000 0.063050
0.770748 0.103914 0.107057
0.875822 0.262455 0.183993
0.981445 0.399359 0.298192
0.033997 0.083162 0.073793
0.081331 0.087160 0.063752
0.250614 0.083558 0.025788
0.445075 0.000000 0.013519
0.613916 0.000000 0.005341
0.752529 0.143648 0.076326
0.858488 0.264897 0.157107
0.969726 0.397467 0.274846
0.010559 0.215763 0.131746
0.069795 0.217990 0.116182
0.179141 0.214603 0.092470
0.421790 0.246525 0.000000
0.615900 0.245579 0.000000
0.751736 0.282444 0.000000
0.872404 0.361486 0.112703
0.985260 0.463020 0.258000
0.030396 0.379767 0.214450
0.110750 0.379248 0.211643
0.168276 0.369696 0.165042
0.338140 0.388800 0.141329
0.593042 0.446418 0.024506
0.754269 0.436622 0.000000
0.866484 0.466560 0.000000
0.981445 0.531762 0.174990
0.148165 0.539422 0.324773
0.185336 0.538140 0.322393
0.223636 0.532433 0.277195
0.317357 0.518029 0.237675
0.471321 0.516289 0.201541
0.676081 0.564172 0.147189
0.829343 0.578546 0.037842
0.972686 0.617548 0.000000
0.265415 0.657343 0.435737
0.298955 0.664454 0.443732
0.353033 0.660548 0.431189
0.367590 0.649897 0.360174
0.468086 0.635157 0.324529
0.600122 0.634852 0.292485
0.778103 0.687922 0.282506
0.947143 0.741329 0.269322
0.411048 0.761929 0.554101
0.427527 0.763302 0.556207
0.467903 0.759030 0.552819
0.472694 0.755520 0.506249
0.515068 0.743343 0.464576
0.609613 0.742245 0.442603
0.721859 0.749355 0.422461
0.893309 0.819638 0.439460
0.551324 0.882292 0.680232
0.559167 0.882017 0.679744
0.587640 0.883696 0.680079
0.616968 0.891051 0.668849
0.613153 0.876249 0.610437
0.684657 0.882200 0.604913
0.788632 0.903044 0.605280
0.894591 0.921813 0.598474
0.027771 0.024689 0.091676
0.084993 0.025910 0.091157
0.235264 0.000000 0.108522
0.434668 0.000000 0.112551
0.607294 0.000000 0.108980
0.743587 0.107515 0.121309
0.850523 0.238804 0.157931
0.960388 0.374029 0.271580
0.027588 0.077638 0.100404
0.089937 0.091798 0.109529
0.233951 0.095399 0.110628
0.427497 0.066072 0.107576
0.598962 0.056916 0.103334
0.734585 0.152895 0.112581
0.838071 0.248753 0.139254
0.948425 0.372107 0.249149
0.031678 0.206973 0.156069
0.104646 0.215732 0.161654
0.188296 0.216953 0.134768
0.416663 0.235599 0.088685
0.595026 0.238987 0.079927
0.729519 0.271946 0.090883
0.840787 0.334020 0.126589
0.958770 0.432593 0.225986
0.066102 0.366339 0.230991
0.124361 0.368719 0.232242
0.184665 0.367224 0.196628
0.323583 0.368048 0.168765
0.556481 0.411414 0.106569
0.719173 0.406378 0.000000
0.831876 0.435523 0.077729
0.953979 0.503471 0.159396
0.159060 0.532372 0.339239
0.191684 0.529808 0.335760
0.248417 0.523186 0.306249
0.310369 0.500603 0.251194
0.452674 0.496010 0.215274
0.657893 0.545647 0.167361
0.813016 0.560266 0.098360
0.954131 0.600061 0.096620
0.260655 0.646509 0.437537
0.283268 0.646296 0.437018
0.349218 0.643732 0.432837
0.360571 0.636011 0.363378
0.459419 0.623804 0.331304
0.594263 0.628016 0.304417
0.770291 0.679500 0.292180
0.934997 0.727596 0.271733
0.392920 0.747219 0.544518
0.403723 0.744686 0.541894
0.447883 0.742519 0.540764
0.468269 0.742458 0.506615
0.507897 0.734157 0.464271
0.598810 0.731228 0.440131
0.706996 0.734585 0.415076
0.875181 0.800748 0.425483
0.538750 0.870848 0.672724
0.548760 0.872221 0.674037
0.578790 0.874662 0.675532
0.615381 0.882719 0.669825
0.625360 0.887694 0.626642
0.689662 0.886778 0.614313
0.784054 0.898314 0.605890
0.885130 0.911803 0.593957
0.026001 0.061311 0.194583
0.103151 0.059785 0.202457
0.227665 0.059358 0.207126
0.442420 0.050782 0.237125
0.604486 0.108461 0.255253
0.742580 0.212345 0.278264
0.852201 0.299779 0.298619
0.966766 0.399390 0.336858
0.023896 0.095064 0.197665
0.107973 0.111360 0.208499
0.225925 0.124819 0.215518
0.427802 0.136080 0.240116
0.598962 0.160433 0.253452
0.734096 0.229923 0.268406
0.843229 0.307073 0.286961
0.960235 0.404150 0.326513
0.014984 0.194797 0.218845
0.100862 0.206271 0.224308
0.225071 0.238346 0.240299
0.415351 0.248295 0.239231
0.600275 0.273045 0.247044
0.730434 0.310369 0.255955
0.839567 0.365484 0.274479
0.957641 0.446357 0.314153
0.072297 0.374670 0.299229
0.138338 0.379339 0.302586
0.259281 0.391974 0.309697
0.358892 0.387640 0.268376
0.582513 0.416754 0.231083
0.722683 0.422553 0.229404
0.836118 0.455756 0.253025
0.957580 0.518364 0.295262
0.167758 0.533318 0.390417
0.209537 0.534051 0.392065
0.306493 0.533806 0.392645
0.355779 0.519341 0.338201
0.479072 0.510948 0.302098
0.670954 0.551049 0.264805
0.820768 0.558343 0.220890
0.954101 0.604456 0.257267
0.273472 0.647517 0.475532
0.299962 0.647425 0.476814
0.367163 0.644404 0.475135
0.403967 0.637446 0.431800
0.468666 0.620020 0.384955
0.594079 0.623133 0.358648
0.768124 0.674250 0.347631
0.940032 0.725917 0.333410
0.406287 0.750454 0.572686
0.419165 0.748867 0.571649
0.459571 0.744778 0.568688
0.509636 0.741238 0.557519
0.521080 0.732998 0.500023
0.602930 0.729824 0.476020
0.714290 0.739376 0.459236
0.890074 0.813474 0.473548
0.537346 0.869932 0.686244
0.543481 0.868650 0.684413
0.572168 0.869200 0.684260
0.626001 0.880919 0.691676
0.630823 0.885801 0.646387
0.691707 0.887388 0.631647
0.785824 0.900420 0.624292
0.891447 0.917693 0.614893
0.041505 0.085847 0.329381
0.124727 0.091066 0.340612
0.280766 0.110536 0.368383
0.421057 0.117189 0.361486
0.612696 0.195560 0.398016
0.730495 0.276738 0.420264
0.828428 0.359655 0.451423
0.946014 0.424140 0.470710
0.076143 0.134463 0.335790
0.134768 0.141604 0.344182
0.280339 0.165774 0.370855
0.420783 0.176791 0.368719
0.609949 0.238743 0.404852
0.724331 0.299474 0.421210
0.823850 0.367010 0.444984
0.943633 0.429297 0.463874
0.000000 0.200626 0.321813
0.092195 0.207492 0.324376
0.251408 0.255497 0.360082
0.412451 0.292210 0.383459
0.598016 0.337102 0.420447
0.718837 0.379126 0.439429
0.835294 0.425910 0.453315
0.953918 0.475837 0.465705
0.018616 0.340917 0.365362
0.118044 0.348730 0.369604
0.249821 0.373175 0.383307
0.404852 0.411902 0.407874
0.575006 0.424964 0.408606
0.706722 0.445014 0.411810
0.823087 0.477485 0.422309
0.950530 0.530938 0.444892
0.183017 0.540032 0.472419
0.228519 0.541985 0.474464
0.328588 0.542901 0.475074
0.439460 0.543999 0.473732
0.511894 0.528649 0.423468
0.688960 0.553918 0.394934
0.820706 0.566094 0.392950
0.951263 0.610590 0.417914
0.300603 0.656886 0.540429
0.333532 0.662043 0.546838
0.398779 0.657618 0.544366
0.481392 0.653193 0.540398
0.510704 0.636561 0.484535
0.611780 0.632441 0.453742
0.778042 0.676936 0.439216
0.949096 0.718105 0.415991
0.416754 0.751247 0.611200
0.432624 0.751949 0.612696
0.478614 0.752499 0.614984
0.542138 0.752499 0.615961
0.565332 0.747646 0.575402
0.620478 0.737179 0.540948
0.721736 0.742794 0.519158
0.898802 0.816373 0.525139
0.545373 0.874327 0.717067
0.553765 0.875547 0.717769
0.577844 0.877012 0.716487
0.620783 0.881498 0.715236
0.662074 0.886198 0.699031
0.694789 0.889830 0.661189
0.785367 0.901701 0.651698
0.896483 0.921782 0.643000
0.120943 0.134401 0.474708
0.175662 0.141024 0.481758
0.310094 0.161746 0.500328
0.485176 0.208835 0.532830
0.592523 0.232151 0.518883
0.729976 0.348913 0.547234
0.824949 0.411963 0.563592
0.933715 0.480476 0.598566
0.135317 0.175418 0.473304
0.184787 0.182895 0.481788
0.312108 0.204074 0.501091
0.484474 0.251987 0.533959
0.591272 0.271489 0.522850
0.727352 0.372625 0.550866
0.823301 0.427527 0.566461
0.932769 0.489662 0.599390
0.058259 0.227817 0.451179
0.135897 0.240818 0.461707
0.290959 0.283604 0.486793
0.468696 0.341436 0.530602
0.582238 0.365515 0.530175
0.712917 0.428779 0.554101
0.813138 0.467201 0.569116
0.926146 0.513024 0.596063
0.060426 0.333196 0.460334
0.122683 0.337652 0.461433
0.235080 0.352667 0.466407
0.423590 0.419165 0.512474
0.571496 0.470008 0.542992
0.699001 0.503105 0.564080
0.804715 0.525170 0.575708
0.931975 0.546960 0.580865
0.143435 0.480873 0.507134
0.186099 0.484718 0.509026
0.290288 0.495857 0.513664
0.418097 0.515892 0.524468
0.543542 0.543694 0.541436
0.678584 0.553643 0.540978
0.800259 0.571740 0.544060
0.935119 0.605280 0.552422
0.272099 0.634730 0.581415
0.302037 0.636408 0.583276
0.385321 0.640375 0.587854
0.482460 0.644770 0.592554
0.558038 0.639643 0.581964
0.620447 0.630945 0.540734
0.787259 0.667536 0.528771
0.946105 0.700252 0.526757
0.425696 0.747860 0.655482
0.438209 0.746883 0.654780
0.480323 0.745846 0.654566
0.541985 0.746975 0.655573
0.604761 0.747555 0.650416
0.629511 0.734249 0.601343
0.720241 0.735958 0.576410
0.900786 0.804929 0.571313
0.534966 0.861143 0.739284
0.541985 0.861051 0.738827
0.565789 0.862058 0.737758
0.611566 0.875029 0.744137
0.662959 0.881437 0.738460
0.692988 0.887938 0.697932
0.773739 0.893492 0.680720
0.888731 0.911742 0.668421
0.239933 0.208927 0.609796
0.274632 0.214420 0.612665
0.372351 0.231144 0.620081
0.508995 0.272404 0.637629
0.638849 0.329747 0.659205
0.710567 0.363592 0.636042
0.824247 0.468666 0.663874
0.929473 0.523400 0.691951
0.237064 0.234684 0.600244
0.269200 0.239139 0.602991
0.366339 0.256229 0.613214
0.502495 0.296178 0.632502
0.634302 0.354284 0.656214
0.705776 0.382361 0.634607
0.821042 0.480781 0.663996
0.927031 0.529534 0.691096
0.221469 0.300664 0.591150
0.256413 0.307286 0.594171
0.355505 0.327367 0.607141
0.499092 0.374792 0.634363
0.635248 0.439490 0.661585
0.702602 0.451850 0.642481
0.819089 0.527550 0.673701
0.926726 0.557305 0.695430
0.117769 0.351354 0.567742
0.153384 0.351690 0.565881
0.280186 0.378149 0.586206
0.470832 0.451118 0.625727
0.628534 0.527123 0.666224
0.704036 0.544732 0.661036
0.820188 0.587884 0.689418
0.931579 0.598932 0.702388
0.176516 0.474952 0.591058
0.206180 0.476753 0.591089
0.286259 0.482277 0.591058
0.388159 0.490425 0.591455
0.560418 0.550896 0.630365
0.685664 0.604944 0.660517
0.803922 0.627161 0.682856
0.926329 0.633265 0.690242
0.255070 0.595239 0.620356
0.282078 0.598871 0.622919
0.352575 0.604273 0.625177
0.447486 0.613611 0.629267
0.548974 0.627466 0.635859
0.659327 0.655634 0.654627
0.792081 0.670771 0.659510
0.938262 0.693416 0.662379
0.396246 0.736141 0.694514
0.415900 0.738430 0.696956
0.469947 0.741695 0.700496
0.548730 0.749966 0.708949
0.625025 0.760647 0.716823
0.682216 0.757992 0.702968
0.735866 0.743526 0.656153
0.928191 0.801419 0.645655
0.539574 0.859678 0.780148
0.546105 0.859495 0.779660
0.568872 0.860472 0.779141
0.607630 0.867124 0.781430
0.657069 0.875395 0.780575
0.721187 0.886381 0.774624
0.768765 0.891966 0.731777
0.888640 0.908171 0.714809
0.365667 0.305241 0.712459
0.387976 0.306706 0.713985
0.453254 0.320775 0.717983
0.551354 0.353491 0.728298
0.660395 0.407019 0.742550
0.744228 0.432624 0.748257
0.801663 0.462928 0.727138
0.915465 0.546349 0.762112
0.366613 0.323033 0.710933
0.387121 0.326574 0.712123
0.451667 0.340032 0.716426
0.549157 0.371405 0.726864
0.658228 0.423346 0.741573
0.743557 0.450965 0.748806
0.800900 0.477333 0.728511
0.915221 0.554833 0.763363
0.355383 0.375769 0.706203
0.376806 0.379797 0.707942
0.444007 0.394629 0.713832
0.541802 0.423957 0.724178
0.652003 0.472236 0.740230
0.742885 0.507134 0.752285
0.800259 0.523796 0.735134
0.916716 0.584039 0.769406
0.263798 0.408545 0.693294
0.289158 0.411749 0.694972
0.399023 0.446479 0.703029
0.515526 0.481483 0.715755
0.635645 0.529168 0.735653
0.742733 0.580224 0.758907
0.800229 0.584924 0.745815
0.920165 0.626520 0.778378
0.247562 0.496254 0.687373
0.264286 0.495857 0.686671
0.315160 0.493721 0.684199
0.414771 0.502342 0.690639
0.590387 0.568933 0.720607
0.730495 0.636347 0.760525
0.800656 0.646265 0.758419
0.923919 0.675715 0.788174
0.311284 0.606378 0.706325
0.325994 0.606683 0.706111
0.372076 0.607630 0.705379
0.438422 0.608026 0.703822
0.515221 0.605829 0.700038
0.670436 0.657984 0.734524
0.799619 0.713405 0.773007
0.928069 0.730648 0.795621
0.387030 0.707576 0.732082
0.399420 0.708339 0.732387
0.439673 0.710933 0.733425
0.501213 0.715877 0.735592
0.577356 0.724147 0.739590
0.662531 0.738369 0.747768
0.773068 0.767971 0.767788
0.933806 0.786557 0.772519
0.489387 0.840665 0.805570
0.498787 0.842588 0.807218
0.530632 0.847471 0.811215
0.580621 0.855924 0.817594
0.647913 0.869932 0.827604
0.731106 0.888701 0.839841
0.806058 0.902190 0.834043
0.895171 0.907927 0.789120
0.532006 0.474952 0.845670
0.544549 0.475319 0.846220
0.585138 0.476051 0.847623
0.647425 0.481483 0.849577
0.721157 0.502983 0.851957
0.801541 0.537163 0.857176
0.863767 0.534844 0.857847
0.913634 0.556359 0.836179
0.535027 0.476112 0.846616
0.547173 0.476478 0.847135
0.585992 0.480262 0.848264
0.645869 0.492256 0.849577
0.719875 0.513237 0.852079
0.800565 0.546441 0.857511
0.863432 0.545098 0.858518
0.913634 0.564233 0.837278
0.527672 0.507500 0.848081
0.539147 0.508873 0.848264
0.577386 0.513878 0.848631
0.639002 0.525139 0.850095
0.714870 0.545006 0.852995
0.797024 0.575280 0.859220
0.862913 0.577844 0.861692
0.914427 0.590295 0.841794
0.477119 0.538079 0.847715
0.498634 0.545769 0.848203
0.550835 0.557885 0.849088
0.618952 0.568536 0.850736
0.701076 0.586755 0.854612
0.788571 0.614191 0.862272
0.862486 0.624872 0.867979
0.916716 0.630121 0.850004
0.412543 0.590265 0.839750
0.424506 0.589776 0.840604
0.465370 0.588037 0.843687
0.547356 0.596155 0.850217
0.665064 0.626184 0.855741
0.768582 0.653468 0.865293
0.861570 0.683131 0.877409
0.920348 0.684413 0.862577
0.441077 0.683742 0.849699
0.447822 0.682765 0.849516
0.470344 0.678950 0.848875
0.506828 0.670008 0.847715
0.568872 0.657130 0.849454
0.720424 0.692164 0.866239
0.854612 0.746395 0.888334
0.926696 0.754574 0.881651
0.483314 0.775662 0.866545
0.489235 0.775448 0.866575
0.509087 0.774563 0.866636
0.542779 0.772519 0.866941
0.589502 0.767910 0.867247
0.649622 0.756619 0.866484
0.801144 0.784817 0.886107
0.936339 0.840635 0.909087
0.526848 0.862455 0.888670
0.531945 0.862821 0.888914
0.549523 0.864225 0.889860
0.581018 0.867216 0.891844
0.629114 0.872374 0.895201
0.697719 0.881071 0.900664
0.793759 0.897063 0.910369
0.936187 0.933928 0.934020
