data/fiter_cube/72007313/1022717/file.cube
# Created by Adobe Lightroom plugin Export LUT (1.17.0)
# www.johnrellis.com/lightroom/exportlut.htm
# Preset: 高级电影暗青色_06 云集
# Color profile: C:\Program Files (x86)\Common Files\Adobe\Color\Profiles\Recommended\AdobeRGB1998.icc
LUT_3D_SIZE 5
DOMAIN_MIN 0.000000 0.000000 0.000000
DOMAIN_MAX 0.903226 0.903226 0.903226
0.000000 0.000000 0.000000
0.139864 0.009339 0.015229
0.450294 0.000000 0.000000
0.711360 0.000000 0.000000
0.800351 0.086122 0.029328
0.014771 0.125673 0.051789
0.133272 0.136660 0.046967
0.467231 0.000000 0.000000
0.711452 0.000000 0.000000
0.799344 0.204013 0.031495
0.000000 0.422675 0.142153
0.231998 0.441016 0.168826
0.450233 0.419867 0.132448
0.708034 0.402594 0.000000
0.792569 0.381140 0.050996
0.267979 0.683467 0.370153
0.415412 0.680659 0.405768
0.617121 0.686091 0.516258
0.669337 0.639612 0.344274
0.765621 0.601373 0.320623
0.572107 0.732784 0.591608
0.617243 0.726802 0.619562
0.681971 0.717952 0.669215
0.701381 0.715297 0.682185
0.716732 0.713100 0.631800
0.004395 0.031617 0.086366
0.148348 0.053437 0.089113
0.444160 0.000000 0.071839
0.699519 0.000000 0.000000
0.799039 0.111666 0.005798
0.018891 0.139528 0.115724
0.165682 0.157626 0.114443
0.460182 0.110780 0.092226
0.700710 0.103182 0.020447
0.797787 0.207858 0.000000
0.000000 0.419440 0.200595
0.254429 0.435492 0.227573
0.453834 0.419532 0.196963
0.701442 0.403357 0.122133
0.788540 0.405615 0.158541
0.277073 0.679835 0.407599
0.422370 0.677241 0.437812
0.619135 0.682856 0.538628
0.668360 0.640589 0.390143
0.761318 0.605737 0.371221
0.563348 0.733577 0.593744
0.610651 0.727474 0.619776
0.684627 0.717617 0.674434
0.702693 0.714931 0.687037
0.715724 0.713222 0.642298
0.000000 0.078126 0.294194
0.148714 0.093385 0.279423
0.496193 0.114870 0.282567
0.688869 0.191501 0.258427
0.787594 0.297734 0.263493
0.000000 0.206912 0.330297
0.186740 0.201114 0.313787
0.496407 0.244266 0.305364
0.691859 0.272557 0.276860
0.785458 0.340856 0.277592
0.000000 0.449592 0.394720
0.232486 0.452827 0.385962
0.521080 0.468574 0.376471
0.694972 0.450965 0.337469
0.775326 0.463905 0.341009
0.232364 0.666773 0.495766
0.378058 0.666896 0.505272
0.610101 0.672663 0.573510
0.667750 0.647150 0.501762
0.749477 0.616754 0.485908
0.536584 0.735164 0.609461
0.584344 0.729885 0.625177
0.673793 0.718502 0.670985
0.704982 0.714290 0.695277
0.713497 0.713039 0.661006
0.000000 0.163302 0.594842
0.128756 0.177523 0.584527
0.520958 0.210178 0.548486
0.700465 0.377783 0.528222
0.742885 0.542840 0.557733
0.000000 0.309331 0.602625
0.202243 0.283848 0.594324
0.529168 0.313451 0.556970
0.693660 0.436591 0.537957
0.739040 0.561486 0.566979
0.170047 0.529595 0.626032
0.323003 0.532464 0.621118
0.546624 0.522454 0.596002
0.676081 0.553735 0.566461
0.738674 0.586633 0.572717
0.326238 0.678798 0.645899
0.414038 0.675441 0.641962
0.574426 0.667781 0.631830
0.678737 0.665919 0.624262
0.731319 0.644800 0.604700
0.515221 0.734646 0.656153
0.550988 0.730953 0.657923
0.644099 0.721157 0.672572
0.703212 0.714534 0.696468
0.711177 0.713405 0.683589
0.161746 0.321172 0.719936
0.309392 0.337713 0.717281
0.540124 0.395056 0.707698
0.692317 0.491341 0.694057
0.726650 0.621424 0.660090
0.288762 0.417151 0.716182
0.355505 0.412634 0.714717
0.547478 0.456184 0.705837
0.687617 0.523491 0.692439
0.724208 0.634302 0.664637
0.384314 0.563226 0.712001
0.450324 0.568627 0.709834
0.573693 0.583520 0.703120
0.677394 0.602899 0.692042
0.717708 0.668360 0.678309
0.483040 0.661677 0.707179
0.522484 0.664790 0.705959
0.613001 0.676692 0.702998
0.683223 0.688380 0.698451
0.711727 0.698726 0.692256
0.579156 0.718349 0.704250
0.598657 0.718013 0.703853
0.652888 0.716793 0.702724
0.694789 0.715358 0.701808
0.708064 0.713527 0.701472
