data/fiter_cube/72007313/1022717/file.cube
# Created by Adobe Lightroom plugin Export LUT (1.17.0)
# www.johnrellis.com/lightroom/exportlut.htm
# Preset: 高级电影暗青色_06 云集
# Color profile: C:\Program Files (x86)\Common Files\Adobe\Color\Profiles\Recommended\AdobeRGB1998.icc
LUT_3D_SIZE 32
DOMAIN_MIN 0.0 0.0 0.0
DOMAIN_MAX 1.0 1.0 1.0
0.000000 0.000000 0.000000
0.000000 0.000000 0.000000
0.011292 0.001587 0.001740
0.040253 0.004852 0.006134
0.067170 0.012665 0.009735
0.086183 0.019959 0.014038
0.110323 0.020111 0.015595
0.139864 0.009339 0.015229
0.174166 0.000000 0.014588
0.212528 0.000000 0.010163
0.255222 0.000000 0.005707
0.301579 0.000000 0.000000
0.350744 0.000000 0.000000
0.400916 0.000000 0.000000
0.450294 0.000000 0.000000
0.499184 0.000000 0.000000
0.549676 0.000000 0.000000
0.593103 0.000000 0.000000
0.629633 0.000000 0.000000
0.661006 0.000000 0.000000
0.688045 0.000000 0.000000
0.711360 0.000000 0.000000
0.731380 0.000000 0.000000
0.749050 0.000000 0.000000
0.764340 0.000000 0.000000
0.777157 0.000000 0.000000
0.787350 0.000000 0.000000
0.795041 0.000000 0.000000
0.800351 0.086122 0.029328
0.803647 0.150637 0.085115
0.805264 0.199649 0.120699
0.805447 0.245274 0.156771
0.000000 0.000000 0.000000
0.001190 0.000977 0.000000
0.012299 0.003784 0.001526
0.042145 0.010437 0.005615
0.067170 0.020844 0.010163
0.086275 0.026947 0.013458
0.110445 0.025910 0.015106
0.139712 0.015320 0.015839
0.173770 0.000000 0.014160
0.212070 0.000000 0.010834
0.254368 0.000000 0.005280
0.300450 0.000000 0.000000
0.349279 0.000000 0.000000
0.399298 0.000000 0.000000
0.448371 0.000000 0.000000
0.497414 0.000000 0.000000
0.546746 0.000000 0.000000
0.589685 0.000000 0.000000
0.626276 0.000000 0.000000
0.657954 0.000000 0.000000
0.685298 0.000000 0.000000
0.708949 0.000000 0.000000
0.729305 0.000000 0.000000
0.747250 0.000000 0.000000
0.762783 0.000000 0.000000
0.775998 0.000000 0.000000
0.786526 0.000000 0.000000
0.794430 0.000000 0.000000
0.799985 0.084230 0.020691
0.803433 0.149294 0.082673
0.805203 0.198276 0.118379
0.805539 0.243961 0.154788
0.000946 0.009155 0.001404
0.002960 0.012329 0.002167
0.012726 0.015351 0.003815
0.043000 0.022004 0.005737
0.067597 0.030030 0.010437
0.086946 0.035889 0.013733
0.110689 0.035065 0.015412
0.139925 0.024506 0.015045
0.173953 0.000397 0.013489
0.211978 0.000000 0.010193
0.253941 0.000000 0.005676
0.300053 0.000000 0.000000
0.348730 0.000000 0.000000
0.398566 0.000000 0.000000
0.447578 0.000000 0.000000
0.496803 0.000000 0.000000
0.545495 0.000000 0.000000
0.587976 0.000000 0.000000
0.624567 0.000000 0.000000
0.656275 0.000000 0.000000
0.683894 0.000000 0.000000
0.707759 0.000000 0.000000
0.728237 0.000000 0.000000
0.746304 0.000000 0.000000
0.762020 0.000000 0.000000
0.775326 0.000000 0.000000
0.786038 0.000000 0.000000
0.794095 0.000000 0.000000
0.799741 0.088258 0.017609
0.803281 0.151156 0.080903
0.805081 0.199191 0.117250
0.805570 0.244144 0.153445
0.002869 0.039094 0.008637
0.009094 0.040375 0.009461
0.020569 0.040742 0.011292
0.039368 0.046998 0.011353
0.068452 0.054170 0.011475
0.088289 0.052979 0.013123
0.112215 0.052033 0.014771
0.141726 0.041291 0.014435
0.175479 0.018158 0.012757
0.213169 0.000000 0.009369
0.255192 0.000000 0.003632
0.300725 0.000000 0.000000
0.349340 0.000000 0.000000
0.398840 0.000000 0.000000
0.447669 0.000000 0.000000
0.497200 0.000000 0.000000
0.544671 0.000000 0.000000
0.586481 0.000000 0.000000
0.622583 0.000000 0.000000
0.654139 0.000000 0.000000
0.681788 0.000000 0.000000
0.705745 0.000000 0.000000
0.726589 0.000000 0.000000
0.745022 0.000000 0.000000
0.761135 0.000000 0.000000
0.774899 0.000000 0.000000
0.785794 0.000000 0.000000
0.793942 0.000000 0.000000
0.799619 0.102785 0.014984
0.803128 0.158999 0.080842
0.804898 0.204685 0.117037
0.805447 0.247929 0.153384
0.006989 0.063844 0.019623
0.016114 0.063691 0.020478
0.027771 0.063844 0.021241
0.046662 0.064912 0.023774
0.064057 0.067811 0.022339
0.088777 0.072663 0.015869
0.114046 0.068635 0.013825
0.144015 0.061799 0.012757
0.177371 0.048829 0.010834
0.214878 0.013581 0.007233
0.256260 0.000000 0.001282
0.301793 0.000000 0.000000
0.350072 0.000000 0.000000
0.399115 0.000000 0.000000
0.447913 0.000000 0.000000
0.498146 0.000000 0.000000
0.544823 0.000000 0.000000
0.586389 0.000000 0.000000
0.622400 0.000000 0.000000
0.653773 0.000000 0.000000
0.681086 0.000000 0.000000
0.704952 0.000000 0.000000
0.725795 0.000000 0.000000
0.744320 0.000000 0.000000
0.760586 0.000000 0.000000
0.774350 0.000000 0.000000
0.785336 0.000000 0.000000
0.793545 0.022919 0.000000
0.799283 0.120272 0.009277
0.802792 0.169802 0.079835
0.804654 0.212253 0.116487
0.805234 0.253513 0.152743
0.013489 0.079469 0.030793
0.021302 0.079805 0.030488
0.031586 0.079988 0.031250
0.052644 0.080568 0.033722
0.067842 0.082399 0.034546
0.081453 0.085359 0.031464
0.113191 0.091768 0.021546
0.145266 0.086885 0.014771
0.180056 0.075807 0.009583
0.218448 0.060365 0.003998
0.259800 0.018219 0.000000
0.304997 0.000000 0.000000
0.353063 0.000000 0.000000
0.402045 0.000000 0.000000
0.451148 0.000000 0.000000
0.500847 0.000000 0.000000
0.546838 0.000000 0.000000
0.587732 0.000000 0.000000
0.623407 0.000000 0.000000
0.654627 0.000000 0.000000
0.681880 0.000000 0.000000
0.705684 0.000000 0.000000
0.738766 0.000000 0.000000
0.755245 0.000000 0.000000
0.769345 0.000000 0.000000
0.780850 0.000000 0.000000
0.789731 0.067567 0.000000
0.796262 0.125063 0.000000
0.800656 0.166018 0.049958
0.803311 0.203189 0.094087
0.804532 0.239292 0.129580
0.803983 0.275853 0.165347
0.015503 0.100526 0.043458
0.023133 0.101015 0.043091
0.034852 0.101350 0.042634
0.056794 0.102754 0.043641
0.072816 0.105043 0.048676
0.086946 0.107088 0.046113
0.105409 0.109773 0.039765
0.144747 0.117494 0.025086
0.184451 0.111238 0.013947
0.224247 0.098390 0.005829
0.268528 0.076234 0.000000
0.315282 0.032197 0.000000
0.363470 0.000000 0.000000
0.412360 0.000000 0.000000
0.463691 0.000000 0.000000
0.512383 0.000000 0.000000
0.556878 0.000000 0.000000
0.596429 0.000000 0.000000
0.630976 0.000000 0.000000
0.661494 0.000000 0.000000
0.688533 0.000000 0.000000
0.712520 0.000000 0.000000
0.733425 0.000000 0.000000
0.751797 0.000000 0.000000
0.767239 0.000000 0.000000
0.779507 0.046143 0.000000
0.788785 0.111543 0.000000
0.795468 0.150240 0.000000
0.800046 0.183688 0.040375
0.802792 0.216648 0.092164
0.804074 0.249454 0.127901
0.803677 0.283818 0.164187
0.014771 0.125673 0.051789
0.022400 0.126070 0.051514
0.033753 0.126558 0.051911
0.055756 0.128237 0.051637
0.074678 0.130739 0.056275
0.093416 0.133639 0.059113
0.111391 0.134707 0.054231
0.133272 0.136660 0.046967
0.177676 0.145113 0.027100
0.223972 0.139162 0.009308
0.268009 0.124819 0.000000
0.315984 0.103395 0.000000
0.366155 0.066377 0.000000
0.416815 0.000000 0.000000
0.467231 0.000000 0.000000
0.514427 0.000000 0.000000
0.557916 0.000000 0.000000
0.596826 0.000000 0.000000
0.630884 0.000000 0.000000
0.660975 0.000000 0.000000
0.687800 0.000000 0.000000
0.711452 0.000000 0.000000
0.732265 0.000000 0.000000
0.750576 0.000000 0.000000
0.766049 0.067811 0.000000
0.778439 0.114351 0.000000
0.787808 0.147250 0.000000
0.794675 0.176089 0.000000
0.799344 0.204013 0.031495
0.802152 0.232334 0.089693
0.803525 0.262242 0.126711
0.803220 0.294194 0.163790
0.008759 0.155825 0.060578
0.017456 0.156405 0.060334
0.029603 0.157076 0.060914
0.056275 0.158419 0.061555
0.076265 0.161501 0.063264
0.100008 0.165286 0.067506
0.120943 0.167025 0.066896
0.141390 0.166567 0.062013
0.165713 0.167544 0.054444
0.214176 0.176913 0.028473
0.268070 0.171878 0.000000
0.315984 0.157382 0.000000
0.368017 0.137697 0.000000
0.421393 0.108797 0.000000
0.471717 0.069093 0.000000
0.517510 0.000000 0.000000
0.560021 0.000000 0.000000
0.598077 0.000000 0.000000
0.631617 0.000000 0.000000
0.661463 0.000000 0.000000
0.687984 0.000000 0.000000
0.711360 0.000000 0.000000
0.731899 0.063142 0.000000
0.749935 0.102998 0.000000
0.765255 0.133669 0.000000
0.777615 0.158511 0.000000
0.787045 0.181125 0.000000
0.793912 0.203494 0.000000
0.798642 0.226200 0.020966
0.801480 0.250675 0.088045
0.802853 0.277409 0.126162
0.802640 0.306615 0.163821
0.000000 0.190494 0.067933
0.004913 0.190829 0.068147
0.019440 0.191562 0.068574
0.053040 0.192844 0.069795
0.077668 0.195621 0.071107
0.104829 0.199741 0.075776
0.134035 0.204807 0.081636
0.154086 0.203799 0.076631
0.176211 0.201907 0.070375
0.202182 0.201205 0.062593
0.254429 0.211276 0.035431
0.314458 0.208591 0.000000
0.369177 0.196384 0.000000
0.421485 0.178439 0.000000
0.472297 0.156100 0.000000
0.520653 0.127413 0.000000
0.563867 0.105715 0.000000
0.601160 0.096742 0.000000
0.633967 0.094881 0.000000
0.662898 0.099550 0.000000
0.688624 0.110780 0.000000
0.711330 0.125032 0.000000
0.731411 0.140749 0.000000
0.748959 0.159457 0.000000
0.764096 0.177523 0.000000
0.776394 0.195254 0.000000
0.785977 0.212650 0.000000
0.792996 0.230259 0.000000
0.797787 0.249546 0.011139
0.800717 0.270542 0.086580
0.802152 0.294408 0.126131
0.801846 0.321355 0.165499
0.000000 0.228061 0.077180
0.000000 0.228580 0.077241
0.008118 0.229099 0.077943
0.049836 0.230442 0.079500
0.082673 0.233036 0.083101
0.109621 0.237736 0.086030
0.141787 0.243595 0.092134
0.171176 0.247196 0.095308
0.192782 0.244419 0.088594
0.216037 0.240726 0.080781
0.244785 0.239902 0.071443
0.302129 0.251835 0.047333
0.364080 0.250278 0.000000
0.421027 0.239780 0.000000
0.471229 0.224094 0.000000
0.518883 0.206729 0.000000
0.563226 0.187625 0.000000
0.602472 0.168490 0.000000
0.634852 0.166384 0.000000
0.663142 0.170169 0.000000
0.688411 0.177096 0.000000
0.710780 0.185885 0.000000
0.730709 0.196445 0.000000
0.748409 0.207004 0.000000
0.763516 0.218692 0.000000
0.775692 0.231357 0.000000
0.785122 0.244327 0.000000
0.792081 0.258122 0.000000
0.796902 0.273686 0.000793
0.799802 0.291478 0.085115
0.801266 0.312322 0.126558
0.801022 0.336584 0.166262
0.000000 0.270024 0.088594
0.000000 0.270634 0.088838
0.000000 0.271183 0.089631
0.046326 0.272648 0.091310
0.085756 0.275151 0.095216
0.115938 0.279911 0.098085
0.150301 0.286107 0.104677
0.187167 0.293645 0.113161
0.214908 0.294377 0.111269
0.239261 0.291295 0.103426
0.264378 0.286290 0.093965
0.293370 0.282994 0.082734
0.369360 0.308995 0.064302
0.433173 0.309392 0.000000
0.491188 0.302007 0.000000
0.537774 0.288762 0.000000
0.579675 0.275639 0.000000
0.616419 0.262791 0.000000
0.647913 0.249699 0.000000
0.675349 0.240238 0.000000
0.697932 0.244327 0.000000
0.718135 0.249607 0.000000
0.736233 0.255650 0.000000
0.752377 0.262119 0.000000
0.766293 0.268254 0.000000
0.777646 0.273747 0.000000
0.786130 0.282261 0.000000
0.792325 0.292149 0.000000
0.796567 0.303899 0.016175
0.799130 0.318273 0.092012
0.800351 0.336095 0.133394
0.799619 0.357366 0.173800
0.000000 0.321294 0.103487
0.000000 0.321721 0.104158
0.000000 0.322087 0.105043
0.047547 0.323156 0.107057
0.091188 0.325200 0.110658
0.123812 0.328801 0.113680
0.161654 0.336004 0.120790
0.202609 0.345006 0.130220
0.247257 0.355322 0.141604
0.271794 0.351507 0.132723
0.297917 0.346532 0.123232
0.323827 0.339788 0.112062
0.353399 0.335485 0.099184
0.412116 0.347906 0.076844
0.474739 0.350988 0.018402
0.532128 0.347753 0.000000
0.574426 0.337652 0.000000
0.611017 0.327153 0.000000
0.642847 0.316381 0.000000
0.670802 0.306126 0.000000
0.695552 0.296300 0.000000
0.716579 0.292760 0.000000
0.734463 0.297063 0.000000
0.750484 0.301488 0.000000
0.764340 0.305699 0.000000
0.775723 0.309422 0.000000
0.784634 0.312505 0.000000
0.791073 0.318486 0.000000
0.795377 0.327611 0.001984
0.798062 0.339422 0.089784
0.799344 0.354681 0.132998
0.798611 0.373602 0.174990
0.000000 0.370092 0.120607
0.000000 0.370703 0.121462
0.000000 0.371496 0.122408
0.053986 0.372869 0.124636
0.098085 0.375372 0.128603
0.138247 0.378759 0.134920
0.173800 0.385504 0.139101
0.216770 0.393561 0.148226
0.263554 0.402991 0.160098
0.303777 0.408026 0.165621
0.328099 0.401923 0.154635
0.352789 0.394751 0.143191
0.376379 0.385534 0.129946
0.402838 0.378302 0.114595
0.456245 0.388739 0.092531
0.515038 0.393042 0.054139
0.566735 0.391730 0.000000
0.605463 0.384405 0.000000
0.637476 0.374914 0.000000
0.665614 0.365850 0.000000
0.690669 0.357031 0.000000
0.712795 0.348241 0.000000
0.732570 0.339208 0.000000
0.748836 0.339605 0.000000
0.762600 0.342290 0.000000
0.773892 0.344366 0.000000
0.782803 0.346105 0.000000
0.789548 0.347906 0.000000
0.794217 0.352087 0.000000
0.796872 0.361669 0.089479
0.798215 0.374640 0.134524
0.797391 0.391455 0.178286
0.000000 0.422675 0.142153
0.000000 0.423377 0.142763
0.000000 0.423774 0.143618
0.066102 0.424750 0.145785
0.109010 0.426520 0.149691
0.150118 0.429084 0.155276
0.187320 0.433906 0.159518
0.231998 0.441016 0.168826
0.279667 0.449378 0.180453
0.330419 0.459510 0.195224
0.362158 0.458198 0.192203
0.385046 0.450294 0.179538
0.407202 0.440894 0.165438
0.427436 0.429358 0.150027
0.450233 0.419867 0.132448
0.497353 0.427893 0.110262
0.551202 0.433417 0.078828
0.596796 0.433356 0.003449
0.632288 0.427710 0.000000
0.660548 0.419409 0.000000
0.685695 0.411078 0.000000
0.708034 0.402594 0.000000
0.727932 0.394110 0.000000
0.745663 0.385260 0.000000
0.760800 0.377111 0.000000
0.772061 0.378088 0.000000
0.780941 0.378668 0.000000
0.787686 0.379706 0.000000
0.792569 0.381140 0.050996
0.795682 0.385321 0.092195
0.796933 0.396490 0.139773
0.795834 0.411261 0.184909
0.000000 0.473091 0.166171
0.000000 0.473610 0.167117
0.026062 0.474159 0.167971
0.084108 0.475044 0.170352
0.124331 0.476722 0.174014
0.166049 0.479194 0.179721
0.209873 0.482673 0.187839
0.250767 0.489723 0.193820
0.299931 0.497292 0.206210
0.350896 0.505852 0.221225
0.401648 0.514702 0.238956
0.421576 0.506035 0.224216
0.440681 0.495644 0.207919
0.458534 0.483436 0.190555
0.474281 0.469276 0.171878
0.492836 0.457923 0.151492
0.533654 0.464057 0.129641
0.582116 0.470497 0.102449
0.622614 0.471229 0.067964
0.655818 0.467659 0.000000
0.681239 0.460090 0.000000
0.703761 0.452277 0.000000
0.723964 0.444190 0.000000
0.741848 0.435706 0.000000
0.757259 0.426886 0.000000
0.769863 0.417243 0.000000
0.779294 0.411078 0.023743
0.785824 0.410895 0.069062
0.790524 0.411414 0.094209
0.793698 0.413001 0.116579
0.795651 0.417548 0.144350
0.794308 0.429755 0.190188
0.002991 0.519066 0.193057
0.042512 0.519310 0.193881
0.072419 0.519707 0.194736
0.105745 0.520439 0.197024
0.142977 0.521782 0.200809
0.183658 0.523766 0.206210
0.228092 0.526299 0.214237
0.268162 0.531365 0.219608
0.317235 0.537713 0.232303
0.367315 0.544457 0.247562
0.417914 0.552026 0.265660
0.456001 0.554253 0.273167
0.473457 0.545006 0.256626
0.489601 0.533867 0.237888
0.504204 0.520928 0.217777
0.516564 0.505974 0.196170
0.531731 0.493874 0.173465
0.566125 0.498085 0.152041
0.609522 0.504631 0.129030
0.645350 0.505333 0.104036
0.676051 0.502251 0.075013
0.698726 0.495033 0.065003
0.719020 0.487343 0.059632
0.737179 0.479408 0.059846
0.752865 0.470710 0.065095
0.765682 0.461311 0.075959
0.775753 0.451606 0.089296
0.783352 0.442115 0.104829
0.788205 0.439490 0.124453
0.791287 0.440467 0.145357
0.793332 0.443091 0.167422
0.792721 0.448188 0.196323
0.079530 0.561761 0.224033
0.092348 0.562341 0.224979
0.121370 0.575891 0.237461
0.147311 0.576257 0.239414
0.181003 0.576928 0.243290
0.220005 0.577661 0.248356
0.263005 0.578820 0.256077
0.303105 0.581109 0.261967
0.350347 0.585138 0.273960
0.398993 0.589624 0.289464
0.446387 0.594293 0.307439
0.490883 0.599390 0.327855
0.513420 0.595361 0.322057
0.526879 0.585595 0.301549
0.539391 0.574212 0.279088
0.550805 0.561242 0.255100
0.560815 0.546441 0.229892
0.573236 0.534112 0.204440
0.600641 0.535546 0.182223
0.637629 0.540398 0.162936
0.668635 0.539818 0.143832
0.695399 0.535821 0.124208
0.716365 0.528862 0.116793
0.734127 0.520775 0.115419
0.749416 0.511711 0.117586
0.761929 0.502159 0.122896
0.771847 0.492073 0.131655
0.779385 0.482246 0.143038
0.784848 0.473457 0.157015
0.788663 0.466590 0.173892
0.790524 0.468788 0.196292
0.789975 0.471138 0.218845
0.128817 0.602319 0.260838
0.139590 0.604028 0.263096
0.152804 0.605646 0.265690
0.176883 0.607324 0.269230
0.208530 0.608637 0.274052
0.244999 0.609522 0.280125
0.286168 0.610193 0.287755
0.330694 0.610834 0.298070
0.369635 0.613886 0.305180
0.415625 0.616907 0.320409
0.460426 0.620172 0.337987
0.501518 0.623896 0.357733
0.538201 0.627802 0.379431
0.549126 0.619959 0.359014
0.560174 0.610803 0.336461
0.570886 0.600214 0.312078
0.580926 0.588006 0.286229
0.589990 0.574487 0.259190
0.601465 0.563195 0.232029
0.624445 0.563012 0.210422
0.657252 0.566796 0.194461
0.685145 0.566064 0.179110
0.709560 0.562219 0.164828
0.729274 0.555383 0.156924
0.744747 0.546960 0.158541
0.757504 0.537682 0.162997
0.767483 0.527916 0.170413
0.775113 0.518303 0.180667
0.780606 0.509575 0.194064
0.784360 0.502464 0.210086
0.786954 0.497322 0.228611
0.786526 0.495216 0.249454
0.171267 0.632746 0.294560
0.180575 0.634028 0.296757
0.191775 0.635248 0.299413
0.212406 0.636347 0.303014
0.241306 0.637110 0.307744
0.274693 0.637507 0.313664
0.313085 0.637537 0.321569
0.354955 0.637537 0.331914
0.392279 0.638849 0.339452
0.435096 0.640772 0.354253
0.476143 0.642939 0.371466
0.513878 0.645533 0.390417
0.547356 0.648371 0.410925
0.570459 0.648432 0.419104
0.579156 0.641260 0.397345
0.588373 0.632868 0.373816
0.597711 0.623285 0.347814
0.606836 0.612543 0.320897
0.615564 0.600336 0.292638
0.626520 0.590234 0.264012
0.645960 0.588708 0.241978
0.674861 0.591272 0.229160
0.700191 0.590173 0.217533
0.722133 0.585992 0.206455
0.739986 0.578759 0.198764
0.752804 0.569787 0.202274
0.762905 0.560266 0.208957
0.770504 0.550927 0.218753
0.775967 0.542229 0.231846
0.779660 0.535149 0.248112
0.782193 0.529686 0.265721
0.781796 0.525170 0.285527
0.214664 0.658717 0.329290
0.222934 0.659632 0.331487
0.233036 0.660456 0.334051
0.251804 0.661158 0.337743
0.277043 0.661494 0.342687
0.308293 0.661311 0.348760
0.343633 0.660883 0.356603
0.382269 0.660243 0.367102
0.424109 0.659449 0.381292
0.456611 0.661036 0.390051
0.493538 0.662440 0.406134
0.527245 0.664149 0.424170
0.557519 0.666163 0.443183
0.584588 0.668513 0.463172
0.597528 0.665858 0.458076
0.604547 0.659602 0.436530
0.612482 0.652430 0.413031
0.621118 0.644373 0.387610
0.630121 0.635401 0.360632
0.639124 0.625299 0.332006
0.650263 0.617090 0.303471
0.667170 0.614984 0.281834
0.692653 0.616236 0.271946
0.715236 0.614527 0.263737
0.734127 0.609491 0.256474
0.749081 0.601282 0.249760
0.758785 0.591974 0.256626
0.765957 0.582879 0.266514
0.771023 0.574487 0.279759
0.774319 0.567529 0.296086
0.776333 0.562158 0.313909
0.775296 0.558221 0.334783
0.267979 0.683467 0.370153
0.274052 0.683711 0.371679
0.281987 0.683833 0.373297
0.297032 0.683803 0.376257
0.319585 0.683436 0.380713
0.347478 0.682673 0.386694
0.379583 0.681819 0.394812
0.415412 0.680659 0.405768
0.453803 0.679469 0.420356
0.484749 0.679866 0.431159
0.516442 0.680690 0.446723
0.545983 0.681758 0.463478
0.572473 0.683009 0.480812
0.596216 0.684474 0.498604
0.617121 0.686091 0.516258
0.622431 0.681971 0.500114
0.628016 0.676661 0.479591
0.634577 0.670680 0.456672
0.642115 0.663752 0.431403
0.650263 0.655970 0.403815
0.658747 0.647150 0.374395
0.669337 0.639612 0.344274
0.683986 0.636683 0.321416
0.706111 0.636225 0.312810
0.725612 0.633356 0.307286
0.741176 0.627222 0.302983
0.753079 0.618555 0.299870
0.760678 0.609430 0.306828
0.765621 0.601373 0.320623
0.768734 0.594415 0.336461
0.770443 0.589349 0.354955
0.769039 0.585931 0.376867
0.313298 0.700923 0.404425
0.318975 0.701045 0.405890
0.325811 0.701076 0.407782
0.339727 0.700801 0.410864
0.360082 0.700160 0.415351
0.385077 0.699184 0.421576
0.414008 0.697841 0.429908
0.446021 0.696376 0.440681
0.480385 0.694728 0.454994
0.513115 0.693385 0.471534
0.536797 0.694118 0.482033
0.561975 0.694636 0.496712
0.584833 0.695186 0.511955
0.605646 0.695979 0.527550
0.624292 0.696803 0.543175
0.637507 0.696651 0.550683
0.641230 0.693263 0.534691
0.646021 0.689265 0.516289
0.651850 0.684565 0.495613
0.658717 0.679133 0.472236
0.666438 0.672786 0.445960
0.674861 0.665583 0.417456
0.685389 0.659449 0.387915
0.698573 0.656397 0.364813
0.716365 0.652888 0.353643
0.732692 0.648920 0.351385
0.745144 0.642115 0.350561
0.754238 0.633692 0.351202
0.759945 0.625177 0.359136
0.762936 0.618372 0.375067
0.764340 0.613764 0.394537
0.762509 0.610956 0.417945
0.366461 0.715999 0.442115
0.371710 0.715969 0.443763
0.377844 0.715846 0.445441
0.389837 0.715297 0.448524
0.407111 0.714321 0.453040
0.428656 0.713008 0.459327
0.453956 0.711360 0.467659
0.481300 0.709468 0.478279
0.510307 0.707393 0.491737
0.538781 0.705470 0.507652
0.559289 0.705013 0.517784
0.579644 0.704860 0.529961
0.598749 0.704768 0.542657
0.616236 0.704768 0.555596
0.632166 0.704799 0.568597
0.646448 0.704952 0.581415
0.653254 0.703731 0.579156
0.656062 0.701228 0.564538
0.660090 0.698238 0.548058
0.665309 0.694728 0.529686
0.671626 0.690669 0.508843
0.678981 0.685847 0.485206
0.687221 0.680201 0.458350
0.697505 0.675044 0.429236
0.709224 0.671778 0.405859
0.724422 0.667842 0.399908
0.737118 0.662837 0.400885
0.746273 0.655940 0.403967
0.752651 0.648005 0.407599
0.756771 0.640467 0.414984
0.757778 0.636103 0.434821
0.755550 0.633753 0.458900
0.410864 0.725032 0.472969
0.415564 0.724941 0.474586
0.420905 0.724697 0.476326
0.431281 0.724056 0.479530
0.446387 0.722988 0.484321
0.465461 0.721523 0.490883
0.487373 0.719783 0.499458
0.511254 0.717830 0.510185
0.535851 0.715755 0.523003
0.560327 0.713710 0.537621
0.581567 0.712215 0.551354
0.597192 0.711879 0.560418
0.613275 0.711452 0.571496
0.628046 0.711055 0.582635
0.641657 0.710689 0.593774
0.654047 0.710414 0.604852
0.665126 0.710201 0.615869
0.667506 0.708980 0.607446
0.669642 0.707332 0.594995
0.672847 0.705409 0.581201
0.677241 0.702998 0.565301
0.682765 0.700130 0.547112
0.689479 0.696712 0.526299
0.697383 0.692592 0.502342
0.707362 0.688869 0.476173
0.717891 0.685878 0.454414
0.729213 0.680537 0.450141
0.738308 0.675044 0.454597
0.744411 0.668605 0.460395
0.748409 0.662318 0.468269
0.750393 0.656886 0.478462
0.748074 0.654536 0.500694
0.456306 0.730770 0.504295
0.460365 0.730526 0.505882
0.464668 0.730220 0.507500
0.473091 0.729458 0.510521
0.485573 0.728328 0.515312
0.501396 0.726864 0.521813
0.519554 0.725124 0.529931
0.539391 0.723171 0.539940
0.560143 0.721126 0.551629
0.580682 0.719081 0.564752
0.600519 0.717098 0.579034
0.614221 0.716365 0.587732
0.627436 0.715663 0.597101
0.639948 0.714992 0.606653
0.651423 0.714351 0.616175
0.661921 0.713802 0.625483
0.671321 0.713283 0.634668
0.678309 0.712856 0.640528
0.678950 0.712032 0.631495
0.680354 0.711086 0.621088
0.682795 0.709865 0.609339
0.686275 0.708309 0.595972
0.690944 0.706416 0.580621
0.696834 0.704128 0.562768
0.704067 0.701289 0.542382
0.713313 0.698695 0.520104
0.722774 0.696193 0.501061
0.730678 0.690211 0.497108
0.736721 0.684810 0.503410
0.740505 0.679744 0.512718
0.742275 0.675471 0.524407
0.740749 0.672145 0.539208
0.496773 0.733364 0.533349
0.499672 0.733120 0.534722
0.503502 0.732784 0.536370
0.510491 0.732082 0.539452
0.521263 0.730983 0.544305
0.534600 0.729610 0.550744
0.550347 0.727993 0.559167
0.567620 0.726162 0.569146
0.585626 0.724208 0.580652
0.603540 0.722255 0.593164
0.620935 0.720333 0.606500
0.635676 0.718807 0.618219
0.645960 0.718074 0.625757
0.656031 0.717311 0.633845
0.665248 0.716579 0.641627
0.673457 0.715938 0.649012
0.680751 0.715358 0.656031
0.687098 0.714931 0.662623
0.690028 0.714565 0.663233
0.690211 0.714199 0.656764
0.690944 0.713680 0.649165
0.692378 0.713039 0.640223
0.694667 0.712215 0.629664
0.698054 0.711147 0.617395
0.702663 0.709743 0.602655
0.708675 0.708003 0.585657
0.716579 0.706325 0.567132
0.724392 0.704463 0.552361
0.729397 0.698909 0.549798
0.732815 0.694514 0.557794
0.733822 0.690974 0.569757
0.732021 0.688380 0.584405
0.540734 0.733700 0.566491
0.542870 0.733486 0.567620
0.545525 0.733150 0.568963
0.550896 0.732540 0.571679
0.559106 0.731533 0.575982
0.569512 0.730282 0.581659
0.581781 0.728756 0.588830
0.595239 0.727108 0.597253
0.609522 0.725277 0.606867
0.624018 0.723384 0.617426
0.638209 0.721523 0.628504
0.651881 0.719722 0.640040
0.660395 0.718837 0.646509
0.668086 0.718105 0.652583
