data/fiter_cube/72007313/1022717/file.cube
# Created by Adobe Lightroom plugin Export LUT (1.17.0)
# www.johnrellis.com/lightroom/exportlut.htm
# Preset: 高级电影暗青色_06 云集
# Color profile: C:\Program Files (x86)\Common Files\Adobe\Color\Profiles\Recommended\AdobeRGB1998.icc
LUT_3D_SIZE 8
DOMAIN_MIN 0.000000 0.000000 0.000000
DOMAIN_MAX 0.903226 0.903226 0.903226
0.000000 0.000000 0.000000
0.067170 0.012665 0.009735
0.174166 0.000000 0.014588
0.350744 0.000000 0.000000
0.549676 0.000000 0.000000
0.688045 0.000000 0.000000
0.764340 0.000000 0.000000
0.800351 0.086122 0.029328
0.006989 0.063844 0.019623
0.064057 0.067811 0.022339
0.177371 0.048829 0.010834
0.350072 0.000000 0.000000
0.544823 0.000000 0.000000
0.681086 0.000000 0.000000
0.760586 0.000000 0.000000
0.799283 0.120272 0.009277
0.008759 0.155825 0.060578
0.076265 0.161501 0.063264
0.165713 0.167544 0.054444
0.368017 0.137697 0.000000
0.560021 0.000000 0.000000
0.687984 0.000000 0.000000
0.765255 0.133669 0.000000
0.798642 0.226200 0.020966
0.000000 0.321294 0.103487
0.091188 0.325200 0.110658
0.247257 0.355322 0.141604
0.353399 0.335485 0.099184
0.574426 0.337652 0.000000
0.695552 0.296300 0.000000
0.764340 0.305699 0.000000
0.795377 0.327611 0.001984
0.002991 0.519066 0.193057
0.142977 0.521782 0.200809
0.317235 0.537713 0.232303
0.473457 0.545006 0.256626
0.531731 0.493874 0.173465
0.676051 0.502251 0.075013
0.752865 0.470710 0.065095
0.788205 0.439490 0.124453
0.214664 0.658717 0.329290
0.277043 0.661494 0.342687
0.424109 0.659449 0.381292
0.557519 0.666163 0.443183
0.612482 0.652430 0.413031
0.650263 0.617090 0.303471
0.734127 0.609491 0.256474
0.771023 0.574487 0.279759
0.410864 0.725032 0.472969
0.446387 0.722988 0.484321
0.535851 0.715755 0.523003
0.613275 0.711452 0.571496
0.665126 0.710201 0.615869
0.677241 0.702998 0.565301
0.707362 0.688869 0.476173
0.744411 0.668605 0.460395
0.572107 0.732784 0.591608
0.587213 0.730861 0.600305
0.629358 0.725124 0.628168
0.673976 0.718959 0.664240
0.691676 0.717006 0.677790
0.701198 0.715236 0.685206
0.703883 0.715358 0.668299
0.716732 0.713100 0.631800
0.000000 0.008179 0.041566
0.067842 0.026429 0.043183
0.169802 0.017060 0.039002
0.342504 0.000000 0.011078
0.538781 0.000000 0.000000
0.677150 0.000000 0.000000
0.758572 0.000000 0.000000
0.798978 0.080354 0.001587
0.010620 0.068299 0.055665
0.071534 0.073030 0.055543
0.175113 0.069551 0.050965
0.345617 0.000000 0.016266
0.538018 0.000000 0.000000
0.674678 0.000000 0.000000
0.755947 0.000000 0.000000
0.797787 0.116640 0.000000
0.019379 0.157809 0.079469
0.090730 0.164950 0.085664
0.174716 0.173526 0.081086
0.363684 0.143832 0.031800
0.547265 0.048035 0.000000
0.678279 0.015167 0.000000
0.758511 0.132998 0.000000
0.797177 0.219944 0.000000
0.000000 0.316594 0.124514
0.109316 0.322515 0.132540
0.253483 0.350011 0.161837
0.346746 0.327733 0.121462
0.555047 0.323522 0.013031
0.682948 0.285252 0.000000
0.756619 0.304692 0.000000
0.794125 0.322576 0.000000
0.075929 0.514946 0.213443
0.157565 0.516808 0.218936
0.319402 0.529808 0.246952
0.468971 0.536217 0.270787
0.523796 0.485634 0.188724
0.669886 0.496040 0.110811
0.749294 0.467933 0.100282
0.786648 0.441901 0.142702
0.218906 0.653468 0.339300
0.272038 0.653590 0.346654
0.415076 0.652766 0.380926
0.552789 0.660578 0.443793
0.610651 0.649378 0.422339
0.648646 0.615656 0.316350
0.732418 0.608423 0.271000
0.769863 0.574243 0.290562
0.401007 0.722683 0.472389
0.433204 0.720333 0.480476
0.525933 0.713741 0.517540
0.609705 0.709834 0.569299
0.663966 0.709316 0.615412
0.676417 0.701991 0.567651
0.705531 0.686946 0.477424
0.743862 0.667201 0.459968
0.565209 0.733242 0.588739
0.581445 0.731258 0.597803
0.625330 0.725460 0.625818
0.673060 0.718807 0.663905
0.692927 0.716732 0.680049
0.701717 0.715084 0.686793
0.703944 0.715297 0.669520
0.716518 0.712886 0.632136
0.000000 0.040406 0.107027
0.067384 0.050690 0.104494
0.187716 0.058900 0.108492
0.346197 0.000000 0.101198
0.543267 0.000000 0.087678
0.677760 0.000000 0.072450
0.759182 0.000000 0.031678
0.799649 0.127962 0.022431
0.026368 0.087434 0.117769
0.077607 0.086732 0.115785
0.190066 0.101564 0.116396
0.352544 0.064881 0.107881
0.540887 0.000000 0.095430
0.675227 0.000000 0.076967
0.757046 0.071565 0.045808
0.798611 0.160586 0.040101
0.003143 0.173831 0.143771
0.088258 0.179049 0.142336
0.209476 0.195315 0.141573
0.377722 0.176638 0.127626
0.554467 0.156466 0.114473
0.678889 0.171267 0.095521
0.756435 0.214450 0.080690
0.795987 0.251316 0.088746
0.000000 0.320653 0.181796
0.105196 0.332219 0.187991
0.272953 0.358556 0.215824
0.374640 0.347845 0.188846
0.567803 0.337682 0.147616
0.684077 0.324132 0.126497
0.755276 0.343877 0.125612
0.790951 0.358984 0.145632
0.033722 0.513390 0.265385
0.157626 0.517296 0.272740
0.336980 0.529686 0.303197
0.494911 0.548058 0.345892
0.541344 0.500969 0.257450
0.672816 0.503563 0.205844
0.748470 0.476234 0.193698
0.782712 0.462715 0.221042
0.216403 0.651545 0.380255
0.276982 0.651606 0.388067
0.420478 0.650568 0.416785
0.556512 0.656214 0.474403
0.615625 0.650019 0.470192
0.648524 0.617182 0.365301
0.730282 0.610101 0.327184
0.765682 0.580652 0.348333
0.402258 0.722103 0.495888
0.435981 0.719783 0.503593
0.525170 0.713222 0.533501
0.611780 0.708003 0.582422
0.665064 0.708186 0.624598
0.678431 0.702113 0.590814
0.704585 0.688502 0.510643
0.740017 0.670649 0.499489
0.556512 0.734035 0.592035
0.571038 0.732235 0.598627
0.617182 0.726253 0.624445
0.669368 0.719203 0.662654
0.693233 0.716609 0.681849
0.702907 0.714778 0.690303
0.704433 0.715023 0.675807
0.715541 0.713039 0.642756
0.000000 0.065888 0.217533
0.000000 0.070924 0.214755
0.191501 0.081392 0.204440
0.387671 0.081605 0.211795
0.532830 0.129397 0.212833
0.671534 0.077638 0.187961
0.751461 0.175448 0.185641
0.793393 0.235203 0.186130
0.000000 0.112367 0.229465
0.051637 0.107118 0.226505
0.205173 0.121126 0.214450
0.391180 0.134859 0.221103
0.536461 0.155581 0.215518
0.670985 0.135836 0.194400
0.750240 0.203464 0.190677
0.792691 0.250797 0.188937
0.000000 0.208377 0.259068
0.086091 0.213504 0.257084
0.232029 0.220127 0.248600
0.397162 0.244297 0.246647
0.558190 0.233188 0.229801
0.676448 0.254673 0.221073
0.752407 0.293950 0.218479
0.790341 0.316930 0.215122
0.000000 0.352789 0.301030
0.088228 0.355138 0.297765
0.257084 0.364843 0.292638
0.426978 0.380072 0.290227
0.576532 0.359075 0.261906
0.678645 0.370245 0.252750
0.748531 0.387732 0.249393
0.784298 0.401740 0.257481
0.000000 0.505364 0.349371
0.128054 0.508171 0.350317
0.314275 0.528038 0.368200
0.512291 0.555291 0.425574
0.561578 0.520378 0.352880
0.676417 0.512688 0.317266
0.745357 0.491127 0.303777
0.775082 0.492073 0.323522
0.200168 0.648127 0.443977
0.264530 0.651392 0.451484
0.410254 0.651545 0.467750
0.559686 0.653559 0.516014
0.628901 0.657862 0.541466
0.652491 0.625544 0.442390
0.727199 0.615442 0.413672
0.758816 0.589593 0.425360
0.384710 0.720974 0.528313
0.420539 0.719326 0.534203
0.515007 0.713527 0.556725
0.608728 0.707668 0.598108
0.667292 0.707362 0.639612
0.682979 0.703517 0.625544
0.703151 0.690303 0.552453
0.735042 0.673854 0.543420
0.548913 0.734585 0.604303
0.564569 0.732784 0.610163
0.606439 0.727626 0.628107
0.659144 0.720607 0.658747
0.692866 0.716609 0.683986
0.704097 0.714473 0.694026
0.705104 0.714656 0.683803
0.714168 0.713191 0.656275
0.000000 0.095735 0.380529
0.000000 0.101839 0.376440
0.194003 0.115328 0.359564
0.394537 0.121889 0.346288
0.584405 0.174441 0.360510
0.665644 0.263310 0.350134
0.737575 0.305882 0.338567
0.778805 0.363928 0.348882
0.000000 0.141695 0.389715
0.000000 0.141176 0.386755
0.211795 0.153445 0.369940
0.402228 0.164797 0.354284
0.582544 0.214206 0.365362
0.663844 0.289464 0.356756
0.737758 0.321996 0.343450
0.778042 0.374243 0.352789
0.000000 0.264897 0.422644
0.086885 0.266606 0.417792
0.242741 0.254368 0.400824
0.422950 0.271641 0.379400
0.577264 0.312169 0.382361
0.657679 0.354772 0.372534
0.737484 0.368231 0.356695
0.775814 0.402960 0.361334
0.000000 0.400946 0.453376
0.093843 0.403235 0.450324
0.279515 0.410925 0.444129
0.457160 0.413306 0.427619
0.575616 0.432563 0.417212
0.669306 0.428351 0.393957
0.736110 0.440681 0.384466
0.773007 0.447303 0.375891
0.000000 0.539513 0.486824
0.144045 0.539696 0.484413
0.308659 0.539086 0.476997
0.475776 0.542473 0.472236
0.588983 0.544579 0.462379
0.674067 0.520043 0.428717
0.733577 0.517754 0.418952
0.764431 0.519524 0.422461
0.186191 0.639399 0.516655
0.237064 0.638605 0.515618
0.360357 0.635615 0.513451
0.524376 0.643732 0.537407
0.632410 0.658961 0.587793
0.652918 0.630488 0.515618
0.721798 0.618952 0.496712
0.750790 0.598138 0.497139
0.357244 0.715175 0.569909
0.390112 0.713893 0.572015
0.482979 0.710262 0.582269
0.583703 0.706416 0.606195
0.658167 0.704616 0.643030
0.687190 0.704616 0.655573
0.700832 0.691279 0.590265
0.730159 0.675837 0.582544
0.527550 0.735256 0.619196
0.542718 0.733700 0.622461
0.585992 0.729000 0.634028
0.641840 0.722499 0.656214
0.685603 0.717037 0.681117
0.703456 0.714565 0.694636
0.705715 0.714321 0.691005
0.712795 0.713130 0.667872
0.000000 0.148562 0.562158
0.000000 0.154269 0.558862
0.203281 0.165682 0.545159
0.429969 0.176944 0.519951
0.590234 0.225986 0.510796
0.686213 0.337804 0.501122
0.727718 0.431067 0.497566
0.746304 0.527886 0.536095
0.000000 0.188052 0.562829
0.000000 0.189944 0.559350
0.220768 0.200381 0.546288
0.433082 0.212680 0.520836
0.588922 0.257115 0.511620
0.683375 0.357855 0.502831
0.725582 0.443336 0.500969
0.746426 0.528954 0.535241
0.000000 0.332189 0.580224
0.130770 0.329320 0.575586
0.263127 0.304845 0.564294
0.454444 0.318212 0.540948
0.593561 0.353063 0.526909
0.677668 0.426184 0.516136
0.719722 0.487251 0.517449
0.746853 0.536553 0.535363
0.095613 0.467811 0.600122
0.180117 0.469001 0.597803
0.335515 0.470008 0.590143
0.479103 0.455726 0.573083
0.602228 0.477211 0.555261
0.670893 0.515618 0.543206
0.711818 0.545769 0.544518
0.745632 0.558526 0.544335
0.182223 0.574884 0.608759
0.237217 0.575280 0.607446
0.366003 0.576257 0.603021
0.503960 0.579583 0.597467
0.603906 0.576898 0.580743
0.660792 0.583520 0.566979
0.715480 0.576928 0.551965
0.743893 0.581842 0.550103
0.270512 0.658869 0.621210
0.309789 0.658686 0.620722
0.408606 0.655970 0.616907
0.519493 0.651423 0.610498
0.609369 0.650477 0.607874
0.666346 0.648615 0.599756
0.714809 0.630243 0.579614
0.737209 0.626062 0.578271
0.388769 0.715267 0.634272
0.413581 0.713985 0.634119
0.479591 0.709316 0.632929
0.555016 0.703639 0.632868
0.639033 0.703426 0.650172
0.691676 0.706264 0.678309
0.699092 0.693904 0.635248
0.723354 0.682033 0.630671
0.506401 0.735470 0.645655
0.518425 0.734249 0.646326
0.563775 0.729824 0.651545
0.621149 0.723903 0.662562
0.671962 0.718227 0.679042
0.700801 0.714992 0.694270
0.706752 0.713924 0.697780
0.711482 0.713375 0.680751
0.000000 0.222812 0.675807
0.000000 0.229648 0.675380
0.258366 0.243565 0.668544
0.459327 0.266239 0.655390
0.597223 0.311833 0.637415
0.688838 0.397803 0.622950
0.726589 0.499428 0.599207
0.735744 0.577600 0.608606
0.000000 0.251469 0.672145
0.000000 0.257420 0.671565
0.266361 0.269810 0.665064
0.457160 0.289189 0.651453
0.592370 0.326970 0.632288
0.683894 0.403265 0.618036
0.724056 0.497322 0.595300
0.735622 0.573266 0.604517
0.202945 0.395789 0.676478
0.222873 0.385504 0.675380
0.314488 0.367041 0.669917
0.474830 0.382574 0.657221
0.594476 0.406073 0.636225
0.681056 0.465156 0.624811
0.719783 0.538567 0.607538
0.731502 0.599023 0.618341
0.273686 0.513634 0.685115
0.309667 0.512932 0.682948
0.410346 0.512840 0.675868
0.502159 0.502342 0.667018
0.601251 0.513664 0.649195
0.678645 0.546899 0.639216
0.713893 0.590051 0.625666
0.726101 0.627893 0.634180
0.317998 0.593652 0.684016
0.346685 0.593835 0.682643
0.432502 0.596826 0.679255
0.532860 0.605035 0.675044
0.602808 0.595789 0.661646
0.671077 0.604852 0.648768
0.706233 0.626581 0.637385
0.720424 0.653437 0.648280
0.380652 0.659419 0.684688
0.404913 0.659632 0.684077
0.473396 0.660700 0.682185
0.552941 0.663966 0.679713
0.620508 0.668116 0.676783
0.671473 0.666499 0.668025
0.700465 0.669825 0.659174
0.718990 0.670893 0.657099
0.456031 0.709834 0.688014
0.474189 0.709590 0.687892
0.520836 0.708339 0.686732
0.578027 0.707027 0.685145
0.630640 0.705196 0.682582
0.676234 0.701503 0.679530
0.700832 0.699702 0.677089
0.716335 0.691432 0.669673
0.535637 0.732418 0.684474
0.545556 0.731411 0.684291
0.579400 0.728115 0.684627
0.618250 0.723690 0.684779
0.656489 0.718990 0.686397
0.692500 0.715663 0.693721
0.707820 0.713619 0.701381
0.709926 0.713344 0.691920
0.161746 0.321172 0.719936
0.220493 0.327947 0.719356
0.343694 0.342840 0.716335
0.481361 0.374273 0.711238
0.591028 0.417212 0.703273
0.674159 0.473976 0.695338
0.721431 0.553063 0.673823
0.726650 0.621424 0.660090
0.189303 0.344213 0.718715
0.239475 0.350286 0.718105
0.353704 0.364477 0.715297
0.483131 0.391577 0.710109
0.590143 0.430518 0.702205
0.672358 0.482338 0.694209
0.720394 0.555871 0.673579
0.726131 0.623163 0.660456
0.320500 0.445197 0.714717
0.333318 0.440589 0.714595
0.388128 0.433295 0.712795
0.501549 0.460304 0.708583
0.593927 0.487251 0.701350
0.669306 0.520867 0.693141
0.717189 0.579492 0.676417
0.723507 0.637690 0.665827
0.363989 0.525475 0.713008
0.397131 0.531365 0.712123
0.480232 0.548791 0.708583
0.530266 0.544305 0.706386
0.602808 0.560235 0.700862
0.666682 0.576196 0.693507
0.712795 0.616083 0.682429
0.719631 0.659052 0.674525
0.408484 0.595331 0.710536
0.431952 0.598535 0.710079
0.490517 0.607050 0.708370
0.556359 0.614527 0.705226
0.612360 0.620233 0.700923
0.663264 0.626184 0.694789
0.707820 0.651179 0.689052
0.715755 0.678157 0.682521
0.460426 0.648463 0.707607
0.474220 0.649409 0.707149
0.516991 0.653254 0.705867
0.574334 0.660761 0.703975
0.632197 0.672633 0.701839
0.672053 0.677699 0.698451
0.703792 0.686183 0.695949
0.712398 0.695766 0.690913
0.525414 0.691402 0.705684
0.534966 0.691798 0.705470
0.565118 0.693355 0.704646
0.608881 0.696712 0.703548
0.654505 0.701747 0.702358
0.686488 0.705989 0.701198
0.701472 0.705623 0.698848
0.710140 0.706447 0.696132
0.579156 0.718349 0.704250
0.584894 0.718288 0.704128
0.605035 0.717922 0.703731
0.636378 0.717220 0.703090
0.667933 0.716365 0.702388
0.690791 0.715541 0.701900
0.703792 0.714290 0.701045
0.708064 0.713527 0.701472
