data/fiter_cube/89350833/1022872/file.cube
# Created by Adobe Lightroom plugin Export LUT (1.24.0)
# www.johnrellis.com/lightroom/exportlut.htm
# Preset: 婚礼接亲预设[余晖]-2 男方仪式
# Color profile: C:\Windows\System32\Spool\Drivers\Color\AppleRGB.icc
LUT_3D_SIZE 32
DOMAIN_MIN 0.0 0.0 0.0
DOMAIN_MAX 1.0 1.0 1.0
0.066865 0.081636 0.095766
0.066865 0.081636 0.095766
0.066072 0.081727 0.095644
0.068605 0.081422 0.095491
0.080171 0.080232 0.095277
0.103975 0.078523 0.094911
0.142916 0.074861 0.093996
0.197696 0.067201 0.092653
0.270237 0.049744 0.090700
0.359533 0.000000 0.087739
0.459205 0.000000 0.083894
0.562432 0.000000 0.078492
0.660731 0.000000 0.071656
0.748898 0.000000 0.063325
0.823484 0.000000 0.053223
0.887022 0.000000 0.040528
0.940703 0.000000 0.024140
0.984527 0.000000 0.000000
1.000000 0.000000 0.000000
1.000000 0.000000 0.000000
1.000000 0.000000 0.000000
1.000000 0.000000 0.000000
1.000000 0.000000 0.000000
1.000000 0.042023 0.000000
1.000000 0.089143 0.000000
1.000000 0.120729 0.000000
1.000000 0.147005 0.000000
1.000000 0.170687 0.000000
1.000000 0.192660 0.000000
1.000000 0.213382 0.020417
1.000000 0.233402 0.049256
1.000000 0.253208 0.071626
0.066865 0.081636 0.095766
0.066865 0.081636 0.095766
0.066163 0.081575 0.095674
0.069337 0.081453 0.095491
0.081270 0.081300 0.095094
0.105257 0.080476 0.094606
0.144015 0.078126 0.093507
0.198337 0.072175 0.091981
0.270481 0.057923 0.089784
0.358862 0.020417 0.086610
0.457374 0.000000 0.082460
0.559625 0.000000 0.076631
0.657282 0.000000 0.069398
0.745052 0.000000 0.060212
0.819516 0.000000 0.049470
0.882872 0.000000 0.035676
0.936797 0.000000 0.015534
0.981018 0.000000 0.000000
1.000000 0.000000 0.000000
1.000000 0.000000 0.000000
1.000000 0.000000 0.000000
1.000000 0.000000 0.000000
1.000000 0.000000 0.000000
1.000000 0.063569 0.000000
1.000000 0.100587 0.000000
1.000000 0.129061 0.000000
1.000000 0.153262 0.000000
1.000000 0.175418 0.000000
1.000000 0.196353 0.000000
1.000000 0.216251 0.000000
1.000000 0.235569 0.041352
1.000000 0.254856 0.066468
0.066865 0.081331 0.095552
0.066560 0.081361 0.095552
0.066773 0.081483 0.095521
0.071015 0.083070 0.095216
0.084138 0.084657 0.094545
0.109377 0.086152 0.093629
0.148653 0.086732 0.092042
0.203525 0.084413 0.089937
0.275975 0.075807 0.087098
0.363897 0.055909 0.083131
0.461433 0.000000 0.077943
0.561700 0.000000 0.071199
0.658045 0.000000 0.062440
0.744137 0.000000 0.051331
0.817746 0.000000 0.037720
0.880217 0.000000 0.016419
0.933471 0.000000 0.000000
0.977325 0.000000 0.000000
1.000000 0.000000 0.000000
1.000000 0.000000 0.000000
1.000000 0.000000 0.000000
1.000000 0.035981 0.000000
1.000000 0.078737 0.000000
1.000000 0.109865 0.000000
1.000000 0.134768 0.000000
1.000000 0.156558 0.000000
1.000000 0.176547 0.000000
1.000000 0.195315 0.000000
1.000000 0.213626 0.000000
1.000000 0.231540 0.000000
1.000000 0.249363 0.029847
1.000000 0.267063 0.058595
0.063203 0.086854 0.095064
0.064149 0.086458 0.094575
0.066865 0.086275 0.094545
0.072419 0.088045 0.094301
0.089174 0.093843 0.092958
0.116487 0.098085 0.091341
0.157046 0.101350 0.089235
0.213291 0.103456 0.086122
0.286748 0.101076 0.082063
0.373724 0.091951 0.076875
0.469947 0.075471 0.069795
0.568231 0.050111 0.060945
0.661463 0.005341 0.049104
0.745052 0.000000 0.033112
0.816464 0.000000 0.000000
0.877440 0.000000 0.000000
0.929564 0.000000 0.000000
0.972839 0.015503 0.000000
1.000000 0.047852 0.000000
1.000000 0.073854 0.000000
1.000000 0.095521 0.000000
1.000000 0.117067 0.000000
1.000000 0.138430 0.000000
1.000000 0.157992 0.000000
1.000000 0.175998 0.000000
1.000000 0.193027 0.000000
1.000000 0.209110 0.000000
1.000000 0.224979 0.000000
1.000000 0.240116 0.000000
1.000000 0.255558 0.000000
1.000000 0.270665 0.000000
1.000000 0.286015 0.046326
0.051606 0.104463 0.094636
0.052949 0.103792 0.092714
0.061372 0.101472 0.092988
0.071962 0.103395 0.092134
0.089387 0.108003 0.090486
0.125277 0.121248 0.086549
0.168368 0.128389 0.083192
0.225345 0.132326 0.079316
0.296910 0.132418 0.074372
0.383764 0.131106 0.066743
0.478218 0.125978 0.056916
0.573358 0.119142 0.043732
0.663691 0.113619 0.022614
0.744808 0.111269 0.000000
0.814542 0.112215 0.000000
0.874937 0.116518 0.000000
0.926360 0.123690 0.000000
0.968902 0.133516 0.000000
1.000000 0.143648 0.000000
1.000000 0.154696 0.000000
1.000000 0.166873 0.000000
1.000000 0.181064 0.000000
1.000000 0.194736 0.000000
1.000000 0.208286 0.000000
1.000000 0.221256 0.000000
1.000000 0.233402 0.000000
1.000000 0.246281 0.000000
1.000000 0.258640 0.000000
1.000000 0.270817 0.000000
1.000000 0.283330 0.000000
1.000000 0.296056 0.000000
1.000000 0.308995 0.027008
0.004120 0.139467 0.094484
0.015839 0.138491 0.091279
0.040314 0.134981 0.090303
0.062501 0.131991 0.090455
0.087098 0.138888 0.087037
0.122255 0.147372 0.082368
0.184970 0.168795 0.072511
0.247257 0.176211 0.065492
0.321416 0.181369 0.056550
0.404059 0.182345 0.045533
0.491279 0.177768 0.032471
0.584039 0.179751 0.000000
0.671168 0.182406 0.000000
0.748287 0.186221 0.000000
0.815671 0.190219 0.000000
0.873899 0.195651 0.000000
0.923827 0.201785 0.000000
0.965270 0.208499 0.000000
0.999939 0.215000 0.000000
1.000000 0.222110 0.000000
1.000000 0.230900 0.000000
1.000000 0.240726 0.000000
1.000000 0.267521 0.000000
1.000000 0.277226 0.000000
1.000000 0.286351 0.000000
1.000000 0.295048 0.000000
1.000000 0.303319 0.000000
1.000000 0.311955 0.000000
1.000000 0.320653 0.000000
1.000000 0.329625 0.000000
1.000000 0.338994 0.000000
1.000000 0.348547 0.022950
0.000000 0.201328 0.094636
0.000000 0.199619 0.089479
0.000000 0.195315 0.084779
0.018433 0.188235 0.086702
0.071412 0.191073 0.083253
0.120027 0.202213 0.074586
0.181643 0.214420 0.063233
0.282994 0.245701 0.032319
0.363592 0.249821 0.000000
0.449287 0.253422 0.000000
0.535058 0.256016 0.000000
0.617670 0.259220 0.000000
0.693996 0.256718 0.000000
0.765408 0.261051 0.000000
0.827756 0.266056 0.000000
0.881956 0.271153 0.000000
0.928283 0.275853 0.000000
0.967193 0.279759 0.000000
1.000000 0.283726 0.000000
1.000000 0.290684 0.000000
1.000000 0.298100 0.000000
1.000000 0.305821 0.000000
1.000000 0.313603 0.000000
1.000000 0.321233 0.000000
1.000000 0.328588 0.000000
1.000000 0.334997 0.000000
1.000000 0.341314 0.000000
1.000000 0.347478 0.000000
1.000000 0.353918 0.000000
1.000000 0.360601 0.000000
1.000000 0.367681 0.000000
1.000000 0.375219 0.000000
0.000000 0.273259 0.095125
0.000000 0.271733 0.088533
0.000000 0.267033 0.077394
0.000000 0.258518 0.080262
0.017517 0.249302 0.082734
0.097841 0.262181 0.069947
0.170718 0.276127 0.051789
0.256352 0.290257 0.019684
0.387915 0.329442 0.000000
0.474006 0.331243 0.000000
0.557214 0.333440 0.000000
0.636103 0.335790 0.000000
0.706935 0.337255 0.000000
0.769345 0.337285 0.000000
0.824857 0.333074 0.000000
0.876738 0.334722 0.000000
0.921599 0.337896 0.000000
0.960357 0.340856 0.000000
0.994476 0.344945 0.000000
1.000000 0.348638 0.000000
1.000000 0.352819 0.000000
1.000000 0.357519 0.000000
1.000000 0.362432 0.000000
1.000000 0.367254 0.000000
1.000000 0.371893 0.000000
1.000000 0.375830 0.000000
1.000000 0.379889 0.000000
1.000000 0.383642 0.000000
1.000000 0.388067 0.000000
1.000000 0.392706 0.000000
1.000000 0.397925 0.000000
1.000000 0.403693 0.000000
0.000000 0.356634 0.097444
0.000000 0.354559 0.089113
0.000000 0.350011 0.068208
0.000000 0.341253 0.071809
0.000000 0.329503 0.076478
0.053742 0.329808 0.070069
0.149813 0.344549 0.045686
0.244114 0.359777 0.000000
0.347265 0.374395 0.000000
0.491737 0.418647 0.000000
0.577844 0.421332 0.000000
0.652674 0.420050 0.000000
0.719173 0.417853 0.000000
0.777951 0.414527 0.000000
0.830014 0.411078 0.000000
0.876371 0.408423 0.000000
0.918334 0.402960 0.000000
0.955657 0.401526 0.000000
0.988220 0.402899 0.000000
1.000000 0.404456 0.000000
1.000000 0.406409 0.000000
1.000000 0.408667 0.000000
1.000000 0.411261 0.000000
1.000000 0.413642 0.000000
1.000000 0.416114 0.000000
1.000000 0.417945 0.000000
1.000000 0.419745 0.000000
1.000000 0.421637 0.000000
1.000000 0.423987 0.000000
1.000000 0.426642 0.000000
1.000000 0.430091 0.000000
1.000000 0.433753 0.000000
0.000000 0.445319 0.104738
0.000000 0.443244 0.095247
0.000000 0.438666 0.070100
0.000000 0.429633 0.064057
0.000000 0.417670 0.069978
0.000000 0.403082 0.075837
0.121126 0.415900 0.050050
0.226474 0.430915 0.000000
0.332830 0.445747 0.000000
0.442206 0.460578 0.000000
0.580285 0.502464 0.000000
0.664424 0.508141 0.000000
0.727749 0.501091 0.000000
0.784817 0.495338 0.000000
0.836484 0.490242 0.000000
0.880919 0.484382 0.000000
0.919493 0.478187 0.000000
0.952728 0.472023 0.000000
0.982727 0.463203 0.000000
1.000000 0.459236 0.000000
1.000000 0.458808 0.000000
1.000000 0.458717 0.000000
1.000000 0.458534 0.000000
1.000000 0.458442 0.000000
1.000000 0.458473 0.000000
1.000000 0.458228 0.000000
1.000000 0.458198 0.000000
1.000000 0.458595 0.000000
1.000000 0.459266 0.000000
1.000000 0.460609 0.000000
1.000000 0.462440 0.000000
1.000000 0.464729 0.000000
0.000000 0.531304 0.121309
0.000000 0.529351 0.110353
0.000000 0.524987 0.083406
0.000000 0.517266 0.063996
0.000000 0.505699 0.069703
0.000000 0.491585 0.075776
0.086397 0.487068 0.069581
0.209079 0.501579 0.022522
0.318151 0.516228 0.000000
0.425666 0.530205 0.000000
0.531365 0.544121 0.000000
0.654566 0.578820 0.000000
0.737545 0.588495 0.000000
0.791684 0.578637 0.000000
0.839139 0.568353 0.000000
0.880186 0.557794 0.000000
0.916350 0.547356 0.000000
0.947875 0.537774 0.000000
0.976318 0.528923 0.000000
1.000000 0.521202 0.000000
1.000000 0.510552 0.000000
1.000000 0.505608 0.000000
1.000000 0.503807 0.000000
1.000000 0.502037 0.000000
1.000000 0.500267 0.000000
1.000000 0.498604 0.000000
1.000000 0.497078 0.000000
1.000000 0.495796 0.000000
1.000000 0.495003 0.000000
1.000000 0.494759 0.000000
1.000000 0.495094 0.000000
1.000000 0.495949 0.000000
0.000000 0.612085 0.148318
0.000000 0.610468 0.137850
0.000000 0.606806 0.110719
0.000000 0.600580 0.079194
0.000000 0.589715 0.082856
0.000000 0.576867 0.088258
0.046662 0.561456 0.093263
0.194919 0.569299 0.068971
0.306401 0.583307 0.000000
0.411383 0.596582 0.000000
0.513237 0.609033 0.000000
0.610925 0.620874 0.000000
0.740475 0.669184 0.000000
0.815946 0.679194 0.000000
0.857908 0.663142 0.000000
0.894530 0.647639 0.000000
0.926513 0.632502 0.000000
0.955016 0.618189 0.000000
0.980987 0.605432 0.000000
1.000000 0.593866 0.000000
1.000000 0.583520 0.000000
1.000000 0.573053 0.000000
1.000000 0.560113 0.000000
1.000000 0.553460 0.000000
1.000000 0.549310 0.000000
1.000000 0.545434 0.000000
1.000000 0.541802 0.000000
1.000000 0.538537 0.000000
1.000000 0.535851 0.000000
1.000000 0.533745 0.000000
1.000000 0.532097 0.000000
1.000000 0.531151 0.000000
0.000000 0.690517 0.190372
0.000000 0.689326 0.180697
0.000000 0.686702 0.156802
0.000000 0.682460 0.117891
0.000000 0.673243 0.119234
0.000000 0.661494 0.122408
0.036866 0.648280 0.125704
0.198489 0.639704 0.122255
0.306462 0.650965 0.093660
0.407019 0.662257 0.047150
0.503319 0.673610 0.000000
0.597314 0.684810 0.000000
0.686946 0.695064 0.000000
0.778103 0.713008 0.000000
0.850034 0.725185 0.000000
0.885527 0.708400 0.000000
0.916533 0.691676 0.000000
0.944427 0.675837 0.000000
0.970062 0.661250 0.000000
0.993591 0.647913 0.000000
1.000000 0.635737 0.000000
1.000000 0.624506 0.000000
1.000000 0.613886 0.000000
1.000000 0.601007 0.000000
1.000000 0.587823 0.000000
1.000000 0.581567 0.000000
1.000000 0.576959 0.000000
1.000000 0.572625 0.000000
1.000000 0.568933 0.000000
1.000000 0.565698 0.000000
1.000000 0.563012 0.000000
1.000000 0.561059 0.000000
0.000000 0.750332 0.236027
0.000000 0.749233 0.227634
0.000000 0.746487 0.205997
0.000000 0.742214 0.171695
0.000000 0.733822 0.161440
0.000000 0.722591 0.161685
0.033692 0.709743 0.162722
0.199100 0.695949 0.164340
0.298466 0.697200 0.149905
0.392218 0.706203 0.123384
0.482368 0.715236 0.087160
0.569146 0.723629 0.027375
0.652674 0.731441 0.000000
0.731075 0.738094 0.000000
0.809049 0.749264 0.000000
0.876219 0.761929 0.000000
0.906157 0.744472 0.000000
0.933501 0.727962 0.000000
0.958740 0.712703 0.000000
0.982116 0.698329 0.000000
1.000000 0.685084 0.000000
1.000000 0.672724 0.000000
1.000000 0.660853 0.000000
1.000000 0.649531 0.000000
1.000000 0.637232 0.000000
1.000000 0.623865 0.000000
1.000000 0.611109 0.000000
1.000000 0.605829 0.000000
1.000000 0.601129 0.000000
1.000000 0.596918 0.000000
1.000000 0.593256 0.000000
1.000000 0.590295 0.000000
0.000000 0.794522 0.282780
0.000000 0.793637 0.275151
0.000000 0.791379 0.255314
0.000000 0.787808 0.225925
0.000000 0.781369 0.206638
0.000000 0.771328 0.205936
0.067597 0.759915 0.205081
0.208682 0.747555 0.205020
0.298497 0.736934 0.203311
0.383764 0.743893 0.183474
0.466407 0.750668 0.160555
0.546746 0.757229 0.132784
0.624445 0.763180 0.095430
0.698024 0.768124 0.034241
0.767361 0.772183 0.000000
0.833860 0.778408 0.000000
0.897459 0.791745 0.000000
0.923796 0.775296 0.000000
0.948333 0.759701 0.000000
0.971130 0.744961 0.000000
0.992401 0.731014 0.000000
1.000000 0.717739 0.000000
1.000000 0.705043 0.000000
1.000000 0.692958 0.000000
1.000000 0.681361 0.000000
1.000000 0.669245 0.000000
1.000000 0.656123 0.000000
1.000000 0.643305 0.000000
1.000000 0.632929 0.000000
1.000000 0.628199 0.000000
1.000000 0.623957 0.000000
1.000000 0.620203 0.000000
0.000000 0.828061 0.328832
0.000000 0.827665 0.322515
0.000000 0.826078 0.307103
0.000000 0.823575 0.282780
0.000000 0.819364 0.257572
0.000000 0.811093 0.256443
0.123201 0.801816 0.255192
0.233860 0.791470 0.254368
0.315160 0.780514 0.254032
0.388037 0.778164 0.245151
0.461250 0.782956 0.226841
0.533196 0.787381 0.205234
0.603235 0.791135 0.180453
0.670863 0.794278 0.149691
0.735134 0.796750 0.110109
0.795895 0.798703 0.045655
0.853696 0.801846 0.000000
0.913725 0.815274 0.000000
0.938537 0.801175 0.000000
0.960998 0.786679 0.000000
0.981903 0.772976 0.000000
1.000000 0.759701 0.000000
1.000000 0.746944 0.000000
1.000000 0.734524 0.000000
1.000000 0.722347 0.000000
1.000000 0.710689 0.000000
1.000000 0.698756 0.000000
1.000000 0.685817 0.000000
1.000000 0.673304 0.000000
1.000000 0.660945 0.000000
1.000000 0.653040 0.000000
1.000000 0.648402 0.000000
0.000000 0.853300 0.372961
0.000000 0.852720 0.368048
0.000000 0.851438 0.354314
0.000000 0.849516 0.333471
0.000000 0.846860 0.304906
0.000000 0.839811 0.303044
0.172824 0.831785 0.301549
0.260716 0.822965 0.300084
0.332067 0.813626 0.298711
0.394446 0.803586 0.297887
0.458961 0.807065 0.283299
0.523064 0.810544 0.265812
0.586633 0.813504 0.246525
0.648249 0.815915 0.223026
0.708095 0.817716 0.195315
0.765438 0.819089 0.161685
0.819486 0.820249 0.118532
0.870237 0.821561 0.052369
0.926970 0.834714 0.000000
0.950805 0.822843 0.000000
0.971313 0.809445 0.000000
0.990723 0.796323 0.000000
1.000000 0.783658 0.000000
1.000000 0.771328 0.000000
1.000000 0.759274 0.000000
1.000000 0.747402 0.000000
1.000000 0.735836 0.000000
1.000000 0.723995 0.000000
1.000000 0.711543 0.000000
1.000000 0.699336 0.000000
1.000000 0.687465 0.000000
1.000000 0.676020 0.000000
0.000000 0.873564 0.418189
0.000000 0.873350 0.414191
0.111086 0.879026 0.421820
0.118471 0.877562 0.404669
0.127047 0.875578 0.381506
0.190433 0.870512 0.372442
0.260441 0.863615 0.369848
0.322148 0.856016 0.367071
0.378515 0.847868 0.364355
0.430426 0.839170 0.361913
0.480812 0.834989 0.354681
0.534600 0.837217 0.339696
0.588647 0.839048 0.322667
0.642390 0.840391 0.302739
0.695399 0.841367 0.280064
0.746944 0.842008 0.253574
0.796719 0.842374 0.222995
0.844053 0.842679 0.186526
0.889067 0.843015 0.142123
0.940795 0.854185 0.092042
0.963500 0.843992 0.028626
0.982086 0.831144 0.000000
0.999725 0.818723 0.000000
1.000000 0.806394 0.000000
1.000000 0.794156 0.000000
1.000000 0.782101 0.000000
1.000000 0.770352 0.000000
1.000000 0.758602 0.000000
1.000000 0.746853 0.000000
1.000000 0.734768 0.000000
1.000000 0.722988 0.000000
1.000000 0.711543 0.000000
0.189944 0.891539 0.467414
0.195529 0.891722 0.465034
0.203281 0.891447 0.457465
0.210178 0.890745 0.444007
0.217594 0.889494 0.425727
0.247929 0.886137 0.412879
0.301946 0.880339 0.410376
0.352819 0.873777 0.407538
0.401038 0.866728 0.404425
0.446571 0.859312 0.401648
0.489570 0.851469 0.399329
0.535576 0.851896 0.387793
0.583062 0.853422 0.373144
0.630518 0.854734 0.355871
0.678401 0.855589 0.336339
0.725460 0.856138 0.314336
0.771633 0.856535 0.288884
0.816434 0.856718 0.260349
0.859525 0.856870 0.227695
0.900694 0.857115 0.189395
0.947570 0.865904 0.149508
0.971679 0.859098 0.110445
0.989136 0.847196 0.055146
1.000000 0.835416 0.000000
1.000000 0.823758 0.000000
1.000000 0.812070 0.000000
1.000000 0.800534 0.000000
1.000000 0.789151 0.000000
1.000000 0.777768 0.000000
1.000000 0.766140 0.000000
1.000000 0.754604 0.000000
1.000000 0.743313 0.000000
0.268070 0.903319 0.502251
0.272648 0.903441 0.500999
0.277287 0.903227 0.494209
0.282475 0.902678 0.482918
0.287846 0.901671 0.467475
0.300938 0.899596 0.451606
0.343603 0.894621 0.449226
0.385412 0.889036 0.446509
0.426764 0.882963 0.443763
0.466316 0.876463 0.441047
0.504387 0.869688 0.438239
0.542107 0.864988 0.432837
0.583062 0.866361 0.419898
0.625147 0.867491 0.405554
0.667445 0.868284 0.388647
0.709895 0.868803 0.369177
0.751858 0.869108 0.347417
0.793332 0.869261 0.322789
0.833707 0.869352 0.295628
0.873075 0.869413 0.264561
0.911009 0.869474 0.229770
0.953552 0.876402 0.195499
0.978820 0.872282 0.160800
0.995331 0.861143 0.118044
1.000000 0.850034 0.058289
1.000000 0.838956 0.000000
1.000000 0.827787 0.000000
1.000000 0.816770 0.000000
1.000000 0.805722 0.000000
1.000000 0.794675 0.000000
1.000000 0.783383 0.000000
1.000000 0.772427 0.000000
0.333013 0.913512 0.536614
0.336187 0.913603 0.535027
0.340551 0.913451 0.529900
0.344579 0.913024 0.520531
0.348241 0.912230 0.506981
0.351293 0.911070 0.489693
0.384192 0.906859 0.486458
0.418524 0.902037 0.483589
0.453101 0.896727 0.480598
0.487312 0.891020 0.477638
0.520653 0.884977 0.474556
0.552605 0.878630 0.471168
0.587152 0.877684 0.462043
0.623835 0.878691 0.449805
0.661372 0.879515 0.435340
0.699336 0.880125 0.419409
0.737758 0.880644 0.401587
0.775753 0.881010 0.381781
0.813382 0.881346 0.359411
0.850370 0.881651 0.334661
0.886564 0.881926 0.306676
0.921569 0.882139 0.275273
0.960204 0.887602 0.245365
0.986206 0.885527 0.213901
1.000000 0.875334 0.175967
1.000000 0.864927 0.129244
1.000000 0.854490 0.064485
1.000000 0.843961 0.000000
1.000000 0.833371 0.000000
1.000000 0.822721 0.000000
1.000000 0.811948 0.000000
1.000000 0.801266 0.000000
0.401373 0.923644 0.575891
0.402564 0.923552 0.573816
0.404242 0.923247 0.568444
0.405432 0.922759 0.559350
0.406836 0.921965 0.547143
0.408240 0.920958 0.531853
0.427985 0.917937 0.525231
0.456153 0.913817 0.522423
0.485145 0.909300 0.519738
0.514397 0.904448 0.516930
0.543389 0.899290 0.514122
0.571649 0.893889 0.510979
0.599512 0.889189 0.506676
0.630823 0.890105 0.496040
0.663142 0.890806 0.483436
0.696223 0.891386 0.469673
0.729885 0.891783 0.454292
0.763760 0.892058 0.436835
0.797665 0.892302 0.417487
0.831327 0.892393 0.396216
0.864744 0.892485 0.371435
0.897704 0.892485 0.343755
0.929839 0.892363 0.312230
0.965179 0.896391 0.281529
0.991608 0.895872 0.249516
1.000000 0.886137 0.211032
1.000000 0.876341 0.165988
1.000000 0.866423 0.109682
1.000000 0.856474 0.000000
1.000000 0.846403 0.000000
1.000000 0.836240 0.000000
1.000000 0.826047 0.000000
0.447425 0.930663 0.604211
0.448493 0.930602 0.602686
0.449348 0.930358 0.597620
0.450599 0.929900 0.589990
0.451179 0.929320 0.579248
0.452003 0.928496 0.565972
0.462623 0.926513 0.556695
0.486152 0.922881 0.553948
0.510613 0.918975 0.551202
0.535790 0.914763 0.548333
0.561181 0.910246 0.545708
0.586084 0.905577 0.542657
0.610376 0.900542 0.539208
0.636286 0.898894 0.532067
0.664576 0.899657 0.521630
0.693660 0.900206 0.509545
0.723629 0.900664 0.496407
0.753933 0.901030 0.481483
0.784543 0.901274 0.464851
0.815305 0.901488 0.446418
0.846220 0.901579 0.425940
0.876829 0.901610 0.402777
0.907225 0.901579 0.376287
0.937255 0.901488 0.345953
0.969543 0.904204 0.313024
0.996277 0.904784 0.280858
1.000000 0.895933 0.242252
1.000000 0.886809 0.197635
1.000000 0.877562 0.143069
1.000000 0.868162 0.062806
1.000000 0.858762 0.000000
1.000000 0.849241 0.000000
0.497475 0.937377 0.635981
0.498207 0.937346 0.634577
0.498695 0.937133 0.630121
0.498695 0.936767 0.623133
0.498756 0.936217 0.614008
0.498177 0.935546 0.601953
0.501549 0.934325 0.590295
0.519921 0.931182 0.587213
0.539727 0.927733 0.583917
0.560266 0.924010 0.580529
0.581109 0.919982 0.576867
0.602289 0.915770 0.573266
0.623377 0.911345 0.569574
0.644099 0.906767 0.565515
0.668116 0.907408 0.555505
0.693111 0.907866 0.544213
0.719265 0.908263 0.531762
0.746242 0.908568 0.518517
0.773800 0.908873 0.504234
0.801968 0.909148 0.488502
0.830350 0.909361 0.471015
0.858762 0.909453 0.451026
0.887022 0.909453 0.428229
0.915282 0.909300 0.401617
0.943328 0.908995 0.371405
0.973663 0.911254 0.339269
1.000000 0.912535 0.307134
1.000000 0.904662 0.267002
1.000000 0.896117 0.221256
1.000000 0.887572 0.166934
1.000000 0.878843 0.090639
1.000000 0.870176 0.000000
0.530877 0.942351 0.657862
0.531884 0.942321 0.657008
0.532494 0.942168 0.653437
0.532799 0.941894 0.647578
0.532830 0.941436 0.639673
0.532647 0.940948 0.629633
0.532769 0.940337 0.617884
0.547539 0.937804 0.614374
0.564691 0.934844 0.611841
0.582635 0.931701 0.609064
0.601007 0.928283 0.606012
0.619593 0.924681 0.602777
0.638361 0.920836 0.599542
0.656641 0.916899 0.595666
0.676081 0.914885 0.589624
0.697688 0.915435 0.579736
0.720241 0.915923 0.569024
0.743801 0.916289 0.557122
0.768215 0.916594 0.544518
0.793332 0.916869 0.530449
0.818906 0.917082 0.514977
0.844724 0.917235 0.497536
0.870817 0.917266 0.477913
0.897032 0.917205 0.455207
0.923339 0.917021 0.429450
0.949798 0.916747 0.399664
0.978058 0.918456 0.368658
1.000000 0.920348 0.335973
1.000000 0.913573 0.296239
1.000000 0.905760 0.249332
1.000000 0.897917 0.194461
1.000000 0.889982 0.119203
0.564843 0.947112 0.680720
0.565209 0.947082 0.679622
0.565576 0.946929 0.676478
0.565240 0.946685 0.671015
0.565087 0.946319 0.664088
0.564477 0.945892 0.655116
0.564111 0.945373 0.644678
0.573053 0.943603 0.639307
0.587549 0.941070 0.636744
0.602869 0.938323 0.634150
0.618952 0.935332 0.631342
0.635431 0.932219 0.628534
0.652003 0.928923 0.625513
0.668513 0.925475 0.622278
0.684779 0.921843 0.618769
0.703151 0.921935 0.610681
0.722744 0.922423 0.601099
0.743282 0.922850 0.590753
0.764736 0.923278 0.579278
0.787045 0.923613 0.566766
0.810025 0.923888 0.553216
0.833463 0.924132 0.538140
0.857359 0.924254 0.521172
0.881559 0.924285 0.501579
0.906157 0.924254 0.479377
0.930938 0.924102 0.453773
0.955871 0.923888 0.424842
0.982452 0.925139 0.393347
1.000000 0.927581 0.360082
1.000000 0.921630 0.320684
1.000000 0.914488 0.271580
1.000000 0.907225 0.210269
0.593500 0.951263 0.700313
0.593683 0.951202 0.699245
0.593744 0.951080 0.696284
0.593713 0.950896 0.691890
0.593591 0.950652 0.685908
0.593805 0.950347 0.678737
0.594446 0.950011 0.670588
0.599969 0.949035 0.664393
0.613611 0.946929 0.663172
0.627924 0.944732 0.661982
0.642878 0.942321 0.660792
0.657984 0.939818 0.659297
0.672908 0.937133 0.657435
0.687800 0.934325 0.655360
0.702388 0.931365 0.652796
0.717159 0.929381 0.648463
0.733669 0.929961 0.640711
0.751095 0.930449 0.632013
0.769436 0.930938 0.622705
0.788693 0.931365 0.612451
0.808499 0.931762 0.600916
0.829038 0.932067 0.588098
0.850126 0.932311 0.573144
0.871733 0.932464 0.556451
0.893950 0.932494 0.537224
0.916533 0.932464 0.515404
0.939513 0.932372 0.490669
0.962890 0.932189 0.462165
0.987457 0.933043 0.430915
1.000000 0.935149 0.396796
1.000000 0.930388 0.354376
1.000000 0.923949 0.301274
0.629389 0.955566 0.724666
0.629511 0.955535 0.723720
0.629480 0.955413 0.721248
0.629023 0.955291 0.717281
0.628717 0.955077 0.712154
0.628321 0.954833 0.705837
0.628046 0.954528 0.698329
0.629419 0.954040 0.690883
0.640192 0.952239 0.689235
0.651575 0.950317 0.687526
0.663630 0.948211 0.685725
0.675990 0.945983 0.683772
0.688685 0.943633 0.681788
0.701350 0.941161 0.679377
0.713893 0.938567 0.676692
