data/fiter_cube/89350833/1022872/file.cube
# Created by Adobe Lightroom plugin Export LUT (1.24.0)
# www.johnrellis.com/lightroom/exportlut.htm
# Preset: 婚礼接亲预设[余晖]-2 男方仪式
# Color profile: C:\Windows\System32\Spool\Drivers\Color\AppleRGB.icc
LUT_3D_SIZE 5
DOMAIN_MIN 0.000000 0.000000 0.000000
DOMAIN_MAX 0.903226 0.903226 0.903226
0.066865 0.081636 0.095766
0.197696 0.067201 0.092653
0.823484 0.000000 0.053223
1.000000 0.000000 0.000000
1.000000 0.192660 0.000000
0.000000 0.273259 0.095125
0.256352 0.290257 0.019684
0.824857 0.333074 0.000000
1.000000 0.357519 0.000000
1.000000 0.388067 0.000000
0.000000 0.794522 0.282780
0.208682 0.747555 0.205020
0.767361 0.772183 0.000000
1.000000 0.717739 0.000000
1.000000 0.632929 0.000000
0.401373 0.923644 0.575891
0.456153 0.913817 0.522423
0.663142 0.890806 0.483436
0.897704 0.892485 0.343755
1.000000 0.856474 0.000000
0.655116 0.958984 0.742519
0.654170 0.958068 0.712947
0.721248 0.944366 0.693507
0.821714 0.943175 0.651484
0.955383 0.944396 0.525231
0.000000 0.075624 0.244694
0.242313 0.049866 0.221958
0.840787 0.000000 0.185000
1.000000 0.137362 0.119203
1.000000 0.252750 0.000000
0.000000 0.301884 0.343420
0.307805 0.309606 0.310307
0.828519 0.332860 0.239139
1.000000 0.385657 0.145785
1.000000 0.408667 0.000000
0.000000 0.808591 0.525841
0.380713 0.762783 0.489479
0.751827 0.756100 0.406928
0.982055 0.706996 0.278386
1.000000 0.644678 0.068940
0.454810 0.921202 0.673060
0.580621 0.903685 0.669520
0.692836 0.879606 0.621027
0.883177 0.887480 0.546136
1.000000 0.856168 0.378882
0.667384 0.958709 0.776120
0.712581 0.951537 0.776608
0.749264 0.943420 0.748196
0.830472 0.940215 0.721248
0.945861 0.943542 0.646479
0.000000 0.084901 0.732906
0.460090 0.041016 0.755550
0.850492 0.179446 0.696162
1.000000 0.383154 0.622705
1.000000 0.474678 0.551904
0.000000 0.346563 0.700008
0.379553 0.381659 0.732845
0.804623 0.510643 0.711086
0.973846 0.558648 0.651209
1.000000 0.593774 0.589776
0.000000 0.746639 0.756283
0.381384 0.743038 0.743832
0.740291 0.743282 0.719112
0.910979 0.738216 0.677150
1.000000 0.715541 0.593683
0.423499 0.930938 0.802335
0.572045 0.912902 0.791806
0.745449 0.880400 0.770657
0.866087 0.879667 0.743893
0.978149 0.854856 0.666987
0.607691 0.968811 0.819150
0.677363 0.960235 0.819974
0.794858 0.942260 0.829160
0.843168 0.934264 0.807919
0.935210 0.941588 0.781643
0.180850 0.227634 0.915129
0.516716 0.279332 0.914519
0.856992 0.486854 0.906249
0.962036 0.574029 0.858457
1.000000 0.687312 0.818540
0.178531 0.435584 0.889464
0.502220 0.488533 0.889067
0.819120 0.634241 0.886503
0.925048 0.689174 0.852628
0.989563 0.736782 0.822202
0.058289 0.672908 0.857572
0.364630 0.674983 0.846433
0.730556 0.739590 0.850706
0.880552 0.794186 0.844266
0.962005 0.801297 0.824857
0.410010 0.874357 0.867674
0.537011 0.870970 0.863615
0.717006 0.867643 0.855741
0.854490 0.867857 0.845731
0.942229 0.861875 0.824308
0.601251 0.970794 0.895323
0.672877 0.965850 0.895171
0.783871 0.953826 0.889860
0.871183 0.938720 0.882567
0.933410 0.942687 0.876646
0.446815 0.416480 0.969543
0.596857 0.460945 0.964630
0.807828 0.576471 0.953338
0.937469 0.715267 0.941131
0.987152 0.716213 0.910491
0.453559 0.540978 0.952239
0.589441 0.572808 0.948455
0.789700 0.659693 0.940520
0.919646 0.758633 0.933593
0.970550 0.760616 0.907347
0.227817 0.649622 0.928099
0.446296 0.666651 0.926390
0.731380 0.740566 0.920775
0.886351 0.810269 0.921233
0.946044 0.830533 0.906126
0.348333 0.820035 0.918578
0.458076 0.818967 0.914427
0.637507 0.819455 0.905150
0.840085 0.857237 0.909148
0.932708 0.897734 0.915679
0.577173 0.931670 0.926757
0.639063 0.930694 0.925994
0.753750 0.931395 0.925811
0.857237 0.935393 0.926787
0.933013 0.942626 0.930297
