data/fiter_cube/89350833/1022872/file.cube
# Created by Adobe Lightroom plugin Export LUT (1.24.0)
# www.johnrellis.com/lightroom/exportlut.htm
# Preset: 婚礼接亲预设[余晖]-2 男方仪式
# Color profile: C:\Windows\System32\Spool\Drivers\Color\AppleRGB.icc
LUT_3D_SIZE 8
DOMAIN_MIN 0.000000 0.000000 0.000000
DOMAIN_MAX 0.903226 0.903226 0.903226
0.066865 0.081636 0.095766
0.080171 0.080232 0.095277
0.270237 0.049744 0.090700
0.660731 0.000000 0.071656
0.940703 0.000000 0.024140
1.000000 0.000000 0.000000
1.000000 0.089143 0.000000
1.000000 0.192660 0.000000
0.051606 0.104463 0.094636
0.089387 0.108003 0.090486
0.296910 0.132418 0.074372
0.663691 0.113619 0.022614
0.926360 0.123690 0.000000
1.000000 0.166873 0.000000
1.000000 0.221256 0.000000
1.000000 0.270817 0.000000
0.000000 0.356634 0.097444
0.000000 0.329503 0.076478
0.347265 0.374395 0.000000
0.719173 0.417853 0.000000
0.918334 0.402960 0.000000
1.000000 0.406409 0.000000
1.000000 0.416114 0.000000
1.000000 0.423987 0.000000
0.000000 0.690517 0.190372
0.000000 0.673243 0.119234
0.306462 0.650965 0.093660
0.686946 0.695064 0.000000
0.916533 0.691676 0.000000
1.000000 0.635737 0.000000
1.000000 0.587823 0.000000
1.000000 0.568933 0.000000
0.000000 0.853300 0.372961
0.000000 0.846860 0.304906
0.332067 0.813626 0.298711
0.586633 0.813504 0.246525
0.819486 0.820249 0.118532
0.971313 0.809445 0.000000
1.000000 0.759274 0.000000
1.000000 0.711543 0.000000
0.333013 0.913512 0.536614
0.348241 0.912230 0.506981
0.453101 0.896727 0.480598
0.587152 0.877684 0.462043
0.737758 0.880644 0.401587
0.886564 0.881926 0.306676
1.000000 0.875334 0.175967
1.000000 0.833371 0.000000
0.530877 0.942351 0.657862
0.532830 0.941436 0.639673
0.564691 0.934844 0.611841
0.638361 0.920836 0.599542
0.720241 0.915923 0.569024
0.818906 0.917082 0.514977
0.923339 0.917021 0.429450
1.000000 0.913573 0.296239
0.655116 0.958984 0.742519
0.654597 0.958618 0.731868
0.662196 0.956725 0.710811
0.705013 0.949493 0.704982
0.745357 0.940246 0.688624
0.804959 0.942718 0.661036
0.875517 0.944213 0.613062
0.955383 0.944396 0.525231
0.062501 0.080751 0.113649
0.083619 0.078645 0.107393
0.286595 0.014801 0.103761
0.655055 0.000000 0.083040
0.924743 0.000000 0.000000
1.000000 0.084565 0.000000
1.000000 0.159060 0.000000
1.000000 0.217014 0.000000
0.017884 0.116762 0.137942
0.098543 0.117922 0.130220
0.323644 0.121035 0.113649
0.673915 0.105592 0.072389
0.921782 0.157870 0.000000
1.000000 0.224125 0.000000
1.000000 0.255192 0.000000
1.000000 0.287083 0.000000
0.000000 0.387427 0.218357
0.000000 0.367987 0.184726
0.364752 0.378027 0.129305
0.712917 0.392340 0.000000
0.913909 0.386419 0.000000
1.000000 0.406439 0.000000
1.000000 0.422217 0.000000
1.000000 0.426581 0.000000
0.000000 0.696559 0.325353
0.000000 0.678370 0.290318
0.326452 0.636744 0.241978
0.671626 0.674891 0.143038
0.894163 0.665858 0.000000
0.999786 0.614923 0.000000
1.000000 0.578759 0.000000
1.000000 0.565332 0.000000
0.000000 0.849332 0.466011
0.204929 0.837247 0.443427
0.370916 0.811093 0.387182
0.589349 0.801877 0.350195
0.808652 0.810971 0.266117
0.957153 0.800656 0.160708
1.000000 0.753597 0.000000
1.000000 0.708186 0.000000
0.384985 0.907744 0.591516
0.424201 0.902495 0.576715
0.477119 0.891844 0.529839
0.598810 0.869474 0.517327
0.738064 0.874846 0.472145
0.879240 0.878416 0.402441
0.990265 0.872007 0.301640
1.000000 0.831418 0.131014
0.556725 0.937469 0.688319
0.565209 0.935180 0.674983
0.575036 0.931182 0.636225
0.646479 0.917693 0.625971
0.723903 0.911345 0.603937
0.817014 0.913573 0.558434
0.916869 0.914031 0.485725
1.000000 0.910521 0.373785
0.673915 0.955901 0.762478
0.674006 0.955566 0.753079
0.673762 0.954711 0.728511
0.711910 0.948089 0.720974
0.755093 0.939513 0.712398
0.808804 0.941192 0.687617
0.874846 0.942809 0.644923
0.950988 0.943359 0.570489
0.000000 0.072999 0.320592
0.128634 0.057008 0.333013
0.345098 0.000000 0.291600
0.731991 0.000000 0.297704
0.950378 0.000000 0.233921
1.000000 0.119753 0.206058
1.000000 0.230991 0.153597
1.000000 0.268498 0.019745
0.000000 0.147616 0.329076
0.071870 0.142458 0.351202
0.379217 0.154055 0.329351
0.726345 0.088655 0.307866
0.928344 0.169650 0.267582
1.000000 0.258396 0.227726
1.000000 0.308263 0.162448
1.000000 0.327733 0.026886
0.000000 0.388525 0.430976
0.000000 0.391791 0.419348
0.407874 0.394415 0.389929
0.712337 0.403632 0.352331
0.905882 0.426276 0.312016
1.000000 0.445991 0.263310
1.000000 0.456428 0.194064
1.000000 0.452247 0.071992
0.000000 0.747219 0.557733
0.000000 0.727443 0.534417
0.431952 0.676173 0.486610
0.683040 0.681178 0.445808
0.870603 0.662501 0.386419
0.977264 0.621210 0.317082
1.000000 0.608850 0.251682
1.000000 0.587915 0.139803
0.000000 0.860807 0.605066
0.291295 0.846433 0.601373
0.499977 0.818112 0.581537
0.627588 0.794827 0.546349
0.803128 0.810086 0.507774
0.929778 0.798428 0.445289
1.000000 0.757229 0.354284
1.000000 0.712612 0.229099
0.390723 0.911864 0.667720
0.471260 0.902983 0.669612
0.580743 0.886015 0.661646
0.643641 0.868620 0.627100
0.747127 0.867185 0.603113
0.867521 0.874083 0.564874
0.965209 0.868681 0.504234
1.000000 0.833738 0.391119
0.548913 0.941253 0.726741
0.593622 0.935119 0.730404
0.652705 0.924834 0.725429
0.680751 0.916350 0.695003
0.740749 0.905180 0.680385
0.819944 0.909575 0.653590
0.907958 0.912474 0.611261
0.990051 0.909606 0.540826
0.655085 0.959747 0.777066
0.684047 0.955535 0.781827
0.720333 0.949645 0.781003
0.733547 0.946838 0.760403
0.771847 0.938933 0.753048
0.817685 0.938354 0.738552
0.876158 0.941131 0.710658
0.943664 0.942657 0.663294
0.000000 0.070558 0.621515
0.108064 0.047456 0.637568
0.553887 0.000000 0.664088
0.741207 0.000000 0.590661
0.940002 0.200565 0.571160
1.000000 0.236271 0.494636
1.000000 0.340002 0.457404
1.000000 0.405035 0.418341
0.000000 0.177432 0.623346
0.000000 0.178225 0.639490
0.534478 0.208194 0.665034
0.738918 0.248081 0.608728
0.917601 0.339269 0.585290
1.000000 0.348058 0.512230
1.000000 0.441657 0.493751
1.000000 0.447822 0.424323
0.000000 0.394446 0.628809
0.000000 0.393561 0.620081
0.435462 0.427497 0.643214
0.709529 0.500633 0.631983
0.870359 0.523095 0.605219
0.958404 0.549798 0.570947
1.000000 0.562463 0.527245
1.000000 0.538872 0.439979
0.000000 0.673976 0.694789
0.000000 0.672358 0.687587
0.418585 0.670192 0.671534
0.678492 0.671962 0.650385
0.824491 0.670893 0.623102
0.925963 0.671046 0.590448
1.000000 0.664576 0.543999
1.000000 0.643000 0.467079
0.000000 0.869352 0.746456
0.260227 0.862486 0.742580
0.512413 0.836149 0.721736
0.677760 0.802457 0.694240
0.794675 0.805295 0.676783
0.896422 0.793942 0.638239
0.971252 0.763058 0.576654
1.000000 0.738888 0.503838
0.386511 0.920165 0.758450
0.470253 0.912383 0.756924
0.597925 0.894560 0.749599
0.701289 0.873655 0.737087
0.761654 0.860624 0.714565
0.858427 0.870848 0.696834
0.939361 0.864897 0.658991
0.999329 0.836057 0.582635
0.529107 0.946715 0.776852
0.571405 0.941680 0.776486
0.655421 0.929839 0.776913
0.730159 0.915892 0.773678
0.763851 0.904387 0.751186
0.824857 0.905699 0.737118
0.900328 0.910460 0.714717
0.969543 0.907622 0.673915
0.617456 0.967498 0.800626
0.649470 0.963500 0.803037
0.718929 0.953704 0.811704
0.773037 0.944793 0.814908
0.791440 0.939879 0.797513
0.828153 0.935149 0.789059
0.879210 0.939452 0.774380
0.937896 0.942443 0.749233
0.000000 0.112520 0.808591
0.181979 0.110018 0.814389
0.552941 0.133669 0.823484
0.830594 0.288243 0.830625
0.909422 0.321050 0.767025
0.981933 0.469062 0.734676
1.000000 0.506706 0.691920
1.000000 0.523552 0.645716
0.000000 0.222110 0.801450
0.164248 0.234623 0.806821
0.538415 0.281712 0.815396
0.806699 0.417609 0.821988
0.887877 0.444129 0.768521
0.959533 0.550805 0.744015
1.000000 0.561730 0.701900
1.000000 0.567376 0.657130
0.000000 0.412604 0.767391
0.000000 0.422858 0.775692
0.480354 0.472663 0.790066
0.753140 0.577966 0.800778
0.845182 0.608789 0.767391
0.920806 0.657465 0.752895
0.986419 0.644343 0.713313
1.000000 0.651026 0.681086
0.000000 0.621180 0.782132
0.004791 0.622736 0.777157
0.401770 0.628931 0.764370
0.678584 0.678859 0.773220
0.810117 0.726375 0.770047
0.890929 0.728603 0.753445
0.950011 0.725490 0.726558
1.000000 0.713100 0.686275
0.109438 0.798398 0.799527
0.278019 0.796994 0.796414
0.487434 0.794369 0.789059
0.659419 0.793027 0.779843
0.783719 0.792538 0.767849
0.866941 0.788418 0.749569
0.935241 0.783749 0.726253
0.995483 0.770901 0.687068
0.342626 0.910582 0.824949
0.423468 0.906157 0.822873
0.556176 0.896910 0.817075
0.680720 0.881041 0.803220
0.772213 0.858824 0.782193
0.849241 0.863340 0.775845
0.917754 0.856748 0.753170
0.973053 0.834836 0.709194
0.511131 0.951263 0.835782
0.551659 0.946380 0.832883
0.632319 0.935698 0.826658
0.719173 0.922515 0.819944
0.788724 0.907530 0.811643
0.827756 0.899351 0.796323
0.894194 0.907134 0.787198
0.952483 0.903716 0.762325
0.603723 0.970367 0.841154
0.631556 0.967132 0.840696
0.688136 0.959991 0.839628
0.757595 0.950805 0.841550
0.817990 0.940520 0.844907
0.840238 0.934081 0.831754
0.882536 0.937224 0.825223
0.933928 0.941711 0.813993
0.122805 0.203952 0.902068
0.313420 0.218082 0.902708
0.571252 0.270939 0.902342
0.791226 0.395056 0.899504
0.918456 0.534508 0.891478
0.956847 0.540459 0.847318
0.989899 0.627558 0.818540
1.000000 0.663905 0.796262
0.129000 0.301274 0.891356
0.312047 0.317876 0.891783
0.563409 0.372290 0.891508
0.774777 0.479744 0.888945
0.900999 0.603449 0.884062
0.938811 0.600336 0.844022
0.975738 0.667567 0.820798
1.000000 0.688960 0.799252
0.071901 0.463020 0.868925
0.289006 0.480446 0.869932
0.541375 0.530632 0.870665
0.743526 0.609674 0.871000
0.871305 0.704860 0.872923
0.908690 0.699947 0.841794
0.951171 0.738003 0.827878
0.993378 0.735653 0.805600
0.000000 0.611017 0.849973
0.181216 0.612940 0.845121
0.450813 0.633967 0.841855
0.696040 0.700710 0.850675
0.837247 0.767849 0.860410
0.884581 0.777340 0.842679
0.930694 0.795621 0.835538
0.975952 0.778470 0.809903
0.205661 0.757595 0.850614
0.310979 0.758267 0.847593
0.474617 0.759823 0.840421
0.624720 0.762631 0.830228
0.780117 0.792782 0.837034
0.862028 0.821622 0.838071
0.913725 0.820401 0.827420
0.957000 0.811856 0.807065
0.368475 0.862150 0.856046
0.434089 0.861295 0.854856
0.549737 0.858671 0.850980
0.664668 0.856321 0.845731
0.762081 0.854948 0.839322
0.842832 0.855924 0.832975
0.899901 0.853574 0.822110
0.949676 0.848814 0.805722
0.497230 0.939971 0.877867
0.539696 0.937896 0.877317
0.621668 0.932341 0.874571
0.710109 0.926757 0.871611
0.786740 0.917998 0.863828
0.841978 0.902892 0.848783
0.892210 0.905699 0.844266
0.940276 0.902220 0.830076
0.603571 0.972961 0.887694
0.630884 0.970886 0.887480
0.686793 0.964355 0.884306
0.751492 0.956298 0.880644
0.810178 0.947662 0.876616
0.860319 0.938506 0.874632
0.888609 0.935851 0.868009
0.933654 0.942779 0.866819
0.322240 0.312566 0.946746
0.427710 0.336736 0.946471
0.602899 0.389380 0.942504
0.768978 0.483009 0.936065
0.884306 0.595514 0.927855
0.948577 0.662348 0.919127
0.973907 0.659602 0.886656
0.995178 0.705776 0.860929
0.318090 0.379248 0.935607
0.420050 0.400427 0.935180
0.591821 0.448432 0.931640
0.754086 0.527825 0.926329
0.870085 0.625086 0.919890
0.936675 0.684688 0.912505
0.962615 0.675868 0.880766
0.987427 0.714595 0.857084
0.325872 0.515435 0.919860
0.429694 0.537438 0.918303
0.584588 0.572198 0.915526
0.736049 0.630335 0.912016
0.847868 0.699336 0.908873
0.917723 0.752743 0.906432
0.942840 0.744594 0.880797
0.970916 0.771572 0.864988
0.201389 0.616663 0.900145
0.325780 0.625177 0.899168
0.527703 0.656062 0.897642
0.704524 0.710292 0.896941
0.822293 0.760403 0.898436
0.901854 0.812558 0.902831
0.925414 0.803677 0.882292
0.955535 0.819028 0.871946
0.240085 0.728511 0.890257
0.310063 0.727596 0.886961
0.438270 0.726650 0.879698
0.598230 0.737728 0.873960
0.771115 0.784939 0.881163
0.873289 0.831601 0.890196
0.908019 0.838224 0.878477
0.942657 0.852995 0.876066
0.349462 0.827756 0.888579
0.404242 0.827481 0.886931
0.511955 0.827176 0.882811
0.624964 0.827420 0.877073
0.722988 0.827726 0.869566
0.835782 0.851499 0.877043
0.897124 0.874479 0.881163
0.934203 0.873899 0.874784
0.485664 0.901274 0.894469
0.525200 0.900633 0.893889
0.599939 0.898924 0.891905
0.684260 0.897795 0.889586
0.761227 0.897124 0.886442
0.829709 0.898009 0.883726
0.887968 0.900938 0.882078
0.929290 0.900725 0.876432
0.592462 0.956237 0.910307
0.619379 0.956085 0.911131
0.679194 0.956512 0.913909
0.744686 0.954467 0.914214
0.807706 0.951415 0.913390
0.861601 0.947662 0.911223
0.900908 0.940154 0.904906
0.935302 0.944701 0.907012
0.446815 0.416480 0.969543
0.511437 0.435920 0.968017
0.628595 0.472816 0.963287
0.754116 0.538140 0.957000
0.853696 0.616510 0.949432
0.923766 0.696071 0.942473
0.967132 0.722683 0.936461
0.987152 0.716213 0.910491
0.447089 0.465705 0.961975
0.508873 0.482002 0.960510
0.623865 0.516564 0.956481
0.745785 0.572778 0.950896
0.845029 0.643610 0.944396
0.915923 0.713649 0.938720
0.960113 0.737667 0.933165
0.980591 0.729000 0.907988
0.448859 0.563043 0.948028
0.502037 0.572198 0.947082
0.610742 0.597833 0.943816
0.732326 0.647120 0.939910
0.828458 0.698421 0.935485
0.900450 0.750912 0.932067
0.946502 0.776486 0.928374
0.967041 0.765896 0.905821
0.320226 0.613977 0.937163
0.406287 0.626612 0.936461
0.573449 0.668910 0.931121
0.704738 0.709102 0.928283
0.806546 0.749691 0.926543
0.883085 0.791806 0.925933
0.933318 0.822019 0.925353
0.952789 0.812497 0.906462
0.213382 0.698268 0.922759
0.284794 0.699977 0.921019
0.427619 0.705104 0.917601
0.618067 0.733913 0.917021
0.765621 0.779446 0.915709
0.858396 0.817716 0.917754
0.921477 0.857359 0.922393
0.940551 0.851377 0.907713
0.292271 0.793668 0.917693
0.340887 0.792752 0.915892
0.440192 0.791318 0.911589
0.556573 0.791714 0.905608
0.676997 0.797574 0.900511
0.824399 0.841611 0.908904
0.906889 0.882506 0.919677
0.934478 0.891569 0.915068
0.449104 0.876371 0.919860
0.485634 0.876127 0.918975
0.560174 0.875761 0.916838
0.647852 0.876677 0.914305
0.730343 0.878508 0.911376
0.799039 0.879484 0.906767
0.882597 0.897795 0.913359
0.929473 0.916930 0.919402
0.577173 0.931670 0.926757
0.601038 0.931182 0.926421
0.654200 0.930571 0.925872
0.720546 0.930877 0.925750
0.785214 0.932158 0.925902
0.843717 0.934569 0.926452
0.894224 0.938293 0.928038
0.933013 0.942626 0.930297
