data/fiter_cube/37639453/1023439/file.cube
# Created by Adobe Lightroom plugin Export LUT (1.17.0)
# www.johnrellis.com/lightroom/exportlut.htm
# Preset: 油管牛人_05 云集
# Color profile: C:\Program Files (x86)\Common Files\Adobe\Color\Profiles\Recommended\AdobeRGB1998.icc
LUT_3D_SIZE 32
DOMAIN_MIN 0.0 0.0 0.0
DOMAIN_MAX 1.0 1.0 1.0
0.013916 0.015595 0.024323
0.027893 0.016754 0.026032
0.044282 0.019837 0.027527
0.062318 0.024537 0.031830
0.077119 0.031373 0.037720
0.094301 0.038209 0.045228
0.117983 0.041596 0.049714
0.148684 0.035401 0.052827
0.186770 0.017304 0.053437
0.233310 0.000000 0.052094
0.288853 0.000000 0.047059
0.350591 0.000000 0.036439
0.415106 0.000000 0.020447
0.478645 0.000000 0.001923
0.538140 0.000000 0.000000
0.592615 0.000000 0.000000
0.642206 0.000000 0.000000
0.687037 0.000000 0.000000
0.736507 0.000000 0.000000
0.781674 0.000000 0.000000
0.818540 0.000000 0.000000
0.849180 0.000000 0.000000
0.874723 0.000000 0.000000
0.896635 0.091463 0.000000
0.915953 0.144930 0.032319
0.933562 0.184939 0.073823
0.950317 0.221378 0.098756
0.966461 0.256077 0.123934
0.982300 0.290684 0.151431
0.997894 0.326543 0.181552
1.000000 0.363867 0.215610
1.000000 0.403906 0.255924
0.013672 0.027161 0.029877
0.025177 0.028748 0.030518
0.043519 0.030457 0.029908
0.062165 0.033936 0.033234
0.076539 0.040986 0.040223
0.093904 0.046632 0.046754
0.117006 0.048829 0.050141
0.146822 0.044648 0.052522
0.184298 0.029297 0.053956
0.229984 0.000000 0.051911
0.284276 0.000000 0.047913
0.345068 0.000000 0.037049
0.408698 0.000000 0.021759
0.471778 0.000000 0.003845
0.531212 0.000000 0.000000
0.585718 0.000000 0.000000
0.635370 0.000000 0.000000
0.680873 0.000000 0.000000
0.730617 0.000000 0.000000
0.774929 0.000000 0.000000
0.811765 0.000000 0.000000
0.842771 0.000000 0.000000
0.868803 0.000000 0.000000
0.891264 0.082460 0.000000
0.911162 0.138552 0.012390
0.929259 0.179965 0.064912
0.946563 0.215885 0.091157
0.963165 0.251133 0.117403
0.979400 0.285985 0.144686
0.995361 0.321782 0.174838
1.000000 0.359045 0.208774
1.000000 0.398810 0.248600
0.013672 0.042115 0.038392
0.025757 0.042512 0.036957
0.038605 0.043885 0.037598
0.060853 0.047974 0.038636
0.076234 0.051301 0.042542
0.093416 0.055726 0.047730
0.116152 0.057313 0.051179
0.145541 0.055085 0.053498
0.182467 0.044984 0.054139
0.227420 0.018585 0.052155
0.281132 0.000000 0.048249
0.341222 0.000000 0.037446
0.404700 0.000000 0.022217
0.467597 0.000000 0.004425
0.526940 0.000000 0.000000
0.581628 0.000000 0.000000
0.631525 0.000000 0.000000
0.677211 0.000000 0.000000
0.727443 0.000000 0.000000
0.771237 0.000000 0.000000
0.808194 0.000000 0.000000
0.839322 0.000000 0.000000
0.865721 0.000000 0.000000
0.888396 0.088777 0.000000
0.908507 0.141848 0.003052
0.926909 0.180819 0.059724
0.944427 0.216556 0.088075
0.961334 0.251377 0.113680
0.977813 0.285863 0.141329
0.993927 0.321263 0.171847
1.000000 0.358312 0.205661
1.000000 0.397345 0.244785
0.014496 0.060487 0.052766
0.027375 0.061036 0.053254
0.038270 0.060822 0.052247
0.057862 0.062104 0.052430
0.073823 0.065339 0.051881
0.093263 0.067140 0.050202
0.116030 0.068330 0.052796
0.145449 0.068116 0.054139
0.181704 0.065583 0.054566
0.226200 0.056428 0.052369
0.278904 0.019654 0.047333
0.338628 0.000000 0.037110
0.400855 0.000000 0.022919
0.463294 0.000000 0.004028
0.522667 0.000000 0.000000
0.577173 0.000000 0.000000
0.627161 0.000000 0.000000
0.672847 0.000000 0.000000
0.723659 0.000000 0.000000
0.765805 0.000000 0.000000
0.802090 0.000000 0.000000
0.833280 0.000000 0.000000
0.860349 0.000000 0.000000
0.884154 0.108492 0.000000
0.905516 0.154147 0.000000
0.925017 0.191714 0.056794
0.943328 0.226352 0.086976
0.960632 0.259892 0.113954
0.977264 0.293370 0.141451
0.993347 0.327367 0.171664
1.000000 0.362737 0.204990
1.000000 0.400092 0.243046
0.017823 0.072541 0.062623
0.026825 0.073213 0.062470
0.034363 0.073640 0.060182
0.056153 0.073426 0.060822
0.069551 0.075898 0.060670
0.087648 0.080385 0.059541
0.113680 0.083955 0.055665
0.143771 0.085695 0.054932
0.179477 0.085786 0.054261
0.222873 0.083253 0.052552
0.274693 0.074220 0.047395
0.333013 0.052552 0.035706
0.394995 0.000000 0.021088
0.457435 0.000000 0.002777
0.517082 0.000000 0.000000
0.572747 0.000000 0.000000
0.623682 0.000000 0.000000
0.673365 0.000000 0.000000
0.722713 0.000000 0.000000
0.763821 0.000000 0.000000
0.799222 0.000000 0.000000
0.830106 0.000000 0.000000
0.857115 0.095949 0.000000
0.881224 0.140566 0.000000
0.902922 0.176059 0.000000
0.922789 0.208835 0.052094
0.941344 0.240238 0.084443
0.958831 0.271061 0.111818
0.975555 0.302464 0.140078
0.991669 0.334905 0.170016
1.000000 0.368688 0.203159
1.000000 0.404822 0.240757
0.016846 0.087221 0.069947
0.023346 0.087892 0.069429
0.031464 0.088808 0.068086
0.049317 0.088991 0.065187
0.067109 0.089052 0.065248
0.082521 0.094362 0.064942
0.106111 0.101228 0.063386
0.139132 0.107210 0.059632
0.179690 0.110719 0.053223
0.223056 0.110780 0.050935
0.274327 0.108034 0.044251
0.332403 0.100160 0.032532
0.393683 0.085817 0.016815
0.455818 0.059541 0.000000
0.515465 0.000000 0.000000
0.571160 0.000000 0.000000
0.622339 0.000000 0.000000
0.676173 0.000000 0.000000
0.723659 0.000000 0.000000
0.764065 0.000000 0.000000
0.799313 0.076844 0.000000
0.830320 0.117067 0.000000
0.891295 0.209140 0.000000
0.911620 0.235050 0.051453
0.929595 0.259525 0.084443
0.946014 0.283116 0.108064
0.961334 0.306859 0.131777
0.975982 0.331426 0.156100
0.990265 0.357549 0.182559
1.000000 0.385473 0.211826
1.000000 0.415381 0.244724
1.000000 0.447608 0.281895
0.006256 0.110872 0.078431
0.013031 0.111604 0.077302
0.019684 0.112795 0.075776
0.035920 0.114412 0.070832
0.063325 0.113680 0.069429
0.081300 0.115572 0.069032
0.103700 0.124117 0.068360
0.136660 0.134646 0.065919
0.180148 0.143008 0.060273
0.233310 0.148379 0.048341
0.291905 0.148959 0.032166
0.351934 0.145754 0.017548
0.413733 0.138796 0.000580
0.474800 0.128908 0.000000
0.532097 0.117433 0.000000
0.584802 0.107118 0.000000
0.636439 0.102724 0.000000
0.692226 0.111269 0.000000
0.737911 0.126375 0.000000
0.777890 0.146029 0.000000
0.814115 0.170291 0.000000
0.846708 0.196506 0.000000
0.875486 0.223667 0.000000
0.900603 0.250523 0.010315
0.922240 0.276158 0.072419
0.940734 0.299382 0.101320
0.957153 0.322240 0.127565
0.972381 0.345159 0.152346
0.987060 0.369055 0.178744
1.000000 0.394812 0.207858
1.000000 0.422675 0.239963
1.000000 0.453223 0.276738
0.000000 0.136294 0.086793
0.000000 0.137087 0.085786
0.002258 0.138033 0.083833
0.018830 0.140169 0.079652
0.047608 0.140444 0.072938
0.075044 0.138613 0.073121
0.097505 0.143526 0.072572
0.126314 0.154696 0.071290
0.166903 0.168338 0.068635
0.219272 0.179019 0.059388
0.281071 0.185611 0.038972
0.349340 0.187900 0.006806
0.411322 0.184756 0.000000
0.471656 0.179782 0.000000
0.528862 0.174258 0.000000
0.581262 0.169467 0.000000
0.639979 0.173007 0.000000
0.691463 0.179477 0.000000
0.734920 0.188510 0.000000
0.773800 0.201328 0.000000
0.809262 0.217838 0.000000
0.841550 0.237308 0.000000
0.870268 0.258457 0.000000
0.895445 0.280064 0.000000
0.917388 0.301274 0.066529
0.936217 0.321538 0.097444
0.953033 0.341344 0.123781
0.968658 0.361700 0.148745
0.983642 0.383673 0.175753
0.998169 0.407263 0.204166
1.000000 0.433478 0.236698
1.000000 0.462135 0.272984
0.000000 0.167239 0.096681
0.000000 0.167910 0.095521
0.000000 0.168917 0.093477
0.000000 0.170748 0.089540
0.012604 0.172793 0.079438
0.062684 0.170565 0.076814
0.090974 0.167910 0.076967
0.118715 0.177462 0.075868
0.155306 0.191348 0.073976
0.204959 0.208255 0.070832
0.267002 0.220920 0.056611
0.335332 0.228061 0.024231
0.406073 0.230869 0.000000
0.472175 0.229587 0.000000
0.528527 0.226169 0.000000
0.588556 0.227634 0.000000
0.644312 0.231540 0.000000
0.692592 0.236912 0.000000
0.734035 0.243198 0.000000
0.771847 0.252476 0.000000
0.806638 0.264927 0.000000
0.838468 0.279881 0.000000
0.866850 0.296696 0.000000
0.891905 0.314061 0.000000
0.913817 0.331731 0.064881
0.932830 0.348425 0.096132
0.949828 0.365362 0.122744
0.965606 0.383032 0.148501
0.980774 0.402411 0.174807
0.995422 0.423804 0.203464
1.000000 0.447517 0.235203
1.000000 0.474067 0.271092
0.000000 0.202762 0.107393
0.000000 0.203250 0.106355
0.000000 0.204074 0.104341
0.000000 0.205692 0.099947
0.000000 0.208103 0.092927
0.018982 0.207095 0.081331
0.078340 0.203647 0.081147
0.111116 0.200778 0.080812
0.145235 0.215183 0.079011
0.189609 0.231907 0.076509
0.248539 0.250675 0.071839
0.318761 0.264866 0.051728
0.390204 0.272526 0.007355
0.460517 0.275853 0.000000
0.534874 0.281682 0.000000
0.596674 0.285344 0.000000
0.650355 0.289128 0.000000
0.696742 0.293156 0.000000
0.736843 0.297856 0.000000
0.773068 0.304204 0.000000
0.806119 0.312657 0.000000
0.836088 0.323095 0.000000
0.863066 0.334722 0.000000
0.887114 0.347601 0.000000
0.908629 0.360906 0.060273
0.927825 0.374609 0.092927
0.945373 0.389166 0.119783
0.961761 0.405066 0.146639
0.977508 0.422980 0.174258
0.992737 0.442908 0.203494
1.000000 0.465400 0.236851
1.000000 0.490608 0.273411
0.000000 0.239994 0.119326
0.000000 0.240513 0.118196
0.000000 0.241276 0.115999
0.000000 0.242771 0.111879
0.000000 0.245090 0.105043
0.000000 0.246708 0.090364
0.050690 0.243473 0.085512
0.099611 0.239200 0.085115
0.136477 0.240391 0.084199
0.178225 0.257511 0.082399
0.231571 0.276371 0.078553
0.298680 0.296239 0.072145
0.376715 0.313878 0.048707
0.455909 0.325933 0.000000
0.529290 0.333654 0.000000
0.594690 0.339117 0.000000
0.652094 0.343114 0.000000
0.696468 0.345312 0.000000
0.735378 0.347570 0.000000
0.770748 0.351385 0.000000
0.803311 0.357336 0.000000
0.833158 0.365179 0.000000
0.860014 0.374212 0.000000
0.884062 0.384314 0.000000
0.905608 0.394751 0.060945
0.924773 0.405646 0.093812
0.942229 0.417365 0.121828
0.958679 0.430671 0.147738
0.974456 0.445808 0.174807
0.989715 0.463355 0.204196
1.000000 0.483589 0.237217
1.000000 0.506706 0.273442
0.000000 0.281621 0.132570
0.000000 0.282109 0.131411
0.000000 0.282719 0.129122
0.000000 0.284031 0.125307
0.000000 0.286168 0.118105
0.000000 0.288914 0.108370
0.000000 0.287114 0.090333
0.078981 0.282628 0.090150
0.126040 0.277317 0.089601
0.167910 0.283909 0.087953
0.218601 0.303502 0.085389
0.285985 0.328771 0.080903
0.408545 0.387915 0.076509
0.498756 0.410986 0.051087
0.572351 0.421363 0.000000
0.635981 0.428107 0.000000
0.689723 0.431495 0.000000
0.734127 0.431434 0.000000
0.769375 0.429603 0.000000
0.799741 0.429175 0.000000
0.827512 0.430182 0.000000
0.852811 0.433143 0.000000
0.875608 0.437018 0.000000
0.896452 0.442176 0.067597
0.915435 0.448310 0.098817
0.932738 0.455604 0.125551
0.948699 0.463783 0.149416
0.963806 0.473640 0.173434
0.978393 0.485359 0.198642
0.992737 0.499794 0.226810
1.000000 0.516838 0.258366
1.000000 0.537072 0.293736
0.000000 0.337835 0.151278
0.000000 0.338231 0.149966
0.000000 0.338018 0.147402
0.000000 0.338231 0.142916
0.000000 0.338903 0.135561
0.000000 0.339605 0.125551
0.000000 0.339330 0.104768
0.008698 0.334173 0.096742
0.110842 0.328191 0.095583
0.161868 0.323735 0.094850
0.217777 0.344610 0.094118
0.289097 0.375189 0.092256
0.373968 0.407141 0.089387
0.465888 0.437537 0.085451
0.552453 0.461616 0.072267
0.619043 0.471290 0.008087
0.674739 0.475837 0.000000
0.720363 0.475990 0.000000
0.759487 0.474403 0.000000
0.794278 0.472541 0.000000
0.821866 0.471321 0.000000
0.847105 0.471534 0.000000
0.869963 0.473060 0.000000
0.890929 0.475776 0.066804
0.910033 0.479561 0.099062
0.927550 0.484443 0.124269
0.943816 0.490547 0.148684
0.959167 0.498390 0.172946
0.974090 0.508232 0.198489
0.988769 0.520806 0.226596
1.000000 0.536065 0.257725
1.000000 0.554559 0.293400
0.000000 0.381262 0.167086
0.000000 0.381537 0.165408
0.000000 0.381262 0.163546
0.000000 0.381415 0.158755
0.000000 0.381537 0.152132
0.000000 0.381994 0.142275
0.000000 0.383307 0.129885
0.000000 0.382177 0.104433
0.081880 0.380011 0.104036
0.150973 0.376989 0.102876
0.206424 0.372778 0.101656
0.272465 0.400824 0.101686
0.350042 0.430396 0.101106
0.435554 0.459724 0.100038
0.522576 0.487678 0.100038
0.599847 0.509178 0.097719
0.657649 0.515282 0.069032
0.704952 0.516381 0.023194
0.745754 0.515190 0.000000
0.781888 0.513542 0.000000
0.814389 0.511864 0.000000
0.842008 0.510582 0.000000
0.865080 0.509972 0.000000
0.886259 0.510826 0.070680
0.905608 0.512718 0.101625
0.923369 0.515709 0.127962
0.939849 0.519951 0.151858
0.955505 0.525841 0.175998
0.970611 0.533959 0.201694
0.985504 0.544701 0.230014
1.000000 0.558282 0.261814
1.000000 0.575067 0.297246
0.000000 0.427741 0.184909
0.000000 0.428534 0.183871
0.000000 0.428962 0.182101
0.000000 0.429908 0.178195
0.000000 0.431434 0.172122
0.000000 0.433143 0.162783
0.000000 0.435737 0.151644
0.000000 0.436683 0.127077
0.000000 0.432990 0.114961
0.131746 0.428504 0.113527
0.196994 0.423224 0.111910
0.256168 0.424079 0.110719
0.328374 0.452003 0.111940
0.407813 0.479622 0.113741
0.490120 0.506035 0.115633
0.569451 0.530999 0.119173
0.640345 0.551385 0.124758
0.689876 0.554162 0.104768
0.732174 0.553796 0.088014
0.769497 0.552453 0.074800
0.802945 0.550774 0.061128
0.832914 0.548943 0.039216
0.859648 0.546929 0.017609
0.881498 0.545739 0.074434
0.901122 0.545983 0.106142
0.919341 0.547601 0.132357
0.936492 0.550805 0.158145
0.952789 0.555932 0.183566
0.968566 0.563287 0.211215
0.983978 0.573388 0.241459
0.999115 0.586236 0.274754
1.000000 0.602350 0.312596
0.000000 0.484138 0.209628
0.000000 0.484962 0.208804
0.000000 0.485298 0.206973
0.000000 0.485908 0.203250
0.000000 0.486671 0.196658
0.000000 0.487861 0.188144
0.000000 0.489601 0.177279
0.000000 0.492073 0.163821
0.000000 0.488838 0.129854
0.104280 0.483192 0.127932
0.185458 0.476051 0.125551
0.247990 0.467414 0.122499
0.309148 0.472572 0.121431
0.382086 0.497261 0.124697
0.458503 0.521172 0.128237
0.534508 0.544396 0.132692
0.607324 0.567346 0.139315
0.672694 0.587243 0.153353
0.717891 0.589319 0.138766
0.757717 0.589685 0.127535
0.792935 0.589075 0.121859
0.824308 0.587762 0.118410
0.852110 0.586175 0.114595
0.877134 0.584344 0.113222
0.899199 0.582757 0.119478
0.917601 0.583001 0.145418
0.934844 0.584680 0.170779
0.951232 0.588281 0.196231
0.966949 0.594049 0.224308
0.982238 0.602075 0.253635
0.997192 0.612665 0.286015
1.000000 0.626368 0.322362
0.000000 0.531823 0.233280
0.000000 0.532036 0.232059
0.000000 0.531884 0.230289
0.000000 0.532006 0.226169
0.000000 0.532311 0.220676
0.000000 0.532830 0.212528
0.000000 0.533623 0.202029
0.000000 0.534661 0.188785
0.000000 0.533593 0.158877
0.029572 0.528038 0.143496
0.165225 0.520806 0.140749
0.235447 0.512169 0.137209
0.294041 0.501671 0.132876
0.358648 0.513512 0.133974
0.431464 0.536461 0.139162
0.504112 0.558312 0.145052
0.574640 0.579950 0.152193
0.641291 0.600977 0.161440
0.701228 0.619409 0.181033
0.743465 0.622187 0.172427
0.780331 0.622309 0.163882
0.812802 0.621515 0.161624
0.841642 0.620142 0.159701
0.867674 0.618555 0.159701
0.891234 0.616907 0.160464
0.912871 0.615473 0.161685
0.931365 0.615595 0.179385
0.948089 0.617975 0.205509
0.964141 0.622370 0.233463
0.979644 0.629084 0.263645
0.994842 0.638453 0.296452
1.000000 0.650813 0.333471
0.000000 0.577020 0.258885
0.000000 0.577874 0.257877
0.000000 0.608484 0.275364
0.000000 0.608179 0.271336
0.000000 0.607568 0.265171
0.000000 0.606683 0.256321
0.000000 0.605646 0.245640
0.000000 0.604608 0.232609
0.000000 0.603693 0.217441
0.000000 0.597803 0.175692
0.161135 0.589075 0.171237
0.241398 0.578515 0.165682
0.304601 0.565942 0.159518
0.358831 0.551629 0.152560
0.427039 0.569329 0.158328
0.497200 0.589960 0.166171
0.564508 0.609705 0.175326
0.627405 0.628138 0.187289
0.686519 0.645960 0.200931
0.738949 0.661158 0.223606
0.777188 0.663752 0.222293
0.809445 0.662409 0.215915
0.838071 0.660304 0.214206
0.863584 0.657923 0.213291
0.886473 0.654963 0.212833
0.907469 0.652186 0.212985
0.927031 0.649775 0.214237
0.945495 0.648615 0.218357
0.961303 0.650904 0.244511
0.976806 0.655940 0.274113
0.992096 0.663722 0.307012
1.000000 0.674189 0.343053
0.000000 0.626947 0.290166
0.000000 0.630884 0.291447
0.000000 0.634882 0.292424
0.000000 0.638117 0.291539
0.000000 0.640192 0.287694
0.000000 0.640650 0.280827
0.000000 0.639979 0.271122
0.000000 0.638788 0.259281
0.000000 0.637629 0.245304
0.000000 0.634394 0.211948
0.128573 0.626734 0.191073
0.222812 0.616846 0.184970
0.291356 0.604944 0.178592
0.348730 0.590997 0.170626
0.400793 0.580285 0.164431
0.468727 0.600031 0.172824
0.534264 0.618799 0.182864
0.596277 0.636561 0.194858
0.654902 0.653803 0.208499
0.710170 0.670863 0.225315
0.759091 0.685451 0.250248
0.796414 0.690242 0.257481
0.826688 0.689357 0.253147
0.853544 0.687678 0.252476
0.877470 0.685359 0.253147
0.899290 0.683162 0.254704
0.919554 0.681086 0.256504
0.938720 0.679957 0.260624
0.957214 0.680079 0.267185
0.974060 0.682887 0.286564
0.989441 0.689082 0.318853
1.000000 0.698085 0.354772
0.000000 0.661616 0.313481
0.000000 0.665003 0.315282
0.000000 0.668452 0.316258
0.000000 0.671229 0.315465
0.000000 0.672969 0.312047
0.000000 0.673121 0.305547
0.000000 0.672297 0.296696
0.000000 0.671015 0.286046
0.000000 0.669703 0.273533
0.000000 0.667903 0.258488
0.085328 0.662531 0.213382
0.203952 0.653590 0.207492
0.278416 0.642603 0.199985
0.339330 0.630213 0.192172
0.391547 0.615717 0.183169
0.444862 0.612146 0.180026
0.508965 0.629938 0.190341
0.569940 0.647059 0.202823
0.627863 0.663722 0.217227
0.682734 0.680201 0.234134
0.734066 0.696284 0.253330
0.779721 0.710323 0.280766
0.815366 0.716548 0.295628
0.843473 0.715785 0.293278
0.868406 0.713924 0.292180
0.890806 0.711940 0.294469
0.911559 0.710109 0.297520
0.931121 0.708980 0.301823
0.949920 0.709071 0.308843
0.968170 0.710567 0.318914
0.986145 0.713527 0.331029
1.000000 0.720821 0.364996
0.000000 0.693996 0.337591
0.000000 0.696925 0.338994
0.000000 0.699947 0.340185
0.000000 0.702358 0.339788
0.000000 0.703731 0.336675
0.000000 0.703761 0.331090
0.000000 0.702876 0.323400
0.000000 0.701350 0.313237
0.000000 0.699672 0.302007
0.000000 0.697658 0.289036
0.096345 0.694240 0.255100
0.183749 0.686915 0.231571
0.264683 0.676997 0.223606
0.328923 0.665705 0.215152
0.384039 0.652949 0.205783
0.432532 0.638972 0.195956
0.488533 0.643671 0.198947
0.549920 0.661402 0.213321
0.608606 0.678859 0.230350
0.664363 0.696010 0.249943
0.716487 0.712764 0.272526
0.764706 0.728847 0.297398
0.806668 0.742153 0.327764
0.839841 0.749386 0.351507
0.865568 0.748775 0.351843
0.888640 0.747402 0.352575
0.909483 0.746151 0.357671
0.929046 0.745357 0.364080
0.947753 0.745632 0.372564
0.965820 0.747127 0.383520
0.983551 0.749996 0.397162
1.000000 0.754482 0.413214
0.000000 0.735744 0.372168
0.000000 0.736995 0.372564
0.000000 0.737881 0.372473
0.000000 0.738369 0.370703
0.000000 0.738338 0.366949
0.000000 0.737545 0.361486
0.000000 0.736416 0.354284
0.000000 0.735042 0.345830
0.000000 0.733639 0.336187
0.000000 0.732021 0.325628
0.155001 0.729885 0.310857
0.179232 0.725368 0.265843
0.263401 0.716518 0.257877
0.329290 0.706447 0.249088
0.385840 0.694820 0.238743
0.435706 0.682094 0.228092
0.479774 0.668421 0.216434
0.536217 0.679377 0.227024
0.593225 0.695369 0.244327
0.647150 0.710964 0.264195
0.697627 0.725887 0.285801
0.744625 0.740261 0.309331
0.787564 0.753750 0.334600
0.825010 0.764797 0.363775
0.855589 0.771969 0.392370
0.879301 0.771359 0.393408
0.901061 0.770443 0.396094
0.921111 0.770077 0.402991
0.940124 0.770535 0.412421
0.958404 0.772030 0.423926
0.976257 0.774807 0.437781
0.994079 0.779507 0.455238
0.000000 0.763333 0.396399
0.000000 0.764462 0.397070
0.000000 0.765438 0.397223
0.000000 0.765835 0.395453
0.000000 0.765713 0.392218
0.000000 0.764767 0.387366
0.000000 0.763363 0.380865
0.000000 0.761715 0.373358
0.000000 0.759976 0.364935
0.000000 0.758083 0.355596
0.164981 0.755764 0.345098
0.201480 0.752621 0.311223
0.255222 0.746090 0.286900
0.322911 0.737179 0.278080
0.380377 0.727077 0.268315
0.431525 0.715969 0.257511
0.477241 0.704097 0.246311
0.519280 0.693080 0.235752
0.576013 0.708614 0.254368
0.629664 0.723720 0.274754
0.679927 0.738277 0.297154
0.726772 0.752224 0.322148
0.770077 0.765438 0.348058
0.809567 0.777859 0.375341
0.839445 0.783047 0.393835
0.868284 0.790799 0.428321
0.890806 0.790768 0.431281
0.911681 0.790707 0.436042
0.931243 0.791318 0.444831
0.949859 0.792966 0.456916
0.968017 0.795987 0.471870
0.986206 0.801236 0.491524
0.000000 0.797208 0.429694
0.000000 0.798367 0.430549
0.000000 0.798886 0.430274
0.000000 0.798795 0.428626
0.000000 0.797971 0.425330
0.000000 0.796597 0.420722
0.000000 0.794644 0.414679
0.000000 0.792264 0.407599
0.000000 0.789578 0.399298
0.049165 0.786709 0.390387
0.182620 0.783383 0.380804
0.246586 0.779751 0.365332
0.256291 0.775235 0.320287
0.321447 0.766629 0.310613
0.377111 0.756802 0.299504
0.426856 0.745998 0.287633
0.471717 0.734432 0.274937
0.512688 0.722560 0.262242
0.556023 0.718257 0.258671
0.609308 0.732876 0.279423
0.659815 0.747127 0.302831
0.706752 0.760586 0.327367
0.749905 0.773068 0.353307
0.789212 0.784482 0.379065
0.824704 0.794827 0.404730
0.855619 0.803128 0.431098
0.882292 0.811246 0.471290
0.903319 0.811429 0.475196
0.923186 0.812070 0.481788
0.942077 0.813596 0.492287
0.960418 0.816831 0.508232
0.978759 0.822141 0.528923
0.000000 0.819394 0.452064
0.000000 0.820432 0.452888
0.000000 0.820951 0.453223
0.000000 0.820829 0.451881
0.000000 0.820066 0.449165
0.000000 0.818784 0.445197
0.000000 0.817075 0.440223
0.000000 0.815000 0.434363
0.000000 0.812772 0.427893
0.099794 0.810269 0.420905
0.201663 0.807401 0.413581
0.271458 0.804196 0.405280
0.291905 0.801022 0.372778
0.328313 0.795254 0.347570
0.382757 0.786984 0.337255
0.431403 0.777829 0.325750
0.475746 0.768093 0.314092
0.516808 0.757992 0.301640
0.555261 0.747799 0.289616
0.599695 0.749691 0.295048
0.649104 0.762814 0.318395
0.695216 0.775235 0.343877
0.737667 0.786801 0.369543
0.776486 0.797421 0.395789
0.811856 0.807187 0.421851
0.843900 0.816190 0.447700
0.872282 0.823880 0.473610
0.896452 0.831571 0.515953
0.916686 0.833585 0.527214
0.935821 0.835538 0.537316
0.954650 0.839078 0.551934
0.973205 0.844511 0.572137
0.000000 0.842893 0.478126
0.000000 0.843503 0.478492
0.000000 0.843626 0.478431
0.000000 0.843107 0.476905
0.000000 0.842069 0.474159
0.000000 0.840574 0.470710
0.000000 0.838712 0.466163
0.000000 0.836606 0.461341
0.000000 0.834318 0.455818
0.138460 0.831937 0.450263
0.223911 0.829221 0.444526
0.289189 0.826322 0.438575
0.334936 0.823148 0.425788
0.339117 0.820188 0.384192
0.390143 0.813077 0.374456
0.436469 0.805203 0.363622
0.479225 0.796658 0.351995
0.519219 0.787869 0.340185
0.557153 0.779049 0.328649
0.593225 0.770138 0.316533
0.638025 0.776761 0.331304
0.683436 0.788235 0.356664
0.725368 0.798917 0.382513
0.763882 0.808865 0.408820
0.799008 0.817990 0.434974
0.830930 0.826413 0.460945
0.860044 0.834379 0.486854
0.886564 0.841886 0.512566
0.908324 0.848783 0.554131
0.928191 0.852720 0.572259
0.947265 0.856413 0.585748
0.966217 0.861662 0.603204
0.000000 0.862852 0.501396
0.000000 0.863157 0.501549
0.000000 0.863188 0.501396
0.000000 0.862821 0.500328
0.000000 0.862119 0.498665
0.000000 0.861326 0.496590
0.000000 0.860563 0.494759
0.000000 0.859770 0.492897
0.103395 0.858946 0.491218
0.206546 0.857969 0.489876
0.277775 0.856626 0.488777
0.338048 0.854856 0.487373
0.391547 0.852506 0.485817
0.406134 0.850980 0.459571
0.430762 0.847257 0.437476
0.471168 0.841154 0.428229
0.509392 0.834409 0.417639
0.545861 0.827359 0.406775
0.581262 0.820218 0.395789
0.615351 0.813016 0.384527
0.648005 0.805814 0.373541
0.690761 0.814878 0.398230
0.730465 0.823789 0.424353
0.766842 0.832120 0.450690
0.799954 0.839811 0.477058
0.830137 0.847044 0.502953
0.857725 0.853941 0.528527
0.882902 0.860502 0.553491
0.906218 0.867063 0.577661
0.926268 0.874022 0.615930
0.945403 0.879820 0.639002
0.964355 0.885191 0.654688
0.000000 0.890074 0.538659
0.000000 0.890135 0.538842
0.000000 0.889921 0.538506
0.000000 0.889281 0.537407
0.000000 0.888273 0.535790
0.000000 0.887022 0.533959
0.000000 0.885618 0.532006
0.106630 0.884062 0.530266
0.197818 0.882383 0.528557
0.264073 0.880461 0.527214
0.320775 0.878233 0.525780
0.372534 0.875669 0.524498
0.420081 0.872709 0.523461
0.452888 0.869902 0.514519
