data/fiter_cube/37639453/1023439/file.cube
# Created by Adobe Lightroom plugin Export LUT (1.17.0)
# www.johnrellis.com/lightroom/exportlut.htm
# Preset: 油管牛人_05 云集
# Color profile: C:\Program Files (x86)\Common Files\Adobe\Color\Profiles\Recommended\AdobeRGB1998.icc
LUT_3D_SIZE 5
DOMAIN_MIN 0.000000 0.000000 0.000000
DOMAIN_MAX 0.903226 0.903226 0.903226
0.013916 0.015595 0.024323
0.148684 0.035401 0.052827
0.538140 0.000000 0.000000
0.849180 0.000000 0.000000
0.982300 0.290684 0.151431
0.000000 0.136294 0.086793
0.126314 0.154696 0.071290
0.528862 0.174258 0.000000
0.841550 0.237308 0.000000
0.983642 0.383673 0.175753
0.000000 0.427741 0.184909
0.000000 0.436683 0.127077
0.490120 0.506035 0.115633
0.832914 0.548943 0.039216
0.968566 0.563287 0.211215
0.000000 0.735744 0.372168
0.000000 0.735042 0.345830
0.385840 0.694820 0.238743
0.744625 0.740261 0.309331
0.940124 0.770535 0.412421
0.000000 0.907683 0.563653
0.192325 0.902220 0.559380
0.470832 0.878599 0.513390
0.684321 0.849180 0.450752
0.890135 0.887572 0.608545
0.021637 0.043885 0.133700
0.154879 0.012818 0.152987
0.513420 0.000000 0.160830
0.815091 0.000000 0.202335
0.965087 0.311925 0.274479
0.000000 0.136172 0.158755
0.138888 0.170718 0.175174
0.512840 0.173983 0.182773
0.813413 0.240055 0.207004
0.963287 0.386572 0.285679
0.000000 0.448524 0.290288
0.000000 0.458076 0.267765
0.473091 0.485817 0.237339
0.811093 0.530114 0.234165
0.957183 0.570184 0.331701
0.000000 0.741299 0.451209
0.000000 0.740444 0.435126
0.408087 0.707027 0.337957
0.742306 0.738338 0.393103
0.934142 0.770932 0.477943
0.000000 0.907927 0.600214
0.202396 0.902373 0.595605
0.534295 0.884459 0.595727
0.694057 0.855680 0.509270
0.891356 0.889952 0.644709
0.000000 0.060670 0.398688
0.188815 0.000000 0.439155
0.586419 0.000000 0.471717
0.830716 0.067597 0.464729
0.946258 0.407019 0.523217
0.000000 0.186648 0.400458
0.138796 0.187961 0.439734
0.578973 0.171023 0.488624
0.813596 0.291234 0.481575
0.936736 0.492927 0.557641
0.000000 0.433722 0.470405
0.041138 0.457160 0.482216
0.524010 0.522332 0.520317
0.783139 0.551202 0.533501
0.933074 0.609796 0.570062
0.000000 0.761837 0.645075
0.000000 0.754116 0.629877
0.496040 0.737758 0.590082
0.745174 0.743435 0.585290
0.921935 0.771603 0.617731
0.000000 0.906035 0.708461
0.255009 0.903166 0.704250
0.524773 0.889921 0.686366
0.697383 0.860563 0.626032
0.884337 0.885191 0.704036
0.000000 0.086305 0.683406
0.257389 0.000000 0.701564
0.647333 0.000000 0.758663
0.833188 0.180270 0.722530
0.949371 0.460975 0.711269
0.000000 0.218723 0.678676
0.225559 0.220798 0.696437
0.621851 0.233280 0.748898
0.821317 0.330266 0.723720
0.940764 0.513115 0.716487
0.000000 0.449683 0.652155
0.083528 0.459937 0.654780
0.529046 0.504173 0.715023
0.791257 0.570489 0.735317
0.922423 0.644587 0.739712
0.000000 0.690394 0.723568
0.218509 0.693996 0.723751
0.526085 0.714321 0.733089
0.756466 0.756222 0.756252
0.904143 0.771359 0.761379
0.307652 0.908995 0.842771
0.411994 0.906981 0.843320
0.586358 0.898436 0.828672
0.732692 0.882841 0.790646
0.882597 0.885679 0.790372
0.333776 0.217166 0.869444
0.433204 0.217685 0.873136
0.655634 0.251530 0.886046
0.854551 0.365850 0.899046
0.942596 0.504356 0.857847
0.316716 0.313756 0.864103
0.418555 0.318395 0.867979
0.643854 0.354437 0.881346
0.847715 0.450172 0.896483
0.938018 0.552850 0.859983
0.226047 0.510613 0.843046
0.342992 0.511742 0.848814
0.588861 0.534478 0.865660
0.824369 0.618463 0.890227
0.927764 0.671382 0.869596
0.226322 0.695155 0.846586
0.308721 0.694697 0.845121
0.488167 0.694759 0.841337
0.750088 0.736294 0.870115
0.917510 0.797024 0.887144
0.381109 0.852995 0.877104
0.439673 0.853941 0.877287
0.587640 0.858946 0.878965
0.747158 0.870420 0.883085
0.895933 0.898985 0.899321
