data/fiter_cube/37639453/1023439/file.cube
# Created by Adobe Lightroom plugin Export LUT (1.17.0)
# www.johnrellis.com/lightroom/exportlut.htm
# Preset: 油管牛人_05 云集
# Color profile: C:\Program Files (x86)\Common Files\Adobe\Color\Profiles\Recommended\AdobeRGB1998.icc
LUT_3D_SIZE 8
DOMAIN_MIN 0.000000 0.000000 0.000000
DOMAIN_MAX 0.903226 0.903226 0.903226
0.013916 0.015595 0.024323
0.077119 0.031373 0.037720
0.186770 0.017304 0.053437
0.415106 0.000000 0.020447
0.642206 0.000000 0.000000
0.818540 0.000000 0.000000
0.915953 0.144930 0.032319
0.982300 0.290684 0.151431
0.017823 0.072541 0.062623
0.069551 0.075898 0.060670
0.179477 0.085786 0.054261
0.394995 0.000000 0.021088
0.623682 0.000000 0.000000
0.799222 0.000000 0.000000
0.902922 0.176059 0.000000
0.975555 0.302464 0.140078
0.000000 0.167239 0.096681
0.012604 0.172793 0.079438
0.155306 0.191348 0.073976
0.406073 0.230869 0.000000
0.644312 0.231540 0.000000
0.806638 0.264927 0.000000
0.913817 0.331731 0.064881
0.980774 0.402411 0.174807
0.000000 0.337835 0.151278
0.000000 0.338903 0.135561
0.110842 0.328191 0.095583
0.373968 0.407141 0.089387
0.674739 0.475837 0.000000
0.821866 0.471321 0.000000
0.910033 0.479561 0.099062
0.974090 0.508232 0.198489
0.000000 0.531823 0.233280
0.000000 0.532311 0.220676
0.000000 0.533593 0.158877
0.294041 0.501671 0.132876
0.574640 0.579950 0.152193
0.780331 0.622309 0.163882
0.891234 0.616907 0.160464
0.964141 0.622370 0.233463
0.000000 0.693996 0.337591
0.000000 0.703731 0.336675
0.000000 0.699672 0.302007
0.264683 0.676997 0.223606
0.488533 0.643671 0.198947
0.716487 0.712764 0.272526
0.865568 0.748775 0.351843
0.947753 0.745632 0.372564
0.000000 0.819394 0.452064
0.000000 0.820066 0.449165
0.000000 0.812772 0.427893
0.291905 0.801022 0.372778
0.475746 0.768093 0.314092
0.649104 0.762814 0.318395
0.811856 0.807187 0.421851
0.916686 0.833585 0.527214
0.000000 0.907683 0.563653
0.000000 0.905943 0.561761
0.254551 0.900633 0.559136
0.454475 0.892149 0.562829
0.523552 0.871672 0.486732
0.653681 0.853574 0.457893
0.786648 0.864286 0.513359
0.890135 0.887572 0.608545
0.025391 0.028992 0.079591
0.074525 0.032929 0.082307
0.172732 0.016144 0.086641
0.383581 0.000000 0.093080
0.614069 0.000000 0.082582
0.787991 0.000000 0.083680
0.895171 0.122286 0.116579
0.969390 0.277897 0.180026
0.023438 0.071046 0.084840
0.070405 0.079042 0.090059
0.172061 0.086824 0.094881
0.380896 0.000336 0.093263
0.608301 0.000000 0.080446
0.779538 0.000000 0.079286
0.885496 0.162448 0.107179
0.962310 0.287694 0.168399
0.000000 0.167330 0.125795
0.026734 0.176608 0.121706
0.158816 0.194308 0.110658
0.394232 0.222568 0.088624
0.620172 0.219760 0.073182
0.782193 0.248173 0.076783
0.889738 0.306279 0.119722
0.965881 0.383124 0.192386
0.000000 0.330694 0.180087
0.000000 0.335607 0.171633
0.112764 0.334691 0.132113
0.349340 0.383062 0.133242
0.624811 0.432593 0.099336
0.784543 0.435492 0.074525
0.885374 0.451575 0.132052
0.959899 0.489174 0.209567
0.000000 0.531395 0.264866
0.000000 0.529686 0.252293
0.000000 0.528923 0.211154
0.285588 0.491371 0.162417
0.548333 0.555077 0.180148
0.760983 0.602686 0.190005
0.879179 0.603174 0.186831
0.954986 0.612146 0.251957
0.000000 0.683925 0.355230
0.000000 0.684077 0.346929
0.000000 0.681575 0.316136
0.253971 0.665370 0.243137
0.477821 0.632044 0.218235
0.710658 0.706874 0.295232
0.859586 0.743191 0.367987
0.941924 0.738918 0.380346
0.000000 0.806455 0.455299
0.000000 0.803403 0.447761
0.000000 0.798611 0.428534
0.299809 0.790829 0.392950
0.468421 0.762234 0.326421
0.639155 0.753658 0.324407
0.802426 0.798001 0.420356
0.909453 0.824613 0.516838
0.000000 0.901976 0.564385
0.000000 0.901244 0.564050
0.233921 0.896635 0.561578
0.443580 0.888884 0.564813
0.544274 0.877592 0.518761
0.659174 0.856626 0.479011
0.783841 0.861875 0.517937
0.886442 0.883970 0.607385
0.003296 0.048219 0.163760
0.073945 0.042756 0.175021
0.202335 0.000000 0.189120
0.427466 0.000000 0.195407
0.631128 0.000000 0.200504
0.791745 0.000000 0.245457
0.895537 0.220432 0.277226
0.967041 0.342107 0.324346
0.000000 0.087587 0.169375
0.063355 0.087343 0.180453
0.195407 0.079713 0.192935
0.409003 0.000000 0.197848
0.617487 0.000000 0.216556
0.783444 0.108095 0.240818
0.889006 0.240665 0.269291
0.963409 0.352941 0.318090
0.000000 0.169009 0.193210
0.000000 0.180636 0.199619
0.177890 0.214603 0.214817
0.398016 0.224735 0.220523
0.633814 0.240696 0.234897
0.785824 0.281346 0.250217
0.887083 0.343664 0.278264
0.960357 0.418280 0.326177
0.000000 0.362982 0.290135
0.000000 0.369390 0.286442
0.146487 0.384802 0.266789
0.388159 0.409827 0.256870
0.646937 0.446967 0.256504
0.788022 0.453193 0.268376
0.885344 0.477821 0.299474
0.956664 0.517754 0.347967
0.000000 0.551263 0.365667
0.000000 0.554040 0.360632
0.056397 0.557610 0.338811
0.329107 0.537469 0.282200
0.576898 0.577600 0.306950
0.767483 0.612818 0.324895
0.877592 0.612024 0.324407
0.949554 0.626276 0.376501
0.000000 0.696712 0.439460
0.000000 0.697261 0.435309
0.000000 0.693782 0.414893
0.297215 0.682612 0.354742
0.486580 0.634485 0.303136
0.708827 0.704921 0.382422
0.853666 0.741787 0.445075
0.938506 0.744656 0.462440
0.000000 0.815518 0.521996
0.000000 0.813230 0.517052
0.000000 0.805997 0.499733
0.342565 0.794766 0.473793
0.482643 0.769528 0.403388
0.640833 0.752773 0.386297
0.805814 0.802670 0.491554
0.910796 0.832425 0.583276
0.000000 0.903716 0.604395
0.000000 0.901549 0.600488
0.230594 0.895964 0.595727
0.450599 0.889982 0.601984
0.559075 0.878569 0.567132
0.664820 0.859251 0.528588
0.784543 0.861906 0.555352
0.887785 0.886473 0.644007
0.000000 0.058656 0.307591
0.000000 0.048188 0.324315
0.251072 0.000000 0.368627
0.459846 0.000000 0.369085
0.678676 0.000000 0.375280
0.798123 0.000000 0.376715
0.881621 0.234379 0.406867
0.948119 0.398047 0.469642
0.000000 0.097749 0.321721
0.000000 0.097963 0.333501
0.241428 0.065156 0.372595
0.457618 0.000000 0.375311
0.672908 0.000000 0.380529
0.790219 0.090639 0.381018
0.874876 0.274907 0.412970
0.946746 0.406806 0.466072
0.000000 0.198978 0.316777
0.000000 0.206943 0.322576
0.184573 0.220035 0.364843
0.443427 0.224308 0.391852
0.654505 0.248966 0.402228
0.781308 0.314611 0.418494
0.877440 0.414466 0.463416
0.949310 0.476051 0.487587
0.000000 0.339788 0.372473
0.000000 0.350439 0.378790
0.167147 0.383734 0.398444
0.420600 0.430945 0.426856
0.626642 0.445106 0.434272
0.768093 0.468635 0.445106
0.869139 0.504723 0.465309
0.944213 0.551812 0.497414
0.000000 0.590784 0.525475
0.000000 0.593652 0.526207
0.120241 0.592859 0.507805
0.407172 0.591119 0.479347
0.602564 0.599329 0.468299
0.769375 0.623590 0.482063
0.867063 0.629511 0.494209
0.938933 0.648554 0.521080
0.000000 0.726009 0.571588
0.000000 0.732296 0.575189
0.123934 0.724788 0.557946
0.394018 0.713619 0.530236
0.538689 0.681971 0.467628
0.720668 0.717647 0.515404
0.850736 0.748470 0.558862
0.933043 0.752071 0.564660
0.000000 0.825071 0.615198
0.000000 0.824704 0.613397
0.165866 0.820798 0.604547
0.398413 0.811460 0.586267
0.533989 0.794064 0.538964
0.650385 0.758022 0.483009
0.808255 0.807065 0.582879
0.908598 0.835569 0.647700
0.000000 0.909239 0.676997
0.070497 0.908354 0.675807
0.281132 0.903593 0.667994
0.453956 0.894743 0.660029
0.603510 0.880735 0.656550
0.675471 0.864866 0.603449
0.782803 0.860472 0.603693
0.888304 0.888579 0.690059
0.000000 0.065064 0.486793
0.000000 0.051789 0.499184
0.260319 0.000000 0.532464
0.516808 0.000000 0.574456
0.691157 0.000000 0.568780
0.819364 0.000000 0.552789
0.890135 0.269963 0.547478
0.947326 0.421729 0.578210
0.000000 0.112154 0.491310
0.000000 0.111177 0.504295
0.253117 0.076936 0.536065
0.516197 0.000000 0.579187
0.686702 0.000000 0.570642
0.815244 0.149233 0.556939
0.886961 0.310307 0.553246
0.944732 0.442481 0.583368
0.000000 0.227939 0.480629
0.000000 0.231449 0.494728
0.203220 0.233066 0.526726
0.500023 0.235843 0.585748
0.668849 0.251987 0.574853
0.794858 0.320470 0.562768
0.873014 0.405249 0.565576
0.934539 0.495827 0.593530
0.000000 0.357824 0.498207
0.000000 0.364141 0.501335
0.160494 0.387457 0.514031
0.428962 0.423987 0.567956
0.647059 0.453223 0.591302
0.770962 0.486824 0.586114
0.854673 0.528008 0.594446
0.924132 0.584131 0.621332
0.000000 0.519921 0.556939
0.000000 0.526360 0.560327
0.177310 0.543847 0.569238
0.422919 0.571466 0.585290
0.609918 0.604578 0.603723
0.743526 0.613764 0.605737
0.844083 0.631891 0.613855
0.922332 0.657740 0.628687
0.000000 0.718776 0.664515
0.000000 0.720333 0.665461
0.174533 0.722133 0.666163
0.421271 0.718990 0.655177
0.575555 0.704402 0.619135
0.718837 0.716548 0.622339
0.843320 0.745571 0.648707
0.921141 0.753079 0.658259
0.000000 0.832639 0.717891
0.000000 0.830503 0.714687
0.246067 0.824674 0.704738
0.431556 0.816434 0.688716
0.572320 0.803708 0.661952
0.666712 0.774899 0.605921
0.804807 0.805447 0.658473
0.903777 0.831327 0.697414
0.092470 0.906615 0.748013
0.175723 0.905119 0.745907
0.315282 0.900450 0.738613
0.468635 0.897246 0.733364
0.589929 0.886503 0.714870
0.684901 0.871580 0.682521
0.770504 0.852750 0.643580
0.884215 0.885832 0.728511
0.000000 0.081544 0.658289
0.000000 0.070008 0.664576
0.304570 0.000000 0.681636
0.545312 0.000000 0.719997
0.719203 0.000000 0.737972
0.814603 0.116823 0.701045
0.899138 0.321538 0.686793
0.950347 0.462287 0.690303
0.000000 0.132326 0.649653
0.000000 0.128237 0.655329
0.290593 0.100130 0.674769
0.531579 0.000000 0.712245
0.710414 0.000000 0.732509
0.808469 0.189700 0.698665
0.895293 0.350805 0.687434
0.947387 0.477607 0.691493
0.000000 0.248234 0.650416
0.000000 0.250523 0.656001
0.265110 0.256992 0.676295
0.510185 0.266575 0.709926
0.701869 0.292790 0.735500
0.799741 0.351598 0.705867
0.885954 0.452277 0.699153
0.940398 0.538048 0.703670
0.000000 0.392615 0.623926
0.000000 0.395331 0.625360
0.213626 0.411872 0.654719
0.467384 0.440711 0.700191
0.691707 0.494759 0.744320
0.790188 0.523491 0.724819
0.873594 0.577600 0.721553
0.931334 0.619074 0.723171
0.000000 0.522820 0.654536
0.000000 0.526604 0.656001
0.197543 0.538750 0.660456
0.405737 0.558434 0.668208
0.613123 0.598260 0.708370
0.762112 0.633875 0.725948
0.849332 0.657954 0.724544
0.914885 0.680201 0.728176
0.000000 0.656672 0.691127
0.000000 0.661585 0.694545
0.248661 0.670130 0.698695
0.440894 0.683497 0.705257
0.600122 0.701656 0.713771
0.733608 0.732082 0.732052
0.830930 0.742672 0.737026
0.909483 0.756252 0.743740
0.000000 0.820493 0.777920
0.159823 0.822873 0.780484
0.332555 0.826658 0.784878
0.498299 0.827634 0.787900
0.626947 0.824308 0.781399
0.715114 0.809537 0.748562
0.810636 0.812863 0.745174
0.905547 0.834257 0.764401
0.289311 0.910216 0.829465
0.319829 0.908721 0.827634
0.407843 0.904234 0.821683
0.516899 0.899077 0.813321
0.615137 0.891783 0.797848
0.703273 0.881376 0.772915
0.773465 0.860899 0.728054
0.883299 0.886168 0.778408
0.131106 0.121889 0.775662
0.208804 0.117067 0.779782
0.369207 0.090517 0.790097
0.551232 0.030060 0.807675
0.723232 0.116732 0.828244
0.829038 0.198215 0.828489
0.885924 0.335729 0.786709
0.947967 0.479377 0.779995
0.112245 0.167300 0.771389
0.196963 0.165469 0.775357
0.359716 0.154421 0.785794
0.541772 0.143618 0.802579
0.714992 0.186069 0.823728
0.823484 0.242710 0.825101
0.881498 0.356390 0.784573
0.944732 0.488197 0.778286
0.000000 0.277623 0.768215
0.159426 0.279026 0.771115
0.337469 0.282841 0.780758
0.524376 0.296422 0.797635
0.699092 0.336950 0.818723
0.815335 0.378241 0.824796
0.876158 0.453925 0.791043
0.941070 0.554864 0.788876
0.000000 0.417517 0.751125
0.084077 0.418250 0.754238
0.276402 0.414832 0.767697
0.486458 0.438880 0.786526
0.670436 0.481819 0.810025
0.803220 0.529076 0.825498
0.867582 0.571313 0.801266
0.934966 0.633753 0.801694
0.000000 0.532433 0.740597
0.000000 0.533074 0.739956
0.206180 0.536767 0.739162
0.407568 0.549645 0.755093
0.612604 0.585229 0.789242
0.783108 0.644678 0.822568
0.853666 0.664515 0.807553
0.924163 0.704158 0.810819
0.000000 0.652247 0.765713
0.071107 0.653681 0.765896
0.265293 0.658228 0.766629
0.418891 0.666041 0.768154
0.561395 0.677821 0.769192
0.726802 0.718318 0.801724
0.841337 0.753994 0.818845
0.911589 0.769833 0.819669
0.171633 0.764157 0.794003
0.224735 0.765591 0.794858
0.343175 0.769009 0.796139
0.477668 0.775479 0.798764
0.605951 0.784634 0.802060
0.720577 0.799161 0.808591
0.819242 0.821683 0.821988
0.897978 0.827939 0.824125
0.307988 0.882200 0.849149
0.338506 0.882811 0.849912
0.431159 0.886168 0.854154
0.538903 0.890837 0.859678
0.648066 0.894682 0.864714
0.741787 0.894560 0.862089
0.803586 0.884184 0.834440
0.885161 0.888731 0.833921
0.333776 0.217166 0.869444
0.367315 0.217868 0.870939
0.460914 0.218509 0.874327
0.588647 0.233341 0.881498
0.721248 0.278508 0.890959
0.835386 0.352453 0.899474
0.909728 0.406928 0.897704
0.942596 0.504356 0.857847
0.328191 0.249149 0.867063
0.361517 0.250217 0.868528
0.456336 0.252964 0.872282
0.583825 0.267460 0.879271
0.717006 0.309453 0.888945
0.832853 0.379278 0.898192
0.906737 0.426520 0.896239
0.940581 0.516381 0.857542
0.306798 0.337682 0.861967
0.341405 0.339391 0.863249
0.438727 0.343999 0.866697
0.571862 0.364843 0.875242
0.705837 0.402350 0.884947
0.827146 0.466011 0.896208
0.899535 0.499092 0.894530
0.936400 0.565972 0.860349
0.259068 0.450385 0.852598
0.283146 0.445563 0.854612
0.397589 0.453346 0.858824
0.541344 0.473182 0.867124
0.683986 0.509789 0.878111
0.810330 0.565728 0.891264
0.889464 0.593194 0.893675
0.931151 0.635584 0.866331
0.147463 0.563317 0.831815
0.203922 0.563958 0.834043
0.327977 0.564080 0.840146
0.481025 0.571374 0.852201
0.637598 0.596307 0.865934
0.779080 0.644129 0.882231
0.876005 0.680385 0.892638
0.924743 0.708644 0.873899
0.195895 0.667384 0.841306
0.226413 0.667018 0.840696
0.309545 0.665949 0.838987
0.414374 0.664485 0.836637
0.554009 0.670527 0.841733
0.728389 0.709865 0.868589
0.863767 0.766049 0.895079
0.919585 0.781643 0.885130
0.285496 0.766934 0.858000
0.308080 0.766964 0.857694
0.376135 0.767544 0.856901
0.473884 0.770047 0.856321
0.578668 0.774014 0.855467
0.679927 0.779232 0.854185
0.814603 0.811398 0.878965
0.911101 0.842191 0.893767
0.381109 0.852995 0.877104
0.399390 0.853239 0.877104
0.457374 0.854337 0.877379
0.541344 0.856992 0.878264
0.634302 0.861357 0.879728
0.725154 0.868162 0.882170
0.811154 0.879088 0.887022
0.895933 0.898985 0.899321
