data/fiter_cube/89100697/1022668/file.cube
# Created by Adobe Lightroom plugin Export LUT (1.17.0)
# www.johnrellis.com/lightroom/exportlut.htm
# Preset: VSCO胶片_02 云集
# Color profile: C:\Program Files (x86)\Common Files\Adobe\Color\Profiles\Recommended\AdobeRGB1998.icc
LUT_3D_SIZE 5
DOMAIN_MIN 0.000000 0.000000 0.000000
DOMAIN_MAX 0.903226 0.903226 0.903226
0.104158 0.148928 0.188174
0.240543 0.154421 0.186526
0.607813 0.152102 0.168490
0.908537 0.247227 0.124727
1.000000 0.365209 0.074830
0.110292 0.224643 0.198917
0.212894 0.246128 0.187686
0.573693 0.287236 0.160952
0.893950 0.356756 0.103853
1.000000 0.433692 0.000000
0.085145 0.439734 0.217044
0.188571 0.424811 0.216922
0.511192 0.543450 0.140810
0.857939 0.579095 0.000000
1.000000 0.596368 0.000000
0.000000 0.720882 0.246036
0.178531 0.711788 0.241001
0.409735 0.696986 0.227207
0.794705 0.800412 0.000000
1.000000 0.803738 0.000000
0.306859 0.938994 0.420569
0.355627 0.936400 0.407935
0.518914 0.922728 0.401984
0.733974 0.931121 0.362860
0.966705 0.954925 0.084443
0.105074 0.151461 0.265782
0.242344 0.142672 0.270970
0.621332 0.000000 0.248814
0.906371 0.237522 0.247166
1.000000 0.368811 0.231632
0.120546 0.237247 0.259373
0.234623 0.254398 0.263157
0.593042 0.281773 0.251713
0.894224 0.347417 0.230381
1.000000 0.432532 0.215610
0.142000 0.465980 0.296422
0.220188 0.461524 0.279179
0.523033 0.545190 0.232029
0.853574 0.559289 0.166751
1.000000 0.592645 0.146120
0.174105 0.735531 0.351873
0.215030 0.729000 0.311284
0.422278 0.697719 0.295872
0.799619 0.801297 0.187625
1.000000 0.798184 0.000000
0.388159 0.937560 0.502708
0.393744 0.937163 0.469368
0.540703 0.926024 0.460273
0.739040 0.930236 0.428687
0.966949 0.955200 0.246372
0.070497 0.151125 0.519249
0.284398 0.130495 0.534997
0.632898 0.000000 0.555840
0.918364 0.000000 0.495918
1.000000 0.369390 0.497932
0.000000 0.254185 0.500664
0.254002 0.255314 0.518456
0.627649 0.198001 0.545129
0.909148 0.247715 0.493050
1.000000 0.547814 0.572381
0.078859 0.513695 0.488533
0.265202 0.530022 0.498817
0.584039 0.570062 0.503990
0.866117 0.592462 0.503777
1.000000 0.636347 0.515282
0.241184 0.767178 0.535393
0.351049 0.764797 0.538170
0.512322 0.745693 0.505455
0.814176 0.806485 0.483833
1.000000 0.782803 0.414343
0.490883 0.937743 0.650782
0.545220 0.934936 0.657557
0.597070 0.931304 0.609674
0.746242 0.921630 0.584497
0.962890 0.953826 0.506310
0.154025 0.137881 0.791440
0.336675 0.104067 0.798123
0.667323 0.000000 0.821439
0.897215 0.000000 0.796475
1.000000 0.242832 0.734157
0.049287 0.261479 0.781796
0.307866 0.257328 0.789120
0.655451 0.255161 0.813199
0.891142 0.248478 0.792233
1.000000 0.403754 0.740993
0.000000 0.529473 0.749172
0.202182 0.528923 0.751278
0.608881 0.572564 0.779995
0.867918 0.603662 0.784268
1.000000 0.667964 0.769436
0.252018 0.798917 0.747341
0.383062 0.801419 0.751308
0.637201 0.802945 0.761990
0.832029 0.816464 0.766751
0.984131 0.824033 0.774411
0.558038 0.945922 0.793698
0.602472 0.943542 0.796414
0.709163 0.937591 0.802884
0.784298 0.928496 0.768673
0.957031 0.953124 0.758297
0.330877 0.168612 0.963745
0.434882 0.156588 0.964508
0.672328 0.148531 0.967193
0.891539 0.271427 0.970489
1.000000 0.300969 0.931365
0.316808 0.297765 0.960327
0.426062 0.298558 0.961120
0.669093 0.320531 0.963714
0.888457 0.423377 0.966979
1.000000 0.434485 0.930968
0.175051 0.533989 0.947417
0.347601 0.541436 0.948638
0.654261 0.593256 0.950927
0.875303 0.666041 0.957031
0.993774 0.667720 0.932036
0.302464 0.797086 0.931640
0.395117 0.796109 0.931426
0.590082 0.789853 0.931456
0.837034 0.819089 0.942260
0.977539 0.846860 0.938384
0.553124 0.960479 0.924529
0.597925 0.958679 0.924804
0.718471 0.956176 0.928527
0.852415 0.951904 0.932830
0.959777 0.956756 0.941314
