data/fiter_cube/89100697/1022668/file.cube
# Created by Adobe Lightroom plugin Export LUT (1.17.0)
# www.johnrellis.com/lightroom/exportlut.htm
# Preset: VSCO胶片_02 云集
# Color profile: C:\Program Files (x86)\Common Files\Adobe\Color\Profiles\Recommended\AdobeRGB1998.icc
LUT_3D_SIZE 8
DOMAIN_MIN 0.000000 0.000000 0.000000
DOMAIN_MAX 0.903226 0.903226 0.903226
0.104158 0.148928 0.188174
0.153475 0.151400 0.187778
0.278904 0.155154 0.185916
0.486275 0.151675 0.177249
0.718013 0.165042 0.157076
0.879149 0.228367 0.131167
0.979431 0.302373 0.104524
1.000000 0.365209 0.074830
0.107240 0.175845 0.192386
0.144472 0.182071 0.188296
0.271183 0.186191 0.184512
0.472572 0.196719 0.176059
0.706600 0.218692 0.154452
0.870115 0.267216 0.127108
0.974273 0.329290 0.097688
1.000000 0.385321 0.062837
0.111543 0.246006 0.201755
0.136141 0.243320 0.201663
0.243076 0.275914 0.187076
0.450599 0.305669 0.168734
0.683436 0.338109 0.141543
0.855863 0.374182 0.105989
0.968627 0.416266 0.060578
1.000000 0.453132 0.000000
0.103578 0.363500 0.212558
0.135073 0.359411 0.212284
0.211673 0.358099 0.210208
0.413092 0.447517 0.166659
0.676967 0.508598 0.095644
0.831693 0.497536 0.022309
0.953552 0.524865 0.000000
1.000000 0.546105 0.000000
0.031922 0.519280 0.221347
0.109224 0.514824 0.220554
0.210788 0.500008 0.220920
0.345373 0.533074 0.200198
0.603265 0.629725 0.102937
0.826383 0.671351 0.000000
0.935668 0.649836 0.000000
1.000000 0.647242 0.000000
0.000000 0.680629 0.237369
0.040101 0.680079 0.234440
0.210086 0.668116 0.233249
0.330877 0.647028 0.231296
0.520592 0.707698 0.179507
0.761257 0.771237 0.000000
0.934447 0.798947 0.000000
1.000000 0.772793 0.000000
0.061646 0.825498 0.291081
0.112978 0.824430 0.282811
0.242161 0.816922 0.280064
0.367712 0.804257 0.275700
0.500511 0.800870 0.260838
0.693812 0.843198 0.192538
0.879454 0.875792 0.000000
1.000000 0.889036 0.000000
0.306859 0.938994 0.420569
0.309819 0.938811 0.409125
0.375952 0.935271 0.407874
0.472297 0.929442 0.408331
0.573266 0.918181 0.402167
0.698695 0.926299 0.377264
0.837858 0.943694 0.298985
0.966705 0.954925 0.084443
0.105226 0.149935 0.214298
0.152712 0.147402 0.214725
0.278996 0.149416 0.208347
0.482673 0.155764 0.207980
0.715145 0.161685 0.191135
0.873594 0.221683 0.171664
0.975860 0.297612 0.152499
1.000000 0.362676 0.135348
0.107149 0.178134 0.211704
0.150698 0.184237 0.213718
0.271397 0.191379 0.212131
0.473518 0.198642 0.205203
0.707118 0.215366 0.187442
0.867338 0.262547 0.166506
0.971618 0.324895 0.146517
1.000000 0.382269 0.128298
0.127291 0.252201 0.224582
0.151858 0.253635 0.222965
0.250126 0.278752 0.211185
0.448981 0.299443 0.194858
0.682063 0.333806 0.173251
0.852506 0.368353 0.148440
0.964385 0.409949 0.124514
1.000000 0.449256 0.102449
0.131563 0.372381 0.240391
0.147066 0.370520 0.231754
0.220432 0.361669 0.230045
0.413214 0.444007 0.192447
0.665705 0.495216 0.141085
0.825254 0.489540 0.109133
0.949035 0.517937 0.064729
1.000000 0.541833 0.000000
0.102998 0.527733 0.252140
0.121370 0.523613 0.240146
0.219760 0.507622 0.238895
0.348058 0.531548 0.221408
0.601526 0.625788 0.143984
0.822019 0.664424 0.000000
0.932860 0.643458 0.000000
1.000000 0.644068 0.000000
0.032319 0.683406 0.269383
0.074891 0.681209 0.254551
0.216831 0.669429 0.252384
0.336004 0.648920 0.248905
0.520775 0.705837 0.205905
0.761929 0.770535 0.075929
0.933135 0.796292 0.000000
1.000000 0.769589 0.000000
0.129702 0.823758 0.320684
0.135683 0.822293 0.304417
0.247257 0.815396 0.297948
0.371008 0.803525 0.293278
0.500603 0.798215 0.280095
0.692622 0.841215 0.220249
0.877989 0.873930 0.023499
1.000000 0.886717 0.000000
0.327611 0.937163 0.443061
0.330663 0.937224 0.432471
0.381567 0.934539 0.422736
0.476112 0.928801 0.422675
0.580468 0.920043 0.421393
0.701045 0.926207 0.397314
0.837736 0.943114 0.322423
0.966094 0.954314 0.146822
0.103426 0.151705 0.291081
0.154452 0.150454 0.294102
0.283940 0.136751 0.299016
0.507805 0.000000 0.290776
0.737575 0.000000 0.269993
0.881834 0.219944 0.287572
0.978851 0.308690 0.280247
1.000000 0.377539 0.273747
0.105409 0.184054 0.287236
0.155612 0.186099 0.290379
0.282048 0.176150 0.295598
0.500053 0.119081 0.280674
0.726955 0.187930 0.288457
0.875944 0.260288 0.282017
0.975433 0.333379 0.274296
1.000000 0.395239 0.268223
0.123079 0.264775 0.281743
0.162875 0.270848 0.285435
0.272831 0.287877 0.286473
0.474128 0.302312 0.281315
0.703944 0.329839 0.272618
0.862303 0.366857 0.263493
0.967651 0.412787 0.256931
1.000000 0.455238 0.251438
0.138582 0.395605 0.303899
0.177310 0.400122 0.305730
0.256565 0.398688 0.296544
0.438422 0.457130 0.273350
0.672175 0.480140 0.242435
0.836881 0.490822 0.229587
0.953887 0.519005 0.223362
1.000000 0.543572 0.218875
0.145968 0.552087 0.329747
0.188022 0.554253 0.330449
0.252049 0.544976 0.305608
0.368444 0.543114 0.293492
0.620569 0.635370 0.246983
0.824186 0.656672 0.199191
0.933562 0.632013 0.169131
1.000000 0.642786 0.160159
0.181918 0.701839 0.365911
0.207706 0.701076 0.359716
0.249851 0.692103 0.322667
0.363622 0.670008 0.313573
0.530327 0.707729 0.287694
0.768215 0.771878 0.227176
0.931823 0.790921 0.154086
1.000000 0.763516 0.094453
0.259373 0.831449 0.422309
0.263066 0.830167 0.409583
0.283513 0.825467 0.368566
0.394568 0.812284 0.359136
0.508598 0.795743 0.345800
0.696681 0.840726 0.307561
0.881193 0.875334 0.230564
1.000000 0.885161 0.104067
0.411078 0.935912 0.526116
0.409400 0.935760 0.515404
0.414343 0.935363 0.481514
0.498390 0.930175 0.478584
0.594446 0.921324 0.473396
0.706142 0.923980 0.457038
0.838956 0.942412 0.399725
0.966217 0.954620 0.278294
0.085084 0.152377 0.431159
0.158816 0.150179 0.436164
0.318242 0.129335 0.451881
0.507347 0.000000 0.459358
0.743923 0.000000 0.453010
0.892851 0.000000 0.400458
0.982361 0.232029 0.408545
1.000000 0.461524 0.482643
0.084627 0.188052 0.427100
0.155734 0.186923 0.431617
0.313359 0.175235 0.447547
0.506523 0.095735 0.456184
0.741909 0.000000 0.445045
0.889433 0.000000 0.397192
0.976287 0.329839 0.432868
1.000000 0.469276 0.475074
0.060609 0.282780 0.410834
0.127138 0.283177 0.413703
0.286259 0.288365 0.430915
0.499886 0.271336 0.443702
0.732021 0.256382 0.423011
0.872343 0.387793 0.446143
0.966308 0.466773 0.461250
1.000000 0.508385 0.457710
0.104799 0.420050 0.409705
0.160739 0.426032 0.413306
0.297154 0.444190 0.424933
0.475715 0.471199 0.421942
0.688869 0.483101 0.414435
0.846708 0.510826 0.416968
0.953948 0.543175 0.421057
1.000000 0.571588 0.423285
0.145663 0.587396 0.440192
0.195254 0.588464 0.440528
0.316472 0.592554 0.442725
0.423743 0.577447 0.422004
0.648768 0.647974 0.405921
0.823270 0.642939 0.375250
0.936645 0.638025 0.364752
1.000000 0.653407 0.371679
0.201938 0.724971 0.467231
0.244480 0.726558 0.469368
0.351904 0.724788 0.472328
0.423835 0.709682 0.435615
0.553307 0.713710 0.416144
0.781674 0.777615 0.395178
0.928588 0.783932 0.358038
1.000000 0.753933 0.316564
0.307256 0.841611 0.517998
0.336553 0.841001 0.520043
0.421088 0.837736 0.526452
0.447333 0.830076 0.473335
0.543938 0.810483 0.452186
0.705165 0.840513 0.433845
0.884428 0.876860 0.397620
1.000000 0.881163 0.340917
0.481147 0.936980 0.616510
0.498939 0.936095 0.619104
0.540185 0.933501 0.618128
0.539452 0.933318 0.567071
0.620874 0.924407 0.556909
0.714076 0.919371 0.544488
0.840513 0.940642 0.509850
0.964874 0.954589 0.430640
0.068452 0.147921 0.608087
0.169802 0.142184 0.612390
0.345495 0.106142 0.626154
0.553918 0.000000 0.646509
0.735103 0.000000 0.639399
0.883909 0.000000 0.609125
0.981415 0.000000 0.564080
1.000000 0.293248 0.547265
0.020020 0.186374 0.603204
0.158816 0.182864 0.608057
0.338384 0.162783 0.622309
0.551598 0.085176 0.644678
0.733364 0.000000 0.636683
0.882353 0.000000 0.605951
0.979583 0.145907 0.565484
1.000000 0.347295 0.555016
0.000000 0.285710 0.583703
0.000488 0.282322 0.590051
0.304784 0.289250 0.606836
0.538323 0.289189 0.634089
0.725063 0.246525 0.625696
0.874174 0.272892 0.596765
0.969848 0.374456 0.576135
1.000000 0.491768 0.588434
0.000000 0.441871 0.568475
0.061311 0.443793 0.570397
0.262791 0.449348 0.578149
0.496162 0.472389 0.605432
0.708339 0.473274 0.609461
0.856992 0.515618 0.599145
0.947204 0.604791 0.630884
1.000000 0.661707 0.654688
0.074189 0.608209 0.569879
0.164401 0.612421 0.572656
0.324987 0.624109 0.580804
0.510643 0.637781 0.594446
0.674250 0.655695 0.587518
0.822873 0.655207 0.581933
0.932250 0.678248 0.592676
1.000000 0.696742 0.599725
0.237278 0.750027 0.592218
0.278294 0.749813 0.592859
0.387213 0.747951 0.594812
0.522789 0.743618 0.601434
0.595422 0.721706 0.567590
0.793057 0.782071 0.574151
0.918669 0.773281 0.543877
1.000000 0.758297 0.528008
0.348913 0.854124 0.622736
0.376196 0.853056 0.623926
0.457649 0.849393 0.628626
0.562158 0.843290 0.635889
0.601434 0.830991 0.589166
0.712367 0.834501 0.569268
0.885313 0.877409 0.567132
0.995514 0.875029 0.531640
0.506371 0.939605 0.689967
0.522301 0.938628 0.691402
0.571771 0.935546 0.695918
0.641932 0.931914 0.703029
0.653315 0.929870 0.653712
0.726986 0.918883 0.636164
0.839750 0.936797 0.621820
0.961212 0.953643 0.583825
0.133272 0.139467 0.760739
0.210269 0.131624 0.763027
0.372290 0.088991 0.770321
0.568170 0.000000 0.785794
0.749996 0.000000 0.796689
0.873014 0.000000 0.770108
0.968780 0.000000 0.736202
1.000000 0.251530 0.698665
0.112673 0.182742 0.755795
0.197238 0.177890 0.758114
0.364324 0.156527 0.766476
0.562493 0.101869 0.781979
0.746883 0.000000 0.793668
0.870756 0.000000 0.767880
0.966827 0.119783 0.735775
1.000000 0.307408 0.700984
0.000000 0.292943 0.746090
0.131258 0.293004 0.748531
0.336889 0.292790 0.757595
0.547204 0.294957 0.773312
0.740322 0.298344 0.787747
0.865019 0.290349 0.763943
0.960540 0.351965 0.737606
1.000000 0.452674 0.712856
0.000000 0.444953 0.721645
0.000000 0.443336 0.722011
0.268070 0.447364 0.734524
0.518059 0.477913 0.754879
0.729366 0.516228 0.777249
0.852903 0.514824 0.760220
0.948882 0.555627 0.745357
1.000000 0.608759 0.734524
0.000000 0.616327 0.714046
0.098878 0.617792 0.715023
0.296086 0.622705 0.718349
0.481453 0.631373 0.724269
0.688685 0.661036 0.748928
0.834043 0.671412 0.752010
0.933227 0.704799 0.753292
0.996460 0.747829 0.769650
0.206882 0.765774 0.714351
0.259251 0.768673 0.717250
0.394995 0.771145 0.720943
0.556268 0.773526 0.727810
0.693416 0.776761 0.738125
0.807065 0.789731 0.734859
0.911681 0.789273 0.733669
0.989014 0.802518 0.745327
0.418128 0.870573 0.738277
0.444068 0.869902 0.739528
0.517479 0.866758 0.742245
0.610040 0.862028 0.745815
0.699428 0.855711 0.747738
0.742275 0.837400 0.709895
0.889311 0.881285 0.725246
0.983276 0.869780 0.700038
0.546838 0.944640 0.773159
0.560937 0.943755 0.773983
0.605219 0.941070 0.776730
0.667597 0.937530 0.780728
0.733852 0.932952 0.783383
0.758999 0.928069 0.744808
0.839170 0.930846 0.730129
0.957733 0.953216 0.726284
0.226749 0.137606 0.876921
0.277867 0.130282 0.878172
0.410529 0.097078 0.881773
0.577966 0.000000 0.888273
0.749264 0.000000 0.897002
0.877317 0.000000 0.899870
0.957488 0.068971 0.865171
1.000000 0.248295 0.829221
0.216251 0.185031 0.874418
0.269444 0.180697 0.875700
0.404608 0.164401 0.879454
0.573846 0.137850 0.885954
0.746365 0.149416 0.894835
0.875151 0.148623 0.898009
0.955291 0.189273 0.863951
1.000000 0.299107 0.829435
0.167269 0.302708 0.868437
0.233982 0.302678 0.869566
0.385199 0.302953 0.873381
0.563195 0.309392 0.880278
0.739620 0.340826 0.889464
0.869688 0.360937 0.894102
0.949828 0.379370 0.863127
1.000000 0.441108 0.834195
0.000000 0.443641 0.854276
0.090089 0.443915 0.855680
0.346441 0.463783 0.860410
0.543694 0.483894 0.868376
0.727230 0.523613 0.878996
0.859983 0.555718 0.887205
0.939940 0.560327 0.863066
1.000000 0.589715 0.841794
0.000000 0.612451 0.838804
0.063294 0.611872 0.838804
0.280705 0.610742 0.839231
0.481941 0.619287 0.845548
0.695064 0.658747 0.861448
0.845304 0.700008 0.878111
0.927550 0.699336 0.862486
0.994446 0.721248 0.850919
0.203586 0.764889 0.832761
0.252995 0.765286 0.833036
0.377203 0.766567 0.833890
0.521904 0.768368 0.835691
0.658259 0.769009 0.838926
0.813138 0.793912 0.859922
0.915648 0.807370 0.863432
0.983307 0.827512 0.864744
0.383459 0.878721 0.832303
0.413245 0.879026 0.833402
0.498238 0.879667 0.836728
0.608240 0.878019 0.839841
0.720089 0.876219 0.844236
0.817899 0.878264 0.853239
0.895964 0.886107 0.851591
0.971710 0.885069 0.853422
0.594598 0.950134 0.853086
0.607080 0.949523 0.853605
0.646815 0.947784 0.855589
0.702693 0.945159 0.858366
0.764370 0.942077 0.861570
0.823667 0.938537 0.863890
0.853819 0.929686 0.836637
0.956664 0.953765 0.847868
0.330877 0.168612 0.963745
0.364935 0.164920 0.964050
0.464332 0.153262 0.964752
0.600153 0.142458 0.966217
0.742611 0.171725 0.968200
0.868132 0.269200 0.970428
0.959411 0.267063 0.970581
1.000000 0.300969 0.931365
0.326879 0.213657 0.962615
0.361395 0.211856 0.962890
0.461982 0.206332 0.963653
0.598657 0.205051 0.965087
0.741512 0.234592 0.967071
0.866789 0.318975 0.969268
0.957702 0.319005 0.969482
1.000000 0.345373 0.931029
0.311711 0.331304 0.959045
0.348058 0.332219 0.959289
0.453498 0.335027 0.959960
0.594690 0.347265 0.961608
0.738705 0.380774 0.963409
0.862669 0.450355 0.965484
0.952148 0.456550 0.966186
1.000000 0.467964 0.930816
0.257725 0.471260 0.952453
0.322026 0.482826 0.952331
0.438636 0.490272 0.953094
0.587060 0.507958 0.954650
0.733700 0.541863 0.956756
0.855344 0.594141 0.959564
0.943328 0.604944 0.961425
0.998566 0.604273 0.931365
0.078828 0.608972 0.940612
0.183139 0.609613 0.941131
0.353246 0.613855 0.942565
0.543694 0.634791 0.945006
0.713252 0.667536 0.947814
0.840818 0.706264 0.952422
0.932708 0.728481 0.956420
0.988983 0.726436 0.933288
0.259983 0.763607 0.933013
0.295048 0.763241 0.932891
0.391699 0.761898 0.932647
0.510857 0.757961 0.932586
0.650690 0.757015 0.934539
0.814481 0.792538 0.942962
0.923064 0.828763 0.952270
0.979797 0.825864 0.937255
0.417639 0.880186 0.927550
0.438788 0.879820 0.927550
0.503380 0.878508 0.927581
0.594354 0.876310 0.927886
0.693324 0.873838 0.928618
0.786496 0.871336 0.930022
0.898833 0.889586 0.941802
0.971160 0.902739 0.942138
0.553124 0.960479 0.924529
0.566979 0.959899 0.924590
0.612055 0.958343 0.925109
0.680446 0.956817 0.927092
0.757046 0.955779 0.930297
0.833951 0.952361 0.931945
0.905577 0.952087 0.937560
0.959777 0.956756 0.941314
