data/fiter_cube/89100697/1022668/file.cube
# Created by Adobe Lightroom plugin Export LUT (1.17.0)
# www.johnrellis.com/lightroom/exportlut.htm
# Preset: VSCO胶片_02 云集
# Color profile: C:\Program Files (x86)\Common Files\Adobe\Color\Profiles\Recommended\AdobeRGB1998.icc
LUT_3D_SIZE 32
DOMAIN_MIN 0.0 0.0 0.0
DOMAIN_MAX 1.0 1.0 1.0
0.104158 0.148928 0.188174
0.108827 0.149081 0.188113
0.115480 0.149447 0.188113
0.130617 0.150240 0.188052
0.153475 0.151400 0.187778
0.178744 0.152346 0.187503
0.207370 0.153567 0.187106
0.240543 0.154421 0.186526
0.278904 0.155154 0.185916
0.322942 0.155154 0.184665
0.372930 0.154482 0.182956
0.427924 0.153017 0.180667
0.486275 0.151675 0.177249
0.547051 0.150729 0.173373
0.607813 0.152102 0.168490
0.665980 0.157046 0.162722
0.718013 0.165042 0.157076
0.765896 0.177554 0.150576
0.808560 0.192782 0.144106
0.846098 0.209537 0.138033
0.879149 0.228367 0.131167
0.908537 0.247227 0.124727
0.934691 0.266117 0.118166
0.958068 0.284825 0.111269
0.979431 0.302373 0.104524
0.999023 0.319158 0.097810
1.000000 0.335485 0.089998
1.000000 0.350835 0.082979
1.000000 0.365209 0.074830
1.000000 0.378485 0.067842
1.000000 0.390753 0.059754
1.000000 0.401617 0.047059
0.104463 0.151461 0.188693
0.108125 0.152071 0.188174
0.115389 0.152346 0.188052
0.130800 0.153262 0.187747
0.153231 0.154452 0.187594
0.178225 0.155612 0.187289
0.206943 0.156619 0.186923
0.239628 0.157778 0.186465
0.277623 0.158511 0.185641
0.321630 0.158877 0.184482
0.371252 0.158663 0.182895
0.425818 0.157900 0.180484
0.484047 0.157198 0.177188
0.544793 0.156680 0.173312
0.605402 0.158480 0.168429
0.663569 0.163149 0.162692
0.715785 0.171389 0.156893
0.763851 0.183108 0.150515
0.806332 0.197513 0.144015
0.843870 0.213901 0.137758
0.877073 0.231998 0.131106
0.906645 0.250126 0.124514
0.933013 0.268833 0.117678
0.956634 0.286961 0.110811
0.978119 0.304509 0.103914
0.997833 0.321355 0.096834
1.000000 0.337194 0.089784
1.000000 0.352392 0.082399
1.000000 0.366796 0.073671
1.000000 0.380072 0.066102
1.000000 0.392096 0.057221
1.000000 0.402960 0.042176
0.104982 0.155184 0.189364
0.107790 0.155215 0.189212
0.113954 0.156283 0.188266
0.130861 0.157748 0.187564
0.152987 0.158663 0.187320
0.177829 0.159792 0.187137
0.205997 0.160952 0.186770
0.238590 0.162112 0.186313
0.276310 0.163241 0.185489
0.319921 0.163851 0.184451
0.369421 0.164065 0.182742
0.423774 0.164065 0.180301
0.482063 0.163699 0.177157
0.542565 0.164126 0.172976
0.602930 0.166506 0.168246
0.661555 0.171267 0.162570
0.713893 0.179660 0.156558
0.762051 0.190951 0.150179
0.804715 0.204318 0.143832
0.842161 0.220462 0.137240
0.875608 0.237552 0.130556
0.905364 0.255375 0.123690
0.931853 0.273533 0.116823
0.955657 0.290898 0.109895
0.977264 0.308049 0.103182
0.997101 0.324376 0.096101
1.000000 0.340307 0.088563
1.000000 0.355230 0.081086
1.000000 0.369207 0.072938
1.000000 0.382513 0.063905
1.000000 0.394476 0.052735
1.000000 0.405127 0.038544
0.106020 0.163455 0.190616
0.109041 0.163455 0.190585
0.113466 0.163882 0.190372
0.127260 0.167025 0.188235
0.152529 0.169528 0.186923
0.177035 0.168704 0.186526
0.204807 0.169711 0.186282
0.236912 0.171115 0.185977
0.274235 0.172793 0.185000
0.317449 0.174136 0.184054
0.366400 0.175540 0.182315
0.420508 0.176547 0.179843
0.478492 0.177401 0.176761
0.538384 0.179385 0.172671
0.599176 0.182498 0.167575
0.657862 0.187808 0.161990
0.710506 0.195804 0.155886
0.759304 0.206760 0.149172
0.801724 0.219120 0.142672
0.839322 0.233494 0.136263
0.872831 0.249210 0.129427
0.902892 0.265904 0.122469
0.929717 0.282994 0.115480
0.953887 0.299962 0.108522
0.975891 0.316350 0.101137
0.996094 0.332280 0.093416
1.000000 0.347478 0.086183
1.000000 0.362005 0.078004
1.000000 0.375708 0.068635
1.000000 0.388251 0.060029
1.000000 0.399725 0.045441
1.000000 0.410101 0.026337
0.107240 0.175845 0.192386
0.110018 0.175723 0.192264
0.114199 0.175601 0.192203
0.123476 0.177218 0.191409
0.144472 0.182071 0.188296
0.175479 0.185946 0.186160
0.203037 0.184176 0.185702
0.234226 0.184207 0.185153
0.271183 0.186191 0.184512
0.313359 0.188876 0.183444
0.361669 0.191348 0.181765
0.415290 0.193820 0.179355
0.472572 0.196719 0.176059
0.532708 0.199802 0.171908
0.593408 0.204349 0.166659
0.652491 0.210758 0.160861
0.706600 0.218692 0.154452
0.755764 0.228977 0.147677
0.798367 0.240085 0.140963
0.836210 0.253269 0.134066
0.870115 0.267216 0.127108
0.900420 0.282414 0.119966
0.927489 0.298344 0.112551
0.951965 0.314122 0.105104
0.974273 0.329290 0.097688
0.994720 0.344335 0.089570
1.000000 0.358648 0.081392
1.000000 0.372229 0.072358
1.000000 0.385321 0.062837
1.000000 0.397253 0.048951
1.000000 0.408087 0.027375
1.000000 0.417853 0.009857
0.107881 0.190036 0.194064
0.110506 0.189822 0.193729
0.114382 0.189609 0.193790
0.122499 0.188968 0.193942
0.137331 0.193057 0.191928
0.163943 0.199496 0.188266
0.201877 0.206577 0.185183
0.232792 0.205264 0.184543
0.267399 0.203586 0.183749
0.308965 0.206546 0.182650
0.356634 0.210513 0.180880
0.409491 0.214664 0.178378
0.466346 0.219181 0.174960
0.526177 0.223850 0.170657
0.586847 0.229831 0.165377
0.646296 0.236912 0.159365
0.702235 0.245609 0.152560
0.751614 0.255070 0.145174
0.794461 0.265629 0.138338
0.832883 0.277256 0.131197
0.867216 0.290013 0.123934
0.898009 0.303868 0.116091
0.933532 0.324163 0.106386
0.957336 0.338231 0.098909
0.978973 0.351934 0.090669
0.998749 0.365179 0.082338
1.000000 0.378027 0.074128
1.000000 0.390173 0.064729
1.000000 0.401526 0.052369
1.000000 0.412268 0.030640
1.000000 0.421912 0.011749
1.000000 0.430610 0.000000
0.108797 0.206485 0.196292
0.110903 0.206332 0.195834
0.115114 0.205997 0.195804
0.123140 0.205295 0.196078
0.134768 0.205661 0.195743
0.154971 0.212650 0.192355
0.187045 0.221286 0.188083
0.233158 0.233066 0.183719
0.268772 0.232609 0.182773
0.308507 0.232181 0.181369
0.353429 0.232883 0.179690
0.405921 0.238621 0.176852
0.462623 0.244755 0.173312
0.522148 0.251469 0.168856
0.582727 0.258549 0.163302
0.643397 0.267247 0.156405
0.700008 0.276555 0.148928
0.749508 0.285557 0.141665
0.792905 0.295232 0.134127
0.831907 0.306065 0.126619
0.867124 0.317998 0.118441
0.898741 0.330877 0.110140
0.927123 0.344427 0.101289
0.952544 0.357458 0.093019
0.975372 0.370581 0.084016
0.995972 0.382910 0.074434
1.000000 0.394781 0.064912
1.000000 0.405890 0.050263
1.000000 0.416449 0.026825
1.000000 0.426276 0.002838
1.000000 0.435004 0.000000
1.000000 0.442908 0.000000
0.110292 0.224643 0.198917
0.112184 0.224430 0.198276
0.116060 0.224033 0.198367
0.124117 0.223301 0.198520
0.135012 0.222141 0.198795
0.150546 0.226017 0.197086
0.175814 0.235294 0.192874
0.212894 0.246128 0.187686
0.267948 0.263706 0.181491
0.307958 0.264622 0.179904
0.352209 0.265232 0.177768
0.399664 0.265507 0.175143
0.453590 0.270298 0.171603
0.512535 0.278386 0.166812
0.573693 0.287236 0.160952
0.635798 0.297429 0.153597
0.692134 0.307073 0.145510
0.742000 0.315984 0.137545
0.785946 0.324834 0.129610
0.825681 0.334630 0.121279
0.861662 0.345129 0.113008
0.893950 0.356756 0.103853
0.922820 0.368688 0.094606
0.948730 0.380438 0.084932
0.972045 0.392218 0.074067
0.993072 0.403479 0.063020
1.000000 0.414038 0.044465
1.000000 0.424048 0.018006
1.000000 0.433692 0.000000
1.000000 0.442481 0.000000
1.000000 0.450538 0.000000
1.000000 0.457465 0.000000
0.111543 0.246006 0.201755
0.113405 0.245823 0.201236
0.117220 0.245457 0.201297
0.125277 0.244511 0.201511
0.136141 0.243320 0.201663
0.149508 0.241581 0.202029
0.169955 0.250767 0.198215
0.200473 0.262394 0.193454
0.243076 0.275914 0.187076
0.307866 0.300328 0.177768
0.352514 0.302739 0.175387
0.400275 0.304509 0.172335
0.450599 0.305669 0.168734
0.503441 0.306310 0.164248
0.565393 0.317174 0.157809
0.626734 0.328069 0.149966
0.683436 0.338109 0.141543
0.733883 0.347143 0.132906
0.778561 0.355596 0.124239
0.819242 0.364294 0.115541
0.855863 0.374182 0.105989
0.888884 0.384466 0.095705
0.918364 0.395239 0.084718
0.944793 0.405951 0.072938
0.968627 0.416266 0.060578
0.990143 0.426062 0.034699
1.000000 0.435706 0.004578
1.000000 0.444556 0.000000
1.000000 0.453132 0.000000
1.000000 0.460975 0.000000
1.000000 0.467964 0.000000
1.000000 0.474067 0.000000
0.111635 0.270512 0.204471
0.113893 0.270298 0.204166
0.117617 0.269841 0.204074
0.125887 0.268894 0.204257
0.137179 0.267460 0.204562
0.150820 0.265476 0.204654
0.167422 0.267857 0.203555
0.193393 0.279698 0.199039
0.229282 0.293980 0.193027
0.277440 0.310430 0.185122
0.352514 0.342138 0.172396
0.400885 0.345647 0.168612
0.453040 0.349401 0.164157
0.506371 0.351934 0.159030
0.560235 0.353521 0.153109
0.616327 0.358404 0.145602
0.674067 0.369482 0.136141
0.725368 0.378637 0.126711
0.771084 0.386938 0.117342
0.812436 0.395361 0.107271
0.849851 0.404273 0.096376
0.883330 0.413367 0.085023
0.913329 0.422705 0.071901
0.940154 0.432013 0.056458
0.964446 0.441199 0.021698
0.986481 0.449989 0.000000
1.000000 0.458625 0.000000
1.000000 0.466621 0.000000
1.000000 0.474189 0.000000
1.000000 0.481086 0.000000
1.000000 0.487312 0.000000
1.000000 0.492561 0.000000
0.110811 0.297887 0.207431
0.112978 0.297581 0.206943
0.117128 0.297215 0.207034
0.125551 0.296147 0.207156
0.137453 0.294621 0.207279
0.151705 0.292515 0.207401
0.167422 0.290074 0.207797
0.188937 0.298741 0.204501
0.220371 0.313176 0.198886
0.262242 0.330297 0.191562
0.316686 0.350347 0.181857
0.402747 0.389654 0.163760
0.455787 0.395575 0.157992
0.509117 0.399023 0.151949
0.562554 0.401678 0.145052
0.615167 0.403021 0.137697
0.664332 0.402564 0.129763
0.714717 0.409216 0.120119
0.761471 0.417548 0.109255
0.804074 0.425696 0.097688
0.842557 0.434028 0.084993
0.876951 0.442481 0.070710
0.907805 0.451087 0.049104
0.935424 0.459449 0.009979
0.960327 0.467811 0.000000
0.982849 0.475685 0.000000
1.000000 0.483101 0.000000
1.000000 0.490181 0.000000
1.000000 0.496773 0.000000
1.000000 0.502647 0.000000
1.000000 0.507897 0.000000
1.000000 0.512291 0.000000
0.108522 0.328496 0.210239
0.111116 0.328069 0.209659
0.115450 0.327611 0.209689
0.124300 0.326543 0.209812
0.136843 0.324956 0.209934
0.151980 0.322789 0.210086
0.168429 0.319982 0.210269
0.186679 0.319066 0.209903
0.214725 0.334264 0.204593
0.252293 0.352209 0.197604
0.300877 0.372656 0.188327
0.361273 0.395453 0.175906
0.464118 0.447669 0.149722
0.523125 0.456519 0.139559
0.576959 0.459541 0.130892
0.628931 0.460975 0.122072
0.676722 0.459907 0.112947
0.719936 0.456611 0.104158
0.759976 0.453681 0.095247
0.802731 0.461402 0.080751
0.841337 0.468849 0.063996
0.875669 0.476448 0.028260
0.906432 0.483864 0.000000
0.934051 0.490974 0.000000
0.959045 0.497963 0.000000
0.981659 0.504631 0.000000
1.000000 0.510857 0.000000
1.000000 0.516655 0.000000
1.000000 0.521996 0.000000
1.000000 0.526787 0.000000
1.000000 0.530907 0.000000
1.000000 0.534173 0.000000
0.103578 0.363500 0.212558
0.106416 0.363287 0.212161
0.111482 0.362524 0.212131
0.121035 0.361334 0.212284
0.135073 0.359411 0.212284
0.151156 0.357397 0.212528
0.169192 0.354742 0.212711
0.188144 0.351507 0.212985
0.211673 0.358099 0.210208
0.245731 0.376440 0.203372
0.289891 0.397589 0.194705
0.345586 0.421393 0.182864
0.413092 0.447517 0.166659
0.511681 0.493538 0.135592
0.577386 0.507713 0.117678
0.629541 0.509850 0.106569
0.676967 0.508598 0.095644
0.719539 0.505150 0.085237
0.758511 0.500542 0.074250
0.794980 0.495979 0.060853
0.831693 0.497536 0.022309
0.867399 0.504753 0.000000
0.899168 0.511742 0.000000
0.927764 0.518364 0.000000
0.953552 0.524865 0.000000
0.976928 0.530816 0.000000
0.998199 0.536339 0.000000
1.000000 0.541558 0.000000
1.000000 0.546105 0.000000
1.000000 0.550103 0.000000
1.000000 0.553429 0.000000
1.000000 0.555901 0.000000
0.096132 0.400824 0.214939
0.099397 0.400488 0.214481
0.104768 0.399847 0.214511
0.115908 0.398718 0.214481
0.131472 0.396551 0.214542
0.149142 0.394049 0.214694
0.168704 0.390967 0.214878
0.188846 0.387304 0.215061
0.209506 0.383246 0.215305
0.239872 0.398901 0.209354
0.279728 0.419684 0.200992
0.329778 0.443153 0.190005
0.390326 0.468635 0.175479
0.461707 0.495674 0.155154
0.559747 0.539513 0.116762
0.630488 0.558038 0.086030
0.677211 0.556695 0.071015
0.719387 0.552850 0.053559
0.758053 0.547875 0.019257
0.794186 0.543084 0.000000
0.827817 0.538231 0.000000
0.859037 0.533928 0.000000
0.891539 0.539544 0.000000
0.921202 0.545892 0.000000
0.947906 0.551934 0.000000
0.972107 0.557488 0.000000
0.994049 0.562463 0.000000
1.000000 0.566979 0.000000
1.000000 0.570886 0.000000
1.000000 0.574273 0.000000
1.000000 0.576837 0.000000
1.000000 0.578576 0.000000
0.085145 0.439734 0.217044
0.088899 0.439429 0.216587
0.095094 0.438819 0.216556
0.108614 0.437263 0.216617
0.125948 0.435065 0.216617
0.145663 0.432288 0.216739
0.166720 0.428840 0.216831
0.188571 0.424811 0.216922
0.210575 0.420508 0.217197
0.235294 0.421942 0.215396
0.271519 0.442237 0.207523
0.317052 0.465187 0.197269
0.372198 0.490059 0.183719
0.437324 0.516381 0.165530
0.511192 0.543450 0.140810
0.606378 0.583673 0.091768
0.678096 0.603906 0.001648
0.719692 0.599664 0.000000
0.757992 0.594385 0.000000
0.793729 0.589044 0.000000
0.827024 0.583886 0.000000
0.857939 0.579095 0.000000
0.886534 0.574517 0.000000
0.914061 0.572900 0.000000
0.941833 0.578668 0.000000
0.966979 0.584009 0.000000
0.989746 0.588708 0.000000
1.000000 0.592889 0.000000
1.000000 0.596368 0.000000
1.000000 0.599176 0.000000
1.000000 0.601190 0.000000
1.000000 0.602228 0.000000
0.069429 0.479561 0.219333
0.073487 0.479347 0.218479
0.081788 0.478828 0.218540
0.098268 0.477363 0.218509
0.118746 0.475166 0.218631
0.140932 0.472419 0.218601
0.163821 0.469032 0.218723
0.187289 0.465187 0.218936
0.211307 0.460517 0.218936
0.234714 0.455268 0.219059
0.265690 0.466041 0.214084
0.307378 0.488075 0.204349
0.357580 0.511650 0.191867
0.416815 0.536828 0.175570
0.484504 0.562707 0.153872
0.558923 0.588617 0.123262
0.647944 0.623102 0.053956
0.720119 0.645075 0.000000
0.758236 0.639521 0.000000
0.793820 0.633906 0.000000
0.826932 0.628565 0.000000
0.857542 0.623194 0.000000
0.885924 0.618280 0.000000
0.912322 0.613519 0.000000
0.937102 0.609033 0.000000
0.962097 0.610803 0.000000
0.985687 0.615229 0.000000
1.000000 0.619013 0.000000
1.000000 0.622034 0.000000
1.000000 0.624231 0.000000
1.000000 0.625544 0.000000
1.000000 0.625879 0.000000
0.031922 0.519280 0.221347
0.043763 0.518944 0.220371
0.063233 0.518364 0.220523
0.084901 0.517021 0.220584
0.109224 0.514824 0.220554
0.134432 0.512108 0.220676
0.160098 0.508659 0.220645
0.185306 0.504540 0.220676
0.210788 0.500008 0.220920
0.235752 0.494820 0.220798
0.260655 0.489113 0.220890
0.299107 0.510246 0.211734
0.345373 0.533074 0.200198
0.399908 0.557183 0.185428
0.462379 0.582116 0.166110
0.530755 0.606561 0.140322
0.603265 0.629725 0.102937
0.685573 0.658930 0.000000
0.758602 0.683192 0.000000
0.793698 0.677150 0.000000
0.826383 0.671351 0.000000
0.856657 0.665553 0.000000
0.884764 0.659968 0.000000
0.911009 0.654810 0.000000
0.935668 0.649836 0.000000
0.958862 0.645228 0.000000
0.980865 0.640894 0.000000
1.000000 0.644526 0.000000
1.000000 0.647242 0.000000
1.000000 0.649042 0.000000
1.000000 0.649897 0.000000
1.000000 0.649714 0.000000
0.000000 0.559594 0.224155
0.000000 0.559289 0.222660
0.004059 0.565667 0.223239
0.063661 0.564263 0.223239
0.097169 0.561975 0.223362
0.127108 0.559106 0.223362
0.156130 0.555291 0.223209
0.184298 0.550896 0.223178
0.211856 0.546105 0.223239
0.238865 0.540673 0.223270
0.265202 0.534508 0.223270
0.295842 0.538415 0.219699
0.339330 0.560143 0.208652
0.390173 0.583124 0.195010
0.448096 0.606531 0.177401
0.511559 0.629267 0.154971
0.579065 0.651026 0.124514
0.648859 0.671412 0.075105
0.724544 0.695521 0.000000
0.796902 0.721157 0.000000
0.828641 0.714565 0.000000
0.858152 0.708034 0.000000
0.885588 0.701869 0.000000
0.911345 0.695979 0.000000
0.935424 0.690242 0.000000
0.958129 0.684688 0.000000
0.979614 0.679316 0.000000
1.000000 0.674098 0.000000
1.000000 0.672145 0.000000
1.000000 0.673640 0.000000
1.000000 0.674067 0.000000
1.000000 0.673365 0.000000
0.000000 0.601984 0.227390
0.000000 0.602533 0.225681
0.000000 0.602960 0.225864
0.014588 0.602625 0.225895
0.082551 0.601160 0.225834
0.118532 0.598810 0.225986
0.150851 0.595331 0.225711
0.181277 0.591302 0.225772
0.210697 0.586633 0.225681
0.239231 0.581384 0.225620
0.266972 0.575463 0.225376
0.294194 0.568963 0.225345
0.331884 0.583032 0.217319
0.379370 0.604852 0.204959
0.432837 0.626673 0.189273
0.491859 0.648005 0.169619
0.554833 0.668421 0.144259
0.620508 0.687800 0.108522
0.687556 0.706172 0.016175
0.757046 0.726314 0.000000
0.828428 0.753323 0.000000
0.857664 0.746609 0.000000
0.884855 0.740108 0.000000
0.910338 0.733852 0.000000
0.934295 0.727718 0.000000
0.956847 0.721859 0.000000
0.978210 0.716121 0.000000
0.998505 0.710414 0.000000
1.000000 0.704799 0.000000
1.000000 0.698848 0.000000
1.000000 0.697932 0.000000
1.000000 0.696864 0.000000
0.000000 0.641962 0.231540
0.000000 0.642451 0.229862
0.000000 0.642817 0.229252
0.000000 0.642451 0.229374
0.065003 0.641230 0.229465
0.109499 0.639002 0.229343
0.145937 0.635950 0.229191
0.178683 0.632166 0.228855
0.209781 0.628077 0.228763
0.240146 0.623102 0.228458
0.269383 0.617609 0.228244
0.297978 0.611597 0.228092
0.327153 0.607904 0.226322
0.371679 0.628229 0.215091
0.421698 0.648402 0.201083
0.476539 0.668208 0.183963
0.535424 0.687373 0.162295
0.597253 0.705562 0.133577
0.660945 0.722835 0.090974
0.724575 0.739071 0.000000
0.788235 0.755764 0.000000
0.857542 0.783261 0.000000
0.884459 0.776455 0.000000
0.909667 0.769863 0.000000
0.933379 0.763424 0.000000
0.955688 0.757168 0.000000
0.976898 0.750942 0.000000
0.996979 0.744961 0.000000
1.000000 0.738888 0.000000
1.000000 0.732570 0.000000
1.000000 0.725856 0.000000
1.000000 0.719966 0.000000
0.000000 0.680629 0.237369
0.000000 0.681209 0.235904
0.000000 0.681514 0.234379
0.000000 0.681209 0.234470
0.040101 0.680079 0.234440
0.102937 0.678126 0.234379
0.142306 0.675380 0.234104
0.177066 0.672084 0.233677
0.210086 0.668116 0.233249
0.241703 0.663783 0.232914
0.272160 0.658869 0.232456
0.302129 0.653285 0.232059
0.330877 0.647028 0.231296
0.366430 0.652613 0.225711
0.413428 0.671260 0.213382
0.465064 0.689754 0.198184
0.520592 0.707698 0.179507
0.579126 0.725032 0.156039
0.639734 0.741482 0.124056
0.701137 0.756893 0.070832
0.761257 0.771237 0.000000
0.818875 0.784878 0.000000
0.884672 0.811124 0.000000
0.911040 0.805631 0.000000
0.934447 0.798947 0.000000
0.956512 0.792416 0.000000
0.977386 0.785763 0.000000
0.997192 0.779355 0.000000
1.000000 0.772793 0.000000
1.000000 0.766049 0.000000
1.000000 0.758846 0.000000
1.000000 0.751492 0.000000
0.000000 0.720882 0.246036
0.000000 0.721065 0.244480
0.000000 0.721065 0.242283
0.000000 0.720394 0.242222
0.024964 0.719051 0.241947
0.101717 0.717067 0.241672
0.142428 0.714748 0.241306
0.178531 0.711788 0.241001
0.212711 0.708522 0.240452
0.245579 0.704585 0.239689
0.277287 0.700343 0.239261
0.308324 0.695521 0.238712
0.338415 0.689906 0.237766
0.367498 0.683772 0.236790
0.409735 0.696986 0.227207
0.458381 0.713954 0.213748
0.510582 0.730373 0.197543
0.565820 0.746151 0.177127
0.623041 0.761166 0.151675
0.681178 0.775204 0.116518
0.738949 0.788266 0.047333
0.794705 0.800412 0.000000
0.847196 0.811826 0.000000
0.908171 0.835599 0.000000
0.933867 0.831052 0.000000
0.955657 0.824125 0.000000
0.976318 0.817319 0.000000
0.995972 0.810575 0.000000
1.000000 0.803738 0.000000
1.000000 0.796719 0.000000
1.000000 0.789517 0.000000
1.000000 0.782376 0.000000
0.000000 0.756680 0.257145
0.000000 0.756832 0.255741
0.000000 0.756893 0.253330
0.000000 0.756374 0.252232
0.045106 0.755245 0.251896
0.106661 0.753567 0.251560
0.147036 0.751431 0.251102
0.183078 0.748775 0.250553
0.217624 0.745724 0.249790
0.250797 0.742245 0.249058
0.283177 0.738491 0.248478
0.314733 0.734157 0.247532
0.345434 0.729274 0.246464
0.375677 0.723781 0.245426
0.407935 0.722286 0.242222
0.453803 0.737606 0.230503
0.503044 0.752651 0.216312
0.555230 0.767147 0.199039
0.609491 0.780911 0.177859
0.664759 0.793820 0.151064
0.720119 0.805844 0.113619
0.774136 0.817014 0.021241
0.825559 0.827543 0.000000
0.873747 0.837430 0.000000
0.929473 0.857908 0.000000
0.954559 0.854063 0.000000
0.975006 0.846983 0.000000
0.994476 0.839994 0.000000
1.000000 0.833005 0.000000
1.000000 0.825925 0.000000
1.000000 0.818845 0.000000
1.000000 0.812039 0.000000
0.000000 0.793179 0.272862
0.000000 0.793362 0.271397
0.000000 0.793332 0.268589
0.000000 0.792874 0.266300
0.079957 0.791745 0.265995
0.123018 0.790158 0.265385
0.160037 0.788144 0.264927
0.194308 0.785611 0.263981
0.227787 0.782803 0.263340
0.260380 0.779568 0.262150
0.292454 0.775998 0.261357
0.324041 0.772030 0.260075
0.355077 0.767636 0.258946
0.385595 0.762661 0.257511
0.415137 0.757290 0.255985
0.452644 0.762264 0.249302
0.498878 0.775509 0.236606
0.547875 0.788388 0.221805
0.598932 0.800748 0.203983
0.651362 0.812436 0.182223
0.704067 0.823423 0.154360
0.756008 0.833616 0.115724
0.805936 0.843107 0.016144
0.852995 0.851926 0.000000
0.897124 0.860105 0.000000
0.948516 0.878019 0.000000
0.974334 0.875853 0.000000
0.993500 0.868589 0.000000
1.000000 0.861357 0.000000
1.000000 0.854215 0.000000
1.000000 0.847227 0.000000
1.000000 0.840574 0.000000
0.061646 0.825498 0.291081
0.064271 0.825681 0.289311
0.067231 0.825681 0.287114
0.077913 0.825437 0.283330
0.112978 0.824430 0.282811
0.146059 0.823148 0.282444
0.178408 0.821408 0.281743
0.210422 0.819272 0.280919
0.242161 0.816922 0.280064
0.273808 0.814206 0.279118
0.305150 0.811185 0.278019
0.336675 0.807858 0.277012
0.367712 0.804257 0.275700
0.398383 0.800076 0.274144
0.428656 0.795590 0.272862
0.458106 0.790707 0.271000
0.500511 0.800870 0.260838
0.546593 0.812192 0.247868
0.594568 0.823087 0.232883
0.644038 0.833463 0.214725
0.693812 0.843198 0.192538
0.743221 0.852262 0.164065
0.791073 0.860685 0.125124
0.836484 0.868498 0.045319
0.879454 0.875792 0.000000
0.920043 0.882475 0.000000
0.966339 0.896849 0.000000
0.993072 0.896391 0.000000
1.000000 0.889036 0.000000
1.000000 0.881834 0.000000
1.000000 0.874784 0.000000
1.000000 0.868284 0.000000
0.127016 0.856748 0.314244
0.129091 0.856870 0.313024
0.129885 0.856840 0.310918
0.132113 0.856626 0.306218
0.152071 0.855741 0.304845
0.177768 0.854551 0.304173
0.204929 0.852995 0.303441
0.233433 0.851164 0.302617
0.262882 0.849058 0.301701
0.292515 0.846830 0.300572
0.322850 0.844236 0.299596
0.353429 0.841489 0.298772
0.383886 0.838376 0.297459
0.414435 0.834928 0.296178
0.444343 0.831113 0.294621
0.474067 0.826993 0.293126
0.506462 0.826322 0.289097
0.549401 0.836118 0.277897
0.594293 0.845579 0.264683
0.640345 0.854612 0.249027
0.687160 0.863157 0.230503
0.733639 0.871092 0.207614
0.779049 0.878477 0.179446
0.822507 0.885344 0.141390
0.863828 0.891691 0.077150
0.903227 0.897551 0.000000
0.940826 0.902953 0.000000
0.982910 0.914397 0.000000
1.000000 0.915160 0.000000
1.000000 0.907805 0.000000
1.000000 0.900755 0.000000
1.000000 0.894316 0.000000
0.182498 0.885588 0.342351
0.183322 0.885649 0.341009
0.183902 0.885618 0.338933
0.185916 0.885527 0.334966
0.196231 0.885008 0.331792
0.216678 0.884123 0.331334
0.239963 0.883085 0.331029
0.265476 0.881895 0.330632
0.292668 0.880522 0.330480
0.320714 0.879026 0.330205
0.349767 0.877226 0.329686
0.379309 0.875242 0.329381
0.409094 0.872953 0.328832
0.438972 0.870329 0.328008
0.468482 0.867338 0.327001
0.497871 0.863951 0.325719
0.526909 0.860380 0.324285
0.562402 0.863859 0.317479
0.603510 0.871763 0.305943
0.645838 0.879332 0.292485
0.688869 0.886442 0.276524
0.731807 0.893095 0.257572
0.773892 0.899290 0.234379
0.814633 0.904997 0.205905
0.853696 0.910338 0.168978
0.891295 0.915251 0.113497
0.927459 0.919738 0.000000
0.962127 0.923766 0.000000
1.000000 0.932403 0.000000
1.000000 0.933837 0.000000
1.000000 0.926513 0.000000
1.000000 0.919890 0.000000
0.245579 0.914641 0.379950
0.245975 0.914672 0.378607
0.246738 0.914641 0.377020
0.247532 0.914458 0.372869
0.251804 0.914153 0.368170
0.267460 0.913298 0.367712
0.286473 0.912291 0.367346
0.307591 0.911131 0.366735
0.331060 0.909758 0.366278
0.356085 0.908263 0.366033
0.382208 0.906554 0.365576
0.409400 0.904631 0.365179
0.437049 0.902525 0.364630
0.465156 0.900175 0.363989
