data/fiter_cube/37639453/1023443/file.cube
# Created by Adobe Lightroom plugin Export LUT (1.17.0)
# www.johnrellis.com/lightroom/exportlut.htm
# Preset: 油管牛人_09 云集
# Color profile: C:\Program Files (x86)\Common Files\Adobe\Color\Profiles\Recommended\AdobeRGB1998.icc
LUT_3D_SIZE 5
DOMAIN_MIN 0.000000 0.000000 0.000000
DOMAIN_MAX 0.903226 0.903226 0.903226
0.016114 0.021424 0.048219
0.150057 0.063569 0.088350
0.471595 0.000000 0.110201
0.800961 0.058625 0.132570
0.945830 0.316716 0.232090
0.009369 0.144381 0.117494
0.134432 0.162020 0.117464
0.473976 0.187778 0.117006
0.796963 0.245243 0.136324
0.945830 0.389807 0.251530
0.000000 0.365209 0.199435
0.057618 0.372930 0.169192
0.447059 0.451026 0.175937
0.795407 0.510948 0.162844
0.934173 0.550927 0.299504
0.000000 0.676112 0.354467
0.000000 0.677089 0.327367
0.376318 0.641108 0.243503
0.727382 0.705684 0.338811
0.909636 0.741665 0.465064
0.000000 0.863310 0.540826
0.225406 0.858427 0.537591
0.472328 0.838132 0.502190
0.666957 0.803647 0.448890
0.871977 0.859617 0.641047
0.028962 0.074556 0.156863
0.156405 0.083162 0.174594
0.463233 0.000000 0.192447
0.779904 0.109804 0.229740
0.933349 0.344366 0.322118
0.035554 0.151980 0.178164
0.147616 0.183139 0.193851
0.468452 0.199039 0.208591
0.779812 0.252445 0.235721
0.931395 0.405341 0.336156
0.000000 0.393042 0.276066
0.102693 0.406622 0.263828
0.448341 0.451087 0.251560
0.780636 0.503441 0.266423
0.924620 0.564691 0.391058
0.000000 0.688350 0.428992
0.000000 0.689235 0.411566
0.398962 0.661036 0.328801
0.726680 0.707759 0.416876
0.904570 0.745907 0.520684
0.000000 0.865385 0.579126
0.246494 0.860349 0.576318
0.532708 0.842741 0.580957
0.676020 0.810483 0.503532
0.872465 0.861784 0.666865
0.000000 0.128176 0.339940
0.181399 0.130434 0.386236
0.549706 0.000000 0.451026
0.797330 0.182559 0.456641
0.914244 0.451331 0.542596
0.016541 0.218845 0.340063
0.163729 0.225406 0.389349
0.542260 0.218570 0.463722
0.783200 0.316014 0.474067
0.905913 0.515038 0.569787
0.000000 0.404395 0.429603
0.145144 0.429053 0.447089
0.502831 0.503014 0.500969
0.757137 0.541405 0.529259
0.902861 0.614282 0.587915
0.000000 0.723659 0.620752
0.131502 0.719112 0.608881
0.496773 0.705287 0.577508
0.729671 0.719387 0.592035
0.896086 0.754055 0.633997
0.198459 0.869963 0.692714
0.326360 0.866545 0.688991
0.538811 0.853269 0.673701
0.689845 0.824186 0.623804
0.868620 0.861662 0.717494
0.000000 0.206760 0.635950
0.240970 0.206882 0.660121
0.608270 0.195804 0.725307
0.802365 0.327306 0.704768
0.916930 0.546838 0.719478
0.000000 0.287663 0.631891
0.222660 0.294377 0.653742
0.587915 0.322789 0.716762
0.792691 0.417609 0.708156
0.910674 0.579431 0.723964
0.000000 0.461067 0.620935
0.212924 0.473396 0.626246
0.527581 0.529198 0.685725
0.767483 0.592370 0.720089
0.896544 0.663539 0.738491
0.168399 0.667994 0.697047
0.307744 0.673732 0.699550
0.548669 0.697017 0.712551
0.741360 0.740322 0.740566
0.882506 0.761044 0.753719
0.410834 0.876738 0.820951
0.479591 0.875853 0.822202
0.609339 0.870024 0.811612
0.727718 0.856077 0.776608
0.868956 0.866941 0.789334
0.360632 0.381170 0.827420
0.443641 0.392035 0.832853
0.642725 0.441810 0.851255
0.830014 0.537285 0.872892
0.911864 0.622827 0.846921
0.363165 0.438758 0.820706
0.442664 0.449348 0.826474
0.636591 0.495369 0.845762
0.825010 0.577996 0.870817
0.908782 0.646479 0.848447
0.322362 0.555138 0.793576
0.399969 0.561334 0.801541
0.602502 0.600824 0.827695
0.802090 0.666255 0.863523
0.902861 0.713161 0.856413
0.385412 0.695399 0.812894
0.431891 0.696773 0.811704
0.553307 0.702663 0.809293
0.740536 0.742519 0.840818
0.896696 0.797879 0.871061
0.501396 0.830137 0.850797
0.535424 0.831571 0.851377
0.631556 0.837980 0.854490
0.750332 0.851377 0.861479
0.879850 0.882963 0.882963
