data/fiter_cube/37639453/1023443/file.cube
# Created by Adobe Lightroom plugin Export LUT (1.17.0)
# www.johnrellis.com/lightroom/exportlut.htm
# Preset: 油管牛人_09 云集
# Color profile: C:\Program Files (x86)\Common Files\Adobe\Color\Profiles\Recommended\AdobeRGB1998.icc
LUT_3D_SIZE 32
DOMAIN_MIN 0.0 0.0 0.0
DOMAIN_MAX 1.0 1.0 1.0
0.016114 0.021424 0.048219
0.035706 0.023835 0.052583
0.057771 0.028748 0.057465
0.072541 0.039368 0.064637
0.088380 0.051545 0.072480
0.106355 0.059297 0.078706
0.126772 0.061707 0.083680
0.150057 0.063569 0.088350
0.177371 0.064302 0.092348
0.209567 0.063813 0.096376
0.248508 0.059388 0.100252
0.294987 0.039765 0.103639
0.349035 0.000000 0.106294
0.409064 0.000000 0.108339
0.471595 0.000000 0.110201
0.532525 0.000000 0.110811
0.588556 0.000000 0.111910
0.638880 0.000000 0.113069
0.688655 0.000000 0.115541
0.732601 0.000000 0.119692
0.769406 0.000000 0.125216
0.800961 0.058625 0.132570
0.828153 0.115267 0.140719
0.852049 0.154391 0.150820
0.873442 0.188327 0.162295
0.893095 0.219974 0.175296
0.911559 0.251469 0.190677
0.929107 0.283452 0.209323
0.945830 0.316716 0.232090
0.961822 0.352148 0.260380
0.977081 0.390753 0.294987
0.991516 0.432776 0.337407
0.014649 0.037537 0.059083
0.032227 0.041627 0.059632
0.056825 0.046326 0.060487
0.071901 0.051911 0.066590
0.088441 0.059480 0.073579
0.106203 0.063081 0.079805
0.126680 0.065400 0.084382
0.149599 0.067231 0.088716
0.176516 0.068574 0.092958
0.208530 0.068360 0.096712
0.246952 0.065400 0.100313
0.292760 0.054780 0.104005
0.346136 0.015045 0.106752
0.405615 0.000000 0.109041
0.467475 0.000000 0.110109
0.528435 0.000000 0.111208
0.584588 0.000000 0.112123
0.635126 0.000000 0.113161
0.684993 0.000000 0.115267
0.728450 0.000000 0.119448
0.765377 0.000000 0.124361
0.797055 0.064576 0.131167
0.824521 0.116121 0.139834
0.848783 0.154238 0.149264
0.870542 0.187228 0.160220
0.890532 0.218631 0.173281
0.909300 0.249851 0.188663
0.927123 0.281773 0.207126
0.944091 0.314794 0.229343
0.960327 0.350195 0.257298
0.975769 0.388434 0.291569
0.990387 0.430213 0.333471
0.015015 0.057801 0.066743
0.033173 0.059327 0.066499
0.051789 0.060304 0.067384
0.071473 0.062959 0.070649
0.087984 0.066346 0.076265
0.106020 0.068696 0.081331
0.126162 0.070558 0.085573
0.149203 0.072633 0.089540
0.176028 0.073945 0.093477
0.207736 0.073976 0.097444
0.245853 0.072328 0.101015
0.291447 0.065400 0.104402
0.344457 0.041596 0.107149
0.403632 0.000000 0.109224
0.465400 0.000000 0.110719
0.526177 0.000000 0.111635
0.582330 0.000000 0.112551
0.632959 0.000000 0.113313
0.683101 0.000000 0.115389
0.726284 0.000000 0.119295
0.763180 0.000000 0.124483
0.795010 0.077455 0.130953
0.822660 0.122866 0.139132
0.847074 0.158572 0.148653
0.869017 0.190524 0.159365
0.889097 0.220859 0.172305
0.908019 0.251469 0.187442
0.925994 0.283024 0.205814
0.943145 0.315618 0.228214
0.959503 0.350744 0.255833
0.975006 0.388434 0.289921
0.989715 0.429877 0.331670
0.018402 0.072786 0.077516
0.037018 0.073243 0.078981
0.051179 0.073548 0.079164
0.067689 0.075868 0.080964
0.086397 0.079194 0.082124
0.106416 0.080537 0.083833
0.126558 0.081666 0.087373
0.149508 0.083467 0.091493
0.176303 0.084901 0.095064
0.207797 0.085634 0.098695
0.245579 0.085145 0.102174
0.290929 0.081086 0.105684
0.343267 0.072267 0.108095
0.401892 0.048981 0.110323
0.463569 0.000000 0.111543
0.524041 0.000000 0.112154
0.580163 0.000000 0.113008
0.630640 0.000000 0.113985
0.680812 0.000000 0.115572
0.723049 0.000000 0.119356
0.759609 0.050660 0.123934
0.791440 0.101259 0.130526
0.819516 0.137057 0.138247
0.844511 0.169467 0.147707
0.867185 0.199435 0.159091
0.887938 0.229221 0.172091
0.907347 0.258946 0.187594
0.925566 0.289708 0.206516
0.942748 0.321874 0.229038
0.959075 0.355871 0.256687
0.974487 0.392645 0.290349
0.989075 0.432654 0.331426
0.024018 0.087251 0.088838
0.036500 0.087922 0.089235
0.048615 0.088991 0.087373
0.065370 0.089448 0.088838
0.080903 0.093599 0.090639
0.102266 0.097444 0.091096
0.126253 0.098390 0.090486
0.149386 0.099275 0.093721
0.175875 0.100801 0.097169
0.207156 0.102296 0.100649
0.244663 0.103090 0.104189
0.289464 0.101656 0.107362
0.341405 0.097017 0.109865
0.399817 0.087922 0.111482
0.461311 0.072389 0.112734
0.522087 0.044099 0.113405
0.578820 0.004242 0.113771
0.630884 0.000000 0.114687
0.680476 0.027710 0.116243
0.722072 0.073365 0.119844
0.757992 0.103639 0.124361
0.789609 0.132631 0.130831
0.817655 0.160403 0.138399
0.842802 0.187839 0.148013
0.865629 0.214939 0.159335
0.886625 0.242344 0.172152
0.906126 0.270085 0.188022
0.924407 0.299199 0.206912
0.941680 0.329839 0.229099
0.958007 0.362524 0.256870
0.973510 0.398260 0.290562
0.988128 0.437476 0.331365
0.022736 0.103944 0.098238
0.032929 0.104585 0.098116
0.044373 0.105684 0.097688
0.061128 0.106630 0.096193
0.077089 0.107942 0.097322
0.095705 0.113558 0.099092
0.120180 0.118624 0.099611
0.147433 0.120516 0.098878
0.176608 0.121401 0.100374
0.208103 0.123110 0.103426
0.245914 0.124605 0.106508
0.290715 0.125185 0.109407
0.342260 0.123751 0.111879
0.400580 0.119265 0.113527
0.461799 0.112551 0.114076
0.522515 0.104860 0.114229
0.578882 0.099367 0.114626
0.633051 0.101320 0.115419
0.681331 0.110994 0.117220
0.722377 0.126894 0.120546
0.758236 0.146548 0.125093
0.789883 0.167666 0.131777
0.838590 0.215824 0.148928
0.861387 0.238529 0.160830
0.881865 0.261662 0.173587
0.900664 0.285161 0.188357
0.918090 0.309941 0.205814
0.934539 0.336065 0.226047
0.950164 0.364111 0.250523
0.965057 0.395087 0.280125
0.979217 0.428717 0.315282
0.992554 0.465919 0.357458
0.017456 0.124086 0.108125
0.024994 0.124880 0.107790
0.036439 0.125765 0.107424
0.054414 0.127443 0.105074
0.073457 0.127565 0.105287
0.092012 0.130556 0.106874
0.114687 0.137789 0.108431
0.143862 0.144747 0.109377
0.176394 0.148318 0.108248
0.214267 0.151095 0.107668
0.254765 0.153017 0.110048
0.301366 0.154421 0.112642
0.354620 0.154910 0.114504
0.413367 0.153658 0.115328
0.473823 0.150912 0.115694
0.532555 0.148379 0.115602
0.587640 0.148470 0.115419
0.643610 0.154055 0.116396
0.690517 0.163821 0.118227
0.731075 0.176791 0.122499
0.767361 0.193637 0.127993
0.799863 0.212650 0.136141
0.828855 0.233921 0.145907
0.854582 0.256046 0.158083
0.877256 0.278691 0.172183
0.897307 0.301274 0.187839
0.915435 0.324620 0.205722
0.932219 0.349248 0.225895
0.948089 0.375769 0.250645
0.963043 0.404730 0.280003
0.977295 0.436805 0.314946
0.990784 0.472389 0.356298
0.009369 0.144381 0.117494
0.015686 0.144900 0.117189
0.025605 0.145876 0.116854
0.049012 0.147646 0.115938
0.067536 0.148226 0.112581
0.088136 0.147951 0.113741
0.108797 0.153292 0.115145
0.134432 0.162020 0.117464
0.168154 0.171725 0.118685
0.206394 0.177066 0.117220
0.251682 0.181460 0.115785
0.302556 0.184360 0.115053
0.355840 0.186435 0.116213
0.414160 0.187411 0.116762
0.473976 0.187778 0.117006
0.532219 0.187747 0.116732
0.590936 0.191257 0.116426
0.643977 0.197299 0.117189
0.689204 0.205722 0.119020
0.729061 0.215915 0.123018
0.764706 0.229648 0.128420
0.796963 0.245243 0.136324
0.825772 0.262852 0.146578
0.851469 0.281590 0.158389
0.874266 0.301335 0.172427
0.894469 0.321630 0.188357
0.912779 0.342687 0.205875
0.929808 0.365087 0.226841
0.945830 0.389807 0.251530
0.961028 0.416999 0.280430
0.975372 0.447547 0.315679
0.989014 0.481483 0.356756
0.000000 0.167147 0.127474
0.003174 0.167605 0.127199
0.013123 0.168551 0.126680
0.035889 0.170077 0.125856
0.060700 0.171939 0.121340
0.082307 0.171237 0.121309
0.104829 0.170382 0.122133
0.128389 0.179141 0.124086
0.158389 0.189578 0.126253
0.198093 0.202274 0.128054
0.243565 0.209995 0.125521
0.296910 0.216007 0.122927
0.357702 0.221042 0.118990
0.417273 0.223697 0.118593
0.476539 0.225834 0.118135
0.536980 0.229068 0.117250
0.594903 0.234287 0.116945
0.645777 0.240208 0.117464
0.689509 0.247135 0.119539
0.728450 0.255833 0.123812
0.763546 0.267033 0.129152
0.795346 0.279759 0.137362
0.823819 0.294621 0.147799
0.849332 0.310826 0.160037
0.872068 0.327672 0.174228
0.892332 0.345251 0.190341
0.910704 0.364111 0.208042
0.927794 0.384466 0.229038
0.943908 0.406989 0.253574
0.959106 0.432441 0.283146
0.973510 0.460945 0.317967
0.987152 0.493050 0.358892
0.000000 0.192416 0.137728
0.000000 0.192874 0.137484
0.000000 0.193576 0.136873
0.019257 0.194858 0.135927
0.055177 0.197086 0.133974
0.075013 0.197086 0.129030
0.099733 0.195773 0.129702
0.124086 0.196872 0.130434
0.151492 0.207767 0.132723
0.186557 0.220279 0.134859
0.234012 0.236088 0.136782
0.287053 0.245884 0.132967
0.347814 0.254276 0.128969
0.414160 0.261051 0.123537
0.482277 0.267063 0.118166
0.544366 0.272557 0.117464
0.600366 0.278233 0.117006
0.649775 0.284062 0.117708
0.692226 0.290135 0.120455
0.729854 0.297032 0.124849
0.763638 0.305669 0.130953
0.794186 0.315801 0.139284
0.821775 0.327398 0.149142
0.846494 0.340307 0.161593
0.868956 0.354345 0.175509
0.889220 0.369482 0.191470
0.907866 0.386389 0.209445
0.925292 0.404761 0.231235
0.941711 0.425940 0.256443
0.957183 0.449836 0.286687
0.971801 0.477150 0.322484
0.985657 0.507805 0.363745
0.000000 0.219364 0.148196
0.000000 0.219791 0.147829
0.000000 0.220584 0.147372
0.000000 0.221988 0.146181
0.034272 0.223880 0.144198
0.064271 0.225620 0.137850
0.092653 0.224216 0.137179
0.119783 0.222263 0.137423
0.146609 0.226749 0.138735
0.179446 0.239872 0.141085
0.220859 0.254826 0.143160
0.277256 0.273960 0.145083
0.337957 0.286259 0.139620
0.407507 0.298344 0.133944
0.479622 0.308629 0.126619
0.548028 0.316838 0.118563
0.603510 0.322240 0.116579
0.651240 0.327276 0.117311
0.692470 0.331914 0.120272
0.729213 0.337377 0.125154
0.762539 0.344152 0.131502
0.792752 0.352148 0.140261
0.820157 0.361730 0.151125
0.844785 0.372290 0.164157
0.867063 0.384192 0.178317
0.887266 0.397040 0.194827
0.905821 0.411536 0.213474
0.923186 0.427955 0.235142
0.939574 0.446937 0.260655
0.955047 0.468788 0.290898
0.969696 0.494057 0.326726
0.983612 0.522972 0.368261
0.000000 0.249912 0.159548
0.000000 0.250278 0.159060
0.000000 0.250950 0.158511
0.000000 0.252232 0.157259
0.001587 0.254032 0.154879
0.058473 0.256626 0.152071
0.081544 0.256046 0.144808
0.113466 0.253758 0.144961
0.142947 0.250889 0.145388
0.173922 0.260380 0.146975
0.213077 0.276005 0.149050
0.262669 0.293767 0.151003
0.352880 0.335454 0.155245
0.429480 0.354498 0.147646
0.504112 0.368383 0.139498
0.571435 0.378698 0.131136
0.629969 0.386175 0.122805
0.677913 0.390234 0.118776
0.714565 0.391638 0.123995
0.747707 0.394263 0.131044
0.777768 0.398108 0.139406
0.805020 0.402869 0.150393
0.829770 0.409094 0.162020
0.852323 0.416663 0.175906
0.872953 0.425605 0.191135
0.891905 0.435950 0.208560
0.909422 0.447822 0.228092
0.925872 0.461830 0.250370
0.941405 0.478340 0.276646
0.956176 0.497932 0.307530
0.970245 0.520806 0.343114
0.983673 0.547448 0.384649
0.000000 0.288853 0.173220
0.000000 0.289189 0.172641
0.000000 0.289464 0.171817
0.000000 0.290257 0.170199
0.000000 0.291447 0.167544
0.016632 0.293339 0.164096
0.065064 0.294011 0.154452
0.103883 0.291142 0.152865
0.138735 0.287724 0.152926
0.170840 0.284062 0.152865
0.210269 0.302098 0.155581
0.262882 0.325444 0.158145
0.328496 0.351598 0.160678
0.412787 0.384070 0.162356
0.490913 0.404395 0.154421
0.559716 0.417426 0.145632
0.619135 0.426001 0.137972
0.669184 0.430793 0.131411
0.711299 0.432990 0.126925
0.745174 0.433906 0.131899
0.774868 0.435523 0.141329
0.801907 0.438483 0.152193
0.826444 0.442695 0.164767
0.848997 0.448127 0.179019
0.869627 0.454994 0.194369
0.888609 0.463355 0.212131
0.906249 0.473426 0.232029
0.922789 0.485542 0.254978
0.938476 0.500206 0.281132
0.953399 0.518120 0.312352
0.967590 0.539239 0.348363
0.981201 0.564172 0.389776
0.000000 0.325200 0.185611
0.000000 0.325597 0.184939
0.000000 0.325750 0.184298
0.000000 0.326482 0.182681
0.000000 0.327398 0.179782
0.000000 0.329076 0.175875
0.051698 0.331029 0.170596
0.086915 0.328649 0.159823
0.129763 0.325292 0.159762
0.167544 0.323156 0.160220
0.205722 0.325933 0.160983
0.255100 0.348943 0.163485
0.316167 0.374609 0.165957
0.388373 0.402106 0.167788
0.472786 0.433387 0.170016
0.546715 0.453071 0.163088
0.606836 0.463050 0.154635
0.658045 0.468879 0.148623
0.701350 0.471229 0.144411
0.739284 0.472602 0.141970
0.772244 0.473548 0.143679
0.799191 0.474739 0.155398
0.823697 0.477150 0.168399
0.846220 0.480781 0.183627
0.866850 0.485969 0.199924
0.885893 0.492592 0.218235
0.903593 0.500877 0.238254
0.920195 0.511345 0.261784
0.935943 0.524346 0.288518
0.950958 0.540398 0.319677
0.965209 0.559899 0.356268
0.978912 0.583093 0.397742
0.000000 0.365209 0.199435
0.000000 0.365515 0.199039
0.000000 0.365698 0.198032
0.000000 0.366186 0.195926
0.000000 0.366949 0.193027
0.000000 0.368627 0.188846
0.000000 0.371740 0.183352
0.057618 0.372930 0.169192
0.115602 0.370367 0.167483
0.161440 0.366796 0.167544
0.202731 0.362615 0.167239
0.247196 0.371527 0.168551
0.304601 0.396948 0.170901
0.372076 0.423804 0.173373
0.447059 0.451026 0.175937
0.526696 0.479622 0.179629
0.594507 0.497963 0.175479
0.647089 0.504753 0.167788
0.691371 0.508049 0.163790
0.730159 0.509514 0.161837
0.764645 0.510338 0.161379
0.795407 0.510948 0.162844
0.820920 0.511620 0.173129
0.843381 0.513695 0.188602
0.864073 0.517052 0.206119
0.883299 0.522301 0.224949
0.901244 0.529442 0.246433
0.918151 0.538903 0.270817
0.934173 0.550927 0.299504
0.949340 0.566064 0.332433
0.963836 0.584405 0.369726
0.977661 0.606531 0.412512
0.000000 0.411353 0.216159
0.000000 0.412238 0.215976
0.000000 0.412543 0.214725
0.000000 0.413611 0.212894
0.000000 0.415229 0.209689
0.000000 0.417365 0.205142
0.000000 0.419867 0.198947
0.020172 0.422919 0.190585
0.090883 0.420142 0.175357
0.151247 0.415503 0.175174
0.199496 0.409949 0.174685
0.243076 0.403357 0.174166
0.294285 0.418921 0.175845
0.356847 0.444068 0.178470
0.426154 0.469520 0.181338
0.499001 0.494667 0.185336
0.572137 0.520500 0.191409
0.634821 0.537865 0.191165
0.681178 0.542687 0.185794
0.721401 0.545159 0.184054
0.756985 0.546563 0.184665
0.788693 0.547265 0.186709
0.817014 0.547814 0.190311
0.842130 0.548547 0.197116
0.862760 0.550713 0.215427
0.881956 0.554376 0.235843
0.899870 0.560082 0.258000
0.916716 0.568048 0.283635
0.932586 0.578576 0.312688
0.947662 0.591852 0.345525
0.961913 0.608209 0.382788
0.975616 0.628138 0.424781
0.000000 0.459449 0.234806
0.000000 0.459663 0.234287
0.000000 0.459937 0.233341
0.000000 0.460517 0.230838
0.000000 0.461616 0.227268
0.000000 0.462959 0.222202
0.000000 0.464881 0.215671
0.000000 0.467018 0.206882
0.038178 0.466468 0.186954
0.132204 0.461372 0.182864
0.190188 0.455146 0.182132
0.239384 0.447852 0.181277
0.283299 0.439277 0.180209
0.342260 0.462959 0.183383
0.407813 0.487495 0.187106
0.476600 0.511467 0.191470
0.545708 0.534997 0.197604
0.612665 0.558404 0.206851
0.669825 0.574517 0.212314
0.711299 0.577844 0.208896
0.747799 0.579644 0.209262
0.780117 0.580438 0.211826
0.809079 0.580926 0.216251
0.835233 0.581659 0.221653
0.859068 0.582544 0.228946
0.879332 0.584741 0.245731
0.897337 0.589166 0.268986
0.914275 0.595758 0.295201
0.930236 0.604913 0.324926
0.945342 0.616846 0.358526
0.959747 0.631647 0.395850
0.973510 0.650111 0.437995
0.000000 0.506249 0.255314
0.000000 0.507012 0.254673
0.000000 0.524743 0.261723
0.000000 0.525048 0.259434
0.000000 0.525505 0.255039
0.000000 0.525811 0.248997
0.000000 0.526421 0.240848
0.000000 0.527184 0.231266
0.022980 0.527764 0.217807
0.108583 0.522759 0.196262
0.184482 0.515343 0.194858
0.241703 0.506798 0.193423
0.291417 0.496407 0.191409
0.339666 0.492958 0.190555
0.402564 0.516106 0.195438
0.468757 0.538750 0.201175
0.534783 0.560906 0.208713
0.598718 0.582422 0.218540
0.657710 0.601953 0.232761
0.707851 0.615473 0.245853
0.743954 0.616907 0.244450
0.776272 0.617365 0.246189
0.805020 0.617456 0.250675
0.830961 0.617456 0.256443
0.854398 0.617487 0.263584
0.875914 0.618067 0.272190
0.895628 0.619654 0.283848
0.912139 0.624140 0.309575
0.927855 0.631403 0.338872
0.942901 0.641596 0.372168
0.957305 0.654871 0.409308
0.971130 0.671504 0.450660
0.000000 0.555627 0.279454
0.000000 0.558129 0.280095
0.000000 0.560601 0.280125
0.000000 0.562921 0.278691
0.000000 0.564660 0.274784
0.000000 0.565698 0.269169
0.000000 0.566155 0.261418
0.000000 0.566522 0.251743
0.000000 0.566979 0.240299
0.074495 0.564446 0.212528
0.165103 0.557366 0.205966
0.230808 0.548974 0.204013
0.285405 0.538781 0.201358
0.333165 0.527367 0.198795
0.385321 0.531273 0.199680
0.448463 0.553033 0.206119
0.512474 0.574273 0.214298
0.574517 0.594781 0.224796
0.633387 0.614282 0.238621
0.686976 0.631830 0.256779
0.733181 0.645014 0.277317
0.766567 0.646387 0.277897
0.796353 0.647028 0.281346
0.822995 0.647456 0.288426
0.847013 0.647639 0.296208
0.869047 0.648310 0.305089
0.889464 0.649866 0.316228
0.908659 0.652461 0.329412
0.925444 0.657801 0.353948
0.940490 0.666499 0.386816
0.954864 0.678187 0.423865
0.968811 0.693080 0.464576
0.000000 0.595789 0.301915
0.000000 0.597955 0.302190
0.000000 0.600214 0.302220
0.000000 0.602228 0.300786
0.000000 0.603845 0.297154
0.000000 0.604517 0.291844
0.000000 0.604608 0.283879
0.000000 0.604730 0.274815
0.000000 0.604730 0.262943
0.088258 0.603906 0.246098
0.140963 0.598444 0.219821
0.218235 0.590295 0.217411
0.278447 0.580468 0.214237
0.329931 0.569543 0.211154
0.375586 0.556939 0.207187
0.431647 0.568597 0.211368
0.493660 0.589014 0.220249
0.553979 0.608423 0.231785
0.611292 0.626978 0.246281
0.665583 0.644831 0.264164
0.714626 0.660731 0.286320
0.756832 0.673610 0.314061
0.787564 0.675074 0.317174
0.814969 0.675746 0.322179
0.839445 0.676234 0.330388
0.861845 0.676997 0.339849
0.882506 0.678370 0.351324
0.901946 0.680812 0.364874
0.920378 0.684779 0.381201
0.937743 0.690669 0.402045
0.952239 0.700710 0.438056
0.966217 0.714015 0.478157
0.000000 0.634058 0.325414
0.000000 0.635981 0.325750
0.000000 0.637964 0.325658
0.000000 0.639673 0.324376
0.000000 0.640742 0.320775
0.000000 0.641138 0.315465
0.000000 0.641077 0.308110
0.000000 0.640742 0.299199
0.000000 0.640253 0.288273
0.085389 0.639612 0.275669
0.126833 0.636347 0.242893
0.204318 0.629084 0.233860
0.269688 0.620050 0.230198
0.325078 0.609796 0.226078
0.373999 0.598230 0.221836
0.417548 0.585534 0.217044
0.478065 0.604944 0.227085
0.537591 0.624079 0.239933
0.594568 0.642542 0.256321
0.648646 0.660304 0.276341
0.699031 0.677333 0.300420
0.744717 0.693202 0.327733
0.782284 0.705104 0.363165
0.810269 0.706813 0.369116
0.835355 0.707942 0.376410
0.857939 0.709102 0.386603
0.878721 0.710750 0.399084
0.898131 0.713344 0.413092
0.916472 0.717220 0.429938
0.933959 0.722652 0.449470
0.950713 0.730007 0.472541
0.965789 0.740810 0.505364
0.000000 0.676112 0.354467
0.000000 0.676905 0.354253
0.000000 0.677577 0.353796
0.000000 0.678004 0.351659
0.000000 0.678187 0.347967
0.000000 0.677974 0.342565
0.000000 0.677516 0.335576
0.000000 0.677089 0.327367
0.000000 0.676478 0.317449
0.086488 0.675685 0.306340
0.159426 0.674128 0.287602
0.196750 0.669184 0.258244
0.266850 0.661006 0.253758
0.325170 0.651637 0.248844
0.376318 0.641108 0.243503
0.422065 0.629358 0.237491
0.467659 0.623896 0.235538
0.525322 0.641688 0.249973
0.580713 0.658717 0.267155
0.633051 0.675044 0.288060
0.682185 0.690700 0.311894
0.727382 0.705684 0.338811
0.768673 0.720058 0.367926
0.801480 0.730373 0.407782
0.826993 0.731930 0.414466
0.850095 0.733364 0.422614
0.871305 0.735256 0.434424
0.891020 0.737911 0.448646
0.909636 0.741665 0.465064
0.927306 0.746853 0.484260
0.944274 0.753750 0.506218
0.960876 0.762783 0.531823
0.000000 0.707698 0.378454
0.000000 0.708400 0.378302
0.000000 0.709041 0.378058
0.000000 0.709346 0.375982
0.000000 0.709377 0.372503
0.000000 0.708919 0.367559
0.000000 0.708339 0.361364
0.000000 0.707485 0.353887
0.000000 0.706508 0.345129
0.090791 0.705440 0.335760
0.180240 0.703975 0.325048
0.201205 0.700893 0.290013
0.262119 0.694057 0.278660
0.321965 0.685634 0.273136
0.374426 0.676204 0.267033
0.421607 0.665858 0.260868
0.464118 0.654658 0.253819
0.511620 0.656489 0.257816
0.566186 0.672786 0.276371
0.617914 0.688472 0.297948
0.666590 0.703456 0.322881
0.711604 0.717922 0.350713
0.752834 0.731746 0.380713
0.790188 0.744930 0.412268
0.817075 0.751369 0.445960
0.841215 0.754238 0.456794
0.863035 0.756344 0.466896
0.883299 0.759121 0.479652
0.902159 0.762875 0.495888
0.920104 0.767941 0.514672
0.937438 0.774594 0.536400
0.954437 0.783169 0.560815
0.000000 0.741787 0.407538
0.000000 0.742519 0.407568
0.000000 0.742824 0.406836
0.000000 0.742763 0.405097
0.000000 0.742397 0.401831
0.000000 0.741573 0.397192
0.000000 0.740444 0.391363
0.000000 0.738979 0.384558
0.000000 0.737362 0.376654
0.116121 0.735500 0.368353
0.196109 0.733181 0.359411
0.240543 0.730312 0.340368
0.264988 0.725429 0.309270
0.323461 0.717372 0.302586
0.374640 0.708400 0.295323
0.421180 0.698451 0.287602
0.463447 0.687861 0.279393
0.501946 0.676783 0.271092
0.550896 0.684810 0.282872
0.602075 0.699702 0.305150
0.650446 0.714260 0.330755
0.695247 0.728054 0.358587
0.736355 0.741115 0.388342
0.773587 0.753445 0.419257
0.807095 0.764981 0.450233
0.832944 0.772763 0.487373
0.855680 0.776883 0.502739
0.876127 0.779629 0.513848
0.895354 0.783169 0.527794
0.913512 0.787930 0.545464
0.931121 0.794247 0.565606
0.948516 0.802365 0.588678
0.000000 0.767727 0.431098
0.000000 0.768307 0.431159
0.000000 0.768643 0.430762
0.000000 0.768612 0.429389
0.000000 0.768093 0.426459
0.000000 0.767269 0.422492
0.000000 0.766201 0.417731
0.000000 0.764889 0.412421
0.000000 0.763333 0.405982
0.144137 0.761501 0.399512
0.216281 0.759365 0.392859
0.275517 0.756771 0.385962
0.286442 0.753811 0.350866
0.332158 0.747372 0.337377
0.381933 0.739528 0.330205
0.427131 0.730861 0.322057
0.468513 0.721706 0.313634
0.506889 0.711971 0.304662
0.542687 0.701961 0.295872
0.592706 0.715328 0.318151
0.640131 0.728786 0.344488
0.684321 0.741726 0.372992
0.724941 0.753994 0.402991
0.761929 0.765621 0.433814
0.795346 0.776608 0.464851
0.825467 0.786984 0.495308
0.848539 0.793942 0.530755
0.870085 0.799374 0.550134
0.889616 0.803159 0.562921
0.908293 0.807828 0.577966
0.926177 0.813931 0.596857
0.943877 0.821805 0.618677
0.000000 0.793576 0.456489
0.000000 0.793881 0.456550
0.000000 0.793973 0.456336
0.000000 0.793606 0.454749
0.000000 0.792935 0.452247
0.000000 0.791928 0.448920
0.000000 0.790646 0.444800
0.000000 0.789181 0.440436
0.078920 0.787442 0.435523
0.175814 0.785580 0.430671
0.241123 0.783322 0.425696
0.297429 0.780789 0.421363
0.330053 0.777981 0.404303
0.346654 0.774166 0.374914
0.392767 0.767300 0.367437
0.435370 0.759670 0.359350
0.474830 0.751461 0.350317
0.511986 0.742885 0.340978
0.546929 0.734035 0.331731
0.583673 0.729854 0.330266
0.630488 0.742458 0.356909
0.674159 0.754604 0.385657
0.714382 0.766110 0.416022
0.751156 0.777066 0.446876
0.784482 0.787411 0.477363
0.814572 0.797269 0.507591
0.841733 0.806760 0.537469
0.862760 0.813169 0.569879
0.883238 0.819455 0.591516
0.902190 0.824277 0.605585
0.920562 0.830167 0.621973
0.938628 0.837705 0.642237
0.000000 0.816495 0.481209
0.000000 0.816648 0.481086
0.000000 0.816617 0.480659
0.000000 0.816373 0.479713
0.000000 0.815824 0.478035
0.000000 0.815183 0.475868
0.000000 0.814511 0.473823
0.000000 0.813718 0.471565
0.155581 0.812772 0.469764
0.225864 0.811551 0.467872
0.284825 0.810056 0.466560
0.338170 0.807980 0.465522
0.387274 0.805417 0.464729
0.392218 0.803677 0.434058
0.424903 0.798764 0.421454
0.462379 0.792508 0.413825
0.497871 0.785611 0.405066
0.531792 0.778347 0.395727
0.564446 0.770871 0.386694
0.595666 0.763119 0.376776
0.632776 0.764187 0.385260
0.675105 0.775051 0.414893
0.713985 0.785367 0.445350
0.749569 0.795254 0.475837
0.781888 0.804623 0.506065
0.811124 0.813657 0.535851
0.837583 0.822354 0.563806
0.861723 0.830838 0.590204
0.880674 0.836728 0.618891
0.899809 0.843687 0.641718
0.918242 0.849638 0.656855
0.936675 0.857023 0.674647
0.000000 0.843137 0.513817
0.000000 0.843168 0.513909
0.000000 0.842985 0.513512
0.000000 0.842496 0.512688
0.000000 0.841733 0.511284
0.000000 0.840757 0.509819
0.059541 0.839597 0.508110
0.157900 0.838254 0.506676
0.221103 0.836667 0.505272
0.275853 0.834806 0.504265
0.326146 0.832578 0.503532
0.373205 0.830014 0.503227
0.417487 0.827085 0.503502
0.440314 0.824613 0.490181
