data/fiter_cube/37639453/1023443/file.cube
# Created by Adobe Lightroom plugin Export LUT (1.17.0)
# www.johnrellis.com/lightroom/exportlut.htm
# Preset: 油管牛人_09 云集
# Color profile: C:\Program Files (x86)\Common Files\Adobe\Color\Profiles\Recommended\AdobeRGB1998.icc
LUT_3D_SIZE 8
DOMAIN_MIN 0.000000 0.000000 0.000000
DOMAIN_MAX 0.903226 0.903226 0.903226
0.016114 0.021424 0.048219
0.088380 0.051545 0.072480
0.177371 0.064302 0.092348
0.349035 0.000000 0.106294
0.588556 0.000000 0.111910
0.769406 0.000000 0.125216
0.873442 0.188327 0.162295
0.945830 0.316716 0.232090
0.024018 0.087251 0.088838
0.080903 0.093599 0.090639
0.175875 0.100801 0.097169
0.341405 0.097017 0.109865
0.578820 0.004242 0.113771
0.757992 0.103639 0.124361
0.865629 0.214939 0.159335
0.941680 0.329839 0.229099
0.000000 0.167147 0.127474
0.060700 0.171939 0.121340
0.158389 0.189578 0.126253
0.357702 0.221042 0.118990
0.594903 0.234287 0.116945
0.763546 0.267033 0.129152
0.872068 0.327672 0.174228
0.943908 0.406989 0.253574
0.000000 0.288853 0.173220
0.000000 0.291447 0.167544
0.138735 0.287724 0.152926
0.328496 0.351598 0.160678
0.619135 0.426001 0.137972
0.774868 0.435523 0.141329
0.869627 0.454994 0.194369
0.938476 0.500206 0.281132
0.000000 0.459449 0.234806
0.000000 0.461616 0.227268
0.038178 0.466468 0.186954
0.283299 0.439277 0.180209
0.545708 0.534997 0.197604
0.747799 0.579644 0.209262
0.859068 0.582544 0.228946
0.930236 0.604913 0.324926
0.000000 0.634058 0.325414
0.000000 0.640742 0.320775
0.000000 0.640253 0.288273
0.269688 0.620050 0.230198
0.478065 0.604944 0.227085
0.699031 0.677333 0.300420
0.835355 0.707942 0.376410
0.916472 0.717220 0.429938
0.000000 0.767727 0.431098
0.000000 0.768093 0.426459
0.000000 0.763333 0.405982
0.286442 0.753811 0.350866
0.468513 0.721706 0.313634
0.640131 0.728786 0.344488
0.795346 0.776608 0.464851
0.889616 0.803159 0.562921
0.000000 0.863310 0.540826
0.000000 0.861845 0.539300
0.274968 0.856840 0.537560
0.452064 0.847837 0.542687
0.526238 0.829679 0.484932
0.640040 0.809049 0.456550
0.771878 0.829374 0.539330
0.871977 0.859617 0.641047
0.031220 0.058473 0.109560
0.086091 0.061372 0.115419
0.171206 0.081056 0.126650
0.334112 0.078370 0.143648
0.571649 0.000000 0.148806
0.750698 0.000000 0.159396
0.860655 0.185946 0.189364
0.937621 0.314916 0.253147
0.030274 0.088502 0.118502
0.081788 0.101778 0.126589
0.171267 0.116396 0.136019
0.335363 0.118013 0.145571
0.569543 0.071015 0.149630
0.746029 0.112551 0.159121
0.855039 0.213626 0.187381
0.933379 0.326696 0.249546
0.000000 0.172702 0.152834
0.073823 0.180026 0.154238
0.162966 0.196109 0.153597
0.350622 0.222354 0.151217
0.581018 0.232853 0.152468
0.748928 0.261204 0.163241
0.857420 0.317235 0.197604
0.934569 0.399817 0.269810
0.000000 0.291752 0.194797
0.000000 0.296574 0.191989
0.144259 0.298619 0.174685
0.321202 0.344701 0.182498
0.590295 0.404242 0.167269
0.752529 0.417182 0.170779
0.854673 0.441169 0.213748
0.929625 0.491981 0.294194
0.000000 0.466072 0.260624
0.000000 0.466773 0.252445
0.096376 0.471534 0.223575
0.283513 0.440772 0.198520
0.532311 0.523156 0.218235
0.737087 0.569635 0.230900
0.851987 0.575921 0.249393
0.924315 0.600946 0.341558
0.000000 0.631617 0.345190
0.000000 0.632288 0.337499
0.000000 0.632532 0.308141
0.266941 0.617762 0.249516
0.473823 0.600000 0.244236
0.696254 0.675166 0.322362
0.831571 0.705715 0.394263
0.912657 0.714412 0.440925
0.000000 0.761563 0.441444
0.000000 0.759731 0.434852
0.000000 0.756435 0.416358
0.305028 0.749355 0.379004
0.467567 0.720577 0.330358
0.635584 0.724422 0.355291
0.790188 0.771908 0.470649
0.885313 0.798459 0.562249
0.000000 0.860472 0.546777
0.000000 0.859586 0.546288
0.269566 0.855009 0.544640
0.449104 0.846464 0.549584
0.540307 0.833890 0.509697
0.644404 0.811704 0.475288
0.770443 0.828122 0.545922
0.869902 0.857847 0.643336
0.025360 0.080934 0.175845
0.081941 0.083070 0.185611
0.191318 0.090181 0.199557
0.371984 0.055970 0.211368
0.588281 0.000000 0.220462
0.753140 0.096956 0.254856
0.859525 0.240116 0.293156
0.933410 0.366918 0.360021
0.057252 0.117769 0.179843
0.086580 0.121553 0.190463
0.187503 0.128420 0.204532
0.361486 0.120150 0.214908
0.578149 0.085878 0.231662
0.748470 0.152468 0.254093
0.855619 0.260807 0.290715
0.931121 0.378607 0.358587
0.029541 0.177920 0.201205
0.084779 0.188174 0.206821
0.179324 0.217197 0.221744
0.357885 0.231815 0.231235
0.592584 0.243076 0.243687
0.751186 0.280064 0.263066
0.854337 0.346349 0.301488
0.928374 0.434394 0.371130
0.000000 0.323064 0.271702
0.000000 0.328832 0.270787
0.169100 0.343175 0.259892
0.354284 0.372259 0.258457
0.610224 0.414679 0.258396
0.754269 0.429572 0.281529
0.852750 0.463783 0.325689
0.924529 0.520653 0.398444
0.000000 0.494118 0.343175
0.000000 0.498116 0.340002
0.128695 0.506218 0.322332
0.317967 0.491402 0.277928
0.557000 0.545159 0.310887
0.741329 0.579797 0.333227
0.847105 0.587518 0.360449
0.917967 0.618158 0.436164
0.000000 0.649683 0.422797
0.000000 0.650843 0.418616
0.042237 0.650721 0.399054
0.295872 0.643397 0.341436
0.483040 0.605371 0.312963
0.696620 0.677913 0.403571
0.826566 0.708949 0.466773
0.908904 0.722560 0.507164
0.000000 0.771878 0.504234
0.000000 0.770474 0.499916
0.117006 0.765469 0.485206
0.357916 0.756069 0.465614
0.486549 0.731930 0.407752
0.638911 0.725765 0.414527
0.791470 0.776211 0.530358
0.885557 0.805173 0.608972
0.000000 0.863523 0.587366
0.000000 0.861814 0.584466
0.281468 0.856535 0.581842
0.461402 0.849149 0.588098
0.558801 0.837339 0.559472
0.652522 0.816434 0.525139
0.770871 0.828489 0.576715
0.870451 0.860075 0.669276
0.000000 0.109834 0.269749
0.077546 0.113893 0.282902
0.224552 0.108095 0.326909
0.412818 0.051881 0.346197
0.639582 0.000000 0.365972
0.764065 0.079225 0.370642
0.849943 0.271824 0.410651
0.916716 0.431128 0.491157
0.015503 0.145998 0.279149
0.085023 0.148684 0.289952
0.220127 0.148775 0.329992
0.411872 0.123140 0.351263
0.634455 0.019501 0.368658
0.758328 0.159091 0.374578
0.844419 0.307927 0.420111
0.915923 0.439551 0.489631
0.038849 0.212497 0.283543
0.091371 0.220859 0.289372
0.193118 0.239078 0.327581
0.404211 0.244816 0.366674
0.618585 0.253727 0.382513
0.748775 0.311742 0.404303
0.843809 0.414221 0.459815
0.916594 0.492653 0.507347
0.000000 0.315770 0.334813
0.000000 0.324987 0.341405
0.191958 0.355413 0.363012
0.389227 0.404181 0.398260
0.598077 0.423407 0.413947
0.739712 0.454078 0.436591
0.838346 0.499733 0.472053
0.912261 0.559869 0.523400
0.000000 0.540093 0.484627
0.000000 0.545403 0.487678
0.148623 0.552148 0.478401
0.386999 0.554498 0.454231
0.581018 0.570947 0.456580
0.742061 0.594873 0.474220
0.836088 0.610681 0.504845
0.907378 0.644251 0.551873
0.000000 0.682765 0.546441
0.000000 0.687007 0.547143
0.158785 0.683497 0.533349
0.389288 0.676020 0.511589
0.528466 0.648280 0.460670
0.704463 0.691035 0.524102
0.822904 0.719265 0.565667
0.903288 0.733150 0.589929
0.000000 0.785153 0.594934
0.000000 0.784756 0.593378
0.219089 0.781247 0.585626
0.410895 0.772519 0.571618
0.536858 0.756558 0.536248
0.647608 0.730892 0.503624
0.792477 0.781552 0.604273
0.884215 0.809934 0.659174
0.145815 0.869963 0.658106
0.206912 0.868925 0.657008
0.328130 0.864347 0.650813
0.471473 0.855650 0.645289
0.602350 0.842863 0.643977
0.666285 0.825406 0.598230
0.769467 0.828122 0.617548
0.870695 0.862669 0.703700
0.000000 0.147463 0.424262
0.002777 0.149599 0.438544
0.239658 0.142977 0.483284
0.485145 0.019745 0.546288
0.656123 0.000000 0.546441
0.785489 0.186587 0.539055
0.857633 0.338537 0.548211
0.914885 0.477302 0.595178
0.000000 0.178683 0.429541
0.010101 0.181155 0.443793
0.236332 0.179019 0.486152
0.485267 0.130770 0.551202
0.652583 0.132082 0.548211
0.781827 0.238560 0.542931
0.854582 0.366949 0.553948
0.912688 0.492042 0.599420
0.000000 0.260014 0.415930
0.063050 0.265537 0.432990
0.208194 0.269505 0.481849
0.460853 0.273075 0.551171
0.639246 0.288548 0.554284
0.765499 0.355535 0.552300
0.842771 0.441444 0.568475
0.904570 0.531823 0.609003
0.000000 0.353704 0.454261
0.000000 0.360021 0.458991
0.205539 0.382574 0.476478
0.407935 0.422797 0.534874
0.621302 0.453468 0.571801
0.744015 0.492012 0.576043
0.826322 0.537957 0.593988
0.895933 0.596307 0.629175
0.000000 0.492439 0.522271
0.000000 0.498787 0.526665
0.214908 0.518486 0.540002
0.419776 0.550286 0.562097
0.593957 0.589014 0.588891
0.722286 0.602960 0.597833
0.818265 0.626001 0.614160
0.894835 0.659022 0.639673
0.000000 0.686580 0.639277
0.000000 0.688930 0.640894
0.226780 0.693843 0.644862
0.436194 0.694789 0.640803
0.576654 0.683253 0.612909
0.705684 0.697841 0.622644
0.818692 0.723201 0.644495
0.893858 0.739132 0.666255
0.000000 0.798825 0.697780
0.131106 0.797177 0.695155
0.307958 0.792203 0.687465
0.458869 0.784329 0.674556
0.579736 0.772854 0.653285
0.662928 0.746792 0.608789
0.791165 0.784451 0.668879
0.881987 0.810819 0.703670
0.265476 0.872251 0.732601
0.298711 0.870909 0.731044
0.387762 0.866545 0.725612
0.499214 0.862181 0.719051
0.598749 0.852323 0.702663
0.681086 0.838132 0.675319
0.761166 0.824002 0.654932
0.868711 0.863127 0.736934
0.000000 0.194644 0.603754
0.045167 0.195438 0.612299
0.279789 0.190982 0.638758
0.504692 0.169741 0.682521
0.685206 0.174624 0.708614
0.782193 0.278294 0.680293
0.865690 0.421149 0.680446
0.917235 0.536797 0.698360
0.000000 0.221317 0.599145
0.016327 0.222202 0.606897
0.271733 0.222049 0.634424
0.493721 0.212100 0.676600
0.679316 0.223331 0.705715
0.777737 0.310643 0.679805
0.862242 0.440894 0.682063
0.915038 0.547021 0.699763
0.000000 0.312016 0.595666
0.064454 0.311833 0.605615
0.254124 0.312200 0.631495
0.475410 0.327489 0.672084
0.672084 0.357610 0.708248
0.769528 0.414740 0.687007
0.853758 0.509545 0.692561
0.909636 0.584863 0.708064
0.000000 0.405005 0.582269
0.072206 0.408362 0.583673
0.246738 0.426612 0.604303
0.450629 0.460578 0.660212
0.658045 0.509850 0.710933
0.759457 0.542565 0.702510
0.842741 0.594720 0.708858
0.902373 0.637385 0.720211
0.000000 0.515038 0.622248
0.087434 0.519158 0.624506
0.264408 0.533043 0.631464
0.432471 0.557214 0.642512
0.602716 0.600153 0.681788
0.739101 0.633631 0.707973
0.823911 0.658350 0.713344
0.889769 0.683009 0.723537
0.055604 0.636164 0.666102
0.160708 0.640284 0.668940
0.312657 0.649714 0.674464
0.469398 0.664912 0.683436
0.604822 0.685512 0.695521
0.718227 0.715908 0.716243
0.808957 0.727535 0.723720
0.885649 0.745052 0.736049
0.231968 0.785306 0.749508
0.279484 0.787289 0.751766
0.391882 0.792050 0.757076
0.521843 0.796414 0.763088
0.630396 0.797116 0.761501
0.707118 0.785122 0.734340
0.795926 0.793790 0.739071
0.884825 0.815244 0.756741
0.396674 0.878599 0.811246
0.416785 0.877379 0.809873
0.477028 0.873686 0.805051
0.554803 0.869322 0.797482
0.630365 0.863157 0.783474
0.702419 0.853666 0.760555
0.762966 0.832395 0.721187
0.869017 0.866270 0.778622
0.145174 0.261448 0.732113
0.208133 0.263798 0.737118
0.350683 0.268345 0.750179
0.522576 0.282292 0.771908
0.691218 0.326024 0.798032
0.799222 0.382635 0.803494
0.855161 0.473365 0.773434
0.916930 0.584283 0.781735
0.139528 0.283726 0.727230
0.202274 0.286229 0.732052
0.344335 0.291936 0.745388
0.515129 0.306828 0.766751
0.683711 0.349004 0.793332
0.793912 0.400183 0.799985
0.850889 0.482155 0.770962
0.914000 0.586511 0.779385
0.143557 0.358892 0.723232
0.200015 0.361089 0.727016
0.338872 0.371069 0.739620
0.506889 0.393469 0.761105
0.671931 0.436561 0.787686
0.787350 0.481483 0.799710
0.846494 0.542412 0.777005
0.912078 0.625513 0.787686
0.159762 0.457099 0.700649
0.206851 0.459663 0.705135
0.335882 0.473396 0.722683
0.491524 0.496468 0.749233
0.652857 0.539147 0.778439
0.778897 0.582513 0.801328
0.840513 0.617273 0.786007
0.907988 0.672877 0.796597
0.175387 0.544549 0.708492
0.213077 0.545922 0.708156
0.313725 0.552789 0.708614
0.442908 0.568231 0.713985
0.612634 0.611292 0.757259
0.760006 0.659541 0.797330
0.829374 0.679927 0.790738
0.899840 0.718013 0.801938
0.241825 0.644434 0.736660
0.274510 0.646204 0.737179
0.366064 0.652430 0.738796
0.480232 0.663844 0.741817
0.591669 0.679225 0.745480
0.716182 0.716060 0.777005
0.820401 0.747951 0.800931
0.890074 0.765560 0.807401
0.330694 0.742184 0.768185
0.357733 0.743801 0.769131
0.432715 0.747951 0.771115
0.530266 0.755520 0.774899
0.627100 0.765927 0.780026
0.718471 0.781552 0.789059
0.803311 0.805234 0.805325
0.879057 0.813870 0.810819
0.432227 0.850248 0.824643
0.450080 0.851041 0.825528
0.509239 0.855314 0.830289
0.583185 0.861509 0.836637
0.663294 0.868894 0.843961
0.740047 0.872251 0.844938
0.793423 0.862608 0.819730
0.871702 0.871916 0.826383
0.360632 0.381170 0.827420
0.388342 0.385321 0.829435
0.467842 0.395727 0.834623
0.581781 0.421912 0.844816
0.702937 0.466163 0.858213
0.813474 0.527520 0.873167
0.877409 0.565362 0.872282
0.911864 0.622827 0.846921
0.359899 0.398444 0.824521
0.387366 0.402380 0.826596
0.466346 0.413092 0.832151
0.578698 0.437659 0.842252
0.699672 0.480293 0.855955
0.811429 0.539635 0.871946
0.874907 0.573327 0.870970
0.910246 0.627863 0.846464
0.360693 0.453529 0.818051
0.386267 0.456825 0.819944
0.461891 0.466346 0.825376
0.575158 0.493324 0.837339
0.693111 0.531060 0.851408
0.803067 0.580285 0.868254
0.869841 0.608362 0.869993
0.907652 0.652949 0.848661
0.346258 0.523125 0.804379
0.376959 0.528405 0.807095
0.458350 0.541436 0.815152
0.560998 0.559655 0.827634
0.678462 0.592828 0.843900
0.788693 0.634302 0.863157
0.863218 0.659815 0.870451
0.904784 0.691951 0.853696
0.316655 0.590692 0.789425
0.336553 0.592187 0.789578
0.399725 0.595758 0.792020
0.512657 0.610285 0.808255
0.643549 0.642267 0.830014
0.762020 0.680385 0.853422
0.853666 0.712459 0.870695
0.901305 0.736934 0.860258
0.365423 0.672419 0.806577
0.380194 0.672602 0.806027
0.428290 0.673884 0.804623
0.499672 0.676967 0.802945
0.581109 0.681575 0.800717
0.721218 0.722499 0.837766
0.843381 0.770504 0.873472
0.898314 0.786679 0.869444
0.429267 0.754971 0.827298
0.442023 0.755337 0.827085
0.483650 0.756863 0.826688
0.547021 0.760647 0.826902
0.620691 0.766262 0.827512
0.697230 0.774075 0.828702
0.799710 0.803281 0.854520
0.891600 0.833188 0.876616
0.501396 0.830137 0.850797
0.511864 0.830533 0.850919
0.546075 0.832120 0.851591
0.600153 0.835569 0.853300
0.664393 0.840879 0.855924
0.732845 0.848814 0.860044
0.803708 0.861112 0.867338
0.879850 0.882963 0.882963
