data/fiter_cube/57993848/1023160/file.cube
# Created by Adobe Lightroom plugin Export LUT (1.17.0)
# www.johnrellis.com/lightroom/exportlut.htm
# Preset: 萌宠摄影后期_07 云集
# Color profile: C:\Program Files (x86)\Common Files\Adobe\Color\Profiles\Recommended\AdobeRGB1998.icc
LUT_3D_SIZE 32
DOMAIN_MIN 0.0 0.0 0.0
DOMAIN_MAX 1.0 1.0 1.0
0.107454 0.121523 0.134676
0.112703 0.122194 0.135378
0.123171 0.123354 0.136568
0.134737 0.127291 0.140108
0.147402 0.132509 0.144808
0.159060 0.136904 0.148775
0.171878 0.140780 0.151553
0.187594 0.144808 0.154116
0.207431 0.149355 0.156649
0.231662 0.154696 0.159091
0.260716 0.161074 0.161471
0.294377 0.168551 0.163790
0.331579 0.177127 0.165896
0.368170 0.185824 0.168154
0.401404 0.194095 0.170748
0.433234 0.202274 0.173648
0.467079 0.210941 0.176486
0.513878 0.222965 0.180240
0.565789 0.236667 0.184909
0.617090 0.250584 0.190158
0.667964 0.264683 0.196170
0.717342 0.278904 0.202976
0.764187 0.292576 0.210117
0.809110 0.306188 0.217899
0.852415 0.319493 0.226078
0.895354 0.333074 0.234928
0.939025 0.347448 0.245151
0.982727 0.363317 0.261173
1.000000 0.380835 0.280583
1.000000 0.399786 0.303563
1.000000 0.418433 0.321447
1.000000 0.420081 0.321752
0.107851 0.125063 0.136934
0.111330 0.126223 0.135927
0.122774 0.126833 0.136995
0.134371 0.130251 0.140871
0.147158 0.134737 0.145449
0.159121 0.138674 0.149111
0.171817 0.142153 0.151888
0.187411 0.146029 0.154330
0.206821 0.150484 0.156741
0.230869 0.155825 0.159335
0.259464 0.162173 0.161563
0.292515 0.169558 0.163790
0.329137 0.178012 0.165835
0.365332 0.186526 0.168154
0.398413 0.194797 0.170779
0.429694 0.202731 0.173495
0.462898 0.211124 0.176211
0.508568 0.223026 0.179995
0.557641 0.235874 0.184268
0.606958 0.249180 0.189364
0.656428 0.262791 0.194949
0.705043 0.276524 0.201358
0.751614 0.290013 0.208164
0.796475 0.303349 0.215610
0.840085 0.316533 0.223423
0.883543 0.330114 0.231907
0.928038 0.344457 0.241672
0.972686 0.360357 0.257389
1.000000 0.377874 0.276493
1.000000 0.396918 0.299260
1.000000 0.416236 0.321172
1.000000 0.420508 0.321813
0.109560 0.132784 0.142214
0.111513 0.133547 0.140169
0.119875 0.134676 0.138766
0.133883 0.134401 0.142184
0.146914 0.137850 0.146456
0.159060 0.140963 0.149691
0.171939 0.144167 0.152316
0.187442 0.147829 0.154604
0.206943 0.152193 0.157168
0.230900 0.157504 0.159457
0.259373 0.163943 0.161837
0.292363 0.171267 0.163912
0.328618 0.179751 0.165957
0.364569 0.188296 0.168429
0.397436 0.196323 0.171084
0.428534 0.204318 0.173800
0.461555 0.212650 0.176547
0.507012 0.224399 0.180240
0.554376 0.236820 0.184390
0.602533 0.249790 0.189181
0.651423 0.263127 0.194614
0.699702 0.276677 0.200809
0.745998 0.289952 0.207614
0.790738 0.303166 0.214694
0.834287 0.316258 0.222416
0.877806 0.329686 0.230747
0.922484 0.343938 0.240452
0.967590 0.359747 0.255680
1.000000 0.377203 0.274632
1.000000 0.396277 0.297185
1.000000 0.415808 0.321111
1.000000 0.421424 0.321904
0.114931 0.142214 0.150759
0.115724 0.142519 0.148470
0.118868 0.142672 0.147646
0.129305 0.144717 0.145571
0.145541 0.145632 0.148470
0.159976 0.146029 0.151064
0.173373 0.148531 0.153414
0.189395 0.152071 0.155795
0.209201 0.156466 0.158022
0.233402 0.161929 0.160250
0.262119 0.168307 0.162417
0.294926 0.176028 0.164462
0.330632 0.184298 0.166751
0.365881 0.192660 0.169253
0.398322 0.200504 0.171633
0.429114 0.208255 0.174502
0.461738 0.216556 0.177096
0.507408 0.228275 0.180972
0.551873 0.240085 0.184970
0.597406 0.252201 0.189334
0.644038 0.264805 0.194461
0.691005 0.277928 0.200381
0.737453 0.291112 0.206790
0.783413 0.304479 0.214084
0.829099 0.317998 0.221836
0.874784 0.332006 0.230747
0.921111 0.346746 0.240787
0.967163 0.362799 0.256077
1.000000 0.380133 0.274968
1.000000 0.398779 0.297337
1.000000 0.417762 0.321386
1.000000 0.423774 0.322332
0.118257 0.150576 0.156741
0.118990 0.150698 0.154849
0.119966 0.151003 0.152804
0.126101 0.151980 0.152438
0.138949 0.154665 0.150607
0.155886 0.156191 0.152255
0.173220 0.155978 0.154849
0.191318 0.158450 0.157076
0.211734 0.162936 0.159213
0.236362 0.168368 0.161227
0.265202 0.175143 0.163302
0.297673 0.182864 0.165957
0.333196 0.191226 0.168185
0.368170 0.199466 0.170474
0.400488 0.207187 0.172702
0.431647 0.214969 0.175601
0.468452 0.224216 0.178531
0.512444 0.235599 0.182345
0.555596 0.246921 0.186252
0.599664 0.258640 0.190707
0.644556 0.270756 0.195865
0.690181 0.283391 0.201389
0.735500 0.296178 0.207828
0.781064 0.309209 0.214847
0.826596 0.322545 0.222507
0.872282 0.336431 0.231205
0.918425 0.350927 0.241184
0.964172 0.366461 0.255772
1.000000 0.383398 0.274327
1.000000 0.401556 0.296178
1.000000 0.420233 0.320317
1.000000 0.427466 0.322850
0.120974 0.158511 0.161624
0.121340 0.158663 0.160250
0.121767 0.158968 0.158389
0.125795 0.158846 0.157198
0.134066 0.161105 0.156130
0.148531 0.164431 0.154513
0.167269 0.167483 0.156039
0.188937 0.169650 0.158572
0.217624 0.172457 0.161074
0.242893 0.178561 0.163607
0.272557 0.185458 0.165774
0.305699 0.193545 0.167941
0.341039 0.201816 0.170047
0.375189 0.209781 0.172183
0.406714 0.217197 0.174472
0.438148 0.224674 0.177371
0.479133 0.235233 0.180880
0.521599 0.246281 0.184543
0.564019 0.257389 0.188663
0.607599 0.268894 0.193240
0.652247 0.280980 0.198520
0.697810 0.293492 0.204257
0.821653 0.333593 0.227787
0.864286 0.346380 0.236484
0.905089 0.358770 0.245396
0.944732 0.371221 0.254948
0.983429 0.383948 0.265141
1.000000 0.397955 0.281743
1.000000 0.412909 0.300633
1.000000 0.428229 0.321324
1.000000 0.435248 0.324041
1.000000 0.434943 0.323980
0.124025 0.167605 0.167788
0.124331 0.167758 0.166598
0.124849 0.167758 0.164736
0.126833 0.167910 0.162264
0.133425 0.168521 0.162203
0.144137 0.172305 0.161227
0.160830 0.176913 0.159579
0.185855 0.184329 0.161349
0.215702 0.190921 0.164309
0.254948 0.197879 0.167361
0.296025 0.204990 0.170016
0.331731 0.213413 0.171695
0.366064 0.221317 0.173556
0.397772 0.228153 0.175784
0.427558 0.234531 0.178317
0.464942 0.243809 0.181674
0.508293 0.255070 0.185489
0.550835 0.266026 0.189578
0.594018 0.277348 0.194339
0.639734 0.289525 0.199863
0.688716 0.303105 0.206516
0.740139 0.317723 0.214237
0.792142 0.333104 0.223423
0.842924 0.348272 0.233341
0.890929 0.363012 0.243778
0.934783 0.376593 0.253971
0.975494 0.389532 0.264439
1.000000 0.403143 0.279942
1.000000 0.417548 0.298466
1.000000 0.432166 0.318425
1.000000 0.441779 0.325017
1.000000 0.440986 0.324865
0.127321 0.175051 0.173404
0.127413 0.175082 0.172274
0.127932 0.175204 0.171115
0.128756 0.175326 0.167971
0.133547 0.175082 0.167117
0.141512 0.177859 0.166964
0.153902 0.182895 0.166232
0.173190 0.189578 0.164858
0.204105 0.201511 0.166567
0.240787 0.212131 0.169345
0.286809 0.222721 0.172030
0.339910 0.231418 0.174777
0.376593 0.238163 0.176913
0.406867 0.244205 0.179171
0.440772 0.251926 0.182254
0.480751 0.261906 0.185855
0.520684 0.271855 0.189578
0.560418 0.281682 0.193637
0.601160 0.291966 0.198154
0.644739 0.303319 0.203616
0.691524 0.316014 0.209964
0.740658 0.329808 0.217716
0.790555 0.344213 0.226261
0.839384 0.358465 0.235569
0.885863 0.372198 0.245335
0.928801 0.385138 0.255009
0.968963 0.397284 0.264744
1.000000 0.410010 0.278813
1.000000 0.423804 0.296818
1.000000 0.437781 0.316289
1.000000 0.449714 0.326299
1.000000 0.448341 0.326085
0.130282 0.183413 0.179324
0.130526 0.183413 0.178470
0.130892 0.183566 0.177096
0.131746 0.183658 0.174716
0.134493 0.183810 0.172152
0.140902 0.183963 0.172244
0.150790 0.189364 0.172061
0.166079 0.196597 0.171542
0.189364 0.205875 0.170230
0.227817 0.223209 0.171572
0.271489 0.238071 0.173892
0.323766 0.252018 0.176059
0.376196 0.260929 0.179538
0.424903 0.266789 0.184634
0.462745 0.275761 0.188174
0.500114 0.284337 0.191623
0.537499 0.292760 0.195468
0.575280 0.301518 0.199283
0.614008 0.310704 0.203677
0.655665 0.321233 0.209171
0.700343 0.333074 0.215457
0.747341 0.345953 0.222873
0.794858 0.359197 0.231113
0.841520 0.372412 0.240055
0.886107 0.385168 0.249119
0.927489 0.396918 0.258000
0.966522 0.408270 0.267033
1.000000 0.419928 0.279667
1.000000 0.432685 0.296941
1.000000 0.445655 0.315496
1.000000 0.458900 0.327764
1.000000 0.456947 0.327459
0.132845 0.193057 0.185428
0.133059 0.193179 0.184604
0.133394 0.193179 0.183413
0.134310 0.193179 0.180911
0.135500 0.193393 0.177249
0.141299 0.192996 0.176913
0.149325 0.195987 0.177096
0.161898 0.203647 0.176944
0.181247 0.213352 0.176486
0.209079 0.225803 0.175204
0.255436 0.248295 0.175814
0.306615 0.267704 0.177859
0.365454 0.285771 0.181399
0.419379 0.295903 0.187350
0.476478 0.303655 0.194522
0.522515 0.310857 0.199466
0.559960 0.318853 0.203220
0.597070 0.326726 0.207492
0.634668 0.335149 0.212009
0.674006 0.344305 0.217319
0.715114 0.354406 0.223209
0.757473 0.365179 0.229740
0.800198 0.376196 0.237064
0.842466 0.387366 0.244724
0.883726 0.398352 0.252659
0.923339 0.408942 0.260472
0.961730 0.419379 0.268711
0.998901 0.430457 0.280308
1.000000 0.442664 0.297276
1.000000 0.455146 0.315557
1.000000 0.468910 0.329442
1.000000 0.466835 0.329107
0.134951 0.203525 0.191409
0.135164 0.203555 0.190738
0.135531 0.203555 0.189487
0.136110 0.203769 0.187289
0.137331 0.203983 0.183566
0.141115 0.204013 0.181338
0.148592 0.203738 0.181460
0.159426 0.211276 0.181704
0.176089 0.221561 0.181704
0.200290 0.234409 0.181094
0.236515 0.252995 0.179873
0.295933 0.284642 0.180514
0.353124 0.307042 0.183627
0.405951 0.320592 0.189151
0.460731 0.331243 0.196139
0.519493 0.340185 0.204135
0.580041 0.346441 0.212863
0.615442 0.353094 0.216892
0.651087 0.359930 0.221103
0.688441 0.367742 0.225956
0.727504 0.376684 0.231693
0.767910 0.386206 0.237949
0.808804 0.396185 0.244755
0.849088 0.406195 0.251896
0.888273 0.415930 0.259007
0.925689 0.425116 0.266117
0.961975 0.434119 0.273228
0.997314 0.443610 0.282841
1.000000 0.454536 0.298741
1.000000 0.465736 0.315984
1.000000 0.478004 0.330968
1.000000 0.477607 0.330907
0.136538 0.215854 0.198062
0.136782 0.215854 0.197299
0.137057 0.215976 0.196323
0.137697 0.216068 0.194003
0.138888 0.216403 0.190402
0.140719 0.216648 0.185763
0.148379 0.216495 0.185885
0.157748 0.219425 0.186191
0.173190 0.231540 0.187015
0.196262 0.247257 0.187472
0.229160 0.266636 0.187228
0.273350 0.289494 0.185672
0.376471 0.356023 0.192721
0.433936 0.374548 0.201083
0.495888 0.391150 0.210117
0.559655 0.404425 0.219760
0.622278 0.413153 0.230289
0.682002 0.417121 0.241398
0.728023 0.418616 0.249729
0.759670 0.422309 0.253605
0.792416 0.427070 0.258030
0.825834 0.432563 0.262913
0.859098 0.438300 0.267857
0.892454 0.444465 0.273198
0.925170 0.450690 0.278569
0.957153 0.456855 0.283909
0.988128 0.462959 0.289158
1.000000 0.469581 0.297093
1.000000 0.477546 0.310979
1.000000 0.485847 0.325994
1.000000 0.494240 0.333684
1.000000 0.490242 0.333074
0.138125 0.234348 0.207675
0.138277 0.234440 0.207065
0.138735 0.234257 0.205844
0.139467 0.233982 0.203067
0.140536 0.234287 0.199344
0.142153 0.235233 0.194247
0.148775 0.235996 0.192172
0.158938 0.236759 0.192447
0.173220 0.247379 0.193637
0.195682 0.264958 0.195041
0.228336 0.287663 0.195956
0.273564 0.315404 0.196323
0.330510 0.345556 0.195499
0.402441 0.381201 0.200229
0.464698 0.403845 0.209964
0.529015 0.422827 0.219944
0.592645 0.436744 0.230533
0.653346 0.445350 0.241581
0.711452 0.449683 0.253208
0.766964 0.450629 0.264897
0.801907 0.452827 0.270054
0.833005 0.456397 0.273655
0.863920 0.460395 0.277440
0.894896 0.464698 0.281529
0.925505 0.469184 0.285374
0.955535 0.473762 0.289250
0.984985 0.478431 0.293278
1.000000 0.483558 0.298985
1.000000 0.490333 0.311925
1.000000 0.497566 0.325994
1.000000 0.507378 0.336065
1.000000 0.502586 0.335210
0.139162 0.254002 0.218051
0.139590 0.254154 0.217258
0.139834 0.254093 0.216007
0.140658 0.254093 0.213474
0.142000 0.254093 0.209293
0.143679 0.254368 0.203616
0.147463 0.254795 0.197910
0.158389 0.254948 0.198215
0.170718 0.257298 0.198672
0.190646 0.274601 0.200473
0.219303 0.296483 0.202243
0.258579 0.323003 0.203738
0.307713 0.351263 0.204532
0.363989 0.378180 0.204685
0.435309 0.412421 0.210330
0.498970 0.435920 0.220310
0.561913 0.454078 0.230716
0.623285 0.467292 0.241428
0.682826 0.476112 0.252781
0.740322 0.481361 0.264652
0.795499 0.483284 0.276982
0.842618 0.482887 0.286595
0.871580 0.485115 0.289250
0.900633 0.487739 0.291844
0.929320 0.490547 0.294316
0.957519 0.493477 0.296941
0.985290 0.496529 0.299260
1.000000 0.500008 0.302922
1.000000 0.505425 0.314794
1.000000 0.511376 0.327764
1.000000 0.520439 0.338445
1.000000 0.515862 0.337591
0.140291 0.275486 0.229313
0.140688 0.275608 0.228580
0.140963 0.275242 0.227054
0.141848 0.274968 0.224247
0.143099 0.274510 0.219791
0.144961 0.274144 0.213840
0.147219 0.274296 0.206271
0.156863 0.274205 0.204074
0.169650 0.274723 0.204379
0.186526 0.284428 0.205722
0.212070 0.305699 0.208225
0.246647 0.331060 0.210605
0.289769 0.357733 0.212924
0.339300 0.383337 0.214908
0.395087 0.408453 0.215640
0.468147 0.443580 0.220859
0.532921 0.467720 0.231266
0.594446 0.485145 0.242039
0.654932 0.498299 0.253147
0.713802 0.507652 0.264927
0.770504 0.513359 0.276921
0.823972 0.515282 0.288334
0.872923 0.513176 0.298802
0.907103 0.512047 0.303349
0.933989 0.513115 0.304326
0.960815 0.514641 0.305577
0.987762 0.516503 0.306676
1.000000 0.518914 0.308843
1.000000 0.523400 0.320134
1.000000 0.528222 0.332250
1.000000 0.536370 0.341405
1.000000 0.530205 0.340276
0.141146 0.297612 0.241306
0.141482 0.297887 0.240604
0.142031 0.297795 0.239231
0.142855 0.297765 0.236484
0.144472 0.297551 0.232181
0.146365 0.297581 0.226017
0.148867 0.298009 0.218387
0.155062 0.298711 0.211978
0.169436 0.299199 0.212222
0.184787 0.300023 0.212680
0.207828 0.318700 0.215244
0.238499 0.341894 0.218204
0.275792 0.365423 0.221286
0.318853 0.388312 0.224002
0.367620 0.411444 0.226017
0.424048 0.436500 0.226017
0.498054 0.472053 0.230869
0.564202 0.497322 0.242039
0.626764 0.515923 0.253605
0.688533 0.530663 0.265873
0.748226 0.541222 0.278172
0.804562 0.547448 0.290074
0.856321 0.549065 0.301061
0.903288 0.546410 0.310307
0.944579 0.539849 0.317205
0.969543 0.539605 0.316808
0.994507 0.539574 0.316167
1.000000 0.540124 0.316564
1.000000 0.542779 0.326329
1.000000 0.545586 0.336889
1.000000 0.551720 0.344305
1.000000 0.544823 0.342992
0.142306 0.319249 0.253361
0.142702 0.319249 0.252384
0.143038 0.319127 0.251102
0.144198 0.318944 0.248356
0.145663 0.318822 0.243961
0.147646 0.318791 0.238010
0.150271 0.319188 0.230381
0.153384 0.320043 0.220798
0.167147 0.320470 0.219272
0.183322 0.321172 0.219608
0.202457 0.328130 0.221103
0.229984 0.349889 0.224735
0.263584 0.372137 0.228611
0.302098 0.393744 0.232547
0.346197 0.416144 0.235721
0.396582 0.440070 0.237461
0.454322 0.465614 0.237461
0.529320 0.501671 0.241855
0.597162 0.528130 0.253696
0.659754 0.547204 0.265690
0.720943 0.562036 0.278019
0.779263 0.572290 0.290135
0.833463 0.577813 0.301122
0.883238 0.578820 0.310582
0.927947 0.575341 0.317967
0.967437 0.567803 0.323430
0.997559 0.561303 0.324498
1.000000 0.560113 0.322911
1.000000 0.561273 0.331518
1.000000 0.562524 0.340703
1.000000 0.567437 0.347356
1.000000 0.559838 0.345892
0.143984 0.343328 0.267155
0.144320 0.343938 0.266636
0.148470 0.365881 0.278874
0.149569 0.365637 0.275669
0.151247 0.365148 0.270665
0.153506 0.364508 0.263767
0.156405 0.363989 0.255009
0.159884 0.363867 0.244022
0.169772 0.363836 0.236271
0.188968 0.363561 0.236484
0.208560 0.363531 0.236759
0.233646 0.377020 0.240208
0.265019 0.396216 0.245121
0.301183 0.416602 0.249912
0.342870 0.438911 0.253941
0.390509 0.462837 0.256748
0.444709 0.488106 0.258061
0.505333 0.514366 0.257237
0.582208 0.550286 0.260929
0.650874 0.576257 0.273655
0.711635 0.593317 0.285496
0.770199 0.605982 0.296971
0.825010 0.613611 0.307408
0.874846 0.616205 0.315770
0.919097 0.613764 0.322332
0.958282 0.607080 0.326757
0.992615 0.596704 0.329076
1.000000 0.583032 0.329717
1.000000 0.580377 0.337011
1.000000 0.579797 0.344732
1.000000 0.583459 0.350561
1.000000 0.575128 0.348852
0.148562 0.372747 0.285588
0.149477 0.375708 0.286687
0.150942 0.378607 0.287388
0.152590 0.381109 0.286259
0.154940 0.382788 0.283055
0.157321 0.383368 0.277287
0.160311 0.383490 0.269291
0.163790 0.383429 0.259098
0.167758 0.383978 0.246891
0.186496 0.383642 0.246006
0.206516 0.383520 0.246372
0.227115 0.384894 0.247196
0.255680 0.402686 0.252506
0.288609 0.422034 0.257542
0.326268 0.443214 0.262058
0.369390 0.465919 0.265568
0.418219 0.490089 0.267887
0.473030 0.515404 0.268894
0.534569 0.542138 0.268070
0.611841 0.578271 0.271366
0.681056 0.604883 0.284489
0.742336 0.622827 0.296513
0.800168 0.635340 0.307103
0.853330 0.642298 0.316106
0.900938 0.643793 0.323095
0.943206 0.640467 0.327611
0.980407 0.632898 0.330480
1.000000 0.621637 0.331823
1.000000 0.607965 0.341436
1.000000 0.597589 0.349035
1.000000 0.599725 0.353887
1.000000 0.590692 0.352056
0.153933 0.393561 0.299809
0.155154 0.396277 0.300938
0.156741 0.398871 0.301640
0.158785 0.401190 0.300786
0.161105 0.402869 0.297887
0.163516 0.403479 0.292454
0.166323 0.403571 0.285100
0.169558 0.403662 0.275731
0.173617 0.404211 0.264530
0.185214 0.404517 0.257572
0.205600 0.404425 0.258000
0.226078 0.404395 0.258579
0.249668 0.412177 0.261204
0.280186 0.430884 0.266667
0.314916 0.451331 0.271519
0.354437 0.473152 0.275608
0.399023 0.496376 0.278660
0.449165 0.520867 0.280674
0.505425 0.546715 0.281315
0.568231 0.573968 0.280308
0.645563 0.609949 0.283330
0.715328 0.636866 0.296605
0.775875 0.654414 0.307683
0.831846 0.665827 0.316869
0.882353 0.671168 0.323919
0.927306 0.671138 0.328771
0.966949 0.666377 0.331640
1.000000 0.657649 0.333654
1.000000 0.645899 0.343572
1.000000 0.630549 0.351934
1.000000 0.626093 0.357061
1.000000 0.606439 0.355291
0.161746 0.415198 0.315709
0.163241 0.417945 0.316869
0.164920 0.420752 0.317906
0.166781 0.423255 0.317235
0.169131 0.425055 0.314611
0.171572 0.425727 0.309789
0.174105 0.425849 0.302800
0.177310 0.425910 0.294163
0.181033 0.426307 0.283513
0.185275 0.427039 0.270787
0.205783 0.426917 0.271183
0.226413 0.426886 0.271580
0.247044 0.426551 0.271916
0.274418 0.441932 0.276616
0.307042 0.462043 0.281865
0.344152 0.483925 0.286870
0.386725 0.507836 0.291356
0.434852 0.533532 0.295109
0.489082 0.560937 0.297795
0.549767 0.589837 0.299565
0.616266 0.619440 0.299535
0.696468 0.656855 0.302220
0.766537 0.683131 0.314641
0.826108 0.699367 0.324071
0.879667 0.708522 0.331212
0.926726 0.711238 0.336248
0.967742 0.708217 0.338811
1.000000 0.700587 0.342046
1.000000 0.689143 0.351293
1.000000 0.673579 0.359075
1.000000 0.664881 0.360357
1.000000 0.642542 0.358434
0.176852 0.453010 0.343542
0.177768 0.454597 0.343847
0.178866 0.455848 0.343725
0.180117 0.456855 0.342107
0.181949 0.457465 0.338811
0.184024 0.457557 0.333684
0.186374 0.457588 0.326970
0.189548 0.457984 0.318883
0.193301 0.458930 0.309148
0.197971 0.460426 0.297704
0.211673 0.461707 0.291814
0.233524 0.462257 0.292607
0.255100 0.462348 0.293156
0.278233 0.466194 0.294743
0.309361 0.486000 0.300053
0.344762 0.507347 0.305089
0.384588 0.530266 0.309667
0.429603 0.554772 0.313420
0.479835 0.580499 0.316503
0.535393 0.607324 0.318151
0.595911 0.634546 0.318151
0.661158 0.661799 0.316106
0.738369 0.695735 0.315496
0.803830 0.717617 0.325109
0.859556 0.730800 0.332158
0.909575 0.737484 0.337194
0.953674 0.738125 0.340032
0.991852 0.733608 0.344488
1.000000 0.724605 0.354253
1.000000 0.710811 0.362646
1.000000 0.701167 0.364050
1.000000 0.679103 0.361761
0.189151 0.483803 0.365911
0.190127 0.485603 0.366491
0.191318 0.487221 0.366674
0.192813 0.488472 0.365301
0.194644 0.489143 0.362188
0.196323 0.489082 0.357214
0.198520 0.488869 0.350561
0.201419 0.488899 0.342657
0.204929 0.489540 0.333318
0.209293 0.490822 0.322301
0.215091 0.492683 0.309941
0.237613 0.493385 0.310826
0.259892 0.493690 0.311528
0.282231 0.493904 0.312047
0.309331 0.505455 0.315557
0.342870 0.526513 0.320745
0.380652 0.549035 0.325505
0.423102 0.573053 0.329595
0.470375 0.598291 0.332830
0.522545 0.624506 0.334813
0.579583 0.651301 0.335454
0.641169 0.678187 0.334295
0.706508 0.704555 0.330999
0.782803 0.736995 0.327886
0.834379 0.746395 0.331670
0.887510 0.757717 0.336858
0.935241 0.762844 0.340215
0.976837 0.762203 0.345556
1.000000 0.756466 0.356115
1.000000 0.745571 0.365576
1.000000 0.736324 0.368109
1.000000 0.714534 0.365515
0.210727 0.534264 0.402502
0.212253 0.536706 0.403571
0.213260 0.538201 0.403571
0.214420 0.538811 0.401770
0.215549 0.538537 0.397955
0.216983 0.537682 0.392523
0.218662 0.536461 0.385351
0.220737 0.535149 0.376593
0.223545 0.534234 0.366369
0.227024 0.533928 0.354833
0.230991 0.533959 0.341222
0.245823 0.533989 0.334722
0.268620 0.533318 0.334661
0.291112 0.532341 0.334447
0.313237 0.530663 0.333928
0.343175 0.547875 0.337163
0.377111 0.567407 0.340246
0.415564 0.588830 0.343175
0.459205 0.612390 0.345892
0.507958 0.637781 0.348058
0.561486 0.664057 0.349126
0.619013 0.690181 0.348577
0.679591 0.715145 0.345647
0.742458 0.738491 0.340185
0.813413 0.765957 0.334051
0.871183 0.780606 0.338994
0.920958 0.789059 0.342138
0.964599 0.791440 0.348638
1.000000 0.788449 0.359686
1.000000 0.780087 0.369848
1.000000 0.770565 0.372717
1.000000 0.749050 0.369726
0.225498 0.574395 0.429969
0.226963 0.577081 0.431159
0.228000 0.578790 0.431281
0.229099 0.579431 0.429541
0.230350 0.579278 0.425971
0.231846 0.578576 0.420691
0.233646 0.577661 0.413947
0.236027 0.576928 0.405890
0.239078 0.576654 0.396338
0.242771 0.577142 0.385595
0.247166 0.578119 0.372992
0.253727 0.579797 0.359533
0.278477 0.580163 0.360021
0.302922 0.580133 0.360296
0.327153 0.579492 0.360388
0.353216 0.584710 0.361120
0.385901 0.603571 0.363500
0.422644 0.623957 0.365637
0.463935 0.646235 0.367468
0.509972 0.669978 0.368872
0.560296 0.694362 0.369268
0.614252 0.718715 0.368200
0.670985 0.741970 0.365148
0.729824 0.763790 0.359960
0.790158 0.783688 0.352239
0.856718 0.806455 0.343420
0.910399 0.817227 0.346044
0.956909 0.823178 0.354620
0.996002 0.822873 0.366400
1.000000 0.816587 0.377325
1.000000 0.803769 0.377844
1.000000 0.782620 0.374517
0.242161 0.627222 0.464118
0.243259 0.629328 0.464698
0.243870 0.630213 0.464240
0.244755 0.630121 0.462043
0.245670 0.629053 0.457893
0.246983 0.627588 0.452247
0.248600 0.626123 0.445258
0.250980 0.624933 0.436988
0.253941 0.624567 0.427558
0.257786 0.625208 0.416938
0.262364 0.626520 0.404639
0.267674 0.629023 0.390570
0.285740 0.630732 0.384253
0.312505 0.631373 0.384863
0.338811 0.631159 0.385046
0.364874 0.630610 0.385107
0.394751 0.642145 0.385840
0.429541 0.660670 0.386786
0.468605 0.680964 0.387640
0.511955 0.702724 0.388190
0.559442 0.725277 0.388067
0.610224 0.747677 0.386877
0.663416 0.769131 0.383856
0.718593 0.789212 0.378912
0.774990 0.807431 0.371557
0.832364 0.823758 0.361395
0.894499 0.842313 0.353277
0.943908 0.849760 0.359411
0.985657 0.852323 0.371313
1.000000 0.849058 0.383215
1.000000 0.835233 0.383398
1.000000 0.814389 0.379614
0.256229 0.680659 0.496590
0.257084 0.682155 0.496864
0.257816 0.683040 0.496345
0.258793 0.683253 0.494301
0.260105 0.683375 0.490852
0.262181 0.684047 0.486519
0.265202 0.686244 0.481727
0.269200 0.689693 0.476112
0.274327 0.694484 0.469490
0.280522 0.700587 0.461769
0.287602 0.707546 0.452216
0.295506 0.714992 0.440345
0.305791 0.722072 0.426703
0.338964 0.726375 0.429297
0.371496 0.729274 0.431250
0.402838 0.730343 0.432258
0.434119 0.731655 0.433082
0.469123 0.747280 0.432959
0.507652 0.764340 0.432807
0.549798 0.782437 0.432227
0.594873 0.800900 0.431067
0.642573 0.818997 0.428504
0.691768 0.835721 0.424109
0.742214 0.851194 0.419837
0.793576 0.864866 0.413672
0.845609 0.876768 0.405554
0.898070 0.887083 0.395575
0.952880 0.897917 0.385107
0.993103 0.897185 0.389227
1.000000 0.888426 0.394507
1.000000 0.865415 0.389380
1.000000 0.844999 0.385229
0.294102 0.775235 0.556512
0.294865 0.776303 0.556481
0.295323 0.776303 0.555444
0.295842 0.775662 0.552819
0.296635 0.774655 0.548608
0.297978 0.773922 0.543267
0.300237 0.774044 0.537072
0.303624 0.775143 0.529992
0.307897 0.777310 0.521935
0.313329 0.780545 0.512627
0.319524 0.784329 0.501640
0.326726 0.788876 0.488716
0.334356 0.793515 0.473091
0.357580 0.796750 0.466377
