data/fiter_cube/57993848/1023160/file.cube
# Created by Adobe Lightroom plugin Export LUT (1.17.0)
# www.johnrellis.com/lightroom/exportlut.htm
# Preset: 萌宠摄影后期_07 云集
# Color profile: C:\Program Files (x86)\Common Files\Adobe\Color\Profiles\Recommended\AdobeRGB1998.icc
LUT_3D_SIZE 5
DOMAIN_MIN 0.000000 0.000000 0.000000
DOMAIN_MAX 0.903226 0.903226 0.903226
0.107454 0.121523 0.134676
0.187594 0.144808 0.154116
0.401404 0.194095 0.170748
0.717342 0.278904 0.202976
1.000000 0.380835 0.280583
0.127321 0.175051 0.173404
0.173190 0.189578 0.164858
0.440772 0.251926 0.182254
0.740658 0.329808 0.217716
1.000000 0.423804 0.296818
0.140291 0.275486 0.229313
0.156863 0.274205 0.204074
0.395087 0.408453 0.215640
0.823972 0.515282 0.288334
1.000000 0.523400 0.320134
0.176852 0.453010 0.343542
0.189548 0.457984 0.318883
0.309361 0.486000 0.300053
0.661158 0.661799 0.316106
1.000000 0.724605 0.354253
0.332860 0.845701 0.603510
0.343633 0.848753 0.579919
0.391882 0.831907 0.485634
0.660700 0.904265 0.502922
0.952667 0.938231 0.431678
0.117494 0.142550 0.200534
0.181735 0.133761 0.212497
0.352972 0.169741 0.206973
0.629969 0.266514 0.259953
0.986236 0.374487 0.327062
0.138277 0.172274 0.197543
0.180972 0.195865 0.212894
0.395727 0.246738 0.242191
0.669215 0.319799 0.283635
0.997559 0.414008 0.340642
0.153323 0.280003 0.266300
0.174258 0.286412 0.245945
0.376135 0.387762 0.268894
0.797787 0.503105 0.379706
1.000000 0.529931 0.381353
0.205295 0.454170 0.379126
0.218143 0.459205 0.358892
0.307988 0.475227 0.326482
0.662837 0.661585 0.371862
1.000000 0.723598 0.411902
0.347082 0.840818 0.628626
0.356664 0.843473 0.606012
0.406744 0.870451 0.525505
0.672114 0.918486 0.528679
0.955688 0.938994 0.444343
0.104280 0.168429 0.346532
0.175174 0.151247 0.367590
0.370611 0.070588 0.397833
0.623163 0.000000 0.375921
0.982269 0.214450 0.397864
0.153902 0.234501 0.340490
0.174380 0.211582 0.362341
0.374762 0.162783 0.393072
0.613916 0.168154 0.357855
0.978973 0.376043 0.438636
0.171908 0.272435 0.325414
0.211276 0.296391 0.346105
0.393500 0.400427 0.422827
0.703944 0.480690 0.483528
1.000000 0.538628 0.508141
0.209415 0.449378 0.449073
0.251194 0.454231 0.445228
0.319036 0.478645 0.407691
0.688319 0.678920 0.511040
1.000000 0.735073 0.602533
0.343603 0.809506 0.686183
0.384131 0.825162 0.685389
0.440650 0.858701 0.631647
0.640009 0.896788 0.581445
0.966461 0.947509 0.564111
0.070436 0.216983 0.550408
0.168643 0.197757 0.563928
0.383764 0.000000 0.612696
0.631922 0.000000 0.627924
1.000000 0.000000 0.677455
0.131014 0.280400 0.546838
0.181949 0.262547 0.559228
0.369940 0.163027 0.602258
0.624567 0.000000 0.617334
1.000000 0.000000 0.656672
0.263462 0.393988 0.512779
0.297246 0.408392 0.522911
0.354162 0.378882 0.573846
0.614160 0.308476 0.595697
1.000000 0.232120 0.600824
0.260410 0.423499 0.501091
0.288151 0.434516 0.508293
0.377630 0.484871 0.547082
0.714534 0.691402 0.696193
1.000000 0.741054 0.732937
0.308751 0.797574 0.784329
0.345739 0.806912 0.784024
0.470192 0.848600 0.784817
0.604028 0.904845 0.702571
0.985748 0.964141 0.751095
0.175998 0.336156 0.848600
0.246250 0.312413 0.856199
0.436713 0.180179 0.886809
0.725002 0.000000 0.925475
1.000000 0.000000 0.925933
0.172244 0.380255 0.838315
0.237736 0.360815 0.846159
0.421424 0.263951 0.877134
0.708949 0.000000 0.916930
1.000000 0.000000 0.920836
0.332006 0.550317 0.809110
0.337285 0.534539 0.820005
0.371832 0.436896 0.854459
0.664393 0.208042 0.907042
1.000000 0.000000 0.923674
0.385840 0.635767 0.797604
0.407996 0.639521 0.798825
0.497322 0.667506 0.817502
0.605371 0.610040 0.899229
1.000000 0.489845 0.929686
0.387823 0.721248 0.821836
0.408148 0.725429 0.823026
0.498756 0.762753 0.847074
0.678706 0.840909 0.893217
0.999786 0.988006 0.979736
