data/fiter_cube/57993848/1023160/file.cube
# Created by Adobe Lightroom plugin Export LUT (1.17.0)
# www.johnrellis.com/lightroom/exportlut.htm
# Preset: 萌宠摄影后期_07 云集
# Color profile: C:\Program Files (x86)\Common Files\Adobe\Color\Profiles\Recommended\AdobeRGB1998.icc
LUT_3D_SIZE 8
DOMAIN_MIN 0.000000 0.000000 0.000000
DOMAIN_MAX 0.903226 0.903226 0.903226
0.107454 0.121523 0.134676
0.147402 0.132509 0.144808
0.207431 0.149355 0.156649
0.331579 0.177127 0.165896
0.467079 0.210941 0.176486
0.667964 0.264683 0.196170
0.852415 0.319493 0.226078
1.000000 0.380835 0.280583
0.118257 0.150576 0.156741
0.138949 0.154665 0.150607
0.211734 0.162936 0.159213
0.333196 0.191226 0.168185
0.468452 0.224216 0.178531
0.644556 0.270756 0.195865
0.826596 0.322545 0.222507
1.000000 0.383398 0.274327
0.130282 0.183413 0.179324
0.134493 0.183810 0.172152
0.189364 0.205875 0.170230
0.376196 0.260929 0.179538
0.537499 0.292760 0.195468
0.700343 0.333074 0.215457
0.886107 0.385168 0.249119
1.000000 0.432685 0.296941
0.138125 0.234348 0.207675
0.140536 0.234287 0.199344
0.173220 0.247379 0.193637
0.330510 0.345556 0.195499
0.592645 0.436744 0.230533
0.801907 0.452827 0.270054
0.925505 0.469184 0.285374
1.000000 0.490333 0.311925
0.142306 0.319249 0.253361
0.145663 0.318822 0.243961
0.167147 0.320470 0.219272
0.263584 0.372137 0.228611
0.454322 0.465614 0.237461
0.720943 0.562036 0.278019
0.927947 0.575341 0.317967
1.000000 0.561273 0.331518
0.161746 0.415198 0.315709
0.169131 0.425055 0.314611
0.181033 0.426307 0.283513
0.247044 0.426551 0.271916
0.386725 0.507836 0.291356
0.616266 0.619440 0.299535
0.879667 0.708522 0.331212
1.000000 0.689143 0.351293
0.225498 0.574395 0.429969
0.230350 0.579278 0.425971
0.239078 0.576654 0.396338
0.278477 0.580163 0.360021
0.385901 0.603571 0.363500
0.560296 0.694362 0.369268
0.790158 0.783688 0.352239
0.996002 0.822873 0.366400
0.332860 0.845701 0.603510
0.335393 0.845579 0.596094
0.348821 0.851926 0.572930
0.381018 0.874632 0.532433
0.463783 0.840330 0.493446
0.617548 0.889006 0.502800
0.793942 0.938964 0.492500
0.952667 0.938231 0.431678
0.112764 0.133425 0.169650
0.144961 0.124025 0.173800
0.192599 0.150912 0.171908
0.299351 0.177279 0.184817
0.438788 0.208896 0.195682
0.607050 0.253178 0.214267
0.796658 0.306554 0.240970
0.989624 0.368048 0.280797
0.121614 0.146975 0.166781
0.141756 0.157443 0.173617
0.197604 0.168612 0.180606
0.311437 0.191257 0.188083
0.448768 0.223392 0.199161
0.605310 0.264042 0.216037
0.781552 0.312291 0.239078
0.971252 0.370275 0.275242
0.136324 0.184207 0.191653
0.143160 0.187320 0.187686
0.190616 0.206638 0.186740
0.366430 0.253635 0.205234
0.498787 0.282444 0.218173
0.652308 0.320043 0.235996
0.824979 0.365972 0.261051
1.000000 0.417029 0.295537
0.144472 0.233616 0.218357
0.147799 0.235691 0.211978
0.173892 0.243565 0.202487
0.306249 0.320836 0.208438
0.530816 0.395331 0.246525
0.729885 0.422217 0.282292
0.868650 0.447181 0.296300
1.000000 0.476783 0.313909
0.150179 0.318120 0.264103
0.153017 0.316411 0.254459
0.167422 0.315953 0.225895
0.253666 0.355871 0.233494
0.429145 0.440803 0.247074
0.689448 0.539452 0.296422
0.906584 0.563287 0.339818
1.000000 0.555810 0.340795
0.166262 0.405615 0.318853
0.169497 0.406378 0.311864
0.180331 0.408179 0.283787
0.238621 0.411322 0.270085
0.374792 0.491554 0.295506
0.607477 0.610651 0.315679
0.870085 0.701045 0.350774
1.000000 0.682551 0.356390
0.220401 0.544427 0.418311
0.221256 0.540856 0.408942
0.230869 0.542687 0.384710
0.265660 0.554192 0.351537
0.372595 0.582666 0.360235
0.543755 0.674678 0.370275
0.769345 0.763546 0.358251
0.980194 0.808408 0.357702
0.318303 0.815671 0.591119
0.323583 0.820127 0.587060
0.338140 0.828977 0.566278
0.370794 0.854032 0.528344
0.483040 0.868803 0.515862
0.624537 0.897642 0.509270
0.788052 0.932555 0.487221
0.953368 0.938201 0.431342
0.118563 0.146365 0.215213
0.133272 0.140597 0.222324
0.200656 0.134585 0.231846
0.304509 0.129702 0.225742
0.423560 0.180270 0.227359
0.584771 0.257084 0.271061
0.794583 0.318273 0.310246
1.000000 0.383246 0.351781
0.136843 0.169192 0.211582
0.141756 0.164218 0.218784
0.199222 0.155093 0.228305
0.297856 0.153079 0.215244
0.415595 0.217777 0.240177
0.584497 0.269139 0.274144
0.785733 0.326390 0.309697
0.992340 0.389624 0.349828
0.142580 0.181613 0.209476
0.153048 0.189303 0.216342
0.201389 0.215061 0.231724
0.333104 0.248844 0.255528
0.475471 0.288518 0.282109
0.636378 0.331090 0.307439
0.816373 0.378668 0.334356
0.999542 0.428229 0.361975
0.146517 0.243809 0.253758
0.159945 0.251774 0.256809
0.187137 0.263279 0.241703
0.326818 0.337987 0.270695
0.558129 0.416114 0.352209
0.723049 0.442420 0.371496
0.871244 0.467079 0.377661
1.000000 0.492958 0.384527
0.160433 0.325841 0.302434
0.174838 0.331426 0.302800
0.191470 0.336248 0.277104
0.263279 0.363989 0.275700
0.451484 0.460700 0.321508
0.713741 0.557733 0.387152
0.923278 0.574121 0.427100
1.000000 0.571435 0.412573
0.193729 0.412757 0.359197
0.198520 0.414069 0.353704
0.209506 0.415381 0.329381
0.245396 0.416724 0.300206
0.373938 0.485328 0.332799
0.608148 0.609613 0.371283
0.873289 0.702480 0.417670
1.000000 0.687922 0.435279
0.247715 0.556878 0.457801
0.249760 0.555108 0.450141
0.256443 0.552361 0.424445
0.271672 0.557305 0.378851
0.366827 0.571649 0.378882
0.544060 0.674647 0.400519
0.786404 0.778042 0.409979
0.995666 0.821012 0.428077
0.337591 0.817563 0.621698
0.336950 0.814359 0.612573
0.347234 0.817960 0.589624
0.384863 0.852110 0.561547
0.470436 0.866178 0.528374
0.622492 0.897795 0.531914
0.792111 0.937011 0.511406
0.956664 0.939574 0.452888
0.114504 0.160525 0.291386
0.131716 0.156985 0.300633
0.201358 0.134188 0.323919
0.305821 0.110231 0.335760
0.435126 0.048127 0.332647
0.573663 0.002380 0.297826
0.747616 0.221286 0.331456
0.968719 0.359411 0.400061
0.123842 0.180270 0.295476
0.136751 0.176120 0.302068
0.200381 0.154513 0.323308
0.308141 0.130434 0.335058
0.434394 0.105562 0.325048
0.566918 0.112337 0.290166
0.735317 0.269718 0.344030
0.966766 0.369726 0.401160
0.157443 0.219608 0.279789
0.169131 0.225956 0.285557
0.194339 0.216098 0.311131
0.313573 0.198489 0.329595
0.432807 0.214206 0.309300
0.567010 0.304265 0.349248
0.789792 0.373754 0.398962
1.000000 0.425513 0.427985
0.160739 0.237644 0.281712
0.171878 0.245151 0.288396
0.213870 0.273228 0.312902
0.333135 0.341100 0.360204
0.488472 0.388373 0.404608
0.652949 0.423407 0.423224
0.833494 0.459968 0.439734
1.000000 0.498085 0.456672
0.155917 0.336065 0.356329
0.171145 0.339361 0.355962
0.224460 0.355383 0.358434
0.277592 0.369177 0.339483
0.478096 0.482490 0.415991
0.748165 0.579797 0.503990
0.911528 0.594415 0.520958
1.000000 0.592859 0.503593
0.196811 0.423041 0.407996
0.216281 0.432593 0.414343
0.261814 0.439612 0.411658
0.282597 0.445045 0.376226
0.388312 0.495827 0.396185
0.638788 0.634333 0.456367
0.896178 0.720546 0.529595
1.000000 0.700893 0.554009
0.254490 0.561028 0.501274
0.265537 0.565759 0.501579
0.297398 0.577447 0.495857
0.311559 0.586816 0.456519
0.374029 0.592523 0.422705
0.556146 0.689570 0.457221
0.806882 0.794766 0.491615
1.000000 0.828855 0.528405
0.367132 0.835691 0.681086
0.379400 0.840177 0.680476
0.400610 0.846036 0.665400
0.416205 0.858396 0.625971
0.451423 0.874693 0.559045
0.615839 0.898100 0.568841
0.795315 0.942107 0.563622
0.962951 0.944976 0.529839
0.090669 0.177890 0.403326
0.117800 0.173678 0.409461
0.194186 0.152773 0.424445
0.307134 0.096681 0.444373
0.434546 0.000000 0.457252
0.588830 0.000000 0.466529
0.772457 0.000000 0.448768
1.000000 0.000000 0.422766
0.100313 0.197391 0.404425
0.122530 0.193393 0.411414
0.193454 0.172335 0.425879
0.307988 0.119936 0.446571
0.434241 0.052247 0.454749
0.588464 0.000000 0.460945
0.772457 0.000000 0.444038
0.999573 0.000000 0.414466
0.165682 0.265995 0.394995
0.173770 0.264042 0.402655
0.195621 0.237583 0.420600
0.304448 0.192172 0.445472
0.430793 0.174166 0.444831
0.574243 0.157168 0.436927
0.760433 0.146853 0.423316
0.981201 0.225162 0.433204
0.188022 0.296330 0.383154
0.201541 0.301884 0.387060
0.250401 0.324743 0.403082
0.304204 0.319219 0.435004
0.432715 0.305028 0.439704
0.572595 0.315892 0.423560
0.753475 0.381506 0.451423
0.983093 0.458595 0.497505
0.188174 0.313024 0.375036
0.200687 0.319768 0.380713
0.244266 0.341802 0.397894
0.317082 0.383276 0.427985
0.469490 0.468421 0.487770
0.671656 0.528954 0.541497
0.843107 0.557061 0.553368
1.000000 0.581201 0.559533
0.192447 0.407202 0.442237
0.204593 0.413092 0.445319
0.247593 0.423590 0.447120
0.314733 0.443610 0.450721
0.357580 0.452644 0.422431
0.646815 0.636347 0.541711
0.913542 0.734859 0.651575
1.000000 0.719387 0.650477
0.243412 0.552850 0.542443
0.252934 0.553491 0.540276
0.285313 0.560876 0.536339
0.343664 0.581170 0.531670
0.368017 0.595636 0.477363
0.531456 0.666712 0.503807
0.814664 0.798611 0.579431
1.000000 0.830533 0.633967
0.332555 0.802426 0.708339
0.342138 0.803250 0.705776
0.376410 0.809476 0.698421
0.456580 0.849973 0.704463
0.474250 0.866239 0.644038
0.580804 0.883268 0.601099
0.781216 0.934051 0.615747
0.971008 0.951354 0.612238
0.073091 0.209873 0.526329
0.109865 0.204746 0.530388
0.192752 0.181643 0.539940
0.312718 0.116304 0.570123
0.449561 0.000000 0.586023
0.593439 0.000000 0.595911
0.797604 0.000000 0.632410
1.000000 0.000000 0.635584
0.091341 0.227207 0.517174
0.117922 0.222049 0.520348
0.191257 0.200961 0.533410
0.304509 0.144900 0.560052
0.441047 0.000000 0.576898
0.586114 0.000000 0.588251
0.791531 0.000000 0.625696
1.000000 0.000000 0.628138
0.179110 0.306737 0.521294
0.172091 0.294316 0.524468
0.206790 0.271672 0.537041
0.302129 0.227848 0.561151
0.442023 0.154665 0.578882
0.590051 0.086519 0.586511
0.794797 0.000000 0.616419
1.000000 0.000000 0.611658
0.259190 0.380743 0.502617
0.268650 0.383398 0.504540
0.286687 0.382391 0.524254
0.319371 0.352483 0.560296
0.453437 0.298863 0.591730
0.609857 0.274540 0.595300
0.811398 0.217716 0.602136
1.000000 0.149355 0.584283
0.251102 0.384039 0.483040
0.262760 0.388891 0.486275
0.299657 0.405707 0.498177
0.358923 0.436866 0.523003
0.423316 0.424475 0.564752
0.594476 0.400183 0.568994
0.788540 0.401770 0.553887
1.000000 0.472358 0.582574
0.242527 0.393286 0.466865
0.254795 0.400153 0.472724
0.288762 0.416571 0.485206
0.338903 0.445197 0.507591
0.415686 0.496712 0.543389
0.663844 0.644465 0.653101
0.882048 0.710262 0.712581
1.000000 0.713497 0.703822
0.256596 0.537865 0.587640
0.264897 0.546044 0.592920
0.290288 0.565332 0.601526
0.341344 0.595605 0.612421
0.430396 0.623163 0.608881
0.498177 0.637995 0.558038
0.852323 0.829221 0.706233
1.000000 0.856962 0.778988
0.315923 0.800900 0.770016
0.325200 0.801175 0.767697
0.359442 0.806516 0.762753
0.425940 0.829068 0.762203
0.518669 0.857816 0.751644
0.564446 0.887144 0.680873
0.766659 0.931243 0.686549
0.982422 0.961242 0.722133
0.088869 0.258061 0.670893
0.126284 0.253574 0.677607
0.211429 0.228489 0.688808
0.328588 0.164431 0.710445
0.478065 0.000000 0.736812
0.624079 0.000000 0.740902
0.783688 0.000000 0.749722
1.000000 0.000000 0.797024
0.101503 0.273136 0.659113
0.131350 0.268650 0.665156
0.207706 0.245426 0.676814
0.317937 0.188205 0.696071
0.463294 0.000000 0.721950
0.607660 0.000000 0.725673
0.763821 0.000000 0.733272
0.997040 0.000000 0.781949
0.161563 0.340185 0.663691
0.171450 0.333288 0.666621
0.222202 0.312657 0.675593
0.314946 0.266941 0.694514
0.453071 0.154238 0.719112
0.608453 0.000000 0.727810
0.775723 0.000000 0.739071
1.000000 0.000000 0.787320
0.275425 0.443580 0.654292
0.278080 0.438941 0.656275
0.280278 0.416632 0.668635
0.318090 0.373266 0.691310
0.443091 0.308385 0.718807
0.615686 0.218204 0.738460
0.794949 0.121218 0.748074
1.000000 0.000000 0.783810
0.305119 0.477790 0.623926
0.312779 0.479225 0.624079
0.342535 0.489204 0.630671
0.377508 0.494514 0.656916
0.413214 0.437842 0.695094
0.590845 0.358282 0.728176
0.786191 0.316869 0.731716
1.000000 0.234318 0.751095
0.297337 0.489570 0.609400
0.305455 0.492714 0.611719
0.334356 0.504143 0.620111
0.388403 0.528069 0.638209
0.474678 0.568658 0.667781
0.571344 0.555627 0.726772
0.806577 0.521813 0.735073
1.000000 0.535973 0.725582
0.291356 0.514092 0.604608
0.299565 0.519249 0.608972
0.326177 0.532158 0.618616
0.374517 0.556512 0.636530
0.448127 0.591760 0.660212
0.564324 0.657404 0.701625
0.871885 0.842954 0.835264
1.000000 0.862119 0.855558
0.335851 0.721004 0.781369
0.343297 0.726375 0.783780
0.375616 0.753811 0.799619
0.425299 0.793668 0.817990
0.499062 0.851194 0.840970
0.630549 0.889738 0.835172
0.733547 0.925139 0.770108
0.996643 0.975891 0.856046
0.175998 0.336156 0.848600
0.200107 0.330724 0.853025
0.266667 0.303258 0.858488
0.371527 0.241825 0.875761
0.510369 0.000000 0.898314
0.685328 0.000000 0.924651
0.846311 0.000000 0.927459
1.000000 0.000000 0.925933
0.173281 0.348028 0.840574
0.196628 0.342901 0.845029
0.262394 0.317937 0.852079
0.364294 0.260929 0.867674
0.501244 0.092287 0.890654
0.676478 0.000000 0.918181
0.836423 0.000000 0.919341
1.000000 0.000000 0.919371
0.170199 0.392523 0.833158
0.190127 0.387732 0.836271
0.250553 0.365637 0.840848
0.354192 0.325292 0.864317
0.487312 0.222232 0.885863
0.659632 0.000000 0.911742
0.830167 0.000000 0.916381
1.000000 0.000000 0.917906
0.293462 0.504814 0.823423
0.290867 0.497200 0.828183
0.264775 0.454261 0.836576
0.331823 0.412665 0.855650
0.460883 0.342596 0.880858
0.638941 0.163790 0.910918
0.830045 0.000000 0.922515
1.000000 0.000000 0.922881
0.377752 0.593164 0.792630
0.381079 0.593225 0.798245
0.385229 0.583032 0.809659
0.395666 0.555016 0.835294
0.422797 0.471992 0.863401
0.589807 0.364202 0.898314
0.816739 0.209049 0.924895
1.000000 0.000000 0.928038
0.379431 0.620020 0.788388
0.385290 0.620294 0.787900
0.408667 0.624659 0.789731
0.455512 0.638758 0.799405
0.511315 0.650202 0.828214
0.559075 0.573541 0.888823
0.811887 0.456764 0.946746
1.000000 0.424170 0.932280
0.385412 0.665827 0.804379
0.391730 0.666896 0.804715
0.415717 0.672786 0.807950
0.464515 0.689693 0.819486
0.543694 0.720119 0.839933
0.664149 0.771542 0.872526
0.771847 0.745235 0.931090
1.000000 0.698634 0.925017
0.387823 0.721248 0.821836
0.393256 0.721767 0.821530
0.416022 0.727840 0.824308
0.464851 0.748318 0.837827
0.539025 0.779660 0.857450
0.645350 0.825895 0.884611
0.800015 0.897002 0.924620
0.999786 0.988006 0.979736
