data/fiter_cube/60169440/1023147/file.cube
# Created by Adobe Lightroom plugin Export LUT (1.17.0)
# www.johnrellis.com/lightroom/exportlut.htm
# Preset: 海滩旅拍低饱和胶片_05 云集
# Color profile: C:\Program Files (x86)\Common Files\Adobe\Color\Profiles\Recommended\AdobeRGB1998.icc
LUT_3D_SIZE 8
DOMAIN_MIN 0.000000 0.000000 0.000000
DOMAIN_MAX 0.903226 0.903226 0.903226
0.039918 0.046296 0.071168
0.092195 0.059083 0.081453
0.260594 0.000000 0.092866
0.493629 0.000000 0.100893
0.734188 0.000000 0.126162
0.897215 0.044282 0.210849
0.983764 0.379583 0.371984
1.000000 0.634760 0.635065
0.000000 0.108766 0.096956
0.079347 0.084016 0.092805
0.230838 0.077913 0.090822
0.456001 0.000000 0.097322
0.698573 0.000000 0.115724
0.864347 0.060945 0.182345
0.969177 0.351049 0.330449
1.000000 0.611719 0.599786
0.000000 0.314641 0.171084
0.000000 0.287480 0.142061
0.247379 0.197787 0.151003
0.442176 0.200504 0.083528
0.681849 0.202731 0.099397
0.858335 0.279240 0.175998
0.975799 0.466590 0.368414
1.000000 0.677546 0.647852
0.000000 0.596857 0.298375
0.000000 0.576989 0.261387
0.225956 0.467872 0.236118
0.589410 0.453529 0.303563
0.719020 0.420172 0.129213
0.858640 0.458289 0.174899
0.965209 0.558312 0.365576
1.000000 0.710903 0.639857
0.000000 0.776852 0.431312
0.000000 0.766812 0.405585
0.112337 0.728756 0.364843
0.478889 0.630549 0.371649
0.754818 0.618067 0.466194
0.842893 0.573266 0.285557
0.939452 0.631678 0.326329
0.995880 0.751034 0.625635
0.000000 0.889525 0.551049
0.000000 0.893523 0.548974
0.000000 0.871794 0.521386
0.478767 0.813382 0.507164
0.699184 0.770718 0.550713
0.854307 0.751553 0.651820
0.931609 0.741970 0.553216
0.986847 0.811337 0.655634
0.000000 0.974212 0.672633
0.000000 0.972686 0.670100
0.000000 0.956451 0.659876
0.530266 0.920714 0.684688
0.688136 0.870970 0.679896
0.838102 0.864622 0.731838
0.911742 0.843412 0.792691
0.963806 0.852842 0.776272
0.000000 1.000000 0.769009
0.000000 1.000000 0.769589
0.000000 1.000000 0.781338
0.612207 0.984253 0.818540
0.757717 0.954742 0.822110
0.847837 0.932036 0.850370
0.925902 0.934386 0.876188
0.952941 0.911986 0.894072
0.026947 0.057008 0.104677
0.099550 0.054871 0.097230
0.228580 0.031037 0.091402
0.447547 0.000000 0.097688
0.685359 0.000000 0.114168
0.850980 0.000000 0.173342
0.962707 0.315251 0.312413
1.000000 0.579828 0.570459
0.000000 0.106081 0.130404
0.085603 0.102632 0.119844
0.225864 0.098390 0.103090
0.431800 0.000000 0.095338
0.667170 0.000000 0.108736
0.834073 0.045899 0.161929
0.949828 0.304784 0.286961
1.000000 0.555169 0.533104
0.000000 0.312718 0.205112
0.000000 0.289952 0.176944
0.258671 0.218875 0.184726
0.427283 0.204227 0.104585
0.640955 0.198001 0.093050
0.823117 0.252873 0.151247
0.950011 0.399054 0.296818
1.000000 0.616663 0.568414
0.000000 0.569329 0.311803
0.000000 0.554986 0.282139
0.233890 0.461677 0.256718
0.543694 0.423407 0.306645
0.652735 0.375158 0.139132
0.804074 0.403296 0.129519
0.936950 0.495033 0.286381
1.000000 0.658350 0.560418
0.000000 0.769558 0.446845
0.000000 0.757778 0.420905
0.116182 0.717159 0.376013
0.458808 0.608484 0.370489
0.729122 0.595697 0.456580
0.816709 0.549371 0.274601
0.923552 0.603937 0.284398
0.992798 0.724361 0.575891
0.000000 0.879088 0.553277
0.000000 0.875151 0.540734
0.000000 0.854734 0.510765
0.459785 0.799680 0.496773
0.685328 0.759030 0.543908
0.848905 0.748257 0.655390
0.925597 0.734127 0.544854
0.984588 0.797299 0.622187
0.000000 0.963836 0.664851
0.000000 0.959564 0.656123
0.000000 0.945739 0.643793
0.500114 0.913298 0.668208
0.675319 0.864134 0.669276
0.828397 0.856718 0.720577
0.905150 0.834562 0.781765
0.959258 0.840085 0.752255
0.000000 1.000000 0.765377
0.000000 1.000000 0.766445
0.000000 1.000000 0.776150
0.589563 0.983459 0.812375
0.771817 0.958404 0.836515
0.851652 0.934325 0.856107
0.924010 0.933013 0.874723
0.951080 0.909361 0.891051
0.000000 0.070680 0.209537
0.077272 0.065888 0.202701
0.364843 0.000000 0.182834
0.482918 0.000000 0.135592
0.696468 0.000000 0.113924
0.858396 0.152407 0.177523
0.968963 0.368994 0.332555
1.000000 0.612451 0.602258
0.000000 0.134585 0.228550
0.085206 0.126558 0.227878
0.316228 0.100526 0.190463
0.470649 0.021698 0.147707
0.675624 0.000000 0.121004
0.842435 0.180331 0.165835
0.959960 0.364965 0.312413
1.000000 0.603479 0.582879
0.000000 0.322606 0.318761
0.000000 0.333745 0.309056
0.298833 0.284947 0.266270
0.484901 0.249668 0.193698
0.673121 0.243473 0.153109
0.833402 0.299138 0.156405
0.953643 0.427710 0.308049
1.000000 0.628443 0.579706
0.000000 0.615534 0.448249
0.000000 0.612848 0.419745
0.295018 0.538384 0.359930
0.575189 0.485603 0.398932
0.666926 0.414130 0.213779
0.820706 0.434180 0.191836
0.945464 0.523095 0.308629
1.000000 0.678492 0.588251
0.000000 0.783658 0.531701
0.000000 0.776120 0.510155
0.166384 0.740658 0.464637
0.495674 0.637293 0.453071
0.744808 0.639399 0.543175
0.819944 0.575189 0.341466
0.926696 0.616571 0.322789
0.993744 0.731960 0.589746
0.000000 0.885832 0.609827
0.000000 0.881773 0.598535
0.000000 0.860136 0.569085
0.484138 0.808042 0.551598
0.685084 0.759182 0.584314
0.843992 0.756863 0.689754
0.918517 0.737728 0.569909
0.985473 0.800992 0.630762
0.000000 0.968994 0.704891
0.000000 0.965301 0.698024
0.000000 0.949798 0.682551
0.494697 0.915862 0.692103
0.679408 0.866880 0.690669
0.826658 0.857603 0.740658
0.906920 0.845304 0.808438
0.960754 0.854063 0.784268
0.000000 1.000000 0.784054
0.000000 1.000000 0.781521
0.000000 1.000000 0.784878
0.561089 0.986358 0.818631
0.776822 0.958221 0.849607
0.851835 0.936156 0.861143
0.923705 0.934295 0.881743
0.951781 0.913664 0.899596
0.000000 0.090150 0.378332
0.000000 0.086427 0.381445
0.388006 0.000000 0.393133
0.676905 0.000000 0.324590
0.715358 0.000000 0.227207
0.850156 0.139010 0.215763
0.959472 0.350927 0.309667
1.000000 0.588342 0.576074
0.000000 0.173312 0.407843
0.000000 0.154726 0.407630
0.398169 0.121767 0.413672
0.658656 0.000000 0.335790
0.710628 0.000000 0.238499
0.841917 0.188296 0.221408
0.953887 0.360967 0.299779
1.000000 0.588739 0.568261
0.000000 0.334752 0.449561
0.000000 0.340520 0.444892
0.378759 0.357275 0.453986
0.557183 0.308019 0.351324
0.702571 0.278721 0.279667
0.843656 0.330480 0.264622
0.961852 0.461219 0.331884
1.000000 0.644800 0.604547
0.000000 0.610468 0.582330
0.000000 0.616785 0.577722
0.254398 0.619501 0.542199
0.582788 0.535698 0.492134
0.687160 0.455055 0.348028
0.821744 0.454871 0.310216
0.942870 0.529595 0.352575
1.000000 0.682368 0.599207
0.000000 0.805783 0.673640
0.000000 0.800443 0.654780
0.000000 0.775784 0.599145
0.555779 0.687831 0.574456
0.749447 0.680629 0.628382
0.817197 0.602838 0.421485
0.929473 0.639216 0.431159
0.995544 0.739406 0.609552
0.000000 0.903899 0.710964
0.000000 0.906737 0.707637
0.000000 0.883696 0.673854
0.547204 0.836118 0.667048
0.704952 0.778897 0.667567
0.846067 0.782223 0.743313
0.914946 0.754849 0.622614
0.982940 0.809049 0.676173
0.000000 0.974487 0.763455
0.000000 0.972686 0.759091
0.000000 0.960723 0.747372
0.489937 0.929870 0.747860
0.705013 0.885405 0.748409
0.830259 0.865782 0.780789
0.907713 0.857420 0.835752
0.960174 0.862211 0.805020
0.000000 1.000000 0.821500
0.000000 1.000000 0.820218
0.000000 1.000000 0.817868
0.477150 0.995239 0.831357
0.759518 0.963470 0.858305
0.850889 0.940337 0.869657
0.921782 0.935637 0.890745
0.952087 0.918517 0.909728
0.000000 0.127443 0.578729
0.000000 0.123751 0.581872
0.362890 0.000000 0.582086
0.761349 0.000000 0.636072
0.858793 0.176974 0.499763
0.870878 0.174929 0.365332
0.957458 0.374304 0.401068
1.000000 0.597894 0.585412
0.000000 0.193332 0.592615
0.000000 0.192538 0.597955
0.374578 0.162509 0.598199
0.757687 0.244938 0.649195
0.844144 0.254124 0.503685
0.857786 0.236362 0.374884
0.955444 0.395148 0.408301
1.000000 0.603967 0.584619
0.000000 0.396948 0.606531
0.000000 0.403998 0.615503
0.370672 0.381415 0.631678
0.729458 0.482887 0.674586
0.787503 0.378027 0.499306
0.837552 0.343542 0.394934
0.944579 0.445319 0.420600
1.000000 0.613916 0.569574
0.000000 0.580835 0.676326
0.000000 0.582361 0.672236
0.311040 0.592615 0.665095
0.670863 0.642451 0.689815
0.719997 0.520256 0.526970
0.825620 0.485847 0.451392
0.935607 0.536614 0.461982
1.000000 0.661524 0.587579
0.000000 0.778653 0.750759
0.000000 0.784634 0.752132
0.000000 0.782773 0.738705
0.592187 0.751431 0.702480
0.731716 0.693294 0.672267
0.805997 0.612360 0.516289
0.919890 0.632654 0.511254
0.993256 0.726162 0.630732
0.000000 0.894316 0.791592
0.000000 0.893736 0.788052
0.000000 0.882536 0.764126
0.489296 0.846067 0.728573
0.681666 0.771328 0.705715
0.834073 0.787961 0.767666
0.905516 0.753780 0.641382
0.979492 0.806790 0.712551
0.000000 0.974121 0.830259
0.000000 0.972045 0.824979
0.000000 0.963897 0.809354
0.405859 0.937224 0.794339
0.698695 0.898833 0.794339
0.814115 0.862394 0.800565
0.903014 0.862242 0.849729
0.957671 0.861265 0.808530
0.000000 1.000000 0.860899
0.000000 1.000000 0.857939
0.000000 1.000000 0.849790
0.289647 1.000000 0.853147
0.685817 0.974243 0.862364
0.838651 0.945525 0.875761
0.913481 0.934020 0.895323
0.949981 0.920195 0.915221
0.000000 0.192233 0.758877
0.000000 0.189578 0.759487
0.365423 0.156161 0.760067
0.704555 0.114626 0.786801
0.906767 0.452399 0.782650
0.934813 0.432990 0.653651
0.968017 0.441169 0.571191
1.000000 0.643885 0.687312
0.000000 0.245121 0.752926
0.000000 0.244205 0.753017
0.364202 0.232639 0.757809
0.690913 0.232547 0.779171
0.897581 0.498329 0.784665
0.926024 0.453956 0.653437
0.962463 0.448493 0.568048
1.000000 0.644221 0.683803
0.000000 0.465003 0.766415
0.114809 0.462135 0.769192
0.372351 0.421363 0.773312
0.677974 0.454780 0.786923
0.881468 0.636347 0.811093
0.903838 0.532311 0.669306
0.944915 0.515862 0.593591
0.998474 0.667689 0.694331
0.000000 0.609583 0.784726
0.000000 0.609186 0.780270
0.373602 0.619104 0.772091
0.653101 0.640589 0.797574
0.857115 0.744350 0.833921
0.868559 0.604974 0.677272
0.934051 0.605798 0.637385
0.994293 0.712581 0.720516
0.000000 0.749020 0.815793
0.000000 0.749722 0.814359
0.224857 0.750698 0.809415
0.589715 0.754849 0.804807
0.779019 0.762539 0.800473
0.821134 0.673365 0.685969
0.915862 0.667720 0.653651
0.987243 0.741512 0.720851
0.000000 0.881102 0.851041
0.000000 0.885161 0.853452
0.000000 0.883513 0.850431
0.491493 0.869413 0.840604
0.737362 0.837369 0.817533
0.827970 0.802335 0.802029
0.901122 0.760769 0.708125
0.977752 0.807523 0.765194
0.000000 0.974029 0.887297
0.000000 0.973693 0.886778
0.000000 0.967132 0.881804
0.379187 0.949767 0.870909
0.679286 0.919310 0.852628
0.804166 0.870207 0.835416
0.902647 0.874479 0.872801
0.960754 0.870878 0.829526
0.000000 1.000000 0.909331
0.000000 1.000000 0.907500
0.000000 1.000000 0.900938
0.000000 1.000000 0.892882
0.601190 0.984649 0.887999
0.815030 0.956237 0.892638
0.902525 0.934051 0.904295
0.949187 0.925414 0.924315
0.000000 0.273960 0.866514
0.000000 0.275273 0.868254
0.382879 0.265019 0.867643
0.657099 0.254093 0.868162
0.870481 0.380560 0.874205
0.954162 0.628779 0.853666
0.970642 0.591516 0.768185
0.998535 0.654383 0.761776
0.000000 0.314580 0.860899
0.000000 0.316350 0.862394
0.374578 0.311315 0.862394
0.644862 0.306615 0.862089
0.860288 0.416663 0.869627
0.948852 0.642969 0.853422
0.965545 0.591119 0.762661
0.996185 0.643671 0.750637
0.109224 0.509239 0.862547
0.158938 0.485725 0.863737
0.377417 0.457160 0.864378
0.636530 0.470130 0.864500
0.844633 0.550134 0.872953
0.937682 0.713161 0.867674
0.956176 0.645899 0.782010
0.991852 0.683223 0.772091
0.000000 0.641718 0.861906
0.118624 0.640650 0.858366
0.415686 0.641169 0.860716
0.616632 0.630365 0.867521
0.822568 0.680446 0.879759
0.924041 0.786130 0.885588
0.942779 0.706081 0.802945
0.984497 0.728450 0.794705
0.000000 0.747677 0.877592
0.000000 0.745541 0.875029
0.273686 0.741878 0.868223
0.556451 0.742977 0.858946
0.763088 0.753689 0.870848
0.902922 0.828397 0.892790
0.919280 0.730129 0.795346
0.975341 0.770443 0.811856
0.000000 0.860441 0.897642
0.000000 0.859617 0.896727
0.000000 0.855680 0.893339
0.480323 0.848081 0.888212
0.710933 0.840391 0.882383
0.868070 0.859190 0.893065
0.896239 0.788510 0.813565
0.969329 0.817655 0.832700
0.000000 0.957519 0.919860
0.000000 0.957458 0.919738
0.000000 0.955200 0.919005
0.370336 0.945892 0.916899
0.656031 0.927276 0.909361
0.826261 0.904875 0.896086
0.895384 0.879149 0.886931
0.960052 0.870237 0.857298
0.000000 1.000000 0.939544
0.000000 1.000000 0.938903
0.000000 1.000000 0.937774
0.000000 1.000000 0.934630
0.560906 0.989410 0.930358
0.781765 0.966949 0.921691
0.890410 0.940887 0.917967
0.948547 0.932341 0.935576
0.142061 0.393286 0.937011
0.252018 0.393896 0.937072
0.444617 0.386297 0.934539
0.653223 0.384588 0.932341
0.837980 0.420417 0.932952
0.944335 0.579919 0.917998
0.977905 0.710323 0.889555
0.991852 0.710872 0.850095
0.131746 0.422919 0.934447
0.245212 0.423957 0.934569
0.439490 0.418769 0.932525
0.645869 0.417029 0.929992
0.831052 0.451270 0.930510
0.940459 0.598505 0.917906
0.975463 0.719997 0.890990
0.990204 0.715267 0.850767
0.266300 0.556878 0.929473
0.285069 0.538567 0.930327
0.424506 0.515221 0.928832
0.636011 0.526574 0.928527
0.815305 0.551781 0.927398
0.930419 0.662837 0.921141
0.968841 0.760830 0.900206
0.985504 0.743832 0.861082
0.195682 0.673915 0.925383
0.290196 0.675074 0.925658
0.481544 0.678614 0.924559
0.606378 0.643427 0.926421
0.787350 0.659846 0.925139
0.915801 0.736110 0.927337
0.960754 0.814389 0.914855
0.979431 0.786557 0.878294
0.000000 0.765225 0.930449
0.000000 0.765469 0.929931
0.325078 0.761624 0.925505
0.547662 0.754330 0.921721
0.733425 0.744259 0.923980
0.889311 0.787228 0.930724
0.952667 0.862211 0.929961
0.972137 0.822354 0.891783
0.000000 0.859495 0.942290
0.000000 0.857542 0.941222
0.000000 0.851499 0.937896
0.447456 0.842191 0.932494
0.665492 0.832364 0.924590
0.841794 0.839353 0.930388
0.945647 0.904448 0.945220
0.965057 0.856718 0.904906
0.000000 0.950011 0.957610
0.000000 0.948760 0.957031
0.000000 0.943633 0.955077
0.340337 0.933257 0.951659
0.621363 0.918669 0.946349
0.795621 0.904845 0.939330
0.922728 0.918639 0.946014
0.953887 0.884459 0.911955
0.000000 1.000000 0.965972
0.000000 1.000000 0.965637
0.000000 1.000000 0.964691
0.000000 1.000000 0.962982
0.519799 0.989319 0.960906
0.756130 0.970306 0.955901
0.886198 0.955200 0.950439
0.946319 0.939544 0.947692
