data/fiter_cube/60169440/1023147/file.cube
# Created by Adobe Lightroom plugin Export LUT (1.17.0)
# www.johnrellis.com/lightroom/exportlut.htm
# Preset: 海滩旅拍低饱和胶片_05 云集
# Color profile: C:\Program Files (x86)\Common Files\Adobe\Color\Profiles\Recommended\AdobeRGB1998.icc
LUT_3D_SIZE 5
DOMAIN_MIN 0.000000 0.000000 0.000000
DOMAIN_MAX 0.903226 0.903226 0.903226
0.039918 0.046296 0.071168
0.209201 0.000000 0.090303
0.606256 0.000000 0.107240
0.925658 0.177798 0.244327
1.000000 0.634760 0.635065
0.000000 0.256413 0.150271
0.191257 0.160922 0.132326
0.582025 0.143343 0.093172
0.903563 0.292424 0.220157
1.000000 0.679164 0.659327
0.000000 0.701289 0.368566
0.000000 0.645686 0.294987
0.690517 0.548608 0.387945
0.868467 0.525383 0.188754
1.000000 0.726711 0.627375
0.000000 0.918914 0.589776
0.000000 0.905272 0.564691
0.588159 0.810025 0.560540
0.872160 0.779232 0.693660
0.981842 0.819791 0.680537
0.000000 1.000000 0.769009
0.000000 1.000000 0.775967
0.694118 0.965667 0.817472
0.868772 0.931029 0.858640
0.952941 0.911986 0.894072
0.000000 0.066773 0.171786
0.278630 0.000000 0.154391
0.567498 0.000000 0.102174
0.879820 0.160800 0.195010
1.000000 0.585779 0.572992
0.000000 0.255924 0.262150
0.230991 0.228824 0.221622
0.564843 0.183047 0.133852
0.867369 0.279393 0.183566
1.000000 0.617151 0.577111
0.000000 0.701595 0.454749
0.000000 0.654017 0.380407
0.658991 0.545586 0.434485
0.837827 0.499214 0.199557
0.998779 0.710719 0.598993
0.000000 0.919066 0.634028
0.000000 0.904723 0.611017
0.601740 0.813840 0.599359
0.868254 0.786770 0.725887
0.980529 0.816526 0.675074
0.000000 1.000000 0.784329
0.000000 1.000000 0.787259
0.704921 0.971313 0.837217
0.872435 0.934295 0.869993
0.953552 0.916045 0.902159
0.000000 0.106416 0.480476
0.274510 0.000000 0.480201
0.789853 0.000000 0.415717
0.884245 0.207095 0.288548
1.000000 0.592126 0.579614
0.000000 0.322942 0.511040
0.282689 0.304112 0.529015
0.720546 0.287968 0.421912
0.870207 0.317693 0.312657
1.000000 0.621820 0.587915
0.000000 0.702968 0.674800
0.000000 0.710994 0.660365
0.666407 0.621851 0.587732
0.844724 0.537133 0.404334
1.000000 0.702602 0.600061
0.000000 0.924437 0.768582
0.000000 0.912444 0.738949
0.634516 0.841978 0.711604
0.861112 0.808652 0.783108
0.975647 0.816556 0.695399
0.000000 1.000000 0.837369
0.000000 1.000000 0.832822
0.594324 0.984222 0.846433
0.859495 0.934874 0.873808
0.950072 0.917510 0.910521
0.000000 0.204685 0.781796
0.264866 0.188785 0.785550
0.810575 0.246098 0.808682
0.944732 0.471992 0.681758
0.999084 0.643946 0.703700
0.000000 0.417273 0.786313
0.274601 0.372595 0.790555
0.788846 0.457893 0.811521
0.924285 0.537530 0.692073
0.994965 0.651881 0.699001
0.000000 0.667842 0.808225
0.190768 0.669673 0.800961
0.713252 0.695186 0.809873
0.852903 0.617426 0.673671
0.986267 0.715572 0.724605
0.000000 0.905699 0.873808
0.000000 0.906157 0.872648
0.603479 0.881529 0.857816
0.845884 0.822843 0.825528
0.972229 0.817655 0.781460
0.000000 1.000000 0.917235
0.000000 1.000000 0.914519
0.399176 1.000000 0.902373
0.843198 0.953460 0.902800
0.948608 0.926360 0.926238
0.142061 0.393286 0.937011
0.393408 0.388312 0.935210
0.750149 0.389899 0.930999
0.956420 0.625788 0.910460
0.991852 0.710872 0.850095
0.217685 0.514061 0.932189
0.385657 0.492866 0.931640
0.735103 0.503716 0.927916
0.947112 0.683345 0.914611
0.986999 0.737087 0.858946
0.000000 0.721431 0.925566
0.331365 0.716243 0.922423
0.670893 0.693080 0.923552
0.923064 0.786618 0.926696
0.975799 0.804288 0.884886
0.000000 0.885649 0.947265
0.000000 0.880217 0.944549
0.560296 0.863218 0.935912
0.866636 0.862364 0.934234
0.962768 0.862272 0.906096
0.000000 1.000000 0.965972
0.000000 1.000000 0.964965
0.308354 0.997101 0.961669
0.795712 0.966003 0.954498
0.946319 0.939544 0.947692
