data/fiter_cube/60169440/1023147/file.cube
# Created by Adobe Lightroom plugin Export LUT (1.17.0)
# www.johnrellis.com/lightroom/exportlut.htm
# Preset: 海滩旅拍低饱和胶片_05 云集
# Color profile: C:\Program Files (x86)\Common Files\Adobe\Color\Profiles\Recommended\AdobeRGB1998.icc
LUT_3D_SIZE 32
DOMAIN_MIN 0.0 0.0 0.0
DOMAIN_MAX 1.0 1.0 1.0
0.039918 0.046296 0.071168
0.048951 0.047791 0.072084
0.058747 0.049561 0.073701
0.071321 0.055695 0.077302
0.092195 0.059083 0.081453
0.123079 0.056397 0.084718
0.163119 0.038514 0.087861
0.209201 0.000000 0.090303
0.260594 0.000000 0.092866
0.315801 0.000000 0.094911
0.374273 0.000000 0.096773
0.434119 0.000000 0.098604
0.493629 0.000000 0.100893
0.551476 0.000000 0.103395
0.606256 0.000000 0.107240
0.670741 0.000000 0.113863
0.734188 0.000000 0.126162
0.784756 0.000000 0.141360
0.826749 0.000000 0.159731
0.864195 0.000000 0.182742
0.897215 0.044282 0.210849
0.925658 0.177798 0.244327
0.949004 0.253147 0.281926
0.968200 0.318730 0.324468
0.983764 0.379583 0.371984
0.996216 0.439673 0.425788
1.000000 0.502190 0.487953
1.000000 0.567864 0.558831
1.000000 0.634760 0.635065
1.000000 0.699458 0.710689
1.000000 0.755703 0.775753
1.000000 0.755734 0.775753
0.037354 0.057099 0.073976
0.046571 0.052491 0.073365
0.056794 0.056062 0.073823
0.069917 0.060609 0.077424
0.090486 0.063294 0.081239
0.120455 0.061707 0.084565
0.159396 0.050446 0.087495
0.204349 0.015229 0.090272
0.254856 0.000000 0.092653
0.309545 0.000000 0.094545
0.367071 0.000000 0.096284
0.426215 0.000000 0.098054
0.485084 0.000000 0.100069
0.542596 0.000000 0.102754
0.597192 0.000000 0.106172
0.661921 0.000000 0.112642
0.723018 0.000000 0.123110
0.772732 0.000000 0.136873
0.814908 0.000000 0.153658
0.853025 0.000000 0.175051
0.887144 0.000000 0.201389
0.916838 0.154818 0.232914
0.941558 0.233341 0.268803
0.962127 0.299992 0.309728
0.978973 0.361669 0.355871
0.992615 0.422553 0.408637
1.000000 0.485664 0.470161
1.000000 0.552239 0.540795
1.000000 0.620996 0.618585
1.000000 0.687587 0.696376
1.000000 0.750332 0.769680
1.000000 0.756161 0.775814
0.031952 0.065888 0.077577
0.046418 0.063172 0.077302
0.053437 0.060212 0.077089
0.068910 0.065034 0.077180
0.088289 0.068177 0.081300
0.117342 0.067659 0.084627
0.155245 0.061524 0.087312
0.199435 0.037720 0.089845
0.249271 0.000000 0.092348
0.303349 0.000000 0.094301
0.360693 0.000000 0.096101
0.419562 0.000000 0.097688
0.478492 0.000000 0.099794
0.536065 0.000000 0.102296
0.590845 0.000000 0.105348
0.656764 0.000000 0.111604
0.716091 0.000000 0.121462
0.765133 0.000000 0.134096
0.807584 0.000000 0.150179
0.846250 0.000000 0.170596
0.881254 0.000000 0.196262
0.911803 0.147768 0.226963
0.937316 0.226749 0.262089
0.958618 0.292821 0.302190
0.976135 0.354253 0.347539
0.990448 0.414771 0.399603
1.000000 0.477974 0.460548
1.000000 0.544671 0.531121
1.000000 0.614191 0.609735
1.000000 0.681727 0.688746
1.000000 0.745235 0.763302
1.000000 0.756710 0.775875
0.019806 0.082765 0.085481
0.037598 0.080629 0.084352
0.052949 0.076570 0.085115
0.065309 0.070741 0.084443
0.085115 0.076234 0.081758
0.112947 0.078187 0.084382
0.149844 0.075166 0.087068
0.193515 0.066102 0.089631
0.242435 0.034211 0.091859
0.296056 0.000000 0.093568
0.352697 0.000000 0.095460
0.411170 0.000000 0.097108
0.469612 0.000000 0.098756
0.527092 0.000000 0.100923
0.582330 0.000000 0.104067
0.650324 0.000000 0.110018
0.707362 0.000000 0.118837
0.755245 0.000000 0.130373
0.797055 0.000000 0.145235
0.835569 0.000000 0.163973
0.870909 0.000000 0.187716
0.902464 0.140932 0.216739
0.929808 0.218784 0.250980
0.953124 0.285801 0.291447
0.972595 0.349493 0.338262
0.988464 0.412726 0.392798
1.000000 0.477790 0.456184
1.000000 0.545525 0.528496
1.000000 0.614984 0.607813
1.000000 0.681636 0.686641
1.000000 0.743954 0.760433
1.000000 0.757931 0.776089
0.000000 0.108766 0.096956
0.014557 0.106569 0.094728
0.037842 0.103334 0.093324
0.062867 0.092470 0.094545
0.079347 0.084016 0.092805
0.106996 0.088350 0.086702
0.140627 0.091890 0.086488
0.182681 0.087922 0.088838
0.230838 0.077913 0.090822
0.283146 0.058198 0.092653
0.339269 0.000000 0.094392
0.397375 0.000000 0.095857
0.456001 0.000000 0.097322
0.514000 0.000000 0.099275
0.575128 0.000000 0.102205
0.641871 0.000000 0.107759
0.698573 0.000000 0.115724
0.747158 0.000000 0.127016
0.789822 0.000000 0.141482
0.828824 0.000000 0.159701
0.864347 0.060945 0.182345
0.896391 0.158511 0.210513
0.924437 0.226596 0.244053
0.948699 0.289677 0.283879
0.969177 0.351049 0.330449
0.985901 0.412879 0.385046
0.998932 0.476722 0.448249
1.000000 0.543084 0.520317
1.000000 0.611719 0.599786
1.000000 0.678035 0.679164
1.000000 0.740414 0.754147
1.000000 0.759854 0.776394
0.000000 0.145663 0.111208
0.000000 0.143465 0.108095
0.000000 0.139651 0.104555
0.047089 0.129213 0.100984
0.077607 0.115541 0.103639
0.102144 0.101595 0.102419
0.139651 0.105043 0.093629
0.173831 0.109621 0.088167
0.220493 0.105959 0.089845
0.272587 0.097292 0.091341
0.328191 0.081453 0.093050
0.386358 0.045777 0.094209
0.445014 0.000000 0.095644
0.503593 0.000000 0.097261
0.571588 0.000000 0.100282
0.635737 0.000000 0.105043
0.691737 0.000000 0.112825
0.740749 0.000000 0.123720
0.784360 0.000000 0.137911
0.824491 0.013367 0.156435
0.861143 0.129885 0.179782
0.894316 0.193393 0.208804
0.963958 0.366186 0.320958
0.980621 0.419348 0.371038
0.993469 0.472175 0.426001
1.000000 0.526024 0.486275
1.000000 0.581476 0.551965
1.000000 0.637751 0.621149
1.000000 0.692561 0.689540
1.000000 0.745357 0.755001
1.000000 0.764157 0.777035
1.000000 0.762417 0.776791
0.000000 0.203250 0.131716
0.000000 0.200046 0.127413
0.000000 0.196139 0.122469
0.000000 0.187442 0.115724
0.067353 0.162905 0.115816
0.109071 0.153231 0.116396
0.145480 0.130800 0.117250
0.192813 0.132753 0.103548
0.230137 0.133516 0.091981
0.276005 0.134218 0.089418
0.333959 0.127047 0.090669
0.394049 0.115236 0.091920
0.453925 0.098329 0.093202
0.523278 0.077241 0.094759
0.593439 0.052705 0.098116
0.654566 0.027649 0.103914
0.707668 0.048798 0.113039
0.754788 0.083192 0.125338
0.798093 0.121370 0.141756
0.839200 0.165957 0.163821
0.878050 0.217105 0.193454
0.913542 0.274052 0.231632
0.943816 0.334813 0.278996
0.968109 0.396643 0.334783
0.986267 0.457588 0.397223
0.998810 0.515740 0.463020
1.000000 0.572992 0.532158
1.000000 0.629969 0.603876
1.000000 0.685328 0.674739
1.000000 0.737911 0.741756
1.000000 0.767575 0.777584
1.000000 0.765652 0.777310
0.000000 0.256413 0.150271
0.000000 0.253574 0.145937
0.000000 0.249577 0.140444
0.000000 0.240879 0.131014
0.000000 0.223423 0.122042
0.091707 0.187961 0.131197
0.148653 0.190433 0.128450
0.191257 0.160922 0.132326
0.243137 0.161135 0.114931
0.281529 0.159640 0.098421
0.318975 0.162387 0.087922
0.377752 0.157961 0.088624
0.446052 0.153170 0.089082
0.516869 0.147768 0.090394
0.582025 0.143343 0.093172
0.640803 0.141176 0.098207
0.693385 0.144778 0.106508
0.740810 0.156039 0.118288
0.784817 0.176120 0.134218
0.826963 0.205722 0.155276
0.866911 0.245029 0.183505
0.903563 0.292424 0.220157
0.935210 0.345464 0.265537
0.960937 0.401343 0.319341
0.980621 0.457801 0.380072
0.994598 0.512840 0.444709
1.000000 0.567895 0.513512
1.000000 0.623896 0.586358
1.000000 0.679164 0.659327
1.000000 0.731899 0.728786
1.000000 0.771115 0.778164
1.000000 0.769467 0.777890
0.000000 0.314641 0.171084
0.000000 0.311955 0.166659
0.000000 0.308354 0.161013
0.000000 0.300237 0.150668
0.000000 0.287480 0.142061
0.068360 0.255772 0.139773
0.128786 0.226749 0.146822
0.199863 0.234562 0.143374
0.247379 0.197787 0.151003
0.302220 0.196353 0.129122
0.342626 0.193698 0.107942
0.386755 0.196048 0.089387
0.442176 0.200504 0.083528
0.509239 0.199710 0.084688
0.571679 0.198795 0.086976
0.629236 0.199100 0.091615
0.681849 0.202731 0.099397
0.729824 0.210788 0.111238
0.774563 0.225223 0.126955
0.817594 0.247684 0.148043
0.858335 0.279240 0.175998
0.895842 0.318944 0.212009
0.928344 0.365118 0.256413
0.955047 0.414984 0.308995
0.975799 0.466590 0.368414
0.990845 0.517845 0.432380
1.000000 0.570001 0.500816
1.000000 0.623743 0.573816
1.000000 0.677546 0.647852
1.000000 0.729244 0.718471
1.000000 0.774777 0.778805
1.000000 0.773922 0.778622
0.000000 0.375463 0.193637
0.000000 0.372961 0.189456
0.000000 0.369421 0.183810
0.000000 0.361852 0.172885
0.000000 0.350195 0.161105
0.000000 0.328588 0.148653
0.114717 0.286717 0.159426
0.176974 0.272404 0.163516
0.254887 0.278996 0.161288
0.317906 0.245487 0.175326
0.380407 0.245274 0.149660
0.421790 0.240574 0.121675
0.459480 0.239078 0.096345
0.495552 0.242741 0.077028
0.558831 0.244785 0.079011
0.618555 0.248173 0.083345
0.673732 0.253361 0.091402
0.723568 0.261601 0.103975
0.769284 0.274144 0.120974
0.812314 0.292363 0.142702
0.852384 0.317479 0.170413
0.888792 0.348943 0.204929
0.920623 0.386267 0.246677
0.947387 0.427924 0.295628
0.968933 0.472816 0.351598
0.985382 0.519707 0.413733
0.997345 0.569268 0.482124
1.000000 0.622065 0.557031
1.000000 0.676143 0.634638
1.000000 0.728389 0.709102
1.000000 0.777737 0.777279
1.000000 0.778866 0.779446
0.000000 0.433753 0.217258
0.000000 0.431647 0.213230
0.000000 0.428656 0.207736
0.000000 0.422217 0.197116
0.000000 0.412055 0.184024
0.000000 0.397833 0.176181
0.077913 0.364080 0.170321
0.160891 0.323644 0.183322
0.242832 0.332891 0.186770
0.330114 0.339330 0.189090
0.400000 0.303166 0.206760
0.456764 0.297520 0.173983
0.492134 0.288579 0.139406
0.525017 0.283818 0.108339
0.557214 0.284337 0.078920
0.603845 0.289982 0.072786
0.660151 0.295964 0.080995
0.710903 0.303685 0.093935
0.757687 0.314153 0.111269
0.801785 0.329717 0.133608
0.842893 0.351049 0.161715
0.880491 0.378271 0.196445
0.913573 0.411139 0.238346
0.941405 0.448402 0.287388
0.963928 0.488960 0.342931
0.981231 0.531640 0.404181
0.994018 0.577081 0.471443
1.000000 0.626123 0.545342
1.000000 0.677546 0.623255
1.000000 0.727962 0.698604
1.000000 0.776181 0.768490
1.000000 0.784360 0.780423
0.000000 0.497322 0.245609
0.000000 0.496193 0.242191
0.000000 0.494392 0.237247
0.000000 0.490547 0.227420
0.000000 0.484169 0.214481
0.000000 0.474403 0.203799
0.000000 0.455177 0.188296
0.153231 0.413672 0.199893
0.219638 0.375982 0.211124
0.318486 0.397314 0.214176
0.404578 0.397436 0.219699
0.479622 0.362737 0.241825
0.599268 0.407202 0.232456
0.627741 0.391913 0.183474
0.654078 0.382788 0.140902
0.680690 0.380041 0.100282
0.709010 0.384924 0.076173
0.755550 0.391913 0.099367
0.797635 0.401129 0.125002
0.836667 0.414801 0.154635
0.872343 0.432746 0.188998
0.904112 0.455604 0.228733
0.931304 0.482460 0.274113
0.954223 0.513512 0.325597
0.972625 0.547967 0.383154
0.986755 0.585290 0.445899
0.996826 0.625391 0.513664
1.000000 0.668238 0.585443
1.000000 0.711849 0.656916
1.000000 0.755215 0.725917
1.000000 0.792508 0.781857
1.000000 0.790341 0.781460
0.000000 0.596857 0.298375
0.000000 0.595453 0.294713
0.000000 0.592218 0.288548
0.000000 0.586328 0.277134
0.000000 0.576989 0.261387
0.000000 0.564202 0.245762
0.000000 0.548363 0.237613
0.122835 0.513756 0.224002
0.225956 0.467872 0.236118
0.302525 0.451301 0.246952
0.415930 0.478889 0.255467
0.505272 0.478767 0.269566
0.589410 0.453529 0.303563
0.638544 0.444556 0.260105
0.667933 0.431739 0.211368
0.693904 0.423316 0.168856
0.719020 0.420172 0.129213
0.743801 0.423346 0.097169
0.780758 0.431800 0.109651
0.821408 0.442969 0.140352
0.858640 0.458289 0.174899
0.892088 0.477638 0.214603
0.920867 0.500664 0.259007
0.945281 0.527764 0.309361
0.965209 0.558312 0.365576
0.980835 0.591791 0.427100
0.992370 0.628534 0.494057
1.000000 0.668818 0.566217
1.000000 0.710903 0.639857
1.000000 0.753353 0.711482
1.000000 0.794461 0.777493
1.000000 0.796750 0.782650
0.000000 0.653529 0.334508
0.000000 0.652125 0.330571
0.000000 0.649195 0.324987
0.000000 0.643519 0.313848
0.000000 0.634485 0.297856
0.000000 0.622400 0.280735
0.000000 0.607843 0.267765
0.000000 0.586114 0.249638
0.208621 0.545525 0.253788
0.281926 0.500084 0.265782
0.374609 0.506554 0.277470
0.489815 0.534539 0.289433
0.567956 0.527977 0.307744
0.644526 0.503716 0.344762
0.684596 0.490242 0.298344
0.708583 0.474037 0.245640
0.730526 0.463050 0.200656
0.752956 0.458289 0.161715
0.777401 0.460365 0.126864
0.805844 0.470832 0.125429
0.845121 0.484321 0.161318
0.880430 0.501396 0.201602
0.910948 0.521813 0.246281
0.937011 0.546014 0.296574
0.958434 0.573388 0.352422
0.975372 0.603876 0.413825
0.988159 0.637598 0.480690
0.997009 0.675074 0.553277
1.000000 0.715175 0.628504
1.000000 0.755978 0.701991
1.000000 0.795956 0.770260
1.000000 0.803525 0.783932
0.000000 0.701289 0.368566
0.000000 0.700404 0.365484
0.000000 0.697780 0.360174
0.000000 0.692683 0.349554
0.000000 0.684443 0.334386
0.000000 0.673823 0.317052
0.000000 0.661189 0.301915
0.000000 0.645686 0.294987
0.172000 0.616358 0.275090
0.278386 0.576165 0.285527
0.335363 0.531914 0.297429
0.448127 0.560204 0.312291
0.559136 0.586725 0.327306
0.623346 0.572595 0.348791
0.690517 0.548608 0.387945
0.723384 0.531426 0.338354
0.744137 0.513695 0.283116
0.763790 0.501518 0.236698
0.785245 0.496742 0.198306
0.809201 0.499275 0.166781
0.834043 0.510369 0.155184
0.868467 0.525383 0.188754
0.900511 0.543328 0.233402
0.928191 0.564752 0.283726
0.951202 0.589593 0.339666
0.969787 0.618006 0.402014
0.984100 0.650324 0.471321
0.994171 0.687037 0.547692
1.000000 0.726711 0.627375
1.000000 0.766934 0.704585
1.000000 0.806180 0.775509
1.000000 0.810575 0.785336
0.000000 0.742794 0.401648
0.000000 0.742367 0.398962
0.000000 0.740810 0.394934
0.000000 0.737240 0.386053
0.000000 0.731411 0.373022
0.000000 0.723659 0.357733
0.000000 0.714137 0.343328
0.000000 0.702052 0.333928
0.148318 0.684382 0.320043
0.269291 0.651606 0.315007
0.347295 0.611902 0.324132
0.412421 0.587396 0.335912
0.519249 0.611139 0.351965
0.618799 0.631464 0.367193
0.667048 0.608423 0.388373
0.724941 0.584527 0.426642
0.753597 0.566278 0.376684
0.773465 0.549126 0.321508
0.793545 0.538476 0.276005
0.816068 0.535851 0.240360
0.840757 0.540612 0.213260
0.865843 0.553155 0.203525
0.893736 0.570520 0.227451
0.922698 0.590478 0.279423
0.946838 0.613550 0.337224
0.966308 0.640009 0.401526
0.981292 0.670130 0.472480
0.991791 0.704341 0.550317
0.998352 0.740963 0.630335
1.000000 0.777798 0.706844
1.000000 0.813748 0.776455
1.000000 0.817929 0.786862
0.000000 0.776852 0.431312
0.000000 0.776028 0.428626
0.000000 0.774533 0.424842
0.000000 0.771542 0.416999
0.000000 0.766812 0.405585
0.000000 0.760403 0.391852
0.000000 0.752377 0.378241
0.000000 0.742031 0.367437
0.112337 0.728756 0.364843
0.241184 0.706111 0.341283
0.340673 0.673274 0.348760
0.401648 0.635645 0.357244
0.478889 0.630549 0.371649
0.577722 0.650904 0.389837
0.667567 0.667872 0.406226
0.703670 0.639734 0.427680
0.754818 0.618067 0.466194
0.780758 0.599847 0.417212
0.800351 0.583948 0.363043
0.820615 0.574762 0.319066
0.842893 0.573266 0.285557
0.866758 0.578790 0.261784
0.890623 0.591272 0.252964
0.913634 0.610437 0.267948
0.939452 0.631678 0.326329
0.960479 0.656092 0.391424
0.976837 0.684291 0.463935
0.988495 0.716396 0.543420
0.995880 0.751034 0.625635
0.999817 0.786038 0.704128
1.000000 0.820493 0.775631
1.000000 0.825467 0.788479
0.000000 0.809537 0.462348
0.000000 0.809628 0.460792
0.000000 0.837369 0.487709
0.000000 0.834775 0.480934
0.000000 0.830503 0.470741
0.000000 0.824460 0.458442
0.000000 0.816403 0.445533
0.000000 0.806210 0.434668
0.103365 0.793484 0.429877
0.281804 0.777188 0.423041
0.362799 0.751186 0.408362
0.434272 0.719387 0.413123
0.479652 0.682795 0.418006
0.565545 0.691341 0.436347
0.652064 0.706020 0.455512
0.726131 0.716274 0.472602
0.753140 0.686946 0.493172
0.795132 0.667903 0.531395
0.817899 0.649348 0.482612
0.836667 0.634150 0.428870
0.855985 0.625574 0.385687
0.876921 0.624689 0.354253
0.898650 0.630457 0.333837
0.919921 0.642298 0.327245
0.938659 0.660365 0.344335
0.957733 0.680720 0.395941
0.973602 0.703822 0.464759
0.985351 0.731136 0.541161
0.993286 0.761990 0.621881
0.997894 0.794278 0.700771
0.999237 0.826688 0.773342
0.999390 0.833127 0.790219
0.000000 0.845365 0.499641
0.000000 0.848234 0.501579
0.000000 0.850797 0.502678
0.000000 0.851835 0.500542
0.000000 0.850767 0.494728
0.000000 0.846952 0.485573
0.000000 0.840726 0.474739
0.000000 0.832242 0.464912
0.000000 0.821530 0.459236
0.264408 0.808072 0.461341
0.343603 0.789944 0.436988
0.426093 0.763363 0.440681
0.482216 0.732692 0.444434
0.525628 0.704219 0.450385
0.612757 0.718593 0.471046
0.690211 0.730648 0.489693
0.751461 0.735256 0.507012
0.775296 0.707973 0.526665
0.813352 0.692134 0.565148
0.835416 0.676051 0.521324
0.854490 0.663264 0.471901
0.874510 0.657618 0.433845
0.895323 0.658717 0.406897
0.916136 0.665827 0.391302
0.936095 0.677882 0.387579
0.953185 0.697261 0.411597
0.969116 0.719631 0.459113
0.981872 0.744900 0.536767
0.990600 0.773465 0.618860
0.995819 0.803464 0.698726
0.997803 0.833707 0.772152
0.998047 0.840940 0.792050
0.000000 0.868009 0.525139
0.000000 0.870390 0.526909
0.000000 0.872587 0.528161
0.000000 0.873442 0.526452
0.000000 0.872557 0.521630
0.000000 0.869383 0.513848
0.000000 0.864073 0.504540
0.000000 0.856901 0.495796
0.000000 0.847776 0.490150
0.228122 0.836149 0.490211
0.359014 0.821988 0.492622
0.417456 0.802060 0.472206
0.481849 0.776486 0.475044
0.526757 0.747555 0.478218
0.578943 0.733089 0.488441
0.657008 0.744808 0.508782
0.725826 0.754788 0.527001
0.776150 0.755215 0.544671
0.797421 0.730526 0.564019
0.831724 0.717891 0.602014
0.852720 0.704402 0.564263
0.871946 0.694423 0.520500
0.891875 0.691066 0.487434
0.911833 0.693629 0.465400
0.931212 0.701228 0.454017
0.949615 0.713680 0.454780
0.964660 0.733822 0.485389
0.978027 0.757839 0.530663
0.987579 0.783902 0.613306
0.993591 0.811551 0.694118
0.996216 0.839750 0.768551
0.996674 0.848814 0.793942
0.000000 0.889525 0.551049
0.000000 0.891600 0.552880
0.000000 0.893523 0.554131
0.000000 0.894285 0.552941
0.000000 0.893523 0.548974
0.000000 0.890776 0.542412
0.000000 0.886198 0.534539
0.000000 0.879911 0.526818
0.000000 0.871794 0.521386
0.189761 0.861570 0.520348
0.345159 0.849088 0.526299
0.408392 0.834867 0.504967
0.478767 0.813382 0.507164
0.530755 0.789273 0.509819
0.567468 0.762325 0.512749
0.628199 0.760006 0.528801
0.699184 0.770718 0.550713
0.761410 0.780545 0.571344
0.803433 0.779507 0.592096
0.823575 0.759701 0.613519
0.854307 0.751553 0.651820
0.874693 0.742824 0.624567
0.893431 0.736843 0.590387
0.912840 0.736934 0.566552
0.931609 0.741970 0.553216
0.949126 0.751675 0.551476
0.965026 0.765774 0.563165
0.977020 0.787106 0.603571
0.986847 0.811337 0.655634
0.992493 0.835904 0.726925
0.994476 0.860227 0.795529
0.995209 0.856809 0.796048
0.000000 0.918914 0.589776
0.000000 0.919554 0.590082
0.000000 0.919860 0.589746
0.000000 0.919310 0.587335
0.000000 0.917693 0.583032
0.000000 0.914763 0.577050
0.000000 0.910674 0.570489
0.000000 0.905272 0.564691
0.000000 0.898375 0.560998
0.176303 0.889677 0.561089
0.341527 0.878996 0.566918
0.453437 0.866026 0.580041
0.491463 0.851499 0.555901
0.546624 0.831876 0.558129
0.588159 0.810025 0.560540
0.617731 0.785763 0.563500
0.683345 0.792203 0.584100
0.744381 0.800687 0.604669
0.797513 0.808591 0.623499
0.830014 0.804654 0.642023
0.846464 0.786648 0.660151
0.872160 0.779232 0.693660
0.890043 0.771359 0.670558
0.906737 0.765988 0.640650
0.924437 0.766934 0.621698
0.941558 0.772763 0.613642
0.957519 0.783322 0.617975
0.971710 0.798245 0.636255
0.981842 0.819791 0.680537
0.989319 0.843412 0.733577
0.992889 0.866941 0.794125
0.993713 0.864927 0.798215
0.000000 0.937041 0.615290
0.000000 0.937652 0.615717
0.000000 0.938048 0.615747
0.000000 0.937591 0.613977
0.000000 0.936156 0.610498
0.000000 0.933501 0.605524
0.000000 0.929686 0.600031
0.000000 0.924681 0.594995
0.000000 0.918273 0.591943
0.141939 0.910338 0.592004
0.325750 0.900664 0.596796
0.441352 0.889158 0.607568
0.500755 0.877470 0.598718
0.550866 0.861875 0.594202
0.596490 0.843961 0.597040
0.631434 0.824369 0.600397
0.664607 0.808408 0.607782
0.725978 0.816342 0.629053
0.779477 0.823728 0.648707
0.825650 0.830747 0.666651
0.851133 0.825406 0.684504
0.865476 0.809934 0.701381
0.887663 0.804166 0.732113
0.904173 0.798703 0.715480
0.916381 0.788388 0.680049
0.932952 0.790707 0.666560
0.948943 0.797879 0.664302
0.963592 0.809506 0.674495
0.976165 0.825132 0.698116
0.984497 0.846738 0.744320
0.989868 0.869841 0.796017
0.991852 0.872740 0.802121
0.000000 0.959991 0.650294
0.000000 0.960662 0.651209
0.000000 0.960784 0.651148
0.000000 0.960052 0.649439
0.000000 0.958312 0.646235
0.000000 0.955566 0.642084
0.000000 0.951659 0.637476
0.000000 0.946532 0.633112
0.000000 0.940002 0.630213
0.143374 0.932067 0.629908
0.325628 0.922545 0.633082
0.439673 0.911681 0.641230
0.527916 0.899596 0.652949
0.558251 0.888457 0.632166
0.603998 0.872679 0.633021
0.640436 0.855558 0.634241
0.668421 0.837064 0.636408
0.706142 0.828702 0.646632
0.759762 0.835111 0.665705
0.806760 0.841672 0.684169
0.847227 0.848081 0.701320
0.867308 0.841581 0.717983
0.879545 0.827420 0.732540
0.898589 0.821683 0.759030
0.913176 0.816556 0.745022
0.926848 0.813107 0.724178
0.942077 0.816831 0.716518
0.956481 0.824735 0.719203
0.969299 0.836851 0.733944
0.979828 0.852689 0.761074
0.986023 0.873777 0.806088
0.988403 0.878172 0.815091
0.000000 0.974212 0.672633
0.000000 0.974792 0.673579
0.000000 0.974914 0.673701
0.000000 0.974243 0.672511
0.000000 0.972686 0.670100
0.000000 0.970214 0.666987
0.000000 0.966796 0.663752
0.000000 0.962249 0.661067
0.000000 0.956451 0.659876
0.135409 0.949371 0.661067
0.324926 0.940917 0.665461
0.441535 0.931243 0.673915
0.530266 0.920714 0.684688
0.585657 0.910552 0.684779
0.618585 0.899351 0.674769
0.657069 0.885618 0.676997
0.688136 0.870970 0.679896
0.712673 0.855650 0.684291
0.753719 0.854093 0.698329
0.799100 0.859373 0.715816
0.838102 0.864622 0.731838
0.871550 0.869596 0.745998
0.886046 0.861662 0.759365
0.895903 0.848753 0.770718
0.911742 0.843412 0.792691
0.924773 0.839689 0.783261
0.937102 0.837858 0.768307
0.950988 0.843351 0.767178
0.963806 0.852842 0.776272
0.974640 0.865965 0.795956
0.982605 0.882139 0.825345
0.984985 0.883391 0.827237
0.000000 0.989349 0.697749
0.000000 0.989624 0.698329
0.000000 0.989471 0.698177
0.000000 0.988586 0.696956
0.000000 0.986938 0.694820
0.000000 0.984466 0.692287
0.000000 0.981109 0.689815
0.000000 0.976776 0.688045
0.000000 0.971313 0.687861
0.133028 0.964691 0.690120
0.327245 0.956847 0.695308
0.444221 0.948058 0.703944
0.533349 0.938598 0.714107
0.604822 0.928588 0.725551
0.631464 0.920745 0.711574
0.670375 0.909300 0.714076
0.702785 0.897215 0.717128
0.729488 0.884733 0.721401
0.751064 0.872068 0.727474
0.792508 0.874846 0.742611
0.830167 0.879026 0.757321
0.862608 0.883055 0.770504
0.890562 0.886717 0.781643
0.900969 0.877928 0.792325
0.908995 0.865995 0.801053
0.922362 0.860899 0.819242
0.934112 0.858396 0.813535
0.945220 0.857786 0.803281
0.957733 0.864378 0.806546
0.968994 0.874968 0.819699
0.977844 0.888609 0.841550
0.981598 0.888334 0.838529
0.000000 1.000000 0.718807
0.000000 1.000000 0.719142
0.000000 1.000000 0.719081
0.000000 1.000000 0.718410
0.000000 0.999664 0.717403
0.000000 0.997742 0.716701
0.000000 0.995270 0.717098
0.000000 0.991882 0.718959
0.000000 0.987427 0.723018
0.209567 0.981750 0.729824
0.375494 0.974914 0.739651
0.486549 0.967407 0.751064
0.572290 0.959472 0.763058
0.640986 0.951232 0.775174
0.691981 0.943206 0.784024
0.711971 0.936858 0.774716
0.742611 0.927916 0.778653
0.768551 0.918853 0.783352
0.790433 0.909850 0.789487
0.811185 0.902739 0.797452
0.842985 0.905058 0.808377
0.870573 0.907378 0.818082
0.894530 0.909483 0.826261
0.915618 0.911315 0.832975
0.921752 0.902129 0.839597
0.927459 0.891478 0.844846
0.937621 0.886717 0.857969
0.947387 0.885466 0.855802
0.956725 0.886503 0.851469
0.966827 0.893828 0.858671
0.973907 0.901152 0.868132
0.977173 0.895659 0.855772
0.000000 1.000000 0.750729
0.000000 1.000000 0.751034
0.000000 1.000000 0.750942
0.000000 1.000000 0.750515
0.000000 1.000000 0.750027
0.000000 1.000000 0.749996
0.000000 1.000000 0.750820
0.000000 1.000000 0.753017
0.000000 1.000000 0.757107
0.268040 0.995331 0.763607
0.408301 0.988159 0.772061
0.509178 0.980591 0.781521
0.589075 0.972839 0.791470
0.653986 0.965057 0.801572
