data/fiter_cube/28334299/1023163/file.cube
# Created by Adobe Lightroom plugin Export LUT (1.17.0)
# www.johnrellis.com/lightroom/exportlut.htm
# Preset: 梦幻人像_02 云集
# Color profile: C:\Program Files (x86)\Common Files\Adobe\Color\Profiles\Recommended\AdobeRGB1998.icc
LUT_3D_SIZE 8
DOMAIN_MIN 0.000000 0.000000 0.000000
DOMAIN_MAX 0.903226 0.903226 0.903226
0.097353 0.069123 0.076753
0.159213 0.059663 0.075044
0.340551 0.000000 0.061219
0.538262 0.000000 0.000000
0.698421 0.000000 0.000000
0.823362 0.000000 0.028595
0.922942 0.000000 0.098787
1.000000 0.000000 0.159670
0.097749 0.115785 0.089418
0.141787 0.126192 0.079835
0.330846 0.149020 0.045808
0.526207 0.128634 0.000000
0.688563 0.037934 0.000000
0.811948 0.000000 0.021057
0.913695 0.000000 0.096254
1.000000 0.000000 0.158633
0.101991 0.250340 0.145571
0.132204 0.251377 0.132815
0.268894 0.279728 0.097566
0.514977 0.328405 0.000000
0.687068 0.306645 0.000000
0.810056 0.268925 0.045258
0.918029 0.240116 0.120211
1.000000 0.230167 0.183841
0.105898 0.408392 0.224704
0.153750 0.411383 0.222904
0.230747 0.400427 0.204166
0.421607 0.456947 0.142184
0.665675 0.490211 0.014099
0.808774 0.459113 0.098726
0.910704 0.422156 0.154208
0.997589 0.399817 0.213962
0.148318 0.550347 0.313207
0.190585 0.552422 0.315984
0.250614 0.548943 0.293889
0.357183 0.539391 0.309728
0.537926 0.588190 0.214450
0.747005 0.596979 0.125734
0.888090 0.580713 0.195407
0.986023 0.553826 0.255161
0.219852 0.667597 0.401831
0.254215 0.673091 0.409857
0.315465 0.671962 0.407935
0.371832 0.663386 0.389929
0.473915 0.663844 0.395117
0.638392 0.697047 0.306706
0.833249 0.703822 0.236973
0.963561 0.696071 0.314641
0.324102 0.772549 0.503716
0.346197 0.773587 0.509300
0.405005 0.771908 0.521386
0.439490 0.766903 0.504723
0.508019 0.756191 0.516655
0.592096 0.770169 0.500999
0.736019 0.797391 0.422705
0.916472 0.804471 0.359686
0.460761 0.874693 0.627649
0.474952 0.874113 0.631647
0.523033 0.873198 0.647852
0.560754 0.873075 0.649958
0.585504 0.864195 0.634699
0.659419 0.859892 0.669368
0.731228 0.883909 0.647395
0.848295 0.904417 0.589410
0.095369 0.069764 0.113649
0.155032 0.031647 0.132448
0.328161 0.000000 0.148531
0.525658 0.000000 0.126162
0.687556 0.000000 0.122530
0.807980 0.000000 0.133639
0.909819 0.000000 0.158572
0.998535 0.000000 0.199954
0.094575 0.117891 0.119142
0.152529 0.130983 0.133852
0.324987 0.115969 0.133089
0.520317 0.052735 0.125124
0.682521 0.000000 0.121706
0.802304 0.000000 0.133791
0.903014 0.000000 0.157046
0.993042 0.000000 0.197818
0.097749 0.254978 0.172183
0.155825 0.265751 0.179629
0.277562 0.286625 0.149111
0.511711 0.316503 0.125704
0.676692 0.291508 0.124880
0.797665 0.257755 0.142275
0.902403 0.232456 0.172152
0.994049 0.227207 0.217136
0.103883 0.407843 0.243992
0.159487 0.413581 0.247410
0.242130 0.410315 0.231205
0.416999 0.449439 0.181765
0.648890 0.474159 0.133150
0.788754 0.445533 0.163546
0.894163 0.413153 0.195254
0.986847 0.395270 0.241520
0.150240 0.550927 0.328466
0.191501 0.552056 0.330266
0.267491 0.550439 0.319677
0.360540 0.533471 0.327733
0.531853 0.579675 0.238682
0.739956 0.589715 0.170901
0.880919 0.576379 0.233799
0.978973 0.551202 0.282902
0.216342 0.663600 0.407996
0.246616 0.664820 0.411719
0.321721 0.666011 0.418952
0.372137 0.659388 0.396277
0.474464 0.659327 0.407965
0.637964 0.695155 0.325963
0.830777 0.701228 0.262181
0.959380 0.693629 0.335821
0.313024 0.765743 0.501457
0.332525 0.764736 0.504265
0.399115 0.764767 0.520684
0.440131 0.762020 0.509148
0.507073 0.753445 0.519188
0.589960 0.765438 0.506279
0.731106 0.791562 0.427802
0.910430 0.798428 0.365667
0.449500 0.870726 0.623468
0.465095 0.870939 0.628504
0.514733 0.870420 0.645014
0.560479 0.870726 0.652308
0.594965 0.869017 0.646784
0.663203 0.862272 0.675227
0.730678 0.882353 0.651057
0.845914 0.901701 0.591119
0.086213 0.072114 0.233433
0.153353 0.018128 0.257145
0.325078 0.000000 0.304204
0.521477 0.000000 0.324804
0.685451 0.000000 0.306096
0.806851 0.000000 0.299992
0.909239 0.000000 0.309483
0.997436 0.000000 0.330053
0.114443 0.154208 0.236118
0.139773 0.129976 0.261295
0.324804 0.017578 0.305547
0.516991 0.000000 0.312139
0.681392 0.000000 0.298466
0.801297 0.000000 0.296788
0.904143 0.000000 0.307500
0.994232 0.087343 0.329229
0.088228 0.264744 0.256443
0.145022 0.276768 0.268986
0.305760 0.302373 0.299199
0.506798 0.292180 0.299779
0.677180 0.277745 0.302159
0.796292 0.265385 0.306767
0.899687 0.258793 0.317571
0.990326 0.266819 0.339544
0.000000 0.428016 0.313451
0.122255 0.434546 0.318090
0.294865 0.449561 0.340734
0.443153 0.469978 0.308232
0.664057 0.483680 0.317937
0.787045 0.453040 0.326604
0.892882 0.430488 0.338750
0.984680 0.420081 0.361212
0.108461 0.560906 0.374487
0.171786 0.564416 0.379339
0.305943 0.572778 0.399664
0.396704 0.563684 0.395727
0.552667 0.595972 0.340703
0.749783 0.597650 0.313756
0.879667 0.586969 0.365423
0.975006 0.565545 0.390906
0.200687 0.670222 0.441108
0.237888 0.671931 0.446265
0.335363 0.674800 0.463172
0.410040 0.671046 0.457740
0.494270 0.661555 0.467140
0.644465 0.697169 0.394385
0.833188 0.702693 0.348180
0.959289 0.702296 0.427131
0.306371 0.771450 0.525048
0.328313 0.770993 0.528557
0.395789 0.769863 0.542229
0.469459 0.767483 0.552392
0.521050 0.759152 0.547112
0.601404 0.766201 0.547021
0.738705 0.795590 0.478645
0.916320 0.804593 0.432410
0.437110 0.873075 0.633112
0.449897 0.872190 0.635492
0.500725 0.870939 0.649928
0.574609 0.872679 0.675196
0.606714 0.870512 0.666743
0.668513 0.865232 0.687312
0.735805 0.882780 0.672236
0.850187 0.903563 0.618036
0.013886 0.085023 0.391272
0.136721 0.058900 0.409918
0.309178 0.000000 0.463264
0.506279 0.000000 0.495308
0.672419 0.000000 0.487709
0.794095 0.000000 0.456550
0.897002 0.000000 0.444038
0.987915 0.000000 0.448341
0.000000 0.153597 0.403235
0.110628 0.138308 0.417792
0.296178 0.000000 0.465858
0.507927 0.000000 0.498207
0.671931 0.000000 0.484627
0.790799 0.000000 0.455879
0.893431 0.000000 0.446784
0.985443 0.149111 0.453620
0.140414 0.299351 0.386847
0.186587 0.305455 0.396246
0.264530 0.279271 0.451637
0.502556 0.225803 0.499031
0.666560 0.249149 0.481819
0.786801 0.279393 0.471290
0.892912 0.313512 0.478462
0.982391 0.342687 0.490059
0.000000 0.427436 0.419715
0.117006 0.435065 0.428260
0.280980 0.457618 0.454475
0.476143 0.487160 0.491402
0.646174 0.481636 0.494026
0.769924 0.472999 0.493965
0.879606 0.464820 0.495674
0.975463 0.461463 0.502373
0.000000 0.583307 0.464729
0.068025 0.585229 0.466835
0.273747 0.592828 0.479377
0.458991 0.603296 0.516289
0.581445 0.614862 0.487617
0.756069 0.620203 0.505913
0.870603 0.605615 0.516960
0.967193 0.590295 0.523827
0.152224 0.685817 0.502861
0.204868 0.690181 0.509331
0.320592 0.691737 0.521630
0.461677 0.694453 0.552544
0.539361 0.683467 0.554894
0.663630 0.708339 0.505852
0.840299 0.713283 0.486763
0.957946 0.719966 0.554620
0.279088 0.778592 0.562463
0.305333 0.779324 0.566308
0.382422 0.780484 0.579644
0.490486 0.781094 0.606378
0.557763 0.775937 0.607843
0.626734 0.771298 0.615320
0.749294 0.800229 0.553552
0.920378 0.808652 0.520500
0.422187 0.879850 0.657984
0.437385 0.879973 0.661189
0.484749 0.879057 0.670588
0.562585 0.877836 0.691432
0.627131 0.875425 0.702419
0.676173 0.871031 0.707240
0.742947 0.882536 0.704952
0.855436 0.905028 0.656184
0.000000 0.111910 0.544640
0.088472 0.095186 0.555535
0.268498 0.000000 0.588067
0.462379 0.000000 0.634943
0.655848 0.000000 0.652033
0.780575 0.000000 0.615717
0.887602 0.000000 0.584649
0.982116 0.000000 0.566857
0.000000 0.170016 0.549584
0.040681 0.159365 0.560296
0.256107 0.094911 0.590906
0.457313 0.000000 0.637964
0.655573 0.000000 0.652644
0.779568 0.000000 0.615473
0.886351 0.000000 0.586206
0.980713 0.000000 0.570123
0.162600 0.337346 0.537072
0.188937 0.334356 0.550805
0.238651 0.281743 0.583429
0.433570 0.205447 0.635370
0.650385 0.150240 0.651789
0.770809 0.210880 0.614649
0.878813 0.252415 0.592493
0.974060 0.282475 0.580926
0.174716 0.440894 0.535027
0.215244 0.445411 0.540581
0.326726 0.462806 0.559075
0.431159 0.457527 0.614313
0.637812 0.428290 0.650813
0.758785 0.451667 0.624384
0.868345 0.460456 0.615076
0.966278 0.463600 0.609369
0.042512 0.564752 0.562646
0.140993 0.569329 0.567895
0.283604 0.582940 0.583734
0.446357 0.604395 0.609644
0.608789 0.627253 0.638880
0.738888 0.622522 0.639979
0.854124 0.614649 0.639063
0.955444 0.605859 0.637781
0.000000 0.694759 0.585718
0.055268 0.696742 0.588006
0.259678 0.698634 0.594385
0.424414 0.701686 0.610010
0.581720 0.703700 0.641962
0.681636 0.715328 0.622766
0.842435 0.731533 0.644526
0.949035 0.725277 0.658228
0.220432 0.786465 0.617731
0.251896 0.786191 0.619440
0.340520 0.786374 0.626886
0.457710 0.787350 0.643366
0.583917 0.787686 0.672297
0.651484 0.777859 0.676265
0.759030 0.802090 0.633814
0.922881 0.810300 0.619074
0.377874 0.881590 0.685695
0.393683 0.881224 0.687373
0.445380 0.880339 0.693874
0.528985 0.882811 0.710842
0.622400 0.881102 0.731289
0.683497 0.877714 0.734005
0.749355 0.878538 0.743709
0.858091 0.903044 0.696559
0.000000 0.155184 0.680385
0.000000 0.144625 0.685847
0.231388 0.082124 0.702358
0.403143 0.000000 0.731228
0.588617 0.000000 0.757107
0.766690 0.000000 0.763088
0.877104 0.000000 0.725307
0.975128 0.000000 0.695918
0.000000 0.202029 0.677577
0.000000 0.192905 0.682551
0.223026 0.152529 0.699794
0.395361 0.000000 0.729366
0.583948 0.000000 0.755642
0.764065 0.000000 0.761440
0.874937 0.000000 0.724422
0.973327 0.000000 0.696132
0.145937 0.352117 0.674098
0.138705 0.333349 0.679347
0.227726 0.300755 0.697902
0.384222 0.248112 0.727993
0.576837 0.111727 0.759426
0.761715 0.068116 0.762570
0.871519 0.176638 0.727291
0.969879 0.223941 0.701778
0.279240 0.483711 0.648615
0.300908 0.486366 0.652552
0.352911 0.489235 0.678828
0.409918 0.453071 0.718166
0.570153 0.401007 0.759762
0.757656 0.392432 0.766445
0.866087 0.420172 0.737575
0.964538 0.428168 0.715846
0.239536 0.568383 0.661280
0.268772 0.571313 0.664271
0.355138 0.581445 0.673762
0.475410 0.601190 0.689265
0.571740 0.601221 0.730220
0.738369 0.581018 0.758938
0.850401 0.591272 0.742275
0.952239 0.588159 0.730465
0.164584 0.675990 0.677485
0.207156 0.679164 0.681086
0.310582 0.686275 0.689509
0.439948 0.697353 0.703182
0.577661 0.711879 0.721706
0.715358 0.735531 0.750362
0.837308 0.733394 0.753689
0.942504 0.726833 0.753140
0.153445 0.795651 0.700771
0.196078 0.797452 0.703059
0.294377 0.800931 0.707942
0.418860 0.804868 0.716579
0.558282 0.804837 0.729671
0.692317 0.805966 0.754116
0.780545 0.812924 0.732998
0.930144 0.827573 0.752926
0.317174 0.890654 0.736660
0.336004 0.890288 0.737484
0.396246 0.889433 0.741085
0.486091 0.889616 0.749905
0.586633 0.888975 0.761685
0.697841 0.887388 0.782956
0.766171 0.880400 0.791501
0.865721 0.903502 0.755337
0.000000 0.215457 0.786313
0.000000 0.208713 0.790433
0.213687 0.173953 0.800809
0.363043 0.000000 0.819059
0.527977 0.000000 0.842924
0.698451 0.000000 0.852323
0.862852 0.000000 0.853178
0.962402 0.000000 0.814969
0.000000 0.250401 0.782193
0.002564 0.244205 0.786130
0.212497 0.214511 0.796658
0.357733 0.130648 0.814542
0.521080 0.000000 0.838560
0.693202 0.000000 0.848753
0.857816 0.000000 0.849210
0.957763 0.000000 0.811368
0.117891 0.359503 0.780758
0.144228 0.351568 0.783780
0.236362 0.330968 0.793606
0.358679 0.285588 0.811734
0.511650 0.173739 0.835843
0.689052 0.000000 0.850523
0.857786 0.000000 0.851377
0.958404 0.000000 0.815824
0.325048 0.517876 0.765011
0.335454 0.515770 0.768490
0.356909 0.498390 0.781796
0.392523 0.452003 0.803128
0.513329 0.400549 0.829435
0.685542 0.325597 0.853635
0.855558 0.330236 0.854429
0.955596 0.354192 0.821744
0.353185 0.597894 0.750271
0.369146 0.599207 0.750790
0.423255 0.606012 0.754208
0.488991 0.612665 0.773190
0.534661 0.576410 0.809049
0.673091 0.526024 0.846036
0.843198 0.523339 0.850675
0.946593 0.539055 0.827665
0.316350 0.676417 0.761318
0.335088 0.677790 0.762600
0.394507 0.682673 0.766995
0.483742 0.692042 0.775082
0.589044 0.706447 0.786313
0.677394 0.706996 0.825101
0.833860 0.691981 0.851926
0.938262 0.696193 0.836362
0.263951 0.775906 0.777707
0.286992 0.777462 0.779477
0.353857 0.780850 0.783688
0.449195 0.786954 0.791287
0.560510 0.794827 0.801602
0.681331 0.808255 0.818235
0.814725 0.831968 0.845762
0.927123 0.829160 0.848081
0.272770 0.887755 0.802029
0.291905 0.888334 0.802853
0.355779 0.892515 0.807889
0.441596 0.896635 0.813291
0.542992 0.901091 0.819944
0.665949 0.900359 0.829221
0.795254 0.898589 0.850156
0.879576 0.906157 0.832792
0.134524 0.304356 0.883482
0.165469 0.295720 0.885679
0.245060 0.266850 0.890715
0.352972 0.200717 0.901244
0.483497 0.000000 0.915496
0.640589 0.000000 0.932555
0.799771 0.000000 0.934478
0.953033 0.000000 0.931121
0.151583 0.327520 0.880980
0.178744 0.321660 0.883085
0.251041 0.295384 0.888548
0.353185 0.236484 0.898863
0.480598 0.001709 0.913390
0.636133 0.000000 0.930816
0.796780 0.000000 0.932891
0.950774 0.000000 0.929595
0.216159 0.408148 0.876127
0.231601 0.403204 0.877989
0.279820 0.381537 0.883085
0.365515 0.341131 0.895567
0.478798 0.251438 0.910307
0.626184 0.000000 0.928069
0.792142 0.000000 0.932341
0.948699 0.000000 0.929351
0.376013 0.552392 0.865293
0.373144 0.544152 0.867857
0.358099 0.508171 0.875151
0.401709 0.473640 0.887510
0.489845 0.418891 0.903960
0.619287 0.307378 0.923796
0.786709 0.208042 0.932952
0.946410 0.203861 0.930449
0.455665 0.652033 0.843778
0.461311 0.651728 0.846586
0.476600 0.646082 0.854429
0.503868 0.630426 0.870115
0.518456 0.572015 0.890105
0.618677 0.510582 0.912749
0.777615 0.435523 0.931182
0.940764 0.446967 0.930785
0.443000 0.712337 0.847715
0.452247 0.712428 0.847654
0.485023 0.713680 0.848234
0.539269 0.717098 0.850614
0.599054 0.718196 0.862791
0.640528 0.680293 0.896452
0.773831 0.634546 0.929412
0.936095 0.637079 0.933867
0.413275 0.786801 0.860075
0.423346 0.786862 0.860197
0.457679 0.787320 0.861112
0.515526 0.789670 0.864164
0.591882 0.793790 0.869200
0.686793 0.802396 0.877317
0.776822 0.802609 0.910094
0.924987 0.790860 0.932616
0.379156 0.879698 0.877409
0.390326 0.879911 0.877745
0.428901 0.881346 0.879637
0.490913 0.883787 0.883055
0.570428 0.887327 0.887999
0.667201 0.892271 0.895109
0.783749 0.900725 0.906615
0.911620 0.921569 0.930175
