data/fiter_cube/28334299/1023163/file.cube
# Created by Adobe Lightroom plugin Export LUT (1.17.0)
# www.johnrellis.com/lightroom/exportlut.htm
# Preset: 梦幻人像_02 云集
# Color profile: C:\Program Files (x86)\Common Files\Adobe\Color\Profiles\Recommended\AdobeRGB1998.icc
LUT_3D_SIZE 5
DOMAIN_MIN 0.000000 0.000000 0.000000
DOMAIN_MAX 0.903226 0.903226 0.903226
0.097353 0.069123 0.076753
0.290410 0.000000 0.067018
0.624445 0.000000 0.000000
0.850767 0.000000 0.057069
1.000000 0.000000 0.159670
0.102052 0.212955 0.128817
0.234073 0.238315 0.092653
0.609583 0.272648 0.000000
0.841978 0.208438 0.067262
1.000000 0.182010 0.180545
0.121370 0.481910 0.268223
0.212039 0.481178 0.246921
0.485359 0.529351 0.177890
0.819272 0.529808 0.132845
0.991608 0.477180 0.231632
0.246036 0.697932 0.428656
0.327672 0.700435 0.442237
0.433234 0.685389 0.431281
0.662593 0.722438 0.333745
0.953002 0.725185 0.323552
0.460761 0.874693 0.627649
0.507836 0.873350 0.642359
0.565820 0.864927 0.635767
0.675929 0.862272 0.673182
0.848295 0.904417 0.589410
0.089998 0.071534 0.195834
0.276585 0.000000 0.254307
0.608026 0.000000 0.267399
0.831296 0.000000 0.252262
0.995789 0.000000 0.289281
0.097169 0.223423 0.216861
0.263401 0.255406 0.252445
0.600244 0.227176 0.249912
0.825315 0.198581 0.260716
0.992920 0.210391 0.301305
0.084535 0.492012 0.324010
0.259861 0.503746 0.341527
0.491402 0.529076 0.285344
0.807523 0.526116 0.297642
0.983124 0.489479 0.345708
0.238621 0.701534 0.458076
0.332128 0.704799 0.475257
0.453834 0.694575 0.471717
0.668116 0.723781 0.397345
0.951141 0.728481 0.404089
0.447547 0.875914 0.635126
0.496376 0.874571 0.648829
0.587884 0.872343 0.665858
0.686275 0.864591 0.694179
0.852415 0.906157 0.616052
0.000000 0.096803 0.471382
0.242802 0.000000 0.513725
0.584771 0.000000 0.578149
0.815488 0.000000 0.529839
0.985199 0.000000 0.505974
0.137514 0.291966 0.468727
0.205539 0.238621 0.512963
0.585901 0.077333 0.583825
0.808133 0.187167 0.532799
0.980835 0.268650 0.525078
0.000000 0.499947 0.495064
0.236149 0.517235 0.515038
0.546624 0.562188 0.570581
0.782773 0.552819 0.573480
0.965301 0.540307 0.575616
0.143709 0.715236 0.551202
0.278172 0.715877 0.559014
0.524956 0.720577 0.606714
0.692287 0.734218 0.569482
0.947326 0.747921 0.606500
0.399451 0.878965 0.667964
0.451545 0.879515 0.677516
0.590875 0.878782 0.709926
0.694697 0.870970 0.723293
0.854826 0.902556 0.672297
0.000000 0.166629 0.704952
0.180545 0.126253 0.720577
0.480995 0.000000 0.769253
0.790188 0.000000 0.785672
0.971008 0.000000 0.726467
0.000000 0.299168 0.702571
0.180880 0.274937 0.717342
0.464088 0.133608 0.765225
0.785672 0.000000 0.784146
0.966155 0.095338 0.727352
0.283665 0.527520 0.673854
0.358923 0.538170 0.681514
0.477699 0.516472 0.738705
0.767483 0.465644 0.779141
0.954437 0.491707 0.743374
0.194827 0.703304 0.705226
0.293034 0.707485 0.710567
0.505150 0.724849 0.732174
0.740291 0.760189 0.775174
0.937255 0.751369 0.776120
0.293889 0.892882 0.751858
0.360906 0.892851 0.755550
0.526757 0.893187 0.769650
0.722042 0.890837 0.799985
0.867765 0.903258 0.772000
0.134524 0.304356 0.883482
0.222019 0.276646 0.888945
0.415229 0.128786 0.908049
0.680812 0.000000 0.933806
0.953033 0.000000 0.931121
0.198367 0.385199 0.878386
0.254612 0.364996 0.884062
0.416175 0.271458 0.903899
0.671351 0.000000 0.932586
0.950164 0.000000 0.930053
0.418067 0.605859 0.855375
0.435279 0.596857 0.863005
0.458381 0.520378 0.887755
0.652674 0.378393 0.923339
0.943572 0.336309 0.930266
0.439948 0.731533 0.852293
0.472114 0.732326 0.852750
0.571344 0.738064 0.857389
0.672145 0.708705 0.898833
0.934051 0.677852 0.934051
0.379156 0.879698 0.877409
0.416938 0.880949 0.879118
0.528985 0.885466 0.885344
0.694697 0.893919 0.897459
0.911620 0.921569 0.930175
