data/fiter_cube/28334299/1023163/file.cube
# Created by Adobe Lightroom plugin Export LUT (1.17.0)
# www.johnrellis.com/lightroom/exportlut.htm
# Preset: 梦幻人像_02 云集
# Color profile: C:\Program Files (x86)\Common Files\Adobe\Color\Profiles\Recommended\AdobeRGB1998.icc
LUT_3D_SIZE 32
DOMAIN_MIN 0.0 0.0 0.0
DOMAIN_MAX 1.0 1.0 1.0
0.097353 0.069123 0.076753
0.098604 0.068818 0.076722
0.103334 0.068391 0.076936
0.124453 0.065705 0.076234
0.159213 0.059663 0.075044
0.198642 0.044587 0.073274
0.242588 0.014252 0.070466
0.290410 0.000000 0.067018
0.340551 0.000000 0.061219
0.391241 0.000000 0.050690
0.441901 0.000000 0.033082
0.491188 0.000000 0.015473
0.538262 0.000000 0.000000
0.582910 0.000000 0.000000
0.624445 0.000000 0.000000
0.663416 0.000000 0.000000
0.698421 0.000000 0.000000
0.730007 0.000000 0.000000
0.763210 0.000000 0.000000
0.794247 0.000000 0.004883
0.823362 0.000000 0.028595
0.850767 0.000000 0.057069
0.876280 0.000000 0.071595
0.900267 0.000000 0.084932
0.922942 0.000000 0.098787
0.944671 0.000000 0.112245
0.965942 0.000000 0.126528
0.986908 0.000000 0.142458
1.000000 0.000000 0.159670
1.000000 0.000000 0.178439
1.000000 0.000000 0.200046
1.000000 0.000000 0.224369
0.097230 0.069978 0.077028
0.098085 0.070588 0.076967
0.103334 0.071656 0.076692
0.124422 0.072663 0.075746
0.158816 0.070893 0.074617
0.197696 0.066468 0.072694
0.241459 0.057710 0.069612
0.288792 0.029328 0.066133
0.338293 0.000000 0.060212
0.388983 0.000000 0.049470
0.439185 0.000000 0.031922
0.488411 0.000000 0.014099
0.535454 0.000000 0.000000
0.579950 0.000000 0.000000
0.621454 0.000000 0.000000
0.660304 0.000000 0.000000
0.695460 0.000000 0.000000
0.727230 0.000000 0.000000
0.760311 0.000000 0.000000
0.790890 0.000000 0.000824
0.819730 0.000000 0.024262
0.847044 0.000000 0.052857
0.872648 0.000000 0.069795
0.896788 0.000000 0.083345
0.919677 0.000000 0.096162
0.941680 0.000000 0.109773
0.963226 0.000000 0.124605
0.984497 0.000000 0.139956
1.000000 0.000000 0.157107
1.000000 0.000000 0.176181
1.000000 0.000000 0.197574
1.000000 0.000000 0.221714
0.097322 0.073823 0.077729
0.098543 0.073915 0.077668
0.102022 0.075410 0.077119
0.123873 0.081819 0.075685
0.158206 0.083680 0.073884
0.196963 0.082979 0.071717
0.240055 0.078645 0.069245
0.287022 0.072084 0.064729
0.336522 0.059998 0.058961
0.386908 0.022553 0.045960
0.437018 0.000000 0.028168
0.486152 0.000000 0.011749
0.533165 0.000000 0.000000
0.577722 0.000000 0.000000
0.619379 0.000000 0.000000
0.658381 0.000000 0.000000
0.693660 0.000000 0.000000
0.725460 0.000000 0.000000
0.758633 0.000000 0.000000
0.788876 0.000000 0.001343
0.817685 0.000000 0.023041
0.844999 0.000000 0.051301
0.870695 0.000000 0.068330
0.894926 0.000000 0.082307
0.917906 0.000000 0.095369
0.940002 0.000000 0.109133
0.961669 0.000000 0.123812
0.983093 0.000000 0.139528
1.000000 0.000000 0.156283
1.000000 0.000000 0.175631
1.000000 0.000000 0.196750
1.000000 0.000000 0.221103
0.097871 0.089113 0.081849
0.099977 0.089937 0.081117
0.103243 0.089601 0.081025
0.118257 0.096407 0.078157
0.155093 0.106203 0.074067
0.196048 0.110506 0.070436
0.238804 0.111025 0.066987
0.285466 0.109743 0.062257
0.334508 0.106416 0.053864
0.384619 0.099763 0.038117
0.434668 0.089723 0.020752
0.483711 0.072572 0.004181
0.530449 0.039185 0.000000
0.574945 0.000000 0.000000
0.616602 0.000000 0.000000
0.655634 0.000000 0.000000
0.691127 0.000000 0.000000
0.723659 0.000000 0.000000
0.756252 0.000000 0.000000
0.785855 0.000000 0.000000
0.814145 0.000000 0.022370
0.841276 0.000000 0.049409
0.867216 0.000000 0.067628
0.891997 0.000000 0.081636
0.915740 0.000000 0.094911
0.938567 0.000000 0.109102
0.960754 0.000000 0.123720
0.982452 0.000000 0.140169
1.000000 0.000000 0.157565
1.000000 0.000000 0.176547
1.000000 0.000000 0.197513
1.000000 0.000000 0.221134
0.097749 0.115785 0.089418
0.101778 0.116762 0.089204
0.103975 0.116518 0.086580
0.114595 0.115267 0.088075
0.141787 0.126192 0.079835
0.186618 0.137179 0.071351
0.234501 0.145052 0.065003
0.282078 0.148623 0.058534
0.330846 0.149020 0.045808
0.380621 0.147646 0.029847
0.430640 0.143343 0.011902
0.479255 0.137575 0.000000
0.526207 0.128634 0.000000
0.570825 0.116030 0.000000
0.612909 0.100679 0.000000
0.652399 0.080232 0.000000
0.688563 0.037934 0.000000
0.722621 0.000000 0.000000
0.754726 0.000000 0.000000
0.783932 0.000000 0.000000
0.811948 0.000000 0.021057
0.838926 0.000000 0.047730
0.864836 0.000000 0.067628
0.889738 0.000000 0.081788
0.913695 0.000000 0.096254
0.936767 0.000000 0.109804
0.959106 0.000000 0.124758
0.980957 0.000000 0.140841
1.000000 0.000000 0.158633
1.000000 0.000000 0.177279
1.000000 0.000000 0.198215
1.000000 0.000000 0.221653
0.098695 0.144411 0.100008
0.104097 0.145663 0.100649
0.107790 0.145480 0.098878
0.115175 0.144137 0.095277
0.132692 0.145632 0.096010
0.168460 0.158816 0.083650
0.220523 0.172610 0.068849
0.273472 0.184268 0.057771
0.328222 0.191592 0.035065
0.377905 0.192721 0.017700
0.427619 0.192325 0.000244
0.476326 0.189181 0.000000
0.523156 0.183597 0.000000
0.567864 0.175906 0.000000
0.610132 0.167544 0.000000
0.649897 0.155276 0.000000
0.686213 0.142733 0.000000
0.721920 0.128542 0.000000
0.753597 0.111727 0.000000
0.782834 0.093355 0.000000
0.810941 0.071077 0.020539
0.838163 0.023865 0.052033
0.884825 0.000000 0.086336
0.908598 0.000000 0.100496
0.931029 0.000000 0.115145
0.952422 0.000000 0.129519
0.973175 0.000000 0.144076
0.993408 0.000000 0.160342
1.000000 0.000000 0.177432
1.000000 0.063294 0.196445
1.000000 0.100893 0.217044
1.000000 0.136385 0.240116
0.100862 0.178744 0.114168
0.106142 0.179843 0.114504
0.111910 0.180636 0.114046
0.117647 0.179568 0.107820
0.133120 0.176944 0.108156
0.157229 0.183444 0.104219
0.201724 0.198917 0.088167
0.261418 0.215488 0.066285
0.319493 0.229984 0.042969
0.378912 0.239933 0.009491
0.432349 0.242405 0.000000
0.481270 0.240757 0.000000
0.527947 0.236820 0.000000
0.572259 0.230900 0.000000
0.613947 0.223148 0.000000
0.652766 0.214115 0.000000
0.690730 0.204013 0.000000
0.726375 0.193484 0.000000
0.757961 0.182193 0.000000
0.787716 0.170535 0.004334
0.817105 0.159579 0.036042
0.846067 0.148196 0.065278
0.874052 0.138766 0.082124
0.900572 0.129000 0.098512
0.925353 0.122316 0.114565
0.948180 0.117464 0.129885
0.969635 0.116060 0.145449
0.990326 0.118288 0.161685
1.000000 0.125032 0.178500
1.000000 0.137301 0.197055
1.000000 0.154299 0.217655
1.000000 0.176547 0.240635
0.102052 0.212955 0.128817
0.106966 0.213993 0.129091
0.113863 0.215366 0.129122
0.120638 0.214603 0.123751
0.129183 0.212619 0.115175
0.153262 0.208438 0.121828
0.183902 0.221469 0.111696
0.234073 0.238315 0.092653
0.298772 0.255558 0.064546
0.358923 0.271427 0.025360
0.418891 0.281804 0.000000
0.476570 0.286900 0.000000
0.523308 0.284092 0.000000
0.567681 0.279271 0.000000
0.609583 0.272648 0.000000
0.649500 0.264836 0.000000
0.688869 0.256870 0.000000
0.723445 0.247379 0.000000
0.754513 0.237095 0.000000
0.783963 0.227207 0.003571
0.813199 0.217563 0.038727
0.841978 0.208438 0.067262
0.869841 0.200534 0.083650
0.896422 0.193301 0.100465
0.921294 0.187045 0.116518
0.944396 0.182467 0.131716
0.966125 0.179873 0.147341
0.987091 0.178988 0.163668
1.000000 0.182010 0.180545
1.000000 0.188510 0.198856
1.000000 0.199344 0.219333
1.000000 0.214908 0.242344
0.101991 0.250340 0.145571
0.106874 0.251377 0.145632
0.113771 0.252689 0.145449
0.123537 0.253330 0.142153
0.132204 0.251377 0.132815
0.150546 0.248051 0.130068
0.176455 0.245518 0.135683
0.214267 0.262486 0.119631
0.268894 0.279728 0.097566
0.336950 0.297307 0.061982
0.398413 0.312902 0.005463
0.457771 0.322911 0.000000
0.514977 0.328405 0.000000
0.563958 0.326360 0.000000
0.606592 0.320806 0.000000
0.649042 0.314763 0.000000
0.687068 0.306645 0.000000
0.720912 0.297581 0.000000
0.751644 0.287572 0.000000
0.780972 0.277623 0.009369
0.810056 0.268925 0.045258
0.838743 0.260319 0.070405
0.866545 0.252689 0.088319
0.893065 0.246036 0.103883
0.918029 0.240116 0.120211
0.941283 0.234806 0.135409
0.963226 0.231235 0.151217
0.984375 0.229526 0.166812
1.000000 0.230167 0.183841
1.000000 0.233890 0.202548
1.000000 0.241032 0.222629
1.000000 0.252506 0.245365
0.101625 0.289311 0.163455
0.106630 0.290013 0.163394
0.113527 0.291203 0.163241
0.126558 0.292821 0.161776
0.135378 0.290959 0.152590
0.146181 0.288762 0.141360
0.174472 0.284031 0.146761
0.203403 0.287205 0.146853
0.246464 0.304173 0.128420
0.303960 0.321263 0.103731
0.374151 0.339208 0.062531
0.435126 0.352239 0.000000
0.493660 0.361822 0.000000
0.550774 0.367529 0.000000
0.606073 0.369635 0.000000
0.647913 0.363531 0.000000
0.685786 0.355444 0.000000
0.719570 0.345861 0.000000
0.750118 0.336034 0.000000
0.779171 0.325994 0.022431
0.807797 0.316899 0.057404
0.835721 0.308354 0.076234
0.862852 0.300298 0.092988
0.888853 0.293187 0.108431
0.913542 0.286870 0.123964
0.936919 0.281315 0.138766
0.959258 0.277073 0.154177
0.980926 0.274449 0.170443
1.000000 0.274022 0.188052
1.000000 0.275914 0.206455
1.000000 0.281346 0.227115
1.000000 0.290501 0.250523
0.100954 0.327184 0.182010
0.105989 0.327947 0.181827
0.113466 0.328954 0.181552
0.128267 0.331121 0.181308
0.138857 0.330022 0.173709
0.150149 0.328161 0.163149
0.169955 0.325139 0.157259
0.200870 0.320378 0.166079
0.233188 0.329015 0.159213
0.279973 0.345830 0.138888
0.339269 0.362249 0.111604
0.411566 0.381048 0.068147
0.473030 0.392645 0.000000
0.532555 0.402747 0.000000
0.587945 0.407477 0.000000
0.639521 0.408026 0.000000
0.682246 0.402533 0.000000
0.715816 0.392798 0.000000
0.746456 0.382025 0.000000
0.775479 0.371862 0.032898
0.804135 0.362402 0.065492
0.832120 0.353765 0.082582
0.859403 0.345892 0.098939
0.885557 0.338384 0.114931
0.910369 0.331792 0.130068
0.933837 0.325719 0.144747
0.956207 0.320714 0.160037
0.977935 0.317327 0.176120
0.999207 0.315618 0.192630
1.000000 0.316197 0.211398
1.000000 0.319860 0.232090
1.000000 0.326940 0.255100
0.102449 0.365423 0.201511
0.107576 0.366125 0.201419
0.114870 0.366979 0.201389
0.129702 0.368841 0.201297
0.144747 0.369146 0.196719
0.156130 0.367376 0.187015
0.169039 0.365362 0.175174
0.198581 0.361273 0.178470
0.229496 0.356359 0.188602
0.264866 0.370520 0.173617
0.315221 0.388464 0.152193
0.377264 0.406195 0.123812
0.465492 0.439429 0.081361
0.528771 0.448341 0.009064
0.587304 0.456245 0.000000
0.640345 0.458625 0.000000
0.687495 0.456062 0.000000
0.728725 0.449622 0.009308
0.758785 0.437812 0.050294
0.786954 0.426398 0.073640
0.814603 0.415686 0.089265
0.841428 0.406012 0.104738
0.867247 0.396796 0.118776
0.892088 0.388586 0.133669
0.915801 0.380987 0.147433
0.938415 0.374243 0.162142
0.960052 0.368597 0.176333
0.981079 0.364111 0.191501
1.000000 0.361578 0.208286
1.000000 0.360998 0.226139
1.000000 0.363256 0.246372
1.000000 0.368750 0.268956
0.105898 0.408392 0.224704
0.111452 0.408820 0.224765
0.119142 0.409339 0.224674
0.134524 0.410498 0.224552
0.153750 0.411383 0.222904
0.164645 0.409216 0.213443
0.177432 0.406683 0.202213
0.195529 0.403754 0.193759
0.230747 0.400427 0.204166
0.262882 0.401068 0.212284
0.303563 0.420020 0.194339
0.357214 0.438972 0.172000
0.421607 0.456947 0.142184
0.494148 0.473030 0.098512
0.558984 0.482063 0.042206
0.615717 0.489113 0.000000
0.665675 0.490211 0.014099
0.709010 0.486397 0.046082
0.747585 0.479561 0.069032
0.781094 0.470253 0.082887
0.808774 0.459113 0.098726
0.835752 0.448890 0.112764
0.861723 0.439216 0.126894
0.886748 0.430365 0.140627
0.910704 0.422156 0.154208
0.933532 0.414801 0.168002
0.955413 0.408515 0.182376
0.976715 0.403418 0.197543
0.997589 0.399817 0.213962
1.000000 0.398383 0.231571
1.000000 0.399390 0.251560
1.000000 0.403540 0.274632
0.110964 0.443549 0.245151
0.117006 0.443977 0.245121
0.124575 0.444343 0.245060
0.139528 0.445380 0.245274
0.161685 0.447364 0.246189
0.174533 0.446632 0.239200
0.187320 0.445380 0.229557
0.201511 0.443977 0.218875
0.229618 0.441413 0.220432
0.263798 0.438025 0.231754
0.295872 0.443641 0.232395
0.338384 0.461616 0.213687
0.391913 0.478859 0.189853
0.454719 0.494697 0.159396
0.524681 0.508446 0.117311
0.587335 0.514000 0.070863
0.641016 0.519310 0.035737
0.687312 0.518700 0.060151
0.728267 0.514336 0.080079
0.765682 0.508019 0.095735
0.801358 0.501091 0.108736
0.830198 0.491249 0.122103
0.856474 0.481147 0.135409
0.881834 0.471778 0.148989
0.906065 0.463020 0.162387
0.929168 0.455146 0.176211
0.951385 0.448127 0.190127
0.972930 0.442390 0.204929
0.994079 0.438209 0.221317
1.000000 0.435889 0.239475
1.000000 0.436072 0.259434
1.000000 0.439094 0.282475
0.121370 0.481910 0.268223
0.126833 0.482551 0.268650
0.133913 0.482856 0.268742
0.148898 0.483803 0.269291
0.170230 0.485206 0.270329
0.186831 0.484901 0.266545
0.198886 0.483070 0.257115
0.212039 0.481178 0.246921
0.227756 0.479469 0.237278
0.263218 0.476173 0.247684
0.295903 0.472694 0.259586
0.328435 0.483223 0.252445
0.371344 0.499886 0.232822
0.424323 0.515496 0.208286
0.485359 0.529351 0.177890
0.552422 0.540734 0.136721
0.613336 0.543572 0.091127
0.663661 0.547234 0.076570
0.707759 0.545678 0.084291
0.747066 0.541466 0.104616
0.784054 0.535912 0.119936
0.819272 0.529808 0.132845
0.851011 0.522393 0.145418
0.876616 0.512444 0.158450
0.901244 0.503227 0.171939
0.924804 0.495003 0.185183
0.947601 0.487678 0.199893
0.969818 0.481697 0.214969
0.991608 0.477180 0.231632
1.000000 0.474678 0.250431
1.000000 0.474556 0.271580
1.000000 0.477089 0.295415
0.134005 0.518059 0.291478
0.139376 0.518578 0.291814
0.145815 0.518914 0.292027
0.159884 0.519829 0.292699
0.180087 0.521080 0.294163
0.201175 0.521843 0.293858
0.212650 0.520378 0.285893
0.225223 0.518608 0.276280
0.239322 0.517082 0.266850
0.263951 0.514519 0.266117
0.297337 0.510552 0.276768
0.328038 0.506523 0.288640
0.360388 0.520439 0.272801
0.402808 0.534874 0.251804
0.454017 0.548089 0.226566
0.512505 0.559625 0.195743
0.576898 0.569451 0.156344
0.636469 0.570459 0.110140
0.684718 0.573358 0.102266
0.727840 0.571923 0.105409
0.766629 0.568475 0.126741
0.803555 0.564111 0.143648
0.838346 0.558862 0.158206
0.871031 0.552819 0.171542
0.897948 0.544335 0.184176
0.921935 0.535546 0.197696
0.945006 0.527825 0.212131
0.967437 0.521294 0.227054
0.989380 0.516258 0.244205
1.000000 0.513024 0.262882
1.000000 0.511681 0.283177
1.000000 0.513054 0.306493
0.148318 0.550347 0.313207
0.152651 0.550591 0.313298
0.158938 0.550835 0.313695
0.171817 0.551476 0.314488
0.190585 0.552422 0.315984
0.214572 0.553704 0.318395
0.225681 0.552422 0.311772
0.237522 0.550744 0.303044
0.250614 0.548943 0.293889
0.264805 0.547234 0.284703
0.296941 0.543816 0.293004
0.328344 0.539849 0.303868
0.357183 0.539391 0.309728
0.390021 0.553368 0.291752
0.431891 0.566339 0.270115
0.481453 0.577935 0.244877
0.537926 0.588190 0.214450
0.600275 0.596948 0.176974
0.659144 0.598016 0.132540
0.704982 0.598596 0.125582
0.747005 0.596979 0.125734
0.785367 0.594293 0.147372
0.821714 0.590539 0.164920
0.855955 0.586114 0.181094
0.888090 0.580713 0.195407
0.917357 0.574395 0.209018
0.940887 0.566278 0.223423
0.963775 0.559380 0.238468
0.986023 0.553826 0.255161
1.000000 0.549981 0.274174
1.000000 0.548211 0.295323
1.000000 0.548913 0.318883
0.164309 0.581353 0.335149
0.168521 0.581933 0.335698
0.182345 0.595178 0.345739
0.194217 0.595575 0.346685
0.211582 0.596124 0.348272
0.233799 0.596857 0.350652
0.248966 0.595880 0.347387
0.259556 0.593805 0.339452
0.271763 0.591638 0.330877
0.284825 0.589471 0.321843
0.305180 0.586633 0.319005
0.336706 0.582300 0.328893
0.365881 0.577447 0.339422
0.392828 0.580621 0.337072
0.425513 0.592737 0.317876
0.466346 0.603967 0.295506
0.514549 0.613855 0.269566
0.568841 0.622248 0.239628
0.628321 0.629145 0.203220
0.687098 0.630823 0.162051
0.729793 0.627649 0.154147
0.770687 0.626001 0.156100
0.808560 0.623407 0.173159
0.843900 0.619989 0.191775
0.876738 0.615412 0.208499
0.907256 0.610071 0.223331
0.935729 0.604242 0.237217
0.960327 0.597467 0.251225
0.982605 0.590997 0.267735
1.000000 0.586450 0.286015
1.000000 0.583978 0.307317
1.000000 0.583886 0.331273
0.183413 0.614374 0.359533
0.188510 0.616297 0.361151
0.194797 0.618280 0.363012
0.206577 0.620111 0.365209
0.223270 0.621851 0.367834
0.244327 0.622950 0.370764
0.263493 0.623163 0.371221
0.273320 0.621332 0.364324
0.284642 0.619409 0.356359
0.296910 0.617395 0.348272
0.310002 0.615229 0.339696
0.336980 0.611627 0.344976
0.366430 0.607141 0.354864
0.393744 0.602075 0.364935
0.419532 0.609155 0.355230
0.451942 0.620050 0.335485
0.491829 0.629877 0.313176
0.538262 0.638514 0.287877
0.590692 0.646113 0.258701
0.648219 0.652461 0.224308
0.707362 0.655787 0.185306
0.748470 0.650752 0.176272
0.789212 0.650172 0.180056
0.827054 0.648157 0.194034
0.861753 0.645289 0.213779
0.894041 0.641505 0.231998
0.924071 0.636988 0.248112
0.952331 0.632288 0.264469
0.979034 0.627802 0.281071
1.000000 0.622675 0.299504
1.000000 0.619501 0.320134
1.000000 0.618738 0.344244
0.200626 0.641566 0.380468
0.205325 0.643183 0.382025
0.211276 0.644831 0.383673
0.222110 0.646509 0.385931
0.237797 0.647944 0.388525
0.257084 0.648798 0.391424
0.279881 0.649561 0.395453
0.288853 0.647944 0.389075
0.299107 0.646357 0.382177
0.310552 0.644556 0.374853
0.323003 0.642756 0.367285
0.339300 0.640284 0.362829
0.368414 0.636133 0.371801
0.395911 0.631617 0.381476
0.421546 0.626581 0.391363
0.446418 0.636835 0.374334
0.478462 0.646479 0.354589
0.517266 0.655268 0.332708
0.562402 0.663111 0.307713
0.613062 0.670100 0.279911
0.668482 0.675929 0.247410
0.727901 0.681147 0.210452
0.768124 0.674464 0.198795
0.808530 0.674739 0.204929
0.845975 0.673030 0.215793
0.880003 0.670710 0.237339
0.911589 0.667475 0.256870
0.941222 0.663813 0.275425
0.969177 0.660304 0.293889
0.995575 0.657160 0.312932
1.000000 0.654231 0.333288
1.000000 0.652705 0.357488
0.219852 0.667597 0.401831
0.224216 0.669032 0.403326
0.229679 0.670527 0.405035
0.239811 0.671992 0.407172
0.254215 0.673091 0.409857
0.271977 0.673884 0.412970
0.293034 0.674372 0.416693
0.306218 0.673579 0.414343
0.315465 0.671962 0.407935
0.326024 0.670283 0.401282
0.337255 0.668544 0.394232
0.349462 0.666651 0.387213
0.371832 0.663386 0.389929
0.399176 0.659297 0.398962
0.424842 0.654871 0.408515
0.448432 0.653986 0.411780
0.473915 0.663844 0.395117
0.506004 0.673274 0.376623
0.544518 0.682033 0.355993
0.588952 0.690059 0.332830
0.638392 0.697047 0.306706
0.692561 0.703120 0.276555
0.753353 0.710628 0.241672
0.793088 0.702785 0.228305
0.833249 0.703822 0.236973
0.870359 0.702510 0.246525
0.903593 0.700801 0.270726
0.934539 0.698543 0.293217
0.963561 0.696071 0.314641
0.990784 0.693874 0.336339
1.000000 0.692164 0.358679
1.000000 0.691218 0.381750
0.246036 0.697932 0.428656
0.249607 0.698634 0.429603
0.253758 0.699184 0.430610
0.262272 0.699672 0.432136
0.275151 0.700130 0.434363
0.291112 0.700404 0.437110
0.310521 0.700679 0.440986
0.327672 0.700435 0.442237
0.336339 0.699214 0.436805
0.346197 0.697932 0.431067
0.357153 0.696681 0.425330
0.368719 0.695186 0.419348
0.381659 0.693141 0.413947
0.407965 0.689479 0.422461
0.433234 0.685389 0.431281
0.457496 0.681056 0.440650
0.479316 0.683680 0.437568
0.504326 0.692683 0.420905
0.535515 0.701137 0.402777
0.572534 0.708949 0.382422
0.615045 0.716060 0.359564
0.662593 0.722438 0.333745
0.714565 0.727779 0.304234
0.774655 0.735897 0.269657
0.813748 0.726925 0.253147
0.853117 0.728328 0.264073
0.889494 0.727657 0.275822
0.922484 0.726497 0.298619
0.953002 0.725185 0.323552
0.981506 0.723964 0.348180
1.000000 0.723171 0.373236
1.000000 0.722896 0.398749
0.268925 0.721920 0.451301
0.272190 0.722621 0.452430
0.276432 0.723140 0.453468
0.284245 0.723598 0.455116
0.295811 0.723842 0.457282
0.310491 0.723934 0.459998
0.328374 0.723934 0.463630
0.348363 0.723934 0.468025
0.356481 0.722774 0.463416
0.365515 0.721614 0.458412
0.375463 0.720394 0.452979
0.386206 0.719051 0.447700
0.397345 0.717372 0.442145
0.415839 0.714839 0.443580
0.440558 0.711299 0.452094
0.464485 0.707515 0.461128
0.487526 0.703700 0.470832
0.507927 0.709712 0.461555
0.532860 0.718257 0.445747
0.563439 0.726528 0.428443
0.599603 0.734340 0.408881
0.641016 0.741482 0.387030
0.687221 0.747921 0.362737
0.737758 0.753323 0.334295
0.791623 0.756893 0.297459
0.833341 0.749874 0.277501
0.872190 0.751888 0.290501
0.908049 0.751980 0.305089
0.940764 0.751461 0.327306
0.970855 0.751278 0.355383
0.998932 0.751431 0.383368
1.000000 0.752224 0.412207
0.298894 0.749569 0.479591
0.301823 0.750271 0.480781
0.305455 0.750637 0.481788
0.312413 0.750759 0.483253
0.322667 0.750729 0.485115
0.335821 0.750484 0.487648
0.351812 0.750088 0.491035
0.370703 0.749599 0.495308
0.381445 0.748440 0.493446
0.389105 0.746883 0.488472
0.397650 0.745296 0.483375
0.407172 0.743740 0.478279
0.417334 0.741970 0.473182
0.427802 0.739895 0.467781
0.450080 0.736294 0.474311
0.472816 0.732418 0.482399
0.494789 0.728420 0.490822
0.516106 0.725063 0.499123
0.535241 0.733608 0.484962
0.559930 0.742123 0.469795
0.590143 0.750423 0.453254
0.625422 0.758175 0.434668
0.665370 0.765072 0.413428
0.709712 0.770901 0.389441
0.757992 0.775570 0.361364
0.811124 0.780056 0.329137
0.855467 0.774929 0.306462
0.893217 0.777127 0.321782
0.928252 0.777829 0.339422
0.960571 0.778012 0.361975
0.989929 0.778958 0.393133
1.000000 0.780545 0.425147
0.324102 0.772549 0.503716
0.326879 0.773220 0.504875
0.330449 0.773556 0.505974
0.336675 0.773709 0.507408
0.346197 0.773587 0.509300
0.358251 0.773342 0.511986
0.373175 0.773007 0.515343
0.390723 0.772580 0.519829
0.405005 0.771908 0.521386
0.412421 0.770748 0.517388
0.420569 0.769528 0.513207
0.429755 0.768276 0.509087
0.439490 0.766903 0.504723
0.449592 0.765347 0.500481
0.464332 0.762997 0.500511
0.486366 0.759701 0.508324
0.508019 0.756191 0.516655
0.529168 0.752773 0.525597
0.548547 0.753201 0.528649
0.567834 0.761746 0.515282
0.592096 0.770169 0.500999
0.621332 0.778134 0.484993
0.655238 0.785428 0.466773
0.693477 0.791897 0.446113
0.736019 0.797391 0.422705
0.782498 0.801755 0.395789
0.832822 0.805051 0.364874
0.879667 0.803616 0.344945
0.916472 0.804471 0.359686
0.950774 0.806149 0.381476
0.982483 0.807218 0.405280
1.000000 0.809720 0.441230
0.353307 0.797330 0.531151
0.355871 0.797757 0.532128
0.358770 0.797910 0.532921
0.364141 0.797818 0.534142
0.372534 0.797482 0.535912
0.383398 0.797024 0.538262
0.397040 0.796475 0.541436
0.413092 0.795956 0.545647
0.430549 0.795438 0.550378
0.437293 0.794430 0.546807
0.445106 0.793393 0.543420
0.453742 0.792447 0.539940
0.463020 0.791379 0.536614
0.472755 0.790097 0.533074
0.482673 0.788571 0.529625
0.501457 0.785824 0.534844
0.522393 0.782712 0.542779
0.542901 0.779660 0.551232
0.563287 0.776852 0.560693
0.580804 0.780514 0.558373
0.599908 0.788937 0.545800
0.623621 0.797024 0.532128
0.651789 0.804562 0.516655
0.684230 0.811490 0.499275
0.720821 0.817502 0.479408
0.761532 0.822599 0.456886
0.806180 0.826780 0.431159
0.854582 0.829923 0.401770
0.902495 0.830900 0.384344
0.938445 0.830686 0.398291
0.971923 0.833371 0.424109
1.000000 0.835813 0.452827
0.382910 0.821042 0.558556
0.385046 0.821286 0.559380
0.387701 0.821378 0.560113
0.392737 0.821378 0.561456
0.400732 0.821225 0.563409
0.411292 0.821134 0.566278
0.424872 0.821256 0.570397
0.440925 0.821500 0.575677
0.459663 0.821866 0.582300
0.470222 0.822080 0.582879
0.478767 0.822171 0.581353
0.488228 0.822202 0.579889
0.497993 0.822080 0.578393
0.507958 0.821592 0.576532
0.518059 0.820798 0.574548
0.530327 0.819333 0.574609
0.550225 0.816739 0.582269
0.569818 0.814206 0.590417
0.589349 0.811887 0.599268
0.608637 0.809781 0.608728
0.624323 0.816190 0.601892
0.642969 0.824063 0.590570
0.665431 0.831540 0.577844
0.691859 0.838437 0.563348
0.722255 0.844663 0.546624
0.756710 0.850126 0.527764
0.795071 0.854826 0.506523
0.837369 0.858640 0.482338
0.883482 0.861570 0.454871
0.931823 0.864591 0.440589
0.966552 0.863676 0.455268
0.998322 0.867216 0.486397
0.424689 0.850706 0.595911
0.426520 0.850858 0.596582
0.428656 0.850797 0.597162
0.433112 0.850553 0.598230
0.440040 0.850217 0.599908
0.449317 0.849790 0.602472
0.461036 0.849454 0.605921
0.475380 0.849119 0.610498
0.491951 0.848905 0.616205
0.504814 0.848631 0.619013
0.511955 0.848234 0.617243
0.519921 0.847868 0.615595
0.528222 0.847379 0.613733
0.536950 0.846769 0.611780
