data/fiter_cube/96471014/1022817/file.cube
# Created by Adobe Lightroom plugin Export LUT (1.17.0)
# www.johnrellis.com/lightroom/exportlut.htm
# Preset: 复兴岛红裙子
# Color profile: C:\Program Files (x86)\Common Files\Adobe\Color\Profiles\Recommended\AdobeRGB1998.icc
LUT_3D_SIZE 5
DOMAIN_MIN 0.000000 0.000000 0.000000
DOMAIN_MAX 0.903226 0.903226 0.903226
0.070100 0.068849 0.071321
0.070558 0.068757 0.071321
0.135348 0.058778 0.071229
0.698787 0.000000 0.000000
1.000000 0.000000 0.000000
0.069917 0.070130 0.071229
0.070405 0.070069 0.071229
0.131319 0.062806 0.071168
0.742885 0.000000 0.000000
1.000000 0.000000 0.000000
0.000000 0.239048 0.011078
0.000000 0.228214 0.005371
0.299779 0.352239 0.000000
0.921386 0.523156 0.000000
1.000000 0.473823 0.000000
0.000000 0.818082 0.000000
0.000000 0.823636 0.000000
0.469398 0.810300 0.000000
0.857420 0.834226 0.000000
1.000000 0.787076 0.000000
0.000000 1.000000 0.000000
0.000000 1.000000 0.000000
0.392798 0.988647 0.000000
0.786923 0.967376 0.000000
0.998810 0.956634 0.000000
0.070100 0.068849 0.071321
0.070100 0.068849 0.071321
0.112215 0.064271 0.071656
0.558709 0.000000 0.000000
0.990906 0.000000 0.000000
0.070008 0.068849 0.071687
0.070497 0.068757 0.071687
0.116609 0.066773 0.071260
0.634852 0.000000 0.000000
1.000000 0.000000 0.000000
0.000000 0.183627 0.066773
0.000000 0.185916 0.046815
0.186221 0.230106 0.000000
0.864714 0.456214 0.000000
1.000000 0.454200 0.000000
0.000000 0.793393 0.000000
0.000000 0.805295 0.000000
0.393256 0.797147 0.000000
0.844388 0.819883 0.000000
1.000000 0.780667 0.000000
0.000000 1.000000 0.000000
0.000000 1.000000 0.000000
0.303166 0.999725 0.000000
0.778561 0.970794 0.000000
1.000000 0.957794 0.000000
0.040345 0.075471 0.127474
0.045258 0.075105 0.123384
0.117342 0.049744 0.114778
0.629358 0.000000 0.170443
0.986816 0.000000 0.000000
0.033997 0.076173 0.132448
0.042023 0.075074 0.126192
0.122713 0.045045 0.118776
0.620539 0.000000 0.149660
0.985962 0.000000 0.000000
0.000000 0.153445 0.139162
0.000000 0.152834 0.136690
0.132906 0.149020 0.129854
0.705165 0.000000 0.000000
1.000000 0.267521 0.000000
0.000000 0.668177 0.361334
0.000000 0.675715 0.317632
0.000000 0.750515 0.000000
0.814328 0.785428 0.000000
1.000000 0.732021 0.000000
0.000000 0.993744 0.447883
0.000000 0.998840 0.374823
0.000000 1.000000 0.000000
0.702266 0.969146 0.000000
0.996307 0.952758 0.000000
0.000000 0.136690 0.636164
0.000000 0.135653 0.631037
0.000000 0.000000 0.629694
0.617334 0.000000 0.610651
0.981689 0.000000 0.661555
0.000000 0.135988 0.632349
0.000000 0.133913 0.622187
0.000000 0.000000 0.627680
0.601373 0.000000 0.591913
0.976593 0.000000 0.644892
0.000000 0.307500 0.606104
0.000000 0.294743 0.599359
0.000000 0.071870 0.624567
0.601831 0.000000 0.591485
0.985321 0.000000 0.518761
0.000000 0.612421 0.640894
0.000000 0.604761 0.632349
0.000000 0.610620 0.636042
0.617090 0.590845 0.614984
0.975311 0.611841 0.533135
0.000000 0.956847 0.769497
0.000000 0.961334 0.760311
0.000000 0.979431 0.709590
0.339727 0.986053 0.395758
0.977813 0.946441 0.416541
0.000000 0.245487 0.934386
0.000000 0.244480 0.932677
0.000000 0.000000 0.933928
0.574609 0.000000 0.932280
0.913787 0.000000 0.919585
0.000000 0.244022 0.932067
0.000000 0.243107 0.930449
0.000000 0.000000 0.931670
0.565698 0.000000 0.927611
0.909239 0.000000 0.914885
0.000000 0.304723 0.928099
0.000000 0.289799 0.926879
0.000000 0.068574 0.926574
0.504234 0.000000 0.922148
0.910582 0.000000 0.914763
0.000000 0.675013 0.912840
0.000000 0.667689 0.910002
0.000000 0.609613 0.910552
0.000000 0.129061 0.930968
0.930663 0.000000 0.932708
0.000000 0.914977 0.912535
0.000000 0.914458 0.911772
0.000000 0.917906 0.913817
0.000000 0.920592 0.914214
0.887968 0.898863 0.905516
