data/fiter_cube/96471014/1022817/file.cube
# Created by Adobe Lightroom plugin Export LUT (1.17.0)
# www.johnrellis.com/lightroom/exportlut.htm
# Preset: 复兴岛红裙子
# Color profile: C:\Program Files (x86)\Common Files\Adobe\Color\Profiles\Recommended\AdobeRGB1998.icc
LUT_3D_SIZE 8
DOMAIN_MIN 0.000000 0.000000 0.000000
DOMAIN_MAX 0.903226 0.903226 0.903226
0.070100 0.068849 0.071321
0.070100 0.068849 0.071321
0.071839 0.068513 0.071656
0.097658 0.066712 0.072053
0.204807 0.000000 0.068727
0.590692 0.000000 0.000000
0.891875 0.000000 0.000000
1.000000 0.000000 0.000000
0.070100 0.068849 0.071321
0.070100 0.068849 0.071321
0.071839 0.068513 0.071656
0.091920 0.067292 0.071870
0.180514 0.020905 0.069642
0.515160 0.000000 0.004547
0.857908 0.000000 0.000000
1.000000 0.000000 0.000000
0.069520 0.072145 0.071443
0.069520 0.072145 0.071443
0.072358 0.071687 0.071046
0.100832 0.072084 0.071168
0.239658 0.016419 0.063630
0.662135 0.000000 0.000000
0.934478 0.000000 0.000000
1.000000 0.000000 0.000000
0.056214 0.123842 0.066773
0.055573 0.124880 0.066621
0.068757 0.132662 0.062806
0.148379 0.184726 0.029694
0.656764 0.356146 0.000000
0.869169 0.366796 0.000000
0.975891 0.367468 0.000000
1.000000 0.365087 0.000000
0.000000 0.396582 0.000000
0.000000 0.391943 0.000000
0.000000 0.397681 0.000000
0.178561 0.442420 0.000000
0.506676 0.514275 0.000000
0.860288 0.636347 0.000000
0.994720 0.619989 0.000000
1.000000 0.575158 0.000000
0.000000 0.733730 0.000000
0.000000 0.763180 0.000000
0.000000 0.761288 0.000000
0.265812 0.757778 0.000000
0.589380 0.764981 0.000000
0.816831 0.795712 0.000000
0.976654 0.806821 0.000000
1.000000 0.751461 0.000000
0.000000 0.931914 0.000000
0.000000 0.934600 0.000000
0.000000 0.929198 0.000000
0.252415 0.919066 0.000000
0.589532 0.896971 0.000000
0.785458 0.898985 0.000000
0.934752 0.903075 0.000000
1.000000 0.875792 0.000000
0.000000 1.000000 0.000000
0.000000 1.000000 0.000000
0.000000 1.000000 0.000000
0.166110 1.000000 0.000000
0.545769 0.980163 0.000000
0.748531 0.968383 0.000000
0.888304 0.963775 0.000000
0.998810 0.956634 0.000000
0.070100 0.068849 0.071321
0.070100 0.068849 0.071321
0.071015 0.068696 0.071321
0.088167 0.067750 0.071962
0.167880 0.034180 0.070283
0.461006 0.000000 0.025360
0.823697 0.000000 0.000000
0.991211 0.000000 0.000000
0.070100 0.068849 0.071321
0.070100 0.068849 0.071321
0.071015 0.068696 0.071321
0.087434 0.067903 0.071962
0.161379 0.040497 0.070588
0.429969 0.000000 0.035920
0.795102 0.000000 0.000000
0.977295 0.000000 0.000000
0.069856 0.070558 0.071199
0.069856 0.070558 0.071199
0.071626 0.070649 0.071168
0.093172 0.071534 0.071504
0.194186 0.053803 0.067414
0.544518 0.000000 0.000000
0.863951 0.000000 0.000000
1.000000 0.000000 0.000000
0.062257 0.107240 0.068849
0.061921 0.108461 0.068696
0.070253 0.113832 0.066133
0.111727 0.128481 0.061860
0.416358 0.218326 0.000000
0.742611 0.227726 0.000000
0.920348 0.276829 0.000000
1.000000 0.315251 0.000000
0.000000 0.355261 0.000000
0.000000 0.346685 0.000000
0.000000 0.340978 0.000000
0.138125 0.353796 0.000000
0.370733 0.408362 0.000000
0.807309 0.575341 0.000000
0.974426 0.591882 0.000000
1.000000 0.556664 0.000000
0.000000 0.687282 0.000000
0.000000 0.689204 0.000000
0.000000 0.691402 0.000000
0.177279 0.702663 0.000000
0.543175 0.727840 0.000000
0.799100 0.777127 0.000000
0.968048 0.797024 0.000000
1.000000 0.743709 0.000000
0.000000 0.906249 0.000000
0.000000 0.902525 0.000000
0.000000 0.901152 0.000000
0.156649 0.900175 0.000000
0.561059 0.884215 0.000000
0.768521 0.886595 0.000000
0.920439 0.890410 0.000000
1.000000 0.867063 0.000000
0.000000 1.000000 0.000000
0.000000 1.000000 0.000000
0.000000 1.000000 0.000000
0.000000 1.000000 0.000000
0.542138 0.986419 0.000000
0.746853 0.970397 0.000000
0.884977 0.962249 0.000000
0.995727 0.953918 0.000000
0.069764 0.068849 0.072755
0.069764 0.068849 0.072755
0.070344 0.068757 0.072389
0.087861 0.067384 0.071992
0.166903 0.035523 0.070344
0.485420 0.000000 0.016297
0.849699 0.000000 0.000000
1.000000 0.000000 0.000000
0.069764 0.068849 0.072755
0.069764 0.068849 0.072755
0.070802 0.068666 0.072389
0.086397 0.067720 0.072023
0.158236 0.044526 0.070680
0.466011 0.000000 0.020966
0.834928 0.000000 0.000000
0.996857 0.000000 0.000000
0.069520 0.070130 0.073030
0.069520 0.070130 0.073030
0.071412 0.070253 0.072602
0.091249 0.070405 0.072023
0.212894 0.050782 0.066072
0.591119 0.000000 0.000000
0.874784 0.000000 0.000000
1.000000 0.000000 0.000000
0.062501 0.102327 0.075959
0.061891 0.104402 0.076081
0.063081 0.113283 0.068727
0.113222 0.127657 0.064118
0.449714 0.217838 0.000000
0.769253 0.255589 0.000000
0.935058 0.308415 0.000000
1.000000 0.320653 0.000000
0.000000 0.316960 0.055177
0.000000 0.324041 0.030549
0.000000 0.342565 0.000000
0.119448 0.362188 0.000000
0.401556 0.427649 0.000000
0.818173 0.576623 0.000000
0.975616 0.590967 0.000000
1.000000 0.552575 0.000000
0.000000 0.665553 0.000000
0.000000 0.671015 0.000000
0.000000 0.678523 0.000000
0.000000 0.683253 0.000000
0.486519 0.699977 0.000000
0.777829 0.753719 0.000000
0.962646 0.784268 0.000000
1.000000 0.739681 0.000000
0.000000 0.906004 0.000000
0.000000 0.904723 0.000000
0.000000 0.902434 0.000000
0.000000 0.898955 0.000000
0.506615 0.881010 0.000000
0.754543 0.883330 0.000000
0.924743 0.893126 0.000000
1.000000 0.869047 0.000000
0.000000 1.000000 0.000000
0.000000 1.000000 0.000000
0.000000 1.000000 0.000000
0.000000 1.000000 0.000000
0.479042 0.988952 0.000000
0.728817 0.971099 0.000000
0.880247 0.963134 0.000000
0.997955 0.955230 0.000000
0.064607 0.071290 0.091768
0.064424 0.071290 0.092317
0.065156 0.070893 0.090150
0.087556 0.064668 0.087221
0.182101 0.000000 0.097353
0.489723 0.000000 0.087251
0.813382 0.000000 0.000000
0.978485 0.000000 0.000000
0.063600 0.071656 0.094667
0.063783 0.071687 0.094148
0.064973 0.070069 0.091310
0.088777 0.064332 0.088350
0.185122 0.000000 0.099519
0.478767 0.000000 0.088350
0.799191 0.000000 0.000000
0.976898 0.000000 0.000000
0.063600 0.071656 0.094667
0.063783 0.072053 0.093874
0.065370 0.069551 0.091859
0.090517 0.064729 0.089418
0.210300 0.000000 0.100832
0.529992 0.000000 0.050904
0.848356 0.000000 0.000000
1.000000 0.000000 0.000000
0.054261 0.100954 0.098024
0.055024 0.100679 0.097047
0.059571 0.101961 0.096895
0.096071 0.100252 0.094759
0.238865 0.098360 0.084810
0.627466 0.000000 0.000000
0.896574 0.000000 0.000000
1.000000 0.215854 0.000000
0.000000 0.248722 0.137240
0.000000 0.249699 0.134340
0.000000 0.276493 0.124910
0.000000 0.342046 0.000000
0.369787 0.395850 0.000000
0.829923 0.517266 0.000000
0.964569 0.517479 0.000000
1.000000 0.505852 0.000000
0.000000 0.632013 0.239078
0.000000 0.663020 0.244572
0.000000 0.675990 0.152651
0.000000 0.703090 0.000000
0.405615 0.707149 0.000000
0.778531 0.751064 0.000000
0.969085 0.763882 0.000000
1.000000 0.712215 0.000000
0.000000 0.890318 0.312413
0.000000 0.894469 0.287449
0.000000 0.903410 0.130861
0.000000 0.913115 0.000000
0.369940 0.900633 0.000000
0.732113 0.888457 0.000000
0.926024 0.892821 0.000000
1.000000 0.859678 0.000000
0.000000 1.000000 0.305791
0.000000 1.000000 0.271733
0.000000 1.000000 0.000000
0.000000 1.000000 0.000000
0.277134 0.998199 0.000000
0.683253 0.973907 0.000000
0.867582 0.964019 0.000000
0.999542 0.955901 0.000000
0.000000 0.083497 0.204227
0.000000 0.083833 0.205142
0.000000 0.082551 0.194736
0.072206 0.058015 0.191562
0.181949 0.000000 0.177462
0.583032 0.000000 0.309209
0.845304 0.000000 0.313451
0.992004 0.000000 0.196780
0.000000 0.084138 0.209018
0.000000 0.084443 0.212711
0.000000 0.082155 0.201328
0.076875 0.056001 0.192447
0.186770 0.000000 0.181979
0.585657 0.000000 0.313756
0.846372 0.000000 0.310002
0.991516 0.000000 0.180575
0.000000 0.084474 0.212406
0.000000 0.084138 0.210330
0.000000 0.073396 0.198978
0.085847 0.051209 0.195926
0.195865 0.000000 0.189853
0.570214 0.000000 0.286595
0.834562 0.000000 0.247929
0.983398 0.000000 0.088258
0.000000 0.143282 0.213474
0.000000 0.143832 0.210391
0.000000 0.138491 0.213993
0.000000 0.078370 0.228977
0.225040 0.000000 0.218723
0.580072 0.000000 0.221622
0.834348 0.000000 0.115572
0.980255 0.000000 0.000000
0.000000 0.246342 0.226352
0.000000 0.248234 0.227573
0.000000 0.250950 0.229313
0.000000 0.254978 0.231571
0.209995 0.238621 0.206332
0.597711 0.214206 0.164157
0.882933 0.247379 0.026947
1.000000 0.324010 0.000000
0.000000 0.463203 0.320134
0.000000 0.466773 0.319799
0.000000 0.481086 0.311009
0.000000 0.533867 0.287327
0.000000 0.605859 0.000000
0.705043 0.670100 0.000000
0.959716 0.713710 0.165621
1.000000 0.660670 0.000000
0.000000 0.838254 0.535424
0.000000 0.838743 0.525628
0.000000 0.847379 0.490028
0.000000 0.870665 0.385290
0.000000 0.893889 0.000000
0.632746 0.872099 0.000000
0.911955 0.878264 0.000000
1.000000 0.836362 0.000000
0.000000 0.985016 0.564233
0.000000 0.985473 0.551904
0.000000 0.988251 0.500603
0.000000 1.000000 0.365637
0.000000 1.000000 0.000000
0.553460 0.980499 0.000000
0.836179 0.961791 0.000000
0.996429 0.952270 0.000000
0.000000 0.127077 0.584588
0.000000 0.126711 0.582147
0.000000 0.122927 0.558801
0.000000 0.030182 0.551934
0.239994 0.000000 0.557305
0.547448 0.000000 0.538537
0.850706 0.000000 0.648432
0.989654 0.000000 0.595056
0.000000 0.122530 0.557153
0.000000 0.121767 0.552026
0.000000 0.119203 0.535973
0.000000 0.029938 0.532097
0.236881 0.000000 0.544762
0.529686 0.000000 0.519890
0.844480 0.000000 0.640864
0.987213 0.000000 0.589868
0.000000 0.124453 0.568658
0.000000 0.123323 0.561212
0.000000 0.101747 0.546929
0.000000 0.000000 0.555505
0.272160 0.000000 0.565423
0.545861 0.000000 0.534478
0.851530 0.000000 0.639094
0.989593 0.000000 0.565423
0.000000 0.232425 0.572015
0.000000 0.232395 0.563409
0.000000 0.204501 0.571466
0.000000 0.065217 0.613947
0.222507 0.000000 0.629694
0.612238 0.000000 0.602533
0.878996 0.000000 0.630091
0.999908 0.000000 0.487739
0.000000 0.382300 0.562402
0.000000 0.380926 0.562860
0.000000 0.369207 0.566369
0.000000 0.328191 0.574517
0.000000 0.127352 0.590539
0.586877 0.000000 0.575586
0.864439 0.000000 0.499916
0.994415 0.000000 0.294682
0.000000 0.522026 0.546105
0.000000 0.531579 0.556023
0.000000 0.536187 0.560113
0.000000 0.540459 0.563500
0.000000 0.539330 0.556970
0.548516 0.521447 0.540459
0.852506 0.557824 0.516960
0.990723 0.564355 0.450446
0.000000 0.792966 0.679866
0.000000 0.799161 0.683467
0.000000 0.804623 0.678798
0.000000 0.816983 0.667689
0.000000 0.849332 0.623774
0.323796 0.872526 0.367895
0.884703 0.861601 0.416358
0.994446 0.839719 0.627527
0.000000 0.964935 0.738216
0.000000 0.965179 0.733455
0.000000 0.968017 0.716396
0.000000 0.977844 0.680537
0.000000 0.989502 0.583001
0.000000 0.993378 0.224063
0.774350 0.960357 0.000000
0.986755 0.948638 0.240360
0.000000 0.190066 0.824613
0.000000 0.191501 0.827970
0.000000 0.189944 0.824063
0.000000 0.022522 0.825376
0.000000 0.000000 0.826291
0.605127 0.000000 0.824430
0.792721 0.000000 0.800229
0.957214 0.000000 0.806241
0.000000 0.184787 0.811124
0.000000 0.185916 0.814023
0.000000 0.184817 0.810849
0.000000 0.023621 0.810147
0.000000 0.000000 0.808591
0.582910 0.000000 0.804959
0.771023 0.000000 0.776577
0.946075 0.000000 0.792111
0.000000 0.189578 0.823392
0.000000 0.189090 0.821805
0.000000 0.176883 0.815152
0.000000 0.005432 0.813931
0.000000 0.000000 0.809476
0.592615 0.000000 0.807919
0.782895 0.000000 0.788113
0.955535 0.000000 0.801053
0.000000 0.266423 0.827512
0.000000 0.264469 0.823117
0.000000 0.236942 0.818112
0.000000 0.057496 0.823392
0.000000 0.000000 0.822110
0.584649 0.000000 0.825498
0.805692 0.000000 0.812100
0.966796 0.000000 0.795804
0.000000 0.463539 0.799832
0.000000 0.459571 0.795377
0.000000 0.436011 0.790280
0.000000 0.357885 0.797971
0.000000 0.070832 0.813046
0.457740 0.000000 0.816770
0.799161 0.000000 0.805020
0.974334 0.000000 0.760800
0.000000 0.628748 0.796201
0.000000 0.626917 0.796139
0.000000 0.617792 0.796689
0.000000 0.595361 0.800809
0.000000 0.531121 0.804501
0.000000 0.257389 0.826200
0.813901 0.000000 0.822324
0.977478 0.000000 0.689082
0.000000 0.777493 0.796750
0.000000 0.780240 0.799008
0.000000 0.782071 0.800198
0.000000 0.786069 0.803098
0.000000 0.786099 0.801541
0.000000 0.785306 0.798276
0.767880 0.768704 0.786740
0.929870 0.782650 0.771420
0.000000 0.936584 0.836149
0.000000 0.937591 0.835782
0.000000 0.945861 0.838590
0.000000 0.952697 0.834806
0.000000 0.957733 0.822782
0.000000 0.962524 0.787289
0.680110 0.950622 0.710109
0.945647 0.939727 0.760433
0.000000 0.245487 0.934386
0.000000 0.245914 0.935027
0.000000 0.244022 0.931975
0.000000 0.124056 0.933165
0.000000 0.000000 0.933593
0.484718 0.000000 0.932189
0.764157 0.000000 0.931518
0.913787 0.000000 0.919585
0.000000 0.243381 0.930968
0.000000 0.243839 0.931670
0.000000 0.242374 0.929381
0.000000 0.122683 0.929625
0.000000 0.000000 0.930205
0.477852 0.000000 0.928801
0.758511 0.000000 0.927184
0.907988 0.000000 0.914153
0.000000 0.243198 0.930480
0.000000 0.243107 0.930449
0.000000 0.240726 0.926604
0.000000 0.114717 0.930999
0.000000 0.000000 0.929961
0.471351 0.000000 0.926482
0.754665 0.000000 0.924590
0.906340 0.000000 0.912016
0.000000 0.243748 0.931548
0.000000 0.244022 0.931975
0.000000 0.242283 0.929198
0.000000 0.130007 0.930144
0.000000 0.000000 0.930449
0.459998 0.000000 0.928161
0.753567 0.000000 0.926543
0.910246 0.000000 0.914702
0.000000 0.427771 0.921141
0.000000 0.426581 0.922118
0.000000 0.411383 0.921080
0.000000 0.342046 0.924193
0.000000 0.044312 0.927947
0.236942 0.000000 0.926360
0.718318 0.000000 0.926421
0.914458 0.000000 0.918181
0.000000 0.627863 0.909819
0.000000 0.624750 0.908415
0.000000 0.615686 0.905486
0.000000 0.583337 0.905303
0.000000 0.487434 0.911711
0.000000 0.091218 0.930053
0.629938 0.000000 0.935729
0.929839 0.000000 0.931884
0.000000 0.785824 0.909270
0.000000 0.784482 0.908415
0.000000 0.778500 0.906828
0.000000 0.765743 0.907622
0.000000 0.737392 0.909850
0.000000 0.671839 0.914672
0.263676 0.440620 0.930999
0.918547 0.478737 0.926329
0.000000 0.914977 0.912535
0.000000 0.914519 0.912078
0.000000 0.914672 0.911864
0.000000 0.916655 0.913085
0.000000 0.918975 0.914244
0.000000 0.921294 0.914488
0.505028 0.904570 0.910399
0.887968 0.898863 0.905516
