data/fiter_cube/96471014/1022817/file.cube
# Created by Adobe Lightroom plugin Export LUT (1.17.0)
# www.johnrellis.com/lightroom/exportlut.htm
# Preset: 复兴岛红裙子
# Color profile: C:\Program Files (x86)\Common Files\Adobe\Color\Profiles\Recommended\AdobeRGB1998.icc
LUT_3D_SIZE 32
DOMAIN_MIN 0.0 0.0 0.0
DOMAIN_MAX 1.0 1.0 1.0
0.070100 0.068849 0.071321
0.070100 0.068849 0.071321
0.070100 0.068849 0.071321
0.070100 0.068849 0.071321
0.070100 0.068849 0.071321
0.070100 0.068849 0.071321
0.070100 0.068849 0.071321
0.070558 0.068757 0.071321
0.071839 0.068513 0.071656
0.074830 0.068818 0.071565
0.079652 0.068727 0.071778
0.086732 0.068055 0.071992
0.097658 0.066712 0.072053
0.113497 0.064332 0.071595
0.135348 0.058778 0.071229
0.165255 0.036561 0.070436
0.204807 0.000000 0.068727
0.257084 0.000000 0.066072
0.325231 0.000000 0.060243
0.451667 0.000000 0.028870
0.590692 0.000000 0.000000
0.698787 0.000000 0.000000
0.780270 0.000000 0.000000
0.844083 0.000000 0.000000
0.891875 0.000000 0.000000
0.930419 0.000000 0.000000
0.963531 0.000000 0.000000
0.992370 0.000000 0.000000
1.000000 0.000000 0.000000
1.000000 0.000000 0.000000
1.000000 0.000000 0.000000
1.000000 0.000000 0.000000
0.070100 0.068849 0.071321
0.070100 0.068849 0.071321
0.070100 0.068849 0.071321
0.070100 0.068849 0.071321
0.070100 0.068849 0.071321
0.070100 0.068849 0.071321
0.070100 0.068849 0.071321
0.070558 0.068757 0.071321
0.071839 0.068513 0.071656
0.074403 0.068910 0.071565
0.078889 0.068452 0.071839
0.085695 0.067872 0.072023
0.095857 0.066773 0.071778
0.110323 0.064912 0.071687
0.131044 0.060090 0.071382
0.158785 0.043854 0.070680
0.195712 0.001801 0.069245
0.244694 0.000000 0.066560
0.309026 0.000000 0.061921
0.428992 0.000000 0.036316
0.563287 0.000000 0.000000
0.673274 0.000000 0.000000
0.757382 0.000000 0.000000
0.825193 0.000000 0.000000
0.876616 0.000000 0.000000
0.918059 0.000000 0.000000
0.953643 0.000000 0.000000
0.984558 0.000000 0.000000
1.000000 0.000000 0.000000
1.000000 0.000000 0.000000
1.000000 0.000000 0.000000
1.000000 0.000000 0.000000
0.070100 0.068849 0.071321
0.070100 0.068849 0.071321
0.070100 0.068849 0.071321
0.070100 0.068849 0.071321
0.070100 0.068849 0.071321
0.070100 0.068849 0.071321
0.070100 0.068849 0.071321
0.070558 0.068757 0.071321
0.071839 0.068513 0.071656
0.073945 0.068971 0.071565
0.078492 0.068544 0.071839
0.084962 0.068025 0.072053
0.094545 0.067079 0.071778
0.108705 0.064942 0.071748
0.128389 0.060700 0.071473
0.155062 0.047242 0.070832
0.190616 0.008881 0.069520
0.237736 0.000000 0.067048
0.300114 0.000000 0.062776
0.417853 0.000000 0.040284
0.549065 0.000000 0.000000
0.659907 0.000000 0.000000
0.746029 0.000000 0.000000
0.815732 0.000000 0.000000
0.869017 0.000000 0.000000
0.911711 0.000000 0.000000
0.948516 0.000000 0.000000
0.980499 0.000000 0.000000
1.000000 0.000000 0.000000
1.000000 0.000000 0.000000
1.000000 0.000000 0.000000
1.000000 0.000000 0.000000
0.070100 0.068849 0.071321
0.070100 0.068849 0.071321
0.070100 0.068849 0.071321
0.070100 0.068849 0.071321
0.070100 0.068849 0.071321
0.070100 0.068849 0.071321
0.070100 0.068849 0.071321
0.070558 0.068757 0.071321
0.071839 0.068513 0.071656
0.073945 0.068971 0.071565
0.078065 0.068605 0.071839
0.084596 0.068116 0.072053
0.093568 0.067323 0.071809
0.106783 0.065522 0.071778
0.125673 0.061280 0.071565
0.151095 0.049104 0.071015
0.185092 0.015167 0.069429
0.229831 0.000000 0.067567
0.292638 0.000000 0.063081
0.402167 0.000000 0.045655
0.524834 0.000000 0.000122
0.635584 0.000000 0.000000
0.727138 0.000000 0.000000
0.802701 0.000000 0.000000
0.861631 0.000000 0.000000
0.908415 0.000000 0.000000
0.947448 0.000000 0.000000
0.980438 0.000000 0.000000
1.000000 0.000000 0.000000
1.000000 0.000000 0.000000
1.000000 0.000000 0.000000
1.000000 0.000000 0.000000
0.070100 0.068849 0.071321
0.070100 0.068849 0.071321
0.070100 0.068849 0.071321
0.070100 0.068849 0.071321
0.070100 0.068849 0.071321
0.070100 0.068849 0.071321
0.070100 0.068849 0.071321
0.070558 0.068757 0.071321
0.071839 0.068513 0.071656
0.073487 0.069062 0.071595
0.077729 0.068696 0.071504
0.083436 0.068360 0.072053
0.091920 0.067292 0.071870
0.104524 0.065736 0.071870
0.122408 0.062043 0.071687
0.147158 0.051728 0.070802
0.180514 0.020905 0.069642
0.224735 0.000000 0.067506
0.294713 0.000000 0.062867
0.398535 0.000000 0.046906
0.515160 0.000000 0.004547
0.627466 0.000000 0.000000
0.720790 0.000000 0.000000
0.797574 0.000000 0.000000
0.857908 0.000000 0.000000
0.905638 0.000000 0.000000
0.945220 0.000000 0.000000
0.978424 0.000000 0.000000
1.000000 0.000000 0.000000
1.000000 0.000000 0.000000
1.000000 0.000000 0.000000
1.000000 0.000000 0.000000
0.070100 0.068849 0.071321
0.070100 0.068849 0.071321
0.070100 0.068849 0.071321
0.070100 0.068849 0.071321
0.070100 0.068849 0.071321
0.070100 0.068849 0.071321
0.070100 0.068849 0.071321
0.070558 0.068757 0.071321
0.071839 0.068513 0.071656
0.073487 0.069062 0.071595
0.077302 0.068788 0.071504
0.083070 0.068421 0.072053
0.091249 0.067445 0.071870
0.103639 0.065980 0.071870
0.121248 0.062501 0.071351
0.145418 0.053254 0.070863
0.178408 0.022827 0.069764
0.222873 0.000000 0.067597
0.300877 0.000000 0.062715
0.405035 0.000000 0.044404
0.527977 0.000000 0.000000
0.642603 0.000000 0.000000
0.870298 0.000000 0.000000
0.915282 0.000000 0.000000
0.949798 0.000000 0.000000
0.977783 0.000000 0.000000
1.000000 0.000000 0.000000
1.000000 0.000000 0.000000
1.000000 0.000000 0.000000
1.000000 0.000000 0.000000
1.000000 0.000000 0.000000
1.000000 0.000000 0.000000
0.070100 0.068849 0.071321
0.070100 0.068849 0.071321
0.070100 0.068849 0.071321
0.070100 0.068849 0.071321
0.070100 0.068849 0.071321
0.070100 0.068849 0.071321
0.070100 0.068849 0.071321
0.070558 0.068757 0.071321
0.072267 0.068452 0.071656
0.075288 0.068757 0.071565
0.079652 0.068727 0.071778
0.086366 0.068147 0.071992
0.096162 0.066682 0.071748
0.110079 0.064973 0.071687
0.129732 0.060151 0.071443
0.155978 0.046235 0.070802
0.192111 0.008820 0.069368
0.258671 0.000000 0.065675
0.360449 0.000000 0.052644
0.491737 0.000000 0.007324
0.627375 0.000000 0.000000
0.740169 0.000000 0.000000
0.828428 0.000000 0.000000
0.891386 0.000000 0.000000
0.937102 0.000000 0.000000
0.970397 0.000000 0.000000
0.996307 0.000000 0.000000
1.000000 0.000000 0.000000
1.000000 0.000000 0.000000
1.000000 0.000000 0.000000
1.000000 0.000000 0.000000
1.000000 0.000000 0.000000
0.069917 0.070130 0.071229
0.069917 0.070130 0.071229
0.069917 0.070130 0.071229
0.069917 0.070130 0.071229
0.069917 0.070130 0.071229
0.069917 0.070130 0.071229
0.069917 0.070130 0.071229
0.070405 0.070069 0.071229
0.072541 0.069642 0.071565
0.075166 0.069612 0.071504
0.079988 0.069520 0.071717
0.086641 0.068910 0.071931
0.096345 0.068330 0.071626
0.110964 0.066835 0.071504
0.131319 0.062806 0.071168
0.158938 0.053315 0.069947
0.207340 0.009125 0.067903
0.281254 0.000000 0.062226
0.383093 0.000000 0.043091
0.509697 0.000000 0.000000
0.636713 0.000000 0.000000
0.742885 0.000000 0.000000
0.827115 0.000000 0.000000
0.888090 0.000000 0.000000
0.933013 0.000000 0.000000
0.966308 0.000000 0.000000
0.992462 0.000000 0.000000
1.000000 0.000000 0.000000
1.000000 0.000000 0.000000
1.000000 0.000000 0.000000
1.000000 0.000000 0.000000
1.000000 0.116182 0.000000
0.069520 0.072145 0.071443
0.069520 0.072145 0.071443
0.069520 0.072145 0.071443
0.069520 0.072145 0.071443
0.069520 0.072145 0.071443
0.069520 0.072145 0.071443
0.069520 0.072145 0.071443
0.070100 0.072053 0.071077
0.072358 0.071687 0.071046
0.076081 0.072206 0.071260
0.081605 0.072389 0.071107
0.089479 0.072328 0.071199
0.100832 0.072084 0.071168
0.117220 0.071534 0.070863
0.139895 0.069093 0.069856
0.181399 0.061707 0.067750
0.239658 0.016419 0.063630
0.320165 0.000000 0.053223
0.424384 0.000000 0.019501
0.546654 0.000000 0.000000
0.662135 0.000000 0.000000
0.758633 0.000000 0.000000
0.835569 0.000000 0.000000
0.892088 0.000000 0.000000
0.934478 0.000000 0.000000
0.966369 0.000000 0.000000
0.991791 0.000000 0.000000
1.000000 0.000000 0.000000
1.000000 0.000000 0.000000
1.000000 0.000000 0.000000
1.000000 0.109163 0.000000
1.000000 0.175753 0.000000
0.068818 0.076783 0.071077
0.068818 0.076783 0.071077
0.068818 0.076783 0.071077
0.068818 0.076783 0.071077
0.068818 0.076783 0.071077
0.068879 0.076417 0.071107
0.068879 0.076417 0.071107
0.069459 0.076326 0.070741
0.072145 0.076295 0.070680
0.075654 0.076112 0.070588
0.081727 0.077577 0.070649
0.092500 0.078767 0.070161
0.106416 0.079957 0.069856
0.130892 0.082734 0.068727
0.167514 0.083406 0.066560
0.219303 0.079286 0.062348
0.291478 0.053864 0.050965
0.385260 0.000000 0.020111
0.494392 0.000000 0.000000
0.604639 0.000000 0.000000
0.700832 0.000000 0.000000
0.780972 0.000000 0.000000
0.845182 0.000000 0.000000
0.894347 0.000000 0.000000
0.933043 0.000000 0.000000
0.963806 0.000000 0.000000
0.989258 0.000000 0.000000
1.000000 0.000000 0.000000
1.000000 0.100069 0.000000
1.000000 0.151980 0.000000
1.000000 0.193820 0.000000
1.000000 0.232456 0.000000
0.067689 0.083467 0.070497
0.067689 0.083467 0.070497
0.067689 0.083467 0.070497
0.067689 0.083467 0.070497
0.067750 0.083131 0.070527
0.067689 0.083467 0.070497
0.067689 0.083467 0.070497
0.068269 0.083406 0.070100
0.071504 0.083314 0.070008
0.076204 0.083650 0.069856
0.081605 0.084443 0.069581
0.093721 0.089906 0.068940
0.116609 0.098116 0.066926
0.157565 0.108461 0.063691
0.203250 0.113619 0.058930
0.265751 0.113558 0.044190
0.348669 0.100740 0.013245
0.446693 0.054871 0.000000
0.550164 0.000000 0.000000
0.646693 0.000000 0.000000
0.730678 0.000000 0.000000
0.802029 0.000000 0.000000
0.858976 0.000000 0.000000
0.903502 0.000000 0.000000
0.938872 0.100038 0.000000
0.967163 0.135714 0.000000
0.990753 0.161501 0.000000
1.000000 0.184421 0.000000
1.000000 0.206821 0.000000
1.000000 0.229343 0.000000
1.000000 0.253544 0.000000
1.000000 0.279057 0.000000
0.065400 0.094667 0.070039
0.065400 0.094667 0.070039
0.065400 0.094667 0.070039
0.065400 0.094667 0.070039
0.065400 0.094667 0.070039
0.065339 0.094942 0.070008
0.065339 0.094942 0.070008
0.066438 0.095430 0.068757
0.070893 0.096620 0.068513
0.077333 0.098543 0.068055
0.085481 0.102235 0.067323
0.097047 0.106905 0.066255
0.166323 0.173098 0.035676
0.254704 0.211368 0.000000
0.396735 0.243137 0.000000
0.561944 0.264714 0.000000
0.643732 0.263798 0.000000
0.708278 0.261295 0.000000
0.763516 0.260807 0.000000
0.813718 0.265904 0.000000
0.856657 0.272343 0.000000
0.893706 0.279881 0.000000
0.925109 0.286229 0.000000
0.952239 0.292363 0.000000
0.975250 0.297063 0.000000
0.994873 0.300511 0.000000
1.000000 0.303441 0.000000
1.000000 0.306950 0.000000
1.000000 0.312200 0.000000
1.000000 0.319890 0.000000
1.000000 0.330327 0.000000
1.000000 0.344030 0.000000
0.056214 0.123842 0.066773
0.056062 0.124056 0.066743
0.056062 0.124056 0.066743
0.055940 0.124269 0.066712
0.055573 0.124880 0.066621
0.055207 0.125490 0.066529
0.054688 0.127138 0.065064
0.060792 0.129213 0.063722
0.068757 0.132662 0.062806
0.079713 0.137667 0.061402
0.094331 0.148226 0.058320
0.116030 0.164401 0.048737
0.148379 0.184726 0.029694
0.216922 0.228122 0.000000
0.348272 0.280644 0.000000
0.514794 0.322728 0.000000
0.656764 0.356146 0.000000
0.745327 0.371038 0.000000
0.791745 0.368231 0.000000
0.832639 0.366735 0.000000
0.869169 0.366796 0.000000
0.901701 0.367712 0.000000
0.929778 0.367926 0.000000
0.954498 0.368048 0.000000
0.975891 0.367468 0.000000
0.994415 0.366155 0.000000
1.000000 0.364660 0.000000
1.000000 0.364111 0.000000
1.000000 0.365087 0.000000
1.000000 0.368566 0.000000
1.000000 0.374365 0.000000
1.000000 0.383124 0.000000
0.008942 0.173953 0.056489
0.008759 0.174075 0.056428
0.009583 0.173373 0.056794
0.010925 0.172274 0.057343
0.012787 0.170840 0.057252
0.014343 0.169711 0.056977
0.016541 0.170260 0.050965
0.034730 0.171695 0.049866
0.058381 0.175418 0.047364
0.074556 0.181735 0.041749
0.094026 0.191745 0.032227
0.119631 0.212284 0.011627
0.156558 0.236545 0.000000
0.208591 0.262272 0.000000
0.307012 0.308873 0.000000
0.464790 0.362921 0.000000
0.612482 0.406378 0.000000
0.722927 0.437690 0.000000
0.806912 0.459083 0.000000
0.850736 0.457893 0.000000
0.882567 0.452430 0.000000
0.911498 0.448310 0.000000
0.936828 0.443793 0.000000
0.959411 0.439612 0.000000
0.979126 0.435004 0.000000
0.996429 0.429938 0.000000
1.000000 0.425025 0.000000
1.000000 0.420935 0.000000
1.000000 0.418463 0.000000
1.000000 0.418311 0.000000
1.000000 0.420142 0.000000
1.000000 0.424659 0.000000
0.000000 0.239048 0.011078
0.000000 0.239445 0.010712
0.000000 0.237827 0.012299
0.000000 0.235416 0.014649
0.000000 0.231876 0.016938
0.000000 0.228702 0.013428
0.000000 0.227481 0.006744
0.000000 0.228214 0.005371
0.005707 0.232181 0.000458
0.058289 0.239567 0.000000
0.087922 0.250523 0.000000
0.120821 0.270970 0.000000
0.164248 0.298802 0.000000
0.223331 0.327153 0.000000
0.299779 0.352239 0.000000
0.418677 0.394079 0.000000
0.570764 0.447120 0.000000
0.688197 0.485420 0.000000
0.778378 0.513207 0.000000
0.846250 0.528923 0.000000
0.896300 0.532769 0.000000
0.921386 0.523156 0.000000
0.943877 0.514092 0.000000
0.964324 0.505760 0.000000
0.982635 0.497780 0.000000
0.999115 0.490272 0.000000
1.000000 0.483650 0.000000
1.000000 0.478065 0.000000
1.000000 0.473823 0.000000
1.000000 0.471321 0.000000
1.000000 0.470619 0.000000
1.000000 0.472023 0.000000
0.000000 0.316777 0.000000
0.000000 0.317876 0.000000
0.000000 0.317327 0.000000
0.000000 0.315953 0.000000
0.000000 0.313787 0.000000
0.000000 0.312474 0.000000
0.000000 0.312932 0.000000
0.000000 0.315526 0.000000
0.000000 0.320317 0.000000
0.000000 0.327581 0.000000
0.070588 0.336309 0.000000
0.121706 0.348180 0.000000
0.173190 0.371771 0.000000
0.236881 0.395239 0.000000
0.314244 0.416388 0.000000
0.400763 0.433692 0.000000
0.519066 0.470466 0.000000
0.648493 0.519799 0.000000
0.748257 0.556146 0.000000
0.824826 0.581140 0.000000
0.882139 0.592676 0.000000
0.926909 0.594598 0.000000
0.955932 0.586847 0.000000
0.974212 0.574975 0.000000
0.990692 0.563745 0.000000
1.000000 0.553216 0.000000
1.000000 0.543481 0.000000
1.000000 0.534936 0.000000
1.000000 0.527398 0.000000
1.000000 0.521172 0.000000
1.000000 0.516442 0.000000
1.000000 0.513542 0.000000
0.000000 0.396582 0.000000
0.000000 0.396429 0.000000
0.000000 0.395178 0.000000
0.000000 0.393774 0.000000
0.000000 0.391943 0.000000
0.000000 0.390723 0.000000
0.000000 0.391150 0.000000
0.000000 0.393194 0.000000
0.000000 0.397681 0.000000
0.000000 0.404425 0.000000
0.000000 0.413428 0.000000
0.112703 0.423499 0.000000
0.178561 0.442420 0.000000
0.251438 0.465797 0.000000
0.334173 0.485847 0.000000
0.420752 0.501457 0.000000
0.506676 0.514275 0.000000
0.608423 0.545556 0.000000
0.714412 0.588342 0.000000
0.797848 0.619501 0.000000
0.860288 0.636347 0.000000
0.908782 0.642359 0.000000
0.947051 0.640436 0.000000
0.977813 0.633143 0.000000
0.994720 0.619989 0.000000
1.000000 0.607172 0.000000
1.000000 0.595361 0.000000
1.000000 0.584741 0.000000
1.000000 0.575158 0.000000
1.000000 0.566583 0.000000
1.000000 0.559472 0.000000
1.000000 0.553979 0.000000
0.000000 0.488472 0.000000
0.000000 0.491127 0.000000
0.000000 0.594965 0.000000
0.000000 0.593133 0.000000
0.000000 0.589807 0.000000
0.000000 0.585718 0.000000
0.000000 0.581659 0.000000
0.000000 0.578973 0.000000
0.000000 0.578515 0.000000
0.000000 0.580468 0.000000
0.000000 0.583734 0.000000
0.164614 0.586755 0.000000
0.255924 0.590875 0.000000
0.344549 0.604608 0.000000
0.431983 0.615625 0.000000
0.513848 0.624353 0.000000
0.587823 0.631769 0.000000
0.654871 0.638880 0.000000
0.729427 0.660090 0.000000
0.803372 0.686519 0.000000
0.860929 0.699336 0.000000
0.907164 0.703395 0.000000
0.944182 0.700496 0.000000
0.973816 0.692134 0.000000
0.997620 0.679286 0.000000
1.000000 0.663661 0.000000
1.000000 0.647517 0.000000
1.000000 0.633143 0.000000
1.000000 0.620630 0.000000
1.000000 0.609796 0.000000
1.000000 0.600305 0.000000
1.000000 0.592096 0.000000
0.000000 0.603998 0.000000
0.000000 0.616663 0.000000
0.000000 0.628992 0.000000
0.000000 0.639094 0.000000
0.000000 0.645502 0.000000
0.000000 0.646815 0.000000
0.000000 0.645533 0.000000
0.000000 0.643671 0.000000
0.000000 0.643488 0.000000
0.000000 0.644251 0.000000
0.000000 0.646174 0.000000
0.158755 0.647852 0.000000
0.260227 0.647181 0.000000
0.348150 0.653437 0.000000
0.432685 0.661952 0.000000
0.511040 0.668818 0.000000
0.582086 0.674830 0.000000
0.647120 0.681056 0.000000
0.707912 0.688624 0.000000
0.774380 0.708034 0.000000
0.836179 0.727199 0.000000
0.887510 0.736751 0.000000
0.928405 0.737911 0.000000
0.960998 0.732784 0.000000
0.987060 0.722683 0.000000
1.000000 0.709377 0.000000
1.000000 0.693843 0.000000
1.000000 0.678004 0.000000
1.000000 0.663874 0.000000
1.000000 0.651148 0.000000
1.000000 0.639673 0.000000
1.000000 0.629419 0.000000
0.000000 0.671504 0.000000
0.000000 0.681880 0.000000
0.000000 0.692226 0.000000
0.000000 0.700618 0.000000
0.000000 0.706172 0.000000
0.000000 0.707485 0.000000
0.000000 0.706569 0.000000
0.000000 0.705257 0.000000
0.000000 0.705043 0.000000
0.000000 0.705531 0.000000
0.000000 0.706722 0.000000
0.151888 0.707424 0.000000
0.265934 0.705745 0.000000
0.356878 0.703273 0.000000
0.440192 0.709865 0.000000
0.515404 0.715236 0.000000
0.583398 0.720058 0.000000
0.645716 0.724849 0.000000
0.703700 0.730648 0.000000
0.758511 0.738033 0.000000
0.816617 0.753719 0.000000
0.868681 0.766445 0.000000
0.913237 0.771389 0.000000
0.948516 0.769100 0.000000
0.976562 0.761288 0.000000
0.999420 0.749813 0.000000
1.000000 0.735805 0.000000
1.000000 0.720272 0.000000
1.000000 0.703883 0.000000
1.000000 0.689631 0.000000
1.000000 0.676600 0.000000
1.000000 0.664607 0.000000
0.000000 0.733730 0.000000
0.000000 0.742580 0.000000
0.000000 0.751369 0.000000
0.000000 0.758572 0.000000
0.000000 0.763180 0.000000
0.000000 0.764340 0.000000
0.000000 0.763577 0.000000
0.000000 0.762203 0.000000
0.000000 0.761288 0.000000
0.000000 0.760891 0.000000
0.000000 0.760861 0.000000
0.137270 0.760128 0.000000
0.265812 0.757778 0.000000
0.362005 0.754147 0.000000
0.445533 0.754086 0.000000
0.520714 0.759335 0.000000
0.589380 0.764981 0.000000
0.652308 0.771359 0.000000
0.710842 0.778653 0.000000
0.765591 0.786893 0.000000
0.816831 0.795712 0.000000
0.869657 0.808896 0.000000
0.911833 0.814328 0.000000
0.948119 0.813413 0.000000
0.976654 0.806821 0.000000
0.999512 0.796170 0.000000
1.000000 0.782803 0.000000
1.000000 0.767727 0.000000
1.000000 0.751461 0.000000
1.000000 0.734340 0.000000
1.000000 0.717830 0.000000
1.000000 0.703975 0.000000
0.000000 0.818082 0.000000
0.000000 0.821134 0.000000
0.000000 0.823514 0.000000
0.000000 0.825162 0.000000
0.000000 0.825834 0.000000
0.000000 0.825193 0.000000
0.000000 0.824369 0.000000
0.000000 0.823636 0.000000
0.000000 0.823667 0.000000
0.000000 0.823941 0.000000
0.000000 0.824125 0.000000
0.151003 0.823087 0.000000
0.287480 0.820218 0.000000
0.386694 0.815854 0.000000
0.469398 0.810300 0.000000
0.540459 0.811582 0.000000
0.604517 0.814084 0.000000
0.663020 0.817136 0.000000
0.716854 0.820768 0.000000
0.766659 0.825010 0.000000
0.813199 0.829496 0.000000
0.857420 0.834226 0.000000
0.901793 0.841154 0.000000
0.936034 0.841184 0.000000
0.966125 0.836210 0.000000
0.990570 0.827390 0.000000
1.000000 0.815732 0.000000
1.000000 0.802121 0.000000
1.000000 0.787076 0.000000
1.000000 0.770871 0.000000
1.000000 0.753841 0.000000
1.000000 0.736172 0.000000
0.000000 0.859098 0.000000
0.000000 0.861570 0.000000
0.000000 0.863798 0.000000
0.000000 0.865232 0.000000
0.000000 0.865721 0.000000
0.000000 0.865019 0.000000
0.000000 0.863828 0.000000
0.000000 0.862638 0.000000
0.000000 0.861845 0.000000
0.000000 0.861357 0.000000
0.000000 0.860655 0.000000
0.118593 0.859068 0.000000
0.275486 0.856077 0.000000
0.380224 0.851896 0.000000
0.465278 0.846952 0.000000
0.537438 0.843351 0.000000
0.600824 0.845121 0.000000
0.658534 0.847318 0.000000
0.711482 0.849943 0.000000
0.760433 0.853117 0.000000
0.806088 0.856657 0.000000
0.849241 0.860380 0.000000
0.890105 0.864042 0.000000
0.930083 0.868559 0.000000
0.952514 0.859617 0.000000
0.979095 0.852903 0.000000
1.000000 0.843290 0.000000
1.000000 0.831357 0.000000
1.000000 0.817746 0.000000
1.000000 0.802792 0.000000
1.000000 0.786923 0.000000
1.000000 0.770260 0.000000
0.000000 0.907622 0.000000
0.000000 0.909728 0.000000
0.000000 0.910979 0.000000
0.000000 0.911315 0.000000
0.000000 0.910704 0.000000
0.000000 0.909392 0.000000
0.000000 0.907530 0.000000
0.000000 0.905241 0.000000
0.000000 0.902892 0.000000
0.000000 0.900481 0.000000
0.000000 0.897520 0.000000
0.084291 0.894224 0.000000
0.265721 0.889921 0.000000
0.372503 0.884398 0.000000
0.457191 0.877897 0.000000
0.528313 0.871122 0.000000
0.589349 0.867948 0.000000
0.644800 0.867979 0.000000
0.696712 0.869291 0.000000
0.745449 0.871733 0.000000
0.791012 0.874723 0.000000
0.833555 0.877684 0.000000
0.873228 0.880156 0.000000
0.910338 0.881987 0.000000
0.945495 0.883574 0.000000
0.971191 0.879271 0.000000
0.993988 0.870634 0.000000
1.000000 0.859617 0.000000
1.000000 0.846891 0.000000
1.000000 0.832883 0.000000
1.000000 0.817899 0.000000
1.000000 0.802029 0.000000
0.000000 0.931914 0.000000
0.000000 0.933684 0.000000
0.000000 0.934783 0.000000
0.000000 0.935058 0.000000
0.000000 0.934600 0.000000
0.000000 0.933623 0.000000
0.000000 0.932341 0.000000
0.000000 0.930816 0.000000
0.000000 0.929198 0.000000
0.000000 0.927550 0.000000
0.000000 0.925383 0.000000
0.000000 0.922698 0.000000
0.252415 0.919066 0.000000
0.365393 0.914305 0.000000
0.453285 0.908721 0.000000
0.526329 0.902800 0.000000
0.589532 0.896971 0.000000
0.644038 0.896208 0.000000
0.694514 0.896452 0.000000
0.741634 0.897490 0.000000
0.785458 0.898985 0.000000
0.826596 0.900481 0.000000
0.864988 0.901732 0.000000
0.900969 0.902617 0.000000
0.934752 0.903075 0.000000
0.966613 0.903105 0.000000
0.989380 0.897673 0.000000
1.000000 0.887663 0.000000
1.000000 0.875792 0.000000
1.000000 0.862577 0.000000
1.000000 0.848203 0.000000
1.000000 0.832944 0.000000
0.000000 0.956664 0.000000
0.000000 0.957671 0.000000
0.000000 0.958068 0.000000
0.000000 0.957885 0.000000
0.000000 0.957061 0.000000
0.000000 0.955901 0.000000
0.000000 0.954467 0.000000
0.000000 0.952941 0.000000
0.000000 0.951446 0.000000
0.000000 0.949950 0.000000
0.000000 0.947997 0.000000
0.000000 0.945617 0.000000
0.229709 0.942290 0.000000
0.350439 0.937926 0.000000
0.441382 0.932677 0.000000
0.516228 0.927062 0.000000
0.580591 0.921386 0.000000
0.636408 0.917449 0.000000
0.685939 0.916777 0.000000
0.731930 0.916838 0.000000
0.774868 0.917296 0.000000
0.815000 0.917876 0.000000
0.852628 0.918334 0.000000
0.887938 0.918547 0.000000
0.921080 0.918486 0.000000
0.952453 0.918181 0.000000
0.981994 0.917296 0.000000
1.000000 0.911315 0.000000
1.000000 0.900450 0.000000
1.000000 0.888151 0.000000
1.000000 0.874601 0.000000
1.000000 0.860075 0.000000
0.000000 0.974975 0.000000
0.000000 0.975555 0.000000
0.000000 0.975860 0.000000
0.000000 0.975830 0.000000
0.000000 0.975616 0.000000
0.000000 0.975433 0.000000
0.000000 0.975677 0.000000
0.000000 0.976104 0.000000
0.000000 0.976654 0.000000
0.000000 0.977081 0.000000
0.000000 0.976928 0.000000
0.000000 0.975860 0.000000
0.233036 0.973602 0.000000
0.358007 0.970123 0.000000
0.450721 0.965759 0.000000
0.526116 0.960693 0.000000
0.590600 0.955444 0.000000
0.646967 0.950439 0.000000
0.695247 0.947997 0.000000
0.739010 0.946746 0.000000
0.779721 0.945800 0.000000
0.817899 0.944976 0.000000
0.853727 0.944060 0.000000
0.887419 0.943053 0.000000
0.919158 0.941894 0.000000
0.949218 0.940612 0.000000
0.977966 0.939330 0.000000
1.000000 0.937438 0.000000
1.000000 0.930266 0.000000
1.000000 0.917571 0.000000
1.000000 0.903868 0.000000
1.000000 0.889220 0.000000
0.000000 1.000000 0.000000
0.000000 1.000000 0.000000
0.000000 1.000000 0.000000
0.000000 1.000000 0.000000
0.000000 1.000000 0.000000
0.000000 0.999939 0.000000
0.000000 0.999451 0.000000
0.000000 0.998932 0.000000
0.000000 0.998352 0.000000
0.000000 0.997559 0.000000
0.000000 0.996124 0.000000
0.000000 0.994018 0.000000
0.202853 0.990875 0.000000
0.336339 0.986877 0.000000
