data/fiter_cube/52608991/1023024/file.cube
# Created by Adobe Lightroom plugin Export LUT (1.17.0)
# www.johnrellis.com/lightroom/exportlut.htm
# Preset: 大神蓝橙街拍_04 云集
# Color profile: C:\Program Files (x86)\Common Files\Adobe\Color\Profiles\Recommended\AdobeRGB1998.icc
LUT_3D_SIZE 5
DOMAIN_MIN 0.000000 0.000000 0.000000
DOMAIN_MAX 0.903226 0.903226 0.903226
0.099275 0.127413 0.155428
0.228885 0.093599 0.154208
0.674800 0.000000 0.133608
1.000000 0.000000 0.105348
1.000000 0.000000 0.160403
0.118166 0.171725 0.179965
0.204013 0.193698 0.150179
0.603876 0.248020 0.143587
0.999329 0.182498 0.122560
1.000000 0.000000 0.190463
0.185885 0.287968 0.261051
0.192813 0.235874 0.279210
0.527306 0.424750 0.046509
0.962768 0.527733 0.187930
1.000000 0.427802 0.268193
0.308049 0.481514 0.375982
0.349645 0.422675 0.393713
0.478584 0.463752 0.323552
0.904631 0.683467 0.000000
1.000000 0.670039 0.369055
0.603265 0.805631 0.579889
0.659754 0.769619 0.596643
0.627924 0.636316 0.627802
0.908385 0.804166 0.447791
1.000000 0.797269 0.000000
0.081239 0.177005 0.302159
0.193973 0.151125 0.284886
0.628138 0.177676 0.190433
0.986053 0.208438 0.121004
1.000000 0.000000 0.174777
0.073243 0.195712 0.315435
0.192599 0.236759 0.283238
0.586633 0.303349 0.217594
0.974701 0.335698 0.135531
1.000000 0.171756 0.198306
0.000000 0.383307 0.397009
0.244266 0.340002 0.332372
0.513451 0.427924 0.173068
0.936400 0.552178 0.187045
1.000000 0.457221 0.275181
0.231235 0.584802 0.444739
0.363561 0.527977 0.427100
0.474647 0.476143 0.399939
0.898833 0.688441 0.000000
1.000000 0.673426 0.353796
0.547417 0.849760 0.593988
0.635828 0.814969 0.606867
0.700679 0.701961 0.666468
0.916747 0.815702 0.473884
1.000000 0.802670 0.000000
0.129274 0.361761 0.641169
0.242435 0.341985 0.627100
0.500603 0.191012 0.566217
0.980713 0.339452 0.552056
1.000000 0.257725 0.282506
0.172427 0.391608 0.643122
0.280858 0.414618 0.626520
0.501854 0.282994 0.565179
0.972778 0.494575 0.588586
1.000000 0.328313 0.280613
0.000000 0.414649 0.657679
0.223545 0.435554 0.635889
0.499367 0.527276 0.553368
0.935119 0.651575 0.592523
1.000000 0.504173 0.311711
0.000000 0.532677 0.757931
0.000000 0.644343 0.731441
0.555871 0.653437 0.575463
0.893797 0.726497 0.406317
1.000000 0.684779 0.350500
0.294011 0.936065 0.811215
0.461280 0.922240 0.763973
0.736995 0.846677 0.694850
0.879545 0.825437 0.643885
1.000000 0.812558 0.000000
0.539879 0.643702 0.873075
0.563989 0.641810 0.872099
0.615686 0.579858 0.860380
0.827939 0.330510 0.817288
1.000000 0.659663 0.770993
0.563592 0.664485 0.870298
0.604273 0.680964 0.866148
0.647150 0.636988 0.854154
0.823056 0.403571 0.810941
1.000000 0.714595 0.789761
0.526665 0.656001 0.871733
0.583734 0.682887 0.865537
0.724453 0.755520 0.846372
0.812558 0.589960 0.794766
1.000000 0.852171 0.856657
0.470588 0.659571 0.885100
0.524804 0.680201 0.877928
0.680079 0.751461 0.858762
0.829221 0.821012 0.799191
1.000000 0.872038 0.824033
0.328099 0.688685 0.942748
0.388495 0.706874 0.942382
0.559472 0.792508 0.938445
0.860136 0.897124 0.818967
1.000000 0.877897 0.610071
0.809720 0.842405 0.956634
0.816403 0.843626 0.956695
0.848173 0.854002 0.957336
0.847684 0.794217 0.959655
0.960449 0.669642 0.954833
0.812070 0.846494 0.954864
0.820951 0.850065 0.954559
0.847898 0.857389 0.955596
0.852415 0.808347 0.956725
0.959350 0.692439 0.952697
0.798215 0.840574 0.958099
0.811093 0.848325 0.956573
0.857542 0.876616 0.952697
0.878202 0.861143 0.953704
0.961639 0.774960 0.953002
0.794186 0.846067 0.966796
0.805722 0.852628 0.965301
0.847776 0.878141 0.961700
0.917662 0.923888 0.957519
0.964172 0.871702 0.952941
0.774075 0.846647 0.976684
0.785641 0.852995 0.975525
0.831418 0.879484 0.972747
0.898497 0.920226 0.967071
0.965362 0.960693 0.951202
