data/fiter_cube/52608991/1023024/file.cube
# Created by Adobe Lightroom plugin Export LUT (1.17.0)
# www.johnrellis.com/lightroom/exportlut.htm
# Preset: 大神蓝橙街拍_04 云集
# Color profile: C:\Program Files (x86)\Common Files\Adobe\Color\Profiles\Recommended\AdobeRGB1998.icc
LUT_3D_SIZE 8
DOMAIN_MIN 0.000000 0.000000 0.000000
DOMAIN_MAX 0.903226 0.903226 0.903226
0.099275 0.127413 0.155428
0.135653 0.122011 0.155245
0.270634 0.067536 0.153658
0.511925 0.000000 0.145693
0.817166 0.000000 0.116945
0.981109 0.000000 0.102632
1.000000 0.000000 0.127749
1.000000 0.000000 0.160403
0.101930 0.140719 0.161654
0.131044 0.143923 0.155276
0.249302 0.139040 0.156832
0.469978 0.111147 0.149660
0.780667 0.000000 0.120821
0.964324 0.000000 0.105135
1.000000 0.000000 0.129671
1.000000 0.000000 0.164309
0.126314 0.184604 0.189883
0.132631 0.167361 0.201572
0.232731 0.214511 0.147097
0.432013 0.265476 0.160616
0.743740 0.292973 0.130220
0.959228 0.262974 0.120760
1.000000 0.201694 0.161563
1.000000 0.076448 0.197879
0.164736 0.251896 0.236973
0.180301 0.231724 0.244388
0.219120 0.238590 0.213413
0.400000 0.335882 0.115236
0.734615 0.458900 0.137819
0.953185 0.464149 0.160616
1.000000 0.411749 0.205447
1.000000 0.343816 0.242679
0.210910 0.329442 0.287938
0.229435 0.311650 0.294285
0.220981 0.266117 0.311864
0.362493 0.351324 0.215122
0.649683 0.508263 0.000000
0.906096 0.579950 0.097017
1.000000 0.562219 0.247135
1.000000 0.504479 0.297551
0.280552 0.439673 0.353216
0.306615 0.429572 0.363714
0.318242 0.370581 0.379461
0.372992 0.390204 0.346899
0.579248 0.512718 0.194339
0.866148 0.656580 0.000000
1.000000 0.661555 0.142947
1.000000 0.643915 0.366003
0.395148 0.605951 0.438331
0.420264 0.590784 0.445167
0.448371 0.523674 0.458717
0.404852 0.442573 0.477699
0.614191 0.574609 0.374395
0.821683 0.690822 0.148836
0.987854 0.742336 0.000000
1.000000 0.711574 0.230014
0.603265 0.805631 0.579889
0.622919 0.794614 0.584314
0.672969 0.758663 0.603449
0.693843 0.701900 0.642908
0.728481 0.703975 0.588983
0.877440 0.791104 0.488930
0.987213 0.820249 0.197024
1.000000 0.797269 0.000000
0.093568 0.138247 0.202121
0.128054 0.129366 0.196811
0.249790 0.137850 0.160250
0.459602 0.155154 0.151186
0.768948 0.091341 0.122377
0.957702 0.000000 0.106722
1.000000 0.000000 0.129122
1.000000 0.000000 0.161105
0.087312 0.143435 0.207553
0.127443 0.161715 0.196475
0.239963 0.171847 0.171878
0.442664 0.196902 0.153719
0.749233 0.186099 0.125704
0.949187 0.101320 0.109590
1.000000 0.000000 0.131197
1.000000 0.000000 0.163668
0.081666 0.217563 0.244083
0.149752 0.205814 0.223880
0.235782 0.225162 0.167300
0.410925 0.279057 0.164492
0.711238 0.324071 0.136324
0.937804 0.307774 0.122560
1.000000 0.244785 0.154665
1.000000 0.138247 0.192905
0.138491 0.280858 0.262181
0.181186 0.265232 0.259434
0.219486 0.248081 0.248234
0.386236 0.330327 0.118379
0.677119 0.437751 0.131075
0.914336 0.463813 0.149783
1.000000 0.418555 0.189609
1.000000 0.351781 0.233463
0.190768 0.365454 0.303441
0.227176 0.343877 0.307622
0.239902 0.285496 0.325505
0.354406 0.349157 0.238132
0.612116 0.486336 0.000000
0.881621 0.570886 0.069917
1.000000 0.563439 0.237003
1.000000 0.506920 0.290013
0.258030 0.461982 0.358129
0.289006 0.442847 0.363287
0.321447 0.382238 0.378546
0.357549 0.381384 0.359899
0.564477 0.502312 0.200412
0.856565 0.652827 0.000000
1.000000 0.661006 0.123568
1.000000 0.643763 0.359045
0.359442 0.609155 0.431495
0.385718 0.586542 0.434058
0.431952 0.522728 0.448707
0.395972 0.435554 0.474525
0.595453 0.562097 0.382147
0.807553 0.680293 0.151431
0.977264 0.736477 0.000000
1.000000 0.708034 0.210025
0.567468 0.805631 0.567285
0.594232 0.796475 0.574029
0.655695 0.760616 0.593866
0.689540 0.702968 0.633661
0.745113 0.722103 0.617304
0.882811 0.797208 0.499123
0.984833 0.819059 0.202426
1.000000 0.796506 0.000000
0.070863 0.196506 0.349340
0.113283 0.193362 0.346960
0.224460 0.158907 0.321691
0.486580 0.101289 0.289708
0.787564 0.189670 0.203525
0.960296 0.275273 0.122255
1.000000 0.190280 0.154940
1.000000 0.000000 0.183780
0.090425 0.206882 0.346532
0.130953 0.216373 0.337407
0.222232 0.187686 0.319158
0.479042 0.174105 0.286473
0.765621 0.245274 0.214572
0.950164 0.307530 0.124575
1.000000 0.232975 0.156527
1.000000 0.000000 0.187869
0.057496 0.217655 0.358740
0.116274 0.228489 0.349554
0.221225 0.267765 0.317510
0.440345 0.303868 0.303258
0.746975 0.363897 0.240360
0.940398 0.400519 0.139406
1.000000 0.343511 0.176303
1.000000 0.245029 0.210849
0.000000 0.268864 0.420600
0.000000 0.316320 0.411475
0.248844 0.325933 0.341863
0.416236 0.373510 0.259281
0.715877 0.474678 0.252506
0.921141 0.512535 0.178012
1.000000 0.470954 0.212009
1.000000 0.395300 0.251865
0.000000 0.461524 0.458808
0.098268 0.452552 0.431952
0.291997 0.402350 0.378119
0.370764 0.386358 0.349493
0.649744 0.523003 0.166171
0.890990 0.591760 0.109773
1.000000 0.591791 0.252049
1.000000 0.530480 0.303258
0.147646 0.559503 0.464759
0.211582 0.549950 0.445502
0.345892 0.491188 0.417670
0.348211 0.390936 0.432502
0.571344 0.521996 0.305180
0.851957 0.657893 0.000000
0.997650 0.669306 0.069062
1.000000 0.657893 0.369390
0.287633 0.705837 0.505425
0.325536 0.692805 0.490272
0.439765 0.627436 0.477699
0.474250 0.513268 0.498665
0.584283 0.566613 0.446754
0.812619 0.690120 0.222995
0.981537 0.746578 0.000000
1.000000 0.716976 0.206851
0.518730 0.852354 0.599207
0.537530 0.843259 0.591577
0.627222 0.806424 0.601190
0.715938 0.753353 0.644129
0.722621 0.713466 0.660060
0.882719 0.802884 0.526390
0.986755 0.824552 0.239506
1.000000 0.802121 0.000000
0.064881 0.293889 0.538323
0.106325 0.285496 0.537987
0.232639 0.258030 0.518456
0.383673 0.183291 0.477760
0.719966 0.023651 0.478798
0.971954 0.225315 0.428809
1.000000 0.273075 0.303227
1.000000 0.194827 0.202762
0.117281 0.315282 0.542199
0.154849 0.317418 0.537102
0.240208 0.287510 0.518364
0.386145 0.211704 0.479316
0.731716 0.156008 0.480812
0.964385 0.279637 0.432441
1.000000 0.303960 0.308049
1.000000 0.224979 0.206699
0.094423 0.320775 0.541833
0.150484 0.329290 0.534386
0.260807 0.357733 0.510002
0.388098 0.295232 0.479072
0.774380 0.351476 0.498909
0.955566 0.425696 0.464118
1.000000 0.406226 0.347173
1.000000 0.320470 0.233219
0.000000 0.343206 0.561883
0.093050 0.349096 0.553735
0.237034 0.375463 0.527886
0.392584 0.433539 0.477821
0.726986 0.518242 0.501701
0.925872 0.544854 0.472877
1.000000 0.509361 0.364355
1.000000 0.436683 0.269444
0.000000 0.388922 0.598962
0.000000 0.396521 0.597314
0.124666 0.446906 0.593072
0.428229 0.507134 0.496132
0.668971 0.574792 0.410468
0.900053 0.641932 0.457862
1.000000 0.625513 0.401831
1.000000 0.557122 0.320317
0.000000 0.625208 0.676417
0.000000 0.657832 0.676753
0.171817 0.686671 0.623011
0.472419 0.590021 0.517693
0.590387 0.572198 0.474189
0.865293 0.689113 0.303838
0.998596 0.690730 0.316167
1.000000 0.671077 0.372442
0.000000 0.814481 0.701869
0.000000 0.809049 0.682216
0.341894 0.782437 0.615259
0.550256 0.700160 0.559838
0.571252 0.582483 0.565240
0.821439 0.722530 0.409857
0.984558 0.760128 0.000000
1.000000 0.725612 0.190738
0.440101 0.913634 0.721218
0.477485 0.908995 0.710811
0.577478 0.888334 0.678370
0.709163 0.838651 0.669459
0.753994 0.752499 0.703578
0.864591 0.812345 0.630701
0.985046 0.834897 0.337835
1.000000 0.810147 0.000000
0.223545 0.434852 0.731319
0.242344 0.429480 0.731655
0.330785 0.416846 0.721279
0.433448 0.330663 0.697444
0.620020 0.201083 0.650385
0.865446 0.186038 0.606958
1.000000 0.531456 0.646387
1.000000 0.458259 0.543328
0.262058 0.459998 0.733303
0.285466 0.461921 0.735653
0.342718 0.440528 0.726040
0.436378 0.358312 0.696864
0.618128 0.233371 0.648585
0.870817 0.248417 0.610620
1.000000 0.575006 0.663478
1.000000 0.466072 0.541131
0.268193 0.472724 0.737697
0.303746 0.484016 0.734707
0.383124 0.504051 0.718227
0.448768 0.442542 0.690517
0.610925 0.323186 0.641382
0.879179 0.405005 0.623590
1.000000 0.651820 0.690700
1.000000 0.479957 0.523369
0.226291 0.474922 0.739040
0.260716 0.482124 0.733608
0.364904 0.513481 0.718227
0.506767 0.568841 0.688594
0.616449 0.462745 0.640375
0.899748 0.645441 0.690578
0.999023 0.692622 0.686244
1.000000 0.505821 0.485115
0.153048 0.486183 0.743893
0.200443 0.493660 0.740322
0.314702 0.518944 0.724239
0.464515 0.568811 0.693080
0.613214 0.625635 0.629358
0.877012 0.731106 0.689784
0.986694 0.732662 0.666041
1.000000 0.595605 0.485298
0.000000 0.501488 0.742885
0.000000 0.508965 0.742702
0.195956 0.533532 0.738918
0.348028 0.583062 0.735195
0.610285 0.667262 0.618738
0.837705 0.728389 0.553460
0.974578 0.778805 0.634089
1.000000 0.711482 0.525963
0.000000 0.595697 0.841032
0.000000 0.627436 0.835630
0.000000 0.727352 0.817563
0.394110 0.847837 0.777737
0.661616 0.751278 0.645655
0.783932 0.738979 0.593713
0.969635 0.784512 0.420294
1.000000 0.745296 0.397528
0.000000 0.899504 0.888487
0.166506 0.913176 0.884825
0.364843 0.944884 0.862638
0.611048 0.920348 0.777615
0.769711 0.858091 0.725612
0.814817 0.798184 0.736782
0.961975 0.856382 0.550805
1.000000 0.818051 0.000000
0.511223 0.624170 0.863767
0.519463 0.623407 0.863340
0.535180 0.609583 0.856748
0.575616 0.578637 0.846860
0.615473 0.440803 0.828000
0.801236 0.297032 0.793118
0.949767 0.332525 0.704646
1.000000 0.691859 0.767971
0.507805 0.624414 0.853880
0.512535 0.621546 0.852720
0.529168 0.609583 0.848692
0.575006 0.585992 0.839109
0.612421 0.455604 0.821530
0.796078 0.317937 0.788052
0.949004 0.367163 0.706233
1.000000 0.707210 0.773922
0.529320 0.642573 0.858152
0.544396 0.649226 0.855192
0.589288 0.666560 0.848234
0.627497 0.654688 0.839200
0.636683 0.540368 0.820981
0.797818 0.406287 0.787472
0.953216 0.500542 0.725765
1.000000 0.765377 0.801450
0.509728 0.639734 0.860044
0.526268 0.646571 0.856779
0.591943 0.678584 0.849607
0.687251 0.729030 0.842710
0.703029 0.677333 0.826749
0.809415 0.550866 0.793393
0.959228 0.692348 0.778653
1.000000 0.842130 0.845457
0.459052 0.625788 0.858396
0.480751 0.634821 0.856657
0.550072 0.665461 0.850187
0.652369 0.716274 0.838804
0.748745 0.766140 0.819120
0.799313 0.669093 0.778744
0.962799 0.828183 0.834287
1.000000 0.834043 0.816526
0.396735 0.618769 0.860044
0.424659 0.629419 0.859861
0.495979 0.656550 0.853330
0.598993 0.700893 0.840391
0.703517 0.749599 0.817441
0.798306 0.791623 0.770932
0.955688 0.873350 0.836820
1.000000 0.841703 0.784360
0.340215 0.636988 0.879942
0.367681 0.645411 0.879362
0.436835 0.667292 0.872618
0.533837 0.707668 0.868559
0.634424 0.757809 0.863249
0.798611 0.822812 0.764553
0.940642 0.855283 0.713527
1.000000 0.863890 0.746548
0.170901 0.671534 0.941497
0.199863 0.675898 0.940917
0.280156 0.692317 0.939635
0.457649 0.795285 0.929900
0.666133 0.941314 0.901091
0.838437 0.885740 0.795468
0.925261 0.882933 0.756435
1.000000 0.857816 0.514794
0.692622 0.752132 0.919158
0.700832 0.755642 0.920317
0.713283 0.755459 0.919677
0.747433 0.762631 0.917815
0.741878 0.711208 0.914153
0.752621 0.580255 0.906828
0.899199 0.472175 0.887022
1.000000 0.525750 0.804929
0.688197 0.750240 0.914244
0.695460 0.753017 0.915251
0.707881 0.752865 0.914855
0.737057 0.755978 0.912383
0.734585 0.707698 0.907713
0.743099 0.575158 0.898650
0.889799 0.461738 0.877012
0.999695 0.506981 0.794217
0.705959 0.765896 0.917967
0.715206 0.771267 0.917021
0.734615 0.779263 0.914366
0.751736 0.776394 0.912474
0.760922 0.747585 0.906371
0.762142 0.637079 0.897642
0.894163 0.534783 0.879759
1.000000 0.583307 0.806241
0.706905 0.770840 0.922698
0.713283 0.774044 0.920958
0.740627 0.789364 0.916869
0.783841 0.813474 0.913207
0.805692 0.807889 0.908385
0.800320 0.731411 0.900481
0.900908 0.640772 0.883787
0.997192 0.700252 0.831083
0.677668 0.757443 0.921935
0.684199 0.760525 0.920134
0.712856 0.775692 0.915953
0.763210 0.804776 0.911467
0.819638 0.837522 0.905241
0.826169 0.801907 0.894987
0.894987 0.715511 0.874205
0.991241 0.814023 0.864469
0.648798 0.749447 0.925292
0.659327 0.754818 0.924468
0.693660 0.772763 0.921660
0.747433 0.802548 0.917906
0.808652 0.838163 0.912108
0.873228 0.877714 0.904997
0.902953 0.817227 0.878752
0.986236 0.915373 0.914794
0.624292 0.750423 0.933959
0.637842 0.757229 0.933806
0.673213 0.774655 0.931243
0.727016 0.802548 0.927184
0.786435 0.834318 0.919310
0.849485 0.869352 0.907225
0.902831 0.894102 0.874846
0.983581 0.936522 0.913054
0.587854 0.756222 0.952758
0.597955 0.760678 0.952148
0.642512 0.781827 0.952087
0.693751 0.806912 0.948608
0.750820 0.837705 0.944915
0.807065 0.873014 0.944457
0.909209 0.922881 0.876890
0.993378 0.931456 0.824735
0.809720 0.842405 0.956634
0.813107 0.843931 0.957031
0.818448 0.843870 0.956695
0.834897 0.848997 0.957244
0.850126 0.846769 0.957641
0.846769 0.808621 0.959014
0.859037 0.722957 0.961883
0.960449 0.669642 0.954833
0.808286 0.842039 0.954986
0.811612 0.843503 0.955413
0.817685 0.844083 0.955352
0.831876 0.847379 0.955688
0.849577 0.847440 0.955993
0.845945 0.809720 0.957305
0.856992 0.723659 0.959564
0.958679 0.669276 0.952544
0.808835 0.844388 0.954467
0.814084 0.847776 0.954162
0.821439 0.850065 0.953094
0.837644 0.855680 0.955138
0.860014 0.861570 0.955016
0.854124 0.826291 0.955566
0.863523 0.750607 0.957610
0.958648 0.697719 0.951629
0.802243 0.841947 0.957000
0.808286 0.845914 0.956847
0.823972 0.855650 0.954925
0.847929 0.869749 0.953887
0.865843 0.873899 0.954925
0.873167 0.858183 0.955535
0.879118 0.799069 0.957427
0.960815 0.748379 0.952789
0.794705 0.839902 0.959564
0.800229 0.843442 0.959564
0.813504 0.851408 0.958068
0.837400 0.866331 0.956146
0.872557 0.888121 0.953460
0.893217 0.890898 0.954528
0.895811 0.849332 0.956603
0.962402 0.802274 0.953094
0.789731 0.841398 0.964202
0.792721 0.843015 0.963592
0.804929 0.850004 0.961944
0.828244 0.864042 0.959869
0.862119 0.885435 0.957519
0.907500 0.915618 0.956237
0.923125 0.907774 0.959411
0.964538 0.859922 0.953857
0.793790 0.850858 0.971893
0.797024 0.852659 0.971466
0.808682 0.859281 0.970123
0.830777 0.872282 0.968170
0.861387 0.890837 0.965332
0.899321 0.914824 0.961791
0.941253 0.942687 0.958007
0.963989 0.910369 0.951263
0.774075 0.846647 0.976684
0.777066 0.848264 0.976287
0.790127 0.855497 0.975219
0.815457 0.870115 0.973754
0.848783 0.889799 0.971435
0.887968 0.913664 0.968078
0.930480 0.940429 0.963500
0.965362 0.960693 0.951202
