data/fiter_cube/52608991/1023024/file.cube
# Created by Adobe Lightroom plugin Export LUT (1.17.0)
# www.johnrellis.com/lightroom/exportlut.htm
# Preset: 大神蓝橙街拍_04 云集
# Color profile: C:\Program Files (x86)\Common Files\Adobe\Color\Profiles\Recommended\AdobeRGB1998.icc
LUT_3D_SIZE 32
DOMAIN_MIN 0.0 0.0 0.0
DOMAIN_MAX 1.0 1.0 1.0
0.099275 0.127413 0.155428
0.099275 0.127413 0.155428
0.099275 0.127413 0.155428
0.112337 0.125856 0.155459
0.135653 0.122011 0.155245
0.162814 0.116152 0.155062
0.193423 0.107546 0.154879
0.228885 0.093599 0.154208
0.270634 0.067536 0.153658
0.318120 0.004120 0.152712
0.373816 0.000000 0.151369
0.438422 0.000000 0.149172
0.511925 0.000000 0.145693
0.593225 0.000000 0.140322
0.674800 0.000000 0.133608
0.751400 0.000000 0.125338
0.817166 0.000000 0.116945
0.870695 0.000000 0.109865
0.913878 0.000000 0.104799
0.950347 0.000000 0.102419
0.981109 0.000000 0.102632
1.000000 0.000000 0.105348
1.000000 0.000000 0.111666
1.000000 0.000000 0.119478
1.000000 0.000000 0.127749
1.000000 0.000000 0.136019
1.000000 0.000000 0.144381
1.000000 0.000000 0.152438
1.000000 0.000000 0.160403
1.000000 0.000000 0.167788
1.000000 0.000000 0.174441
1.000000 0.000000 0.179355
0.099275 0.127413 0.155428
0.099275 0.127413 0.155428
0.099275 0.127413 0.155428
0.112856 0.125765 0.155459
0.135653 0.122011 0.155245
0.162295 0.116274 0.155062
0.192569 0.107820 0.154879
0.227176 0.094392 0.154238
0.267002 0.078462 0.153780
0.313268 0.049958 0.153079
0.367529 0.000000 0.151675
0.430610 0.000000 0.149569
0.502373 0.000000 0.146242
0.582055 0.000000 0.141299
0.663386 0.000000 0.134737
0.740169 0.000000 0.126467
0.807370 0.000000 0.118105
0.862547 0.000000 0.110597
0.907164 0.000000 0.105592
0.944823 0.000000 0.102876
0.976562 0.000000 0.102693
1.000000 0.000000 0.105287
1.000000 0.000000 0.110903
1.000000 0.000000 0.118410
1.000000 0.000000 0.126711
1.000000 0.000000 0.134798
1.000000 0.000000 0.143038
1.000000 0.000000 0.151492
1.000000 0.000000 0.159487
1.000000 0.000000 0.167025
1.000000 0.000000 0.173800
1.000000 0.000000 0.179049
0.099275 0.127413 0.155428
0.099275 0.127413 0.155428
0.099275 0.127413 0.155428
0.113375 0.125704 0.155459
0.136080 0.121950 0.155245
0.162234 0.116487 0.155184
0.191165 0.110201 0.154940
0.224277 0.102907 0.154665
0.263096 0.092103 0.154299
0.308598 0.076143 0.153445
0.362005 0.033143 0.152163
0.424079 0.000000 0.150271
0.494942 0.000000 0.147036
0.573877 0.000000 0.142031
0.655055 0.000000 0.135378
0.732448 0.000000 0.127260
0.800687 0.000000 0.118624
0.856901 0.000000 0.111238
0.902678 0.000000 0.106172
0.941161 0.000000 0.103365
0.973693 0.000000 0.103090
1.000000 0.000000 0.105531
1.000000 0.000000 0.111269
1.000000 0.000000 0.118654
1.000000 0.000000 0.126345
1.000000 0.000000 0.134524
1.000000 0.000000 0.143038
1.000000 0.000000 0.151369
1.000000 0.000000 0.159487
1.000000 0.000000 0.167269
1.000000 0.000000 0.174044
1.000000 0.000000 0.179538
0.100221 0.131258 0.157290
0.100160 0.131472 0.157443
0.100954 0.131350 0.157717
0.112673 0.133120 0.155978
0.133242 0.132448 0.156466
0.158755 0.129580 0.156191
0.187442 0.125917 0.155856
0.219974 0.121035 0.155703
0.258000 0.114626 0.155276
0.302708 0.105623 0.154391
0.354894 0.092287 0.153231
0.415839 0.069886 0.151003
0.485084 0.000000 0.147921
0.562402 0.000000 0.143160
0.643793 0.000000 0.136446
0.721492 0.000000 0.128298
0.791226 0.000000 0.119600
0.848844 0.000000 0.112367
0.895689 0.000000 0.107118
0.935119 0.000000 0.104555
0.968475 0.000000 0.104067
0.999756 0.000000 0.106325
1.000000 0.000000 0.111971
1.000000 0.000000 0.119112
1.000000 0.000000 0.127443
1.000000 0.000000 0.135897
1.000000 0.000000 0.144656
1.000000 0.000000 0.153414
1.000000 0.000000 0.161624
1.000000 0.000000 0.169223
1.000000 0.000000 0.176089
1.000000 0.000000 0.181491
0.101930 0.140719 0.161654
0.101900 0.140902 0.161624
0.105257 0.139590 0.162631
0.111360 0.138857 0.162570
0.131044 0.143923 0.155276
0.152529 0.145602 0.158358
0.180331 0.144259 0.157809
0.212070 0.141909 0.157473
0.249302 0.139040 0.156832
0.292515 0.135744 0.156008
0.343267 0.130495 0.154818
0.402319 0.123018 0.152743
0.469978 0.111147 0.149660
0.546136 0.090150 0.144839
0.628077 0.031586 0.137972
0.707790 0.000000 0.129427
0.780667 0.000000 0.120821
0.840879 0.000000 0.113375
0.889677 0.000000 0.108309
0.930236 0.000000 0.105531
0.964324 0.000000 0.105135
0.996918 0.000000 0.108064
1.000000 0.000000 0.113802
1.000000 0.000000 0.121370
1.000000 0.000000 0.129671
1.000000 0.000000 0.138399
1.000000 0.000000 0.147341
1.000000 0.000000 0.155947
1.000000 0.000000 0.164309
1.000000 0.000000 0.172122
1.000000 0.000000 0.178927
1.000000 0.000000 0.184512
0.104311 0.150332 0.166567
0.104677 0.150149 0.166445
0.110262 0.147646 0.168490
0.112245 0.142977 0.173373
0.127108 0.149874 0.162325
0.151919 0.157382 0.154299
0.174716 0.160983 0.159762
0.204898 0.162356 0.160037
0.241215 0.162722 0.159304
0.283696 0.163119 0.158358
0.333410 0.163241 0.157137
0.391302 0.162448 0.154879
0.457679 0.159976 0.151400
0.533013 0.153902 0.146456
0.615045 0.142794 0.139376
0.695949 0.125063 0.130831
0.770779 0.098268 0.122103
0.833219 0.049836 0.114839
0.883818 0.000000 0.109743
0.925841 0.000000 0.107088
0.961395 0.000000 0.107424
0.995605 0.000000 0.111055
1.000000 0.000000 0.127810
1.000000 0.000000 0.138003
1.000000 0.000000 0.147799
1.000000 0.000000 0.156893
1.000000 0.000000 0.165225
1.000000 0.000000 0.173007
1.000000 0.000000 0.180117
1.000000 0.000000 0.186557
1.000000 0.000000 0.191653
1.000000 0.000000 0.195163
0.108644 0.162753 0.172305
0.113069 0.160922 0.173739
0.117494 0.158389 0.175723
0.120851 0.153445 0.180545
0.128115 0.156283 0.176577
0.148409 0.165377 0.161196
0.179080 0.175692 0.152468
0.207584 0.181918 0.158480
0.240665 0.187778 0.162692
0.284947 0.192264 0.161257
0.336828 0.196994 0.159426
0.397223 0.201114 0.156619
0.465614 0.204318 0.152590
0.542382 0.205386 0.146853
0.624140 0.203128 0.139406
0.702907 0.196597 0.131289
0.775875 0.186069 0.122774
0.836973 0.170993 0.115663
0.887144 0.153140 0.111086
0.929534 0.131197 0.109590
0.969207 0.105623 0.111543
1.000000 0.071870 0.118166
1.000000 0.000000 0.127901
1.000000 0.000000 0.139132
1.000000 0.000000 0.150210
1.000000 0.000000 0.160220
1.000000 0.000000 0.169284
1.000000 0.000000 0.177432
1.000000 0.000000 0.184726
1.000000 0.000000 0.191287
1.000000 0.000000 0.196567
1.000000 0.000000 0.200290
0.118166 0.171725 0.179965
0.121553 0.169772 0.181277
0.124910 0.167483 0.183261
0.127871 0.162936 0.187594
0.127962 0.160433 0.190280
0.146609 0.170352 0.176272
0.168948 0.179934 0.158785
0.204013 0.193698 0.150179
0.237461 0.202548 0.156435
0.273625 0.212100 0.162997
0.322728 0.220951 0.162570
0.381140 0.229343 0.159976
0.447791 0.237156 0.156100
0.522698 0.243626 0.150759
0.603876 0.248020 0.143587
0.683925 0.248264 0.135012
0.759152 0.244450 0.126223
0.823117 0.236393 0.118898
0.875975 0.225193 0.114107
0.920317 0.211826 0.112673
0.964111 0.198398 0.115663
0.999329 0.182498 0.122560
1.000000 0.164401 0.132631
1.000000 0.142855 0.143893
1.000000 0.115450 0.154971
1.000000 0.076539 0.165316
1.000000 0.000000 0.174380
1.000000 0.000000 0.182895
1.000000 0.000000 0.190463
1.000000 0.000000 0.197177
1.000000 0.000000 0.202792
1.000000 0.000000 0.206821
0.126314 0.184604 0.189883
0.129580 0.182315 0.191043
0.132753 0.179294 0.192660
0.135653 0.173495 0.195987
0.132631 0.167361 0.201572
0.146731 0.175631 0.191562
0.167636 0.186099 0.175479
0.191989 0.196872 0.155795
0.232731 0.214511 0.147097
0.271977 0.226841 0.153292
0.314427 0.239445 0.159518
0.366796 0.253574 0.164340
0.432013 0.265476 0.160616
0.505516 0.276493 0.155337
0.585809 0.286015 0.148074
0.666712 0.291630 0.139376
0.743740 0.292973 0.130220
0.810452 0.289433 0.122591
0.865507 0.282139 0.117891
0.916045 0.273381 0.116915
0.959228 0.262974 0.120760
0.994293 0.250187 0.128298
1.000000 0.235843 0.138582
1.000000 0.219730 0.150057
1.000000 0.201694 0.161563
1.000000 0.180240 0.172000
1.000000 0.155154 0.181460
1.000000 0.123568 0.190005
1.000000 0.076448 0.197879
1.000000 0.000000 0.204746
1.000000 0.000000 0.210483
1.000000 0.000000 0.214664
0.134524 0.199069 0.200381
0.137758 0.196811 0.201572
0.141024 0.193820 0.202884
0.144869 0.187778 0.205966
0.143618 0.179751 0.210391
0.148287 0.180880 0.206088
0.167544 0.191806 0.192203
0.190494 0.203464 0.173983
0.218326 0.216495 0.151949
0.264317 0.237766 0.143069
0.309728 0.253452 0.148806
0.358373 0.268986 0.154910
0.415351 0.287388 0.163241
0.486275 0.303410 0.160616
0.566796 0.317754 0.153231
0.650111 0.329015 0.144381
0.729854 0.335332 0.134951
0.799649 0.336156 0.127169
0.860288 0.333227 0.122652
0.912749 0.327276 0.122286
0.954955 0.318059 0.127047
0.989014 0.306432 0.135195
1.000000 0.293034 0.145388
1.000000 0.278264 0.156619
1.000000 0.261936 0.167819
1.000000 0.244236 0.178317
1.000000 0.224491 0.188266
1.000000 0.202609 0.197421
1.000000 0.177737 0.205875
1.000000 0.147555 0.213352
1.000000 0.106935 0.219608
1.000000 0.000000 0.224094
0.142977 0.213748 0.210910
0.146059 0.211673 0.211826
0.149325 0.208682 0.213199
0.154055 0.202945 0.216007
0.155215 0.194888 0.220096
0.148836 0.186648 0.224491
0.168612 0.197482 0.208347
0.190311 0.209781 0.192569
0.216037 0.222934 0.172030
0.250217 0.240513 0.146517
0.300175 0.264012 0.137545
0.352422 0.283452 0.142245
0.407752 0.302037 0.148135
0.471870 0.323247 0.156283
0.546715 0.344366 0.159548
0.630518 0.360510 0.150607
0.711635 0.371405 0.141207
0.787869 0.378027 0.132753
0.852659 0.378790 0.128298
0.905058 0.374273 0.128847
0.947570 0.366461 0.134066
0.982330 0.355810 0.142489
1.000000 0.343603 0.153079
1.000000 0.329839 0.164675
1.000000 0.314763 0.176242
1.000000 0.298131 0.187167
1.000000 0.280369 0.197208
1.000000 0.261418 0.206424
1.000000 0.240848 0.215061
1.000000 0.218082 0.222782
1.000000 0.192172 0.229252
1.000000 0.160586 0.234104
0.152132 0.229953 0.222202
0.155184 0.227970 0.223178
0.158389 0.225101 0.224460
0.163638 0.219455 0.226932
0.166629 0.211398 0.230838
0.162814 0.201724 0.235874
0.168978 0.203922 0.229435
0.191257 0.216068 0.210575
0.216098 0.229862 0.192355
0.244907 0.245029 0.169192
0.286046 0.267643 0.139284
0.341588 0.294072 0.129732
0.428412 0.334997 0.128023
0.497292 0.359167 0.133211
0.574029 0.384741 0.141146
0.652674 0.408789 0.152560
0.743832 0.428473 0.145541
0.820432 0.437598 0.139681
0.879545 0.437690 0.139223
0.926543 0.432441 0.143954
0.964202 0.423377 0.152377
0.994568 0.412116 0.162905
1.000000 0.398810 0.174319
1.000000 0.384527 0.185946
1.000000 0.369024 0.197147
1.000000 0.352819 0.207431
1.000000 0.335515 0.216678
1.000000 0.317388 0.225101
1.000000 0.298405 0.232731
1.000000 0.278019 0.239597
1.000000 0.256138 0.245212
1.000000 0.230991 0.249027
0.164736 0.251896 0.236973
0.167605 0.249729 0.237797
0.171054 0.246677 0.238773
0.176211 0.240604 0.241062
0.180301 0.231724 0.244388
0.178927 0.221134 0.248814
0.170871 0.211673 0.252598
0.193454 0.224582 0.234958
0.219120 0.238590 0.213413
0.247745 0.254978 0.192386
0.281346 0.273136 0.165652
0.333562 0.303777 0.127474
0.400000 0.335882 0.115236
0.474952 0.367010 0.114717
0.557916 0.398779 0.116915
0.649256 0.431800 0.122774
0.734615 0.458900 0.137819
0.807309 0.473884 0.148531
0.866850 0.476020 0.147982
0.914549 0.472023 0.152468
0.953185 0.464149 0.160616
0.984710 0.453407 0.170962
1.000000 0.440803 0.182528
1.000000 0.426764 0.194125
1.000000 0.411749 0.205447
1.000000 0.395789 0.216007
1.000000 0.379126 0.225711
1.000000 0.361913 0.234653
1.000000 0.343816 0.242679
1.000000 0.325170 0.250126
1.000000 0.305180 0.256291
1.000000 0.283391 0.260716
0.174777 0.269413 0.248692
0.177676 0.267247 0.249393
0.180880 0.264439 0.250309
0.186404 0.258427 0.252415
0.191318 0.249668 0.255528
0.192081 0.238926 0.259678
0.185580 0.227237 0.264683
0.193088 0.230259 0.257267
0.218387 0.244846 0.237613
0.246860 0.260655 0.213931
0.279026 0.279149 0.190707
0.316411 0.299809 0.159854
0.377813 0.336828 0.112734
0.457801 0.376562 0.094759
0.550103 0.417121 0.084749
0.639155 0.450843 0.085267
0.722194 0.478126 0.097993
0.793179 0.497505 0.123751
0.850767 0.509575 0.156985
0.900542 0.507805 0.161044
0.941131 0.501549 0.168948
0.974243 0.492012 0.179477
1.000000 0.480171 0.191135
1.000000 0.466804 0.203189
1.000000 0.452247 0.214969
1.000000 0.436744 0.226017
1.000000 0.420508 0.236149
1.000000 0.403754 0.245518
1.000000 0.386603 0.254185
1.000000 0.368841 0.262242
1.000000 0.350317 0.268956
1.000000 0.330236 0.273838
0.185885 0.287968 0.261051
0.188602 0.286168 0.261875
0.191867 0.283268 0.262608
0.197391 0.277348 0.264561
0.202914 0.268559 0.267430
0.205386 0.257786 0.271214
0.201877 0.245762 0.275883
0.192813 0.235874 0.279210
0.217777 0.250828 0.261601
0.246250 0.267124 0.239811
0.277867 0.285100 0.214328
0.316136 0.307897 0.188235
0.361486 0.333959 0.151583
0.439643 0.382422 0.083619
0.527306 0.424750 0.046509
0.622278 0.465034 0.000000
0.706203 0.494636 0.003357
0.778592 0.515648 0.066621
0.838041 0.528954 0.111757
0.886473 0.537255 0.156710
0.927947 0.535912 0.177676
0.962768 0.527733 0.187930
0.991241 0.516808 0.199771
1.000000 0.504173 0.212222
1.000000 0.490242 0.224521
1.000000 0.475410 0.236423
1.000000 0.459907 0.247593
1.000000 0.444099 0.258213
1.000000 0.427802 0.268193
1.000000 0.411078 0.277256
1.000000 0.393652 0.284825
1.000000 0.374853 0.290227
0.197818 0.307744 0.274022
0.200534 0.305943 0.274784
0.203494 0.303349 0.275639
0.209293 0.297734 0.277470
0.215518 0.289189 0.280308
0.219425 0.278569 0.284031
0.218357 0.266484 0.288640
0.209659 0.253696 0.294041
0.219577 0.258793 0.287053
0.249088 0.276768 0.267948
0.282567 0.296452 0.243809
0.320165 0.318639 0.215763
0.362799 0.343847 0.184604
0.412055 0.371679 0.139681
0.500420 0.426520 0.000000
0.590845 0.468116 0.000000
0.681666 0.504692 0.000000
0.759548 0.530480 0.000000
0.823270 0.546593 0.000000
0.875578 0.556451 0.102510
0.917876 0.562188 0.158572
0.952850 0.562371 0.198428
0.983032 0.552880 0.210971
1.000000 0.541131 0.224033
1.000000 0.527947 0.237125
1.000000 0.513664 0.249882
1.000000 0.498634 0.261784
1.000000 0.483253 0.273167
1.000000 0.467475 0.283604
1.000000 0.451118 0.292790
1.000000 0.434058 0.300450
1.000000 0.415961 0.306004
0.210910 0.329442 0.287938
0.213535 0.327520 0.288548
0.216617 0.325139 0.289403
0.222629 0.319677 0.291295
0.229435 0.311650 0.294285
0.234745 0.301335 0.298100
0.235996 0.289342 0.302800
0.230503 0.276158 0.308293
0.220981 0.266117 0.311864
0.250248 0.284367 0.294652
0.283543 0.304601 0.273045
0.320806 0.326635 0.245640
0.362493 0.351324 0.215122
0.409461 0.378820 0.178378
0.462348 0.408515 0.123171
0.560418 0.469184 0.000000
0.649683 0.508263 0.000000
0.735439 0.541039 0.000000
0.805020 0.561608 0.000000
0.860746 0.573541 0.000000
0.906096 0.579950 0.097017
0.942626 0.583062 0.162753
0.971771 0.584771 0.218875
0.998322 0.574517 0.233341
1.000000 0.562219 0.247135
1.000000 0.548760 0.260838
1.000000 0.534508 0.273869
1.000000 0.519707 0.286229
1.000000 0.504479 0.297551
1.000000 0.488838 0.307744
1.000000 0.472480 0.316289
1.000000 0.455116 0.322515
0.226932 0.355535 0.304234
0.229862 0.353948 0.305089
0.242435 0.365515 0.314946
0.248783 0.359472 0.316747
0.256168 0.350561 0.319432
0.262242 0.338903 0.322942
0.264652 0.325292 0.327214
0.260777 0.310185 0.332097
0.248661 0.294560 0.337682
0.260990 0.301366 0.329595
0.295842 0.323125 0.309483
0.334966 0.346746 0.283970
0.378271 0.372076 0.251011
0.426001 0.400214 0.215030
0.478645 0.430610 0.168643
0.536919 0.462867 0.089570
0.644038 0.527947 0.000000
0.729976 0.562951 0.000000
0.803159 0.586847 0.000000
0.860319 0.599512 0.000000
0.905303 0.605158 0.000000
0.941924 0.607141 0.102907
0.971374 0.607050 0.176211
0.994751 0.606561 0.235904
1.000000 0.597955 0.262791
1.000000 0.584344 0.275761
1.000000 0.569940 0.288273
1.000000 0.555138 0.300359
1.000000 0.540093 0.311955
1.000000 0.524895 0.322881
1.000000 0.509148 0.332158
1.000000 0.492348 0.339055
0.246464 0.386267 0.323033
0.250431 0.386725 0.324926
0.255314 0.386206 0.327184
0.262821 0.382513 0.330083
0.271519 0.375128 0.333562
0.278782 0.364111 0.337377
0.282567 0.350347 0.341436
0.281010 0.334783 0.345983
0.271977 0.318395 0.351263
0.260502 0.306767 0.353918
0.294743 0.328679 0.336248
0.333135 0.352392 0.313756
0.375494 0.377752 0.284886
0.421851 0.404700 0.248295
0.472328 0.434516 0.209903
0.527489 0.465888 0.155673
0.591547 0.501762 0.006256
0.694972 0.562921 0.000000
0.774472 0.593256 0.000000
0.839078 0.611780 0.000000
0.889647 0.620935 0.000000
0.930144 0.624445 0.000000
0.962707 0.624598 0.108095
0.988556 0.623346 0.185794
1.000000 0.621942 0.247745
1.000000 0.616449 0.287236
1.000000 0.602869 0.300786
1.000000 0.588800 0.314000
1.000000 0.574395 0.326635
1.000000 0.559747 0.338445
1.000000 0.544640 0.348669
1.000000 0.528466 0.356237
0.262913 0.412116 0.337926
0.267002 0.412726 0.339971
0.271916 0.412512 0.342199
0.279454 0.408911 0.345006
0.288487 0.401465 0.348394
0.296178 0.390478 0.351934
0.301091 0.376501 0.355810
0.301244 0.360601 0.360113
0.294987 0.343694 0.365057
0.280003 0.326177 0.370336
0.294438 0.334508 0.361975
0.332341 0.358526 0.342199
0.374090 0.384070 0.316838
0.419928 0.411261 0.284520
0.469368 0.440314 0.246983
0.522759 0.471473 0.203281
0.580285 0.503929 0.138186
0.649256 0.542748 0.000000
0.746670 0.598505 0.000000
0.817319 0.622705 0.000000
0.873350 0.635859 0.000000
0.917815 0.641627 0.000000
0.953582 0.642817 0.000000
0.981964 0.641230 0.118624
1.000000 0.638697 0.197971
1.000000 0.636652 0.261784
1.000000 0.634241 0.312963
1.000000 0.620813 0.327001
1.000000 0.607080 0.340642
1.000000 0.593011 0.353338
1.000000 0.578515 0.364508
1.000000 0.563012 0.373083
0.280552 0.439673 0.353216
0.284672 0.440375 0.355291
0.289647 0.440314 0.357549
0.297520 0.436866 0.360418
0.306615 0.429572 0.363714
0.314977 0.418433 0.367102
0.320775 0.404364 0.370703
0.322393 0.388190 0.374762
0.318242 0.370581 0.379461
0.306615 0.352331 0.384527
0.294285 0.340154 0.386694
0.331792 0.364324 0.369268
0.372992 0.390204 0.346899
0.418463 0.417823 0.318547
0.467933 0.446967 0.282506
0.521355 0.478981 0.244663
0.579248 0.512718 0.194339
0.639582 0.546532 0.112947
0.715480 0.590021 0.000000
0.804166 0.638422 0.000000
0.866148 0.656580 0.000000
0.914244 0.664759 0.000000
0.951873 0.666529 0.000000
0.982177 0.665003 0.000000
1.000000 0.661555 0.142947
1.000000 0.657923 0.222782
1.000000 0.655604 0.288762
1.000000 0.656092 0.348699
1.000000 0.643915 0.366003
1.000000 0.630213 0.378943
1.000000 0.616022 0.390021
1.000000 0.600610 0.398077
0.308049 0.481514 0.375982
0.311620 0.480934 0.377234
0.315618 0.479438 0.378576
0.322637 0.474464 0.380529
0.331334 0.465766 0.383062
0.339727 0.453834 0.386053
0.346319 0.439246 0.389563
0.349645 0.422675 0.393713
0.347875 0.404700 0.398505
0.339269 0.385779 0.403998
0.321660 0.366583 0.409705
0.339086 0.377142 0.401099
0.381598 0.404425 0.381353
0.428046 0.433234 0.356054
0.478584 0.463752 0.323552
0.532982 0.496223 0.286076
0.589960 0.530083 0.243473
0.648493 0.563470 0.183932
0.707820 0.595789 0.068025
0.781033 0.637110 0.000000
0.853971 0.673274 0.000000
0.904631 0.683467 0.000000
0.943664 0.685908 0.000000
0.974395 0.683711 0.000000
1.000000 0.679896 0.000000
1.000000 0.675166 0.160311
1.000000 0.670924 0.240299
1.000000 0.668818 0.307713
1.000000 0.670039 0.369055
1.000000 0.661585 0.395026
1.000000 0.648096 0.407111
1.000000 0.633478 0.416327
0.330785 0.515465 0.393225
0.334417 0.515129 0.394598
0.338598 0.513939 0.396002
0.345922 0.508995 0.398108
0.354833 0.500420 0.400549
0.363592 0.488197 0.403357
0.370947 0.473213 0.406653
0.375219 0.456092 0.410559
0.375158 0.437385 0.415198
0.368872 0.417731 0.420447
0.354589 0.397467 0.426123
0.341680 0.385168 0.428443
0.384222 0.413001 0.411078
0.431159 0.442817 0.388769
0.482124 0.474281 0.360357
0.537346 0.507561 0.324376
0.594202 0.542107 0.288029
0.651820 0.575769 0.240787
0.710353 0.608606 0.171389
0.766018 0.637842 0.000000
0.833951 0.675349 0.000000
0.894926 0.701839 0.000000
0.937621 0.706722 0.000000
0.970550 0.705440 0.000000
0.991577 0.697169 0.000000
1.000000 0.692073 0.005890
1.000000 0.686702 0.177676
1.000000 0.682399 0.257786
1.000000 0.680629 0.326360
1.000000 0.682673 0.388769
1.000000 0.678096 0.422461
1.000000 0.664637 0.433417
0.366339 0.566674 0.418677
0.370397 0.566827 0.420325
0.374823 0.565332 0.421698
0.381781 0.559838 0.423377
0.390661 0.550164 0.425452
0.399603 0.536950 0.427893
0.407263 0.520500 0.430701
0.411933 0.501579 0.434058
0.412360 0.480812 0.437995
0.407202 0.459052 0.442603
0.394354 0.436378 0.447486
0.372473 0.413855 0.452766
0.392248 0.425971 0.443122
0.438575 0.455726 0.422614
0.488380 0.486732 0.396490
0.541741 0.519097 0.363653
0.596094 0.551873 0.329107
0.650782 0.584253 0.289525
0.707210 0.616602 0.236942
0.762081 0.646326 0.158083
0.812436 0.671382 0.000000
0.874632 0.704799 0.000000
0.925566 0.723079 0.000000
0.961334 0.723384 0.000000
0.988556 0.718746 0.000000
1.000000 0.711482 0.000000
1.000000 0.705013 0.081666
1.000000 0.698848 0.200473
1.000000 0.694423 0.280369
1.000000 0.693202 0.349615
1.000000 0.696223 0.412207
1.000000 0.695247 0.451698
0.395148 0.605951 0.438331
0.399390 0.606317 0.440040
0.403876 0.605035 0.441474
0.411078 0.599969 0.443091
0.420264 0.590784 0.445167
0.430030 0.578271 0.447669
0.439033 0.562676 0.450690
0.445563 0.544335 0.454353
0.448371 0.523674 0.458717
0.445991 0.501762 0.463874
0.436683 0.478920 0.469459
0.418769 0.455695 0.475593
0.404852 0.442573 0.477699
0.452979 0.474281 0.459419
0.504723 0.507378 0.436225
0.559350 0.541283 0.406958
0.614191 0.574609 0.374395
0.668208 0.607141 0.340032
0.722530 0.638758 0.296666
0.774197 0.667048 0.238804
0.821683 0.690822 0.148836
0.864103 0.709438 0.000000
0.917784 0.736599 0.000000
0.958709 0.746517 0.000000
0.987854 0.742336 0.000000
1.000000 0.734707 0.000000
1.000000 0.725521 0.000000
1.000000 0.718013 0.123690
1.000000 0.711574 0.230014
1.000000 0.707607 0.309667
1.000000 0.707393 0.379339
1.000000 0.711604 0.441138
0.433082 0.653590 0.463569
0.437201 0.653407 0.465034
0.441108 0.651637 0.466041
0.447791 0.646143 0.467353
0.456550 0.636957 0.468971
0.466377 0.624537 0.471107
0.475868 0.609186 0.473793
0.483803 0.591302 0.477272
0.488838 0.571344 0.481727
0.489418 0.549859 0.487129
0.483345 0.526696 0.493202
0.469520 0.502983 0.500084
0.445167 0.478889 0.507134
0.470344 0.494942 0.497475
0.523308 0.529503 0.476326
0.577722 0.563806 0.449958
0.631861 0.597101 0.419440
0.684321 0.629114 0.389319
0.735470 0.659205 0.352819
0.783902 0.686000 0.306676
0.828702 0.708644 0.244297
0.869017 0.726436 0.144015
0.904692 0.739559 0.000000
0.951659 0.761654 0.000000
0.985046 0.764920 0.000000
1.000000 0.757443 0.000000
1.000000 0.747677 0.000000
1.000000 0.736995 0.000000
1.000000 0.728786 0.157504
1.000000 0.722347 0.257816
1.000000 0.718959 0.337377
1.000000 0.719722 0.406378
0.473121 0.698909 0.489662
0.476661 0.698390 0.490883
0.480659 0.696712 0.491920
0.487526 0.692073 0.493324
0.497353 0.684382 0.495552
0.509026 0.674464 0.498634
0.522271 0.662898 0.503227
0.535241 0.649531 0.509056
0.546715 0.634638 0.516350
0.554864 0.618158 0.524895
0.557641 0.600092 0.534447
0.552605 0.580346 0.544793
0.537041 0.558892 0.555383
0.526268 0.548547 0.560418
0.582849 0.586542 0.541527
0.637934 0.622065 0.516899
0.691310 0.655207 0.487800
0.738674 0.684108 0.460639
0.782742 0.709499 0.428992
0.823972 0.731472 0.390204
0.861967 0.749477 0.340581
0.896666 0.763333 0.272831
0.927886 0.772946 0.164004
0.956115 0.779080 0.000000
0.993957 0.793759 0.000000
1.000000 0.789273 0.000000
1.000000 0.777554 0.000000
1.000000 0.764828 0.000000
1.000000 0.752407 0.008453
1.000000 0.743099 0.208713
1.000000 0.736721 0.302678
1.000000 0.734066 0.379248
0.546288 0.764431 0.539361
0.549432 0.763729 0.540368
0.552575 0.762020 0.541009
0.558618 0.757656 0.542046
0.567498 0.750729 0.543603
0.578363 0.741756 0.546044
0.590661 0.730922 0.549615
0.603357 0.718288 0.554406
0.614893 0.703883 0.560510
0.623865 0.687770 0.567864
0.627955 0.669520 0.576043
0.625360 0.649592 0.585260
0.613733 0.627863 0.594965
0.590326 0.604639 0.604852
