data/fiter_cube/37639453/1023441/file.cube
# Created by Adobe Lightroom plugin Export LUT (1.17.0)
# www.johnrellis.com/lightroom/exportlut.htm
# Preset: 油管牛人_07 云集
# Color profile: C:\Program Files (x86)\Common Files\Adobe\Color\Profiles\Recommended\AdobeRGB1998.icc
LUT_3D_SIZE 5
DOMAIN_MIN 0.000000 0.000000 0.000000
DOMAIN_MAX 0.903226 0.903226 0.903226
0.013916 0.015595 0.024323
0.121370 0.043030 0.053346
0.432074 0.000000 0.025696
0.815152 0.000000 0.000000
0.981079 0.217441 0.000000
0.008637 0.114168 0.080903
0.105348 0.126436 0.071992
0.428870 0.145968 0.006195
0.809415 0.181491 0.000000
0.982544 0.326818 0.000000
0.000000 0.341741 0.155123
0.000000 0.348882 0.109682
0.387549 0.419135 0.084382
0.806424 0.510399 0.000000
0.970550 0.532006 0.031861
0.000000 0.686091 0.317388
0.000000 0.687556 0.278355
0.298192 0.645838 0.146304
0.716091 0.712978 0.189334
0.946563 0.756527 0.298161
0.000000 0.907774 0.521660
0.000000 0.904326 0.508049
0.363561 0.883696 0.434882
0.657160 0.848905 0.354162
0.893248 0.888609 0.553368
0.028443 0.043732 0.117586
0.125643 0.038758 0.130190
0.415930 0.000000 0.136049
0.784604 0.000000 0.146242
0.969177 0.208194 0.187442
0.007599 0.114443 0.134920
0.113344 0.139071 0.146822
0.417639 0.137270 0.150881
0.785031 0.142519 0.145022
0.967926 0.312139 0.192844
0.000000 0.362463 0.235935
0.000000 0.372412 0.215213
0.380560 0.407660 0.182223
0.789364 0.486030 0.141115
0.963256 0.529961 0.223819
0.000000 0.696498 0.396887
0.000000 0.698421 0.370245
0.310185 0.665949 0.242313
0.716823 0.713069 0.287236
0.942016 0.756435 0.382605
0.000000 0.909148 0.564477
0.000000 0.905547 0.552667
0.444434 0.888731 0.534081
0.665248 0.855741 0.424231
0.893645 0.890532 0.598566
0.000000 0.063020 0.322972
0.145571 0.006683 0.360693
0.508171 0.000000 0.404791
0.815427 0.000000 0.406531
0.957855 0.269902 0.450141
0.000000 0.152560 0.324468
0.097261 0.151644 0.361975
0.500389 0.076692 0.416754
0.799802 0.095613 0.414740
0.948150 0.397162 0.489265
0.000000 0.356573 0.390845
0.000000 0.379492 0.404273
0.443763 0.450782 0.447211
0.770016 0.483406 0.461128
0.943755 0.557610 0.504509
0.000000 0.731197 0.607538
0.000000 0.726772 0.590021
0.401068 0.714504 0.533806
0.725795 0.722896 0.521660
0.930602 0.757778 0.567132
0.000000 0.911498 0.690700
0.000000 0.909514 0.682795
0.436194 0.896086 0.654261
0.670924 0.863920 0.579980
0.887449 0.887419 0.679835
0.000000 0.059571 0.645869
0.200229 0.000000 0.668574
0.617578 0.000000 0.737331
0.828031 0.000000 0.704952
0.960418 0.357671 0.686763
0.000000 0.172000 0.639948
0.116609 0.165255 0.661677
0.586084 0.061280 0.728023
0.817655 0.168002 0.706294
0.951995 0.434699 0.694148
0.000000 0.395270 0.609644
0.000000 0.401373 0.613703
0.458686 0.433448 0.690700
0.784451 0.504417 0.716152
0.931334 0.607050 0.721889
0.000000 0.661738 0.699977
0.000000 0.667445 0.701625
0.446448 0.692744 0.714717
0.744350 0.743435 0.743404
0.910094 0.763394 0.751675
0.000000 0.918120 0.842985
0.268193 0.916075 0.843381
0.531151 0.905608 0.826200
0.719020 0.887388 0.784787
0.885985 0.889006 0.787259
0.242710 0.116732 0.864591
0.370123 0.080873 0.869139
0.627924 0.000000 0.885039
0.851957 0.188205 0.900633
0.948943 0.403937 0.852964
0.167910 0.223026 0.858762
0.327733 0.215946 0.863584
0.607446 0.216800 0.880095
0.843229 0.319982 0.897429
0.943542 0.469276 0.854673
0.000000 0.442878 0.835538
0.065400 0.434668 0.842863
0.518608 0.446387 0.862974
0.813931 0.549401 0.889616
0.931243 0.629725 0.865507
0.000000 0.665949 0.840940
0.000000 0.663264 0.839048
0.361456 0.657588 0.835233
0.727260 0.708583 0.868162
0.919310 0.791501 0.887175
0.178073 0.852415 0.877928
0.299718 0.853269 0.878111
0.525902 0.858274 0.879973
0.733242 0.870176 0.883757
0.896208 0.899229 0.899565
