data/fiter_cube/37639453/1023441/file.cube
# Created by Adobe Lightroom plugin Export LUT (1.17.0)
# www.johnrellis.com/lightroom/exportlut.htm
# Preset: 油管牛人_07 云集
# Color profile: C:\Program Files (x86)\Common Files\Adobe\Color\Profiles\Recommended\AdobeRGB1998.icc
LUT_3D_SIZE 32
DOMAIN_MIN 0.0 0.0 0.0
DOMAIN_MAX 1.0 1.0 1.0
0.013916 0.015595 0.024323
0.026764 0.016968 0.024964
0.043091 0.018860 0.027619
0.060273 0.023041 0.032074
0.072541 0.030213 0.038209
0.085237 0.037018 0.045197
0.101167 0.042451 0.050507
0.121370 0.043030 0.053346
0.146212 0.039277 0.056184
0.176791 0.027466 0.057038
0.214298 0.004578 0.057618
0.259312 0.000000 0.055451
0.311742 0.000000 0.050477
0.370275 0.000000 0.040253
0.432074 0.000000 0.025696
0.494881 0.000000 0.004730
0.556146 0.000000 0.000000
0.613733 0.000000 0.000000
0.674220 0.000000 0.000000
0.729427 0.000000 0.000000
0.775784 0.000000 0.000000
0.815152 0.000000 0.000000
0.848356 0.000000 0.000000
0.876768 0.000000 0.000000
0.901518 0.000000 0.000000
0.923583 0.069123 0.000000
0.943969 0.133364 0.000000
0.962982 0.178042 0.000000
0.981079 0.217441 0.000000
0.998413 0.255039 0.060273
1.000000 0.292515 0.103731
1.000000 0.331640 0.144747
0.013672 0.027161 0.029877
0.024201 0.027771 0.029541
0.041169 0.029694 0.028962
0.060121 0.032441 0.033478
0.071992 0.038636 0.039704
0.084932 0.044251 0.045716
0.100649 0.048219 0.050965
0.120455 0.049012 0.053834
0.145144 0.046418 0.055879
0.175296 0.035492 0.057618
0.212100 0.015595 0.057404
0.256321 0.000000 0.055482
0.307927 0.000000 0.050752
0.365484 0.000000 0.042145
0.426734 0.000000 0.027039
0.488869 0.000000 0.007813
0.549950 0.000000 0.000000
0.607935 0.000000 0.000000
0.668238 0.000000 0.000000
0.722805 0.000000 0.000000
0.769162 0.000000 0.000000
0.808804 0.000000 0.000000
0.842527 0.000000 0.000000
0.871641 0.000000 0.000000
0.897032 0.000000 0.000000
0.919707 0.066163 0.000000
0.940673 0.130861 0.000000
0.960143 0.175662 0.000000
0.978637 0.215152 0.000000
0.996277 0.252689 0.045014
1.000000 0.290227 0.097688
1.000000 0.328740 0.139010
0.014038 0.040894 0.037415
0.024781 0.041535 0.035981
0.037598 0.041688 0.037812
0.059022 0.044434 0.037995
0.071809 0.047730 0.042206
0.084382 0.052125 0.047883
0.100038 0.054719 0.051301
0.119692 0.055665 0.054170
0.144167 0.053529 0.056245
0.174014 0.046662 0.057954
0.210452 0.029084 0.057740
0.254276 0.000000 0.055756
0.305394 0.000000 0.051087
0.362768 0.000000 0.042695
0.423560 0.000000 0.027802
0.485451 0.000000 0.007660
0.546532 0.000000 0.000000
0.604517 0.000000 0.000000
0.665309 0.000000 0.000000
0.719234 0.000000 0.000000
0.765713 0.000000 0.000000
0.805570 0.000000 0.000000
0.839567 0.000000 0.000000
0.868986 0.000000 0.000000
0.894621 0.000000 0.000000
0.917632 0.075685 0.000000
0.938842 0.134951 0.000000
0.958587 0.178592 0.000000
0.977295 0.216953 0.000000
0.995087 0.254063 0.033722
1.000000 0.290837 0.094667
1.000000 0.329107 0.136385
0.015808 0.058534 0.050599
0.027253 0.058717 0.051972
0.036652 0.059052 0.050935
0.054841 0.059571 0.051270
0.069459 0.062043 0.051026
0.084443 0.063569 0.049836
0.100130 0.064454 0.053346
0.119844 0.064485 0.055482
0.144045 0.063935 0.057496
0.173587 0.061921 0.058167
0.209689 0.053895 0.058656
0.252811 0.029511 0.056519
0.303380 0.000000 0.051698
0.359930 0.000000 0.043336
0.420294 0.000000 0.027253
0.481910 0.000000 0.008118
0.542779 0.000000 0.000000
0.600641 0.000000 0.000000
0.661616 0.000000 0.000000
0.713985 0.000000 0.000000
0.759762 0.000000 0.000000
0.799741 0.000000 0.000000
0.834501 0.000000 0.000000
0.865019 0.000000 0.000000
0.891936 0.000000 0.000000
0.915984 0.102754 0.000000
0.937865 0.151400 0.000000
0.958038 0.191470 0.000000
0.976837 0.227512 0.000000
0.994629 0.262333 0.032807
1.000000 0.297459 0.093629
1.000000 0.333837 0.134493
0.018647 0.069368 0.061189
0.026642 0.069306 0.061128
0.033967 0.069795 0.059266
0.052918 0.069368 0.059937
0.065675 0.071534 0.059907
0.080140 0.074159 0.059174
0.098512 0.075715 0.056336
0.118990 0.076722 0.057435
0.142947 0.077150 0.058503
0.172152 0.076936 0.059266
0.207614 0.074372 0.058991
0.250278 0.067933 0.056916
0.300175 0.048524 0.051881
0.356207 0.000000 0.042176
0.416480 0.000000 0.026551
0.478614 0.000000 0.006470
0.540124 0.000000 0.000000
0.601068 0.000000 0.000000
0.660792 0.000000 0.000000
0.712215 0.000000 0.000000
0.757168 0.000000 0.000000
0.796902 0.000000 0.000000
0.831662 0.000000 0.000000
0.862394 0.000000 0.000000
0.889677 0.085512 0.000000
0.914092 0.134524 0.000000
0.936217 0.173129 0.000000
0.956542 0.207736 0.000000
0.975463 0.240665 0.000000
0.993286 0.273289 0.024445
1.000000 0.306401 0.091432
1.000000 0.341192 0.132662
0.019318 0.080354 0.067567
0.024628 0.080812 0.067079
0.032715 0.081453 0.066163
0.048005 0.081422 0.063966
0.064027 0.081453 0.064118
0.076143 0.084810 0.064210
0.093263 0.089235 0.063447
0.115877 0.092561 0.061036
0.143191 0.094453 0.059480
0.172427 0.095399 0.059602
0.207858 0.095399 0.059052
0.250309 0.092958 0.056550
0.299840 0.086549 0.050813
0.355962 0.072389 0.040803
0.415930 0.031159 0.024140
0.478126 0.000000 0.002808
0.539696 0.000000 0.000000
0.603784 0.000000 0.000000
0.662074 0.000000 0.000000
0.712734 0.000000 0.000000
0.757626 0.000000 0.000000
0.797391 0.000000 0.000000
0.865324 0.123995 0.000000
0.891752 0.156405 0.000000
0.914763 0.185306 0.000000
0.935332 0.211582 0.000000
0.954070 0.237491 0.000000
0.971466 0.262852 0.000000
0.988006 0.289250 0.031281
1.000000 0.316869 0.089052
1.000000 0.345830 0.125917
1.000000 0.377081 0.163607
0.016693 0.096498 0.073976
0.020478 0.097169 0.073518
0.027192 0.097749 0.072663
0.040345 0.098939 0.069123
0.061189 0.098146 0.068544
0.074189 0.099458 0.068421
0.090028 0.104891 0.068360
0.112703 0.111543 0.067201
0.141787 0.116915 0.064332
0.177157 0.121065 0.060700
0.217411 0.123201 0.057069
0.262272 0.122744 0.053346
0.313603 0.119814 0.046418
0.370489 0.113375 0.032197
0.430488 0.102052 0.013916
0.491188 0.086183 0.000000
0.553338 0.065309 0.000000
0.619776 0.043702 0.000000
0.676478 0.044739 0.000000
0.727016 0.069490 0.000000
0.772763 0.097261 0.000000
0.813901 0.127230 0.000000
0.850156 0.157748 0.000000
0.881468 0.186191 0.000000
0.908141 0.212528 0.000000
0.930694 0.236881 0.000000
0.950469 0.259831 0.000000
0.968444 0.282811 0.000000
0.985351 0.306584 0.013855
1.000000 0.331395 0.083925
1.000000 0.358129 0.121706
1.000000 0.387243 0.159792
0.008637 0.114168 0.080903
0.012634 0.114717 0.080171
0.019562 0.115206 0.079072
0.033112 0.116609 0.076814
0.052399 0.116915 0.072084
0.069917 0.115511 0.072297
0.085512 0.118959 0.072450
0.105348 0.126436 0.071992
0.132906 0.135714 0.071290
0.168002 0.143252 0.066743
0.210422 0.149142 0.061372
0.261112 0.152956 0.050477
0.313146 0.153079 0.040955
0.369390 0.150668 0.025788
0.428870 0.145968 0.006195
0.489326 0.139467 0.000000
0.556847 0.135378 0.000000
0.619440 0.134188 0.000000
0.674128 0.138308 0.000000
0.723476 0.147860 0.000000
0.768582 0.162783 0.000000
0.809415 0.181491 0.000000
0.845548 0.203159 0.000000
0.876890 0.224979 0.000000
0.903868 0.246006 0.000000
0.926818 0.266148 0.000000
0.946990 0.285649 0.000000
0.965362 0.305638 0.000000
0.982544 0.326818 0.000000
0.998840 0.349187 0.077760
1.000000 0.373816 0.118379
1.000000 0.400855 0.156710
0.000000 0.135561 0.088289
0.000153 0.136019 0.087648
0.005402 0.136812 0.086610
0.019379 0.137942 0.084016
0.036500 0.139406 0.078004
0.062898 0.138155 0.076265
0.081575 0.136019 0.076509
0.100221 0.142672 0.076143
0.124941 0.152468 0.075715
0.158267 0.164645 0.074800
0.200595 0.174838 0.068360
0.251011 0.182193 0.060395
0.309392 0.187350 0.041810
0.371130 0.188907 0.014801
0.430060 0.187747 0.000000
0.496162 0.187320 0.000000
0.561547 0.188327 0.000000
0.621393 0.191257 0.000000
0.674128 0.196078 0.000000
0.722347 0.204471 0.000000
0.766690 0.216098 0.000000
0.806943 0.230900 0.000000
0.842771 0.247501 0.000000
0.873991 0.264927 0.000000
0.900877 0.282322 0.000000
0.923980 0.298558 0.000000
0.944335 0.315435 0.000000
0.962829 0.332403 0.000000
0.980194 0.350805 0.000000
0.996582 0.370550 0.075257
1.000000 0.392554 0.115816
1.000000 0.417334 0.155123
0.000000 0.160555 0.096864
0.000000 0.161074 0.095979
0.000000 0.161593 0.094850
0.000000 0.162722 0.092226
0.016876 0.164553 0.088197
0.045319 0.164096 0.080629
0.073671 0.161868 0.080629
0.095125 0.159792 0.080415
0.118013 0.170260 0.080079
0.148135 0.182498 0.079194
0.187991 0.196872 0.077760
0.238804 0.209873 0.069398
0.296757 0.218814 0.057191
0.361303 0.225132 0.024414
0.435584 0.231876 0.000000
0.504479 0.235691 0.000000
0.568231 0.239475 0.000000
0.626764 0.244083 0.000000
0.678004 0.249668 0.000000
0.724575 0.256962 0.000000
0.767056 0.266239 0.000000
0.805417 0.277714 0.000000
0.839658 0.290135 0.000000
0.869902 0.303532 0.000000
0.896483 0.316899 0.000000
0.919738 0.330724 0.000000
0.940581 0.344579 0.000000
0.959686 0.359686 0.000000
0.977539 0.376135 0.000000
0.994415 0.394171 0.071717
1.000000 0.414588 0.116579
1.000000 0.437598 0.156527
0.000000 0.188022 0.105898
0.000000 0.188479 0.104891
0.000000 0.189029 0.103853
0.000000 0.190188 0.101442
0.000000 0.191989 0.097078
0.010468 0.193393 0.088106
0.060822 0.191012 0.084749
0.087678 0.188113 0.084474
0.112062 0.188937 0.084413
0.140414 0.201999 0.083528
0.176761 0.216831 0.082338
0.224002 0.233463 0.079713
0.285344 0.250278 0.069093
0.354650 0.263371 0.043641
0.428382 0.273533 0.000000
0.502312 0.281529 0.000000
0.571496 0.288548 0.000000
0.627802 0.293370 0.000000
0.677668 0.298650 0.000000
0.723415 0.304875 0.000000
0.765255 0.313024 0.000000
0.803281 0.322332 0.000000
0.837369 0.332860 0.000000
0.867552 0.343847 0.000000
0.894041 0.354894 0.000000
0.917266 0.365759 0.000000
0.938048 0.377203 0.000000
0.957122 0.389532 0.000000
0.975036 0.403388 0.000000
0.991974 0.419074 0.069551
1.000000 0.437171 0.115084
1.000000 0.458137 0.156680
0.000000 0.219730 0.115999
0.000000 0.220218 0.115084
0.000000 0.220584 0.113954
0.000000 0.221653 0.111147
0.000000 0.223453 0.106752
0.000000 0.225559 0.100771
0.016602 0.224430 0.089143
0.074830 0.221134 0.089052
0.105287 0.217136 0.088350
0.133455 0.222385 0.087709
0.168002 0.238071 0.086732
0.214145 0.258122 0.084443
0.300664 0.301732 0.079713
0.383612 0.326787 0.060609
0.462898 0.341924 0.000000
0.539055 0.353887 0.000000
0.608087 0.364202 0.000000
0.666682 0.371099 0.000000
0.713497 0.374670 0.000000
0.753841 0.378149 0.000000
0.790555 0.382544 0.000000
0.823758 0.388098 0.000000
0.853422 0.394141 0.000000
0.880003 0.400580 0.000000
0.903685 0.407416 0.000000
0.924865 0.414618 0.000000
0.944060 0.422675 0.000000
0.961791 0.431739 0.000000
0.978546 0.442481 0.023102
0.994568 0.455360 0.092714
1.000000 0.470619 0.133120
1.000000 0.489052 0.173190
0.000000 0.262272 0.129458
0.000000 0.262486 0.128511
0.000000 0.262577 0.127016
0.000000 0.263035 0.124086
0.000000 0.263890 0.119173
0.000000 0.264958 0.112215
0.000000 0.265110 0.098939
0.042725 0.260990 0.093416
0.093996 0.256626 0.092714
0.127871 0.252659 0.092439
0.164858 0.268345 0.091646
0.213626 0.292760 0.089845
0.276799 0.319921 0.085634
0.353613 0.347906 0.078309
0.443305 0.376654 0.051026
0.521538 0.392554 0.000000
0.591943 0.404974 0.000000
0.652186 0.413275 0.000000
0.703853 0.418891 0.000000
0.749660 0.423346 0.000000
0.786038 0.426001 0.000000
0.819089 0.429358 0.000000
0.848692 0.433204 0.000000
0.875334 0.437720 0.000000
0.899168 0.442573 0.000000
0.920562 0.447913 0.000000
0.940002 0.454078 0.000000
0.957977 0.461250 0.000000
0.975006 0.470069 0.008606
0.991333 0.481147 0.090883
1.000000 0.494575 0.132052
1.000000 0.511254 0.173220
0.000000 0.299626 0.141421
0.000000 0.299870 0.140536
0.000000 0.299962 0.139193
0.000000 0.300420 0.136049
0.000000 0.300755 0.131044
0.000000 0.301579 0.123964
0.000000 0.303227 0.114809
0.000000 0.301701 0.097749
0.071748 0.298772 0.097292
0.118044 0.295415 0.096651
0.156313 0.291478 0.096071
0.202121 0.315068 0.094301
0.260258 0.341711 0.091279
0.331640 0.370031 0.085420
0.413336 0.398810 0.074891
0.501854 0.427283 0.042878
0.573877 0.442176 0.000000
0.635920 0.452125 0.000000
0.689662 0.458717 0.000000
0.737026 0.463874 0.000000
0.779324 0.468055 0.000000
0.815061 0.470985 0.000000
0.844816 0.473243 0.000000
0.871611 0.476051 0.000000
0.895598 0.479164 0.000000
0.917144 0.482765 0.000000
0.936767 0.486976 0.000000
0.954955 0.492622 0.000000
0.972168 0.499763 0.006867
0.988708 0.509026 0.091585
1.000000 0.520897 0.135348
1.000000 0.535821 0.177066
0.000000 0.341741 0.155123
0.000000 0.342260 0.154421
0.000000 0.342565 0.152865
0.000000 0.343511 0.149935
0.000000 0.344579 0.145022
0.000000 0.346166 0.138064
0.000000 0.348425 0.128817
0.000000 0.348882 0.109682
0.000000 0.345068 0.101534
0.099458 0.340703 0.100679
0.147494 0.335637 0.099855
0.190249 0.336370 0.098451
0.245121 0.362676 0.096040
0.311284 0.390570 0.091768
0.387549 0.419135 0.084382
0.469734 0.447059 0.072267
0.555535 0.476448 0.043641
0.620172 0.488808 0.000000
0.675624 0.496773 0.000000
0.724514 0.502403 0.000000
0.767941 0.506889 0.000000
0.806424 0.510399 0.000000
0.840360 0.512871 0.000000
0.867796 0.513970 0.000000
0.891997 0.515679 0.000000
0.913939 0.517876 0.000000
0.934081 0.521111 0.000000
0.952850 0.525689 0.000000
0.970550 0.532006 0.031861
0.987488 0.540368 0.102480
1.000000 0.551263 0.146761
1.000000 0.565332 0.190799
0.000000 0.393042 0.173068
0.000000 0.393652 0.172061
0.000000 0.393957 0.170809
0.000000 0.394659 0.167605
0.000000 0.395453 0.162112
0.000000 0.396826 0.154757
0.000000 0.398627 0.145357
0.000000 0.401129 0.132815
0.000000 0.397650 0.106294
0.063935 0.392157 0.105104
0.133639 0.385321 0.104036
0.182650 0.377417 0.102388
0.230777 0.383429 0.100649
0.292058 0.409644 0.097475
0.362402 0.436591 0.091920
0.439673 0.463813 0.083497
0.519768 0.491035 0.072297
0.601984 0.521294 0.060334
0.660945 0.532036 0.000000
0.712551 0.539849 0.000000
0.757961 0.545586 0.000000
0.798123 0.549706 0.000000
0.833219 0.552422 0.000000
0.864164 0.554162 0.000000
0.890776 0.554803 0.000000
0.912779 0.555718 0.000000
0.932952 0.557397 0.000000
0.951720 0.560601 0.000000
0.969390 0.565209 0.061952
0.986145 0.571801 0.114717
1.000000 0.580713 0.157717
1.000000 0.592615 0.200778
0.000000 0.441688 0.191287
0.000000 0.441840 0.190097
0.000000 0.441840 0.188479
0.000000 0.442176 0.185367
0.000000 0.442634 0.179599
0.000000 0.443458 0.172305
0.000000 0.444770 0.162417
0.000000 0.446143 0.149538
0.000000 0.445258 0.122927
0.000000 0.439307 0.109712
0.107485 0.432288 0.108553
0.169894 0.423926 0.106600
0.219303 0.413916 0.104524
0.274113 0.427680 0.101869
0.340459 0.454353 0.098329
0.413306 0.480690 0.092775
0.490394 0.507164 0.085481
0.567346 0.533989 0.076997
0.643153 0.562402 0.076631
0.698024 0.573236 0.013184
0.745418 0.579950 0.000000
0.786801 0.584710 0.000000
0.823270 0.587671 0.000000
0.855375 0.589654 0.000000
0.883726 0.590570 0.000000
0.908934 0.591058 0.000000
0.930236 0.591577 0.000000
0.949218 0.593378 0.000000
0.967102 0.596735 0.074464
0.984039 0.602045 0.125032
1.000000 0.609674 0.167849
1.000000 0.620325 0.212222
0.000000 0.491096 0.211429
0.000000 0.491920 0.210636
0.000000 0.518791 0.221134
0.000000 0.518761 0.217166
0.000000 0.518578 0.211063
0.000000 0.518090 0.202121
0.000000 0.517845 0.191012
0.000000 0.517632 0.176761
0.000000 0.517723 0.158633
0.000000 0.511437 0.119875
0.065461 0.502556 0.117342
0.161410 0.492164 0.114656
0.222080 0.479805 0.111391
0.272038 0.465431 0.107729
0.335515 0.487617 0.105379
0.406958 0.513542 0.102296
0.482063 0.539330 0.098238
0.555474 0.564172 0.095277
0.625727 0.588159 0.095460
0.692592 0.612360 0.106355
0.742397 0.622217 0.091463
0.783841 0.626337 0.066102
0.820127 0.628748 0.034272
0.851804 0.629786 0.002228
0.879545 0.629480 0.000000
0.904265 0.628565 0.000000
0.926696 0.627375 0.000000
0.947265 0.626856 0.000000
0.964813 0.628382 0.089357
0.981750 0.632136 0.136355
0.998077 0.638209 0.179232
1.000000 0.647272 0.223117
0.000000 0.547204 0.237247
0.000000 0.550896 0.237827
0.000000 0.554681 0.238010
0.000000 0.557855 0.235782
0.000000 0.560204 0.231113
0.000000 0.560967 0.223026
0.000000 0.560998 0.212131
0.000000 0.560601 0.198032
0.000000 0.560571 0.181033
0.000000 0.557214 0.145235
0.000000 0.548821 0.124880
0.131502 0.538659 0.121706
0.206821 0.526665 0.118318
0.263676 0.512566 0.113893
0.313695 0.502068 0.109529
0.382208 0.527459 0.107576
0.454170 0.552514 0.106081
0.526116 0.576593 0.105287
0.595453 0.600031 0.107576
0.661311 0.622980 0.113222
0.722835 0.645197 0.130190
0.771023 0.656611 0.129854
0.809201 0.660182 0.116701
0.842466 0.661952 0.109834
0.871366 0.662165 0.106874
0.897063 0.661646 0.105928
0.920226 0.660700 0.107942
0.941497 0.660121 0.112856
0.961517 0.660212 0.122194
0.979522 0.662104 0.150118
0.995911 0.666865 0.191562
1.000000 0.674525 0.236515
0.000000 0.591852 0.259953
0.000000 0.595178 0.260777
0.000000 0.598535 0.260960
0.000000 0.601373 0.258732
0.000000 0.603357 0.254124
0.000000 0.603998 0.246616
0.000000 0.603723 0.235599
0.000000 0.603296 0.222049
0.000000 0.602838 0.205173
0.000000 0.602167 0.184268
0.000000 0.595514 0.135897
0.082002 0.585840 0.131594
0.187137 0.574304 0.127260
0.253880 0.560967 0.122286
0.307439 0.545617 0.116457
0.361700 0.543755 0.112306
0.431281 0.567987 0.111940
0.501396 0.591241 0.113802
0.569512 0.613825 0.117861
0.634638 0.636042 0.125612
0.695979 0.657588 0.137392
0.752682 0.678065 0.159670
0.798276 0.690028 0.170138
0.832944 0.692683 0.163546
0.863096 0.693355 0.160067
0.889494 0.692988 0.161318
0.913237 0.692103 0.164462
0.934966 0.691493 0.170047
0.955352 0.691493 0.178988
0.974609 0.692500 0.191104
0.993164 0.694728 0.206394
1.000000 0.700832 0.249516
0.000000 0.634516 0.284398
0.000000 0.637507 0.285008
0.000000 0.640436 0.285008
0.000000 0.643061 0.283299
0.000000 0.644526 0.278630
0.000000 0.644892 0.270787
0.000000 0.644709 0.260899
0.000000 0.643854 0.247715
0.000000 0.643091 0.231785
0.000000 0.642023 0.212039
0.000000 0.638270 0.170352
0.000000 0.630060 0.145418
0.159335 0.619562 0.139986
0.239689 0.607233 0.133761
0.300908 0.593408 0.127077
0.352483 0.578058 0.119905
0.412665 0.585779 0.117952
0.482734 0.609583 0.122133
0.551110 0.632776 0.129244
0.616693 0.655451 0.140352
0.678584 0.677302 0.155581
0.736385 0.698268 0.175143
0.787991 0.716762 0.203586
0.829862 0.728511 0.226444
0.860716 0.730037 0.224765
0.887694 0.729915 0.224979
0.911467 0.729213 0.231235
0.933165 0.728603 0.239231
0.953399 0.728511 0.249638
0.972442 0.729397 0.263249
0.990723 0.731502 0.280308
1.000000 0.735378 0.301579
0.000000 0.686091 0.317388
0.000000 0.687343 0.317052
0.000000 0.688289 0.316228
0.000000 0.688930 0.313268
0.000000 0.689174 0.308171
0.000000 0.688838 0.300481
0.000000 0.688228 0.290715
0.000000 0.687556 0.278355
0.000000 0.686946 0.263432
0.000000 0.686244 0.245579
0.000000 0.685023 0.222263
0.000000 0.679316 0.168215
0.130312 0.669764 0.161593
0.228580 0.658656 0.154391
0.298192 0.645838 0.146304
0.355810 0.631525 0.137331
0.404913 0.616144 0.128176
0.469368 0.631495 0.131899
0.536126 0.653162 0.141024
0.599847 0.674037 0.153445
0.659998 0.694026 0.169558
0.716091 0.712978 0.189334
0.767758 0.730739 0.212589
0.813382 0.745846 0.242496
0.851255 0.756619 0.273747
0.879026 0.757107 0.274357
0.903777 0.756741 0.277714
0.926024 0.756435 0.286442
0.946563 0.756527 0.298161
0.965820 0.757351 0.312871
0.984161 0.759457 0.331456
1.000000 0.763241 0.353948
0.000000 0.723293 0.343572
0.000000 0.724483 0.343542
0.000000 0.725490 0.342809
0.000000 0.726101 0.340246
0.000000 0.726223 0.335363
0.000000 0.725643 0.327916
0.000000 0.724819 0.318730
0.000000 0.723903 0.307317
0.000000 0.722835 0.293156
0.000000 0.721798 0.277012
0.000000 0.720546 0.257816
0.000000 0.716915 0.213077
0.073823 0.709621 0.184329
0.209232 0.699702 0.176577
0.287633 0.688380 0.167819
0.350591 0.675898 0.158297
0.404578 0.662348 0.148379
0.453071 0.649683 0.138888
0.519249 0.670558 0.149874
0.582361 0.690730 0.164157
0.642298 0.710079 0.182315
0.698146 0.728298 0.203525
0.749752 0.745480 0.228458
0.796872 0.761257 0.255863
0.833707 0.769772 0.278752
0.868620 0.780179 0.318944
0.894224 0.780636 0.322850
0.917357 0.780606 0.329381
0.938476 0.780850 0.340581
0.958007 0.781949 0.357092
0.976623 0.784360 0.377539
0.994537 0.788296 0.401740
0.000000 0.766079 0.377050
0.000000 0.767239 0.377264
0.000000 0.767941 0.376562
0.000000 0.768002 0.373785
0.000000 0.767483 0.368994
0.000000 0.766476 0.361883
0.000000 0.765072 0.352758
0.000000 0.763363 0.341711
0.000000 0.761440 0.328222
0.000000 0.759426 0.312840
0.000000 0.756985 0.295048
0.000000 0.754025 0.270329
0.000000 0.748409 0.213046
0.190219 0.738979 0.204227
0.276097 0.728115 0.194369
0.343023 0.715908 0.183352
0.399908 0.702785 0.171969
0.449622 0.689082 0.160311
0.499977 0.684749 0.155337
0.562890 0.704158 0.170901
0.622370 0.722835 0.190066
0.678157 0.740444 0.212253
0.729366 0.756497 0.237339
0.776089 0.771054 0.264500
0.818204 0.784024 0.292424
0.854582 0.794400 0.323522
0.885985 0.804257 0.373053
0.909361 0.804440 0.379004
0.930755 0.804776 0.388861
0.950652 0.805783 0.403540
0.969238 0.808194 0.424689
0.987152 0.812314 0.450629
0.000000 0.796689 0.402869
0.000000 0.797696 0.403326
0.000000 0.798306 0.402686
0.000000 0.798428 0.400244
0.000000 0.797818 0.395544
0.000000 0.796963 0.389319
0.000000 0.795865 0.381537
0.000000 0.794461 0.371710
0.000000 0.792905 0.359930
0.000000 0.791257 0.347082
0.000000 0.789242 0.332006
0.000000 0.786923 0.314885
0.066743 0.783322 0.270207
0.177401 0.776699 0.239231
0.271061 0.767483 0.229007
0.341588 0.757137 0.217960
0.401495 0.745937 0.206424
0.454078 0.733974 0.193820
0.500694 0.722072 0.181765
0.553033 0.725216 0.185000
0.611597 0.742428 0.205478
0.666377 0.758572 0.229404
0.716884 0.773342 0.255680
0.762875 0.786770 0.283696
0.804532 0.798764 0.313359
0.842069 0.809598 0.343786
0.874815 0.818631 0.375738
0.902220 0.827085 0.429603
0.924071 0.828763 0.445441
0.944060 0.830259 0.460456
0.962951 0.832578 0.479042
0.980804 0.836851 0.505394
0.000000 0.827543 0.431586
0.000000 0.828183 0.431373
0.000000 0.828397 0.430640
0.000000 0.828092 0.428107
0.000000 0.827329 0.423713
0.000000 0.826261 0.418189
0.000000 0.824949 0.410895
0.000000 0.823484 0.402258
0.000000 0.821866 0.392248
0.000000 0.820249 0.380865
0.000000 0.818357 0.368109
0.000000 0.816220 0.354559
0.153994 0.813443 0.331823
0.171542 0.809812 0.277470
0.268803 0.801846 0.267430
0.341131 0.792905 0.255985
0.402319 0.783078 0.244022
0.455879 0.772824 0.231724
0.503929 0.762325 0.219059
0.547631 0.751705 0.206149
0.600763 0.760678 0.219486
0.654688 0.775448 0.244755
0.704433 0.788937 0.271885
0.749905 0.801175 0.300816
0.791196 0.812192 0.331121
0.828305 0.822141 0.362463
0.861784 0.831327 0.395056
0.891905 0.839780 0.427558
0.915557 0.846830 0.482521
0.936095 0.850095 0.506950
0.955138 0.852659 0.524743
0.973449 0.856718 0.547326
0.000000 0.853941 0.457679
0.000000 0.854276 0.457313
0.000000 0.854368 0.456641
0.000000 0.854215 0.454810
0.000000 0.853819 0.451362
0.000000 0.853391 0.447211
0.000000 0.853147 0.442298
0.000000 0.852934 0.436408
0.000000 0.852750 0.430243
0.000000 0.852445 0.423438
0.000000 0.851774 0.415656
0.122560 0.850614 0.407355
0.231083 0.848722 0.398718
0.256229 0.846891 0.360204
0.302617 0.842466 0.330785
0.369451 0.835355 0.320073
0.427222 0.827481 0.308324
0.478584 0.819242 0.296178
0.525750 0.810666 0.283726
0.569177 0.802090 0.271092
0.609247 0.793362 0.258000
0.660456 0.804959 0.284276
0.707881 0.815976 0.313664
0.751125 0.826047 0.344579
0.790249 0.835142 0.376532
0.825498 0.843503 0.408850
0.857267 0.851255 0.441810
0.885863 0.858579 0.474983
0.911681 0.865507 0.506859
0.932189 0.871824 0.557610
0.951019 0.876555 0.587915
0.969207 0.880735 0.608667
0.000000 0.885863 0.494301
0.000000 0.885985 0.494026
0.000000 0.885863 0.493355
0.000000 0.885466 0.491585
0.000000 0.884794 0.488563
0.000000 0.883970 0.484901
0.000000 0.883055 0.480293
0.000000 0.882139 0.475410
0.000000 0.881041 0.469795
0.000000 0.879728 0.464179
0.000000 0.878080 0.457954
0.187289 0.876005 0.451850
0.272221 0.873350 0.445197
0.324285 0.870573 0.429725
