data/fiter_cube/37639453/1023441/file.cube
# Created by Adobe Lightroom plugin Export LUT (1.17.0)
# www.johnrellis.com/lightroom/exportlut.htm
# Preset: 油管牛人_07 云集
# Color profile: C:\Program Files (x86)\Common Files\Adobe\Color\Profiles\Recommended\AdobeRGB1998.icc
LUT_3D_SIZE 8
DOMAIN_MIN 0.000000 0.000000 0.000000
DOMAIN_MAX 0.903226 0.903226 0.903226
0.013916 0.015595 0.024323
0.072541 0.030213 0.038209
0.146212 0.039277 0.056184
0.311742 0.000000 0.050477
0.556146 0.000000 0.000000
0.775784 0.000000 0.000000
0.901518 0.000000 0.000000
0.981079 0.217441 0.000000
0.018647 0.069368 0.061189
0.065675 0.071534 0.059907
0.142947 0.077150 0.058503
0.300175 0.048524 0.051881
0.540124 0.000000 0.000000
0.757168 0.000000 0.000000
0.889677 0.085512 0.000000
0.975463 0.240665 0.000000
0.000000 0.135561 0.088289
0.036500 0.139406 0.078004
0.124941 0.152468 0.075715
0.309392 0.187350 0.041810
0.561547 0.188327 0.000000
0.766690 0.216098 0.000000
0.900877 0.282322 0.000000
0.980194 0.350805 0.000000
0.000000 0.262272 0.129458
0.000000 0.263890 0.119173
0.093996 0.256626 0.092714
0.276799 0.319921 0.085634
0.591943 0.404974 0.000000
0.786038 0.426001 0.000000
0.899168 0.442573 0.000000
0.975006 0.470069 0.008606
0.000000 0.441688 0.191287
0.000000 0.442634 0.179599
0.000000 0.445258 0.122927
0.219303 0.413916 0.104524
0.490394 0.507164 0.085481
0.745418 0.579950 0.000000
0.883726 0.590570 0.000000
0.967102 0.596735 0.074464
0.000000 0.634516 0.284398
0.000000 0.644526 0.278630
0.000000 0.643091 0.231785
0.159335 0.619562 0.139986
0.412665 0.585779 0.117952
0.678584 0.677302 0.155581
0.860716 0.730037 0.224765
0.953399 0.728511 0.249638
0.000000 0.796689 0.402869
0.000000 0.797818 0.395544
0.000000 0.792905 0.359930
0.066743 0.783322 0.270207
0.401495 0.745937 0.206424
0.611597 0.742428 0.205478
0.804532 0.798764 0.313359
0.924071 0.828763 0.445441
0.000000 0.907774 0.521660
0.000000 0.906737 0.517082
0.000000 0.903258 0.504784
0.323308 0.895903 0.493599
0.445258 0.875669 0.399878
0.619287 0.854215 0.363378
0.776852 0.864866 0.429511
0.893248 0.888609 0.553368
0.025971 0.029236 0.076600
0.070649 0.033021 0.078279
0.138979 0.043702 0.082216
0.292027 0.000000 0.089174
0.530755 0.000000 0.076356
0.746334 0.000000 0.027436
0.883024 0.000000 0.000000
0.970947 0.197940 0.085817
0.025086 0.067842 0.080751
0.066926 0.074311 0.085054
0.138308 0.080842 0.088930
0.291356 0.061280 0.089754
0.526543 0.000000 0.075257
0.738613 0.000000 0.016754
0.874266 0.000000 0.000000
0.965057 0.221836 0.072633
0.000000 0.137240 0.110628
0.047303 0.143374 0.108370
0.127718 0.155703 0.101472
0.303075 0.182406 0.088136
0.539269 0.177127 0.064973
0.743496 0.194491 0.000000
0.879393 0.254490 0.000000
0.968322 0.332006 0.086397
0.000000 0.260166 0.151217
0.000000 0.264256 0.145327
0.094484 0.264164 0.117037
0.263157 0.305211 0.115602
0.545495 0.368444 0.062226
0.749935 0.391485 0.000000
0.877165 0.416297 0.000000
0.963653 0.453498 0.090852
0.000000 0.443610 0.217166
0.000000 0.442939 0.206302
0.000000 0.444800 0.165988
0.214817 0.409003 0.128267
0.467811 0.486519 0.123384
0.727657 0.561669 0.079774
0.873472 0.577661 0.000000
0.960021 0.587640 0.123629
0.000000 0.626764 0.302861
0.000000 0.627527 0.292638
0.000000 0.627283 0.251743
0.147829 0.611017 0.164309
0.403388 0.575921 0.143160
0.673884 0.672389 0.186404
0.855894 0.724941 0.249485
0.948852 0.722927 0.265873
0.000000 0.785092 0.410956
0.000000 0.782650 0.400427
0.000000 0.779965 0.368597
0.112551 0.774899 0.301793
0.394324 0.741665 0.224338
0.602472 0.734127 0.218418
0.796353 0.790860 0.319188
0.918242 0.821805 0.441444
0.000000 0.903044 0.526818
0.000000 0.902831 0.523827
0.000000 0.900023 0.511864
0.312718 0.893339 0.500633
0.465156 0.881010 0.434638
0.623987 0.857206 0.387854
0.774441 0.862943 0.437995
0.890318 0.885924 0.555474
0.021332 0.048249 0.138521
0.068238 0.047425 0.146395
0.157046 0.024598 0.155825
0.329381 0.000000 0.162966
0.550286 0.000000 0.161288
0.753475 0.000000 0.182498
0.887114 0.000000 0.196719
0.971862 0.228763 0.231144
0.018860 0.080140 0.142611
0.063081 0.080354 0.150546
0.152438 0.078706 0.159457
0.315648 0.000000 0.164492
0.536400 0.000000 0.172946
0.745785 0.000000 0.179751
0.881102 0.054566 0.191592
0.968719 0.252262 0.226780
0.000000 0.137911 0.159701
0.033906 0.146090 0.164157
0.139010 0.170840 0.175387
0.307286 0.180392 0.179446
0.555138 0.170779 0.182437
0.750759 0.188235 0.182834
0.880491 0.256687 0.194553
0.966278 0.343420 0.231418
0.000000 0.286412 0.232914
0.000000 0.291844 0.230106
0.106447 0.304967 0.213291
0.294102 0.328710 0.201572
0.574426 0.375830 0.189609
0.757443 0.391791 0.186282
0.880674 0.422278 0.203952
0.963317 0.465553 0.247501
0.000000 0.466682 0.301213
0.000000 0.470069 0.296300
0.000000 0.477028 0.271794
0.242283 0.459022 0.214725
0.500969 0.510948 0.227054
0.739651 0.568933 0.226993
0.875486 0.578759 0.217716
0.957305 0.593439 0.271916
0.000000 0.644282 0.384833
0.000000 0.645869 0.379126
0.000000 0.645533 0.349889
0.168826 0.637415 0.268406
0.411719 0.582818 0.221897
0.675685 0.672877 0.282933
0.852506 0.723354 0.344213
0.946685 0.726528 0.365393
0.000000 0.797024 0.481056
0.000000 0.795499 0.473793
0.000000 0.790677 0.447181
0.183139 0.782376 0.400275
0.403784 0.753658 0.309331
0.603693 0.734524 0.288640
0.800473 0.795804 0.404181
0.918456 0.828458 0.521691
0.000000 0.905791 0.572442
0.000000 0.904234 0.566888
0.000000 0.900450 0.554955
0.323461 0.895079 0.548974
0.483101 0.883024 0.497719
0.629053 0.860807 0.450568
0.774777 0.862882 0.485176
0.890867 0.887968 0.600916
0.000000 0.060090 0.246189
0.015717 0.058076 0.258396
0.191470 0.000000 0.294957
0.365423 0.000000 0.301793
0.615137 0.000000 0.319219
0.769711 0.000000 0.312840
0.879667 0.000000 0.323644
0.958465 0.269230 0.386114
0.000000 0.087892 0.255802
0.000000 0.088258 0.265415
0.183566 0.072175 0.298161
0.363592 0.000000 0.306371
0.609094 0.000000 0.320653
0.762142 0.000000 0.313085
0.873472 0.000000 0.329137
0.957275 0.287419 0.382910
0.000000 0.160983 0.253391
0.000000 0.166812 0.258030
0.138949 0.175875 0.293309
0.350774 0.173434 0.318181
0.589776 0.139956 0.328801
0.754574 0.163149 0.333928
0.877012 0.292973 0.374121
0.959289 0.381964 0.401801
0.000000 0.270298 0.298589
0.000000 0.278508 0.303685
0.108614 0.306645 0.320104
0.326452 0.351202 0.345678
0.562768 0.362158 0.351324
0.744137 0.385290 0.359869
0.869993 0.429053 0.378058
0.954406 0.486824 0.413977
0.000000 0.511650 0.451362
0.000000 0.516930 0.453285
0.000000 0.521019 0.435096
0.302678 0.524926 0.399481
0.536278 0.537499 0.383093
0.748714 0.574701 0.394385
0.868864 0.585565 0.407050
0.948852 0.608545 0.441352
0.000000 0.681819 0.522362
0.000000 0.689082 0.523857
0.000000 0.685512 0.502281
0.266331 0.678492 0.462074
0.464332 0.642176 0.382055
0.692164 0.688533 0.433509
0.851347 0.729061 0.484199
0.941741 0.732387 0.493843
0.000000 0.811612 0.583093
0.000000 0.811978 0.579553
0.000000 0.810361 0.564233
0.250340 0.803189 0.533623
0.450721 0.784665 0.464027
0.611383 0.740780 0.398230
0.803494 0.800900 0.518975
0.915404 0.831754 0.605066
0.000000 0.912963 0.652430
0.000000 0.912413 0.649744
0.000000 0.908843 0.637476
0.326574 0.900511 0.621790
0.543755 0.885222 0.614069
0.640803 0.867582 0.547356
0.772457 0.861479 0.547723
0.890623 0.889769 0.659022
0.000000 0.065217 0.410407
0.000000 0.059113 0.422980
0.203525 0.000000 0.460548
0.445838 0.000000 0.509789
0.638849 0.000000 0.514549
0.803311 0.000000 0.509239
0.893217 0.000000 0.496284
0.959075 0.293706 0.521447
0.000000 0.097200 0.414801
0.000000 0.095735 0.428138
0.193576 0.065156 0.464027
0.445167 0.000000 0.515068
0.634668 0.000000 0.515587
0.799741 0.000000 0.511101
0.890471 0.078218 0.500359
0.956573 0.325261 0.526787
0.000000 0.185122 0.404578
0.000000 0.185763 0.419776
0.131868 0.184146 0.455573
0.424720 0.161471 0.522026
0.618433 0.123781 0.518059
0.780423 0.167391 0.512535
0.877531 0.277775 0.510399
0.946746 0.405524 0.539513
0.000000 0.294316 0.422126
0.000000 0.299199 0.425818
0.014740 0.317388 0.439918
0.336126 0.346197 0.502556
0.596887 0.366278 0.533806
0.755642 0.397162 0.530541
0.858579 0.446540 0.538079
0.935088 0.524041 0.572198
0.000000 0.448981 0.488380
0.000000 0.455695 0.492592
0.000000 0.476020 0.504204
0.320470 0.509789 0.524865
0.553826 0.550134 0.548638
0.724697 0.562066 0.551904
0.847013 0.585931 0.562158
0.932555 0.619806 0.581903
0.000000 0.681270 0.626001
0.000000 0.684688 0.627771
0.000000 0.692561 0.630976
0.304631 0.694362 0.619104
0.513756 0.678614 0.572778
0.695155 0.691829 0.572564
0.844785 0.726864 0.603723
0.929137 0.735195 0.617945
0.000000 0.826047 0.699672
0.000000 0.824613 0.695735
0.000000 0.820615 0.683497
0.303044 0.813413 0.661891
0.505150 0.799374 0.625574
0.631739 0.764981 0.553491
0.801419 0.801144 0.620233
0.910643 0.829221 0.673121
0.000000 0.913451 0.735988
0.000000 0.912291 0.733272
0.000000 0.908354 0.723964
0.353460 0.904387 0.713222
0.529595 0.892485 0.690059
0.655665 0.875975 0.651911
0.760159 0.854734 0.602930
0.887144 0.888121 0.710811
0.000000 0.061524 0.610834
0.000000 0.032197 0.618647
0.249424 0.000000 0.641444
0.501457 0.000000 0.687068
0.689204 0.000000 0.709590
0.802792 0.000000 0.677028
0.905089 0.099001 0.661921
0.961303 0.354498 0.659510
0.000000 0.104768 0.602930
0.000000 0.098665 0.609979
0.229709 0.018738 0.634913
0.485054 0.000000 0.679438
0.681025 0.000000 0.705074
0.797208 0.000000 0.674861
0.901701 0.179080 0.662806
0.958465 0.378546 0.661616
0.000000 0.195346 0.601831
0.000000 0.196353 0.608789
0.163638 0.194888 0.633997
0.450599 0.171267 0.676570
0.672633 0.143465 0.710506
0.789792 0.206851 0.681636
0.892760 0.341588 0.673396
0.950958 0.462745 0.675563
0.000000 0.332280 0.568261
0.000000 0.333684 0.570947
0.000000 0.342351 0.608606
0.377295 0.358038 0.665309
0.658656 0.405005 0.721614
0.780026 0.437201 0.700374
0.878813 0.508995 0.696437
0.940215 0.568658 0.697963
0.000000 0.468513 0.610437
0.000000 0.472023 0.612512
0.000000 0.483314 0.619104
0.291814 0.502007 0.630152
0.560296 0.543420 0.681422
0.749386 0.586999 0.704189
0.852903 0.619013 0.702815
0.922881 0.651087 0.708248
0.000000 0.619959 0.659541
0.000000 0.625422 0.663447
0.000000 0.636347 0.669276
0.329015 0.653193 0.678523
0.544793 0.675654 0.690120
0.715084 0.712520 0.712398
0.831083 0.725338 0.718196
0.915435 0.742916 0.727749
0.000000 0.814603 0.766995
0.000000 0.817899 0.769863
0.000000 0.824491 0.775723
0.398260 0.827298 0.779843
0.578241 0.823606 0.772183
0.692653 0.806485 0.733181
0.808133 0.810056 0.729824
0.910491 0.832822 0.755276
0.000000 0.919066 0.827726
0.000000 0.917693 0.825772
0.260807 0.913268 0.819181
0.434424 0.907225 0.809110
0.569512 0.898619 0.791379
0.682979 0.886717 0.764034
0.765438 0.864164 0.711330
0.886381 0.889097 0.772641
0.000000 0.059632 0.760220
0.119448 0.013306 0.765835
0.320836 0.000000 0.778286
0.521477 0.000000 0.799710
0.710658 0.000000 0.825284
0.827512 0.000000 0.826658
0.892058 0.155520 0.780514
0.957946 0.385840 0.768063
0.000000 0.112490 0.752377
0.045411 0.103792 0.757900
0.299382 0.023163 0.771023
0.505455 0.000000 0.792081
0.698665 0.000000 0.818418
0.819272 0.000000 0.820676
0.885679 0.185702 0.775631
0.953704 0.388983 0.763485
0.000000 0.214633 0.751034
0.000000 0.213718 0.754665
0.243717 0.206394 0.766690
0.475166 0.191043 0.787961
0.678279 0.200351 0.813901
0.811521 0.237522 0.821653
0.881468 0.344823 0.783322
0.950011 0.486915 0.777127
0.000000 0.358831 0.732753
0.000000 0.356207 0.736782
0.000000 0.340520 0.753262
0.410193 0.357946 0.777554
0.641169 0.396368 0.806119
0.799527 0.451667 0.824643
0.873228 0.508843 0.796231
0.942901 0.594079 0.793484
0.000000 0.486336 0.718868
0.000000 0.485389 0.717678
0.000000 0.485084 0.716701
0.278782 0.492164 0.737881
0.560113 0.525566 0.780697
0.773648 0.598657 0.819699
0.856046 0.625757 0.801511
0.930083 0.682033 0.804410
0.000000 0.622278 0.750759
0.000000 0.623560 0.751217
0.000000 0.627710 0.752712
0.288518 0.635309 0.755673
0.491676 0.646693 0.757870
0.707485 0.696101 0.797421
0.842588 0.741573 0.816617
0.916167 0.763180 0.817350
0.000000 0.753902 0.787503
0.000000 0.756039 0.788815
0.117525 0.760281 0.790768
0.374884 0.767880 0.794339
0.552850 0.777829 0.797940
0.700587 0.794369 0.805295
0.818173 0.820584 0.820890
0.901793 0.828275 0.824186
0.000000 0.888640 0.850065
0.000000 0.889342 0.850919
0.304051 0.893797 0.856352
0.469520 0.898497 0.862394
0.616327 0.901213 0.867430
0.732662 0.899290 0.864225
0.802670 0.887907 0.835294
0.888273 0.891844 0.835172
0.242710 0.116732 0.864591
0.287999 0.108949 0.866667
0.403571 0.064820 0.870542
0.551781 0.000000 0.879484
0.701961 0.000000 0.890898
0.830320 0.165591 0.900908
0.913939 0.253880 0.899626
0.948943 0.403937 0.852964
0.220706 0.154635 0.861326
0.269505 0.150301 0.863432
0.391302 0.128084 0.867948
0.542412 0.094789 0.876555
0.695186 0.113497 0.888304
0.826719 0.212253 0.899077
0.910124 0.281102 0.897429
0.946380 0.416999 0.851865
0.123995 0.247044 0.856107
0.199374 0.246128 0.857847
0.347021 0.239536 0.861753
0.518700 0.244511 0.872953
0.678737 0.270054 0.884428
0.819120 0.342748 0.896880
0.902037 0.387335 0.895354
0.941558 0.485664 0.854734
0.000000 0.365667 0.846860
0.000000 0.358373 0.849516
0.246494 0.362280 0.854459
0.464179 0.376928 0.864714
0.647028 0.412879 0.877592
0.798917 0.482124 0.891783
0.890532 0.520531 0.894377
0.935393 0.582483 0.861845
0.000000 0.509545 0.821836
0.000000 0.509026 0.824918
0.000000 0.502678 0.832670
0.353704 0.498482 0.847959
0.580316 0.524376 0.863676
0.760189 0.585260 0.881224
0.874174 0.636316 0.892271
0.927520 0.679774 0.870878
0.000000 0.632013 0.833524
0.000000 0.630549 0.832609
0.000000 0.626673 0.830472
0.233524 0.620935 0.828061
0.458198 0.622919 0.835172
0.698756 0.673426 0.866453
0.861143 0.750210 0.895171
0.921904 0.774350 0.885252
0.000000 0.750027 0.854307
0.000000 0.749783 0.853880
0.130251 0.749386 0.852903
0.337835 0.751156 0.852598
0.498970 0.755337 0.852049
0.640436 0.762966 0.851530
0.809903 0.805997 0.879454
0.911803 0.840604 0.893828
0.178073 0.852415 0.877928
0.221378 0.852567 0.877958
0.330205 0.853635 0.878233
0.460426 0.856321 0.879240
0.589075 0.860685 0.880674
0.706325 0.867765 0.882902
0.807370 0.879301 0.887602
0.896208 0.899229 0.899565
