data/fiter_cube/49007420/1023424/file.cube
# Created by Adobe Lightroom plugin Export LUT (1.17.0)
# www.johnrellis.com/lightroom/exportlut.htm
# Preset: 08 - 日系情绪-秋 [云集]
# Color profile: C:\Program Files (x86)\Common Files\Adobe\Color\Profiles\Recommended\AdobeRGB1998.icc
LUT_3D_SIZE 5
DOMAIN_MIN 0.000000 0.000000 0.000000
DOMAIN_MAX 0.903226 0.903226 0.903226
0.088106 0.081056 0.068177
0.296849 0.000000 0.071107
0.714839 0.000000 0.082185
0.915770 0.000000 0.211917
1.000000 0.408728 0.430976
0.058350 0.337438 0.139834
0.295201 0.300450 0.000000
0.716152 0.227268 0.000000
0.917967 0.296574 0.204685
1.000000 0.471992 0.436683
0.281956 0.742458 0.443244
0.408606 0.703182 0.379492
0.704036 0.709224 0.166812
0.921324 0.585229 0.177340
1.000000 0.609155 0.424750
0.573541 0.898283 0.691218
0.655879 0.884794 0.704921
0.716548 0.844877 0.658778
0.862577 0.868193 0.436011
0.991974 0.808286 0.457069
0.745693 0.962707 0.824063
0.782162 0.956878 0.833127
0.803983 0.944793 0.811765
0.848173 0.934539 0.791562
0.936492 0.946502 0.652186
0.000000 0.103792 0.302800
0.338506 0.012543 0.241062
0.713313 0.000000 0.177432
0.910674 0.218509 0.198795
1.000000 0.412573 0.416907
0.000000 0.365911 0.375494
0.372412 0.341619 0.318395
0.719173 0.323278 0.227512
0.912444 0.346227 0.191836
1.000000 0.466407 0.416602
0.239658 0.762264 0.558190
0.493172 0.723049 0.547021
0.705226 0.699763 0.425635
0.911955 0.596277 0.219547
1.000000 0.610132 0.419287
0.572717 0.903136 0.727718
0.656580 0.890166 0.736385
0.737575 0.852537 0.706752
0.861540 0.867796 0.583520
0.991852 0.808194 0.456275
0.739254 0.965026 0.832181
0.776944 0.959167 0.839811
0.827420 0.947570 0.839811
0.859037 0.935271 0.818814
0.937774 0.947417 0.659205
0.000000 0.233585 0.716823
0.445502 0.257267 0.720363
0.751003 0.308110 0.651270
0.910216 0.410590 0.553460
1.000000 0.453315 0.446479
0.123476 0.431373 0.703700
0.433875 0.444831 0.713924
0.747707 0.503014 0.680140
0.896300 0.529534 0.599390
1.000000 0.495857 0.452338
0.268437 0.736477 0.770932
0.465644 0.729488 0.757900
0.732601 0.713863 0.719600
0.877317 0.705562 0.677150
0.995361 0.633295 0.502525
0.532433 0.923552 0.827146
0.623774 0.909758 0.820981
0.782650 0.875853 0.811551
0.865171 0.871092 0.774960
0.975494 0.813138 0.630793
0.720943 0.971771 0.863127
0.758663 0.967010 0.865843
0.842222 0.953582 0.874449
0.878447 0.935363 0.864042
0.935302 0.946654 0.797391
0.409766 0.449683 0.880003
0.541558 0.477028 0.880491
0.786191 0.572778 0.881346
0.895598 0.601892 0.839292
0.975219 0.623407 0.777188
0.451545 0.555261 0.873289
0.565057 0.576684 0.873991
0.782467 0.644007 0.877134
0.889891 0.667536 0.844205
0.968902 0.668635 0.788968
0.452674 0.709377 0.869047
0.540978 0.713802 0.863615
0.748196 0.745693 0.864164
0.879820 0.786679 0.856992
0.956481 0.767758 0.816892
0.583642 0.878386 0.891081
0.636835 0.876127 0.888121
0.758968 0.873411 0.881041
0.870451 0.869566 0.867674
0.948943 0.854368 0.838132
0.710780 0.979950 0.915526
0.743740 0.977081 0.914977
0.825162 0.967834 0.912108
0.902251 0.952056 0.907683
0.942931 0.949523 0.888731
0.656764 0.662989 0.941070
0.695857 0.670802 0.940215
0.799802 0.700008 0.937865
0.909728 0.753353 0.934752
0.959472 0.726925 0.906767
0.671778 0.704646 0.938323
0.706844 0.710719 0.937682
0.803037 0.735134 0.935851
0.907500 0.780697 0.933501
0.956695 0.759213 0.908598
0.621210 0.760128 0.934905
0.669154 0.766079 0.934203
0.800473 0.804471 0.931945
0.900816 0.838621 0.931640
0.952209 0.835080 0.915587
0.668086 0.864164 0.937652
0.695735 0.864958 0.936431
0.768978 0.867247 0.932677
0.881010 0.886107 0.930663
0.952850 0.908721 0.927581
0.746975 0.949035 0.943664
0.766903 0.949035 0.943206
0.824186 0.950011 0.942199
0.891325 0.952239 0.940459
0.953460 0.953155 0.936126
