data/fiter_cube/49007420/1023424/file.cube
# Created by Adobe Lightroom plugin Export LUT (1.17.0)
# www.johnrellis.com/lightroom/exportlut.htm
# Preset: 08 - 日系情绪-秋 [云集]
# Color profile: C:\Program Files (x86)\Common Files\Adobe\Color\Profiles\Recommended\AdobeRGB1998.icc
LUT_3D_SIZE 32
DOMAIN_MIN 0.0 0.0 0.0
DOMAIN_MAX 1.0 1.0 1.0
0.088106 0.081056 0.068177
0.093050 0.081147 0.068757
0.098848 0.081300 0.069276
0.113375 0.081331 0.070558
0.143771 0.078248 0.071748
0.186893 0.066835 0.072145
0.239048 0.019196 0.072145
0.296849 0.000000 0.071107
0.359136 0.000000 0.069673
0.423499 0.000000 0.068086
0.488930 0.000000 0.066529
0.552392 0.000000 0.066255
0.611749 0.000000 0.068544
0.666468 0.000000 0.073396
0.714839 0.000000 0.082185
0.755856 0.000000 0.094362
0.790768 0.000000 0.109773
0.821103 0.000000 0.126802
0.848234 0.000000 0.145327
0.873045 0.000000 0.165621
0.895567 0.000000 0.187778
0.915770 0.000000 0.211917
0.934569 0.139376 0.238102
0.953765 0.207248 0.270817
0.969085 0.257145 0.302464
0.981689 0.299168 0.333745
0.992523 0.337407 0.365209
1.000000 0.373571 0.397559
1.000000 0.408728 0.430976
1.000000 0.443519 0.465248
1.000000 0.477943 0.500420
1.000000 0.511925 0.535912
0.089204 0.086030 0.069917
0.092500 0.085206 0.068727
0.099428 0.084504 0.068910
0.114290 0.084443 0.070588
0.144808 0.082368 0.071656
0.187472 0.072633 0.072023
0.239017 0.040406 0.071595
0.296056 0.000000 0.070466
0.357488 0.000000 0.068971
0.421393 0.000000 0.066987
0.486030 0.000000 0.065492
0.548943 0.000000 0.065034
0.608057 0.000000 0.066957
0.662684 0.000000 0.071626
0.711086 0.000000 0.080171
0.752377 0.000000 0.091798
0.787564 0.000000 0.106813
0.818021 0.000000 0.123903
0.845396 0.000000 0.142763
0.870512 0.000000 0.162936
0.893309 0.000000 0.185061
0.913787 0.013794 0.208988
0.933013 0.141695 0.235447
0.951995 0.206302 0.267216
0.967254 0.254887 0.298314
0.980041 0.296361 0.329229
0.991028 0.334203 0.360906
1.000000 0.370428 0.393225
1.000000 0.405615 0.426703
1.000000 0.440620 0.461341
1.000000 0.475227 0.496681
1.000000 0.509178 0.532189
0.090730 0.091798 0.071809
0.093996 0.090089 0.071534
0.097963 0.090639 0.069062
0.116060 0.089631 0.069917
0.146609 0.088838 0.070924
0.189151 0.081605 0.071107
0.239689 0.063813 0.070558
0.296025 0.000000 0.069306
0.356664 0.000000 0.067384
0.420020 0.000000 0.065766
0.484230 0.000000 0.063722
0.546990 0.000000 0.063050
0.606104 0.000000 0.064637
0.660578 0.000000 0.069429
0.709041 0.000000 0.077455
0.750484 0.000000 0.089662
0.785733 0.000000 0.104768
0.816312 0.000000 0.121675
0.843839 0.000000 0.140719
0.869078 0.000000 0.161135
0.892088 0.000000 0.183291
0.912718 0.063478 0.207187
0.932372 0.150607 0.234165
0.951110 0.210361 0.265293
0.966339 0.257115 0.296025
0.979095 0.297307 0.326818
0.990204 0.334691 0.358190
0.999969 0.370367 0.390539
1.000000 0.405554 0.424445
1.000000 0.440192 0.458900
1.000000 0.474647 0.494514
1.000000 0.508598 0.530297
0.093416 0.110079 0.076875
0.097261 0.107637 0.075013
0.101869 0.103487 0.074678
0.113954 0.106020 0.070283
0.151827 0.107393 0.069032
0.194247 0.100008 0.068940
0.244053 0.089021 0.068055
0.299535 0.065644 0.066499
0.359014 0.000000 0.064332
0.421546 0.000000 0.061769
0.484627 0.000000 0.059388
0.546624 0.000000 0.058259
0.604883 0.000000 0.058869
0.658869 0.000000 0.063630
0.707149 0.000000 0.072511
0.748562 0.000000 0.084932
0.783841 0.000000 0.100404
0.814328 0.000000 0.118318
0.841764 0.000000 0.137118
0.866972 0.000000 0.157870
0.890043 0.000000 0.180117
0.910826 0.103609 0.203799
0.931243 0.169650 0.231907
0.949798 0.221958 0.262638
0.965240 0.265629 0.293767
0.978363 0.304631 0.325109
0.989715 0.341009 0.357153
0.999634 0.376165 0.389990
1.000000 0.410407 0.423896
1.000000 0.444007 0.458228
1.000000 0.477485 0.493477
1.000000 0.510338 0.528801
0.092256 0.147860 0.084718
0.099855 0.144991 0.082795
0.103120 0.139193 0.077607
0.117128 0.131716 0.076570
0.143008 0.136446 0.067506
0.200626 0.141665 0.062409
0.249271 0.122255 0.062959
0.303044 0.110201 0.060945
0.361212 0.088563 0.057130
0.422309 0.035615 0.052430
0.484291 0.000000 0.047364
0.545312 0.000000 0.041962
0.602991 0.000000 0.042298
0.656733 0.000000 0.050996
0.705196 0.000000 0.063691
0.746792 0.000000 0.077943
0.782528 0.000000 0.094911
0.813260 0.000000 0.113466
0.840818 0.000000 0.133120
0.866087 0.000000 0.154604
0.889067 0.092866 0.176944
0.909789 0.148135 0.201358
0.930907 0.198489 0.230259
0.949065 0.242222 0.260777
0.964355 0.280613 0.291447
0.977508 0.316197 0.322667
0.988891 0.350500 0.354833
0.998871 0.383520 0.387610
1.000000 0.416358 0.421576
1.000000 0.448951 0.456275
1.000000 0.481392 0.491493
1.000000 0.513573 0.526970
0.086366 0.200961 0.096407
0.097505 0.197971 0.094148
0.105470 0.191989 0.088319
0.121828 0.177554 0.083375
0.143801 0.173312 0.075868
0.183719 0.180148 0.058503
0.260197 0.192172 0.032136
0.311925 0.164889 0.038361
0.367834 0.144930 0.035370
0.427680 0.129030 0.025757
0.488289 0.107637 0.017517
0.548119 0.077760 0.013092
0.604669 0.010285 0.012360
0.657710 0.000000 0.021454
0.705501 0.000000 0.043915
0.746914 0.000000 0.066743
0.782376 0.000000 0.086854
0.812985 0.000000 0.107393
0.840635 0.083009 0.128389
0.865873 0.123445 0.150637
0.888914 0.159762 0.174136
0.910796 0.196017 0.200381
0.944457 0.266758 0.251469
0.961547 0.303868 0.285130
0.975402 0.336858 0.317784
0.986938 0.367315 0.349676
0.996735 0.396368 0.381384
1.000000 0.424750 0.413306
1.000000 0.453040 0.445472
1.000000 0.481544 0.478462
1.000000 0.509789 0.511376
1.000000 0.537926 0.544396
0.073060 0.271519 0.115785
0.090608 0.268132 0.113558
0.110292 0.263157 0.110445
0.120119 0.249638 0.091646
0.155306 0.226474 0.095979
0.186099 0.232303 0.073548
0.239811 0.240940 0.014984
0.335943 0.262333 0.000000
0.391089 0.231418 0.000000
0.447639 0.196170 0.000000
0.507713 0.185672 0.000000
0.565911 0.174289 0.000000
0.620691 0.164126 0.000000
0.671473 0.155032 0.000000
0.716365 0.149142 0.003052
0.754910 0.148348 0.049775
0.788449 0.153079 0.078370
0.818021 0.163088 0.102388
0.845029 0.178836 0.125673
0.870115 0.198459 0.149783
0.893248 0.221622 0.175326
0.918090 0.254643 0.207492
0.939666 0.288914 0.241520
0.957733 0.321477 0.276219
0.972625 0.352636 0.310643
0.984833 0.381018 0.343725
0.995026 0.408331 0.376440
1.000000 0.434730 0.408545
1.000000 0.461494 0.441382
1.000000 0.488075 0.474006
1.000000 0.515038 0.507225
1.000000 0.542199 0.540490
0.058350 0.337438 0.139834
0.083345 0.334447 0.137789
0.109407 0.329870 0.135592
0.130098 0.317998 0.119326
0.158755 0.297673 0.107942
0.194095 0.279362 0.106935
0.233585 0.290074 0.071473
0.295201 0.300450 0.000000
0.404089 0.331731 0.000000
0.459754 0.300847 0.000000
0.514336 0.265446 0.000000
0.569085 0.242741 0.000000
0.622553 0.236301 0.000000
0.672114 0.231052 0.000000
0.716152 0.227268 0.000000
0.754177 0.225010 0.000000
0.787320 0.226230 0.059113
0.816648 0.230747 0.089509
0.843565 0.239048 0.116396
0.868528 0.251804 0.142641
0.894163 0.272099 0.172519
0.917967 0.296574 0.204685
0.938598 0.322637 0.238224
0.956115 0.348852 0.272129
0.970794 0.374548 0.305821
0.982971 0.399359 0.338842
0.993286 0.423346 0.371191
1.000000 0.447456 0.403937
1.000000 0.471992 0.436683
1.000000 0.497078 0.469947
1.000000 0.522667 0.503349
1.000000 0.548486 0.536736
0.043885 0.405890 0.171756
0.082460 0.403021 0.169955
0.112673 0.399145 0.168093
0.147921 0.389441 0.158755
0.161837 0.372717 0.130556
0.208072 0.347387 0.134401
0.241825 0.340795 0.120027
0.288365 0.352819 0.073182
0.356207 0.364385 0.000000
0.474769 0.405798 0.000000
0.528496 0.375311 0.000000
0.579339 0.340978 0.000000
0.626795 0.303136 0.000000
0.675288 0.297612 0.000000
0.717800 0.293584 0.000000
0.755001 0.290440 0.000000
0.787442 0.288914 0.002380
0.816495 0.290105 0.071992
0.843107 0.294560 0.105013
0.870237 0.305455 0.136599
0.895537 0.320867 0.168490
0.918151 0.338720 0.201694
0.937957 0.358679 0.235233
0.954986 0.379522 0.268681
0.969421 0.400671 0.302342
0.981506 0.421515 0.335332
0.991791 0.442481 0.367864
1.000000 0.463539 0.400153
1.000000 0.485908 0.433204
1.000000 0.508812 0.466529
1.000000 0.532677 0.500145
1.000000 0.556939 0.533806
0.064057 0.473274 0.209293
0.094881 0.470619 0.207889
0.123659 0.467018 0.205997
0.171298 0.459052 0.203891
0.185580 0.444709 0.175875
0.217105 0.423865 0.160342
0.260838 0.396490 0.166629
0.295293 0.403418 0.136538
0.347692 0.416236 0.081880
0.418128 0.428382 0.000000
0.539483 0.474739 0.000000
0.591272 0.446418 0.000000
0.637537 0.413764 0.000000
0.680140 0.378210 0.000000
0.719875 0.354467 0.000000
0.756680 0.350439 0.000000
0.788846 0.347234 0.000000
0.818265 0.346777 0.034699
0.847196 0.351507 0.095338
0.873381 0.358648 0.131136
0.897032 0.368475 0.164675
0.918242 0.380682 0.197787
0.936889 0.394781 0.231022
0.953124 0.410193 0.263828
0.967193 0.426551 0.296666
0.979278 0.443763 0.329595
0.989776 0.461830 0.362493
0.999023 0.480781 0.395422
1.000000 0.501244 0.429358
1.000000 0.522606 0.463386
1.000000 0.545159 0.497841
1.000000 0.568231 0.532250
0.091920 0.534936 0.249973
0.115755 0.532952 0.248783
0.142824 0.529808 0.247135
0.187747 0.523217 0.245182
0.214450 0.511772 0.226596
0.227756 0.496071 0.194980
0.276219 0.472694 0.197513
0.314153 0.452918 0.196078
0.353124 0.465888 0.157412
0.409400 0.479042 0.097871
0.480446 0.490974 0.000000
0.596307 0.535546 0.000000
0.649500 0.513634 0.000000
0.689937 0.481086 0.000000
0.726009 0.446143 0.000000
0.758938 0.409827 0.000000
0.792325 0.404242 0.000000
0.822354 0.402960 0.000000
0.849546 0.403693 0.079133
0.874449 0.406897 0.121828
0.897154 0.412848 0.158145
0.917693 0.420935 0.192477
0.935973 0.431403 0.226505
0.951934 0.443122 0.259983
0.965789 0.456184 0.293339
0.977752 0.469947 0.326268
0.988281 0.484565 0.358679
0.997528 0.500877 0.391913
1.000000 0.518669 0.425727
1.000000 0.537774 0.459937
1.000000 0.558312 0.494697
1.000000 0.579644 0.529229
0.128481 0.593805 0.294347
0.147799 0.592035 0.293400
0.170443 0.589380 0.292271
0.210575 0.583581 0.290105
0.248997 0.574517 0.281590
0.260960 0.561425 0.250797
0.290471 0.543542 0.233555
0.335454 0.519738 0.237919
0.370092 0.513268 0.224094
0.413153 0.526299 0.182498
0.471199 0.538811 0.121279
0.540703 0.550317 0.000000
0.670466 0.612604 0.000000
0.724086 0.595758 0.000000
0.758572 0.563348 0.000000
0.789059 0.529442 0.000000
0.816831 0.495369 0.000000
0.842802 0.473884 0.000000
0.867094 0.471321 0.085512
0.889311 0.471290 0.132174
0.909453 0.473335 0.170016
0.927520 0.477546 0.205020
0.943511 0.483101 0.239017
0.957671 0.490578 0.272435
0.970123 0.499397 0.305119
0.981048 0.509300 0.337255
0.990692 0.520592 0.369543
0.999207 0.533288 0.401923
1.000000 0.547539 0.434455
1.000000 0.563500 0.467720
1.000000 0.580926 0.501305
1.000000 0.599451 0.534997
0.178531 0.656306 0.348302
0.193210 0.654688 0.347570
0.210971 0.652094 0.346410
0.245884 0.646571 0.344366
0.291814 0.637903 0.342535
0.302708 0.626551 0.314397
0.313115 0.612390 0.281163
0.357702 0.591821 0.280858
0.397681 0.568109 0.284947
0.433783 0.577325 0.260533
0.483467 0.593774 0.220737
0.545556 0.609735 0.163149
0.616419 0.624353 0.011017
0.716823 0.663294 0.000000
0.768307 0.649805 0.000000
0.796872 0.617395 0.000000
0.822629 0.584497 0.000000
0.845823 0.551598 0.000000
0.867094 0.519036 0.055024
0.888273 0.513634 0.117494
0.907744 0.512871 0.159396
0.925444 0.513970 0.196902
0.941131 0.516686 0.231418
0.955200 0.521111 0.265232
0.967620 0.527001 0.298192
0.978607 0.534295 0.330816
0.988373 0.543145 0.363561
0.997131 0.553491 0.396033
1.000000 0.565698 0.429206
1.000000 0.579828 0.463050
1.000000 0.595392 0.497078
1.000000 0.612451 0.531487
0.226139 0.700923 0.394079
0.238376 0.699580 0.393683
0.252964 0.697597 0.392859
0.283024 0.693507 0.392035
0.323735 0.686702 0.391394
0.346014 0.678065 0.375128
0.355657 0.667994 0.345830
0.380774 0.654231 0.328069
0.423590 0.636042 0.331853
0.459388 0.620844 0.332097
0.496101 0.634791 0.301213
0.544396 0.648737 0.260990
0.601770 0.661250 0.205417
0.665492 0.671931 0.112825
0.752285 0.703670 0.000000
0.802701 0.693874 0.000000
0.826627 0.661952 0.000000
0.848295 0.630091 0.000000
0.868345 0.598657 0.000000
0.887388 0.568414 0.103426
0.905943 0.551202 0.147494
0.923400 0.550011 0.187472
0.939025 0.550408 0.223880
0.953033 0.552544 0.258824
0.965484 0.556085 0.292515
0.976562 0.561181 0.326024
0.986481 0.567651 0.358862
0.995331 0.575921 0.391852
1.000000 0.586175 0.425757
1.000000 0.598260 0.459785
1.000000 0.612146 0.494453
1.000000 0.627588 0.529381
0.281956 0.742458 0.443244
0.291539 0.741451 0.443305
0.303166 0.739528 0.442634
0.328191 0.735561 0.441810
0.363043 0.729366 0.441474
0.393286 0.721492 0.434913
0.400305 0.713100 0.408637
0.408606 0.703182 0.379492
0.446082 0.688685 0.378637
0.482673 0.672084 0.382116
0.513512 0.668116 0.372473
0.549889 0.680232 0.341588
0.594873 0.691585 0.301732
0.646937 0.701289 0.247379
0.704036 0.709224 0.166812
0.780667 0.735225 0.000000
0.830655 0.730770 0.000000
0.850797 0.699947 0.000000
0.869657 0.669703 0.000000
0.887694 0.640345 0.097475
0.904936 0.612207 0.142214
0.921324 0.585229 0.177340
0.936736 0.583642 0.215946
0.950774 0.583581 0.251865
0.963317 0.585199 0.286778
0.974578 0.588464 0.321233
0.984771 0.593408 0.355352
0.993927 0.600275 0.389746
1.000000 0.609155 0.424750
1.000000 0.620081 0.460426
1.000000 0.632624 0.496193
1.000000 0.646662 0.531792
0.332586 0.776150 0.487312
0.340978 0.775326 0.487648
0.351019 0.773892 0.487648
0.372137 0.770596 0.487709
0.402594 0.765377 0.488380
0.439673 0.758419 0.490517
0.446815 0.751827 0.469795
0.453895 0.744015 0.445045
0.473060 0.733547 0.429267
0.507286 0.719722 0.431464
0.537682 0.704158 0.434150
0.564019 0.708309 0.414435
0.596704 0.717494 0.382391
0.636957 0.725917 0.340734
0.683467 0.733120 0.286229
0.734524 0.738979 0.209995
0.802976 0.760708 0.085634
0.852934 0.761501 0.000000
0.871031 0.732692 0.000000
0.888426 0.705013 0.100984
0.905150 0.678431 0.146334
0.920989 0.652522 0.182773
0.935882 0.627558 0.214054
0.949798 0.616480 0.248417
0.962310 0.616419 0.284550
0.973632 0.617975 0.319860
0.983825 0.621271 0.355047
0.993011 0.626337 0.389929
1.000000 0.633356 0.425422
1.000000 0.642115 0.461006
1.000000 0.652461 0.496407
1.000000 0.664424 0.532006
0.377783 0.803525 0.526207
0.384283 0.802579 0.526207
0.392615 0.801205 0.526329
0.410590 0.798337 0.526696
0.436866 0.793790 0.527916
0.469032 0.787869 0.530449
0.485817 0.781643 0.520134
0.491279 0.775021 0.498482
0.497810 0.767269 0.474708
0.526574 0.755703 0.473426
0.555688 0.742428 0.475502
0.580957 0.730251 0.475196
0.605005 0.739193 0.450080
0.635615 0.747433 0.417853
0.672511 0.754513 0.376074
0.714595 0.760342 0.322454
0.761044 0.765042 0.250645
0.822354 0.783291 0.154604
0.872282 0.788540 0.009430
0.888670 0.761959 0.109865
0.904509 0.736172 0.153262
0.919615 0.711238 0.188540
0.933959 0.687098 0.219699
0.947570 0.663874 0.248997
0.960357 0.645258 0.278996
0.971771 0.645319 0.315618
0.982147 0.647089 0.351476
0.991455 0.650752 0.387732
0.999847 0.656153 0.423804
1.000000 0.663325 0.459907
1.000000 0.672267 0.496407
1.000000 0.682582 0.532341
0.420844 0.827481 0.563104
0.427100 0.827024 0.563989
0.458503 0.838010 0.584985
0.473579 0.835386 0.585779
0.495430 0.831327 0.587304
0.522362 0.825864 0.589776
0.544945 0.819669 0.587884
0.548150 0.813779 0.568933
0.552575 0.807065 0.548608
0.565637 0.798337 0.534997
0.590723 0.786770 0.535332
0.613611 0.773922 0.536156
0.632410 0.768826 0.526726
0.653437 0.775937 0.500008
0.680232 0.782254 0.466560
0.712764 0.787655 0.424689
0.750393 0.792172 0.371435
0.791958 0.795712 0.302098
0.845701 0.810147 0.217990
0.894316 0.818265 0.147707
0.908385 0.793179 0.180331
0.922179 0.768734 0.210330
0.935393 0.745144 0.238743
0.947967 0.722347 0.265965
0.959808 0.700099 0.291966
0.971069 0.678950 0.317937
0.981109 0.674342 0.351232
0.990204 0.675685 0.386542
0.998505 0.679133 0.422553
1.000000 0.684627 0.459113
1.000000 0.691890 0.495796
1.000000 0.700618 0.532036
0.467018 0.850767 0.602289
0.474769 0.851499 0.605188
0.484413 0.851896 0.608301
0.500053 0.851041 0.611780
0.521355 0.848569 0.615442
0.546166 0.844388 0.618982
0.573358 0.838865 0.622950
0.577356 0.834012 0.608148
0.581109 0.828519 0.590631
0.585351 0.822171 0.571557
0.605890 0.812680 0.569024
0.627405 0.801724 0.569268
0.646632 0.789364 0.569390
0.662715 0.790799 0.553155
0.682368 0.796872 0.526726
0.707149 0.802274 0.493080
0.737148 0.806973 0.451545
0.771756 0.810880 0.399603
0.810361 0.814267 0.333501
0.859312 0.826688 0.255344
0.906157 0.836240 0.198337
0.921019 0.815061 0.225132
0.933745 0.792691 0.251713
0.945983 0.770932 0.277379
0.957549 0.749722 0.302770
0.968566 0.729335 0.328527
0.979156 0.710048 0.354284
0.988800 0.700130 0.385351
0.997192 0.702144 0.421668
1.000000 0.706172 0.458808
1.000000 0.711849 0.495857
1.000000 0.718959 0.532128
0.501518 0.867063 0.631281
0.508446 0.867582 0.633997
0.516808 0.867887 0.636866
0.530266 0.867063 0.639979
0.548791 0.864927 0.643366
0.569848 0.861448 0.646571
0.593744 0.856687 0.650111
0.604822 0.852232 0.643305
0.607721 0.847745 0.628321
0.611231 0.842527 0.611688
0.621363 0.835721 0.600610
0.641382 0.826474 0.600580
0.659602 0.816007 0.600153
0.675837 0.805417 0.598993
0.690364 0.811124 0.578363
0.709041 0.816342 0.552392
0.732113 0.821042 0.519524
0.759915 0.825193 0.478859
0.792050 0.828885 0.428473
0.827878 0.832151 0.364446
0.872465 0.842771 0.290410
0.916350 0.852171 0.246067
0.932738 0.835355 0.268803
0.944427 0.814755 0.292943
0.955566 0.794522 0.316899
0.966217 0.774868 0.341253
0.976440 0.756130 0.366247
0.986358 0.738735 0.392157
0.995727 0.724544 0.420447
1.000000 0.727138 0.457862
1.000000 0.731350 0.495216
1.000000 0.736995 0.531945
0.534112 0.881712 0.658595
0.540124 0.882109 0.660975
0.547356 0.882353 0.663600
0.558953 0.881621 0.666377
0.574609 0.879789 0.669429
0.593103 0.876768 0.672236
0.613611 0.872801 0.675288
0.630030 0.868498 0.674556
0.632349 0.864744 0.661555
0.635218 0.860410 0.647150
0.638361 0.855467 0.631373
0.654536 0.847868 0.628870
0.671687 0.839017 0.628351
0.687526 0.829191 0.627924
0.701076 0.824582 0.621241
0.715572 0.829770 0.601587
0.733974 0.834806 0.577508
0.756405 0.839536 0.547662
0.782895 0.843992 0.509972
0.813291 0.848081 0.462928
0.846830 0.851743 0.403326
0.887877 0.861112 0.333013
0.928466 0.870085 0.302007
0.945922 0.857115 0.322576
0.956573 0.838407 0.345403
0.966735 0.820066 0.368078
0.976471 0.802426 0.391821
0.985870 0.785763 0.416938
0.994873 0.770443 0.443122
1.000000 0.756710 0.470680
1.000000 0.755978 0.505699
1.000000 0.759945 0.541741
0.573541 0.898283 0.691218
0.577447 0.898222 0.692378
0.582116 0.897887 0.693507
0.590997 0.896818 0.695033
0.603388 0.894896 0.696925
0.618830 0.892149 0.699062
0.636439 0.888762 0.701686
0.655879 0.884794 0.704921
0.659022 0.881834 0.695033
0.661585 0.878447 0.682948
0.664607 0.874632 0.669886
0.672419 0.869413 0.660578
0.688228 0.862089 0.660060
0.702998 0.853971 0.659510
0.716548 0.844877 0.658778
0.728267 0.845182 0.647639
0.742245 0.849668 0.629114
0.759487 0.853971 0.606165
0.780209 0.858061 0.577874
0.804410 0.861845 0.541802
0.831968 0.865232 0.495796
0.862577 0.868193 0.436011
0.899779 0.875517 0.365881
0.936797 0.883360 0.346410
0.955016 0.873228 0.363928
0.964721 0.855894 0.385412
0.974121 0.839078 0.407782
0.983246 0.823148 0.431556
0.991974 0.808286 0.457069
1.000000 0.794583 0.483375
1.000000 0.782345 0.510796
1.000000 0.777798 0.542412
0.600641 0.909789 0.713619
0.604150 0.909758 0.714687
0.608148 0.909545 0.715785
0.615808 0.908629 0.717220
0.626673 0.906950 0.718959
0.639857 0.904570 0.720729
0.655146 0.901610 0.722896
0.672328 0.898131 0.725765
0.680629 0.895048 0.721370
0.682521 0.892271 0.710994
0.684840 0.889097 0.699489
0.687404 0.885405 0.686824
0.699977 0.879545 0.684291
0.713924 0.872709 0.683711
0.727016 0.865171 0.683009
0.739040 0.857145 0.682216
0.749874 0.861418 0.667720
0.763516 0.865537 0.650233
0.780148 0.869535 0.629053
0.799741 0.873350 0.602502
0.822385 0.876890 0.568688
0.847990 0.880095 0.524987
0.876555 0.882841 0.466804
0.910979 0.888975 0.397467
0.943389 0.894255 0.385199
0.962432 0.886687 0.401740
0.971496 0.870848 0.422919
0.980316 0.855619 0.445472
0.988830 0.841245 0.469459
0.997009 0.827878 0.495064
1.000000 0.815763 0.521813
1.000000 0.804776 0.548547
0.632166 0.922423 0.739132
0.635218 0.922423 0.740200
0.638636 0.922179 0.741085
0.644739 0.921294 0.742061
0.653681 0.919738 0.743252
0.664759 0.917571 0.744747
0.678096 0.914855 0.746578
0.693111 0.911589 0.748989
0.705196 0.908293 0.748806
0.706020 0.905760 0.739406
0.707088 0.902861 0.728908
0.708553 0.899657 0.717433
0.713802 0.895354 0.708949
0.726009 0.889372 0.707637
0.737575 0.882719 0.706172
0.748531 0.875425 0.704738
0.758175 0.871427 0.699458
0.768276 0.875059 0.684627
0.781247 0.878752 0.667414
0.797147 0.882444 0.646998
0.815763 0.886046 0.621942
0.837034 0.889281 0.589502
0.860960 0.892058 0.546868
0.887602 0.894255 0.488808
0.918853 0.899077 0.435309
0.950195 0.905364 0.427436
0.969848 0.899962 0.443305
0.978180 0.885344 0.463813
0.986297 0.871519 0.485878
0.994141 0.858488 0.509819
1.000000 0.846464 0.534783
1.000000 0.835416 0.560174
0.653956 0.931365 0.756741
0.656733 0.931365 0.757717
0.659815 0.931182 0.758572
0.665370 0.930358 0.759518
0.673396 0.928985 0.760769
0.683528 0.927092 0.762325
0.695766 0.924743 0.764370
0.709529 0.921965 0.766873
0.724758 0.918822 0.770138
0.726528 0.916747 0.763119
0.727504 0.914488 0.754452
0.728878 0.911955 0.744900
0.730251 0.909056 0.734463
0.739742 0.904448 0.731807
0.750454 0.899016 0.730648
0.760769 0.893034 0.729458
0.770504 0.886595 0.728389
0.778866 0.886503 0.720058
0.788693 0.889982 0.706020
0.800961 0.893431 0.689479
0.815763 0.896757 0.669673
0.832975 0.899809 0.645380
0.852598 0.902525 0.613977
0.874662 0.904845 0.571954
0.899504 0.906676 0.514580
0.927886 0.910552 0.480781
0.956786 0.916106 0.471168
0.976867 0.912627 0.487495
0.984649 0.899474 0.508049
0.992218 0.886961 0.529747
0.999481 0.875273 0.552911
1.000000 0.864347 0.576501
0.677363 0.940154 0.774868
0.679713 0.940093 0.775631
0.682185 0.939788 0.776211
0.686854 0.939025 0.777005
0.693782 0.937713 0.778012
0.702785 0.936004 0.779446
0.713558 0.933837 0.781277
0.725978 0.931365 0.783688
0.739834 0.928588 0.786740
0.746059 0.926421 0.784298
0.746700 0.924590 0.776913
0.747860 0.922606 0.769039
0.749081 0.920287 0.760311
0.753140 0.917144 0.753597
0.762753 0.912657 0.752499
0.772091 0.907683 0.751308
0.781125 0.902281 0.750179
0.789853 0.896544 0.749355
0.797086 0.899443 0.738064
0.806332 0.902678 0.724483
0.817838 0.905821 0.708370
0.831540 0.908751 0.688685
0.847410 0.911406 0.664118
0.865660 0.913725 0.633021
0.886320 0.915679 0.591272
0.909667 0.917174 0.539178
0.935424 0.920348 0.521813
0.962188 0.925383 0.511406
0.982605 0.923400 0.526513
0.989899 0.911284 0.546563
0.996948 0.899870 0.567742
1.000000 0.889158 0.589685
0.697993 0.947692 0.790463
0.699947 0.947539 0.791012
0.702205 0.947295 0.791562
0.706538 0.946624 0.792386
0.713161 0.945525 0.793668
0.721828 0.944152 0.795499
0.732570 0.942535 0.798062
0.744900 0.940703 0.801328
0.758633 0.938659 0.805234
0.769711 0.936797 0.807431
0.771267 0.935760 0.802426
0.772946 0.934508 0.796902
0.774533 0.933013 0.790555
0.776059 0.931182 0.783444
0.783291 0.927977 0.781582
0.791440 0.924132 0.780636
0.799466 0.919860 0.779629
0.807279 0.915282 0.778897
0.814267 0.912749 0.775753
0.820737 0.915587 0.765042
0.828946 0.918395 0.752285
0.838987 0.921050 0.736538
0.850980 0.923491 0.716945
0.865110 0.925689 0.692287
0.881559 0.927520 0.660731
0.900542 0.929046 0.619409
0.921721 0.930236 0.589136
0.944945 0.932616 0.573602
0.969268 0.936828 0.562554
0.989471 0.935851 0.575586
0.996124 0.924651 0.593957
1.000000 0.913970 0.612940
0.726406 0.956512 0.810575
0.727993 0.956359 0.811002
0.729763 0.956054 0.811398
0.733425 0.955413 0.812100
0.739071 0.954406 0.813169
0.746395 0.953124 0.814725
0.755428 0.951598 0.816831
0.765957 0.949798 0.819455
0.777646 0.947845 0.822690
0.790127 0.945739 0.826444
0.791623 0.944610 0.822477
0.792294 0.943420 0.817319
0.792996 0.942077 0.811612
0.793668 0.940459 0.805173
