data/fiter_cube/49007420/1023424/file.cube
# Created by Adobe Lightroom plugin Export LUT (1.17.0)
# www.johnrellis.com/lightroom/exportlut.htm
# Preset: 08 - 日系情绪-秋 [云集]
# Color profile: C:\Program Files (x86)\Common Files\Adobe\Color\Profiles\Recommended\AdobeRGB1998.icc
LUT_3D_SIZE 8
DOMAIN_MIN 0.000000 0.000000 0.000000
DOMAIN_MAX 0.903226 0.903226 0.903226
0.088106 0.081056 0.068177
0.143771 0.078248 0.071748
0.359136 0.000000 0.069673
0.611749 0.000000 0.068544
0.790768 0.000000 0.109773
0.895567 0.000000 0.187778
0.969085 0.257145 0.302464
1.000000 0.408728 0.430976
0.092256 0.147860 0.084718
0.143008 0.136446 0.067506
0.361212 0.088563 0.057130
0.602991 0.000000 0.042298
0.782528 0.000000 0.094911
0.889067 0.092866 0.176944
0.964355 0.280613 0.291447
1.000000 0.416358 0.421576
0.043885 0.405890 0.171756
0.161837 0.372717 0.130556
0.356207 0.364385 0.000000
0.626795 0.303136 0.000000
0.787442 0.288914 0.002380
0.895537 0.320867 0.168490
0.969421 0.400671 0.302342
1.000000 0.485908 0.433204
0.178531 0.656306 0.348302
0.291814 0.637903 0.342535
0.397681 0.568109 0.284947
0.616419 0.624353 0.011017
0.822629 0.584497 0.000000
0.907744 0.512871 0.159396
0.967620 0.527001 0.298192
1.000000 0.565698 0.429206
0.377783 0.803525 0.526207
0.436866 0.793790 0.527916
0.497810 0.767269 0.474708
0.605005 0.739193 0.450080
0.761044 0.765042 0.250645
0.904509 0.736172 0.153262
0.960357 0.645258 0.278996
0.999847 0.656153 0.423804
0.534112 0.881712 0.658595
0.574609 0.879789 0.669429
0.632349 0.864744 0.661555
0.671687 0.839017 0.628351
0.733974 0.834806 0.577508
0.846830 0.851743 0.403326
0.956573 0.838407 0.345403
0.994873 0.770443 0.443122
0.653956 0.931365 0.756741
0.673396 0.928985 0.760769
0.724758 0.918822 0.770138
0.730251 0.909056 0.734463
0.770504 0.886595 0.728389
0.815763 0.896757 0.669673
0.899504 0.906676 0.514580
0.984649 0.899474 0.508049
0.745693 0.962707 0.824063
0.757198 0.960876 0.826688
0.792966 0.955200 0.836332
0.811185 0.950317 0.830747
0.816587 0.939483 0.809567
0.842252 0.931975 0.801450
0.874327 0.941344 0.743832
0.936492 0.946502 0.652186
0.092622 0.089448 0.130007
0.152132 0.078859 0.105776
0.357549 0.000000 0.085237
0.600122 0.000000 0.046418
0.780240 0.000000 0.093996
0.886717 0.057710 0.174960
0.962097 0.262547 0.286656
1.000000 0.398688 0.414923
0.070558 0.166873 0.158328
0.174746 0.154788 0.134768
0.372503 0.134829 0.101778
0.601923 0.075471 0.004883
0.778042 0.027771 0.081575
0.884092 0.163760 0.168521
0.958282 0.286839 0.278111
1.000000 0.405615 0.404944
0.000000 0.423957 0.248051
0.220127 0.398413 0.236912
0.381170 0.375402 0.155276
0.623804 0.323308 0.000000
0.781308 0.309636 0.000000
0.887999 0.332403 0.156558
0.959869 0.390753 0.279698
1.000000 0.471626 0.412696
0.169070 0.656275 0.393408
0.293431 0.640864 0.388434
0.425757 0.583490 0.342321
0.610559 0.611627 0.207584
0.802365 0.571923 0.000000
0.891478 0.498878 0.129213
0.957427 0.512078 0.271275
1.000000 0.552636 0.408698
0.380926 0.803708 0.552361
0.436194 0.793606 0.550652
0.524712 0.764492 0.518791
0.607202 0.727779 0.482124
0.751431 0.752987 0.319127
0.896666 0.729244 0.130068
0.955413 0.638758 0.264347
0.997192 0.649531 0.411109
0.528038 0.879179 0.666133
0.560723 0.874327 0.669612
0.637171 0.858244 0.673457
0.671260 0.834775 0.636103
0.734340 0.829282 0.598383
0.844694 0.849363 0.455573
0.954864 0.836515 0.338048
0.993225 0.766995 0.434455
0.643030 0.928679 0.755367
0.659541 0.925261 0.756588
0.713375 0.915587 0.765805
0.732082 0.905821 0.740505
0.770779 0.885039 0.733028
0.814725 0.893523 0.680964
0.895628 0.903136 0.542596
0.982635 0.895903 0.494423
0.738094 0.962066 0.822782
0.750820 0.960418 0.825864
0.787869 0.954803 0.835416
0.813565 0.949340 0.834623
0.824094 0.941772 0.819516
0.846525 0.932494 0.810239
0.875181 0.940642 0.754299
0.935668 0.945434 0.648005
0.000000 0.113527 0.376959
0.204044 0.097993 0.371679
0.414710 0.009155 0.304997
0.644312 0.000000 0.254704
0.789944 0.155306 0.224887
0.892882 0.222660 0.174899
0.966369 0.324773 0.295628
1.000000 0.424811 0.424903
0.000000 0.212894 0.377661
0.197391 0.204471 0.379095
0.422644 0.198764 0.328252
0.637812 0.164187 0.274449
0.785946 0.236698 0.242039
0.891844 0.265568 0.170047
0.963561 0.344182 0.288853
1.000000 0.435218 0.419562
0.000000 0.436561 0.452094
0.179629 0.430549 0.436622
0.441047 0.409613 0.388647
0.641718 0.400916 0.345495
0.790311 0.396124 0.289525
0.894408 0.393835 0.212650
0.962646 0.424170 0.285649
1.000000 0.485908 0.417609
0.000000 0.707057 0.564843
0.232609 0.694850 0.551873
0.503807 0.645930 0.519036
0.645624 0.632898 0.452644
0.801755 0.584619 0.368200
0.893950 0.544213 0.288396
0.961578 0.534722 0.281834
1.000000 0.565362 0.418280
0.346227 0.822477 0.635279
0.421454 0.813901 0.634363
0.581567 0.784756 0.635492
0.657679 0.739254 0.606622
0.767758 0.764492 0.525902
0.889250 0.737362 0.414191
0.957671 0.652399 0.272831
0.998352 0.655360 0.417273
0.521202 0.888182 0.711116
0.559442 0.883116 0.714107
0.648035 0.866789 0.719387
0.696651 0.844358 0.691493
0.751003 0.827268 0.672602
0.844266 0.848875 0.594202
0.946624 0.837369 0.460731
0.994202 0.769589 0.439887
0.643610 0.933928 0.780453
0.661860 0.930755 0.781827
0.714229 0.920867 0.786709
0.761868 0.907836 0.783902
0.784878 0.889830 0.764157
0.824002 0.893248 0.733516
0.896178 0.905364 0.648066
0.984741 0.898558 0.507347
0.732387 0.964874 0.832364
0.742794 0.963012 0.833524
0.780728 0.957061 0.841032
0.831083 0.949889 0.854887
0.833921 0.943633 0.835691
0.856077 0.932097 0.831205
0.881285 0.940764 0.790280
0.936309 0.946349 0.676967
0.000000 0.180667 0.627863
0.208499 0.184604 0.632136
0.514488 0.199191 0.634028
0.671412 0.200595 0.557641
0.809110 0.265721 0.494972
0.893950 0.315648 0.428382
0.956237 0.410834 0.412085
1.000000 0.429511 0.422431
0.000000 0.280369 0.630610
0.224369 0.278996 0.634333
0.512322 0.300023 0.637110
0.672938 0.303319 0.571771
0.804562 0.339635 0.510704
0.887419 0.384283 0.457465
0.953704 0.432990 0.419684
1.000000 0.440650 0.420233
0.000000 0.452186 0.636988
0.198184 0.451057 0.629267
0.465187 0.458595 0.629786
0.669459 0.489143 0.603296
0.794705 0.502007 0.562646
0.876493 0.536614 0.541131
0.953857 0.519951 0.466346
1.000000 0.496529 0.428534
0.120119 0.668055 0.702083
0.258213 0.665003 0.695827
0.476326 0.656367 0.676478
0.668879 0.644709 0.644739
0.782345 0.639918 0.618402
0.870909 0.631830 0.579797
0.945251 0.606317 0.501610
1.000000 0.569574 0.425757
0.301030 0.846494 0.764828
0.376837 0.841489 0.760647
0.554223 0.819699 0.744045
0.705043 0.780026 0.721401
0.780819 0.773922 0.689448
0.871305 0.747189 0.635767
0.937926 0.709590 0.563500
1.000000 0.658625 0.427008
0.507225 0.906188 0.785733
0.552819 0.903319 0.788083
0.644465 0.887297 0.783261
0.741451 0.864103 0.779782
0.781338 0.832761 0.759670
0.850309 0.855100 0.723934
0.930022 0.841459 0.656733
0.990936 0.773281 0.503716
0.633967 0.942016 0.816983
0.654749 0.939513 0.818021
0.712154 0.931090 0.820737
0.781125 0.918029 0.825956
0.810910 0.902800 0.811734
0.840909 0.895689 0.797543
0.897887 0.908049 0.750149
0.973419 0.899260 0.644587
0.730861 0.969940 0.853361
0.742611 0.968414 0.854582
0.776059 0.963287 0.857694
0.825071 0.955200 0.865293
0.855375 0.946868 0.864500
0.868956 0.936217 0.855039
0.890379 0.940978 0.832059
0.935821 0.947326 0.765164
0.176211 0.291783 0.781308
0.295018 0.301305 0.782956
0.517174 0.333013 0.784909
0.728634 0.411780 0.788571
0.810056 0.414160 0.727077
0.891814 0.486641 0.686610
0.946899 0.498817 0.627619
0.993866 0.520439 0.579583
0.221439 0.361852 0.779202
0.319860 0.370855 0.781827
0.523400 0.398291 0.784604
0.725582 0.464851 0.787900
0.808103 0.468818 0.733455
0.888334 0.524620 0.696681
0.943572 0.528710 0.639734
0.989685 0.551019 0.597925
0.224643 0.492897 0.765469
0.319646 0.499886 0.768704
0.515648 0.522850 0.776791
0.714961 0.580713 0.786099
0.800473 0.590570 0.748836
0.876249 0.609094 0.717739
0.932738 0.600580 0.667720
0.979919 0.613672 0.630976
0.280888 0.641505 0.789425
0.344213 0.641352 0.785519
0.494820 0.643488 0.773739
0.677333 0.667811 0.774624
0.794675 0.698848 0.768399
0.864134 0.695796 0.742092
0.917052 0.697597 0.714626
0.981567 0.645197 0.621088
0.382788 0.789425 0.819638
0.432166 0.788418 0.817594
0.555169 0.784146 0.809628
0.680110 0.778195 0.796719
0.782650 0.769955 0.777218
0.853330 0.765103 0.758877
0.915648 0.753201 0.726070
0.976715 0.714107 0.642267
0.491859 0.903471 0.848722
0.525719 0.900999 0.847410
0.612604 0.893126 0.842222
0.714260 0.880827 0.833036
0.799496 0.852567 0.815183
0.851530 0.853574 0.801297
0.915312 0.837278 0.765408
0.969879 0.797818 0.691798
0.616114 0.951598 0.862547
0.635584 0.948852 0.861540
0.693538 0.940429 0.858946
0.765316 0.928313 0.855802
0.828946 0.913024 0.853513
0.853788 0.893278 0.841367
0.899809 0.908507 0.819455
0.959808 0.896208 0.758480
0.715114 0.974762 0.876829
0.726497 0.973144 0.876921
0.761135 0.968139 0.877440
0.811978 0.961822 0.880735
0.859495 0.952575 0.883879
0.880461 0.942931 0.876738
0.899260 0.940185 0.866361
0.936767 0.947387 0.829282
0.376013 0.423224 0.868284
0.427893 0.431708 0.868315
0.563897 0.460761 0.868437
0.721981 0.519188 0.869749
0.843351 0.587335 0.868833
0.883970 0.577264 0.825223
0.936004 0.621790 0.797482
0.979706 0.602716 0.745571
0.395453 0.466194 0.863951
0.441657 0.472816 0.864134
0.568688 0.497414 0.864805
0.719966 0.547967 0.866270
0.840940 0.612787 0.867033
0.880919 0.601099 0.825986
0.933501 0.638972 0.800473
0.977417 0.618036 0.750027
0.423346 0.565148 0.859373
0.466957 0.571008 0.859373
0.585504 0.593622 0.860563
0.721859 0.630854 0.863371
0.839048 0.686183 0.867735
0.877043 0.673396 0.834257
0.927947 0.694270 0.813138
0.971344 0.668330 0.767086
0.412634 0.659358 0.856138
0.446479 0.660456 0.853452
0.554864 0.670527 0.849027
0.707851 0.705928 0.857877
0.829099 0.754604 0.867033
0.875090 0.757992 0.847898
0.921965 0.761685 0.830655
0.963989 0.731991 0.789334
0.473213 0.765835 0.866239
0.503197 0.766629 0.864866
0.585138 0.768307 0.860014
0.678798 0.769070 0.851835
0.789639 0.785885 0.852689
0.866423 0.812772 0.852354
0.911711 0.806485 0.836210
0.951598 0.794827 0.810819
0.547631 0.862394 0.878965
0.572168 0.862669 0.878691
0.634943 0.861204 0.875853
0.714046 0.859037 0.871000
0.788571 0.856291 0.863737
0.856321 0.853941 0.854337
0.905821 0.851774 0.844388
0.953094 0.834531 0.814511
0.632197 0.946838 0.902098
0.649561 0.945830 0.901793
0.697169 0.941650 0.899596
0.760403 0.936461 0.896544
0.822477 0.930602 0.892058
0.873991 0.912779 0.881010
0.906554 0.911864 0.870939
0.951537 0.896757 0.841093
0.707240 0.981567 0.909056
0.717647 0.980438 0.908782
0.752499 0.975738 0.907347
0.801083 0.969146 0.905669
0.848875 0.961212 0.903227
0.892912 0.951507 0.902342
0.910918 0.940185 0.895811
0.941619 0.949157 0.879301
0.527337 0.546593 0.913115
0.554864 0.553643 0.913146
0.632105 0.572534 0.912230
0.734279 0.605921 0.911254
0.831144 0.650813 0.910185
0.899901 0.679469 0.906889
0.927184 0.668086 0.875059
0.965789 0.684108 0.850431
0.537896 0.571679 0.910430
0.563104 0.577386 0.910491
0.635828 0.593500 0.909880
0.733516 0.622034 0.909026
0.828763 0.663539 0.908354
0.897673 0.692409 0.905486
0.924620 0.679225 0.874479
0.963592 0.692592 0.850675
0.557183 0.635157 0.907042
0.584222 0.642176 0.906828
0.649744 0.655177 0.906462
0.738003 0.676783 0.906310
0.827512 0.710933 0.906462
0.896513 0.743679 0.905608
0.922301 0.729671 0.879576
0.960571 0.738094 0.860319
0.530175 0.694118 0.902342
0.555871 0.697017 0.901884
0.634516 0.710048 0.901488
0.734798 0.735958 0.902495
0.822995 0.765530 0.904112
0.897002 0.805966 0.907286
0.920012 0.791165 0.887144
0.956573 0.791989 0.872007
0.551293 0.769192 0.903868
0.567956 0.769589 0.902739
0.618799 0.771389 0.899382
0.686976 0.773190 0.894133
0.800961 0.802152 0.898436
0.885069 0.839536 0.904479
0.916381 0.840116 0.892729
0.951934 0.837034 0.880919
0.600549 0.846738 0.909636
0.614740 0.846952 0.909056
0.658595 0.847593 0.907073
0.719051 0.848508 0.903716
0.780636 0.848112 0.898253
0.859678 0.862150 0.898894
0.915740 0.883391 0.900237
0.948211 0.875364 0.888640
0.658991 0.913573 0.917357
0.671260 0.913603 0.917174
0.707515 0.913176 0.916075
0.758145 0.912963 0.914366
0.811307 0.912535 0.911589
0.862119 0.912016 0.907683
0.909209 0.910369 0.901610
0.945983 0.906401 0.893095
0.720943 0.971405 0.931456
0.729488 0.971283 0.931518
0.758389 0.971344 0.932067
0.798734 0.968933 0.930755
0.843503 0.965759 0.928618
0.887877 0.962737 0.926299
0.925383 0.952422 0.920592
0.948333 0.951812 0.913725
0.656764 0.662989 0.941070
0.669398 0.665858 0.940887
0.707881 0.673365 0.939910
0.767025 0.689113 0.938628
0.832639 0.712703 0.936950
0.895201 0.744106 0.935149
0.939513 0.746334 0.932372
0.959472 0.726925 0.906767
0.661189 0.676020 0.939910
0.673396 0.678614 0.939757
0.710750 0.685664 0.938933
0.768032 0.700008 0.937713
0.832578 0.722377 0.936187
0.894347 0.752499 0.934539
0.938354 0.755306 0.931792
0.958221 0.735531 0.906859
0.671412 0.713008 0.937560
0.684871 0.716945 0.937316
0.718502 0.721981 0.936522
0.773678 0.736202 0.935943
0.834165 0.755093 0.934691
0.892973 0.780758 0.933410
0.936370 0.787533 0.931212
0.955810 0.767971 0.909056
0.638025 0.738247 0.936309
0.656397 0.743038 0.936034
0.711482 0.759121 0.934661
0.776028 0.779507 0.933623
0.834287 0.795834 0.932982
0.890929 0.817777 0.932494
0.934905 0.830900 0.931426
0.953399 0.812650 0.913237
0.621332 0.787961 0.934600
0.632746 0.789151 0.934234
0.667262 0.791348 0.932616
0.738857 0.800900 0.932128
0.824460 0.829191 0.931060
0.884154 0.848875 0.931334
0.934173 0.871672 0.932372
0.951598 0.858000 0.918578
0.655116 0.848386 0.936584
0.663844 0.848569 0.936156
0.692439 0.849454 0.934752
0.735409 0.850736 0.932525
0.784573 0.851804 0.929168
0.869841 0.875151 0.930419
0.930144 0.900847 0.933562
0.952483 0.900023 0.925872
0.702296 0.905150 0.940185
0.709834 0.905272 0.939910
0.734401 0.905821 0.939086
0.772091 0.907042 0.937804
0.815213 0.908415 0.935943
0.858030 0.909026 0.933074
0.914183 0.917662 0.932464
0.953857 0.931121 0.932158
0.746975 0.949035 0.943664
0.752956 0.948974 0.943511
0.773373 0.949065 0.943084
0.805661 0.949584 0.942565
0.843290 0.950530 0.941772
0.881804 0.951873 0.940795
0.919158 0.953277 0.939300
0.953460 0.953155 0.936126
