data/fiter_cube/81078425/1022768/file.cube
# Created by Adobe Lightroom plugin Export LUT (1.17.0)
# www.johnrellis.com/lightroom/exportlut.htm
# Preset: 旅拍情绪景观_02 云集视觉
# Color profile: C:\Program Files (x86)\Common Files\Adobe\Color\Profiles\Recommended\AdobeRGB1998.icc
LUT_3D_SIZE 32
DOMAIN_MIN 0.0 0.0 0.0
DOMAIN_MAX 1.0 1.0 1.0
0.059083 0.071870 0.077577
0.062135 0.072206 0.077821
0.065492 0.072877 0.078340
0.073335 0.073915 0.079408
0.083864 0.075776 0.080903
0.096651 0.076783 0.082002
0.111604 0.077882 0.083223
0.129152 0.078614 0.084596
0.150149 0.078004 0.085695
0.174990 0.076204 0.086732
0.204440 0.072480 0.087617
0.238376 0.065400 0.088502
0.276127 0.049012 0.088685
0.317479 0.008087 0.088624
0.360876 0.000000 0.088228
0.405951 0.000000 0.086885
0.451850 0.000000 0.084779
0.497963 0.000000 0.081971
0.543603 0.000000 0.078096
0.603357 0.000000 0.071656
0.661341 0.000000 0.062531
0.711269 0.000000 0.048066
0.753872 0.000000 0.026520
0.790616 0.089204 0.008453
0.822507 0.141360 0.000000
0.851347 0.182345 0.000000
0.878538 0.220615 0.000000
0.904570 0.257267 0.015869
0.929686 0.294041 0.060639
0.953552 0.331548 0.092958
0.975921 0.370489 0.130678
0.996551 0.411872 0.177310
0.061067 0.073854 0.078676
0.062715 0.074037 0.078309
0.064942 0.074464 0.079561
0.071748 0.076356 0.080842
0.082612 0.077760 0.082002
0.094911 0.079255 0.083070
0.109682 0.080110 0.084047
0.126894 0.080659 0.085420
0.147311 0.080385 0.086519
0.171695 0.079011 0.087617
0.200290 0.075898 0.088258
0.233433 0.069886 0.088960
0.270603 0.059358 0.089479
0.310887 0.027070 0.089570
0.353552 0.000000 0.088838
0.397925 0.000000 0.087617
0.443183 0.000000 0.085756
0.489174 0.000000 0.083223
0.535058 0.000000 0.079652
0.594446 0.000000 0.073548
0.651179 0.000000 0.065187
0.700618 0.000000 0.053620
0.743465 0.000000 0.033936
0.781003 0.079530 0.013733
0.813748 0.133242 0.000000
0.843534 0.175204 0.000000
0.871672 0.213962 0.000000
0.898528 0.251682 0.006989
0.924468 0.288823 0.052186
0.949187 0.326604 0.086244
0.972229 0.365576 0.124117
0.993439 0.406836 0.169711
0.062837 0.076570 0.080079
0.064881 0.077028 0.080018
0.066896 0.076753 0.079652
0.072114 0.078401 0.081605
0.080446 0.080537 0.083375
0.093111 0.081605 0.084474
0.107301 0.082948 0.085389
0.124269 0.083345 0.086458
0.144564 0.083253 0.087312
0.168429 0.082368 0.088411
0.196506 0.079927 0.089113
0.229038 0.075074 0.089784
0.265751 0.066590 0.090120
0.305882 0.047822 0.090242
0.348119 0.003021 0.089845
0.392309 0.000000 0.088808
0.437476 0.000000 0.087037
0.483223 0.000000 0.084413
0.529229 0.000000 0.081025
0.588922 0.000000 0.074769
0.645106 0.000000 0.067048
0.694484 0.000000 0.057588
0.737545 0.000000 0.038941
0.775418 0.082887 0.019318
0.808652 0.133852 0.002411
0.838895 0.175082 0.000000
0.867521 0.213291 0.000000
0.894987 0.250797 0.008270
0.921447 0.288121 0.048554
0.946593 0.325841 0.084871
0.970031 0.364569 0.121706
0.991516 0.405646 0.166629
0.067689 0.083070 0.083162
0.069429 0.083497 0.083406
0.072023 0.084138 0.083284
0.076478 0.083833 0.082612
0.083772 0.084627 0.084199
0.089235 0.086427 0.087404
0.103517 0.087800 0.088014
0.120394 0.088655 0.088777
0.140139 0.088960 0.089601
0.163790 0.088472 0.090394
0.191104 0.086854 0.091127
0.223056 0.083650 0.091859
0.259098 0.077882 0.092500
0.298497 0.068086 0.092439
0.340398 0.047395 0.092103
0.384009 0.000000 0.090944
0.428901 0.000000 0.089357
0.474464 0.000000 0.086641
0.520592 0.000000 0.083467
0.580163 0.000000 0.077668
0.634424 0.000000 0.070741
0.683162 0.000000 0.062776
0.726925 0.000000 0.048737
0.766629 0.094575 0.028534
0.802213 0.142245 0.010285
0.834592 0.182712 0.000000
0.864744 0.220890 0.000000
0.893126 0.258274 0.015930
0.920012 0.294865 0.058320
0.945220 0.331701 0.088045
0.968505 0.369177 0.123995
0.989746 0.408881 0.167422
0.073396 0.092714 0.086946
0.075502 0.092714 0.087190
0.077821 0.093263 0.087098
0.083528 0.093904 0.086915
0.089815 0.093568 0.085603
0.099550 0.093080 0.086519
0.104433 0.093477 0.090028
0.114290 0.094850 0.092317
0.133364 0.096101 0.092836
0.156252 0.096559 0.093629
0.182681 0.096193 0.094087
0.213657 0.094728 0.094850
0.249058 0.091676 0.095247
0.287846 0.085756 0.095247
0.329595 0.076600 0.095003
0.373602 0.062531 0.094148
0.419135 0.024689 0.092317
0.465614 0.000000 0.089937
0.516442 0.000000 0.086793
0.574090 0.000000 0.081453
0.627008 0.000000 0.075044
0.675166 0.000000 0.067628
0.718990 0.071748 0.059266
0.759335 0.118044 0.042054
0.795865 0.157626 0.024201
0.829129 0.195163 0.012299
0.860014 0.231266 0.013367
0.888914 0.267033 0.029847
0.916197 0.302647 0.063722
0.941772 0.338628 0.091493
0.965484 0.375280 0.126223
0.987152 0.414160 0.169223
0.081575 0.104646 0.091524
0.083406 0.104921 0.091463
0.085939 0.105104 0.091371
0.091646 0.105562 0.091463
0.099153 0.106722 0.090608
0.108339 0.105776 0.089052
0.122072 0.104494 0.088960
0.126436 0.103487 0.092988
0.130861 0.104189 0.096895
0.148806 0.105684 0.098024
0.174960 0.106600 0.098451
0.205509 0.106752 0.098909
0.239902 0.105898 0.099550
0.278233 0.102846 0.099336
0.319615 0.098299 0.098848
0.363684 0.090578 0.098054
0.409735 0.080079 0.096498
0.456794 0.066377 0.094392
0.512413 0.044678 0.090944
0.569299 0.027985 0.085878
0.622400 0.052735 0.079927
0.671382 0.083558 0.073335
0.774777 0.179355 0.060273
0.810269 0.212100 0.054963
0.841215 0.242802 0.055360
0.868956 0.272435 0.062074
0.894408 0.301610 0.073732
0.918334 0.330663 0.090669
0.940887 0.360601 0.113527
0.962097 0.391913 0.142702
0.981659 0.424903 0.179110
0.999329 0.460761 0.224399
0.093690 0.123720 0.097383
0.095827 0.123873 0.097536
0.098909 0.123903 0.097475
0.104829 0.124544 0.097719
0.114809 0.125154 0.097627
0.125734 0.127291 0.095491
0.138735 0.125856 0.093324
0.160983 0.124361 0.091920
0.163912 0.120241 0.096925
0.167697 0.119417 0.101717
0.173831 0.119661 0.105379
0.205417 0.121614 0.105562
0.240818 0.122438 0.105501
0.279789 0.121859 0.105043
0.321324 0.119478 0.104433
0.364935 0.115602 0.103517
0.410559 0.110628 0.101625
0.462165 0.104829 0.099367
0.522362 0.102144 0.095644
0.581781 0.107088 0.090791
0.638880 0.123232 0.085084
0.692836 0.149569 0.078492
0.742794 0.182559 0.071839
0.787289 0.217288 0.066651
0.825254 0.251835 0.065431
0.857237 0.282994 0.070344
0.885161 0.312871 0.080476
0.910491 0.341619 0.096254
0.934173 0.370855 0.117647
0.956023 0.400671 0.145876
0.976257 0.432563 0.180911
0.994598 0.467201 0.225101
0.107759 0.144350 0.103334
0.109926 0.144442 0.103273
0.112459 0.144656 0.103395
0.118929 0.144839 0.103182
0.128695 0.145205 0.103548
0.142061 0.147372 0.102541
0.154726 0.148959 0.099886
0.171633 0.147860 0.097230
0.204868 0.148013 0.093721
0.206546 0.140841 0.100130
0.208988 0.137392 0.105776
0.211551 0.135836 0.110018
0.227604 0.136355 0.112215
0.265690 0.137911 0.111818
0.306401 0.138460 0.111025
0.349554 0.137728 0.109773
0.395972 0.135958 0.108156
0.453193 0.136019 0.105928
0.509972 0.137118 0.102998
0.567559 0.143038 0.098482
0.624140 0.156710 0.093599
0.678126 0.178225 0.087770
0.728389 0.206271 0.082551
0.773709 0.237552 0.078096
0.812924 0.268894 0.077546
0.846189 0.298558 0.081117
0.875334 0.326940 0.089662
0.901915 0.354711 0.103883
0.926726 0.383185 0.124117
0.949615 0.412329 0.151064
0.970642 0.443366 0.185611
0.989715 0.477089 0.229526
0.126009 0.171084 0.110323
0.128237 0.171115 0.110262
0.131228 0.171298 0.110353
0.137392 0.171511 0.110567
0.147463 0.171695 0.110384
0.160861 0.171969 0.110262
0.177096 0.175937 0.107881
0.193942 0.178103 0.104646
0.215702 0.177340 0.100893
0.256352 0.178714 0.095888
0.264683 0.170138 0.102205
0.263920 0.162783 0.109224
0.263401 0.158175 0.114534
0.261875 0.154543 0.118898
0.292576 0.155886 0.118898
0.335760 0.157809 0.117617
0.389014 0.160952 0.116274
0.443214 0.163821 0.114229
0.498054 0.167330 0.111299
0.554711 0.174685 0.107729
0.611109 0.187747 0.103120
0.665278 0.207584 0.098329
0.715785 0.232578 0.093812
0.761868 0.261326 0.090822
0.802090 0.290654 0.090211
0.836454 0.318486 0.093843
0.866667 0.345647 0.101839
0.894194 0.372076 0.115053
0.919768 0.399329 0.134279
0.943420 0.427436 0.160159
0.965087 0.457221 0.194064
0.984619 0.489754 0.236881
0.149874 0.204898 0.118410
0.152071 0.204898 0.118318
0.155123 0.204868 0.118227
0.161440 0.204868 0.118196
0.171572 0.205020 0.117952
0.185183 0.205142 0.117952
0.202396 0.205264 0.117525
0.221836 0.211582 0.113161
0.243748 0.214755 0.108614
0.270451 0.214603 0.103914
0.314916 0.215976 0.097536
0.333806 0.208042 0.102205
0.329381 0.195804 0.111330
0.324743 0.186831 0.118257
0.322210 0.180972 0.123537
0.328466 0.178897 0.127535
0.380407 0.184665 0.126192
0.433997 0.190066 0.123964
0.488594 0.195987 0.121492
0.544549 0.204837 0.117952
0.599725 0.217777 0.113954
0.652338 0.235599 0.109926
0.701411 0.257633 0.106325
0.746609 0.282689 0.103609
0.787198 0.309331 0.103334
0.822873 0.335851 0.106081
0.854917 0.362249 0.113497
0.884367 0.388830 0.126223
0.911681 0.416266 0.145144
0.936919 0.444617 0.171633
0.959808 0.474617 0.206271
0.980285 0.507134 0.250980
0.177951 0.244327 0.126711
0.180179 0.244419 0.126589
0.183505 0.244511 0.126436
0.190188 0.244602 0.126528
0.200931 0.244877 0.126192
0.215274 0.245457 0.125948
0.233341 0.245914 0.125643
0.256413 0.250614 0.123232
0.278843 0.257084 0.117891
0.305821 0.261204 0.111727
0.337377 0.261845 0.105226
0.383032 0.262119 0.096284
0.415839 0.258061 0.098726
0.414069 0.243198 0.111147
0.409949 0.231357 0.121431
0.404334 0.221439 0.128695
0.397955 0.212924 0.133944
0.418433 0.212222 0.135256
0.471992 0.219791 0.132692
0.527367 0.229618 0.129763
0.583001 0.243442 0.126192
0.636744 0.260929 0.122744
0.687007 0.282597 0.119997
0.733394 0.306920 0.118196
0.775357 0.332769 0.118196
0.812161 0.358129 0.121492
0.845029 0.383185 0.128542
0.875273 0.408728 0.140536
0.903441 0.435096 0.158755
0.929534 0.462501 0.184268
0.953246 0.491615 0.218479
0.974395 0.523369 0.263188
0.213565 0.293278 0.136080
0.215885 0.293370 0.136141
0.219272 0.293492 0.135958
0.226383 0.293736 0.135897
0.237583 0.294163 0.135592
0.252445 0.294591 0.135073
0.271031 0.295323 0.134859
0.293675 0.296178 0.134096
0.321172 0.305089 0.128908
0.348333 0.312840 0.121950
0.379858 0.318181 0.113527
0.423285 0.325719 0.104067
0.535698 0.377752 0.085603
0.589380 0.387701 0.080598
0.577508 0.357733 0.108064
0.562737 0.331640 0.126619
0.546563 0.308934 0.138643
0.530663 0.289586 0.146456
0.516228 0.273869 0.151522
0.557977 0.282383 0.149660
0.611475 0.298802 0.146822
0.661311 0.317998 0.144472
0.707454 0.338964 0.143038
0.750210 0.361852 0.143313
0.788571 0.384863 0.145785
0.822812 0.407599 0.151858
0.853635 0.429786 0.161105
0.881865 0.452308 0.175021
0.908080 0.475685 0.194736
0.932525 0.500450 0.221469
0.954589 0.527245 0.257145
0.974365 0.557305 0.303380
0.269902 0.368505 0.150668
0.272465 0.368353 0.150729
0.275212 0.367559 0.150454
0.281682 0.366064 0.149722
0.292210 0.364508 0.148898
0.306004 0.362890 0.148135
0.324346 0.362066 0.147127
0.346715 0.362036 0.146334
0.373632 0.363256 0.145510
0.412940 0.384009 0.136873
0.457038 0.404486 0.127779
0.506554 0.424140 0.116396
0.558831 0.440497 0.102052
0.609491 0.448615 0.084169
0.668269 0.466896 0.071870
0.654566 0.432380 0.108370
0.637537 0.400061 0.130251
0.619654 0.371527 0.144503
0.602716 0.347204 0.153384
0.588281 0.327550 0.159457
0.586725 0.317082 0.162966
0.638148 0.336156 0.160647
0.685878 0.356817 0.159487
0.730129 0.379126 0.159701
0.770474 0.401953 0.161898
0.806546 0.424414 0.167056
0.839109 0.446540 0.175937
0.868956 0.469001 0.189212
0.896788 0.492287 0.208377
0.922698 0.517174 0.235080
0.946136 0.543938 0.270573
0.967041 0.573816 0.317662
0.317571 0.429175 0.164767
0.320165 0.429206 0.164767
0.322942 0.428382 0.164401
0.329473 0.427008 0.163577
0.339391 0.424903 0.162539
0.353002 0.423346 0.161807
0.375006 0.426642 0.161868
0.401404 0.431128 0.161990
0.432898 0.437201 0.162173
0.471443 0.450996 0.159304
0.511650 0.472663 0.149935
0.554284 0.492744 0.139223
0.597223 0.509178 0.127352
0.638911 0.519585 0.113405
0.677516 0.521233 0.098695
0.731319 0.537469 0.082734
0.714839 0.498970 0.118074
0.697261 0.463996 0.139132
0.679927 0.433173 0.153964
0.665248 0.407660 0.163546
0.653071 0.387030 0.170474
0.643641 0.370550 0.175631
0.664240 0.374151 0.177249
0.710567 0.396979 0.177737
0.753017 0.420264 0.180179
0.791257 0.442908 0.185153
0.825620 0.465339 0.193698
0.857115 0.488075 0.206882
0.886412 0.511498 0.226017
0.913603 0.536614 0.253025
0.938231 0.563439 0.289433
0.960021 0.593256 0.337835
0.382666 0.506859 0.187625
0.385657 0.507408 0.187869
0.388739 0.506981 0.187320
0.395850 0.506493 0.186893
0.406439 0.505547 0.186343
0.421180 0.505119 0.185336
0.439796 0.505425 0.185092
0.463203 0.507256 0.184665
0.491005 0.511009 0.185061
0.523064 0.516899 0.185733
0.561975 0.536278 0.179904
0.597192 0.554528 0.172000
0.632898 0.570062 0.163302
0.667659 0.581109 0.153414
0.700252 0.585412 0.141970
0.729793 0.581384 0.128359
0.779141 0.595605 0.114900
0.763455 0.557580 0.139681
0.747829 0.523339 0.156680
0.733028 0.493782 0.170474
0.720638 0.468940 0.179843
0.710567 0.448463 0.186587
0.702541 0.431312 0.191684
0.697230 0.418250 0.196262
0.734249 0.436683 0.199222
0.775174 0.460883 0.204471
0.812497 0.485084 0.214145
0.846677 0.509697 0.229007
0.878294 0.535210 0.250553
0.907317 0.562036 0.280735
0.933288 0.590478 0.321386
0.955657 0.621729 0.374914
0.453559 0.585229 0.221042
0.456519 0.585901 0.221714
0.459327 0.585718 0.221408
0.466041 0.585229 0.220645
0.476112 0.584588 0.220157
0.489601 0.584039 0.219699
0.506889 0.584466 0.219303
0.527886 0.585840 0.219577
0.551843 0.588312 0.220584
0.578729 0.591943 0.222049
0.607630 0.596094 0.223728
0.639643 0.614374 0.215671
0.666621 0.625513 0.208072
0.693538 0.633478 0.198611
0.719600 0.636957 0.187778
0.744228 0.635187 0.175875
0.767605 0.627771 0.163394
0.809812 0.637324 0.155428
0.802274 0.607782 0.171572
0.790768 0.577996 0.184787
0.780392 0.552331 0.196689
0.771359 0.530480 0.205936
0.763882 0.511711 0.212741
0.758358 0.496468 0.218021
0.755428 0.484871 0.223178
0.762997 0.483436 0.229374
0.802274 0.508751 0.239963
0.838010 0.534264 0.256077
0.870573 0.560174 0.278965
0.900206 0.586816 0.310185
0.926329 0.614527 0.351446
0.948760 0.644831 0.405066
0.511009 0.646723 0.260044
0.513176 0.646662 0.259770
0.515160 0.646143 0.259800
0.520684 0.645380 0.259098
0.529046 0.644373 0.258061
0.540490 0.643549 0.257542
0.555077 0.643305 0.257359
0.572747 0.643580 0.257115
0.593194 0.644831 0.258061
0.616052 0.646967 0.259678
0.641047 0.649989 0.261936
0.668727 0.658228 0.261723
0.694453 0.671290 0.254673
0.717159 0.678859 0.247959
0.738949 0.682460 0.238712
0.759457 0.681788 0.228031
0.779294 0.676844 0.216251
0.798886 0.667750 0.204471
0.833402 0.672023 0.200412
0.834562 0.651484 0.210758
0.825620 0.625299 0.220676
0.817472 0.602258 0.229679
0.810269 0.582238 0.237888
0.805020 0.565759 0.244236
0.801419 0.552361 0.250065
0.800565 0.543145 0.256626
0.802914 0.538781 0.265080
0.825101 0.553094 0.280278
0.859678 0.580316 0.304387
0.890806 0.608148 0.337438
0.918212 0.636835 0.380926
0.941344 0.667842 0.437476
0.562341 0.701350 0.307164
0.564904 0.702235 0.308354
0.602899 0.739437 0.350958
0.607233 0.738582 0.350103
0.613611 0.737118 0.348516
0.621973 0.735164 0.346715
0.632746 0.733150 0.344549
0.645960 0.731472 0.342840
0.661707 0.730526 0.342382
0.679622 0.730373 0.343023
0.699092 0.730587 0.344305
0.719783 0.730983 0.345678
0.742824 0.739193 0.340459
0.759243 0.742763 0.333257
0.775326 0.743893 0.323980
0.791135 0.742123 0.313146
0.806577 0.737423 0.301732
0.821927 0.729458 0.288212
0.837400 0.718471 0.275486
0.863981 0.716793 0.272923
0.870420 0.702083 0.277745
0.862882 0.678553 0.282048
0.856168 0.657557 0.286046
0.850248 0.639460 0.291325
0.845365 0.623438 0.294926
0.842252 0.610559 0.299138
0.841581 0.601740 0.305241
0.844327 0.598566 0.315465
0.851133 0.602228 0.332341
0.880400 0.628138 0.365301
0.908873 0.657435 0.410285
0.932708 0.688380 0.467628
0.614282 0.755306 0.370825
0.619806 0.759579 0.377478
0.625910 0.763546 0.383246
0.633356 0.766781 0.388647
0.641596 0.768490 0.391943
0.650568 0.768429 0.392401
0.660365 0.767300 0.391394
0.671748 0.765835 0.389990
0.685298 0.764950 0.389471
0.700618 0.764309 0.389746
0.717678 0.764065 0.390295
0.735683 0.763882 0.391730
0.754116 0.763241 0.392157
0.773037 0.770748 0.384161
0.786831 0.771878 0.375647
0.800381 0.770840 0.365850
0.813962 0.767544 0.354192
0.827512 0.762020 0.342443
0.841520 0.754330 0.331090
0.855955 0.744320 0.319554
0.878660 0.740780 0.318364
0.890379 0.732326 0.326024
0.884764 0.712306 0.329442
0.879942 0.694331 0.332189
0.875486 0.678645 0.336980
0.872465 0.665583 0.341436
0.871214 0.655848 0.347967
0.872465 0.650629 0.358404
0.876982 0.651423 0.375128
0.884764 0.659297 0.401404
0.899077 0.677607 0.441596
0.923796 0.708827 0.499916
0.646479 0.787808 0.420905
0.651057 0.791073 0.427039
0.656092 0.794247 0.433295
0.662257 0.796750 0.438636
0.669520 0.798123 0.441718
0.676875 0.798032 0.442267
0.685298 0.796994 0.441413
0.695216 0.795804 0.440101
0.706844 0.794858 0.439551
0.720211 0.794186 0.439551
0.734890 0.793790 0.440742
0.750698 0.793393 0.441779
0.766964 0.792477 0.441657
0.784237 0.794034 0.439307
0.798917 0.797787 0.430823
0.810727 0.797299 0.421973
0.822629 0.795010 0.411475
0.834684 0.791073 0.400305
0.847196 0.785550 0.389471
0.860105 0.778439 0.379767
0.873350 0.769253 0.370245
0.892638 0.764614 0.371191
0.907530 0.759976 0.380957
0.903319 0.742947 0.383612
0.899687 0.727321 0.384955
0.896605 0.713985 0.388861
0.894835 0.703517 0.394903
0.895018 0.696803 0.404303
0.897551 0.695094 0.420325
0.902617 0.699306 0.444862
0.910063 0.710506 0.480598
0.919219 0.729458 0.530297
0.675044 0.815518 0.473487
0.678920 0.818082 0.479683
0.683192 0.820676 0.485512
0.688502 0.822660 0.490394
0.694514 0.823697 0.493599
0.700862 0.823545 0.494026
0.707912 0.822660 0.492988
0.716335 0.821530 0.491646
0.726192 0.820493 0.490883
0.737514 0.819547 0.490364
0.750118 0.818875 0.490791
0.763912 0.818204 0.491157
0.778164 0.817166 0.490913
0.793057 0.816007 0.490913
0.809384 0.819699 0.486244
0.820951 0.820768 0.479347
0.832151 0.820188 0.472847
0.843778 0.818631 0.466438
0.855711 0.815976 0.460883
0.868040 0.812039 0.455604
0.880491 0.806638 0.451362
0.892912 0.799527 0.447974
0.908812 0.794369 0.451148
0.924895 0.792782 0.466255
0.922148 0.779171 0.468086
0.919982 0.766995 0.469825
0.918456 0.757046 0.474525
0.918120 0.750423 0.484321
0.919371 0.747799 0.499825
0.922393 0.749935 0.522606
0.927092 0.757839 0.555322
0.933043 0.772274 0.600183
0.710994 0.848020 0.549584
0.712917 0.848905 0.552056
0.714900 0.849607 0.554437
0.717861 0.849943 0.555657
0.721889 0.849790 0.556054
0.726619 0.849210 0.555291
0.732509 0.848356 0.554284
0.739742 0.847532 0.553552
0.748440 0.846952 0.553491
0.758450 0.846494 0.554162
0.769650 0.846128 0.555383
0.781582 0.845640 0.556573
0.794125 0.844816 0.556878
0.807187 0.843626 0.556420
0.820737 0.842252 0.555535
0.834653 0.846067 0.549432
0.844053 0.845548 0.543511
0.853880 0.844205 0.537407
0.863890 0.841978 0.531884
0.874174 0.838712 0.526299
0.884550 0.834287 0.521355
0.895079 0.828428 0.516167
0.905486 0.821012 0.510857
0.918090 0.814328 0.510369
0.934783 0.813993 0.525414
0.932677 0.802213 0.526177
0.931304 0.792264 0.528710
0.930816 0.784817 0.534997
0.931212 0.780941 0.548455
0.932921 0.780941 0.568109
0.935912 0.785672 0.596124
0.940093 0.796078 0.634455
0.732448 0.866453 0.599176
0.734249 0.867185 0.601587
0.736019 0.867826 0.603662
0.738674 0.868132 0.605310
0.741970 0.868009 0.605707
0.745907 0.867399 0.604700
0.750729 0.866575 0.603326
0.756680 0.865660 0.602014
0.763882 0.864927 0.601648
0.772366 0.864286 0.601709
0.781918 0.863798 0.602441
0.792355 0.863249 0.603174
0.803403 0.862455 0.603418
0.815091 0.861509 0.603418
0.827359 0.860410 0.603174
0.840238 0.860746 0.601831
0.851591 0.863035 0.597131
0.860258 0.862394 0.593072
0.869169 0.861021 0.589319
0.878386 0.858946 0.585779
0.887755 0.856016 0.582574
0.897093 0.852140 0.580194
0.906493 0.847105 0.577569
0.915831 0.840726 0.574578
0.924559 0.829587 0.557061
0.940856 0.829953 0.572869
0.940490 0.820859 0.575616
0.939818 0.813077 0.580133
0.939940 0.807736 0.588983
0.940795 0.806119 0.605615
0.942748 0.808621 0.629816
0.945739 0.816312 0.663783
0.758694 0.886900 0.663539
0.760281 0.887572 0.666194
0.761654 0.887938 0.667597
0.763424 0.887877 0.667872
0.765743 0.887419 0.667048
0.768612 0.886687 0.665370
0.772183 0.885649 0.662959
0.776516 0.884520 0.660456
0.781979 0.883299 0.657984
0.788479 0.882200 0.656092
0.795865 0.881041 0.654353
0.804257 0.880003 0.653254
0.813474 0.878874 0.652064
0.823239 0.877531 0.650507
0.833494 0.875914 0.648066
0.844327 0.874205 0.645502
0.855985 0.875395 0.640986
0.864500 0.875517 0.635706
0.872343 0.874571 0.632166
0.880644 0.873289 0.629816
0.889097 0.871427 0.628443
0.897581 0.868833 0.627131
0.905943 0.865110 0.624903
0.914214 0.860044 0.621454
0.922332 0.853605 0.616480
0.930907 0.846220 0.611475
0.945251 0.846433 0.626429
0.947295 0.839933 0.630671
0.947021 0.833829 0.636103
0.947539 0.830442 0.647028
0.948730 0.830900 0.666285
0.950774 0.836057 0.695094
0.774807 0.898528 0.702266
0.776181 0.899107 0.704768
0.777401 0.899382 0.706020
0.778958 0.899351 0.706325
0.780880 0.899016 0.705837
0.783352 0.898436 0.704463
0.786526 0.897704 0.702968
0.790433 0.896849 0.701106
0.795315 0.896025 0.699580
0.801053 0.895262 0.698726
0.807675 0.894499 0.698054
0.815213 0.893797 0.697902
0.823392 0.893034 0.697719
0.832059 0.892088 0.697200
0.841154 0.890929 0.696132
0.850858 0.889677 0.694789
0.861143 0.888365 0.693446
0.871794 0.890776 0.689845
0.878569 0.890166 0.687037
0.885649 0.889372 0.685664
0.892943 0.888090 0.684718
0.900328 0.886259 0.683894
0.907713 0.883574 0.682307
0.914946 0.880034 0.680140
0.922118 0.875425 0.676967
0.929290 0.869688 0.672572
0.936461 0.862913 0.668055
0.949004 0.863218 0.682399
0.952789 0.859464 0.689967
0.953033 0.855467 0.697658
0.953948 0.854551 0.711940
0.955566 0.857389 0.733822
0.791958 0.909941 0.742214
0.792966 0.910246 0.743526
0.793729 0.910338 0.744076
0.794736 0.910155 0.743771
0.796109 0.909697 0.742641
0.798032 0.909087 0.741054
0.800534 0.908354 0.739223
0.803738 0.907591 0.737575
0.807828 0.906889 0.736294
0.812772 0.906218 0.735531
0.818540 0.905608 0.735256
0.825162 0.905119 0.735500
0.832303 0.904540 0.735805
0.839994 0.903807 0.735592
0.847990 0.902892 0.734829
0.856413 0.901823 0.733883
0.865415 0.900694 0.732845
0.874968 0.900542 0.731746
0.883574 0.902068 0.729213
0.889769 0.901549 0.728084
0.896178 0.900694 0.727291
0.902647 0.899443 0.726802
0.909148 0.897551 0.725887
0.915587 0.895018 0.724666
0.922026 0.891630 0.722255
0.928374 0.887419 0.719448
0.934722 0.882444 0.716213
0.941131 0.876493 0.712337
0.951904 0.876493 0.724697
0.956939 0.874723 0.734768
0.957580 0.872618 0.744961
0.958862 0.873411 0.760830
0.806302 0.918822 0.772732
0.807004 0.918975 0.773617
0.807645 0.919036 0.773953
0.808621 0.918944 0.773922
0.810086 0.918730 0.773587
0.812192 0.918517 0.773556
0.815152 0.918425 0.774105
0.818906 0.918425 0.775326
0.823484 0.918517 0.777005
0.828733 0.918730 0.779294
0.834653 0.918944 0.781857
0.841001 0.919127 0.784421
0.847684 0.919158 0.786709
0.854520 0.919005 0.788327
0.861601 0.918608 0.789090
0.868772 0.917937 0.789212
0.876310 0.917144 0.788998
0.884337 0.916381 0.788937
0.892729 0.917357 0.788296
0.899107 0.917845 0.787259
0.904295 0.917327 0.786801
0.909636 0.916442 0.786496
0.914946 0.915099 0.785824
0.920256 0.913298 0.784848
0.925536 0.910918 0.783352
0.930816 0.907927 0.781552
0.936095 0.904387 0.779416
0.941405 0.900175 0.777035
0.946715 0.895506 0.775021
0.955444 0.895354 0.784848
0.960937 0.895140 0.795071
0.962036 0.894621 0.805112
0.827329 0.930358 0.813870
0.827787 0.930449 0.814298
0.828153 0.930388 0.814176
0.828733 0.930205 0.813809
0.829679 0.929931 0.813107
0.831113 0.929625 0.812497
0.833127 0.929320 0.812100
0.835752 0.929046 0.811917
0.838987 0.928832 0.812131
0.842863 0.928618 0.812589
0.847227 0.928405 0.813260
0.852110 0.928191 0.813993
0.857359 0.927916 0.814755
0.862974 0.927550 0.815213
