data/fiter_cube/81078425/1022768/file.cube
# Created by Adobe Lightroom plugin Export LUT (1.17.0)
# www.johnrellis.com/lightroom/exportlut.htm
# Preset: 旅拍情绪景观_02 云集视觉
# Color profile: C:\Program Files (x86)\Common Files\Adobe\Color\Profiles\Recommended\AdobeRGB1998.icc
LUT_3D_SIZE 8
DOMAIN_MIN 0.000000 0.000000 0.000000
DOMAIN_MAX 0.903226 0.903226 0.903226
0.059083 0.071870 0.077577
0.083864 0.075776 0.080903
0.150149 0.078004 0.085695
0.276127 0.049012 0.088685
0.451850 0.000000 0.084779
0.661341 0.000000 0.062531
0.822507 0.141360 0.000000
0.929686 0.294041 0.060639
0.073396 0.092714 0.086946
0.089815 0.093568 0.085603
0.133364 0.096101 0.092836
0.249058 0.091676 0.095247
0.419135 0.024689 0.092317
0.627008 0.000000 0.075044
0.795865 0.157626 0.024201
0.916197 0.302647 0.063722
0.126009 0.171084 0.110323
0.147463 0.171695 0.110384
0.215702 0.177340 0.100893
0.263401 0.158175 0.114534
0.389014 0.160952 0.116274
0.611109 0.187747 0.103120
0.802090 0.290654 0.090211
0.919768 0.399329 0.134279
0.269902 0.368505 0.150668
0.292210 0.364508 0.148898
0.373632 0.363256 0.145510
0.558831 0.440497 0.102052
0.637537 0.400061 0.130251
0.586725 0.317082 0.162966
0.770474 0.401953 0.161898
0.896788 0.492287 0.208377
0.511009 0.646723 0.260044
0.529046 0.644373 0.258061
0.593194 0.644831 0.258061
0.694453 0.671290 0.254673
0.779294 0.676844 0.216251
0.825620 0.625299 0.220676
0.801419 0.552361 0.250065
0.859678 0.580316 0.304387
0.675044 0.815518 0.473487
0.694514 0.823697 0.493599
0.726192 0.820493 0.490883
0.778164 0.817166 0.490913
0.832151 0.820188 0.472847
0.880491 0.806638 0.451362
0.922148 0.779171 0.468086
0.919371 0.747799 0.499825
0.774807 0.898528 0.702266
0.780880 0.899016 0.705837
0.795315 0.896025 0.699580
0.823392 0.893034 0.697719
0.861143 0.888365 0.693446
0.892943 0.888090 0.684718
0.922118 0.875425 0.676967
0.952789 0.859464 0.689967
0.840238 0.937133 0.835416
0.842313 0.936797 0.834958
0.850797 0.936126 0.835203
0.867430 0.935882 0.839139
0.883085 0.930266 0.826078
0.911009 0.931701 0.830503
0.928801 0.929595 0.832822
0.945617 0.920836 0.829221
0.067048 0.081147 0.092164
0.073365 0.083528 0.093996
0.144106 0.079713 0.102815
0.284550 0.056397 0.107179
0.451209 0.000000 0.103975
0.639368 0.000000 0.092164
0.797055 0.077302 0.071565
0.913176 0.259007 0.080720
0.068421 0.093996 0.099153
0.085023 0.099855 0.107088
0.149874 0.104463 0.110597
0.268040 0.097414 0.112612
0.431708 0.028077 0.109651
0.619348 0.000000 0.098482
0.775814 0.120333 0.079011
0.898650 0.268070 0.081392
0.109194 0.167208 0.119905
0.138064 0.172671 0.133547
0.202182 0.178439 0.127932
0.242191 0.162356 0.134768
0.396246 0.166232 0.130953
0.593774 0.177890 0.121309
0.768002 0.250095 0.108888
0.898558 0.362799 0.130678
0.239109 0.348363 0.168887
0.268742 0.350530 0.177951
0.352544 0.356085 0.175906
0.495705 0.393561 0.150118
0.554498 0.340887 0.158938
0.543511 0.288212 0.167727
0.731319 0.359289 0.161837
0.875090 0.457893 0.192752
0.491432 0.637110 0.294530
0.506920 0.632044 0.289891
0.565881 0.626490 0.284428
0.657740 0.637263 0.272343
0.743496 0.642359 0.233738
0.795712 0.596246 0.233677
0.773251 0.524376 0.250706
0.846616 0.560388 0.292668
0.656794 0.803555 0.481483
0.667262 0.803189 0.481819
0.700984 0.800961 0.480140
0.757534 0.801266 0.485878
0.817990 0.809812 0.479652
0.871336 0.802976 0.472908
0.913542 0.775570 0.483375
0.910552 0.738033 0.492409
0.761166 0.890715 0.690669
0.764157 0.888945 0.685786
0.780789 0.887083 0.683528
0.812528 0.886412 0.689204
0.852964 0.883940 0.692012
0.886381 0.883970 0.682765
0.916045 0.870298 0.669368
0.947967 0.853239 0.677516
0.834562 0.934722 0.832486
0.837522 0.934783 0.833371
0.846586 0.934386 0.834501
0.863737 0.934417 0.839017
0.885252 0.933135 0.840940
0.910826 0.932982 0.839872
0.927031 0.929412 0.836088
0.943603 0.919890 0.829313
0.082582 0.100801 0.123659
0.091127 0.105501 0.122621
0.110719 0.111452 0.132570
0.210025 0.102174 0.160891
0.441169 0.000000 0.159243
0.701900 0.000000 0.157778
0.833433 0.000000 0.156680
0.931579 0.250156 0.172030
0.092287 0.117494 0.141329
0.104524 0.122042 0.141939
0.124269 0.127077 0.145296
0.236606 0.111330 0.168399
0.470527 0.000000 0.156649
0.685969 0.000000 0.161105
0.818601 0.112184 0.157870
0.923339 0.271855 0.173770
0.099580 0.171481 0.167361
0.119234 0.178012 0.174929
0.178988 0.192325 0.194888
0.314244 0.191043 0.191135
0.495827 0.187259 0.189792
0.662013 0.199741 0.184237
0.801083 0.262608 0.181247
0.911284 0.361059 0.202182
0.163882 0.365026 0.196414
0.207095 0.370764 0.216007
0.330632 0.384161 0.272587
0.477150 0.411048 0.267979
0.505791 0.344793 0.249790
0.615351 0.341619 0.232395
0.771786 0.397162 0.232120
0.892332 0.474983 0.263310
0.421424 0.642206 0.325597
0.455268 0.643000 0.350072
0.542626 0.641840 0.404456
0.640040 0.645472 0.404456
0.733700 0.661982 0.385687
0.770199 0.599725 0.353429
0.743099 0.515373 0.313481
0.859220 0.578485 0.350622
0.627436 0.807248 0.524132
0.643610 0.807095 0.544335
0.682887 0.803616 0.573083
0.734401 0.800900 0.569604
0.796719 0.806851 0.564416
0.851164 0.804929 0.564630
0.892943 0.779599 0.564263
0.896361 0.743038 0.548211
0.754543 0.894408 0.731136
0.760555 0.893126 0.738125
0.775875 0.890043 0.740719
0.802365 0.887541 0.737850
0.839750 0.884550 0.735561
0.876310 0.886900 0.735195
0.907195 0.879637 0.738277
0.938354 0.867613 0.749203
0.833036 0.935576 0.849271
0.835752 0.934936 0.850919
0.843168 0.934142 0.850156
0.861082 0.935149 0.856321
0.880949 0.933837 0.856626
0.906310 0.933410 0.857420
0.924010 0.932158 0.856199
0.940551 0.924865 0.853513
0.109010 0.130220 0.172457
0.119448 0.135866 0.172976
0.141207 0.151492 0.168032
0.169833 0.149477 0.186740
0.267430 0.133364 0.218967
0.531731 0.000000 0.268009
0.778744 0.000000 0.259129
0.928618 0.000000 0.253178
0.124636 0.152255 0.199802
0.135622 0.155581 0.197269
0.158846 0.168002 0.187106
0.185885 0.165042 0.201083
0.286015 0.145480 0.230472
0.554345 0.000000 0.272648
0.787503 0.000000 0.247776
0.929717 0.112917 0.260349
0.133455 0.202182 0.242710
0.150820 0.206882 0.248356
0.209201 0.224277 0.253727
0.245609 0.228763 0.254643
0.401038 0.197848 0.289464
0.660456 0.085023 0.293767
0.842374 0.230198 0.301030
0.932525 0.341314 0.307134
0.164218 0.351965 0.320043
0.190372 0.358526 0.328191
0.272160 0.377600 0.353796
0.390204 0.398810 0.389868
0.552117 0.387152 0.367620
0.687434 0.389410 0.348943
0.807950 0.417762 0.339696
0.909178 0.476570 0.356786
0.351568 0.659693 0.439063
0.374640 0.656947 0.442267
0.450141 0.655665 0.463478
0.585077 0.652094 0.544121
0.690761 0.668025 0.543725
0.701686 0.581079 0.467323
0.763058 0.551446 0.416114
0.877226 0.601709 0.441840
0.577356 0.822568 0.579889
0.605921 0.828031 0.609735
0.652857 0.820951 0.648219
0.713893 0.814969 0.693660
0.773892 0.814115 0.689235
0.828458 0.819394 0.692226
0.862913 0.786343 0.659571
0.869078 0.736294 0.595911
0.730159 0.897856 0.751125
0.739162 0.897856 0.760800
0.764736 0.896818 0.786130
0.797391 0.895323 0.808103
0.829404 0.893065 0.805325
0.866209 0.894408 0.803616
0.895567 0.889586 0.804685
0.924651 0.877043 0.802121
0.825803 0.938689 0.861112
0.830076 0.938628 0.864500
0.842313 0.937926 0.873167
0.858640 0.937194 0.879881
0.876036 0.935943 0.879026
0.899443 0.934691 0.878996
0.919829 0.935576 0.879423
0.936645 0.930694 0.879637
0.151522 0.176516 0.250492
0.162448 0.181064 0.249516
0.188449 0.194034 0.240635
0.208194 0.216800 0.224277
0.253971 0.200168 0.262455
0.367315 0.167575 0.303410
0.603235 0.000000 0.377966
0.851499 0.000000 0.448951
0.166506 0.196902 0.276127
0.178500 0.201419 0.275212
0.205997 0.212070 0.262791
0.224887 0.231357 0.240604
0.269078 0.215305 0.276066
0.381506 0.180087 0.314061
0.621942 0.000000 0.388251
0.858366 0.000000 0.446723
0.197665 0.258824 0.341100
0.219120 0.267704 0.346502
0.252415 0.269993 0.333074
0.289281 0.290196 0.307317
0.322942 0.273350 0.325628
0.424628 0.225650 0.346319
0.676661 0.143343 0.414588
0.878111 0.023377 0.428626
0.217472 0.376715 0.424567
0.237736 0.379461 0.428473
0.302983 0.390539 0.443244
0.404242 0.417548 0.452186
0.438880 0.410040 0.438819
0.564538 0.347448 0.449104
0.774655 0.319097 0.456764
0.915160 0.376623 0.439796
0.301915 0.594110 0.547509
0.327886 0.597864 0.553979
0.402777 0.605188 0.569970
0.501244 0.614923 0.594568
0.586328 0.616022 0.612116
0.697414 0.590295 0.570459
0.799527 0.580163 0.536858
0.893004 0.596887 0.527001
0.538811 0.807614 0.669245
0.551934 0.807187 0.673335
0.586816 0.802976 0.681239
0.636103 0.799771 0.695430
0.708614 0.789822 0.732387
0.785306 0.807584 0.748989
0.804471 0.753872 0.685756
0.853269 0.722255 0.628626
0.690639 0.899565 0.768093
0.698054 0.898436 0.772824
0.724392 0.896025 0.791135
0.764065 0.894011 0.818570
0.805905 0.891691 0.840330
0.845823 0.891295 0.838346
0.879850 0.892454 0.842496
0.905180 0.873442 0.822934
0.803464 0.938293 0.862516
0.807095 0.937926 0.864744
0.819883 0.937072 0.872404
0.845609 0.938384 0.889158
0.867918 0.937377 0.897734
0.889220 0.936065 0.896452
0.913115 0.937163 0.896849
0.931121 0.934081 0.897917
0.224704 0.253208 0.375616
0.235111 0.256657 0.372625
0.261082 0.265080 0.356420
0.295415 0.287572 0.337835
0.305455 0.310521 0.311284
0.357336 0.264012 0.358312
0.495430 0.219699 0.422797
0.707454 0.183932 0.533074
0.232578 0.266117 0.388952
0.242191 0.268406 0.384466
0.269902 0.276951 0.369726
0.304295 0.296941 0.349004
0.313451 0.320165 0.317662
0.364965 0.274479 0.365576
0.500084 0.228702 0.426734
0.713313 0.192935 0.535515
0.283146 0.341802 0.470863
0.288670 0.338811 0.465461
0.319860 0.341619 0.448157
0.359838 0.355444 0.418372
0.370001 0.374762 0.372900
0.412573 0.328191 0.412024
0.534539 0.271824 0.458503
0.747982 0.246830 0.561242
0.295842 0.435523 0.552544
0.315435 0.438178 0.552697
0.383978 0.457893 0.562066
0.452644 0.474220 0.553704
0.484810 0.488258 0.503929
0.508904 0.448951 0.515038
0.599176 0.364080 0.522698
0.808103 0.362310 0.606012
0.366918 0.601404 0.646662
0.384466 0.602777 0.649134
0.437018 0.606012 0.655634
0.507256 0.609094 0.663539
0.582849 0.618158 0.656367
0.600763 0.596674 0.629603
0.690883 0.507652 0.612085
0.866026 0.516197 0.631128
0.487709 0.769589 0.739590
0.505882 0.773281 0.745663
0.549187 0.776120 0.754513
0.607324 0.779141 0.766629
0.664088 0.779721 0.777066
0.719814 0.779751 0.787930
0.797208 0.756680 0.754086
0.878019 0.744839 0.727504
0.700191 0.894957 0.834714
0.709468 0.896300 0.839170
0.731838 0.898161 0.848234
0.758114 0.899077 0.856931
0.782498 0.898161 0.861875
0.820493 0.891997 0.873655
0.863096 0.895659 0.876829
0.874113 0.860960 0.835294
0.795865 0.939727 0.881285
0.798093 0.939544 0.881956
0.806516 0.939300 0.884886
0.825040 0.939727 0.893248
0.851072 0.939239 0.905180
0.878935 0.938384 0.915251
0.905211 0.938598 0.914977
0.926085 0.938750 0.917632
0.334386 0.367102 0.543603
0.345953 0.372015 0.542718
0.373419 0.380896 0.528832
0.408270 0.396918 0.503349
0.427039 0.414954 0.459724
0.424323 0.414435 0.433204
0.477119 0.344457 0.478798
0.648188 0.333288 0.600732
0.337926 0.375830 0.550866
0.348608 0.379980 0.549401
0.376196 0.387549 0.535088
0.409003 0.400061 0.506920
0.428412 0.416571 0.462898
0.424323 0.416663 0.432380
0.474678 0.346471 0.476204
0.639521 0.327276 0.589288
0.373297 0.434394 0.609918
0.380652 0.434058 0.605371
0.408209 0.437385 0.588525
0.443885 0.445686 0.558953
0.465675 0.456611 0.511650
0.459998 0.461158 0.467018
0.508446 0.391363 0.513634
0.662745 0.369482 0.616785
0.422370 0.530602 0.681788
0.433692 0.531792 0.679744
0.465614 0.534600 0.673152
0.497383 0.529625 0.647272
0.528679 0.534386 0.601862
0.527062 0.544762 0.538659
0.563165 0.475654 0.579095
0.692226 0.432136 0.651118
0.442267 0.629908 0.737545
0.449622 0.627771 0.735927
0.475898 0.622309 0.732540
0.538689 0.631067 0.732753
0.587304 0.630152 0.709346
0.604364 0.629694 0.649256
0.620356 0.581231 0.653834
0.722225 0.508629 0.683131
0.537926 0.772213 0.808011
0.546197 0.772183 0.808591
0.572259 0.771603 0.810056
0.610285 0.769711 0.811948
0.649409 0.761440 0.809415
0.700069 0.761135 0.798703
0.709865 0.738186 0.774441
0.789548 0.654170 0.757259
0.652583 0.874784 0.859892
0.659907 0.875456 0.861479
0.680110 0.876158 0.864897
0.710506 0.877531 0.870481
0.744686 0.878050 0.876127
0.780972 0.878141 0.881956
0.813291 0.873869 0.883940
0.867002 0.851896 0.858488
0.786862 0.932372 0.899748
0.790494 0.932708 0.900969
0.805325 0.934874 0.906523
0.825254 0.937652 0.913573
0.846799 0.940429 0.920653
0.864805 0.941802 0.924834
0.891447 0.940215 0.932128
0.919188 0.942138 0.934325
0.522301 0.569848 0.754360
0.528985 0.572992 0.753109
0.543877 0.575860 0.741390
0.568933 0.586542 0.723873
0.590875 0.599451 0.693904
0.598077 0.614343 0.648188
0.598383 0.595972 0.641535
0.642512 0.513756 0.679591
0.521721 0.573114 0.756374
0.528496 0.576165 0.755123
0.544305 0.579675 0.744381
0.568353 0.588128 0.725643
0.590753 0.600305 0.695796
0.598291 0.614191 0.649775
0.596338 0.595392 0.638544
0.639857 0.512993 0.676265
0.531945 0.599359 0.776059
0.537621 0.600855 0.773953
0.551934 0.601068 0.762203
0.581659 0.613397 0.749294
0.603998 0.621302 0.719448
0.611627 0.629847 0.671962
0.607202 0.615747 0.650935
0.648737 0.535485 0.688533
0.565332 0.661158 0.810361
0.568811 0.660334 0.809201
0.575036 0.652125 0.800717
0.600000 0.654566 0.786374
0.626825 0.660365 0.760922
0.640375 0.666285 0.719081
0.633417 0.659846 0.682307
0.669947 0.582361 0.717556
0.565789 0.711299 0.837064
0.574060 0.713283 0.837491
0.595178 0.714870 0.835019
0.629450 0.719997 0.830655
0.649226 0.709682 0.809506
0.670954 0.710628 0.773800
0.666957 0.714870 0.720394
0.698329 0.648157 0.756344
0.617823 0.799771 0.868772
0.619776 0.798154 0.867918
0.627985 0.793271 0.865721
0.642084 0.784298 0.862119
0.675624 0.779965 0.857572
0.713375 0.780179 0.843809
0.729152 0.784298 0.808225
0.744991 0.746395 0.815763
0.696345 0.880827 0.900053
0.698695 0.880339 0.899901
0.707332 0.878843 0.899748
0.723415 0.876951 0.900175
0.744076 0.873442 0.900145
0.765805 0.866026 0.898161
0.797147 0.861265 0.889952
0.799680 0.840208 0.872251
0.773495 0.930449 0.921569
0.775570 0.930327 0.921782
0.783871 0.930388 0.922911
0.799100 0.930968 0.925414
0.819089 0.931823 0.928862
0.842405 0.933013 0.932982
0.867674 0.934295 0.937530
0.889220 0.931609 0.938811
