data/fiter_cube/81078425/1022768/file.cube
# Created by Adobe Lightroom plugin Export LUT (1.17.0)
# www.johnrellis.com/lightroom/exportlut.htm
# Preset: 旅拍情绪景观_02 云集视觉
# Color profile: C:\Program Files (x86)\Common Files\Adobe\Color\Profiles\Recommended\AdobeRGB1998.icc
LUT_3D_SIZE 5
DOMAIN_MIN 0.000000 0.000000 0.000000
DOMAIN_MAX 0.903226 0.903226 0.903226
0.059083 0.071870 0.077577
0.129152 0.078614 0.084596
0.360876 0.000000 0.088228
0.711269 0.000000 0.048066
0.929686 0.294041 0.060639
0.107759 0.144350 0.103334
0.171633 0.147860 0.097230
0.306401 0.138460 0.111025
0.678126 0.178225 0.087770
0.926726 0.383185 0.124117
0.382666 0.506859 0.187625
0.463203 0.507256 0.184665
0.700252 0.585412 0.141970
0.710567 0.448463 0.186587
0.878294 0.535210 0.250553
0.710994 0.848020 0.549584
0.739742 0.847532 0.553552
0.820737 0.842252 0.555535
0.895079 0.828428 0.516167
0.931212 0.780941 0.548455
0.840238 0.937133 0.835416
0.847868 0.936217 0.834745
0.870756 0.930877 0.824277
0.915465 0.931640 0.831357
0.945617 0.920836 0.829221
0.077852 0.094240 0.113252
0.098451 0.103029 0.120546
0.347723 0.000000 0.142245
0.713100 0.000000 0.133333
0.920592 0.243534 0.141176
0.089570 0.145052 0.144717
0.146273 0.160983 0.165774
0.378912 0.153414 0.161624
0.687343 0.163577 0.153079
0.911223 0.338354 0.171298
0.305669 0.502861 0.237949
0.416327 0.503990 0.292699
0.626123 0.535515 0.270695
0.631861 0.400763 0.242771
0.877592 0.531273 0.291997
0.690181 0.847135 0.605341
0.723171 0.846647 0.632746
0.799680 0.841550 0.628534
0.877714 0.832670 0.605463
0.916533 0.783810 0.596826
0.839261 0.937316 0.853391
0.846098 0.936492 0.852445
0.872648 0.935088 0.854093
0.913542 0.934569 0.854978
0.942473 0.925750 0.853483
0.128359 0.151339 0.208072
0.156741 0.165805 0.202823
0.206729 0.171756 0.219883
0.491981 0.035401 0.304997
0.899687 0.000000 0.335668
0.163210 0.213413 0.277470
0.204471 0.222385 0.272251
0.265660 0.230076 0.272831
0.573724 0.122042 0.341100
0.920378 0.000000 0.326177
0.221378 0.474098 0.429725
0.304692 0.486641 0.449714
0.496773 0.511406 0.502251
0.722255 0.489784 0.449592
0.902373 0.537102 0.442298
0.590539 0.849027 0.644800
0.635279 0.842222 0.675502
0.741268 0.835966 0.753231
0.835477 0.842710 0.759030
0.868070 0.766293 0.656977
0.812894 0.937591 0.858885
0.827634 0.937591 0.869749
0.862730 0.936980 0.888426
0.900206 0.934386 0.886229
0.933257 0.931334 0.886564
0.240818 0.270085 0.402228
0.271519 0.280888 0.391424
0.326482 0.318578 0.353033
0.380774 0.278599 0.380835
0.665705 0.216342 0.528923
0.277684 0.328496 0.469886
0.310430 0.334478 0.455177
0.369207 0.360662 0.403143
0.414435 0.320165 0.414038
0.671534 0.239628 0.528893
0.328283 0.506249 0.605859
0.373480 0.506584 0.608118
0.504051 0.529839 0.597894
0.540093 0.493446 0.552026
0.786801 0.403937 0.618494
0.540612 0.807462 0.783108
0.571862 0.805844 0.786007
0.658350 0.809415 0.802945
0.744686 0.807645 0.817166
0.871489 0.769009 0.759396
0.797665 0.939147 0.888518
0.807004 0.939330 0.891936
0.835142 0.940948 0.902403
0.883635 0.939727 0.920989
0.924285 0.939391 0.921569
0.522301 0.569848 0.754360
0.539055 0.574517 0.744808
0.581231 0.593164 0.711025
0.596460 0.619135 0.634699
0.642512 0.513756 0.679591
0.530968 0.593347 0.771542
0.547631 0.596704 0.762509
0.590539 0.610834 0.729641
0.606348 0.629084 0.651453
0.647974 0.531395 0.687373
0.566857 0.684596 0.823575
0.587366 0.687617 0.820676
0.621180 0.678065 0.795010
0.651240 0.681941 0.726345
0.681727 0.610437 0.733730
0.641505 0.825132 0.878935
0.649470 0.821561 0.877379
0.674891 0.808652 0.872557
0.732021 0.799680 0.854093
0.756374 0.769039 0.828824
0.773495 0.930449 0.921569
0.781094 0.930327 0.922515
0.808652 0.931395 0.927062
0.848661 0.933349 0.934142
0.889220 0.931609 0.938811
