data/fiter_cube/12898295/1023043/file.cube
# Created by Adobe Lightroom plugin Export LUT (1.17.0)
# www.johnrellis.com/lightroom/exportlut.htm
# Preset: 经典婚礼摄影_05 云集
# Color profile: C:\Program Files (x86)\Common Files\Adobe\Color\Profiles\Recommended\AdobeRGB1998.icc
LUT_3D_SIZE 8
DOMAIN_MIN 0.000000 0.000000 0.000000
DOMAIN_MAX 0.903226 0.903226 0.903226
0.000000 0.000000 0.000000
0.106630 0.009522 0.035340
0.309880 0.000000 0.057862
0.561212 0.000000 0.045930
0.741573 0.000000 0.064515
0.881987 0.221286 0.140139
0.968872 0.358587 0.244297
1.000000 0.476143 0.382818
0.038483 0.088838 0.078309
0.087495 0.089815 0.076967
0.297887 0.090761 0.043000
0.537011 0.000000 0.007813
0.723110 0.105226 0.016022
0.862364 0.248051 0.109651
0.953735 0.360906 0.214755
1.000000 0.473762 0.358312
0.056123 0.254948 0.160861
0.100435 0.260044 0.149264
0.227024 0.248814 0.152193
0.524193 0.307408 0.088960
0.738125 0.338384 0.067262
0.865721 0.390753 0.141268
0.966064 0.466529 0.242374
1.000000 0.542168 0.371405
0.132265 0.451789 0.279332
0.180117 0.451850 0.277195
0.242771 0.455177 0.234257
0.465919 0.480568 0.294865
0.722560 0.560082 0.286809
0.877012 0.558404 0.210239
0.960479 0.577234 0.288060
1.000000 0.614832 0.382788
0.276188 0.638117 0.436866
0.306828 0.636988 0.435187
0.353185 0.635096 0.400610
0.445533 0.626429 0.365484
0.620752 0.626184 0.431312
0.785550 0.671595 0.450690
0.925689 0.687892 0.399817
1.000000 0.700069 0.421790
0.426642 0.751064 0.562341
0.460487 0.759915 0.574762
0.517144 0.757595 0.576440
0.519036 0.751827 0.515557
0.616815 0.738888 0.512902
0.739773 0.741207 0.574395
0.862669 0.785275 0.624079
0.982086 0.815396 0.613642
0.582116 0.848814 0.685512
0.595727 0.850462 0.688838
0.625177 0.847166 0.688167
0.638025 0.845487 0.662837
0.659693 0.837613 0.628077
0.750515 0.834470 0.649165
0.837858 0.838621 0.697017
0.926787 0.872618 0.748135
0.712856 0.934997 0.793759
0.718532 0.934661 0.794186
0.740383 0.935546 0.798001
0.771481 0.940551 0.802396
0.753658 0.930205 0.755764
0.797757 0.935027 0.756069
0.879332 0.940185 0.792721
0.939178 0.941924 0.825284
0.032898 0.034394 0.082826
0.085634 0.016297 0.089967
0.266361 0.000000 0.112093
0.511223 0.000000 0.127779
0.708797 0.000000 0.138064
0.848325 0.207218 0.176181
0.944518 0.333928 0.235447
1.000000 0.447456 0.345220
0.044739 0.078279 0.098512
0.095308 0.097963 0.115358
0.268986 0.105501 0.123934
0.506126 0.082124 0.129854
0.701228 0.130434 0.138582
0.838895 0.245243 0.173556
0.932708 0.344091 0.225254
1.000000 0.445502 0.321477
0.067201 0.237644 0.180667
0.130861 0.249760 0.189883
0.231296 0.249790 0.186099
0.511772 0.294560 0.142000
0.708522 0.323980 0.152926
0.837583 0.372564 0.190188
0.935851 0.436622 0.251499
1.000000 0.513024 0.343999
0.136751 0.428809 0.288151
0.185794 0.432990 0.291539
0.253147 0.443214 0.261204
0.429969 0.445167 0.294957
0.675868 0.514153 0.273472
0.835050 0.519554 0.222751
0.929168 0.544305 0.281834
1.000000 0.589868 0.368811
0.277592 0.626551 0.444495
0.304509 0.623743 0.441077
0.366674 0.619959 0.420264
0.422492 0.601770 0.361944
0.592157 0.598474 0.418219
0.765469 0.650202 0.436622
0.911650 0.670069 0.390265
1.000000 0.686122 0.419562
0.412696 0.737240 0.556786
0.432105 0.737362 0.557824
0.490547 0.736294 0.559808
0.503410 0.734340 0.507683
0.602136 0.725307 0.506493
0.732113 0.733577 0.573907
0.856352 0.778164 0.619898
0.974823 0.805020 0.603418
0.558129 0.833066 0.670436
0.565270 0.830625 0.668330
0.599878 0.829404 0.670314
0.627039 0.831571 0.655604
0.649866 0.827665 0.622309
0.738338 0.823545 0.639704
0.824613 0.825254 0.683894
0.915007 0.858946 0.731991
0.697993 0.925902 0.784298
0.705959 0.926879 0.786435
0.729580 0.928435 0.791165
0.766903 0.934081 0.799771
0.767636 0.938506 0.771817
0.803189 0.938201 0.764523
0.875914 0.937102 0.790768
0.933440 0.935973 0.819547
0.060304 0.084474 0.184848
0.105043 0.069612 0.201389
0.250919 0.027863 0.220951
0.509514 0.000000 0.262150
0.694392 0.079927 0.281926
0.841764 0.275059 0.336858
0.941070 0.387182 0.383490
1.000000 0.482826 0.443946
0.097292 0.132021 0.194705
0.129335 0.139590 0.214237
0.251896 0.133028 0.233860
0.492592 0.136477 0.265934
0.689387 0.177249 0.287633
0.832609 0.298741 0.330938
0.932860 0.395544 0.373907
1.000000 0.487770 0.436713
0.102144 0.221042 0.234592
0.147738 0.235447 0.244633
0.259037 0.272160 0.271275
0.489174 0.294377 0.284337
0.702754 0.347112 0.315526
0.832181 0.403998 0.346014
0.929503 0.465126 0.386328
1.000000 0.534386 0.446296
0.141390 0.430365 0.352361
0.199130 0.440894 0.361547
0.327733 0.461555 0.377722
0.457038 0.466346 0.380102
0.699977 0.525383 0.364965
0.831327 0.536797 0.374182
0.926970 0.567346 0.415229
1.000000 0.610895 0.472053
0.279393 0.620935 0.485817
0.316533 0.622400 0.488655
0.411505 0.624781 0.493629
0.466102 0.618463 0.448493
0.612268 0.616052 0.487617
0.777737 0.662470 0.495186
0.916472 0.672969 0.452979
1.000000 0.696345 0.503044
0.419745 0.735073 0.584833
0.442542 0.735409 0.587304
0.501793 0.733608 0.590265
0.544213 0.730678 0.566552
0.599695 0.719295 0.535821
0.727718 0.728573 0.596948
0.855985 0.777157 0.636164
0.978393 0.806546 0.627100
0.567773 0.835111 0.691554
0.577020 0.833646 0.690974
0.607385 0.830381 0.690120
0.654414 0.829221 0.690364
0.658839 0.825010 0.646204
0.738430 0.822599 0.656794
0.830930 0.831266 0.706935
0.926757 0.871275 0.755062
0.695613 0.924620 0.792020
0.699489 0.923461 0.790921
0.721279 0.923583 0.793545
0.767453 0.932036 0.808286
0.777249 0.935546 0.788357
0.807004 0.937926 0.777035
0.877745 0.939086 0.800809
0.937804 0.940307 0.831632
0.105867 0.149111 0.328679
0.151492 0.138064 0.349248
0.305119 0.115114 0.396094
0.474464 0.093355 0.399634
0.691341 0.194583 0.446662
0.820615 0.308782 0.476295
0.912230 0.413550 0.512108
0.997833 0.504173 0.551385
0.154757 0.202731 0.349371
0.185702 0.203586 0.361913
0.310857 0.192477 0.403052
0.476539 0.180087 0.410590
0.690974 0.255344 0.457710
0.813596 0.337407 0.478065
0.907683 0.425849 0.509209
0.995758 0.510521 0.547692
0.188846 0.279240 0.342077
0.221469 0.291203 0.348821
0.311650 0.321874 0.398993
0.470039 0.325658 0.432166
0.683284 0.384588 0.482643
0.809201 0.438880 0.505699
0.917845 0.513817 0.543847
1.000000 0.568078 0.570184
0.198215 0.400214 0.410376
0.235660 0.409857 0.418158
0.340948 0.438331 0.441505
0.475166 0.478401 0.475288
0.668605 0.508659 0.496071
0.801602 0.542260 0.517266
0.907408 0.582696 0.544427
0.995758 0.628809 0.579461
0.294743 0.618769 0.553368
0.328649 0.620722 0.555505
0.423651 0.624170 0.559991
0.538415 0.631952 0.568658
0.629023 0.629572 0.567285
0.794339 0.671229 0.567956
0.907683 0.684718 0.573083
0.992523 0.709010 0.602014
0.440742 0.740597 0.637293
0.473060 0.747311 0.646601
0.528588 0.743526 0.646784
0.602380 0.742733 0.649897
0.632136 0.734005 0.611933
0.739864 0.739254 0.650019
0.867277 0.785550 0.673030
0.985504 0.803922 0.656855
0.570916 0.833249 0.718044
0.583886 0.834226 0.720241
0.620874 0.835721 0.724697
0.672755 0.837888 0.729854
0.699336 0.836851 0.707790
0.747463 0.830533 0.693629
0.836790 0.836576 0.736202
0.935088 0.877287 0.772854
0.702052 0.927062 0.812955
0.708919 0.927947 0.814298
0.727687 0.928710 0.815671
0.762387 0.931426 0.820523
0.799374 0.934539 0.821439
0.813504 0.938354 0.798215
0.877989 0.940826 0.814267
0.941588 0.943908 0.846494
0.203525 0.240787 0.498573
0.239902 0.232761 0.511864
0.354314 0.222049 0.541039
0.540429 0.183261 0.587243
0.664302 0.227146 0.576074
0.813901 0.387304 0.612268
0.902770 0.467811 0.627985
0.982635 0.551324 0.660578
0.238621 0.279118 0.506828
0.269383 0.281895 0.518791
0.367285 0.276677 0.546014
0.542840 0.248905 0.591394
0.665095 0.283574 0.583154
0.811154 0.417548 0.617182
0.900755 0.487098 0.632471
0.981384 0.561517 0.662623
0.287572 0.367437 0.491646
0.313664 0.377417 0.506371
0.382544 0.385870 0.538628
0.530266 0.390997 0.591119
0.658473 0.408362 0.596155
0.794827 0.486427 0.622919
0.890166 0.532952 0.638148
0.974792 0.586206 0.662501
0.306615 0.444373 0.511498
0.332128 0.451698 0.515953
0.409583 0.476509 0.530816
0.521874 0.520684 0.585595
0.650172 0.538201 0.616510
0.781216 0.575006 0.639368
0.881987 0.598383 0.650019
0.977264 0.632441 0.665370
0.339940 0.567529 0.578119
0.365057 0.571771 0.581567
0.437385 0.582910 0.590234
0.534936 0.602197 0.605615
0.625605 0.622889 0.621515
0.767208 0.646296 0.638087
0.881224 0.672663 0.654963
0.976898 0.701076 0.672816
0.419501 0.708583 0.659846
0.440955 0.710445 0.662257
0.502312 0.714473 0.667842
0.583825 0.721523 0.676265
0.654749 0.722744 0.674342
0.732937 0.730678 0.682918
0.876616 0.778897 0.699611
0.981262 0.792905 0.702693
0.566766 0.825284 0.746822
0.576287 0.824399 0.746365
0.609583 0.823972 0.747372
0.660914 0.826932 0.751431
0.717311 0.830808 0.753597
0.742458 0.825589 0.722255
0.832975 0.831876 0.757351
0.939605 0.873075 0.780514
0.684413 0.914641 0.822538
0.689693 0.914488 0.822477
0.708339 0.914916 0.823148
0.750149 0.924743 0.833860
0.791226 0.929046 0.836881
0.817777 0.934325 0.822232
0.867918 0.936339 0.822049
0.937560 0.939269 0.854612
0.351080 0.364721 0.651423
0.373693 0.358221 0.657313
0.445747 0.339849 0.670771
0.567712 0.329351 0.696162
0.705898 0.325109 0.723232
0.790372 0.389990 0.703700
0.895506 0.528374 0.728145
0.973785 0.593561 0.746334
0.360601 0.374884 0.646265
0.379858 0.374121 0.650080
0.446876 0.370581 0.664088
0.562768 0.363165 0.690547
0.701778 0.362554 0.721096
0.784665 0.414527 0.701991
0.891966 0.542168 0.728664
0.971435 0.600092 0.746151
0.409308 0.464546 0.644739
0.421149 0.463508 0.648493
0.470924 0.463844 0.662501
0.574151 0.474403 0.695796
0.705501 0.479896 0.730282
0.781216 0.504540 0.712825
0.888518 0.594293 0.740169
0.969421 0.632532 0.753872
0.435767 0.529564 0.626673
0.450538 0.533196 0.627192
0.505974 0.555383 0.652644
0.594049 0.587579 0.697902
0.707362 0.607477 0.741726
0.784512 0.615198 0.736934
0.888243 0.663935 0.760311
0.970214 0.682399 0.767910
0.452491 0.599451 0.657710
0.467933 0.602502 0.659236
0.516289 0.612726 0.663966
0.584192 0.630060 0.672023
0.667445 0.662074 0.710414
0.765042 0.679255 0.737301
0.872770 0.705531 0.757595
0.963470 0.718624 0.764584
0.476814 0.682643 0.693111
0.495003 0.687037 0.697139
0.539757 0.693355 0.702083
0.601831 0.703487 0.710018
0.667170 0.715724 0.719265
0.741176 0.736233 0.735836
0.868742 0.764889 0.758572
0.970489 0.786648 0.772580
0.567071 0.809354 0.774105
0.580713 0.812039 0.777157
0.615381 0.816037 0.781674
0.668177 0.824765 0.790677
0.727474 0.835080 0.799588
0.781125 0.837095 0.796414
0.840269 0.837858 0.797147
0.960540 0.876249 0.808042
0.682246 0.910887 0.849332
0.687129 0.910582 0.849027
0.705348 0.910979 0.849302
0.739345 0.915709 0.853635
0.780514 0.921660 0.857420
0.830076 0.930144 0.861570
0.861479 0.935882 0.843503
0.938354 0.939391 0.873808
0.490455 0.497383 0.753933
0.501152 0.492836 0.756497
0.541711 0.476661 0.766323
0.616480 0.457679 0.782620
0.723110 0.452064 0.806394
0.813901 0.446601 0.814328
0.871458 0.502342 0.788327
0.958465 0.611322 0.808591
0.500298 0.499336 0.758145
0.510491 0.494759 0.760555
0.549371 0.489631 0.768307
0.620172 0.484291 0.782834
0.723507 0.480964 0.806851
0.814511 0.475929 0.816434
0.871885 0.524132 0.791867
0.959045 0.624598 0.812253
0.527062 0.555627 0.754757
0.535882 0.555261 0.757046
0.569482 0.555810 0.766232
0.632227 0.557336 0.783261
0.721981 0.556176 0.805753
0.812680 0.551385 0.819608
0.869444 0.579858 0.798734
0.957397 0.658228 0.819089
0.554040 0.616327 0.742275
0.562860 0.618494 0.745785
0.596612 0.628779 0.760830
0.642908 0.632563 0.778012
0.717281 0.636988 0.801816
0.810391 0.638727 0.825040
0.866575 0.650111 0.809415
0.956451 0.707485 0.830655
0.568109 0.662715 0.743343
0.576654 0.664759 0.744045
0.603845 0.671046 0.745693
0.646326 0.683497 0.757992
0.710109 0.702022 0.793057
0.803342 0.717708 0.829587
0.866209 0.723232 0.825010
0.956664 0.759060 0.844358
0.586450 0.722438 0.770230
0.594079 0.723629 0.770840
0.619226 0.727718 0.772885
0.657313 0.733944 0.775906
0.704616 0.742519 0.779446
0.775814 0.769558 0.812650
0.862974 0.790005 0.839322
0.956909 0.809415 0.855711
0.609522 0.790066 0.800473
0.616236 0.790799 0.801053
0.639277 0.794095 0.803677
0.675776 0.799985 0.808377
0.724361 0.809628 0.816098
0.782071 0.823392 0.827115
0.844450 0.839933 0.839963
0.960906 0.864469 0.858915
0.670497 0.891752 0.864469
0.676661 0.892790 0.865507
0.696101 0.895659 0.868223
0.729946 0.902403 0.874510
0.776516 0.913664 0.884703
0.831296 0.928222 0.896757
0.884672 0.938964 0.900450
0.943328 0.943359 0.904814
0.661433 0.669306 0.864012
0.665553 0.666560 0.865049
0.684443 0.659541 0.870878
0.718868 0.642634 0.879545
0.773556 0.611261 0.890929
0.851286 0.582635 0.904662
0.914549 0.573114 0.905455
0.955688 0.615290 0.876555
0.664668 0.670985 0.865751
0.668666 0.668269 0.866758
0.687129 0.661402 0.872435
0.721035 0.644678 0.880949
0.774807 0.619654 0.891691
0.850736 0.598840 0.904997
0.914397 0.588678 0.906554
0.955901 0.626856 0.878538
0.674342 0.683833 0.869413
0.679194 0.683345 0.870817
0.696681 0.680995 0.875486
0.727108 0.673152 0.881804
0.776425 0.661189 0.891539
0.847898 0.645350 0.905272
0.912688 0.633326 0.908965
0.955230 0.660883 0.883726
0.693660 0.729976 0.867887
0.698573 0.730678 0.869780
0.711910 0.729122 0.874632
0.736202 0.723568 0.880919
0.778012 0.715511 0.890898
0.842344 0.705409 0.905180
0.909850 0.693965 0.912963
0.954406 0.709224 0.891966
0.710689 0.769924 0.856596
0.713313 0.769955 0.858030
0.723934 0.770687 0.864195
0.743496 0.770504 0.876036
0.779660 0.769802 0.889525
0.835355 0.765927 0.905272
0.907897 0.760739 0.920012
0.954650 0.767727 0.904356
0.718715 0.806485 0.871824
0.722499 0.807156 0.872129
0.735073 0.809079 0.872984
0.755673 0.811704 0.873808
0.783963 0.815671 0.878843
0.828977 0.821714 0.902678
0.902892 0.827543 0.926757
0.955932 0.830777 0.920195
0.730556 0.851926 0.891752
0.734035 0.852506 0.892149
0.745785 0.854215 0.893400
0.765743 0.856809 0.895201
0.794644 0.860960 0.897887
0.832151 0.867002 0.901122
0.888334 0.883818 0.924468
0.961517 0.899260 0.942473
0.747158 0.904509 0.915160
0.750362 0.905150 0.915648
0.761196 0.907012 0.917205
0.780148 0.910246 0.919677
0.808530 0.915740 0.924071
0.847227 0.924712 0.931212
0.897948 0.938903 0.942718
0.961913 0.960510 0.960571
