data/fiter_cube/12898295/1023043/file.cube
# Created by Adobe Lightroom plugin Export LUT (1.17.0)
# www.johnrellis.com/lightroom/exportlut.htm
# Preset: 经典婚礼摄影_05 云集
# Color profile: C:\Program Files (x86)\Common Files\Adobe\Color\Profiles\Recommended\AdobeRGB1998.icc
LUT_3D_SIZE 32
DOMAIN_MIN 0.0 0.0 0.0
DOMAIN_MAX 1.0 1.0 1.0
0.000000 0.000000 0.000000
0.022919 0.000763 0.003662
0.048981 0.000885 0.008362
0.075319 0.005982 0.020478
0.106630 0.009522 0.035340
0.147829 0.000000 0.047089
0.196170 0.000000 0.053162
0.250340 0.000000 0.057160
0.309880 0.000000 0.057862
0.373053 0.000000 0.056184
0.437781 0.000000 0.053040
0.501427 0.000000 0.049958
0.561212 0.000000 0.045930
0.615534 0.000000 0.045106
0.663752 0.000000 0.046723
0.705379 0.000000 0.054444
0.741573 0.000000 0.064515
0.773617 0.000000 0.075074
0.812802 0.098665 0.092866
0.850584 0.170260 0.115755
0.881987 0.221286 0.140139
0.908721 0.262852 0.165164
0.931334 0.298405 0.190829
0.951141 0.329992 0.217014
0.968872 0.358587 0.244297
0.985504 0.386114 0.273228
1.000000 0.414435 0.305486
1.000000 0.444129 0.341802
1.000000 0.476143 0.382818
1.000000 0.510918 0.428626
1.000000 0.548760 0.478462
1.000000 0.589868 0.531884
0.005646 0.012604 0.015045
0.015961 0.013214 0.015808
0.047700 0.015076 0.012665
0.076051 0.020966 0.017029
0.107118 0.024475 0.031861
0.147372 0.015045 0.043702
0.194614 0.000000 0.050660
0.247501 0.000000 0.054719
0.305791 0.000000 0.054780
0.368048 0.000000 0.053254
0.431830 0.000000 0.049805
0.494728 0.000000 0.045441
0.554131 0.000000 0.041138
0.608362 0.000000 0.038819
0.656855 0.000000 0.038361
0.698817 0.000000 0.046876
0.735439 0.000000 0.059388
0.767910 0.000000 0.070436
0.807279 0.102358 0.087648
0.844114 0.168063 0.109743
0.875212 0.216526 0.132906
0.902007 0.257053 0.157504
0.924895 0.291783 0.182223
0.945068 0.322759 0.207919
0.963226 0.351507 0.234684
0.980346 0.379126 0.263493
0.997162 0.407507 0.295628
1.000000 0.437415 0.331853
1.000000 0.469520 0.372839
1.000000 0.504295 0.418494
1.000000 0.542138 0.468818
1.000000 0.583337 0.522911
0.010956 0.030976 0.033967
0.020172 0.033021 0.032471
0.038148 0.031098 0.036500
0.073548 0.042786 0.032746
0.107851 0.047303 0.029908
0.147555 0.038453 0.039582
0.193606 0.012634 0.047547
0.245365 0.000000 0.050660
0.302647 0.000000 0.051637
0.364080 0.000000 0.049348
0.427314 0.000000 0.045624
0.490211 0.000000 0.039063
0.549432 0.000000 0.033906
0.603845 0.000000 0.030762
0.652461 0.000000 0.030152
0.694881 0.000000 0.036988
0.731746 0.000000 0.050843
0.764492 0.000000 0.065064
0.804471 0.115236 0.083497
0.840574 0.173800 0.104860
0.871580 0.219181 0.128145
0.898405 0.257939 0.152529
0.921477 0.291569 0.177096
0.941833 0.322026 0.202701
0.960235 0.350072 0.228916
0.977478 0.377356 0.258000
0.994568 0.405615 0.290043
1.000000 0.435279 0.326085
1.000000 0.467201 0.367102
1.000000 0.501915 0.413123
1.000000 0.539513 0.463630
1.000000 0.580407 0.517571
0.026734 0.063172 0.063386
0.036591 0.065309 0.063111
0.045533 0.066102 0.060334
0.066163 0.064240 0.063600
0.099062 0.073213 0.060243
0.150149 0.072816 0.043732
0.195071 0.067048 0.045869
0.245945 0.050843 0.045106
0.302007 0.002228 0.042481
0.362127 0.000000 0.039063
0.424475 0.000000 0.031800
0.486244 0.000000 0.023987
0.544823 0.000000 0.017456
0.598810 0.000000 0.011139
0.647608 0.000000 0.010742
0.690211 0.000000 0.014954
0.727321 0.000000 0.028717
0.760220 0.079713 0.051911
0.800961 0.142733 0.075196
0.835355 0.188296 0.096742
0.865415 0.227329 0.119417
0.891997 0.262333 0.143252
0.915618 0.294438 0.168063
0.937011 0.324254 0.194186
0.956725 0.352728 0.222080
0.975280 0.380682 0.252384
0.993256 0.409400 0.286259
1.000000 0.439246 0.323217
1.000000 0.470741 0.364813
1.000000 0.504479 0.410712
1.000000 0.540734 0.460243
1.000000 0.580133 0.513390
0.038483 0.088838 0.078309
0.050019 0.090944 0.079316
0.054231 0.092317 0.075502
0.066651 0.092470 0.073152
0.087495 0.089815 0.076967
0.125734 0.100313 0.073976
0.185794 0.105135 0.060395
0.243534 0.099519 0.047639
0.297887 0.090761 0.043000
0.356481 0.077485 0.035981
0.417517 0.055726 0.027375
0.478553 0.006104 0.016876
0.537011 0.000000 0.007813
0.591272 0.000000 0.001862
0.640864 0.009186 0.000000
0.684779 0.072023 0.001373
0.723110 0.105226 0.016022
0.761074 0.141176 0.041291
0.799985 0.181003 0.069551
0.833097 0.216037 0.089723
0.862364 0.248051 0.109651
0.888518 0.278264 0.134127
0.912016 0.306706 0.159609
0.933684 0.334173 0.185885
0.953735 0.360906 0.214755
0.972686 0.387488 0.245457
0.990967 0.414954 0.279515
1.000000 0.443427 0.316777
1.000000 0.473762 0.358312
1.000000 0.506371 0.404181
1.000000 0.541772 0.454017
1.000000 0.580255 0.507195
0.043366 0.121645 0.094820
0.053040 0.123964 0.095796
0.061860 0.126345 0.095155
0.066011 0.126650 0.086305
0.087221 0.125124 0.086305
0.114046 0.121950 0.091493
0.155947 0.133425 0.090486
0.222171 0.144045 0.073671
0.295659 0.141695 0.049104
0.355779 0.135866 0.037171
0.415473 0.129580 0.029145
0.475502 0.123934 0.021332
0.533227 0.121523 0.012482
0.587427 0.123995 0.006989
0.637110 0.133425 0.004578
0.681392 0.147585 0.007996
0.720241 0.165469 0.023774
0.763027 0.194095 0.053651
0.800107 0.223117 0.074922
0.832547 0.250645 0.094179
0.861631 0.277806 0.114351
0.888121 0.304082 0.134707
0.949523 0.384039 0.203006
0.968536 0.406989 0.231876
0.985595 0.429206 0.263279
1.000000 0.451331 0.296422
1.000000 0.474372 0.331487
1.000000 0.498756 0.369085
1.000000 0.525322 0.410010
1.000000 0.554589 0.454261
1.000000 0.586481 0.501244
1.000000 0.610834 0.525933
0.041077 0.169192 0.117464
0.054444 0.170962 0.117769
0.065400 0.173404 0.118349
0.072572 0.174929 0.110597
0.086854 0.173892 0.102815
0.119203 0.171115 0.105196
0.152956 0.167239 0.112062
0.199069 0.178805 0.114717
0.276219 0.196292 0.093935
0.358526 0.200534 0.069215
0.436133 0.196902 0.025452
0.495949 0.195224 0.017365
0.552117 0.196139 0.012268
0.603998 0.199680 0.008545
0.650782 0.206424 0.008759
0.691737 0.215457 0.018921
0.735012 0.233371 0.043854
0.776883 0.256504 0.069398
0.812467 0.279545 0.088991
0.845029 0.303471 0.109987
0.875639 0.329198 0.132906
0.904601 0.355993 0.158145
0.931273 0.383001 0.185306
0.955444 0.408911 0.213596
0.976928 0.433356 0.243046
0.995300 0.456641 0.279637
1.000000 0.479408 0.316716
1.000000 0.502831 0.355291
1.000000 0.528191 0.397070
1.000000 0.555810 0.441718
1.000000 0.586084 0.488777
1.000000 0.615076 0.524712
0.044709 0.210575 0.137789
0.058686 0.212009 0.138338
0.068635 0.213748 0.138491
0.083406 0.216342 0.136263
0.086854 0.215305 0.120516
0.110689 0.212650 0.117098
0.150942 0.209445 0.122713
0.187472 0.206424 0.130770
0.233768 0.216678 0.138827
0.316075 0.240116 0.117128
0.400793 0.250187 0.092531
0.482826 0.251835 0.056031
0.546715 0.251560 0.014984
0.598077 0.254429 0.013153
0.644862 0.259159 0.017578
0.690669 0.269413 0.030488
0.736568 0.285954 0.058137
0.774655 0.301793 0.075410
0.808255 0.318425 0.093568
0.839719 0.336828 0.113619
0.869688 0.357702 0.135561
0.898253 0.380072 0.159792
0.924804 0.403052 0.185550
0.949004 0.425605 0.212436
0.970733 0.447181 0.240238
0.989929 0.467445 0.267521
1.000000 0.487739 0.301732
1.000000 0.509392 0.340978
1.000000 0.533196 0.383490
1.000000 0.559258 0.428656
1.000000 0.588342 0.476722
1.000000 0.619165 0.523308
0.056123 0.254948 0.160861
0.065248 0.255985 0.161074
0.075746 0.257389 0.161440
0.095064 0.260166 0.161898
0.100435 0.260044 0.149264
0.114137 0.257267 0.137789
0.143252 0.253819 0.135348
0.187442 0.251286 0.142855
0.227024 0.248814 0.152193
0.273045 0.257542 0.166415
0.359014 0.286351 0.144198
0.444465 0.301030 0.119478
0.524193 0.307408 0.088960
0.595148 0.308934 0.022065
0.647913 0.316869 0.027283
0.696925 0.328222 0.048127
0.738125 0.338384 0.067262
0.773648 0.348760 0.084108
0.805783 0.360418 0.101167
0.836362 0.374304 0.120455
0.865721 0.390753 0.141268
0.893950 0.409003 0.164431
0.920256 0.428229 0.189029
0.944305 0.447608 0.215579
0.966064 0.466529 0.242374
0.985473 0.484108 0.268589
1.000000 0.501610 0.294957
1.000000 0.520531 0.328740
1.000000 0.542168 0.371405
1.000000 0.566339 0.417273
1.000000 0.593378 0.465492
1.000000 0.623560 0.516411
0.068666 0.300786 0.185733
0.076539 0.301579 0.186038
0.086183 0.302373 0.186038
0.104921 0.304387 0.186221
0.119051 0.305394 0.180117
0.119356 0.303227 0.160281
0.144411 0.299107 0.155276
0.181064 0.295659 0.156008
0.227329 0.293828 0.164645
0.269383 0.292149 0.175021
0.314458 0.299077 0.194034
0.400427 0.330571 0.173098
0.485573 0.350011 0.149355
0.571038 0.367651 0.124147
0.645441 0.378912 0.089815
0.701534 0.384802 0.062379
0.740810 0.391211 0.078645
0.775296 0.397864 0.094362
0.806485 0.405829 0.112306
0.835935 0.415534 0.130404
0.863920 0.427192 0.150149
0.890410 0.440497 0.171542
0.915251 0.454780 0.193820
0.938231 0.469703 0.217350
0.959442 0.484962 0.241917
0.978973 0.500206 0.267185
0.997467 0.516045 0.293431
1.000000 0.533043 0.321508
1.000000 0.552453 0.357824
1.000000 0.575647 0.405798
1.000000 0.601831 0.456245
1.000000 0.631067 0.509056
0.083467 0.344457 0.210880
0.090669 0.345006 0.211032
0.099458 0.345892 0.211124
0.117098 0.347723 0.211337
0.140566 0.350439 0.211704
0.140444 0.348638 0.193515
0.151400 0.345830 0.178897
0.178164 0.341558 0.173861
0.223148 0.339422 0.178531
0.271427 0.338415 0.188632
0.315892 0.338170 0.200565
0.370184 0.352178 0.224369
0.457038 0.387518 0.212039
0.543420 0.413062 0.190005
0.619287 0.429419 0.165042
0.682979 0.437842 0.137331
0.735988 0.440192 0.104311
0.772671 0.442298 0.105074
0.803098 0.446571 0.121706
0.832059 0.452918 0.139101
0.859739 0.461555 0.157961
0.886168 0.471931 0.178378
0.911070 0.483619 0.200534
0.934112 0.496132 0.223941
0.955383 0.508904 0.247868
0.974945 0.521721 0.271794
0.993347 0.535241 0.297124
1.000000 0.549981 0.324102
1.000000 0.566644 0.353979
1.000000 0.586297 0.392981
1.000000 0.610315 0.444190
1.000000 0.637720 0.497780
0.102571 0.390600 0.238987
0.108736 0.391119 0.239170
0.117006 0.391730 0.239261
0.133150 0.393133 0.239292
0.155489 0.395483 0.239719
0.165316 0.395453 0.228794
0.165164 0.393744 0.207919
0.187961 0.389868 0.199832
0.215824 0.385351 0.194308
0.274357 0.390967 0.207065
0.330022 0.396185 0.221988
0.380926 0.400885 0.238437
0.481575 0.455604 0.294499
0.562127 0.489143 0.290043
0.640040 0.513420 0.266667
0.702815 0.524712 0.242741
0.754299 0.527947 0.217716
0.797910 0.526452 0.191073
0.834806 0.522789 0.167117
0.859983 0.524224 0.183902
0.884001 0.527764 0.202213
0.906828 0.533043 0.221469
0.928130 0.539422 0.241917
0.948302 0.547112 0.263340
0.967285 0.555596 0.284916
0.985107 0.565026 0.307683
1.000000 0.575219 0.330999
1.000000 0.586725 0.355962
1.000000 0.600244 0.383551
1.000000 0.616083 0.414649
1.000000 0.635554 0.455634
1.000000 0.659998 0.508324
0.132265 0.451789 0.279332
0.137728 0.452064 0.279210
0.145235 0.451728 0.278691
0.159457 0.451637 0.278080
0.180117 0.451850 0.277195
0.199649 0.452094 0.272831
0.201144 0.453864 0.254520
0.211032 0.455085 0.237583
0.242771 0.455177 0.234257
0.284764 0.457252 0.235508
0.349035 0.464363 0.252415
0.410040 0.472328 0.272313
0.465919 0.480568 0.294865
0.521172 0.494789 0.324224
0.594018 0.526146 0.329747
0.665309 0.549584 0.309148
0.722560 0.560082 0.286809
0.769894 0.563043 0.263340
0.810971 0.562310 0.239780
0.847745 0.559503 0.215152
0.877012 0.558404 0.210239
0.899809 0.561303 0.228428
0.921172 0.565423 0.247410
0.941405 0.570886 0.267491
0.960479 0.577234 0.288060
0.978515 0.584527 0.309361
0.995727 0.592981 0.331884
1.000000 0.602930 0.356054
1.000000 0.614832 0.382788
1.000000 0.629267 0.413428
1.000000 0.646204 0.447517
1.000000 0.667750 0.494301
0.164462 0.505272 0.318853
0.169986 0.505913 0.318944
0.176455 0.506065 0.319036
0.190249 0.506828 0.319036
0.210147 0.507836 0.318761
0.235050 0.509331 0.318914
0.239902 0.508995 0.303227
0.239475 0.508385 0.279576
0.261295 0.506798 0.269139
0.292973 0.505608 0.264805
0.343603 0.508141 0.271458
0.406897 0.514427 0.290043
0.464576 0.520684 0.310765
0.515129 0.526390 0.332677
0.563226 0.536431 0.358648
0.623590 0.560571 0.370245
0.686641 0.580682 0.349554
0.738460 0.590082 0.328283
0.783322 0.593866 0.306828
0.823178 0.594720 0.285985
0.859312 0.593683 0.265049
0.892149 0.591333 0.243442
0.915129 0.592828 0.255497
0.935637 0.596551 0.274784
0.954986 0.601251 0.294621
0.973236 0.606897 0.315251
0.990784 0.613703 0.336736
1.000000 0.622126 0.360204
1.000000 0.632593 0.386633
1.000000 0.645655 0.416541
1.000000 0.661341 0.450507
1.000000 0.679866 0.488075
0.203403 0.558465 0.362463
0.207919 0.558953 0.362737
0.213199 0.558495 0.362158
0.224949 0.558068 0.361334
0.242100 0.557336 0.360082
0.263859 0.556817 0.358709
0.277806 0.555993 0.349859
0.276097 0.554223 0.327184
0.280217 0.553124 0.304540
0.310002 0.550988 0.299748
0.341924 0.549584 0.295171
0.400458 0.553582 0.308568
0.460395 0.558740 0.327947
0.513207 0.563287 0.348425
0.558099 0.566674 0.369238
0.597864 0.571435 0.390906
0.648646 0.590448 0.408881
0.705531 0.608576 0.388739
0.754116 0.618280 0.369512
0.797147 0.623346 0.350378
0.835813 0.625513 0.332250
0.870787 0.625635 0.313787
0.902434 0.623987 0.294743
0.929839 0.622370 0.282719
0.949493 0.625605 0.302220
0.968322 0.630213 0.322484
0.986664 0.636378 0.344823
1.000000 0.644434 0.369604
1.000000 0.654780 0.397559
1.000000 0.667628 0.428870
1.000000 0.683101 0.464027
1.000000 0.701350 0.503197
0.240787 0.602960 0.402441
0.245365 0.603510 0.402991
0.250156 0.603510 0.402686
0.260960 0.603296 0.402319
0.276646 0.603021 0.401495
0.297093 0.602960 0.400732
0.321233 0.603510 0.400336
0.319524 0.602258 0.379828
0.318242 0.601434 0.355596
0.334936 0.599512 0.341497
0.363592 0.596429 0.335515
0.395575 0.593469 0.330846
0.455085 0.595270 0.347295
0.507500 0.596735 0.364843
0.552636 0.597620 0.382574
0.591150 0.598016 0.400549
0.624506 0.598962 0.419135
0.669093 0.615564 0.443458
0.723018 0.634241 0.426673
0.770443 0.645960 0.411109
0.812619 0.653254 0.396277
0.850523 0.657282 0.381659
0.884520 0.658747 0.366430
0.915496 0.658350 0.350195
0.944030 0.656550 0.333227
0.966430 0.657740 0.337835
0.985016 0.662806 0.360021
1.000000 0.669703 0.384344
1.000000 0.678676 0.411749
1.000000 0.689754 0.441627
1.000000 0.703273 0.475074
1.000000 0.719326 0.512108
0.276188 0.638117 0.436866
0.279454 0.638117 0.436744
0.283574 0.637751 0.436347
0.292821 0.637415 0.435828
0.306828 0.636988 0.435187
0.324926 0.636683 0.434455
0.346899 0.636713 0.434028
0.355108 0.636103 0.422461
0.353185 0.635096 0.400610
0.353429 0.634485 0.376226
0.379797 0.631495 0.370642
0.407080 0.628382 0.364446
0.445533 0.626429 0.365484
0.499550 0.627283 0.381994
0.546349 0.627466 0.398596
0.586297 0.626947 0.414923
0.620752 0.626184 0.431312
0.650477 0.625971 0.448402
0.689113 0.639918 0.477943
0.740169 0.658961 0.463752
0.785550 0.671595 0.450690
0.826047 0.679744 0.438209
0.862333 0.684565 0.425696
0.895354 0.687160 0.413153
0.925689 0.687892 0.399817
0.953887 0.687434 0.386114
0.980682 0.686305 0.371679
0.999725 0.692073 0.394720
1.000000 0.700069 0.421790
1.000000 0.710292 0.451637
1.000000 0.722896 0.485115
1.000000 0.738003 0.522148
0.314153 0.670649 0.470893
0.318212 0.671443 0.471717
0.360571 0.699672 0.503502
0.368292 0.699092 0.502953
0.379675 0.698054 0.502037
0.394324 0.696681 0.500725
0.412207 0.695216 0.499428
0.427436 0.693751 0.494759
0.423468 0.691859 0.474891
0.420264 0.690425 0.451698
0.429572 0.687922 0.435126
0.451698 0.683742 0.427588
0.474189 0.678676 0.418830
0.514458 0.675807 0.424079
0.560449 0.674220 0.438636
0.600275 0.672236 0.452979
0.634852 0.670192 0.467353
0.664668 0.668360 0.481880
0.690639 0.667109 0.496742
0.721981 0.677211 0.529259
0.768521 0.695155 0.516381
0.810330 0.707240 0.504753
0.847745 0.715084 0.493721
0.881407 0.719631 0.482399
0.911833 0.721462 0.470100
0.939971 0.721675 0.457465
0.966552 0.720912 0.444373
0.992218 0.720058 0.432044
1.000000 0.721950 0.432837
1.000000 0.730800 0.461769
1.000000 0.742153 0.494453
1.000000 0.755764 0.530297
0.361975 0.706355 0.510460
0.369482 0.709804 0.514549
0.378149 0.713191 0.518608
0.389715 0.715877 0.522057
0.403388 0.717525 0.524376
0.418463 0.717617 0.525048
0.435004 0.716854 0.524712
0.453681 0.715694 0.524163
0.454658 0.714412 0.510430
0.451362 0.713069 0.490761
0.448005 0.712001 0.467231
0.466194 0.708492 0.459388
0.485817 0.703975 0.451179
0.505913 0.698756 0.441901
0.549187 0.696315 0.452277
0.590204 0.694087 0.465553
0.626001 0.691798 0.478706
0.657588 0.689815 0.492317
0.685603 0.688533 0.506798
0.710536 0.688197 0.522179
0.739345 0.697658 0.555291
0.783230 0.716121 0.548852
0.823606 0.729458 0.540185
0.859770 0.738399 0.531701
0.892302 0.743893 0.522576
0.922179 0.747189 0.513329
0.950164 0.749050 0.504082
0.977020 0.750454 0.495674
1.000000 0.752102 0.488930
1.000000 0.753964 0.483772
1.000000 0.761990 0.505150
1.000000 0.774350 0.540063
0.394263 0.729000 0.536431
0.401221 0.732052 0.540154
0.408850 0.735012 0.543908
0.419165 0.737423 0.547112
0.431495 0.738857 0.549401
0.444770 0.738949 0.550286
0.459571 0.738247 0.550256
0.476417 0.737331 0.550225
0.485969 0.736416 0.544182
0.482704 0.735348 0.527367
0.479805 0.734554 0.507774
0.484413 0.732784 0.491463
0.501579 0.728847 0.484108
0.519249 0.724300 0.475654
0.541222 0.719448 0.469337
0.582879 0.717067 0.481483
0.619776 0.714687 0.493812
0.652461 0.712551 0.506554
0.681849 0.711025 0.520043
0.708370 0.710597 0.534783
0.732113 0.711025 0.550164
0.759945 0.720699 0.581292
0.799649 0.738338 0.581903
0.838193 0.752224 0.575463
0.872679 0.761593 0.568719
0.904051 0.768002 0.561852
0.933227 0.772457 0.555138
0.961028 0.776150 0.549676
0.988067 0.779690 0.545830
1.000000 0.783444 0.543999
1.000000 0.787472 0.543999
1.000000 0.792203 0.548455
0.426642 0.751064 0.562341
0.432990 0.753780 0.565820
0.440131 0.756466 0.569421
0.449470 0.758633 0.572534
0.460487 0.759915 0.574762
0.472419 0.759976 0.575799
0.485542 0.759335 0.575982
0.500481 0.758419 0.576196
0.517144 0.757595 0.576440
0.513970 0.756527 0.561883
0.510826 0.755734 0.545068
0.507561 0.754879 0.525139
0.519036 0.751827 0.515557
0.534508 0.747982 0.507958
0.550561 0.743618 0.499550
0.577844 0.740230 0.499672
0.616815 0.738888 0.512902
0.652064 0.738155 0.526909
0.684138 0.738277 0.542016
0.713344 0.739315 0.557977
0.739773 0.741207 0.574395
0.763577 0.743832 0.591241
0.790341 0.753872 0.620264
0.826108 0.770748 0.627588
0.862669 0.785275 0.624079
0.895567 0.795590 0.620325
0.925872 0.803342 0.616968
0.954498 0.809659 0.614496
0.982086 0.815396 0.613642
1.000000 0.820920 0.614527
1.000000 0.826383 0.617182
1.000000 0.834226 0.625757
0.477485 0.783017 0.602136
0.481270 0.784146 0.603815
0.485145 0.785031 0.605158
0.491188 0.785519 0.606317
0.499062 0.785641 0.607141
0.508568 0.785122 0.607477
0.519890 0.784482 0.607782
0.533227 0.783871 0.608301
0.548577 0.783505 0.609339
0.553643 0.783230 0.602411
0.551659 0.783047 0.589014
0.549340 0.782773 0.572992
0.550439 0.781491 0.557549
0.563653 0.778256 0.550988
0.577203 0.774502 0.543420
0.591547 0.770382 0.535149
0.622278 0.767971 0.541009
0.657008 0.766720 0.553399
0.688594 0.766110 0.566461
0.717342 0.766110 0.580102
0.743343 0.766690 0.594141
0.766903 0.767880 0.608423
0.787961 0.769436 0.622644
0.811643 0.777371 0.646967
0.842832 0.792081 0.657649
0.877470 0.806516 0.655085
0.909331 0.817655 0.653315
0.939239 0.826810 0.652613
0.967834 0.834897 0.653376
0.995392 0.842344 0.655756
1.000000 0.849668 0.660182
1.000000 0.858244 0.669001
0.509880 0.803250 0.627680
0.513237 0.804318 0.629236
0.516960 0.805295 0.630701
0.522393 0.805844 0.631922
0.529259 0.805936 0.632715
0.537224 0.805417 0.632837
0.546777 0.804623 0.632898
0.557977 0.803861 0.633082
0.571221 0.803311 0.633783
0.582208 0.803006 0.632227
0.580346 0.802823 0.620661
0.578302 0.802579 0.607080
0.575677 0.802121 0.590906
0.583246 0.800107 0.581689
0.595666 0.797177 0.575586
0.608820 0.794003 0.568841
0.622950 0.790768 0.561944
0.657313 0.789761 0.573388
0.689418 0.789334 0.585962
0.718898 0.789548 0.599145
0.745876 0.790372 0.612787
0.770535 0.791745 0.626764
0.792874 0.793637 0.640833
0.812985 0.795743 0.654749
0.828641 0.796323 0.668025
0.856657 0.809903 0.682582
0.890379 0.825040 0.681910
0.921782 0.837308 0.682307
0.951537 0.847929 0.684138
0.980194 0.857664 0.687739
1.000000 0.867491 0.694209
1.000000 0.877073 0.702907
0.554955 0.831022 0.663325
0.558312 0.832212 0.665095
0.561212 0.832914 0.666194
0.565057 0.833005 0.666743
0.570001 0.832578 0.666712
0.576043 0.831724 0.666316
0.583276 0.830533 0.665675
0.591882 0.829160 0.664973
0.602045 0.827878 0.664485
0.613642 0.826749 0.664332
0.613214 0.825589 0.654963
0.610224 0.824735 0.642329
0.607080 0.823789 0.627832
0.605310 0.822354 0.612512
0.614832 0.818875 0.605859
0.625116 0.815152 0.598627
0.636316 0.811337 0.591089
0.653773 0.808347 0.588098
0.685695 0.807553 0.599451
0.715724 0.807858 0.612085
0.743648 0.808865 0.625513
0.769100 0.810269 0.638972
0.791928 0.811673 0.652064
0.812161 0.812833 0.664485
0.829923 0.813779 0.676204
0.849424 0.819181 0.694423
0.874388 0.831601 0.712306
0.906645 0.846860 0.712734
0.937194 0.859861 0.714748
0.966827 0.871916 0.719173
0.995727 0.883635 0.726192
1.000000 0.895048 0.735714
0.582116 0.848814 0.685512
0.585229 0.849973 0.687190
0.587884 0.850675 0.688258
0.591333 0.850828 0.688808
0.595727 0.850462 0.688838
0.601129 0.849790 0.688624
0.607782 0.848905 0.688319
0.615747 0.847959 0.688075
0.625177 0.847166 0.688167
0.636133 0.846586 0.688594
0.642115 0.846067 0.684962
0.640101 0.845762 0.674586
0.638025 0.845487 0.662837
0.635462 0.844999 0.648951
0.639673 0.843198 0.639612
0.649226 0.840421 0.633906
0.659693 0.837613 0.628077
0.671504 0.835111 0.622522
0.693507 0.833768 0.625452
0.722988 0.833829 0.636988
0.750515 0.834470 0.649165
0.775814 0.835508 0.661677
0.798795 0.836637 0.673945
0.819455 0.837675 0.685725
0.837858 0.838621 0.697017
0.854185 0.839414 0.707790
0.872190 0.844205 0.723812
0.894987 0.856107 0.744991
0.926787 0.872618 0.748135
0.957458 0.887480 0.753506
0.987152 0.901366 0.761196
1.000000 0.914672 0.772335
0.613581 0.869352 0.711238
0.615839 0.870146 0.712398
0.617639 0.870420 0.712917
0.620081 0.870237 0.712978
0.623316 0.869566 0.712581
0.627619 0.868711 0.712032
0.633021 0.867704 0.711513
0.639887 0.866728 0.711116
0.648280 0.865995 0.711208
0.658198 0.865568 0.711788
0.668971 0.865263 0.712459
0.667720 0.865385 0.703975
0.666224 0.865476 0.694087
0.664393 0.865385 0.682643
0.662257 0.864958 0.669368
0.670863 0.862730 0.664637
0.680232 0.860410 0.659602
0.690700 0.858335 0.654780
0.702724 0.856809 0.650690
0.727993 0.856474 0.658198
0.755154 0.856870 0.669520
0.780301 0.857633 0.681178
0.803311 0.858518 0.692653
0.824247 0.859434 0.703914
0.843076 0.860258 0.714656
0.859983 0.860929 0.724910
0.875303 0.861814 0.735073
0.892149 0.866209 0.749264
0.913176 0.877775 0.773495
0.944915 0.895598 0.779171
0.975463 0.911742 0.786893
1.000000 0.926635 0.797696
0.640467 0.887358 0.733547
0.642084 0.887877 0.734340
0.643702 0.888090 0.734798
0.646021 0.888060 0.735042
0.649622 0.887907 0.735225
0.654597 0.887846 0.735775
0.661585 0.888273 0.737118
0.670222 0.889036 0.739040
0.680568 0.890227 0.741665
0.692195 0.891783 0.744839
0.704829 0.893523 0.748348
0.710750 0.895384 0.746639
0.711818 0.897124 0.740536
0.712306 0.898497 0.732937
0.711879 0.899382 0.723384
0.715084 0.899046 0.715908
0.723629 0.897765 0.712459
0.733028 0.896574 0.709041
0.743771 0.895872 0.706294
0.756466 0.895628 0.704646
0.781674 0.895628 0.714565
0.805264 0.895964 0.724697
0.826932 0.896330 0.734676
0.846799 0.896757 0.744472
0.864897 0.897093 0.753933
0.881468 0.897642 0.763302
0.896727 0.898314 0.772580
0.910643 0.899138 0.781735
0.926146 0.903197 0.793973
0.944579 0.913634 0.819150
0.975158 0.931884 0.826688
0.991730 0.936736 0.823911
0.685573 0.916289 0.770626
0.686732 0.916564 0.771084
0.687617 0.916533 0.771176
0.689235 0.916228 0.771054
0.691676 0.915770 0.770871
0.695277 0.915312 0.770809
0.700313 0.915068 0.771145
0.706630 0.915068 0.771969
0.714351 0.915373 0.773251
0.723323 0.915923 0.775021
0.733089 0.916594 0.777005
0.741360 0.917449 0.777493
0.741299 0.918364 0.771359
0.740902 0.919158 0.764096
