data/fiter_cube/12898295/1023043/file.cube
# Created by Adobe Lightroom plugin Export LUT (1.17.0)
# www.johnrellis.com/lightroom/exportlut.htm
# Preset: 经典婚礼摄影_05 云集
# Color profile: C:\Program Files (x86)\Common Files\Adobe\Color\Profiles\Recommended\AdobeRGB1998.icc
LUT_3D_SIZE 5
DOMAIN_MIN 0.000000 0.000000 0.000000
DOMAIN_MAX 0.903226 0.903226 0.903226
0.000000 0.000000 0.000000
0.250340 0.000000 0.057160
0.663752 0.000000 0.046723
0.908721 0.262852 0.165164
1.000000 0.476143 0.382818
0.044709 0.210575 0.137789
0.187472 0.206424 0.130770
0.644862 0.259159 0.017578
0.898253 0.380072 0.159792
1.000000 0.533196 0.383490
0.203403 0.558465 0.362463
0.276097 0.554223 0.327184
0.558099 0.566674 0.369238
0.870787 0.625635 0.313787
1.000000 0.654780 0.397559
0.477485 0.783017 0.602136
0.533227 0.783871 0.608301
0.577203 0.774502 0.543420
0.766903 0.767880 0.608423
0.967834 0.834897 0.653376
0.712856 0.934997 0.793759
0.733028 0.934936 0.796353
0.749966 0.927794 0.769162
0.817288 0.936645 0.762814
0.939178 0.941924 0.825284
0.053010 0.071351 0.150942
0.197940 0.022034 0.180514
0.603449 0.000000 0.230991
0.864805 0.276127 0.295018
1.000000 0.461341 0.399207
0.084443 0.180240 0.196811
0.211765 0.224857 0.228214
0.603143 0.263828 0.249271
0.860166 0.378302 0.305699
1.000000 0.513054 0.413581
0.205631 0.536278 0.405463
0.327459 0.540520 0.410986
0.527489 0.535088 0.404395
0.850797 0.599115 0.361730
1.000000 0.653956 0.468421
0.480903 0.776181 0.622034
0.537835 0.777279 0.629206
0.593286 0.770108 0.581262
0.763088 0.763607 0.628016
0.966674 0.831266 0.663813
0.707637 0.931914 0.798520
0.728054 0.931792 0.800870
0.778408 0.937011 0.802304
0.823209 0.942443 0.778805
0.943359 0.946044 0.836881
0.149111 0.193088 0.416022
0.280522 0.175204 0.457374
0.575067 0.149477 0.490883
0.842222 0.370916 0.552758
0.987884 0.533654 0.615595
0.231693 0.306706 0.417700
0.312871 0.322271 0.462196
0.578485 0.329015 0.517876
0.828428 0.448310 0.564233
0.988586 0.566461 0.618524
0.266575 0.490669 0.501335
0.358679 0.507134 0.514000
0.556237 0.555871 0.553765
0.812802 0.606226 0.588708
0.986419 0.667720 0.630549
0.477180 0.761807 0.678218
0.526696 0.757870 0.677150
0.648737 0.762356 0.685359
0.764736 0.763394 0.688685
0.972656 0.817777 0.691798
0.688624 0.918181 0.813443
0.711727 0.921355 0.817838
0.774990 0.929259 0.827115
0.820584 0.934478 0.802914
0.936339 0.938262 0.845914
0.375189 0.386725 0.670954
0.441962 0.366155 0.687892
0.642206 0.350896 0.730770
0.809659 0.415412 0.723598
0.967956 0.595819 0.760159
0.418097 0.456886 0.670130
0.465888 0.456703 0.682338
0.641718 0.463905 0.731380
0.800748 0.492622 0.727047
0.962127 0.620233 0.761868
0.458412 0.567651 0.653407
0.502373 0.578607 0.656703
0.628870 0.622492 0.711818
0.790463 0.646448 0.748562
0.959228 0.699519 0.778958
0.518242 0.714351 0.724697
0.551446 0.715846 0.725216
0.647333 0.731807 0.737667
0.765621 0.760586 0.760311
0.963928 0.799985 0.788205
0.678889 0.906859 0.853483
0.699855 0.909941 0.856809
0.761593 0.919554 0.865354
0.845365 0.934173 0.872892
0.937499 0.938262 0.878355
0.661433 0.669306 0.864012
0.678279 0.661982 0.869047
0.743313 0.628992 0.884825
0.869261 0.578912 0.906279
0.955688 0.615290 0.876555
0.669154 0.673884 0.868315
0.686213 0.669764 0.873259
0.747860 0.655818 0.886259
0.869566 0.626825 0.908690
0.955230 0.650111 0.881865
0.701137 0.750118 0.862425
0.712795 0.750210 0.868681
0.757961 0.746822 0.885039
0.858549 0.734737 0.910185
0.954498 0.737667 0.897795
0.720363 0.816373 0.875822
0.732540 0.818235 0.876829
0.770321 0.823026 0.878721
0.842710 0.836149 0.907103
0.957031 0.847715 0.925292
0.747158 0.904509 0.915160
0.757778 0.906432 0.916747
0.793057 0.912627 0.921569
0.858671 0.927642 0.933562
0.961913 0.960510 0.960571
