data/fiter_cube/49007420/1023423/file.cube
# Created by Adobe Lightroom plugin Export LUT (1.17.0)
# www.johnrellis.com/lightroom/exportlut.htm
# Preset: 07 - 日系情绪-夏 [云集]
# Color profile: C:\Program Files (x86)\Common Files\Adobe\Color\Profiles\Recommended\AdobeRGB1998.icc
LUT_3D_SIZE 8
DOMAIN_MIN 0.000000 0.000000 0.000000
DOMAIN_MAX 0.903226 0.903226 0.903226
0.128542 0.110811 0.085176
0.226230 0.101320 0.089570
0.588464 0.000000 0.065034
0.877562 0.000000 0.000000
0.985901 0.152346 0.023621
1.000000 0.322362 0.153414
1.000000 0.424842 0.257847
1.000000 0.496040 0.351354
0.126070 0.198276 0.113497
0.226017 0.189639 0.080537
0.565026 0.164706 0.023651
0.860716 0.191653 0.000000
0.977478 0.291691 0.000000
1.000000 0.377569 0.145998
1.000000 0.451362 0.252628
1.000000 0.512688 0.350042
0.000000 0.625910 0.239536
0.026642 0.597650 0.096529
0.576074 0.596185 0.000000
0.847562 0.544945 0.000000
0.963287 0.522789 0.000000
1.000000 0.530632 0.156588
1.000000 0.555596 0.277317
1.000000 0.582910 0.371984
0.000000 0.862699 0.435279
0.108888 0.851377 0.407874
0.470314 0.807584 0.284672
0.835294 0.817288 0.000000
0.967956 0.753902 0.000000
1.000000 0.688838 0.206149
1.000000 0.672358 0.311528
1.000000 0.669581 0.398993
0.177951 0.942779 0.571344
0.350561 0.934783 0.572869
0.552026 0.913939 0.539239
0.724422 0.886687 0.497322
0.918700 0.887572 0.318791
1.000000 0.837522 0.130770
1.000000 0.779110 0.343755
1.000000 0.757534 0.439796
0.445655 0.971862 0.663020
0.531456 0.966339 0.674800
0.700832 0.946929 0.702022
0.747677 0.935058 0.653101
0.840299 0.923674 0.612055
0.954589 0.924224 0.476967
1.000000 0.889586 0.316747
1.000000 0.842008 0.464668
0.600610 0.987152 0.731075
0.647669 0.982513 0.739803
0.757198 0.968688 0.764706
0.808438 0.959716 0.757290
0.844022 0.949706 0.733486
0.898039 0.948119 0.686671
0.975616 0.948425 0.560082
1.000000 0.922179 0.447852
0.693385 0.996551 0.777127
0.726192 0.992706 0.785580
0.807767 0.982177 0.812406
0.877562 0.972076 0.843656
0.875242 0.969757 0.810666
0.898192 0.964019 0.794705
0.931640 0.966491 0.736721
0.992126 0.966064 0.562707
0.146029 0.121645 0.163363
0.233219 0.101350 0.154360
0.580499 0.000000 0.108888
0.859678 0.147433 0.000000
0.977081 0.272740 0.000000
1.000000 0.361700 0.142458
1.000000 0.435004 0.247318
1.000000 0.496010 0.343389
0.120577 0.198337 0.206668
0.245396 0.196323 0.190829
0.576165 0.199619 0.138064
0.852323 0.292546 0.000000
0.971679 0.356298 0.000000
1.000000 0.409216 0.138582
1.000000 0.460975 0.244266
1.000000 0.511864 0.341650
0.000000 0.641108 0.376745
0.161624 0.617456 0.323247
0.586908 0.598505 0.166354
0.841825 0.548486 0.006683
0.958648 0.539422 0.000000
1.000000 0.540002 0.145174
1.000000 0.554772 0.262028
1.000000 0.579156 0.360967
0.000000 0.860929 0.505791
0.169986 0.850034 0.489204
0.505333 0.810025 0.398932
0.826322 0.808560 0.264744
0.956298 0.745785 0.125429
1.000000 0.683253 0.180331
1.000000 0.667170 0.292638
1.000000 0.665187 0.387304
0.234928 0.940978 0.609949
0.377813 0.932738 0.609552
0.608057 0.907530 0.603937
0.731746 0.879820 0.547173
0.911925 0.882780 0.414771
0.997467 0.835447 0.253727
1.000000 0.777157 0.332647
1.000000 0.755184 0.432685
0.458839 0.969696 0.680476
0.531182 0.963714 0.686854
0.695888 0.945037 0.709102
0.756649 0.932036 0.672969
0.843473 0.920714 0.641352
0.951537 0.923095 0.538079
1.000000 0.889097 0.339757
1.000000 0.840604 0.459724
0.597101 0.985992 0.736965
0.639826 0.981323 0.743191
0.750637 0.967803 0.766262
0.817441 0.957244 0.770260
0.848478 0.948363 0.745480
0.899290 0.946471 0.704799
0.972778 0.947021 0.596216
1.000000 0.920714 0.440070
0.686915 0.996704 0.779202
0.720851 0.992889 0.787655
0.804196 0.982269 0.813626
0.881102 0.971313 0.849363
0.883207 0.969665 0.823209
0.902617 0.963928 0.806149
0.933013 0.965911 0.752132
0.989929 0.965545 0.600519
0.128359 0.145785 0.478523
0.312718 0.103090 0.510826
0.642176 0.000000 0.486183
0.884886 0.000000 0.373816
0.973541 0.365698 0.319432
1.000000 0.448829 0.248295
1.000000 0.478004 0.258824
1.000000 0.513573 0.352117
0.139681 0.252079 0.462196
0.286595 0.253941 0.506615
0.636835 0.267765 0.506828
0.870970 0.290013 0.397498
0.965515 0.442817 0.350469
1.000000 0.485267 0.265690
1.000000 0.500206 0.257542
1.000000 0.529900 0.353033
0.000000 0.582177 0.582483
0.175265 0.586664 0.576104
0.602380 0.596216 0.548180
0.837827 0.606714 0.502403
0.949279 0.609918 0.437324
1.000000 0.595880 0.338537
1.000000 0.577905 0.271946
1.000000 0.588281 0.366461
0.000000 0.884123 0.692012
0.083192 0.873564 0.678218
0.619898 0.827848 0.644282
0.831144 0.811185 0.587671
0.932921 0.765774 0.539178
0.987671 0.726223 0.460060
1.000000 0.680323 0.305455
1.000000 0.671229 0.394751
0.226139 0.946471 0.704524
0.403845 0.937377 0.705623
0.668818 0.909178 0.711452
0.782925 0.880949 0.680934
0.909392 0.884611 0.635126
0.976898 0.847074 0.562951
1.000000 0.792172 0.458503
1.000000 0.757137 0.437018
0.481849 0.970459 0.735409
0.560296 0.963775 0.741360
0.716884 0.945373 0.756435
0.806394 0.928679 0.750454
0.860807 0.916442 0.726009
0.945586 0.922087 0.676173
1.000000 0.894774 0.579400
1.000000 0.840665 0.463569
0.617182 0.985687 0.771206
0.660395 0.980987 0.776791
0.761959 0.968078 0.793545
0.854673 0.953613 0.819333
0.869200 0.947234 0.790127
0.908507 0.944640 0.765621
0.968292 0.947326 0.704982
1.000000 0.922972 0.540002
0.683162 0.997711 0.795651
0.713008 0.994232 0.801114
0.798734 0.983398 0.823514
0.879301 0.972290 0.856535
0.897215 0.968627 0.848264
0.913634 0.963653 0.835264
0.938506 0.964965 0.798825
0.984802 0.965362 0.701747
0.244511 0.235874 0.724788
0.388647 0.244053 0.737331
0.709987 0.299077 0.770657
0.874815 0.403784 0.713497
0.955016 0.519829 0.640497
0.995850 0.575799 0.584314
1.000000 0.604273 0.531060
1.000000 0.513939 0.351690
0.275456 0.368750 0.721736
0.400763 0.385443 0.732479
0.699550 0.452186 0.765164
0.868376 0.517693 0.723323
0.948211 0.581384 0.657557
0.987701 0.626093 0.612390
1.000000 0.624811 0.542626
1.000000 0.529107 0.353704
0.239780 0.568475 0.707424
0.354345 0.575738 0.702693
0.644831 0.638025 0.735195
0.850004 0.694697 0.743496
0.929870 0.702480 0.696834
0.973114 0.722072 0.668574
1.000000 0.696132 0.592706
1.000000 0.588190 0.372473
0.208927 0.797086 0.776333
0.358953 0.797177 0.773953
0.627527 0.797391 0.766476
0.824857 0.801144 0.756008
0.908965 0.801968 0.738125
0.959686 0.793790 0.706844
1.000000 0.765591 0.637995
1.000000 0.673213 0.414343
0.311406 0.944549 0.822843
0.437568 0.938872 0.820859
0.674311 0.920287 0.813901
0.834623 0.889403 0.798062
0.906737 0.884276 0.777920
0.952392 0.863188 0.750393
0.987701 0.836667 0.699031
1.000000 0.777005 0.541344
0.508965 0.973907 0.814694
0.587213 0.967895 0.817441
0.734493 0.950103 0.820279
0.846159 0.931090 0.825925
0.886351 0.916533 0.809903
0.942687 0.923095 0.793545
0.982940 0.904387 0.749783
1.000000 0.860685 0.649561
0.630610 0.986572 0.819242
0.673152 0.982208 0.822782
0.772000 0.970214 0.833341
0.858244 0.957275 0.848051
0.895293 0.948760 0.843748
0.921202 0.943694 0.830838
0.964660 0.947906 0.803067
1.000000 0.929046 0.722957
0.696468 0.997742 0.829770
0.725154 0.994507 0.833890
0.795712 0.985657 0.845975
0.871397 0.974914 0.867094
0.919707 0.967163 0.886564
0.926696 0.964050 0.869627
0.945647 0.964050 0.850462
0.980102 0.965301 0.798398
0.442878 0.426184 0.829862
0.512810 0.443732 0.833402
0.695247 0.499672 0.844022
0.881865 0.597223 0.862943
0.937346 0.642054 0.810819
0.973053 0.701289 0.768704
1.000000 0.704891 0.722774
1.000000 0.731014 0.702815
0.480568 0.518395 0.824857
0.542016 0.532891 0.828885
0.704036 0.575280 0.840238
0.877714 0.651850 0.860685
0.933471 0.682826 0.815640
0.969574 0.726131 0.777035
0.998718 0.725429 0.733516
1.000000 0.749355 0.716426
0.487160 0.637842 0.802365
0.553277 0.653803 0.807889
0.706233 0.693416 0.825345
0.861662 0.749569 0.851316
0.923491 0.769772 0.827970
0.959564 0.782925 0.797055
0.989044 0.775814 0.760891
1.000000 0.764523 0.718227
0.486824 0.753262 0.819577
0.541009 0.756588 0.817288
0.676905 0.768643 0.810239
0.832822 0.810910 0.830106
0.913329 0.840818 0.841367
0.948699 0.837278 0.818936
0.976806 0.835019 0.798032
1.000000 0.785458 0.714992
0.523522 0.871550 0.853330
0.577142 0.871122 0.852537
0.707301 0.870054 0.849546
0.826474 0.872038 0.846098
0.898741 0.875669 0.841886
0.939178 0.875883 0.832609
0.971466 0.868589 0.811460
1.000000 0.833463 0.742367
0.573724 0.959442 0.882170
0.621210 0.955901 0.881224
0.735164 0.946075 0.878447
0.839017 0.937041 0.876402
0.900237 0.921202 0.862974
0.939330 0.920989 0.854704
0.968231 0.910735 0.838437
0.994202 0.886870 0.790616
0.646235 0.987579 0.878080
0.682918 0.983551 0.878233
0.772976 0.972564 0.879362
0.853819 0.960876 0.881346
0.906584 0.951080 0.882811
0.929137 0.942626 0.873045
0.962463 0.947875 0.863340
0.990204 0.934173 0.825376
0.701686 0.997986 0.870085
0.727535 0.995056 0.871885
0.794186 0.986786 0.877775
0.863249 0.977783 0.887602
0.913176 0.969970 0.898100
0.937102 0.965240 0.899016
0.951171 0.963226 0.888792
0.977264 0.965332 0.864652
0.608179 0.595270 0.882383
0.640345 0.603876 0.883421
0.732418 0.629816 0.886870
0.846983 0.678920 0.895384
0.932525 0.727230 0.901884
0.961273 0.753384 0.861814
0.983032 0.789456 0.836576
1.000000 0.778836 0.799893
0.629847 0.638361 0.877836
0.657252 0.644221 0.878965
0.741054 0.665797 0.883482
0.847135 0.706416 0.892515
0.930663 0.750820 0.900908
0.958923 0.770871 0.864134
0.981140 0.800809 0.840543
1.000000 0.789364 0.805264
0.666468 0.720424 0.869169
0.695369 0.729000 0.870970
0.763912 0.745907 0.876738
0.851499 0.775753 0.887572
0.928771 0.814298 0.901915
0.953826 0.820798 0.873991
0.976135 0.835325 0.854826
0.997986 0.822080 0.823545
0.646387 0.772793 0.859709
0.671199 0.776333 0.857877
0.755459 0.795529 0.861448
0.852567 0.831662 0.879179
0.922484 0.864591 0.899748
0.949493 0.870817 0.887358
0.970916 0.872801 0.872465
0.991547 0.859190 0.845701
0.659846 0.840909 0.877653
0.685939 0.842618 0.876890
0.757382 0.848722 0.874235
0.832151 0.858244 0.870237
0.901579 0.881163 0.883513
0.943877 0.899168 0.893187
0.965850 0.895384 0.879911
0.985168 0.889616 0.863035
0.683742 0.908080 0.897337
0.710109 0.908232 0.897398
0.776425 0.908507 0.896513
0.844755 0.910460 0.895384
0.896086 0.913512 0.894133
0.935882 0.917815 0.893553
0.961547 0.918639 0.888365
0.983276 0.910124 0.869047
0.717861 0.970977 0.923369
0.740108 0.970001 0.923888
0.797635 0.964904 0.922179
0.857908 0.959899 0.920317
0.905699 0.957427 0.919585
0.939147 0.948882 0.911223
0.961852 0.948699 0.905303
0.980560 0.940490 0.889982
0.728969 0.995636 0.917632
0.748379 0.993622 0.917937
0.802121 0.987915 0.919280
0.862516 0.980011 0.919982
0.908659 0.973175 0.920745
0.942260 0.967529 0.923491
0.956786 0.963317 0.919188
0.976135 0.966064 0.910369
0.715602 0.698116 0.913664
0.732570 0.703822 0.914519
0.779538 0.716823 0.916136
0.844999 0.740291 0.919707
0.911376 0.773342 0.925658
0.957824 0.794339 0.926604
0.974914 0.810300 0.893278
0.990204 0.830808 0.872984
0.724453 0.717220 0.910307
0.739864 0.721798 0.911223
0.783536 0.733028 0.913207
0.845335 0.753323 0.917052
0.909728 0.783261 0.923369
0.955779 0.802274 0.924895
0.973022 0.815030 0.892699
0.988922 0.833097 0.872709
0.761685 0.776303 0.906950
0.772061 0.778378 0.907530
0.805356 0.785672 0.909636
0.855985 0.801083 0.914214
0.910704 0.823545 0.921324
0.953613 0.841367 0.925780
0.970123 0.848814 0.900908
0.985840 0.860105 0.884916
0.754086 0.808377 0.899870
0.768856 0.812131 0.900420
0.815518 0.827634 0.903685
0.866453 0.846769 0.910552
0.912139 0.864530 0.919249
0.952850 0.884520 0.929046
0.967468 0.885985 0.912047
0.982422 0.888792 0.898711
0.743893 0.842557 0.902098
0.756100 0.844022 0.901091
0.794766 0.850248 0.898497
0.846220 0.862089 0.898283
0.903807 0.885374 0.912047
0.947265 0.907256 0.927214
0.964294 0.910369 0.918822
0.979461 0.910857 0.909209
0.751553 0.887114 0.914580
0.765255 0.888182 0.914305
0.804746 0.891875 0.913390
0.851408 0.897612 0.912261
0.892210 0.903563 0.910063
0.936034 0.920165 0.920195
0.963134 0.933227 0.927794
0.977508 0.930083 0.918791
0.769986 0.932799 0.928923
0.783871 0.933135 0.929107
0.820218 0.934081 0.929046
0.863218 0.936278 0.929290
0.901610 0.939117 0.929229
0.933806 0.942687 0.929442
0.959258 0.946471 0.929992
0.975860 0.946502 0.925780
0.778286 0.977203 0.945434
0.790341 0.976776 0.945617
0.827970 0.975921 0.947021
0.869596 0.975555 0.948638
0.908629 0.972534 0.946807
0.940459 0.971038 0.946471
0.962432 0.966918 0.943236
0.975738 0.966918 0.939574
0.784268 0.764614 0.934539
0.792416 0.767086 0.934905
0.815854 0.771969 0.935454
0.854185 0.783536 0.937255
0.898528 0.799924 0.940124
0.942840 0.821317 0.944366
0.973144 0.828092 0.943542
0.984314 0.836271 0.912322
0.790158 0.775937 0.933074
0.797787 0.778134 0.933471
0.820127 0.782834 0.934264
0.856168 0.792782 0.936065
0.898985 0.808103 0.939147
0.942168 0.828214 0.943603
0.972045 0.833982 0.942962
0.983398 0.840757 0.912810
0.809720 0.809751 0.930419
0.815640 0.811093 0.930785
0.833341 0.813901 0.931518
0.866270 0.824399 0.934356
0.903105 0.836301 0.937713
0.941466 0.852262 0.942443
0.969665 0.858030 0.943023
0.981048 0.861662 0.917540
0.805539 0.830320 0.926970
0.817350 0.835447 0.927581
0.849973 0.850492 0.929259
0.876432 0.858061 0.932158
0.907927 0.868223 0.936278
0.941222 0.881712 0.941802
0.967437 0.889220 0.944518
0.978454 0.889677 0.925414
0.789548 0.851133 0.922454
0.798703 0.853605 0.922332
0.826261 0.860288 0.923613
0.866209 0.872862 0.927825
0.907195 0.890379 0.933684
0.938354 0.902617 0.940154
0.965789 0.915343 0.946563
0.976379 0.915801 0.934081
0.789151 0.880674 0.930724
0.796689 0.881621 0.930297
0.820737 0.885191 0.929168
0.853910 0.891112 0.927764
0.889952 0.899596 0.927031
0.934447 0.920012 0.938445
0.964508 0.937194 0.949218
0.975799 0.940276 0.944457
0.796780 0.915435 0.940978
0.804715 0.916075 0.940826
0.829068 0.918334 0.940429
0.863188 0.922606 0.940307
0.897978 0.928405 0.940337
0.928740 0.935180 0.940520
0.959136 0.948028 0.947662
0.975250 0.955657 0.951141
0.805509 0.949310 0.950652
0.813260 0.949462 0.950561
0.838041 0.950317 0.950652
0.872679 0.952422 0.951141
0.906889 0.955596 0.952026
0.935973 0.959442 0.953277
0.958831 0.963317 0.954742
0.974578 0.966186 0.955566
