data/fiter_cube/49007420/1023423/file.cube
# Created by Adobe Lightroom plugin Export LUT (1.17.0)
# www.johnrellis.com/lightroom/exportlut.htm
# Preset: 07 - 日系情绪-夏 [云集]
# Color profile: C:\Program Files (x86)\Common Files\Adobe\Color\Profiles\Recommended\AdobeRGB1998.icc
LUT_3D_SIZE 32
DOMAIN_MIN 0.0 0.0 0.0
DOMAIN_MAX 1.0 1.0 1.0
0.128542 0.110811 0.085176
0.137758 0.110536 0.085664
0.147402 0.110445 0.086366
0.174777 0.109102 0.088441
0.226230 0.101320 0.089570
0.297856 0.077333 0.088624
0.387457 0.000000 0.084901
0.486854 0.000000 0.077394
0.588464 0.000000 0.065034
0.683284 0.000000 0.035035
0.762661 0.000000 0.000000
0.826719 0.000000 0.000000
0.877562 0.000000 0.000000
0.916411 0.000000 0.000000
0.945617 0.000000 0.000000
0.968170 0.030701 0.000000
0.985901 0.152346 0.023621
1.000000 0.208499 0.072541
1.000000 0.250919 0.099489
1.000000 0.286595 0.124788
1.000000 0.322362 0.153414
1.000000 0.353704 0.181796
1.000000 0.380377 0.207980
1.000000 0.404028 0.233585
1.000000 0.424842 0.257847
1.000000 0.443915 0.281315
1.000000 0.462104 0.304784
1.000000 0.479530 0.328374
1.000000 0.496040 0.351354
1.000000 0.512108 0.374426
1.000000 0.527276 0.396612
1.000000 0.541283 0.417456
0.129274 0.117769 0.087495
0.137026 0.116793 0.085573
0.147127 0.115724 0.086946
0.174319 0.115663 0.088624
0.225254 0.110140 0.089357
0.295750 0.092409 0.088258
0.384588 0.009094 0.084382
0.482612 0.000000 0.076692
0.583673 0.000000 0.064027
0.678889 0.000000 0.030915
0.758358 0.000000 0.000000
0.822904 0.000000 0.000000
0.874113 0.000000 0.000000
0.913542 0.000000 0.000000
0.943206 0.000000 0.000000
0.966094 0.096193 0.000000
0.984131 0.170443 0.010864
0.998657 0.219425 0.067872
1.000000 0.258976 0.096223
1.000000 0.292607 0.122286
1.000000 0.326329 0.150698
1.000000 0.355932 0.178744
1.000000 0.381842 0.205356
1.000000 0.404669 0.230411
1.000000 0.425177 0.254765
1.000000 0.444221 0.278721
1.000000 0.462104 0.302403
1.000000 0.479530 0.325963
1.000000 0.496040 0.349340
1.000000 0.512169 0.372625
1.000000 0.527367 0.395026
1.000000 0.541405 0.416144
0.130343 0.125826 0.090700
0.137453 0.123995 0.089540
0.147097 0.123995 0.086519
0.174594 0.123873 0.088777
0.224033 0.120974 0.089357
0.293858 0.108980 0.088014
0.380957 0.075593 0.083589
0.478340 0.000000 0.075593
0.579217 0.000000 0.061921
0.674372 0.000000 0.022919
0.754482 0.000000 0.000000
0.819516 0.000000 0.000000
0.871366 0.000000 0.000000
0.911223 0.000000 0.000000
0.941222 0.000000 0.000000
0.964477 0.137575 0.000000
0.982696 0.194064 0.000000
0.997375 0.236027 0.063111
1.000000 0.271244 0.093263
1.000000 0.302525 0.120211
1.000000 0.334264 0.149660
1.000000 0.362036 0.177279
1.000000 0.386755 0.203586
1.000000 0.408576 0.229282
1.000000 0.428443 0.253483
1.000000 0.446815 0.277409
1.000000 0.464454 0.301183
1.000000 0.481544 0.324926
1.000000 0.497841 0.348547
1.000000 0.513725 0.371771
1.000000 0.528618 0.394263
1.000000 0.542626 0.415534
0.131411 0.150332 0.099428
0.139193 0.148623 0.095857
0.148653 0.144991 0.093599
0.176303 0.146456 0.086671
0.228519 0.146273 0.086702
0.291722 0.138918 0.086519
0.377600 0.125185 0.081453
0.474220 0.094514 0.071901
0.574060 0.000000 0.052369
0.669429 0.000000 0.001862
0.749569 0.000000 0.000000
0.815152 0.000000 0.000000
0.867216 0.000000 0.000000
0.907591 0.100191 0.000000
0.938201 0.156374 0.000000
0.961822 0.200992 0.000000
0.980407 0.237705 0.000000
0.995361 0.269200 0.052003
1.000000 0.297368 0.088746
1.000000 0.323796 0.117739
1.000000 0.351019 0.147097
1.000000 0.375525 0.174929
1.000000 0.397803 0.201541
1.000000 0.418189 0.227329
1.000000 0.436957 0.252598
1.000000 0.454688 0.277073
1.000000 0.471717 0.301396
1.000000 0.488228 0.325628
1.000000 0.504021 0.349432
1.000000 0.519127 0.372717
1.000000 0.533349 0.394965
1.000000 0.546593 0.415930
0.126070 0.198276 0.113497
0.136355 0.196414 0.108309
0.143282 0.192721 0.097169
0.172946 0.183597 0.095369
0.226017 0.189639 0.080537
0.304967 0.194369 0.073915
0.372930 0.179629 0.075990
0.465675 0.173190 0.063874
0.565026 0.164706 0.023651
0.660090 0.159731 0.000000
0.741115 0.160067 0.000000
0.807462 0.171481 0.000000
0.860716 0.191653 0.000000
0.902220 0.217105 0.000000
0.933776 0.242649 0.000000
0.958190 0.268101 0.000000
0.977478 0.291691 0.000000
0.992889 0.314092 0.023072
1.000000 0.334722 0.083101
1.000000 0.355962 0.115480
1.000000 0.377569 0.145998
1.000000 0.397925 0.174411
1.000000 0.416724 0.201083
1.000000 0.434607 0.227146
1.000000 0.451362 0.252628
1.000000 0.467384 0.277409
1.000000 0.483040 0.302007
1.000000 0.498024 0.326055
1.000000 0.512688 0.350042
1.000000 0.526879 0.373297
1.000000 0.540246 0.395361
1.000000 0.552880 0.416480
0.104005 0.276677 0.133059
0.117769 0.274449 0.125704
0.136263 0.270329 0.116213
0.162356 0.255222 0.095979
0.215091 0.248264 0.089296
0.295750 0.263249 0.056001
0.402472 0.283116 0.000000
0.475288 0.265263 0.000000
0.557183 0.255131 0.000000
0.652308 0.264195 0.000000
0.733700 0.272831 0.000000
0.800839 0.281834 0.000000
0.854673 0.293675 0.000000
0.897063 0.307103 0.000000
0.929381 0.321080 0.000000
0.954467 0.335332 0.000000
0.974243 0.349859 0.000000
0.990082 0.364141 0.000000
1.000000 0.378271 0.076051
1.000000 0.394720 0.114351
1.000000 0.411353 0.146334
1.000000 0.427222 0.175753
1.000000 0.460304 0.224430
1.000000 0.474678 0.250523
1.000000 0.487984 0.275334
1.000000 0.500511 0.298924
1.000000 0.512810 0.322057
1.000000 0.524834 0.344671
1.000000 0.536553 0.366552
1.000000 0.547997 0.388037
1.000000 0.558923 0.408270
1.000000 0.568994 0.427436
0.000000 0.399756 0.160403
0.000000 0.396429 0.150759
0.081239 0.391791 0.137392
0.123415 0.377905 0.094423
0.200229 0.349889 0.089204
0.280888 0.356909 0.057862
0.389990 0.382208 0.000000
0.520897 0.417517 0.000000
0.593713 0.394415 0.000000
0.663783 0.375860 0.000000
0.737301 0.375769 0.000000
0.803433 0.382574 0.000000
0.856321 0.388495 0.000000
0.897581 0.394110 0.000000
0.928985 0.399481 0.000000
0.953368 0.405615 0.000000
0.972808 0.412238 0.000000
0.988586 0.419593 0.000000
1.000000 0.429236 0.077394
1.000000 0.441382 0.119722
1.000000 0.454261 0.154482
1.000000 0.467384 0.186862
1.000000 0.480995 0.217411
1.000000 0.493874 0.246006
1.000000 0.506401 0.273320
1.000000 0.517876 0.298650
1.000000 0.528740 0.322515
1.000000 0.539330 0.345251
1.000000 0.549615 0.367529
1.000000 0.559869 0.389014
1.000000 0.569512 0.409277
1.000000 0.578698 0.428321
0.000000 0.519371 0.194186
0.000000 0.516472 0.183841
0.000000 0.512383 0.169589
0.054963 0.501671 0.134249
0.148592 0.478523 0.062806
0.252140 0.444587 0.079225
0.357092 0.470497 0.000000
0.482277 0.496407 0.000000
0.623713 0.534173 0.000000
0.687160 0.506371 0.000000
0.744045 0.482338 0.000000
0.794003 0.461341 0.000000
0.847929 0.463752 0.000000
0.890257 0.464912 0.000000
0.922637 0.465614 0.000000
0.947845 0.466346 0.000000
0.967956 0.467933 0.000000
0.984497 0.470863 0.000000
0.998962 0.476631 0.071534
1.000000 0.483406 0.118135
1.000000 0.491493 0.154330
1.000000 0.500420 0.187198
1.000000 0.510063 0.217838
1.000000 0.519860 0.246860
1.000000 0.529381 0.274388
1.000000 0.538598 0.299657
1.000000 0.547417 0.323552
1.000000 0.556115 0.346593
1.000000 0.565026 0.368872
1.000000 0.573785 0.390448
1.000000 0.582513 0.411200
1.000000 0.590570 0.430243
0.000000 0.625910 0.239536
0.000000 0.623560 0.229862
0.000000 0.620539 0.216403
0.000000 0.612757 0.187411
0.026642 0.597650 0.096529
0.217288 0.570916 0.063661
0.325170 0.554009 0.033509
0.445655 0.576440 0.000000
0.576074 0.596185 0.000000
0.713313 0.626673 0.000000
0.764187 0.596155 0.000000
0.808804 0.568353 0.000000
0.847562 0.544945 0.000000
0.883543 0.530816 0.000000
0.916533 0.527947 0.000000
0.942382 0.524956 0.000000
0.963287 0.522789 0.000000
0.981048 0.523217 0.000000
0.995453 0.524132 0.069612
1.000000 0.526543 0.119295
1.000000 0.530632 0.156588
1.000000 0.535729 0.189944
1.000000 0.541985 0.221042
1.000000 0.548638 0.249882
1.000000 0.555596 0.277317
1.000000 0.562219 0.302708
1.000000 0.568933 0.326635
1.000000 0.575830 0.349798
1.000000 0.582910 0.371984
1.000000 0.590204 0.393561
1.000000 0.597345 0.413794
1.000000 0.604242 0.432868
0.000000 0.708705 0.289555
0.000000 0.706996 0.281529
0.000000 0.704494 0.270176
0.000000 0.698848 0.245884
0.000000 0.688685 0.195865
0.157198 0.672175 0.093050
0.301396 0.646357 0.100435
0.411261 0.643793 0.015839
0.533288 0.658961 0.000000
0.656550 0.671504 0.000000
0.783505 0.695674 0.000000
0.823453 0.664424 0.000000
0.858091 0.636133 0.000000
0.887602 0.610956 0.000000
0.912016 0.588739 0.000000
0.937621 0.580743 0.000000
0.959899 0.577020 0.000000
0.977600 0.573571 0.000000
0.992065 0.571221 0.075074
1.000000 0.570092 0.124514
1.000000 0.570367 0.161929
1.000000 0.572015 0.194461
1.000000 0.574548 0.224735
1.000000 0.578058 0.253178
1.000000 0.582025 0.279973
1.000000 0.586481 0.305394
1.000000 0.591211 0.329381
1.000000 0.596521 0.352911
1.000000 0.602197 0.375647
1.000000 0.608087 0.397284
1.000000 0.614130 0.417792
1.000000 0.619989 0.437324
0.000000 0.770474 0.338354
0.000000 0.769253 0.332006
0.000000 0.767453 0.323400
0.000000 0.763149 0.305516
0.000000 0.755673 0.280003
0.137270 0.745510 0.190677
0.275517 0.727962 0.154116
0.387213 0.704891 0.155245
0.496834 0.711574 0.087953
0.611994 0.721401 0.000000
0.723934 0.728847 0.000000
0.838621 0.749203 0.000000
0.869383 0.717891 0.000000
0.895903 0.690242 0.000000
0.919005 0.665644 0.000000
0.938262 0.643732 0.000000
0.955383 0.626520 0.000000
0.973083 0.620386 0.000000
0.987701 0.614923 0.081605
1.000000 0.610986 0.130373
1.000000 0.608698 0.167636
1.000000 0.607507 0.200534
1.000000 0.607813 0.230808
1.000000 0.608850 0.259037
1.000000 0.610620 0.285954
1.000000 0.612757 0.310826
1.000000 0.615503 0.334752
1.000000 0.618891 0.357916
1.000000 0.622797 0.380102
1.000000 0.627192 0.401923
1.000000 0.631830 0.422431
1.000000 0.636408 0.441413
0.000000 0.819425 0.385321
0.000000 0.818479 0.381109
0.000000 0.816983 0.374731
0.000000 0.813565 0.362432
0.000000 0.807645 0.344732
0.196628 0.799588 0.299992
0.252415 0.789487 0.218509
0.377020 0.771481 0.216892
0.472175 0.755489 0.208774
0.575830 0.763302 0.148135
0.680262 0.769039 0.000000
0.780209 0.773953 0.000000
0.893889 0.802884 0.000000
0.917998 0.774105 0.000000
0.936919 0.746822 0.000000
0.952514 0.721248 0.000000
0.965789 0.698390 0.000000
0.977173 0.678523 0.040772
0.989166 0.666743 0.127077
1.000000 0.660090 0.164981
1.000000 0.654810 0.197269
1.000000 0.650904 0.226627
1.000000 0.648066 0.254063
1.000000 0.646265 0.280125
1.000000 0.645319 0.304936
1.000000 0.645136 0.328374
1.000000 0.645533 0.350805
1.000000 0.646693 0.372412
1.000000 0.648463 0.393286
1.000000 0.650843 0.413611
1.000000 0.653498 0.432563
1.000000 0.656367 0.450721
0.000000 0.862699 0.435279
0.000000 0.861845 0.432502
0.000000 0.860288 0.427985
0.000000 0.856992 0.419532
0.108888 0.851377 0.407874
0.271824 0.843137 0.396155
0.289860 0.836515 0.320378
0.375036 0.824063 0.287572
0.470314 0.807584 0.284672
0.557214 0.801602 0.267765
0.653162 0.808225 0.220615
0.747860 0.813291 0.148074
0.835294 0.817288 0.000000
0.920378 0.831724 0.000000
0.941131 0.805447 0.000000
0.956023 0.779049 0.000000
0.967956 0.753902 0.000000
0.978302 0.731380 0.000000
0.987488 0.711788 0.107271
0.996002 0.695766 0.175570
1.000000 0.688838 0.206149
1.000000 0.683101 0.234867
1.000000 0.678584 0.261936
1.000000 0.675044 0.287358
1.000000 0.672358 0.311528
1.000000 0.670497 0.334417
1.000000 0.669459 0.356725
1.000000 0.669184 0.378210
1.000000 0.669581 0.398993
1.000000 0.670710 0.418982
1.000000 0.672236 0.438087
1.000000 0.674037 0.456062
0.000000 0.890043 0.473152
0.000000 0.889128 0.470924
0.000000 0.887846 0.468208
0.000000 0.884977 0.462898
0.169772 0.880247 0.456153
0.301640 0.873533 0.451026
0.355383 0.867460 0.416114
0.382422 0.861387 0.355169
0.474495 0.848661 0.353002
0.551629 0.834775 0.351324
0.629847 0.834348 0.326818
0.712947 0.838193 0.283970
0.793515 0.840818 0.224674
0.866911 0.842710 0.124147
0.937407 0.852079 0.000000
0.958099 0.829984 0.000000
0.969940 0.804105 0.000000
0.979492 0.780026 0.000000
0.988006 0.758419 0.003235
0.995880 0.739803 0.148440
1.000000 0.724117 0.207675
1.000000 0.714168 0.245670
1.000000 0.708217 0.271946
1.000000 0.703395 0.297002
1.000000 0.699367 0.320470
1.000000 0.696193 0.343359
1.000000 0.693812 0.365118
1.000000 0.692226 0.386023
1.000000 0.691432 0.406439
1.000000 0.691341 0.426123
1.000000 0.691798 0.445075
1.000000 0.692592 0.462989
0.000000 0.913329 0.510643
0.000000 0.912596 0.509667
0.000000 0.911376 0.508080
0.105959 0.908751 0.505241
0.238987 0.904265 0.502037
0.342260 0.897856 0.500175
0.423957 0.890410 0.494148
0.431952 0.886412 0.440955
0.484962 0.878050 0.415625
0.556451 0.866423 0.413001
0.619135 0.854276 0.410712
0.688899 0.857572 0.380499
0.759457 0.859770 0.340551
0.827573 0.861021 0.286412
0.889738 0.861692 0.208774
0.949493 0.867582 0.023896
0.970764 0.849546 0.000000
0.980682 0.824765 0.000000
0.988952 0.801999 0.000000
0.996246 0.781674 0.111940
1.000000 0.764034 0.186007
1.000000 0.749050 0.239170
1.000000 0.736599 0.283757
1.000000 0.730617 0.307958
1.000000 0.725521 0.331029
1.000000 0.721370 0.353521
1.000000 0.718044 0.375097
1.000000 0.715633 0.396155
1.000000 0.713954 0.416724
1.000000 0.713039 0.436530
1.000000 0.712642 0.455360
1.000000 0.712367 0.472755
0.000000 0.930449 0.543328
0.049714 0.929717 0.543206
0.129549 0.928710 0.542626
0.214176 0.926207 0.541680
0.299992 0.922118 0.541192
0.386511 0.916289 0.542626
0.472358 0.908721 0.547967
0.496376 0.904448 0.519554
0.508293 0.900542 0.475563
0.570245 0.890867 0.472419
0.626429 0.880308 0.468971
0.678920 0.873289 0.459236
0.736751 0.874998 0.428992
0.795712 0.875853 0.389807
0.852750 0.876005 0.337957
0.906004 0.875883 0.267643
0.958007 0.879698 0.165988
0.980346 0.865476 0.052522
0.989380 0.842191 0.000000
0.997040 0.821042 0.040955
1.000000 0.802213 0.162905
1.000000 0.785641 0.223789
1.000000 0.771420 0.272343
1.000000 0.759487 0.315160
1.000000 0.751675 0.345281
1.000000 0.746639 0.367193
1.000000 0.742397 0.388128
1.000000 0.739010 0.408759
1.000000 0.736355 0.428473
1.000000 0.734401 0.447578
1.000000 0.732753 0.465400
1.000000 0.731411 0.481849
0.177951 0.942779 0.571344
0.201450 0.942077 0.571283
0.231113 0.940978 0.571283
0.283879 0.938598 0.571588
0.350561 0.934783 0.572869
0.423987 0.929381 0.576104
0.499275 0.922515 0.582025
0.548119 0.916564 0.576165
0.552026 0.913939 0.539239
0.583520 0.908019 0.518669
0.633417 0.899168 0.515496
0.678920 0.889769 0.512078
0.724422 0.886687 0.497322
0.773709 0.887755 0.468849
0.823575 0.888151 0.431373
0.872160 0.887999 0.382727
0.918700 0.887572 0.318791
0.964752 0.890013 0.232853
0.988312 0.879210 0.154818
0.996796 0.857481 0.100801
1.000000 0.837522 0.130770
1.000000 0.819760 0.204227
1.000000 0.804074 0.257542
1.000000 0.790585 0.303166
1.000000 0.779110 0.343755
1.000000 0.770047 0.380041
1.000000 0.765133 0.400580
1.000000 0.760983 0.420417
1.000000 0.757534 0.439796
1.000000 0.754818 0.458625
1.000000 0.752377 0.475776
1.000000 0.750210 0.491737
0.267979 0.952544 0.597284
0.285832 0.951873 0.597803
0.338231 0.954345 0.609979
0.376379 0.951965 0.611566
0.428565 0.948150 0.614527
0.487739 0.942992 0.618921
0.549248 0.936706 0.624964
0.609735 0.929442 0.632807
0.615137 0.927001 0.607019
0.618708 0.924498 0.574701
0.658625 0.917205 0.570611
0.696498 0.909331 0.566522
0.731411 0.900938 0.561944
0.769345 0.900664 0.542443
0.809567 0.901091 0.515343
0.850431 0.901122 0.480354
0.891417 0.900755 0.434913
0.931701 0.900175 0.375158
0.972351 0.901427 0.297429
0.996551 0.893278 0.224002
1.000000 0.872770 0.176944
1.000000 0.853819 0.191958
1.000000 0.836912 0.249790
1.000000 0.821958 0.296788
1.000000 0.808835 0.338109
1.000000 0.797665 0.375860
1.000000 0.788388 0.410712
1.000000 0.782437 0.434119
1.000000 0.778195 0.452399
1.000000 0.774594 0.470161
1.000000 0.771420 0.486702
1.000000 0.768460 0.501884
0.345342 0.960967 0.623651
0.361486 0.960662 0.625696
0.381384 0.960052 0.628016
0.416968 0.958160 0.631434
0.463661 0.954925 0.635828
0.516045 0.950408 0.641047
0.570672 0.944823 0.647211
0.625116 0.938323 0.654932
0.651209 0.934112 0.647181
0.652155 0.932311 0.620569
0.669917 0.928161 0.603449
0.702937 0.921508 0.599451
0.734188 0.914366 0.595148
0.763638 0.908263 0.588037
0.796811 0.908965 0.567437
0.831540 0.909239 0.541161
0.867247 0.909148 0.507958
0.903410 0.908812 0.465614
0.939757 0.908324 0.409918
0.976715 0.909087 0.337560
1.000000 0.903441 0.263462
1.000000 0.884245 0.216342
1.000000 0.866361 0.232761
1.000000 0.850462 0.283909
1.000000 0.836240 0.328130
1.000000 0.823850 0.367407
1.000000 0.813199 0.403540
1.000000 0.804501 0.437507
1.000000 0.798001 0.465675
1.000000 0.793759 0.482429
1.000000 0.789944 0.498329
1.000000 0.786343 0.512657
0.398657 0.966857 0.643977
0.412634 0.966430 0.646174
0.429267 0.965789 0.648402
0.458900 0.963989 0.651728
0.498939 0.960998 0.656153
0.544091 0.956909 0.661341
0.592584 0.951812 0.667628
0.641260 0.946014 0.675074
0.684260 0.940154 0.681300
0.684382 0.938781 0.659510
0.685054 0.937194 0.634180
0.712734 0.931701 0.629847
0.739895 0.925689 0.625574
0.765713 0.919341 0.621027
0.791501 0.915984 0.610620
0.820127 0.916533 0.590265
0.850370 0.916777 0.565026
0.881834 0.916716 0.533776
0.914244 0.916411 0.493904
0.947112 0.916045 0.442145
0.980896 0.916411 0.373846
1.000000 0.912932 0.298314
1.000000 0.894743 0.248386
1.000000 0.877867 0.271824
1.000000 0.862699 0.317357
1.000000 0.849180 0.358618
1.000000 0.837400 0.396277
1.000000 0.827359 0.430915
1.000000 0.819059 0.463600
1.000000 0.812222 0.493416
1.000000 0.807675 0.509911
1.000000 0.803525 0.523735
0.445655 0.971862 0.663020
0.457221 0.971466 0.664942
0.471595 0.970794 0.667170
0.497047 0.969085 0.670466
0.531456 0.966339 0.674800
0.571344 0.962554 0.679957
0.614099 0.957946 0.686122
0.657740 0.952697 0.693416
0.700832 0.946929 0.702022
0.713741 0.944274 0.692531
0.713588 0.943053 0.671626
0.724483 0.940093 0.657252
0.747677 0.935058 0.653101
0.770291 0.929686 0.648768
0.791897 0.924041 0.644129
0.814847 0.923064 0.631067
0.840299 0.923674 0.612055
0.867216 0.924071 0.588800
0.895384 0.924285 0.560113
0.924681 0.924315 0.523857
0.954589 0.924224 0.476967
0.985534 0.924437 0.413886
1.000000 0.922637 0.335882
1.000000 0.905455 0.281895
1.000000 0.889586 0.316747
1.000000 0.875303 0.358190
1.000000 0.862577 0.396551
1.000000 0.851530 0.432105
1.000000 0.842008 0.464668
1.000000 0.833921 0.494240
1.000000 0.827054 0.521233
1.000000 0.821714 0.539635
0.498146 0.976928 0.684871
0.506554 0.976410 0.686122
0.516899 0.975677 0.687617
0.537285 0.973999 0.690242
0.566308 0.971313 0.694087
0.600824 0.967803 0.699062
0.638636 0.963592 0.705165
0.677943 0.958831 0.712428
0.716945 0.953674 0.720943
0.744228 0.949554 0.723903
0.744076 0.948638 0.707210
0.743771 0.947570 0.687617
0.761654 0.943633 0.682643
0.780545 0.939178 0.678462
0.798947 0.934478 0.673976
0.816800 0.929656 0.669093
0.837034 0.930388 0.653803
0.859037 0.930968 0.635401
0.882567 0.931334 0.613031
0.907530 0.931487 0.585168
0.933654 0.931456 0.550103
0.960845 0.931273 0.504631
0.989197 0.931060 0.443610
1.000000 0.930327 0.361456
1.000000 0.913939 0.309545
1.000000 0.898833 0.351049
1.000000 0.885222 0.389349
1.000000 0.873198 0.425849
1.000000 0.862638 0.459388
1.000000 0.853452 0.489784
1.000000 0.845518 0.517296
1.000000 0.838590 0.542229
0.533898 0.980652 0.700618
0.541375 0.980163 0.701839
0.550500 0.979492 0.703334
0.568688 0.977874 0.706081
0.594232 0.975433 0.709865
0.624872 0.972168 0.714717
0.658595 0.968322 0.720638
0.693904 0.963928 0.727657
0.729427 0.959197 0.735897
0.763119 0.954345 0.745113
0.767544 0.953002 0.734524
0.767025 0.952209 0.718318
0.772976 0.950256 0.705928
0.788998 0.946532 0.702052
0.804837 0.942626 0.697871
0.820523 0.938476 0.693477
0.836332 0.935760 0.686397
0.854337 0.936522 0.671778
0.873960 0.937102 0.654108
0.895048 0.937499 0.632563
0.917540 0.937743 0.605921
0.941314 0.937804 0.572076
0.966369 0.937652 0.528344
0.992706 0.937285 0.468940
1.000000 0.936675 0.380316
1.000000 0.921355 0.343481
1.000000 0.906950 0.382147
1.000000 0.894011 0.417975
1.000000 0.882536 0.452766
1.000000 0.872404 0.483955
1.000000 0.863493 0.512383
1.000000 0.855619 0.537896
0.573846 0.984283 0.718441
0.580407 0.983856 0.719753
0.588525 0.983154 0.721157
0.603906 0.981659 0.723629
0.625940 0.979339 0.727230
0.652522 0.976349 0.731868
0.682429 0.972747 0.737545
0.713588 0.968719 0.744198
0.745083 0.964385 0.751919
0.775143 0.959930 0.760494
0.790738 0.957122 0.760250
0.789456 0.956481 0.746212
0.788235 0.955718 0.730312
0.799222 0.952880 0.724514
0.812100 0.949584 0.720027
0.825132 0.945983 0.715328
0.838224 0.942199 0.710506
0.852262 0.941100 0.700984
0.868315 0.941802 0.686366
0.886015 0.942412 0.668971
0.905211 0.942870 0.648005
0.925719 0.943145 0.621759
0.947601 0.943145 0.588128
0.970947 0.942901 0.543938
0.995789 0.942351 0.483589
1.000000 0.942931 0.396155
1.000000 0.928496 0.378912
1.000000 0.914733 0.414771
1.000000 0.902342 0.447761
1.000000 0.891295 0.479561
1.000000 0.881468 0.508415
1.000000 0.872618 0.534142
0.600610 0.987152 0.731075
0.606439 0.986694 0.732296
0.613886 0.986053 0.733700
0.627710 0.984649 0.736202
0.647669 0.982513 0.739803
0.671992 0.979736 0.744503
0.699428 0.976410 0.750271
0.728115 0.972686 0.756985
0.757198 0.968688 0.764706
0.785153 0.964660 0.773312
0.810727 0.960723 0.782193
0.809598 0.960266 0.770535
0.808438 0.959716 0.757290
0.811276 0.958434 0.746365
0.821958 0.955718 0.742336
0.832853 0.952819 0.737942
0.844022 0.949706 0.733486
0.855375 0.946471 0.729030
0.868040 0.946807 0.717800
0.882322 0.947509 0.703761
0.898039 0.948119 0.686671
0.915190 0.948547 0.665797
0.933776 0.948730 0.639185
0.953857 0.948730 0.605066
0.975616 0.948425 0.560082
0.999268 0.947845 0.498299
1.000000 0.948913 0.405768
1.000000 0.935332 0.414740
1.000000 0.922179 0.447852
1.000000 0.910307 0.477943
1.000000 0.899626 0.506706
1.000000 0.889860 0.532311
0.627070 0.989837 0.743740
0.632502 0.989380 0.744930
0.638697 0.988769 0.746181
0.650965 0.987427 0.748531
0.668727 0.985412 0.751949
0.690730 0.982788 0.756527
0.715541 0.979706 0.762203
0.742031 0.976257 0.768887
0.768795 0.972595 0.776547
0.794583 0.968872 0.784970
0.818936 0.965209 0.794095
0.827512 0.963561 0.791928
0.826352 0.963195 0.780728
0.825101 0.962737 0.768002
0.831876 0.960845 0.762356
0.840818 0.958465 0.758206
0.850126 0.955901 0.753841
0.859709 0.953216 0.749416
0.869718 0.951049 0.743923
0.881102 0.951843 0.732174
0.893858 0.952514 0.718013
0.907958 0.953094 0.700893
0.923430 0.953460 0.679377
0.940459 0.953643 0.652186
0.959167 0.953582 0.616938
0.979767 0.953216 0.569818
1.000000 0.952605 0.504814
1.000000 0.953338 0.432013
1.000000 0.941222 0.446632
1.000000 0.928649 0.476692
1.000000 0.917052 0.503716
1.000000 0.906462 0.528893
0.648798 0.992248 0.754543
0.653315 0.991791 0.755581
0.659113 0.991211 0.756771
0.670436 0.989960 0.759182
0.687343 0.988067 0.762875
0.708248 0.985626 0.767849
0.732143 0.982727 0.774014
0.757473 0.979553 0.781399
0.783169 0.976226 0.789761
0.807950 0.972869 0.798947
0.831174 0.969604 0.808743
0.848478 0.967010 0.815427
0.847868 0.966857 0.806699
0.846983 0.966613 0.796628
0.848142 0.965942 0.787564
0.854948 0.964141 0.783780
0.862150 0.962158 0.779660
0.869688 0.960082 0.775357
0.877623 0.957855 0.771054
0.886107 0.956970 0.764004
0.895750 0.957733 0.752285
0.906615 0.958373 0.738064
0.918761 0.958862 0.720485
0.932403 0.959197 0.698451
0.947692 0.959289 0.670192
0.964935 0.959167 0.633204
0.984466 0.958801 0.582757
1.000000 0.958129 0.511101
1.000000 0.958312 0.475441
1.000000 0.947448 0.482826
1.000000 0.935149 0.508232
1.000000 0.923766 0.531304
0.677028 0.994507 0.768399
0.680995 0.994110 0.769314
0.685969 0.993530 0.770504
0.696223 0.992340 0.772854
0.711360 0.990539 0.776516
0.730159 0.988220 0.781369
0.751522 0.985534 0.787411
0.774228 0.982574 0.794491
0.797208 0.979461 0.802457
0.819699 0.976287 0.811246
0.840757 0.973236 0.820493
0.859831 0.970367 0.829740
0.863218 0.969635 0.825925
0.862089 0.969451 0.817136
