data/fiter_cube/49007420/1023423/file.cube
# Created by Adobe Lightroom plugin Export LUT (1.17.0)
# www.johnrellis.com/lightroom/exportlut.htm
# Preset: 07 - 日系情绪-夏 [云集]
# Color profile: C:\Program Files (x86)\Common Files\Adobe\Color\Profiles\Recommended\AdobeRGB1998.icc
LUT_3D_SIZE 5
DOMAIN_MIN 0.000000 0.000000 0.000000
DOMAIN_MAX 0.903226 0.903226 0.903226
0.128542 0.110811 0.085176
0.486854 0.000000 0.077394
0.945617 0.000000 0.000000
1.000000 0.353704 0.181796
1.000000 0.496040 0.351354
0.000000 0.519371 0.194186
0.482277 0.496407 0.000000
0.922637 0.465614 0.000000
1.000000 0.500420 0.187198
1.000000 0.565026 0.368872
0.000000 0.913329 0.510643
0.431952 0.886412 0.440955
0.889738 0.861692 0.208774
1.000000 0.749050 0.239170
1.000000 0.713954 0.416724
0.498146 0.976928 0.684871
0.677943 0.958831 0.712428
0.798947 0.934478 0.673976
0.960845 0.931273 0.504631
1.000000 0.862638 0.459388
0.693385 0.996551 0.777127
0.785885 0.985107 0.804196
0.870146 0.971344 0.822049
0.905058 0.964813 0.784634
0.992126 0.966064 0.562707
0.139162 0.136873 0.383337
0.532158 0.000000 0.390173
0.935821 0.253300 0.249119
1.000000 0.429633 0.172793
1.000000 0.507012 0.346685
0.000000 0.486061 0.499153
0.511315 0.500999 0.462287
0.914366 0.531579 0.344945
1.000000 0.537041 0.180819
1.000000 0.568414 0.360388
0.000000 0.919585 0.656153
0.564172 0.884062 0.647333
0.878477 0.854246 0.549462
0.996368 0.762020 0.407507
1.000000 0.715175 0.415045
0.535088 0.975219 0.736110
0.701686 0.957610 0.756161
0.832059 0.932372 0.743343
0.954284 0.930358 0.657191
1.000000 0.861906 0.459815
0.688991 0.997467 0.792325
0.783078 0.985962 0.815946
0.894560 0.969604 0.856352
0.916320 0.963684 0.821927
0.986358 0.965759 0.678035
0.348608 0.328038 0.788907
0.626581 0.388586 0.807950
0.914824 0.546502 0.771023
0.992981 0.640070 0.673030
1.000000 0.621576 0.542779
0.381628 0.563745 0.760159
0.626795 0.619898 0.788022
0.901030 0.708248 0.790463
0.978698 0.723995 0.713039
1.000000 0.658198 0.555566
0.392920 0.842527 0.821683
0.615961 0.840909 0.816648
0.869993 0.845487 0.806302
0.955718 0.842069 0.778653
1.000000 0.770260 0.626215
0.557885 0.978546 0.853330
0.710506 0.961791 0.852110
0.880644 0.934142 0.853178
0.947875 0.930053 0.832212
1.000000 0.888518 0.742947
0.696040 0.997925 0.848051
0.775875 0.988617 0.857908
0.894255 0.972045 0.883330
0.934905 0.963195 0.881621
0.978332 0.965057 0.833463
0.635401 0.621790 0.890379
0.718929 0.645045 0.893462
0.889982 0.719600 0.906371
0.965057 0.769711 0.870451
1.000000 0.792386 0.820737
0.688289 0.718685 0.881926
0.749569 0.732113 0.885893
0.889158 0.783505 0.901732
0.959686 0.816159 0.878630
0.996094 0.821927 0.835203
0.671839 0.805997 0.873930
0.738582 0.815244 0.870176
0.878202 0.857572 0.886656
0.950561 0.885252 0.894133
0.986481 0.878019 0.865446
0.714778 0.915770 0.907103
0.773678 0.915557 0.905882
0.874571 0.919219 0.904601
0.942596 0.925811 0.903655
0.980407 0.920684 0.885801
0.743496 0.992645 0.927459
0.796170 0.987213 0.927825
0.888487 0.977142 0.929015
0.948516 0.967376 0.929503
0.975952 0.966217 0.918791
0.784268 0.764614 0.934539
0.808316 0.770199 0.935210
0.876097 0.791257 0.938567
0.953002 0.827024 0.945495
0.984314 0.836271 0.912322
0.805417 0.801358 0.931426
0.824949 0.805417 0.932372
0.882475 0.821836 0.936431
0.951507 0.850919 0.944335
0.981781 0.856474 0.916503
0.796719 0.839384 0.924224
0.825528 0.848020 0.925811
0.891844 0.874144 0.932250
0.947265 0.895048 0.942229
0.977264 0.902586 0.929412
0.793606 0.890257 0.933837
0.818051 0.893492 0.932921
0.875273 0.903380 0.930968
0.940856 0.927153 0.940246
0.975708 0.944976 0.946563
0.805509 0.949310 0.950652
0.830442 0.950011 0.950591
0.890288 0.953918 0.951568
0.942321 0.960418 0.953613
0.974578 0.966186 0.955566
