data/fiter_cube/89350833/1022877/file.cube
# Created by Adobe Lightroom plugin Export LUT (1.24.0)
# www.johnrellis.com/lightroom/exportlut.htm
# Preset: 婚礼接亲预设[余晖]-7 晨间化妆1
# Color profile: C:\Windows\System32\Spool\Drivers\Color\AppleRGB.icc
LUT_3D_SIZE 32
DOMAIN_MIN 0.0 0.0 0.0
DOMAIN_MAX 1.0 1.0 1.0
0.055116 0.108461 0.126741
0.055116 0.108461 0.126741
0.058198 0.108309 0.126741
0.064698 0.107698 0.126833
0.074006 0.107301 0.126741
0.086366 0.106783 0.126680
0.101137 0.106142 0.126589
0.119417 0.105104 0.126497
0.142245 0.103456 0.126314
0.170962 0.101015 0.125948
0.206790 0.096590 0.125338
0.251316 0.089723 0.124636
0.303502 0.078828 0.123507
0.362524 0.061433 0.122133
0.426520 0.030457 0.120424
0.493751 0.000000 0.118227
0.562707 0.000000 0.115633
0.628290 0.000000 0.112673
0.690578 0.000000 0.109041
0.749355 0.000000 0.105196
0.819852 0.000000 0.099397
0.893645 0.000000 0.091463
0.950042 0.000000 0.084108
0.993896 0.000000 0.077150
1.000000 0.000000 0.070710
1.000000 0.000000 0.064576
1.000000 0.000000 0.058869
1.000000 0.000000 0.052979
1.000000 0.000000 0.046998
1.000000 0.000000 0.040833
1.000000 0.000000 0.034546
1.000000 0.000000 0.028107
0.055116 0.108461 0.126741
0.055116 0.108461 0.126741
0.058259 0.108553 0.126802
0.064546 0.108553 0.126925
0.074006 0.108248 0.126925
0.086305 0.107881 0.126864
0.101534 0.107393 0.126711
0.120363 0.106538 0.126589
0.144076 0.104982 0.126253
0.173434 0.102358 0.125887
0.209995 0.098207 0.125307
0.254948 0.091524 0.124422
0.307439 0.080934 0.123354
0.366217 0.064576 0.121920
0.429358 0.036774 0.120150
0.495979 0.000000 0.117922
0.563470 0.000000 0.115328
0.628199 0.000000 0.112215
0.689509 0.000000 0.108827
0.747097 0.000000 0.104891
0.818112 0.000000 0.098878
0.886931 0.000000 0.091676
0.940459 0.000000 0.084596
0.983062 0.000000 0.078035
1.000000 0.000000 0.071901
1.000000 0.000000 0.066133
1.000000 0.000000 0.060365
1.000000 0.000000 0.054597
1.000000 0.000000 0.048646
1.000000 0.000000 0.042603
1.000000 0.000000 0.036194
1.000000 0.000000 0.029541
0.055482 0.109712 0.127504
0.055756 0.109682 0.127626
0.057404 0.110658 0.126833
0.063569 0.110780 0.127138
0.072053 0.111055 0.127687
0.086091 0.111116 0.127443
0.103700 0.110780 0.127108
0.125216 0.110048 0.126894
0.152071 0.108644 0.126436
0.185519 0.106233 0.125887
0.226627 0.101991 0.125063
0.275486 0.095003 0.123934
0.331609 0.084138 0.122560
0.392462 0.067536 0.120974
0.456641 0.040558 0.118837
0.522942 0.000000 0.116365
0.587579 0.000000 0.113436
0.649622 0.000000 0.110140
0.707454 0.000000 0.106447
0.762905 0.000000 0.102388
0.837064 0.000000 0.095338
0.899168 0.000000 0.088045
0.947906 0.000000 0.081178
0.987060 0.000000 0.074830
1.000000 0.000000 0.069001
1.000000 0.000000 0.063233
1.000000 0.000000 0.057649
1.000000 0.000000 0.052033
1.000000 0.000000 0.046143
1.000000 0.000000 0.040101
1.000000 0.000000 0.033478
1.000000 0.000000 0.026825
0.056245 0.111971 0.128756
0.056947 0.111757 0.128878
0.057923 0.111543 0.129000
0.062379 0.114443 0.126497
0.074525 0.115450 0.125948
0.086854 0.115785 0.127352
0.105562 0.116945 0.128878
0.131930 0.117006 0.128115
0.164736 0.116152 0.127260
0.204746 0.114015 0.126131
0.252903 0.109957 0.124880
0.308049 0.102785 0.123323
0.369207 0.091768 0.121462
0.433509 0.075837 0.119142
0.498817 0.052949 0.116548
0.563378 0.004059 0.113558
0.624598 0.000000 0.110292
0.681605 0.000000 0.106722
0.734768 0.000000 0.102785
0.794919 0.000000 0.097292
0.859312 0.000000 0.090364
0.912596 0.000000 0.083192
0.956512 0.000000 0.076509
0.993286 0.000000 0.069886
1.000000 0.000000 0.063783
1.000000 0.000000 0.057954
1.000000 0.000000 0.052003
1.000000 0.000000 0.045991
1.000000 0.000000 0.040101
1.000000 0.000000 0.034119
1.000000 0.000000 0.027955
1.000000 0.000000 0.021942
0.057832 0.115541 0.130678
0.058595 0.115236 0.130831
0.060914 0.114412 0.131533
0.060700 0.116030 0.129732
0.069398 0.119905 0.126406
0.085145 0.121736 0.125093
0.105806 0.123079 0.125917
0.133150 0.125002 0.127871
0.172854 0.127657 0.130587
0.220493 0.126772 0.128542
0.276432 0.123476 0.126314
0.338994 0.117494 0.123873
0.406439 0.108064 0.120912
0.476448 0.095033 0.117586
0.545892 0.078645 0.113863
0.610742 0.058839 0.109865
0.670069 0.033234 0.105776
0.724117 0.000000 0.101381
0.776974 0.000000 0.096529
0.839811 0.000000 0.089357
0.892668 0.000000 0.082094
0.937041 0.000000 0.075196
0.974609 0.000000 0.068421
1.000000 0.000000 0.062226
1.000000 0.000000 0.056092
1.000000 0.000000 0.050385
1.000000 0.000000 0.044556
1.000000 0.000000 0.038697
1.000000 0.000000 0.033143
1.000000 0.000000 0.027527
1.000000 0.000000 0.021668
1.000000 0.000000 0.015869
0.059907 0.121370 0.133761
0.060945 0.121065 0.133883
0.063813 0.119875 0.134524
0.066560 0.118318 0.135836
0.066194 0.123079 0.130556
0.079164 0.128145 0.125948
0.096956 0.129427 0.124117
0.130190 0.134157 0.123751
0.170840 0.137667 0.125216
0.230350 0.142031 0.128176
0.309178 0.145327 0.132265
0.380591 0.140444 0.127871
0.454231 0.132509 0.123171
0.527581 0.122866 0.118257
0.596704 0.112337 0.113008
0.659693 0.102205 0.107668
0.716365 0.092500 0.102235
0.769314 0.085206 0.096376
0.831266 0.083894 0.088533
0.884154 0.086427 0.080262
0.928985 0.090822 0.072206
0.967224 0.095369 0.064637
1.000000 0.150362 0.039429
1.000000 0.151400 0.033692
1.000000 0.150484 0.029114
1.000000 0.148989 0.024903
1.000000 0.147097 0.020966
1.000000 0.145205 0.017731
1.000000 0.142885 0.015167
1.000000 0.141238 0.011810
1.000000 0.139498 0.011719
1.000000 0.137667 0.012360
0.063996 0.134249 0.140139
0.065827 0.133577 0.140322
0.069856 0.131746 0.140932
0.075105 0.128939 0.142702
0.074830 0.129274 0.141115
0.077943 0.137057 0.131472
0.097902 0.143557 0.124483
0.116884 0.142245 0.122011
0.172763 0.154330 0.119173
0.240452 0.162417 0.118929
0.332830 0.170260 0.120150
0.446815 0.177920 0.124819
0.561334 0.185733 0.132082
0.630945 0.179507 0.122866
0.691615 0.172915 0.114626
0.744778 0.167514 0.106722
0.798489 0.164584 0.098848
0.858701 0.168429 0.089540
0.908080 0.172793 0.080751
0.951080 0.177829 0.072267
0.989593 0.184360 0.063752
1.000000 0.191501 0.055482
1.000000 0.198703 0.047517
1.000000 0.204837 0.040467
1.000000 0.209384 0.034028
1.000000 0.208103 0.030732
1.000000 0.204898 0.028351
1.000000 0.201114 0.026703
1.000000 0.197665 0.025666
1.000000 0.194369 0.025483
1.000000 0.191318 0.025574
1.000000 0.188571 0.027100
0.068391 0.147921 0.146761
0.070649 0.147250 0.146914
0.074983 0.144869 0.147158
0.082582 0.141238 0.149264
0.087861 0.137179 0.151827
0.082795 0.142489 0.143160
0.091249 0.151400 0.131167
0.115816 0.158328 0.122744
0.137881 0.156527 0.119417
0.202518 0.171756 0.114534
0.287144 0.184756 0.111452
0.394385 0.196933 0.109682
0.515770 0.209445 0.111025
0.631891 0.225681 0.120027
0.724056 0.242954 0.134524
0.786252 0.242679 0.122774
0.842832 0.244144 0.112001
0.888701 0.244053 0.102388
0.928222 0.244358 0.093538
0.964141 0.245548 0.085542
0.996948 0.247898 0.078248
1.000000 0.251835 0.071717
1.000000 0.255558 0.066102
1.000000 0.258701 0.061128
1.000000 0.261143 0.056611
1.000000 0.261845 0.051850
1.000000 0.261357 0.047669
1.000000 0.256107 0.046174
1.000000 0.251133 0.045258
1.000000 0.246128 0.044770
1.000000 0.242039 0.045441
1.000000 0.237797 0.046509
0.074098 0.166232 0.155215
0.076967 0.165469 0.155581
0.082246 0.162509 0.155550
0.091035 0.158053 0.157565
0.099184 0.152743 0.160464
0.103426 0.147768 0.162997
0.094514 0.159792 0.144381
0.108583 0.169497 0.130190
0.137636 0.176333 0.120089
0.164004 0.174350 0.115663
0.224704 0.187137 0.110353
0.333379 0.210086 0.101625
0.452522 0.227939 0.095399
0.583856 0.249668 0.091341
0.706752 0.277440 0.097536
0.804807 0.309087 0.122866
0.873136 0.337255 0.158480
0.911162 0.331212 0.144198
0.944945 0.326085 0.131991
0.976196 0.322606 0.122133
1.000000 0.321019 0.114229
1.000000 0.320989 0.108125
1.000000 0.321477 0.103304
1.000000 0.321538 0.099031
1.000000 0.320867 0.094881
1.000000 0.318395 0.089937
1.000000 0.315770 0.084901
1.000000 0.312871 0.079988
1.000000 0.308263 0.076600
1.000000 0.301335 0.075013
1.000000 0.295201 0.074311
1.000000 0.289769 0.074586
0.081025 0.190646 0.165957
0.084901 0.189548 0.166354
0.091066 0.185916 0.166293
0.101076 0.180270 0.167819
0.112245 0.173251 0.171054
0.120302 0.165835 0.174807
0.113863 0.168032 0.166415
0.110323 0.181125 0.144533
0.130251 0.191226 0.127901
0.163729 0.197787 0.115938
0.193698 0.195346 0.110353
0.247929 0.203403 0.105379
0.388830 0.241794 0.086885
0.529351 0.272679 0.069520
0.660670 0.303868 0.056458
0.769528 0.333867 0.062989
0.854734 0.363989 0.098421
0.915648 0.396094 0.158083
0.956237 0.424262 0.214664
0.984466 0.415198 0.198489
1.000000 0.407263 0.185092
1.000000 0.400732 0.174319
1.000000 0.394690 0.164797
1.000000 0.388830 0.156039
1.000000 0.383276 0.148257
1.000000 0.377020 0.140078
1.000000 0.371405 0.132631
1.000000 0.366400 0.126192
1.000000 0.362280 0.120363
1.000000 0.358251 0.115724
1.000000 0.351293 0.113771
1.000000 0.344366 0.112520
0.089662 0.218784 0.178195
0.094270 0.217838 0.178866
0.101656 0.213626 0.178592
0.112215 0.207553 0.179599
0.127077 0.199405 0.183474
0.138888 0.190463 0.188083
0.146883 0.181521 0.193454
0.129152 0.194156 0.169162
0.132387 0.208133 0.143465
0.160525 0.220493 0.123720
0.202121 0.228824 0.108644
0.240299 0.227512 0.100404
0.278111 0.223911 0.098085
0.442267 0.276585 0.066072
0.584253 0.314763 0.029725
0.706477 0.349096 0.000000
0.806912 0.379675 0.000000
0.882811 0.406165 0.063813
0.937926 0.433906 0.134554
0.975677 0.466560 0.216709
0.999664 0.495338 0.285924
1.000000 0.484413 0.268009
1.000000 0.473976 0.252232
1.000000 0.464363 0.238193
1.000000 0.454627 0.224765
1.000000 0.445350 0.212131
1.000000 0.436072 0.200198
1.000000 0.427985 0.189670
1.000000 0.420722 0.180392
1.000000 0.414862 0.172976
1.000000 0.409857 0.166659
1.000000 0.402136 0.162661
0.103029 0.255497 0.194797
0.108705 0.254582 0.195621
0.117250 0.249943 0.195224
0.128420 0.243137 0.195682
0.146365 0.233738 0.199985
0.161990 0.223209 0.205325
0.175875 0.213535 0.212589
0.177523 0.210941 0.212406
0.157198 0.233982 0.173312
0.169772 0.251164 0.141238
0.205173 0.262364 0.115663
0.250492 0.267430 0.096803
0.347570 0.300725 0.065736
0.358160 0.273075 0.074434
0.564843 0.356359 0.000000
0.714137 0.412879 0.000000
0.822110 0.450416 0.000000
0.899992 0.475105 0.000000
0.955444 0.494911 0.031861
0.993225 0.516472 0.152712
1.000000 0.543603 0.255833
1.000000 0.578149 0.359808
1.000000 0.603754 0.428504
1.000000 0.585992 0.401770
1.000000 0.568933 0.376684
1.000000 0.552117 0.352392
1.000000 0.536187 0.329717
1.000000 0.521782 0.309239
1.000000 0.508537 0.290715
1.000000 0.497169 0.275151
1.000000 0.487037 0.261326
1.000000 0.478370 0.249729
0.136873 0.324102 0.228672
0.144961 0.323766 0.230320
0.155520 0.319310 0.230472
0.170657 0.312169 0.231479
0.192844 0.302190 0.236759
0.216312 0.289525 0.244572
0.236027 0.276127 0.253880
0.250553 0.262089 0.264225
0.227909 0.274144 0.235660
0.211063 0.300053 0.180789
0.233280 0.318578 0.135317
0.279850 0.330175 0.097749
0.334600 0.333806 0.066835
0.384466 0.329107 0.044526
0.368902 0.284733 0.067842
0.563439 0.366796 0.000000
0.720699 0.433631 0.000000
0.826596 0.472908 0.000000
0.903532 0.498116 0.000000
0.958953 0.516381 0.000000
0.997284 0.534417 0.109773
1.000000 0.556420 0.217716
1.000000 0.584283 0.321294
1.000000 0.616938 0.417762
1.000000 0.639704 0.478584
1.000000 0.622065 0.451606
1.000000 0.604791 0.425849
1.000000 0.588678 0.401831
1.000000 0.573816 0.380041
1.000000 0.560632 0.361028
1.000000 0.548486 0.343450
1.000000 0.537713 0.328008
0.178927 0.390967 0.265721
0.186770 0.390173 0.267430
0.196841 0.383032 0.266117
0.210758 0.372961 0.265537
0.230259 0.359564 0.267918
0.254520 0.343114 0.274540
0.275517 0.325963 0.282750
0.291997 0.308629 0.292271
0.303838 0.291966 0.303532
0.257939 0.321569 0.239384
0.250187 0.345434 0.178195
0.278172 0.361425 0.126040
0.326329 0.369512 0.081147
0.378332 0.368872 0.040742
0.423774 0.360204 0.000000
0.408362 0.313420 0.046754
0.561181 0.375006 0.000000
0.724758 0.450935 0.000000
0.829923 0.492897 0.000000
0.906218 0.519066 0.000000
0.961730 0.536706 0.000000
1.000000 0.552209 0.053437
1.000000 0.569848 0.177615
1.000000 0.592767 0.284062
1.000000 0.620264 0.382025
1.000000 0.649958 0.468086
1.000000 0.670436 0.522637
1.000000 0.653590 0.496468
1.000000 0.637995 0.472480
1.000000 0.623407 0.450385
1.000000 0.610285 0.430671
1.000000 0.598322 0.413062
0.224125 0.451118 0.303532
0.232731 0.450355 0.305669
0.241978 0.442786 0.303746
0.254124 0.431495 0.301762
0.269383 0.416785 0.300969
0.293614 0.398230 0.306676
0.315618 0.379004 0.314031
0.334142 0.359655 0.322972
0.348791 0.341070 0.333837
0.334905 0.341100 0.317327
0.294438 0.372198 0.242283
0.295995 0.394415 0.174533
0.328771 0.407782 0.113832
0.376532 0.411780 0.057313
0.424994 0.406836 0.000000
0.464851 0.393774 0.000000
0.451514 0.346197 0.000000
0.563256 0.385199 0.000000
0.731563 0.469337 0.000000
0.836088 0.514092 0.000000
0.910735 0.540581 0.000000
0.965270 0.557092 0.000000
1.000000 0.569940 0.000000
1.000000 0.584131 0.135836
1.000000 0.602472 0.246036
1.000000 0.625971 0.347662
1.000000 0.652735 0.437964
1.000000 0.680659 0.516014
1.000000 0.700465 0.566888
1.000000 0.687098 0.545739
1.000000 0.674464 0.526055
1.000000 0.662531 0.507683
0.278172 0.507500 0.345769
0.287541 0.507774 0.348821
0.296941 0.501884 0.347814
0.308904 0.492439 0.346349
0.322789 0.479805 0.345312
0.346441 0.463539 0.350652
0.370459 0.445808 0.358618
0.391974 0.427283 0.368383
0.409888 0.408087 0.379644
0.422889 0.388495 0.392157
0.379492 0.408148 0.334630
0.346319 0.433845 0.249790
0.350591 0.448951 0.170932
0.381231 0.454383 0.098817
0.423438 0.451453 0.014832
0.465492 0.440925 0.000000
0.501213 0.425025 0.000000
0.492592 0.379217 0.000000
0.566522 0.395392 0.000000
0.734279 0.483742 0.000000
0.845640 0.537102 0.000000
0.919158 0.564416 0.000000
0.972107 0.580133 0.000000
1.000000 0.591302 0.000000
1.000000 0.602716 0.094484
1.000000 0.617670 0.215702
1.000000 0.637690 0.321599
1.000000 0.661280 0.415106
1.000000 0.686763 0.496803
1.000000 0.712490 0.566766
1.000000 0.730068 0.611078
1.000000 0.717952 0.591943
0.331792 0.555688 0.387213
0.339208 0.554772 0.389380
0.346441 0.548974 0.388006
0.356237 0.539818 0.385840
0.368383 0.528008 0.384253
0.387579 0.513115 0.387304
0.410559 0.496315 0.394598
0.431678 0.478584 0.403265
0.450050 0.460243 0.413458
0.464424 0.441352 0.424689
0.466987 0.426886 0.427985
0.409186 0.458228 0.338567
0.385046 0.479042 0.249149
0.393439 0.489570 0.164157
0.423529 0.491066 0.082094
0.462745 0.484810 0.000000
0.501610 0.472511 0.000000
0.534966 0.455604 0.000000
0.532189 0.413184 0.000000
0.568627 0.404181 0.000000
0.735531 0.495949 0.000000
0.851682 0.556298 0.000000
0.923613 0.583764 0.000000
0.976043 0.599115 0.000000
1.000000 0.608911 0.000000
1.000000 0.618189 0.006317
1.000000 0.630274 0.177188
1.000000 0.646967 0.288212
1.000000 0.668116 0.387518
1.000000 0.691157 0.472602
1.000000 0.715297 0.546715
1.000000 0.737911 0.606806
0.385840 0.603204 0.431342
0.393988 0.603815 0.434821
0.458808 0.647150 0.483864
0.466163 0.639368 0.481514
0.475166 0.628748 0.479194
0.487892 0.614954 0.478889
0.506004 0.598260 0.483406
0.523308 0.580377 0.489235
0.538872 0.561303 0.496284
0.551873 0.541405 0.504540
0.561151 0.520897 0.513695
0.532860 0.523644 0.475807
0.483070 0.545678 0.378058
0.461158 0.558801 0.272618
0.468544 0.562524 0.169406
0.495399 0.558099 0.058412
0.530266 0.546960 0.000000
0.565240 0.530785 0.000000
0.595331 0.510582 0.000000
0.595819 0.468360 0.000000
0.596155 0.431403 0.000000
0.758602 0.525811 0.000000
0.871977 0.587945 0.000000
0.938506 0.612390 0.000000
0.986999 0.624659 0.000000
1.000000 0.631556 0.000000
1.000000 0.637720 0.000000
1.000000 0.646448 0.142977
1.000000 0.659846 0.260533
1.000000 0.678065 0.363989
1.000000 0.699001 0.453864
1.000000 0.720943 0.530266
0.455238 0.660883 0.490822
0.466011 0.664088 0.497292
0.477333 0.664240 0.501396
0.488441 0.660883 0.503349
0.499977 0.654597 0.504326
0.510704 0.644434 0.503960
0.528252 0.630610 0.508659
0.544579 0.614679 0.513725
0.559991 0.597650 0.520134
0.573449 0.579675 0.527550
0.584253 0.561120 0.535973
0.591211 0.541253 0.544732
0.540917 0.559747 0.469612
0.500908 0.577417 0.371832
0.485939 0.586786 0.264439
0.496498 0.588006 0.158572
0.523430 0.582330 0.028779
0.557488 0.571252 0.000000
0.591547 0.556023 0.000000
0.621637 0.537377 0.000000
0.627771 0.499947 0.000000
0.611688 0.449561 0.000000
0.759518 0.535973 0.000000
0.872557 0.600336 0.000000
0.941772 0.628382 0.000000
0.989807 0.640528 0.000000
1.000000 0.646693 0.000000
1.000000 0.651637 0.000000
1.000000 0.658442 0.090455
1.000000 0.669154 0.221714
1.000000 0.684657 0.330999
1.000000 0.702937 0.424048
0.489235 0.686824 0.520500
0.498848 0.689479 0.526482
0.508812 0.689540 0.530297
0.518914 0.687007 0.532555
0.529351 0.681880 0.533806
0.538994 0.673579 0.533654
0.553582 0.662043 0.536889
0.568597 0.648493 0.541436
0.583490 0.633936 0.547204
0.596399 0.618097 0.553613
0.607660 0.601404 0.561028
0.615900 0.583124 0.568750
0.604089 0.574670 0.553491
0.553735 0.595117 0.466438
0.521294 0.608728 0.366583
0.512261 0.615198 0.258640
0.525139 0.614557 0.148684
0.552178 0.608148 0.000000
0.585290 0.596979 0.000000
0.618647 0.582635 0.000000
0.648493 0.564904 0.000000
0.659937 0.533043 0.000000
0.647333 0.484443 0.000000
0.762203 0.546990 0.000000
0.873320 0.611963 0.000000
0.945281 0.643824 0.000000
0.992676 0.655879 0.000000
1.000000 0.661616 0.000000
1.000000 0.665522 0.000000
1.000000 0.670741 0.000000
1.000000 0.679133 0.180026
1.000000 0.691859 0.295537
0.525292 0.712551 0.552544
0.534447 0.714961 0.558434
0.543572 0.715297 0.562371
0.552728 0.713375 0.564904
0.561852 0.708980 0.566125
0.570123 0.701839 0.565759
0.581140 0.692134 0.567346
0.594263 0.680140 0.570825
0.607141 0.667018 0.575158
0.618952 0.652552 0.580102
0.629297 0.637324 0.585840
0.637690 0.620813 0.592065
0.643122 0.602899 0.598291
0.610437 0.610071 0.550866
0.568078 0.626978 0.463325
0.543572 0.638544 0.364141
0.541039 0.644831 0.255619
0.558190 0.645411 0.142031
0.587976 0.641627 0.000000
0.623438 0.634028 0.000000
0.659327 0.623438 0.000000
0.692103 0.609674 0.000000
0.710475 0.584222 0.000000
0.703456 0.538781 0.000000
0.786374 0.577447 0.000000
0.891325 0.639796 0.000000
0.962310 0.671962 0.000000
1.000000 0.682246 0.000000
1.000000 0.686610 0.000000
1.000000 0.689082 0.000000
1.000000 0.692622 0.000000
1.000000 0.699245 0.168368
0.585199 0.750698 0.606409
0.590356 0.751095 0.609369
0.594751 0.749508 0.610040
0.599420 0.746029 0.609461
0.604608 0.741085 0.608331
0.610193 0.734463 0.606897
0.617700 0.726131 0.606592
0.629145 0.716365 0.609766
0.640650 0.705684 0.613642
0.651911 0.694240 0.618402
0.662104 0.682002 0.623835
0.670588 0.668574 0.629419
0.676631 0.653712 0.634821
0.678187 0.638605 0.637507
0.632593 0.655726 0.564019
0.597559 0.669215 0.476875
0.579065 0.678340 0.376928
0.579370 0.682643 0.265202
0.597040 0.682216 0.143587
0.625940 0.677699 0.000000
0.659632 0.669459 0.000000
0.693568 0.658167 0.000000
0.724239 0.644160 0.000000
0.743435 0.620386 0.000000
0.738949 0.577203 0.000000
0.793179 0.591363 0.000000
0.895506 0.653223 0.000000
0.966430 0.686610 0.000000
1.000000 0.697963 0.000000
1.000000 0.701900 0.000000
1.000000 0.703426 0.000000
1.000000 0.705440 0.000000
0.614435 0.769223 0.633448
0.618616 0.769589 0.635950
0.622187 0.768124 0.636378
0.626276 0.765194 0.635981
0.630518 0.760861 0.634760
0.635248 0.755154 0.633356
0.640589 0.748165 0.632074
0.650568 0.739712 0.634607
0.660731 0.730434 0.637842
0.670771 0.720638 0.641932
0.680323 0.709957 0.646479
0.688624 0.698390 0.651362
0.695003 0.685481 0.656092
0.699550 0.671534 0.661036
0.682734 0.670192 0.637018
0.644251 0.684993 0.565087
0.615686 0.696956 0.478401
0.602777 0.704952 0.379736
0.606806 0.709010 0.266880
0.626032 0.708858 0.141909
0.655451 0.705043 0.000000
0.689021 0.698177 0.000000
0.722957 0.688563 0.000000
0.754330 0.676631 0.000000
0.772671 0.653223 0.000000
0.771389 0.613519 0.000000
0.803189 0.607874 0.000000
0.902770 0.669032 0.000000
0.971710 0.701778 0.000000
1.000000 0.714809 0.000000
1.000000 0.718196 0.000000
1.000000 0.718837 0.000000
0.655848 0.794369 0.672267
0.659541 0.794705 0.674525
0.661799 0.793179 0.674311
0.664302 0.790372 0.673213
0.666835 0.786252 0.671412
0.669673 0.780880 0.669062
0.672847 0.774502 0.666743
0.679194 0.766629 0.666835
0.686702 0.757870 0.668147
0.694118 0.748409 0.669978
0.701137 0.737850 0.671992
0.707607 0.726894 0.674800
0.713008 0.714870 0.677699
0.716915 0.701717 0.680720
0.718959 0.687251 0.683772
0.687282 0.695857 0.635096
0.653223 0.707942 0.562188
0.629419 0.717830 0.475166
0.621027 0.725002 0.376501
0.628351 0.729122 0.264164
0.649653 0.729702 0.136599
0.679347 0.726802 0.000000
0.712093 0.720394 0.000000
0.744564 0.710994 0.000000
0.774105 0.698817 0.000000
0.798032 0.682399 0.000000
0.798764 0.645472 0.000000
0.810605 0.621698 0.000000
0.907744 0.682033 0.000000
0.975341 0.714473 0.000000
1.000000 0.729305 0.000000
1.000000 0.732662 0.000000
0.674739 0.806149 0.690150
0.677882 0.806546 0.692134
0.680415 0.805539 0.692470
0.682979 0.803342 0.691951
0.685664 0.800046 0.690761
0.688746 0.795834 0.689387
0.692195 0.790707 0.687953
0.697780 0.784604 0.688167
0.705135 0.777584 0.690028
0.712490 0.769955 0.692287
0.719570 0.761624 0.694759
0.726162 0.752682 0.697627
0.731807 0.742855 0.700649
0.736355 0.732174 0.703670
0.739315 0.720272 0.706600
0.732753 0.713252 0.697963
0.699702 0.725307 0.641627
0.671748 0.736049 0.571283
0.653223 0.745235 0.486183
0.648341 0.751797 0.388342
0.657557 0.755520 0.275486
0.678828 0.755947 0.143862
0.707759 0.753017 0.000000
0.739864 0.747433 0.000000
0.772000 0.739254 0.000000
0.802090 0.729061 0.000000
0.829160 0.717372 0.000000
0.833555 0.685023 0.000000
0.842527 0.659236 0.000000
0.923613 0.705409 0.000000
0.988098 0.735439 0.000000
1.000000 0.749996 0.000000
0.698665 0.820798 0.712886
0.700710 0.820859 0.713985
0.702327 0.819577 0.713771
0.704067 0.817411 0.712886
0.705928 0.814267 0.711391
0.708095 0.810361 0.709712
0.710719 0.805753 0.708125
0.714717 0.800320 0.707424
0.721035 0.794125 0.708766
0.727596 0.787442 0.710658
0.734127 0.780240 0.712886
0.740505 0.772671 0.715602
0.746242 0.764462 0.718502
0.750942 0.755398 0.721370
0.754421 0.745327 0.724056
0.756497 0.734310 0.726741
0.737728 0.737179 0.699153
0.709346 0.748013 0.644099
0.686275 0.758022 0.575677
0.672145 0.766629 0.492134
0.670527 0.772915 0.395911
0.681483 0.776547 0.283024
0.703273 0.777188 0.148745
0.731991 0.774929 0.000000
0.763821 0.770199 0.000000
0.795712 0.763424 0.000000
0.826108 0.754971 0.000000
0.853819 0.745113 0.000000
0.862699 0.718563 0.000000
0.874266 0.696529 0.000000
0.937377 0.725795 0.000000
0.998535 0.753353 0.000000
0.716793 0.831968 0.730129
0.717800 0.831662 0.730373
0.719142 0.830625 0.730159
0.720882 0.828824 0.729580
0.723232 0.826535 0.729030
0.726223 0.823789 0.728603
0.730312 0.820890 0.728969
0.735317 0.817685 0.730068
0.743099 0.813931 0.733547
0.751095 0.809995 0.737545
0.758999 0.805692 0.741787
0.766476 0.801083 0.746120
0.773129 0.795804 0.750301
0.778744 0.789731 0.754086
0.783047 0.782742 0.757412
0.785794 0.774533 0.760128
0.786801 0.766110 0.761929
0.761990 0.776120 0.722652
0.740200 0.785763 0.674250
0.722988 0.794766 0.613428
0.713069 0.802762 0.537316
0.713008 0.808988 0.444953
0.724025 0.812802 0.335241
0.744900 0.814115 0.201968
0.772885 0.812772 0.000000
0.804227 0.809171 0.000000
0.836301 0.804074 0.000000
0.867643 0.797757 0.000000
0.897246 0.790982 0.000000
0.912200 0.771817 0.000000
0.926696 0.753689 0.000000
0.972320 0.766476 0.000000
0.748592 0.850706 0.760220
0.749233 0.850462 0.760311
0.750149 0.849424 0.759915
0.751278 0.847837 0.759243
0.752682 0.845579 0.758206
0.754482 0.842924 0.757259
0.756954 0.840024 0.756649
0.759976 0.836759 0.756405
0.765255 0.832883 0.757961
0.771145 0.828763 0.760220
0.776913 0.824247 0.762631
0.782559 0.819455 0.765286
0.787747 0.814176 0.767941
0.792264 0.808255 0.770413
0.795895 0.801694 0.772732
