data/fiter_cube/89350833/1022877/file.cube
# Created by Adobe Lightroom plugin Export LUT (1.24.0)
# www.johnrellis.com/lightroom/exportlut.htm
# Preset: 婚礼接亲预设[余晖]-7 晨间化妆1
# Color profile: C:\Windows\System32\Spool\Drivers\Color\AppleRGB.icc
LUT_3D_SIZE 5
DOMAIN_MIN 0.000000 0.000000 0.000000
DOMAIN_MAX 0.903226 0.903226 0.903226
0.055116 0.108461 0.126741
0.119417 0.105104 0.126497
0.426520 0.030457 0.120424
0.893645 0.000000 0.091463
1.000000 0.000000 0.046998
0.068391 0.147921 0.146761
0.115816 0.158328 0.122744
0.724056 0.242954 0.134524
1.000000 0.251835 0.071717
1.000000 0.251133 0.045258
0.224125 0.451118 0.303532
0.334142 0.359655 0.322972
0.424994 0.406836 0.000000
0.965270 0.557092 0.000000
1.000000 0.700465 0.566888
0.585199 0.750698 0.606409
0.629145 0.716365 0.609766
0.632593 0.655726 0.564019
0.693568 0.658167 0.000000
1.000000 0.697963 0.000000
0.763790 0.860410 0.774838
0.774868 0.848753 0.772427
0.797635 0.808743 0.775479
0.748562 0.825711 0.623377
0.875792 0.842924 0.000000
0.034607 0.111971 0.158022
0.137240 0.105409 0.175631
0.394568 0.000000 0.157198
0.621607 0.000000 0.125216
1.000000 0.000000 0.090883
0.000000 0.168215 0.184207
0.135592 0.178744 0.207034
0.511070 0.097139 0.165042
0.891814 0.000000 0.132052
1.000000 0.049592 0.091432
0.000000 0.505699 0.358556
0.346990 0.479896 0.381415
0.457099 0.430060 0.116457
0.950500 0.592767 0.364691
1.000000 0.663600 0.550896
0.527489 0.775845 0.618128
0.639185 0.759731 0.650752
0.705745 0.676844 0.668177
0.704067 0.668177 0.000000
1.000000 0.695521 0.000000
0.739223 0.869322 0.771725
0.779751 0.862547 0.788174
0.810849 0.834501 0.794186
0.778012 0.829313 0.705257
0.883543 0.850919 0.000000
0.000000 0.119966 0.340398
0.151766 0.076051 0.454231
0.705592 0.000000 0.571862
1.000000 0.000000 0.553887
1.000000 0.000000 0.257237
0.000000 0.196506 0.299809
0.000000 0.159670 0.438575
0.731167 0.209689 0.623224
0.967437 0.066102 0.501884
0.955749 0.000000 0.170321
0.000000 0.466285 0.470680
0.000000 0.490608 0.497963
0.571527 0.543999 0.594537
0.863005 0.357641 0.397925
1.000000 0.326787 0.319646
0.305089 0.830838 0.714961
0.479622 0.811673 0.705257
0.718318 0.776455 0.719631
0.745571 0.714870 0.363104
0.977234 0.781735 0.657343
0.642267 0.891173 0.774380
0.699977 0.883726 0.781308
0.810147 0.868833 0.814298
0.839384 0.827726 0.821439
0.874510 0.845060 0.157534
0.000000 0.141390 0.675807
0.000000 0.068208 0.739834
0.716487 0.000000 0.838560
0.981872 0.233310 0.846555
1.000000 0.490394 0.787655
0.000000 0.262852 0.623011
0.000000 0.171237 0.703426
0.631556 0.175662 0.821592
0.946258 0.420020 0.838895
1.000000 0.592828 0.795132
0.000000 0.392462 0.507469
0.000000 0.369207 0.499580
0.127687 0.346014 0.741268
0.878874 0.647852 0.823545
0.993927 0.634791 0.765743
0.000000 0.734554 0.712398
0.000000 0.733730 0.714778
0.158755 0.736660 0.732723
0.782803 0.774075 0.791806
0.951873 0.633448 0.639857
0.369543 0.916564 0.821927
0.528191 0.913451 0.832609
0.731044 0.905852 0.847288
0.855833 0.885283 0.855619
0.869017 0.855436 0.617060
0.000000 0.176608 0.892485
0.000000 0.093904 0.907897
0.546166 0.000000 0.932280
0.920043 0.435492 0.935363
1.000000 0.490303 0.919036
0.000000 0.304753 0.866178
0.000000 0.197452 0.888640
0.436896 0.128359 0.921904
0.890745 0.492500 0.927428
1.000000 0.573083 0.914122
0.000000 0.504479 0.764431
0.000000 0.465797 0.802152
0.000000 0.283024 0.883085
0.807248 0.546990 0.910826
0.972503 0.707362 0.908782
0.000000 0.688380 0.778408
0.000000 0.666529 0.769497
0.000000 0.601831 0.747127
0.491859 0.567193 0.873625
0.942626 0.833951 0.912779
0.000000 0.890867 0.848020
0.000000 0.887999 0.848295
0.000000 0.878935 0.851926
0.572137 0.866789 0.860807
0.905943 0.901732 0.906188
