data/fiter_cube/89350833/1022877/file.cube
# Created by Adobe Lightroom plugin Export LUT (1.24.0)
# www.johnrellis.com/lightroom/exportlut.htm
# Preset: 婚礼接亲预设[余晖]-7 晨间化妆1
# Color profile: C:\Windows\System32\Spool\Drivers\Color\AppleRGB.icc
LUT_3D_SIZE 8
DOMAIN_MIN 0.000000 0.000000 0.000000
DOMAIN_MAX 0.903226 0.903226 0.903226
0.055116 0.108461 0.126741
0.074006 0.107301 0.126741
0.142245 0.103456 0.126314
0.303502 0.078828 0.123507
0.562707 0.000000 0.115633
0.819852 0.000000 0.099397
1.000000 0.000000 0.070710
1.000000 0.000000 0.046998
0.057832 0.115541 0.130678
0.069398 0.119905 0.126406
0.172854 0.127657 0.130587
0.406439 0.108064 0.120912
0.670069 0.033234 0.105776
0.892668 0.000000 0.082094
1.000000 0.000000 0.056092
1.000000 0.000000 0.033143
0.074098 0.166232 0.155215
0.099184 0.152743 0.160464
0.137636 0.176333 0.120089
0.452522 0.227939 0.095399
0.873136 0.337255 0.158480
1.000000 0.321019 0.114229
1.000000 0.320867 0.094881
1.000000 0.308263 0.076600
0.136873 0.324102 0.228672
0.192844 0.302190 0.236759
0.227909 0.274144 0.235660
0.334600 0.333806 0.066835
0.720699 0.433631 0.000000
0.997284 0.534417 0.109773
1.000000 0.639704 0.478584
1.000000 0.573816 0.380041
0.331792 0.555688 0.387213
0.368383 0.528008 0.384253
0.450050 0.460243 0.413458
0.385046 0.479042 0.249149
0.501610 0.472511 0.000000
0.735531 0.495949 0.000000
1.000000 0.608911 0.000000
1.000000 0.668116 0.387518
0.525292 0.712551 0.552544
0.561852 0.708980 0.566125
0.607141 0.667018 0.575158
0.643122 0.602899 0.598291
0.541039 0.644831 0.255619
0.659327 0.623438 0.000000
0.786374 0.577447 0.000000
1.000000 0.686610 0.000000
0.674739 0.806149 0.690150
0.685664 0.800046 0.690761
0.705135 0.777584 0.690028
0.731807 0.742855 0.700649
0.699702 0.725307 0.641627
0.657557 0.755520 0.275486
0.772000 0.739254 0.000000
0.842527 0.659236 0.000000
0.763790 0.860410 0.774838
0.767727 0.856107 0.773404
0.779324 0.845609 0.773709
0.801266 0.830442 0.784115
0.804501 0.796536 0.781460
0.758572 0.816892 0.679316
0.762417 0.844511 0.360235
0.875792 0.842924 0.000000
0.049775 0.110719 0.134829
0.069551 0.108888 0.134920
0.139681 0.099916 0.134279
0.229679 0.086244 0.128542
0.451942 0.000000 0.123629
0.731624 0.000000 0.111421
0.959289 0.000000 0.088136
1.000000 0.000000 0.058381
0.044800 0.121035 0.138979
0.069917 0.121981 0.141817
0.154665 0.116640 0.137270
0.321752 0.094484 0.131960
0.565148 0.000000 0.122438
0.807187 0.000000 0.105715
0.978088 0.000000 0.081880
1.000000 0.000000 0.052338
0.036683 0.179171 0.165286
0.096468 0.179660 0.171084
0.151247 0.186801 0.133516
0.488533 0.227939 0.147066
0.798337 0.262394 0.169436
0.948333 0.243656 0.130037
1.000000 0.241032 0.101961
1.000000 0.246891 0.080201
0.063539 0.329473 0.232029
0.171847 0.327550 0.247227
0.265934 0.270115 0.275486
0.311040 0.314244 0.098085
0.686671 0.389227 0.000000
0.957488 0.511254 0.241215
1.000000 0.572961 0.409064
1.000000 0.519554 0.329412
0.266148 0.559655 0.382574
0.352667 0.544182 0.397528
0.437598 0.477058 0.409247
0.392432 0.454963 0.304112
0.480018 0.452674 0.000000
0.746242 0.491859 0.000000
1.000000 0.598230 0.065949
1.000000 0.684230 0.480598
0.475380 0.708309 0.535027
0.529015 0.701564 0.552789
0.581140 0.664637 0.558312
0.631830 0.604578 0.585657
0.538659 0.631678 0.308202
0.652613 0.616083 0.000000
0.798947 0.580896 0.000000
1.000000 0.677821 0.000000
0.635554 0.798642 0.667048
0.659998 0.792081 0.674952
0.680293 0.770352 0.670649
0.716396 0.736873 0.685451
0.706752 0.710689 0.660182
0.646784 0.742367 0.308537
0.753384 0.720150 0.000000
0.817624 0.629206 0.000000
0.745266 0.858274 0.764187
0.761410 0.856260 0.771878
0.772366 0.845945 0.770230
0.795346 0.830716 0.779690
0.811276 0.808011 0.789334
0.768582 0.816556 0.703731
0.758999 0.840543 0.390326
0.869963 0.837247 0.000000
0.017700 0.112001 0.174350
0.071077 0.107668 0.189578
0.190433 0.098085 0.208408
0.486061 0.000000 0.245335
0.519951 0.000000 0.169619
0.444770 0.000000 0.131044
0.807370 0.000000 0.120851
1.000000 0.000000 0.099611
0.000000 0.134432 0.177279
0.021668 0.122316 0.198703
0.208408 0.119936 0.225498
0.439338 0.010620 0.223423
0.439033 0.000000 0.149752
0.573632 0.000000 0.132601
0.874754 0.000000 0.118532
1.000000 0.000000 0.096345
0.000000 0.196506 0.211368
0.000000 0.205356 0.221103
0.181857 0.215183 0.249607
0.414862 0.155978 0.202579
0.663508 0.096071 0.183200
0.863066 0.033448 0.160494
1.000000 0.038483 0.136080
1.000000 0.090089 0.112184
0.000000 0.433539 0.350805
0.000000 0.439124 0.351019
0.329046 0.422004 0.360876
0.427436 0.400855 0.202182
0.804196 0.499397 0.344518
0.931151 0.587762 0.501122
1.000000 0.525200 0.413977
1.000000 0.471290 0.336370
0.120333 0.627314 0.457710
0.270451 0.619715 0.463233
0.473457 0.595300 0.489540
0.565087 0.515496 0.518608
0.560540 0.522454 0.112337
0.851316 0.554894 0.000000
0.985229 0.670161 0.466224
0.996094 0.768429 0.696468
0.419013 0.744930 0.570489
0.481025 0.738491 0.579858
0.595361 0.719448 0.607080
0.655451 0.667353 0.617945
0.596887 0.648402 0.476570
0.672450 0.635187 0.000000
0.866178 0.622705 0.000000
1.000000 0.696101 0.233677
0.609918 0.820645 0.683528
0.639033 0.815213 0.690059
0.697292 0.801938 0.707271
0.728145 0.771969 0.708309
0.750088 0.728115 0.719387
0.671168 0.751827 0.449073
0.769711 0.736507 0.000000
0.879728 0.675685 0.000000
0.720699 0.867491 0.762661
0.737514 0.864286 0.767941
0.775418 0.858488 0.783658
0.797360 0.846250 0.788724
0.816678 0.824338 0.796933
0.796780 0.818692 0.758907
0.768582 0.843778 0.499001
0.875853 0.843351 0.000000
0.000000 0.116457 0.265965
0.000000 0.106050 0.304967
0.271916 0.058381 0.394293
0.533776 0.000000 0.436103
0.825803 0.000000 0.481636
0.936431 0.000000 0.375738
0.923583 0.000000 0.229252
0.886931 0.000000 0.139376
0.000000 0.149264 0.277775
0.000000 0.126955 0.315892
0.237736 0.097780 0.409186
0.563684 0.000000 0.466285
0.834531 0.000000 0.499794
0.901427 0.000000 0.343542
0.869200 0.000000 0.196902
0.800900 0.000000 0.130373
0.000000 0.201175 0.256352
0.000000 0.202365 0.265690
0.000000 0.184787 0.385992
0.579980 0.243229 0.505913
0.808743 0.273686 0.505303
0.823148 0.000000 0.263432
0.721767 0.000000 0.146517
1.000000 0.000000 0.129580
0.000000 0.376715 0.386328
0.000000 0.388647 0.399023
0.000000 0.416846 0.432380
0.474342 0.448890 0.504326
0.669673 0.302464 0.361669
0.850858 0.266667 0.315953
0.986511 0.249210 0.275364
1.000000 0.245670 0.238010
0.000000 0.656519 0.556725
0.000000 0.665949 0.568536
0.348943 0.682673 0.599329
0.598657 0.653254 0.599908
0.648493 0.609003 0.412299
0.873533 0.685389 0.586419
0.937774 0.759304 0.715480
1.000000 0.706355 0.643153
0.318090 0.798001 0.657954
0.412329 0.795651 0.664118
0.546319 0.777066 0.663874
0.680110 0.753445 0.682948
0.727382 0.696590 0.693629
0.717433 0.682490 0.253666
0.936584 0.674098 0.175235
0.992248 0.772061 0.632319
0.548333 0.846433 0.711910
0.584680 0.842222 0.715145
0.658961 0.831418 0.724727
0.742794 0.817014 0.747707
0.775204 0.782132 0.751431
0.725887 0.769314 0.633509
0.785489 0.753353 0.098329
0.941741 0.711910 0.000000
0.682338 0.886076 0.772396
0.703578 0.883299 0.776669
0.750546 0.876310 0.788907
0.803586 0.868528 0.808896
0.824063 0.849088 0.810880
0.837430 0.824033 0.819455
0.787015 0.847349 0.632929
0.882322 0.851530 0.022950
0.000000 0.124239 0.430426
0.000000 0.103243 0.476600
0.210605 0.037385 0.566339
0.653101 0.000000 0.678981
0.839414 0.000000 0.692927
0.975402 0.076143 0.674434
1.000000 0.133455 0.624262
1.000000 0.000000 0.438422
0.000000 0.163638 0.427344
0.000000 0.134279 0.473152
0.126345 0.088930 0.567010
0.625940 0.000000 0.678920
0.843839 0.034913 0.708095
0.963165 0.240330 0.683497
1.000000 0.180331 0.614343
1.000000 0.000000 0.412207
0.000000 0.224430 0.353155
0.000000 0.229648 0.408392
0.000000 0.178988 0.534691
0.529564 0.203708 0.668086
0.814908 0.316503 0.710231
0.921660 0.421271 0.686030
1.000000 0.183139 0.559106
1.000000 0.000000 0.319921
0.000000 0.333898 0.409308
0.000000 0.335729 0.417578
0.000000 0.335546 0.437263
0.242008 0.345556 0.618311
0.770993 0.538018 0.714076
0.881346 0.598199 0.707515
0.969970 0.052705 0.415625
0.918120 0.000000 0.167208
0.000000 0.557183 0.554253
0.000000 0.564416 0.562249
0.000000 0.579797 0.581048
0.215488 0.599023 0.611658
0.654444 0.632441 0.672114
0.793210 0.465736 0.509941
0.931456 0.435554 0.458534
1.000000 0.410681 0.408392
0.000000 0.752865 0.658045
0.000000 0.757290 0.665064
0.225834 0.763424 0.680049
0.542016 0.776028 0.713008
0.711055 0.750912 0.710597
0.745510 0.719539 0.560632
0.906615 0.779904 0.711360
0.953063 0.839597 0.811368
0.422614 0.872038 0.764401
0.465919 0.866178 0.760494
0.560571 0.853605 0.754879
0.674983 0.840330 0.758267
0.772763 0.823026 0.773922
0.800412 0.781064 0.777554
0.791836 0.765103 0.376806
0.976715 0.737667 0.263951
0.603845 0.900328 0.788022
0.628901 0.897276 0.788785
0.682002 0.889830 0.791104
0.755184 0.882750 0.804257
0.822446 0.872770 0.825223
0.845335 0.849912 0.829557
0.811154 0.846525 0.745968
0.873594 0.847318 0.291264
0.000000 0.138460 0.647150
0.000000 0.100496 0.677821
0.084810 0.028962 0.731838
0.570062 0.000000 0.797299
0.876219 0.202762 0.846281
0.971527 0.196353 0.833982
1.000000 0.352056 0.786221
1.000000 0.511711 0.774655
0.000000 0.185275 0.617975
0.000000 0.146426 0.649317
0.000000 0.087770 0.713313
0.525231 0.000000 0.788296
0.856504 0.279057 0.838010
0.955657 0.281651 0.828580
1.000000 0.413794 0.785489
1.000000 0.552514 0.778256
0.000000 0.284886 0.571191
0.000000 0.270298 0.612634
0.000000 0.186038 0.693141
0.397559 0.163027 0.775753
0.808865 0.398260 0.828244
0.927092 0.461097 0.829038
0.974792 0.554559 0.794888
1.000000 0.581994 0.771084
0.000000 0.341436 0.467750
0.000000 0.335515 0.471687
0.000000 0.356634 0.588251
0.000000 0.305028 0.740230
0.732143 0.506828 0.816556
0.892638 0.636530 0.832364
0.944488 0.686976 0.812039
1.000000 0.557855 0.732448
0.000000 0.507073 0.580194
0.000000 0.504265 0.581689
0.000000 0.495369 0.585138
0.000000 0.476081 0.592126
0.471717 0.513695 0.750027
0.847044 0.717556 0.813199
0.914763 0.754147 0.810727
1.000000 0.349462 0.560815
0.000000 0.698054 0.680262
0.000000 0.703670 0.686336
0.000000 0.706661 0.692561
0.000000 0.710018 0.704219
0.434394 0.715175 0.722225
0.763638 0.753292 0.774014
0.862364 0.628962 0.651057
0.969879 0.606470 0.610742
0.000000 0.852781 0.764431
0.000000 0.854032 0.769131
0.253330 0.853269 0.777432
0.529656 0.852811 0.793179
0.722499 0.858793 0.818357
0.815213 0.840177 0.813809
0.818936 0.804349 0.688167
0.936950 0.844388 0.791989
0.471962 0.917906 0.824796
0.518059 0.916258 0.827787
0.609247 0.912200 0.833433
0.697505 0.903288 0.832700
0.776730 0.892607 0.833982
0.847105 0.881193 0.847501
0.865110 0.857908 0.849973
0.870939 0.855070 0.560845
0.000000 0.155306 0.791165
0.000000 0.103151 0.810513
0.000000 0.053437 0.837583
0.468635 0.000000 0.870756
0.782712 0.115511 0.895506
0.940642 0.382940 0.899809
1.000000 0.373053 0.886595
1.000000 0.469306 0.839353
0.000000 0.204166 0.768124
0.000000 0.162081 0.788205
0.000000 0.095064 0.821103
0.409583 0.000000 0.857725
0.754940 0.158999 0.885710
0.926452 0.420050 0.891691
0.996704 0.402899 0.879332
1.000000 0.487984 0.833921
0.000000 0.317662 0.739956
0.000000 0.287877 0.759518
0.000000 0.191867 0.801297
0.238712 0.140810 0.845396
0.699306 0.266331 0.876280
0.904234 0.548791 0.886320
0.972503 0.536919 0.879271
1.000000 0.602533 0.843656
0.000000 0.411749 0.648890
0.000000 0.405188 0.674250
0.000000 0.374426 0.739528
0.000000 0.265354 0.815274
0.584192 0.353338 0.861784
0.869566 0.628595 0.880339
0.945769 0.658869 0.879576
0.978759 0.698970 0.852537
0.000000 0.493721 0.622522
0.000000 0.480629 0.614527
0.000000 0.449104 0.597620
0.000000 0.447242 0.688991
0.205966 0.396735 0.812985
0.796719 0.638727 0.858610
0.916136 0.734493 0.871427
0.957702 0.770260 0.858762
0.000000 0.652186 0.706966
0.000000 0.648005 0.706020
0.000000 0.636378 0.703578
0.000000 0.616693 0.700862
0.000000 0.582177 0.698024
0.616114 0.641962 0.818235
0.891630 0.807156 0.868345
0.941436 0.829984 0.867277
0.000000 0.806790 0.774624
0.000000 0.807248 0.776028
0.000000 0.805783 0.777737
0.000000 0.802609 0.781796
0.248600 0.796963 0.787778
0.601434 0.798489 0.800504
0.834012 0.828397 0.839353
0.906645 0.742489 0.751064
0.000000 0.913024 0.826169
0.000000 0.911528 0.827634
0.153231 0.906523 0.831418
0.463996 0.901183 0.839719
0.667689 0.899901 0.854276
0.811765 0.907378 0.877714
0.879759 0.896818 0.878416
0.883024 0.876066 0.792111
0.000000 0.176608 0.892485
0.000000 0.127382 0.901061
0.000000 0.080385 0.910826
0.369421 0.000000 0.925628
0.689021 0.078676 0.936889
0.888273 0.362158 0.937133
0.975555 0.506889 0.931975
1.000000 0.490303 0.919036
0.000000 0.224674 0.880217
0.000000 0.182101 0.888975
0.000000 0.109041 0.903197
0.306065 0.040894 0.918975
0.662928 0.123507 0.931945
0.874876 0.382605 0.933043
0.966796 0.532952 0.927794
1.000000 0.514183 0.915648
0.000000 0.334478 0.856596
0.000000 0.300969 0.865965
0.000000 0.203311 0.885893
0.000000 0.141604 0.909819
0.594324 0.200931 0.923980
0.843595 0.430976 0.925933
0.949279 0.603815 0.921874
1.000000 0.583642 0.911986
0.000000 0.459022 0.807614
0.000000 0.441688 0.822629
0.000000 0.378729 0.851102
0.000000 0.253361 0.889097
0.441505 0.267033 0.913359
0.793637 0.485267 0.918914
0.931090 0.688838 0.918029
0.983215 0.671962 0.910582
0.000000 0.533989 0.709071
0.000000 0.531762 0.727199
0.000000 0.512505 0.766140
0.000000 0.457984 0.825772
0.000000 0.337377 0.883665
0.687037 0.498116 0.904631
0.905913 0.735012 0.911620
0.962432 0.747433 0.909026
0.000000 0.648981 0.758694
0.000000 0.639185 0.753964
0.000000 0.614191 0.742611
0.000000 0.573938 0.726619
0.000000 0.536004 0.780514
0.393835 0.507897 0.875486
0.862577 0.759976 0.902770
0.946471 0.820920 0.912718
0.000000 0.778164 0.808438
0.000000 0.774563 0.807279
0.000000 0.764981 0.804379
0.000000 0.750423 0.801389
0.000000 0.726406 0.797269
0.000000 0.685634 0.792569
0.730495 0.746731 0.873442
0.930327 0.869963 0.912047
0.000000 0.890867 0.848020
0.000000 0.889799 0.848020
0.000000 0.887236 0.848539
0.000000 0.882506 0.850523
0.000000 0.874754 0.853513
0.499794 0.867338 0.858640
0.745205 0.870909 0.870787
0.905943 0.901732 0.906188
