data/fiter_cube/48671653/1023259/file.cube
# Created by Adobe Lightroom plugin Export LUT (1.17.0)
# www.johnrellis.com/lightroom/exportlut.htm
# Preset: 青橙风光风景_08 云集
# Color profile: C:\Program Files (x86)\Common Files\Adobe\Color\Profiles\Recommended\AdobeRGB1998.icc
LUT_3D_SIZE 8
DOMAIN_MIN 0.000000 0.000000 0.000000
DOMAIN_MAX 0.903226 0.903226 0.903226
0.075166 0.083406 0.090486
0.144076 0.077913 0.088594
0.264225 0.062623 0.080507
0.442908 0.000000 0.038697
0.673762 0.000000 0.000000
0.843656 0.000000 0.000000
0.963928 0.000000 0.000000
1.000000 0.000000 0.000000
0.036286 0.137087 0.128328
0.139620 0.117433 0.098299
0.270146 0.130220 0.083314
0.453162 0.123354 0.050752
0.682429 0.084230 0.000000
0.848203 0.000000 0.000000
0.966064 0.000000 0.000000
1.000000 0.000000 0.000000
0.000000 0.243992 0.213413
0.000000 0.239811 0.195560
0.260716 0.193912 0.120974
0.488808 0.276249 0.071687
0.711879 0.273655 0.000000
0.863676 0.238987 0.000000
0.973510 0.189822 0.000000
1.000000 0.117342 0.000000
0.000000 0.420600 0.353796
0.000000 0.412055 0.337224
0.000000 0.411933 0.273411
0.469062 0.323186 0.144808
0.757900 0.468818 0.000000
0.888212 0.417792 0.000000
0.985473 0.366674 0.000000
1.000000 0.314794 0.000000
0.000000 0.669642 0.541772
0.000000 0.662898 0.528161
0.000000 0.647730 0.474311
0.088685 0.649042 0.128389
0.724117 0.478401 0.172122
0.907805 0.573022 0.114412
0.999237 0.536950 0.078248
1.000000 0.474372 0.000000
0.000000 0.848051 0.672755
0.000000 0.845029 0.664302
0.000000 0.831968 0.631403
0.000000 0.832853 0.556023
0.498817 0.811032 0.192844
0.891814 0.591791 0.255650
1.000000 0.647333 0.248447
1.000000 0.636957 0.227481
0.000000 0.963622 0.758846
0.000000 0.962188 0.753872
0.000000 0.955444 0.736812
0.000000 0.946990 0.699672
0.000000 0.951202 0.616907
0.730007 0.912169 0.349828
0.994202 0.688624 0.401770
1.000000 0.719509 0.406104
0.000000 1.000000 0.816342
0.000000 1.000000 0.813626
0.000000 1.000000 0.807370
0.367437 1.000000 0.818936
0.407263 1.000000 0.776394
0.444923 1.000000 0.648737
0.892363 0.974975 0.557488
1.000000 0.787076 0.581415
0.063416 0.089204 0.142641
0.135409 0.085176 0.137179
0.249943 0.072236 0.129976
0.421668 0.000000 0.123445
0.657008 0.000000 0.088502
0.835721 0.000000 0.000000
0.960571 0.000000 0.000000
1.000000 0.000000 0.000000
0.040345 0.133364 0.151949
0.131014 0.135164 0.144106
0.252445 0.130343 0.139406
0.431464 0.113527 0.126772
0.666255 0.000000 0.090028
0.840513 0.000000 0.000000
0.962829 0.000000 0.000000
1.000000 0.000000 0.000000
0.000000 0.245975 0.229221
0.072969 0.237278 0.214878
0.253605 0.204471 0.161501
0.467567 0.261234 0.138613
0.697719 0.258488 0.096834
0.856809 0.224582 0.000000
0.970459 0.174777 0.000000
1.000000 0.090059 0.000000
0.000000 0.421790 0.365301
0.000000 0.412116 0.349218
0.000000 0.405768 0.288670
0.462348 0.328313 0.183383
0.746517 0.457832 0.120485
0.882414 0.410559 0.086336
0.982666 0.361547 0.000000
1.000000 0.310033 0.000000
0.000000 0.669947 0.550561
0.000000 0.663233 0.537652
0.000000 0.642329 0.484749
0.000000 0.646784 0.173983
0.719661 0.482734 0.211276
0.904723 0.577600 0.177279
0.996582 0.535485 0.156039
1.000000 0.473854 0.113741
0.000000 0.848325 0.679774
0.000000 0.845304 0.671687
0.000000 0.832242 0.640070
0.000000 0.829923 0.567041
0.490150 0.810391 0.235477
0.888792 0.597955 0.291447
0.999115 0.654414 0.291142
1.000000 0.639796 0.271275
0.000000 0.963928 0.764431
0.000000 0.962493 0.759670
0.000000 0.955627 0.743282
0.000000 0.944549 0.710780
0.000000 0.948852 0.630549
0.728115 0.911864 0.384985
0.991089 0.697383 0.433661
1.000000 0.728878 0.440162
0.000000 1.000000 0.820523
0.000000 1.000000 0.817868
0.000000 1.000000 0.811704
0.368627 1.000000 0.822812
0.445045 1.000000 0.787015
0.474006 1.000000 0.673518
0.891325 0.974914 0.579217
1.000000 0.794705 0.601282
0.000000 0.103151 0.246159
0.114900 0.100496 0.226963
0.228031 0.093080 0.215640
0.386267 0.000000 0.220645
0.611353 0.000000 0.197910
0.809964 0.000000 0.183230
0.948974 0.000000 0.156588
1.000000 0.000000 0.101991
0.000000 0.156222 0.258457
0.110475 0.141482 0.239231
0.227817 0.132723 0.219333
0.390021 0.081788 0.220645
0.619684 0.000000 0.201358
0.815366 0.000000 0.187289
0.951415 0.000000 0.160952
1.000000 0.000000 0.108949
0.000000 0.239536 0.274693
0.066926 0.233341 0.262821
0.231205 0.225467 0.236973
0.415076 0.221012 0.232883
0.653559 0.200504 0.219730
0.833707 0.164157 0.202060
0.959625 0.105867 0.178347
1.000000 0.000000 0.133791
0.000000 0.435767 0.410651
0.000000 0.424903 0.396033
0.159243 0.386358 0.341070
0.440375 0.345281 0.268620
0.708980 0.420203 0.251987
0.862242 0.385290 0.236667
0.972534 0.344671 0.217288
1.000000 0.296056 0.181125
0.000000 0.679713 0.587274
0.000000 0.671473 0.574762
0.000000 0.639948 0.525689
0.091890 0.631800 0.384588
0.703059 0.498939 0.310369
0.893339 0.594903 0.309941
0.986450 0.533379 0.293095
1.000000 0.475807 0.260716
0.000000 0.852262 0.706111
0.000000 0.848539 0.698451
0.000000 0.834195 0.670039
0.000000 0.818753 0.607507
0.457527 0.807767 0.346960
0.876951 0.621759 0.395941
0.989685 0.682795 0.413947
1.000000 0.654017 0.391943
0.000000 0.965759 0.784298
0.000000 0.964111 0.779934
0.000000 0.956786 0.765347
0.280766 0.935180 0.749142
0.302861 0.939818 0.678065
0.722408 0.910582 0.486915
0.980102 0.727626 0.527214
1.000000 0.761105 0.538628
0.000000 1.000000 0.835386
0.000000 1.000000 0.832700
0.000000 1.000000 0.826413
0.359777 1.000000 0.835233
0.545159 1.000000 0.820066
0.554192 1.000000 0.746517
0.887266 0.974884 0.641382
1.000000 0.817990 0.658381
0.000000 0.123873 0.411383
0.000000 0.116396 0.383734
0.208652 0.112520 0.301122
0.347906 0.065187 0.312627
0.560418 0.000000 0.337591
0.772152 0.000000 0.325841
0.926116 0.000000 0.287419
1.000000 0.000000 0.264836
0.000000 0.190005 0.430121
0.000000 0.156680 0.398474
0.215122 0.143923 0.315251
0.350011 0.110903 0.315892
0.565423 0.000000 0.337499
0.775326 0.000000 0.322515
0.927855 0.000000 0.287724
1.000000 0.000000 0.268101
0.000000 0.306798 0.460487
0.000000 0.290959 0.446326
0.213260 0.232151 0.369146
0.357214 0.204807 0.327672
0.583917 0.131746 0.337072
0.786557 0.000000 0.315007
0.936980 0.000000 0.310491
1.000000 0.000000 0.285771
0.000000 0.434638 0.488685
0.000000 0.423499 0.474220
0.144076 0.386938 0.422919
0.387335 0.356878 0.366796
0.632563 0.354345 0.367315
0.820554 0.342443 0.364416
0.951263 0.321965 0.355413
1.000000 0.282628 0.329473
0.000000 0.697597 0.652125
0.000000 0.689448 0.640711
0.000000 0.657954 0.599786
0.303349 0.594049 0.507378
0.668055 0.530663 0.436011
0.857328 0.579644 0.452399
0.965209 0.539910 0.440467
1.000000 0.492042 0.410346
0.000000 0.860410 0.752834
0.000000 0.856809 0.746365
0.000000 0.841886 0.722072
0.279850 0.805478 0.675074
0.408911 0.800351 0.497353
0.853483 0.665187 0.530602
0.972198 0.735134 0.566339
1.000000 0.684504 0.535668
0.000000 0.969665 0.819425
0.000000 0.967956 0.815671
0.000000 0.960327 0.803037
0.296880 0.939117 0.787137
0.503075 0.923888 0.748623
0.710170 0.908721 0.604913
0.963256 0.770748 0.636316
1.000000 0.806943 0.652186
0.000000 1.000000 0.862242
0.000000 1.000000 0.859861
0.000000 1.000000 0.852811
0.280278 1.000000 0.854185
0.655024 0.994537 0.865019
0.654719 0.998840 0.817533
0.878080 0.975616 0.715999
1.000000 0.848722 0.727626
0.000000 0.156954 0.635798
0.000000 0.141970 0.610559
0.233738 0.114778 0.514183
0.329778 0.098329 0.407477
0.503807 0.000000 0.431067
0.722072 0.000000 0.452796
0.899809 0.000000 0.439796
1.000000 0.000000 0.415412
0.000000 0.231449 0.651545
0.000000 0.185092 0.624292
0.228885 0.153719 0.531518
0.332464 0.130495 0.413672
0.506676 0.000000 0.433570
0.725429 0.000000 0.453071
0.901305 0.000000 0.439521
1.000000 0.000000 0.417578
0.000000 0.385382 0.692409
0.000000 0.367254 0.683864
0.146792 0.260380 0.593103
0.337774 0.212253 0.434302
0.516960 0.154177 0.443153
0.737270 0.000000 0.455512
0.906310 0.000000 0.442634
1.000000 0.000000 0.431861
0.000000 0.519066 0.703883
0.000000 0.509087 0.695796
0.000000 0.470069 0.663355
0.370184 0.362890 0.529595
0.539483 0.307958 0.467079
0.756771 0.284245 0.471962
0.912627 0.285527 0.471321
1.000000 0.281254 0.463478
0.000000 0.657893 0.718959
0.000000 0.652552 0.711452
0.000000 0.631373 0.681147
0.336858 0.581384 0.608820
0.592370 0.536400 0.539818
0.794766 0.539422 0.549950
0.931487 0.534325 0.552300
1.000000 0.509880 0.535851
0.000000 0.857145 0.811124
0.000000 0.857725 0.808530
0.000000 0.853849 0.794369
0.294987 0.818601 0.752590
0.545953 0.764279 0.680110
0.821134 0.708858 0.641932
0.946960 0.747189 0.667445
1.000000 0.708095 0.643732
0.000000 0.975097 0.868986
0.000000 0.973358 0.865934
0.000000 0.965515 0.855131
0.312383 0.945251 0.838529
0.611963 0.912688 0.815885
0.674586 0.908385 0.701656
0.945037 0.811307 0.726467
1.000000 0.851072 0.746181
0.000000 1.000000 0.900633
0.000000 1.000000 0.898650
0.000000 1.000000 0.892393
0.198550 1.000000 0.887480
0.630488 1.000000 0.890410
0.748135 0.988525 0.872770
0.860746 0.978027 0.785061
1.000000 0.879576 0.792386
0.000000 0.204379 0.806668
0.000000 0.188571 0.793912
0.199039 0.146761 0.742641
0.381750 0.071351 0.613336
0.491798 0.000000 0.541955
0.675807 0.000000 0.555291
0.862791 0.000000 0.557580
1.000000 0.000000 0.542657
0.000000 0.268528 0.814755
0.000000 0.229618 0.801419
0.174350 0.190524 0.752377
0.385321 0.121279 0.627802
0.494881 0.000000 0.547173
0.677516 0.000000 0.556603
0.864286 0.000000 0.558007
1.000000 0.000000 0.543755
0.000000 0.418616 0.842985
0.000000 0.395270 0.832395
0.000000 0.312749 0.785702
0.389746 0.237308 0.676905
0.503227 0.169314 0.564782
0.683558 0.000000 0.562158
0.869413 0.000000 0.560906
1.000000 0.000000 0.550500
0.000000 0.546990 0.851438
0.000000 0.541405 0.848356
0.000000 0.525414 0.835721
0.385565 0.434272 0.753201
0.509606 0.307774 0.593835
0.693629 0.250980 0.575372
0.877226 0.230442 0.574670
1.000000 0.272679 0.575036
0.000000 0.672541 0.855497
0.000000 0.670008 0.852598
0.000000 0.662867 0.840574
0.405097 0.653895 0.812375
0.561791 0.540185 0.690242
0.710506 0.460670 0.612787
0.884154 0.481453 0.621576
1.000000 0.513085 0.635004
0.000000 0.795895 0.860655
0.000000 0.795163 0.857908
0.000000 0.792477 0.846952
0.375036 0.784787 0.822019
0.591058 0.752865 0.768032
0.756680 0.708858 0.707424
0.905180 0.714107 0.718624
1.000000 0.704189 0.714076
0.000000 0.947723 0.912047
0.000000 0.948882 0.911284
0.000000 0.951751 0.908293
0.346197 0.951659 0.901823
0.621454 0.923491 0.874449
0.751919 0.885344 0.827756
0.923980 0.845396 0.799557
1.000000 0.867155 0.811612
0.000000 1.000000 0.949493
0.000000 1.000000 0.947784
0.000000 1.000000 0.941955
0.226413 1.000000 0.933928
0.617517 1.000000 0.927153
0.800076 0.984344 0.920043
0.836149 0.981781 0.849454
1.000000 0.910002 0.853147
0.000000 0.274174 0.920439
0.000000 0.263096 0.914336
0.077424 0.232700 0.890593
0.405463 0.152010 0.834440
0.508995 0.000000 0.696162
0.686275 0.000000 0.694453
0.837827 0.000000 0.671931
0.988586 0.000000 0.656947
0.000000 0.321416 0.924437
0.000000 0.303655 0.918181
0.005402 0.272648 0.895201
0.401770 0.197940 0.840879
0.513725 0.000000 0.707210
0.687190 0.000000 0.697230
0.838193 0.000000 0.672602
0.988922 0.000000 0.657649
0.000000 0.441047 0.938384
0.000000 0.431678 0.933104
0.063661 0.402747 0.910613
0.395941 0.329381 0.862608
0.527398 0.181369 0.744503
0.689052 0.000000 0.706508
0.839384 0.000000 0.675441
0.989960 0.000000 0.661189
0.000000 0.564294 0.949615
0.000000 0.566430 0.948394
0.190463 0.577661 0.939025
0.457435 0.545159 0.895506
0.551446 0.385595 0.803769
0.686732 0.255070 0.721706
0.840696 0.174533 0.683070
0.990539 0.196170 0.672908
0.000000 0.669062 0.949645
0.000000 0.670985 0.948486
0.139803 0.685359 0.943450
0.517693 0.719173 0.932189
0.635279 0.657832 0.873075
0.672236 0.442267 0.740993
0.839841 0.402441 0.701869
0.987488 0.451301 0.704768
0.000000 0.776394 0.949889
0.000000 0.777920 0.948852
0.000000 0.787015 0.944396
0.490028 0.806699 0.934783
0.688808 0.819791 0.918212
0.736477 0.720363 0.828672
0.839963 0.622766 0.745602
0.980926 0.660517 0.761837
0.000000 0.881315 0.950439
0.000000 0.882414 0.949554
0.000000 0.887114 0.945830
0.448371 0.895323 0.937987
0.668940 0.899382 0.924102
0.785275 0.882994 0.891600
0.876921 0.842557 0.838743
0.984283 0.843473 0.843992
0.000000 0.999084 0.976165
0.000000 1.000000 0.976013
0.000000 1.000000 0.975250
0.295140 1.000000 0.973297
0.632532 1.000000 0.970581
0.803525 0.990570 0.958404
0.895262 0.970336 0.937285
0.989166 0.938628 0.908873
0.000000 0.386542 0.994781
0.000000 0.388495 0.991974
0.176120 0.367163 0.982391
0.402045 0.312078 0.961028
0.561639 0.174258 0.915648
0.690089 0.000000 0.844114
0.876005 0.000000 0.841245
0.983825 0.000000 0.782986
0.000000 0.414862 0.996277
0.000000 0.424384 0.993225
0.216190 0.407630 0.983734
0.409430 0.351171 0.963195
0.561456 0.220035 0.919219
0.687129 0.000000 0.845151
0.875578 0.000000 0.842679
0.983642 0.000000 0.783749
0.000000 0.489479 1.000000
0.000000 0.499397 0.998993
0.358679 0.540429 0.987457
0.458106 0.481300 0.969787
0.567803 0.353277 0.931121
0.675532 0.000000 0.848661
0.873533 0.000000 0.847990
0.982757 0.000000 0.786709
0.000000 0.571984 1.000000
0.000000 0.584070 1.000000
0.348791 0.626551 0.999115
0.578973 0.664973 0.979278
0.616419 0.556268 0.949035
0.668605 0.291997 0.869596
0.866300 0.183932 0.856901
0.980407 0.152956 0.793729
0.000000 0.650141 1.000000
0.000000 0.656001 1.000000
0.213779 0.688472 1.000000
0.568292 0.752773 0.997986
0.717006 0.758602 0.971405
0.711421 0.579004 0.914946
0.843839 0.403479 0.863523
0.974334 0.396551 0.808438
0.000000 0.738552 1.000000
0.000000 0.741878 1.000000
0.000000 0.761379 1.000000
0.519158 0.806607 0.997772
0.739834 0.854612 0.990661
0.813169 0.827665 0.962341
0.811002 0.596216 0.871763
0.963561 0.589715 0.832792
0.000000 0.830320 1.000000
0.000000 0.831968 1.000000
0.000000 0.841581 1.000000
0.438544 0.869261 0.997345
0.706264 0.902220 0.990936
0.851560 0.926055 0.984588
0.876738 0.870085 0.942687
0.950286 0.765011 0.867155
0.000000 0.922911 1.000000
0.000000 0.923827 1.000000
0.000000 0.928344 1.000000
0.278325 0.940795 0.996582
0.654749 0.956878 0.991058
0.827665 0.968566 0.985687
0.918212 0.970916 0.976226
0.963165 0.945434 0.942199
