data/fiter_cube/48671653/1023259/file.cube
# Created by Adobe Lightroom plugin Export LUT (1.17.0)
# www.johnrellis.com/lightroom/exportlut.htm
# Preset: 青橙风光风景_08 云集
# Color profile: C:\Program Files (x86)\Common Files\Adobe\Color\Profiles\Recommended\AdobeRGB1998.icc
LUT_3D_SIZE 5
DOMAIN_MIN 0.000000 0.000000 0.000000
DOMAIN_MAX 0.903226 0.903226 0.903226
0.075166 0.083406 0.090486
0.231022 0.067659 0.083467
0.560632 0.000000 0.000000
0.877348 0.000000 0.000000
1.000000 0.000000 0.000000
0.000000 0.212985 0.188357
0.225162 0.171206 0.114534
0.596185 0.236362 0.000000
0.890074 0.179629 0.000000
1.000000 0.000000 0.000000
0.000000 0.546929 0.450538
0.000000 0.527092 0.393744
0.606317 0.405921 0.153658
0.926787 0.495552 0.000000
1.000000 0.395178 0.000000
0.000000 0.881804 0.697688
0.000000 0.872465 0.671412
0.000000 0.869352 0.543236
0.922515 0.616327 0.286412
1.000000 0.679438 0.275822
0.000000 1.000000 0.816342
0.000000 1.000000 0.808591
0.404242 1.000000 0.802029
0.500542 1.000000 0.555291
1.000000 0.787076 0.581415
0.000000 0.099306 0.215854
0.203067 0.092195 0.194675
0.503929 0.000000 0.179873
0.856596 0.000000 0.144289
1.000000 0.000000 0.000000
0.000000 0.207797 0.238193
0.202609 0.200168 0.210971
0.539513 0.182223 0.197147
0.871000 0.096284 0.157565
1.000000 0.000000 0.060487
0.000000 0.556695 0.489418
0.000000 0.519982 0.435401
0.586725 0.419867 0.260258
0.911620 0.480385 0.227695
1.000000 0.388861 0.176516
0.000000 0.884062 0.720821
0.000000 0.873777 0.697200
0.000000 0.860166 0.585260
0.911925 0.640528 0.394934
1.000000 0.693721 0.400610
0.000000 1.000000 0.830533
0.000000 1.000000 0.823056
0.516045 1.000000 0.832822
0.558099 1.000000 0.639490
1.000000 0.811063 0.641901
0.000000 0.139010 0.524254
0.193851 0.115846 0.425940
0.421942 0.000000 0.370001
0.796323 0.000000 0.390753
1.000000 0.000000 0.342290
0.000000 0.320775 0.579919
0.133547 0.222507 0.486519
0.431464 0.156588 0.380194
0.805661 0.000000 0.387366
1.000000 0.000000 0.354925
0.000000 0.558373 0.617151
0.000000 0.526726 0.576104
0.491829 0.443366 0.450050
0.847227 0.438972 0.457832
1.000000 0.396674 0.432319
0.000000 0.896422 0.800504
0.000000 0.885527 0.782681
0.463111 0.825772 0.716396
0.873075 0.717250 0.615076
1.000000 0.742275 0.626215
0.000000 1.000000 0.880064
0.000000 1.000000 0.873106
0.497688 1.000000 0.872740
0.702663 0.994965 0.832059
1.000000 0.864134 0.760433
0.000000 0.219455 0.839719
0.000000 0.178317 0.801419
0.414679 0.000855 0.578424
0.717830 0.000000 0.585321
1.000000 0.000000 0.572107
0.000000 0.382605 0.862882
0.000000 0.304753 0.826871
0.439063 0.168490 0.628687
0.722286 0.000000 0.589410
1.000000 0.000000 0.576410
0.000000 0.611566 0.881254
0.000000 0.604883 0.872557
0.501884 0.521324 0.775051
0.735225 0.334874 0.613275
1.000000 0.385809 0.620539
0.000000 0.821500 0.887144
0.000000 0.821286 0.879545
0.521874 0.813962 0.842679
0.789975 0.745632 0.743404
0.999939 0.743130 0.750179
0.000000 1.000000 0.965789
0.000000 1.000000 0.958160
0.476905 1.000000 0.942199
0.829984 0.980804 0.925902
0.999023 0.917388 0.867552
0.000000 0.386542 0.994781
0.025696 0.374792 0.985657
0.487068 0.260563 0.942748
0.738155 0.000000 0.844846
0.983825 0.000000 0.782986
0.000000 0.468330 1.000000
0.280461 0.507103 0.989288
0.501884 0.388708 0.951690
0.729580 0.000000 0.848234
0.983093 0.000000 0.785641
0.000000 0.608423 1.000000
0.085603 0.640986 1.000000
0.655848 0.716030 0.975250
0.689174 0.326482 0.858305
0.977966 0.288365 0.799893
0.000000 0.761288 1.000000
0.000000 0.774289 1.000000
0.634272 0.844785 0.994202
0.832334 0.841367 0.959258
0.960296 0.634607 0.840269
0.000000 0.922911 1.000000
0.000000 0.926665 1.000000
0.512535 0.949096 0.993805
0.856565 0.970459 0.984192
0.963165 0.945434 0.942199
