data/fiter_cube/48671653/1023259/file.cube
# Created by Adobe Lightroom plugin Export LUT (1.17.0)
# www.johnrellis.com/lightroom/exportlut.htm
# Preset: 青橙风光风景_08 云集
# Color profile: C:\Program Files (x86)\Common Files\Adobe\Color\Profiles\Recommended\AdobeRGB1998.icc
LUT_3D_SIZE 32
DOMAIN_MIN 0.0 0.0 0.0
DOMAIN_MAX 1.0 1.0 1.0
0.075166 0.083406 0.090486
0.084321 0.082307 0.090364
0.095888 0.081514 0.090120
0.117556 0.079957 0.089540
0.144076 0.077913 0.088594
0.171633 0.075105 0.087312
0.200534 0.071687 0.085664
0.231022 0.067659 0.083467
0.264225 0.062623 0.080507
0.300999 0.054108 0.076417
0.342748 0.034424 0.070619
0.389868 0.009461 0.061707
0.442908 0.000000 0.038697
0.500603 0.000000 0.002380
0.560632 0.000000 0.000000
0.619165 0.000000 0.000000
0.673762 0.000000 0.000000
0.723232 0.000000 0.000000
0.767178 0.000000 0.000000
0.807065 0.000000 0.000000
0.843656 0.000000 0.000000
0.877348 0.000000 0.000000
0.908385 0.000000 0.000000
0.937133 0.000000 0.000000
0.963928 0.000000 0.000000
0.988952 0.000000 0.000000
1.000000 0.000000 0.000000
1.000000 0.000000 0.000000
1.000000 0.000000 0.000000
1.000000 0.000000 0.000000
1.000000 0.000000 0.000000
1.000000 0.000000 0.000000
0.073335 0.088930 0.093599
0.083650 0.086610 0.090333
0.095338 0.088685 0.089601
0.117311 0.087831 0.088960
0.144289 0.085908 0.087984
0.172122 0.083619 0.086671
0.201175 0.080537 0.084993
0.231785 0.077302 0.082704
0.265049 0.073304 0.079713
0.302159 0.068177 0.075502
0.343938 0.060914 0.069429
0.391241 0.043122 0.060273
0.444312 0.014038 0.036866
0.501732 0.000000 0.004120
0.561791 0.000000 0.000000
0.620172 0.000000 0.000000
0.674617 0.000000 0.000000
0.724025 0.000000 0.000000
0.767788 0.000000 0.000000
0.807584 0.000000 0.000000
0.844114 0.000000 0.000000
0.877745 0.000000 0.000000
0.908690 0.000000 0.000000
0.937377 0.000000 0.000000
0.964141 0.000000 0.000000
0.989105 0.000000 0.000000
1.000000 0.000000 0.000000
1.000000 0.000000 0.000000
1.000000 0.000000 0.000000
1.000000 0.000000 0.000000
1.000000 0.000000 0.000000
1.000000 0.000000 0.000000
0.070375 0.097658 0.099336
0.073945 0.098512 0.093599
0.094850 0.092287 0.091218
0.116854 0.097444 0.089540
0.144381 0.095949 0.087678
0.172580 0.093843 0.085786
0.201816 0.091310 0.084047
0.232639 0.088411 0.081727
0.266239 0.085389 0.078553
0.303471 0.081300 0.074220
0.345525 0.076570 0.067811
0.392889 0.069459 0.059602
0.445624 0.054780 0.038880
0.503105 0.013947 0.005646
0.563104 0.000000 0.000000
0.621576 0.000000 0.000000
0.675807 0.000000 0.000000
0.725032 0.000000 0.000000
0.768673 0.000000 0.000000
0.808347 0.000000 0.000000
0.844724 0.000000 0.000000
0.878264 0.000000 0.000000
0.909117 0.000000 0.000000
0.937774 0.000000 0.000000
0.964416 0.000000 0.000000
0.989349 0.000000 0.000000
1.000000 0.000000 0.000000
1.000000 0.000000 0.000000
1.000000 0.000000 0.000000
1.000000 0.000000 0.000000
1.000000 0.000000 0.000000
1.000000 0.000000 0.000000
0.061128 0.116060 0.112459
0.070466 0.115816 0.110231
0.072480 0.116762 0.101472
0.115724 0.103334 0.093904
0.143435 0.114412 0.090608
0.172702 0.112062 0.088258
0.202609 0.109804 0.085969
0.233890 0.107515 0.083070
0.267857 0.105104 0.079591
0.305547 0.102571 0.075502
0.347784 0.099702 0.069856
0.395514 0.095186 0.061646
0.448554 0.089052 0.042756
0.506126 0.079255 0.010651
0.566400 0.062135 0.000000
0.624475 0.011658 0.000000
0.678401 0.000000 0.000000
0.727291 0.000000 0.000000
0.770596 0.000000 0.000000
0.809903 0.000000 0.000000
0.846098 0.000000 0.000000
0.879362 0.000000 0.000000
0.910094 0.000000 0.000000
0.938537 0.000000 0.000000
0.965087 0.000000 0.000000
0.989868 0.000000 0.000000
1.000000 0.000000 0.000000
1.000000 0.000000 0.000000
1.000000 0.000000 0.000000
1.000000 0.000000 0.000000
1.000000 0.000000 0.000000
1.000000 0.000000 0.000000
0.036286 0.137087 0.128328
0.060304 0.136385 0.126619
0.067903 0.136538 0.122957
0.080690 0.137453 0.098085
0.139620 0.117433 0.098299
0.171908 0.132052 0.093355
0.203372 0.134188 0.089784
0.235508 0.132082 0.086702
0.270146 0.130220 0.083314
0.308324 0.129061 0.079194
0.351293 0.127504 0.073243
0.399512 0.125917 0.065522
0.453162 0.123354 0.050752
0.511070 0.118898 0.017212
0.571221 0.111513 0.000000
0.628931 0.100526 0.000000
0.682429 0.084230 0.000000
0.730678 0.060975 0.000000
0.773526 0.000000 0.000000
0.812467 0.000000 0.000000
0.848203 0.000000 0.000000
0.881163 0.000000 0.000000
0.911559 0.000000 0.000000
0.939757 0.000000 0.000000
0.966064 0.000000 0.000000
0.990692 0.000000 0.000000
1.000000 0.000000 0.000000
1.000000 0.000000 0.000000
1.000000 0.000000 0.000000
1.000000 0.000000 0.000000
1.000000 0.000000 0.000000
1.000000 0.000000 0.000000
0.000000 0.160098 0.146059
0.022950 0.159396 0.144472
0.059632 0.158419 0.142489
0.064271 0.159335 0.133791
0.109499 0.157992 0.101991
0.165499 0.133394 0.103212
0.202213 0.151034 0.097566
0.237339 0.160769 0.092592
0.272892 0.159274 0.089082
0.312016 0.158602 0.084810
0.355871 0.158755 0.078889
0.404974 0.158907 0.071229
0.459266 0.158633 0.059663
0.517815 0.157137 0.026886
0.577844 0.153597 0.000000
0.635035 0.147646 0.000000
0.687800 0.138521 0.000000
0.735348 0.127108 0.000000
0.777432 0.112398 0.000000
0.815793 0.094362 0.000000
0.851041 0.068574 0.000000
0.883543 0.000000 0.000000
0.913512 0.000000 0.000000
0.941405 0.000000 0.000000
0.967437 0.000000 0.000000
0.991791 0.000000 0.000000
1.000000 0.000000 0.000000
1.000000 0.000000 0.000000
1.000000 0.000000 0.000000
1.000000 0.000000 0.000000
1.000000 0.000000 0.000000
1.000000 0.000000 0.000000
0.000000 0.185367 0.166018
0.000000 0.184573 0.164523
0.006043 0.183597 0.162356
0.047944 0.183047 0.156008
0.058900 0.184512 0.143191
0.141543 0.180056 0.105837
0.193881 0.151247 0.108339
0.234958 0.171664 0.102113
0.276188 0.190921 0.094972
0.316686 0.191073 0.090669
0.361669 0.191989 0.084840
0.411933 0.193729 0.076448
0.467170 0.195346 0.064515
0.526329 0.195926 0.033997
0.586236 0.194797 0.000000
0.642664 0.191043 0.000000
0.694575 0.184970 0.000000
0.741176 0.176394 0.000000
0.782406 0.166079 0.000000
0.819944 0.153933 0.000000
0.854551 0.140719 0.000000
0.886534 0.124086 0.000000
0.916014 0.104829 0.000000
0.943481 0.079164 0.000000
0.969146 0.019318 0.000000
0.993133 0.000000 0.000000
1.000000 0.000000 0.000000
1.000000 0.000000 0.000000
1.000000 0.000000 0.000000
1.000000 0.000000 0.000000
1.000000 0.000000 0.000000
1.000000 0.000000 0.000000
0.000000 0.212985 0.188357
0.000000 0.212314 0.186984
0.000000 0.211337 0.184878
0.006226 0.209354 0.179690
0.021759 0.210605 0.168612
0.063203 0.212192 0.131289
0.176486 0.204166 0.110201
0.225162 0.171206 0.114534
0.271763 0.194949 0.107362
0.320378 0.220859 0.097627
0.368780 0.228275 0.090150
0.420569 0.231144 0.081239
0.477058 0.234104 0.067872
0.536797 0.236210 0.038911
0.596185 0.236362 0.000000
0.651789 0.233951 0.000000
0.702602 0.229221 0.000000
0.748074 0.222049 0.000000
0.788266 0.213321 0.000000
0.824949 0.203281 0.000000
0.858762 0.192203 0.000000
0.890074 0.179629 0.000000
0.919005 0.166415 0.000000
0.945953 0.151217 0.000000
0.971160 0.133913 0.000000
0.994812 0.113680 0.000000
1.000000 0.087251 0.000000
1.000000 0.031464 0.000000
1.000000 0.000000 0.000000
1.000000 0.000000 0.000000
1.000000 0.000000 0.000000
1.000000 0.000000 0.000000
0.000000 0.243992 0.213413
0.000000 0.243290 0.211948
0.000000 0.242313 0.209903
0.000000 0.240238 0.204868
0.000000 0.239811 0.195560
0.000000 0.241367 0.181704
0.092287 0.241703 0.114626
0.213962 0.231113 0.115053
0.260716 0.193912 0.120974
0.314458 0.221927 0.112245
0.371221 0.252171 0.099947
0.430945 0.272068 0.085481
0.488808 0.276249 0.071687
0.549187 0.279515 0.043824
0.607721 0.280247 0.000000
0.662287 0.278325 0.000000
0.711879 0.273655 0.000000
0.756100 0.266972 0.000000
0.794980 0.258488 0.000000
0.830686 0.249088 0.000000
0.863676 0.238987 0.000000
0.894224 0.227695 0.000000
0.922454 0.215824 0.000000
0.948821 0.203433 0.000000
0.973510 0.189822 0.000000
0.996704 0.174868 0.000000
1.000000 0.158663 0.000000
1.000000 0.139925 0.000000
1.000000 0.117342 0.000000
1.000000 0.087068 0.000000
1.000000 0.006561 0.000000
1.000000 0.000000 0.000000
0.000000 0.279118 0.241764
0.000000 0.278386 0.240269
0.000000 0.277501 0.238163
0.000000 0.275364 0.233188
0.000000 0.272892 0.224949
0.000000 0.274449 0.212345
0.000000 0.276249 0.195407
0.144381 0.273106 0.118959
0.256077 0.261479 0.119936
0.301671 0.219944 0.127504
0.364202 0.252903 0.116884
0.430457 0.288212 0.100282
0.502220 0.322332 0.075380
0.562921 0.325963 0.049073
0.620844 0.326635 0.000000
0.674189 0.324376 0.000000
0.722377 0.319432 0.000000
0.764889 0.312139 0.000000
0.802518 0.303502 0.000000
0.837064 0.293706 0.000000
0.869108 0.283696 0.000000
0.898772 0.272862 0.000000
0.926299 0.261540 0.000000
0.951995 0.249729 0.000000
0.976135 0.237430 0.000000
0.998840 0.224552 0.000000
1.000000 0.210666 0.000000
1.000000 0.195773 0.000000
1.000000 0.179324 0.000000
1.000000 0.160678 0.000000
1.000000 0.138796 0.000000
1.000000 0.110018 0.000000
0.000000 0.319646 0.274235
0.000000 0.318883 0.272740
0.000000 0.317967 0.270512
0.000000 0.315770 0.265690
0.000000 0.312047 0.257572
0.000000 0.312200 0.246220
0.000000 0.314000 0.230747
0.000000 0.315923 0.185550
0.194736 0.308904 0.123110
0.301488 0.294041 0.124910
0.349554 0.249943 0.133974
0.422553 0.288609 0.120241
0.496956 0.328374 0.099031
0.575891 0.370825 0.060182
0.635340 0.376440 0.000000
0.687129 0.373083 0.000000
0.733577 0.366888 0.000000
0.774411 0.358679 0.000000
0.810666 0.348943 0.000000
0.844114 0.338567 0.000000
0.875059 0.327947 0.000000
0.903838 0.316747 0.000000
0.930541 0.305425 0.000000
0.955535 0.293767 0.000000
0.979065 0.281834 0.000000
1.000000 0.269383 0.000000
1.000000 0.256504 0.000000
1.000000 0.243137 0.000000
1.000000 0.228641 0.000000
1.000000 0.213016 0.000000
1.000000 0.195834 0.000000
1.000000 0.176364 0.000000
0.000000 0.366430 0.311437
0.000000 0.365820 0.309941
0.000000 0.364630 0.307622
0.000000 0.362188 0.302800
0.000000 0.358404 0.294865
0.000000 0.355566 0.283757
0.000000 0.357427 0.269627
0.000000 0.359564 0.251072
0.000000 0.361059 0.151369
0.248539 0.349828 0.126925
0.347112 0.325200 0.131441
0.405432 0.284398 0.139803
0.488411 0.328405 0.122133
0.567620 0.370581 0.095766
0.642542 0.410620 0.042481
0.700893 0.424475 0.000000
0.745541 0.416632 0.000000
0.784634 0.406683 0.000000
0.819394 0.395575 0.000000
0.851591 0.384222 0.000000
0.881498 0.372473 0.000000
0.909209 0.360723 0.000000
0.935027 0.348760 0.000000
0.959319 0.336767 0.000000
0.982177 0.324590 0.000000
1.000000 0.312261 0.000000
1.000000 0.299535 0.000000
1.000000 0.286625 0.000000
1.000000 0.272984 0.000000
1.000000 0.258671 0.000000
1.000000 0.243290 0.000000
1.000000 0.226505 0.000000
0.000000 0.420600 0.353796
0.000000 0.419867 0.352300
0.000000 0.418647 0.350103
0.000000 0.416114 0.345190
0.000000 0.412055 0.337224
0.000000 0.406287 0.325902
0.000000 0.407507 0.312505
0.000000 0.409522 0.295354
0.000000 0.411933 0.273411
0.103426 0.410773 0.128054
0.307530 0.396460 0.129335
0.399664 0.360601 0.137331
0.469062 0.323186 0.144808
0.558465 0.370520 0.123232
0.634668 0.410834 0.094362
0.702693 0.446845 0.037812
0.757900 0.468818 0.000000
0.795224 0.456703 0.000000
0.828489 0.443671 0.000000
0.859464 0.430610 0.000000
0.888212 0.417792 0.000000
0.914946 0.404883 0.000000
0.939849 0.392126 0.000000
0.963317 0.379339 0.000000
0.985473 0.366674 0.000000
1.000000 0.354009 0.000000
1.000000 0.341192 0.000000
1.000000 0.328191 0.000000
1.000000 0.314794 0.000000
1.000000 0.300816 0.000000
1.000000 0.286198 0.000000
1.000000 0.270634 0.000000
0.000000 0.481636 0.401007
0.000000 0.480690 0.399268
0.000000 0.479530 0.397131
0.000000 0.476997 0.392309
0.000000 0.472633 0.384344
0.000000 0.466621 0.373114
0.000000 0.463905 0.359380
0.000000 0.465949 0.343236
0.000000 0.468208 0.322728
0.000000 0.470466 0.269139
0.194522 0.464576 0.128756
0.373571 0.448371 0.129305
0.458930 0.399817 0.142367
0.538079 0.364782 0.148806
0.625025 0.410620 0.126131
0.695460 0.447578 0.097871
0.754971 0.478798 0.056886
0.804868 0.505028 0.000000
0.837888 0.493355 0.000000
0.867521 0.478523 0.000000
0.895109 0.463935 0.000000
0.920806 0.449744 0.000000
0.944793 0.435798 0.000000
0.967468 0.422156 0.000000
0.988891 0.408728 0.000000
1.000000 0.395453 0.000000
1.000000 0.382116 0.000000
1.000000 0.368811 0.000000
1.000000 0.355261 0.000000
1.000000 0.341436 0.000000
1.000000 0.327001 0.000000
1.000000 0.311833 0.000000
0.000000 0.546929 0.450538
0.000000 0.546105 0.448981
0.000000 0.544915 0.446845
0.000000 0.542412 0.442145
0.000000 0.538170 0.434424
0.000000 0.532372 0.423590
0.000000 0.525231 0.409155
0.000000 0.527092 0.393744
0.000000 0.529229 0.374548
0.000000 0.531762 0.350713
0.000000 0.533104 0.236576
0.274296 0.521904 0.127413
0.444892 0.503685 0.127260
0.523033 0.440955 0.147066
0.606317 0.405921 0.153658
0.685908 0.447730 0.132235
0.748318 0.480201 0.108034
0.799435 0.506706 0.078584
0.842954 0.529381 0.012970
0.875700 0.527886 0.000000
0.902098 0.511376 0.000000
0.926787 0.495552 0.000000
0.949859 0.480201 0.000000
0.971710 0.465339 0.000000
0.992370 0.450935 0.000000
1.000000 0.436835 0.000000
1.000000 0.422858 0.000000
1.000000 0.409033 0.000000
1.000000 0.395178 0.000000
1.000000 0.381048 0.000000
1.000000 0.366552 0.000000
1.000000 0.351354 0.000000
0.000000 0.610925 0.498360
0.000000 0.610101 0.496895
0.000000 0.609094 0.494972
0.000000 0.606775 0.490547
0.000000 0.602991 0.483375
0.000000 0.597711 0.473182
0.000000 0.590631 0.459693
0.000000 0.588739 0.444221
0.000000 0.590478 0.425971
0.000000 0.592523 0.403784
0.000000 0.594842 0.376471
0.000000 0.595117 0.161074
0.351446 0.578180 0.126009
0.517876 0.558038 0.125063
0.587518 0.480537 0.153323
0.668849 0.444129 0.161013
0.739162 0.480751 0.142489
0.793393 0.508690 0.123293
0.838193 0.531792 0.102785
0.877195 0.551965 0.079500
0.909087 0.560143 0.051545
0.932738 0.542351 0.034546
0.954925 0.525414 0.013184
0.975921 0.509209 0.000000
0.995850 0.493660 0.000000
1.000000 0.478523 0.000000
1.000000 0.463722 0.000000
1.000000 0.449226 0.000000
1.000000 0.434791 0.000000
1.000000 0.420233 0.000000
1.000000 0.405402 0.000000
1.000000 0.390112 0.000000
0.000000 0.669642 0.541772
0.000000 0.669001 0.540490
0.000000 0.668116 0.538689
0.000000 0.666163 0.534661
0.000000 0.662898 0.528161
0.000000 0.658350 0.519066
0.000000 0.652155 0.506859
0.000000 0.646357 0.491432
0.000000 0.647730 0.474311
0.000000 0.649348 0.453651
0.000000 0.651270 0.428656
0.000000 0.652827 0.371893
0.088685 0.649042 0.128389
0.425971 0.629480 0.127687
0.588006 0.607874 0.125765
0.650935 0.518791 0.161471
0.724117 0.478401 0.172122
0.785000 0.509880 0.157443
0.832944 0.534447 0.142763
0.872984 0.555016 0.128786
0.907805 0.573022 0.114412
0.938231 0.588739 0.099214
0.959838 0.571588 0.093874
0.980041 0.553887 0.087343
0.999237 0.536950 0.078248
1.000000 0.520653 0.064912
1.000000 0.504906 0.031769
1.000000 0.489570 0.000000
1.000000 0.474372 0.000000
1.000000 0.459266 0.000000
1.000000 0.444007 0.000000
1.000000 0.428382 0.000000
0.000000 0.721950 0.580224
0.000000 0.721309 0.578943
0.000000 0.720638 0.577356
0.000000 0.718929 0.573724
0.000000 0.716213 0.567956
0.000000 0.712428 0.559777
0.000000 0.707240 0.548974
0.000000 0.700526 0.534936
0.000000 0.699763 0.518639
0.000000 0.701076 0.499489
0.000000 0.702693 0.476661
0.000000 0.704433 0.449500
0.000000 0.705074 0.337072
0.245731 0.696376 0.135042
0.497017 0.675929 0.133883
0.654170 0.653590 0.131594
0.709377 0.552911 0.174228
0.773556 0.509911 0.186893
0.825925 0.536736 0.175967
0.868345 0.558434 0.165835
0.904051 0.576745 0.156405
0.935180 0.592706 0.147341
0.962524 0.606775 0.138430
0.983948 0.599420 0.132357
1.000000 0.580987 0.126802
1.000000 0.563531 0.119478
1.000000 0.546624 0.109560
1.000000 0.530297 0.096620
1.000000 0.514275 0.077211
1.000000 0.498421 0.032319
1.000000 0.482582 0.000000
1.000000 0.466438 0.000000
0.000000 0.768460 0.614282
0.000000 0.768063 0.613275
0.000000 0.767391 0.611749
0.000000 0.766079 0.608606
0.000000 0.763851 0.603540
0.000000 0.760769 0.596399
0.000000 0.756649 0.586847
0.000000 0.751186 0.574670
0.000000 0.747189 0.559625
0.000000 0.748348 0.542016
0.000000 0.749691 0.521050
0.000000 0.751186 0.496468
0.000000 0.752926 0.467384
0.000000 0.752926 0.282139
0.343267 0.739223 0.147799
0.563745 0.718135 0.146456
0.716426 0.695338 0.144228
0.761929 0.583612 0.191592
0.817716 0.539055 0.205783
0.862699 0.561944 0.198306
0.899962 0.580926 0.191745
0.931823 0.597162 0.185672
0.959716 0.611414 0.180026
0.984436 0.624109 0.174563
1.000000 0.625940 0.169162
1.000000 0.606989 0.163210
1.000000 0.588891 0.155642
1.000000 0.571496 0.146426
1.000000 0.554528 0.134401
1.000000 0.537865 0.118929
1.000000 0.521294 0.096925
1.000000 0.504631 0.060243
0.000000 0.810361 0.645014
0.000000 0.809995 0.644068
0.000000 0.809537 0.642817
0.000000 0.808469 0.640040
0.000000 0.806699 0.635492
0.000000 0.804166 0.629236
0.000000 0.800778 0.620935
0.000000 0.796384 0.610376
0.000000 0.790738 0.597345
0.000000 0.791012 0.581048
0.000000 0.792203 0.561944
0.000000 0.793515 0.539635
0.000000 0.794980 0.513542
0.000000 0.796353 0.464027
0.000000 0.796017 0.192294
0.425849 0.777249 0.167178
0.625849 0.755947 0.165957
0.773342 0.733028 0.164370
0.808774 0.610773 0.214054
0.857023 0.566247 0.228702
0.895537 0.585687 0.224216
0.928069 0.602197 0.220249
0.956573 0.616724 0.216831
0.981750 0.629572 0.213626
1.000000 0.640955 0.210300
1.000000 0.650965 0.206180
1.000000 0.631952 0.199405
1.000000 0.613397 0.191287
1.000000 0.595392 0.181582
1.000000 0.577874 0.169528
1.000000 0.560540 0.154330
1.000000 0.543267 0.134798
0.000000 0.848051 0.672755
0.000000 0.847745 0.671962
0.000000 0.847349 0.670802
0.000000 0.846494 0.668330
0.000000 0.845029 0.664302
0.000000 0.842985 0.658778
0.000000 0.840238 0.651637
0.000000 0.836698 0.642573
0.000000 0.831968 0.631403
0.000000 0.829374 0.617243
0.000000 0.830411 0.599786
0.000000 0.831540 0.579461
0.000000 0.832853 0.556023
0.000000 0.834257 0.528923
0.000000 0.834958 0.433783
0.128237 0.830900 0.192599
0.498817 0.811032 0.192844
0.683162 0.789670 0.192264
0.824216 0.765957 0.191409
0.850156 0.635462 0.241093
0.891814 0.591791 0.255650
0.924804 0.608392 0.253361
0.953094 0.622644 0.251286
0.978790 0.635767 0.249912
1.000000 0.647333 0.248447
1.000000 0.657557 0.246464
1.000000 0.666316 0.243473
1.000000 0.656062 0.236881
1.000000 0.636957 0.227481
1.000000 0.618524 0.216770
1.000000 0.600427 0.204196
1.000000 0.583001 0.189548
0.000000 0.881804 0.697688
0.000000 0.881559 0.696986
0.000000 0.881254 0.695979
0.000000 0.880522 0.693782
0.000000 0.879362 0.690303
0.000000 0.877684 0.685481
0.000000 0.875425 0.679225
0.000000 0.872465 0.671412
0.000000 0.868650 0.662013
0.000000 0.863706 0.650874
0.000000 0.864622 0.634913
0.000000 0.865629 0.616358
0.000000 0.866758 0.595239
0.000000 0.867979 0.571008
0.000000 0.869352 0.543236
0.000000 0.869505 0.397375
0.295445 0.860899 0.223758
0.564630 0.841062 0.224308
0.735683 0.819883 0.224247
0.860990 0.787411 0.228550
0.886595 0.658320 0.272526
0.922515 0.616327 0.286412
0.950805 0.630457 0.285649
0.975402 0.642786 0.285100
0.998505 0.654597 0.285222
1.000000 0.665003 0.284916
1.000000 0.674006 0.283787
1.000000 0.681666 0.281468
1.000000 0.679438 0.275822
1.000000 0.659998 0.265293
1.000000 0.641474 0.253941
1.000000 0.624079 0.241917
0.000000 0.912047 0.720150
0.000000 0.911864 0.719539
0.000000 0.911620 0.718715
0.000000 0.910979 0.716732
0.000000 0.910002 0.713680
0.000000 0.908629 0.709468
0.000000 0.906798 0.704067
0.000000 0.904326 0.697444
0.000000 0.901061 0.689540
0.000000 0.896818 0.680446
0.000000 0.895018 0.667750
0.000000 0.895903 0.651026
0.000000 0.896910 0.631922
0.000000 0.898009 0.610163
0.000000 0.899229 0.585504
0.000000 0.900420 0.548669
0.000000 0.900206 0.357275
0.398901 0.887266 0.259892
0.624628 0.867582 0.261051
0.783841 0.846799 0.261509
0.893675 0.806455 0.269444
0.918547 0.679835 0.308232
0.949554 0.640345 0.321324
0.973938 0.652369 0.321538
0.995148 0.662806 0.321477
1.000000 0.673518 0.322759
1.000000 0.682765 0.323369
1.000000 0.690700 0.322698
1.000000 0.697230 0.320775
1.000000 0.702510 0.317296
1.000000 0.683833 0.306645
1.000000 0.666682 0.296483
0.000000 0.939208 0.740505
0.000000 0.939055 0.739925
0.000000 0.938811 0.739162
0.000000 0.938323 0.737453
0.000000 0.937499 0.734768
0.000000 0.936370 0.731136
0.000000 0.934813 0.726528
0.000000 0.932677 0.720943
0.000000 0.929839 0.714351
0.000000 0.926146 0.707057
0.000000 0.921874 0.698848
0.000000 0.922667 0.683680
0.000000 0.923583 0.666499
0.000000 0.924590 0.647059
0.000000 0.925658 0.625147
0.000000 0.926879 0.600458
0.000000 0.927550 0.529015
0.000000 0.927337 0.317174
0.483131 0.910338 0.301579
0.679561 0.891112 0.303044
0.827451 0.870909 0.303960
0.922576 0.823606 0.314092
0.946441 0.701198 0.348089
0.973388 0.664332 0.359930
0.994293 0.674464 0.360601
1.000000 0.683040 0.360418
1.000000 0.692653 0.362615
1.000000 0.700862 0.363745
1.000000 0.707729 0.363622
1.000000 0.713283 0.362432
1.000000 0.717769 0.360388
1.000000 0.710567 0.355077
0.000000 0.963622 0.758846
0.000000 0.963470 0.758358
0.000000 0.963317 0.757687
0.000000 0.962890 0.756222
0.000000 0.962188 0.753872
0.000000 0.961212 0.750759
0.000000 0.959838 0.746822
0.000000 0.957977 0.742123
0.000000 0.955444 0.736812
0.000000 0.952117 0.731197
0.000000 0.947662 0.725765
0.000000 0.946166 0.715053
0.000000 0.946990 0.699672
0.000000 0.947906 0.682368
0.000000 0.948913 0.662989
0.000000 0.950011 0.641260
0.000000 0.951202 0.616907
0.000000 0.951507 0.512749
0.274449 0.948211 0.345800
0.556481 0.930724 0.348058
0.730007 0.912169 0.349828
0.867033 0.892790 0.350866
0.948241 0.839658 0.362036
0.970916 0.722621 0.391455
0.994202 0.688624 0.401770
1.000000 0.696986 0.402380
1.000000 0.703700 0.401587
1.000000 0.712245 0.404303
1.000000 0.719509 0.406104
1.000000 0.725490 0.406928
1.000000 0.730495 0.407568
1.000000 0.734859 0.409064
0.000000 0.985748 0.775570
0.000000 0.985626 0.775143
0.000000 0.985473 0.774533
0.000000 0.985107 0.773251
0.000000 0.984497 0.771267
0.000000 0.983673 0.768582
0.000000 0.982452 0.765286
0.000000 0.980774 0.761471
0.000000 0.978454 0.757290
0.000000 0.975311 0.753201
0.000000 0.971069 0.749752
0.000000 0.966644 0.745754
0.000000 0.967437 0.732052
0.000000 0.968292 0.716732
0.000000 0.969207 0.699641
0.000000 0.970245 0.680598
0.000000 0.971374 0.659419
0.000000 0.972595 0.635889
0.194339 0.972473 0.503471
0.405951 0.965545 0.396185
0.622522 0.948699 0.398505
0.776638 0.931029 0.400336
0.902617 0.912718 0.401465
0.970764 0.855161 0.412909
0.991974 0.744533 0.438056
1.000000 0.713375 0.446418
1.000000 0.719997 0.446357
1.000000 0.725093 0.444953
1.000000 0.732387 0.447883
1.000000 0.738949 0.450813
1.000000 0.744564 0.453712
1.000000 0.749813 0.458350
0.000000 1.000000 0.790707
0.000000 1.000000 0.790341
0.000000 1.000000 0.789822
0.000000 1.000000 0.788724
0.000000 1.000000 0.786984
0.000000 1.000000 0.784756
0.000000 1.000000 0.782010
0.000000 1.000000 0.778988
0.000000 0.999023 0.775875
0.000000 0.996002 0.773220
0.000000 0.991791 0.771664
0.000000 0.986297 0.771786
0.159945 0.984863 0.763790
0.168765 0.985657 0.750362
0.177768 0.986511 0.735409
0.186130 0.987518 0.718837
0.195254 0.988556 0.700526
0.203922 0.989685 0.680262
0.236545 0.990509 0.634363
0.311162 0.990448 0.504875
0.505882 0.980285 0.450202
0.682551 0.964385 0.452277
0.818997 0.947814 0.453712
0.934081 0.930694 0.454505
0.990173 0.870024 0.465583
1.000000 0.766537 0.486397
1.000000 0.738399 0.492317
1.000000 0.743221 0.491249
1.000000 0.746914 0.489357
1.000000 0.753079 0.492409
1.000000 0.759365 0.497475
1.000000 0.765469 0.504448
0.000000 1.000000 0.804318
0.000000 1.000000 0.803983
0.000000 1.000000 0.803555
0.000000 1.000000 0.802609
0.000000 1.000000 0.801144
0.000000 1.000000 0.799252
0.000000 1.000000 0.797055
0.000000 1.000000 0.794705
0.000000 1.000000 0.792599
0.000000 1.000000 0.791287
0.000000 1.000000 0.791440
0.109010 1.000000 0.793668
0.301091 0.999359 0.794339
0.304204 1.000000 0.782681
