data/fiter_cube/87192323/1023456/file.cube
# Created by Adobe Lightroom plugin Export LUT (1.17.0)
# www.johnrellis.com/lightroom/exportlut.htm
# Preset: 日系清新自然_07 云集
# Color profile: C:\Program Files (x86)\Common Files\Adobe\Color\Profiles\Recommended\AdobeRGB1998.icc
LUT_3D_SIZE 5
DOMAIN_MIN 0.000000 0.000000 0.000000
DOMAIN_MAX 0.903226 0.903226 0.903226
0.000000 0.000000 0.000000
0.327489 0.000000 0.000000
0.609308 0.000000 0.000000
0.831052 0.000000 0.000000
0.995819 0.063569 0.006561
0.023926 0.242527 0.090242
0.281865 0.272038 0.000000
0.615076 0.281071 0.000000
0.834470 0.261875 0.000000
1.000000 0.244938 0.000000
0.083772 0.407385 0.156161
0.142550 0.395087 0.118532
0.516075 0.526482 0.024628
0.839658 0.552605 0.000000
0.998871 0.496193 0.000000
0.054017 0.566278 0.208865
0.121126 0.559960 0.184878
0.271214 0.532219 0.163241
0.694057 0.732723 0.086397
0.990021 0.746181 0.000000
0.000000 0.802274 0.286870
0.000000 0.799802 0.268132
0.198550 0.785367 0.195865
0.492775 0.823484 0.229679
0.865049 0.923278 0.189151
0.000000 0.054475 0.231083
0.297795 0.000000 0.242039
0.556512 0.103243 0.247715
0.780240 0.163729 0.258457
0.971252 0.191867 0.257359
0.084169 0.264225 0.226444
0.307134 0.269535 0.239322
0.573754 0.260899 0.232731
0.801633 0.262150 0.228977
0.980774 0.264012 0.224857
0.121859 0.427100 0.224430
0.255558 0.427619 0.235630
0.513451 0.512383 0.226322
0.822690 0.532738 0.174289
0.989746 0.492866 0.188876
0.137911 0.579095 0.261082
0.208865 0.576593 0.253910
0.301030 0.549554 0.213382
0.696559 0.729183 0.228855
0.986267 0.743801 0.187961
0.039094 0.804715 0.328557
0.125917 0.802090 0.310979
0.242405 0.797177 0.252018
0.493568 0.820981 0.272831
0.869993 0.924132 0.280491
0.000000 0.095033 0.415229
0.218906 0.071626 0.419471
0.517876 0.000000 0.447517
0.777188 0.085817 0.458930
0.943847 0.291875 0.468971
0.158938 0.284825 0.410193
0.232090 0.240818 0.420661
0.523857 0.230747 0.450202
0.766384 0.276158 0.456214
0.938262 0.386938 0.481056
0.118898 0.458015 0.396521
0.262699 0.467872 0.408087
0.544060 0.512261 0.458412
0.768612 0.515618 0.459174
0.961395 0.514305 0.455451
0.000000 0.608820 0.364904
0.200198 0.609491 0.368597
0.429023 0.616358 0.391943
0.710719 0.724208 0.445533
0.976196 0.736873 0.434546
0.000000 0.812253 0.404028
0.079652 0.812680 0.403174
0.332158 0.808988 0.389227
0.470741 0.791226 0.355566
0.877012 0.918090 0.455299
0.000000 0.131502 0.600427
0.095918 0.116182 0.601617
0.423499 0.000000 0.610529
0.701198 0.000000 0.644709
0.953002 0.000000 0.655146
0.000000 0.277501 0.593469
0.087556 0.228885 0.597803
0.420172 0.200931 0.606867
0.699641 0.187533 0.641352
0.950011 0.237095 0.652461
0.154543 0.468055 0.570947
0.259159 0.468879 0.575921
0.420966 0.426978 0.604303
0.703639 0.445838 0.640192
0.936675 0.500084 0.655390
0.000000 0.634516 0.559472
0.176669 0.637568 0.563836
0.420233 0.656580 0.587549
0.732235 0.719142 0.662257
0.938567 0.725338 0.668086
0.000000 0.829892 0.543389
0.000000 0.831998 0.541985
0.241550 0.839445 0.537530
0.565850 0.828214 0.548760
0.891875 0.913329 0.655573
0.000000 0.178164 0.839933
0.000000 0.163790 0.839475
0.340581 0.091127 0.839536
0.610651 0.000000 0.842649
0.882017 0.000000 0.863920
0.000000 0.284092 0.834562
0.000000 0.242893 0.835447
0.328344 0.204349 0.836484
0.605585 0.086763 0.840360
0.881804 0.000000 0.862852
0.000000 0.510155 0.818662
0.162295 0.496071 0.821073
0.272374 0.388830 0.829129
0.587182 0.350622 0.835843
0.883421 0.371710 0.861845
0.000000 0.680629 0.805966
0.000000 0.676326 0.806210
0.347997 0.663844 0.809049
0.568536 0.603601 0.829282
0.889189 0.642237 0.862638
0.000000 0.872374 0.803922
0.000000 0.871916 0.804257
0.114626 0.871336 0.806912
0.538231 0.870420 0.814572
0.914336 0.913390 0.884733
