data/fiter_cube/87192323/1023456/file.cube
# Created by Adobe Lightroom plugin Export LUT (1.17.0)
# www.johnrellis.com/lightroom/exportlut.htm
# Preset: 日系清新自然_07 云集
# Color profile: C:\Program Files (x86)\Common Files\Adobe\Color\Profiles\Recommended\AdobeRGB1998.icc
LUT_3D_SIZE 32
DOMAIN_MIN 0.0 0.0 0.0
DOMAIN_MAX 1.0 1.0 1.0
0.000000 0.000000 0.000000
0.061250 0.000000 0.000000
0.087190 0.000000 0.000000
0.131167 0.000000 0.000000
0.185245 0.000000 0.000000
0.236271 0.000000 0.000000
0.283574 0.000000 0.000000
0.327489 0.000000 0.000000
0.369909 0.000000 0.000000
0.411353 0.000000 0.000000
0.452277 0.000000 0.000000
0.492714 0.000000 0.000000
0.532494 0.000000 0.000000
0.571588 0.000000 0.000000
0.609308 0.000000 0.000000
0.644495 0.000000 0.000000
0.677577 0.000000 0.000000
0.708766 0.000000 0.000000
0.737728 0.000000 0.000000
0.770962 0.000000 0.000000
0.802182 0.000000 0.000000
0.831052 0.000000 0.000000
0.857603 0.000000 0.000000
0.882444 0.000000 0.000000
0.906004 0.000000 0.000000
0.928710 0.000000 0.000000
0.951141 0.019348 0.000000
0.973480 0.046693 0.000000
0.995819 0.063569 0.006561
1.000000 0.075074 0.021698
1.000000 0.085237 0.039857
1.000000 0.095094 0.058961
0.004639 0.046998 0.006867
0.054261 0.048615 0.002075
0.087739 0.045350 0.000000
0.132357 0.042695 0.000000
0.186618 0.035126 0.000000
0.237644 0.018036 0.000000
0.284855 0.000000 0.000000
0.328618 0.000000 0.000000
0.370886 0.000000 0.000000
0.412421 0.000000 0.000000
0.452796 0.000000 0.000000
0.492653 0.000000 0.000000
0.532067 0.000000 0.000000
0.570825 0.000000 0.000000
0.608270 0.000000 0.000000
0.643275 0.000000 0.000000
0.676234 0.000000 0.000000
0.707332 0.000000 0.000000
0.736263 0.000000 0.000000
0.769192 0.000000 0.000000
0.799924 0.000000 0.000000
0.828458 0.000000 0.000000
0.854917 0.000000 0.000000
0.879820 0.000000 0.000000
0.903441 0.000000 0.000000
0.926299 0.019379 0.000000
0.948943 0.043000 0.000000
0.971374 0.062379 0.000000
0.993957 0.071626 0.000000
1.000000 0.080415 0.004028
1.000000 0.089021 0.020111
1.000000 0.097902 0.041444
0.011383 0.073548 0.016175
0.037751 0.071748 0.013764
0.080781 0.075532 0.002930
0.132601 0.078767 0.000000
0.186831 0.079347 0.000000
0.237766 0.075227 0.000000
0.284428 0.067994 0.000000
0.327977 0.058167 0.000000
0.370245 0.038087 0.000000
0.411536 0.010742 0.000000
0.452369 0.000000 0.000000
0.492683 0.000000 0.000000
0.532311 0.000000 0.000000
0.571374 0.000000 0.000000
0.608606 0.000000 0.000000
0.643458 0.000000 0.000000
0.676234 0.000000 0.000000
0.707179 0.000000 0.000000
0.736080 0.000000 0.000000
0.768856 0.000000 0.000000
0.799252 0.000000 0.000000
0.827604 0.000000 0.000000
0.854002 0.000000 0.000000
0.878813 0.018769 0.000000
0.902434 0.042054 0.000000
0.925292 0.058961 0.000000
0.947936 0.067292 0.000000
0.970489 0.075227 0.000000
0.993133 0.082246 0.000000
1.000000 0.089723 0.000000
1.000000 0.096529 0.002777
1.000000 0.103883 0.022217
0.022309 0.108095 0.034974
0.040803 0.106813 0.026337
0.068849 0.104860 0.029084
0.122530 0.114687 0.003998
0.187198 0.122072 0.000000
0.239322 0.121920 0.000000
0.285466 0.117494 0.000000
0.328740 0.112184 0.000000
0.370489 0.106203 0.000000
0.411658 0.099580 0.000000
0.452247 0.093080 0.000000
0.492287 0.086732 0.000000
0.531640 0.081025 0.000000
0.570428 0.075807 0.000000
0.608087 0.070222 0.000000
0.643183 0.066377 0.000000
0.676173 0.063111 0.000000
0.707271 0.061219 0.000000
0.737209 0.060304 0.000000
0.769039 0.062867 0.000000
0.798581 0.067445 0.000000
0.826383 0.072267 0.000000
0.852689 0.077577 0.000000
0.877745 0.082795 0.000000
0.901823 0.087007 0.000000
0.925200 0.091493 0.000000
0.948150 0.095552 0.000000
0.970916 0.100435 0.000000
0.993561 0.104524 0.000000
1.000000 0.108614 0.000000
1.000000 0.113283 0.000000
1.000000 0.117647 0.000000
0.029145 0.145571 0.058320
0.043580 0.144289 0.048829
0.059205 0.142489 0.035889
0.098726 0.143038 0.035340
0.166384 0.157229 0.000000
0.236545 0.166293 0.000000
0.284581 0.164492 0.000000
0.329076 0.160708 0.000000
0.370520 0.155642 0.000000
0.411261 0.151278 0.000000
0.451545 0.146822 0.000000
0.491279 0.143160 0.000000
0.530541 0.139559 0.000000
0.569329 0.136446 0.000000
0.606989 0.133639 0.000000
0.642329 0.131411 0.000000
0.675563 0.128969 0.000000
0.706844 0.126833 0.000000
0.738094 0.125673 0.000000
0.769131 0.125643 0.000000
0.798276 0.125490 0.000000
0.825986 0.125673 0.000000
0.852293 0.125795 0.000000
0.877501 0.125978 0.000000
0.901762 0.126162 0.000000
0.925383 0.125948 0.000000
0.948363 0.127352 0.000000
0.971038 0.128908 0.000000
0.993561 0.130648 0.000000
1.000000 0.132509 0.000000
1.000000 0.134463 0.000000
1.000000 0.136751 0.000000
0.024781 0.180179 0.069306
0.038239 0.179049 0.064393
0.054566 0.177462 0.056092
0.080934 0.173220 0.047242
0.133608 0.180453 0.034394
0.207065 0.196963 0.000000
0.281773 0.208896 0.000000
0.326940 0.206485 0.000000
0.371344 0.203220 0.000000
0.412665 0.199374 0.000000
0.452674 0.195621 0.000000
0.492256 0.192355 0.000000
0.531182 0.189487 0.000000
0.569940 0.187106 0.000000
0.607477 0.184726 0.000000
0.642786 0.182193 0.000000
0.675990 0.179782 0.000000
0.707210 0.177310 0.000000
0.739773 0.176394 0.000000
0.770291 0.175174 0.000000
0.799191 0.174197 0.000000
0.826810 0.173037 0.000000
0.871702 0.180026 0.000000
0.895964 0.179294 0.000000
0.918975 0.178378 0.000000
0.941161 0.176913 0.000000
0.962829 0.175906 0.000000
0.984253 0.174472 0.000000
1.000000 0.173342 0.000000
1.000000 0.172091 0.000000
1.000000 0.170748 0.000000
1.000000 0.169223 0.000000
0.019471 0.214328 0.080446
0.033509 0.213321 0.075685
0.050996 0.211917 0.070253
0.069612 0.208927 0.057618
0.108431 0.202792 0.062104
0.171237 0.218967 0.033997
0.247684 0.237522 0.000000
0.328313 0.253330 0.000000
0.372717 0.251041 0.000000
0.417029 0.248875 0.000000
0.460853 0.246799 0.000000
0.500450 0.243473 0.000000
0.539391 0.240482 0.000000
0.577874 0.237827 0.000000
0.614405 0.234958 0.000000
0.648585 0.231785 0.000000
0.681086 0.228672 0.000000
0.714321 0.226413 0.000000
0.746609 0.224765 0.000000
0.777249 0.223026 0.000000
0.806973 0.221714 0.000000
0.835874 0.220249 0.000000
0.863615 0.219364 0.000000
0.890013 0.218143 0.000000
0.914916 0.216861 0.000000
0.938231 0.215183 0.000000
0.960479 0.213352 0.000000
0.982116 0.211398 0.000000
1.000000 0.209171 0.000000
1.000000 0.207279 0.000000
1.000000 0.205112 0.000000
1.000000 0.202853 0.000000
0.023926 0.242527 0.090242
0.035950 0.241672 0.087007
0.050904 0.240421 0.082490
0.069734 0.237858 0.072053
0.094850 0.233463 0.063081
0.141421 0.233829 0.066957
0.206088 0.251987 0.039368
0.281865 0.272038 0.000000
0.367620 0.292729 0.000000
0.411566 0.291508 0.000000
0.455543 0.290318 0.000000
0.499245 0.289158 0.000000
0.540642 0.287175 0.000000
0.578790 0.284367 0.000000
0.615076 0.281071 0.000000
0.649104 0.277409 0.000000
0.682643 0.274357 0.000000
0.716426 0.272068 0.000000
0.747372 0.269352 0.000000
0.777066 0.266514 0.000000
0.806088 0.264103 0.000000
0.834470 0.261875 0.000000
0.861875 0.259861 0.000000
0.887968 0.257847 0.000000
0.912718 0.255497 0.000000
0.936004 0.253147 0.000000
0.958282 0.250462 0.000000
0.980072 0.247532 0.000000
1.000000 0.244938 0.000000
1.000000 0.242191 0.000000
1.000000 0.239628 0.000000
1.000000 0.236759 0.000000
0.037140 0.268986 0.101076
0.047700 0.268162 0.098299
0.060121 0.267277 0.094606
0.073365 0.265080 0.086549
0.089326 0.261723 0.073945
0.124849 0.255955 0.076661
0.174685 0.264775 0.073548
0.239597 0.284489 0.050935
0.315190 0.306279 0.000000
0.403052 0.331640 0.000000
0.450538 0.332738 0.000000
0.494148 0.332250 0.000000
0.537377 0.331762 0.000000
0.580316 0.330968 0.000000
0.617182 0.327581 0.000000
0.651972 0.323949 0.000000
0.687037 0.321050 0.000000
0.719265 0.317540 0.000000
0.749050 0.313481 0.000000
0.778073 0.309606 0.000000
0.806455 0.306401 0.000000
0.834348 0.303166 0.000000
0.861295 0.300267 0.000000
0.887083 0.297368 0.000000
0.911589 0.294285 0.000000
0.934722 0.290867 0.000000
0.957000 0.287449 0.000000
0.978698 0.284062 0.000000
1.000000 0.280583 0.000000
1.000000 0.277287 0.000000
1.000000 0.274022 0.000000
1.000000 0.270695 0.000000
0.052735 0.293919 0.111177
0.060609 0.293309 0.109102
0.066255 0.292302 0.106172
0.077790 0.290501 0.099184
0.092470 0.287510 0.089082
0.113039 0.283360 0.079713
0.151308 0.276646 0.089784
0.207004 0.294957 0.079805
0.272099 0.316442 0.060609
0.347295 0.339940 0.000000
0.436286 0.369146 0.000000
0.488350 0.373175 0.000000
0.531518 0.373480 0.000000
0.574487 0.373449 0.000000
0.617426 0.373510 0.000000
0.658198 0.372381 0.000000
0.692134 0.368261 0.000000
0.723384 0.363378 0.000000
0.752438 0.358129 0.000000
0.780514 0.353216 0.000000
0.808042 0.348608 0.000000
0.834806 0.344366 0.000000
0.860746 0.340185 0.000000
0.885679 0.336187 0.000000
0.909636 0.332097 0.000000
0.932616 0.327947 0.000000
0.954955 0.323857 0.000000
0.976898 0.319921 0.000000
0.998688 0.316045 0.000000
1.000000 0.312291 0.000000
1.000000 0.308659 0.000000
1.000000 0.305028 0.000000
0.063203 0.317082 0.120912
0.067475 0.316533 0.119051
0.072877 0.315709 0.116396
0.082673 0.314122 0.111025
0.096132 0.311498 0.102296
0.110323 0.308263 0.091066
0.141543 0.303014 0.091951
0.180911 0.304295 0.096620
0.238071 0.325048 0.086183
0.303960 0.348363 0.067079
0.379034 0.373724 0.000000
0.468757 0.406043 0.000000
0.526940 0.414862 0.000000
0.572168 0.417517 0.000000
0.615198 0.418219 0.000000
0.655482 0.416815 0.000000
0.693294 0.413855 0.000000
0.726040 0.408637 0.000000
0.754330 0.402045 0.000000
0.781857 0.395911 0.000000
0.808804 0.390387 0.000000
0.835172 0.385077 0.000000
0.860838 0.380163 0.000000
0.885496 0.375341 0.000000
0.909239 0.370428 0.000000
0.931975 0.365484 0.000000
0.954070 0.360693 0.000000
0.975799 0.355962 0.000000
0.997406 0.351507 0.000000
1.000000 0.347143 0.000000
1.000000 0.342962 0.000000
1.000000 0.338933 0.000000
0.070710 0.339605 0.130159
0.073823 0.339239 0.128603
0.078645 0.338445 0.126406
0.087282 0.337011 0.121767
0.098909 0.334844 0.114168
0.112703 0.331853 0.104494
0.129641 0.328008 0.094484
0.165805 0.321965 0.103639
0.210361 0.332677 0.102876
0.268559 0.355413 0.092256
0.335302 0.380682 0.072755
0.412512 0.410101 0.004639
0.515221 0.457374 0.000000
0.586481 0.476112 0.000000
0.629236 0.476204 0.000000
0.669215 0.473915 0.000000
0.706203 0.469642 0.000000
0.739925 0.463630 0.000000
0.771115 0.456580 0.000000
0.797940 0.448524 0.000000
0.823270 0.440772 0.000000
0.847898 0.433539 0.000000
0.871763 0.426581 0.000000
0.894865 0.420020 0.000000
0.917266 0.413672 0.000000
0.938933 0.407507 0.000000
0.960113 0.401465 0.000000
0.980926 0.395727 0.000000
1.000000 0.390234 0.000000
1.000000 0.384955 0.000000
1.000000 0.380011 0.000000
1.000000 0.375128 0.000000
0.076661 0.364294 0.140017
0.079194 0.363897 0.138613
0.083314 0.363195 0.136416
0.091279 0.361608 0.132296
0.102022 0.359258 0.125551
0.114595 0.356207 0.116732
0.128359 0.352636 0.105959
0.155642 0.347631 0.105257
0.188327 0.341436 0.114504
0.240787 0.364202 0.109010
0.302251 0.391394 0.098817
0.373053 0.421881 0.079622
0.453346 0.455421 0.014710
0.544030 0.491676 0.000000
0.622522 0.516350 0.000000
0.662654 0.514885 0.000000
0.699672 0.510826 0.000000
0.733364 0.504631 0.000000
0.764736 0.497475 0.000000
0.794797 0.489937 0.000000
0.823117 0.482368 0.000000
0.847379 0.473945 0.000000
0.870817 0.466041 0.000000
0.893645 0.458503 0.000000
0.915770 0.451270 0.000000
0.937255 0.444282 0.000000
0.958312 0.437537 0.000000
0.979065 0.431128 0.000000
0.999786 0.424964 0.000000
1.000000 0.419257 0.000000
1.000000 0.413794 0.000000
1.000000 0.408515 0.000000
0.080690 0.384863 0.147860
0.083528 0.384375 0.146578
0.086580 0.383734 0.144839
0.094148 0.382361 0.140993
0.103914 0.380194 0.134951
0.115846 0.377844 0.127321
0.129091 0.375158 0.117708
0.143252 0.372076 0.106874
0.179019 0.367010 0.115724
0.215763 0.370031 0.121126
0.270726 0.395850 0.115023
0.333806 0.424964 0.104189
0.405280 0.457069 0.084413
0.485786 0.491951 0.019532
0.574334 0.527733 0.000000
0.655756 0.554070 0.000000
0.692561 0.550225 0.000000
0.726284 0.544213 0.000000
0.757931 0.536919 0.000000
0.788235 0.529503 0.000000
0.817472 0.521904 0.000000
0.845548 0.514183 0.000000
0.870573 0.505852 0.000000
0.893217 0.497414 0.000000
0.915160 0.489296 0.000000
0.936492 0.481514 0.000000
0.957397 0.474006 0.000000
0.978058 0.466926 0.000000
0.998688 0.460243 0.000000
1.000000 0.453925 0.000000
1.000000 0.448035 0.000000
1.000000 0.442329 0.000000
0.083772 0.407385 0.156161
0.086610 0.407080 0.155184
0.089509 0.406531 0.153567
0.096376 0.405371 0.150088
0.105653 0.403510 0.144808
0.116609 0.401099 0.137545
0.129274 0.398383 0.128756
0.142550 0.395087 0.118532
0.167575 0.390814 0.116701
0.200351 0.385473 0.125551
0.243137 0.399084 0.126558
0.299809 0.426917 0.120058
0.363928 0.457740 0.108736
0.436103 0.491341 0.087892
0.516075 0.526482 0.024628
0.601617 0.560479 0.000000
0.685908 0.588647 0.000000
0.719692 0.582788 0.000000
0.751431 0.575677 0.000000
0.782010 0.568200 0.000000
0.811368 0.560479 0.000000
0.839658 0.552605 0.000000
0.866606 0.544518 0.000000
0.892424 0.536248 0.000000
0.914733 0.527337 0.000000
0.936095 0.518883 0.000000
0.957122 0.510796 0.000000
0.978027 0.503258 0.000000
0.998871 0.496193 0.000000
1.000000 0.489570 0.000000
1.000000 0.483284 0.000000
1.000000 0.477241 0.000000
0.085389 0.429664 0.164340
0.088106 0.429480 0.163424
0.091249 0.428931 0.161868
0.097566 0.427893 0.158755
0.106386 0.426184 0.153964
0.117464 0.423957 0.147402
0.129397 0.421363 0.139376
0.142214 0.418494 0.129732
0.155703 0.415106 0.118685
0.189761 0.409979 0.126009
0.220096 0.404181 0.134981
0.270634 0.429145 0.131472
0.328252 0.458137 0.124544
0.393194 0.489876 0.112123
0.465095 0.523613 0.090394
0.542748 0.557122 0.031861
0.625483 0.589563 0.000000
0.709743 0.618555 0.000000
0.745052 0.613336 0.000000
0.776211 0.606378 0.000000
0.806210 0.598993 0.000000
0.835019 0.591180 0.000000
0.862455 0.583093 0.000000
0.888701 0.574701 0.000000
0.913756 0.566155 0.000000
0.937346 0.557427 0.000000
0.958251 0.548577 0.000000
0.978943 0.540337 0.000000
0.999573 0.532555 0.000000
1.000000 0.525170 0.000000
1.000000 0.518151 0.000000
1.000000 0.511406 0.000000
0.086702 0.450324 0.171756
0.088930 0.449989 0.170809
0.091981 0.449500 0.169467
0.097993 0.448402 0.166537
0.106783 0.446815 0.162020
0.116945 0.444739 0.156161
0.128695 0.442329 0.148714
0.140993 0.439429 0.139590
0.154116 0.436164 0.129397
0.176913 0.432013 0.125887
0.209659 0.426551 0.134340
0.244144 0.429877 0.139956
0.296788 0.457771 0.135714
0.355749 0.488228 0.127840
0.421180 0.520897 0.114839
0.491890 0.553765 0.093324
0.567681 0.586084 0.044160
0.648035 0.617334 0.000000
0.731228 0.646479 0.000000
0.769772 0.642878 0.000000
0.799954 0.635645 0.000000
0.829007 0.627955 0.000000
0.856809 0.619837 0.000000
0.883421 0.611475 0.000000
0.908934 0.602869 0.000000
0.933440 0.594141 0.000000
0.957092 0.585412 0.000000
0.978912 0.576684 0.000000
0.999420 0.568231 0.000000
1.000000 0.560327 0.000000
1.000000 0.552758 0.000000
1.000000 0.545464 0.000000
0.086458 0.471138 0.179110
0.088869 0.470954 0.178164
0.092256 0.478889 0.179904
0.098024 0.477760 0.177218
0.106722 0.476143 0.172946
0.117220 0.473915 0.167208
0.128756 0.471199 0.159976
0.140963 0.468116 0.151369
0.154086 0.464698 0.141512
0.167697 0.460945 0.130129
0.200076 0.455665 0.135775
0.230686 0.449714 0.144381
0.272343 0.464149 0.145846
0.327031 0.493812 0.141085
0.387518 0.525628 0.132509
0.453162 0.557946 0.119051
0.523430 0.589960 0.098085
0.597833 0.621149 0.058808
0.675807 0.650355 0.000000
0.758022 0.679286 0.000000
0.798856 0.676143 0.000000
0.827634 0.667964 0.000000
0.855283 0.659388 0.000000
0.881682 0.650507 0.000000
0.906767 0.641138 0.000000
0.930907 0.631678 0.000000
0.954162 0.622278 0.000000
0.976928 0.613001 0.000000
0.999207 0.604059 0.000000
1.000000 0.595361 0.000000
1.000000 0.587152 0.000000
1.000000 0.579278 0.000000
0.084749 0.494392 0.186831
0.086702 0.495277 0.186343
0.089662 0.496010 0.185550
0.096010 0.496101 0.183474
0.104067 0.495460 0.179843
0.114595 0.493812 0.174777
0.125948 0.491493 0.168002
0.138460 0.488533 0.159884
0.151095 0.485451 0.150515
0.164340 0.481910 0.139864
0.185519 0.477607 0.134707
0.218784 0.471962 0.142763
0.247501 0.465766 0.151431
0.296941 0.492317 0.149050
0.352605 0.523003 0.143343
0.413306 0.554589 0.134218
0.478431 0.586114 0.120638
0.547509 0.617182 0.099977
0.620264 0.647211 0.063020
0.696010 0.675135 0.000000
0.777768 0.704646 0.000000
0.821500 0.702876 0.000000
0.849607 0.694667 0.000000
0.876493 0.685969 0.000000
0.902068 0.676783 0.000000
0.926635 0.667414 0.000000
0.950378 0.657923 0.000000
0.973480 0.648615 0.000000
0.996094 0.639460 0.000000
1.000000 0.630457 0.000000
1.000000 0.621607 0.000000
1.000000 0.613123 0.000000
0.079500 0.515343 0.193393
0.081910 0.516228 0.193027
0.084932 0.516991 0.192355
0.090913 0.517144 0.190341
0.099458 0.516564 0.186893
0.109895 0.515099 0.182040
0.121767 0.512871 0.175723
0.133944 0.510246 0.168154
0.146914 0.507286 0.159121
0.160281 0.503990 0.148867
0.173831 0.500420 0.137240
0.205081 0.495460 0.141207
0.236301 0.489509 0.149569
0.269932 0.492744 0.155245
0.321965 0.522484 0.151492
0.378637 0.553277 0.145266
0.439399 0.584253 0.135866
0.503990 0.615137 0.122316
0.572137 0.645319 0.102113
0.643275 0.673915 0.068299
0.716884 0.700435 0.000000
0.798306 0.730465 0.000000
0.844388 0.729458 0.000000
0.871580 0.721004 0.000000
0.897520 0.711940 0.000000
0.922362 0.702510 0.000000
0.946380 0.692988 0.000000
0.969757 0.683528 0.000000
0.992615 0.674220 0.000000
1.000000 0.665034 0.000000
1.000000 0.655909 0.000000
1.000000 0.646754 0.000000
0.070741 0.537774 0.200137
0.073365 0.538659 0.199771
0.076265 0.539422 0.199222
0.082826 0.539727 0.197269
0.092164 0.539208 0.194064
0.103517 0.537865 0.189273
0.115511 0.535821 0.183383
0.128237 0.533349 0.176089
0.141451 0.530571 0.167422
0.155306 0.527367 0.157595
0.168795 0.523980 0.146334
0.188815 0.519890 0.139315
0.223270 0.514244 0.147494
0.253086 0.508202 0.155947
0.294163 0.523552 0.157839
0.347723 0.553887 0.153536
0.405310 0.584833 0.147402
0.466651 0.615961 0.138155
0.531487 0.646815 0.124941
0.599176 0.676387 0.106600
0.669306 0.704158 0.077333
0.741756 0.729793 0.000000
0.822385 0.759243 0.000000
0.871061 0.759274 0.000000
0.897490 0.750454 0.000000
0.922698 0.741115 0.000000
0.946960 0.731441 0.000000
0.970489 0.721767 0.000000
0.993439 0.712123 0.000000
1.000000 0.702602 0.000000
1.000000 0.693050 0.000000
1.000000 0.683406 0.000000
0.054017 0.566278 0.208865
0.059083 0.566644 0.208255
0.062684 0.566735 0.207492
0.071138 0.566430 0.205478
0.082155 0.565515 0.202121
0.094514 0.564050 0.197635
0.107485 0.562188 0.191806
0.121126 0.559960 0.184878
0.135256 0.557580 0.176547
0.149203 0.554955 0.166964
0.163485 0.552117 0.156100
0.177951 0.548821 0.143618
0.209293 0.544060 0.145937
0.242344 0.538415 0.154452
0.271214 0.532219 0.163241
0.321172 0.559533 0.161318
0.376043 0.589715 0.156863
0.434363 0.620264 0.150423
0.495766 0.650507 0.141421
0.559777 0.679652 0.128969
0.625940 0.707149 0.111971
0.694057 0.732723 0.086397
0.763912 0.756008 0.013489
0.839719 0.781216 0.000000
0.892943 0.784146 0.000000
0.918364 0.774990 0.000000
0.942962 0.765469 0.000000
0.966857 0.755825 0.000000
0.990021 0.746181 0.000000
1.000000 0.736507 0.000000
1.000000 0.726741 0.000000
1.000000 0.716976 0.000000
0.009522 0.591608 0.216281
0.017731 0.591974 0.215763
0.027070 0.592248 0.215000
0.048219 0.591974 0.213046
0.066865 0.591211 0.209934
0.082155 0.589837 0.205447
0.096864 0.588067 0.199863
0.111879 0.585931 0.193088
0.127016 0.583673 0.185061
0.141817 0.581201 0.175784
0.156802 0.578607 0.165103
0.171603 0.575677 0.152987
0.190982 0.572015 0.143557
0.228367 0.566857 0.152102
0.260227 0.561303 0.161044
0.294896 0.564782 0.166964
0.347906 0.594354 0.164187
0.403815 0.624414 0.159731
0.462623 0.654353 0.153506
0.523766 0.683345 0.145113
0.586969 0.710964 0.133791
0.651972 0.736904 0.118746
0.718532 0.760800 0.096834
0.786435 0.782315 0.058778
0.855344 0.801205 0.000000
0.911772 0.806912 0.000000
0.937957 0.797818 0.000000
0.962127 0.788388 0.000000
0.985595 0.778805 0.000000
1.000000 0.769070 0.000000
1.000000 0.759365 0.000000
1.000000 0.749691 0.000000
0.000000 0.623285 0.225925
0.000000 0.623865 0.225559
0.000000 0.624018 0.224765
0.000000 0.623621 0.222782
0.026886 0.622614 0.219608
0.063050 0.621118 0.215244
0.082582 0.619196 0.209659
0.100252 0.616876 0.202945
0.117098 0.614313 0.194888
0.133333 0.611597 0.185641
0.149538 0.608667 0.174990
0.164981 0.605585 0.163058
0.180453 0.602228 0.149630
0.212161 0.597559 0.150057
0.247776 0.591882 0.158968
0.278630 0.585870 0.167910
0.321080 0.600275 0.170382
0.374914 0.629114 0.167086
0.431342 0.658228 0.162478
0.490028 0.686854 0.156497
0.550530 0.714321 0.148836
0.612665 0.740322 0.138521
0.676051 0.764218 0.124697
0.740475 0.785824 0.104891
0.805600 0.804929 0.072450
0.872801 0.822690 0.000000
0.930694 0.830503 0.000000
0.958526 0.821225 0.000000
0.982025 0.811551 0.000000
1.000000 0.801755 0.000000
1.000000 0.792020 0.000000
1.000000 0.782284 0.000000
0.000000 0.652064 0.234470
0.000000 0.652644 0.234104
0.000000 0.652918 0.233402
0.000000 0.652613 0.231479
0.000000 0.651698 0.228458
0.008850 0.650355 0.224155
0.061128 0.648676 0.218814
0.083955 0.646784 0.212253
0.104585 0.644617 0.204562
0.123171 0.642390 0.195743
0.140688 0.639979 0.185519
0.157473 0.637507 0.173922
0.174044 0.634760 0.160708
0.193149 0.631464 0.148440
0.234073 0.626520 0.157656
0.268559 0.621271 0.167117
0.299199 0.615717 0.176638
0.350530 0.641444 0.175540
0.405524 0.669581 0.172519
0.462409 0.697292 0.168551
0.520775 0.723995 0.163424
0.580499 0.749386 0.156466
0.641230 0.772976 0.147402
0.702785 0.794491 0.134951
0.765133 0.813718 0.117891
0.828061 0.830655 0.091768
0.891691 0.845365 0.021881
0.950805 0.854643 0.000000
0.980041 0.845090 0.000000
1.000000 0.835325 0.000000
1.000000 0.825589 0.000000
1.000000 0.815763 0.000000
0.000000 0.684962 0.244602
0.000000 0.685359 0.244205
0.000000 0.685389 0.243442
0.000000 0.684871 0.241611
0.000000 0.683864 0.238499
0.000000 0.682490 0.234379
0.000000 0.680873 0.229068
0.061524 0.679042 0.222690
0.088624 0.677089 0.215213
0.110536 0.675227 0.206668
0.130587 0.673243 0.196689
0.149081 0.671260 0.185428
0.167117 0.669032 0.172763
0.184268 0.666468 0.158236
0.217350 0.662715 0.156832
0.256504 0.658015 0.166690
0.290593 0.653010 0.176608
0.327184 0.656275 0.183841
0.381415 0.683192 0.181949
0.436896 0.709712 0.179477
0.493538 0.735470 0.176028
0.551141 0.760006 0.171511
0.609552 0.782925 0.165377
0.668666 0.804013 0.157198
0.728328 0.823056 0.145815
0.788479 0.839963 0.130190
0.849241 0.854826 0.107668
0.910491 0.867582 0.068269
0.969512 0.877165 0.000000
0.999878 0.867124 0.000000
1.000000 0.857389 0.000000
1.000000 0.847471 0.000000
0.000000 0.718532 0.255375
0.000000 0.718746 0.255070
0.000000 0.718807 0.254307
0.000000 0.718471 0.252445
0.000000 0.717861 0.249668
0.000000 0.717189 0.245762
0.000000 0.716670 0.241184
0.003449 0.716213 0.235477
0.070344 0.715908 0.228763
0.098909 0.715663 0.220951
0.122713 0.715389 0.212009
0.144076 0.714992 0.201541
0.164096 0.714290 0.189792
0.183291 0.713130 0.175998
0.202548 0.711360 0.161410
0.248020 0.707607 0.171847
0.286503 0.703578 0.182589
0.320439 0.699458 0.193484
0.365881 0.712520 0.197818
0.420935 0.737148 0.196994
0.476539 0.761013 0.195499
0.532555 0.783841 0.193210
0.589014 0.805081 0.189883
0.645777 0.824704 0.184756
0.702907 0.842496 0.177890
0.760250 0.858427 0.168215
0.818082 0.872496 0.154971
0.876310 0.884672 0.136416
0.935027 0.895079 0.109499
0.993469 0.904234 0.065736
1.000000 0.892515 0.002564
1.000000 0.882170 0.000000
0.000000 0.762966 0.271702
0.000000 0.763119 0.271305
0.000000 0.762997 0.270512
0.000000 0.762509 0.268681
0.000000 0.761746 0.265843
0.000000 0.760830 0.261967
0.000000 0.759976 0.257237
0.000000 0.759152 0.251530
0.047333 0.758358 0.244877
0.089479 0.757626 0.237186
0.116365 0.756863 0.228275
0.140017 0.756039 0.218204
0.161501 0.755032 0.206790
0.181888 0.753780 0.193851
