data/fiter_cube/87192323/1023456/file.cube
# Created by Adobe Lightroom plugin Export LUT (1.17.0)
# www.johnrellis.com/lightroom/exportlut.htm
# Preset: 日系清新自然_07 云集
# Color profile: C:\Program Files (x86)\Common Files\Adobe\Color\Profiles\Recommended\AdobeRGB1998.icc
LUT_3D_SIZE 8
DOMAIN_MIN 0.000000 0.000000 0.000000
DOMAIN_MAX 0.903226 0.903226 0.903226
0.000000 0.000000 0.000000
0.185245 0.000000 0.000000
0.369909 0.000000 0.000000
0.532494 0.000000 0.000000
0.677577 0.000000 0.000000
0.802182 0.000000 0.000000
0.906004 0.000000 0.000000
0.995819 0.063569 0.006561
0.029145 0.145571 0.058320
0.166384 0.157229 0.000000
0.370520 0.155642 0.000000
0.530541 0.139559 0.000000
0.675563 0.128969 0.000000
0.798276 0.125490 0.000000
0.901762 0.126162 0.000000
0.993561 0.130648 0.000000
0.037140 0.268986 0.101076
0.089326 0.261723 0.073945
0.315190 0.306279 0.000000
0.537377 0.331762 0.000000
0.687037 0.321050 0.000000
0.806455 0.306401 0.000000
0.911589 0.294285 0.000000
1.000000 0.280583 0.000000
0.076661 0.364294 0.140017
0.102022 0.359258 0.125551
0.188327 0.341436 0.114504
0.453346 0.455421 0.014710
0.699672 0.510826 0.000000
0.823117 0.482368 0.000000
0.915770 0.451270 0.000000
0.999786 0.424964 0.000000
0.086702 0.450324 0.171756
0.106783 0.446815 0.162020
0.154116 0.436164 0.129397
0.296788 0.457771 0.135714
0.567681 0.586084 0.044160
0.799954 0.635645 0.000000
0.908934 0.602869 0.000000
0.999420 0.568231 0.000000
0.070741 0.537774 0.200137
0.092164 0.539208 0.194064
0.141451 0.530571 0.167422
0.223270 0.514244 0.147494
0.405310 0.584833 0.147402
0.669306 0.704158 0.077333
0.897490 0.750454 0.000000
0.993439 0.712123 0.000000
0.000000 0.652064 0.234470
0.000000 0.651698 0.228458
0.104585 0.644617 0.204562
0.174044 0.634760 0.160708
0.299199 0.615717 0.176638
0.520775 0.723995 0.163424
0.765133 0.813718 0.117891
0.980041 0.845090 0.000000
0.000000 0.802274 0.286870
0.000000 0.801358 0.281285
0.022736 0.799496 0.261997
0.164401 0.798917 0.227420
0.266056 0.782498 0.192264
0.438819 0.803433 0.229221
0.653071 0.876066 0.225406
0.865049 0.923278 0.189151
0.000000 0.022248 0.136721
0.177249 0.000000 0.141299
0.341711 0.000000 0.143099
0.493812 0.057374 0.151400
0.647730 0.000000 0.144961
0.777096 0.043732 0.142519
0.886595 0.086580 0.142824
0.982849 0.111757 0.144656
0.020783 0.158206 0.135134
0.183322 0.156558 0.139284
0.351415 0.148562 0.136904
0.509209 0.139712 0.132631
0.656367 0.133974 0.126131
0.780270 0.138735 0.124453
0.885283 0.145174 0.123384
0.980621 0.152102 0.123568
0.082338 0.278264 0.146304
0.173922 0.277073 0.154940
0.320409 0.303716 0.137697
0.525139 0.316747 0.086641
0.670619 0.308904 0.089693
0.789761 0.298283 0.094667
0.894011 0.288060 0.095766
0.988281 0.277501 0.092958
0.123598 0.370397 0.174136
0.163516 0.368658 0.172274
0.216617 0.353216 0.152224
0.447150 0.443854 0.135927
0.676051 0.489357 0.038941
0.800870 0.464851 0.000000
0.898466 0.440131 0.007843
0.988708 0.419043 0.041932
0.141207 0.457252 0.201968
0.153414 0.453254 0.192813
0.188113 0.441474 0.164004
0.300389 0.450355 0.165347
0.560143 0.574517 0.132174
0.788266 0.624720 0.000000
0.900572 0.595422 0.000000
0.992615 0.563104 0.000000
0.121279 0.538872 0.220401
0.133730 0.536675 0.213535
0.169284 0.528344 0.189334
0.232761 0.513878 0.164492
0.404028 0.577539 0.172824
0.667781 0.700313 0.140749
0.892943 0.746395 0.064637
0.989136 0.708522 0.000000
0.051575 0.645991 0.247532
0.080446 0.643122 0.240879
0.132845 0.637354 0.218997
0.190341 0.629816 0.179446
0.302464 0.613336 0.187411
0.517327 0.716732 0.184085
0.760769 0.807401 0.157534
0.974151 0.839902 0.087617
0.000000 0.796262 0.296025
0.000000 0.796384 0.291173
0.081788 0.795102 0.272618
0.176455 0.794980 0.239597
0.272404 0.790494 0.206119
0.439673 0.803555 0.242496
0.652033 0.873442 0.241337
0.863584 0.920592 0.214145
0.000000 0.061311 0.260746
0.141726 0.021637 0.263371
0.333379 0.000000 0.273075
0.499428 0.000000 0.277501
0.623957 0.120882 0.280583
0.740108 0.202243 0.299016
0.863218 0.210330 0.298222
0.968933 0.227268 0.298772
0.107240 0.181094 0.257755
0.155642 0.154269 0.262974
0.334234 0.142275 0.271214
0.490547 0.153567 0.273838
0.617212 0.192721 0.280858
0.743343 0.219821 0.289311
0.864134 0.228122 0.288396
0.969360 0.241306 0.288518
0.096468 0.294713 0.252842
0.183566 0.297337 0.257115
0.343420 0.304356 0.270176
0.494453 0.300542 0.267521
0.646479 0.300969 0.266453
0.771115 0.301335 0.264103
0.880278 0.301427 0.261173
0.978729 0.300175 0.257359
0.092714 0.392920 0.238560
0.170993 0.394324 0.243351
0.308568 0.397040 0.261845
0.462562 0.447028 0.264195
0.670161 0.473335 0.237400
0.789212 0.453468 0.236973
0.891508 0.438911 0.240696
0.984741 0.423713 0.237400
0.125307 0.472419 0.246983
0.178012 0.473915 0.251469
0.276768 0.474586 0.259464
0.327611 0.453071 0.241154
0.571984 0.578607 0.256962
0.783963 0.618708 0.239597
0.898283 0.589593 0.208591
0.988495 0.561608 0.212833
0.132906 0.552544 0.262852
0.175204 0.553460 0.265965
0.244633 0.550744 0.262638
0.277714 0.535790 0.226871
0.410346 0.569512 0.240604
0.670375 0.696315 0.254734
0.886717 0.741299 0.249882
0.987579 0.707607 0.216007
0.108888 0.657801 0.289464
0.152285 0.656855 0.290318
0.204013 0.650996 0.276555
0.243595 0.640833 0.241245
0.321111 0.624262 0.226322
0.518425 0.710597 0.246891
0.766934 0.808774 0.262821
0.975006 0.842130 0.261387
0.009522 0.800656 0.334936
0.107332 0.799008 0.333623
0.156710 0.796414 0.315557
0.220218 0.798123 0.286870
0.284062 0.793606 0.241733
0.435309 0.795254 0.277073
0.653956 0.871061 0.295415
0.868711 0.921477 0.299474
0.000000 0.083040 0.364324
0.088380 0.075563 0.366888
0.282933 0.010285 0.372351
0.459754 0.000000 0.389929
0.636683 0.000000 0.408331
0.746731 0.125643 0.399145
0.845396 0.227512 0.404974
0.940368 0.320653 0.430915
0.057801 0.182406 0.365606
0.108095 0.155123 0.368414
0.286717 0.140383 0.373266
0.461341 0.122621 0.390082
0.636683 0.109041 0.407050
0.741939 0.192203 0.397955
0.841001 0.265110 0.405737
0.937377 0.347356 0.434150
0.149966 0.302251 0.354833
0.204746 0.304387 0.358190
0.298924 0.281376 0.373968
0.466316 0.280125 0.390356
0.625605 0.294682 0.401007
0.735103 0.331090 0.404120
0.839048 0.380407 0.424048
0.948608 0.394537 0.429297
0.118746 0.406714 0.350866
0.179538 0.409918 0.354711
0.312261 0.421698 0.368872
0.482551 0.446174 0.397498
0.625513 0.446632 0.396948
0.750851 0.447364 0.395850
0.865049 0.447883 0.394232
0.968719 0.445624 0.390539
0.081422 0.494972 0.325475
0.148745 0.497444 0.328252
0.277928 0.507683 0.340917
0.427161 0.517174 0.368292
0.587640 0.580163 0.389593
0.774289 0.603967 0.381079
0.884886 0.583093 0.373297
0.978424 0.566003 0.371984
0.073457 0.576043 0.324620
0.140291 0.579675 0.328099
0.258549 0.581323 0.335790
0.374731 0.582849 0.346899
0.426978 0.561761 0.326268
0.682795 0.698024 0.383490
0.880400 0.737484 0.398169
0.984283 0.705653 0.362463
0.000000 0.671626 0.338781
0.100374 0.672145 0.339666
0.224338 0.672724 0.343267
0.321752 0.669795 0.338537
0.357794 0.654810 0.294041
0.521294 0.702358 0.327398
0.775784 0.808896 0.383612
0.970855 0.841642 0.407477
0.000000 0.812497 0.379156
0.000000 0.812558 0.379034
0.182650 0.810605 0.377905
0.278752 0.807370 0.362676
0.331945 0.801602 0.320867
0.434943 0.791714 0.322057
0.654353 0.864714 0.367926
0.875944 0.921324 0.406653
0.000000 0.106172 0.465949
0.000000 0.101411 0.467384
0.240177 0.079011 0.470466
0.400580 0.000000 0.477913
0.576043 0.000000 0.507378
0.740597 0.000000 0.525505
0.853544 0.127596 0.512718
0.947692 0.253727 0.513878
0.000000 0.178103 0.465156
0.000000 0.158755 0.467903
0.242649 0.146029 0.471229
0.401221 0.115816 0.477913
0.576379 0.095247 0.507042
0.740322 0.099397 0.524620
0.851530 0.191623 0.512657
0.945892 0.288212 0.515557
0.166079 0.314885 0.458320
0.206332 0.312749 0.462715
0.249973 0.265141 0.470466
0.406043 0.255833 0.480842
0.577600 0.258488 0.505608
0.736751 0.272557 0.519402
0.842191 0.319615 0.511803
0.937926 0.380865 0.520806
0.157321 0.407965 0.448341
0.200900 0.409461 0.451118
0.309880 0.416815 0.462501
0.421607 0.404334 0.487678
0.585962 0.413947 0.509178
0.729000 0.436042 0.517327
0.830137 0.464668 0.519982
0.929015 0.501854 0.536980
0.112642 0.507622 0.441382
0.165988 0.510491 0.444556
0.282444 0.520195 0.455787
0.427893 0.540429 0.478767
0.600488 0.574029 0.516838
0.727596 0.576165 0.517723
0.845579 0.577661 0.517845
0.953857 0.575555 0.514763
0.000000 0.585565 0.404944
0.094118 0.587762 0.406989
0.228916 0.594720 0.414008
0.367742 0.609247 0.430762
0.519860 0.617090 0.459663
0.690700 0.691157 0.505303
0.868833 0.722683 0.517357
0.972015 0.700282 0.502251
0.000000 0.688838 0.409705
0.000000 0.688411 0.409613
0.170077 0.688441 0.410498
0.317662 0.689937 0.415564
0.445258 0.688014 0.421515
0.511376 0.672786 0.401312
0.782498 0.803952 0.499825
0.962829 0.835599 0.528618
0.000000 0.817502 0.436622
0.000000 0.816861 0.435676
0.005341 0.815274 0.432929
0.264714 0.818357 0.433509
0.389044 0.812650 0.422309
0.444648 0.803342 0.376226
0.643885 0.848081 0.438239
0.881346 0.917327 0.511376
0.000000 0.127565 0.575647
0.000000 0.123262 0.576013
0.186496 0.105104 0.576013
0.358801 0.049317 0.581415
0.511040 0.000000 0.591241
0.678553 0.000000 0.618982
0.837003 0.000000 0.637934
0.956298 0.111421 0.625299
0.000000 0.178073 0.570336
0.000000 0.165560 0.570886
0.185550 0.153017 0.572351
0.357122 0.127169 0.578515
0.508446 0.067353 0.587671
0.676783 0.033661 0.616510
0.835447 0.068849 0.635950
0.954101 0.176303 0.624475
0.115633 0.317357 0.566857
0.128603 0.303990 0.568200
0.185672 0.256077 0.573388
0.357275 0.244755 0.579339
0.508537 0.225925 0.587701
0.678279 0.236301 0.616388
0.835355 0.256413 0.634607
0.949706 0.309911 0.625696
0.173251 0.426276 0.553765
0.205997 0.424384 0.555810
0.294621 0.419562 0.566217
0.363073 0.375341 0.582818
0.515251 0.369970 0.594018
0.685786 0.388952 0.621393
0.838285 0.417517 0.637324
0.943389 0.454353 0.631708
0.129335 0.510521 0.543328
0.172915 0.511345 0.545220
0.276066 0.514733 0.552331
0.404944 0.524346 0.567346
0.526207 0.517021 0.594812
0.689387 0.535607 0.620294
0.829648 0.562524 0.633173
0.928923 0.586664 0.636652
0.000000 0.605798 0.532219
0.103059 0.608392 0.535149
0.233158 0.614496 0.542473
0.367773 0.626642 0.557183
0.523491 0.647547 0.582391
0.707179 0.691707 0.633692
0.831022 0.698360 0.639796
0.943511 0.699886 0.641077
0.000000 0.698756 0.505821
0.000000 0.700771 0.506798
0.116152 0.704952 0.507591
0.280858 0.712795 0.512505
0.436591 0.723781 0.525689
0.611078 0.726589 0.558282
0.795590 0.803403 0.625666
0.958129 0.830106 0.647486
0.000000 0.829740 0.520165
0.000000 0.829770 0.519219
0.000000 0.830838 0.516350
0.155978 0.832975 0.512810
0.360723 0.830625 0.511009
0.524804 0.822538 0.516167
0.619287 0.817136 0.506645
0.890043 0.914580 0.626673
0.000000 0.147372 0.693416
0.000000 0.143435 0.693996
0.062196 0.127230 0.694545
0.310979 0.086397 0.696407
0.465736 0.000000 0.698848
0.613855 0.000000 0.707637
0.774716 0.000000 0.730678
0.931701 0.000000 0.750881
0.000000 0.181765 0.690578
0.000000 0.176638 0.691127
0.036835 0.163607 0.691859
0.307958 0.136049 0.693324
0.463416 0.075196 0.696345
0.611841 0.000000 0.705348
0.773373 0.000000 0.728756
0.930236 0.000000 0.748898
0.000000 0.310124 0.684871
0.000000 0.295933 0.685664
0.000000 0.250645 0.687984
0.299260 0.235752 0.690211
0.458625 0.211734 0.694026
0.608942 0.180514 0.703029
0.774380 0.194614 0.728756
0.931151 0.215854 0.748531
0.128237 0.436530 0.674311
0.166537 0.432868 0.675105
0.237552 0.412787 0.679561
0.284581 0.348058 0.686366
0.451331 0.335729 0.691829
0.604425 0.318395 0.700587
0.776761 0.345953 0.729274
0.931792 0.375830 0.747585
0.102632 0.529198 0.659144
0.150759 0.528313 0.659541
0.252659 0.526177 0.662043
0.363500 0.516106 0.672724
0.442115 0.463905 0.688319
0.601709 0.458686 0.699153
0.778958 0.491554 0.728267
0.931731 0.528222 0.747127
0.000000 0.619318 0.651881
0.000000 0.619013 0.652644
0.193393 0.618341 0.655665
0.329442 0.618097 0.662226
0.477668 0.623468 0.674525
0.615473 0.618219 0.702754
0.787655 0.646418 0.733394
0.928801 0.678798 0.751125
0.000000 0.720729 0.643763
0.000000 0.721401 0.644770
0.014374 0.723262 0.647761
0.264012 0.727352 0.654078
0.427863 0.735195 0.665827
0.610254 0.753475 0.691127
0.808804 0.802243 0.752529
0.929564 0.808652 0.759976
0.000000 0.830900 0.628138
0.000000 0.831632 0.627893
0.000000 0.835203 0.627802
0.000000 0.840177 0.625391
0.298131 0.846220 0.623377
0.497322 0.851713 0.632959
0.697017 0.844450 0.661189
0.900389 0.912230 0.749508
0.000000 0.178164 0.839933
0.000000 0.174319 0.840024
0.000000 0.158450 0.839322
0.243931 0.123690 0.839322
0.423560 0.000000 0.839933
0.574090 0.000000 0.841825
0.724575 0.000000 0.849699
0.882017 0.000000 0.863920
0.000000 0.203677 0.837949
0.000000 0.200107 0.838071
0.000000 0.186557 0.837736
0.238499 0.158633 0.837736
0.420661 0.101198 0.838560
0.572229 0.000000 0.840635
0.723232 0.000000 0.848417
0.881407 0.000000 0.862974
0.000000 0.316228 0.832578
0.000000 0.301823 0.833097
0.000000 0.260166 0.833799
0.217502 0.242344 0.835080
0.410925 0.212222 0.836301
0.566369 0.160281 0.838712
0.720150 0.090211 0.846677
0.881621 0.104585 0.862333
0.000000 0.455512 0.824582
0.000000 0.446296 0.825315
0.000000 0.409796 0.827176
0.166415 0.342809 0.831052
0.391485 0.323857 0.833280
0.555749 0.295811 0.836881
0.714717 0.267582 0.844846
0.882841 0.293858 0.862333
0.000000 0.563378 0.812070
0.000000 0.560357 0.812985
0.190341 0.548241 0.815518
0.309361 0.523461 0.821439
0.356298 0.439490 0.828702
0.537957 0.422980 0.833371
0.704952 0.402838 0.840909
0.884459 0.448859 0.861753
0.000000 0.656153 0.805753
0.000000 0.654749 0.805692
0.118257 0.650050 0.806027
0.288273 0.642329 0.807492
0.429755 0.627008 0.814206
0.524712 0.566766 0.828672
0.701289 0.561425 0.839078
0.888273 0.604364 0.862608
0.000000 0.757259 0.804440
0.000000 0.756344 0.804471
0.000000 0.753140 0.804868
0.178164 0.747982 0.806424
0.376013 0.742061 0.809232
0.555169 0.740597 0.814878
0.706081 0.724575 0.835782
0.893431 0.756161 0.864012
0.000000 0.872374 0.803922
0.000000 0.872190 0.803952
0.000000 0.871855 0.804471
0.000000 0.871580 0.805875
0.272282 0.870909 0.808164
0.487129 0.870237 0.812619
0.693599 0.874327 0.825681
0.914336 0.913390 0.884733
