data/fiter_cube/26597975/1022852/file.cube
# Created by Adobe Lightroom plugin Export LUT (1.17.0)
# www.johnrellis.com/lightroom/exportlut.htm
# Preset:  城市电影胶片_08 云集
# Color profile: C:\Program Files (x86)\Common Files\Adobe\Color\Profiles\Recommended\AdobeRGB1998.icc
LUT_3D_SIZE 32
DOMAIN_MIN 0.0 0.0 0.0
DOMAIN_MAX 1.0 1.0 1.0
0.074647 0.118654 0.153689
0.073762 0.118746 0.153719
0.073762 0.118746 0.153719
0.078035 0.118532 0.153536
0.094148 0.118227 0.153323
0.123629 0.117281 0.152865
0.164370 0.114351 0.151919
0.217411 0.105928 0.150393
0.283665 0.085847 0.147982
0.363165 0.000000 0.144381
0.454841 0.000000 0.138643
0.553368 0.000000 0.130587
0.651972 0.000000 0.119326
0.742702 0.000000 0.105165
0.818845 0.000000 0.088258
0.881437 0.000000 0.067140
0.953429 0.000000 0.000000
1.000000 0.000000 0.000000
1.000000 0.000000 0.000000
1.000000 0.000000 0.000000
1.000000 0.000000 0.000000
1.000000 0.000000 0.000000
1.000000 0.000000 0.000000
1.000000 0.111269 0.000000
1.000000 0.165652 0.000000
1.000000 0.204074 0.000000
1.000000 0.236576 0.000000
1.000000 0.265995 0.032074
1.000000 0.292882 0.068513
1.000000 0.318547 0.089113
1.000000 0.342504 0.108003
1.000000 0.364660 0.125399
0.074708 0.118654 0.153567
0.074342 0.118471 0.153567
0.073884 0.118502 0.153567
0.076783 0.118654 0.153536
0.091066 0.119051 0.153323
0.118715 0.119020 0.152712
0.158145 0.116793 0.151797
0.208865 0.110079 0.150515
0.273106 0.093538 0.148226
0.350683 0.034516 0.144686
0.439765 0.000000 0.139437
0.536645 0.000000 0.131838
0.634577 0.000000 0.121431
0.726162 0.000000 0.107973
0.804105 0.000000 0.091859
0.868711 0.000000 0.072114
0.942016 0.000000 0.008576
0.992889 0.000000 0.000000
1.000000 0.000000 0.000000
1.000000 0.000000 0.000000
1.000000 0.000000 0.000000
1.000000 0.000000 0.000000
1.000000 0.000000 0.000000
1.000000 0.092012 0.000000
1.000000 0.154330 0.000000
1.000000 0.195743 0.000000
1.000000 0.229557 0.000000
1.000000 0.260075 0.009033
1.000000 0.287968 0.057496
1.000000 0.314092 0.080659
1.000000 0.338506 0.100374
1.000000 0.360967 0.118410
0.074891 0.118196 0.153445
0.074525 0.118257 0.153292
0.074067 0.118288 0.153292
0.075624 0.118776 0.153384
0.087953 0.119844 0.153048
0.113802 0.120424 0.152590
0.150973 0.119478 0.151827
0.200107 0.114412 0.150423
0.262364 0.101106 0.148257
0.338170 0.066255 0.145052
0.426184 0.000000 0.140200
0.522301 0.000000 0.132906
0.620569 0.000000 0.122835
0.713619 0.000000 0.109651
0.793210 0.000000 0.094118
0.859678 0.000000 0.075288
0.934691 0.000000 0.017395
0.985931 0.000000 0.000000
1.000000 0.000000 0.000000
1.000000 0.000000 0.000000
1.000000 0.000000 0.000000
1.000000 0.000000 0.000000
1.000000 0.000000 0.000000
1.000000 0.097322 0.000000
1.000000 0.157137 0.000000
1.000000 0.196963 0.000000
1.000000 0.230991 0.000000
1.000000 0.261295 0.005066
1.000000 0.288975 0.053529
1.000000 0.315221 0.078920
1.000000 0.339452 0.099031
1.000000 0.361761 0.117128
0.074525 0.118257 0.153292
0.074464 0.118471 0.153292
0.074159 0.118502 0.152987
0.074159 0.118288 0.153140
0.082887 0.120424 0.152773
0.105745 0.123079 0.152255
0.141085 0.123812 0.151492
0.188174 0.121248 0.150301
0.248264 0.112154 0.148379
0.322301 0.088960 0.145418
0.408209 0.000000 0.140841
0.503380 0.000000 0.134035
0.601038 0.000000 0.124727
0.695247 0.000000 0.112245
0.777768 0.000000 0.097200
0.847044 0.000000 0.078950
0.924895 0.000000 0.031037
0.976287 0.000000 0.000000
1.000000 0.000000 0.000000
1.000000 0.000000 0.000000
1.000000 0.000000 0.000000
1.000000 0.000000 0.000000
1.000000 0.000000 0.000000
1.000000 0.118898 0.000000
1.000000 0.173098 0.000000
1.000000 0.212314 0.000000
1.000000 0.245029 0.000000
1.000000 0.274784 0.030701
1.000000 0.301396 0.067720
1.000000 0.325994 0.088167
1.000000 0.348638 0.106508
1.000000 0.369299 0.122683
0.072877 0.120638 0.155337
0.072755 0.120851 0.155459
0.072541 0.121065 0.155734
0.074617 0.120577 0.153597
0.075776 0.119966 0.155062
0.090578 0.123903 0.153628
0.125521 0.129335 0.151766
0.169070 0.130068 0.150637
0.225650 0.125978 0.148989
0.295720 0.113222 0.146487
0.378943 0.080903 0.142428
0.472389 0.000000 0.136294
0.570825 0.000000 0.127871
0.667750 0.000000 0.116304
0.755428 0.000000 0.101839
0.836851 0.000000 0.082429
0.914275 0.000000 0.046326
0.967529 0.000000 0.000000
1.000000 0.000000 0.000000
1.000000 0.000000 0.000000
1.000000 0.000000 0.000000
1.000000 0.000000 0.000000
1.000000 0.098543 0.000000
1.000000 0.160555 0.000000
1.000000 0.202152 0.000000
1.000000 0.235904 0.000000
1.000000 0.265507 0.011444
1.000000 0.292058 0.057832
1.000000 0.316777 0.079530
1.000000 0.339910 0.098360
1.000000 0.361425 0.115419
1.000000 0.381415 0.131807
0.067079 0.126528 0.162020
0.066743 0.126955 0.162417
0.066468 0.127352 0.162661
0.067445 0.127962 0.160555
0.078035 0.125460 0.156558
0.079896 0.124300 0.160098
0.100313 0.130648 0.158328
0.149935 0.139559 0.152255
0.204318 0.140383 0.150484
0.272038 0.134890 0.148074
0.353307 0.119020 0.144503
0.445930 0.080598 0.139132
0.544518 0.000000 0.131228
0.643702 0.000000 0.120638
0.735470 0.000000 0.106874
0.828336 0.000000 0.086702
0.905058 0.000000 0.060426
0.959716 0.000000 0.003662
0.998810 0.000000 0.000000
1.000000 0.000000 0.000000
1.000000 0.000000 0.000000
1.000000 0.125856 0.000000
1.000000 0.280674 0.076600
1.000000 0.303838 0.094423
1.000000 0.323888 0.109438
1.000000 0.341894 0.122774
1.000000 0.359045 0.135500
1.000000 0.375616 0.148318
1.000000 0.392096 0.161074
1.000000 0.408392 0.174411
1.000000 0.423957 0.187472
1.000000 0.438087 0.199466
0.043122 0.140261 0.178775
0.041962 0.140780 0.179110
0.040436 0.141512 0.179538
0.036591 0.143099 0.180789
0.059571 0.144747 0.170321
0.089357 0.138338 0.165866
0.091951 0.136782 0.174044
0.117250 0.147036 0.174777
0.189578 0.158267 0.159518
0.267979 0.162478 0.151736
0.354894 0.155825 0.147921
0.453285 0.137728 0.142031
0.555840 0.101839 0.133944
0.656397 0.000000 0.122713
0.748043 0.000000 0.108705
0.849882 0.000000 0.086793
0.921233 0.000000 0.063111
0.971740 0.000000 0.020325
1.000000 0.111788 0.000000
1.000000 0.167208 0.000000
1.000000 0.213321 0.000000
1.000000 0.253605 0.027192
1.000000 0.288701 0.070192
1.000000 0.318853 0.094606
1.000000 0.344121 0.115541
1.000000 0.364141 0.132357
1.000000 0.381506 0.146975
1.000000 0.397162 0.160372
1.000000 0.412390 0.173342
1.000000 0.427253 0.186404
1.000000 0.441535 0.199039
1.000000 0.454932 0.211429
0.000000 0.155093 0.198795
0.000000 0.155550 0.199191
0.000000 0.156344 0.199557
0.000000 0.158083 0.200656
0.000000 0.167086 0.199771
0.058869 0.164462 0.178897
0.104768 0.153750 0.179294
0.108736 0.152804 0.191043
0.131106 0.166659 0.199527
0.220737 0.181918 0.175875
0.316320 0.191012 0.156558
0.412634 0.187259 0.151156
0.515496 0.175265 0.143923
0.618555 0.156069 0.133913
0.732601 0.143771 0.119356
0.829740 0.145357 0.101717
0.901793 0.159121 0.084016
0.955047 0.180423 0.067170
0.994903 0.207767 0.050660
1.000000 0.238743 0.041657
1.000000 0.270634 0.054658
1.000000 0.301335 0.073091
1.000000 0.329808 0.092897
1.000000 0.354589 0.113741
1.000000 0.375982 0.132143
1.000000 0.393652 0.148592
1.000000 0.408637 0.162417
1.000000 0.422431 0.175235
1.000000 0.436378 0.188602
1.000000 0.449866 0.201694
1.000000 0.463569 0.215457
1.000000 0.476265 0.228458
0.000000 0.173190 0.225711
0.000000 0.173739 0.226047
0.000000 0.174594 0.226535
0.000000 0.176364 0.227634
0.000000 0.182406 0.228183
0.000000 0.196597 0.218753
0.067506 0.192111 0.192111
0.128389 0.176272 0.198276
0.134096 0.176120 0.214237
0.154208 0.194217 0.231083
0.260044 0.217411 0.203372
0.370336 0.228428 0.174258
0.476539 0.231449 0.157382
0.592187 0.230686 0.147829
0.713863 0.236881 0.134646
0.809506 0.243900 0.120058
0.883360 0.253513 0.105867
0.939574 0.267063 0.093446
0.982483 0.284306 0.085359
1.000000 0.306004 0.083284
1.000000 0.329900 0.089448
1.000000 0.353765 0.102296
1.000000 0.376349 0.119387
1.000000 0.396765 0.137728
1.000000 0.414527 0.155550
1.000000 0.428870 0.170504
1.000000 0.441688 0.184146
1.000000 0.453468 0.196750
1.000000 0.465492 0.209720
1.000000 0.477546 0.223026
1.000000 0.489754 0.236790
1.000000 0.501427 0.250065
0.000000 0.195041 0.258671
0.000000 0.195529 0.258946
0.000000 0.196384 0.259220
0.000000 0.198276 0.260136
0.000000 0.201358 0.261723
0.000000 0.221805 0.258610
0.000000 0.233310 0.238193
0.088380 0.227176 0.208957
0.159976 0.205447 0.222263
0.168460 0.207004 0.242527
0.190646 0.226871 0.259953
0.303960 0.261570 0.239902
0.431220 0.278599 0.202152
0.564813 0.297551 0.166629
0.686397 0.310857 0.154971
0.787106 0.322454 0.142367
0.866545 0.333654 0.130251
0.927276 0.345464 0.121035
0.973083 0.358862 0.116365
1.000000 0.374456 0.116518
1.000000 0.390936 0.122194
1.000000 0.407294 0.132937
1.000000 0.422705 0.146365
1.000000 0.437201 0.161288
1.000000 0.450568 0.176394
1.000000 0.462318 0.190616
1.000000 0.473426 0.204288
1.000000 0.484443 0.218082
1.000000 0.496071 0.232853
1.000000 0.507958 0.248051
1.000000 0.520165 0.264225
1.000000 0.532097 0.280186
0.000000 0.219089 0.294987
0.000000 0.219821 0.295415
0.000000 0.220859 0.295811
0.000000 0.223026 0.296941
0.000000 0.226627 0.298741
0.000000 0.241794 0.298161
0.000000 0.275242 0.293767
0.000000 0.279240 0.260410
0.121370 0.271855 0.230564
0.201877 0.243351 0.252293
0.213504 0.247379 0.277409
0.248295 0.278538 0.303502
0.374975 0.332158 0.298894
0.524071 0.357580 0.248539
0.650507 0.374578 0.196689
0.754665 0.388983 0.168582
0.839628 0.400122 0.158114
0.905425 0.410132 0.150729
0.955871 0.420203 0.146578
0.994415 0.431983 0.147189
1.000000 0.445075 0.153048
1.000000 0.458015 0.162936
1.000000 0.470741 0.176547
1.000000 0.482429 0.191165
1.000000 0.493050 0.205875
1.000000 0.502159 0.219516
1.000000 0.510643 0.232425
1.000000 0.519554 0.245731
1.000000 0.529168 0.260136
1.000000 0.539483 0.275547
1.000000 0.550530 0.292241
1.000000 0.561791 0.309575
0.000000 0.249760 0.339361
0.000000 0.250553 0.339879
0.000000 0.251560 0.340429
0.000000 0.254032 0.341588
0.000000 0.258152 0.343725
0.000000 0.266545 0.345678
0.000000 0.300420 0.341772
0.000000 0.340948 0.332860
0.000000 0.336065 0.286534
0.167880 0.327184 0.258366
0.258000 0.293889 0.291112
0.286503 0.312566 0.331762
0.426642 0.436988 0.437476
0.567437 0.512871 0.458381
0.719936 0.534630 0.371374
0.820951 0.538994 0.290349
0.890715 0.539147 0.222934
0.944823 0.542168 0.220615
0.983886 0.544427 0.221714
1.000000 0.547387 0.226871
1.000000 0.550713 0.234958
1.000000 0.554772 0.245579
1.000000 0.558618 0.256931
1.000000 0.563104 0.269505
1.000000 0.567529 0.281834
1.000000 0.572015 0.293767
1.000000 0.576379 0.304967
1.000000 0.581201 0.316320
1.000000 0.586999 0.328740
1.000000 0.594049 0.342748
1.000000 0.602136 0.358190
1.000000 0.610925 0.374914
0.000000 0.303136 0.411994
0.000000 0.303929 0.412299
0.000000 0.304356 0.411658
0.000000 0.305913 0.411383
0.000000 0.308782 0.411322
0.000000 0.313146 0.411933
0.000000 0.340215 0.408270
0.000000 0.386664 0.402045
0.000000 0.420081 0.377935
0.000000 0.422705 0.328923
0.251438 0.430182 0.312047
0.377386 0.402045 0.372107
0.423011 0.433814 0.434607
0.504173 0.505180 0.500999
0.624445 0.584771 0.555383
0.764858 0.601343 0.457679
0.854520 0.599512 0.366766
0.914702 0.592523 0.283024
0.960266 0.591424 0.258457
0.994385 0.592828 0.261845
1.000000 0.594690 0.268711
1.000000 0.596735 0.278080
1.000000 0.598779 0.288579
1.000000 0.601160 0.300084
1.000000 0.603662 0.311498
1.000000 0.606287 0.322698
1.000000 0.609247 0.333837
1.000000 0.612909 0.345434
1.000000 0.617700 0.358129
1.000000 0.624201 0.373602
1.000000 0.631800 0.390478
1.000000 0.640650 0.409796
0.000000 0.344488 0.467536
0.000000 0.345464 0.467750
0.000000 0.345953 0.467262
0.000000 0.347601 0.466957
0.000000 0.350439 0.466651
0.000000 0.354589 0.467109
0.000000 0.370214 0.466987
0.000000 0.414893 0.461219
0.000000 0.483589 0.466377
0.000000 0.515618 0.434150
0.117952 0.523827 0.383001
0.354376 0.519310 0.374334
0.471595 0.483711 0.441840
0.514214 0.514000 0.509728
0.589349 0.579583 0.579644
0.676143 0.650965 0.659907
0.798886 0.659754 0.552209
0.878172 0.652399 0.450904
0.932982 0.642145 0.361059
0.972992 0.635676 0.299168
1.000000 0.637049 0.305394
1.000000 0.638209 0.314488
1.000000 0.639063 0.324681
1.000000 0.640253 0.336065
1.000000 0.641535 0.347601
1.000000 0.642939 0.358831
1.000000 0.644617 0.369970
1.000000 0.647272 0.381903
1.000000 0.651301 0.395850
1.000000 0.657099 0.412238
1.000000 0.664424 0.431556
1.000000 0.673060 0.453101
0.000000 0.400183 0.539940
0.000000 0.401495 0.541009
0.000000 0.402228 0.540490
0.000000 0.404395 0.540581
0.000000 0.407538 0.540795
0.000000 0.412787 0.541924
0.000000 0.420539 0.545464
0.000000 0.465827 0.547814
0.000000 0.529564 0.550225
0.000000 0.600916 0.553460
0.000000 0.610590 0.495277
0.235691 0.613489 0.439155
0.461158 0.597070 0.443427
0.559075 0.557733 0.515465
0.596155 0.585473 0.586389
0.659419 0.640650 0.652369
0.722866 0.696315 0.723568
0.824826 0.711055 0.649042
0.896727 0.702480 0.545556
0.947356 0.690547 0.449744
0.983795 0.679469 0.364477
1.000000 0.677455 0.352880
1.000000 0.677241 0.362280
1.000000 0.677424 0.373571
1.000000 0.677821 0.385534
1.000000 0.678859 0.398169
1.000000 0.680812 0.412055
1.000000 0.684230 0.428138
1.000000 0.689174 0.446540
1.000000 0.696040 0.468421
1.000000 0.704524 0.493446
1.000000 0.714382 0.521416
0.000000 0.474647 0.636133
0.000000 0.476143 0.637598
0.000000 0.477455 0.637720
0.000000 0.479835 0.638117
0.000000 0.483528 0.638727
0.000000 0.489326 0.640467
0.000000 0.497902 0.644465
0.000000 0.524926 0.648463
0.000000 0.583886 0.649744
0.000000 0.649531 0.651057
0.000000 0.698177 0.634546
0.000000 0.697414 0.562097
0.355383 0.688777 0.500816
0.559228 0.658350 0.516411
0.628962 0.616175 0.585718
0.657343 0.638819 0.650141
0.710719 0.685603 0.709651
0.759518 0.728786 0.766140
0.845670 0.754360 0.734798
0.910582 0.749477 0.645838
0.957397 0.739071 0.554131
0.991547 0.726741 0.465492
1.000000 0.718349 0.412238
1.000000 0.718135 0.424353
1.000000 0.718166 0.437842
1.000000 0.718807 0.452308
1.000000 0.720302 0.467811
1.000000 0.723171 0.485573
1.000000 0.727474 0.505852
1.000000 0.733150 0.528252
1.000000 0.740230 0.553429
1.000000 0.748501 0.580468
0.000000 0.536278 0.714382
0.000000 0.537377 0.714443
0.000000 0.537743 0.714290
0.000000 0.539910 0.714229
0.000000 0.543267 0.714595
0.000000 0.548333 0.715846
0.000000 0.555749 0.718868
0.000000 0.565728 0.723384
0.000000 0.615198 0.723110
0.000000 0.674281 0.722774
0.000000 0.734920 0.722744
0.000000 0.758694 0.683375
0.161074 0.752743 0.609522
0.464607 0.738247 0.556359
0.638544 0.702907 0.587549
0.685542 0.663874 0.650660
0.709865 0.684840 0.708644
0.755642 0.725338 0.761593
0.793545 0.759396 0.805844
0.863920 0.791379 0.806210
0.919188 0.788602 0.734066
0.960418 0.779141 0.653101
0.992218 0.766354 0.567102
1.000000 0.752987 0.481758
1.000000 0.750942 0.481819
1.000000 0.751400 0.497932
1.000000 0.752834 0.515709
1.000000 0.755673 0.535943
1.000000 0.759792 0.558556
1.000000 0.765377 0.583459
1.000000 0.772183 0.610346
1.000000 0.780148 0.639216
0.000000 0.592920 0.783047
0.000000 0.595117 0.784878
0.000000 0.643122 0.841184
0.000000 0.644831 0.840848
0.000000 0.647120 0.840208
0.000000 0.650416 0.839475
0.000000 0.654963 0.839200
0.000000 0.661585 0.839841
0.000000 0.688075 0.839414
0.000000 0.739895 0.836667
0.000000 0.793912 0.833707
0.000000 0.843107 0.830228
0.000000 0.841276 0.772946
0.390112 0.825498 0.702205
0.612116 0.803494 0.664790
0.739590 0.767971 0.699947
0.766812 0.734829 0.750454
0.785550 0.752193 0.796597
0.820096 0.783688 0.836332
0.848966 0.810788 0.868101
0.893248 0.838132 0.879789
0.931853 0.835142 0.830533
0.963561 0.825834 0.768032
0.990661 0.813107 0.694484
1.000000 0.798123 0.611688
1.000000 0.787930 0.563073
1.000000 0.786770 0.575647
1.000000 0.787228 0.591424
1.000000 0.789700 0.611383
1.000000 0.794186 0.635554
1.000000 0.800198 0.662348
1.000000 0.807309 0.690547
0.000000 0.653407 0.850401
0.000000 0.659876 0.856870
0.000000 0.666590 0.863066
0.000000 0.673060 0.868345
0.000000 0.679347 0.872038
0.000000 0.684230 0.873594
0.000000 0.689509 0.874144
0.000000 0.695308 0.874784
0.000000 0.703059 0.876432
0.000000 0.748226 0.873411
0.000000 0.798276 0.870115
0.000000 0.846098 0.866453
0.000000 0.876463 0.851987
0.155032 0.863676 0.790402
0.504234 0.844388 0.730068
0.680873 0.821897 0.708675
0.778836 0.787930 0.745876
0.794705 0.759457 0.789090
0.814084 0.778164 0.829526
0.844877 0.806882 0.863706
0.870573 0.831785 0.890837
0.904906 0.859556 0.909850
0.936095 0.858732 0.875547
0.962219 0.851865 0.831052
0.985748 0.841215 0.774105
1.000000 0.828641 0.706813
1.000000 0.815335 0.632532
1.000000 0.814603 0.641810
1.000000 0.816709 0.662135
1.000000 0.820554 0.685847
1.000000 0.825772 0.711604
1.000000 0.832456 0.739528
0.000000 0.690791 0.884215
0.000000 0.696010 0.889036
0.000000 0.701625 0.893675
0.000000 0.707362 0.897581
0.000000 0.712856 0.900359
0.000000 0.717311 0.901518
0.000000 0.721798 0.901976
0.000000 0.727199 0.902373
0.000000 0.734127 0.903532
0.000000 0.758145 0.902953
0.000000 0.803616 0.899962
0.000000 0.849332 0.896513
0.000000 0.889220 0.892058
0.000000 0.897215 0.863371
0.368017 0.880797 0.807828
0.601434 0.860014 0.761166
0.737240 0.838804 0.750637
0.814237 0.808255 0.790341
0.822538 0.784878 0.827085
0.842679 0.804776 0.861326
0.868956 0.830198 0.889158
0.890990 0.852781 0.911559
0.916899 0.879057 0.932403
0.941436 0.879545 0.908598
0.962310 0.874357 0.877440
0.981689 0.865904 0.837278
1.000000 0.855619 0.787289
1.000000 0.844846 0.730159
1.000000 0.839872 0.705806
1.000000 0.842954 0.728206
1.000000 0.847410 0.752377
1.000000 0.853574 0.779171
0.000000 0.725460 0.910735
0.000000 0.730037 0.914305
0.000000 0.734798 0.917815
0.000000 0.739773 0.920775
0.000000 0.744381 0.922820
0.000000 0.748318 0.923674
0.000000 0.752377 0.923888
0.000000 0.756985 0.924041
0.000000 0.762783 0.924590
0.000000 0.769711 0.925536
0.000000 0.808377 0.922789
0.000000 0.851164 0.919341
0.000000 0.890593 0.915282
0.000000 0.922210 0.910796
0.128603 0.911315 0.871397
0.506035 0.893126 0.825681
0.685451 0.874083 0.795865
0.794614 0.855192 0.803037
0.851041 0.833188 0.838895
0.856992 0.817746 0.870268
0.877531 0.838834 0.898009
0.898985 0.861357 0.919463
0.916045 0.880491 0.935790
0.934173 0.902373 0.952178
0.951446 0.904906 0.939361
0.966491 0.902037 0.921324
0.980621 0.896635 0.898985
0.994385 0.889982 0.872129
1.000000 0.882811 0.840818
1.000000 0.875547 0.805325
1.000000 0.878843 0.823026
1.000000 0.884031 0.843992
0.000000 0.771542 0.941863
0.000000 0.773495 0.942992
0.000000 0.775326 0.943908
0.000000 0.777584 0.944549
0.000000 0.780117 0.944976
0.000000 0.782773 0.945006
0.000000 0.786221 0.945006
0.000000 0.790463 0.945220
0.000000 0.796017 0.945800
0.000000 0.802640 0.946654
0.000000 0.821378 0.946502
0.000000 0.861295 0.943664
0.000000 0.899321 0.940185
0.000000 0.930968 0.936187
0.000000 0.943114 0.923583
0.421180 0.926116 0.888518
0.636530 0.907378 0.856046
0.767758 0.890410 0.841093
0.846067 0.873960 0.854612
0.882567 0.857359 0.880156
0.883970 0.844999 0.901976
0.900877 0.863432 0.921324
0.916411 0.880949 0.936126
0.929015 0.895964 0.947631
0.942596 0.913146 0.959350
0.956390 0.918029 0.952972
0.968780 0.916411 0.940185
0.980468 0.913085 0.925505
0.991699 0.908934 0.908873
1.000000 0.904295 0.890196
1.000000 0.899687 0.870207
1.000000 0.899840 0.868589
0.000000 0.799069 0.955291
0.000000 0.800778 0.956176
0.000000 0.802579 0.956939
0.000000 0.804532 0.957488
0.000000 0.806699 0.957763
0.000000 0.809079 0.957671
0.000000 0.811826 0.957458
0.000000 0.815427 0.957366
0.000000 0.819883 0.957549
0.000000 0.825406 0.957977
0.000000 0.831815 0.958648
0.000000 0.862028 0.956725
0.000000 0.898619 0.953613
0.000000 0.931090 0.950134
0.000000 0.955383 0.946319
0.272160 0.949554 0.925780
0.563775 0.931456 0.897032
0.723323 0.914427 0.875334
0.822263 0.900633 0.871519
0.878935 0.887083 0.887297
0.903593 0.874998 0.906981
0.903349 0.866148 0.923674
0.918730 0.883635 0.938293
0.931060 0.898466 0.949432
0.937407 0.906462 0.954955
0.948394 0.920867 0.964141
0.960327 0.927794 0.961852
0.971008 0.927337 0.952422
0.981048 0.925536 0.942199
0.990631 0.923064 0.931243
0.999695 0.920928 0.920623
1.000000 0.919005 0.910491
0.000000 0.832456 0.970428
0.000000 0.833982 0.971130
0.000000 0.835203 0.971527
0.000000 0.836454 0.971649
0.000000 0.837919 0.971496
0.000000 0.839567 0.971160
0.000000 0.841550 0.970672
0.000000 0.844022 0.970153
0.000000 0.847227 0.969696
0.000000 0.851164 0.969421
0.000000 0.855680 0.969207
0.000000 0.866056 0.968688
0.000000 0.899901 0.965545
0.000000 0.931456 0.961975
0.000000 0.956481 0.957946
0.000000 0.969146 0.951385
0.463508 0.951415 0.926421
0.660456 0.933532 0.902892
0.782406 0.918547 0.889220
0.858061 0.907652 0.892302
0.899748 0.896361 0.907866
0.917021 0.887083 0.923613
0.917021 0.881621 0.936675
0.929137 0.896117 0.947723
0.938750 0.908171 0.956115
0.946624 0.918486 0.962676
0.955291 0.930327 0.969604
0.965118 0.938048 0.969757
0.974060 0.938201 0.962768
0.982666 0.937560 0.955688
0.990845 0.936889 0.949096
0.998444 0.936400 0.943206
0.000000 0.854185 0.977020
0.000000 0.855497 0.977569
0.000000 0.856565 0.977905
0.000000 0.857694 0.977996
0.000000 0.859007 0.977874
0.000000 0.860594 0.977630
0.000000 0.862516 0.977325
0.000000 0.864988 0.976989
0.000000 0.868070 0.976745
0.000000 0.871855 0.976654
0.000000 0.876310 0.976593
0.000000 0.881437 0.976684
0.000000 0.901488 0.975250
0.000000 0.932647 0.972290
0.000000 0.958862 0.968872
0.000000 0.976776 0.965148
0.373083 0.972107 0.952605
0.615320 0.954009 0.932677
0.755947 0.938476 0.917388
0.842649 0.926940 0.912078
0.892943 0.919371 0.917693
0.921324 0.910246 0.930327
0.932219 0.903075 0.941314
0.932464 0.900206 0.950683
0.941588 0.911864 0.958526
0.949035 0.921752 0.964660
0.955291 0.930358 0.969635
0.962188 0.940215 0.974914
0.970489 0.948608 0.976715
0.978149 0.949767 0.971923
0.985443 0.950439 0.967559
0.992309 0.951049 0.963867
0.000000 0.877043 0.983520
0.000000 0.877928 0.983825
0.000000 0.878569 0.983917
0.000000 0.879271 0.983856
0.000000 0.880156 0.983642
0.000000 0.881376 0.983307
0.000000 0.882963 0.982940
0.000000 0.885069 0.982574
0.000000 0.887816 0.982330
0.000000 0.891264 0.982208
0.000000 0.895232 0.982177
0.000000 0.899931 0.982269
0.000000 0.904997 0.982361
0.000000 0.932464 0.980011
0.000000 0.959319 0.976989
0.000000 0.979156 0.973602
0.210239 0.989441 0.969940
0.551293 0.971435 0.953094
0.719020 0.954864 0.937987
0.820584 0.942229 0.929015
0.881071 0.933837 0.928405
0.915892 0.927733 0.934905
0.935485 0.920562 0.944518
0.942504 0.914763 0.952728
0.943084 0.913817 0.959777
0.950286 0.923461 0.965667
0.956359 0.931853 0.970459
0.961486 0.939178 0.974365
0.967346 0.947753 0.978668
0.974640 0.956603 0.981445
0.981323 0.958373 0.977935
0.987732 0.959747 0.974975
0.000000 0.896910 0.987884
0.000000 0.897490 0.988067
0.000000 0.898039 0.988128
0.000000 0.898833 0.988098
0.000000 0.899931 0.988037
0.000000 0.901488 0.988006
0.000000 0.903838 0.988128
0.000000 0.906767 0.988342
0.000000 0.910369 0.988708
0.000000 0.914580 0.989105
0.000000 0.919249 0.989563
0.000000 0.924315 0.990021
0.000000 0.929564 0.990387
0.000000 0.940032 0.990112
0.000000 0.967010 0.987640
0.000000 0.986999 0.984588
0.172305 0.996735 0.981109
0.554559 0.990021 0.973510
0.729458 0.972900 0.961608
0.829801 0.960510 0.953338
0.887266 0.952636 0.949981
0.921447 0.947784 0.951507
0.941924 0.943297 0.956451
0.953399 0.938201 0.962188
0.957244 0.933898 0.967224
0.957977 0.934142 0.971710
0.962951 0.941283 0.975463
0.967315 0.947723 0.978637
0.971160 0.953521 0.981384
0.975708 0.960540 0.984497
0.981109 0.968170 0.987243
0.986358 0.970031 0.984894
0.000000 0.922454 0.994446
0.000000 0.922881 0.994507
0.000000 0.923064 0.994507
0.000000 0.923613 0.994415
0.000000 0.924407 0.994263
0.000000 0.925505 0.994110
0.000000 0.927123 0.993957
0.000000 0.929259 0.993896
0.000000 0.931884 0.993866
0.000000 0.934905 0.993896
0.000000 0.938415 0.993927
0.000000 0.942290 0.994018
0.000000 0.946410 0.994049
0.000000 0.950683 0.994049
