data/fiter_cube/26597975/1022852/file.cube
# Created by Adobe Lightroom plugin Export LUT (1.17.0)
# www.johnrellis.com/lightroom/exportlut.htm
# Preset:  城市电影胶片_08 云集
# Color profile: C:\Program Files (x86)\Common Files\Adobe\Color\Profiles\Recommended\AdobeRGB1998.icc
LUT_3D_SIZE 8
DOMAIN_MIN 0.000000 0.000000 0.000000
DOMAIN_MAX 0.903226 0.903226 0.903226
0.074647 0.118654 0.153689
0.094148 0.118227 0.153323
0.283665 0.085847 0.147982
0.651972 0.000000 0.119326
0.953429 0.000000 0.000000
1.000000 0.000000 0.000000
1.000000 0.165652 0.000000
1.000000 0.292882 0.068513
0.072877 0.120638 0.155337
0.075776 0.119966 0.155062
0.225650 0.125978 0.148989
0.570825 0.000000 0.127871
0.914275 0.000000 0.046326
1.000000 0.000000 0.000000
1.000000 0.202152 0.000000
1.000000 0.316777 0.079530
0.000000 0.173190 0.225711
0.000000 0.182406 0.228183
0.134096 0.176120 0.214237
0.476539 0.231449 0.157382
0.883360 0.253513 0.105867
1.000000 0.329900 0.089448
1.000000 0.414527 0.155550
1.000000 0.465492 0.209720
0.000000 0.303136 0.411994
0.000000 0.308782 0.411322
0.000000 0.420081 0.377935
0.423011 0.433814 0.434607
0.854520 0.599512 0.366766
1.000000 0.594690 0.268711
1.000000 0.603662 0.311498
1.000000 0.617700 0.358129
0.000000 0.536278 0.714382
0.000000 0.543267 0.714595
0.000000 0.615198 0.723110
0.161074 0.752743 0.609522
0.709865 0.684840 0.708644
0.919188 0.788602 0.734066
1.000000 0.750942 0.481819
1.000000 0.759792 0.558556
0.000000 0.725460 0.910735
0.000000 0.744381 0.922820
0.000000 0.762783 0.924590
0.000000 0.890593 0.915282
0.685451 0.874083 0.795865
0.877531 0.838834 0.898009
0.951446 0.904906 0.939361
1.000000 0.882811 0.840818
0.000000 0.854185 0.977020
0.000000 0.859007 0.977874
0.000000 0.868070 0.976745
0.000000 0.901488 0.975250
0.373083 0.972107 0.952605
0.892943 0.919371 0.917693
0.941588 0.911864 0.958526
0.970489 0.948608 0.976715
0.000000 0.940337 0.997192
0.000000 0.942138 0.997009
0.000000 0.949248 0.996857
0.000000 0.962921 0.997223
0.000000 1.000000 0.989563
0.850034 0.971435 0.964843
0.960662 0.955322 0.970306
0.973083 0.956481 0.982727
0.073884 0.118654 0.155306
0.089326 0.116152 0.163729
0.246403 0.072908 0.162631
0.583215 0.000000 0.154757
0.915618 0.000000 0.127474
1.000000 0.000000 0.111635
1.000000 0.077546 0.120363
1.000000 0.277592 0.142336
0.070222 0.119814 0.160189
0.080995 0.127169 0.165347
0.216464 0.116487 0.171450
0.544335 0.000000 0.164004
0.890105 0.000000 0.138033
1.000000 0.000000 0.119417
1.000000 0.150423 0.121828
1.000000 0.296727 0.142123
0.000000 0.139284 0.230045
0.000000 0.143587 0.241886
0.163058 0.203983 0.232486
0.457130 0.231296 0.203830
0.839872 0.212467 0.180117
1.000000 0.281865 0.169986
1.000000 0.371984 0.191897
1.000000 0.442969 0.230991
0.000000 0.205173 0.416602
0.000000 0.208286 0.424720
0.000000 0.368170 0.422217
0.383795 0.399115 0.404395
0.760739 0.521691 0.333837
0.982330 0.533623 0.274296
1.000000 0.560754 0.302739
1.000000 0.592737 0.351324
0.000000 0.418067 0.732845
0.000000 0.425360 0.728756
0.000000 0.519951 0.723873
0.000000 0.731563 0.651148
0.661677 0.642634 0.654871
0.897826 0.759945 0.692500
1.000000 0.734829 0.484565
1.000000 0.748104 0.554162
0.000000 0.637415 0.906737
0.000000 0.645106 0.908110
0.000000 0.670588 0.911223
0.000000 0.837308 0.903899
0.625208 0.870726 0.801907
0.871305 0.832547 0.891600
0.948852 0.901091 0.936339
1.000000 0.875090 0.825406
0.000000 0.801266 0.973816
0.000000 0.803220 0.972595
0.000000 0.816861 0.972442
0.000000 0.864317 0.972503
0.252903 0.972076 0.959594
0.877623 0.916289 0.911467
0.935119 0.903532 0.952972
0.967102 0.942962 0.973571
0.000000 0.916564 0.997101
0.000000 0.919402 0.997223
0.000000 0.928069 0.997162
0.000000 0.944060 0.997650
0.000000 0.994293 0.992493
0.849912 0.973632 0.969116
0.959106 0.955413 0.969696
0.971740 0.954467 0.981781
0.091402 0.148898 0.210941
0.081300 0.139956 0.242283
0.250065 0.082063 0.300389
0.610620 0.000000 0.321263
0.944793 0.000000 0.332036
1.000000 0.000000 0.341741
1.000000 0.275822 0.359655
1.000000 0.402319 0.368872
0.112642 0.164645 0.213870
0.139620 0.184695 0.228702
0.218204 0.133028 0.313817
0.564874 0.000000 0.325109
0.914702 0.000000 0.333227
1.000000 0.000000 0.340032
1.000000 0.296422 0.355108
1.000000 0.418555 0.370672
0.000000 0.161105 0.280125
0.000000 0.180850 0.290013
0.211429 0.263157 0.315312
0.517845 0.271214 0.385534
0.885924 0.244419 0.388098
1.000000 0.350378 0.395270
1.000000 0.451148 0.411994
1.000000 0.521752 0.432258
0.000000 0.188022 0.392493
0.000000 0.195926 0.403876
0.000000 0.280400 0.471778
0.373999 0.530846 0.561303
0.799619 0.582971 0.501396
0.984588 0.596033 0.506157
1.000000 0.631373 0.532372
1.000000 0.664576 0.562371
0.000000 0.332433 0.717525
0.000000 0.336461 0.725093
0.000000 0.382422 0.763302
0.000000 0.592523 0.809567
0.743252 0.739162 0.726680
0.904479 0.789090 0.768765
1.000000 0.771572 0.671748
1.000000 0.787045 0.714260
0.000000 0.484565 0.920500
0.000000 0.487282 0.923064
0.000000 0.495064 0.928954
0.000000 0.656550 0.932341
0.503899 0.894560 0.909483
0.876066 0.836912 0.892180
0.949126 0.903624 0.940429
1.000000 0.882322 0.856107
0.000000 0.620661 0.990631
0.000000 0.624048 0.990173
0.000000 0.647211 0.988922
0.000000 0.735897 0.985016
0.000000 0.924315 0.968170
0.857298 0.926299 0.930449
0.940520 0.910460 0.957610
0.971832 0.950500 0.977600
0.000000 0.831540 1.000000
0.000000 0.837064 1.000000
0.000000 0.849851 1.000000
0.000000 0.875395 1.000000
0.000000 0.953674 0.997375
0.827359 0.979126 0.979736
0.957275 0.960723 0.971496
0.973816 0.957671 0.983246
0.197635 0.257420 0.346044
0.197482 0.261936 0.393133
0.239628 0.194522 0.502342
0.611780 0.000000 0.615259
0.910094 0.000000 0.629847
1.000000 0.000000 0.594079
1.000000 0.385718 0.596155
1.000000 0.552850 0.633234
0.287144 0.316594 0.341283
0.284276 0.326909 0.381781
0.268162 0.280491 0.499641
0.602472 0.000000 0.644831
0.896666 0.000000 0.641077
1.000000 0.147768 0.603418
1.000000 0.418555 0.604700
1.000000 0.562219 0.633845
0.200290 0.302495 0.408331
0.252506 0.332403 0.418524
0.423865 0.440864 0.452705
0.509636 0.382910 0.659205
0.856657 0.343084 0.693660
0.997650 0.465461 0.688380
1.000000 0.619013 0.726223
1.000000 0.666011 0.717952
0.000000 0.313573 0.570672
0.000000 0.340246 0.580529
0.248661 0.437842 0.613581
0.570977 0.598535 0.665248
0.773190 0.625360 0.771237
0.956481 0.657038 0.762478
1.000000 0.713680 0.775235
1.000000 0.749386 0.784604
0.000000 0.360876 0.752499
0.000000 0.363775 0.751034
0.000000 0.441352 0.772641
0.346227 0.593927 0.817258
0.713558 0.739498 0.848997
0.906676 0.811521 0.850248
0.983551 0.821805 0.854582
1.000000 0.834165 0.860899
0.000000 0.466682 0.912444
0.000000 0.479164 0.923644
0.000000 0.502312 0.927581
0.000000 0.611353 0.940368
0.521782 0.746700 0.949462
0.882200 0.887999 0.921965
0.952880 0.910491 0.947967
0.993927 0.900389 0.917479
0.000000 0.577874 0.989166
0.000000 0.579950 0.990112
0.000000 0.585168 0.992370
0.000000 0.614984 0.995697
0.000000 0.756558 0.991241
0.831601 0.937896 0.969390
0.948791 0.922087 0.961730
0.974914 0.954620 0.979370
0.000000 0.656703 1.000000
0.000000 0.658106 1.000000
0.000000 0.661494 1.000000
0.000000 0.689754 1.000000
0.000000 0.826200 1.000000
0.775174 0.962799 0.989105
0.951720 0.966125 0.975799
0.975830 0.960723 0.984588
0.422339 0.469886 0.577630
0.426398 0.477577 0.622827
0.416693 0.438056 0.726589
0.578607 0.287053 0.856352
0.868467 0.000000 0.897887
0.988098 0.271672 0.851957
1.000000 0.485542 0.813962
1.000000 0.652583 0.826200
0.497536 0.519493 0.566613
0.502831 0.532982 0.613642
0.500114 0.529473 0.739590
0.576715 0.390570 0.851255
0.853208 0.200229 0.899474
0.982116 0.346258 0.859953
1.000000 0.525139 0.824918
1.000000 0.670985 0.834531
0.527886 0.560113 0.623835
0.574548 0.590204 0.640192
0.660670 0.648890 0.680842
0.631769 0.616419 0.822416
0.798001 0.433875 0.902861
0.957794 0.496132 0.874815
1.000000 0.613855 0.848051
1.000000 0.713130 0.850645
0.365332 0.539757 0.738888
0.417182 0.560876 0.742947
0.573632 0.634852 0.763699
0.748592 0.730983 0.794553
0.780209 0.732052 0.887358
0.927031 0.685664 0.909911
0.993194 0.738125 0.888609
1.000000 0.790616 0.888060
0.000000 0.522759 0.853849
0.000000 0.544671 0.857542
0.351629 0.611109 0.864439
0.629511 0.709651 0.875853
0.810941 0.796201 0.887175
0.886717 0.812528 0.927977
0.972198 0.832212 0.919463
1.000000 0.856138 0.920928
0.000000 0.521355 0.921233
0.000000 0.520928 0.921752
0.000000 0.565942 0.921721
0.310399 0.656703 0.925383
0.662837 0.758450 0.928893
0.870542 0.854948 0.940703
0.951415 0.902678 0.946960
0.989502 0.909880 0.947723
0.000000 0.577691 0.977935
0.000000 0.575921 0.977600
0.000000 0.575860 0.978943
0.000000 0.631037 0.982849
0.307103 0.737179 0.983642
0.791196 0.852445 0.979095
0.941436 0.935546 0.965332
0.975250 0.952056 0.977020
0.000000 0.645777 1.000000
0.000000 0.645319 1.000000
0.000000 0.644678 1.000000
0.000000 0.650752 1.000000
0.000000 0.668818 1.000000
0.586603 0.870848 1.000000
0.935180 0.971099 0.985290
0.976196 0.961273 0.984314
0.724361 0.725551 0.853635
0.729549 0.730343 0.870909
0.719936 0.715419 0.903990
0.719203 0.649989 0.939879
0.809079 0.478889 0.971008
0.954925 0.459663 0.974334
1.000000 0.598840 0.945342
1.000000 0.725826 0.929931
0.734432 0.728115 0.827512
0.733669 0.730068 0.843961
0.734127 0.730159 0.889433
0.720027 0.672206 0.929320
0.797208 0.527672 0.964446
0.946014 0.486458 0.971984
1.000000 0.614557 0.945922
1.000000 0.733059 0.930724
0.796841 0.769131 0.832731
0.808438 0.775814 0.832670
0.811490 0.787015 0.869902
0.803189 0.779416 0.921874
0.811826 0.697841 0.954864
0.925994 0.611810 0.971283
0.991852 0.693050 0.953429
1.000000 0.774990 0.939422
0.735225 0.754238 0.880613
0.751217 0.761746 0.880064
0.808347 0.793515 0.886290
0.880430 0.842496 0.903044
0.877775 0.841703 0.947570
0.908965 0.768521 0.971862
0.979950 0.793790 0.964569
1.000000 0.832761 0.952148
0.590723 0.714809 0.918090
0.623468 0.727443 0.918914
0.715114 0.765652 0.921386
0.819699 0.816678 0.926116
0.894408 0.862730 0.931029
0.909361 0.870054 0.956817
0.965270 0.847593 0.967071
0.998260 0.868284 0.956481
0.290257 0.668635 0.954406
0.370245 0.685695 0.955627
0.538079 0.728756 0.954711
0.711818 0.786923 0.953399
0.837705 0.841306 0.952758
0.917998 0.892088 0.956909
0.951415 0.906157 0.971893
0.989319 0.916930 0.968139
0.000000 0.686488 0.986572
0.000000 0.687953 0.987274
0.000000 0.684352 0.987884
0.453681 0.745571 0.984070
0.712001 0.813748 0.979065
0.868070 0.875669 0.975525
0.942992 0.924529 0.975799
0.977600 0.948821 0.975525
0.000000 0.700221 1.000000
0.000000 0.698177 1.000000
0.000000 0.692073 1.000000
0.000000 0.684199 1.000000
0.000000 0.704738 1.000000
0.567346 0.816800 1.000000
0.914427 0.923674 0.993256
0.977111 0.969818 0.985260
0.854337 0.830747 0.933684
0.856992 0.833097 0.938964
0.860349 0.833921 0.951781
0.851377 0.811185 0.965515
0.856229 0.755459 0.979950
0.908049 0.627100 0.995331
0.983337 0.668452 0.992523
1.000000 0.765560 0.975769
0.859617 0.834043 0.927825
0.861387 0.836179 0.933349
0.863645 0.837675 0.947326
0.855070 0.819028 0.962097
0.856382 0.768185 0.977111
0.903105 0.650355 0.992737
0.979492 0.672511 0.991302
1.000000 0.765988 0.975250
0.890593 0.854917 0.918547
0.890013 0.856291 0.923827
0.888670 0.859251 0.938964
0.889006 0.858976 0.957916
0.879423 0.825589 0.972076
0.903746 0.751461 0.986816
0.970672 0.735836 0.989837
1.000000 0.804349 0.977996
0.879179 0.853452 0.933379
0.884031 0.856474 0.933074
0.901884 0.869383 0.934478
0.916655 0.884977 0.946441
0.914153 0.882719 0.966522
0.916106 0.847868 0.980224
0.960327 0.809628 0.988281
0.997925 0.846647 0.980774
0.831662 0.834287 0.949767
0.839872 0.838499 0.949462
0.866880 0.853696 0.949493
0.902129 0.876951 0.950713
0.934173 0.903014 0.953521
0.933440 0.902312 0.973114
0.950103 0.864714 0.985931
0.992248 0.883299 0.982849
0.740749 0.806729 0.968322
0.756985 0.813138 0.968078
0.804837 0.833310 0.967315
0.863066 0.862242 0.966796
0.911284 0.892515 0.966918
0.947204 0.922362 0.968902
0.955200 0.927153 0.980926
0.986725 0.918181 0.984894
0.637934 0.789029 0.985138
0.637690 0.789334 0.985443
0.663050 0.797391 0.985168
0.773800 0.834745 0.982574
0.864286 0.873991 0.980163
0.923491 0.910369 0.979309
0.959625 0.941344 0.980468
0.979858 0.949310 0.986511
0.577386 0.794797 0.999237
0.574151 0.794278 0.999390
0.569268 0.794553 1.000000
0.544701 0.790951 1.000000
0.647730 0.816831 0.999451
0.838743 0.877440 0.993835
0.931060 0.927367 0.990509
0.974212 0.965087 0.990997
0.928771 0.903227 0.970642
0.929442 0.904021 0.972168
0.930266 0.904295 0.976257
0.927977 0.897856 0.981720
0.925505 0.880430 0.987976
0.932158 0.845670 0.995239
0.961608 0.787747 1.000000
0.998322 0.826200 0.999756
0.930053 0.904326 0.969024
0.930632 0.905150 0.970581
0.931426 0.905852 0.975006
0.929992 0.901183 0.980774
0.926970 0.884825 0.987091
0.932647 0.852415 0.994385
0.960266 0.793271 1.000000
0.997223 0.830106 0.999420
0.936980 0.910124 0.964538
0.937102 0.910826 0.966217
0.936889 0.911772 0.971038
0.939574 0.914519 0.978820
0.935454 0.902312 0.985107
0.937377 0.877073 0.992065
0.958343 0.826474 1.000000
0.993805 0.848508 0.998566
0.938933 0.911315 0.962158
0.941375 0.913725 0.962646
0.947417 0.919921 0.964050
0.947662 0.923980 0.973419
0.948608 0.924651 0.982391
0.946502 0.908537 0.989227
0.958923 0.877623 0.996674
0.989410 0.874815 0.997589
0.923339 0.902647 0.969604
0.926390 0.905150 0.969787
0.934722 0.911894 0.969726
0.947356 0.922972 0.969848
0.957214 0.935302 0.975677
0.957458 0.934905 0.985840
0.961578 0.917327 0.993317
0.984771 0.901976 0.996643
0.894621 0.888426 0.978485
0.898344 0.890684 0.978271
0.910643 0.898711 0.977752
0.928862 0.911955 0.977325
0.948852 0.928862 0.977325
0.968505 0.949615 0.979644
0.969024 0.949065 0.990173
0.981170 0.929931 0.996124
0.872099 0.882902 0.987640
0.871580 0.882597 0.987640
0.870268 0.881926 0.987671
0.895384 0.896117 0.986877
0.928222 0.918181 0.986023
0.954498 0.939910 0.985534
0.975463 0.961456 0.986297
0.980041 0.960601 0.993774
0.840421 0.875975 0.995727
0.839475 0.875639 0.995758
0.837400 0.874937 0.995972
0.834653 0.874296 0.996429
0.853086 0.882902 0.996155
0.918212 0.918547 0.993713
0.958801 0.950256 0.992676
0.983734 0.975830 0.993072
