data/fiter_cube/26597975/1022852/file.cube
# Created by Adobe Lightroom plugin Export LUT (1.17.0)
# www.johnrellis.com/lightroom/exportlut.htm
# Preset:  城市电影胶片_08 云集
# Color profile: C:\Program Files (x86)\Common Files\Adobe\Color\Profiles\Recommended\AdobeRGB1998.icc
LUT_3D_SIZE 5
DOMAIN_MIN 0.000000 0.000000 0.000000
DOMAIN_MAX 0.903226 0.903226 0.903226
0.074647 0.118654 0.153689
0.217411 0.105928 0.150393
0.818845 0.000000 0.088258
1.000000 0.000000 0.000000
1.000000 0.292882 0.068513
0.000000 0.155093 0.198795
0.108736 0.152804 0.191043
0.732601 0.143771 0.119356
1.000000 0.301335 0.073091
1.000000 0.436378 0.188602
0.000000 0.400183 0.539940
0.000000 0.465827 0.547814
0.596155 0.585473 0.586389
1.000000 0.677455 0.352880
1.000000 0.689174 0.446540
0.000000 0.771542 0.941863
0.000000 0.790463 0.945220
0.000000 0.943114 0.923583
0.900877 0.863432 0.921324
0.991699 0.908934 0.908873
0.000000 0.940337 0.997192
0.000000 0.946838 0.996826
0.000000 0.964080 0.994110
0.900267 0.964996 0.962402
0.973083 0.956481 0.982727
0.080140 0.133639 0.186374
0.187503 0.100496 0.248356
0.788022 0.000000 0.258396
1.000000 0.000000 0.265721
1.000000 0.340764 0.287968
0.000000 0.143496 0.236393
0.158175 0.210330 0.262425
0.739834 0.072999 0.302098
1.000000 0.278660 0.309514
1.000000 0.463325 0.351476
0.000000 0.254765 0.552880
0.000000 0.288334 0.594293
0.596979 0.613642 0.563897
0.982055 0.670436 0.501793
1.000000 0.722072 0.601495
0.000000 0.543084 0.961364
0.000000 0.550713 0.965942
0.000000 0.875853 0.947204
0.901823 0.864469 0.922240
0.990082 0.909972 0.915160
0.000000 0.867155 1.000000
0.000000 0.877623 1.000000
0.000000 0.913176 1.000000
0.894896 0.970611 0.971984
0.975067 0.959564 0.984070
0.300420 0.355749 0.452399
0.287510 0.325017 0.573388
0.772244 0.000000 0.792905
1.000000 0.248020 0.724392
1.000000 0.620356 0.751583
0.381750 0.426368 0.477760
0.510796 0.518303 0.531182
0.708583 0.306340 0.820584
1.000000 0.448676 0.763424
1.000000 0.694759 0.799466
0.000000 0.417517 0.731838
0.167727 0.496956 0.748348
0.708705 0.713283 0.800931
0.944640 0.753841 0.867857
1.000000 0.814694 0.875578
0.000000 0.500084 0.932738
0.000000 0.498817 0.930877
0.258762 0.686732 0.950988
0.890745 0.907134 0.952605
0.986633 0.911894 0.935760
0.000000 0.643366 1.000000
0.000000 0.646906 1.000000
0.000000 0.660639 1.000000
0.822812 0.953521 0.989136
0.974792 0.959106 0.983886
0.742977 0.740383 0.867185
0.754086 0.747097 0.906554
0.764187 0.641962 0.959411
0.963256 0.509819 0.980072
1.000000 0.728054 0.942290
0.813169 0.780545 0.839841
0.809293 0.788113 0.881376
0.798398 0.744869 0.947356
0.943572 0.602106 0.976745
1.000000 0.755184 0.945190
0.712154 0.753048 0.901396
0.773007 0.782925 0.904601
0.888243 0.852323 0.915526
0.905913 0.804105 0.968505
1.000000 0.843229 0.958831
0.392859 0.703853 0.968261
0.533867 0.737118 0.965270
0.791440 0.825589 0.962005
0.930938 0.906188 0.964416
0.986206 0.922759 0.972290
0.000000 0.724483 1.000000
0.000000 0.720851 1.000000
0.000000 0.706722 1.000000
0.750088 0.855985 0.997681
0.975372 0.971283 0.986053
0.928771 0.903227 0.970642
0.929870 0.904173 0.974975
0.926238 0.890684 0.984710
0.936736 0.832486 0.997284
0.998322 0.826200 0.999756
0.935302 0.909056 0.966308
0.935668 0.910552 0.971221
0.934874 0.905669 0.982574
0.939361 0.860258 0.994690
0.994873 0.843839 0.998871
0.932158 0.907408 0.965637
0.939422 0.913603 0.965698
0.951934 0.928893 0.974151
0.951080 0.916442 0.989166
0.986999 0.887999 0.997070
0.885496 0.884947 0.981292
0.899565 0.893400 0.980682
0.934874 0.918517 0.979767
0.970672 0.953124 0.981537
0.980255 0.935882 0.995972
0.840421 0.875975 0.995727
0.837980 0.875090 0.995911
0.832425 0.873747 0.996765
0.929961 0.926726 0.993317
0.983734 0.975830 0.993072
