data/fiter_cube/12544332/1022702/file.cube
# Created by Adobe Lightroom plugin Export LUT (1.24.0)
# www.johnrellis.com/lightroom/exportlut.htm
# Preset: 城市青橙纪实夜景 _06 云集
# Color profile: C:\Program Files (x86)\Common Files\Adobe\Color\Profiles\Recommended\AdobeRGB1998.icc
LUT_3D_SIZE 5
DOMAIN_MIN 0.000000 0.000000 0.000000
DOMAIN_MAX 0.903226 0.903226 0.903226
0.097963 0.097963 0.097963
0.287816 0.128664 0.102022
0.555444 0.197391 0.084352
0.791501 0.271763 0.052155
0.955474 0.327642 0.127596
0.076020 0.188083 0.147127
0.267399 0.211551 0.123995
0.546990 0.265904 0.080354
0.785611 0.317052 0.043091
0.956115 0.359472 0.132753
0.000000 0.338323 0.244511
0.168399 0.357336 0.199435
0.529839 0.401190 0.161471
0.776394 0.435492 0.033845
0.950256 0.448585 0.145418
0.000000 0.526635 0.367895
0.000000 0.545312 0.342412
0.472236 0.571710 0.277379
0.763516 0.577173 0.225803
0.944396 0.574640 0.181704
0.000000 0.754635 0.507225
0.000000 0.762509 0.493751
0.346136 0.774716 0.418769
0.760891 0.779995 0.409583
0.946899 0.733547 0.373907
0.000000 0.158236 0.225132
0.258305 0.171054 0.217166
0.538689 0.231327 0.156985
0.774899 0.318486 0.059754
0.950072 0.350408 0.126253
0.000000 0.231601 0.252567
0.240970 0.240970 0.240970
0.531426 0.282536 0.188907
0.772427 0.346990 0.098024
0.949493 0.377691 0.130007
0.000000 0.362341 0.311650
0.122530 0.384161 0.297337
0.513237 0.410773 0.255497
0.764523 0.441016 0.192813
0.947723 0.461616 0.146548
0.000000 0.544396 0.419165
0.000000 0.562829 0.404547
0.454810 0.585809 0.345647
0.756649 0.586877 0.301823
0.941283 0.584039 0.249241
0.000000 0.760159 0.542992
0.000000 0.767544 0.532403
0.309300 0.784329 0.466926
0.751827 0.786130 0.462715
0.943297 0.743343 0.425513
0.000000 0.278935 0.424384
0.000000 0.255528 0.429725
0.504417 0.291478 0.407965
0.764096 0.329808 0.321599
0.946838 0.393439 0.252018
0.000000 0.327703 0.444007
0.000000 0.314977 0.445563
0.494820 0.341070 0.421393
0.757961 0.371466 0.344060
0.946838 0.413947 0.261295
0.000000 0.441474 0.488899
0.000000 0.445991 0.489631
0.463630 0.463630 0.463630
0.744289 0.482948 0.408148
0.943267 0.489204 0.311162
0.000000 0.588006 0.553124
0.000000 0.601282 0.553155
0.324712 0.626795 0.512474
0.732540 0.624781 0.483711
0.930419 0.619532 0.428077
0.000000 0.779202 0.654017
0.000000 0.785306 0.645502
0.000000 0.801389 0.589990
0.709590 0.797543 0.586297
0.927733 0.769375 0.549645
0.000000 0.414923 0.642695
0.000000 0.400855 0.646967
0.321904 0.362554 0.646418
0.723018 0.464240 0.602106
0.919036 0.533898 0.567041
0.000000 0.444923 0.651942
0.000000 0.433326 0.654017
0.296147 0.395972 0.652094
0.716976 0.492866 0.610163
0.916960 0.549096 0.572930
0.000000 0.524193 0.672847
0.000000 0.520500 0.674098
0.223667 0.506828 0.671504
0.702998 0.572015 0.637263
0.916136 0.596765 0.590356
0.000000 0.637201 0.708339
0.000000 0.638880 0.708034
0.000000 0.648829 0.705440
0.679591 0.679530 0.679561
0.914031 0.679530 0.621210
0.000000 0.789914 0.785122
0.000000 0.798093 0.783230
0.000000 0.826841 0.777249
0.543420 0.828763 0.712398
0.903319 0.811917 0.703059
0.000000 0.531060 0.843656
0.000000 0.529534 0.843656
0.000000 0.512535 0.843809
0.671901 0.607935 0.830625
0.889281 0.692073 0.791714
0.000000 0.548150 0.846342
0.000000 0.547967 0.846159
0.000000 0.532738 0.846159
0.665766 0.621485 0.833127
0.888212 0.702571 0.795926
0.000000 0.593530 0.855802
0.000000 0.597986 0.854643
0.000000 0.587945 0.854368
0.631952 0.657099 0.842161
0.885405 0.734371 0.809262
0.000000 0.676814 0.871305
0.000000 0.681086 0.870451
0.000000 0.681605 0.868894
0.479347 0.699489 0.861082
0.880125 0.786648 0.831968
0.000000 0.776944 0.891295
0.000000 0.781704 0.890776
0.000000 0.799435 0.888762
0.271366 0.821378 0.884855
0.865812 0.865812 0.865812
