data/fiter_cube/12544332/1022702/file.cube
# Created by Adobe Lightroom plugin Export LUT (1.24.0)
# www.johnrellis.com/lightroom/exportlut.htm
# Preset: 城市青橙纪实夜景 _06 云集
# Color profile: C:\Program Files (x86)\Common Files\Adobe\Color\Profiles\Recommended\AdobeRGB1998.icc
LUT_3D_SIZE 8
DOMAIN_MIN 0.000000 0.000000 0.000000
DOMAIN_MAX 0.903226 0.903226 0.903226
0.097963 0.097963 0.097963
0.186252 0.109773 0.101442
0.323430 0.136141 0.101991
0.476875 0.174289 0.093019
0.637201 0.222446 0.071778
0.763394 0.262760 0.052308
0.867674 0.296056 0.072297
0.955474 0.327642 0.127596
0.091646 0.140352 0.118349
0.177096 0.148440 0.109743
0.316564 0.167056 0.102419
0.469734 0.199527 0.092744
0.629145 0.241306 0.070924
0.755459 0.276219 0.049744
0.862608 0.306340 0.070253
0.952789 0.335607 0.126711
0.064912 0.206394 0.159060
0.136446 0.214298 0.147066
0.300053 0.234745 0.128847
0.461677 0.267369 0.090669
0.624079 0.300114 0.064973
0.753567 0.324407 0.039612
0.865476 0.346990 0.072541
0.954955 0.368872 0.133089
0.000000 0.291966 0.214969
0.071992 0.299382 0.204166
0.264958 0.313451 0.177066
0.450538 0.343420 0.149355
0.623621 0.378637 0.102296
0.752956 0.395941 0.028717
0.862547 0.406744 0.075593
0.952453 0.418677 0.140505
0.000000 0.386267 0.275761
0.000000 0.392706 0.267643
0.181552 0.410132 0.220737
0.417548 0.428504 0.207797
0.601312 0.453925 0.174350
0.740352 0.467933 0.133639
0.854612 0.477211 0.082795
0.948516 0.481697 0.152590
0.000000 0.494057 0.346563
0.000000 0.502312 0.341527
0.000000 0.519799 0.307927
0.368750 0.535485 0.267308
0.580224 0.550652 0.242832
0.732601 0.553216 0.213138
0.849332 0.554833 0.183688
0.945830 0.555566 0.175113
0.000000 0.623285 0.430030
0.000000 0.627985 0.425330
0.000000 0.640162 0.396551
0.262425 0.654261 0.333165
0.545800 0.659113 0.325780
0.733364 0.664851 0.295048
0.847929 0.644800 0.273808
0.938537 0.633478 0.254276
0.000000 0.754635 0.507225
0.000000 0.756710 0.504509
0.000000 0.765408 0.485603
0.110384 0.777127 0.439979
0.503563 0.774655 0.424231
0.715877 0.778470 0.415625
0.867369 0.768978 0.389319
0.946899 0.733547 0.373907
0.078401 0.122957 0.157259
0.172305 0.131746 0.152468
0.309941 0.157351 0.128359
0.461830 0.206088 0.103029
0.622400 0.250706 0.070985
0.750088 0.282383 0.048463
0.859312 0.308904 0.069245
0.950622 0.334386 0.124697
0.068269 0.156985 0.169894
0.164157 0.164157 0.164157
0.303807 0.182528 0.144686
0.459113 0.220981 0.111604
0.618677 0.265568 0.069886
0.746456 0.294316 0.047700
0.855680 0.318273 0.067201
0.947906 0.341955 0.123262
0.055360 0.218509 0.193729
0.134096 0.229282 0.191775
0.293217 0.243107 0.173129
0.453101 0.270329 0.142794
0.613672 0.309728 0.086824
0.743984 0.336126 0.036408
0.856077 0.354589 0.068391
0.949310 0.372900 0.128969
0.000000 0.301061 0.240146
0.059968 0.309575 0.234836
0.258946 0.322667 0.208682
0.442176 0.344823 0.184726
0.608179 0.374578 0.149538
0.739773 0.396460 0.078676
0.852903 0.410101 0.070832
0.946990 0.420935 0.136141
0.000000 0.394842 0.297063
0.000000 0.400702 0.290043
0.173342 0.417243 0.252628
0.411383 0.431678 0.233280
0.592340 0.452613 0.203250
0.732326 0.467170 0.170809
0.849393 0.479011 0.100465
0.945159 0.483589 0.150393
0.000000 0.498634 0.362371
0.000000 0.504356 0.356878
0.000000 0.520745 0.327916
0.357305 0.536706 0.285100
0.574701 0.551965 0.265049
0.728908 0.554772 0.238071
0.845975 0.556542 0.212039
0.943542 0.556970 0.173617
0.000000 0.622065 0.440986
0.000000 0.625391 0.435279
0.000000 0.638056 0.409705
0.250370 0.653407 0.351965
0.539269 0.659327 0.342901
0.728756 0.665461 0.312779
0.843351 0.644739 0.290990
0.934661 0.633814 0.271672
0.000000 0.753262 0.515984
0.000000 0.755764 0.513939
0.000000 0.764767 0.496407
0.054719 0.776913 0.452735
0.500847 0.778836 0.440986
0.713649 0.780819 0.432685
0.865019 0.770687 0.403723
0.944549 0.734859 0.386908
0.000000 0.172793 0.250919
0.085634 0.168582 0.252079
0.290196 0.186313 0.241794
0.455787 0.201816 0.196963
0.619348 0.259190 0.167880
0.747189 0.309453 0.131838
0.858946 0.344335 0.068940
0.951781 0.357519 0.128695
0.000000 0.200961 0.260075
0.096803 0.198398 0.260533
0.284154 0.210727 0.248142
0.449714 0.224521 0.208621
0.613519 0.273259 0.178744
0.743679 0.318029 0.138735
0.856291 0.352239 0.068513
0.950256 0.364874 0.128481
0.000000 0.258732 0.283116
0.033204 0.261204 0.282933
0.269322 0.269322 0.269322
0.440436 0.286656 0.242527
0.608820 0.319066 0.207340
0.741573 0.351110 0.163394
0.854887 0.380804 0.089906
0.949187 0.391760 0.132570
0.000000 0.328130 0.310399
0.000000 0.336126 0.311986
0.204654 0.353246 0.295079
0.432319 0.365545 0.276799
0.600610 0.388952 0.251896
0.737057 0.407080 0.206973
0.852842 0.426581 0.148165
0.948119 0.437140 0.140749
0.000000 0.414160 0.354803
0.000000 0.422400 0.354711
0.120089 0.443000 0.339818
0.397345 0.455085 0.313573
0.587274 0.469215 0.289372
0.726833 0.481147 0.268589
0.846769 0.489357 0.216556
0.945525 0.496132 0.154238
0.000000 0.516106 0.413611
0.000000 0.522942 0.412085
0.000000 0.539910 0.395850
0.315160 0.554955 0.346654
0.563714 0.565606 0.335851
0.720943 0.565179 0.313085
0.839994 0.567803 0.294896
0.941802 0.567437 0.246281
0.000000 0.635401 0.486061
0.000000 0.639338 0.482246
0.000000 0.650660 0.463020
0.207248 0.664149 0.417487
0.522393 0.668666 0.401801
0.722133 0.677089 0.376165
0.839567 0.656153 0.356695
0.933227 0.647181 0.341314
0.000000 0.759701 0.552972
0.000000 0.761044 0.549676
0.000000 0.769100 0.535912
0.000000 0.782650 0.498665
0.476570 0.784207 0.482918
0.702449 0.785580 0.483070
0.859342 0.779538 0.455238
0.940856 0.744961 0.438239
0.000000 0.240604 0.363043
0.000000 0.236728 0.366278
0.189456 0.211246 0.366918
0.430152 0.252476 0.349493
0.606165 0.251621 0.289647
0.739040 0.308934 0.259617
0.852598 0.352605 0.223880
0.949371 0.380499 0.154025
0.000000 0.262699 0.372961
0.000000 0.257908 0.374578
0.177188 0.231052 0.373480
0.427710 0.271458 0.354864
0.602838 0.271733 0.298100
0.736263 0.321874 0.267613
0.850797 0.361273 0.230259
0.948730 0.386175 0.157382
0.000000 0.309392 0.389807
0.000000 0.308232 0.390906
0.152621 0.298314 0.388891
0.416449 0.323613 0.370581
0.593652 0.331945 0.325902
0.733333 0.366705 0.296300
0.852689 0.394812 0.254795
0.950164 0.410529 0.179965
0.000000 0.378668 0.418372
0.000000 0.379980 0.418585
0.074067 0.385473 0.417212
0.398108 0.398108 0.398108
0.578790 0.412512 0.369574
0.723964 0.428687 0.334112
0.846494 0.443214 0.287510
0.947295 0.452399 0.220310
0.000000 0.454719 0.448554
0.000000 0.459113 0.449653
0.000000 0.474586 0.449561
0.325902 0.491707 0.423957
0.569451 0.497017 0.406470
0.714900 0.507378 0.386542
0.840848 0.511772 0.339940
0.943328 0.512078 0.278630
0.000000 0.545373 0.493385
0.000000 0.553338 0.496223
0.000000 0.569177 0.492103
0.239078 0.586114 0.463691
0.539818 0.590631 0.443214
0.709895 0.588922 0.421241
0.831418 0.592920 0.407630
0.937407 0.587457 0.355077
0.000000 0.654292 0.554101
0.000000 0.658381 0.552850
0.000000 0.670466 0.543206
0.000000 0.684382 0.512078
0.480354 0.688075 0.482521
0.703914 0.693782 0.472145
0.830686 0.675868 0.451026
0.927306 0.669001 0.436774
0.000000 0.773953 0.617609
0.000000 0.775814 0.615167
0.000000 0.781582 0.602991
0.000000 0.792203 0.569390
0.400183 0.795926 0.538262
0.680751 0.793118 0.554955
0.847868 0.793790 0.530022
0.933562 0.761379 0.512871
0.000000 0.317418 0.486244
0.000000 0.313451 0.488869
0.000000 0.288579 0.492226
0.351293 0.287907 0.488960
0.575097 0.332830 0.465400
0.725124 0.325536 0.397925
0.843076 0.384375 0.376165
0.942199 0.418952 0.344060
0.000000 0.332769 0.493172
0.000000 0.328679 0.495338
0.000000 0.306828 0.497444
0.345525 0.301427 0.493080
0.572168 0.346685 0.468788
0.723171 0.341070 0.404242
0.842100 0.394629 0.381781
0.941924 0.425086 0.346868
0.000000 0.372137 0.507622
0.000000 0.370123 0.509087
0.000000 0.358160 0.511192
0.314366 0.339910 0.505119
0.562524 0.389166 0.479713
0.714717 0.387793 0.423529
0.837858 0.426337 0.397986
0.940337 0.444282 0.353735
0.000000 0.430152 0.529015
0.000000 0.429999 0.529992
0.000000 0.427680 0.531304
0.269932 0.420264 0.526085
0.549248 0.454170 0.501366
0.705531 0.458656 0.458167
0.834287 0.476265 0.423804
0.941405 0.474708 0.359472
0.000000 0.503044 0.557794
0.000000 0.504265 0.558404
0.000000 0.507744 0.557946
0.213046 0.514611 0.551904
0.528679 0.528679 0.528679
0.693355 0.536675 0.499214
0.828275 0.539788 0.457527
0.937499 0.533410 0.396674
0.000000 0.579034 0.586419
0.000000 0.581567 0.586755
0.000000 0.589960 0.586267
0.043854 0.607446 0.582116
0.449226 0.616297 0.545892
0.684962 0.616785 0.535821
0.817777 0.624018 0.519036
0.930022 0.614496 0.465278
0.000000 0.676265 0.635828
0.000000 0.679133 0.635248
0.000000 0.690303 0.633845
0.000000 0.703334 0.619074
0.354192 0.710353 0.577081
0.666621 0.708461 0.573266
0.814389 0.699977 0.552514
0.917205 0.697047 0.538720
0.000000 0.787625 0.695216
0.000000 0.788937 0.692836
0.000000 0.793912 0.683619
0.000000 0.804990 0.662379
0.170840 0.810452 0.616297
0.631769 0.802792 0.620813
0.822934 0.806455 0.609735
0.922240 0.780148 0.591211
0.000000 0.397253 0.614221
0.000000 0.393744 0.616571
0.000000 0.376349 0.620294
0.152316 0.340764 0.621271
0.512810 0.384894 0.609979
0.696559 0.435370 0.575555
0.824949 0.454627 0.533776
0.925231 0.510552 0.527947
0.000000 0.406836 0.616754
0.000000 0.403174 0.617975
0.000000 0.386999 0.620783
0.146731 0.353857 0.621149
0.508324 0.393591 0.610498
0.693629 0.444343 0.577203
0.823239 0.461891 0.536309
0.924437 0.515312 0.529808
0.000000 0.439918 0.628809
0.000000 0.436713 0.629236
0.000000 0.424628 0.630457
0.120974 0.399634 0.629877
0.496468 0.426490 0.618830
0.688411 0.478553 0.588006
0.820279 0.489235 0.547509
0.923461 0.533806 0.538201
0.000000 0.486671 0.642206
0.000000 0.484901 0.642420
0.000000 0.479316 0.643641
0.059663 0.468238 0.644129
0.467140 0.476509 0.634760
0.682155 0.531395 0.607538
0.816861 0.537896 0.570459
0.923613 0.562737 0.549584
0.000000 0.544335 0.658045
0.000000 0.544152 0.658534
0.000000 0.543236 0.659327
0.000000 0.541314 0.658198
0.400763 0.541192 0.650080
0.668086 0.585321 0.625696
0.809689 0.589715 0.591608
0.923156 0.593835 0.554406
0.000000 0.610681 0.678431
0.000000 0.612024 0.679316
0.000000 0.614771 0.679652
0.000000 0.620203 0.678096
0.338323 0.630854 0.671077
0.650904 0.650813 0.650874
0.802335 0.657771 0.624933
0.920500 0.651270 0.581079
0.000000 0.692653 0.715785
0.000000 0.695644 0.715541
0.000000 0.701564 0.715785
0.000000 0.713161 0.714382
0.206912 0.732692 0.707210
0.582910 0.735622 0.669490
0.794308 0.731502 0.659602
0.907805 0.732265 0.641871
0.000000 0.792508 0.770230
0.000000 0.794797 0.769345
0.000000 0.803311 0.766354
0.000000 0.820066 0.762539
0.000000 0.829221 0.736721
0.481239 0.824796 0.689845
0.784054 0.818204 0.698848
0.907805 0.805234 0.680323
0.000000 0.468574 0.731807
0.000000 0.466621 0.732204
0.000000 0.453346 0.734096
0.000000 0.429389 0.735622
0.394842 0.434913 0.730922
0.662776 0.505608 0.718776
0.799741 0.557153 0.683650
0.902922 0.600580 0.670710
0.000000 0.477668 0.733303
0.000000 0.474311 0.734005
0.000000 0.461677 0.735592
0.000000 0.439033 0.736660
0.390295 0.442725 0.732235
0.661219 0.513878 0.720119
0.798917 0.563256 0.685695
0.902586 0.605005 0.672602
0.000000 0.501427 0.738796
0.000000 0.498634 0.739254
0.000000 0.488441 0.740597
0.000000 0.470619 0.741207
0.371405 0.469245 0.737179
0.655695 0.540215 0.724636
0.796139 0.583551 0.692805
0.901610 0.619623 0.679103
0.000000 0.539330 0.747341
0.000000 0.537255 0.747524
0.000000 0.530022 0.748531
0.000000 0.517906 0.748928
0.327459 0.511711 0.745541
0.641138 0.572595 0.732815
0.791745 0.615320 0.704555
0.900603 0.642512 0.688533
0.000000 0.587304 0.758877
0.000000 0.587579 0.758846
0.000000 0.583398 0.759640
0.000000 0.575555 0.759670
0.248631 0.570489 0.756649
0.607294 0.608637 0.744686
0.786007 0.655299 0.720027
0.899809 0.673610 0.700893
0.000000 0.642603 0.773770
0.000000 0.644953 0.773220
0.000000 0.645075 0.773465
0.000000 0.643580 0.773434
0.090272 0.643580 0.771084
0.536706 0.659297 0.761746
0.777401 0.704799 0.739803
0.898863 0.713863 0.716548
0.000000 0.703548 0.790524
0.000000 0.705684 0.790127
0.000000 0.710811 0.789395
0.000000 0.714778 0.789456
0.000000 0.723232 0.787747
0.477668 0.741482 0.780941
0.763302 0.763241 0.763272
0.895537 0.766873 0.738705
0.000000 0.781003 0.826780
0.000000 0.783047 0.826596
0.000000 0.790524 0.825803
0.000000 0.802914 0.824643
0.000000 0.817899 0.823117
0.328618 0.840787 0.815793
0.704738 0.839292 0.779782
0.889372 0.834623 0.773556
0.000000 0.531060 0.843656
0.000000 0.534295 0.843259
0.000000 0.526543 0.843900
0.000000 0.514122 0.844388
0.307866 0.525475 0.841703
0.618891 0.591730 0.833005
0.800076 0.648280 0.823423
0.889281 0.692073 0.791714
0.000000 0.536706 0.844450
0.000000 0.539818 0.844022
0.000000 0.532250 0.844663
0.000000 0.520378 0.845090
0.301183 0.530449 0.842466
0.617060 0.596124 0.833738
0.798856 0.652552 0.824125
0.888975 0.695216 0.792996
0.000000 0.553063 0.847257
0.000000 0.555932 0.846860
0.000000 0.551202 0.847166
0.000000 0.540459 0.847532
0.270146 0.546441 0.845212
0.608881 0.610315 0.836393
0.794522 0.666529 0.826596
0.887907 0.705898 0.797299
0.000000 0.575433 0.852445
0.000000 0.578119 0.852049
0.000000 0.581750 0.851377
0.000000 0.571801 0.851865
0.195468 0.574578 0.849882
0.588403 0.631495 0.841276
0.786313 0.688655 0.830961
0.886381 0.723262 0.804532
0.000000 0.614862 0.859678
0.000000 0.616236 0.859342
0.000000 0.620630 0.858183
0.000000 0.611597 0.857908
0.000000 0.609064 0.856809
0.524437 0.646937 0.849699
0.771267 0.712947 0.837827
0.884215 0.747127 0.814725
0.000000 0.663630 0.868772
0.000000 0.664912 0.868498
0.000000 0.669276 0.867521
0.000000 0.669978 0.866575
0.000000 0.660731 0.865812
0.405646 0.677150 0.860472
0.742336 0.740200 0.847745
0.881132 0.777829 0.828122
0.000000 0.718379 0.879454
0.000000 0.719722 0.879240
0.000000 0.724147 0.878477
0.000000 0.732204 0.877012
0.000000 0.731411 0.876432
0.247135 0.738796 0.872984
0.671107 0.772702 0.862608
0.876036 0.816464 0.844968
0.000000 0.776944 0.891295
0.000000 0.778317 0.891142
0.000000 0.783261 0.890593
0.000000 0.792721 0.889555
0.000000 0.803128 0.888426
0.000000 0.815824 0.886137
0.609461 0.842039 0.879026
0.865812 0.865812 0.865812
