data/fiter_cube/12544332/1022702/file.cube
# Created by Adobe Lightroom plugin Export LUT (1.24.0)
# www.johnrellis.com/lightroom/exportlut.htm
# Preset: 城市青橙纪实夜景 _06 云集
# Color profile: C:\Program Files (x86)\Common Files\Adobe\Color\Profiles\Recommended\AdobeRGB1998.icc
LUT_3D_SIZE 32
0.097963 0.097963 0.097963
0.110353 0.099519 0.098482
0.126070 0.101045 0.099062
0.153323 0.104952 0.100130
0.186252 0.109773 0.101442
0.219730 0.115450 0.102510
0.253513 0.121584 0.102571
0.287816 0.128664 0.102022
0.323430 0.136141 0.101991
0.360357 0.144594 0.100404
0.398505 0.154055 0.098329
0.437476 0.164096 0.096284
0.476875 0.174289 0.093019
0.516289 0.185824 0.088960
0.555444 0.197391 0.084352
0.597894 0.210239 0.078248
0.637201 0.222446 0.071778
0.672175 0.233402 0.066194
0.703761 0.243595 0.061158
0.734066 0.253513 0.056367
0.763394 0.262760 0.052308
0.791501 0.271763 0.052155
0.818265 0.280369 0.056336
0.843626 0.288365 0.063935
0.867674 0.296056 0.072297
0.890654 0.303593 0.082887
0.912871 0.311345 0.095613
0.934417 0.319219 0.110872
0.955474 0.327642 0.127596
0.975921 0.336858 0.146670
0.995697 0.347356 0.168582
1.000000 0.359625 0.193423
0.097627 0.102907 0.100282
0.109255 0.104311 0.099336
0.125429 0.106477 0.099123
0.152834 0.109926 0.100191
0.185519 0.114809 0.101747
0.218692 0.120150 0.102358
0.252659 0.125795 0.102663
0.286717 0.132357 0.102419
0.322301 0.139528 0.101930
0.359167 0.147677 0.100404
0.397223 0.156863 0.098604
0.436072 0.166873 0.096071
0.475288 0.177035 0.093080
0.514672 0.188479 0.088777
0.553857 0.199802 0.084199
0.595911 0.212314 0.078279
0.634760 0.224063 0.071778
0.669612 0.234806 0.065949
0.701198 0.244633 0.061494
0.731533 0.254459 0.056336
0.760891 0.263767 0.052338
0.789181 0.272435 0.052369
0.816068 0.280827 0.055848
0.841642 0.288975 0.062654
0.865904 0.296544 0.071565
0.889036 0.304082 0.082185
0.911437 0.311589 0.094789
0.933135 0.319615 0.110109
0.954314 0.327947 0.126406
0.974914 0.337102 0.145815
0.994812 0.347509 0.167453
1.000000 0.359747 0.192660
0.096742 0.109804 0.103273
0.107668 0.111238 0.102388
0.124453 0.113436 0.100954
0.151675 0.116762 0.100557
0.184512 0.120912 0.102144
0.217655 0.125612 0.102815
0.251408 0.131319 0.102632
0.285588 0.137057 0.102693
0.321019 0.144259 0.101991
0.357885 0.152010 0.100465
0.395941 0.160830 0.098451
0.434821 0.170321 0.096223
0.474037 0.180850 0.092897
0.513512 0.191653 0.088960
0.552544 0.202823 0.084108
0.594568 0.214878 0.078309
0.633234 0.226413 0.071931
0.668025 0.237064 0.065797
0.699580 0.246921 0.061311
0.729976 0.256321 0.055451
0.759487 0.265476 0.051392
0.787900 0.274052 0.050599
0.814878 0.282383 0.055665
0.840543 0.290288 0.062623
0.864866 0.297856 0.071138
0.888121 0.305394 0.081483
0.910613 0.312779 0.094728
0.932403 0.320623 0.109621
0.953704 0.328893 0.126345
0.974365 0.337987 0.145449
0.994293 0.348333 0.167147
1.000000 0.360296 0.192111
0.094331 0.124880 0.110475
0.103975 0.126558 0.108766
0.121462 0.127657 0.107759
0.149660 0.129793 0.104280
0.182681 0.133242 0.102602
0.215824 0.137362 0.103059
0.249668 0.141878 0.103456
0.283848 0.147555 0.102754
0.319402 0.153750 0.102113
0.356298 0.160891 0.100618
0.394263 0.169284 0.098634
0.433204 0.178439 0.096162
0.472389 0.188510 0.092836
0.511711 0.198978 0.088624
0.550927 0.209323 0.083833
0.592859 0.221195 0.077363
0.631250 0.232395 0.071382
0.665858 0.242161 0.065949
0.697322 0.251652 0.060761
0.727535 0.260746 0.056397
0.757046 0.269474 0.050263
0.785519 0.277775 0.049622
0.812833 0.285832 0.054597
0.838865 0.293614 0.061891
0.863706 0.300969 0.070710
0.887358 0.308385 0.081575
0.910155 0.315770 0.094362
0.932158 0.323522 0.109285
0.953460 0.331609 0.126619
0.974121 0.340612 0.145510
0.994018 0.350591 0.167300
1.000000 0.362371 0.192050
0.091646 0.140352 0.118349
0.097963 0.141482 0.117281
0.114961 0.142458 0.116609
0.142794 0.144472 0.114321
0.177096 0.148440 0.109743
0.212711 0.152834 0.104158
0.246586 0.156497 0.104402
0.280919 0.161227 0.103792
0.316564 0.167056 0.102419
0.353491 0.173678 0.100740
0.391547 0.181460 0.098512
0.430457 0.190188 0.096010
0.469734 0.199527 0.092744
0.509117 0.209323 0.088563
0.548425 0.219394 0.083436
0.590692 0.230686 0.077211
0.629145 0.241306 0.070924
0.663966 0.250797 0.064515
0.695644 0.259495 0.059785
0.726040 0.267735 0.054932
0.755459 0.276219 0.049744
0.783993 0.284062 0.048524
0.811398 0.291600 0.053773
0.837644 0.299016 0.061860
0.862608 0.306340 0.070253
0.886473 0.313176 0.080964
0.909300 0.320470 0.094362
0.931426 0.327703 0.109590
0.952789 0.335607 0.126711
0.973480 0.344366 0.145754
0.993439 0.354131 0.167483
1.000000 0.365667 0.192233
0.088258 0.154971 0.126619
0.091737 0.156222 0.126070
0.107240 0.157229 0.125093
0.134463 0.159060 0.123079
0.167025 0.162203 0.120089
0.205539 0.168124 0.114382
0.243076 0.173678 0.108125
0.277897 0.178042 0.104585
0.313603 0.182986 0.103090
0.350744 0.189364 0.100862
0.388952 0.196628 0.098634
0.427924 0.204898 0.095338
0.467262 0.213779 0.091981
0.506859 0.222843 0.087495
0.547051 0.232456 0.082673
0.588922 0.243076 0.076173
0.627375 0.252811 0.069886
0.662318 0.261540 0.063874
0.694301 0.269718 0.059113
0.724941 0.277531 0.051942
0.754665 0.285313 0.047700
0.783474 0.292576 0.048920
0.823209 0.304479 0.056367
0.848508 0.311345 0.064546
0.872435 0.317693 0.074525
0.895232 0.324163 0.086427
0.917113 0.330694 0.099916
0.938262 0.337591 0.115328
0.958770 0.345037 0.132845
0.978759 0.353307 0.151919
0.997864 0.362829 0.174014
1.000000 0.374060 0.199100
0.083467 0.171328 0.136538
0.085969 0.172396 0.135531
0.100069 0.173495 0.134829
0.124727 0.175906 0.131624
0.159426 0.178592 0.129244
0.195468 0.182345 0.125185
0.236698 0.189731 0.118990
0.276341 0.196323 0.112428
0.312749 0.202182 0.104982
0.350530 0.208286 0.101259
0.389197 0.215366 0.098360
0.428595 0.223056 0.095186
0.468269 0.231235 0.091432
0.508110 0.239780 0.086488
0.549462 0.249119 0.081422
0.591455 0.259220 0.074586
0.629816 0.268132 0.067720
0.664637 0.276036 0.061555
0.696712 0.283543 0.055146
0.727810 0.290837 0.048707
0.758358 0.298131 0.045716
0.788205 0.305241 0.047395
0.816831 0.312261 0.053498
0.843900 0.319066 0.063294
0.869322 0.325566 0.073365
0.892973 0.331823 0.086061
0.915343 0.338079 0.099702
0.936767 0.344671 0.114931
0.957488 0.351598 0.132723
0.977508 0.359442 0.152010
0.996765 0.368444 0.173770
1.000000 0.379278 0.198795
0.076020 0.188083 0.147127
0.079377 0.188998 0.146670
0.093080 0.190219 0.145724
0.116121 0.192599 0.142214
0.149355 0.195407 0.137484
0.186679 0.198672 0.135134
0.224949 0.203677 0.130159
0.267399 0.211551 0.123995
0.308659 0.219120 0.117372
0.346563 0.225559 0.109529
0.385443 0.233433 0.099611
0.424933 0.240940 0.094850
0.464851 0.248661 0.090791
0.504814 0.256657 0.086091
0.546990 0.265904 0.080354
0.588495 0.275090 0.073274
0.626642 0.283299 0.066529
0.661555 0.290532 0.059937
0.693782 0.297185 0.053315
0.725032 0.303746 0.046296
0.755673 0.310369 0.042115
0.785611 0.317052 0.043091
0.814359 0.323339 0.052186
0.841581 0.329534 0.062776
0.867185 0.335363 0.072755
0.891020 0.341222 0.085267
0.913603 0.346960 0.099367
0.935210 0.352972 0.114900
0.956115 0.359472 0.132753
0.976257 0.366949 0.152041
0.995666 0.375463 0.174075
1.000000 0.385840 0.199191
0.064912 0.206394 0.159060
0.072999 0.207248 0.158480
0.086000 0.208469 0.157900
0.107271 0.211063 0.154299
0.136446 0.214298 0.147066
0.177462 0.216953 0.145235
0.216098 0.220768 0.141817
0.256474 0.226444 0.135225
0.300053 0.234745 0.128847
0.342992 0.243290 0.121798
0.382116 0.250278 0.113252
0.421820 0.258427 0.102846
0.461677 0.267369 0.090669
0.502007 0.275090 0.085542
0.544884 0.284154 0.079072
0.586053 0.292668 0.071717
0.624079 0.300114 0.064973
0.659052 0.306645 0.058808
0.691402 0.312718 0.049866
0.722835 0.318517 0.043214
0.753567 0.324407 0.039612
0.783627 0.330297 0.042329
0.812497 0.336095 0.050172
0.839811 0.341711 0.061433
0.865476 0.346990 0.072541
0.889494 0.352056 0.085328
0.912230 0.357336 0.099916
0.933959 0.362829 0.115663
0.954955 0.368872 0.133089
0.975219 0.375708 0.152865
0.994690 0.383795 0.174929
1.000000 0.393561 0.199954
0.047211 0.225956 0.172122
0.063264 0.226871 0.171664
0.076081 0.227970 0.170535
0.096925 0.230411 0.167025
0.125185 0.233890 0.160342
0.164645 0.237003 0.154025
0.207645 0.240024 0.152193
0.247959 0.244236 0.147585
0.289921 0.250675 0.140322
0.334112 0.259251 0.133242
0.378363 0.268406 0.126162
0.418128 0.275700 0.117433
0.458289 0.283787 0.106661
0.500008 0.293400 0.092256
0.542443 0.303197 0.078309
0.583764 0.311406 0.070771
0.622278 0.318456 0.063233
0.657527 0.324285 0.056641
0.690089 0.329717 0.046815
0.721462 0.334874 0.038758
0.752132 0.340032 0.034821
0.781857 0.345129 0.038849
0.810452 0.350103 0.047822
0.837552 0.354894 0.060731
0.863218 0.359503 0.071870
0.887358 0.364111 0.084871
0.910338 0.368719 0.099672
0.932372 0.373663 0.115908
0.953674 0.379248 0.134127
0.974212 0.385687 0.153872
0.993896 0.393408 0.176272
1.000000 0.402747 0.201846
0.012329 0.246372 0.185519
0.034119 0.247288 0.184878
0.059876 0.248508 0.183597
0.083467 0.250797 0.180758
0.112428 0.254368 0.174075
0.148043 0.258122 0.163790
0.196750 0.260777 0.162051
0.239780 0.264408 0.158785
0.281285 0.268986 0.153506
0.325231 0.276097 0.144503
0.369970 0.284764 0.138155
0.414801 0.294469 0.130739
0.455299 0.301915 0.121798
0.497993 0.311376 0.110384
0.540032 0.320745 0.094270
0.580987 0.330175 0.074311
0.619348 0.337377 0.061646
0.654719 0.342687 0.051484
0.687434 0.347295 0.042908
0.719081 0.351751 0.035340
0.749905 0.356359 0.032868
0.779843 0.360906 0.036133
0.808591 0.365332 0.047700
0.835904 0.369421 0.060914
0.861631 0.373602 0.072145
0.885893 0.377508 0.085573
0.908965 0.381506 0.100191
0.931090 0.385931 0.116609
0.952453 0.390936 0.134859
0.973083 0.396704 0.154879
0.992859 0.403815 0.177554
1.000000 0.412604 0.203067
0.000000 0.268009 0.199557
0.000000 0.268772 0.198672
0.010559 0.269932 0.197482
0.062898 0.272251 0.194553
0.095857 0.275792 0.188785
0.132692 0.279637 0.178958
0.179477 0.283085 0.170260
0.229801 0.286076 0.170230
0.273838 0.290257 0.165225
0.316625 0.295079 0.159121
0.361852 0.302647 0.148928
0.406775 0.311620 0.143069
0.460945 0.327062 0.136263
0.504997 0.336217 0.126772
0.548180 0.345251 0.114260
0.589654 0.353857 0.096498
0.627802 0.361395 0.075013
0.662531 0.367437 0.045350
0.694789 0.370916 0.036591
0.726040 0.374548 0.029938
0.756313 0.378088 0.029114
0.785489 0.381598 0.035431
0.813413 0.384863 0.049012
0.839963 0.388128 0.063233
0.865080 0.391119 0.074861
0.888853 0.394202 0.089387
0.911467 0.397467 0.104616
0.933196 0.401129 0.121218
0.954192 0.405371 0.139132
0.974456 0.410590 0.159518
0.993927 0.417029 0.182254
1.000000 0.425269 0.207889
0.000000 0.291966 0.214969
0.000000 0.292851 0.214054
0.000000 0.293858 0.212894
0.000000 0.296208 0.210086
0.071992 0.299382 0.204166
0.114137 0.303197 0.195010
0.158450 0.307195 0.181216
0.215640 0.309880 0.178866
0.264958 0.313451 0.177066
0.310338 0.317937 0.171542
0.354803 0.323674 0.163943
0.401556 0.331731 0.154025
0.450538 0.343420 0.149355
0.500267 0.355444 0.141451
0.543603 0.363836 0.130892
0.585229 0.371862 0.118471
0.623621 0.378637 0.102296
0.658656 0.384253 0.080262
0.691096 0.389471 0.045380
0.722499 0.392981 0.027771
0.752956 0.395941 0.028717
0.782345 0.398749 0.034852
0.810483 0.401526 0.048951
0.837217 0.404242 0.063050
0.862547 0.406744 0.075593
0.886503 0.409247 0.089570
0.909361 0.411902 0.105135
0.931273 0.414954 0.122164
0.952453 0.418677 0.140505
0.972930 0.423346 0.161013
0.992584 0.429267 0.183658
1.000000 0.436927 0.210025
0.000000 0.314855 0.229496
0.000000 0.315587 0.228763
0.000000 0.316655 0.227390
0.000000 0.318730 0.224643
0.006409 0.322026 0.219425
0.090761 0.325750 0.211124
0.138949 0.329900 0.198459
0.193545 0.333410 0.187076
0.252049 0.336126 0.187961
0.300694 0.340246 0.183474
0.346654 0.345098 0.177676
0.393866 0.352636 0.169833
0.442725 0.362219 0.160342
0.490761 0.372717 0.155062
0.538933 0.383581 0.146883
0.581079 0.390906 0.136110
0.619379 0.396826 0.123934
0.654414 0.401892 0.109010
0.687282 0.406134 0.089021
0.718959 0.410742 0.060945
0.749691 0.414466 0.026154
0.779416 0.416754 0.034913
0.807797 0.419104 0.049317
0.834836 0.421210 0.063508
0.860380 0.423224 0.076753
0.884550 0.425238 0.090700
0.907591 0.427344 0.106447
0.929686 0.429847 0.123751
0.951049 0.433112 0.142367
0.971710 0.437201 0.163210
0.991485 0.442542 0.186435
1.000000 0.449714 0.212802
0.000000 0.338323 0.244511
0.000000 0.339147 0.243778
0.000000 0.340032 0.242802
0.000000 0.342016 0.240085
0.000000 0.345190 0.235203
0.048432 0.348913 0.227176
0.115480 0.353033 0.215671
0.168399 0.357336 0.199435
0.233494 0.360052 0.196262
0.289158 0.363378 0.196139
0.338140 0.368475 0.190890
0.386358 0.375189 0.185153
0.434272 0.382910 0.176699
0.482826 0.391852 0.166171
0.529839 0.401190 0.161471
0.576226 0.410651 0.152865
0.615412 0.416266 0.142336
0.650629 0.420356 0.130037
0.683558 0.424140 0.116487
0.715511 0.427893 0.097505
0.746517 0.431830 0.072053
0.776394 0.435492 0.033845
0.805020 0.437263 0.050721
0.832273 0.438941 0.064912
0.858122 0.440406 0.077699
0.882628 0.441932 0.092653
0.906065 0.443702 0.108492
0.928557 0.445808 0.126406
0.950256 0.448585 0.145418
0.971221 0.452369 0.166598
0.991272 0.457404 0.190433
1.000000 0.464118 0.217685
0.000000 0.362280 0.260136
0.000000 0.363043 0.259403
0.000000 0.363958 0.258244
0.000000 0.366033 0.255772
0.000000 0.369055 0.251347
0.000000 0.372839 0.244022
0.084321 0.377081 0.233463
0.145754 0.381598 0.218723
0.208316 0.385138 0.205356
0.273899 0.388434 0.207095
0.328527 0.393591 0.205173
0.378454 0.399268 0.199588
0.426154 0.405249 0.193118
0.473915 0.412390 0.183413
0.521355 0.420142 0.172274
0.566827 0.428321 0.167147
0.609888 0.435767 0.159274
0.646540 0.439796 0.149172
0.680018 0.442817 0.137881
0.712398 0.446235 0.124788
0.743832 0.449744 0.107149
0.774228 0.453223 0.083650
0.803220 0.456550 0.051820
0.830747 0.457740 0.066804
0.856840 0.458778 0.080110
0.881590 0.459846 0.095766
0.905211 0.461067 0.111879
0.927855 0.462745 0.129854
0.949676 0.465064 0.149203
0.970642 0.468208 0.170596
0.990692 0.472663 0.194491
1.000000 0.478798 0.221866
0.000000 0.386267 0.275761
0.000000 0.386969 0.274998
0.000000 0.387884 0.274052
0.000000 0.389746 0.271641
0.000000 0.392706 0.267643
0.000000 0.396368 0.260929
0.004242 0.400580 0.251316
0.120027 0.405097 0.237888
0.181552 0.410132 0.220737
0.253422 0.414069 0.217227
0.315282 0.418311 0.218723
0.368017 0.423163 0.213931
0.417548 0.428504 0.207797
0.464942 0.434150 0.200839
0.512291 0.440742 0.190066
0.558740 0.447547 0.178256
0.601312 0.453925 0.174350
0.641260 0.459297 0.166690
0.676234 0.462318 0.157107
0.708797 0.465003 0.146731
0.740352 0.467933 0.133639
0.770901 0.470954 0.118227
0.800290 0.473823 0.096162
0.828214 0.476570 0.068849
0.854612 0.477211 0.082795
0.879667 0.477852 0.098573
0.903563 0.478614 0.114961
0.926482 0.479896 0.133211
0.948516 0.481697 0.152590
0.969665 0.484474 0.174411
0.989868 0.488472 0.199161
1.000000 0.494148 0.226749
0.000000 0.410712 0.291814
0.000000 0.411444 0.291112
0.000000 0.415503 0.292210
0.000000 0.417273 0.290013
0.000000 0.420020 0.286046
0.000000 0.423560 0.279850
0.000000 0.427985 0.271275
0.083192 0.433753 0.259525
0.158511 0.439643 0.243870
0.227878 0.444556 0.229038
0.299962 0.448127 0.231266
0.359106 0.452216 0.230716
0.411322 0.457038 0.224735
0.460914 0.461921 0.217929
0.508385 0.467170 0.209323
0.555077 0.472908 0.197757
0.599176 0.477790 0.187045
0.638575 0.481819 0.183261
0.675257 0.485054 0.176303
0.708736 0.487160 0.167361
0.740108 0.489052 0.157229
0.770565 0.491279 0.145052
0.799771 0.493629 0.130404
0.827695 0.495491 0.110689
0.854032 0.497230 0.087190
0.878843 0.497078 0.102693
0.902495 0.497200 0.118959
0.925292 0.497780 0.137209
0.947326 0.499001 0.156893
0.968597 0.501213 0.178775
0.988891 0.504692 0.203708
1.000000 0.509941 0.232029
0.000000 0.436744 0.308843
0.000000 0.437873 0.308690
0.000000 0.439124 0.307836
0.000000 0.441718 0.306371
0.000000 0.445380 0.303471
0.000000 0.449836 0.298497
0.000000 0.454780 0.290837
0.000000 0.460090 0.279942
0.128420 0.465553 0.265171
0.198398 0.470619 0.246464
0.276341 0.474159 0.241672
0.343084 0.477577 0.243351
0.399298 0.481697 0.239933
0.450843 0.486152 0.233158
0.499825 0.490791 0.225559
0.547082 0.495552 0.216251
0.591638 0.499702 0.204898
0.632593 0.502556 0.194583
0.669398 0.504936 0.191806
0.704005 0.507073 0.185275
0.736294 0.508568 0.176974
0.767056 0.510277 0.167178
0.796719 0.512078 0.156008
0.824857 0.513756 0.142702
0.851560 0.515099 0.125277
0.876951 0.516075 0.106600
0.900908 0.515831 0.123110
0.923949 0.515984 0.141482
0.946166 0.516808 0.161593
0.967559 0.518578 0.184085
0.987945 0.521538 0.208957
1.000000 0.526329 0.237613
0.000000 0.465034 0.327306
0.000000 0.466224 0.327276
0.000000 0.467720 0.326696
0.000000 0.470161 0.325292
0.000000 0.473548 0.322362
0.000000 0.477577 0.317357
0.000000 0.482063 0.310124
0.000000 0.487129 0.300023
0.083619 0.492164 0.286687
0.171328 0.497322 0.268864
0.245487 0.501732 0.252476
0.323186 0.504479 0.254520
0.385962 0.507866 0.255406
0.440162 0.511986 0.249332
0.491341 0.516258 0.241886
0.539971 0.520562 0.233707
0.585565 0.524132 0.223636
0.627344 0.525994 0.212528
0.665431 0.527031 0.203952
0.700160 0.528283 0.200992
0.732876 0.529259 0.195315
0.763821 0.530297 0.187778
0.793729 0.531518 0.178744
0.822141 0.532708 0.168002
0.849058 0.533745 0.156222
0.874693 0.534539 0.140841
0.899199 0.534844 0.127749
0.922393 0.534600 0.145998
0.944732 0.535027 0.166629
0.966247 0.536248 0.188968
0.986755 0.538811 0.214603
1.000000 0.543114 0.243503
0.000000 0.494057 0.346563
0.000000 0.495216 0.346349
0.000000 0.496651 0.345983
0.000000 0.499153 0.344457
0.000000 0.502312 0.341527
0.000000 0.506035 0.336889
0.000000 0.510185 0.330144
0.000000 0.514916 0.320562
0.000000 0.519799 0.307927
0.137179 0.524926 0.291447
0.215000 0.529625 0.271550
0.297856 0.532677 0.265812
0.368750 0.535485 0.267308
0.428138 0.538903 0.265476
0.481544 0.542657 0.258824
0.531975 0.546532 0.251316
0.580224 0.550652 0.242832
0.623713 0.552331 0.232975
0.663172 0.552697 0.222599
0.699458 0.552758 0.215274
0.732601 0.553216 0.213138
0.763821 0.553460 0.207828
0.793240 0.553643 0.201480
0.822110 0.554345 0.193118
0.849332 0.554833 0.183688
0.875120 0.555322 0.172763
0.899779 0.555749 0.159884
0.923461 0.555596 0.154421
0.945830 0.555566 0.175113
0.967285 0.556359 0.198398
0.987671 0.558465 0.224338
1.000000 0.562402 0.254063
0.000000 0.526635 0.367895
0.000000 0.527581 0.367712
0.000000 0.528649 0.367102
0.000000 0.530602 0.365209
0.000000 0.533379 0.362463
0.000000 0.536706 0.357855
0.000000 0.540734 0.351171
0.000000 0.545312 0.342412
0.000000 0.550317 0.330541
0.085084 0.555383 0.315190
0.185885 0.560296 0.296422
0.266484 0.564202 0.278782
0.348943 0.566278 0.280858
0.415503 0.568750 0.282231
0.472236 0.571710 0.277379
0.524712 0.574945 0.270298
0.574243 0.578271 0.262608
0.621759 0.581811 0.254246
0.661769 0.580926 0.244297
0.698817 0.579492 0.234226
0.732692 0.578180 0.227726
0.763516 0.577173 0.225803
0.792233 0.575921 0.221256
0.819272 0.574731 0.215244
0.846616 0.574670 0.207492
0.872648 0.574670 0.198764
0.897551 0.574578 0.188815
0.921538 0.574762 0.177035
0.944396 0.574640 0.181704
0.965942 0.575067 0.204990
0.986450 0.576684 0.231205
1.000000 0.580163 0.261326
0.000000 0.557885 0.388525
0.000000 0.558801 0.388098
0.000000 0.559869 0.387579
0.000000 0.561669 0.385962
0.000000 0.564263 0.382971
0.000000 0.567315 0.378424
0.000000 0.571038 0.372015
0.000000 0.575097 0.363561
0.000000 0.579675 0.352209
0.000000 0.584375 0.337957
0.149020 0.588922 0.320317
0.235386 0.593011 0.300114
0.322362 0.595148 0.294285
0.397101 0.596979 0.296178
0.459602 0.599145 0.296422
0.514366 0.601831 0.289494
0.565484 0.604730 0.282475
0.614374 0.607813 0.274540
0.659998 0.610254 0.265965
0.697749 0.607660 0.256535
0.732723 0.605097 0.247257
0.764492 0.602655 0.241855
0.793332 0.600610 0.240299
0.819944 0.598291 0.236393
0.843229 0.594568 0.229252
0.869383 0.594018 0.222599
0.894560 0.593683 0.214633
0.918761 0.593469 0.205661
0.942199 0.593317 0.195163
0.964111 0.593652 0.211276
0.984833 0.594934 0.238010
1.000000 0.598047 0.268742
0.000000 0.592157 0.410956
0.000000 0.593011 0.410803
0.000000 0.593866 0.410010
0.000000 0.595422 0.408270
0.000000 0.597528 0.405158
0.000000 0.600214 0.400427
0.000000 0.603326 0.394385
0.000000 0.606928 0.385931
0.000000 0.610773 0.375128
0.000000 0.614771 0.361334
0.094881 0.618647 0.344884
0.205814 0.622278 0.326024
0.290410 0.624994 0.309026
0.375616 0.625879 0.311070
0.443946 0.626978 0.312657
0.502281 0.628656 0.309758
0.555077 0.630732 0.302831
0.604974 0.633082 0.295415
0.652613 0.635889 0.287510
0.695949 0.636713 0.278752
0.731685 0.632990 0.269749
0.764462 0.629236 0.260685
0.793912 0.625635 0.256718
0.820371 0.622217 0.255253
0.844602 0.618524 0.251438
0.867124 0.614832 0.246067
0.892271 0.613916 0.240024
0.916533 0.613245 0.233066
0.940002 0.612726 0.224765
0.962768 0.612390 0.215671
0.983429 0.613855 0.246128
1.000000 0.616480 0.277134
0.000000 0.623285 0.430030
0.000000 0.624018 0.430060
0.000000 0.624750 0.429877
0.000000 0.626001 0.428382
0.000000 0.627985 0.425330
0.000000 0.630335 0.420783
0.000000 0.633295 0.414801
0.000000 0.636561 0.406744
0.000000 0.640162 0.396551
0.000000 0.644038 0.383825
0.000000 0.647883 0.368750
0.170291 0.651392 0.351080
0.262425 0.654261 0.333165
0.350988 0.655421 0.327977
0.426917 0.656214 0.330022
0.490608 0.657313 0.331518
0.545800 0.659113 0.325780
0.597253 0.661128 0.318822
0.646082 0.663539 0.311223
0.693080 0.666255 0.303471
0.733364 0.664851 0.295048
0.766659 0.659663 0.286442
0.796872 0.654475 0.278202
0.823758 0.649439 0.274846
0.847929 0.644800 0.273808
0.870176 0.640070 0.270085
0.890684 0.635370 0.265202
0.914977 0.634211 0.260227
0.938537 0.633478 0.254276
0.961364 0.632868 0.247745
0.983032 0.633173 0.252567
1.000000 0.636194 0.288273
0.000000 0.655360 0.449317
0.000000 0.655970 0.449317
0.000000 0.656458 0.449104
0.000000 0.657282 0.448310
0.000000 0.658686 0.445777
0.000000 0.660822 0.441474
0.000000 0.663355 0.435523
0.000000 0.666316 0.427710
0.000000 0.669642 0.417853
0.000000 0.673213 0.406012
0.000000 0.676753 0.392035
0.121004 0.680201 0.375830
0.234531 0.683101 0.359136
0.322271 0.685054 0.345983
0.407141 0.685420 0.348425
0.476143 0.686030 0.350378
0.535607 0.687068 0.349889
0.588312 0.688838 0.343206
0.638453 0.690822 0.336126
0.686183 0.693019 0.328985
0.732143 0.695491 0.321019
0.768673 0.691463 0.312840
0.799283 0.684871 0.304936
0.826932 0.678218 0.296941
0.851438 0.671992 0.294285
0.873564 0.666346 0.293370
0.894041 0.660822 0.290105
0.913054 0.655390 0.285161
0.936095 0.653925 0.281254
0.959045 0.653162 0.276921
0.981262 0.652705 0.272068
1.000000 0.654475 0.294255
0.000000 0.686610 0.467720
0.000000 0.687068 0.467597
0.000000 0.687526 0.467475
0.000000 0.688289 0.466712
0.000000 0.689448 0.465522
0.000000 0.691554 0.461860
0.000000 0.694423 0.456428
0.000000 0.697719 0.449378
0.000000 0.701503 0.440772
0.000000 0.705501 0.429877
0.000000 0.709529 0.417273
0.000000 0.713283 0.402899
0.205386 0.716457 0.387945
0.301884 0.718746 0.375006
0.390326 0.719448 0.373114
0.465278 0.719722 0.375616
0.528954 0.720333 0.377752
0.584222 0.721462 0.374578
0.635248 0.723079 0.367956
0.683803 0.724849 0.361273
0.730251 0.726772 0.354040
0.774868 0.728786 0.346441
0.806607 0.721279 0.338415
0.834165 0.712947 0.330724
0.859129 0.704799 0.323095
0.881224 0.697505 0.321263
0.901366 0.690944 0.320348
0.920104 0.684596 0.317388
0.937530 0.678431 0.312688
0.959106 0.676509 0.309941
0.981048 0.675837 0.307713
1.000000 0.675227 0.305272
0.000000 0.722438 0.488838
0.000000 0.722805 0.488594
0.000000 0.723110 0.488441
0.000000 0.723751 0.487587
0.000000 0.724666 0.486397
0.000000 0.726009 0.484657
0.000000 0.728389 0.479347
0.000000 0.731106 0.472297
0.000000 0.734249 0.463661
0.000000 0.737575 0.453285
0.000000 0.740841 0.441108
0.000000 0.743954 0.427741
0.166018 0.746578 0.413977
0.278386 0.748379 0.402106
0.369085 0.749142 0.396002
