data/fiter_cube/51215349/1023016/file.cube
# Created by Adobe Lightroom plugin Export LUT (1.17.0)
# www.johnrellis.com/lightroom/exportlut.htm
# Preset: 日系旅行街拍胶片_03 云集后期 （黑白）
# Color profile: C:\Program Files (x86)\Common Files\Adobe\Color\Profiles\Recommended\AdobeRGB1998.icc
LUT_3D_SIZE 8
DOMAIN_MIN 0.000000 0.000000 0.000000
DOMAIN_MAX 0.903226 0.903226 0.903226
0.111452 0.111452 0.111452
0.111452 0.111452 0.111452
0.119936 0.119936 0.119936
0.143435 0.143435 0.143435
0.176547 0.176547 0.176547
0.234531 0.234531 0.234531
0.324010 0.324010 0.324010
0.455390 0.455390 0.455390
0.121004 0.121004 0.121004
0.132876 0.132876 0.132876
0.142306 0.142306 0.142306
0.160830 0.160830 0.160830
0.193545 0.193545 0.193545
0.250309 0.250309 0.250309
0.337346 0.337346 0.337346
0.468879 0.468879 0.468879
0.157809 0.157809 0.157809
0.181369 0.181369 0.181369
0.184970 0.184970 0.184970
0.172824 0.172824 0.172824
0.238132 0.238132 0.238132
0.330297 0.330297 0.330297
0.425574 0.425574 0.425574
0.555108 0.555108 0.555108
0.247074 0.247074 0.247074
0.270848 0.270848 0.270848
0.350225 0.350225 0.350225
0.291875 0.291875 0.291875
0.225620 0.225620 0.225620
0.327306 0.327306 0.327306
0.471626 0.471626 0.471626
0.652949 0.652949 0.652949
0.383520 0.383520 0.383520
0.404913 0.404913 0.404913
0.479713 0.479713 0.479713
0.514336 0.514336 0.514336
0.436011 0.436011 0.436011
0.324468 0.324468 0.324468
0.435279 0.435279 0.435279
0.630152 0.630152 0.630152
0.541802 0.541802 0.541802
0.564843 0.564843 0.564843
0.619257 0.619257 0.619257
0.697383 0.697383 0.697383
0.673640 0.673640 0.673640
0.610224 0.610224 0.610224
0.512078 0.512078 0.512078
0.607080 0.607080 0.607080
0.705898 0.705898 0.705898
0.716884 0.716884 0.716884
0.746059 0.746059 0.746059
0.789853 0.789853 0.789853
0.824369 0.824369 0.824369
0.805142 0.805142 0.805142
0.773617 0.773617 0.773617
0.733333 0.733333 0.733333
0.829099 0.829099 0.829099
0.833616 0.833616 0.833616
0.849149 0.849149 0.849149
0.873686 0.873686 0.873686
0.895079 0.895079 0.895079
0.909789 0.909789 0.909789
0.903838 0.903838 0.903838
0.892149 0.892149 0.892149
0.111452 0.111452 0.111452
0.111452 0.111452 0.111452
0.128237 0.128237 0.128237
0.153811 0.153811 0.153811
0.186435 0.186435 0.186435
0.239353 0.239353 0.239353
0.321355 0.321355 0.321355
0.445624 0.445624 0.445624
0.111452 0.111452 0.111452
0.140993 0.140993 0.140993
0.149294 0.149294 0.149294
0.170077 0.170077 0.170077
0.203006 0.203006 0.203006
0.256504 0.256504 0.256504
0.335851 0.335851 0.335851
0.458076 0.458076 0.458076
0.164279 0.164279 0.164279
0.193362 0.193362 0.193362
0.174655 0.174655 0.174655
0.173861 0.173861 0.173861
0.236423 0.236423 0.236423
0.328191 0.328191 0.328191
0.412116 0.412116 0.412116
0.537530 0.537530 0.537530
0.258976 0.258976 0.258976
0.286137 0.286137 0.286137
0.332433 0.332433 0.332433
0.273228 0.273228 0.273228
0.219760 0.219760 0.219760
0.313603 0.313603 0.313603
0.451575 0.451575 0.451575
0.635981 0.635981 0.635981
0.397498 0.397498 0.397498
0.416907 0.416907 0.416907
0.485664 0.485664 0.485664
0.492988 0.492988 0.492988
0.414954 0.414954 0.414954
0.312840 0.312840 0.312840
0.427253 0.427253 0.427253
0.620508 0.620508 0.620508
0.545037 0.545037 0.545037
0.561181 0.561181 0.561181
0.614069 0.614069 0.614069
0.692470 0.692470 0.692470
0.660883 0.660883 0.660883
0.599542 0.599542 0.599542
0.501274 0.501274 0.501274
0.601221 0.601221 0.601221
0.700282 0.700282 0.700282
0.708431 0.708431 0.708431
0.739132 0.739132 0.739132
0.785428 0.785428 0.785428
0.818753 0.818753 0.818753
0.798520 0.798520 0.798520
0.764187 0.764187 0.764187
0.720790 0.720790 0.720790
0.825620 0.825620 0.825620
0.830869 0.830869 0.830869
0.846921 0.846921 0.846921
0.871916 0.871916 0.871916
0.898253 0.898253 0.898253
0.910338 0.910338 0.910338
0.902525 0.902525 0.902525
0.889525 0.889525 0.889525
0.111452 0.111452 0.111452
0.111452 0.111452 0.111452
0.111452 0.111452 0.111452
0.139101 0.139101 0.139101
0.207187 0.207187 0.207187
0.262730 0.262730 0.262730
0.343908 0.343908 0.343908
0.459724 0.459724 0.459724
0.111452 0.111452 0.111452
0.111452 0.111452 0.111452
0.135348 0.135348 0.135348
0.184329 0.184329 0.184329
0.228519 0.228519 0.228519
0.278691 0.278691 0.278691
0.359075 0.359075 0.359075
0.475715 0.475715 0.475715
0.131289 0.131289 0.131289
0.154360 0.154360 0.154360
0.253635 0.253635 0.253635
0.268376 0.268376 0.268376
0.298650 0.298650 0.298650
0.345190 0.345190 0.345190
0.428199 0.428199 0.428199
0.544335 0.544335 0.544335
0.189944 0.189944 0.189944
0.232700 0.232700 0.232700
0.354772 0.354772 0.354772
0.311376 0.311376 0.311376
0.258976 0.258976 0.258976
0.328038 0.328038 0.328038
0.468360 0.468360 0.468360
0.650935 0.650935 0.650935
0.377569 0.377569 0.377569
0.404303 0.404303 0.404303
0.487617 0.487617 0.487617
0.502342 0.502342 0.502342
0.396704 0.396704 0.396704
0.306493 0.306493 0.306493
0.440864 0.440864 0.440864
0.633173 0.633173 0.633173
0.548791 0.548791 0.548791
0.568688 0.568688 0.568688
0.627466 0.627466 0.627466
0.681453 0.681453 0.681453
0.641505 0.641505 0.641505
0.577081 0.577081 0.577081
0.486793 0.486793 0.486793
0.614069 0.614069 0.614069
0.716121 0.716121 0.716121
0.724788 0.724788 0.724788
0.751614 0.751614 0.751614
0.792111 0.792111 0.792111
0.812528 0.812528 0.812528
0.792538 0.792538 0.792538
0.759915 0.759915 0.759915
0.718868 0.718868 0.718868
0.829099 0.829099 0.829099
0.832547 0.832547 0.832547
0.847532 0.847532 0.847532
0.873259 0.873259 0.873259
0.898894 0.898894 0.898894
0.909300 0.909300 0.909300
0.901762 0.901762 0.901762
0.889097 0.889097 0.889097
0.111452 0.111452 0.111452
0.111452 0.111452 0.111452
0.111452 0.111452 0.111452
0.132265 0.132265 0.132265
0.134127 0.134127 0.134127
0.319066 0.319066 0.319066
0.355505 0.355505 0.355505
0.443458 0.443458 0.443458
0.111452 0.111452 0.111452
0.111452 0.111452 0.111452
0.122896 0.122896 0.122896
0.151583 0.151583 0.151583
0.153292 0.153292 0.153292
0.329778 0.329778 0.329778
0.373999 0.373999 0.373999
0.461830 0.461830 0.461830
0.148623 0.148623 0.148623
0.165713 0.165713 0.165713
0.192966 0.192966 0.192966
0.234928 0.234928 0.234928
0.287266 0.287266 0.287266
0.395636 0.395636 0.395636
0.453376 0.453376 0.453376
0.539574 0.539574 0.539574
0.173404 0.173404 0.173404
0.192966 0.192966 0.192966
0.275700 0.275700 0.275700
0.451514 0.451514 0.451514
0.469673 0.469673 0.469673
0.497810 0.497810 0.497810
0.546441 0.546441 0.546441
0.645441 0.645441 0.645441
0.225956 0.225956 0.225956
0.255161 0.255161 0.255161
0.381384 0.381384 0.381384
0.566491 0.566491 0.566491
0.516014 0.516014 0.516014
0.445838 0.445838 0.445838
0.494240 0.494240 0.494240
0.654932 0.654932 0.654932
0.448402 0.448402 0.448402
0.488472 0.488472 0.488472
0.589502 0.589502 0.589502
0.684138 0.684138 0.684138
0.691554 0.691554 0.691554
0.600610 0.600610 0.600610
0.471351 0.471351 0.471351
0.635798 0.635798 0.635798
0.686061 0.686061 0.686061
0.699367 0.699367 0.699367
0.738430 0.738430 0.738430
0.790066 0.790066 0.790066
0.818509 0.818509 0.818509
0.787564 0.787564 0.787564
0.749691 0.749691 0.749691
0.701717 0.701717 0.701717
0.833066 0.833066 0.833066
0.838346 0.838346 0.838346
0.854002 0.854002 0.854002
0.874601 0.874601 0.874601
0.899992 0.899992 0.899992
0.908171 0.908171 0.908171
0.900267 0.900267 0.900267
0.887053 0.887053 0.887053
0.111452 0.111452 0.111452
0.111452 0.111452 0.111452
0.111452 0.111452 0.111452
0.128420 0.128420 0.128420
0.163668 0.163668 0.163668
0.165835 0.165835 0.165835
0.242191 0.242191 0.242191
0.474556 0.474556 0.474556
0.111452 0.111452 0.111452
0.111452 0.111452 0.111452
0.114137 0.114137 0.114137
0.144717 0.144717 0.144717
0.181033 0.181033 0.181033
0.177554 0.177554 0.177554
0.272496 0.272496 0.272496
0.483131 0.483131 0.483131
0.148898 0.148898 0.148898
0.155398 0.155398 0.155398
0.172152 0.172152 0.172152
0.206088 0.206088 0.206088
0.252995 0.252995 0.252995
0.221714 0.221714 0.221714
0.416236 0.416236 0.416236
0.536736 0.536736 0.536736
0.195315 0.195315 0.195315
0.212253 0.212253 0.212253
0.279454 0.279454 0.279454
0.349432 0.349432 0.349432
0.410224 0.410224 0.410224
0.411810 0.411810 0.411810
0.582147 0.582147 0.582147
0.624811 0.624811 0.624811
0.235325 0.235325 0.235325
0.254856 0.254856 0.254856
0.326940 0.326940 0.326940
0.460426 0.460426 0.460426
0.644526 0.644526 0.644526
0.658259 0.658259 0.658259
0.683833 0.683833 0.683833
0.729000 0.729000 0.729000
0.295415 0.295415 0.295415
0.315435 0.315435 0.315435
0.384192 0.384192 0.384192
0.554772 0.554772 0.554772
0.726802 0.726802 0.726802
0.692897 0.692897 0.692897
0.629786 0.629786 0.629786
0.680659 0.680659 0.680659
0.477394 0.477394 0.477394
0.511406 0.511406 0.511406
0.618524 0.618524 0.618524
0.745754 0.745754 0.745754
0.814511 0.814511 0.814511
0.819120 0.819120 0.819120
0.761593 0.761593 0.761593
0.675257 0.675257 0.675257
0.770962 0.770962 0.770962
0.783352 0.783352 0.783352
0.820127 0.820127 0.820127
0.855772 0.855772 0.855772
0.890135 0.890135 0.890135
0.907561 0.907561 0.907561
0.896574 0.896574 0.896574
0.880400 0.880400 0.880400
0.111452 0.111452 0.111452
0.111452 0.111452 0.111452
0.111452 0.111452 0.111452
0.114137 0.114137 0.114137
0.149691 0.149691 0.149691
0.184878 0.184878 0.184878
0.170779 0.170779 0.170779
0.137606 0.137606 0.137606
0.111452 0.111452 0.111452
0.111452 0.111452 0.111452
0.111452 0.111452 0.111452
0.128725 0.128725 0.128725
0.161593 0.161593 0.161593
0.197971 0.197971 0.197971
0.177432 0.177432 0.177432
0.145418 0.145418 0.145418
0.135042 0.135042 0.135042
0.138064 0.138064 0.138064
0.148898 0.148898 0.148898
0.170657 0.170657 0.170657
0.209293 0.209293 0.209293
0.251102 0.251102 0.251102
0.198917 0.198917 0.198917
0.181460 0.181460 0.181460
0.203311 0.203311 0.203311
0.208652 0.208652 0.208652
0.227939 0.227939 0.227939
0.260288 0.260288 0.260288
0.310094 0.310094 0.310094
0.355840 0.355840 0.355840
0.230838 0.230838 0.230838
0.358892 0.358892 0.358892
0.231083 0.231083 0.231083
0.243870 0.243870 0.243870
0.291752 0.291752 0.291752
0.379950 0.379950 0.379950
0.459663 0.459663 0.459663
0.535882 0.535882 0.535882
0.450019 0.450019 0.450019
0.742123 0.742123 0.742123
0.281559 0.281559 0.281559
0.296605 0.296605 0.296605
0.348852 0.348852 0.348852
0.442023 0.442023 0.442023
0.612512 0.612512 0.612512
0.788785 0.788785 0.788785
0.800717 0.800717 0.800717
0.820890 0.820890 0.820890
0.360204 0.360204 0.360204
0.375372 0.375372 0.375372
0.425940 0.425940 0.425940
0.515587 0.515587 0.515587
0.724361 0.724361 0.724361
0.848356 0.848356 0.848356
0.823697 0.823697 0.823697
0.774258 0.774258 0.774258
0.469276 0.469276 0.469276
0.496712 0.496712 0.496712
0.606622 0.606622 0.606622
0.754086 0.754086 0.754086
0.856992 0.856992 0.856992
0.905638 0.905638 0.905638
0.909880 0.909880 0.909880
0.876768 0.876768 0.876768
0.111452 0.111452 0.111452
0.111452 0.111452 0.111452
0.111452 0.111452 0.111452
0.111452 0.111452 0.111452
0.119051 0.119051 0.119051
0.150515 0.150515 0.150515
0.171695 0.171695 0.171695
0.135653 0.135653 0.135653
0.111452 0.111452 0.111452
0.111452 0.111452 0.111452
0.111452 0.111452 0.111452
0.111452 0.111452 0.111452
0.127932 0.127932 0.127932
0.157565 0.157565 0.157565
0.178439 0.178439 0.178439
0.136721 0.136721 0.136721
0.111452 0.111452 0.111452
0.111452 0.111452 0.111452
0.116182 0.116182 0.116182
0.132082 0.132082 0.132082
0.152377 0.152377 0.152377
0.183169 0.183169 0.183169
0.203006 0.203006 0.203006
0.142153 0.142153 0.142153
0.150088 0.150088 0.150088
0.152102 0.152102 0.152102
0.158694 0.158694 0.158694
0.172274 0.172274 0.172274
0.195041 0.195041 0.195041
0.231327 0.231327 0.231327
0.251347 0.251347 0.251347
0.151705 0.151705 0.151705
0.193942 0.193942 0.193942
0.199710 0.199710 0.199710
0.220676 0.220676 0.220676
0.235325 0.235325 0.235325
0.259892 0.259892 0.259892
0.313787 0.313787 0.313787
0.361608 0.361608 0.361608
0.168795 0.168795 0.168795
0.213931 0.213931 0.213931
0.220096 0.220096 0.220096
0.241581 0.241581 0.241581
0.288853 0.288853 0.288853
0.401282 0.401282 0.401282
0.545617 0.545617 0.545617
0.682002 0.682002 0.682002
0.422278 0.422278 0.422278
0.262516 0.262516 0.262516
0.270115 0.270115 0.270115
0.299290 0.299290 0.299290
0.364202 0.364202 0.364202
0.513573 0.513573 0.513573
0.760647 0.760647 0.760647
0.884855 0.884855 0.884855
0.892882 0.892882 0.892882
0.326085 0.326085 0.326085
0.336522 0.336522 0.336522
0.378149 0.378149 0.378149
0.465217 0.465217 0.465217
0.633387 0.633387 0.633387
0.837095 0.837095 0.837095
0.926909 0.926909 0.926909
0.910704 0.910704 0.910704
0.111452 0.111452 0.111452
0.111452 0.111452 0.111452
0.111452 0.111452 0.111452
0.111452 0.111452 0.111452
0.111452 0.111452 0.111452
0.111452 0.111452 0.111452
0.113741 0.113741 0.113741
0.115785 0.115785 0.115785
0.111452 0.111452 0.111452
0.111452 0.111452 0.111452
0.111452 0.111452 0.111452
0.111452 0.111452 0.111452
0.111452 0.111452 0.111452
0.111452 0.111452 0.111452
0.116365 0.116365 0.116365
0.117800 0.117800 0.117800
0.111452 0.111452 0.111452
0.111452 0.111452 0.111452
0.111452 0.111452 0.111452
0.111452 0.111452 0.111452
0.111452 0.111452 0.111452
0.111452 0.111452 0.111452
0.125765 0.125765 0.125765
0.125948 0.125948 0.125948
0.111452 0.111452 0.111452
0.111452 0.111452 0.111452
0.111452 0.111452 0.111452
0.111452 0.111452 0.111452
0.111452 0.111452 0.111452
0.121157 0.121157 0.121157
0.138643 0.138643 0.138643
0.140414 0.140414 0.140414
0.114137 0.114137 0.114137
0.114321 0.114321 0.114321
0.114687 0.114687 0.114687
0.114321 0.114321 0.114321
0.124605 0.124605 0.124605
0.138643 0.138643 0.138643
0.161471 0.161471 0.161471
0.170657 0.170657 0.170657
0.129213 0.129213 0.129213
0.131136 0.131136 0.131136
0.137758 0.137758 0.137758
0.151583 0.151583 0.151583
0.160586 0.160586 0.160586
0.174868 0.174868 0.174868
0.229007 0.229007 0.229007
0.280980 0.280980 0.280980
0.141299 0.141299 0.141299
0.143008 0.143008 0.143008
0.149844 0.149844 0.149844
0.165347 0.165347 0.165347
0.202274 0.202274 0.202274
0.339391 0.339391 0.339391
0.586297 0.586297 0.586297
0.787533 0.787533 0.787533
0.168551 0.168551 0.168551
0.171450 0.171450 0.171450
0.183383 0.183383 0.183383
0.213230 0.213230 0.213230
0.292302 0.292302 0.292302
0.549523 0.549523 0.549523
0.861509 0.861509 0.861509
0.954833 0.954833 0.954833
