data/fiter_cube/51215349/1023016/file.cube
# Created by Adobe Lightroom plugin Export LUT (1.17.0)
# www.johnrellis.com/lightroom/exportlut.htm
# Preset: 日系旅行街拍胶片_03 云集后期 （黑白）
# Color profile: C:\Program Files (x86)\Common Files\Adobe\Color\Profiles\Recommended\AdobeRGB1998.icc
LUT_3D_SIZE 32
DOMAIN_MIN 0.0 0.0 0.0
DOMAIN_MAX 1.0 1.0 1.0
0.111452 0.111452 0.111452
0.111452 0.111452 0.111452
0.111452 0.111452 0.111452
0.111452 0.111452 0.111452
0.111452 0.111452 0.111452
0.111452 0.111452 0.111452
0.111452 0.111452 0.111452
0.115053 0.115053 0.115053
0.119936 0.119936 0.119936
0.125612 0.125612 0.125612
0.131289 0.131289 0.131289
0.137179 0.137179 0.137179
0.143435 0.143435 0.143435
0.150515 0.150515 0.150515
0.158328 0.158328 0.158328
0.167025 0.167025 0.167025
0.176547 0.176547 0.176547
0.187167 0.187167 0.187167
0.200076 0.200076 0.200076
0.216464 0.216464 0.216464
0.234531 0.234531 0.234531
0.254429 0.254429 0.254429
0.275853 0.275853 0.275853
0.299046 0.299046 0.299046
0.324010 0.324010 0.324010
0.351385 0.351385 0.351385
0.382086 0.382086 0.382086
0.416541 0.416541 0.416541
0.455390 0.455390 0.455390
0.499367 0.499367 0.499367
0.548608 0.548608 0.548608
0.603388 0.603388 0.603388
0.111452 0.111452 0.111452
0.111452 0.111452 0.111452
0.111452 0.111452 0.111452
0.111452 0.111452 0.111452
0.111452 0.111452 0.111452
0.111452 0.111452 0.111452
0.113558 0.113558 0.113558
0.117617 0.117617 0.117617
0.122560 0.122560 0.122560
0.127749 0.127749 0.127749
0.133028 0.133028 0.133028
0.138643 0.138643 0.138643
0.144991 0.144991 0.144991
0.151980 0.151980 0.151980
0.159701 0.159701 0.159701
0.168429 0.168429 0.168429
0.177890 0.177890 0.177890
0.188296 0.188296 0.188296
0.201236 0.201236 0.201236
0.217075 0.217075 0.217075
0.234684 0.234684 0.234684
0.254154 0.254154 0.254154
0.275273 0.275273 0.275273
0.297978 0.297978 0.297978
0.322759 0.322759 0.322759
0.349981 0.349981 0.349981
0.380499 0.380499 0.380499
0.414862 0.414862 0.414862
0.453590 0.453590 0.453590
0.497383 0.497383 0.497383
0.546380 0.546380 0.546380
0.601068 0.601068 0.601068
0.111452 0.111452 0.111452
0.111452 0.111452 0.111452
0.111452 0.111452 0.111452
0.111452 0.111452 0.111452
0.112245 0.112245 0.112245
0.114687 0.114687 0.114687
0.117617 0.117617 0.117617
0.121523 0.121523 0.121523
0.125948 0.125948 0.125948
0.130495 0.130495 0.130495
0.135500 0.135500 0.135500
0.141146 0.141146 0.141146
0.147250 0.147250 0.147250
0.154208 0.154208 0.154208
0.161959 0.161959 0.161959
0.170535 0.170535 0.170535
0.179965 0.179965 0.179965
0.190341 0.190341 0.190341
0.203403 0.203403 0.203403
0.219150 0.219150 0.219150
0.236637 0.236637 0.236637
0.255863 0.255863 0.255863
0.276829 0.276829 0.276829
0.299474 0.299474 0.299474
0.324102 0.324102 0.324102
0.351110 0.351110 0.351110
0.381506 0.381506 0.381506
0.415778 0.415778 0.415778
0.454505 0.454505 0.454505
0.498177 0.498177 0.498177
0.546960 0.546960 0.546960
0.601404 0.601404 0.601404
0.113375 0.113375 0.113375
0.113741 0.113741 0.113741
0.114504 0.114504 0.114504
0.119936 0.119936 0.119936
0.117433 0.117433 0.117433
0.124788 0.124788 0.124788
0.126772 0.126772 0.126772
0.129549 0.129549 0.129549
0.132723 0.132723 0.132723
0.136568 0.136568 0.136568
0.141299 0.141299 0.141299
0.146395 0.146395 0.146395
0.152499 0.152499 0.152499
0.159457 0.159457 0.159457
0.167025 0.167025 0.167025
0.175662 0.175662 0.175662
0.185061 0.185061 0.185061
0.195529 0.195529 0.195529
0.208743 0.208743 0.208743
0.224063 0.224063 0.224063
0.241276 0.241276 0.241276
0.260166 0.260166 0.260166
0.280919 0.280919 0.280919
0.303685 0.303685 0.303685
0.328740 0.328740 0.328740
0.356298 0.356298 0.356298
0.387091 0.387091 0.387091
0.421881 0.421881 0.421881
0.460700 0.460700 0.460700
0.504021 0.504021 0.504021
0.552300 0.552300 0.552300
0.605798 0.605798 0.605798
0.121004 0.121004 0.121004
0.121523 0.121523 0.121523
0.122225 0.122225 0.122225
0.127443 0.127443 0.127443
0.132876 0.132876 0.132876
0.122713 0.122713 0.122713
0.129549 0.129549 0.129549
0.136568 0.136568 0.136568
0.142306 0.142306 0.142306
0.145693 0.145693 0.145693
0.149844 0.149844 0.149844
0.155001 0.155001 0.155001
0.160830 0.160830 0.160830
0.167605 0.167605 0.167605
0.175326 0.175326 0.175326
0.184024 0.184024 0.184024
0.193545 0.193545 0.193545
0.204135 0.204135 0.204135
0.218021 0.218021 0.218021
0.233341 0.233341 0.233341
0.250309 0.250309 0.250309
0.269169 0.269169 0.269169
0.289738 0.289738 0.289738
0.312383 0.312383 0.312383
0.337346 0.337346 0.337346
0.365026 0.365026 0.365026
0.395850 0.395850 0.395850
0.430304 0.430304 0.430304
0.468879 0.468879 0.468879
0.511955 0.511955 0.511955
0.559838 0.559838 0.559838
0.612757 0.612757 0.612757
0.129397 0.129397 0.129397
0.129702 0.129702 0.129702
0.130190 0.130190 0.130190
0.135042 0.135042 0.135042
0.148196 0.148196 0.148196
0.143587 0.143587 0.143587
0.132265 0.132265 0.132265
0.134127 0.134127 0.134127
0.141573 0.141573 0.141573
0.149844 0.149844 0.149844
0.159091 0.159091 0.159091
0.167025 0.167025 0.167025
0.172824 0.172824 0.172824
0.179629 0.179629 0.179629
0.187259 0.187259 0.187259
0.195926 0.195926 0.195926
0.205631 0.205631 0.205631
0.217350 0.217350 0.217350
0.231327 0.231327 0.231327
0.246860 0.246860 0.246860
0.264042 0.264042 0.264042
0.282963 0.282963 0.282963
0.323369 0.323369 0.323369
0.347723 0.347723 0.347723
0.373968 0.373968 0.373968
0.402380 0.402380 0.402380
0.433692 0.433692 0.433692
0.468238 0.468238 0.468238
0.506584 0.506584 0.506584
0.549248 0.549248 0.549248
0.596277 0.596277 0.596277
0.645502 0.645502 0.645502
0.137911 0.137911 0.137911
0.138216 0.138216 0.138216
0.138643 0.138643 0.138643
0.145144 0.145144 0.145144
0.157565 0.157565 0.157565
0.166445 0.166445 0.166445
0.156283 0.156283 0.156283
0.143740 0.143740 0.143740
0.139528 0.139528 0.139528
0.148196 0.148196 0.148196
0.157565 0.157565 0.157565
0.168215 0.168215 0.168215
0.180179 0.180179 0.180179
0.193637 0.193637 0.193637
0.205356 0.205356 0.205356
0.213931 0.213931 0.213931
0.223789 0.223789 0.223789
0.237278 0.237278 0.237278
0.251926 0.251926 0.251926
0.268254 0.268254 0.268254
0.287022 0.287022 0.287022
0.308202 0.308202 0.308202
0.331914 0.331914 0.331914
0.357885 0.357885 0.357885
0.385870 0.385870 0.385870
0.415351 0.415351 0.415351
0.447120 0.447120 0.447120
0.481575 0.481575 0.481575
0.519554 0.519554 0.519554
0.561456 0.561456 0.561456
0.607416 0.607416 0.607416
0.655085 0.655085 0.655085
0.146120 0.146120 0.146120
0.146395 0.146395 0.146395
0.149142 0.149142 0.149142
0.156039 0.156039 0.156039
0.167605 0.167605 0.167605
0.184665 0.184665 0.184665
0.180911 0.180911 0.180911
0.169375 0.169375 0.169375
0.155642 0.155642 0.155642
0.144869 0.144869 0.144869
0.154208 0.154208 0.154208
0.164767 0.164767 0.164767
0.176547 0.176547 0.176547
0.189822 0.189822 0.189822
0.204807 0.204807 0.204807
0.221347 0.221347 0.221347
0.241215 0.241215 0.241215
0.258274 0.258274 0.258274
0.272313 0.272313 0.272313
0.288121 0.288121 0.288121
0.306493 0.306493 0.306493
0.327184 0.327184 0.327184
0.350530 0.350530 0.350530
0.375982 0.375982 0.375982
0.403449 0.403449 0.403449
0.432715 0.432715 0.432715
0.463905 0.463905 0.463905
0.497871 0.497871 0.497871
0.535454 0.535454 0.535454
0.576715 0.576715 0.576715
0.621576 0.621576 0.621576
0.667445 0.667445 0.667445
0.157809 0.157809 0.157809
0.159976 0.159976 0.159976
0.163058 0.163058 0.163058
0.169833 0.169833 0.169833
0.181369 0.181369 0.181369
0.197665 0.197665 0.197665
0.210269 0.210269 0.210269
0.198337 0.198337 0.198337
0.184970 0.184970 0.184970
0.170077 0.170077 0.170077
0.156283 0.156283 0.156283
0.161074 0.161074 0.161074
0.172824 0.172824 0.172824
0.186007 0.186007 0.186007
0.200656 0.200656 0.200656
0.217868 0.217868 0.217868
0.238132 0.238132 0.238132
0.260166 0.260166 0.260166
0.283909 0.283909 0.283909
0.310307 0.310307 0.310307
0.330297 0.330297 0.330297
0.350561 0.350561 0.350561
0.373419 0.373419 0.373419
0.398505 0.398505 0.398505
0.425574 0.425574 0.425574
0.454200 0.454200 0.454200
0.484962 0.484962 0.484962
0.518364 0.518364 0.518364
0.555108 0.555108 0.555108
0.595605 0.595605 0.595605
0.638392 0.638392 0.638392
0.682063 0.682063 0.682063
0.174533 0.174533 0.174533
0.176883 0.176883 0.176883
0.179843 0.179843 0.179843
0.186740 0.186740 0.186740
0.198154 0.198154 0.198154
0.214298 0.214298 0.214298
0.235782 0.235782 0.235782
0.232303 0.232303 0.232303
0.218631 0.218631 0.218631
0.203586 0.203586 0.203586
0.186954 0.186954 0.186954
0.169741 0.169741 0.169741
0.168673 0.168673 0.168673
0.181674 0.181674 0.181674
0.196811 0.196811 0.196811
0.214633 0.214633 0.214633
0.234684 0.234684 0.234684
0.256565 0.256565 0.256565
0.280217 0.280217 0.280217
0.306371 0.306371 0.306371
0.335485 0.335485 0.335485
0.367529 0.367529 0.367529
0.399115 0.399115 0.399115
0.422950 0.422950 0.422950
0.448798 0.448798 0.448798
0.476692 0.476692 0.476692
0.506950 0.506950 0.506950
0.540154 0.540154 0.540154
0.576806 0.576837 0.576806
0.616541 0.616541 0.616541
0.657771 0.657771 0.657771
0.699580 0.699580 0.699580
0.193851 0.193851 0.193851
0.196109 0.196109 0.196109
0.199313 0.199313 0.199313
0.206455 0.206455 0.206455
0.217868 0.217868 0.217868
0.234134 0.234134 0.234134
0.255375 0.255375 0.255375
0.271458 0.271458 0.271458
0.257908 0.257908 0.257908
0.242557 0.242557 0.242557
0.225803 0.225803 0.225803
0.207279 0.207279 0.207279
0.186648 0.186648 0.186648
0.177768 0.177768 0.177768
0.193057 0.193057 0.193057
0.210452 0.210452 0.210452
0.229953 0.229953 0.229953
0.251347 0.251347 0.251347
0.274723 0.274723 0.274723
0.300633 0.300633 0.300633
0.329473 0.329473 0.329473
0.361486 0.361486 0.361486
0.396429 0.396429 0.396429
0.434211 0.434211 0.434211
0.474556 0.474556 0.474556
0.503746 0.503746 0.503746
0.533074 0.533074 0.533074
0.565332 0.565332 0.565332
0.600855 0.600855 0.600855
0.638300 0.638300 0.638300
0.677180 0.677180 0.677180
0.716518 0.716518 0.716518
0.216983 0.216983 0.216983
0.219242 0.219242 0.219242
0.222629 0.222629 0.222629
0.229709 0.229709 0.229709
0.241428 0.241428 0.241428
0.257359 0.257359 0.257359
0.277928 0.277928 0.277928
0.303075 0.303075 0.303075
0.301396 0.301396 0.301396
0.286717 0.286717 0.286717
0.270237 0.270237 0.270237
0.252354 0.252354 0.252354
0.240970 0.240970 0.240970
0.216831 0.216831 0.216831
0.201022 0.201022 0.201022
0.212253 0.212253 0.212253
0.232853 0.232853 0.232853
0.255375 0.255375 0.255375
0.279637 0.279637 0.279637
0.306493 0.306493 0.306493
0.336065 0.336065 0.336065
0.368414 0.368414 0.368414
0.403357 0.403357 0.403357
0.441138 0.441138 0.441138
0.481331 0.481331 0.481331
0.523674 0.523674 0.523674
0.568261 0.568261 0.568261
0.605371 0.605371 0.605371
0.637568 0.637568 0.637568
0.671443 0.671443 0.671443
0.706264 0.706264 0.706264
0.741482 0.741482 0.741482
0.247074 0.247074 0.247074
0.249424 0.249424 0.249424
0.252628 0.252628 0.252628
0.259617 0.259617 0.259617
0.270848 0.270848 0.270848
0.286076 0.286076 0.286076
0.305760 0.305760 0.305760
0.329900 0.329900 0.329900
0.350225 0.350225 0.350225
0.336767 0.336767 0.336767
0.323522 0.323522 0.323522
0.308934 0.308934 0.308934
0.291875 0.291875 0.291875
0.271519 0.271519 0.271519
0.244846 0.244846 0.244846
0.223972 0.223972 0.223972
0.225620 0.225620 0.225620
0.247654 0.247654 0.247654
0.271641 0.271641 0.271641
0.298100 0.298100 0.298100
0.327306 0.327306 0.327306
0.359411 0.359411 0.359411
0.394049 0.394049 0.394049
0.431525 0.431525 0.431525
0.471626 0.471626 0.471626
0.513970 0.513970 0.513970
0.558801 0.558801 0.558801
0.605859 0.605859 0.605859
0.652949 0.652949 0.652949
0.692226 0.692226 0.692226
0.724758 0.724758 0.724758
0.757565 0.757565 0.757565
0.275975 0.275975 0.275975
0.278416 0.278416 0.278416
0.281498 0.281498 0.281498
0.288304 0.288304 0.288304
0.298924 0.298924 0.298924
0.313603 0.313603 0.313603
0.332586 0.332586 0.332586
0.355444 0.355444 0.355444
0.384253 0.384253 0.384253
0.389349 0.389349 0.389349
0.377478 0.377478 0.377478
0.363531 0.363531 0.363531
0.347082 0.347082 0.347082
0.327672 0.327672 0.327672
0.304875 0.304875 0.304875
0.275792 0.275792 0.275792
0.249210 0.249210 0.249210
0.239445 0.239445 0.239445
0.263066 0.263066 0.263066
0.289311 0.289311 0.289311
0.318303 0.318303 0.318303
0.350225 0.350225 0.350225
0.384833 0.384833 0.384833
0.422370 0.422370 0.422370
0.462562 0.462562 0.462562
0.505180 0.505180 0.505180
0.550256 0.550256 0.550256
0.597955 0.597955 0.597955
0.646113 0.646113 0.646113
0.693172 0.693172 0.693172
0.737911 0.737911 0.737911
0.774441 0.774441 0.774441
0.307408 0.307408 0.307408
0.309789 0.309789 0.309789
0.312596 0.312596 0.312596
0.319188 0.319188 0.319188
0.329900 0.329900 0.329900
0.345098 0.345098 0.345098
0.364416 0.364416 0.364416
0.387732 0.387732 0.387732
0.415229 0.415229 0.415229
0.442908 0.442908 0.442908
0.431830 0.431830 0.431830
0.418860 0.418860 0.418860
0.403571 0.403571 0.403571
0.385473 0.385473 0.385473
0.364111 0.364111 0.364111
0.339483 0.339483 0.339483
0.308476 0.308476 0.308476
0.276890 0.276890 0.276890
0.260594 0.260594 0.260594
0.280339 0.280339 0.280339
0.308995 0.308995 0.308995
0.340703 0.340703 0.340703
0.375128 0.375128 0.375128
0.412634 0.412634 0.412634
0.452979 0.452979 0.452979
0.496193 0.496193 0.496193
0.542229 0.542229 0.542229
0.591302 0.591302 0.591302
0.641260 0.641260 0.641260
0.690089 0.690089 0.690089
0.736446 0.736446 0.736446
0.779171 0.779171 0.779171
0.345190 0.345190 0.345190
0.347723 0.347723 0.347723
0.350805 0.350805 0.350805
0.357702 0.357702 0.357702
0.368353 0.368353 0.368353
0.382940 0.382940 0.382940
0.401221 0.401221 0.401221
0.423346 0.423346 0.423346
0.449195 0.449195 0.449195
0.478279 0.478279 0.478279
0.487587 0.487587 0.487587
0.475074 0.475074 0.475074
0.460243 0.460243 0.460243
0.442969 0.442969 0.442969
0.422797 0.422797 0.422797
0.399786 0.399786 0.399786
0.373877 0.373877 0.373877
0.342443 0.342443 0.342443
0.309453 0.309453 0.309453
0.290898 0.290898 0.290898
0.300175 0.300175 0.300175
0.331975 0.331975 0.331975
0.366796 0.366796 0.366796
0.404639 0.404639 0.404639
0.445533 0.445533 0.445533
0.489418 0.489418 0.489418
0.536156 0.536156 0.536156
0.585962 0.585962 0.585962
0.636988 0.636988 0.636988
0.686549 0.686549 0.686549
0.733425 0.733425 0.733425
0.776608 0.776608 0.776608
0.383520 0.383520 0.383520
0.385657 0.385657 0.385657
0.388556 0.388556 0.388556
0.394934 0.394934 0.394934
0.404913 0.404913 0.404913
0.418372 0.418372 0.418372
0.435370 0.435370 0.435370
0.455879 0.455879 0.455879
0.479713 0.479713 0.479713
0.506462 0.506462 0.506462
0.535912 0.535912 0.535912
0.527337 0.527337 0.527337
0.514336 0.514336 0.514336
0.498817 0.498817 0.498817
0.480751 0.480751 0.480751
0.459785 0.459785 0.459785
0.436011 0.436011 0.436011
0.409766 0.409766 0.409766
0.378851 0.378851 0.378851
0.346227 0.346227 0.346227
0.324468 0.324468 0.324468
0.321508 0.321508 0.321508
0.356176 0.356176 0.356176
0.394202 0.394202 0.394202
0.435279 0.435279 0.435279
0.479591 0.479591 0.479591
0.527062 0.527062 0.527062
0.577691 0.577691 0.577691
0.630152 0.630152 0.630152
0.681178 0.681178 0.681178
0.729519 0.729519 0.729519
0.773983 0.773983 0.773983
0.422278 0.422278 0.422278
0.424720 0.424720 0.424720
0.441413 0.441413 0.441413
0.447456 0.447456 0.447456
0.456855 0.456855 0.456855
0.469276 0.469276 0.469276
0.484962 0.484962 0.484962
0.503563 0.503563 0.503563
0.525505 0.525505 0.525505
0.550225 0.550225 0.550225
0.577203 0.577203 0.577203
0.591302 0.591302 0.591302
0.578790 0.578790 0.578790
0.564385 0.564385 0.564385
0.547662 0.547662 0.547662
0.528588 0.528588 0.528588
0.506767 0.506767 0.506767
0.482460 0.482460 0.482460
0.455665 0.455665 0.455665
0.425086 0.425086 0.425086
0.392370 0.392370 0.392370
0.366705 0.366705 0.366705
0.351843 0.351843 0.351843
0.387945 0.387945 0.387945
0.428779 0.428779 0.428779
0.472663 0.472663 0.472663
0.519554 0.519554 0.519554
0.569909 0.569909 0.569909
0.622889 0.622889 0.622889
0.675105 0.675105 0.675105
0.724788 0.724788 0.724788
0.770382 0.770382 0.770382
0.465248 0.465248 0.465248
0.469154 0.469154 0.469154
0.473701 0.473701 0.473701
0.481178 0.481178 0.481178
0.491157 0.491157 0.491157
0.503441 0.503441 0.503441
0.518120 0.518120 0.518120
0.535454 0.535454 0.535454
0.555718 0.555718 0.555718
0.578363 0.578363 0.578363
0.603143 0.603143 0.603143
0.628687 0.628687 0.628687
0.627222 0.627222 0.627222
0.615167 0.615167 0.615167
0.600977 0.600977 0.600977
0.584222 0.584222 0.584222
0.565179 0.565179 0.565179
0.543816 0.543816 0.543816
0.520348 0.520348 0.520348
0.494606 0.494606 0.494606
0.465888 0.465888 0.465888
0.435462 0.435462 0.435462
0.407202 0.407202 0.407202
0.393988 0.393988 0.393988
0.417700 0.417700 0.417700
0.462165 0.462165 0.462165
0.509911 0.509911 0.509911
0.560967 0.560967 0.560967
0.615229 0.615229 0.615229
0.668849 0.668849 0.668849
0.719905 0.719905 0.719905
0.766812 0.766812 0.766812
0.503105 0.503105 0.503105
0.506828 0.506828 0.506828
0.511223 0.511223 0.511223
0.518059 0.518059 0.518059
0.527459 0.527459 0.527459
0.538811 0.538811 0.538811
0.552544 0.552544 0.552544
0.568597 0.568597 0.568597
0.587335 0.587335 0.587335
0.608057 0.608057 0.608057
0.630152 0.630152 0.630152
0.652979 0.652979 0.652979
0.671962 0.671962 0.671962
0.662318 0.662318 0.662318
0.650782 0.650782 0.650782
0.637324 0.637324 0.637324
0.621790 0.621790 0.621790
0.603967 0.603967 0.603967
0.583795 0.583795 0.583795
0.561578 0.561578 0.561578
0.536980 0.536980 0.536980
0.510491 0.510491 0.510491
0.482429 0.482429 0.482429
0.451881 0.451881 0.451881
0.440528 0.440528 0.440528
0.451026 0.451026 0.451026
0.499214 0.499214 0.499214
0.550958 0.550958 0.550958
0.606195 0.606195 0.606195
0.661219 0.661219 0.661219
0.713802 0.713802 0.713802
0.762203 0.762203 0.762203
0.541802 0.541802 0.541802
0.545312 0.545312 0.545312
0.549523 0.549523 0.549523
0.556054 0.556054 0.556054
0.564843 0.564843 0.564843
0.575433 0.575433 0.575433
0.588006 0.588006 0.588006
0.602533 0.602533 0.602533
0.619257 0.619257 0.619257
0.637537 0.637537 0.637537
0.656977 0.656977 0.656977
0.677211 0.677211 0.677211
0.697383 0.697383 0.697383
0.704372 0.704372 0.704372
0.695491 0.695491 0.695491
0.685298 0.685298 0.685298
0.673640 0.673640 0.673640
0.660517 0.660517 0.660517
0.645777 0.645777 0.645777
0.629114 0.629114 0.629114
0.610224 0.610224 0.610224
0.588495 0.588495 0.588495
0.564324 0.564324 0.564324
0.539574 0.539574 0.539574
0.512078 0.512078 0.512078
0.499489 0.499489 0.499489
0.497108 0.497108 0.497108
0.550378 0.550378 0.550378
0.607080 0.607080 0.607080
0.663111 0.663111 0.663111
0.716365 0.716365 0.716365
0.765072 0.765072 0.765072
0.589166 0.589166 0.589166
0.591608 0.591608 0.591608
0.594354 0.594354 0.594354
0.599359 0.599359 0.599359
0.606592 0.606592 0.606592
0.615686 0.615686 0.615686
0.626734 0.626734 0.626734
0.639673 0.639673 0.639673
0.654505 0.654505 0.654505
0.670832 0.670832 0.670832
0.688289 0.688289 0.688289
0.706142 0.706142 0.706142
0.723903 0.723903 0.723903
0.741299 0.741299 0.741299
0.739010 0.739010 0.739010
0.731136 0.731136 0.731136
0.722194 0.722194 0.722194
0.712062 0.712062 0.712062
0.700649 0.700649 0.700649
0.687617 0.687617 0.687617
0.672755 0.672755 0.672755
0.655818 0.655818 0.655818
0.636133 0.636133 0.636103
0.613977 0.613977 0.613977
0.592401 0.592401 0.592401
0.568170 0.568170 0.568170
0.554314 0.554314 0.554314
0.549920 0.549920 0.549920
0.597131 0.597101 0.597101
0.654871 0.654871 0.654871
0.709773 0.709773 0.709773
0.760281 0.760281 0.760281
0.628260 0.628260 0.628260
0.630488 0.630488 0.630488
0.633051 0.633051 0.633051
0.637537 0.637537 0.637537
0.643854 0.643854 0.643854
0.651698 0.651698 0.651698
0.661189 0.661189 0.661189
0.672297 0.672297 0.672297
0.685145 0.685145 0.685145
0.699275 0.699275 0.699275
0.714382 0.714382 0.714382
0.729946 0.729946 0.729946
0.745480 0.745480 0.745480
0.760983 0.760983 0.760983
0.773617 0.773617 0.773617
0.767758 0.767758 0.767758
0.761166 0.761166 0.761166
0.753750 0.753750 0.753750
0.745357 0.745357 0.745357
0.735988 0.735988 0.735988
0.725338 0.725338 0.725338
0.713161 0.713161 0.713161
0.699092 0.699092 0.699092
0.682612 0.682612 0.682612
0.659144 0.659144 0.659144
0.642359 0.642359 0.642359
0.623621 0.623621 0.623621
0.610346 0.610346 0.610346
0.610651 0.610651 0.610651
0.643671 0.643671 0.643671
0.700923 0.700923 0.700923
0.753902 0.753902 0.753902
0.671717 0.671717 0.671717
0.673823 0.673823 0.673823
0.675929 0.675929 0.675929
0.679500 0.679500 0.679500
0.684474 0.684474 0.684474
0.690822 0.690822 0.690822
0.698573 0.698573 0.698573
0.707668 0.707668 0.707668
0.718074 0.718074 0.718074
0.729519 0.729519 0.729519
0.741848 0.741848 0.741848
0.754757 0.754757 0.754757
0.767910 0.767910 0.767910
0.780941 0.780941 0.780941
0.793668 0.793668 0.793668
0.798947 0.798947 0.798947
0.793454 0.793454 0.793454
0.787503 0.787503 0.787503
0.781216 0.781216 0.781216
0.774411 0.774411 0.774411
0.766842 0.766842 0.766842
0.758175 0.758175 0.758175
0.748013 0.748013 0.748013
0.735866 0.735866 0.735866
0.721431 0.721431 0.721431
0.704677 0.704677 0.704677
0.692531 0.692531 0.692531
0.679316 0.679316 0.679316
0.667567 0.667567 0.667567
0.672145 0.672145 0.672145
0.692683 0.692683 0.692683
0.747860 0.747860 0.747860
0.705898 0.705898 0.705898
0.707668 0.707668 0.707668
0.709590 0.709590 0.709590
0.712642 0.712642 0.712642
0.716884 0.716884 0.716884
0.722408 0.722408 0.722408
0.729122 0.729122 0.729122
0.736995 0.736995 0.736995
0.746059 0.746059 0.746059
0.756130 0.756130 0.756130
0.766873 0.766873 0.766873
0.778256 0.778256 0.778256
0.789853 0.789853 0.789853
0.801389 0.801389 0.801389
0.812711 0.812711 0.812711
0.823819 0.823819 0.823819
0.824369 0.824369 0.824369
0.820096 0.820096 0.820096
0.815488 0.815488 0.815488
0.810575 0.810575 0.810575
0.805142 0.805142 0.805142
0.799008 0.799008 0.799008
0.791867 0.791867 0.791867
0.783536 0.783536 0.783536
0.773617 0.773617 0.773617
0.761898 0.761898 0.761898
0.748135 0.748135 0.748135
0.740810 0.740810 0.740810
0.733333 0.733333 0.733333
0.725399 0.725399 0.725399
0.733486 0.733486 0.733486
0.744900 0.744900 0.744900
0.739803 0.739803 0.739803
0.741176 0.741176 0.741176
0.742489 0.742489 0.742489
0.744839 0.744839 0.744839
0.748196 0.748196 0.748196
0.752651 0.752651 0.752651
0.758145 0.758145 0.758145
0.764736 0.764736 0.764736
0.772427 0.772427 0.772427
0.781003 0.781003 0.781003
0.790280 0.790280 0.790280
0.800198 0.800198 0.800198
0.810330 0.810330 0.810330
0.820493 0.820493 0.820493
0.830411 0.830411 0.830411
0.840177 0.840177 0.840177
0.849729 0.849729 0.849729
0.847196 0.847196 0.847196
0.843809 0.843809 0.843809
0.840238 0.840238 0.840238
0.836362 0.836362 0.836362
0.831998 0.831998 0.831998
0.826993 0.826993 0.826993
0.821195 0.821195 0.821195
0.814359 0.814359 0.814359
0.806332 0.806332 0.806332
0.797055 0.797055 0.797055
0.786099 0.786099 0.786099
0.782010 0.782010 0.782010
0.779263 0.779263 0.779263
0.777035 0.777035 0.777035
0.785489 0.785489 0.785489
0.769619 0.769619 0.769619
0.770626 0.770626 0.770626
0.771756 0.771756 0.771756
0.773770 0.773770 0.773770
0.776852 0.776852 0.776852
0.781064 0.781064 0.781064
0.786465 0.786465 0.786465
0.792935 0.792935 0.792935
0.800412 0.800412 0.800412
0.808621 0.808621 0.808621
0.817380 0.817380 0.817380
0.826474 0.826474 0.826474
0.835630 0.835630 0.835630
0.844663 0.844663 0.844663
0.853422 0.853422 0.853422
0.861875 0.861875 0.861875
0.870146 0.870146 0.870146
0.876341 0.876341 0.876341
0.873960 0.873960 0.873960
0.871489 0.871489 0.871489
0.868803 0.868803 0.868803
0.865843 0.865843 0.865843
0.862425 0.862425 0.862425
0.858488 0.858488 0.858488
0.853910 0.853910 0.853910
0.848631 0.848631 0.848631
0.842557 0.842557 0.842557
0.835477 0.835477 0.835477
0.827359 0.827359 0.827359
0.826017 0.826017 0.826017
0.827115 0.827115 0.827115
0.829221 0.829221 0.829221
0.803647 0.803647 0.803647
0.804410 0.804410 0.804410
0.805142 0.805142 0.805142
0.806668 0.806668 0.806668
0.809018 0.809018 0.809018
0.812161 0.812161 0.812161
0.816281 0.816281 0.816281
0.821195 0.821195 0.821195
0.826932 0.826932 0.826932
0.833341 0.833341 0.833341
0.840208 0.840208 0.840208
0.847471 0.847471 0.847471
0.854917 0.854917 0.854917
