data/fiter_cube/51215349/1023016/file.cube
# Created by Adobe Lightroom plugin Export LUT (1.17.0)
# www.johnrellis.com/lightroom/exportlut.htm
# Preset: 日系旅行街拍胶片_03 云集后期 （黑白）
# Color profile: C:\Program Files (x86)\Common Files\Adobe\Color\Profiles\Recommended\AdobeRGB1998.icc
LUT_3D_SIZE 5
DOMAIN_MIN 0.000000 0.000000 0.000000
DOMAIN_MAX 0.903226 0.903226 0.903226
0.111452 0.111452 0.111452
0.115053 0.115053 0.115053
0.158328 0.158328 0.158328
0.254429 0.254429 0.254429
0.455390 0.455390 0.455390
0.146120 0.146120 0.146120
0.169375 0.169375 0.169375
0.204807 0.204807 0.204807
0.327184 0.327184 0.327184
0.535454 0.535454 0.535454
0.307408 0.307408 0.307408
0.387732 0.387732 0.387732
0.364111 0.364111 0.364111
0.340703 0.340703 0.340703
0.641260 0.641260 0.641260
0.589166 0.589166 0.589166
0.639673 0.639673 0.639673
0.739010 0.739010 0.739010
0.655818 0.655818 0.655818
0.597131 0.597101 0.597101
0.829099 0.829099 0.829099
0.844205 0.844205 0.844205
0.881315 0.881315 0.881315
0.908629 0.908629 0.908629
0.892149 0.892149 0.892149
0.111452 0.111452 0.111452
0.111452 0.111452 0.111452
0.182010 0.182010 0.182010
0.271977 0.271977 0.271977
0.451972 0.451972 0.451972
0.121340 0.121340 0.121340
0.216556 0.216556 0.216556
0.245212 0.245212 0.245212
0.337194 0.337194 0.337194
0.521721 0.521721 0.521721
0.307591 0.307591 0.307591
0.398718 0.398718 0.398718
0.324651 0.324651 0.324651
0.339666 0.339666 0.339666
0.642725 0.642725 0.642725
0.610986 0.610986 0.610986
0.660609 0.660609 0.660609
0.724849 0.724849 0.724849
0.637659 0.637659 0.637659
0.604364 0.604364 0.604364
0.831479 0.831479 0.831479
0.846067 0.846067 0.846067
0.886717 0.886717 0.886717
0.909056 0.909056 0.909056
0.891722 0.891722 0.891722
0.111452 0.111452 0.111452
0.111452 0.111452 0.111452
0.147921 0.147921 0.147921
0.228763 0.228763 0.228763
0.449317 0.449317 0.449317
0.137911 0.137911 0.137911
0.155398 0.155398 0.155398
0.216312 0.216312 0.216312
0.368963 0.368963 0.368963
0.510796 0.510796 0.510796
0.203006 0.203006 0.203006
0.274266 0.274266 0.274266
0.551507 0.551507 0.551507
0.588556 0.588556 0.588556
0.683101 0.683101 0.683101
0.392035 0.392035 0.392035
0.512200 0.512200 0.512200
0.732509 0.732509 0.732509
0.668971 0.668971 0.668971
0.635889 0.635889 0.635889
0.814450 0.814450 0.814450
0.834440 0.834440 0.834440
0.883665 0.883665 0.883665
0.904540 0.904540 0.904540
0.882841 0.882841 0.882841
0.111452 0.111452 0.111452
0.111452 0.111452 0.111452
0.126101 0.126101 0.126101
0.185183 0.185183 0.185183
0.111452 0.111452 0.111452
0.114504 0.114504 0.114504
0.126284 0.126284 0.126284
0.162692 0.162692 0.162692
0.227604 0.227604 0.227604
0.127108 0.127108 0.127108
0.214725 0.214725 0.214725
0.252934 0.252934 0.252934
0.310765 0.310765 0.310765
0.396429 0.396429 0.396429
0.333806 0.333806 0.333806
0.285527 0.285527 0.285527
0.329259 0.329259 0.329259
0.495369 0.495369 0.495369
0.815732 0.815732 0.815732
0.838010 0.838010 0.838010
0.386542 0.386542 0.386542
0.461707 0.461707 0.461707
0.766018 0.766018 0.766018
0.911162 0.911162 0.911162
0.883482 0.883482 0.883482
0.111452 0.111452 0.111452
0.111452 0.111452 0.111452
0.111452 0.111452 0.111452
0.111452 0.111452 0.111452
0.115785 0.115785 0.115785
0.111452 0.111452 0.111452
0.111452 0.111452 0.111452
0.111452 0.111452 0.111452
0.111452 0.111452 0.111452
0.123415 0.123415 0.123415
0.111452 0.111452 0.111452
0.111452 0.111452 0.111452
0.111452 0.111452 0.111452
0.133028 0.133028 0.133028
0.151827 0.151827 0.151827
0.130983 0.130983 0.130983
0.137453 0.137453 0.137453
0.166659 0.166659 0.166659
0.206180 0.206180 0.206180
0.352300 0.352300 0.352300
0.168551 0.168551 0.168551
0.179202 0.179202 0.179202
0.242863 0.242863 0.242863
0.671321 0.671321 0.671321
0.954833 0.954833 0.954833
