data/fiter_cube/51215349/1023019/file.cube
# Created by Adobe Lightroom plugin Export LUT (1.17.0)
# www.johnrellis.com/lightroom/exportlut.htm
# Preset: 日系旅行街拍胶片_06 云集后期
# Color profile: C:\Program Files (x86)\Common Files\Adobe\Color\Profiles\Recommended\AdobeRGB1998.icc
LUT_3D_SIZE 8
DOMAIN_MIN 0.000000 0.000000 0.000000
DOMAIN_MAX 0.903226 0.903226 0.903226
0.064393 0.067201 0.072297
0.081422 0.070314 0.075868
0.158724 0.078248 0.087831
0.331182 0.082765 0.109834
0.558465 0.154574 0.157870
0.692866 0.341985 0.271153
0.764034 0.498085 0.441535
0.803555 0.636835 0.607416
0.063508 0.079500 0.075196
0.086275 0.080140 0.076265
0.165743 0.090974 0.084993
0.330816 0.106844 0.104829
0.551202 0.175082 0.148623
0.680659 0.334478 0.247837
0.759670 0.487465 0.415290
0.801297 0.628626 0.593194
0.027131 0.145632 0.097627
0.060212 0.158785 0.087709
0.209567 0.161257 0.087770
0.381750 0.216251 0.082521
0.579004 0.284886 0.129793
0.692805 0.402106 0.237613
0.768307 0.527214 0.428290
0.807980 0.650019 0.603784
0.000000 0.345464 0.171756
0.000000 0.363561 0.157443
0.073152 0.429175 0.000000
0.526390 0.427955 0.113191
0.635859 0.466804 0.125063
0.715755 0.507530 0.219852
0.773312 0.569299 0.406256
0.811765 0.662043 0.587182
0.000000 0.592432 0.347967
0.000000 0.603662 0.337682
0.000000 0.634791 0.251469
0.452277 0.668086 0.122713
0.693141 0.609674 0.312230
0.737392 0.588434 0.319310
0.774990 0.623621 0.345068
0.816709 0.681025 0.557305
0.000000 0.736751 0.521324
0.000000 0.744900 0.521630
0.000000 0.749538 0.494240
0.321904 0.758846 0.346410
0.656611 0.740505 0.424750
0.759304 0.704005 0.532952
0.785458 0.688869 0.544976
0.825406 0.715267 0.550134
0.000000 0.806851 0.623957
0.000000 0.807767 0.621851
0.182895 0.803220 0.610712
0.473152 0.798306 0.588678
0.600519 0.800961 0.551904
0.743709 0.790585 0.614405
0.801236 0.763760 0.668513
0.823392 0.756649 0.686519
0.000000 0.857206 0.694881
0.051514 0.854826 0.693904
0.402594 0.845945 0.694057
0.597742 0.834531 0.705226
0.648402 0.833341 0.678187
0.728023 0.832578 0.697993
0.804562 0.826627 0.727413
0.836423 0.812406 0.752163
0.064363 0.067720 0.080385
0.086244 0.067628 0.085054
0.161227 0.081666 0.099062
0.324987 0.114229 0.137270
0.546715 0.179904 0.192630
0.672511 0.335271 0.290227
0.752987 0.486915 0.441566
0.796048 0.624628 0.598199
0.063874 0.075227 0.082948
0.086275 0.084718 0.087892
0.165347 0.101991 0.104097
0.334234 0.128756 0.133486
0.547784 0.197604 0.185397
0.669184 0.339513 0.277440
0.749935 0.480995 0.422889
0.793637 0.615930 0.584070
0.041199 0.141146 0.112947
0.075837 0.158389 0.113375
0.209476 0.168521 0.108766
0.380377 0.217075 0.115694
0.568444 0.282689 0.166354
0.678889 0.395148 0.263859
0.756252 0.510369 0.421302
0.799283 0.634485 0.589166
0.000000 0.328649 0.192386
0.000000 0.352361 0.188357
0.063233 0.419837 0.073732
0.496834 0.406012 0.150881
0.608576 0.441321 0.144717
0.693965 0.486641 0.233494
0.761532 0.550134 0.396185
0.803189 0.648524 0.572778
0.000000 0.588098 0.374823
0.000000 0.597284 0.366430
0.000000 0.624140 0.308721
0.421759 0.655390 0.168063
0.675746 0.596185 0.323461
0.726375 0.580133 0.325109
0.768429 0.615412 0.358556
0.810758 0.675074 0.553918
0.000000 0.728695 0.528832
0.000000 0.732692 0.523796
0.000000 0.739925 0.501091
0.336706 0.750088 0.387854
0.646357 0.737118 0.438819
0.755337 0.702724 0.542718
0.781643 0.687709 0.548302
0.821500 0.711452 0.544244
0.000000 0.799710 0.624659
0.000000 0.799191 0.620386
0.130526 0.796719 0.610468
0.476051 0.791836 0.596612
0.595331 0.797452 0.556847
0.739467 0.787716 0.615747
0.797452 0.759701 0.665675
0.819944 0.751308 0.680354
0.000000 0.854704 0.695857
0.000000 0.852750 0.695430
0.388067 0.844633 0.695277
0.589929 0.833524 0.705684
0.660395 0.833555 0.692226
0.729915 0.832792 0.704036
0.803464 0.826200 0.728786
0.835111 0.811368 0.751431
0.066041 0.070588 0.115145
0.086458 0.071015 0.124971
0.214054 0.027619 0.161685
0.429938 0.000000 0.203922
0.597681 0.213535 0.288914
0.676783 0.426337 0.429572
0.747829 0.539117 0.534936
0.792782 0.653071 0.644862
0.070253 0.083894 0.122530
0.094972 0.090944 0.133211
0.213809 0.086061 0.165347
0.414954 0.104707 0.205814
0.582818 0.255772 0.293828
0.673182 0.426520 0.419287
0.746456 0.534264 0.523827
0.791806 0.649714 0.638025
0.067170 0.127443 0.141299
0.095583 0.142672 0.151644
0.219333 0.202609 0.184421
0.410803 0.261967 0.236790
0.589563 0.355962 0.315679
0.684291 0.456550 0.408240
0.750393 0.547570 0.515099
0.794400 0.654078 0.631495
0.000000 0.324285 0.268803
0.000000 0.349493 0.279088
0.182132 0.425544 0.285954
0.512810 0.448646 0.289708
0.618494 0.478248 0.286931
0.700954 0.517113 0.387091
0.757229 0.579309 0.500786
0.800046 0.666224 0.622461
0.000000 0.579797 0.449409
0.000000 0.592187 0.453407
0.000000 0.624414 0.450996
0.426337 0.659144 0.349706
0.675807 0.618158 0.453651
0.721736 0.600855 0.419379
0.763119 0.628351 0.466133
0.806882 0.683650 0.602197
0.000000 0.723903 0.572320
0.000000 0.727962 0.571588
0.000000 0.734951 0.563195
0.448585 0.736385 0.530083
0.634974 0.736965 0.515984
0.747951 0.705470 0.586572
0.775357 0.692317 0.577386
0.818051 0.715450 0.578637
0.000000 0.797330 0.655695
0.000000 0.796628 0.653407
0.226352 0.792874 0.646174
0.511131 0.785824 0.643336
0.603754 0.793484 0.600397
0.735775 0.788296 0.647700
0.796048 0.764584 0.687312
0.820188 0.759396 0.696864
0.000000 0.852140 0.712123
0.000000 0.850095 0.710536
0.383490 0.842344 0.709194
0.584344 0.832944 0.717586
0.673915 0.830289 0.714504
0.731044 0.832059 0.716243
0.802274 0.826810 0.738582
0.834958 0.813169 0.758541
0.029541 0.074861 0.220127
0.084962 0.073274 0.240421
0.227665 0.000000 0.306371
0.502586 0.000000 0.403418
0.670069 0.133761 0.463233
0.724727 0.405402 0.504570
0.756985 0.549584 0.582330
0.789212 0.664515 0.674434
0.011536 0.095247 0.244114
0.091279 0.100435 0.261692
0.234592 0.085756 0.320928
0.505516 0.000000 0.411139
0.663722 0.219913 0.463813
0.718166 0.429511 0.506950
0.752834 0.556481 0.582910
0.786160 0.667933 0.675715
0.000000 0.157839 0.270085
0.069368 0.171328 0.286168
0.238254 0.222446 0.344579
0.507073 0.258213 0.432227
0.642908 0.395575 0.477180
0.705287 0.512413 0.536767
0.744594 0.608881 0.614221
0.789456 0.680537 0.683467
0.000000 0.281987 0.326207
0.000000 0.301213 0.340551
0.232181 0.376471 0.394598
0.507317 0.496559 0.474891
0.616022 0.532219 0.511803
0.695094 0.567498 0.549248
0.746456 0.620050 0.599908
0.793973 0.684565 0.674372
0.000000 0.541863 0.510765
0.000000 0.557702 0.520867
0.156374 0.607599 0.554284
0.503258 0.644404 0.566827
0.670893 0.643702 0.572442
0.713619 0.629755 0.531212
0.755764 0.653407 0.582879
0.801755 0.696803 0.662348
0.000000 0.718654 0.633539
0.000000 0.725551 0.638666
0.218845 0.728695 0.637201
0.507378 0.730129 0.636439
0.640467 0.738094 0.614679
0.742763 0.715633 0.651728
0.768978 0.702358 0.621881
0.812161 0.722438 0.644465
0.000000 0.790402 0.693812
0.000000 0.790127 0.693629
0.313207 0.786923 0.691829
0.524956 0.784543 0.690669
0.654292 0.786923 0.684108
0.733272 0.792233 0.690303
0.793851 0.770504 0.712612
0.818326 0.765438 0.711055
0.154635 0.846983 0.739223
0.249821 0.845335 0.738643
0.407660 0.840238 0.736141
0.566857 0.832853 0.736019
0.689662 0.826322 0.743282
0.730831 0.831083 0.732479
0.799680 0.827726 0.751705
0.834318 0.815305 0.767758
0.000000 0.075105 0.443732
0.000000 0.067079 0.462470
0.256474 0.000000 0.511620
0.509483 0.000000 0.575189
0.685603 0.162325 0.621332
0.760555 0.408850 0.632685
0.780453 0.563195 0.651911
0.807950 0.668696 0.703975
0.000000 0.110597 0.463233
0.000000 0.109346 0.481025
0.262913 0.086488 0.523308
0.511559 0.000000 0.581048
0.682795 0.239322 0.621668
0.756985 0.440955 0.633570
0.777951 0.575616 0.654170
0.806607 0.672084 0.704829
0.000000 0.199069 0.485695
0.000000 0.207858 0.500542
0.266270 0.252873 0.537743
0.509606 0.292882 0.588647
0.672358 0.401190 0.622736
0.743740 0.512993 0.633387
0.768124 0.607813 0.657771
0.800473 0.680568 0.705013
0.000000 0.337255 0.518273
0.000000 0.352880 0.527489
0.255100 0.412085 0.555657
0.517967 0.509117 0.596887
0.664912 0.552483 0.635462
0.726192 0.603845 0.644709
0.754147 0.653101 0.668513
0.792172 0.698024 0.711116
0.000000 0.503410 0.557305
0.000000 0.516045 0.564446
0.281804 0.551202 0.584222
0.520165 0.599908 0.615595
0.658656 0.660426 0.651545
0.706600 0.665766 0.656001
0.745571 0.680049 0.670802
0.794217 0.709316 0.708095
0.000000 0.661677 0.645014
0.000000 0.666651 0.648798
0.287541 0.679744 0.659419
0.499977 0.709590 0.681544
0.648676 0.721065 0.685756
0.734096 0.720851 0.693721
0.758968 0.708248 0.655818
0.805692 0.729519 0.698238
0.000000 0.777707 0.728359
0.079591 0.776547 0.727687
0.355596 0.773068 0.725978
0.523308 0.772519 0.724636
0.655482 0.777157 0.724086
0.723964 0.790646 0.718654
0.789334 0.773831 0.733425
0.813809 0.766995 0.718868
0.264347 0.836454 0.763180
0.313542 0.835050 0.762448
0.426917 0.831418 0.760128
0.558465 0.828519 0.759640
0.665553 0.825223 0.757626
0.735897 0.826932 0.756374
0.793729 0.828122 0.764126
0.831937 0.816129 0.775662
0.000000 0.074891 0.635706
0.129915 0.063081 0.642176
0.335271 0.000000 0.659968
0.533165 0.000000 0.690089
0.674250 0.258030 0.712032
0.755642 0.449500 0.717739
0.803922 0.580133 0.727077
0.825010 0.676448 0.743526
0.000000 0.129854 0.635401
0.125978 0.127352 0.640955
0.332860 0.116213 0.659022
0.528161 0.152377 0.686641
0.669093 0.304356 0.709194
0.752529 0.469276 0.716152
0.801968 0.590295 0.726894
0.823667 0.678920 0.743160
0.000000 0.226108 0.647639
0.000000 0.245426 0.652613
0.349645 0.303380 0.667689
0.531365 0.357275 0.689937
0.665278 0.447578 0.710628
0.747280 0.540185 0.718318
0.796841 0.629877 0.729580
0.820798 0.690944 0.745052
0.000000 0.398901 0.657527
0.000000 0.410529 0.659937
0.333837 0.458900 0.670253
0.547814 0.541131 0.692927
0.668482 0.582208 0.715969
0.742641 0.632258 0.725643
0.789975 0.674952 0.734463
0.816678 0.709957 0.748714
0.000000 0.535912 0.667170
0.095247 0.543603 0.670100
0.356390 0.567346 0.678920
0.535912 0.610895 0.692317
0.664332 0.666377 0.710079
0.734463 0.687190 0.727657
0.775570 0.702846 0.731868
0.806180 0.726864 0.746944
0.066896 0.634028 0.681758
0.204257 0.639277 0.685054
0.393866 0.652857 0.691585
0.542840 0.678828 0.701808
0.659754 0.703944 0.715328
0.732235 0.733516 0.736263
0.760586 0.731228 0.733516
0.801389 0.747677 0.747127
0.258183 0.740078 0.732540
0.316777 0.740658 0.734218
0.437537 0.742000 0.737850
0.555200 0.747372 0.744381
0.656580 0.765225 0.755001
0.728786 0.782773 0.757473
0.787778 0.781888 0.759487
0.810758 0.772061 0.731197
0.376593 0.815366 0.781125
0.401251 0.816068 0.781430
0.471412 0.819211 0.783047
0.570642 0.820218 0.783383
0.658320 0.819577 0.780636
0.728939 0.822812 0.778836
0.787198 0.828641 0.779080
0.830076 0.818570 0.787259
0.239292 0.125032 0.737514
0.296208 0.128695 0.741054
0.427253 0.143832 0.746792
0.556786 0.228672 0.756100
0.669886 0.362158 0.765469
0.747158 0.496620 0.769741
0.797696 0.595880 0.768063
0.833066 0.676875 0.777737
0.225498 0.173953 0.731868
0.283421 0.178836 0.735317
0.417090 0.195499 0.741421
0.548211 0.262852 0.750362
0.661280 0.377111 0.759915
0.741115 0.495613 0.764675
0.792538 0.589319 0.763272
0.829923 0.671626 0.773556
0.196139 0.293370 0.737423
0.285161 0.318700 0.738155
0.431220 0.359564 0.741390
0.551263 0.413947 0.748806
0.660090 0.481422 0.757321
0.737850 0.555901 0.764492
0.791257 0.631861 0.766049
0.830900 0.691127 0.778531
0.168978 0.442939 0.737881
0.237644 0.449683 0.737789
0.394934 0.475288 0.740658
0.566552 0.554864 0.746700
0.666011 0.589105 0.756405
0.736141 0.638544 0.766903
0.791196 0.677363 0.771328
0.830930 0.714687 0.782956
0.185245 0.550835 0.735836
0.247501 0.553735 0.735348
0.395758 0.568902 0.736019
0.533257 0.605524 0.739742
0.661189 0.661006 0.749050
0.727169 0.684901 0.763577
0.785245 0.704616 0.770840
0.825803 0.737819 0.782589
0.251255 0.637079 0.739712
0.303563 0.639948 0.740291
0.427375 0.651637 0.742153
0.546471 0.676020 0.746273
0.654749 0.700954 0.752377
0.729580 0.730922 0.765713
0.786557 0.748836 0.778347
0.819272 0.766384 0.783200
0.347814 0.713436 0.749538
0.385718 0.715267 0.750729
0.471504 0.719478 0.752712
0.573083 0.727016 0.756680
0.663569 0.737728 0.761227
0.725460 0.759915 0.769284
0.784573 0.788785 0.783230
0.807401 0.785763 0.780026
0.416724 0.777432 0.779385
0.437201 0.778012 0.779782
0.511498 0.783749 0.783841
0.596399 0.789700 0.786984
0.665827 0.798672 0.790829
0.723171 0.814115 0.798489
0.784115 0.823178 0.799649
0.827573 0.821836 0.801663
0.392676 0.236271 0.789761
0.422553 0.247349 0.790890
0.493233 0.277256 0.791806
0.581628 0.353674 0.794980
0.673762 0.448066 0.798093
0.738643 0.535607 0.802121
0.796231 0.624903 0.803098
0.829435 0.680232 0.801907
0.386969 0.271336 0.786984
0.417304 0.281254 0.788144
0.489784 0.310216 0.789456
0.576959 0.376013 0.792264
0.669917 0.460487 0.795804
0.735805 0.541497 0.800229
0.793515 0.625147 0.801358
0.827939 0.680110 0.800717
0.374273 0.368841 0.783749
0.417945 0.392737 0.783749
0.485145 0.411139 0.784329
0.578149 0.468910 0.789120
0.668452 0.520592 0.792844
0.731960 0.579431 0.797360
0.790188 0.645899 0.800015
0.826902 0.691035 0.801205
0.227268 0.422492 0.783169
0.289708 0.433814 0.783902
0.452613 0.492592 0.782650
0.580652 0.559228 0.784421
0.667842 0.593988 0.789425
0.729305 0.638270 0.795224
0.788052 0.677119 0.800504
0.826749 0.711788 0.803647
0.249027 0.545861 0.779355
0.298680 0.550896 0.779934
0.405097 0.562310 0.779416
0.515770 0.584283 0.781094
0.659297 0.654017 0.783444
0.721584 0.679438 0.791226
0.783444 0.704189 0.800351
0.826322 0.740017 0.806851
0.288212 0.629664 0.779995
0.319463 0.630243 0.779416
0.407355 0.635401 0.778378
0.509606 0.651972 0.778286
0.619471 0.679805 0.779751
0.717647 0.718074 0.789303
0.782803 0.744991 0.803830
0.825498 0.770993 0.810575
0.355016 0.705379 0.784146
0.377356 0.705623 0.783841
0.443061 0.707881 0.783322
0.534173 0.714931 0.784176
0.634730 0.725277 0.786313
0.706752 0.746365 0.791226
0.779232 0.782986 0.803281
0.822934 0.796445 0.813230
0.426795 0.754788 0.791592
0.441993 0.754818 0.791409
0.496101 0.756832 0.792172
0.584710 0.763668 0.794736
0.665095 0.777584 0.798764
0.721798 0.792630 0.802396
0.776608 0.806455 0.807797
0.822263 0.824460 0.819425
