data/fiter_cube/51215349/1023019/file.cube
# Created by Adobe Lightroom plugin Export LUT (1.17.0)
# www.johnrellis.com/lightroom/exportlut.htm
# Preset: 日系旅行街拍胶片_06 云集后期
# Color profile: C:\Program Files (x86)\Common Files\Adobe\Color\Profiles\Recommended\AdobeRGB1998.icc
LUT_3D_SIZE 32
DOMAIN_MIN 0.0 0.0 0.0
DOMAIN_MAX 1.0 1.0 1.0
0.064393 0.067201 0.072297
0.064393 0.067201 0.072297
0.065766 0.067414 0.072602
0.071473 0.068086 0.073823
0.081422 0.070314 0.075868
0.093568 0.072724 0.078584
0.110079 0.074708 0.081392
0.131533 0.076478 0.084352
0.158724 0.078248 0.087831
0.192142 0.079835 0.091859
0.232059 0.080781 0.096620
0.278660 0.081544 0.102571
0.331182 0.082765 0.109834
0.387793 0.087282 0.117861
0.445380 0.098909 0.127962
0.500206 0.118318 0.140078
0.558465 0.154574 0.157870
0.603174 0.200870 0.180331
0.636744 0.248081 0.206546
0.665583 0.295628 0.236423
0.692866 0.341985 0.271153
0.717556 0.386206 0.310338
0.737453 0.426917 0.352422
0.752560 0.463935 0.396857
0.764034 0.498085 0.441535
0.773678 0.530877 0.484199
0.782956 0.564874 0.525902
0.792996 0.600793 0.566186
0.803555 0.636835 0.607416
0.814572 0.668086 0.648219
0.825498 0.694057 0.685328
0.835966 0.720974 0.717617
0.064393 0.067201 0.072297
0.064393 0.067201 0.072297
0.065766 0.067414 0.072602
0.072755 0.068696 0.073396
0.082155 0.070954 0.075441
0.094179 0.073365 0.078187
0.110597 0.075349 0.080995
0.131716 0.077516 0.083955
0.158389 0.079103 0.087190
0.191714 0.080720 0.091279
0.230961 0.082094 0.096101
0.276616 0.083345 0.101900
0.328527 0.085389 0.108858
0.384527 0.090150 0.117037
0.441413 0.100801 0.126650
0.496254 0.119692 0.138338
0.553796 0.153841 0.155795
0.598108 0.197208 0.176638
0.631891 0.242588 0.201205
0.660792 0.289158 0.230594
0.688045 0.334966 0.263920
0.713222 0.378882 0.301701
0.734005 0.419806 0.343023
0.749996 0.457465 0.387182
0.762142 0.491951 0.431983
0.772122 0.525109 0.475990
0.781552 0.559106 0.518273
0.791531 0.595422 0.559686
0.802182 0.632136 0.601373
0.813291 0.664729 0.643122
0.824369 0.691310 0.681270
0.835019 0.718013 0.714412
0.064240 0.067628 0.072633
0.064729 0.067994 0.072572
0.066560 0.068544 0.072511
0.073884 0.070619 0.072877
0.083131 0.072328 0.075319
0.095369 0.074250 0.078096
0.111574 0.076539 0.080568
0.132509 0.078706 0.083528
0.158999 0.080659 0.086763
0.191653 0.082429 0.090883
0.230655 0.084260 0.095705
0.276127 0.085969 0.101289
0.327611 0.088991 0.108064
0.383246 0.094026 0.115938
0.439918 0.104799 0.125460
0.494484 0.123018 0.136812
0.551659 0.156008 0.154147
0.595575 0.197452 0.174289
0.629297 0.241550 0.198184
0.658320 0.287327 0.226780
0.685664 0.332708 0.259861
0.711055 0.376501 0.297215
0.732296 0.417334 0.338293
0.748775 0.454749 0.381842
0.761196 0.489235 0.426825
0.771328 0.522515 0.471412
0.780789 0.556512 0.514366
0.790860 0.592767 0.555962
0.801602 0.629755 0.597894
0.812650 0.663020 0.640284
0.823819 0.689845 0.678920
0.834531 0.716457 0.712490
0.064179 0.072480 0.073671
0.063966 0.073243 0.073976
0.065217 0.073915 0.072450
0.075135 0.073091 0.073335
0.085359 0.075349 0.074983
0.098116 0.078065 0.077363
0.114626 0.079683 0.080201
0.135653 0.081880 0.082826
0.162020 0.084199 0.086030
0.194461 0.086702 0.090089
0.233097 0.089265 0.094636
0.278141 0.091981 0.100221
0.329015 0.095796 0.106783
0.383978 0.102602 0.114870
0.439887 0.113466 0.123751
0.494301 0.131319 0.135378
0.550561 0.162753 0.151675
0.593317 0.201572 0.171237
0.626368 0.243076 0.193668
0.654902 0.286717 0.220981
0.681788 0.330358 0.252659
0.707424 0.372778 0.288518
0.729397 0.413916 0.329992
0.746975 0.451850 0.374090
0.760250 0.487434 0.420813
0.770901 0.521630 0.467445
0.780636 0.556176 0.511803
0.790829 0.592950 0.554528
0.801633 0.629908 0.596796
0.812680 0.662898 0.639155
0.823728 0.689479 0.677699
0.834287 0.715633 0.711086
0.063508 0.079500 0.075196
0.063355 0.079866 0.075532
0.064393 0.080781 0.074708
0.070893 0.082277 0.074067
0.086275 0.080140 0.076265
0.100313 0.082063 0.077607
0.118715 0.086915 0.079072
0.139651 0.088746 0.081727
0.165743 0.090974 0.084993
0.197940 0.094209 0.088716
0.236088 0.097536 0.093202
0.280491 0.101900 0.098482
0.330816 0.106844 0.104829
0.385229 0.114870 0.112520
0.441016 0.126619 0.121431
0.497047 0.145724 0.132784
0.551202 0.175082 0.148623
0.593256 0.212070 0.167849
0.626062 0.251774 0.190280
0.654170 0.292943 0.216831
0.680659 0.334478 0.247837
0.706050 0.375769 0.283665
0.728176 0.415167 0.323583
0.746059 0.452461 0.368261
0.759670 0.487465 0.415290
0.770535 0.521263 0.462440
0.780362 0.555505 0.507347
0.790494 0.591913 0.550713
0.801297 0.628626 0.593194
0.812345 0.661677 0.635798
0.823423 0.688472 0.674983
0.833982 0.714534 0.709041
0.061311 0.088441 0.078096
0.061555 0.089021 0.078676
0.063447 0.089998 0.078553
0.066621 0.092409 0.075624
0.081819 0.094484 0.076020
0.103243 0.089967 0.078737
0.122347 0.091157 0.080781
0.146212 0.100526 0.080262
0.172793 0.103761 0.082979
0.205081 0.106538 0.086702
0.243168 0.110750 0.091096
0.287572 0.116121 0.095979
0.337316 0.123110 0.102144
0.391211 0.132326 0.109560
0.446052 0.145174 0.118044
0.503258 0.165225 0.130220
0.554864 0.193759 0.145388
0.595361 0.228397 0.164797
0.627527 0.265965 0.187167
0.655360 0.305608 0.213809
0.681849 0.345495 0.245151
0.707332 0.384985 0.281071
0.749172 0.465827 0.374090
0.761563 0.497841 0.420386
0.771481 0.528496 0.465064
0.780484 0.559289 0.506554
0.789731 0.591760 0.546166
0.799557 0.624628 0.584955
0.809628 0.655390 0.624384
0.819852 0.680903 0.661921
0.829801 0.704036 0.695033
0.839170 0.729976 0.723934
0.057008 0.103059 0.083009
0.058503 0.103761 0.083223
0.061433 0.105013 0.083040
0.065858 0.107851 0.080781
0.072847 0.112673 0.076783
0.101350 0.115999 0.077790
0.131106 0.107271 0.081819
0.157168 0.106416 0.084260
0.187930 0.119600 0.083162
0.222812 0.130129 0.083619
0.263127 0.134707 0.088106
0.309117 0.141268 0.093111
0.359594 0.149783 0.099336
0.412848 0.160586 0.106355
0.466011 0.174502 0.115724
0.524071 0.198337 0.128450
0.571344 0.227512 0.145418
0.607996 0.260960 0.165621
0.638209 0.297002 0.189944
0.665919 0.335424 0.219272
0.693721 0.375341 0.254673
0.719966 0.415686 0.296971
0.741604 0.454047 0.345647
0.757534 0.489784 0.397620
0.769406 0.523430 0.448798
0.779141 0.555749 0.495308
0.788663 0.588800 0.537377
0.798672 0.621729 0.577264
0.808835 0.652888 0.617578
0.819089 0.678645 0.655970
0.829068 0.701778 0.690242
0.838499 0.727413 0.720119
0.047120 0.120821 0.089265
0.050446 0.121950 0.089113
0.054597 0.123659 0.088594
0.062287 0.126711 0.086671
0.066224 0.132387 0.079744
0.084718 0.139132 0.076905
0.128847 0.142947 0.078492
0.164858 0.129793 0.084840
0.196750 0.125643 0.088533
0.233402 0.143008 0.086183
0.273228 0.163424 0.082155
0.319158 0.169955 0.086854
0.369146 0.178531 0.092622
0.421088 0.189334 0.099855
0.476844 0.205539 0.109377
0.530236 0.226993 0.122225
0.573938 0.253056 0.138094
0.608606 0.282383 0.158053
0.637842 0.314855 0.181918
0.664912 0.349554 0.211032
0.692287 0.386084 0.245914
0.718288 0.422950 0.287083
0.740047 0.458350 0.334661
0.756374 0.491737 0.386023
0.768460 0.523644 0.437598
0.778317 0.554894 0.485145
0.787869 0.586938 0.528222
0.797879 0.619532 0.569085
0.808164 0.650690 0.610224
0.818479 0.676844 0.649928
0.828489 0.700038 0.685542
0.838041 0.725460 0.716457
0.027131 0.145632 0.097627
0.029908 0.147066 0.097169
0.034760 0.149111 0.096620
0.049165 0.152682 0.094209
0.060212 0.158785 0.087709
0.066163 0.167880 0.076326
0.105623 0.177096 0.075837
0.167758 0.180789 0.077729
0.209567 0.161257 0.087770
0.247593 0.153140 0.093965
0.290318 0.175082 0.089540
0.334417 0.199802 0.082765
0.381750 0.216251 0.082521
0.433722 0.226352 0.089540
0.490028 0.243198 0.099763
0.538842 0.262333 0.112886
0.579004 0.284886 0.129793
0.611597 0.310552 0.149996
0.639582 0.338750 0.174502
0.666011 0.369543 0.203067
0.692805 0.402106 0.237613
0.718318 0.435004 0.278416
0.739834 0.466743 0.325872
0.756130 0.497353 0.376654
0.768307 0.527214 0.428290
0.778164 0.556847 0.476509
0.787655 0.587884 0.520714
0.797665 0.619501 0.562188
0.807980 0.650019 0.603784
0.818265 0.675990 0.644495
0.828244 0.699031 0.681117
0.837736 0.724086 0.712856
0.000000 0.178500 0.108461
0.000000 0.180301 0.107973
0.000000 0.182712 0.106691
0.010468 0.186801 0.104341
0.038605 0.193362 0.099001
0.047486 0.203494 0.084443
0.079194 0.215610 0.072480
0.141878 0.226383 0.071778
0.219242 0.230900 0.074250
0.265293 0.203769 0.090486
0.309361 0.189212 0.100313
0.355688 0.215610 0.093050
0.401007 0.243351 0.083040
0.450233 0.273075 0.072053
0.502983 0.286931 0.084230
0.548638 0.303685 0.099428
0.586358 0.323125 0.118654
0.617212 0.345495 0.140810
0.643946 0.369665 0.166842
0.669520 0.395544 0.196048
0.695186 0.422766 0.230716
0.719234 0.450202 0.270329
0.739712 0.476875 0.316014
0.755489 0.503410 0.364782
0.767605 0.530388 0.415412
0.777462 0.558251 0.464698
0.787045 0.587945 0.509911
0.797208 0.619135 0.553246
0.807797 0.649470 0.596277
0.818296 0.675746 0.638941
0.828367 0.699001 0.677455
0.838010 0.724331 0.710536
0.000000 0.218814 0.122133
0.000000 0.221073 0.121553
0.000000 0.223789 0.120119
0.000000 0.228794 0.117189
0.000000 0.236179 0.111696
0.000000 0.247288 0.097566
0.004242 0.262394 0.070405
0.104189 0.278996 0.060761
0.192569 0.290196 0.060121
0.285527 0.294987 0.063905
0.334356 0.259586 0.092073
0.381842 0.235996 0.108309
0.433448 0.268467 0.099001
0.479500 0.300603 0.085786
0.518242 0.330694 0.068208
0.556909 0.348516 0.077729
0.591608 0.363317 0.101320
0.620600 0.380713 0.127169
0.646296 0.399786 0.155001
0.671260 0.420874 0.185519
0.696437 0.443488 0.220737
0.720058 0.466468 0.260594
0.740230 0.489601 0.305913
0.755856 0.513359 0.355352
0.767941 0.537774 0.405859
0.777768 0.563622 0.455756
0.787198 0.591669 0.501854
0.797269 0.621180 0.545739
0.807858 0.650080 0.589014
0.818357 0.675624 0.632532
0.828397 0.698604 0.672389
0.837980 0.723720 0.706752
0.000000 0.270603 0.140658
0.000000 0.273075 0.140047
0.000000 0.275944 0.138857
0.000000 0.281895 0.135500
0.000000 0.290379 0.129305
0.000000 0.301946 0.117311
0.000000 0.318212 0.087709
0.000000 0.337530 0.027558
0.145541 0.357885 0.004944
0.260685 0.365911 0.008545
0.365789 0.369848 0.026062
0.418524 0.329442 0.094667
0.509697 0.332341 0.132113
0.550286 0.367102 0.120790
0.579828 0.396826 0.107271
0.602197 0.422004 0.091249
0.622644 0.440040 0.088136
0.647242 0.449653 0.125124
0.670466 0.460517 0.160708
0.693812 0.473487 0.196628
0.715908 0.488014 0.235630
0.735409 0.503990 0.278202
0.751125 0.521324 0.324071
0.763577 0.540612 0.372717
0.773678 0.561883 0.422034
0.782712 0.585504 0.469245
0.791958 0.610925 0.513481
0.801846 0.636957 0.555505
0.811948 0.661738 0.597742
0.821836 0.683955 0.639734
0.831235 0.705440 0.677577
0.840299 0.730404 0.710475
0.000000 0.345464 0.171756
0.000000 0.347539 0.170840
0.000000 0.350164 0.168887
0.000000 0.355962 0.164797
0.000000 0.363561 0.157443
0.000000 0.373754 0.144686
0.000000 0.388647 0.116457
0.000000 0.407721 0.049317
0.073152 0.429175 0.000000
0.214755 0.449165 0.000000
0.355108 0.459083 0.000000
0.477485 0.468452 0.000000
0.526390 0.427955 0.113191
0.569604 0.393927 0.160220
0.598047 0.424414 0.150179
0.619196 0.448188 0.138003
0.635859 0.466804 0.125063
0.650080 0.481544 0.109743
0.671321 0.488930 0.140658
0.694118 0.497108 0.180117
0.715755 0.507530 0.219852
0.734951 0.519677 0.262394
0.750607 0.533959 0.308202
0.763149 0.550408 0.356451
0.773312 0.569299 0.406256
0.782345 0.590661 0.454505
0.791592 0.614069 0.500328
0.801511 0.638422 0.543816
0.811765 0.662043 0.587182
0.821744 0.683742 0.630945
0.831174 0.705043 0.670893
0.840330 0.729885 0.705623
0.000000 0.411353 0.204654
0.000000 0.413367 0.203738
0.000000 0.416052 0.201755
0.000000 0.421637 0.197543
0.000000 0.428656 0.189792
0.000000 0.438239 0.176577
0.000000 0.451392 0.153811
0.000000 0.468544 0.102174
0.000000 0.489143 0.000000
0.154574 0.513115 0.000000
0.311101 0.528985 0.000000
0.454170 0.531395 0.000000
0.556298 0.533196 0.064637
0.586969 0.493507 0.150271
0.615717 0.454719 0.202731
0.635523 0.475227 0.191684
0.651331 0.490333 0.178866
0.665126 0.502495 0.165530
0.678157 0.513481 0.152041
0.694820 0.521935 0.160372
0.716091 0.528618 0.202976
0.735012 0.537682 0.246250
0.750576 0.549035 0.292363
0.763149 0.563073 0.341344
0.773434 0.579706 0.391363
0.782528 0.598871 0.441199
0.791775 0.620050 0.488685
0.801785 0.642420 0.533440
0.812161 0.664424 0.578058
0.822232 0.685115 0.623255
0.831632 0.706050 0.665248
0.840757 0.730861 0.701656
0.000000 0.478187 0.244907
0.000000 0.480140 0.244053
0.000000 0.482124 0.242496
0.000000 0.487160 0.238376
0.000000 0.493141 0.230625
0.000000 0.501244 0.218112
0.000000 0.511803 0.199252
0.000000 0.528038 0.160708
0.000000 0.547570 0.080873
0.000000 0.566644 0.000000
0.253910 0.581903 0.000000
0.414313 0.584741 0.000000
0.535271 0.581781 0.073732
0.610163 0.581018 0.131716
0.630121 0.542046 0.201541
0.651209 0.501915 0.254612
0.667536 0.514794 0.241184
0.680903 0.524346 0.226017
0.693263 0.533196 0.211612
0.705318 0.542138 0.198245
0.717128 0.551202 0.185946
0.735286 0.557305 0.228824
0.750576 0.565881 0.275151
0.763119 0.577478 0.324376
0.773556 0.591760 0.375250
0.782864 0.608850 0.426825
0.792386 0.628260 0.477302
0.802701 0.649012 0.525109
0.813535 0.669459 0.572015
0.823850 0.689326 0.619562
0.833310 0.710414 0.663722
0.842435 0.735805 0.701564
0.000000 0.538476 0.292485
0.000000 0.540337 0.291203
0.000000 0.541985 0.290166
0.000000 0.546593 0.286595
0.000000 0.553887 0.281498
0.000000 0.562219 0.272313
0.000000 0.572229 0.257542
0.000000 0.584009 0.231205
0.000000 0.598260 0.173495
0.000000 0.613611 0.033234
0.194614 0.624994 0.000000
0.358129 0.632807 0.000000
0.502922 0.626795 0.095766
0.590234 0.622522 0.148348
0.650233 0.618921 0.194797
0.664088 0.577935 0.255863
0.681025 0.537011 0.308171
0.695125 0.545953 0.292821
0.706966 0.553582 0.278111
0.718318 0.561547 0.264378
0.729213 0.569787 0.251347
0.739559 0.578698 0.239902
0.751888 0.586908 0.260960
0.764309 0.596185 0.310674
0.774746 0.608240 0.363378
0.784237 0.622889 0.416449
0.794003 0.639673 0.468788
0.804501 0.657740 0.518364
0.815427 0.675654 0.566613
0.825559 0.693904 0.614984
0.834684 0.714290 0.660090
0.843534 0.739071 0.698726
0.000000 0.592432 0.347967
0.000000 0.593530 0.347356
0.000000 0.595117 0.346197
0.000000 0.598474 0.343420
0.000000 0.603662 0.337682
0.000000 0.609247 0.328649
0.000000 0.616114 0.315465
0.000000 0.624170 0.295659
0.000000 0.634791 0.251469
0.000000 0.646998 0.179171
0.068544 0.659480 0.057313
0.306584 0.666102 0.089723
0.452277 0.668086 0.122713
0.562097 0.661006 0.169986
0.630457 0.656184 0.214115
0.684260 0.650233 0.256840
0.693141 0.609674 0.312230
0.705837 0.568780 0.362524
0.717739 0.574578 0.349035
0.727871 0.581140 0.333196
0.737392 0.588434 0.319310
0.746456 0.596307 0.306798
0.755245 0.604883 0.295293
0.764370 0.614191 0.291447
0.774990 0.623621 0.345068
0.784787 0.635676 0.399908
0.794858 0.649775 0.454627
0.805631 0.665156 0.506828
0.816709 0.681025 0.557305
0.826932 0.698116 0.607782
0.835996 0.718349 0.655085
0.844785 0.743069 0.695735
0.000000 0.636316 0.402625
0.000000 0.637812 0.401953
0.000000 0.656916 0.423346
0.000000 0.659632 0.420447
0.000000 0.663478 0.415595
0.000000 0.667506 0.407324
0.000000 0.672358 0.395270
0.000000 0.677943 0.378271
0.000000 0.685054 0.349035
0.000000 0.694362 0.292760
0.089326 0.704158 0.209262
0.271641 0.709438 0.167300
0.426581 0.708949 0.193637
0.538537 0.704067 0.226902
0.615259 0.696345 0.266972
0.674678 0.689204 0.305608
0.718288 0.682246 0.343847
0.721950 0.647333 0.389593
0.729732 0.609583 0.431220
0.738552 0.611139 0.420294
0.746273 0.615961 0.404150
0.753933 0.621637 0.389410
0.761563 0.628107 0.376074
0.769406 0.635370 0.364355
0.777554 0.643366 0.354650
0.786740 0.651972 0.388800
0.796628 0.662074 0.443091
0.807248 0.673823 0.495888
0.818204 0.687190 0.547387
0.828428 0.702846 0.599023
0.837278 0.722744 0.648737
0.845853 0.746700 0.691127
0.000000 0.679469 0.454871
0.000000 0.682673 0.456641
0.000000 0.686091 0.458778
0.000000 0.690211 0.458778
0.000000 0.694820 0.456031
0.000000 0.698787 0.450324
0.000000 0.702602 0.440223
0.000000 0.706416 0.427405
0.000000 0.710475 0.410651
0.000000 0.717067 0.368383
0.125429 0.724086 0.306950
0.203250 0.731044 0.215122
0.380743 0.728939 0.232761
0.497200 0.725795 0.260014
0.583093 0.718837 0.294652
0.648951 0.710842 0.330144
0.700374 0.703639 0.364080
0.734310 0.697536 0.398505
0.735439 0.668269 0.437751
0.741176 0.636500 0.473579
0.749050 0.635767 0.466957
0.756252 0.640345 0.453864
0.763516 0.645533 0.441810
0.771054 0.651392 0.430945
0.778958 0.657801 0.421607
0.787839 0.665126 0.415229
0.797971 0.673304 0.426947
0.808774 0.682612 0.482643
0.819883 0.694118 0.536400
0.830045 0.708644 0.589899
0.838743 0.728176 0.641962
0.847044 0.751064 0.686122
0.000000 0.711055 0.490791
0.000000 0.713497 0.492592
0.000000 0.716243 0.493935
0.000000 0.719265 0.493812
0.000000 0.722683 0.491402
0.000000 0.725643 0.486183
0.000000 0.728023 0.478340
0.000000 0.730251 0.468482
0.000000 0.732418 0.455909
0.056855 0.735531 0.431739
0.168124 0.740261 0.387610
0.235721 0.744900 0.324865
0.333745 0.746334 0.275303
0.465766 0.741695 0.301488
0.548425 0.738613 0.328405
0.621118 0.730251 0.360967
0.679103 0.722408 0.392279
0.720272 0.716274 0.421332
0.747250 0.711147 0.450599
0.746883 0.686122 0.483711
0.751156 0.661158 0.513542
0.758450 0.658991 0.510826
0.765408 0.662806 0.500359
0.772702 0.667018 0.490578
0.780514 0.671717 0.481910
0.789181 0.677150 0.475532
0.798947 0.683650 0.472999
0.810117 0.691615 0.476600
0.821408 0.701472 0.523125
0.831540 0.714961 0.578515
0.840146 0.733883 0.633112
0.848203 0.755398 0.679408
0.000000 0.736751 0.521324
0.000000 0.738582 0.522698
0.000000 0.740536 0.523522
0.000000 0.742763 0.523217
0.000000 0.744900 0.521630
0.000000 0.746822 0.517296
0.000000 0.748043 0.511192
0.000000 0.749020 0.503166
0.000000 0.749538 0.494240
0.153872 0.749569 0.482979
0.216587 0.752621 0.451820
0.271244 0.755825 0.407904
0.321904 0.758846 0.346410
0.434272 0.755886 0.342077
0.525322 0.752010 0.367834
0.591760 0.748440 0.394751
0.656611 0.740505 0.424750
0.704524 0.734218 0.452491
0.736721 0.730068 0.478187
0.760098 0.726040 0.504295
0.759304 0.704005 0.532952
0.762936 0.685084 0.559380
0.770138 0.682429 0.559991
0.777554 0.685420 0.551965
0.785458 0.688869 0.544976
0.793973 0.693111 0.539849
0.803464 0.698421 0.537835
0.813993 0.705501 0.540673
0.825406 0.715267 0.550134
0.835935 0.729122 0.581140
0.843931 0.747555 0.636805
0.851713 0.766598 0.682490
0.000000 0.761257 0.554833
0.000000 0.761990 0.555352
0.000000 0.762661 0.555169
0.000000 0.763485 0.553796
0.000000 0.764431 0.551659
0.000000 0.765316 0.547967
0.000000 0.765682 0.542840
0.000000 0.765743 0.537072
0.000000 0.765347 0.530571
0.200381 0.764157 0.523980
0.283635 0.764828 0.507439
0.326696 0.767147 0.478431
0.368872 0.769406 0.440620
0.417456 0.771145 0.394903
0.511345 0.767056 0.417884
0.575280 0.764889 0.440650
0.636286 0.760128 0.464271
0.689113 0.753384 0.487434
0.724636 0.748745 0.508965
0.750881 0.745480 0.529046
0.771481 0.740475 0.550286
0.770748 0.718837 0.574090
0.773678 0.701808 0.595911
0.780301 0.698146 0.597040
0.787686 0.700587 0.589990
0.795682 0.703914 0.584680
0.804501 0.708553 0.582300
0.814206 0.715175 0.584039
0.824521 0.724758 0.591485
0.834989 0.738155 0.606134
0.845365 0.754879 0.627619
0.853178 0.772061 0.674647
0.000000 0.776516 0.578454
0.000000 0.777096 0.578729
0.000000 0.777646 0.578668
0.000000 0.778256 0.577752
0.000000 0.778866 0.575738
0.000000 0.779202 0.572473
0.000000 0.779141 0.568353
0.000000 0.778592 0.563470
0.000000 0.777523 0.558587
0.228000 0.775692 0.553735
0.333806 0.773983 0.547143
0.368719 0.775937 0.525994
0.403632 0.778042 0.499916
0.437018 0.780514 0.465248
0.495613 0.780179 0.453834
0.561059 0.777981 0.474220
0.616480 0.776364 0.494392
0.671412 0.770962 0.514763
0.711238 0.766079 0.534295
0.739498 0.762753 0.552850
0.763729 0.759976 0.570642
0.782162 0.754665 0.589960
0.781827 0.734005 0.611475
0.784756 0.717739 0.630426
0.789425 0.711269 0.627802
0.796780 0.714046 0.622492
0.804868 0.718318 0.619867
0.813657 0.724605 0.620508
0.823026 0.733700 0.625971
0.832883 0.746212 0.637293
0.842832 0.761166 0.653651
0.853208 0.776883 0.674678
0.000000 0.793484 0.605280
0.000000 0.794064 0.605524
0.000000 0.794430 0.605493
0.000000 0.794675 0.604456
0.000000 0.794797 0.602350
0.000000 0.794675 0.599634
0.000000 0.794095 0.596033
0.000000 0.792844 0.591821
0.115969 0.791012 0.587610
0.271061 0.788540 0.583612
0.370581 0.785611 0.580499
0.413458 0.786038 0.567681
0.439979 0.787961 0.547875
0.465797 0.790036 0.523583
0.491157 0.792233 0.493416
0.549523 0.790249 0.503471
0.603845 0.788174 0.519829
0.651759 0.786496 0.537224
0.696345 0.781094 0.554437
0.727077 0.777584 0.572076
0.752316 0.774899 0.588891
0.775357 0.772488 0.604730
0.791226 0.766842 0.621790
0.791043 0.747616 0.639399
0.793606 0.731533 0.654780
0.799252 0.726467 0.657710
0.806363 0.730282 0.654688
0.814054 0.735988 0.654170
0.822477 0.744228 0.657527
0.831632 0.755337 0.665553
0.841123 0.768185 0.677516
0.851377 0.781857 0.694179
0.000000 0.806851 0.623957
0.000000 0.807370 0.624323
0.000000 0.807706 0.624292
0.000000 0.807828 0.623560
0.000000 0.807767 0.621851
0.000000 0.807523 0.619501
0.000000 0.806851 0.616724
0.000000 0.805295 0.613611
0.182895 0.803220 0.610712
0.305119 0.800595 0.608392
0.393439 0.797757 0.607111
0.451270 0.796414 0.603479
0.473152 0.798306 0.588678
0.494942 0.800259 0.571160
0.516442 0.802274 0.550286
0.547112 0.803281 0.536492
0.600519 0.800961 0.551904
0.647089 0.799100 0.567407
0.685695 0.797116 0.583703
0.717739 0.793423 0.599573
0.743709 0.790585 0.614405
0.767453 0.787961 0.628229
0.788235 0.785702 0.640772
0.801205 0.780270 0.654505
0.801236 0.763760 0.668513
0.803647 0.749172 0.681086
0.808804 0.744045 0.684932
0.815671 0.749203 0.684199
0.823392 0.756649 0.686519
0.831785 0.766049 0.692012
0.840879 0.776852 0.701198
0.850889 0.788418 0.714534
0.000000 0.821317 0.643122
0.000000 0.821622 0.643397
0.000000 0.821683 0.643214
0.000000 0.821592 0.642237
0.000000 0.821134 0.640772
0.000000 0.820493 0.638697
0.000000 0.819455 0.636316
0.000000 0.817533 0.634089
0.236057 0.815030 0.631983
0.337682 0.812161 0.630732
0.415229 0.809354 0.630549
0.476539 0.807065 0.631952
0.501671 0.808042 0.622980
0.520684 0.809689 0.609827
0.539788 0.811307 0.594720
0.559350 0.812894 0.577142
0.599298 0.811734 0.579461
0.644129 0.809506 0.593774
0.679377 0.808286 0.608789
0.708980 0.806210 0.623011
0.735470 0.803281 0.635981
0.759792 0.800534 0.647974
0.781338 0.798123 0.658930
0.799466 0.796201 0.668696
0.809842 0.791135 0.680140
0.810025 0.777707 0.691615
0.812253 0.765377 0.702327
0.817136 0.760739 0.706996
0.823911 0.766629 0.708034
0.831571 0.774136 0.711635
0.840208 0.783078 0.718624
0.849729 0.792966 0.729366
0.000000 0.834073 0.659571
0.000000 0.834165 0.659632
0.000000 0.834165 0.659541
0.000000 0.833890 0.658839
0.000000 0.833433 0.657954
0.000000 0.832639 0.656886
0.000000 0.831632 0.655818
0.186923 0.829801 0.655177
0.301976 0.827359 0.655268
0.386572 0.824765 0.656245
0.452461 0.822416 0.658412
0.507164 0.820371 0.661769
0.545586 0.819486 0.661616
0.563897 0.820676 0.653620
0.582269 0.821653 0.644465
0.600000 0.822599 0.633478
0.618463 0.823423 0.622034
0.656550 0.821256 0.634028
0.685939 0.820035 0.646204
0.709773 0.819577 0.658350
0.734768 0.817227 0.668666
0.758877 0.814511 0.677974
0.780026 0.812131 0.686427
0.797696 0.810239 0.694270
0.812497 0.808743 0.701534
0.820829 0.804257 0.710475
0.821286 0.793942 0.719722
0.823270 0.784756 0.728542
0.827726 0.780941 0.733364
0.834348 0.786007 0.735195
0.842405 0.792966 0.740658
0.851194 0.801083 0.749203
0.000000 0.848417 0.680537
0.000000 0.848295 0.680476
0.000000 0.848081 0.680262
0.000000 0.847471 0.679713
0.000000 0.846525 0.678981
0.000000 0.845121 0.678096
0.184726 0.843320 0.677272
0.282872 0.840879 0.676722
0.361975 0.837919 0.676936
0.426490 0.835050 0.678096
0.480598 0.832364 0.679927
0.529442 0.829709 0.682765
0.576196 0.826871 0.686458
0.593713 0.827237 0.680995
