data/fiter_cube/51215349/1023019/file.cube
# Created by Adobe Lightroom plugin Export LUT (1.17.0)
# www.johnrellis.com/lightroom/exportlut.htm
# Preset: 日系旅行街拍胶片_06 云集后期
# Color profile: C:\Program Files (x86)\Common Files\Adobe\Color\Profiles\Recommended\AdobeRGB1998.icc
LUT_3D_SIZE 5
DOMAIN_MIN 0.000000 0.000000 0.000000
DOMAIN_MAX 0.903226 0.903226 0.903226
0.064393 0.067201 0.072297
0.131533 0.076478 0.084352
0.445380 0.098909 0.127962
0.717556 0.386206 0.310338
0.803555 0.636835 0.607416
0.047120 0.120821 0.089265
0.164858 0.129793 0.084840
0.476844 0.205539 0.109377
0.718288 0.422950 0.287083
0.808164 0.650690 0.610224
0.000000 0.478187 0.244907
0.000000 0.528038 0.160708
0.630121 0.542046 0.201541
0.735286 0.557305 0.228824
0.813535 0.669459 0.572015
0.000000 0.761257 0.554833
0.000000 0.765743 0.537072
0.511345 0.767056 0.417884
0.770748 0.718837 0.574090
0.824521 0.724758 0.591485
0.000000 0.857206 0.694881
0.338994 0.848814 0.693172
0.621149 0.831876 0.690517
0.749599 0.831571 0.706996
0.836423 0.812406 0.752163
0.065431 0.069032 0.101289
0.164981 0.059602 0.130434
0.486275 0.120760 0.207950
0.694514 0.425055 0.410803
0.791897 0.639887 0.625910
0.069184 0.107271 0.118776
0.169741 0.155703 0.145388
0.494301 0.255161 0.230655
0.701472 0.450813 0.396887
0.794980 0.646601 0.621637
0.000000 0.460792 0.328740
0.000000 0.523552 0.329076
0.605280 0.535943 0.319280
0.723201 0.555749 0.348943
0.805722 0.672938 0.604669
0.000000 0.755734 0.594079
0.000000 0.759701 0.587091
0.520165 0.761837 0.505486
0.764126 0.721248 0.611627
0.820249 0.726162 0.605463
0.000000 0.854398 0.710109
0.347143 0.846403 0.708339
0.652705 0.829679 0.719631
0.751583 0.832364 0.721889
0.836271 0.814115 0.759091
0.000000 0.075593 0.322606
0.187564 0.024079 0.389166
0.613092 0.000000 0.536950
0.751400 0.454078 0.574914
0.798795 0.665492 0.687098
0.000000 0.155337 0.367407
0.192691 0.188876 0.426490
0.608759 0.270085 0.546471
0.738338 0.516472 0.583764
0.793973 0.677882 0.692378
0.000000 0.395514 0.457099
0.160372 0.453773 0.492927
0.592584 0.590967 0.579309
0.712795 0.626551 0.612421
0.793912 0.697200 0.692195
0.000000 0.735470 0.674861
0.157717 0.736385 0.674037
0.592706 0.739162 0.677180
0.753201 0.731991 0.688533
0.809567 0.731044 0.662226
0.198489 0.841520 0.750118
0.381689 0.837308 0.748714
0.624140 0.828000 0.746670
0.746151 0.829679 0.743862
0.832578 0.814969 0.770382
0.000000 0.078462 0.662959
0.304234 0.004791 0.679622
0.603510 0.179477 0.718898
0.765805 0.489204 0.731624
0.827787 0.675288 0.751858
0.000000 0.213718 0.671290
0.311986 0.255436 0.683589
0.598444 0.365118 0.715633
0.759457 0.545129 0.730892
0.824094 0.684962 0.751400
0.000000 0.471687 0.679103
0.285801 0.503166 0.685481
0.602533 0.600580 0.708034
0.744198 0.657099 0.730709
0.815030 0.715969 0.753414
0.199313 0.660853 0.705074
0.378149 0.669368 0.708095
0.609644 0.703029 0.722072
0.746304 0.748531 0.749966
0.801663 0.755642 0.754116
0.399725 0.802365 0.780636
0.469612 0.806027 0.782406
0.623774 0.817899 0.788357
0.745754 0.823178 0.784909
0.829313 0.819120 0.790249
0.392676 0.236271 0.789761
0.472938 0.265965 0.791379
0.629572 0.401099 0.796597
0.754360 0.559319 0.802457
0.829435 0.680232 0.801907
0.393347 0.357336 0.785153
0.470893 0.381537 0.786648
0.625879 0.475410 0.792111
0.748714 0.587854 0.799405
0.827695 0.688991 0.801572
0.237736 0.495735 0.779843
0.362127 0.505455 0.780362
0.619715 0.605463 0.782589
0.737819 0.663172 0.793668
0.826230 0.724025 0.804746
0.323613 0.654658 0.782773
0.406836 0.658869 0.781674
0.576165 0.685176 0.781765
0.732296 0.732479 0.791775
0.824643 0.777096 0.810910
0.426795 0.754788 0.791592
0.478828 0.755947 0.791775
0.628962 0.769589 0.796536
0.735988 0.796017 0.803433
0.822263 0.824460 0.819425
