data/fiter_cube/12544332/1022704/file.cube
# Created by Adobe Lightroom plugin Export LUT (1.24.0)
# www.johnrellis.com/lightroom/exportlut.htm
# Preset: 城市青橙纪实夜景 _08 云集
# Color profile: C:\Program Files (x86)\Common Files\Adobe\Color\Profiles\Recommended\AdobeRGB1998.icc
LUT_3D_SIZE 5
DOMAIN_MIN 0.000000 0.000000 0.000000
DOMAIN_MAX 0.903226 0.903226 0.903226
0.101472 0.101472 0.101472
0.240238 0.102388 0.094270
0.520806 0.128664 0.003449
0.807279 0.173098 0.000000
0.975128 0.167605 0.000000
0.082765 0.162295 0.128481
0.221317 0.170352 0.089265
0.506279 0.212711 0.000000
0.800839 0.245853 0.000000
0.975006 0.228275 0.000000
0.000000 0.286595 0.198367
0.160128 0.296757 0.139071
0.479561 0.344854 0.000000
0.787839 0.392706 0.000000
0.969390 0.359899 0.000000
0.000000 0.491737 0.320317
0.000000 0.508995 0.271855
0.454932 0.521050 0.078462
0.772213 0.547509 0.000000
0.963043 0.510338 0.000000
0.000000 0.765682 0.486671
0.000000 0.774685 0.444343
0.301244 0.783413 0.185611
0.792538 0.765591 0.000000
0.971038 0.677394 0.000000
0.000000 0.159152 0.217319
0.219608 0.146517 0.188876
0.504265 0.196750 0.068971
0.791928 0.267674 0.000000
0.971038 0.230106 0.000000
0.000000 0.210330 0.231479
0.202365 0.202365 0.202365
0.497444 0.240391 0.092714
0.788357 0.309850 0.000000
0.970214 0.272618 0.000000
0.000000 0.318303 0.272221
0.101991 0.333715 0.246921
0.476295 0.355200 0.135286
0.778836 0.416907 0.000000
0.967529 0.383703 0.000000
0.000000 0.520348 0.386847
0.000000 0.537682 0.358465
0.436194 0.550347 0.188571
0.772671 0.553124 0.000000
0.962341 0.523949 0.000000
0.000000 0.774685 0.534783
0.000000 0.783230 0.501854
0.188663 0.798306 0.287236
0.781613 0.776516 0.000000
0.971099 0.685634 0.000000
0.000000 0.311833 0.468971
0.000000 0.272313 0.456489
0.479530 0.218997 0.382483
0.792966 0.235569 0.187625
0.970306 0.328923 0.000000
0.000000 0.350439 0.478737
0.000000 0.323308 0.465858
0.467323 0.276341 0.390387
0.787381 0.286778 0.207401
0.970459 0.349828 0.000000
0.000000 0.458991 0.516075
0.000000 0.450050 0.502739
0.423133 0.423133 0.423133
0.774472 0.415991 0.258701
0.969177 0.419562 0.000000
0.000000 0.598077 0.565454
0.000000 0.605402 0.557061
0.245731 0.624384 0.473579
0.760220 0.587152 0.315740
0.964385 0.534905 0.000000
0.000000 0.805142 0.672450
0.000000 0.811276 0.656458
0.000000 0.822934 0.553094
0.713069 0.803098 0.391730
0.967468 0.696864 0.000000
0.000000 0.479591 0.733333
0.000000 0.458167 0.730251
0.150546 0.349096 0.710903
0.748623 0.401251 0.612604
0.952575 0.423590 0.466773
0.000000 0.503441 0.735714
0.000000 0.485359 0.732174
0.112917 0.397498 0.713252
0.741390 0.441993 0.620142
0.950927 0.444007 0.471199
0.000000 0.575006 0.746090
0.000000 0.565301 0.742519
0.000000 0.522911 0.724941
0.722072 0.550072 0.646693
0.951141 0.497292 0.471687
0.000000 0.679316 0.766506
0.000000 0.677394 0.762844
0.000000 0.673915 0.748440
0.686549 0.686549 0.686549
0.951568 0.588067 0.459968
0.000000 0.825650 0.822202
0.000000 0.830961 0.819944
0.000000 0.856443 0.807187
0.521782 0.847135 0.700008
0.933989 0.771298 0.557946
0.000000 0.586694 0.900298
0.000000 0.575738 0.899504
0.000000 0.546929 0.894682
0.659693 0.633448 0.871946
0.902434 0.694667 0.811154
0.000000 0.601465 0.901213
0.000000 0.591302 0.900481
0.000000 0.564599 0.895811
0.656428 0.649012 0.873289
0.900969 0.706538 0.815061
0.000000 0.648707 0.905028
0.000000 0.640558 0.904570
0.000000 0.615625 0.900816
0.628595 0.686763 0.879362
0.896941 0.741695 0.827176
0.000000 0.722896 0.911315
0.000000 0.719478 0.910857
0.000000 0.703761 0.908812
0.452247 0.718349 0.895018
0.889952 0.796689 0.846921
0.000000 0.806729 0.920714
0.000000 0.810819 0.919890
0.000000 0.814023 0.917906
0.113802 0.830961 0.909239
0.873716 0.873686 0.873716
