data/fiter_cube/12544332/1022704/file.cube
# Created by Adobe Lightroom plugin Export LUT (1.24.0)
# www.johnrellis.com/lightroom/exportlut.htm
# Preset: 城市青橙纪实夜景 _08 云集
# Color profile: C:\Program Files (x86)\Common Files\Adobe\Color\Profiles\Recommended\AdobeRGB1998.icc
LUT_3D_SIZE 32
0.101472 0.101472 0.101472
0.107973 0.101411 0.101320
0.116823 0.101320 0.101045
0.135958 0.101106 0.100435
0.160678 0.101198 0.099367
0.186099 0.101289 0.098054
0.212528 0.101625 0.096407
0.240238 0.102388 0.094270
0.270420 0.103731 0.091493
0.303838 0.105257 0.087831
0.341497 0.107576 0.082704
0.382879 0.110994 0.075624
0.427039 0.115724 0.065553
0.473335 0.121462 0.044678
0.520806 0.128664 0.003449
0.568597 0.135775 0.000000
0.614710 0.143343 0.000000
0.660639 0.150851 0.000000
0.701961 0.158053 0.000000
0.740078 0.164340 0.000000
0.775082 0.169162 0.000000
0.807279 0.173098 0.000000
0.836759 0.175723 0.000000
0.863828 0.177493 0.000000
0.888884 0.177768 0.000000
0.912261 0.177096 0.000000
0.934295 0.175174 0.000000
0.955169 0.172000 0.000000
0.975128 0.167605 0.000000
0.994171 0.161898 0.000000
1.000000 0.154360 0.000000
1.000000 0.145022 0.000000
0.100923 0.104097 0.102235
0.107332 0.104341 0.101076
0.116457 0.104219 0.100832
0.135409 0.104555 0.100160
0.160067 0.104433 0.099123
0.185306 0.104616 0.097810
0.211887 0.104677 0.096162
0.239475 0.105531 0.094057
0.269444 0.106935 0.091279
0.302922 0.108248 0.087617
0.340429 0.110872 0.082490
0.381567 0.114199 0.075441
0.425666 0.118959 0.065339
0.471839 0.125154 0.044068
0.519219 0.132143 0.003052
0.566888 0.139467 0.000000
0.613275 0.146395 0.000000
0.658595 0.154208 0.000000
0.699794 0.160891 0.000000
0.738003 0.166842 0.000000
0.773068 0.171603 0.000000
0.805417 0.175448 0.000000
0.835019 0.178347 0.000000
0.862364 0.179629 0.000000
0.887541 0.180209 0.000000
0.911070 0.179263 0.000000
0.933257 0.176944 0.000000
0.954253 0.174258 0.000000
0.974334 0.169802 0.000000
0.993500 0.163760 0.000000
1.000000 0.156374 0.000000
1.000000 0.147066 0.000000
0.100038 0.107881 0.103609
0.106600 0.108095 0.101961
0.115969 0.108217 0.100496
0.134798 0.108614 0.099825
0.159030 0.108614 0.098787
0.184421 0.108797 0.097475
0.210758 0.109010 0.095827
0.238407 0.109865 0.093721
0.268528 0.110964 0.090944
0.301884 0.112825 0.087251
0.339300 0.115450 0.082094
0.380316 0.119020 0.074983
0.424323 0.123720 0.064881
0.470558 0.129946 0.042695
0.517906 0.136751 0.001770
0.565759 0.143923 0.000000
0.612146 0.151339 0.000000
0.657221 0.158419 0.000000
0.698421 0.165011 0.000000
0.736660 0.170687 0.000000
0.771878 0.175387 0.000000
0.804318 0.178805 0.000000
0.834073 0.181552 0.000000
0.861479 0.182650 0.000000
0.886809 0.182956 0.000000
0.910399 0.182101 0.000000
0.932677 0.180056 0.000000
0.953765 0.177035 0.000000
0.973877 0.172457 0.000000
0.993072 0.166659 0.000000
1.000000 0.159213 0.000000
1.000000 0.150057 0.000000
0.097841 0.116365 0.106783
0.104128 0.116640 0.104555
0.114168 0.116518 0.102419
0.133242 0.116945 0.099092
0.157565 0.117220 0.098024
0.182773 0.117281 0.096742
0.209110 0.117342 0.095125
0.236881 0.118135 0.092988
0.266850 0.119112 0.090242
0.300298 0.121279 0.086427
0.337499 0.124147 0.081239
0.378607 0.128084 0.073915
0.422400 0.133425 0.063478
0.468513 0.139559 0.039216
0.515984 0.146120 0.000000
0.563897 0.153353 0.000000
0.610590 0.160555 0.000000
0.655421 0.167361 0.000000
0.696284 0.173404 0.000000
0.734401 0.178836 0.000000
0.769741 0.183200 0.000000
0.802335 0.186252 0.000000
0.832395 0.188296 0.000000
0.860136 0.189548 0.000000
0.885832 0.189517 0.000000
0.909758 0.188632 0.000000
0.932280 0.186282 0.000000
0.953521 0.183200 0.000000
0.973693 0.178500 0.000000
0.992920 0.172488 0.000000
1.000000 0.165316 0.000000
1.000000 0.156008 0.000000
0.094728 0.126833 0.111147
0.100374 0.127016 0.109041
0.110079 0.126986 0.106569
0.128603 0.126833 0.102083
0.153445 0.128054 0.097078
0.180056 0.128511 0.095674
0.206424 0.128664 0.094026
0.234226 0.129335 0.091890
0.264347 0.130648 0.089082
0.297459 0.133272 0.085206
0.334600 0.136416 0.079896
0.375494 0.141146 0.072267
0.419379 0.146609 0.061402
0.465583 0.152895 0.033722
0.513146 0.159701 0.000000
0.561242 0.166598 0.000000
0.608698 0.173465 0.000000
0.653498 0.180087 0.000000
0.694606 0.185794 0.000000
0.732845 0.190677 0.000000
0.768215 0.194522 0.000000
0.800900 0.197238 0.000000
0.831113 0.199100 0.000000
0.859068 0.199863 0.000000
0.884886 0.199527 0.000000
0.908995 0.197818 0.000000
0.931579 0.195529 0.000000
0.952941 0.192203 0.000000
0.973175 0.187594 0.000000
0.992432 0.181643 0.000000
1.000000 0.174136 0.000000
1.000000 0.165255 0.000000
0.091005 0.137636 0.115816
0.096193 0.138064 0.114015
0.104707 0.138247 0.111482
0.122988 0.138094 0.107485
0.146181 0.137942 0.101137
0.174380 0.140383 0.094514
0.203311 0.141848 0.092561
0.231296 0.142824 0.090333
0.261326 0.144350 0.087465
0.294591 0.147127 0.083436
0.331609 0.151278 0.077790
0.372595 0.156374 0.069825
0.416419 0.162325 0.058015
0.462684 0.168795 0.025635
0.510460 0.175601 0.000000
0.558770 0.182864 0.000000
0.606867 0.189731 0.000000
0.651637 0.195834 0.000000
0.692927 0.201114 0.000000
0.731533 0.205356 0.000000
0.767117 0.208865 0.000000
0.800137 0.211154 0.000000
0.839719 0.214328 0.000000
0.866758 0.214359 0.000000
0.891783 0.213504 0.000000
0.915038 0.211337 0.000000
0.936858 0.208316 0.000000
0.957458 0.204501 0.000000
0.977081 0.199741 0.000000
0.995819 0.193545 0.000000
1.000000 0.185946 0.000000
1.000000 0.177188 0.000000
0.086702 0.149813 0.121767
0.091890 0.150057 0.120089
0.099580 0.150515 0.117708
0.116548 0.150851 0.112520
0.140658 0.150423 0.107698
0.166659 0.151034 0.100282
0.197391 0.154788 0.091066
0.228977 0.157748 0.088258
0.259373 0.159823 0.085176
0.293065 0.163272 0.080812
0.330419 0.168002 0.074678
0.371679 0.173587 0.065919
0.415900 0.180179 0.048981
0.462531 0.187045 0.012512
0.510430 0.194217 0.000000
0.558587 0.201205 0.000000
0.607630 0.208469 0.000000
0.652735 0.214328 0.000000
0.694270 0.219364 0.000000
0.733242 0.223301 0.000000
0.769558 0.226505 0.000000
0.803403 0.228061 0.000000
0.834531 0.229191 0.000000
0.863127 0.228824 0.000000
0.889250 0.227665 0.000000
0.913207 0.225467 0.000000
0.935454 0.222293 0.000000
0.956298 0.218173 0.000000
0.976104 0.213077 0.000000
0.994903 0.206882 0.000000
1.000000 0.199313 0.000000
1.000000 0.190738 0.000000
0.082765 0.162295 0.128481
0.087892 0.162692 0.126711
0.094911 0.163210 0.124697
0.109163 0.163912 0.118929
0.134310 0.163882 0.113588
0.160525 0.163577 0.107698
0.188785 0.165255 0.099550
0.221317 0.170352 0.089265
0.255131 0.175113 0.082704
0.288853 0.178988 0.078096
0.326207 0.184237 0.071534
0.367468 0.190555 0.061921
0.411810 0.197696 0.038636
0.458320 0.204990 0.000916
0.506279 0.212711 0.000000
0.555444 0.220279 0.000000
0.604578 0.227420 0.000000
0.649470 0.233188 0.000000
0.691005 0.237766 0.000000
0.730251 0.241581 0.000000
0.766842 0.244327 0.000000
0.800839 0.245853 0.000000
0.832212 0.246250 0.000000
0.861021 0.245579 0.000000
0.887388 0.244022 0.000000
0.911589 0.241367 0.000000
0.933989 0.237797 0.000000
0.955047 0.233463 0.000000
0.975006 0.228275 0.000000
0.993957 0.221744 0.000000
1.000000 0.214359 0.000000
1.000000 0.205722 0.000000
0.078279 0.176303 0.136049
0.083619 0.176638 0.134768
0.089967 0.177310 0.132876
0.102968 0.178256 0.127565
0.126131 0.178805 0.119966
0.154971 0.178500 0.115053
0.182345 0.178378 0.107698
0.212894 0.181491 0.098421
0.247654 0.187594 0.086244
0.284428 0.194949 0.074861
0.321935 0.200717 0.067659
0.363287 0.207706 0.055818
0.407568 0.215549 0.025788
0.454353 0.223667 0.000000
0.502281 0.231815 0.000000
0.552728 0.240116 0.000000
0.601434 0.247562 0.000000
0.646357 0.253208 0.000000
0.688075 0.257755 0.000000
0.727687 0.261204 0.000000
0.764462 0.263523 0.000000
0.798734 0.264561 0.000000
0.830289 0.264714 0.000000
0.859251 0.263706 0.000000
0.885832 0.261692 0.000000
0.910185 0.258671 0.000000
0.932769 0.254917 0.000000
0.954009 0.250034 0.000000
0.974090 0.244541 0.000000
0.993133 0.238102 0.000000
1.000000 0.230503 0.000000
1.000000 0.221836 0.000000
0.072511 0.191501 0.144625
0.077424 0.191989 0.143404
0.083711 0.192508 0.141512
0.096437 0.193606 0.136416
0.116335 0.194827 0.127138
0.147951 0.194614 0.121584
0.177890 0.194553 0.115267
0.206027 0.194369 0.107271
0.239658 0.199588 0.095949
0.276860 0.207095 0.081514
0.317205 0.216983 0.063111
0.358434 0.224796 0.045747
0.402930 0.233433 0.011536
0.449622 0.242161 0.000000
0.498299 0.251133 0.000000
0.549798 0.260533 0.000000
0.598749 0.268101 0.000000
0.643915 0.273899 0.000000
0.685847 0.278477 0.000000
0.725643 0.281712 0.000000
0.762478 0.283757 0.000000
0.796689 0.284428 0.000000
0.828183 0.284001 0.000000
0.857115 0.282689 0.000000
0.883757 0.280278 0.000000
0.908293 0.276860 0.000000
0.931182 0.272862 0.000000
0.952667 0.267796 0.000000
0.973022 0.262089 0.000000
0.992309 0.255375 0.000000
1.000000 0.247715 0.000000
1.000000 0.239200 0.000000
0.062928 0.207797 0.153811
0.068116 0.208377 0.152682
0.074586 0.208896 0.150759
0.087709 0.210056 0.146212
0.107637 0.211521 0.137209
0.137209 0.212284 0.127535
0.171695 0.211917 0.122316
0.202487 0.211948 0.114778
0.232822 0.212924 0.105196
0.269230 0.219516 0.091737
0.309636 0.229038 0.074434
0.354162 0.241276 0.037995
0.398077 0.251072 0.000000
0.444984 0.260655 0.000000
0.495064 0.270909 0.000000
0.546044 0.280797 0.000000
0.594995 0.288853 0.000000
0.640162 0.294865 0.000000
0.682429 0.299260 0.000000
0.722652 0.302525 0.000000
0.759792 0.304509 0.000000
0.794247 0.304906 0.000000
0.826078 0.304387 0.000000
0.855283 0.302647 0.000000
0.882139 0.299870 0.000000
0.906889 0.296178 0.000000
0.929900 0.291569 0.000000
0.951507 0.286381 0.000000
0.971984 0.280369 0.000000
0.991394 0.273503 0.000000
1.000000 0.265721 0.000000
1.000000 0.257237 0.000000
0.039490 0.225376 0.163851
0.051087 0.225925 0.162509
0.061646 0.226505 0.160769
0.076204 0.227817 0.156405
0.096590 0.229465 0.148257
0.122072 0.231113 0.134371
0.162234 0.230900 0.128695
0.197482 0.230777 0.121706
0.229404 0.230747 0.112978
0.262394 0.233616 0.101564
0.302190 0.242130 0.084932
0.346227 0.253849 0.062379
0.398840 0.270756 0.000000
0.446784 0.282841 0.000000
0.498756 0.294774 0.000000
0.550958 0.305577 0.000000
0.600214 0.314122 0.000000
0.645533 0.320012 0.000000
0.687617 0.324224 0.000000
0.727352 0.327214 0.000000
0.764096 0.328496 0.000000
0.797910 0.328435 0.000000
0.829068 0.327001 0.000000
0.857694 0.324743 0.000000
0.884123 0.321386 0.000000
0.908537 0.317205 0.000000
0.931273 0.312047 0.000000
0.952636 0.306371 0.000000
0.972900 0.299901 0.000000
0.992157 0.292668 0.000000
1.000000 0.284825 0.000000
1.000000 0.276036 0.000000
0.000000 0.245182 0.174777
0.004242 0.245792 0.173678
0.020417 0.246342 0.172030
0.057618 0.247532 0.167514
0.081849 0.249302 0.159915
0.109102 0.251133 0.146700
0.148379 0.251835 0.134157
0.189975 0.251591 0.128542
0.225925 0.251530 0.119844
0.258885 0.251865 0.109865
0.296056 0.257450 0.095369
0.340063 0.268498 0.074067
0.388159 0.282444 0.024445
0.442878 0.300206 0.000000
0.493538 0.313848 0.000000
0.545586 0.325475 0.000000
0.595117 0.334508 0.000000
0.640558 0.340978 0.000000
0.683040 0.345373 0.000000
0.723262 0.348425 0.000000
0.760372 0.349767 0.000000
0.794583 0.349584 0.000000
0.826017 0.348119 0.000000
0.855039 0.345556 0.000000
0.881743 0.341863 0.000000
0.906401 0.337316 0.000000
0.929412 0.332128 0.000000
0.951019 0.326055 0.000000
0.971466 0.319371 0.000000
0.990906 0.312078 0.000000
1.000000 0.303960 0.000000
1.000000 0.295079 0.000000
0.000000 0.265110 0.186252
0.000000 0.265751 0.184878
0.000000 0.266270 0.183352
0.002716 0.267552 0.179263
0.060883 0.269383 0.171878
0.093019 0.271641 0.159670
0.126345 0.273625 0.139223
0.178042 0.273259 0.134066
0.219547 0.273106 0.126619
0.256168 0.273411 0.116518
0.290135 0.274083 0.105135
0.332341 0.282994 0.086183
0.380682 0.296849 0.055818
0.433570 0.313420 0.000000
0.489052 0.331212 0.000000
0.539940 0.345098 0.000000
0.589471 0.354742 0.000000
0.635279 0.361669 0.000000
0.678187 0.366491 0.000000
0.718929 0.369848 0.000000
0.756588 0.371252 0.000000
0.791196 0.371069 0.000000
0.823178 0.369482 0.000000
0.852506 0.366857 0.000000
0.879545 0.362921 0.000000
0.904479 0.358160 0.000000
0.927733 0.352605 0.000000
0.949584 0.346258 0.000000
0.970245 0.339391 0.000000
0.989868 0.331884 0.000000
1.000000 0.323583 0.000000
1.000000 0.314611 0.000000
0.000000 0.286595 0.198367
0.000000 0.287053 0.197208
0.000000 0.287694 0.195682
0.000000 0.289097 0.191897
0.000000 0.291112 0.184848
0.069612 0.293431 0.173098
0.108614 0.295872 0.154574
0.160128 0.296757 0.139071
0.209781 0.296635 0.132998
0.251408 0.296757 0.123384
0.288884 0.297429 0.111727
0.325414 0.299565 0.097261
0.373632 0.312596 0.071992
0.425147 0.327947 0.000000
0.479561 0.344854 0.000000
0.534844 0.362280 0.000000
0.583917 0.374945 0.000000
0.629969 0.382300 0.000000
0.673365 0.387549 0.000000
0.714687 0.391302 0.000000
0.752712 0.392859 0.000000
0.787839 0.392706 0.000000
0.820157 0.391150 0.000000
0.849851 0.388251 0.000000
0.877256 0.384192 0.000000
0.902586 0.379278 0.000000
0.926177 0.373510 0.000000
0.948425 0.367010 0.000000
0.969390 0.359899 0.000000
0.989319 0.352148 0.000000
1.000000 0.343786 0.000000
1.000000 0.334508 0.000000
0.000000 0.309575 0.211856
0.000000 0.310246 0.210575
0.000000 0.310887 0.209140
0.000000 0.312352 0.205509
0.000000 0.314427 0.198917
0.000641 0.317113 0.187930
0.084016 0.320012 0.170748
0.131044 0.322484 0.144411
0.195315 0.322271 0.138430
0.243961 0.322271 0.130709
0.286503 0.323308 0.118715
0.325902 0.324895 0.104799
0.366522 0.329961 0.085603
0.417151 0.343847 0.037751
0.470100 0.359442 0.000000
0.524559 0.375921 0.000000
0.578058 0.391821 0.000000
0.624323 0.402625 0.000000
0.668360 0.408606 0.000000
0.710506 0.412787 0.000000
0.749355 0.414740 0.000000
0.785031 0.414801 0.000000
0.817838 0.413214 0.000000
0.847929 0.410132 0.000000
0.875639 0.406043 0.000000
0.901274 0.400885 0.000000
0.925139 0.394781 0.000000
0.947539 0.388128 0.000000
0.968688 0.380835 0.000000
0.988678 0.372747 0.000000
1.000000 0.364080 0.000000
1.000000 0.354742 0.000000
0.000000 0.334081 0.226169
0.000000 0.334539 0.224918
0.000000 0.335363 0.223667
0.000000 0.336767 0.220127
0.000000 0.338933 0.213657
0.000000 0.341680 0.203555
0.027832 0.344793 0.187503
0.105226 0.347814 0.161929
0.173281 0.348669 0.143923
0.232364 0.349371 0.136812
0.281071 0.350622 0.126284
0.324437 0.351781 0.112245
0.364416 0.353277 0.095430
0.408942 0.360937 0.067018
0.461402 0.375555 0.000000
0.514946 0.390967 0.000000
0.568444 0.406256 0.000000
0.618647 0.419715 0.000000
0.663142 0.429206 0.000000
0.705745 0.433967 0.000000
0.745144 0.436255 0.000000
0.781399 0.436561 0.000000
0.814633 0.434974 0.000000
0.845182 0.432013 0.000000
0.873320 0.427741 0.000000
0.899260 0.422370 0.000000
0.923491 0.416175 0.000000
0.946166 0.409308 0.000000
0.967590 0.401770 0.000000
0.987793 0.393591 0.000000
1.000000 0.384710 0.000000
1.000000 0.375128 0.000000
0.000000 0.359991 0.241367
0.000000 0.360632 0.240513
0.000000 0.363714 0.240604
0.000000 0.365118 0.236912
0.000000 0.367437 0.230594
0.000000 0.370123 0.221134
0.000000 0.373297 0.206027
0.067964 0.377234 0.182712
0.138918 0.380774 0.149966
0.216526 0.381537 0.143038
0.274083 0.382483 0.134035
0.322972 0.383490 0.119753
0.367163 0.384649 0.102602
0.408057 0.386114 0.079561
0.457252 0.396612 0.005829
0.511040 0.411261 0.000000
0.564569 0.425849 0.000000
0.614710 0.438453 0.000000
0.661646 0.449195 0.000000
0.704128 0.457008 0.000000
0.743587 0.459480 0.000000
0.780026 0.459693 0.000000
0.813474 0.458045 0.000000
0.844083 0.454841 0.000000
0.872129 0.450294 0.000000
0.898070 0.444587 0.000000
0.922210 0.438025 0.000000
0.944945 0.430823 0.000000
0.966461 0.422950 0.000000
0.986816 0.414557 0.000000
1.000000 0.405463 0.000000
1.000000 0.395727 0.000000
0.000000 0.388342 0.258305
0.000000 0.389258 0.257633
0.000000 0.390326 0.256291
0.000000 0.392462 0.253391
0.000000 0.395331 0.247898
0.000000 0.398993 0.239078
0.000000 0.402899 0.225193
0.000000 0.407050 0.203799
0.097230 0.411292 0.169375
0.189334 0.412787 0.148775
0.259678 0.413184 0.139712
0.315557 0.413855 0.127230
0.364446 0.414923 0.110048
0.409003 0.415900 0.087831
0.450202 0.416876 0.051789
0.503532 0.430243 0.000000
0.557336 0.444282 0.000000
0.607904 0.456245 0.000000
0.655360 0.466560 0.000000
0.699397 0.475288 0.000000
0.738918 0.480812 0.000000
0.775937 0.481453 0.000000
0.810056 0.479988 0.000000
0.841245 0.476905 0.000000
0.869749 0.472236 0.000000
0.896086 0.466468 0.000000
0.920592 0.459815 0.000000
0.943542 0.452461 0.000000
0.965270 0.444343 0.000000
0.985870 0.435645 0.000000
1.000000 0.426459 0.000000
1.000000 0.416480 0.000000
0.000000 0.420020 0.277256
0.000000 0.421027 0.276402
0.000000 0.422309 0.275486
0.000000 0.424353 0.272404
0.000000 0.427161 0.267033
0.000000 0.430701 0.258671
0.000000 0.434546 0.245335
0.000000 0.438666 0.225437
0.000000 0.442908 0.194217
0.145632 0.446143 0.153994
0.238346 0.446296 0.145266
0.304479 0.446784 0.134096
0.359289 0.447303 0.117281
0.408331 0.448127 0.095094
0.453407 0.449012 0.062898
0.497719 0.452125 0.000000
0.551995 0.465431 0.000000
0.603143 0.476844 0.000000
0.651026 0.486275 0.000000
0.695644 0.494453 0.000000
0.735561 0.500328 0.000000
0.772061 0.503258 0.000000
0.806699 0.502068 0.000000
0.838346 0.499153 0.000000
0.867338 0.494453 0.000000
0.894011 0.488594 0.000000
0.918791 0.481727 0.000000
0.942016 0.474128 0.000000
0.963989 0.465858 0.000000
0.984710 0.457008 0.000000
1.000000 0.447547 0.000000
1.000000 0.437446 0.000000
0.000000 0.453559 0.297551
0.000000 0.454688 0.296849
0.000000 0.456031 0.295720
0.000000 0.458198 0.292912
0.000000 0.460975 0.287419
0.000000 0.464240 0.279210
0.000000 0.468025 0.266606
0.000000 0.472084 0.248020
0.000000 0.476417 0.219455
0.080110 0.480781 0.173007
0.205814 0.481697 0.150607
0.287358 0.481697 0.139590
0.350683 0.482002 0.124422
0.405249 0.482460 0.102235
0.454597 0.483192 0.071046
0.500206 0.483986 0.000000
0.548180 0.489723 0.000000
0.600641 0.500572 0.000000
0.649470 0.509575 0.000000
0.694820 0.516930 0.000000
0.735592 0.522118 0.000000
0.771847 0.525383 0.000000
0.805325 0.525628 0.000000
0.837522 0.522667 0.000000
0.866941 0.517998 0.000000
0.893919 0.511955 0.000000
0.918944 0.504784 0.000000
0.942321 0.496986 0.000000
0.964385 0.488411 0.000000
0.985168 0.479225 0.000000
1.000000 0.469429 0.000000
1.000000 0.459022 0.000000
0.000000 0.491737 0.320317
0.000000 0.492561 0.319524
0.000000 0.493507 0.318425
0.000000 0.495399 0.315373
0.000000 0.497963 0.310033
0.000000 0.500969 0.301579
0.000000 0.504753 0.289494
0.000000 0.508995 0.271855
0.000000 0.513329 0.245579
0.000000 0.517876 0.204501
0.151827 0.521080 0.156039
0.263005 0.520958 0.144930
0.338506 0.520928 0.130983
0.400397 0.520928 0.109773
0.454932 0.521050 0.078462
0.504723 0.521447 0.000000
0.550652 0.521904 0.000000
0.599908 0.527886 0.000000
0.649409 0.535760 0.000000
0.695155 0.541741 0.000000
0.735958 0.545556 0.000000
0.772213 0.547509 0.000000
0.804501 0.548089 0.000000
0.834592 0.545037 0.000000
0.864347 0.540337 0.000000
0.891722 0.534264 0.000000
0.917082 0.527092 0.000000
0.940764 0.519036 0.000000
0.963043 0.510338 0.000000
0.984009 0.500938 0.000000
1.000000 0.490913 0.000000
1.000000 0.480232 0.000000
0.000000 0.529717 0.343420
0.000000 0.530541 0.342687
0.000000 0.531579 0.341405
0.000000 0.533288 0.338323
0.000000 0.535698 0.332952
0.000000 0.538750 0.324834
0.000000 0.542199 0.312810
0.000000 0.546197 0.295995
0.000000 0.550439 0.271580
0.000000 0.554986 0.234745
0.021729 0.559258 0.173861
0.224949 0.559380 0.150607
0.317784 0.558831 0.136812
0.389349 0.558404 0.118532
0.449744 0.558099 0.088014
0.504051 0.557977 0.009216
0.553735 0.558007 0.000000
0.599939 0.558251 0.000000
0.649287 0.563806 0.000000
0.695766 0.568688 0.000000
0.737118 0.571130 0.000000
0.773739 0.571740 0.000000
0.806363 0.571069 0.000000
0.835264 0.569451 0.000000
0.861173 0.562524 0.000000
0.888884 0.556420 0.000000
0.914702 0.549218 0.000000
0.938720 0.541039 0.000000
0.961273 0.532097 0.000000
0.982513 0.522515 0.000000
1.000000 0.512352 0.000000
1.000000 0.501549 0.000000
0.000000 0.570977 0.368322
0.000000 0.571893 0.367742
0.000000 0.572717 0.366278
0.000000 0.574243 0.363134
0.000000 0.576349 0.357702
0.000000 0.578943 0.349462
0.000000 0.582116 0.337652
0.000000 0.585626 0.321447
0.000000 0.589380 0.298009
0.000000 0.593408 0.264591
0.000000 0.597345 0.213077
0.162753 0.599084 0.157565
0.288243 0.597894 0.143984
0.372381 0.596674 0.126101
0.440070 0.595666 0.099062
0.499245 0.594751 0.044526
0.552819 0.594018 0.000000
0.602228 0.593683 0.000000
0.648829 0.593866 0.000000
0.696040 0.597314 0.000000
0.738003 0.598352 0.000000
0.775113 0.597498 0.000000
0.807919 0.595300 0.000000
0.836881 0.592157 0.000000
0.862791 0.587396 0.000000
0.886809 0.579126 0.000000
0.912810 0.571771 0.000000
0.937072 0.563439 0.000000
0.959808 0.554253 0.000000
0.981231 0.544457 0.000000
1.000000 0.534051 0.000000
1.000000 0.523064 0.000000
0.000000 0.609552 0.391821
0.000000 0.610346 0.390936
0.000000 0.611200 0.389837
0.000000 0.612665 0.386511
0.000000 0.614557 0.381201
0.000000 0.617060 0.373053
0.000000 0.619959 0.361700
0.000000 0.623407 0.346044
0.000000 0.627100 0.324285
0.000000 0.631037 0.293706
0.000000 0.634974 0.248722
0.000000 0.638636 0.174624
0.245609 0.637629 0.152834
0.348394 0.636164 0.135378
0.426459 0.634730 0.112398
0.491890 0.633600 0.069612
0.550195 0.632502 0.000000
0.603479 0.631617 0.000000
0.652918 0.631006 0.000000
0.699306 0.630945 0.000000
0.741665 0.629786 0.000000
0.779080 0.626917 0.000000
0.811978 0.622980 0.000000
0.841062 0.618067 0.000000
0.866789 0.612757 0.000000
0.890227 0.604822 0.000000
0.911528 0.594812 0.000000
0.935973 0.586297 0.000000
0.958953 0.576989 0.000000
0.980560 0.566918 0.000000
1.000000 0.556298 0.000000
1.000000 0.544945 0.000000
0.000000 0.649287 0.415930
0.000000 0.649958 0.414984
0.000000 0.650599 0.413794
0.000000 0.651820 0.410468
0.000000 0.653437 0.404974
0.000000 0.655665 0.397070
0.000000 0.658381 0.385901
0.000000 0.661463 0.370703
0.000000 0.664973 0.350195
0.000000 0.668757 0.321904
0.000000 0.672541 0.281926
0.000000 0.676173 0.221439
0.179416 0.677150 0.163699
0.315618 0.675288 0.146853
0.406195 0.673426 0.124361
0.479286 0.671687 0.090455
0.542748 0.669947 0.000000
0.599939 0.668421 0.000000
0.652644 0.667140 0.000000
0.701503 0.666163 0.000000
0.745541 0.663752 0.000000
0.783261 0.658656 0.000000
0.816403 0.652552 0.000000
0.845548 0.645808 0.000000
0.871336 0.638788 0.000000
0.894285 0.631495 0.000000
0.915618 0.620600 0.000000
0.934783 0.609186 0.000000
0.957458 0.599451 0.000000
0.979278 0.589197 0.000000
0.999847 0.578332 0.000000
1.000000 0.566796 0.000000
0.000000 0.688136 0.439612
0.000000 0.688685 0.438666
0.000000 0.689326 0.437263
0.000000 0.690425 0.434089
0.000000 0.692073 0.428687
0.000000 0.694301 0.420966
0.000000 0.697108 0.410529
0.000000 0.700465 0.396094
0.000000 0.704219 0.376745
0.000000 0.708217 0.350744
0.000000 0.712154 0.314611
0.000000 0.715938 0.263005
0.000000 0.719112 0.180514
0.272099 0.717159 0.163638
0.381231 0.715023 0.142641
0.464240 0.712764 0.114321
0.533867 0.710536 0.059327
0.595605 0.708461 0.000000
0.652003 0.706538 0.000000
0.704005 0.704860 0.000000
0.752529 0.703273 0.000000
0.792203 0.696773 0.000000
0.825071 0.687861 0.000000
0.854063 0.678492 0.000000
0.879667 0.669093 0.000000
0.902342 0.659937 0.000000
0.923064 0.649287 0.000000
0.941985 0.636713 0.000000
0.959136 0.623896 0.000000
0.979828 0.612787 0.000000
1.000000 0.601556 0.000000
1.000000 0.589624 0.000000
0.000000 0.729305 0.464607
0.000000 0.729732 0.463661
0.000000 0.730190 0.462226
0.000000 0.731106 0.458900
0.000000 0.732448 0.453468
0.000000 0.734249 0.445777
0.000000 0.736538 0.435126
0.000000 0.739284 0.420996
0.000000 0.742275 0.402441
0.000000 0.745571 0.377905
0.000000 0.748836 0.344884
0.000000 0.751888 0.299687
0.000000 0.754513 0.234440
0.209018 0.754055 0.183322
0.346593 0.751369 0.163272
