data/fiter_cube/12544332/1022704/file.cube
# Created by Adobe Lightroom plugin Export LUT (1.24.0)
# www.johnrellis.com/lightroom/exportlut.htm
# Preset: 城市青橙纪实夜景 _08 云集
# Color profile: C:\Program Files (x86)\Common Files\Adobe\Color\Profiles\Recommended\AdobeRGB1998.icc
LUT_3D_SIZE 8
DOMAIN_MIN 0.000000 0.000000 0.000000
DOMAIN_MAX 0.903226 0.903226 0.903226
0.101472 0.101472 0.101472
0.160678 0.101198 0.099367
0.270420 0.103731 0.091493
0.427039 0.115724 0.065553
0.614710 0.143343 0.000000
0.775082 0.169162 0.000000
0.888884 0.177768 0.000000
0.975128 0.167605 0.000000
0.094728 0.126833 0.111147
0.153445 0.128054 0.097078
0.264347 0.130648 0.089082
0.419379 0.146609 0.061402
0.608698 0.173465 0.000000
0.768215 0.194522 0.000000
0.884886 0.199527 0.000000
0.973175 0.187594 0.000000
0.078279 0.176303 0.136049
0.126131 0.178805 0.119966
0.247654 0.187594 0.086244
0.407568 0.215549 0.025788
0.601434 0.247562 0.000000
0.764462 0.263523 0.000000
0.885832 0.261692 0.000000
0.974090 0.244541 0.000000
0.000000 0.245182 0.174777
0.081849 0.249302 0.159915
0.225925 0.251530 0.119844
0.388159 0.282444 0.024445
0.595117 0.334508 0.000000
0.760372 0.349767 0.000000
0.881743 0.341863 0.000000
0.971466 0.319371 0.000000
0.000000 0.334081 0.226169
0.000000 0.338933 0.213657
0.173281 0.348669 0.143923
0.364416 0.353277 0.095430
0.568444 0.406256 0.000000
0.745144 0.436255 0.000000
0.873320 0.427741 0.000000
0.967590 0.401770 0.000000
0.000000 0.453559 0.297551
0.000000 0.460975 0.287419
0.000000 0.476417 0.219455
0.350683 0.482002 0.124422
0.548180 0.489723 0.000000
0.735592 0.522118 0.000000
0.866941 0.517998 0.000000
0.964385 0.488411 0.000000
0.000000 0.609552 0.391821
0.000000 0.614557 0.381201
0.000000 0.627100 0.324285
0.245609 0.637629 0.152834
0.550195 0.632502 0.000000
0.741665 0.629786 0.000000
0.866789 0.612757 0.000000
0.958953 0.576989 0.000000
0.000000 0.765682 0.486671
0.000000 0.768460 0.475624
0.000000 0.777462 0.426673
0.000000 0.788785 0.278904
0.494636 0.777951 0.131411
0.742245 0.767880 0.000000
0.892576 0.732631 0.000000
0.971038 0.677394 0.000000
0.084688 0.123262 0.150362
0.151583 0.119966 0.137575
0.261448 0.131685 0.099641
0.411414 0.166995 0.058106
0.602716 0.195682 0.000000
0.763272 0.212833 0.000000
0.882292 0.211551 0.000000
0.971679 0.192142 0.000000
0.075563 0.146273 0.157137
0.144167 0.144167 0.144167
0.256596 0.150362 0.110262
0.407782 0.183993 0.050721
0.599023 0.214542 0.000000
0.759792 0.230777 0.000000
0.879332 0.228305 0.000000
0.969726 0.208621 0.000000
0.070924 0.189334 0.168307
0.121706 0.194308 0.161105
0.246036 0.196872 0.127291
0.401312 0.227604 0.059113
0.591485 0.268803 0.000000
0.755734 0.285191 0.000000
0.878538 0.280278 0.000000
0.970123 0.258762 0.000000
0.000000 0.256016 0.201022
0.072389 0.261204 0.192172
0.222660 0.264378 0.149691
0.387762 0.286442 0.090486
0.581994 0.339300 0.000000
0.748775 0.359472 0.000000
0.874357 0.352392 0.000000
0.967681 0.328283 0.000000
0.000000 0.345708 0.250523
0.000000 0.350042 0.240208
0.144594 0.361181 0.170138
0.364874 0.362707 0.125277
0.564263 0.405676 0.000000
0.738308 0.441718 0.000000
0.869291 0.434577 0.000000
0.965240 0.407538 0.000000
0.000000 0.462165 0.317998
0.000000 0.467353 0.308659
0.000000 0.481666 0.252659
0.339330 0.488746 0.153323
0.546868 0.494362 0.000000
0.734737 0.523003 0.000000
0.864805 0.522820 0.000000
0.962799 0.492439 0.000000
0.000000 0.611841 0.407538
0.000000 0.615442 0.397314
0.000000 0.628107 0.347601
0.206394 0.641444 0.179934
0.543114 0.636622 0.074708
0.739467 0.631830 0.000000
0.864591 0.612116 0.000000
0.956847 0.579217 0.000000
0.000000 0.766049 0.499916
0.000000 0.769223 0.489876
0.000000 0.778347 0.444892
0.000000 0.789853 0.314000
0.483711 0.783536 0.172702
0.738552 0.771695 0.000000
0.891722 0.734646 0.000000
0.970031 0.679316 0.000000
0.000000 0.174624 0.244724
0.067475 0.162997 0.239658
0.246677 0.156405 0.209567
0.413001 0.159091 0.142733
0.602930 0.225711 0.000000
0.758297 0.285863 0.000000
0.881010 0.276921 0.000000
0.972137 0.243870 0.000000
0.000000 0.191623 0.247654
0.077882 0.183810 0.241947
0.240940 0.176364 0.212985
0.407050 0.179629 0.151400
0.598016 0.237858 0.028779
0.754910 0.297642 0.000000
0.878782 0.288579 0.000000
0.971008 0.256016 0.000000
0.000000 0.236606 0.261662
0.013153 0.233341 0.255406
0.225376 0.225376 0.225376
0.395819 0.233951 0.173404
0.593347 0.278477 0.071778
0.752804 0.329168 0.000000
0.876829 0.327489 0.000000
0.969848 0.295476 0.000000
0.000000 0.290440 0.276463
0.000000 0.293614 0.273350
0.172580 0.302159 0.245029
0.385779 0.306279 0.191440
0.584955 0.341650 0.103914
0.749325 0.378332 0.000000
0.873899 0.387304 0.000000
0.968292 0.355291 0.000000
0.000000 0.374548 0.318059
0.000000 0.381628 0.316167
0.074220 0.397406 0.287419
0.357855 0.400092 0.213657
0.567987 0.419684 0.133852
0.741268 0.444739 0.000000
0.868070 0.459602 0.000000
0.965454 0.427253 0.000000
0.000000 0.490120 0.383429
0.000000 0.496590 0.379431
0.000000 0.512078 0.348272
0.280125 0.522087 0.235782
0.547784 0.520409 0.165011
0.734310 0.529747 0.000000
0.864347 0.529717 0.000000
0.963104 0.507103 0.000000
0.000000 0.633570 0.467384
0.000000 0.637537 0.460548
0.000000 0.648798 0.425818
0.011566 0.662165 0.309789
0.517784 0.657221 0.203891
0.738643 0.647486 0.000000
0.866026 0.617456 0.000000
0.958373 0.591516 0.000000
0.000000 0.775937 0.548730
0.000000 0.777859 0.540246
0.000000 0.786252 0.505364
0.000000 0.798337 0.411353
0.433387 0.794949 0.276036
0.720180 0.782101 0.129000
0.890135 0.744228 0.000000
0.970275 0.685817 0.000000
0.000000 0.258701 0.383856
0.000000 0.248661 0.380926
0.117311 0.193088 0.362097
0.390417 0.195560 0.315618
0.599512 0.166049 0.214969
0.760311 0.246159 0.106081
0.878538 0.306920 0.000000
0.970672 0.297002 0.000000
0.000000 0.273259 0.387884
0.000000 0.264225 0.384161
0.112093 0.217227 0.365362
0.387304 0.213901 0.318791
0.595666 0.192752 0.221408
0.757839 0.259525 0.114778
0.877256 0.315007 0.000000
0.970214 0.304784 0.000000
0.000000 0.313298 0.399268
0.000000 0.307195 0.394903
0.079896 0.279759 0.375708
0.373693 0.267247 0.327947
0.585138 0.263523 0.242741
0.754940 0.304997 0.140475
0.878904 0.344152 0.000000
0.971038 0.335454 0.000000
0.000000 0.376654 0.422278
0.000000 0.373877 0.418219
0.000000 0.363195 0.400031
0.348363 0.348363 0.348363
0.568170 0.352453 0.276921
0.746395 0.369940 0.170596
0.874754 0.390143 0.000000
0.968994 0.386999 0.000000
0.000000 0.445869 0.444099
0.000000 0.446357 0.440833
0.000000 0.449256 0.426093
0.269871 0.456306 0.373114
0.555444 0.448554 0.300664
0.737850 0.452857 0.209171
0.871366 0.454170 0.000000
0.966644 0.452308 0.000000
0.000000 0.536828 0.485603
0.000000 0.544030 0.486641
0.000000 0.558068 0.475532
0.141817 0.571252 0.417578
0.524804 0.565606 0.325231
0.730617 0.549401 0.232425
0.865415 0.533562 0.015076
0.964569 0.521416 0.000000
0.000000 0.665461 0.557763
0.000000 0.669581 0.554559
0.000000 0.680903 0.536522
0.000000 0.693111 0.474464
0.447608 0.691127 0.361242
0.730404 0.680171 0.258457
0.864408 0.629419 0.101289
0.960571 0.595819 0.000000
0.000000 0.795743 0.628016
0.000000 0.797848 0.622583
0.000000 0.803464 0.597650
0.000000 0.811917 0.534112
0.317510 0.812741 0.420020
0.678676 0.798306 0.327886
0.883360 0.763821 0.127047
0.969818 0.691981 0.000000
0.000000 0.365301 0.553887
0.000000 0.356847 0.551873
0.000000 0.317266 0.541680
0.283452 0.245518 0.512657
0.567681 0.251652 0.450904
0.751553 0.207889 0.326696
0.878843 0.266148 0.214786
0.971954 0.305364 0.000000
0.000000 0.376196 0.556115
0.000000 0.368597 0.554253
0.000000 0.333135 0.544976
0.270665 0.259342 0.515526
0.564141 0.269627 0.452949
0.749294 0.233433 0.332647
0.878080 0.279667 0.219394
0.971801 0.312688 0.000000
0.000000 0.410773 0.564752
0.000000 0.405097 0.562554
0.000000 0.378698 0.551934
0.211948 0.306126 0.524346
0.552026 0.324163 0.460487
0.740414 0.301884 0.350744
0.874693 0.320745 0.233463
0.970916 0.336706 0.000000
0.000000 0.464515 0.579675
0.000000 0.460609 0.576776
0.000000 0.444770 0.565698
0.156588 0.407416 0.539544
0.532952 0.406409 0.477577
0.729854 0.392676 0.382086
0.871763 0.381720 0.250645
0.971710 0.375372 0.000000
0.000000 0.532860 0.600061
0.000000 0.531212 0.597559
0.000000 0.524193 0.586603
0.000000 0.511467 0.561364
0.501701 0.501701 0.501701
0.716396 0.487556 0.415900
0.866880 0.457130 0.270878
0.970123 0.434913 0.000000
0.000000 0.606226 0.621241
0.000000 0.606806 0.619379
0.000000 0.608331 0.610529
0.000000 0.615229 0.590143
0.406439 0.613458 0.517723
0.704921 0.589899 0.443214
0.857206 0.556207 0.327306
0.967163 0.512200 0.000000
0.000000 0.705379 0.666468
0.000000 0.707515 0.664729
0.000000 0.715785 0.657343
0.000000 0.726009 0.629328
0.268986 0.726864 0.547417
0.676234 0.710597 0.470161
0.851438 0.657649 0.353643
0.959960 0.601587 0.128847
0.000000 0.817258 0.721004
0.000000 0.818753 0.717769
0.000000 0.823545 0.703578
0.000000 0.831144 0.667018
0.000000 0.833188 0.579492
0.611200 0.815915 0.522332
0.861845 0.797818 0.384833
0.964050 0.706874 0.176883
0.000000 0.461585 0.705196
0.000000 0.455329 0.704311
0.000000 0.428260 0.698726
0.000000 0.360388 0.686549
0.470283 0.334722 0.655451
0.718654 0.363958 0.582177
0.857511 0.376501 0.490120
0.961852 0.365698 0.380072
0.000000 0.468147 0.703883
0.000000 0.462074 0.702571
0.000000 0.436774 0.697566
0.000000 0.373632 0.685725
0.463691 0.346105 0.655573
0.715450 0.377142 0.583856
0.855711 0.388708 0.493629
0.961242 0.372839 0.381476
0.000000 0.495247 0.708766
0.000000 0.490028 0.707362
0.000000 0.469490 0.702052
0.000000 0.420600 0.690394
0.442298 0.387243 0.661738
0.708553 0.423651 0.593317
0.851408 0.430365 0.508446
0.960540 0.397436 0.386236
0.000000 0.537591 0.716030
0.000000 0.533745 0.714382
0.000000 0.519860 0.709224
0.000000 0.489448 0.699367
0.392676 0.450904 0.673915
0.698482 0.494636 0.611292
0.846799 0.488838 0.529229
0.961181 0.431983 0.385473
0.000000 0.591302 0.725063
0.000000 0.589288 0.723873
0.000000 0.581628 0.719081
0.000000 0.565698 0.708858
0.314153 0.541985 0.686336
0.679561 0.568200 0.629267
0.839902 0.548913 0.544610
0.962493 0.467659 0.363256
0.000000 0.653681 0.737301
0.000000 0.653407 0.736660
0.000000 0.651270 0.732265
0.000000 0.647639 0.722774
0.216129 0.646448 0.702815
0.653223 0.653162 0.653193
0.831235 0.627436 0.570092
0.961181 0.537469 0.364508
0.000000 0.732143 0.764218
0.000000 0.733181 0.763790
0.000000 0.736263 0.760494
0.000000 0.743435 0.752682
0.000000 0.759640 0.734188
0.572839 0.751186 0.665248
0.819821 0.718624 0.600122
0.947021 0.651057 0.447333
0.000000 0.827573 0.805966
0.000000 0.829191 0.805112
0.000000 0.835874 0.801541
0.000000 0.851255 0.793423
0.000000 0.859098 0.753140
0.437201 0.845365 0.670222
0.798825 0.823728 0.626337
0.942809 0.754116 0.487373
0.000000 0.530999 0.813626
0.000000 0.526421 0.813107
0.000000 0.508659 0.811063
0.000000 0.471351 0.806516
0.284642 0.436255 0.794614
0.649348 0.485145 0.768887
0.825376 0.526604 0.701869
0.923796 0.575799 0.659724
0.000000 0.536950 0.813993
0.000000 0.532586 0.813474
0.000000 0.515496 0.811490
0.000000 0.479896 0.806790
0.279026 0.446143 0.795132
0.647150 0.494118 0.769680
0.824155 0.535027 0.704005
0.923125 0.581964 0.662379
0.000000 0.556725 0.815793
0.000000 0.552941 0.815274
0.000000 0.538384 0.813260
0.000000 0.508324 0.808713
0.255283 0.477638 0.797543
0.638972 0.522911 0.772549
0.820188 0.563012 0.711299
0.921080 0.601892 0.670771
0.000000 0.589990 0.819516
0.000000 0.586908 0.818875
0.000000 0.575555 0.816983
0.000000 0.552819 0.812497
0.193271 0.527062 0.802182
0.621454 0.566003 0.777829
0.813901 0.604883 0.723171
0.918547 0.631769 0.682643
0.000000 0.634119 0.824704
0.000000 0.632166 0.824216
0.000000 0.624506 0.822446
0.000000 0.608972 0.818631
0.000000 0.589166 0.809659
0.584863 0.615259 0.786282
0.805722 0.654719 0.738216
0.917296 0.662928 0.691524
0.000000 0.686397 0.831540
0.000000 0.685298 0.831144
0.000000 0.681575 0.829435
0.000000 0.674037 0.826017
0.000000 0.664454 0.818662
0.503471 0.673274 0.799710
0.794095 0.712337 0.756374
0.917205 0.697353 0.696040
0.000000 0.743496 0.839780
0.000000 0.743404 0.839414
0.000000 0.743038 0.837919
0.000000 0.742977 0.834806
0.000000 0.745449 0.828244
0.428779 0.759884 0.812528
0.775692 0.775662 0.775692
0.914824 0.746700 0.702754
0.000000 0.816678 0.864378
0.000000 0.817929 0.864073
0.000000 0.820981 0.863157
0.000000 0.827543 0.860868
0.000000 0.840391 0.855253
0.186557 0.864042 0.840391
0.715724 0.852171 0.784451
0.906157 0.823331 0.731746
0.000000 0.586694 0.900298
0.000000 0.583551 0.900084
0.000000 0.571984 0.899229
0.000000 0.553155 0.897002
0.189517 0.553338 0.890715
0.604883 0.622309 0.875883
0.799069 0.665888 0.858549
0.902434 0.694667 0.811154
0.000000 0.591180 0.900542
0.000000 0.588067 0.900328
0.000000 0.576715 0.899474
0.000000 0.558373 0.897276
0.178561 0.558160 0.891081
0.604211 0.627344 0.876219
0.798062 0.670527 0.858976
0.901976 0.698329 0.812375
0.000000 0.606226 0.901579
0.000000 0.603418 0.901396
0.000000 0.593103 0.900542
0.000000 0.576104 0.898405
0.129488 0.574640 0.892485
0.600610 0.643732 0.877592
0.794614 0.685847 0.860441
0.900511 0.710323 0.816342
0.000000 0.631861 0.903746
0.000000 0.629328 0.903563
0.000000 0.620294 0.902739
0.000000 0.604913 0.900816
0.000000 0.599908 0.895445
0.574762 0.659205 0.881254
0.786587 0.706447 0.863615
0.898344 0.729580 0.822934
0.000000 0.667903 0.906554
0.000000 0.665888 0.906432
0.000000 0.658381 0.905913
0.000000 0.643214 0.904845
0.000000 0.631861 0.900481
0.502098 0.671046 0.887938
0.772183 0.731899 0.868681
0.895354 0.755398 0.832059
0.000000 0.711604 0.910216
0.000000 0.710292 0.910094
0.000000 0.705379 0.909606
0.000000 0.695644 0.908629
0.000000 0.681209 0.906249
0.356725 0.695430 0.896818
0.748013 0.763302 0.875975
0.891234 0.787625 0.843656
0.000000 0.757351 0.915038
0.000000 0.758450 0.914763
0.000000 0.757687 0.914183
0.000000 0.753231 0.913237
0.000000 0.747219 0.911101
0.012390 0.751186 0.904875
0.677638 0.792569 0.887907
0.885039 0.826566 0.857725
0.000000 0.806729 0.920714
0.000000 0.807950 0.920470
0.000000 0.812253 0.919615
0.000000 0.813413 0.918639
0.000000 0.815335 0.916777
0.000000 0.825101 0.911711
0.612238 0.854887 0.898375
0.873716 0.873686 0.873716
