data/fiter_cube/95423152/1023251/file.cube
# Created by Adobe Lightroom plugin Export LUT (1.17.0)
# www.johnrellis.com/lightroom/exportlut.htm
# Preset: 黑暗巧克力情绪人像_10 云集
# Color profile: C:\Program Files (x86)\Common Files\Adobe\Color\Profiles\Recommended\AdobeRGB1998.icc
LUT_3D_SIZE 8
DOMAIN_MIN 0.000000 0.000000 0.000000
DOMAIN_MAX 0.903226 0.903226 0.903226
0.000000 0.000000 0.000000
0.062470 0.005280 0.011749
0.142031 0.000000 0.030915
0.235935 0.000000 0.023316
0.341711 0.000000 0.040925
0.468208 0.000000 0.061341
0.642420 0.000000 0.066773
0.824338 0.000000 0.082155
0.030182 0.055055 0.016144
0.066102 0.053925 0.018158
0.150637 0.065980 0.021454
0.245335 0.065217 0.017151
0.351720 0.059876 0.041505
0.480110 0.016815 0.060761
0.654047 0.000000 0.065187
0.830259 0.000000 0.081056
0.078065 0.117983 0.041321
0.099031 0.118776 0.037751
0.136416 0.109834 0.050294
0.247379 0.140627 0.032288
0.376104 0.160494 0.029999
0.507103 0.163424 0.049287
0.675563 0.164279 0.048280
0.840055 0.167391 0.073243
0.117189 0.182376 0.069764
0.132052 0.182742 0.068086
0.176272 0.182345 0.062501
0.207858 0.165896 0.075227
0.320409 0.196414 0.080873
0.554528 0.284947 0.000000
0.718288 0.298985 0.000000
0.860960 0.306920 0.057679
0.159121 0.249668 0.092653
0.170413 0.249454 0.091310
0.205264 0.247868 0.086152
0.253086 0.243595 0.081727
0.281163 0.223270 0.097810
0.395361 0.251438 0.110842
0.703731 0.387152 0.041108
0.885924 0.443427 0.008942
0.202945 0.323461 0.111971
0.211612 0.322118 0.110414
0.241672 0.320806 0.105562
0.288609 0.317693 0.096162
0.339178 0.312718 0.096223
0.366278 0.288060 0.114626
0.487587 0.313970 0.132052
0.823026 0.477577 0.104768
0.259342 0.427893 0.123903
0.268193 0.427192 0.122255
0.298344 0.426581 0.116518
0.346777 0.424384 0.105348
0.408972 0.421027 0.086244
0.467262 0.417243 0.094545
0.499306 0.387549 0.122011
0.637964 0.411933 0.149905
0.351415 0.603967 0.123781
0.361791 0.604150 0.121187
0.396063 0.604181 0.112428
0.452491 0.603662 0.093477
0.530632 0.607721 0.044953
0.616022 0.609003 0.000000
0.696620 0.611749 0.000000
0.741604 0.575311 0.119478
0.019135 0.024598 0.064668
0.072755 0.001282 0.069245
0.146792 0.015717 0.076051
0.226261 0.018860 0.085389
0.331640 0.000000 0.095247
0.459419 0.000000 0.104891
0.635920 0.000000 0.110414
0.821988 0.000000 0.121859
0.023651 0.062470 0.062196
0.073274 0.066712 0.067628
0.144045 0.074281 0.078248
0.232975 0.074159 0.086397
0.339696 0.068818 0.096101
0.468971 0.026642 0.105135
0.646479 0.000000 0.109895
0.828061 0.000000 0.122103
0.071504 0.119936 0.071626
0.099367 0.123812 0.081331
0.140902 0.118837 0.084260
0.254490 0.152285 0.088045
0.365301 0.158358 0.096925
0.497749 0.160372 0.103822
0.671656 0.157961 0.106081
0.839170 0.159396 0.119081
0.109346 0.186282 0.086793
0.134463 0.187625 0.098421
0.176730 0.186954 0.093019
0.212924 0.173526 0.099977
0.333257 0.209262 0.109773
0.550439 0.281865 0.096468
0.716793 0.295415 0.095430
0.860563 0.304021 0.114931
0.156374 0.252964 0.110170
0.171695 0.253635 0.114656
0.206180 0.252384 0.110079
0.256107 0.248814 0.104005
0.286076 0.229465 0.116518
0.406897 0.261845 0.130556
0.715511 0.396460 0.100893
0.884764 0.441810 0.111208
0.203220 0.327916 0.130282
0.212863 0.327642 0.129580
0.242924 0.326116 0.124910
0.290074 0.322515 0.115877
0.341955 0.317021 0.113863
0.369848 0.292393 0.129397
0.497871 0.322484 0.146578
0.829282 0.484138 0.136751
0.258366 0.433417 0.140841
0.267765 0.433509 0.139498
0.298405 0.432288 0.134127
0.347112 0.429236 0.123659
0.409705 0.424933 0.106386
0.469886 0.421057 0.111238
0.503624 0.391974 0.135012
0.649042 0.420478 0.162173
0.347234 0.608026 0.142306
0.357580 0.607782 0.139986
0.392462 0.607630 0.131930
0.449592 0.606653 0.115633
0.525628 0.606897 0.085054
0.613703 0.609125 0.009827
0.696559 0.613184 0.065705
0.743252 0.577600 0.134585
0.038880 0.044587 0.143648
0.087953 0.014954 0.149569
0.164675 0.000000 0.154726
0.253544 0.000000 0.160708
0.341131 0.000000 0.166690
0.441871 0.000000 0.174716
0.594568 0.000000 0.178683
0.799008 0.000000 0.192660
0.067445 0.081971 0.138552
0.093111 0.081605 0.142275
0.160708 0.070863 0.151614
0.248905 0.064820 0.158785
0.337163 0.071595 0.166140
0.438025 0.042451 0.172610
0.604944 0.000000 0.180148
0.804807 0.000000 0.193973
0.083711 0.131044 0.130709
0.105531 0.133974 0.133913
0.161959 0.148013 0.150698
0.237400 0.150179 0.156405
0.333165 0.153140 0.165896
0.458228 0.149203 0.175509
0.634546 0.127443 0.183627
0.820737 0.111727 0.196811
0.112886 0.186374 0.137972
0.129244 0.189517 0.141176
0.175174 0.203708 0.151644
0.229892 0.197971 0.157382
0.369390 0.245029 0.176577
0.512230 0.260563 0.183902
0.684962 0.271305 0.188571
0.844999 0.283909 0.202609
0.138094 0.256657 0.143954
0.151736 0.259220 0.146151
0.206821 0.267247 0.164950
0.261814 0.264591 0.160281
0.299596 0.247868 0.165591
0.442939 0.294621 0.185946
0.744442 0.423194 0.195987
0.873625 0.431281 0.214084
0.167788 0.333898 0.146212
0.187320 0.335332 0.154238
0.244511 0.340764 0.178134
0.292424 0.337163 0.169528
0.349798 0.330907 0.162112
0.382361 0.307866 0.172305
0.533043 0.351629 0.191836
0.844846 0.504265 0.216953
0.226200 0.439796 0.161929
0.243015 0.441138 0.168612
0.291936 0.444251 0.183627
0.343206 0.441169 0.174075
0.408606 0.436011 0.159152
0.473915 0.430426 0.156802
0.510185 0.400977 0.173373
0.672755 0.440925 0.199985
0.313634 0.614038 0.173922
0.330480 0.614862 0.180331
0.375647 0.615473 0.185885
0.435492 0.613184 0.172488
0.514855 0.612818 0.151614
0.608423 0.613184 0.119600
0.693507 0.615747 0.133333
0.742794 0.580255 0.175784
0.079377 0.046296 0.236362
0.110170 0.039277 0.238712
0.184543 0.000000 0.250095
0.275029 0.000000 0.256870
0.382391 0.000000 0.267491
0.505913 0.000000 0.279911
0.645686 0.000000 0.288579
0.802426 0.000000 0.291356
0.090364 0.095003 0.227024
0.114076 0.092927 0.230350
0.180087 0.081544 0.242985
0.270787 0.040131 0.253361
0.379614 0.000000 0.265293
0.500694 0.000000 0.276585
0.641047 0.000000 0.284703
0.799222 0.000000 0.286076
0.108400 0.153445 0.211521
0.127474 0.155673 0.214969
0.178988 0.158968 0.230503
0.264836 0.150210 0.248753
0.373358 0.143343 0.259983
0.480110 0.132387 0.264439
0.618036 0.066438 0.268467
0.783993 0.000000 0.269139
0.124666 0.205417 0.204715
0.141115 0.207797 0.207218
0.188663 0.218051 0.217960
0.267948 0.243229 0.247623
0.357733 0.241154 0.252018
0.461860 0.237766 0.255253
0.632471 0.232059 0.266667
0.816892 0.239445 0.285008
0.159884 0.258091 0.209262
0.172519 0.261051 0.212161
0.210758 0.272953 0.222171
0.272465 0.298344 0.239384
0.339147 0.294224 0.245640
0.528038 0.364874 0.280400
0.708400 0.393439 0.292851
0.852995 0.410681 0.311162
0.179355 0.336706 0.217807
0.189731 0.338537 0.219059
0.224247 0.348516 0.224063
0.292180 0.366857 0.239750
0.366644 0.363134 0.235477
0.411475 0.341344 0.238621
0.604211 0.410651 0.270909
0.870390 0.549218 0.338537
0.195804 0.446906 0.219883
0.205478 0.448890 0.219059
0.236973 0.456611 0.214481
0.334234 0.466804 0.245304
0.407324 0.460487 0.232395
0.483558 0.451209 0.219883
0.528008 0.422461 0.231022
0.720546 0.483436 0.267765
0.211124 0.622614 0.199527
0.234836 0.623163 0.204807
0.307225 0.625422 0.223026
0.408423 0.628199 0.249760
0.494453 0.626154 0.230961
0.594995 0.623957 0.204257
0.689540 0.622980 0.203799
0.744594 0.587579 0.233494
0.115877 0.071138 0.340337
0.141451 0.067659 0.343236
0.210849 0.033967 0.355627
0.310765 0.000000 0.379339
0.415045 0.000000 0.384466
0.545953 0.000000 0.402502
0.725002 0.000000 0.437842
0.847532 0.000000 0.431861
0.121187 0.109834 0.332372
0.143038 0.107301 0.335058
0.207218 0.096071 0.347997
0.304723 0.037018 0.373144
0.411048 0.000000 0.381384
0.543267 0.000000 0.400153
0.720577 0.000000 0.433326
0.845121 0.000000 0.428260
0.131807 0.174533 0.314305
0.149447 0.174929 0.318456
0.202518 0.172641 0.331762
0.289891 0.161563 0.356207
0.401770 0.135866 0.374090
0.538201 0.085847 0.394629
0.707088 0.000000 0.419379
0.836728 0.000000 0.414679
0.147768 0.232212 0.294530
0.162875 0.233707 0.296696
0.208316 0.239078 0.304936
0.280949 0.249882 0.336522
0.393713 0.244511 0.368414
0.533654 0.231601 0.386816
0.679896 0.200656 0.391577
0.817472 0.164248 0.384527
0.165408 0.286748 0.285252
0.178408 0.288823 0.287419
0.220127 0.297337 0.296330
0.287510 0.316503 0.316838
0.394232 0.355077 0.363653
0.516808 0.349432 0.368627
0.643793 0.337255 0.361334
0.817960 0.360998 0.386358
0.198550 0.345922 0.288792
0.209842 0.348577 0.291356
0.247807 0.358984 0.301549
0.308568 0.380865 0.320348
0.389044 0.420783 0.341894
0.479713 0.414374 0.346563
0.718471 0.518883 0.414649
0.861997 0.558984 0.452552
0.219486 0.454261 0.313207
0.228824 0.456886 0.314183
0.259525 0.466041 0.316716
0.308965 0.482918 0.317052
0.398413 0.507591 0.323247
0.505211 0.497627 0.311254
0.566827 0.466102 0.313878
0.787716 0.557427 0.386145
0.232395 0.629053 0.337346
0.242130 0.630732 0.335515
0.273198 0.636774 0.327184
0.320775 0.645411 0.303319
0.465156 0.653010 0.332708
0.574701 0.646906 0.305364
0.686183 0.639399 0.286351
0.752102 0.604242 0.309728
0.156710 0.087312 0.476234
0.180209 0.082734 0.479438
0.248051 0.055634 0.492714
0.346380 0.000000 0.515282
0.473762 0.000000 0.549493
0.589166 0.000000 0.548455
0.736782 0.000000 0.570275
0.879301 0.000000 0.580957
0.156802 0.123842 0.471443
0.178897 0.120546 0.475044
0.244816 0.105501 0.487953
0.341863 0.040864 0.510826
0.468940 0.000000 0.545556
0.586969 0.000000 0.546807
0.735958 0.000000 0.569055
0.879088 0.000000 0.579461
0.150729 0.191531 0.450111
0.170809 0.190494 0.454139
0.231632 0.184726 0.467445
0.324651 0.169039 0.491615
0.450385 0.124697 0.528435
0.577539 0.000000 0.539086
0.731838 0.000000 0.563043
0.877348 0.000000 0.573175
0.162081 0.260960 0.416327
0.176913 0.261784 0.420996
0.224094 0.263432 0.438178
0.304753 0.261295 0.464240
0.423651 0.250614 0.502556
0.564630 0.224491 0.528832
0.726101 0.183322 0.552514
0.867155 0.177981 0.555810
0.178531 0.327092 0.398993
0.191623 0.328069 0.400824
0.233494 0.331731 0.407935
0.299016 0.339025 0.424079
0.402258 0.355474 0.476295
0.560296 0.356146 0.526360
0.725856 0.347906 0.541619
0.847532 0.349218 0.527733
0.198032 0.389258 0.387488
0.209628 0.390692 0.389044
0.247745 0.397589 0.396582
0.309819 0.412512 0.412848
0.400824 0.440772 0.443427
0.557916 0.501671 0.513054
0.697963 0.495766 0.512230
0.816098 0.498878 0.507591
0.226688 0.466712 0.395331
0.237186 0.468971 0.397253
0.272923 0.478279 0.405066
0.332464 0.495979 0.419348
0.419684 0.524987 0.441901
0.532036 0.573693 0.464820
0.645289 0.558831 0.467720
0.851377 0.680171 0.587671
0.268284 0.634730 0.457649
0.277440 0.636713 0.457801
0.308141 0.643091 0.457130
0.357336 0.653834 0.452613
0.427070 0.669490 0.440955
0.553765 0.685145 0.445533
0.682612 0.670863 0.413397
0.765225 0.636652 0.426001
0.204379 0.111208 0.651148
0.226963 0.106630 0.654780
0.292149 0.082033 0.661677
0.385260 0.000000 0.674159
0.498360 0.000000 0.692836
0.627955 0.000000 0.715724
0.743221 0.000000 0.707668
0.873838 0.000000 0.714931
0.197879 0.140963 0.640192
0.220249 0.137484 0.643885
0.284855 0.120638 0.651637
0.377874 0.069673 0.665187
0.490394 0.000000 0.683864
0.619837 0.000000 0.706935
0.735470 0.000000 0.699397
0.867796 0.000000 0.707942
0.180362 0.212558 0.629480
0.203250 0.210178 0.631708
0.269108 0.201114 0.638941
0.363470 0.181674 0.653498
0.477394 0.138705 0.673121
0.610285 0.000000 0.699153
0.733547 0.000000 0.698268
0.869932 0.000000 0.708125
0.160983 0.295964 0.605737
0.179721 0.293523 0.608118
0.243381 0.287572 0.616571
0.340917 0.280583 0.634516
0.458534 0.264958 0.658137
0.597528 0.237186 0.689235
0.731838 0.199527 0.696956
0.869841 0.176577 0.703792
0.176913 0.372625 0.559594
0.191379 0.370764 0.559075
0.237125 0.368719 0.566857
0.311986 0.368536 0.592401
0.424964 0.366400 0.625788
0.570947 0.363836 0.663569
0.721187 0.353857 0.684627
0.864347 0.366552 0.692256
0.190341 0.452979 0.543572
0.204044 0.453101 0.544610
0.246952 0.453712 0.548821
0.312871 0.456092 0.558862
0.404303 0.460517 0.576471
0.556390 0.494148 0.635248
0.725246 0.520684 0.682307
0.859342 0.540795 0.685725
0.213169 0.531304 0.532036
0.225620 0.533257 0.534234
0.265019 0.537041 0.538567
0.327886 0.545403 0.547967
0.417823 0.559350 0.563043
0.547234 0.589807 0.593561
0.726131 0.662745 0.664698
0.830686 0.662470 0.660273
0.248081 0.643061 0.554376
0.259983 0.644678 0.555596
0.303014 0.654414 0.563500
0.371618 0.665522 0.571801
0.466773 0.679408 0.582940
0.585016 0.697658 0.599725
0.697108 0.726101 0.610925
0.794186 0.705287 0.609949
0.256809 0.166903 0.781552
0.274083 0.163851 0.782956
0.326055 0.148348 0.784695
0.405127 0.113741 0.790463
0.500725 0.000000 0.798428
0.608362 0.000000 0.808743
0.726406 0.000000 0.819486
0.838987 0.000000 0.814206
0.252781 0.187594 0.777035
0.270054 0.184878 0.778500
0.322393 0.171633 0.780972
0.401282 0.143221 0.786465
0.497200 0.072602 0.794858
0.605280 0.000000 0.805600
0.723720 0.000000 0.816739
0.836790 0.000000 0.811521
0.241093 0.246708 0.768521
0.258518 0.244663 0.769680
0.310796 0.234806 0.771664
0.393011 0.219791 0.780240
0.489662 0.187198 0.788815
0.598413 0.120485 0.799741
0.719783 0.000000 0.813565
0.835080 0.000000 0.809171
0.220737 0.324926 0.756069
0.240024 0.324193 0.757687
0.295018 0.318242 0.760830
0.378363 0.308995 0.768582
0.478187 0.292393 0.779263
0.590143 0.264927 0.792508
0.715572 0.221225 0.809537
0.834928 0.183291 0.807675
0.220737 0.413764 0.731258
0.237003 0.413336 0.733455
0.283757 0.408820 0.738369
0.355993 0.399756 0.749660
0.459785 0.392645 0.762020
0.577264 0.382879 0.778317
0.709468 0.373907 0.799313
0.835447 0.370642 0.804379
0.226749 0.500725 0.709590
0.237980 0.499123 0.709010
0.276585 0.494087 0.708766
0.339971 0.486885 0.711513
0.442756 0.491524 0.731228
0.572961 0.505547 0.758694
0.715267 0.529442 0.788113
0.842405 0.551049 0.803677
0.251774 0.596429 0.703517
0.262669 0.595789 0.703334
0.299382 0.594232 0.703670
0.362646 0.593774 0.706661
0.449897 0.595483 0.712490
0.564752 0.605524 0.723415
0.719905 0.653803 0.764797
0.844053 0.684749 0.795468
0.300023 0.694728 0.703151
0.309422 0.694545 0.702968
0.343877 0.695216 0.703548
0.404883 0.698177 0.706172
0.488655 0.703334 0.710323
0.593957 0.713130 0.717342
0.716182 0.734951 0.733913
0.847349 0.793149 0.786221
