data/fiter_cube/95423152/1023251/file.cube
# Created by Adobe Lightroom plugin Export LUT (1.17.0)
# www.johnrellis.com/lightroom/exportlut.htm
# Preset: 黑暗巧克力情绪人像_10 云集
# Color profile: C:\Program Files (x86)\Common Files\Adobe\Color\Profiles\Recommended\AdobeRGB1998.icc
LUT_3D_SIZE 32
DOMAIN_MIN 0.0 0.0 0.0
DOMAIN_MAX 1.0 1.0 1.0
0.000000 0.000000 0.000000
0.000000 0.000000 0.000000
0.000000 0.000000 0.000000
0.020020 0.002441 0.003601
0.062470 0.005280 0.011749
0.082826 0.005341 0.019867
0.101595 0.003174 0.025635
0.121096 0.000855 0.028656
0.142031 0.000000 0.030915
0.164187 0.000000 0.030243
0.187381 0.000000 0.029816
0.211246 0.000000 0.027100
0.235935 0.000000 0.023316
0.261631 0.000000 0.022278
0.287144 0.000000 0.029023
0.313787 0.000000 0.035279
0.341711 0.000000 0.040925
0.370764 0.000000 0.048524
0.400916 0.000000 0.053956
0.432929 0.000000 0.059297
0.468208 0.000000 0.061341
0.507225 0.000000 0.063722
0.549645 0.000000 0.065217
0.594903 0.000000 0.066041
0.642420 0.000000 0.066773
0.691402 0.000000 0.068391
0.738613 0.000000 0.070436
0.783139 0.000000 0.074830
0.824338 0.000000 0.082155
0.861692 0.000000 0.092226
0.895323 0.000000 0.105531
0.925444 0.000000 0.121553
0.000000 0.000000 0.000000
0.000000 0.000000 0.000000
0.000000 0.000000 0.000000
0.022522 0.001984 0.004669
0.063447 0.004822 0.012818
0.083162 0.006317 0.019745
0.102022 0.008759 0.025147
0.122133 0.006958 0.028016
0.143038 0.005249 0.030152
0.165408 0.000000 0.029450
0.188663 0.000000 0.028687
0.212619 0.000000 0.026032
0.237522 0.000000 0.022034
0.263035 0.000000 0.022156
0.288731 0.000000 0.028626
0.315496 0.000000 0.035798
0.343542 0.000000 0.041291
0.372747 0.000000 0.048585
0.402930 0.000000 0.053956
0.435157 0.000000 0.058747
0.470405 0.000000 0.061646
0.509422 0.000000 0.063874
0.552117 0.000000 0.064759
0.597131 0.000000 0.066407
0.644831 0.000000 0.066560
0.693751 0.000000 0.067689
0.740597 0.000000 0.070130
0.784817 0.000000 0.074952
0.825711 0.000000 0.082643
0.862852 0.000000 0.092836
0.896208 0.000000 0.105959
0.926207 0.000000 0.122255
0.000000 0.000000 0.000000
0.000000 0.000000 0.000000
0.000000 0.000000 0.000000
0.026429 0.002502 0.004517
0.064271 0.009186 0.012390
0.084382 0.013855 0.019043
0.103212 0.017273 0.024292
0.123293 0.016449 0.027070
0.144381 0.015503 0.029053
0.166659 0.011170 0.028260
0.190036 0.007355 0.027466
0.214145 0.002625 0.024567
0.239048 0.000000 0.020417
0.264378 0.000000 0.021546
0.289982 0.000000 0.029084
0.317021 0.000000 0.035096
0.345159 0.000000 0.041413
0.374487 0.000000 0.047761
0.404669 0.000000 0.053834
0.436835 0.000000 0.059052
0.472297 0.000000 0.061341
0.511528 0.000000 0.063447
0.553887 0.000000 0.065187
0.599176 0.000000 0.066224
0.646815 0.000000 0.066590
0.695521 0.000000 0.067689
0.742123 0.000000 0.070161
0.786069 0.000000 0.075013
0.826780 0.000000 0.082399
0.863676 0.000000 0.092958
0.896910 0.000000 0.106050
0.926757 0.000000 0.122347
0.011261 0.021363 0.006622
0.011078 0.022553 0.006531
0.012116 0.024750 0.006317
0.034089 0.025757 0.007813
0.064729 0.030152 0.010651
0.086061 0.036347 0.017029
0.105135 0.038117 0.022339
0.125521 0.039002 0.024872
0.146822 0.038605 0.025666
0.169131 0.037232 0.025605
0.192538 0.035126 0.023468
0.216892 0.031708 0.020325
0.241825 0.030274 0.018006
0.266606 0.027161 0.022400
0.292668 0.022187 0.028626
0.319768 0.017304 0.034272
0.347845 0.010407 0.041535
0.377264 0.000275 0.048524
0.407721 0.000000 0.054170
0.440162 0.000000 0.059083
0.475898 0.000000 0.061585
0.515251 0.000000 0.063447
0.557641 0.000000 0.064973
0.602655 0.000000 0.065522
0.649866 0.000000 0.066285
0.697993 0.000000 0.066957
0.744137 0.000000 0.069398
0.787594 0.000000 0.074739
0.828061 0.000000 0.081758
0.864652 0.000000 0.092500
0.897673 0.000000 0.106111
0.927428 0.000000 0.122408
0.030182 0.055055 0.016144
0.031159 0.055787 0.017121
0.032349 0.056519 0.016999
0.052674 0.058198 0.016236
0.066102 0.053925 0.018158
0.082338 0.054597 0.022187
0.107668 0.064057 0.018921
0.129030 0.065644 0.020966
0.150637 0.065980 0.021454
0.173251 0.066285 0.021027
0.196719 0.066011 0.018616
0.221164 0.066011 0.014984
0.245335 0.065217 0.017151
0.270237 0.064454 0.022370
0.296422 0.063355 0.027100
0.323491 0.061921 0.033570
0.351720 0.059876 0.041505
0.381201 0.055787 0.048096
0.411566 0.047425 0.053651
0.444343 0.035248 0.058350
0.480110 0.016815 0.060761
0.519829 0.000000 0.062684
0.562249 0.000000 0.063935
0.607080 0.000000 0.064668
0.654047 0.000000 0.065187
0.701808 0.000000 0.066102
0.747341 0.000000 0.068513
0.790311 0.000000 0.073915
0.830259 0.000000 0.081056
0.866392 0.000000 0.092226
0.899046 0.000000 0.105959
0.928405 0.000000 0.122713
0.047700 0.073365 0.024994
0.048707 0.073304 0.024964
0.050507 0.073945 0.024750
0.063355 0.073884 0.024170
0.077089 0.074067 0.022004
0.084688 0.069856 0.026673
0.097017 0.067750 0.030213
0.124971 0.076478 0.024384
0.155184 0.085908 0.015351
0.178134 0.087007 0.013336
0.201755 0.087678 0.011536
0.225376 0.087739 0.013367
0.249424 0.087556 0.016327
0.274693 0.087129 0.021210
0.300908 0.087251 0.026551
0.328099 0.086793 0.033692
0.356390 0.086244 0.040009
0.385962 0.085145 0.046479
0.416266 0.083284 0.052491
0.449104 0.080171 0.056855
0.485176 0.075685 0.060060
0.524834 0.069245 0.061250
0.557214 0.059083 0.061952
0.602045 0.035492 0.062165
0.648920 0.000488 0.062684
0.697108 0.000000 0.062989
0.743191 0.000000 0.064942
0.786648 0.000000 0.070436
0.827054 0.000000 0.077790
0.863706 0.000000 0.088411
0.896788 0.000000 0.102663
0.926574 0.046571 0.119478
0.059510 0.087251 0.030396
0.059449 0.087587 0.030304
0.062562 0.087861 0.030030
0.071382 0.087770 0.028351
0.083162 0.088289 0.026093
0.094789 0.087526 0.027314
0.100801 0.082155 0.031495
0.110780 0.077699 0.036896
0.139956 0.087739 0.028443
0.172183 0.098878 0.018341
0.204440 0.108248 0.008911
0.227787 0.108492 0.011719
0.251987 0.109102 0.015320
0.277409 0.109285 0.018738
0.303899 0.109560 0.024872
0.331518 0.110414 0.031159
0.360204 0.110231 0.038087
0.389746 0.110109 0.044099
0.420111 0.109163 0.050385
0.452857 0.108125 0.054261
0.488289 0.106325 0.058534
0.527123 0.103639 0.059297
0.568292 0.099672 0.060304
0.611933 0.094820 0.059937
0.657527 0.088685 0.060334
0.704189 0.081361 0.060731
0.749111 0.075074 0.063111
0.791562 0.071168 0.067994
0.830900 0.070710 0.076997
0.866819 0.078645 0.088289
0.899229 0.091310 0.102449
0.928466 0.109926 0.119631
0.067201 0.102449 0.034455
0.069551 0.102480 0.034272
0.073030 0.102876 0.033845
0.080476 0.103059 0.032074
0.091310 0.103151 0.028809
0.103639 0.103304 0.026276
0.114137 0.101930 0.029786
0.118593 0.095613 0.037903
0.125460 0.089021 0.048341
0.156558 0.100740 0.042603
0.190768 0.113100 0.032197
0.227604 0.125734 0.018250
0.258427 0.131991 0.012360
0.284062 0.132509 0.016297
0.310979 0.133547 0.021485
0.338933 0.134432 0.028229
0.367895 0.135042 0.034241
0.397406 0.135286 0.041840
0.428199 0.135531 0.046967
0.461158 0.135195 0.051789
0.497200 0.135195 0.054749
0.536187 0.134035 0.055970
0.577264 0.132967 0.056703
0.620813 0.130983 0.056580
0.666224 0.128603 0.056245
0.711971 0.126650 0.056336
0.755734 0.125124 0.060151
0.797116 0.124269 0.066224
0.835386 0.125856 0.075196
0.870298 0.130465 0.087312
0.901884 0.138857 0.102235
0.930510 0.151308 0.119753
0.078065 0.117983 0.041321
0.080446 0.118166 0.041016
0.083406 0.118288 0.040681
0.089754 0.118441 0.040009
0.099031 0.118776 0.037751
0.110872 0.118837 0.035187
0.122499 0.118441 0.035920
0.133120 0.117342 0.040131
0.136416 0.109834 0.050294
0.142092 0.102022 0.058900
0.172946 0.113344 0.055207
0.208530 0.126467 0.046296
0.247379 0.140627 0.032288
0.290623 0.156344 0.013092
0.318791 0.158419 0.017700
0.346990 0.159670 0.024720
0.376104 0.160494 0.029999
0.406195 0.161532 0.036225
0.437079 0.162020 0.042817
0.470680 0.162844 0.046418
0.507103 0.163424 0.049287
0.546166 0.164187 0.049866
0.587335 0.164279 0.050294
0.630610 0.164187 0.049042
0.675563 0.164279 0.048280
0.720089 0.164034 0.049866
0.762661 0.164157 0.055848
0.802914 0.165042 0.062959
0.840055 0.167391 0.073243
0.873991 0.171206 0.086244
0.904784 0.177554 0.101778
0.932677 0.187228 0.119722
0.088197 0.134066 0.051637
0.090181 0.134218 0.051423
0.092836 0.134340 0.051179
0.098817 0.134432 0.049836
0.107210 0.134524 0.048219
0.118013 0.134768 0.047028
0.130648 0.135103 0.043915
0.141573 0.133974 0.046937
0.152224 0.132906 0.050752
0.154788 0.124361 0.058961
0.159365 0.115572 0.064515
0.188937 0.125277 0.063966
0.226444 0.140078 0.059327
0.267674 0.155734 0.049775
0.312993 0.172824 0.032441
0.356115 0.185946 0.017731
0.385473 0.187106 0.023102
0.415595 0.188266 0.029694
0.446876 0.189456 0.034821
0.480842 0.190646 0.039277
0.518059 0.192386 0.040558
0.557275 0.193973 0.041779
0.598810 0.195499 0.039918
0.641901 0.196902 0.039460
0.686519 0.198428 0.036591
0.729702 0.199374 0.039582
0.770901 0.200809 0.046357
0.809506 0.202029 0.059754
0.845365 0.204501 0.070558
0.878019 0.207919 0.084657
0.907744 0.213199 0.100771
0.934844 0.220554 0.119417
0.097963 0.150637 0.059449
0.099794 0.150607 0.059388
0.102174 0.150698 0.058808
0.107515 0.150790 0.058473
0.115389 0.150851 0.056825
0.125368 0.151034 0.055634
0.137453 0.151156 0.052522
0.150393 0.150912 0.050874
0.160769 0.149569 0.054810
0.171328 0.148043 0.059083
0.173068 0.138735 0.064485
0.176547 0.129122 0.069886
0.204410 0.137179 0.071260
0.243595 0.153140 0.067659
0.287022 0.170413 0.063478
0.334783 0.188815 0.053498
0.387915 0.209079 0.027344
0.427039 0.216953 0.020600
0.458930 0.218387 0.025299
0.493568 0.220310 0.027619
0.530663 0.222538 0.030579
0.569970 0.224826 0.027680
0.611200 0.227176 0.027283
0.654139 0.229862 0.022309
0.697475 0.231937 0.022339
0.739376 0.233799 0.024842
0.779080 0.235508 0.034455
0.816403 0.237400 0.052003
0.850828 0.239597 0.067720
0.882353 0.242741 0.082704
0.911162 0.247135 0.099763
0.937346 0.253330 0.119417
0.107790 0.167147 0.064332
0.109438 0.167147 0.064240
0.111757 0.167178 0.064546
0.116640 0.167117 0.063874
0.123842 0.167178 0.062989
0.133364 0.167178 0.061982
0.144259 0.167178 0.060792
0.157076 0.167178 0.058930
0.169253 0.166354 0.058991
0.179965 0.165042 0.060975
0.189639 0.162570 0.064149
0.191165 0.152865 0.070161
0.191165 0.140658 0.074617
0.216403 0.146731 0.077485
0.256809 0.163973 0.075837
0.301549 0.182162 0.071839
0.351049 0.201877 0.065187
0.405951 0.223117 0.050080
0.465614 0.245762 0.011505
0.500786 0.248447 0.012940
0.538262 0.251316 0.014069
0.577844 0.254612 0.010986
0.619135 0.257755 0.008606
0.661982 0.261143 0.006165
0.704829 0.263951 0.003784
0.745785 0.266545 0.006836
0.784451 0.268528 0.018860
0.820859 0.270817 0.036103
0.854398 0.272953 0.061677
0.885161 0.275578 0.079042
0.913237 0.279240 0.097383
0.938872 0.284428 0.117708
0.117189 0.182376 0.069764
0.118685 0.182345 0.069306
0.120821 0.182528 0.069154
0.125216 0.182589 0.068910
0.132052 0.182742 0.068086
0.140719 0.182773 0.067170
0.151400 0.182742 0.065705
0.163241 0.182650 0.063996
0.176272 0.182345 0.062501
0.187533 0.181125 0.063539
0.198032 0.179477 0.066255
0.206485 0.175967 0.069459
0.207858 0.165896 0.075227
0.209262 0.154879 0.080537
0.231296 0.158267 0.085115
0.273411 0.176730 0.084138
0.320409 0.196414 0.080873
0.372381 0.217563 0.075044
0.430243 0.240574 0.064637
0.496193 0.266514 0.031891
0.554528 0.284947 0.000000
0.594049 0.288487 0.000000
0.635096 0.292180 0.000000
0.677272 0.295995 0.000000
0.718288 0.298985 0.000000
0.757412 0.301427 0.000000
0.794369 0.303410 0.000458
0.828977 0.305150 0.024170
0.860960 0.306920 0.057679
0.890257 0.309117 0.077333
0.917144 0.311925 0.097322
0.941802 0.316075 0.118013
0.127535 0.199283 0.075593
0.129122 0.199252 0.075166
0.130831 0.199313 0.075044
0.135103 0.199344 0.074464
0.141360 0.199374 0.074098
0.149569 0.199374 0.073274
0.159548 0.199435 0.071901
0.170626 0.199161 0.070100
0.183078 0.198764 0.068421
0.196262 0.197879 0.066712
0.206577 0.196445 0.069245
0.217166 0.194736 0.071656
0.224674 0.190372 0.075257
0.226017 0.180179 0.081056
0.227573 0.169223 0.086671
0.245518 0.169192 0.092134
0.289647 0.189090 0.091615
0.338628 0.210056 0.089174
0.393652 0.233097 0.084230
0.456001 0.258610 0.074159
0.526940 0.287266 0.051820
0.601892 0.317327 0.000000
0.651759 0.328130 0.000000
0.692683 0.331945 0.000000
0.731899 0.334874 0.000000
0.769131 0.336858 0.000000
0.804196 0.338598 0.000000
0.837003 0.339788 0.009705
0.867369 0.341100 0.049409
0.895323 0.342443 0.075074
0.921050 0.344518 0.095918
0.944701 0.347723 0.117739
0.138125 0.216068 0.081361
0.139345 0.216068 0.081300
0.141360 0.215976 0.081239
0.145266 0.216007 0.080720
0.151064 0.216007 0.080079
0.158633 0.216129 0.079286
0.167849 0.215885 0.078096
0.178470 0.215610 0.076478
0.190219 0.215061 0.075074
0.202976 0.214450 0.072724
0.215183 0.213352 0.072297
0.225589 0.211521 0.074281
0.236210 0.209873 0.077089
0.242802 0.204685 0.081025
0.244114 0.194553 0.086824
0.245823 0.183536 0.092500
0.258946 0.179568 0.098787
0.304936 0.200687 0.098909
0.356664 0.223484 0.096864
0.415503 0.248722 0.092256
0.483223 0.277195 0.082612
0.558618 0.308507 0.063081
0.636316 0.340551 0.000000
0.708644 0.369421 0.000000
0.745663 0.371466 0.000000
0.780880 0.372961 0.000000
0.813962 0.373968 0.000000
0.844877 0.374456 0.000000
0.873533 0.374884 0.034791
0.899992 0.375372 0.071473
0.924437 0.376593 0.094514
0.947143 0.378576 0.117220
0.148775 0.232670 0.087190
0.149905 0.232670 0.086854
0.151553 0.232700 0.086763
0.155184 0.232517 0.086336
0.160555 0.232547 0.085756
0.167666 0.232456 0.085084
0.176059 0.232181 0.083742
0.186130 0.231815 0.082246
0.197360 0.231327 0.080659
0.209537 0.230594 0.078248
0.222629 0.229770 0.076020
0.233951 0.228275 0.077028
0.244480 0.226596 0.079438
0.255344 0.225040 0.081910
0.261112 0.219120 0.086458
0.262577 0.208774 0.092378
0.264225 0.197848 0.098024
0.275242 0.192233 0.104585
0.320562 0.212436 0.105745
0.375341 0.237186 0.104341
0.438849 0.265080 0.099825
0.511589 0.296391 0.089693
0.590448 0.329992 0.071748
0.670130 0.363745 0.018219
0.742214 0.394202 0.000000
0.792111 0.409674 0.000000
0.823270 0.409583 0.000000
0.852476 0.409369 0.000000
0.879545 0.408911 0.022278
0.904784 0.408637 0.067414
0.928161 0.408850 0.093019
0.949981 0.410010 0.117372
0.159121 0.249668 0.092653
0.160342 0.249577 0.092622
0.161868 0.249577 0.092287
0.165225 0.249516 0.091829
0.170413 0.249454 0.091310
0.177127 0.249180 0.090455
0.185122 0.248997 0.089204
0.194553 0.248508 0.087861
0.205264 0.247868 0.086152
0.216800 0.247196 0.084291
0.229313 0.246372 0.081910
0.242557 0.245304 0.079438
0.253086 0.243595 0.081727
0.263798 0.242039 0.084474
0.274662 0.240238 0.087037
0.279545 0.233494 0.091951
0.281163 0.223270 0.097810
0.282780 0.212161 0.103365
0.293034 0.205997 0.109682
0.336309 0.224125 0.112123
0.395361 0.251438 0.110842
0.463386 0.281987 0.106355
0.541588 0.316503 0.095918
0.623713 0.352361 0.078645
0.703731 0.387152 0.041108
0.771908 0.416693 0.000000
0.827848 0.440742 0.000000
0.860410 0.444953 0.000000
0.885924 0.443427 0.008942
0.909758 0.442145 0.065644
0.932006 0.441382 0.092470
0.952819 0.441382 0.117678
0.169528 0.266545 0.097871
0.170687 0.266361 0.097627
0.170840 0.264286 0.096925
0.173983 0.264256 0.096529
0.178683 0.264164 0.096040
0.184909 0.264012 0.094942
0.192660 0.263767 0.094026
0.201633 0.263462 0.092775
0.211917 0.262943 0.091096
0.223026 0.262333 0.089357
0.235172 0.261570 0.086885
0.248051 0.260563 0.084596
0.260563 0.259403 0.083711
0.271305 0.257969 0.086000
0.282261 0.256474 0.088472
0.293431 0.254917 0.091035
0.297490 0.247501 0.096315
0.299382 0.237186 0.102235
0.301091 0.226139 0.108095
0.310796 0.219455 0.114473
0.351781 0.235355 0.117769
0.415137 0.265263 0.116884
0.488869 0.299168 0.111940
0.571130 0.336370 0.101747
0.656245 0.374487 0.084779
0.734401 0.409522 0.062379
0.799496 0.438483 0.018280
0.851774 0.461555 0.000000
0.892210 0.478279 0.000000
0.914794 0.475990 0.063416
0.935912 0.474128 0.092653
0.955810 0.473213 0.118685
0.179873 0.283513 0.102876
0.180697 0.283299 0.102663
0.181979 0.282933 0.102235
0.184695 0.282597 0.101930
0.189181 0.282322 0.101045
0.195132 0.282078 0.100313
0.202457 0.281743 0.099214
0.211093 0.281376 0.097780
0.220951 0.280980 0.096498
0.231662 0.280400 0.094575
0.243534 0.279576 0.092317
0.256107 0.278630 0.089845
0.269474 0.277592 0.086915
0.281315 0.276432 0.087495
0.292332 0.274876 0.089906
0.303685 0.273503 0.092653
0.315068 0.272068 0.095216
0.318334 0.263584 0.100923
0.320256 0.253239 0.106966
0.322148 0.242161 0.112886
0.331182 0.234592 0.119051
0.369482 0.247929 0.123384
0.437690 0.280644 0.122560
0.517632 0.318334 0.117220
0.603937 0.358221 0.107027
0.690730 0.398230 0.091310
0.765682 0.432563 0.075685
0.826474 0.460365 0.064576
0.874479 0.482246 0.063508
0.912749 0.499519 0.073457
0.939788 0.507073 0.092744
0.958740 0.505089 0.120516
0.191135 0.302770 0.107454
0.191928 0.302434 0.107301
0.193088 0.302190 0.107088
0.195773 0.301854 0.106569
0.200076 0.301488 0.106203
0.205844 0.301274 0.105043
0.212955 0.300938 0.104250
0.221225 0.300603 0.102663
0.230808 0.300114 0.101198
0.241337 0.299474 0.099397
0.252873 0.298680 0.097017
0.265202 0.297917 0.094636
0.278325 0.296849 0.091646
0.292241 0.295811 0.088624
0.303471 0.294438 0.090883
0.314946 0.293126 0.093538
0.326604 0.291814 0.096254
0.338323 0.290318 0.098878
0.340764 0.280919 0.105043
0.342687 0.270298 0.111269
0.344640 0.258854 0.117372
0.352911 0.250675 0.123507
0.388403 0.260868 0.128481
0.462074 0.297124 0.127657
0.547875 0.338231 0.122316
0.638544 0.381262 0.111940
0.724758 0.422095 0.099336
0.795926 0.455726 0.089784
0.852201 0.482307 0.088991
0.896208 0.502983 0.096254
0.931212 0.519493 0.109712
0.959564 0.533135 0.126131
0.202945 0.323461 0.111971
0.203830 0.323064 0.111635
0.204929 0.322759 0.111452
0.207553 0.322515 0.110933
0.211612 0.322118 0.110414
0.217319 0.321874 0.109499
0.224155 0.321569 0.108278
0.232242 0.321263 0.107179
0.241672 0.320806 0.105562
0.252049 0.320134 0.103853
0.263401 0.319493 0.101259
0.275731 0.318639 0.098787
0.288609 0.317693 0.096162
0.302312 0.316625 0.092805
0.315648 0.315496 0.091432
0.327367 0.314214 0.093721
0.339178 0.312718 0.096223
0.351141 0.311254 0.098756
0.362432 0.309300 0.101900
0.364294 0.298985 0.108370
0.366278 0.288060 0.114626
0.368261 0.276371 0.120943
0.375463 0.267094 0.127291
0.407568 0.273991 0.133059
0.487587 0.313970 0.132052
0.578302 0.358465 0.126375
0.672633 0.404303 0.116548
0.755917 0.444892 0.107637
0.823026 0.477577 0.104768
0.875059 0.502953 0.110750
0.915801 0.523003 0.123507
0.948302 0.539452 0.141421
0.214847 0.344823 0.115816
0.215763 0.344640 0.115419
0.216892 0.344457 0.115206
0.219516 0.344274 0.114900
0.223636 0.344060 0.114321
0.229221 0.343877 0.113222
0.236149 0.343633 0.112215
0.244144 0.343206 0.110964
0.253239 0.342748 0.109194
0.263584 0.342077 0.107301
0.274723 0.341405 0.105074
0.286809 0.340551 0.102449
0.299809 0.339635 0.099611
0.313451 0.338567 0.096376
0.327794 0.337560 0.092805
0.340673 0.336248 0.093050
0.352789 0.335058 0.095369
0.365057 0.333654 0.097902
0.377478 0.332341 0.100710
0.388251 0.329503 0.104067
0.390509 0.319127 0.111177
0.392676 0.307958 0.117739
0.395117 0.296117 0.124422
0.401526 0.285801 0.130922
0.429877 0.288945 0.137667
0.517601 0.333593 0.136416
0.614496 0.382147 0.130800
0.710292 0.430182 0.122530
0.789670 0.470069 0.119234
0.851560 0.501305 0.123507
0.899199 0.525689 0.136751
0.936248 0.545098 0.155032
0.228580 0.369604 0.119173
0.229343 0.369390 0.119020
0.230472 0.369268 0.118776
0.233188 0.369024 0.118318
0.237125 0.368811 0.117739
0.242618 0.368658 0.116854
0.249332 0.368444 0.115694
0.257298 0.368109 0.114229
0.266575 0.367651 0.112886
0.276799 0.367041 0.110597
0.288090 0.366369 0.108400
0.300206 0.365576 0.105806
0.313237 0.364691 0.102602
0.327031 0.363653 0.099367
0.341497 0.362554 0.095399
0.356542 0.361364 0.091310
0.368994 0.360143 0.093385
0.381628 0.358892 0.096071
0.394446 0.357580 0.098817
0.407477 0.356268 0.101625
0.417548 0.352514 0.105806
0.420020 0.341741 0.113130
0.422461 0.330297 0.120211
0.425238 0.318029 0.127230
0.431434 0.307103 0.134371
0.462318 0.310857 0.141512
0.552605 0.356268 0.140871
0.655634 0.409277 0.135470
0.749416 0.457710 0.130983
0.823606 0.496498 0.134524
0.879973 0.526452 0.147677
0.922271 0.549248 0.166201
0.242710 0.396216 0.121920
0.243534 0.395941 0.121584
0.244602 0.395789 0.121370
0.247196 0.395636 0.120851
0.251347 0.395575 0.120241
0.256779 0.395453 0.119356
0.263706 0.395270 0.118166
0.271855 0.395148 0.116823
0.281163 0.394812 0.115023
0.291630 0.394415 0.113100
0.303136 0.393896 0.110628
0.315343 0.393317 0.107973
0.328649 0.392554 0.104707
0.342779 0.391699 0.101167
0.357580 0.390814 0.097078
0.373175 0.389807 0.092378
0.388251 0.388739 0.089570
0.401526 0.387854 0.092348
0.415045 0.386755 0.095216
0.428595 0.385504 0.097993
0.442329 0.384314 0.100801
0.451911 0.379461 0.105928
0.454841 0.368475 0.113954
0.458045 0.356817 0.121981
0.461555 0.344335 0.129488
0.465858 0.331334 0.137057
0.502342 0.337835 0.144442
0.592126 0.381964 0.144900
0.699550 0.438849 0.141390
0.788907 0.486763 0.143313
0.856352 0.523674 0.155306
0.905821 0.551293 0.174411
0.259342 0.427893 0.123903
0.260197 0.427588 0.123568
0.261357 0.427497 0.123537
0.263981 0.427314 0.122866
0.268193 0.427192 0.122255
0.273686 0.427100 0.121126
0.280705 0.427008 0.119905
0.288884 0.426856 0.118349
0.298344 0.426581 0.116518
0.308995 0.426184 0.114351
0.320562 0.425666 0.111849
0.333257 0.425025 0.108949
0.346777 0.424384 0.105348
0.361212 0.423590 0.101472
0.376410 0.422858 0.097200
0.392340 0.421973 0.092012
0.408972 0.421027 0.086244
0.424079 0.420081 0.085603
0.438178 0.419196 0.088441
0.452674 0.418219 0.091341
0.467262 0.417243 0.094545
0.482185 0.416358 0.097688
0.491554 0.410651 0.103914
0.495247 0.399420 0.113069
0.499306 0.387549 0.122011
0.503807 0.374945 0.130587
0.508568 0.361273 0.138827
0.549310 0.369482 0.147158
0.637964 0.411933 0.149905
0.745266 0.470741 0.150576
0.826291 0.516014 0.160403
0.885832 0.550256 0.179843
0.278019 0.463783 0.124849
0.278843 0.463661 0.124636
0.280003 0.463569 0.124422
0.282811 0.463539 0.123842
0.287053 0.463569 0.123354
0.292790 0.463539 0.122194
0.299962 0.463478 0.120882
0.308537 0.463386 0.119081
0.318212 0.463142 0.117159
0.329168 0.462867 0.114656
0.341161 0.462470 0.111788
0.354284 0.461952 0.108278
0.368261 0.461311 0.104524
0.383276 0.460761 0.100343
0.399084 0.460121 0.095247
0.415625 0.459419 0.089601
0.433021 0.458717 0.082856
0.451057 0.457710 0.074617
0.466194 0.457252 0.077607
0.481666 0.456611 0.080415
0.497292 0.455970 0.084108
0.513268 0.455360 0.087404
0.529717 0.454871 0.091066
0.539086 0.448402 0.099519
0.543847 0.436957 0.110323
0.549096 0.424872 0.120760
0.554803 0.411994 0.130617
0.561028 0.398108 0.140200
0.605890 0.408240 0.150149
0.690944 0.447425 0.156954
0.790036 0.503807 0.164706
0.862638 0.546715 0.184665
0.299626 0.505486 0.124971
0.300450 0.505364 0.124941
0.301793 0.505272 0.124514
0.304570 0.505211 0.124147
0.308904 0.505150 0.123262
0.314855 0.505058 0.121889
0.322026 0.504753 0.120455
0.330663 0.504387 0.118502
0.340490 0.503899 0.116213
0.351476 0.503380 0.113527
0.363622 0.502647 0.110475
0.376989 0.501946 0.106447
0.391333 0.501213 0.102052
0.406653 0.500572 0.097139
0.423011 0.499916 0.091341
0.440314 0.499458 0.084657
0.458503 0.498939 0.076204
0.477333 0.498360 0.065705
0.495705 0.497902 0.058839
0.512139 0.497719 0.062806
0.528893 0.497536 0.066651
0.546258 0.497505 0.070893
0.563989 0.497627 0.075441
0.582300 0.497993 0.079438
0.591821 0.490547 0.091615
0.598108 0.479286 0.105348
0.605005 0.467353 0.117800
0.612604 0.454536 0.129824
0.619684 0.439918 0.141299
0.665278 0.449805 0.153140
0.741146 0.482673 0.167300
0.832151 0.537255 0.185672
0.322850 0.550286 0.124300
0.323827 0.550225 0.123873
0.325139 0.550225 0.123781
0.328283 0.550256 0.122927
0.332799 0.550408 0.122072
0.338903 0.550439 0.120760
0.346441 0.550469 0.119081
0.355444 0.550530 0.116976
0.365820 0.550317 0.114168
0.377600 0.550134 0.111299
0.390600 0.549859 0.107301
0.404730 0.549554 0.103151
0.419928 0.549371 0.097963
0.436286 0.549157 0.092164
