data/fiter_cube/95423152/1023251/file.cube
# Created by Adobe Lightroom plugin Export LUT (1.17.0)
# www.johnrellis.com/lightroom/exportlut.htm
# Preset: 黑暗巧克力情绪人像_10 云集
# Color profile: C:\Program Files (x86)\Common Files\Adobe\Color\Profiles\Recommended\AdobeRGB1998.icc
LUT_3D_SIZE 5
DOMAIN_MIN 0.000000 0.000000 0.000000
DOMAIN_MAX 0.903226 0.903226 0.903226
0.000000 0.000000 0.000000
0.121096 0.000855 0.028656
0.287144 0.000000 0.029023
0.507225 0.000000 0.063722
0.824338 0.000000 0.082155
0.067201 0.102449 0.034455
0.118593 0.095613 0.037903
0.310979 0.133547 0.021485
0.536187 0.134035 0.055970
0.835386 0.125856 0.075196
0.138125 0.216068 0.081361
0.178470 0.215610 0.076478
0.244114 0.194553 0.086824
0.558618 0.308507 0.063081
0.873533 0.374884 0.034791
0.214847 0.344823 0.115816
0.244144 0.343206 0.110964
0.327794 0.337560 0.092805
0.392676 0.307958 0.117739
0.789670 0.470069 0.119234
0.351415 0.603967 0.123781
0.385199 0.604242 0.115511
0.490944 0.607538 0.077638
0.635981 0.609979 0.000000
0.741604 0.575311 0.119478
0.031434 0.045686 0.122988
0.141360 0.000000 0.132845
0.287053 0.000000 0.142123
0.471473 0.000000 0.155581
0.807736 0.000000 0.175051
0.073976 0.113588 0.113130
0.138094 0.126528 0.128664
0.280797 0.132937 0.142916
0.500206 0.122316 0.159304
0.821988 0.062257 0.176486
0.121157 0.221469 0.125795
0.179416 0.230167 0.144137
0.259220 0.215488 0.146151
0.600183 0.341314 0.165621
0.862730 0.362066 0.183017
0.193027 0.352819 0.145693
0.243381 0.356115 0.165347
0.329107 0.349493 0.149142
0.402899 0.320897 0.160311
0.808377 0.489845 0.191836
0.327184 0.610407 0.169070
0.368383 0.610956 0.171847
0.476722 0.610101 0.146029
0.630060 0.611810 0.103914
0.740993 0.577783 0.162722
0.097261 0.060761 0.285863
0.176089 0.031067 0.296880
0.341466 0.000000 0.317479
0.580438 0.000000 0.353002
0.825193 0.000000 0.359930
0.116670 0.150149 0.265721
0.173098 0.148714 0.278355
0.331029 0.121340 0.308995
0.562676 0.000000 0.339330
0.814084 0.000000 0.343755
0.145418 0.245487 0.244358
0.190982 0.253788 0.253056
0.328710 0.297185 0.303197
0.510094 0.285283 0.303990
0.816892 0.298863 0.333623
0.196231 0.362890 0.258091
0.229252 0.372534 0.263767
0.334874 0.409766 0.280430
0.459236 0.383581 0.280064
0.864012 0.576989 0.398993
0.220493 0.626368 0.272648
0.251682 0.631098 0.259495
0.433661 0.639673 0.288457
0.613733 0.632410 0.242374
0.748592 0.595361 0.268833
0.169131 0.091890 0.521691
0.240024 0.070466 0.532372
0.416754 0.000000 0.570825
0.634089 0.000000 0.593103
0.878965 0.000000 0.614862
0.159304 0.178531 0.500877
0.226139 0.170809 0.512718
0.399786 0.122194 0.554925
0.626795 0.000000 0.587121
0.877958 0.000000 0.610163
0.172793 0.303593 0.442054
0.217594 0.305455 0.452583
0.357519 0.309422 0.507561
0.603601 0.282841 0.567407
0.870115 0.283330 0.589654
0.203159 0.420691 0.419104
0.241154 0.426825 0.425879
0.354498 0.452674 0.454170
0.604028 0.544213 0.554223
0.816129 0.537560 0.542504
0.280644 0.636622 0.487160
0.310460 0.642634 0.488045
0.402411 0.662715 0.484779
0.583459 0.693629 0.480995
0.770596 0.649683 0.465431
0.256809 0.166903 0.781552
0.310033 0.153719 0.783932
0.451331 0.077028 0.794278
0.637079 0.000000 0.811917
0.838987 0.000000 0.814206
0.245914 0.230594 0.772152
0.299626 0.221530 0.775021
0.442420 0.183566 0.786587
0.629877 0.000000 0.805234
0.836301 0.000000 0.810758
0.221012 0.370428 0.744961
0.269596 0.363867 0.749447
0.414832 0.346929 0.763760
0.611566 0.314092 0.788266
0.834470 0.280491 0.805631
0.235904 0.526940 0.710384
0.273594 0.522972 0.709926
0.388739 0.513481 0.714687
0.607568 0.540002 0.758602
0.842405 0.585687 0.801358
0.300023 0.694728 0.703151
0.332586 0.694850 0.703212
0.444007 0.700435 0.708064
0.622736 0.716976 0.720180
0.847349 0.793149 0.786221
