data/fiter_cube/57993848/1023155/file.cube
# Created by Adobe Lightroom plugin Export LUT (1.17.0)
# www.johnrellis.com/lightroom/exportlut.htm
# Preset: 萌宠摄影后期_02 云集
# Color profile: C:\Program Files (x86)\Common Files\Adobe\Color\Profiles\Recommended\AdobeRGB1998.icc
LUT_3D_SIZE 32
DOMAIN_MIN 0.0 0.0 0.0
DOMAIN_MAX 1.0 1.0 1.0
0.103365 0.113802 0.125368
0.103365 0.113802 0.125368
0.108644 0.113680 0.125277
0.125917 0.114107 0.125551
0.139986 0.115084 0.126375
0.151461 0.119509 0.129152
0.164248 0.124605 0.132601
0.180301 0.129763 0.135225
0.201205 0.135256 0.137331
0.227665 0.141909 0.138582
0.259922 0.150088 0.140291
0.298070 0.159579 0.141695
0.340124 0.170260 0.142672
0.381720 0.181155 0.143618
0.420356 0.191867 0.144472
0.457527 0.202426 0.145174
0.495094 0.212955 0.145998
0.542779 0.226841 0.147066
0.593530 0.242100 0.149325
0.641077 0.256901 0.152712
0.685695 0.271489 0.157443
0.727352 0.285832 0.164157
0.765530 0.299474 0.172213
0.801053 0.312963 0.181704
0.834440 0.326055 0.192477
0.866636 0.339513 0.204929
0.898528 0.354101 0.219944
0.930144 0.369848 0.238071
0.961089 0.387213 0.259953
0.990387 0.406500 0.286259
1.000000 0.427619 0.316564
1.000000 0.440681 0.337011
0.103365 0.113802 0.125368
0.103365 0.113802 0.125368
0.109438 0.113802 0.125246
0.125673 0.116121 0.126528
0.138949 0.119997 0.128786
0.150332 0.124025 0.131685
0.163394 0.128084 0.134401
0.179385 0.132418 0.136568
0.200107 0.137514 0.138186
0.226261 0.143984 0.139620
0.258000 0.151949 0.141054
0.295323 0.161257 0.142489
0.336736 0.171786 0.143404
0.378119 0.182712 0.144228
0.416602 0.193301 0.144991
0.453193 0.203403 0.145968
0.490455 0.213962 0.146700
0.537469 0.227604 0.147768
0.586023 0.242130 0.149752
0.632197 0.256413 0.152926
0.676173 0.270512 0.157198
0.717617 0.284398 0.163333
0.755856 0.297856 0.170779
0.791745 0.311070 0.179751
0.825559 0.324071 0.189975
0.858366 0.337560 0.202090
0.891051 0.351904 0.216587
0.923430 0.367651 0.234409
0.955200 0.384985 0.255924
0.985473 0.404211 0.281773
1.000000 0.425269 0.311955
1.000000 0.441230 0.336156
0.104067 0.117372 0.128023
0.104585 0.118135 0.128695
0.107820 0.119631 0.127962
0.123690 0.123110 0.130190
0.137240 0.125917 0.132631
0.149111 0.129091 0.134951
0.162631 0.131838 0.136507
0.178805 0.135836 0.138125
0.199374 0.140658 0.139590
0.225437 0.147036 0.140688
0.256962 0.154910 0.142275
0.294194 0.164248 0.143557
0.335393 0.174685 0.144625
0.376623 0.185550 0.145296
0.415106 0.195926 0.146059
0.451545 0.205875 0.146761
0.488502 0.216373 0.147677
0.535668 0.229984 0.148592
0.582696 0.243900 0.150698
0.628138 0.258091 0.153658
0.671778 0.271855 0.157931
0.713100 0.285588 0.163973
0.751369 0.298894 0.171298
0.787259 0.311955 0.179934
0.821225 0.324895 0.190188
0.854154 0.338079 0.201907
0.887114 0.352422 0.216190
0.919890 0.368078 0.233768
0.952087 0.385260 0.255100
0.982757 0.404486 0.280919
1.000000 0.425360 0.310765
1.000000 0.442756 0.337011
0.109773 0.129274 0.138888
0.110170 0.129580 0.139193
0.111971 0.129763 0.138155
0.119509 0.132174 0.137148
0.134646 0.135531 0.138674
0.147921 0.137026 0.139834
0.162020 0.139315 0.140688
0.178836 0.142763 0.141482
0.199954 0.147555 0.142519
0.226230 0.153841 0.143740
0.257755 0.161563 0.145083
0.295079 0.170962 0.146120
0.335912 0.181704 0.146792
0.376867 0.192416 0.147433
0.414954 0.202487 0.147890
0.451118 0.212222 0.148745
0.487739 0.222324 0.149538
0.535271 0.236332 0.150912
0.579706 0.249332 0.152926
0.622919 0.262455 0.155886
0.664973 0.275639 0.160159
0.705592 0.288914 0.165774
0.744289 0.302098 0.172885
0.781338 0.315251 0.181857
0.817044 0.328588 0.192355
0.851713 0.342443 0.204929
0.885863 0.357183 0.219883
0.919249 0.373175 0.238010
0.951537 0.390417 0.259709
0.981903 0.409216 0.284977
1.000000 0.429480 0.313878
1.000000 0.446937 0.340368
0.113710 0.138094 0.147036
0.114595 0.138186 0.146548
0.115572 0.138277 0.145602
0.118288 0.139040 0.144076
0.129274 0.142397 0.143557
0.144533 0.145937 0.144778
0.160098 0.148348 0.145876
0.178134 0.152010 0.146548
0.199863 0.156832 0.147189
0.226413 0.163333 0.148257
0.258244 0.171328 0.149203
0.295506 0.181155 0.150088
0.336553 0.191867 0.150362
0.377295 0.202426 0.150484
0.415442 0.212436 0.151156
0.452094 0.222354 0.151858
0.492500 0.233433 0.152895
0.538598 0.246799 0.154574
0.581750 0.259525 0.157076
0.623621 0.272099 0.160342
0.664363 0.284794 0.164767
0.703914 0.297368 0.170687
0.741939 0.310155 0.178042
0.778805 0.323064 0.186954
0.814511 0.336156 0.197543
0.849302 0.349950 0.210300
0.883452 0.364477 0.225376
0.916747 0.379919 0.243320
0.948852 0.396918 0.264775
0.979156 0.415351 0.289708
1.000000 0.435157 0.318059
1.000000 0.453590 0.345678
0.117525 0.145693 0.153262
0.118105 0.145815 0.152804
0.119112 0.145724 0.151888
0.120821 0.145510 0.150851
0.125673 0.148226 0.149783
0.138216 0.151980 0.149630
0.156191 0.157565 0.151247
0.175753 0.162692 0.152438
0.201663 0.168978 0.154208
0.229465 0.176120 0.154635
0.262455 0.184970 0.154849
0.300694 0.195315 0.155032
0.341802 0.206363 0.155093
0.382147 0.217044 0.155245
0.419989 0.226841 0.155642
0.456703 0.236484 0.156497
0.501152 0.249149 0.158236
0.545373 0.261967 0.160342
0.587457 0.274113 0.163272
0.628656 0.286381 0.167178
0.669093 0.298894 0.172427
0.708492 0.311192 0.179049
0.804746 0.351019 0.210971
0.837736 0.363622 0.223850
0.868620 0.376196 0.237613
0.898009 0.389075 0.252720
0.926207 0.402655 0.269810
0.953399 0.417121 0.288823
0.979248 0.432837 0.310582
1.000000 0.449470 0.334264
1.000000 0.466682 0.359747
1.000000 0.468055 0.364111
0.122103 0.154391 0.160708
0.122683 0.154330 0.160281
0.123507 0.154238 0.159854
0.124971 0.154269 0.158724
0.127047 0.155154 0.156924
0.135164 0.159854 0.157778
0.150790 0.165866 0.158297
0.175998 0.175723 0.160098
0.203738 0.185214 0.161196
0.240055 0.196567 0.162661
0.281956 0.208652 0.163516
0.323400 0.220584 0.162997
0.364569 0.231815 0.162631
0.403326 0.241581 0.162905
0.439155 0.250431 0.163516
0.480415 0.261723 0.165225
0.526421 0.275212 0.167819
0.569635 0.287388 0.171084
0.611353 0.299443 0.175418
0.653407 0.312108 0.181186
0.696284 0.325872 0.189212
0.739437 0.340398 0.199710
0.781460 0.355566 0.212650
0.821134 0.370733 0.227512
0.857572 0.385595 0.243809
0.890105 0.399664 0.260624
0.919829 0.413611 0.278386
0.947601 0.427832 0.297337
0.973938 0.442847 0.317967
0.998047 0.458595 0.340429
1.000000 0.474861 0.364599
1.000000 0.478370 0.372107
0.125826 0.162325 0.167788
0.126406 0.162264 0.167391
0.127016 0.162234 0.166873
0.128206 0.162112 0.165805
0.130129 0.161929 0.164431
0.133974 0.165255 0.163424
0.144808 0.171847 0.164523
0.164370 0.180392 0.165408
0.197116 0.195102 0.168093
0.231907 0.209079 0.169100
0.276158 0.224979 0.170626
0.327733 0.241398 0.172274
0.371557 0.253635 0.172610
0.409430 0.263188 0.172763
0.448432 0.273411 0.174228
0.492531 0.286015 0.176730
0.534630 0.297642 0.179721
0.574945 0.308568 0.183200
0.614466 0.319585 0.187655
0.654719 0.331365 0.193820
0.695918 0.344060 0.202274
0.737484 0.357946 0.212863
0.778103 0.372290 0.226017
0.816648 0.386694 0.240818
0.852293 0.400824 0.256748
0.884489 0.414282 0.273106
0.914092 0.427527 0.290043
0.941955 0.441016 0.308110
0.968505 0.455268 0.327977
0.992981 0.470100 0.349096
1.000000 0.485695 0.372290
1.000000 0.490700 0.382086
0.129244 0.171633 0.175387
0.129824 0.171572 0.175021
0.130434 0.171511 0.174380
0.131594 0.171420 0.173373
0.133242 0.171389 0.171939
0.135348 0.171328 0.170382
0.142306 0.178408 0.170413
0.157168 0.187533 0.172091
0.182437 0.199802 0.173709
0.225010 0.220584 0.177310
0.268162 0.240055 0.178958
0.319158 0.259831 0.180911
0.371557 0.277012 0.183780
0.422980 0.291905 0.188907
0.465736 0.304143 0.191409
0.506554 0.314885 0.193942
0.545983 0.324956 0.196689
0.584161 0.334661 0.200290
0.621637 0.344274 0.204990
0.660212 0.355108 0.211582
0.699733 0.367071 0.220279
0.739651 0.380041 0.231266
0.778683 0.393622 0.244358
0.815793 0.407233 0.259220
0.850309 0.420508 0.274876
0.881621 0.432959 0.290440
0.910704 0.445380 0.306676
0.938140 0.457832 0.323461
0.964355 0.470954 0.341558
0.988617 0.484657 0.361212
1.000000 0.498939 0.382635
1.000000 0.505028 0.393927
0.132631 0.182345 0.183749
0.133150 0.182437 0.183383
0.133547 0.182284 0.182803
0.134524 0.182223 0.181735
0.136233 0.182071 0.180148
0.138369 0.181888 0.178317
0.141329 0.185428 0.176364
0.153017 0.194888 0.178470
0.172946 0.207553 0.180789
0.205081 0.223911 0.183261
0.258885 0.251682 0.188663
0.309880 0.276158 0.191073
0.368170 0.301030 0.196048
0.422187 0.319799 0.203189
0.475380 0.335760 0.212009
0.521843 0.348058 0.217990
0.560784 0.357549 0.220829
0.598077 0.366369 0.224643
0.634394 0.375280 0.229648
0.670771 0.384771 0.236210
0.707362 0.395056 0.244663
0.743740 0.406043 0.254978
0.779355 0.417456 0.266789
0.813535 0.429114 0.279820
0.845975 0.440650 0.293706
0.876432 0.452064 0.308171
0.905394 0.463539 0.323064
0.933135 0.475441 0.339025
0.959747 0.488045 0.356542
0.984558 0.501152 0.375372
1.000000 0.514977 0.396155
1.000000 0.521386 0.408392
0.135683 0.194400 0.192966
0.135988 0.194369 0.192630
0.136446 0.194247 0.191867
0.137545 0.194278 0.190951
0.139254 0.194156 0.189242
0.141573 0.194064 0.187381
0.144259 0.194064 0.185367
0.150668 0.202853 0.184817
0.167056 0.216007 0.187930
0.193606 0.233005 0.191562
0.237125 0.257816 0.196475
0.308751 0.297337 0.206180
0.364569 0.324224 0.211215
0.416663 0.344427 0.218631
0.468360 0.361730 0.227970
0.520012 0.377295 0.238560
0.570611 0.390967 0.250492
0.607752 0.399207 0.254643
0.642420 0.406561 0.258671
0.677180 0.414801 0.264652
0.712306 0.424170 0.272831
0.747341 0.434150 0.282475
0.781735 0.444739 0.294072
0.814725 0.455390 0.306340
0.845975 0.465766 0.318944
0.875242 0.475685 0.331487
0.903075 0.485573 0.344366
0.929900 0.496010 0.358251
0.955779 0.507103 0.373693
0.980102 0.518914 0.390600
1.000000 0.531609 0.410101
1.000000 0.539117 0.423987
0.138705 0.208621 0.203616
0.139223 0.208591 0.203189
0.139803 0.208530 0.202670
0.140780 0.208469 0.201511
0.142641 0.208438 0.199893
0.144778 0.208408 0.197818
0.147677 0.208499 0.195499
0.151003 0.211124 0.193118
0.163912 0.226596 0.196201
0.188022 0.246891 0.201816
0.226047 0.272648 0.208316
0.280735 0.303685 0.215335
0.398779 0.381537 0.252567
0.455055 0.405768 0.264805
0.509850 0.426337 0.276951
0.562402 0.443244 0.289952
0.611566 0.456794 0.303685
0.656641 0.467536 0.317967
0.695460 0.474983 0.329015
0.725368 0.479255 0.331975
0.755245 0.484382 0.336675
0.784848 0.490272 0.342840
0.813474 0.496376 0.349798
0.841337 0.502983 0.357885
0.868101 0.509667 0.366369
0.893736 0.516503 0.375280
0.918151 0.523430 0.384771
0.941650 0.530938 0.395270
0.964172 0.539269 0.407660
0.985382 0.548913 0.422644
1.000000 0.559777 0.440528
1.000000 0.560388 0.445747
0.143008 0.229770 0.219455
0.143374 0.229740 0.218997
0.143923 0.229435 0.218143
0.145052 0.229099 0.216709
0.147036 0.228946 0.214755
0.149630 0.229526 0.213016
0.153140 0.230411 0.210788
0.157137 0.231540 0.208713
0.163912 0.243473 0.207645
0.186465 0.266209 0.214969
0.222782 0.295903 0.224369
0.276127 0.331914 0.236088
0.344030 0.369360 0.250584
0.430121 0.414069 0.277073
0.490272 0.441260 0.294438
0.544518 0.462440 0.308110
0.594842 0.478828 0.322057
0.640650 0.491157 0.335271
0.683375 0.501152 0.348699
0.723964 0.510094 0.363012
0.756222 0.515373 0.369635
0.784604 0.519677 0.373358
0.812009 0.524193 0.378058
0.838773 0.529076 0.383581
0.864500 0.534234 0.389929
0.889250 0.539483 0.396796
0.913054 0.545159 0.404608
0.936034 0.551598 0.413886
0.958251 0.559075 0.425391
0.979339 0.567987 0.439490
0.998322 0.578119 0.456397
1.000000 0.580316 0.463905
0.147341 0.252811 0.236728
0.147677 0.252903 0.236301
0.148318 0.252781 0.235599
0.149783 0.252506 0.234195
0.151644 0.252232 0.232090
0.154391 0.251987 0.229374
0.157839 0.252110 0.226596
0.161990 0.252598 0.223545
0.166873 0.253758 0.220829
0.181125 0.276310 0.223789
0.211643 0.304784 0.233799
0.256657 0.338720 0.246250
0.314519 0.374029 0.261723
0.381811 0.408270 0.279973
0.467659 0.452491 0.308507
0.526848 0.478279 0.327611
0.577325 0.496956 0.339696
0.623865 0.511376 0.351904
0.667536 0.523033 0.364385
0.709163 0.533104 0.377569
0.748928 0.542168 0.391241
0.785824 0.549950 0.404639
0.812345 0.553246 0.407385
0.838193 0.556939 0.411261
0.863035 0.560815 0.416052
0.886870 0.564965 0.421576
0.909850 0.569574 0.428138
0.932158 0.574945 0.436347
0.953796 0.581567 0.446815
0.974395 0.589563 0.459968
0.993133 0.598901 0.476020
1.000000 0.601526 0.484199
0.151919 0.278294 0.255863
0.152529 0.278416 0.255528
0.152987 0.278019 0.254673
0.154360 0.277409 0.252811
0.156435 0.276463 0.250187
0.159182 0.275639 0.246983
0.162753 0.275212 0.243626
0.166964 0.275242 0.240024
0.172091 0.276127 0.236759
0.178805 0.286320 0.234287
0.203128 0.314061 0.242924
0.241917 0.346105 0.256229
0.292027 0.379400 0.272374
0.350988 0.412024 0.291356
0.418769 0.445777 0.311833
0.503197 0.488899 0.339635
0.561425 0.513237 0.359319
0.608484 0.529808 0.369451
0.652796 0.543236 0.380621
0.695064 0.554589 0.392523
0.735378 0.564508 0.405005
0.773373 0.573144 0.418158
0.808408 0.580438 0.431617
0.837613 0.585321 0.440681
0.861631 0.588190 0.444099
0.884977 0.591669 0.448737
0.907744 0.595850 0.454871
0.929992 0.601068 0.463081
0.951507 0.607538 0.473518
0.971862 0.615351 0.486671
0.990143 0.624537 0.502861
0.998444 0.624506 0.507805
0.156924 0.304662 0.276036
0.157656 0.304814 0.275731
0.158267 0.304784 0.275059
0.159701 0.304479 0.273411
0.161959 0.303868 0.271000
0.165225 0.303380 0.267826
0.169070 0.303380 0.264622
0.173861 0.303685 0.261082
0.179385 0.304570 0.257481
0.185733 0.305852 0.253849
0.198459 0.327245 0.254429
0.232212 0.356298 0.267704
0.275425 0.385992 0.283543
0.326665 0.415564 0.301579
0.385412 0.446693 0.321050
0.451423 0.478889 0.340826
0.534173 0.520623 0.365942
0.592279 0.544457 0.386694
0.638331 0.560998 0.396948
0.682460 0.575036 0.408331
0.724331 0.587121 0.421027
0.763668 0.597436 0.434730
0.799802 0.605951 0.448310
0.833005 0.613214 0.462440
0.863096 0.619318 0.476509
0.886381 0.622309 0.481788
0.908202 0.625513 0.486702
0.929351 0.629755 0.493660
0.949645 0.635065 0.502892
0.968719 0.641474 0.514336
0.985779 0.649012 0.528405
0.993408 0.647089 0.530816
0.162661 0.330144 0.295750
0.163180 0.330114 0.295354
0.163912 0.329839 0.294560
0.165347 0.329473 0.292912
0.167758 0.328985 0.290440
0.170932 0.328466 0.287510
0.175143 0.328374 0.284062
0.179934 0.328557 0.280400
0.185580 0.329198 0.276555
0.192142 0.330266 0.272709
0.200015 0.335332 0.269688
0.223209 0.363378 0.276860
0.262089 0.391455 0.293126
0.307897 0.419593 0.311467
0.360296 0.449439 0.330877
0.418769 0.480171 0.350072
0.483833 0.511406 0.368627
0.564660 0.551690 0.391089
0.623194 0.575341 0.412940
0.667750 0.591455 0.423377
0.710292 0.605158 0.435126
0.750271 0.616876 0.448219
0.787381 0.626612 0.461738
0.821592 0.634882 0.475624
0.852811 0.641810 0.489784
0.881102 0.647791 0.504051
0.905730 0.652613 0.516228
0.926177 0.656062 0.522057
0.945830 0.660517 0.530022
0.964202 0.666072 0.540459
0.980682 0.672816 0.553491
0.988037 0.669795 0.554406
0.170932 0.357031 0.317479
0.171603 0.357610 0.317540
0.182559 0.380163 0.336034
0.184146 0.379706 0.334356
0.186679 0.378882 0.331579
0.189883 0.377752 0.327916
0.194034 0.376654 0.323613
0.199130 0.375799 0.319036
0.205112 0.375463 0.314488
0.212100 0.375586 0.309880
0.219913 0.376104 0.305638
0.232151 0.390082 0.304234
0.266728 0.415412 0.319341
0.309209 0.442481 0.337926
0.356847 0.471229 0.356664
0.410010 0.500999 0.374731
0.469032 0.531121 0.392096
0.533410 0.560845 0.408545
0.610559 0.597101 0.428534
0.668727 0.619806 0.452369
0.709804 0.633631 0.462318
0.748898 0.645502 0.473610
0.785306 0.655360 0.485969
0.818631 0.663264 0.498604
0.848631 0.669276 0.510704
0.875853 0.674128 0.522881
0.900481 0.678248 0.535302
0.922820 0.682399 0.548882
0.941894 0.685969 0.558038
0.959258 0.690272 0.566644
0.975036 0.695827 0.578058
0.982361 0.692012 0.577722
0.185153 0.389136 0.344884
0.187442 0.392004 0.346960
0.190097 0.394873 0.349035
0.193332 0.397253 0.349981
0.196963 0.398718 0.349523
0.200931 0.398901 0.347204
0.205173 0.398444 0.343725
0.209903 0.397742 0.339483
0.216068 0.397498 0.335424
0.222751 0.397467 0.331182
0.230381 0.397864 0.327031
0.238651 0.398291 0.323186
0.258976 0.420569 0.328008
0.297002 0.446113 0.345647
0.339574 0.473335 0.363439
0.386999 0.501640 0.380743
0.439612 0.530480 0.397345
0.497658 0.559442 0.413428
0.560998 0.588312 0.429755
0.634852 0.622248 0.450202
0.694423 0.646143 0.476722
0.734798 0.660517 0.487984
0.772580 0.672389 0.499886
0.807187 0.682002 0.512352
0.838468 0.689387 0.524590
0.866880 0.695277 0.536950
0.892576 0.700160 0.549462
0.915770 0.704738 0.562982
0.936492 0.709377 0.577722
0.954284 0.714107 0.593256
0.969299 0.718532 0.602960
0.976410 0.713863 0.601373
0.199008 0.412085 0.365576
0.201480 0.414740 0.367590
0.204196 0.417487 0.369696
0.207462 0.419745 0.370764
0.211215 0.421241 0.370459
0.214969 0.421515 0.368505
0.219059 0.421118 0.365423
0.223789 0.420539 0.361730
0.229557 0.420386 0.358007
0.236210 0.420386 0.354192
0.243931 0.420874 0.350622
0.252018 0.421332 0.347112
0.262577 0.428016 0.345342
0.290227 0.453254 0.355871
0.328435 0.479225 0.372747
0.371038 0.506279 0.389105
0.418524 0.534051 0.405035
0.470954 0.562036 0.420478
0.528649 0.590143 0.436591
0.591119 0.618006 0.453895
0.661463 0.649561 0.474586
0.721859 0.674220 0.503655
0.760678 0.688350 0.515526
0.796323 0.699580 0.527306
0.828611 0.708186 0.539086
0.857786 0.714992 0.551141
0.884215 0.720485 0.563256
0.908141 0.725399 0.576349
0.929564 0.730068 0.590600
0.948089 0.734768 0.606073
0.963287 0.739406 0.622614
0.970275 0.734768 0.624201
0.215518 0.436652 0.388128
0.218051 0.439460 0.390387
0.221042 0.442298 0.392615
0.224308 0.444617 0.393744
0.228061 0.446143 0.393713
0.231724 0.446509 0.392065
0.235538 0.446143 0.389288
0.240055 0.445594 0.385931
0.245487 0.445258 0.382330
0.251774 0.445167 0.378759
0.258854 0.445411 0.375311
0.266545 0.445777 0.371740
0.274479 0.445899 0.368078
0.288212 0.462196 0.368566
0.321355 0.487617 0.383185
0.360449 0.514275 0.399329
0.404578 0.542290 0.415381
0.453986 0.571038 0.431830
0.508751 0.600092 0.449531
0.568078 0.628992 0.468360
0.630823 0.657252 0.488228
0.699275 0.687648 0.510674
0.759335 0.712154 0.541955
0.796109 0.725643 0.554498
0.829160 0.735958 0.566522
0.858701 0.743709 0.578332
0.885100 0.749813 0.590600
0.908690 0.754849 0.603418
0.929473 0.759304 0.617151
0.947112 0.763302 0.631891
0.961273 0.766995 0.647486
0.964202 0.756619 0.643793
0.243687 0.476570 0.424689
0.245274 0.478004 0.425635
0.246860 0.479103 0.426307
0.248936 0.479957 0.426154
0.251530 0.480232 0.424994
0.254459 0.479957 0.422919
0.257969 0.479530 0.420203
0.262486 0.479255 0.417273
0.267979 0.479500 0.414374
0.274327 0.480110 0.411475
0.281529 0.481056 0.408667
0.289250 0.481910 0.405554
0.296971 0.482368 0.402075
0.304875 0.482643 0.398413
0.324712 0.508263 0.402808
0.360266 0.533745 0.417487
0.400519 0.560113 0.432471
0.445960 0.587060 0.448402
0.496010 0.614099 0.465278
0.550072 0.640864 0.482918
0.607050 0.666926 0.501183
0.666316 0.692042 0.519921
0.728878 0.717891 0.540124
0.785397 0.739620 0.569726
0.819150 0.751156 0.581476
0.849485 0.760189 0.592737
0.876860 0.767269 0.604273
0.901335 0.773098 0.616938
0.922850 0.778012 0.630426
0.941131 0.782071 0.644617
0.955688 0.785611 0.659663
0.958831 0.775387 0.655665
0.264195 0.507652 0.452186
0.265812 0.509270 0.453346
0.267399 0.510674 0.454200
0.269444 0.511650 0.454170
0.271946 0.512016 0.453132
0.274540 0.511620 0.451026
0.277684 0.510979 0.448249
0.281529 0.510369 0.445136
0.286442 0.510277 0.442023
0.292302 0.510735 0.439094
0.298985 0.511589 0.436103
0.306126 0.512505 0.432959
0.313634 0.513207 0.429450
0.321416 0.513725 0.425757
0.331914 0.523400 0.423835
0.357580 0.548852 0.431464
0.395209 0.574151 0.446326
0.437568 0.600061 0.462104
0.484230 0.626093 0.478767
0.534691 0.652033 0.496223
0.588098 0.677455 0.514305
0.643641 0.702052 0.532830
0.700435 0.725429 0.551537
0.758694 0.748348 0.570794
0.805447 0.761929 0.590967
0.837888 0.772396 0.604059
0.866423 0.780941 0.615503
0.891997 0.787747 0.627283
0.914549 0.793301 0.640345
0.933898 0.798093 0.654597
0.949645 0.802365 0.670100
0.953399 0.793088 0.666804
0.293614 0.554650 0.492226
0.295323 0.556756 0.493690
0.296666 0.557885 0.494240
0.298222 0.558221 0.493690
0.299870 0.557794 0.491951
0.301854 0.556695 0.489326
0.304234 0.555261 0.485908
0.307225 0.553582 0.481849
0.310918 0.552209 0.477607
0.315526 0.551263 0.473426
0.320684 0.550469 0.469032
0.326818 0.550256 0.464881
0.333379 0.550042 0.460456
0.340307 0.549523 0.455787
0.347143 0.548486 0.450629
0.359350 0.565118 0.448371
0.390967 0.587549 0.459327
0.429236 0.610773 0.473457
0.472053 0.635004 0.489052
0.518975 0.659907 0.505943
0.569055 0.684657 0.523705
0.621057 0.708553 0.541619
0.673884 0.730770 0.559075
0.726711 0.751125 0.575891
0.779202 0.769772 0.592218
0.828428 0.787167 0.616297
0.858885 0.796048 0.630549
0.884672 0.803403 0.641444
0.907622 0.809323 0.653254
0.927520 0.814420 0.666743
0.943877 0.818967 0.681788
0.947814 0.809995 0.678309
0.314672 0.590387 0.521538
0.316533 0.592462 0.523003
0.317937 0.593774 0.523735
0.319463 0.594171 0.523247
0.321172 0.593774 0.521630
0.323125 0.592920 0.519188
0.325658 0.591821 0.516197
0.328710 0.590692 0.512688
0.332708 0.589868 0.509087
0.337743 0.589593 0.505608
0.343328 0.589593 0.501976
0.350072 0.590112 0.498482
0.357305 0.590692 0.494911
0.364752 0.590967 0.490883
0.372290 0.590845 0.486580
0.380682 0.592523 0.482490
0.399481 0.614771 0.483772
0.435431 0.636255 0.497261
0.475349 0.658625 0.512016
0.518883 0.681575 0.527916
0.565118 0.704341 0.544305
0.613245 0.726406 0.560998
0.662135 0.747066 0.577264
0.711116 0.766049 0.592920
0.759609 0.783139 0.607935
0.807065 0.798337 0.622248
0.852201 0.813230 0.643763
0.880186 0.820493 0.659480
0.903441 0.827268 0.671229
0.923430 0.832731 0.684138
0.938354 0.835355 0.695705
0.941985 0.826291 0.691249
0.344030 0.633783 0.557671
0.345617 0.635309 0.558679
0.346654 0.635889 0.558801
0.347692 0.635676 0.557916
0.348791 0.634668 0.555871
0.350225 0.633326 0.553063
0.352270 0.631800 0.549828
0.355016 0.630457 0.546319
0.358831 0.629603 0.542779
0.363745 0.629480 0.539513
0.369604 0.629694 0.536339
0.376532 0.630732 0.533471
0.384161 0.631708 0.530419
0.392096 0.632471 0.527062
0.399817 0.632654 0.523125
0.407935 0.632563 0.519036
0.418860 0.641627 0.516106
0.443946 0.661891 0.521447
0.480720 0.682094 0.534874
0.520806 0.702968 0.549310
0.563500 0.723842 0.564385
0.607904 0.744076 0.579583
0.653040 0.763088 0.594507
0.698482 0.780606 0.608911
0.743435 0.796384 0.622614
0.787686 0.810422 0.635737
0.830991 0.822965 0.648646
0.871885 0.835264 0.667628
0.896941 0.840635 0.684535
0.917479 0.846799 0.697017
0.932494 0.849393 0.707393
0.936309 0.840696 0.702327
0.375494 0.675074 0.592493
0.376806 0.676081 0.593103
0.377844 0.676631 0.593256
0.378943 0.676692 0.592584
0.380682 0.676539 0.591333
0.383368 0.676722 0.590051
0.387488 0.677913 0.589197
0.392950 0.679774 0.588647
0.399847 0.682582 0.588525
0.408087 0.686152 0.588769
0.417426 0.690211 0.589166
0.427558 0.694453 0.589471
0.437964 0.698390 0.589380
0.448280 0.701564 0.588525
0.458137 0.703792 0.586755
0.467323 0.704921 0.584039
0.476722 0.705776 0.581262
0.489815 0.720455 0.578576
0.520348 0.737667 0.587579
0.556146 0.754910 0.599573
0.594049 0.772000 0.611994
0.633295 0.788449 0.624445
0.672969 0.803647 0.636439
0.712795 0.817502 0.648096
0.752316 0.829831 0.659327
0.791226 0.840665 0.670161
0.829191 0.850126 0.680812
0.865660 0.858183 0.691341
0.899443 0.866148 0.706996
0.918425 0.867613 0.723751
0.926543 0.862943 0.723018
0.930449 0.854917 0.717952
0.435248 0.741512 0.649958
0.436286 0.742153 0.650263
0.436774 0.742123 0.650019
0.437293 0.741573 0.648859
0.438239 0.740719 0.647089
0.439796 0.739956 0.645106
0.442481 0.739681 0.643183
0.446387 0.739925 0.641382
0.451453 0.740841 0.639857
0.457801 0.742306 0.638544
0.464973 0.744045 0.637232
0.473060 0.746181 0.636042
0.481697 0.748257 0.634638
0.490517 0.750088 0.632898
