data/fiter_cube/57993848/1023155/file.cube
# Created by Adobe Lightroom plugin Export LUT (1.17.0)
# www.johnrellis.com/lightroom/exportlut.htm
# Preset: 萌宠摄影后期_02 云集
# Color profile: C:\Program Files (x86)\Common Files\Adobe\Color\Profiles\Recommended\AdobeRGB1998.icc
LUT_3D_SIZE 8
DOMAIN_MIN 0.000000 0.000000 0.000000
DOMAIN_MAX 0.903226 0.903226 0.903226
0.103365 0.113802 0.125368
0.139986 0.115084 0.126375
0.201205 0.135256 0.137331
0.340124 0.170260 0.142672
0.495094 0.212955 0.145998
0.685695 0.271489 0.157443
0.834440 0.326055 0.192477
0.961089 0.387213 0.259953
0.113710 0.138094 0.147036
0.129274 0.142397 0.143557
0.199863 0.156832 0.147189
0.336553 0.191867 0.150362
0.492500 0.233433 0.152895
0.664363 0.284794 0.164767
0.814511 0.336156 0.197543
0.948852 0.396918 0.264775
0.129244 0.171633 0.175387
0.133242 0.171389 0.171939
0.182437 0.199802 0.173709
0.371557 0.277012 0.183780
0.545983 0.324956 0.196689
0.699733 0.367071 0.220279
0.850309 0.420508 0.274876
0.964355 0.470954 0.341558
0.143008 0.229770 0.219455
0.147036 0.228946 0.214755
0.163912 0.243473 0.207645
0.344030 0.369360 0.250584
0.594842 0.478828 0.322057
0.756222 0.515373 0.369635
0.864500 0.534234 0.389929
0.958251 0.559075 0.425391
0.162661 0.330144 0.295750
0.167758 0.328985 0.290440
0.185580 0.329198 0.276555
0.262089 0.391455 0.293126
0.483833 0.511406 0.368627
0.710292 0.605158 0.435126
0.852811 0.641810 0.489784
0.945830 0.660517 0.530022
0.215518 0.436652 0.388128
0.228061 0.446143 0.393713
0.245487 0.445258 0.382330
0.274479 0.445899 0.368078
0.404578 0.542290 0.415381
0.630823 0.657252 0.488228
0.829160 0.735958 0.566522
0.929473 0.759304 0.617151
0.314672 0.590387 0.521538
0.321172 0.593774 0.521630
0.332708 0.589868 0.509087
0.357305 0.590692 0.494911
0.399481 0.614771 0.483772
0.565118 0.704341 0.544305
0.759609 0.783139 0.607935
0.903441 0.827268 0.671229
0.481849 0.788937 0.691524
0.484932 0.788449 0.689143
0.499886 0.790860 0.684688
0.533379 0.801877 0.684047
0.539361 0.781125 0.651911
0.618463 0.824582 0.665248
0.752407 0.870726 0.703944
0.872740 0.890349 0.730892
0.105715 0.123323 0.151369
0.134646 0.110262 0.156222
0.189487 0.133944 0.153811
0.311711 0.163973 0.163210
0.469764 0.203433 0.167117
0.637903 0.254063 0.178744
0.795468 0.309575 0.206088
0.936553 0.372503 0.262638
0.113802 0.135317 0.153201
0.133516 0.145602 0.159609
0.191958 0.158022 0.165164
0.320012 0.186038 0.169406
0.476997 0.226474 0.174350
0.633845 0.272496 0.186313
0.782803 0.322362 0.211917
0.923522 0.381628 0.265690
0.132998 0.174014 0.183719
0.141390 0.176761 0.183566
0.185336 0.200992 0.187167
0.360601 0.269413 0.205966
0.513909 0.309270 0.215335
0.663172 0.349950 0.234440
0.807584 0.397101 0.272251
0.938079 0.451728 0.332677
0.148653 0.230900 0.227268
0.154177 0.232639 0.224918
0.168948 0.240116 0.215976
0.319860 0.342412 0.251743
0.540429 0.436408 0.310307
0.703792 0.479438 0.353155
0.824857 0.506554 0.375158
0.936309 0.540307 0.413031
0.170504 0.331273 0.304143
0.174868 0.328740 0.297765
0.190768 0.326085 0.281956
0.254002 0.374670 0.290410
0.459876 0.485939 0.362097
0.685725 0.584802 0.431159
0.836759 0.629114 0.488655
0.935363 0.650446 0.524773
0.217014 0.428260 0.386725
0.222263 0.428504 0.383734
0.238956 0.428351 0.373175
0.268620 0.431739 0.361608
0.395331 0.527489 0.412207
0.625208 0.650446 0.492256
0.822538 0.730587 0.570092
0.923766 0.753689 0.616724
0.303960 0.567193 0.506828
0.305699 0.563714 0.501274
0.318853 0.563439 0.491920
0.346471 0.570733 0.483070
0.388891 0.598291 0.475319
0.553277 0.690394 0.537438
0.746944 0.770138 0.600488
0.894682 0.817838 0.663111
0.465309 0.771145 0.679042
0.471321 0.773495 0.679164
0.487800 0.777493 0.675929
0.522698 0.790188 0.676417
0.561212 0.799161 0.671870
0.625971 0.829923 0.674037
0.749569 0.867430 0.703639
0.870329 0.887694 0.730129
0.107820 0.130587 0.193637
0.124331 0.127199 0.200809
0.189639 0.127230 0.214664
0.312322 0.106630 0.217716
0.463966 0.138430 0.202548
0.629023 0.232395 0.237217
0.797787 0.302312 0.276005
0.943999 0.374090 0.329290
0.126589 0.154116 0.194919
0.133700 0.151217 0.201938
0.191165 0.146242 0.214420
0.310979 0.130770 0.204471
0.457710 0.193973 0.215976
0.625605 0.255894 0.245518
0.789670 0.320012 0.282902
0.937316 0.388617 0.336339
0.136019 0.174044 0.201083
0.147585 0.182559 0.208621
0.199649 0.211460 0.226810
0.345922 0.254002 0.249119
0.504631 0.300725 0.274907
0.657282 0.348211 0.302770
0.804074 0.399115 0.338598
0.937804 0.452094 0.382483
0.146365 0.247929 0.261265
0.163821 0.256535 0.266819
0.201144 0.267857 0.265202
0.342992 0.359960 0.315221
0.557305 0.454780 0.393500
0.703517 0.488624 0.414893
0.828885 0.516960 0.432349
0.940642 0.549218 0.461067
0.177646 0.345037 0.336889
0.197024 0.350561 0.340246
0.225376 0.354009 0.330632
0.275731 0.384009 0.332799
0.485267 0.506462 0.420813
0.698878 0.600366 0.491463
0.843565 0.644190 0.547051
0.935576 0.659693 0.562585
0.243046 0.440833 0.418830
0.252750 0.442359 0.418036
0.270085 0.441840 0.407507
0.293919 0.441596 0.392279
0.399573 0.522362 0.433326
0.628412 0.649714 0.523552
0.822141 0.733730 0.603510
0.925597 0.762966 0.653101
0.327367 0.582330 0.535851
0.330236 0.580438 0.531518
0.340826 0.576349 0.518639
0.363226 0.577050 0.503960
0.397498 0.588067 0.491157
0.559442 0.690394 0.557458
0.760525 0.780362 0.633295
0.903014 0.830045 0.698360
0.478401 0.775235 0.695308
0.478553 0.772824 0.690883
0.491279 0.773526 0.684260
0.531670 0.791775 0.689082
0.567559 0.798978 0.681819
0.629480 0.829374 0.684596
0.756497 0.870603 0.719173
0.876982 0.892302 0.750118
0.101381 0.142123 0.269230
0.121096 0.140475 0.279423
0.194034 0.125246 0.306615
0.305303 0.101747 0.329808
0.456672 0.000000 0.341344
0.611597 0.000000 0.297612
0.766812 0.159152 0.304967
0.924743 0.318395 0.365209
0.109468 0.163119 0.279057
0.125856 0.160464 0.286503
0.195224 0.144961 0.310338
0.310460 0.124331 0.332128
0.459510 0.075868 0.334905
0.608637 0.000000 0.286870
0.758968 0.227146 0.319341
0.922667 0.339544 0.373510
0.143191 0.210391 0.275456
0.157351 0.217746 0.282383
0.194034 0.212711 0.309789
0.324620 0.203128 0.336309
0.470954 0.204532 0.317388
0.616907 0.291722 0.343236
0.792599 0.371130 0.394293
0.939910 0.426978 0.427802
0.155886 0.245823 0.293614
0.169680 0.254826 0.301610
0.222385 0.288121 0.330388
0.352392 0.362829 0.383398
0.513054 0.416419 0.423835
0.662776 0.455146 0.445960
0.808316 0.495552 0.471199
0.938598 0.537072 0.501183
0.162356 0.365240 0.390600
0.184268 0.368383 0.390784
0.256168 0.382879 0.397131
0.317144 0.395422 0.395941
0.510491 0.523125 0.488716
0.712886 0.617151 0.568811
0.841001 0.649714 0.596918
0.936278 0.663447 0.603510
0.241001 0.459754 0.460731
0.263859 0.469856 0.469154
0.314061 0.476722 0.471870
0.346960 0.479622 0.458839
0.421210 0.532433 0.479469
0.654200 0.668391 0.586786
0.833066 0.748898 0.661555
0.928588 0.775143 0.702876
0.327245 0.592340 0.565759
0.340764 0.595911 0.567773
0.383185 0.604547 0.571832
0.406714 0.608148 0.557916
0.437537 0.610529 0.540795
0.578210 0.700404 0.597131
0.777340 0.792081 0.677546
0.907988 0.838895 0.736477
0.496407 0.791531 0.728481
0.507073 0.793912 0.729854
0.530236 0.796201 0.727230
0.551202 0.800626 0.717189
0.585138 0.806455 0.706477
0.632197 0.827604 0.700587
0.763943 0.873503 0.740871
0.883665 0.896056 0.776059
0.043641 0.155032 0.392828
0.095521 0.152193 0.400519
0.189303 0.135622 0.419867
0.312383 0.081666 0.446632
0.450904 0.000000 0.468849
0.601251 0.000000 0.478370
0.765347 0.000000 0.455665
0.934997 0.000000 0.422095
0.046815 0.175814 0.398871
0.095552 0.173098 0.407172
0.188754 0.157168 0.424750
0.315282 0.110842 0.451606
0.452186 0.062135 0.468147
0.603082 0.000000 0.475349
0.766690 0.000000 0.453132
0.935241 0.000000 0.417731
0.136660 0.255772 0.399969
0.151339 0.254398 0.408240
0.190860 0.231449 0.428534
0.317449 0.197635 0.457740
0.453864 0.195010 0.464393
0.598596 0.192325 0.460395
0.763149 0.183413 0.439307
0.925811 0.241062 0.433082
0.173068 0.303502 0.402228
0.191745 0.310216 0.406744
0.256077 0.337530 0.425055
0.329656 0.343420 0.458473
0.463722 0.339605 0.470710
0.611414 0.338781 0.452003
0.765408 0.394751 0.468696
0.925872 0.460243 0.502739
0.194278 0.341833 0.410315
0.211490 0.349462 0.416327
0.267979 0.374121 0.434241
0.351141 0.419318 0.466651
0.500206 0.505913 0.528801
0.667231 0.564172 0.573632
0.805844 0.595300 0.591211
0.929900 0.623377 0.607599
0.222385 0.447913 0.487922
0.238224 0.453895 0.491310
0.286015 0.470436 0.499550
0.365209 0.489723 0.507347
0.412421 0.496712 0.495583
0.659205 0.665248 0.630304
0.838499 0.753933 0.711879
0.929076 0.771756 0.730922
0.305150 0.595331 0.598383
0.316716 0.595544 0.597009
0.357794 0.600519 0.596277
0.427497 0.614374 0.600916
0.466712 0.620478 0.585229
0.566583 0.681147 0.614893
0.785855 0.794797 0.715846
0.909667 0.841672 0.769680
0.458869 0.778408 0.739681
0.467292 0.778561 0.738735
0.497871 0.781064 0.737148
0.567224 0.803281 0.750698
0.596582 0.808469 0.735256
0.640101 0.817105 0.723964
0.759548 0.867857 0.756893
0.888243 0.897276 0.800931
0.000000 0.177127 0.527184
0.011902 0.173739 0.531579
0.180545 0.156283 0.542382
0.315587 0.100771 0.572778
0.459174 0.000000 0.593072
0.601068 0.000000 0.602655
0.761898 0.000000 0.620935
0.931701 0.000000 0.615625
0.000000 0.197696 0.521569
0.030701 0.194125 0.525048
0.178195 0.178958 0.538720
0.309117 0.134859 0.565728
0.453101 0.000000 0.586481
0.596063 0.000000 0.597375
0.757961 0.000000 0.617334
0.929015 0.000000 0.611261
0.133059 0.291752 0.533501
0.130098 0.279484 0.536736
0.194247 0.261204 0.549401
0.312078 0.231907 0.572656
0.458961 0.185977 0.592737
0.601709 0.186130 0.599695
0.762448 0.176608 0.616236
0.932189 0.145174 0.604242
0.237278 0.386572 0.528283
0.253788 0.391577 0.530236
0.290257 0.393469 0.548211
0.342260 0.372625 0.581323
0.478492 0.340185 0.610864
0.621668 0.339971 0.613550
0.780179 0.334142 0.615442
0.942901 0.324712 0.597284
0.251743 0.409308 0.520928
0.267155 0.415045 0.524590
0.315038 0.434668 0.537377
0.390082 0.470192 0.561852
0.466957 0.471809 0.597162
0.615259 0.464851 0.605005
0.775937 0.464729 0.591760
0.933715 0.504936 0.601465
0.267491 0.440192 0.520134
0.281773 0.447791 0.526421
0.321172 0.466072 0.539696
0.384375 0.497505 0.562219
0.472847 0.546990 0.594293
0.664088 0.662501 0.680110
0.823667 0.719966 0.724880
0.932403 0.734401 0.730007
0.305486 0.584955 0.636622
0.318425 0.591974 0.640864
0.355383 0.607965 0.647669
0.417090 0.637079 0.661128
0.511131 0.655848 0.664057
0.568780 0.662501 0.647700
0.810575 0.811490 0.773831
0.919249 0.855741 0.823209
0.433845 0.787594 0.781643
0.442267 0.787381 0.780148
0.473396 0.789487 0.777249
0.532647 0.801022 0.779171
0.610681 0.814633 0.780270
0.663294 0.825559 0.766537
0.755886 0.863462 0.780911
0.897124 0.901915 0.837125
0.000000 0.213046 0.660426
0.000000 0.210056 0.666011
0.180728 0.193057 0.676051
0.317113 0.147097 0.694728
0.465461 0.000000 0.717159
0.610040 0.000000 0.725856
0.749874 0.000000 0.727962
0.913603 0.000000 0.748409
0.000000 0.233036 0.653437
0.000000 0.230259 0.658412
0.178378 0.214572 0.668727
0.309850 0.174472 0.685451
0.455818 0.000000 0.707607
0.599603 0.000000 0.716060
0.737636 0.000000 0.717556
0.901884 0.000000 0.738857
0.088380 0.315709 0.661189
0.112215 0.308965 0.663813
0.201175 0.295109 0.671717
0.314092 0.265568 0.687648
0.452796 0.198123 0.708248
0.603174 0.137972 0.719631
0.746273 0.134981 0.723323
0.913207 0.080934 0.745235
0.262608 0.440253 0.660487
0.270115 0.436835 0.661982
0.289128 0.420661 0.671962
0.336126 0.386542 0.690303
0.456184 0.346777 0.712123
0.613031 0.305028 0.730373
0.760342 0.303075 0.732753
0.922911 0.292302 0.749447
0.305241 0.491737 0.647486
0.315770 0.494087 0.648035
0.354376 0.506126 0.654139
0.406195 0.515801 0.673274
0.453956 0.477607 0.701442
0.603143 0.433967 0.727932
0.756863 0.437385 0.728481
0.925902 0.443610 0.740444
0.320897 0.522301 0.646998
0.331487 0.525780 0.648981
0.367956 0.538354 0.656306
0.430091 0.562615 0.671077
0.516991 0.600275 0.693721
0.607782 0.605707 0.733730
0.772671 0.600793 0.743435
0.934752 0.606836 0.737240
0.342687 0.566491 0.657069
0.353246 0.571313 0.660548
0.385443 0.583917 0.668482
0.439796 0.606714 0.682887
0.514092 0.638453 0.701686
0.616602 0.690150 0.732357
0.816495 0.810330 0.818204
0.924193 0.838376 0.839261
0.419684 0.732509 0.790158
0.428138 0.736385 0.791714
0.462531 0.754971 0.801511
0.513634 0.781216 0.812772
0.583917 0.816922 0.827146
0.685786 0.843015 0.832212
0.763485 0.856809 0.820005
0.908904 0.909148 0.881407
0.012238 0.281987 0.802396
0.110750 0.278538 0.805539
0.216587 0.259159 0.810147
0.337072 0.218265 0.822934
0.472602 0.109407 0.839689
0.629053 0.000000 0.859800
0.776242 0.000000 0.864958
0.908843 0.000000 0.857542
0.064271 0.300816 0.797848
0.120760 0.297520 0.800992
0.218631 0.279698 0.806577
0.334051 0.241276 0.818326
0.467628 0.152224 0.835294
0.623316 0.000000 0.855680
0.770596 0.000000 0.860227
0.904143 0.000000 0.853574
0.130892 0.363348 0.794705
0.159457 0.360082 0.796994
0.231571 0.344274 0.800931
0.338628 0.318486 0.817441
0.463813 0.257664 0.833341
0.614832 0.071962 0.852384
0.767758 0.000000 0.859068
0.904723 0.000000 0.853513
0.285191 0.483711 0.790463
0.288884 0.478676 0.793851
0.277989 0.444678 0.800412
0.344823 0.416449 0.814054
0.458350 0.374945 0.831876
0.606348 0.292424 0.853086
0.768948 0.238743 0.863951
0.911467 0.238010 0.858366
0.371191 0.580255 0.777493
0.377325 0.580194 0.781003
0.391699 0.572381 0.788083
0.417487 0.552209 0.803555
0.454902 0.497871 0.823331
0.585931 0.441444 0.846983
0.763027 0.391485 0.866728
0.918883 0.410712 0.865141
0.397070 0.619104 0.782223
0.403845 0.620081 0.782071
0.429511 0.625483 0.783566
0.477058 0.639216 0.790158
0.537041 0.651881 0.807340
0.591852 0.609491 0.844205
0.767391 0.566613 0.881315
0.926055 0.582971 0.874784
0.434516 0.672694 0.801114
0.441108 0.674037 0.801419
0.464881 0.679988 0.803708
0.510735 0.694667 0.811185
0.579522 0.719295 0.824125
0.674708 0.758022 0.844327
0.762173 0.756527 0.877134
0.922301 0.749447 0.880369
0.474006 0.733333 0.822843
0.479194 0.734249 0.822812
0.500603 0.740658 0.825589
0.542870 0.756374 0.834195
0.603632 0.779660 0.846525
0.684565 0.812192 0.863157
0.791287 0.858305 0.886961
0.918700 0.916442 0.921752
