data/fiter_cube/57993848/1023155/file.cube
# Created by Adobe Lightroom plugin Export LUT (1.17.0)
# www.johnrellis.com/lightroom/exportlut.htm
# Preset: 萌宠摄影后期_02 云集
# Color profile: C:\Program Files (x86)\Common Files\Adobe\Color\Profiles\Recommended\AdobeRGB1998.icc
LUT_3D_SIZE 5
DOMAIN_MIN 0.000000 0.000000 0.000000
DOMAIN_MAX 0.903226 0.903226 0.903226
0.103365 0.113802 0.125368
0.180301 0.129763 0.135225
0.420356 0.191867 0.144472
0.727352 0.285832 0.164157
0.961089 0.387213 0.259953
0.125826 0.162325 0.167788
0.164370 0.180392 0.165408
0.448432 0.273411 0.174228
0.737484 0.357946 0.212863
0.968505 0.455268 0.327977
0.151919 0.278294 0.255863
0.166964 0.275242 0.240024
0.418769 0.445777 0.311833
0.773373 0.573144 0.418158
0.951507 0.607538 0.473518
0.243687 0.476570 0.424689
0.262486 0.479255 0.417273
0.324712 0.508263 0.402808
0.666316 0.692042 0.519921
0.922850 0.778012 0.630426
0.481849 0.788937 0.691524
0.494301 0.789334 0.685389
0.517876 0.775265 0.653040
0.651820 0.838254 0.675746
0.872740 0.890349 0.730892
0.107729 0.128450 0.180087
0.170321 0.125765 0.194888
0.380957 0.138064 0.184787
0.665126 0.252873 0.224887
0.934447 0.369421 0.304204
0.131655 0.162783 0.186648
0.176486 0.188724 0.203952
0.417090 0.251743 0.229465
0.687434 0.334356 0.271946
0.937804 0.434272 0.354559
0.161715 0.289708 0.286900
0.193484 0.295445 0.280003
0.400580 0.422187 0.345373
0.748745 0.559838 0.459846
0.942168 0.606256 0.503380
0.268559 0.483467 0.450629
0.287633 0.486488 0.443793
0.335210 0.498421 0.421485
0.670405 0.692317 0.550652
0.921294 0.781643 0.657862
0.489998 0.788663 0.703212
0.501701 0.788846 0.696529
0.552148 0.800290 0.686580
0.665919 0.846860 0.695888
0.876616 0.892393 0.747707
0.084962 0.148379 0.328405
0.167880 0.136263 0.354040
0.379644 0.051972 0.401801
0.647456 0.000000 0.386633
0.930297 0.177493 0.375219
0.132326 0.221927 0.337194
0.167208 0.202121 0.361608
0.390661 0.169528 0.404669
0.647456 0.155276 0.370062
0.928283 0.351415 0.421546
0.168887 0.291997 0.351171
0.221469 0.319921 0.374304
0.422766 0.431983 0.455390
0.699977 0.517906 0.515862
0.934783 0.581170 0.557031
0.253422 0.492988 0.503807
0.300633 0.497444 0.502739
0.390753 0.516808 0.497414
0.693477 0.704189 0.635065
0.922210 0.791714 0.727565
0.472084 0.778775 0.727291
0.508232 0.787167 0.731655
0.570336 0.802182 0.723659
0.653620 0.830686 0.711238
0.883879 0.894835 0.784573
0.000000 0.182284 0.551568
0.145083 0.168368 0.565362
0.386725 0.000000 0.613001
0.633509 0.000000 0.630579
0.923278 0.000000 0.651270
0.000000 0.257328 0.556054
0.155093 0.244114 0.568322
0.379156 0.176028 0.608911
0.630060 0.126497 0.625147
0.918120 0.000000 0.639582
0.250065 0.407568 0.543725
0.298192 0.425391 0.554467
0.387274 0.410071 0.598962
0.629450 0.377935 0.619196
0.927214 0.373938 0.618189
0.288914 0.474189 0.557519
0.322118 0.486397 0.564935
0.432715 0.539513 0.601587
0.702419 0.699336 0.714717
0.927672 0.754940 0.752132
0.428290 0.780972 0.787137
0.457588 0.792966 0.792264
0.567407 0.814389 0.795285
0.691310 0.837552 0.782742
0.898955 0.902617 0.846189
0.012238 0.281987 0.802396
0.188754 0.265446 0.808316
0.402747 0.180453 0.831113
0.665583 0.000000 0.861143
0.908843 0.000000 0.857542
0.118502 0.346471 0.797482
0.207828 0.332708 0.803464
0.399054 0.269871 0.826291
0.657160 0.000000 0.856687
0.906523 0.000000 0.855131
0.324926 0.532250 0.784207
0.341619 0.520714 0.791073
0.396033 0.452705 0.815518
0.634272 0.335363 0.852262
0.913756 0.323735 0.860258
0.410346 0.635492 0.790066
0.434424 0.640314 0.791196
0.521294 0.666438 0.803677
0.632197 0.643763 0.852049
0.924865 0.622492 0.875242
0.474006 0.733333 0.822843
0.493263 0.738094 0.824277
0.571038 0.767147 0.840024
0.708583 0.822263 0.868315
0.918700 0.916442 0.921752
