data/fiter_cube/12544332/1022705/file.cube
# Created by Adobe Lightroom plugin Export LUT (1.24.0)
# www.johnrellis.com/lightroom/exportlut.htm
# Preset: 城市青橙纪实夜景 _09 云集
# Color profile: C:\Program Files (x86)\Common Files\Adobe\Color\Profiles\Recommended\AdobeRGB1998.icc
LUT_3D_SIZE 32
0.046876 0.048310 0.055695
0.081910 0.055482 0.058350
0.109438 0.061402 0.060365
0.159548 0.071778 0.061311
0.217838 0.084474 0.061036
0.267491 0.097200 0.059632
0.308843 0.108614 0.058228
0.344549 0.119539 0.056489
0.377844 0.130159 0.056184
0.410773 0.141482 0.057130
0.445106 0.152926 0.056947
0.481819 0.165072 0.054536
0.521294 0.178347 0.047333
0.563531 0.193057 0.035706
0.615869 0.210971 0.020294
0.663325 0.227176 0.002808
0.706386 0.241794 0.000000
0.745724 0.255802 0.000000
0.781735 0.268589 0.000000
0.816190 0.280827 0.000000
0.848753 0.292271 0.000000
0.878965 0.302983 0.001923
0.906249 0.312627 0.033295
0.931029 0.321508 0.064698
0.953857 0.329625 0.083070
0.975219 0.337438 0.101778
0.995575 0.345251 0.120363
1.000000 0.353094 0.139651
1.000000 0.361273 0.160067
1.000000 0.369787 0.182101
1.000000 0.378851 0.205234
1.000000 0.388769 0.230533
0.042969 0.061616 0.063783
0.078370 0.065583 0.060060
0.107393 0.069947 0.060151
0.157626 0.079896 0.061921
0.215518 0.092287 0.061646
0.265263 0.103639 0.059449
0.307012 0.113588 0.058137
0.342596 0.123568 0.056641
0.375952 0.133547 0.056519
0.408820 0.144015 0.057801
0.442817 0.155367 0.057008
0.479103 0.167117 0.054261
0.518273 0.179995 0.048310
0.560357 0.194339 0.037598
0.611200 0.211368 0.022553
0.657588 0.227298 0.006928
0.700099 0.241947 0.000000
0.739376 0.255375 0.000000
0.775570 0.268009 0.000000
0.810361 0.280125 0.000000
0.843351 0.291600 0.000000
0.874022 0.302403 0.000000
0.901854 0.312016 0.028382
0.927184 0.320958 0.061128
0.950439 0.329076 0.080385
0.972198 0.337041 0.098512
0.992950 0.344762 0.118013
1.000000 0.352667 0.137301
1.000000 0.360754 0.157900
1.000000 0.369299 0.179690
1.000000 0.378363 0.203128
1.000000 0.388190 0.228214
0.036774 0.071992 0.071931
0.073396 0.075502 0.066865
0.104555 0.079927 0.061860
0.154818 0.089540 0.062287
0.212741 0.101167 0.062013
0.262791 0.111574 0.059876
0.304509 0.120150 0.058961
0.340520 0.129091 0.057069
0.373907 0.138155 0.057191
0.406653 0.148257 0.057008
0.440620 0.158785 0.057374
0.476844 0.170108 0.054017
0.515831 0.182803 0.049104
0.557977 0.196658 0.037903
0.607843 0.213352 0.024201
0.653925 0.228672 0.007507
0.696162 0.242893 0.000000
0.735378 0.256382 0.000000
0.771695 0.269017 0.000000
0.806760 0.280858 0.000000
0.840238 0.292271 0.000000
0.871305 0.302831 0.000000
0.899443 0.312474 0.026184
0.925048 0.321355 0.060151
0.948547 0.329564 0.079530
0.970520 0.337377 0.097597
0.991485 0.345190 0.116182
1.000000 0.353033 0.135897
1.000000 0.361120 0.156832
1.000000 0.369574 0.178866
1.000000 0.378576 0.202213
1.000000 0.388342 0.227237
0.022950 0.092134 0.088136
0.060090 0.095644 0.083711
0.097414 0.098665 0.077729
0.149660 0.106813 0.064973
0.207889 0.117800 0.062898
0.258671 0.126345 0.060853
0.301030 0.133455 0.059144
0.337469 0.140536 0.056977
0.371099 0.147829 0.057588
0.404028 0.156313 0.058625
0.437812 0.166049 0.058534
0.473793 0.176699 0.056336
0.512444 0.188602 0.050324
0.554742 0.202182 0.040589
0.603662 0.218021 0.024140
0.648951 0.232883 0.007721
0.690944 0.246616 0.000000
0.729946 0.259312 0.000000
0.766262 0.271366 0.000000
0.801266 0.282994 0.000000
0.834806 0.294133 0.000000
0.866300 0.304479 0.000000
0.895262 0.314183 0.021851
0.921813 0.323125 0.057893
0.946258 0.331395 0.077546
0.969085 0.339300 0.096986
0.990661 0.347082 0.116091
1.000000 0.355047 0.135866
1.000000 0.363012 0.156924
1.000000 0.371252 0.178744
1.000000 0.380041 0.201816
1.000000 0.389532 0.226688
0.002502 0.112062 0.106630
0.013336 0.115663 0.103273
0.079622 0.118349 0.097993
0.134524 0.123323 0.088899
0.196567 0.135836 0.068849
0.251316 0.145174 0.061860
0.294865 0.150790 0.060273
0.332097 0.155734 0.058747
0.366217 0.161532 0.058198
0.399145 0.168582 0.058808
0.433021 0.176608 0.058686
0.468757 0.186282 0.055451
0.507225 0.197360 0.051545
0.549920 0.210391 0.039979
0.597742 0.225193 0.025422
0.643030 0.239231 0.009857
0.685603 0.252659 0.000000
0.725399 0.264958 0.000000
0.762356 0.276860 0.000000
0.797726 0.287999 0.000000
0.831388 0.298589 0.000000
0.863127 0.308782 0.000000
0.892393 0.318212 0.018463
0.919341 0.326879 0.056001
0.944213 0.334813 0.077028
0.967376 0.342657 0.095949
0.989166 0.350256 0.115633
1.000000 0.357855 0.135317
1.000000 0.365545 0.156344
1.000000 0.373663 0.178012
1.000000 0.382208 0.200992
1.000000 0.391485 0.226047
0.000000 0.131594 0.125429
0.000000 0.134646 0.123079
0.046540 0.137667 0.118776
0.116701 0.142275 0.108980
0.177096 0.150057 0.096132
0.238468 0.162844 0.074617
0.288304 0.170596 0.062348
0.326574 0.174136 0.059693
0.361334 0.177920 0.059297
0.394690 0.183505 0.059083
0.428595 0.190219 0.059236
0.464271 0.198978 0.056001
0.502617 0.208835 0.052674
0.546014 0.221164 0.043366
0.593164 0.234928 0.028992
0.638392 0.248447 0.011566
0.681422 0.261265 0.000000
0.721645 0.273167 0.000000
0.759213 0.284520 0.000000
0.795315 0.295445 0.000000
0.829648 0.305760 0.000000
0.861997 0.315465 0.000000
0.916167 0.334508 0.056092
0.940520 0.342107 0.075471
0.962890 0.349096 0.094057
0.983734 0.355810 0.112215
1.000000 0.362402 0.130312
1.000000 0.369299 0.149630
1.000000 0.376226 0.169528
1.000000 0.383673 0.190677
1.000000 0.391638 0.213046
1.000000 0.400214 0.237278
0.000000 0.153902 0.146548
0.000000 0.156435 0.144594
0.000000 0.159670 0.141787
0.090394 0.165042 0.130556
0.160891 0.170230 0.119722
0.222477 0.179171 0.103243
0.279179 0.189456 0.083223
0.324102 0.195956 0.062623
0.359838 0.198672 0.060517
0.394202 0.202701 0.060853
0.429053 0.208469 0.060395
0.465583 0.215854 0.058045
0.504662 0.225315 0.052247
0.550683 0.237583 0.042512
0.599207 0.251102 0.027619
0.644526 0.263676 0.011688
0.687221 0.275578 0.000000
0.727260 0.286809 0.000000
0.765194 0.297581 0.000000
0.802152 0.308019 0.000000
0.838071 0.318395 0.000000
0.872251 0.328313 0.006195
0.903593 0.337621 0.041382
0.931823 0.345953 0.070130
0.957122 0.353704 0.090150
0.979675 0.360632 0.109499
1.000000 0.367193 0.128450
1.000000 0.373754 0.147829
1.000000 0.380438 0.167941
1.000000 0.387518 0.188998
1.000000 0.395056 0.211490
1.000000 0.403326 0.235660
0.000000 0.174960 0.167269
0.000000 0.177157 0.165896
0.000000 0.179873 0.164126
0.054139 0.185061 0.155612
0.138399 0.190249 0.140536
0.203311 0.195499 0.129488
0.260716 0.203342 0.112032
0.310857 0.211032 0.093385
0.352514 0.217014 0.069825
0.387457 0.220249 0.062257
0.422492 0.224857 0.061280
0.459052 0.231174 0.059571
0.498116 0.239414 0.055360
0.544671 0.251164 0.047333
0.592065 0.263890 0.029969
0.636957 0.275364 0.015595
0.679652 0.286534 0.000549
0.719966 0.297246 0.000000
0.758389 0.307256 0.000000
0.795865 0.317266 0.000000
0.832181 0.327245 0.000000
0.866819 0.336645 0.002899
0.898711 0.345281 0.039338
0.927398 0.353246 0.068544
0.953124 0.360357 0.088502
0.976165 0.366918 0.107912
0.997131 0.373144 0.127138
1.000000 0.379187 0.146578
1.000000 0.385626 0.166415
1.000000 0.392309 0.187564
1.000000 0.399512 0.210452
1.000000 0.407416 0.234531
0.000000 0.197116 0.189487
0.000000 0.198886 0.188418
0.000000 0.201328 0.186679
0.000000 0.206271 0.180575
0.106142 0.211978 0.163699
0.184054 0.215763 0.153719
0.243992 0.220676 0.139559
0.295171 0.225681 0.122774
0.340337 0.231388 0.105653
0.380621 0.237400 0.083619
0.416205 0.242283 0.063294
0.452949 0.247501 0.062348
0.491981 0.254978 0.059052
0.539391 0.266667 0.049805
0.586023 0.278264 0.035859
0.630671 0.289189 0.018921
0.673518 0.299535 0.004517
0.714260 0.309483 0.000000
0.753017 0.319066 0.000000
0.790951 0.328496 0.000000
0.827726 0.337835 0.000000
0.862760 0.346654 0.006287
0.894957 0.354864 0.040528
0.923980 0.362280 0.067872
0.950042 0.368963 0.088319
0.973388 0.374823 0.107424
0.994751 0.380591 0.126528
1.000000 0.386236 0.145602
1.000000 0.392065 0.166201
1.000000 0.398260 0.187289
1.000000 0.405005 0.209445
1.000000 0.412543 0.233585
0.000000 0.219242 0.211246
0.000000 0.220706 0.210422
0.000000 0.222690 0.208896
0.000000 0.227146 0.203952
0.067872 0.232517 0.190585
0.158755 0.236332 0.174136
0.226658 0.239841 0.165072
0.280919 0.243107 0.148470
0.326329 0.246189 0.134768
0.368353 0.251194 0.118624
0.408728 0.257572 0.097658
0.445869 0.263767 0.069123
0.485817 0.271092 0.062165
0.532921 0.282139 0.056092
0.579675 0.293309 0.041138
0.625116 0.304021 0.024384
0.669062 0.314122 0.008759
0.710750 0.323735 0.000000
0.749996 0.332860 0.000000
0.788083 0.341741 0.000000
0.824643 0.350225 0.000000
0.859037 0.358221 0.007019
0.890867 0.365393 0.040162
0.919585 0.372015 0.067964
0.945708 0.377935 0.086946
0.969421 0.383368 0.106142
0.991363 0.388556 0.125460
1.000000 0.393835 0.144778
1.000000 0.399390 0.165408
1.000000 0.405249 0.186770
1.000000 0.411688 0.209659
1.000000 0.418830 0.233921
0.000000 0.240024 0.231754
0.000000 0.241367 0.231205
0.000000 0.243137 0.229587
0.000000 0.247166 0.225498
0.000000 0.252262 0.215061
0.123964 0.256657 0.196170
0.205722 0.259007 0.188663
0.265232 0.262455 0.176181
0.314153 0.263523 0.157931
0.355962 0.266026 0.147097
0.396887 0.271061 0.131899
0.438605 0.278447 0.110414
0.480293 0.287236 0.083040
0.526604 0.298436 0.060456
0.572839 0.308812 0.048615
0.618311 0.319005 0.031830
0.662470 0.328771 0.016205
0.704341 0.338018 0.001831
0.744106 0.346532 0.000000
0.782681 0.354955 0.000000
0.819760 0.362860 0.000000
0.854826 0.370489 0.011933
0.887114 0.377325 0.042573
0.916350 0.383337 0.068421
0.942840 0.388647 0.087678
0.966827 0.393500 0.106813
0.988952 0.398199 0.125338
1.000000 0.402808 0.145113
1.000000 0.407752 0.165377
1.000000 0.413092 0.186679
1.000000 0.419013 0.209293
1.000000 0.425727 0.233616
0.000000 0.260594 0.251621
0.000000 0.261509 0.250889
0.000000 0.263188 0.249912
0.000000 0.266728 0.246342
0.000000 0.271366 0.237858
0.083009 0.275822 0.222141
0.177218 0.278386 0.206332
0.246433 0.280400 0.199924
0.301091 0.283177 0.186465
0.345251 0.282780 0.168124
0.385199 0.285985 0.160342
0.427039 0.292027 0.144442
0.488960 0.311772 0.125551
0.539574 0.325078 0.094881
0.589105 0.337896 0.051606
0.636683 0.348058 0.035859
0.681361 0.357122 0.018647
0.722957 0.365301 0.004486
0.761807 0.372442 0.000000
0.799069 0.379370 0.000000
0.834379 0.385809 0.007599
0.867216 0.391638 0.030396
0.897215 0.396704 0.060609
0.924559 0.401129 0.078828
0.949554 0.405188 0.096864
0.972473 0.408942 0.114412
0.993683 0.412512 0.132906
1.000000 0.416297 0.151888
1.000000 0.420294 0.171511
1.000000 0.424720 0.192386
1.000000 0.429816 0.214328
1.000000 0.435737 0.238560
0.000000 0.282780 0.273075
0.000000 0.283635 0.272374
0.000000 0.284733 0.271214
0.000000 0.287724 0.267857
0.000000 0.291722 0.260349
0.000000 0.295750 0.247044
0.142397 0.298497 0.228244
0.225254 0.299443 0.222324
0.284916 0.301854 0.211978
0.334661 0.303319 0.196963
0.377111 0.304021 0.182773
0.418769 0.309087 0.174014
0.470527 0.321874 0.159609
0.526909 0.337377 0.136812
0.577356 0.350286 0.105715
0.625818 0.362799 0.049165
0.671290 0.371893 0.030915
0.713619 0.379736 0.016632
0.753231 0.386755 0.006592
0.791104 0.393378 0.004791
0.827115 0.399390 0.012329
0.860716 0.404730 0.035981
0.891356 0.409491 0.060975
0.919310 0.413367 0.079133
0.944823 0.416938 0.096651
0.968200 0.420142 0.114046
0.989868 0.423163 0.132479
1.000000 0.426368 0.151247
1.000000 0.429816 0.171023
1.000000 0.433845 0.191714
1.000000 0.438422 0.214054
1.000000 0.443854 0.238041
0.000000 0.300542 0.289982
0.000000 0.301274 0.289311
0.000000 0.302037 0.288365
0.000000 0.304784 0.285283
0.000000 0.308415 0.278782
0.000000 0.312230 0.267765
0.101137 0.315404 0.251347
0.195041 0.316686 0.237583
0.264744 0.317998 0.233921
0.318975 0.320592 0.222110
0.364782 0.321263 0.207279
0.408331 0.324834 0.196658
0.457038 0.335210 0.187991
0.510613 0.348791 0.171115
0.566033 0.363500 0.146761
0.615076 0.375341 0.115206
0.660975 0.386297 0.064546
0.703883 0.394507 0.027192
0.744381 0.401343 0.018769
0.783169 0.407782 0.013001
0.820005 0.413672 0.022889
0.854459 0.418982 0.041077
0.885954 0.423163 0.062959
0.914641 0.426825 0.079438
0.940734 0.429816 0.096895
0.964630 0.432441 0.114931
0.986755 0.434974 0.132906
1.000000 0.437629 0.151522
1.000000 0.440528 0.171145
1.000000 0.444068 0.192203
1.000000 0.448127 0.214298
1.000000 0.453040 0.238621
0.000000 0.317601 0.306218
0.000000 0.318273 0.305516
0.000000 0.318944 0.304570
0.000000 0.321233 0.301884
0.000000 0.324590 0.296391
0.000000 0.328252 0.286900
0.001801 0.331609 0.273259
0.160494 0.333593 0.256596
0.241794 0.334264 0.252140
0.300786 0.336339 0.244450
0.351659 0.339147 0.233249
0.397833 0.342290 0.219211
0.445075 0.349950 0.210758
0.496284 0.361730 0.199527
0.550103 0.374975 0.181277
0.603998 0.388708 0.156313
0.651240 0.399359 0.124880
0.694881 0.409064 0.076631
0.736049 0.416632 0.029633
0.775479 0.422889 0.026734
0.813016 0.428534 0.030854
0.848142 0.433417 0.049256
0.880339 0.437446 0.065339
0.909697 0.440650 0.080873
0.936492 0.443305 0.097688
0.961151 0.445594 0.115694
0.984039 0.447761 0.133944
1.000000 0.450172 0.153017
1.000000 0.452796 0.173373
1.000000 0.455879 0.194522
1.000000 0.459693 0.217136
1.000000 0.464240 0.242069
0.000000 0.334142 0.321477
0.000000 0.334783 0.321050
0.000000 0.335454 0.320195
0.000000 0.337499 0.318273
0.000000 0.340703 0.313512
0.000000 0.344427 0.305699
0.000000 0.347967 0.293797
0.122225 0.350622 0.279149
0.212985 0.351690 0.267277
0.282078 0.352850 0.266300
0.336004 0.355901 0.256077
0.386755 0.361181 0.245853
0.434058 0.366064 0.231510
0.483009 0.375250 0.222721
0.534508 0.386999 0.209262
0.587243 0.399481 0.189425
0.638972 0.412024 0.164309
0.684840 0.422034 0.133516
0.727626 0.431037 0.088502
0.768551 0.438849 0.039429
0.807279 0.444678 0.042542
0.843503 0.449470 0.056123
0.876646 0.453254 0.069795
0.906737 0.456184 0.085115
0.934112 0.458473 0.101289
0.959319 0.460273 0.118654
0.982635 0.461982 0.136660
1.000000 0.463813 0.155825
1.000000 0.465980 0.175601
1.000000 0.468421 0.196933
1.000000 0.471443 0.219669
1.000000 0.475380 0.244114
0.000000 0.349889 0.336217
0.000000 0.350378 0.335729
0.000000 0.351110 0.334936
0.000000 0.352850 0.333318
0.000000 0.355901 0.329381
0.000000 0.359533 0.322545
0.000000 0.363104 0.312749
0.068971 0.366033 0.299565
0.180636 0.367956 0.285710
0.258824 0.368841 0.281224
0.319371 0.372869 0.277836
0.372473 0.378149 0.268742
0.421271 0.382788 0.256504
0.470710 0.389776 0.240513
0.520623 0.400122 0.232395
0.572015 0.411597 0.217411
0.623316 0.423377 0.197543
0.673304 0.434882 0.172183
0.718227 0.444343 0.141238
0.760128 0.452979 0.098360
0.799832 0.460090 0.055055
0.836851 0.464790 0.061738
0.870787 0.468482 0.073579
0.901762 0.471260 0.086458
0.929931 0.473152 0.103487
0.955779 0.474647 0.120241
0.979736 0.475959 0.138766
1.000000 0.477333 0.157778
1.000000 0.479072 0.177554
1.000000 0.481086 0.198856
1.000000 0.483650 0.221866
1.000000 0.487037 0.246494
0.000000 0.365820 0.350988
0.000000 0.366400 0.350561
0.000000 0.371038 0.353674
0.000000 0.372534 0.352148
0.000000 0.375372 0.348547
0.000000 0.378851 0.342870
0.000000 0.382422 0.334264
0.000000 0.385565 0.322637
0.147555 0.387945 0.309270
0.232853 0.391058 0.298955
0.305303 0.395514 0.300633
0.362280 0.400855 0.293339
0.414374 0.406226 0.283146
0.465156 0.412512 0.268833
0.517296 0.421393 0.252567
0.568292 0.432013 0.243290
0.619562 0.443153 0.227298
0.669429 0.453681 0.206577
0.716793 0.463539 0.180911
0.759823 0.471656 0.150332
0.799466 0.478950 0.109316
0.836698 0.484443 0.070039
0.870603 0.487465 0.080507
0.901335 0.489357 0.092775
0.929015 0.490303 0.108125
0.954406 0.490913 0.124636
0.977996 0.491341 0.141817
1.000000 0.491859 0.160159
1.000000 0.492805 0.179568
1.000000 0.494179 0.201022
1.000000 0.496223 0.223636
1.000000 0.499031 0.248447
0.000000 0.383093 0.366766
0.000000 0.384070 0.366735
0.000000 0.385229 0.366644
0.000000 0.387091 0.365759
0.000000 0.390112 0.363256
0.000000 0.393774 0.358526
0.000000 0.397498 0.351202
0.000000 0.401068 0.341283
0.101686 0.405371 0.329961
0.202060 0.410407 0.319005
0.281163 0.414160 0.313970
0.345006 0.418585 0.311742
0.399756 0.423560 0.302159
0.450752 0.428748 0.291142
0.502922 0.436286 0.274846
0.554925 0.445594 0.260288
0.605554 0.456001 0.249180
0.655512 0.466224 0.232731
0.703670 0.476081 0.212131
0.748989 0.484810 0.187106
0.790494 0.492226 0.157015
0.829007 0.498909 0.117006
0.864469 0.503410 0.084230
0.896239 0.505272 0.096407
0.924834 0.506126 0.111177
0.951019 0.506401 0.126619
0.975189 0.506462 0.144442
0.997864 0.506584 0.162600
1.000000 0.507042 0.182223
1.000000 0.507958 0.203403
1.000000 0.509483 0.226047
1.000000 0.511681 0.250889
0.000000 0.399542 0.381262
0.000000 0.400610 0.381567
0.000000 0.401678 0.381537
0.000000 0.403510 0.380591
0.000000 0.406195 0.378790
0.000000 0.409918 0.374792
0.000000 0.413855 0.368505
0.000000 0.419318 0.361334
0.000000 0.425147 0.352087
0.167391 0.430213 0.340490
0.248814 0.434546 0.326757
0.324773 0.438148 0.326879
0.384375 0.442603 0.320012
0.438422 0.447730 0.309697
0.490028 0.453498 0.296605
0.542901 0.461738 0.279850
0.594598 0.471077 0.266697
0.644526 0.481025 0.254551
0.693172 0.490425 0.237858
0.739376 0.499184 0.217014
0.782162 0.506645 0.192966
0.821653 0.513115 0.163424
0.858335 0.518761 0.124819
0.891386 0.521843 0.100526
0.920714 0.522515 0.114351
0.947478 0.522362 0.130098
0.972168 0.521996 0.146883
0.995209 0.521660 0.165072
1.000000 0.521630 0.184573
1.000000 0.521996 0.205264
1.000000 0.522972 0.228092
1.000000 0.524590 0.252934
0.000000 0.417304 0.396948
0.000000 0.418219 0.397009
0.000000 0.419379 0.397009
0.000000 0.421118 0.396399
0.000000 0.423590 0.395056
0.000000 0.428321 0.392584
0.000000 0.434058 0.388586
0.000000 0.439918 0.382452
0.000000 0.445594 0.373754
0.120241 0.450904 0.362615
0.216953 0.455665 0.348241
0.297856 0.459388 0.338903
0.366827 0.463264 0.336675
0.424689 0.468055 0.326696
0.478370 0.473060 0.315770
0.531395 0.479927 0.301305
0.585657 0.489174 0.284245
0.637568 0.498909 0.272831
0.687678 0.508873 0.260136
0.735592 0.518029 0.243565
0.780209 0.525841 0.223850
0.820829 0.532189 0.200381
0.857664 0.537041 0.172274
0.891905 0.541344 0.135683
0.922301 0.542809 0.122469
0.949462 0.542382 0.137972
0.974395 0.541497 0.155001
0.997620 0.540581 0.173220
1.000000 0.539910 0.192691
1.000000 0.539574 0.213504
1.000000 0.539818 0.236301
1.000000 0.540826 0.261295
0.000000 0.441566 0.418128
0.000000 0.442329 0.418067
0.000000 0.443275 0.417945
0.000000 0.444984 0.417426
0.000000 0.447425 0.416266
0.000000 0.451911 0.414282
0.000000 0.457557 0.410742
0.000000 0.463569 0.405310
0.000000 0.469734 0.397803
0.000000 0.475776 0.387213
0.179355 0.481453 0.373358
0.262333 0.486458 0.353033
0.346410 0.489876 0.351324
0.412238 0.494118 0.345281
0.470283 0.498878 0.334630
0.524743 0.503990 0.322972
0.579889 0.512139 0.306981
0.634150 0.520958 0.289586
0.684657 0.529778 0.279057
0.732570 0.538018 0.265782
0.777066 0.544915 0.249210
0.817655 0.550286 0.229709
0.853849 0.554070 0.206668
0.886351 0.556512 0.179721
0.917693 0.559075 0.143832
0.945708 0.559106 0.141787
0.971283 0.557916 0.158358
0.994995 0.556695 0.176150
1.000000 0.555535 0.195377
1.000000 0.554711 0.216464
1.000000 0.554437 0.239231
1.000000 0.554833 0.264042
0.000000 0.466102 0.438941
0.000000 0.467048 0.439185
0.000000 0.468086 0.439094
0.000000 0.469886 0.438697
0.000000 0.472419 0.437690
0.000000 0.475868 0.435889
0.000000 0.481392 0.432746
0.000000 0.487312 0.427558
0.000000 0.493416 0.420508
0.000000 0.499519 0.410803
0.126009 0.505364 0.397223
0.227237 0.510948 0.377844
0.314427 0.514977 0.363104
0.392859 0.518639 0.361212
0.456764 0.523247 0.351568
0.515404 0.528374 0.340337
0.570886 0.534295 0.327428
0.626856 0.542657 0.310826
0.680354 0.550774 0.293523
0.728939 0.558465 0.284245
0.774380 0.565026 0.270909
0.815854 0.570092 0.254551
0.852903 0.573510 0.235721
0.885588 0.575219 0.213443
0.911131 0.573449 0.185702
0.940459 0.574884 0.150698
0.966796 0.573968 0.160616
0.991119 0.572320 0.178317
1.000000 0.570764 0.197452
1.000000 0.569512 0.218265
1.000000 0.568872 0.241093
1.000000 0.568780 0.266423
0.000000 0.496437 0.464393
0.000000 0.497566 0.464698
0.000000 0.498665 0.464790
0.000000 0.500175 0.464088
0.000000 0.502403 0.462959
0.000000 0.505272 0.461189
0.000000 0.509941 0.458289
0.000000 0.515648 0.453223
0.000000 0.521416 0.446052
0.000000 0.527276 0.436622
0.000000 0.532952 0.423407
0.183780 0.538537 0.404944
0.272190 0.543603 0.378180
0.366522 0.546380 0.373571
0.440101 0.549615 0.368231
0.503227 0.553674 0.356847
0.561273 0.558221 0.344793
0.617182 0.564233 0.330297
0.671992 0.571588 0.313298
0.723323 0.578271 0.297948
0.769558 0.584436 0.288487
0.811856 0.589075 0.275059
0.849516 0.591791 0.259098
0.882414 0.592767 0.240360
0.911070 0.592279 0.218601
0.936645 0.590936 0.192691
0.963989 0.591180 0.162753
0.988403 0.589258 0.182132
1.000000 0.587091 0.200565
1.000000 0.585321 0.221408
1.000000 0.584070 0.243992
1.000000 0.583490 0.269444
0.000000 0.524132 0.486854
0.000000 0.525322 0.487312
0.000000 0.526421 0.487282
0.000000 0.528038 0.486854
0.000000 0.530175 0.485603
0.000000 0.532952 0.483955
0.000000 0.536828 0.481575
0.000000 0.542596 0.476997
0.000000 0.548760 0.470649
0.000000 0.555169 0.461952
0.000000 0.561395 0.450111
0.118410 0.567742 0.432837
0.233005 0.573693 0.407874
0.329961 0.577752 0.386847
0.419623 0.580621 0.384283
0.490944 0.584405 0.375128
0.554681 0.588769 0.363226
0.613642 0.593774 0.350591
0.670253 0.599786 0.334783
0.723293 0.605432 0.318029
0.771237 0.609888 0.304662
0.813779 0.613275 0.294835
0.851621 0.614984 0.281376
0.884733 0.614923 0.265415
0.913695 0.613550 0.247044
0.939147 0.611231 0.225925
0.961913 0.608362 0.201266
0.987396 0.607416 0.185489
1.000000 0.605035 0.206302
1.000000 0.602777 0.226871
1.000000 0.601038 0.249729
1.000000 0.599786 0.275395
0.000000 0.555657 0.511894
0.000000 0.556695 0.512139
0.000000 0.557610 0.512016
0.000000 0.558984 0.511406
0.000000 0.560815 0.510033
0.000000 0.563287 0.508202
0.000000 0.566552 0.505821
0.000000 0.571710 0.501915
0.000000 0.577935 0.495949
0.000000 0.584497 0.487831
0.000000 0.591058 0.476783
0.000000 0.597833 0.461250
0.180911 0.604395 0.438270
0.281621 0.610193 0.405585
0.389136 0.612848 0.398138
0.473274 0.615808 0.393652
0.543236 0.619745 0.381811
0.606989 0.624140 0.369146
0.666560 0.629389 0.355810
0.721431 0.633631 0.339025
0.771298 0.636530 0.322728
0.815000 0.638331 0.310887
0.853056 0.638697 0.300816
0.886381 0.637568 0.287449
0.915557 0.635218 0.271824
0.941283 0.632013 0.253483
0.964202 0.628290 0.232731
0.984741 0.624201 0.208011
1.000000 0.621942 0.208316
1.000000 0.619501 0.230777
1.000000 0.617121 0.253513
1.000000 0.615381 0.279210
0.000000 0.587823 0.536767
0.000000 0.588708 0.536889
0.000000 0.589563 0.536706
0.000000 0.590967 0.536034
0.000000 0.593072 0.534997
0.000000 0.596124 0.533623
0.000000 0.600305 0.532128
0.000000 0.605737 0.530266
0.000000 0.613703 0.525719
0.000000 0.622065 0.519249
0.000000 0.630549 0.509941
0.000000 0.639063 0.496284
0.089235 0.647242 0.475502
0.238254 0.654505 0.445167
0.351476 0.659358 0.418769
0.456336 0.661707 0.415839
0.537987 0.664759 0.407507
0.608667 0.668574 0.394690
0.673579 0.672999 0.381201
0.732998 0.676905 0.366278
0.783627 0.676936 0.349798
0.828092 0.675441 0.333745
0.865537 0.672724 0.323919
0.897978 0.669184 0.313451
0.926421 0.664820 0.300267
0.951568 0.659907 0.284642
0.974029 0.654658 0.266484
0.994110 0.649226 0.245945
1.000000 0.643702 0.221805
1.000000 0.640192 0.239902
1.000000 0.637263 0.264591
1.000000 0.634638 0.290562
0.000000 0.632136 0.570336
0.000000 0.632837 0.570184
0.000000 0.633387 0.569970
0.000000 0.634516 0.569055
0.000000 0.636347 0.567742
0.000000 0.638880 0.565881
0.000000 0.642420 0.563836
0.000000 0.646967 0.561486
0.000000 0.653132 0.557549
0.000000 0.660761 0.550713
0.000000 0.668391 0.541131
0.000000 0.676081 0.527855
0.000000 0.683497 0.508598
0.174350 0.690364 0.480659
0.297612 0.696040 0.443549
