data/fiter_cube/12544332/1022705/file.cube
# Created by Adobe Lightroom plugin Export LUT (1.24.0)
# www.johnrellis.com/lightroom/exportlut.htm
# Preset: 城市青橙纪实夜景 _09 云集
# Color profile: C:\Program Files (x86)\Common Files\Adobe\Color\Profiles\Recommended\AdobeRGB1998.icc
LUT_3D_SIZE 8
DOMAIN_MIN 0.000000 0.000000 0.000000
DOMAIN_MAX 0.903226 0.903226 0.903226
0.046876 0.048310 0.055695
0.217838 0.084474 0.061036
0.377844 0.130159 0.056184
0.521294 0.178347 0.047333
0.706386 0.241794 0.000000
0.848753 0.292271 0.000000
0.953857 0.329625 0.083070
1.000000 0.361273 0.160067
0.002502 0.112062 0.106630
0.196567 0.135836 0.068849
0.366217 0.161532 0.058198
0.507225 0.197360 0.051545
0.685603 0.252659 0.000000
0.831388 0.298589 0.000000
0.944213 0.334813 0.077028
1.000000 0.365545 0.156344
0.000000 0.197116 0.189487
0.106142 0.211978 0.163699
0.340337 0.231388 0.105653
0.491981 0.254978 0.059052
0.673518 0.299535 0.004517
0.827726 0.337835 0.000000
0.950042 0.368963 0.088319
1.000000 0.392065 0.166201
0.000000 0.282780 0.273075
0.000000 0.291722 0.260349
0.284916 0.301854 0.211978
0.470527 0.321874 0.159609
0.671290 0.371893 0.030915
0.827115 0.399390 0.012329
0.944823 0.416938 0.096651
1.000000 0.429816 0.171023
0.000000 0.349889 0.336217
0.000000 0.355901 0.329381
0.180636 0.367956 0.285710
0.421271 0.382788 0.256504
0.623316 0.423377 0.197543
0.799832 0.460090 0.055055
0.929931 0.473152 0.103487
1.000000 0.479072 0.177554
0.000000 0.417304 0.396948
0.000000 0.423590 0.395056
0.000000 0.445594 0.373754
0.366827 0.463264 0.336675
0.585657 0.489174 0.284245
0.780209 0.525841 0.223850
0.922301 0.542809 0.122469
1.000000 0.539910 0.192691
0.000000 0.524132 0.486854
0.000000 0.530175 0.485603
0.000000 0.548760 0.470649
0.233005 0.573693 0.407874
0.554681 0.588769 0.363226
0.771237 0.609888 0.304662
0.913695 0.613550 0.247044
1.000000 0.605035 0.206302
0.000000 0.670039 0.597986
0.000000 0.674220 0.595300
0.000000 0.690639 0.586664
0.000000 0.722133 0.542138
0.483314 0.727962 0.444129
0.779873 0.742672 0.395880
0.933593 0.716793 0.342962
1.000000 0.686183 0.282048
0.000000 0.109163 0.183688
0.178744 0.119020 0.162936
0.354009 0.165469 0.094179
0.492592 0.214206 0.054292
0.671077 0.265080 0.001038
0.819821 0.307042 0.000000
0.937804 0.339635 0.073304
1.000000 0.366308 0.152010
0.000000 0.149996 0.207523
0.156191 0.162112 0.189181
0.344152 0.187472 0.131258
0.486702 0.227329 0.056611
0.661799 0.274479 0.004608
0.811521 0.314244 0.000000
0.930632 0.344823 0.069551
1.000000 0.370062 0.148165
0.000000 0.218021 0.244297
0.067506 0.234775 0.242466
0.322026 0.244846 0.198398
0.475105 0.264927 0.122133
0.648798 0.310369 0.016114
0.806088 0.346868 0.000000
0.931579 0.373693 0.076844
1.000000 0.394415 0.155917
0.000000 0.291814 0.304204
0.000000 0.302068 0.299290
0.270390 0.310521 0.260319
0.450690 0.323522 0.218112
0.635767 0.363195 0.122042
0.796689 0.397498 0.008728
0.925475 0.417517 0.083742
1.000000 0.430610 0.161105
0.000000 0.357244 0.358953
0.000000 0.362768 0.353338
0.160891 0.373938 0.317021
0.409277 0.384955 0.286778
0.601343 0.417914 0.236851
0.781369 0.456062 0.128298
0.919158 0.474922 0.097139
1.000000 0.480507 0.171572
0.000000 0.421637 0.412726
0.000000 0.426947 0.410071
0.000000 0.445930 0.391180
0.351354 0.462318 0.351843
0.573388 0.487404 0.305760
0.770993 0.525475 0.254398
0.916136 0.544366 0.145357
1.000000 0.541222 0.188510
0.000000 0.520653 0.493721
0.000000 0.523980 0.490578
0.000000 0.542718 0.478096
0.212772 0.569360 0.425299
0.541802 0.587060 0.377142
0.760678 0.606989 0.319707
0.904387 0.610834 0.266453
1.000000 0.604120 0.200320
0.000000 0.664973 0.602564
0.000000 0.670375 0.601099
0.000000 0.687343 0.593500
0.000000 0.719570 0.554406
0.471839 0.738705 0.462226
0.776516 0.747921 0.412879
0.930053 0.718105 0.356176
1.000000 0.686305 0.296452
0.000000 0.188479 0.330510
0.000000 0.194888 0.326329
0.308782 0.210086 0.289372
0.471260 0.238346 0.221897
0.656672 0.298528 0.153811
0.811063 0.355169 0.000000
0.936126 0.378363 0.080781
1.000000 0.392279 0.158602
0.000000 0.219211 0.336309
0.000000 0.219486 0.334020
0.297551 0.232090 0.300755
0.461494 0.253239 0.240238
0.643488 0.304692 0.174075
0.803067 0.360266 0.000000
0.930785 0.382910 0.078431
1.000000 0.396674 0.156924
0.000000 0.265904 0.358770
0.000000 0.270603 0.355840
0.271580 0.282506 0.332006
0.445624 0.297124 0.287144
0.633509 0.335485 0.220645
0.798489 0.381872 0.107576
0.928069 0.406165 0.081849
1.000000 0.416236 0.159854
0.000000 0.318517 0.382269
0.000000 0.325780 0.382147
0.188327 0.341619 0.364324
0.423987 0.351232 0.335821
0.617365 0.383154 0.279118
0.789517 0.419928 0.190066
0.924804 0.446021 0.091920
1.000000 0.450721 0.166964
0.000000 0.374304 0.415656
0.000000 0.381292 0.415595
0.014771 0.399207 0.404730
0.385565 0.409735 0.370581
0.586053 0.436683 0.335515
0.770504 0.470130 0.268833
0.915190 0.494575 0.150240
1.000000 0.496620 0.175967
0.000000 0.440070 0.462776
0.000000 0.446509 0.462623
0.000000 0.466621 0.456764
0.294682 0.483223 0.409155
0.553582 0.500481 0.371893
0.752956 0.532403 0.333318
0.905943 0.552483 0.261479
1.000000 0.554528 0.192325
0.000000 0.539452 0.539513
0.000000 0.543664 0.537713
0.000000 0.560662 0.529686
0.117342 0.585443 0.492409
0.510643 0.601709 0.429938
0.749294 0.617792 0.373541
0.899809 0.621454 0.334569
1.000000 0.616236 0.255619
0.000000 0.676112 0.639216
0.000000 0.678492 0.635523
0.000000 0.693538 0.627588
0.000000 0.728237 0.603296
0.394110 0.750088 0.504753
0.753231 0.757626 0.465461
0.923735 0.728481 0.405737
1.000000 0.695308 0.352178
0.000000 0.253361 0.437720
0.000000 0.266117 0.434607
0.084260 0.252628 0.429206
0.418341 0.286900 0.390723
0.616449 0.312779 0.328374
0.786343 0.363958 0.267491
0.921080 0.408179 0.176059
1.000000 0.421149 0.158694
0.000000 0.277592 0.443183
0.000000 0.281895 0.441230
0.087556 0.271031 0.433997
0.413947 0.298863 0.397101
0.610346 0.322576 0.336736
0.780758 0.370336 0.276555
0.917693 0.412604 0.186099
1.000000 0.424811 0.158968
0.000000 0.311223 0.454841
0.000000 0.314794 0.453101
0.012634 0.313115 0.445777
0.395697 0.331304 0.413642
0.595392 0.354803 0.363378
0.777737 0.398474 0.308476
0.922881 0.436255 0.222263
1.000000 0.444099 0.166934
0.000000 0.358892 0.479530
0.000000 0.363287 0.476081
0.000000 0.368536 0.470588
0.369238 0.382635 0.444190
0.571710 0.401892 0.401678
0.761501 0.434913 0.344121
0.912566 0.464942 0.260929
1.000000 0.474830 0.171878
0.000000 0.411627 0.504051
0.000000 0.416358 0.501244
0.000000 0.429511 0.501030
0.292821 0.448890 0.479561
0.550072 0.461372 0.443824
0.749569 0.488808 0.389899
0.906310 0.510613 0.312871
1.000000 0.518547 0.181796
0.000000 0.481086 0.547662
0.000000 0.488380 0.548699
0.000000 0.501915 0.545861
0.179446 0.523400 0.526421
0.518578 0.535698 0.472999
0.733028 0.553460 0.435981
0.895872 0.568719 0.373449
1.000000 0.569970 0.273167
0.000000 0.571954 0.611597
0.000000 0.575952 0.609979
0.000000 0.590143 0.604700
0.000000 0.617517 0.589776
0.421790 0.636774 0.514427
0.729488 0.644923 0.466468
0.888365 0.639277 0.428138
1.000000 0.630091 0.355108
0.000000 0.703182 0.705165
0.000000 0.706935 0.703151
0.000000 0.717678 0.693202
0.000000 0.741695 0.673732
0.229068 0.768399 0.605310
0.700984 0.773312 0.552331
0.909392 0.747951 0.484382
1.000000 0.711727 0.436469
0.000000 0.327733 0.552026
0.000000 0.335912 0.549432
0.000000 0.333501 0.545037
0.271855 0.321538 0.534447
0.556146 0.345403 0.486549
0.754330 0.371313 0.414618
0.904021 0.422827 0.361852
1.000000 0.455329 0.286564
0.000000 0.344366 0.555444
0.000000 0.351354 0.553735
0.000000 0.345525 0.550134
0.261082 0.329747 0.537865
0.550958 0.354009 0.489631
0.751369 0.379492 0.420142
0.902892 0.428504 0.366796
1.000000 0.458778 0.289128
0.000000 0.376501 0.565698
0.000000 0.382330 0.562951
0.000000 0.377966 0.562402
0.232700 0.363928 0.548028
0.533806 0.381292 0.499855
0.736782 0.404120 0.435889
0.896635 0.445930 0.380163
1.000000 0.469459 0.293767
0.000000 0.416510 0.585382
0.000000 0.421546 0.582269
0.000000 0.423529 0.580957
0.192355 0.420478 0.567987
0.511803 0.429541 0.523980
0.724392 0.449683 0.466773
0.893278 0.477913 0.401709
1.000000 0.489113 0.295720
0.000000 0.471504 0.615076
0.000000 0.475715 0.612238
0.000000 0.480446 0.607782
0.072938 0.483925 0.595056
0.477333 0.491341 0.556878
0.706355 0.506432 0.503410
0.886473 0.521691 0.428870
1.000000 0.526116 0.327214
0.000000 0.529137 0.643091
0.000000 0.532525 0.640742
0.000000 0.539239 0.634638
0.000000 0.549187 0.624994
0.370672 0.566552 0.588617
0.684443 0.578424 0.550378
0.875975 0.590326 0.487648
1.000000 0.582147 0.387396
0.000000 0.615625 0.700343
0.000000 0.617975 0.697810
0.000000 0.627527 0.689815
0.000000 0.643153 0.681788
0.202884 0.666255 0.645411
0.665309 0.674952 0.584710
0.862150 0.665309 0.540612
0.989685 0.648737 0.459358
0.000000 0.725948 0.775967
0.000000 0.728359 0.773587
0.000000 0.737148 0.765225
0.000000 0.759243 0.753445
0.000000 0.782315 0.715419
0.587579 0.790463 0.646998
0.877806 0.776761 0.587671
0.990631 0.736782 0.541405
0.000000 0.421668 0.689052
0.000000 0.427955 0.687312
0.000000 0.435584 0.681392
0.000000 0.415961 0.675959
0.435828 0.401129 0.652125
0.702510 0.424933 0.591241
0.877958 0.456031 0.525658
0.995056 0.498421 0.480720
0.000000 0.429603 0.685847
0.000000 0.434638 0.683497
0.000000 0.439460 0.679042
0.000000 0.421241 0.672999
0.425910 0.404425 0.650599
0.696590 0.430274 0.591882
0.874907 0.460914 0.527977
0.993835 0.501305 0.481666
0.000000 0.461311 0.697292
0.000000 0.464790 0.694240
0.000000 0.465492 0.689937
0.000000 0.450996 0.683040
0.396979 0.424842 0.660700
0.687953 0.457069 0.603510
0.870817 0.484413 0.542473
0.993011 0.515190 0.489509
0.000000 0.495827 0.711025
0.000000 0.499397 0.707851
0.000000 0.503227 0.703792
0.000000 0.497841 0.700771
0.339971 0.471412 0.683131
0.678859 0.505760 0.628595
0.867918 0.526268 0.568902
0.994293 0.538537 0.500328
0.000000 0.536584 0.725948
0.000000 0.540551 0.724025
0.000000 0.547997 0.719387
0.000000 0.546258 0.714290
0.260349 0.534539 0.697963
0.649958 0.554376 0.649073
0.856260 0.567712 0.588281
0.993194 0.561120 0.498054
0.000000 0.587182 0.747036
0.000000 0.591760 0.746517
0.000000 0.602014 0.740871
0.000000 0.604883 0.735988
0.108186 0.607294 0.722316
0.614099 0.626246 0.684962
0.846036 0.633753 0.626795
0.991608 0.611566 0.525078
0.000000 0.659419 0.789792
0.000000 0.663325 0.789303
0.000000 0.673548 0.784360
0.000000 0.685237 0.778500
0.000000 0.698299 0.766781
0.493538 0.721187 0.723293
0.824735 0.715267 0.680751
0.975341 0.694820 0.603571
0.000000 0.745235 0.845487
0.000000 0.747677 0.844053
0.000000 0.756832 0.839353
0.000000 0.775448 0.831571
0.000000 0.798672 0.818051
0.247288 0.823606 0.767025
0.815518 0.817777 0.721340
0.966125 0.782101 0.674739
0.000000 0.506828 0.809354
0.000000 0.511559 0.807980
0.000000 0.527916 0.803006
0.000000 0.517693 0.800259
0.097383 0.481453 0.791379
0.620233 0.517266 0.766964
0.830320 0.549767 0.704891
0.959686 0.599145 0.673915
0.000000 0.514397 0.810452
0.000000 0.518791 0.809049
0.000000 0.534112 0.804196
0.000000 0.523033 0.800870
0.081849 0.488930 0.792538
0.616388 0.522087 0.768704
0.828946 0.555566 0.707515
0.959197 0.603418 0.676417
0.000000 0.534447 0.814725
0.000000 0.538415 0.813382
0.000000 0.552361 0.808743
0.000000 0.542779 0.805600
0.000000 0.514458 0.797513
0.600855 0.538140 0.774777
0.824399 0.574853 0.716335
0.957733 0.617731 0.684443
0.000000 0.562188 0.823178
0.000000 0.565423 0.821653
0.000000 0.577874 0.817380
0.000000 0.574090 0.813809
0.000000 0.554131 0.806394
0.564813 0.562585 0.785306
0.816861 0.606226 0.730892
0.956146 0.640436 0.696559
0.000000 0.597314 0.834348
0.000000 0.600641 0.833249
0.000000 0.611658 0.829496
0.000000 0.614588 0.825437
0.000000 0.602502 0.819028
0.482979 0.594018 0.801205
0.806271 0.647669 0.750942
0.954681 0.670710 0.711391
0.000000 0.640131 0.848478
0.000000 0.643061 0.847562
0.000000 0.653285 0.844327
0.000000 0.664149 0.839811
0.000000 0.660548 0.835019
0.364752 0.656855 0.821195
0.789578 0.701472 0.777249
0.953094 0.709041 0.728542
0.000000 0.687800 0.864408
0.000000 0.690547 0.863645
0.000000 0.700038 0.861021
0.000000 0.716762 0.856352
0.000000 0.723140 0.852750
0.201450 0.734371 0.842832
0.760433 0.768704 0.809812
0.947784 0.762234 0.753933
0.000000 0.749935 0.898772
0.000000 0.752499 0.898375
0.000000 0.761593 0.896910
0.000000 0.778134 0.893889
0.000000 0.802243 0.888487
0.000000 0.824643 0.879698
0.647822 0.853666 0.838987
0.931731 0.840787 0.807980
0.000000 0.582055 0.915923
0.000000 0.586023 0.915251
0.000000 0.600214 0.912749
0.000000 0.611841 0.909392
0.000000 0.595392 0.906157
0.468727 0.605249 0.896300
0.807523 0.692073 0.876005
0.929076 0.728756 0.831449
0.000000 0.586084 0.916503
0.000000 0.589990 0.915831
0.000000 0.603723 0.913390
0.000000 0.615747 0.910002
0.000000 0.599817 0.906828
0.461494 0.608240 0.897124
0.805539 0.695583 0.876799
0.928618 0.731624 0.832853
0.000000 0.597345 0.918853
0.000000 0.600977 0.918181
0.000000 0.613916 0.915862
0.000000 0.628626 0.912261
0.000000 0.614588 0.909178
0.432471 0.618158 0.900175
0.798337 0.707485 0.879545
0.927031 0.741360 0.837644
0.000000 0.611322 0.923461
0.000000 0.614771 0.922850
0.000000 0.627131 0.920623
0.000000 0.649592 0.916350
0.000000 0.638514 0.913451
0.373724 0.637385 0.905455
0.783108 0.722957 0.884764
0.924620 0.757382 0.845701
0.000000 0.638880 0.929503
0.000000 0.641016 0.929015
0.000000 0.648280 0.927367
0.000000 0.659998 0.924193
0.000000 0.668818 0.919890
0.233829 0.663386 0.913146
0.753201 0.739284 0.892821
0.921080 0.779660 0.856962
0.000000 0.673732 0.937072
0.000000 0.675746 0.936675
0.000000 0.682582 0.935241
0.000000 0.694270 0.932555
0.000000 0.708248 0.928405
0.000000 0.699855 0.923339
0.687526 0.755337 0.904906
0.915892 0.808591 0.871641
0.000000 0.713436 0.946014
0.000000 0.715328 0.945678
0.000000 0.721889 0.944549
0.000000 0.733944 0.942321
0.000000 0.753017 0.938567
0.000000 0.756741 0.934508
0.541253 0.782681 0.921386
0.907195 0.845335 0.890166
0.000000 0.756283 0.955993
0.000000 0.758114 0.955749
0.000000 0.764736 0.954833
0.000000 0.777310 0.953155
0.000000 0.797543 0.950225
0.000000 0.819150 0.946166
0.359289 0.844602 0.937713
0.889372 0.893309 0.913359
