data/fiter_cube/12544332/1022705/file.cube
# Created by Adobe Lightroom plugin Export LUT (1.24.0)
# www.johnrellis.com/lightroom/exportlut.htm
# Preset: 城市青橙纪实夜景 _09 云集
# Color profile: C:\Program Files (x86)\Common Files\Adobe\Color\Profiles\Recommended\AdobeRGB1998.icc
LUT_3D_SIZE 5
DOMAIN_MIN 0.000000 0.000000 0.000000
DOMAIN_MAX 0.903226 0.903226 0.903226
0.046876 0.048310 0.055695
0.344549 0.119539 0.056489
0.615869 0.210971 0.020294
0.878965 0.302983 0.001923
1.000000 0.361273 0.160067
0.000000 0.174960 0.167269
0.310857 0.211032 0.093385
0.592065 0.263890 0.029969
0.866819 0.336645 0.002899
1.000000 0.385626 0.166415
0.000000 0.317601 0.306218
0.160494 0.333593 0.256596
0.550103 0.374975 0.181277
0.848142 0.433417 0.049256
1.000000 0.452796 0.173373
0.000000 0.441566 0.418128
0.000000 0.463569 0.405310
0.470283 0.498878 0.334630
0.817655 0.550286 0.229709
1.000000 0.555535 0.195377
0.000000 0.670039 0.597986
0.000000 0.684993 0.589380
0.241123 0.721920 0.475166
0.829557 0.738918 0.380255
1.000000 0.686183 0.282048
0.000000 0.169680 0.296910
0.281132 0.187015 0.260014
0.567773 0.260990 0.142489
0.843076 0.347692 0.000000
1.000000 0.383581 0.154147
0.000000 0.241428 0.326940
0.246342 0.256291 0.301518
0.550591 0.294926 0.200687
0.837156 0.373144 0.003571
1.000000 0.403571 0.157687
0.000000 0.339422 0.378424
0.000000 0.359075 0.365270
0.508049 0.383856 0.307195
0.821256 0.446448 0.154147
1.000000 0.468177 0.171695
0.000000 0.461402 0.469886
0.000000 0.484047 0.466560
0.443000 0.516625 0.395911
0.802670 0.557397 0.313603
1.000000 0.566674 0.196139
0.000000 0.679072 0.632776
0.000000 0.693355 0.624811
0.133303 0.741482 0.545861
0.821134 0.755520 0.434180
1.000000 0.694789 0.339208
0.000000 0.288853 0.492897
0.000000 0.295201 0.487129
0.485145 0.316747 0.438941
0.811978 0.381933 0.330480
1.000000 0.442512 0.161807
0.000000 0.333288 0.504814
0.000000 0.332525 0.499855
0.468940 0.346960 0.452277
0.801724 0.403845 0.351171
1.000000 0.455512 0.168704
0.000000 0.411536 0.544640
0.000000 0.420386 0.540093
0.419867 0.433845 0.498482
0.782437 0.473091 0.406592
1.000000 0.502159 0.234501
0.000000 0.526513 0.610132
0.000000 0.535882 0.602777
0.242405 0.569909 0.571893
0.758724 0.588830 0.490364
1.000000 0.588617 0.346654
0.000000 0.712764 0.738369
0.000000 0.723537 0.731106
0.000000 0.760952 0.693507
0.734554 0.781125 0.584771
0.998474 0.720851 0.482856
0.000000 0.440223 0.715663
0.000000 0.459022 0.709712
0.086549 0.419043 0.699245
0.734951 0.449409 0.616968
0.986511 0.516838 0.528801
0.000000 0.469062 0.720943
0.000000 0.481025 0.714809
0.000000 0.447059 0.703151
0.723598 0.470588 0.624262
0.983398 0.527214 0.533165
0.000000 0.527184 0.740627
0.000000 0.539940 0.734310
0.000000 0.525841 0.723629
0.697871 0.541833 0.656275
0.983032 0.566796 0.549126
0.000000 0.617212 0.781003
0.000000 0.626154 0.774258
0.000000 0.636164 0.764401
0.649989 0.661280 0.716548
0.981659 0.641749 0.579400
0.000000 0.747127 0.859861
0.000000 0.756680 0.856901
0.000000 0.791257 0.844755
0.364782 0.834226 0.784695
0.957885 0.795285 0.708248
0.000000 0.582055 0.915923
0.000000 0.595666 0.913573
0.000000 0.605249 0.908080
0.583917 0.629541 0.891295
0.929076 0.728756 0.831449
0.000000 0.594049 0.918059
0.000000 0.606683 0.915801
0.000000 0.618585 0.910277
0.566918 0.639216 0.894163
0.927550 0.738277 0.836149
0.000000 0.623774 0.926299
0.000000 0.631067 0.924620
0.000000 0.658137 0.918090
0.465583 0.660670 0.905089
0.923033 0.767697 0.850919
0.000000 0.683253 0.939208
0.000000 0.689845 0.937896
0.000000 0.711910 0.932982
0.000000 0.713161 0.923735
0.914183 0.816953 0.875883
0.000000 0.756283 0.955993
0.000000 0.762570 0.955169
0.000000 0.786313 0.951873
0.000000 0.822354 0.945006
0.889372 0.893309 0.913359
