data/fiter_cube/93231427/1022690/file.cube
# Created by Adobe Lightroom plugin Export LUT (1.17.0)
# www.johnrellis.com/lightroom/exportlut.htm
# Preset: 工业风黑金_02 云集后期
# Color profile: C:\Program Files (x86)\Common Files\Adobe\Color\Profiles\Recommended\AdobeRGB1998.icc
LUT_3D_SIZE 5
DOMAIN_MIN 0.000000 0.000000 0.000000
DOMAIN_MAX 0.903226 0.903226 0.903226
0.000000 0.000000 0.000000
0.261357 0.014160 0.041657
0.506523 0.000000 0.061555
0.713893 0.072206 0.122652
0.871031 0.168643 0.205783
0.074098 0.187594 0.106661
0.246342 0.190982 0.075624
0.495003 0.229404 0.089754
0.704585 0.231815 0.141146
0.876249 0.268345 0.227054
0.126833 0.320897 0.181460
0.122591 0.263737 0.133242
0.455299 0.352331 0.148684
0.694881 0.416083 0.198489
0.858061 0.438544 0.267765
0.157076 0.432013 0.237797
0.146273 0.388312 0.198215
0.181918 0.307225 0.130434
0.626581 0.485084 0.193454
0.853361 0.528557 0.311101
0.248447 0.671626 0.374426
0.233249 0.655177 0.344488
0.176699 0.562799 0.220798
0.464149 0.632105 0.225010
0.854612 0.675532 0.328130
0.000000 0.130648 0.196231
0.216739 0.145449 0.220249
0.503777 0.092958 0.236210
0.689723 0.116304 0.238621
0.847929 0.184115 0.273899
0.102724 0.254429 0.239536
0.287327 0.266270 0.257572
0.505119 0.248112 0.244053
0.685939 0.241367 0.247227
0.846921 0.268589 0.284611
0.208072 0.394079 0.280369
0.226200 0.349462 0.247288
0.470192 0.371221 0.250645
0.679774 0.436591 0.280552
0.846006 0.441321 0.324254
0.228183 0.488563 0.311376
0.214176 0.443091 0.269200
0.188479 0.316350 0.164553
0.630945 0.492622 0.257725
0.846525 0.547967 0.363012
0.294682 0.683436 0.415412
0.275547 0.667475 0.384466
0.220645 0.605859 0.272862
0.458289 0.636500 0.249882
0.858213 0.683650 0.369360
0.000000 0.291234 0.434913
0.256809 0.324804 0.416846
0.477790 0.345159 0.483650
0.700740 0.329473 0.478859
0.841306 0.318791 0.466194
0.159792 0.354314 0.465614
0.307805 0.378088 0.457374
0.520897 0.406928 0.513481
0.693477 0.370123 0.477241
0.839353 0.343084 0.459174
0.253513 0.531762 0.503105
0.365454 0.532464 0.508598
0.567864 0.537957 0.525841
0.682429 0.481544 0.473915
0.835782 0.468391 0.469062
0.349950 0.626917 0.492134
0.383337 0.607721 0.483009
0.359442 0.493446 0.375006
0.658595 0.542992 0.443763
0.832853 0.618647 0.506401
0.414496 0.722225 0.535088
0.426520 0.713100 0.528038
0.357275 0.665858 0.426581
0.378241 0.595911 0.280156
0.839109 0.684962 0.460548
0.165682 0.442756 0.630671
0.301183 0.464515 0.625147
0.562860 0.575036 0.604059
0.652613 0.546471 0.659449
0.839689 0.562585 0.686122
0.262058 0.478218 0.637140
0.353674 0.496101 0.633845
0.570764 0.585412 0.617762
0.660761 0.567559 0.662959
0.834897 0.570336 0.682307
0.225650 0.533745 0.646540
0.322545 0.533745 0.646357
0.579370 0.607599 0.647974
0.684199 0.621027 0.674495
0.834226 0.593347 0.672602
0.442145 0.694911 0.666773
0.493629 0.690272 0.665980
0.606592 0.690028 0.674952
0.708461 0.686244 0.677455
0.834836 0.641657 0.636255
0.554528 0.803769 0.696925
0.567102 0.797665 0.693629
0.594720 0.774166 0.675898
0.507958 0.676112 0.530694
0.831022 0.715480 0.606836
0.396033 0.596338 0.776516
0.463264 0.614069 0.771450
0.602411 0.662379 0.756069
0.726101 0.727779 0.734524
0.786862 0.677668 0.798276
0.420630 0.611261 0.778561
0.477974 0.625849 0.774380
0.605615 0.668299 0.761440
0.734676 0.735531 0.738430
0.791440 0.686458 0.800992
0.376928 0.627344 0.789548
0.468574 0.647791 0.786404
0.599542 0.682002 0.778561
0.739193 0.745937 0.762600
0.812406 0.718837 0.816373
0.387884 0.718715 0.803342
0.428687 0.716579 0.801816
0.526574 0.708125 0.800198
0.719539 0.755398 0.804990
0.854032 0.780758 0.847532
0.552483 0.864042 0.831815
0.571160 0.863310 0.832242
0.634302 0.863096 0.836088
0.743099 0.864073 0.845274
0.887510 0.866423 0.858122
