data/fiter_cube/93231427/1022690/file.cube
# Created by Adobe Lightroom plugin Export LUT (1.17.0)
# www.johnrellis.com/lightroom/exportlut.htm
# Preset: 工业风黑金_02 云集后期
# Color profile: C:\Program Files (x86)\Common Files\Adobe\Color\Profiles\Recommended\AdobeRGB1998.icc
LUT_3D_SIZE 8
DOMAIN_MIN 0.000000 0.000000 0.000000
DOMAIN_MAX 0.903226 0.903226 0.903226
0.000000 0.000000 0.000000
0.134188 0.027649 0.034180
0.300023 0.004211 0.041016
0.441718 0.000000 0.048280
0.568963 0.000000 0.071717
0.690425 0.050935 0.111086
0.775631 0.113802 0.155184
0.871031 0.168643 0.205783
0.060456 0.107088 0.072236
0.135073 0.108827 0.059632
0.291234 0.134401 0.048585
0.429053 0.129366 0.059937
0.555352 0.125429 0.078096
0.674342 0.133455 0.110750
0.761440 0.154574 0.151553
0.859342 0.193973 0.202274
0.080964 0.210452 0.118471
0.091371 0.189364 0.098970
0.277409 0.214267 0.084840
0.430549 0.250095 0.093172
0.566705 0.264225 0.108949
0.676326 0.260472 0.136446
0.772335 0.268070 0.180514
0.871672 0.289281 0.229252
0.113069 0.287938 0.162295
0.114626 0.269474 0.145602
0.155184 0.241062 0.121584
0.406104 0.314183 0.131594
0.584649 0.342321 0.154055
0.684382 0.390936 0.181399
0.768246 0.380774 0.212192
0.864652 0.389197 0.254124
0.137240 0.349340 0.197147
0.135042 0.333165 0.182620
0.125765 0.278843 0.137758
0.236942 0.307805 0.136110
0.496834 0.384588 0.161227
0.660243 0.389227 0.192477
0.752041 0.456764 0.235386
0.854490 0.489998 0.286137
0.152285 0.407874 0.226261
0.150820 0.399481 0.216556
0.137758 0.350591 0.173983
0.128145 0.264652 0.123171
0.326207 0.382818 0.147524
0.600183 0.464363 0.185550
0.747463 0.447517 0.245182
0.855680 0.532280 0.311955
0.169833 0.512108 0.274846
0.168154 0.502495 0.265019
0.156466 0.456703 0.224826
0.133791 0.380987 0.158541
0.201297 0.355322 0.136873
0.464088 0.511131 0.162997
0.703182 0.547662 0.225559
0.848417 0.516930 0.307103
0.248447 0.671626 0.374426
0.243503 0.666529 0.365362
0.229282 0.650263 0.335058
0.209659 0.622309 0.281254
0.194644 0.520714 0.199649
0.394537 0.602289 0.212528
0.666926 0.699153 0.264256
0.854612 0.675532 0.328130
0.032837 0.074800 0.100526
0.104555 0.078157 0.106935
0.289494 0.000000 0.127840
0.430121 0.006317 0.135134
0.554437 0.020966 0.141817
0.667811 0.073030 0.158267
0.754421 0.116304 0.183383
0.849973 0.164645 0.220890
0.052918 0.126253 0.119783
0.145815 0.134798 0.130251
0.292119 0.136751 0.133852
0.426642 0.135775 0.139101
0.551720 0.134371 0.145357
0.660548 0.139620 0.159152
0.744656 0.155550 0.180758
0.838590 0.187961 0.216648
0.115877 0.237888 0.164889
0.145724 0.226505 0.159152
0.288884 0.225498 0.149294
0.427741 0.267277 0.157778
0.553002 0.262455 0.162295
0.659174 0.257115 0.174350
0.747555 0.259037 0.198154
0.846433 0.278080 0.236759
0.153902 0.311467 0.202304
0.155947 0.295476 0.187228
0.170047 0.255070 0.152865
0.401038 0.312261 0.170993
0.554498 0.338079 0.185763
0.657099 0.375463 0.200626
0.742428 0.366155 0.220676
0.840238 0.375463 0.257145
0.169802 0.370001 0.227970
0.165621 0.353307 0.212589
0.149722 0.299077 0.164309
0.241520 0.312108 0.156435
0.488685 0.379644 0.186435
0.646265 0.389776 0.213138
0.738949 0.455421 0.249607
0.839200 0.480629 0.292210
0.174014 0.418677 0.245884
0.170718 0.405676 0.233829
0.156008 0.358892 0.192020
0.139834 0.276493 0.137179
0.324407 0.381170 0.161868
0.597681 0.463355 0.205905
0.740841 0.450446 0.260777
0.844327 0.530205 0.319799
0.182376 0.506828 0.282658
0.178927 0.492531 0.270512
0.166659 0.450263 0.232273
0.142214 0.379492 0.167758
0.195377 0.346319 0.141146
0.451453 0.498512 0.171664
0.691585 0.538689 0.232120
0.831968 0.509636 0.307500
0.248478 0.663416 0.375128
0.245304 0.660029 0.367773
0.231388 0.643977 0.337865
0.211063 0.615351 0.284092
0.207492 0.550378 0.216068
0.394690 0.606744 0.221561
0.660670 0.694240 0.266911
0.845304 0.668360 0.330083
0.000000 0.154391 0.235355
0.115145 0.162173 0.220035
0.257847 0.175967 0.261143
0.446998 0.155123 0.282597
0.578729 0.114290 0.273686
0.675746 0.126284 0.270146
0.758755 0.163638 0.279637
0.855070 0.201266 0.301976
0.066651 0.194064 0.259953
0.161318 0.203769 0.250614
0.282963 0.215305 0.277806
0.443397 0.191531 0.280827
0.571618 0.154482 0.266514
0.668849 0.170993 0.268498
0.751766 0.191043 0.276463
0.848875 0.221866 0.299565
0.127169 0.294957 0.278050
0.200107 0.296910 0.282658
0.330541 0.306981 0.297246
0.452369 0.292973 0.284764
0.576257 0.284367 0.280095
0.667781 0.277470 0.278172
0.749264 0.278630 0.285405
0.845731 0.295506 0.308293
0.201999 0.387274 0.297765
0.237583 0.383673 0.301701
0.265904 0.342931 0.272892
0.448035 0.358190 0.290349
0.579065 0.400885 0.297734
0.666224 0.392401 0.296269
0.747463 0.383154 0.303990
0.844327 0.391882 0.327520
0.231022 0.439429 0.312444
0.250431 0.432319 0.312383
0.245701 0.382544 0.269444
0.271824 0.346929 0.228458
0.526879 0.415930 0.279332
0.655634 0.431861 0.299870
0.740505 0.484565 0.326177
0.839567 0.491279 0.352789
0.243839 0.483345 0.325200
0.246525 0.471809 0.316381
0.229465 0.422522 0.271275
0.191836 0.334874 0.197116
0.336004 0.397284 0.212619
0.606287 0.474922 0.272831
0.736629 0.475441 0.321874
0.843778 0.556695 0.379706
0.245304 0.560906 0.349920
0.240177 0.548272 0.337346
0.222568 0.501244 0.293736
0.188998 0.421912 0.221134
0.189853 0.343755 0.162661
0.450019 0.502342 0.208988
0.698085 0.548333 0.286351
0.840909 0.540215 0.366766
0.301274 0.679591 0.421668
0.292729 0.673518 0.410712
0.272251 0.656031 0.377905
0.248661 0.632380 0.325780
0.218723 0.569024 0.240269
0.376043 0.598749 0.235752
0.655482 0.694911 0.294835
0.849088 0.676722 0.371496
0.000000 0.242985 0.368017
0.118318 0.253086 0.363653
0.300847 0.311559 0.336400
0.403632 0.289403 0.408392
0.596124 0.273167 0.430945
0.679835 0.253758 0.410224
0.751369 0.244175 0.394324
0.841398 0.234684 0.390478
0.113375 0.279789 0.387030
0.177951 0.286137 0.381964
0.317357 0.330327 0.358648
0.420630 0.313542 0.420478
0.595850 0.295201 0.432258
0.675776 0.269657 0.407446
0.746792 0.253849 0.389166
0.838712 0.248722 0.387762
0.100252 0.332311 0.409064
0.175845 0.332341 0.411475
0.341894 0.368414 0.406317
0.463539 0.381170 0.446418
0.596826 0.353124 0.433295
0.675563 0.325963 0.407233
0.752804 0.319524 0.397986
0.846555 0.325719 0.403998
0.216770 0.457465 0.432654
0.262119 0.458015 0.434791
0.378546 0.469490 0.451148
0.506706 0.472969 0.459113
0.594415 0.440650 0.429297
0.667353 0.416907 0.410132
0.743313 0.404822 0.402930
0.841489 0.411597 0.415167
0.291844 0.553735 0.447364
0.314000 0.545373 0.443854
0.373327 0.521019 0.435859
0.368231 0.440955 0.370520
0.586053 0.478096 0.422309
0.666407 0.507042 0.426764
0.741939 0.506249 0.425727
0.839231 0.509789 0.438239
0.303197 0.578515 0.431403
0.320745 0.577234 0.433448
0.354253 0.551110 0.421241
0.320287 0.463691 0.340795
0.367956 0.439826 0.301183
0.634180 0.511711 0.387274
0.738338 0.529656 0.422522
0.841520 0.603479 0.471626
0.315801 0.623438 0.439734
0.323430 0.618830 0.437110
0.341466 0.598444 0.423163
0.290227 0.527672 0.339147
0.226749 0.395911 0.227726
0.454719 0.520470 0.270542
0.705135 0.564752 0.369848
0.840543 0.581811 0.447089
0.389288 0.712856 0.504295
0.392889 0.709957 0.501915
0.385260 0.696071 0.480171
0.332860 0.668116 0.413764
0.267613 0.612787 0.309392
0.334722 0.581170 0.256474
0.641077 0.692958 0.335882
0.849729 0.687892 0.434638
0.000000 0.338384 0.499916
0.139742 0.345678 0.497200
0.301061 0.377234 0.481178
0.447089 0.449653 0.461952
0.547356 0.404852 0.554192
0.683925 0.416114 0.552667
0.753658 0.402228 0.538445
0.840421 0.402350 0.540764
0.134340 0.361791 0.509361
0.191745 0.368719 0.508751
0.320470 0.395300 0.495277
0.465126 0.467048 0.475105
0.555413 0.421241 0.558953
0.683375 0.431128 0.554498
0.752316 0.413245 0.539818
0.839109 0.408667 0.539757
0.183474 0.402869 0.528740
0.252781 0.414710 0.529381
0.354833 0.434607 0.524743
0.503197 0.505394 0.511498
0.577386 0.469062 0.570550
0.675624 0.463111 0.554589
0.744594 0.438087 0.536858
0.831785 0.419928 0.529076
0.183627 0.479133 0.546014
0.229770 0.478920 0.546807
0.344488 0.480903 0.552850
0.521660 0.535424 0.558923
0.603662 0.539300 0.581994
0.671962 0.507134 0.556237
0.738491 0.470130 0.528283
0.830076 0.438148 0.509697
0.300877 0.592432 0.561822
0.333593 0.592126 0.562951
0.427436 0.590295 0.566552
0.545037 0.598749 0.584375
0.613733 0.588190 0.577966
0.666285 0.555016 0.546014
0.733333 0.528283 0.522515
0.829404 0.520592 0.519158
0.396979 0.653101 0.557855
0.411902 0.649165 0.557183
0.452064 0.633570 0.552026
0.497444 0.606806 0.541009
0.434730 0.511681 0.435340
0.657252 0.566278 0.526696
0.734951 0.599908 0.537530
0.835386 0.619715 0.547021
0.409766 0.680629 0.546960
0.416663 0.676326 0.544762
0.437842 0.662257 0.537346
0.458045 0.635279 0.517662
0.369421 0.547478 0.394812
0.439338 0.526604 0.344427
0.706416 0.589715 0.476051
0.830533 0.627314 0.530449
0.456153 0.740261 0.578912
0.458900 0.736812 0.576349
0.466682 0.725246 0.566766
0.480415 0.710658 0.552544
0.388678 0.666468 0.445655
0.296178 0.571588 0.295811
0.603418 0.678492 0.375402
0.837247 0.692958 0.501762
0.144228 0.428840 0.615015
0.200900 0.434852 0.613184
0.326604 0.457832 0.603662
0.491188 0.525750 0.591852
0.566979 0.566827 0.594507
0.637293 0.526085 0.644007
0.748623 0.539788 0.661189
0.842649 0.540490 0.665705
0.190158 0.438605 0.612604
0.230900 0.443366 0.610712
0.340276 0.465553 0.603998
0.493233 0.528008 0.593133
0.569482 0.569635 0.594202
0.638392 0.531701 0.643336
0.747585 0.545006 0.659480
0.840391 0.542657 0.663935
0.271427 0.478126 0.625269
0.299199 0.481880 0.624018
0.387396 0.501366 0.620325
0.517144 0.552148 0.612207
0.593652 0.594598 0.609003
0.652155 0.561364 0.651789
0.752224 0.569940 0.661433
0.839872 0.555444 0.663539
0.192599 0.494850 0.634730
0.253330 0.501518 0.633692
0.408423 0.534813 0.633967
0.540337 0.581292 0.636103
0.631769 0.632410 0.634974
0.674830 0.605829 0.667262
0.758450 0.599298 0.666590
0.842802 0.572930 0.660883
0.290379 0.587274 0.637415
0.319219 0.587579 0.637812
0.403571 0.589563 0.639307
0.512108 0.596155 0.643519
0.630549 0.637873 0.651301
0.685969 0.636408 0.667353
0.747982 0.607263 0.649409
0.833860 0.573419 0.631891
0.408545 0.673884 0.644678
0.433539 0.674067 0.646479
0.495369 0.671260 0.648280
0.569024 0.670192 0.653407
0.638148 0.677913 0.666560
0.690089 0.668086 0.659327
0.744076 0.639734 0.632044
0.837552 0.623621 0.618982
0.530694 0.746639 0.670924
0.539178 0.745327 0.671382
0.559411 0.736629 0.667811
0.583703 0.720516 0.658656
0.600000 0.690761 0.636683
0.506950 0.590845 0.508782
0.731044 0.647730 0.608850
0.839811 0.692287 0.625238
0.537713 0.790066 0.673640
0.540978 0.787350 0.671962
0.551385 0.778561 0.666133
0.566247 0.764828 0.655756
0.572107 0.736294 0.628931
0.475929 0.670253 0.505608
0.551110 0.662593 0.437079
0.832670 0.710842 0.585657
0.260410 0.502495 0.691127
0.294865 0.509483 0.690761
0.391699 0.533288 0.685603
0.519127 0.581079 0.676143
0.623407 0.634577 0.661219
0.643366 0.638453 0.672694
0.705470 0.606592 0.713344
0.824826 0.615076 0.752224
0.280705 0.509209 0.689845
0.311162 0.515496 0.689326
0.400336 0.537743 0.684718
0.519921 0.581781 0.675166
0.621698 0.633570 0.661341
0.643366 0.638972 0.671229
0.704005 0.607172 0.710933
0.821225 0.614710 0.747829
0.333745 0.536461 0.696101
0.357488 0.541192 0.695094
0.433692 0.560479 0.690883
0.535180 0.596582 0.683742
0.627100 0.641382 0.672847
0.656336 0.653651 0.679164
0.714565 0.624811 0.718471
0.829404 0.631312 0.752102
0.327306 0.555993 0.703609
0.364996 0.563348 0.702113
0.458717 0.586725 0.699336
0.547539 0.614893 0.696284
0.632929 0.652888 0.690761
0.678309 0.677974 0.693690
0.731960 0.650874 0.731228
0.840665 0.653864 0.754543
0.273625 0.586938 0.705501
0.297581 0.586389 0.704646
0.369757 0.586267 0.703151
0.523033 0.622126 0.703273
0.624903 0.658503 0.704768
0.701686 0.702449 0.706172
0.745663 0.676295 0.738674
0.848600 0.674617 0.750942
0.389899 0.675166 0.711635
0.408453 0.675257 0.711635
0.462379 0.675624 0.711971
0.529564 0.676081 0.713588
0.597314 0.674983 0.716732
0.706050 0.714809 0.730373
0.769009 0.716121 0.750973
0.850980 0.687953 0.739773
0.500633 0.753536 0.725643
0.511925 0.753475 0.726375
0.545006 0.752193 0.727474
0.591577 0.751492 0.730251
0.647089 0.751644 0.734768
0.715297 0.762387 0.750057
0.772793 0.749233 0.739864
0.848844 0.717952 0.709590
0.591699 0.841733 0.763241
0.597803 0.842283 0.764309
0.619135 0.845640 0.769223
0.639948 0.838865 0.765316
0.662562 0.824430 0.754482
0.678279 0.793851 0.728237
0.594018 0.689326 0.599359
0.845487 0.747036 0.687312
0.396033 0.596338 0.776516
0.419104 0.602533 0.775509
0.481636 0.619379 0.769741
0.562341 0.646632 0.761501
0.641688 0.679805 0.749386
0.721981 0.724697 0.732204
0.720394 0.709438 0.756039
0.786862 0.677668 0.798276
0.403967 0.600183 0.775875
0.425544 0.605951 0.774990
0.485451 0.622187 0.769863
0.563165 0.647852 0.761654
0.641382 0.680171 0.750149
0.721004 0.724422 0.733608
0.720790 0.710475 0.755459
0.786648 0.678859 0.797452
0.424170 0.614435 0.778836
0.442390 0.618921 0.777890
0.494850 0.631952 0.772915
0.568994 0.656428 0.767910
0.643549 0.685634 0.757534
0.721492 0.727321 0.742428
0.728176 0.719966 0.759701
0.792569 0.688838 0.801511
0.432654 0.632624 0.785672
0.449928 0.636591 0.785275
0.499733 0.647547 0.781827
0.569299 0.667109 0.777340
0.643397 0.693629 0.770169
0.722286 0.733272 0.758907
0.743130 0.738430 0.769436
0.804929 0.707485 0.810880
0.286687 0.621881 0.793820
0.327611 0.628107 0.793576
0.436805 0.648310 0.790616
0.549950 0.676631 0.787716
0.630335 0.699275 0.783322
0.715053 0.736049 0.776699
0.762875 0.762203 0.781094
0.822721 0.733486 0.824308
0.351690 0.694057 0.799191
0.366979 0.693324 0.798428
0.413184 0.691127 0.796658
0.474983 0.686671 0.795315
0.584253 0.702480 0.795071
0.698970 0.741634 0.798795
0.799496 0.800259 0.803494
0.849302 0.771023 0.844724
0.467689 0.782132 0.811826
0.476295 0.781521 0.811582
0.503777 0.779690 0.811246
0.546380 0.777371 0.812161
0.599145 0.773465 0.814145
0.662898 0.766903 0.818235
0.793729 0.808133 0.831662
0.872404 0.816098 0.857939
0.552483 0.864042 0.831815
0.558038 0.863676 0.831754
0.577447 0.863310 0.832609
0.611963 0.863127 0.834592
0.660182 0.862974 0.837797
0.724086 0.863523 0.843168
0.808835 0.872007 0.858244
0.887510 0.866423 0.858122
