data/fiter_cube/93231427/1022690/file.cube
# Created by Adobe Lightroom plugin Export LUT (1.17.0)
# www.johnrellis.com/lightroom/exportlut.htm
# Preset: 工业风黑金_02 云集后期
# Color profile: C:\Program Files (x86)\Common Files\Adobe\Color\Profiles\Recommended\AdobeRGB1998.icc
LUT_3D_SIZE 32
DOMAIN_MIN 0.0 0.0 0.0
DOMAIN_MAX 1.0 1.0 1.0
0.000000 0.000000 0.000000
0.039124 0.005097 0.005066
0.066316 0.009491 0.011139
0.095033 0.020905 0.022766
0.134188 0.027649 0.034180
0.177554 0.028290 0.039582
0.220584 0.022827 0.041596
0.261357 0.014160 0.041657
0.300023 0.004211 0.041016
0.337072 0.000000 0.040742
0.373022 0.000000 0.041962
0.407904 0.000000 0.044587
0.441718 0.000000 0.048280
0.474617 0.000000 0.055146
0.506523 0.000000 0.061555
0.537896 0.000000 0.066377
0.568963 0.000000 0.071717
0.599664 0.000000 0.078584
0.634821 0.000000 0.088899
0.664363 0.013062 0.100099
0.690425 0.050935 0.111086
0.713893 0.072206 0.122652
0.735195 0.086946 0.133944
0.755581 0.101137 0.144625
0.775631 0.113802 0.155184
0.796353 0.126192 0.166262
0.818753 0.139315 0.178195
0.843442 0.153414 0.191135
0.871031 0.168643 0.205783
0.901793 0.185824 0.222110
0.935790 0.204807 0.240482
0.972473 0.226505 0.261601
0.011078 0.029297 0.014618
0.042084 0.028992 0.011688
0.066560 0.033845 0.015625
0.095003 0.049256 0.027955
0.133913 0.057221 0.036927
0.176547 0.059541 0.042237
0.219120 0.058167 0.042054
0.259312 0.053162 0.042298
0.297551 0.046113 0.040833
0.334478 0.036713 0.041840
0.370062 0.026215 0.042329
0.404608 0.016999 0.046540
0.438209 0.010742 0.050019
0.470863 0.006134 0.056367
0.502495 0.003082 0.061555
0.533623 0.002228 0.066926
0.564416 0.003326 0.072358
0.596063 0.004578 0.078798
0.630091 0.021332 0.088045
0.659174 0.047547 0.098299
0.685023 0.065888 0.109071
0.708492 0.078859 0.120455
0.729915 0.091676 0.131136
0.750271 0.103914 0.142000
0.770352 0.115602 0.152407
0.791073 0.127443 0.163333
0.813504 0.139620 0.174990
0.838193 0.153445 0.187991
0.865751 0.168246 0.202457
0.896574 0.184787 0.218662
0.930571 0.203708 0.237064
0.967346 0.224765 0.257786
0.023804 0.058808 0.031006
0.036866 0.059358 0.030549
0.068727 0.056336 0.025269
0.095949 0.064088 0.034394
0.133791 0.073457 0.042145
0.175967 0.076539 0.044984
0.217685 0.076570 0.044831
0.257450 0.075380 0.044007
0.295506 0.072419 0.042756
0.332219 0.068940 0.042969
0.367742 0.066011 0.044556
0.402289 0.062318 0.047578
0.435798 0.058900 0.052094
0.468452 0.055451 0.058564
0.499977 0.053437 0.062806
0.530999 0.051423 0.067445
0.561669 0.051606 0.073274
0.594232 0.053559 0.079377
0.627527 0.061189 0.088869
0.656214 0.071077 0.098421
0.682124 0.079927 0.108827
0.705653 0.089754 0.119692
0.727077 0.100923 0.130159
0.747463 0.111147 0.140841
0.767544 0.121553 0.151095
0.788205 0.132204 0.162203
0.810605 0.143709 0.173831
0.835355 0.156435 0.186770
0.862943 0.170993 0.201114
0.893736 0.187167 0.217380
0.927733 0.205295 0.235599
0.964477 0.226047 0.256260
0.048524 0.082185 0.059113
0.052186 0.081666 0.057099
0.064576 0.082551 0.056458
0.099153 0.082307 0.047608
0.137209 0.086458 0.049958
0.176852 0.103120 0.050294
0.217624 0.104707 0.048280
0.256718 0.104463 0.046845
0.294163 0.102724 0.044739
0.330480 0.101106 0.045014
0.365759 0.098817 0.046967
0.400000 0.096529 0.049683
0.433204 0.094728 0.056031
0.465553 0.093568 0.060822
0.496956 0.092164 0.064820
0.527825 0.091402 0.069764
0.558404 0.090150 0.074922
0.592248 0.091432 0.081727
0.623987 0.094270 0.090028
0.651759 0.098726 0.099123
0.677089 0.104158 0.108827
0.700465 0.110506 0.119081
0.722255 0.118502 0.129427
0.743313 0.126192 0.140291
0.764279 0.134920 0.150942
0.785916 0.144686 0.162142
0.809140 0.155154 0.174166
0.834348 0.167453 0.187411
0.862150 0.180819 0.202029
0.892821 0.195743 0.217868
0.926329 0.212863 0.235874
0.962402 0.232181 0.256016
0.060456 0.107088 0.072236
0.062928 0.105684 0.070222
0.065553 0.103761 0.067720
0.088045 0.108156 0.066011
0.135073 0.108827 0.059632
0.178958 0.107332 0.057649
0.216495 0.128115 0.053864
0.254368 0.135286 0.050019
0.291234 0.134401 0.048585
0.327031 0.133486 0.049836
0.361822 0.131960 0.051667
0.395941 0.130678 0.055299
0.429053 0.129366 0.059937
0.461372 0.128054 0.064179
0.493050 0.126955 0.068635
0.524315 0.126101 0.073304
0.555352 0.125429 0.078096
0.591455 0.126345 0.084993
0.622370 0.128054 0.093202
0.649561 0.130037 0.101991
0.674342 0.133455 0.110750
0.697505 0.137362 0.120760
0.719173 0.142153 0.130587
0.740291 0.147982 0.141085
0.761440 0.154574 0.151553
0.783261 0.162417 0.162875
0.806485 0.171542 0.175113
0.831693 0.181796 0.187900
0.859342 0.193973 0.202274
0.889860 0.207584 0.218173
0.923339 0.223392 0.235904
0.959472 0.241794 0.255985
0.065003 0.133333 0.083345
0.067201 0.131533 0.080812
0.069245 0.128939 0.077913
0.077241 0.123507 0.076204
0.118135 0.136477 0.070832
0.172091 0.135897 0.063447
0.219638 0.128023 0.061799
0.255161 0.148135 0.059327
0.290654 0.166934 0.055360
0.325902 0.166323 0.056794
0.360388 0.165469 0.059052
0.394079 0.164187 0.062104
0.427070 0.162783 0.065705
0.459358 0.161593 0.069581
0.490974 0.160281 0.073487
0.522240 0.159579 0.078187
0.555810 0.159731 0.083436
0.591669 0.160739 0.090120
0.621790 0.161471 0.097810
0.648768 0.162600 0.106294
0.673671 0.164248 0.115358
0.697047 0.166567 0.124819
0.749599 0.188052 0.154757
0.770382 0.193515 0.166018
0.791257 0.199313 0.177005
0.812863 0.205936 0.187961
0.835782 0.213657 0.199802
0.860594 0.222629 0.212711
0.887785 0.233310 0.226810
0.917662 0.245914 0.242405
0.949767 0.260502 0.259861
0.983459 0.277256 0.279088
0.069093 0.163668 0.095674
0.071199 0.161379 0.093385
0.073701 0.158267 0.090059
0.077729 0.152163 0.084077
0.099306 0.150637 0.083101
0.155276 0.169650 0.075654
0.214145 0.167056 0.068574
0.264866 0.151766 0.067170
0.299290 0.172183 0.066377
0.334417 0.192844 0.066255
0.369177 0.203342 0.067842
0.402899 0.202090 0.070405
0.435523 0.200595 0.073823
0.467445 0.198825 0.077699
0.498360 0.197147 0.081666
0.528771 0.195621 0.085847
0.567254 0.197482 0.091676
0.601190 0.198123 0.098695
0.630518 0.198398 0.106691
0.657801 0.198856 0.115938
0.684047 0.200687 0.126162
0.709560 0.203647 0.137453
0.734249 0.207706 0.149783
0.758419 0.213077 0.162448
0.782223 0.219059 0.175326
0.805692 0.225254 0.187625
0.829557 0.232334 0.199802
0.854734 0.240330 0.212619
0.882139 0.249760 0.226505
0.911681 0.261143 0.242008
0.943725 0.274266 0.258824
0.977508 0.289708 0.277836
0.074098 0.187594 0.106661
0.075776 0.185397 0.104494
0.077913 0.182406 0.101411
0.081819 0.175875 0.094972
0.090700 0.165713 0.091432
0.126162 0.175814 0.088502
0.189090 0.196780 0.080323
0.246342 0.190982 0.075624
0.298344 0.170443 0.076081
0.332067 0.190829 0.076631
0.366155 0.211368 0.077821
0.400305 0.232029 0.079652
0.432807 0.232700 0.082795
0.464210 0.231022 0.085817
0.495003 0.229404 0.089754
0.530694 0.229923 0.094362
0.566552 0.230838 0.099550
0.598505 0.230503 0.105409
0.626825 0.229801 0.112856
0.653498 0.229587 0.121035
0.679408 0.230228 0.130343
0.704585 0.231815 0.141146
0.728969 0.234623 0.152712
0.752895 0.238163 0.164492
0.776455 0.242527 0.176883
0.799771 0.247593 0.188937
0.823606 0.253239 0.200839
0.848814 0.259892 0.213382
0.876249 0.268345 0.227054
0.905943 0.278447 0.242313
0.938109 0.290745 0.259098
0.972107 0.305241 0.278019
0.080964 0.210452 0.118471
0.082429 0.208133 0.116030
0.083803 0.205356 0.113161
0.087343 0.199130 0.107210
0.091371 0.189364 0.098970
0.106813 0.180880 0.098543
0.155428 0.200809 0.094789
0.222049 0.223026 0.086671
0.277409 0.214267 0.084840
0.331243 0.189364 0.086702
0.364294 0.209476 0.088045
0.397436 0.229740 0.090211
0.430549 0.250095 0.093172
0.462776 0.263462 0.096101
0.498390 0.264103 0.100374
0.533013 0.264439 0.104616
0.566705 0.264225 0.108949
0.597162 0.263188 0.113863
0.624659 0.261631 0.120455
0.650813 0.260410 0.127840
0.676326 0.260472 0.136446
0.701228 0.260929 0.146304
0.725399 0.262394 0.157504
0.748959 0.264958 0.168795
0.772335 0.268070 0.180514
0.795499 0.271794 0.191867
0.819242 0.276310 0.203555
0.844358 0.281926 0.215885
0.871672 0.289281 0.229252
0.901213 0.298466 0.244266
0.933227 0.309728 0.260807
0.967193 0.322972 0.279210
0.088808 0.231724 0.129885
0.090089 0.229557 0.127871
0.091249 0.226688 0.125032
0.093538 0.220737 0.119295
0.096284 0.211398 0.110994
0.104494 0.198886 0.106172
0.131350 0.202853 0.104677
0.184482 0.224247 0.100954
0.253178 0.247593 0.093965
0.305913 0.236301 0.094606
0.361761 0.207095 0.097414
0.393896 0.227024 0.099672
0.427802 0.247929 0.102846
0.464424 0.270268 0.107179
0.500755 0.292454 0.111635
0.535058 0.298558 0.115602
0.568200 0.298100 0.118807
0.598077 0.296544 0.123690
0.625055 0.294438 0.129580
0.650416 0.292485 0.136355
0.674922 0.291020 0.144198
0.698543 0.290288 0.153170
0.721401 0.290166 0.162631
0.743893 0.291112 0.172763
0.766415 0.292699 0.183566
0.789273 0.295323 0.194339
0.813138 0.298924 0.205722
0.838682 0.304082 0.218173
0.866545 0.310918 0.231785
0.896849 0.319768 0.246983
0.929595 0.330846 0.264012
0.964324 0.343938 0.283055
0.096742 0.250187 0.140444
0.097475 0.248417 0.138766
0.098360 0.245670 0.136049
0.100160 0.239841 0.130465
0.102266 0.231266 0.122713
0.104921 0.219608 0.113588
0.114534 0.204929 0.111666
0.155459 0.223453 0.110658
0.212314 0.246494 0.107515
0.283268 0.271000 0.101411
0.333867 0.257939 0.104952
0.395331 0.226932 0.109651
0.429450 0.248081 0.113039
0.463752 0.269261 0.116640
0.498299 0.290501 0.120821
0.532891 0.311864 0.125460
0.567193 0.330175 0.129580
0.596155 0.327977 0.133822
0.622522 0.325139 0.138705
0.647517 0.322454 0.144656
0.671778 0.320531 0.151858
0.695308 0.318975 0.159976
0.718166 0.318364 0.168978
0.740627 0.318425 0.178958
0.762966 0.319310 0.189120
0.785611 0.320928 0.199466
0.809171 0.323552 0.210269
0.834409 0.327825 0.222049
0.861936 0.333837 0.235416
0.892058 0.341772 0.250156
0.924773 0.352026 0.266972
0.959594 0.364569 0.285985
0.104585 0.267857 0.150759
0.104921 0.265934 0.148989
0.105470 0.263310 0.146517
0.106783 0.258061 0.141543
0.108034 0.249760 0.133822
0.109377 0.238804 0.124453
0.115114 0.224582 0.118349
0.133059 0.221134 0.116243
0.179812 0.243259 0.116030
0.240391 0.268681 0.114321
0.315618 0.296635 0.110048
0.366461 0.283207 0.116823
0.454231 0.261875 0.130495
0.489967 0.284184 0.134524
0.525628 0.306279 0.139193
0.561334 0.328313 0.143557
0.593256 0.348516 0.148745
0.621180 0.366888 0.155856
0.645289 0.371801 0.161776
0.667872 0.367163 0.167575
0.689723 0.363226 0.173953
0.710994 0.360204 0.181552
0.731899 0.357794 0.189395
0.752956 0.356481 0.198306
0.774380 0.356237 0.207370
0.796536 0.356939 0.217197
0.819699 0.358862 0.227420
0.844450 0.362127 0.238529
0.871305 0.367193 0.251072
0.900725 0.374365 0.265446
0.932433 0.383581 0.281529
0.966339 0.395148 0.299779
0.113069 0.287938 0.162295
0.113344 0.286168 0.160647
0.113802 0.283482 0.158145
0.113985 0.277897 0.153079
0.114626 0.269474 0.145602
0.114778 0.258183 0.135775
0.115572 0.244785 0.125643
0.123049 0.228458 0.121553
0.155184 0.241062 0.121584
0.206973 0.266789 0.122957
0.272313 0.295567 0.123049
0.352209 0.326787 0.120821
0.406104 0.314183 0.131594
0.479042 0.276707 0.139773
0.515557 0.299260 0.144259
0.551476 0.321508 0.149050
0.584649 0.342321 0.154055
0.613123 0.360845 0.159976
0.638727 0.378027 0.167056
0.662623 0.394507 0.175296
0.684382 0.390936 0.181399
0.705562 0.387091 0.188083
0.726253 0.384039 0.195499
0.747066 0.381964 0.203372
0.768246 0.380774 0.212192
0.790127 0.380835 0.221256
0.813138 0.381964 0.230961
0.837766 0.384741 0.242130
0.864652 0.389197 0.254124
0.894163 0.396002 0.268437
0.926207 0.404852 0.284428
0.960571 0.416297 0.303105
0.120150 0.304021 0.171786
0.120241 0.302312 0.170138
0.120272 0.300023 0.168032
0.120455 0.294835 0.163180
0.120516 0.286900 0.155917
0.120180 0.276188 0.146365
0.119295 0.263096 0.135317
0.123110 0.246738 0.127474
0.132296 0.234043 0.123201
0.175845 0.258427 0.125795
0.230961 0.285924 0.128084
0.298985 0.316381 0.129000
0.376989 0.345739 0.128695
0.431495 0.333867 0.140627
0.504723 0.296269 0.149630
0.541741 0.314519 0.153719
0.575158 0.335515 0.158114
0.604456 0.354437 0.163790
0.630793 0.372015 0.170138
0.655360 0.388830 0.177920
0.678767 0.405341 0.187198
0.700679 0.413916 0.195651
0.721370 0.410376 0.202670
0.742245 0.407691 0.210178
0.763424 0.406134 0.218387
0.785275 0.405524 0.227115
0.808255 0.406226 0.236515
0.832883 0.408545 0.247288
0.859831 0.412726 0.259312
0.889464 0.419196 0.273442
0.921721 0.427985 0.289921
0.956481 0.439216 0.308446
0.126833 0.320897 0.181460
0.127016 0.319463 0.180148
0.126864 0.316960 0.177768
0.126558 0.311528 0.172854
0.125948 0.303380 0.165530
0.125032 0.292851 0.156374
0.123598 0.279545 0.144900
0.122591 0.263737 0.133242
0.127291 0.245274 0.127291
0.149538 0.248814 0.125978
0.196139 0.274907 0.129519
0.254124 0.304082 0.132418
0.324224 0.336004 0.134279
0.400244 0.363622 0.135958
0.455299 0.352331 0.148684
0.527062 0.317235 0.157748
0.566461 0.328893 0.162234
0.596399 0.348180 0.167239
0.623316 0.366155 0.173404
0.648432 0.383215 0.180423
0.672297 0.399878 0.188754
0.694881 0.416083 0.198489
0.716487 0.431861 0.208927
0.737453 0.432929 0.217136
0.758663 0.430976 0.225071
0.780819 0.430274 0.233860
0.804440 0.431037 0.243442
0.829984 0.433753 0.254734
0.858061 0.438544 0.267765
0.888945 0.445747 0.282933
0.922515 0.455390 0.300359
0.958404 0.467414 0.320317
0.132631 0.336004 0.189914
0.132296 0.334264 0.188174
0.132326 0.332189 0.186343
0.131868 0.327245 0.181888
0.131014 0.319341 0.174838
0.129488 0.308904 0.165591
0.127810 0.296330 0.154696
0.125093 0.280949 0.141939
0.126894 0.262882 0.132784
0.129213 0.242008 0.125246
0.167178 0.264073 0.128695
0.216892 0.291905 0.133150
0.277012 0.322240 0.136690
0.348394 0.354620 0.138827
0.421668 0.379553 0.141970
0.476173 0.368505 0.155093
0.546838 0.336034 0.164706
0.587549 0.341314 0.169986
0.615869 0.360021 0.175998
0.642267 0.378027 0.183261
0.667201 0.395209 0.191409
0.690700 0.412055 0.200931
0.713008 0.428443 0.211276
0.734951 0.444892 0.223117
0.756924 0.457832 0.234836
0.779416 0.457069 0.243534
0.803372 0.457893 0.253544
0.829252 0.460548 0.264714
0.857450 0.465309 0.277989
0.888212 0.472297 0.292760
0.921416 0.481392 0.309880
0.956695 0.492927 0.329503
0.137240 0.349340 0.197147
0.136843 0.347448 0.195315
0.136538 0.345312 0.193576
0.135988 0.340551 0.189120
0.135042 0.333165 0.182620
0.133303 0.323064 0.173648
0.131350 0.310948 0.163333
0.128237 0.296086 0.150637
0.125765 0.278843 0.137758
0.128695 0.258701 0.130190
0.141543 0.252049 0.126192
0.184634 0.278569 0.131197
0.236942 0.307805 0.136110
0.298955 0.339178 0.140261
0.371618 0.372351 0.142916
0.442145 0.394903 0.147311
0.496834 0.384588 0.161227
0.566583 0.354253 0.171542
0.607813 0.353307 0.178073
0.634791 0.371527 0.184543
0.660243 0.389227 0.192477
0.684321 0.406287 0.201389
0.707149 0.423011 0.211490
0.729580 0.439826 0.223056
0.752041 0.456764 0.235386
0.775235 0.474495 0.249485
0.799680 0.482307 0.261387
0.825864 0.485145 0.273045
0.854490 0.489998 0.286137
0.885710 0.497230 0.301671
0.919432 0.506737 0.319188
0.955291 0.518639 0.339391
0.141451 0.362860 0.204166
0.141573 0.361730 0.203006
0.144808 0.370397 0.206790
0.143801 0.365270 0.202274
0.142214 0.357336 0.195315
0.140230 0.347021 0.186465
0.137240 0.333837 0.175082
0.133242 0.318517 0.162203
0.129000 0.300694 0.147494
0.128756 0.279881 0.136324
0.129641 0.256565 0.126955
0.158114 0.269230 0.128695
0.205478 0.298283 0.134737
0.261845 0.329808 0.140444
0.327245 0.363073 0.145296
0.402502 0.397864 0.148653
0.472816 0.419165 0.155123
0.529320 0.409552 0.169894
0.595850 0.378882 0.182437
0.636469 0.371069 0.190738
0.661402 0.388495 0.198154
0.685298 0.405646 0.206882
0.708095 0.422431 0.216861
0.730220 0.439094 0.227787
0.752102 0.455756 0.239506
0.774563 0.472938 0.252415
0.798184 0.491188 0.266789
0.823697 0.510307 0.282628
0.851835 0.514702 0.295140
0.882933 0.521813 0.310552
0.916808 0.531365 0.328252
0.952605 0.543267 0.348638
0.146456 0.379767 0.212833
0.146548 0.379858 0.212314
0.146761 0.379278 0.211307
0.146304 0.376104 0.207950
0.145205 0.369787 0.202029
0.142916 0.360235 0.193484
0.140200 0.348241 0.183108
0.136477 0.333593 0.170596
0.131930 0.316625 0.156313
0.127840 0.297185 0.141787
0.129549 0.274784 0.132509
0.132784 0.255772 0.124239
0.174411 0.283696 0.130556
0.224033 0.313664 0.136965
0.281804 0.345678 0.142824
0.348333 0.379400 0.147738
0.424475 0.414618 0.150881
0.492348 0.433722 0.158694
0.549462 0.424994 0.173678
0.611841 0.394385 0.188083
0.653559 0.381292 0.197757
0.678431 0.399207 0.206455
0.702052 0.416510 0.216342
0.724971 0.433692 0.227329
0.747494 0.450874 0.239322
0.770565 0.468513 0.252140
0.794766 0.487160 0.266575
0.820829 0.507347 0.282872
0.849332 0.529625 0.301640
0.880583 0.546410 0.320287
0.914549 0.556268 0.338262
0.950530 0.568322 0.358862
0.149416 0.393133 0.219364
0.149599 0.393194 0.218784
0.149569 0.392737 0.217807
0.149050 0.389746 0.214633
0.147799 0.383703 0.208865
0.145663 0.374762 0.200870
0.142885 0.363226 0.190738
0.139132 0.349187 0.178775
0.134707 0.332891 0.165011
0.129488 0.314488 0.149783
0.128786 0.293278 0.137819
0.129122 0.269627 0.127871
0.147219 0.270268 0.125765
0.191684 0.299199 0.132540
0.243442 0.330205 0.139040
0.303014 0.363104 0.145052
0.371099 0.397436 0.149966
0.448188 0.433326 0.153140
0.514855 0.450690 0.161776
0.571374 0.441871 0.178073
0.629450 0.410742 0.194217
0.672206 0.392767 0.206027
0.696681 0.410803 0.216007
0.720211 0.428321 0.226780
0.743191 0.445930 0.238651
0.766598 0.463966 0.251682
0.791104 0.482795 0.265782
0.817380 0.503227 0.282200
0.846250 0.525658 0.300755
0.877623 0.550469 0.322393
0.911315 0.577539 0.346715
0.947662 0.592432 0.368719
0.152285 0.407874 0.226261
0.152346 0.408087 0.225772
0.152468 0.407904 0.225071
0.151949 0.405127 0.222019
0.150820 0.399481 0.216556
0.148806 0.390875 0.208804
0.145907 0.379919 0.199313
0.142214 0.366278 0.187381
0.137758 0.350591 0.173983
0.132418 0.332860 0.159213
0.127535 0.312657 0.143740
0.128939 0.289677 0.133669
0.128145 0.264652 0.123171
0.163058 0.286076 0.127779
0.209995 0.316197 0.134524
0.264042 0.348486 0.141268
0.326207 0.382818 0.147524
0.397192 0.419287 0.152529
0.477943 0.457740 0.155856
0.545861 0.475166 0.166445
0.600183 0.464363 0.185550
0.654871 0.432685 0.205386
0.698238 0.409766 0.220035
0.723049 0.428626 0.232181
0.747463 0.447517 0.245182
0.772213 0.466773 0.259190
0.798032 0.487007 0.274907
0.825681 0.508598 0.292119
0.855680 0.532280 0.311955
0.887999 0.558068 0.334356
0.922210 0.586023 0.359869
0.958282 0.616449 0.389105
0.157076 0.432013 0.237797
0.156954 0.431434 0.236942
0.156802 0.430274 0.235569
0.156039 0.426734 0.232212
0.154543 0.420691 0.226719
0.152560 0.412116 0.219120
0.149722 0.401190 0.209598
0.146273 0.388312 0.198215
0.141848 0.373205 0.185061
0.136446 0.355871 0.170077
0.130343 0.336828 0.153902
0.129488 0.314611 0.140902
0.129335 0.290013 0.130098
0.138033 0.277440 0.123415
0.181918 0.307225 0.130434
0.232364 0.339239 0.137819
0.289799 0.373266 0.144717
0.355352 0.409369 0.151095
0.429755 0.447669 0.155917
0.513878 0.487984 0.158968
0.577600 0.500481 0.171878
0.626581 0.485084 0.193454
0.675959 0.451789 0.214847
0.718563 0.422950 0.230838
0.743160 0.441993 0.243717
0.768246 0.461585 0.257786
0.794614 0.482277 0.273533
0.822873 0.504417 0.291081
0.853361 0.528557 0.311101
0.886168 0.554711 0.333654
0.921172 0.583154 0.359197
0.957946 0.614099 0.388769
0.160250 0.452155 0.246983
0.160250 0.451850 0.246372
0.159976 0.450935 0.245121
0.159426 0.447791 0.242069
0.158022 0.441840 0.236606
0.155856 0.433356 0.229129
0.153201 0.422705 0.219791
0.149691 0.410071 0.208713
0.145541 0.395300 0.195743
0.140352 0.378668 0.181216
0.134279 0.359991 0.165103
0.128573 0.339117 0.148379
0.130495 0.315465 0.137575
0.129702 0.289433 0.126070
0.155215 0.298100 0.126284
0.202365 0.329473 0.133791
0.255772 0.363104 0.141146
0.316747 0.399054 0.147982
0.385931 0.437385 0.154330
0.464179 0.477913 0.158877
0.551049 0.519310 0.161746
0.607996 0.524651 0.179141
0.653040 0.506340 0.203067
0.698726 0.472236 0.226444
0.736751 0.434546 0.240024
0.762081 0.454383 0.253910
0.788785 0.475349 0.269627
0.817350 0.497749 0.287114
0.848234 0.521996 0.306920
0.881529 0.548516 0.329412
0.917876 0.577905 0.355688
0.955871 0.609644 0.385626
0.166232 0.484504 0.262242
0.166140 0.484474 0.261631
0.166110 0.483619 0.260716
0.165225 0.480018 0.257206
0.163699 0.473701 0.251591
0.161746 0.465095 0.244205
0.158785 0.454047 0.234714
0.155428 0.440894 0.223301
0.150973 0.425635 0.210178
0.145785 0.408545 0.195346
0.140047 0.389685 0.179110
0.133425 0.368872 0.161318
0.131685 0.345434 0.146914
0.132357 0.319677 0.135073
0.130892 0.292119 0.123171
0.175357 0.322179 0.130373
0.225162 0.354376 0.137728
0.281529 0.388983 0.144686
0.345281 0.426276 0.151583
0.417884 0.466438 0.157229
0.499825 0.509148 0.161288
0.584405 0.546990 0.165652
0.634058 0.545312 0.186343
0.674830 0.523949 0.211093
0.716304 0.488716 0.234745
0.759640 0.449805 0.252811
0.786404 0.470771 0.268132
0.814878 0.493202 0.285435
0.845762 0.517479 0.304784
0.879667 0.544427 0.327520
0.916533 0.574151 0.353765
0.955444 0.606378 0.383856
0.169833 0.512108 0.274846
0.170199 0.512657 0.274754
0.170108 0.511894 0.273594
0.169375 0.508507 0.270359
0.168154 0.502495 0.265019
0.166140 0.494118 0.257633
0.163577 0.483711 0.248600
0.160220 0.471107 0.237552
0.156466 0.456703 0.224826
0.151949 0.440620 0.210636
0.146456 0.422705 0.194766
0.140139 0.402777 0.177035
0.133791 0.380987 0.158541
0.136263 0.356268 0.146914
0.136507 0.329381 0.134554
0.152407 0.323033 0.129335
0.201297 0.355322 0.136873
0.255558 0.389960 0.144442
0.316716 0.427466 0.151675
0.385931 0.467994 0.158053
0.464088 0.511131 0.162997
0.545586 0.550225 0.168521
0.624750 0.581384 0.175937
0.666682 0.572137 0.199924
0.703182 0.547662 0.225559
0.742000 0.511833 0.249760
0.787106 0.468391 0.268986
0.816434 0.491646 0.286778
0.848417 0.516930 0.307103
0.883543 0.544823 0.330510
0.921355 0.575433 0.357519
0.961151 0.608576 0.388586
0.176303 0.549310 0.292424
0.176333 0.549310 0.291875
0.176242 0.548425 0.290745
0.175448 0.545068 0.287541
0.173861 0.538994 0.282109
0.171878 0.530602 0.274754
0.169436 0.519951 0.265568
0.166476 0.507378 0.254551
0.163088 0.493446 0.242161
0.158938 0.477943 0.228214
0.154177 0.460731 0.212650
0.148379 0.442023 0.195438
0.141726 0.421393 0.176608
0.140658 0.398077 0.161288
0.142947 0.372259 0.149111
0.142824 0.344182 0.136019
0.178988 0.360510 0.138216
0.232181 0.394842 0.145846
0.291447 0.432288 0.153292
0.357885 0.472694 0.159915
0.432807 0.516045 0.165499
0.510857 0.555444 0.171847
0.587213 0.587152 0.180087
0.660822 0.612085 0.190097
0.696651 0.596948 0.215366
0.730495 0.570672 0.240879
0.767697 0.534905 0.264744
0.813138 0.493050 0.284245
0.847074 0.512505 0.304662
0.882811 0.540917 0.328344
0.921294 0.571893 0.355444
0.961761 0.605402 0.386419
0.186526 0.584344 0.311009
0.186709 0.584344 0.310521
0.186313 0.583581 0.309392
0.185428 0.581018 0.306401
0.183688 0.576806 0.301640
0.181704 0.571221 0.295323
0.179294 0.564569 0.287480
0.176761 0.556725 0.278416
0.174014 0.547295 0.267643
0.171298 0.536370 0.255467
0.168246 0.523491 0.241733
0.164218 0.508415 0.225834
0.159426 0.491218 0.208011
0.153475 0.471351 0.188083
0.159976 0.447700 0.176761
0.162997 0.421057 0.164004
0.169497 0.398932 0.152529
0.226719 0.434943 0.160342
0.288823 0.474189 0.168002
0.357397 0.516625 0.174838
0.431006 0.557580 0.181979
0.504387 0.591272 0.191257
0.576532 0.618860 0.201755
0.646815 0.641596 0.213138
0.712764 0.658015 0.225956
0.745205 0.638941 0.250797
0.777768 0.611261 0.275059
0.814206 0.575677 0.298558
0.860716 0.536645 0.318212
0.899748 0.551568 0.342229
0.938903 0.583703 0.370672
0.979156 0.617700 0.402655
0.217411 0.636011 0.345464
0.217441 0.635920 0.344945
0.217014 0.635096 0.343755
0.215213 0.632746 0.340459
0.212528 0.629236 0.335576
0.209293 0.624537 0.329076
0.205631 0.618952 0.321202
0.201480 0.612360 0.311711
0.197116 0.604700 0.300816
0.192569 0.595850 0.288273
0.187503 0.585412 0.274022
0.182284 0.572900 0.257725
0.176822 0.557916 0.239567
0.170809 0.539391 0.219089
