data/fiter_cube/12544332/1022698/file.cube
# Created by Adobe Lightroom plugin Export LUT (1.24.0)
# www.johnrellis.com/lightroom/exportlut.htm
# Preset: 城市青橙纪实夜景 _02 云集
# Color profile: C:\Program Files (x86)\Common Files\Adobe\Color\Profiles\Recommended\AdobeRGB1998.icc
LUT_3D_SIZE 5
DOMAIN_MIN 0.000000 0.000000 0.000000
DOMAIN_MAX 0.903226 0.903226 0.903226
0.101472 0.101472 0.101472
0.218662 0.127352 0.100191
0.483131 0.228519 0.055390
0.774411 0.353979 0.000000
0.955657 0.433387 0.000000
0.092134 0.143832 0.121706
0.206973 0.169009 0.117861
0.478004 0.259678 0.081056
0.770504 0.374090 0.000000
0.956207 0.450782 0.000000
0.061982 0.243198 0.182193
0.172000 0.262913 0.164797
0.463783 0.348638 0.147433
0.764828 0.444617 0.073640
0.952636 0.502983 0.000000
0.000000 0.413397 0.287327
0.000000 0.437812 0.267094
0.444190 0.495552 0.230777
0.758602 0.564141 0.205295
0.946654 0.598566 0.230991
0.000000 0.693629 0.464576
0.000000 0.709224 0.439979
0.402350 0.738064 0.372412
0.787472 0.766079 0.397803
0.948760 0.742855 0.434363
0.071565 0.131777 0.174563
0.197543 0.151705 0.175967
0.465949 0.227207 0.153964
0.760555 0.348913 0.103975
0.951659 0.435584 0.000000
0.066072 0.176089 0.192233
0.191043 0.191043 0.191043
0.460700 0.261082 0.173007
0.758907 0.371038 0.122530
0.951263 0.451789 0.060456
0.000000 0.266148 0.235233
0.141726 0.291447 0.232517
0.450233 0.356085 0.218570
0.754086 0.446296 0.183963
0.949432 0.508782 0.166567
0.000000 0.436561 0.338415
0.000000 0.461921 0.329992
0.433967 0.515862 0.296239
0.752071 0.573327 0.280217
0.942657 0.609949 0.304234
0.000000 0.702235 0.505211
0.000000 0.717281 0.486305
0.363684 0.749264 0.422461
0.777249 0.772519 0.455421
0.944030 0.754025 0.484596
0.000000 0.236423 0.349371
0.000000 0.224704 0.355627
0.432166 0.267247 0.359930
0.747982 0.354131 0.317784
0.943816 0.467323 0.324285
0.000000 0.273411 0.368444
0.000000 0.267063 0.372137
0.426886 0.305180 0.371069
0.743374 0.387396 0.336675
0.943786 0.483436 0.332525
0.000000 0.366613 0.413977
0.000000 0.372839 0.416907
0.410346 0.410346 0.410346
0.734524 0.481422 0.391058
0.940703 0.544274 0.375738
0.000000 0.503868 0.484321
0.000000 0.519463 0.487221
0.312200 0.572839 0.466529
0.728206 0.613275 0.468788
0.929503 0.653376 0.478889
0.000000 0.732998 0.627039
0.000000 0.744503 0.619043
0.000000 0.771969 0.560296
0.735042 0.786069 0.588556
0.928130 0.783108 0.601221
0.000000 0.402106 0.613611
0.000000 0.390936 0.618250
0.213748 0.341558 0.624964
0.704982 0.483986 0.605127
0.909117 0.618097 0.627436
0.000000 0.427863 0.624292
0.000000 0.418280 0.626978
0.196963 0.378729 0.631708
0.700862 0.508354 0.612238
0.908019 0.628870 0.632258
0.000000 0.499489 0.649653
0.000000 0.496345 0.651575
0.115236 0.484657 0.654108
0.691920 0.578851 0.637598
0.908843 0.662531 0.645319
0.000000 0.606714 0.689937
0.000000 0.608759 0.690364
0.000000 0.622156 0.691005
0.678920 0.678859 0.678889
0.910338 0.721584 0.666712
0.000000 0.765835 0.773251
0.000000 0.772763 0.773129
0.000000 0.801968 0.768887
0.588342 0.816831 0.715236
0.904967 0.825803 0.738857
0.000000 0.549615 0.846128
0.000000 0.540826 0.847105
0.000000 0.521233 0.848692
0.669215 0.650233 0.837552
0.882292 0.751797 0.819150
0.000000 0.564294 0.848508
0.000000 0.556420 0.849424
0.000000 0.538994 0.850797
0.665064 0.660334 0.839780
0.881926 0.758816 0.822202
0.000000 0.603906 0.856657
0.000000 0.604364 0.856596
0.000000 0.588190 0.858061
0.632197 0.682490 0.848081
0.881285 0.780636 0.832059
0.000000 0.676844 0.870420
0.000000 0.683131 0.870024
0.000000 0.673121 0.870909
0.481758 0.707332 0.864805
0.880247 0.817533 0.849088
0.000000 0.766018 0.888457
0.000000 0.771969 0.888304
0.000000 0.782650 0.888670
0.333349 0.813046 0.885557
0.875669 0.875669 0.875669
