data/fiter_cube/12544332/1022698/file.cube
# Created by Adobe Lightroom plugin Export LUT (1.24.0)
# www.johnrellis.com/lightroom/exportlut.htm
# Preset: 城市青橙纪实夜景 _02 云集
# Color profile: C:\Program Files (x86)\Common Files\Adobe\Color\Profiles\Recommended\AdobeRGB1998.icc
LUT_3D_SIZE 32
0.101472 0.101472 0.101472
0.101472 0.101472 0.101472
0.109133 0.100404 0.101595
0.126864 0.102602 0.101595
0.148013 0.107485 0.101564
0.169924 0.112886 0.101534
0.193454 0.119478 0.100862
0.218662 0.127352 0.100191
0.246616 0.136416 0.098817
0.277684 0.147250 0.096773
0.312993 0.159915 0.093416
0.351690 0.174716 0.088563
0.393378 0.190982 0.081788
0.437324 0.209110 0.071382
0.483131 0.228519 0.055390
0.532891 0.249668 0.008637
0.580896 0.270512 0.000000
0.624933 0.289342 0.000000
0.665278 0.306706 0.000000
0.703853 0.323308 0.000000
0.740322 0.339055 0.000000
0.774411 0.353979 0.000000
0.806180 0.367773 0.000000
0.835508 0.380865 0.000000
0.862791 0.392859 0.000000
0.888151 0.404181 0.000000
0.911894 0.414862 0.000000
0.934356 0.424384 0.000000
0.955657 0.433387 0.000000
0.975982 0.442054 0.000000
0.995361 0.450629 0.000000
1.000000 0.459266 0.000000
0.101472 0.101472 0.101472
0.101472 0.101472 0.101472
0.109010 0.101472 0.101503
0.126619 0.104677 0.101656
0.147585 0.109468 0.101656
0.169589 0.114778 0.101595
0.193027 0.121279 0.100954
0.218173 0.129061 0.100252
0.246006 0.138094 0.098665
0.277073 0.148623 0.096651
0.312139 0.161257 0.093568
0.350896 0.175814 0.088472
0.392370 0.192355 0.081331
0.436194 0.210239 0.071656
0.482094 0.229526 0.054414
0.531182 0.250553 0.008057
0.578820 0.270817 0.000000
0.622797 0.289342 0.000000
0.663172 0.306615 0.000000
0.701778 0.323095 0.000000
0.738399 0.338872 0.000000
0.772702 0.353826 0.000000
0.804562 0.367590 0.000000
0.834134 0.380743 0.000000
0.861570 0.392767 0.000000
0.887053 0.404242 0.000000
0.910979 0.414862 0.000000
0.933532 0.424659 0.000000
0.954955 0.433600 0.000000
0.975372 0.442237 0.000000
0.994812 0.450904 0.000000
1.000000 0.459419 0.000000
0.101472 0.101472 0.101472
0.101625 0.102480 0.101381
0.109194 0.104250 0.101289
0.126436 0.107881 0.101625
0.147280 0.112337 0.101625
0.169192 0.117525 0.101350
0.192538 0.123690 0.100954
0.217777 0.131106 0.100313
0.245426 0.140047 0.098939
0.276402 0.150637 0.096437
0.311406 0.162997 0.093355
0.350103 0.177584 0.088533
0.391577 0.193851 0.081453
0.435370 0.211826 0.071382
0.481178 0.231052 0.054627
0.530144 0.251652 0.009888
0.577630 0.271519 0.000000
0.621424 0.289891 0.000000
0.661952 0.306981 0.000000
0.700618 0.323705 0.000000
0.737362 0.339422 0.000000
0.771756 0.354253 0.000000
0.803738 0.368231 0.000000
0.833371 0.381170 0.000000
0.860868 0.393317 0.000000
0.886473 0.404547 0.000000
0.910460 0.415412 0.000000
0.933074 0.425177 0.000000
0.954589 0.434211 0.000000
0.975036 0.442878 0.000000
0.994507 0.451331 0.000000
1.000000 0.459968 0.000000
0.101106 0.107301 0.101717
0.101045 0.109224 0.101778
0.109194 0.110994 0.101656
0.126070 0.114229 0.101534
0.146609 0.118288 0.101564
0.168612 0.123171 0.101289
0.191684 0.128725 0.100954
0.217044 0.135805 0.100038
0.244694 0.144411 0.098695
0.275669 0.154696 0.096437
0.310521 0.167086 0.093080
0.349065 0.181643 0.087892
0.390417 0.197818 0.081025
0.433997 0.215457 0.070985
0.480293 0.234073 0.056123
0.528740 0.254124 0.015961
0.575982 0.273350 0.000000
0.619715 0.291752 0.000000
0.660121 0.308598 0.000000
0.698695 0.325048 0.000000
0.735531 0.340612 0.000000
0.770047 0.355474 0.000000
0.802274 0.369329 0.000000
0.832242 0.382361 0.000000
0.860105 0.394629 0.000000
0.885985 0.405982 0.000000
0.910155 0.416815 0.000000
0.932921 0.426947 0.000000
0.954467 0.435798 0.000000
0.974914 0.444434 0.000000
0.994354 0.452766 0.000000
1.000000 0.461250 0.000000
0.099275 0.116213 0.105867
0.099641 0.117678 0.105715
0.107210 0.119020 0.105165
0.122835 0.121614 0.105135
0.143923 0.125795 0.104921
0.167056 0.130587 0.103914
0.190402 0.135775 0.102602
0.215549 0.142428 0.101045
0.243290 0.150790 0.099214
0.273991 0.160861 0.097200
0.308812 0.173068 0.093843
0.347356 0.187015 0.089326
0.388739 0.202670 0.083223
0.432380 0.219669 0.074647
0.478767 0.238010 0.061769
0.527062 0.257481 0.026612
0.574365 0.276707 0.000000
0.618280 0.294926 0.000000
0.658869 0.311620 0.000000
0.697566 0.327855 0.000000
0.734401 0.343389 0.000000
0.769039 0.357885 0.000000
0.801328 0.371740 0.000000
0.831418 0.384680 0.000000
0.859403 0.396796 0.000000
0.885435 0.408148 0.000000
0.909667 0.418799 0.000000
0.932494 0.428870 0.000000
0.954070 0.438300 0.000000
0.974548 0.446784 0.000000
0.994049 0.454932 0.000000
1.000000 0.463325 0.000000
0.097475 0.124910 0.110414
0.097871 0.126070 0.110292
0.104768 0.127230 0.109804
0.119356 0.129274 0.110079
0.138552 0.132845 0.109529
0.162905 0.138521 0.108858
0.188571 0.144533 0.107668
0.213962 0.150698 0.105928
0.241703 0.158328 0.103822
0.272618 0.167880 0.101656
0.307408 0.179599 0.098238
0.345861 0.193332 0.093690
0.387091 0.208499 0.087984
0.431006 0.225162 0.079652
0.477760 0.243412 0.067750
0.525780 0.262699 0.041199
0.573083 0.281559 0.000000
0.617090 0.299351 0.000000
0.657801 0.316014 0.000000
0.696834 0.332036 0.000000
0.733852 0.347478 0.000000
0.768673 0.361944 0.000000
0.809873 0.379461 0.000000
0.839109 0.391974 0.000000
0.866209 0.403388 0.000000
0.891325 0.414191 0.000000
0.914763 0.424414 0.000000
0.936828 0.434150 0.000000
0.957794 0.443488 0.000000
0.977783 0.451911 0.000000
0.996796 0.459815 0.000000
1.000000 0.467842 0.000000
0.095186 0.134127 0.115450
0.096834 0.135042 0.115541
0.102937 0.136172 0.115084
0.116182 0.138125 0.114748
0.134798 0.141238 0.114931
0.156863 0.145937 0.114076
0.184329 0.153017 0.113161
0.213046 0.160586 0.111574
0.241062 0.167758 0.109773
0.272435 0.177127 0.107240
0.307591 0.188571 0.103914
0.346471 0.201877 0.099306
0.387915 0.217014 0.093324
0.431922 0.233249 0.085206
0.479896 0.251743 0.073365
0.527977 0.270542 0.054566
0.575189 0.289220 0.007507
0.619135 0.306615 0.000000
0.659968 0.322942 0.000000
0.699275 0.338689 0.000000
0.736843 0.354040 0.000000
0.772335 0.368627 0.000000
0.805356 0.382269 0.000000
0.835996 0.395087 0.000000
0.864134 0.406928 0.000000
0.889830 0.417792 0.000000
0.913664 0.427863 0.000000
0.935912 0.437537 0.000000
0.957031 0.446784 0.000000
0.977081 0.455665 0.000000
0.996155 0.463508 0.000000
1.000000 0.471260 0.000000
0.092134 0.143832 0.121706
0.095888 0.144503 0.121370
0.101778 0.145418 0.120943
0.113436 0.147433 0.120272
0.131502 0.150301 0.120272
0.152346 0.154147 0.119966
0.177005 0.160281 0.119112
0.206973 0.169009 0.117861
0.238773 0.177890 0.116091
0.270115 0.186770 0.113527
0.305425 0.197696 0.110231
0.344305 0.210758 0.105684
0.385962 0.225376 0.099611
0.430274 0.241489 0.092012
0.478004 0.259678 0.081056
0.525780 0.277806 0.066102
0.572869 0.296117 0.030854
0.616785 0.313176 0.000000
0.657771 0.329137 0.000000
0.697200 0.344732 0.000000
0.734890 0.359808 0.000000
0.770504 0.374090 0.000000
0.803708 0.387518 0.000000
0.834440 0.399908 0.000000
0.862730 0.411505 0.000000
0.888609 0.422217 0.000000
0.912535 0.432166 0.000000
0.934997 0.441627 0.000000
0.956207 0.450782 0.000000
0.976349 0.459602 0.000000
0.995544 0.468055 0.000000
1.000000 0.475563 0.000000
0.092226 0.154574 0.128237
0.095949 0.155184 0.128115
0.100862 0.156252 0.127901
0.111330 0.158267 0.127108
0.127962 0.161166 0.125826
0.149294 0.164706 0.126101
0.172305 0.169223 0.125704
0.200015 0.176699 0.124208
0.232670 0.186679 0.122744
0.268040 0.197726 0.120119
0.303319 0.208408 0.117006
0.342168 0.220981 0.112764
0.383978 0.235294 0.106905
0.429145 0.251591 0.099123
0.476509 0.269078 0.089021
0.524102 0.286839 0.075959
0.571008 0.304692 0.055879
0.615045 0.321202 0.007080
0.656092 0.336889 0.000000
0.695674 0.351965 0.000000
0.733516 0.366766 0.000000
0.769223 0.380682 0.000000
0.802518 0.393713 0.000000
0.833310 0.405921 0.000000
0.861692 0.417243 0.000000
0.887663 0.427680 0.000000
0.911772 0.437385 0.000000
0.934264 0.446662 0.000000
0.955535 0.455634 0.000000
0.975738 0.464302 0.000000
0.994995 0.472724 0.000000
1.000000 0.480629 0.000000
0.091920 0.166476 0.135897
0.095308 0.167208 0.135592
0.099733 0.168124 0.135256
0.109346 0.170047 0.134188
0.124147 0.172976 0.132143
0.145937 0.176425 0.132204
0.169436 0.180697 0.131991
0.194736 0.186130 0.131228
0.225772 0.195346 0.129488
0.261326 0.206729 0.127169
0.300969 0.219974 0.124239
0.339818 0.232273 0.120241
0.381628 0.246342 0.114961
0.427527 0.262455 0.107912
0.474922 0.279698 0.098238
0.522545 0.297124 0.085878
0.569787 0.314672 0.069612
0.614038 0.330846 0.038056
0.655116 0.346075 0.000000
0.694789 0.360815 0.000000
0.732631 0.374975 0.000000
0.768063 0.388434 0.000000
0.801175 0.401068 0.000000
0.831846 0.412818 0.000000
0.860227 0.423621 0.000000
0.886351 0.433906 0.000000
0.910582 0.443366 0.000000
0.933257 0.452522 0.000000
0.954772 0.461280 0.000000
0.975128 0.469764 0.000000
0.994507 0.478157 0.000000
1.000000 0.486305 0.000000
0.090394 0.179385 0.143679
0.093446 0.180179 0.143557
0.097688 0.181033 0.143069
0.106661 0.183017 0.142061
0.120699 0.185824 0.139834
0.141299 0.189364 0.137942
0.166781 0.193484 0.139010
0.192355 0.198642 0.138094
0.220432 0.205478 0.137026
0.254856 0.216312 0.134432
0.294163 0.229496 0.131868
0.337926 0.244724 0.127962
0.380194 0.258824 0.122866
0.426001 0.274784 0.116274
0.472999 0.291417 0.107759
0.520592 0.308324 0.096834
0.567742 0.325414 0.082521
0.611933 0.341192 0.064881
0.653315 0.355871 0.026581
0.693141 0.370245 0.000000
0.731014 0.384161 0.000000
0.766659 0.397162 0.000000
0.799985 0.409430 0.000000
0.830777 0.420783 0.000000
0.859251 0.431342 0.000000
0.885466 0.441230 0.000000
0.909728 0.450416 0.000000
0.932525 0.459236 0.000000
0.954040 0.467720 0.000000
0.974456 0.476020 0.000000
0.993896 0.484169 0.000000
1.000000 0.492226 0.000000
0.087343 0.193576 0.152529
0.090303 0.194217 0.152102
0.094270 0.195254 0.151797
0.103151 0.197116 0.150423
0.116640 0.200259 0.148013
0.135348 0.203799 0.144686
0.162509 0.207736 0.145174
0.189792 0.212619 0.145541
0.217868 0.218692 0.144411
0.249516 0.227207 0.142519
0.287816 0.239902 0.139101
0.330755 0.255039 0.136110
0.384314 0.276127 0.131228
0.431312 0.292393 0.125216
0.479042 0.309117 0.117586
0.527367 0.325994 0.107271
0.574701 0.342443 0.094545
0.618555 0.357366 0.079042
0.659510 0.371252 0.060853
0.698909 0.385016 0.011872
0.736172 0.397803 0.000000
0.771084 0.409857 0.000000
0.803586 0.421302 0.000000
0.833799 0.431861 0.000000
0.861662 0.441810 0.000000
0.887480 0.451026 0.000000
0.911406 0.459754 0.000000
0.933867 0.468086 0.000000
0.955108 0.476112 0.000000
0.975311 0.484108 0.000000
0.994507 0.491859 0.000000
1.000000 0.499702 0.000000
0.081880 0.209567 0.161990
0.084657 0.210269 0.161746
0.089082 0.211124 0.161196
0.097810 0.212955 0.159884
0.111299 0.215885 0.157504
0.129854 0.219638 0.153841
0.156008 0.223850 0.151064
0.186648 0.228214 0.152956
0.216190 0.234134 0.152102
0.246799 0.241123 0.150668
0.282933 0.252323 0.147860
0.325872 0.267308 0.143771
0.374945 0.285863 0.140139
0.427955 0.306035 0.134279
0.475959 0.322423 0.127016
0.524071 0.338994 0.118257
0.571435 0.355200 0.107668
0.615473 0.369787 0.094697
0.656703 0.383246 0.079835
0.696254 0.396399 0.060578
0.733852 0.408667 0.015839
0.768917 0.420417 0.000000
0.801602 0.431373 0.000000
0.831998 0.441474 0.000000
0.860075 0.451026 0.000000
0.885985 0.459846 0.000000
0.910094 0.468269 0.000000
0.932677 0.476234 0.000000
0.954040 0.484108 0.000000
0.974365 0.491737 0.000000
0.993683 0.499397 0.000000
1.000000 0.507134 0.000000
0.074098 0.225864 0.171817
0.077272 0.226505 0.171328
0.081361 0.227329 0.170932
0.090578 0.229221 0.169711
0.104433 0.232151 0.166964
0.122988 0.235904 0.163394
0.147158 0.240421 0.157870
0.180758 0.244938 0.158999
0.212955 0.250278 0.160098
0.244877 0.257298 0.158511
0.278233 0.265324 0.156680
0.320256 0.280034 0.153048
0.367864 0.297734 0.148623
0.418982 0.316808 0.143984
0.472602 0.336858 0.137118
0.521202 0.353277 0.128817
0.568322 0.368902 0.119417
0.612299 0.383032 0.109010
0.653742 0.396155 0.096986
0.693690 0.408728 0.082368
0.731502 0.420783 0.064790
0.766934 0.431983 0.029114
0.799802 0.442512 0.000000
0.830411 0.452277 0.000000
0.858640 0.461372 0.000000
0.884733 0.469856 0.000000
0.908965 0.477852 0.000000
0.931701 0.485451 0.000000
0.953185 0.493019 0.000000
0.973571 0.500389 0.000000
0.992950 0.507897 0.000000
1.000000 0.515496 0.000000
0.061982 0.243198 0.182193
0.065736 0.243900 0.181979
0.070802 0.244724 0.181247
0.080629 0.246708 0.179965
0.095705 0.249577 0.177615
0.114717 0.253452 0.173648
0.139223 0.257969 0.168002
0.172000 0.262913 0.164797
0.208377 0.268223 0.167147
0.242405 0.275029 0.166720
0.277134 0.283116 0.164981
0.315038 0.293919 0.162722
0.361547 0.310948 0.158297
0.411627 0.329320 0.153109
0.463783 0.348638 0.147433
0.517418 0.368109 0.139712
0.565606 0.383856 0.131380
0.609644 0.397375 0.122072
0.651118 0.410101 0.111940
0.691188 0.422370 0.101106
0.729244 0.433814 0.088411
0.764828 0.444617 0.073640
0.797971 0.454627 0.055665
0.828733 0.463935 0.020447
0.857206 0.472480 0.000000
0.883513 0.480659 0.000000
0.907958 0.488258 0.000000
0.930938 0.495705 0.000000
0.952636 0.502983 0.000000
0.973205 0.510277 0.000000
0.992737 0.517601 0.000000
1.000000 0.525078 0.046632
0.028260 0.261753 0.193637
0.037934 0.262577 0.193179
0.049348 0.263432 0.192691
0.066133 0.265385 0.191287
0.083223 0.268406 0.188724
0.104250 0.272496 0.184878
0.129458 0.277317 0.179080
0.159274 0.282811 0.171481
0.200992 0.288029 0.173465
0.238987 0.294560 0.175174
0.276097 0.303136 0.173770
0.314397 0.312963 0.171908
0.355718 0.325444 0.168734
0.404730 0.343023 0.163394
0.455909 0.361303 0.157107
0.508354 0.380163 0.151064
0.560998 0.398688 0.142947
0.606683 0.412879 0.134493
0.648676 0.425116 0.125856
0.689113 0.436957 0.117128
0.727443 0.448127 0.107729
0.763363 0.458564 0.096956
0.796719 0.468025 0.086671
0.827695 0.476875 0.075746
0.856321 0.485084 0.066255
0.882841 0.492775 0.056580
0.907408 0.500008 0.048249
0.930449 0.507073 0.046601
0.952178 0.514000 0.054170
0.972747 0.520928 0.064881
0.992248 0.527977 0.078340
1.000000 0.535363 0.095888
0.000000 0.281834 0.205722
0.000000 0.282414 0.205203
0.000000 0.283452 0.204654
0.027771 0.285344 0.203311
0.065309 0.288426 0.200900
0.090242 0.292515 0.197086
0.117372 0.297520 0.191562
0.148501 0.303227 0.183352
0.188998 0.308995 0.179599
0.233005 0.315618 0.182528
0.273320 0.323980 0.183047
0.312810 0.333318 0.180972
0.353002 0.343542 0.178805
0.398199 0.357733 0.174472
0.448646 0.375555 0.168215
0.500328 0.393683 0.161471
0.552361 0.411658 0.154849
0.602289 0.428046 0.147341
0.646021 0.440864 0.139864
0.686610 0.452277 0.132052
0.725093 0.463050 0.124361
0.761135 0.472938 0.116976
0.794705 0.482094 0.109773
0.825956 0.490455 0.102052
0.854826 0.498299 0.095705
0.881437 0.505425 0.091829
0.906279 0.512322 0.089845
0.929442 0.519066 0.090425
0.951324 0.525658 0.095338
0.971984 0.532341 0.102937
0.991547 0.539269 0.113130
1.000000 0.546532 0.127901
0.000000 0.303105 0.218692
0.000000 0.303868 0.218387
0.000000 0.306554 0.218723
0.000000 0.308507 0.217655
0.008576 0.311681 0.215122
0.068788 0.315740 0.211337
0.101991 0.320836 0.205631
0.135775 0.326604 0.197604
0.172946 0.334081 0.187259
0.224704 0.341009 0.190372
0.270542 0.348882 0.193454
0.312657 0.358007 0.191623
0.354650 0.367834 0.189303
0.397192 0.378454 0.186160
0.445777 0.394415 0.180819
0.497475 0.411994 0.173434
0.549645 0.429572 0.166903
0.599054 0.445258 0.160678
0.645197 0.459113 0.153780
0.686976 0.470466 0.147402
0.725307 0.480476 0.140841
0.761196 0.489570 0.135225
0.794644 0.498146 0.130098
0.825650 0.505943 0.126253
0.854307 0.512932 0.122133
0.880797 0.519554 0.119631
0.905425 0.525811 0.118868
0.928557 0.531945 0.120699
0.950378 0.538262 0.125002
0.971069 0.544640 0.132235
0.990661 0.551385 0.142702
1.000000 0.558556 0.156466
0.000000 0.326879 0.233280
0.000000 0.327733 0.233066
0.000000 0.328862 0.232639
0.000000 0.331212 0.231388
0.000000 0.334478 0.229160
0.007874 0.338781 0.225528
0.080293 0.344305 0.220340
0.119692 0.351171 0.212772
0.160067 0.358709 0.201816
0.210758 0.365881 0.197360
0.262547 0.373175 0.200748
0.308659 0.381750 0.201938
0.352789 0.391180 0.199405
0.396582 0.401343 0.196445
0.440558 0.412146 0.193057
0.492073 0.429389 0.186465
0.544274 0.446540 0.178744
0.593866 0.461799 0.172763
0.640192 0.475288 0.167361
0.683497 0.487037 0.162020
0.722774 0.496956 0.156680
0.758907 0.505699 0.152316
0.792660 0.513695 0.148409
0.823911 0.521050 0.146273
0.852720 0.527825 0.144686
0.879362 0.534051 0.143954
0.904204 0.539910 0.144472
0.927428 0.545708 0.146761
0.949371 0.551720 0.152010
0.970092 0.557855 0.159487
0.989715 0.564416 0.170169
1.000000 0.571527 0.184176
0.000000 0.351904 0.248905
0.000000 0.352941 0.248692
0.000000 0.354070 0.248356
0.000000 0.356603 0.247257
0.000000 0.360357 0.245365
0.000000 0.365148 0.241917
0.021912 0.370977 0.236759
0.097414 0.377691 0.229191
0.143221 0.385046 0.218387
0.189822 0.392889 0.204776
0.250736 0.399878 0.208621
0.303105 0.407813 0.211887
0.350164 0.416846 0.210330
0.396002 0.426734 0.207584
0.441596 0.437110 0.204257
0.488502 0.449378 0.199802
0.540734 0.466163 0.192416
0.590936 0.481086 0.185214
0.637446 0.493935 0.180514
0.680781 0.505150 0.176303
0.720546 0.514702 0.172580
0.756802 0.522789 0.169070
0.790738 0.530297 0.166842
0.822171 0.537194 0.165469
0.851164 0.543511 0.165621
0.877928 0.549401 0.166476
0.902770 0.554894 0.168978
0.926116 0.560327 0.172305
0.948089 0.565972 0.177676
0.968872 0.571923 0.185672
0.988525 0.578271 0.196658
1.000000 0.585321 0.211124
0.000000 0.380682 0.266880
0.000000 0.381811 0.266728
0.000000 0.383154 0.266300
0.000000 0.385657 0.265354
0.000000 0.389380 0.263340
0.000000 0.394049 0.259831
0.000000 0.399542 0.254551
0.058228 0.406195 0.247196
0.121004 0.413489 0.236484
0.172091 0.421363 0.221958
0.234257 0.428626 0.216587
0.293828 0.436255 0.220554
0.346319 0.444556 0.222416
0.394690 0.454170 0.219821
0.442359 0.464363 0.216495
0.489479 0.475166 0.212863
0.539208 0.488777 0.207340
0.589960 0.503380 0.200839
0.637446 0.515984 0.194400
0.681270 0.526543 0.191318
0.721279 0.535515 0.189303
0.757473 0.542779 0.187442
0.790585 0.549187 0.185977
0.822263 0.555505 0.186191
0.851347 0.561334 0.187289
0.878141 0.566766 0.189700
0.902983 0.571984 0.193851
0.926207 0.577234 0.199893
0.948150 0.582544 0.206027
0.968841 0.588190 0.214755
0.988342 0.594385 0.226291
1.000000 0.601465 0.241611
0.000000 0.413397 0.287327
0.000000 0.414343 0.287053
0.000000 0.415442 0.286625
0.000000 0.417853 0.285374
0.000000 0.421271 0.283024
0.000000 0.425818 0.279637
0.000000 0.431312 0.274449
0.000000 0.437812 0.267094
0.087221 0.445197 0.256168
0.150912 0.453254 0.241825
0.209751 0.461524 0.226047
0.281712 0.468818 0.230350
0.341222 0.476692 0.234165
0.393866 0.485756 0.233799
0.444190 0.495552 0.230777
0.493294 0.505852 0.227298
0.541558 0.516564 0.223362
0.591241 0.529046 0.217685
0.638666 0.540520 0.212284
0.682979 0.550195 0.207187
0.722774 0.558007 0.205692
0.758602 0.564141 0.205295
0.790829 0.569146 0.205112
0.820401 0.573388 0.205478
0.849546 0.578546 0.207919
0.876463 0.583490 0.211215
0.901427 0.588342 0.215885
0.924743 0.593286 0.222751
0.946654 0.598566 0.230991
0.967315 0.604089 0.241123
0.986847 0.610132 0.253117
1.000000 0.617212 0.269352
0.000000 0.446998 0.308415
0.000000 0.447974 0.308232
0.000000 0.449073 0.307744
0.000000 0.451362 0.306340
0.000000 0.454841 0.304082
0.000000 0.459205 0.300603
0.000000 0.464576 0.295354
0.000000 0.470924 0.287633
0.000000 0.478279 0.277317
0.120943 0.486183 0.263218
0.187503 0.494759 0.245304
0.262882 0.502220 0.240635
0.331212 0.509667 0.245029
0.390417 0.518151 0.248997
0.443427 0.527276 0.246128
0.494484 0.536736 0.242741
0.544030 0.546502 0.239414
0.592523 0.556512 0.235782
0.640314 0.567010 0.230808
0.684871 0.575708 0.226596
0.725216 0.582452 0.223026
0.761013 0.587610 0.223850
0.793179 0.591608 0.225345
0.822080 0.594537 0.226780
0.847257 0.596155 0.227695
0.874266 0.600519 0.231815
0.899351 0.605066 0.237583
0.922789 0.609644 0.244846
0.944762 0.614649 0.254337
0.965423 0.620172 0.266026
0.984924 0.626459 0.280308
1.000000 0.633600 0.296971
0.000000 0.484932 0.332311
0.000000 0.486000 0.332097
0.000000 0.487221 0.331487
0.000000 0.489326 0.330236
0.000000 0.492500 0.327886
0.000000 0.496834 0.324071
0.000000 0.501946 0.318578
0.000000 0.507988 0.311009
0.000000 0.514916 0.300359
0.067567 0.522698 0.286717
0.161288 0.530816 0.268925
0.236393 0.538781 0.252384
0.317418 0.545342 0.257267
0.383368 0.552422 0.262211
0.441047 0.560082 0.263279
0.494026 0.568292 0.260349
0.544701 0.576928 0.257420
0.594018 0.585809 0.253910
0.642115 0.594965 0.250401
0.686793 0.602655 0.246830
0.727291 0.608331 0.244205
0.763577 0.612238 0.242283
0.795590 0.615045 0.245304
0.824186 0.616968 0.247562
0.849607 0.618036 0.250675
0.872618 0.618891 0.253544
0.897704 0.622797 0.260014
0.921080 0.627008 0.268254
0.943053 0.631647 0.278141
0.963653 0.636957 0.290532
0.983093 0.643305 0.306401
1.000000 0.650904 0.325963
0.000000 0.523461 0.356664
0.000000 0.524437 0.356359
0.000000 0.525628 0.355779
0.000000 0.527764 0.354345
0.000000 0.530907 0.351873
0.000000 0.534997 0.348028
0.000000 0.540032 0.342473
0.000000 0.546014 0.334752
0.000000 0.552758 0.324437
0.000000 0.560143 0.311009
0.124453 0.567895 0.294011
0.210513 0.575677 0.274113
0.298528 0.582025 0.271672
0.373693 0.588128 0.277043
0.437415 0.594812 0.282597
0.493233 0.602197 0.281254
0.545892 0.609888 0.278416
0.596521 0.618006 0.275669
0.645502 0.626276 0.273136
0.691676 0.633692 0.270573
0.732021 0.637842 0.268376
0.768215 0.640345 0.267460
0.800412 0.641688 0.267460
0.828641 0.642420 0.271336
0.853819 0.642420 0.275334
0.876249 0.642145 0.279393
0.896422 0.641657 0.283391
0.919738 0.645441 0.292485
0.941650 0.649805 0.303471
0.962219 0.654994 0.317052
0.981567 0.661280 0.333837
0.999512 0.669032 0.354803
0.000000 0.564813 0.382635
0.000000 0.565667 0.382330
0.000000 0.566644 0.381781
0.000000 0.568536 0.379980
0.000000 0.571344 0.377386
0.000000 0.575097 0.373205
0.000000 0.579644 0.367559
0.000000 0.585016 0.359960
0.000000 0.591272 0.349432
0.000000 0.598077 0.336004
0.056733 0.605371 0.319463
0.183993 0.612604 0.300999
0.273320 0.619226 0.287633
0.360204 0.624414 0.294316
0.430426 0.630091 0.300206
0.491066 0.636347 0.304082
0.545556 0.643183 0.301946
0.597375 0.650172 0.299718
0.647028 0.657343 0.297581
0.694759 0.664729 0.295781
0.737209 0.669184 0.294255
0.773190 0.670100 0.294072
0.805203 0.670039 0.294438
0.833524 0.669154 0.296361
0.858244 0.668147 0.301701
0.880400 0.666835 0.306615
0.900328 0.665583 0.311864
0.918334 0.664393 0.316960
0.939666 0.667933 0.328130
0.960204 0.672999 0.342962
0.979431 0.679194 0.360449
0.997253 0.687068 0.382605
0.000000 0.606073 0.408789
0.000000 0.606806 0.408392
0.000000 0.607752 0.407599
0.000000 0.609491 0.405982
0.000000 0.612177 0.403113
0.000000 0.615747 0.399023
0.000000 0.620417 0.393439
0.000000 0.625879 0.385992
0.000000 0.632136 0.375952
0.000000 0.639033 0.363592
0.000000 0.646204 0.348150
0.151461 0.653346 0.330663
0.251133 0.659998 0.314763
0.346136 0.665034 0.316472
0.424659 0.669795 0.323735
0.490822 0.674739 0.330694
0.548058 0.680385 0.332036
0.600946 0.686213 0.330358
0.651240 0.692287 0.329168
0.699153 0.698482 0.328222
0.745083 0.704677 0.327184
0.782223 0.705135 0.327428
0.813596 0.703182 0.328710
0.841398 0.700649 0.330358
0.865843 0.697902 0.333928
0.887358 0.695491 0.340276
0.906706 0.693263 0.346746
0.924224 0.691279 0.352697
0.940093 0.689662 0.358892
0.959319 0.693385 0.373083
0.978210 0.699641 0.392523
0.995636 0.707637 0.416052
0.000000 0.651240 0.437537
0.000000 0.651881 0.437110
0.000000 0.652613 0.436316
0.000000 0.654170 0.434455
0.000000 0.656489 0.431434
0.000000 0.659693 0.426978
0.000000 0.663722 0.421210
0.000000 0.668452 0.413428
0.000000 0.674006 0.403510
0.000000 0.679957 0.390814
0.000000 0.686030 0.376135
0.101198 0.692134 0.360021
0.230411 0.697688 0.345190
0.327947 0.702174 0.339818
0.414801 0.705653 0.347814
