data/fiter_cube/12544332/1022698/file.cube
# Created by Adobe Lightroom plugin Export LUT (1.24.0)
# www.johnrellis.com/lightroom/exportlut.htm
# Preset: 城市青橙纪实夜景 _02 云集
# Color profile: C:\Program Files (x86)\Common Files\Adobe\Color\Profiles\Recommended\AdobeRGB1998.icc
LUT_3D_SIZE 8
DOMAIN_MIN 0.000000 0.000000 0.000000
DOMAIN_MAX 0.903226 0.903226 0.903226
0.101472 0.101472 0.101472
0.148013 0.107485 0.101564
0.246616 0.136416 0.098817
0.393378 0.190982 0.081788
0.580896 0.270512 0.000000
0.740322 0.339055 0.000000
0.862791 0.392859 0.000000
0.955657 0.433387 0.000000
0.099275 0.116213 0.105867
0.143923 0.125795 0.104921
0.243290 0.150790 0.099214
0.388739 0.202670 0.083223
0.574365 0.276707 0.000000
0.734401 0.343389 0.000000
0.859403 0.396796 0.000000
0.954070 0.438300 0.000000
0.092226 0.154574 0.128237
0.127962 0.161166 0.125826
0.232670 0.186679 0.122744
0.383978 0.235294 0.106905
0.571008 0.304692 0.055879
0.733516 0.366766 0.000000
0.861692 0.417243 0.000000
0.955535 0.455634 0.000000
0.081880 0.209567 0.161990
0.111299 0.215885 0.157504
0.216190 0.234134 0.152102
0.374945 0.285863 0.140139
0.571435 0.355200 0.107668
0.733852 0.408667 0.015839
0.860075 0.451026 0.000000
0.954040 0.484108 0.000000
0.000000 0.281834 0.205722
0.065309 0.288426 0.200900
0.188998 0.308995 0.179599
0.353002 0.343542 0.178805
0.552361 0.411658 0.154849
0.725093 0.463050 0.124361
0.854826 0.498299 0.095705
0.951324 0.525658 0.095338
0.000000 0.380682 0.266880
0.000000 0.389380 0.263340
0.121004 0.413489 0.236484
0.346319 0.444556 0.222416
0.539208 0.488777 0.207340
0.721279 0.535515 0.189303
0.851347 0.561334 0.187289
0.948150 0.582544 0.206027
0.000000 0.523461 0.356664
0.000000 0.530907 0.351873
0.000000 0.552758 0.324437
0.298528 0.582025 0.271672
0.545892 0.609888 0.278416
0.732021 0.637842 0.268376
0.853819 0.642420 0.275334
0.941650 0.649805 0.303471
0.000000 0.693629 0.464576
0.000000 0.698360 0.457984
0.000000 0.714168 0.429999
0.207645 0.735103 0.376257
0.543328 0.744289 0.390509
0.744106 0.761532 0.396368
0.877043 0.757931 0.406989
0.948760 0.742855 0.434363
0.093690 0.109682 0.130373
0.139345 0.119875 0.130037
0.236728 0.144991 0.124331
0.380713 0.195132 0.116182
0.567498 0.267399 0.079072
0.729549 0.335119 0.000000
0.856809 0.390753 0.000000
0.952514 0.434272 0.000000
0.089387 0.127901 0.137209
0.136568 0.136568 0.136568
0.233188 0.158358 0.133089
0.378851 0.204562 0.120699
0.564599 0.274723 0.085328
0.726864 0.340856 0.000000
0.854429 0.395148 0.000000
0.950866 0.437995 0.000000
0.091493 0.164034 0.150973
0.127657 0.173098 0.152895
0.227604 0.192966 0.149874
0.375402 0.236545 0.137697
0.560967 0.302037 0.105959
0.725490 0.363928 0.017731
0.854948 0.414862 0.000000
0.951781 0.454749 0.000000
0.077058 0.218082 0.181125
0.108614 0.225803 0.179812
0.215213 0.243076 0.173739
0.368475 0.287297 0.164187
0.557549 0.350469 0.140200
0.722896 0.404639 0.097932
0.853086 0.448646 0.018372
0.950378 0.483436 0.000000
0.000000 0.291051 0.223880
0.044648 0.297398 0.220218
0.178561 0.318181 0.197879
0.351324 0.349004 0.197879
0.544823 0.410437 0.178622
0.718441 0.461677 0.154635
0.850706 0.498054 0.133364
0.948760 0.526390 0.132418
0.000000 0.388220 0.283024
0.000000 0.395270 0.279637
0.109071 0.418311 0.257176
0.339940 0.448768 0.239994
0.535546 0.491402 0.228031
0.718105 0.537072 0.212955
0.848631 0.563043 0.212833
0.945983 0.584466 0.228763
0.000000 0.525902 0.369329
0.000000 0.532097 0.364538
0.000000 0.553918 0.341222
0.280186 0.584497 0.285832
0.540795 0.611933 0.296849
0.728206 0.639277 0.287449
0.850217 0.643427 0.293675
0.938842 0.651362 0.319738
0.000000 0.693874 0.475471
0.000000 0.698939 0.469734
0.000000 0.714870 0.444129
0.185489 0.736141 0.393042
0.539940 0.748409 0.408026
0.741421 0.763882 0.414801
0.874846 0.760128 0.422461
0.946685 0.745083 0.447517
0.053468 0.142031 0.193088
0.094972 0.143923 0.194308
0.221530 0.164797 0.195224
0.372839 0.193332 0.178500
0.561242 0.262882 0.164248
0.725032 0.333776 0.144839
0.855558 0.391913 0.113741
0.952392 0.437201 0.083375
0.063691 0.159792 0.199222
0.103304 0.161379 0.200473
0.218936 0.178195 0.199435
0.368902 0.206973 0.185550
0.556329 0.272068 0.171450
0.722377 0.340032 0.149294
0.853727 0.396887 0.118807
0.951446 0.441535 0.091646
0.028351 0.195560 0.215305
0.092653 0.198917 0.215885
0.213504 0.213504 0.213504
0.364355 0.246403 0.205966
0.553307 0.304692 0.189487
0.721096 0.365545 0.165072
0.852811 0.417334 0.139590
0.950652 0.458686 0.120668
0.000000 0.242435 0.234806
0.066499 0.248997 0.236698
0.185214 0.270726 0.233280
0.360632 0.303319 0.230991
0.549310 0.357488 0.217655
0.718654 0.409918 0.194766
0.851438 0.454353 0.175296
0.949523 0.490028 0.166445
0.000000 0.311528 0.272984
0.000000 0.320348 0.274876
0.142977 0.346715 0.270146
0.346746 0.375067 0.262486
0.539971 0.423835 0.250736
0.712886 0.470588 0.239048
0.847440 0.506462 0.226169
0.946654 0.535790 0.226108
0.000000 0.409674 0.332586
0.000000 0.418402 0.333227
0.000000 0.443061 0.324132
0.310826 0.472816 0.294682
0.530388 0.508782 0.295201
0.710658 0.546685 0.286717
0.843137 0.573358 0.290166
0.942809 0.596796 0.303471
0.000000 0.545830 0.418494
0.000000 0.552392 0.416175
0.000000 0.572839 0.401129
0.232914 0.601404 0.356634
0.526604 0.625360 0.360998
0.721828 0.651362 0.353796
0.845518 0.655238 0.360571
0.935760 0.665949 0.386023
0.000000 0.703304 0.517052
0.000000 0.707027 0.511803
0.000000 0.722133 0.491981
0.003510 0.744289 0.449195
0.517235 0.755367 0.455299
0.729549 0.769497 0.470497
0.868498 0.769650 0.475837
0.941894 0.756435 0.497292
0.000000 0.198306 0.286748
0.000000 0.197177 0.289586
0.144015 0.184176 0.294347
0.350927 0.226383 0.295689
0.547936 0.251804 0.264500
0.716793 0.328710 0.252293
0.848936 0.396582 0.246464
0.948089 0.448005 0.240574
0.000000 0.213413 0.295232
0.000000 0.211612 0.296880
0.142245 0.199863 0.299809
0.349920 0.238804 0.299565
0.545251 0.266300 0.270634
0.714534 0.338628 0.258244
0.847623 0.403449 0.251743
0.947723 0.452430 0.242802
0.000000 0.246983 0.310735
0.000000 0.247257 0.312230
0.131380 0.245396 0.314611
0.344060 0.276249 0.311894
0.538842 0.311131 0.291630
0.712398 0.373724 0.281498
0.848722 0.430213 0.272404
0.948241 0.472328 0.259831
0.000000 0.300481 0.337621
0.000000 0.302373 0.338262
0.092256 0.310277 0.340215
0.335760 0.335760 0.335760
0.529595 0.375402 0.325322
0.706142 0.424720 0.311864
0.844541 0.469978 0.299474
0.945769 0.506920 0.291722
0.000000 0.362615 0.365789
0.000000 0.367224 0.367407
0.000000 0.384710 0.371221
0.291264 0.417151 0.361975
0.524102 0.450446 0.361089
0.701381 0.492409 0.354406
0.840726 0.527672 0.343755
0.942107 0.557031 0.340734
0.000000 0.445075 0.410956
0.000000 0.454383 0.415595
0.000000 0.479194 0.420294
0.230533 0.513268 0.404303
0.514885 0.541070 0.401953
0.699336 0.570306 0.396521
0.834531 0.597498 0.401556
0.936584 0.621057 0.407385
0.000000 0.574456 0.493751
0.000000 0.581018 0.494392
0.000000 0.601282 0.490150
0.070069 0.628717 0.463416
0.491737 0.649348 0.452308
0.708431 0.674037 0.455756
0.835447 0.676692 0.459205
0.928374 0.690639 0.480476
0.000000 0.723354 0.587213
0.000000 0.727138 0.584344
0.000000 0.738399 0.569635
0.000000 0.756619 0.533288
0.451179 0.768399 0.516930
0.707149 0.778103 0.548425
0.856626 0.784634 0.550500
0.933745 0.773983 0.566278
0.000000 0.279332 0.418616
0.000000 0.276982 0.420783
0.000000 0.261448 0.425971
0.276860 0.256168 0.430640
0.516381 0.315282 0.428595
0.701991 0.346136 0.391638
0.837644 0.431678 0.397284
0.936858 0.500114 0.414038
0.000000 0.291386 0.425299
0.000000 0.289036 0.427283
0.000000 0.274937 0.431281
0.271366 0.266087 0.434974
0.514458 0.326574 0.431525
0.700526 0.358465 0.396918
0.836881 0.439734 0.402014
0.936614 0.504845 0.416602
0.000000 0.323125 0.440650
0.000000 0.322118 0.442237
0.000000 0.314427 0.446052
0.241794 0.298070 0.448157
0.508110 0.362219 0.441505
0.694209 0.396551 0.413581
0.833799 0.465461 0.416571
0.935760 0.519310 0.422583
0.000000 0.371527 0.463111
0.000000 0.371923 0.464637
0.000000 0.372107 0.468086
0.214023 0.370764 0.469825
0.500511 0.419287 0.461341
0.688045 0.456275 0.443214
0.831479 0.506645 0.439155
0.937102 0.542077 0.427375
0.000000 0.437751 0.495827
0.000000 0.439277 0.496651
0.000000 0.444343 0.498482
0.168215 0.456458 0.498329
0.488991 0.488991 0.488991
0.681056 0.524681 0.477760
0.828000 0.559991 0.467933
0.933837 0.589197 0.460121
0.000000 0.512535 0.531334
0.000000 0.515465 0.532158
0.000000 0.525628 0.533867
0.000000 0.548608 0.534386
0.432837 0.576379 0.511681
0.675807 0.602075 0.518151
0.820768 0.631708 0.520165
0.927306 0.654536 0.517967
0.000000 0.616297 0.591852
0.000000 0.619745 0.592187
0.000000 0.633417 0.592737
0.000000 0.657649 0.585809
0.359930 0.677882 0.549401
0.673274 0.693263 0.564202
0.819181 0.703639 0.563470
0.918303 0.720577 0.576928
0.000000 0.745632 0.671199
0.000000 0.748684 0.670008
0.000000 0.758541 0.663233
0.000000 0.774594 0.641932
0.230625 0.786618 0.594598
0.666529 0.787991 0.625483
0.837217 0.802121 0.630671
0.922423 0.794400 0.639948
0.000000 0.378088 0.575769
0.000000 0.375555 0.577722
0.000000 0.361944 0.582361
0.000000 0.327276 0.587518
0.455085 0.370672 0.584192
0.672145 0.445716 0.570764
0.816739 0.507286 0.559106
0.915526 0.595422 0.591028
0.000000 0.386328 0.578943
0.000000 0.383520 0.580224
0.000000 0.370703 0.584100
0.000000 0.338354 0.588403
0.451514 0.378271 0.585565
0.670039 0.453651 0.572503
0.815518 0.513603 0.561730
0.915038 0.598840 0.592615
0.000000 0.414801 0.592309
0.000000 0.412451 0.592950
0.000000 0.402350 0.595331
0.000000 0.379126 0.598444
0.441047 0.406683 0.595087
0.666529 0.483162 0.582269
0.813138 0.537316 0.573327
0.914549 0.611902 0.599054
0.000000 0.456519 0.608453
0.000000 0.455207 0.608881
0.000000 0.450507 0.611322
0.000000 0.440558 0.614893
0.408789 0.449622 0.612879
0.662837 0.529900 0.599817
0.811124 0.575463 0.592218
0.915221 0.632441 0.607691
0.000000 0.510430 0.628473
0.000000 0.510430 0.628992
0.000000 0.509911 0.630793
0.000000 0.509300 0.632471
0.352972 0.516106 0.630335
0.653956 0.580621 0.618097
0.807553 0.617090 0.609583
0.916625 0.654505 0.610529
0.000000 0.574792 0.653285
0.000000 0.576104 0.654139
0.000000 0.579309 0.655238
0.000000 0.586572 0.655879
0.302495 0.604456 0.653590
0.644068 0.643977 0.644038
0.804166 0.672816 0.636378
0.915953 0.696468 0.629969
0.000000 0.658778 0.695460
0.000000 0.660853 0.696132
0.000000 0.667445 0.696986
0.000000 0.680995 0.697017
0.185702 0.706294 0.692348
0.597101 0.723720 0.664912
0.798947 0.738125 0.672480
0.907408 0.758267 0.677668
0.000000 0.764157 0.755306
0.000000 0.766232 0.755123
0.000000 0.774411 0.754177
0.000000 0.791897 0.751186
0.000000 0.811429 0.730922
0.526604 0.810727 0.688472
0.802792 0.816129 0.715908
0.908873 0.819364 0.719295
0.000000 0.472206 0.724239
0.000000 0.469154 0.724849
0.000000 0.457160 0.726955
0.000000 0.432685 0.730007
0.310735 0.429511 0.729671
0.640620 0.535760 0.721248
0.792050 0.602930 0.703731
0.893004 0.678706 0.719509
0.000000 0.478370 0.726162
0.000000 0.475563 0.726711
0.000000 0.464057 0.728634
0.000000 0.441047 0.731167
0.306981 0.437598 0.731014
0.639673 0.541497 0.722591
0.791470 0.607904 0.705531
0.892851 0.681758 0.721035
0.000000 0.498939 0.731868
0.000000 0.496376 0.732387
0.000000 0.486793 0.734005
0.000000 0.468269 0.736141
0.289128 0.463752 0.735958
0.635492 0.559808 0.727352
0.789700 0.624475 0.711574
0.892454 0.692226 0.726223
0.000000 0.532189 0.740993
0.000000 0.530266 0.741207
0.000000 0.523369 0.742550
0.000000 0.510582 0.744228
0.248295 0.506126 0.744137
0.624079 0.586908 0.735653
0.787137 0.650355 0.721584
0.892485 0.708614 0.733730
0.000000 0.576562 0.752987
0.000000 0.575616 0.753201
0.000000 0.571679 0.754238
0.000000 0.563714 0.755337
0.151186 0.561028 0.754879
0.592462 0.616114 0.747494
0.784024 0.683253 0.734951
0.893339 0.730251 0.743008
0.000000 0.629877 0.767758
0.000000 0.629694 0.768063
0.000000 0.628779 0.768795
0.000000 0.627436 0.769619
0.000000 0.630091 0.769070
0.527337 0.659663 0.763424
0.779660 0.723995 0.752041
0.894896 0.757656 0.753536
0.000000 0.688716 0.784543
0.000000 0.689235 0.784756
0.000000 0.691188 0.785336
0.000000 0.695613 0.786007
0.000000 0.706722 0.785672
0.485115 0.735073 0.781399
0.772793 0.772732 0.772763
0.895445 0.794491 0.767910
0.000000 0.765713 0.821103
0.000000 0.768307 0.821042
0.000000 0.772915 0.821683
0.000000 0.782010 0.822293
0.000000 0.798886 0.821317
0.374731 0.826871 0.815030
0.738125 0.836057 0.789639
0.893217 0.846677 0.798215
0.000000 0.549615 0.846128
0.000000 0.547112 0.846433
0.000000 0.537804 0.847440
0.000000 0.523613 0.848631
0.196506 0.532158 0.847623
0.612604 0.628229 0.839506
0.794522 0.707881 0.832486
0.882292 0.751797 0.819150
0.000000 0.554070 0.846891
0.000000 0.551629 0.847166
0.000000 0.542657 0.848112
0.000000 0.528954 0.849271
0.190616 0.537194 0.848264
0.611261 0.631708 0.840146
0.794064 0.710872 0.833127
0.882170 0.753902 0.820096
0.000000 0.569055 0.849302
0.000000 0.566949 0.849546
0.000000 0.558831 0.850431
0.000000 0.546471 0.851469
0.159792 0.553948 0.850492
0.605066 0.642603 0.842496
0.792264 0.720699 0.835264
0.881804 0.761105 0.823209
0.000000 0.588342 0.853666
0.000000 0.591943 0.853513
0.000000 0.585321 0.854276
0.000000 0.574426 0.855344
0.000000 0.578790 0.854582
0.578149 0.652308 0.847349
0.787167 0.733211 0.839414
0.881468 0.772976 0.828550
0.000000 0.622461 0.860075
0.000000 0.624598 0.859922
0.000000 0.622644 0.860075
0.000000 0.610590 0.860685
0.000000 0.608301 0.860655
0.512047 0.660487 0.854856
0.776059 0.747768 0.845579
0.881071 0.789578 0.836149
0.000000 0.665156 0.868162
0.000000 0.667170 0.868009
0.000000 0.669642 0.867948
0.000000 0.662715 0.868528
0.000000 0.654414 0.868528
0.394324 0.682124 0.864286
0.752834 0.765408 0.854307
0.880491 0.811215 0.846159
0.000000 0.713619 0.877684
0.000000 0.715450 0.877623
0.000000 0.721675 0.877317
0.000000 0.720180 0.877836
0.000000 0.719448 0.877958
0.252079 0.734707 0.875242
0.692470 0.786557 0.866819
0.879149 0.838987 0.859068
0.000000 0.766018 0.888457
0.000000 0.767849 0.888396
0.000000 0.774105 0.888243
0.000000 0.780484 0.888396
0.000000 0.786313 0.888701
0.096223 0.804685 0.886778
0.654353 0.842618 0.880858
0.875669 0.875669 0.875669
