data/fiter_cube/11206988/1023413/file.cube
# Created by Adobe Lightroom plugin Export LUT (1.17.0)
# www.johnrellis.com/lightroom/exportlut.htm
# Preset: 焦糖暖色调人像产品_02 云集
# Color profile: C:\Program Files (x86)\Common Files\Adobe\Color\Profiles\Recommended\AdobeRGB1998.icc
LUT_3D_SIZE 5
DOMAIN_MIN 0.000000 0.000000 0.000000
DOMAIN_MAX 0.903226 0.903226 0.903226
0.024353 0.034791 0.030060
0.107454 0.060792 0.023957
0.408057 0.116396 0.000000
0.650629 0.206760 0.000000
0.835599 0.304265 0.051820
0.025483 0.090761 0.031403
0.119326 0.121492 0.005768
0.426856 0.215976 0.000000
0.654566 0.284733 0.000000
0.848478 0.368811 0.141756
0.071626 0.277165 0.087312
0.175814 0.280430 0.093568
0.430488 0.364477 0.000000
0.677882 0.462806 0.160464
0.851377 0.517144 0.287236
0.228428 0.498360 0.231601
0.298314 0.497230 0.238102
0.438239 0.513664 0.193515
0.617487 0.532372 0.000000
0.855711 0.636316 0.312352
0.425818 0.670558 0.414405
0.454383 0.668788 0.415808
0.529015 0.654780 0.412940
0.648310 0.707973 0.327855
0.837461 0.731960 0.214969
0.000000 0.069642 0.116945
0.091127 0.031769 0.104189
0.352453 0.018585 0.108675
0.606287 0.201755 0.158419
0.803861 0.324285 0.228550
0.000000 0.114931 0.123384
0.104891 0.124208 0.115755
0.382055 0.187411 0.136721
0.614832 0.280552 0.187961
0.810300 0.379583 0.262852
0.063905 0.291722 0.196750
0.164431 0.300084 0.175265
0.394995 0.342779 0.107942
0.644831 0.466773 0.299992
0.832059 0.528130 0.368414
0.263127 0.500664 0.318700
0.303044 0.502373 0.304051
0.436835 0.509148 0.286412
0.607568 0.530480 0.173220
0.846769 0.648066 0.394781
0.428565 0.672541 0.442115
0.452918 0.671046 0.440009
0.538903 0.671077 0.447089
0.651575 0.713130 0.386572
0.838102 0.738582 0.293797
0.000000 0.194522 0.451484
0.000000 0.134188 0.422065
0.306157 0.066163 0.336217
0.556542 0.168917 0.339025
0.758480 0.371618 0.420325
0.000000 0.284581 0.458900
0.070253 0.271061 0.437842
0.322820 0.171542 0.346685
0.556909 0.257176 0.354681
0.769253 0.412207 0.433204
0.000000 0.375097 0.429755
0.196994 0.375708 0.417334
0.363622 0.360021 0.367376
0.585473 0.450660 0.430121
0.799496 0.530083 0.474525
0.225620 0.510948 0.454871
0.298680 0.507256 0.445563
0.434668 0.509819 0.428748
0.583001 0.535668 0.386511
0.835660 0.675319 0.524437
0.437201 0.671901 0.528252
0.464851 0.675105 0.526665
0.517723 0.681086 0.499825
0.632197 0.700221 0.478126
0.816464 0.734554 0.411231
0.000000 0.344030 0.649012
0.061219 0.353674 0.634607
0.334356 0.297520 0.589441
0.504570 0.212253 0.517906
0.713008 0.338415 0.527489
0.049683 0.431556 0.655238
0.256626 0.433143 0.641321
0.380133 0.371923 0.590265
0.505211 0.270970 0.515099
0.711208 0.370825 0.527764
0.294591 0.516655 0.640162
0.375097 0.530083 0.636774
0.485328 0.530175 0.611597
0.513817 0.399207 0.513298
0.729885 0.464332 0.540002
0.378271 0.578241 0.611078
0.413336 0.577600 0.604425
0.490883 0.576989 0.587762
0.546807 0.539086 0.531060
0.797848 0.642664 0.597223
0.399908 0.686702 0.641688
0.419715 0.690852 0.640986
0.501366 0.699580 0.625391
0.607385 0.706264 0.582208
0.797055 0.739559 0.531823
0.137667 0.502556 0.829404
0.310613 0.523430 0.822812
0.435401 0.509056 0.799985
0.543664 0.447639 0.741299
0.673213 0.371893 0.676081
0.242893 0.542870 0.831571
0.348272 0.556634 0.825650
0.476295 0.553460 0.802274
0.552422 0.476814 0.742580
0.673335 0.394324 0.674525
0.329015 0.614008 0.834775
0.390021 0.626978 0.835813
0.535424 0.647425 0.822110
0.586114 0.567376 0.761166
0.683955 0.461219 0.680140
0.427649 0.687037 0.821347
0.461189 0.693538 0.821317
0.559167 0.717800 0.826047
0.692287 0.743282 0.823178
0.713741 0.572839 0.700587
0.496162 0.758083 0.804471
0.517174 0.761807 0.804440
0.585779 0.775937 0.805600
0.687770 0.794949 0.802609
0.751919 0.747158 0.720638
