data/fiter_cube/11206988/1023413/file.cube
# Created by Adobe Lightroom plugin Export LUT (1.17.0)
# www.johnrellis.com/lightroom/exportlut.htm
# Preset: 焦糖暖色调人像产品_02 云集
# Color profile: C:\Program Files (x86)\Common Files\Adobe\Color\Profiles\Recommended\AdobeRGB1998.icc
LUT_3D_SIZE 32
DOMAIN_MIN 0.0 0.0 0.0
DOMAIN_MAX 1.0 1.0 1.0
0.024353 0.034791 0.030060
0.024353 0.034791 0.030060
0.025330 0.035767 0.031037
0.029389 0.035096 0.030976
0.042817 0.034058 0.030732
0.063874 0.036896 0.029633
0.083223 0.046998 0.027253
0.107454 0.060792 0.023957
0.137362 0.068482 0.017884
0.172671 0.076204 0.010101
0.214542 0.083253 0.000000
0.261326 0.090272 0.000000
0.311192 0.098024 0.000000
0.360845 0.106416 0.000000
0.408057 0.116396 0.000000
0.451026 0.126680 0.000000
0.488472 0.136660 0.000000
0.520439 0.146883 0.000000
0.555718 0.160006 0.000000
0.590204 0.175601 0.000000
0.621424 0.190860 0.000000
0.650629 0.206760 0.000000
0.678004 0.221714 0.000000
0.704128 0.236271 0.000000
0.729274 0.250004 0.000000
0.754360 0.263432 0.000000
0.780301 0.276799 0.000000
0.807340 0.290471 0.000000
0.835599 0.304265 0.051820
0.864897 0.318547 0.086427
0.894499 0.334508 0.125551
0.923919 0.352697 0.167178
0.024353 0.034791 0.030060
0.024353 0.034791 0.030060
0.025330 0.035767 0.031037
0.029389 0.035096 0.030976
0.042298 0.037659 0.030426
0.064210 0.040284 0.029328
0.083009 0.051545 0.026764
0.106996 0.063294 0.023499
0.136355 0.071321 0.017365
0.171267 0.078950 0.009674
0.211887 0.086488 0.000000
0.258152 0.093843 0.000000
0.307286 0.101595 0.000000
0.356664 0.110750 0.000000
0.403388 0.119783 0.000000
0.446235 0.129824 0.000000
0.484016 0.138735 0.000000
0.516411 0.148745 0.000000
0.551629 0.161501 0.000000
0.585016 0.176028 0.000000
0.615534 0.190555 0.000000
0.644434 0.205600 0.000000
0.671565 0.220279 0.000000
0.697597 0.234592 0.000000
0.722896 0.248081 0.000000
0.748165 0.261540 0.000000
0.774441 0.274876 0.000000
0.801724 0.288731 0.000000
0.830381 0.302678 0.033082
0.860044 0.317082 0.080354
0.890043 0.332830 0.119265
0.919829 0.350774 0.161868
0.025330 0.035767 0.031037
0.025330 0.035767 0.031037
0.025330 0.035767 0.031037
0.029053 0.037476 0.030793
0.043336 0.039857 0.030243
0.064363 0.047181 0.028748
0.082948 0.058595 0.027100
0.106691 0.067323 0.022675
0.135897 0.075319 0.016449
0.170413 0.083375 0.008606
0.211032 0.090852 0.000000
0.256901 0.098665 0.000000
0.305760 0.107027 0.000000
0.354711 0.115663 0.000000
0.401495 0.125246 0.000000
0.444068 0.133639 0.000000
0.481880 0.142397 0.000000
0.514244 0.152071 0.000000
0.549798 0.164706 0.000000
0.582574 0.178622 0.000000
0.612879 0.192721 0.000000
0.641474 0.207492 0.000000
0.668482 0.221775 0.000000
0.694514 0.235813 0.000000
0.719753 0.249058 0.000000
0.745052 0.262181 0.000000
0.771389 0.275578 0.000000
0.798886 0.289311 0.000000
0.827756 0.303319 0.028504
0.857603 0.317693 0.078584
0.887755 0.333196 0.116823
0.917662 0.350896 0.159274
0.024994 0.038148 0.030854
0.024994 0.038148 0.030854
0.026184 0.039124 0.030732
0.031128 0.041840 0.030396
0.047303 0.048157 0.029419
0.066133 0.057191 0.027527
0.084779 0.066468 0.025269
0.109041 0.075074 0.020508
0.137881 0.084047 0.014771
0.172183 0.092287 0.006531
0.212436 0.101106 0.000000
0.257847 0.109316 0.000000
0.306065 0.118105 0.000000
0.354467 0.126894 0.000000
0.400549 0.135073 0.000000
0.442725 0.143099 0.000000
0.480323 0.151247 0.000000
0.512566 0.160311 0.000000
0.548150 0.172427 0.000000
0.579309 0.185183 0.000000
0.608484 0.198245 0.000000
0.636439 0.211948 0.000000
0.663600 0.225864 0.000000
0.690272 0.239719 0.000000
0.716670 0.253269 0.000000
0.743252 0.266819 0.000000
0.770504 0.280552 0.000000
0.798611 0.294438 0.000000
0.827634 0.308232 0.047578
0.857298 0.322271 0.083986
0.887053 0.337072 0.117922
0.916381 0.354009 0.159304
0.023987 0.045380 0.030274
0.026551 0.046143 0.030152
0.027680 0.045899 0.031220
0.033875 0.049836 0.029572
0.049104 0.056703 0.028412
0.070192 0.067201 0.025269
0.087648 0.075837 0.022736
0.111116 0.086183 0.018189
0.139712 0.095827 0.011780
0.173892 0.104891 0.002716
0.213657 0.114168 0.000000
0.258610 0.123720 0.000000
0.306004 0.132265 0.000000
0.353796 0.140475 0.000000
0.399725 0.148043 0.000000
0.442298 0.156222 0.000000
0.480415 0.164614 0.000000
0.514855 0.174228 0.000000
0.549187 0.185519 0.000000
0.579370 0.196994 0.000000
0.607630 0.209323 0.000000
0.634943 0.222171 0.000000
0.661677 0.235203 0.000000
0.688228 0.248203 0.000000
0.714748 0.261540 0.000000
0.741451 0.274540 0.000000
0.768856 0.287968 0.000000
0.796933 0.301305 0.000000
0.825834 0.314885 0.060395
0.855406 0.328527 0.090028
0.885313 0.342473 0.118471
0.914672 0.359136 0.159396
0.025147 0.058717 0.031006
0.026337 0.059113 0.030884
0.030243 0.059327 0.030732
0.037781 0.061189 0.029084
0.053590 0.066438 0.027497
0.069825 0.072938 0.023957
0.092683 0.087709 0.017762
0.116396 0.099275 0.012055
0.145480 0.110933 0.006104
0.179660 0.120851 0.000000
0.219455 0.130343 0.000000
0.263890 0.139773 0.000000
0.310613 0.148898 0.000000
0.357855 0.157412 0.000000
0.403143 0.165530 0.000000
0.445228 0.173739 0.000000
0.482826 0.181949 0.000000
0.519524 0.192203 0.000000
0.552270 0.202792 0.000000
0.581781 0.213718 0.000000
0.609827 0.225284 0.000000
0.637201 0.237400 0.000000
0.704128 0.275914 0.000000
0.730068 0.288365 0.000000
0.755154 0.300298 0.011261
0.779934 0.311833 0.061707
0.804837 0.323308 0.084596
0.830137 0.334722 0.105348
0.856107 0.346380 0.124117
0.882628 0.358190 0.143618
0.909300 0.370275 0.162875
0.934997 0.384588 0.194369
0.023987 0.074220 0.030823
0.029236 0.074311 0.030640
0.034516 0.074434 0.030488
0.046021 0.074952 0.031128
0.062348 0.080507 0.026825
0.077089 0.089204 0.020935
0.094087 0.097841 0.016388
0.126802 0.116579 0.004700
0.159701 0.129824 0.000000
0.197787 0.142977 0.000000
0.242100 0.156619 0.000000
0.287846 0.166720 0.000000
0.334478 0.175784 0.000000
0.380133 0.184146 0.000000
0.422614 0.191989 0.000000
0.461372 0.199588 0.000000
0.497230 0.207492 0.000000
0.534539 0.218570 0.000000
0.565942 0.229099 0.000000
0.595911 0.240177 0.000000
0.625910 0.252873 0.000000
0.656672 0.266819 0.000000
0.687526 0.281498 0.000000
0.717830 0.296056 0.000000
0.746822 0.309850 0.026215
0.774014 0.322301 0.071443
0.800107 0.333989 0.094362
0.825956 0.345281 0.113497
0.852201 0.356512 0.131899
0.878599 0.367834 0.150607
0.905272 0.379217 0.168399
0.931365 0.391943 0.193179
0.025483 0.090761 0.031403
0.032105 0.090761 0.031220
0.039887 0.090730 0.032136
0.055390 0.091157 0.031495
0.066712 0.094209 0.028748
0.079561 0.102998 0.021363
0.097719 0.112490 0.012512
0.119326 0.121492 0.005768
0.158541 0.141238 0.000000
0.199527 0.157198 0.000000
0.243656 0.172091 0.000000
0.293248 0.188083 0.000000
0.340917 0.199557 0.000000
0.385504 0.208225 0.000000
0.426856 0.215976 0.000000
0.464637 0.222904 0.000000
0.504295 0.233158 0.000000
0.537835 0.242496 0.000000
0.567224 0.251041 0.000000
0.595819 0.261021 0.000000
0.624781 0.272221 0.000000
0.654566 0.284733 0.000000
0.684688 0.298253 0.000000
0.714351 0.311742 0.000000
0.743008 0.324681 0.061311
0.769955 0.336431 0.086946
0.796139 0.347478 0.106600
0.822110 0.358068 0.124300
0.848478 0.368811 0.141756
0.875029 0.379461 0.158999
0.901762 0.390631 0.177096
0.928313 0.401740 0.195102
0.028138 0.111208 0.033539
0.035950 0.111421 0.033265
0.047547 0.111269 0.034089
0.060517 0.111543 0.034546
0.071199 0.112001 0.034699
0.083558 0.119875 0.024811
0.101259 0.129427 0.013001
0.122835 0.138125 0.001312
0.149355 0.147127 0.000000
0.195773 0.169406 0.000000
0.245548 0.188571 0.000000
0.293919 0.204257 0.000000
0.344823 0.220401 0.000000
0.394781 0.236545 0.000000
0.434668 0.243839 0.000000
0.476326 0.253452 0.000000
0.512535 0.262242 0.000000
0.543145 0.269657 0.000000
0.570733 0.276860 0.000000
0.598108 0.285191 0.000000
0.626215 0.295140 0.000000
0.655207 0.306493 0.000000
0.684535 0.318700 0.000000
0.713558 0.331182 0.058076
0.741665 0.343114 0.084230
0.768338 0.354009 0.105531
0.794339 0.364172 0.122621
0.820066 0.374060 0.139528
0.846250 0.384009 0.155520
0.872618 0.394171 0.171847
0.899168 0.404486 0.188479
0.925475 0.414923 0.205509
0.031983 0.134340 0.038911
0.040131 0.134127 0.038819
0.049561 0.134218 0.039582
0.063294 0.134157 0.040070
0.075105 0.134585 0.041138
0.088014 0.138369 0.034730
0.104555 0.147066 0.020478
0.126955 0.157229 0.002594
0.152193 0.165225 0.000000
0.183169 0.174502 0.000000
0.236484 0.198978 0.000000
0.291569 0.220066 0.000000
0.342412 0.236667 0.000000
0.392065 0.252811 0.000000
0.445167 0.272435 0.000000
0.489204 0.287572 0.000000
0.522301 0.294591 0.000000
0.551049 0.300420 0.000000
0.577508 0.306523 0.000000
0.603601 0.313146 0.000000
0.630121 0.321447 0.000000
0.657130 0.330877 0.009216
0.684474 0.340887 0.060182
0.711635 0.351293 0.084108
0.738491 0.361608 0.103548
0.764736 0.371496 0.121584
0.790829 0.381170 0.137819
0.817136 0.390814 0.153780
0.843778 0.400824 0.170840
0.870756 0.410742 0.186801
0.897765 0.420935 0.203342
0.924468 0.431281 0.220310
0.034485 0.157382 0.048035
0.042451 0.157351 0.047883
0.052369 0.157565 0.047547
0.065156 0.157626 0.048676
0.078584 0.157961 0.049348
0.093629 0.158450 0.050446
0.109407 0.166598 0.033631
0.130495 0.176425 0.012940
0.158175 0.187594 0.000000
0.186679 0.194766 0.000000
0.221775 0.204532 0.000000
0.280827 0.230991 0.000000
0.339300 0.253391 0.000000
0.396796 0.274540 0.000000
0.447791 0.292973 0.000000
0.491585 0.309606 0.000000
0.528161 0.324529 0.000000
0.556207 0.331121 0.000000
0.581353 0.335271 0.000000
0.606561 0.340948 0.000000
0.632319 0.347906 0.037568
0.658808 0.356115 0.071168
0.685695 0.365454 0.091127
0.712490 0.374853 0.110018
0.738857 0.384253 0.127413
0.764553 0.393042 0.143465
0.790127 0.401740 0.158114
0.815885 0.410468 0.172946
0.842191 0.419348 0.187655
0.868772 0.428534 0.202731
0.895537 0.438148 0.218570
0.922087 0.448005 0.234440
0.038941 0.182864 0.056733
0.047517 0.183078 0.057252
0.057313 0.183108 0.057771
0.069001 0.183230 0.057954
0.083223 0.183536 0.058503
0.099794 0.183993 0.059480
0.116426 0.188357 0.053651
0.136568 0.197940 0.029969
0.162722 0.208988 0.000488
0.195407 0.220859 0.000000
0.226413 0.227207 0.000000
0.269017 0.240024 0.000000
0.370459 0.295109 0.000000
0.433722 0.320897 0.000000
0.485542 0.340368 0.000000
0.524468 0.354101 0.000000
0.557580 0.366308 0.000000
0.587304 0.378637 0.026520
0.614740 0.390600 0.097261
0.637995 0.394018 0.109529
0.661738 0.398688 0.122499
0.685878 0.404364 0.136965
0.710109 0.410590 0.149905
0.734371 0.417304 0.164157
0.758511 0.424048 0.177279
0.782376 0.430701 0.190005
0.806149 0.437232 0.202121
0.830014 0.443793 0.213352
0.854185 0.450752 0.225620
0.878843 0.458167 0.238071
0.903563 0.466072 0.251347
0.928374 0.474342 0.264866
0.049714 0.218479 0.067353
0.058473 0.218509 0.067628
0.064668 0.218082 0.067628
0.076967 0.217655 0.067811
0.092134 0.217044 0.067872
0.109560 0.216403 0.068910
0.128908 0.216403 0.069856
0.148043 0.225101 0.056703
0.172946 0.235996 0.023499
0.205783 0.249454 0.000000
0.249760 0.267887 0.000000
0.290898 0.278935 0.000000
0.341131 0.294530 0.000000
0.413825 0.328740 0.000000
0.471778 0.352758 0.000000
0.516991 0.369421 0.000000
0.550591 0.380499 0.000000
0.580377 0.391058 0.000000
0.608515 0.402716 0.071168
0.636225 0.416236 0.121767
0.661799 0.425971 0.149844
0.685328 0.430274 0.161410
0.708736 0.435370 0.174105
0.732479 0.440833 0.186007
0.756161 0.446540 0.197635
0.779629 0.452277 0.209079
0.803128 0.458015 0.220249
0.826841 0.463935 0.231083
0.850950 0.470192 0.242283
0.875608 0.477272 0.254551
0.900450 0.484657 0.266514
0.925383 0.492622 0.279942
0.060761 0.246525 0.076631
0.066499 0.246433 0.076539
0.072114 0.246220 0.076814
0.084352 0.245701 0.076997
0.099763 0.244999 0.077058
0.117830 0.244419 0.077852
0.138155 0.244022 0.078981
0.159060 0.249760 0.074525
0.184390 0.262882 0.059236
0.216800 0.277897 0.015747
0.256291 0.294285 0.000000
0.302037 0.310948 0.000000
0.342443 0.319402 0.000000
0.389349 0.331640 0.000000
0.454292 0.361761 0.000000
0.502525 0.380591 0.000000
0.541619 0.393896 0.000000
0.572259 0.403418 0.000000
0.600793 0.413703 0.000000
0.628779 0.425635 0.092592
0.656947 0.439704 0.141665
0.684962 0.455512 0.184360
0.708827 0.461433 0.199191
0.732235 0.466163 0.210727
0.755642 0.471077 0.221317
0.778866 0.476020 0.231846
0.802182 0.480934 0.241733
0.825681 0.486275 0.251865
0.849668 0.492103 0.262425
0.874174 0.498573 0.273838
0.898924 0.505608 0.285618
0.923735 0.513115 0.298222
0.071626 0.277165 0.087312
0.076783 0.277501 0.087678
0.083009 0.277440 0.087831
0.095003 0.277775 0.088258
0.111574 0.278019 0.089082
0.130648 0.278386 0.089906
0.152285 0.279271 0.091402
0.175814 0.280430 0.093568
0.198672 0.291691 0.081086
0.227817 0.305089 0.062409
0.263645 0.319799 0.006256
0.305394 0.335576 0.000000
0.349767 0.349310 0.000000
0.388495 0.355810 0.000000
0.430488 0.364477 0.000000
0.485969 0.389380 0.000000
0.527611 0.404547 0.000000
0.562676 0.415808 0.000000
0.593011 0.425544 0.000000
0.621332 0.436072 0.043061
0.649653 0.448615 0.114473
0.677882 0.462806 0.160464
0.705653 0.478157 0.202121
0.732143 0.491707 0.235447
0.755367 0.496071 0.245396
0.778836 0.500603 0.255070
0.802579 0.505577 0.265507
0.826749 0.511070 0.276158
0.851377 0.517144 0.287236
0.876432 0.523827 0.298680
0.901549 0.531029 0.310796
0.926360 0.538598 0.323461
0.088106 0.315953 0.102998
0.092744 0.316442 0.103212
0.098634 0.316411 0.103548
0.110597 0.316472 0.103914
0.127169 0.316411 0.104555
0.146853 0.316594 0.105623
0.168887 0.317266 0.107210
0.193149 0.318212 0.109071
0.217380 0.323796 0.104860
0.243595 0.335546 0.089479
0.275212 0.348272 0.067170
0.311925 0.361425 0.001648
0.352148 0.374151 0.000000
0.392065 0.383185 0.000000
0.426764 0.386572 0.000000
0.462257 0.391089 0.000000
0.510094 0.411475 0.000000
0.548089 0.424964 0.000000
0.582513 0.436500 0.000000
0.614343 0.447730 0.000000
0.643732 0.459663 0.079835
0.672999 0.473182 0.137057
0.701656 0.487922 0.183383
0.729885 0.503502 0.225193
0.757565 0.519707 0.263767
0.782620 0.528923 0.284337
0.806241 0.533379 0.293553
0.830167 0.538323 0.303166
0.854307 0.543664 0.313329
0.878538 0.549401 0.323430
0.902647 0.555535 0.333898
0.926452 0.561975 0.344701
0.105440 0.349706 0.118929
0.109468 0.349798 0.119020
0.115053 0.349554 0.118929
0.126223 0.349340 0.119295
0.141878 0.349096 0.120058
0.161196 0.348791 0.120668
0.182498 0.348882 0.122103
0.206424 0.349126 0.123812
0.231937 0.349767 0.126040
0.255161 0.359777 0.113588
0.283391 0.371160 0.096620
0.316014 0.383032 0.071901
0.352544 0.394873 0.000763
0.391608 0.405951 0.000000
0.427649 0.411810 0.000000
0.459113 0.413397 0.000000
0.489387 0.414588 0.000000
0.531823 0.431922 0.000000
0.568078 0.444923 0.000000
0.602014 0.456886 0.000000
0.635065 0.469184 0.000000
0.664790 0.481575 0.102693
0.694087 0.495308 0.155703
0.723049 0.510124 0.201175
0.751553 0.525780 0.243168
0.779538 0.541802 0.281163
0.807034 0.558190 0.316442
0.831113 0.563256 0.326329
0.855161 0.568322 0.335790
0.879271 0.573816 0.345556
0.903227 0.579553 0.355322
0.926757 0.585626 0.365362
0.125002 0.382422 0.136568
0.129519 0.382971 0.136995
0.150698 0.405493 0.152041
0.161074 0.405127 0.152468
0.176150 0.404273 0.152834
0.194308 0.403174 0.153384
0.215335 0.402014 0.154086
0.238407 0.400946 0.155123
0.263523 0.400244 0.157290
0.287510 0.404089 0.152743
0.311925 0.413397 0.137545
0.340337 0.422827 0.118318
0.371649 0.431678 0.092714
0.405463 0.439918 0.041718
0.440345 0.447333 0.000000
0.471351 0.449409 0.000000
0.499641 0.448981 0.000000
0.524895 0.446601 0.000000
0.562951 0.461158 0.000000
0.597833 0.473793 0.000000
0.631312 0.485878 0.000000
0.665034 0.498695 0.075319
0.694789 0.511192 0.137087
0.723598 0.524559 0.186404
0.751400 0.538170 0.228946
0.778592 0.552270 0.267369
0.805203 0.566735 0.302800
0.831418 0.581628 0.335119
0.856413 0.593286 0.358068
0.879942 0.597925 0.366278
0.903410 0.603082 0.374945
0.926360 0.608270 0.383581
0.150790 0.418708 0.160128
0.156649 0.421546 0.162417
0.163973 0.424445 0.164981
0.175540 0.426734 0.167300
0.190738 0.428046 0.169131
0.208591 0.428016 0.170748
0.228641 0.427161 0.171542
0.250431 0.426032 0.172854
0.274357 0.425208 0.174411
0.299321 0.424506 0.176883
0.320745 0.432105 0.164096
0.345129 0.440253 0.147982
0.372442 0.448005 0.127932
0.402228 0.455299 0.100801
0.433600 0.461830 0.057069
0.465980 0.467689 0.000000
0.494026 0.468055 0.000000
0.520348 0.466865 0.000000
0.543969 0.463996 0.000000
0.580774 0.478431 0.000000
0.615686 0.491707 0.000000
0.650294 0.505272 0.049989
0.684657 0.519005 0.103883
0.715846 0.532280 0.154849
0.744869 0.545647 0.202609
0.773251 0.559564 0.245335
0.800992 0.573846 0.283726
0.828183 0.588678 0.319371
0.854826 0.603815 0.351507
0.880552 0.618952 0.380316
0.904082 0.626459 0.393408
0.926482 0.631006 0.400793
0.171633 0.444129 0.178958
0.177096 0.446632 0.181582
0.183749 0.449134 0.184115
0.194247 0.451026 0.186404
0.208499 0.452003 0.188266
0.224887 0.451881 0.189639
0.243229 0.450996 0.190433
0.263615 0.449897 0.191623
0.286015 0.448920 0.193271
0.309697 0.448005 0.195285
0.331731 0.450813 0.191287
0.352850 0.457984 0.177432
0.376532 0.464820 0.160098
0.402655 0.471351 0.139223
0.430671 0.477333 0.111879
0.460029 0.482704 0.070832
0.490364 0.487526 0.000000
0.516411 0.487007 0.000000
0.541527 0.485603 0.000000
0.564446 0.482918 0.000000
0.600519 0.497353 0.000000
0.635889 0.511620 0.000000
0.671168 0.526238 0.088258
0.705989 0.540520 0.129763
0.738155 0.553948 0.172732
0.767453 0.567346 0.219547
0.796017 0.581140 0.261631
0.824063 0.595544 0.300023
0.851530 0.610468 0.335271
0.877989 0.625544 0.366949
0.903044 0.639979 0.393835
0.925994 0.652705 0.416236
0.193881 0.467659 0.199588
0.198917 0.469856 0.201907
0.205356 0.472053 0.204685
0.214939 0.473671 0.207034
0.227756 0.474556 0.209018
0.242435 0.474311 0.210117
0.259251 0.473365 0.210971
0.277867 0.472206 0.211856
0.298589 0.470985 0.213321
0.320531 0.469886 0.215000
0.343664 0.468849 0.217197
0.361944 0.474769 0.205631
0.382330 0.480842 0.190524
0.405188 0.486854 0.172671
0.430243 0.492653 0.150820
0.457130 0.498268 0.123293
0.485878 0.503899 0.084565
0.515373 0.508690 0.000000
0.542107 0.509697 0.000000
0.567895 0.509606 0.000000
0.591730 0.508354 0.000000
0.629084 0.524468 0.000000
0.665675 0.540307 0.084077
0.702358 0.556298 0.133120
0.738216 0.571557 0.171328
0.772305 0.585657 0.207553
0.802213 0.599451 0.253513
0.831052 0.613642 0.295018
0.858946 0.628168 0.332677
0.885405 0.642603 0.365484
0.910185 0.656336 0.393561
0.932677 0.668971 0.417639
0.228428 0.498360 0.231601
0.232059 0.499245 0.233097
0.236088 0.499916 0.234073
0.243412 0.500114 0.234989
0.253574 0.499977 0.235935
0.266270 0.499184 0.236515
0.281346 0.498207 0.237186
0.298314 0.497230 0.238102
0.317540 0.496345 0.239841
0.338293 0.495583 0.241978
0.360021 0.494881 0.244755
0.379461 0.497078 0.240970
0.396796 0.502678 0.228000
0.416419 0.508232 0.212375
0.438239 0.513664 0.193515
0.462104 0.519036 0.170932
0.487953 0.524376 0.143679
0.515801 0.529870 0.107362
0.543755 0.533776 0.061616
0.569757 0.534722 0.000000
0.594354 0.533928 0.000000
0.617487 0.532372 0.000000
0.653620 0.547906 0.046174
0.688960 0.562737 0.115053
0.725277 0.578515 0.157809
0.761166 0.593561 0.193790
0.796384 0.607843 0.225467
0.826719 0.621912 0.270848
0.855711 0.636316 0.312352
0.883177 0.650660 0.348730
0.908782 0.664485 0.380133
0.932219 0.677333 0.406836
0.253330 0.518761 0.254795
0.256596 0.519646 0.256199
0.260472 0.520348 0.257450
0.267063 0.520623 0.258396
0.276188 0.520378 0.259373
0.287144 0.519615 0.259800
0.300206 0.518517 0.260075
0.315343 0.517327 0.260594
0.332586 0.516289 0.261967
0.351446 0.515373 0.263676
0.371344 0.514549 0.265873
0.391943 0.513725 0.268650
0.407202 0.518700 0.257603
0.424262 0.524224 0.243595
0.443458 0.529717 0.227604
0.464881 0.535271 0.208408
0.488441 0.540948 0.186130
0.514122 0.546746 0.159121
0.541924 0.552758 0.124483
0.569238 0.556481 0.090974
0.595483 0.558129 0.062715
0.620172 0.557763 0.000000
0.643915 0.557122 0.000000
0.680476 0.573205 0.096101
0.709438 0.582330 0.135958
0.746029 0.598260 0.176699
0.782467 0.613703 0.211826
0.818112 0.628229 0.242863
0.849577 0.642451 0.283909
0.878447 0.656977 0.325505
0.905516 0.671229 0.361425
0.930480 0.684840 0.392401
0.288853 0.545769 0.288060
0.292119 0.546715 0.289525
0.295354 0.547204 0.290501
0.300481 0.547143 0.291051
0.307713 0.546471 0.291173
0.316686 0.545373 0.291112
0.327398 0.543908 0.290623
0.340093 0.542199 0.290349
0.354498 0.540459 0.290593
0.370428 0.538811 0.290929
0.387549 0.537133 0.291814
0.405615 0.535698 0.293339
0.421485 0.536889 0.289036
0.435370 0.541619 0.275639
0.451026 0.546166 0.260044
0.469001 0.550774 0.241917
0.489265 0.555566 0.221225
0.511955 0.560754 0.197726
0.537316 0.566674 0.170108
0.565240 0.573266 0.135958
0.592279 0.576989 0.110384
0.618738 0.579278 0.088045
0.643000 0.578820 0.055451
0.666316 0.577844 0.016938
0.701411 0.592676 0.116030
0.734737 0.606012 0.161685
0.771725 0.622034 0.200534
0.808011 0.637140 0.234043
0.843320 0.651545 0.264378
0.875212 0.665461 0.300694
0.903471 0.679744 0.341344
0.929595 0.693751 0.376684
0.312840 0.565026 0.310277
0.315770 0.566003 0.311772
0.318822 0.566552 0.312779
0.323430 0.566491 0.313420
0.329747 0.565911 0.313390
0.337804 0.564904 0.313451
0.347631 0.563745 0.313359
0.359106 0.562371 0.313298
0.372412 0.561028 0.313725
0.387182 0.559808 0.314549
0.403082 0.558648 0.315801
0.420050 0.557641 0.317479
0.437507 0.556573 0.319371
0.450019 0.561212 0.308629
0.463905 0.566094 0.295232
0.479835 0.571069 0.279759
0.498054 0.576196 0.261845
0.518608 0.581842 0.241428
0.541833 0.587976 0.218814
0.567712 0.594781 0.191714
0.595941 0.601892 0.158358
0.622431 0.605158 0.139437
0.648951 0.607477 0.121004
0.672908 0.606592 0.099306
0.696315 0.605585 0.088777
0.730983 0.619959 0.147433
0.763790 0.632654 0.190249
0.801480 0.649012 0.228092
0.838132 0.664515 0.261448
0.873259 0.679042 0.291844
0.905516 0.693080 0.324437
0.932372 0.707057 0.364050
0.340826 0.587732 0.336370
0.343145 0.588373 0.337285
0.345342 0.588556 0.337926
0.348882 0.588220 0.337987
0.353948 0.587366 0.337530
0.360662 0.586175 0.337072
0.368963 0.584771 0.336675
0.379034 0.583368 0.336370
0.390906 0.582116 0.336706
0.404181 0.581048 0.337407
0.418830 0.580102 0.338659
0.434607 0.579431 0.340459
0.450965 0.578729 0.342412
0.465187 0.580468 0.338964
0.477211 0.585473 0.327001
0.491188 0.590478 0.313390
0.507164 0.595727 0.297276
0.525505 0.601343 0.279423
0.546624 0.607630 0.259403
0.570367 0.614496 0.236698
0.596612 0.621790 0.209476
0.625116 0.629236 0.176120
0.651026 0.631769 0.162051
0.677699 0.634180 0.144869
0.701442 0.632868 0.125948
0.724849 0.631678 0.118105
0.759274 0.645533 0.171298
0.791287 0.657343 0.212314
0.828702 0.673396 0.249424
0.865415 0.689204 0.283146
0.900145 0.703975 0.313878
0.931823 0.717342 0.342107
0.365270 0.609339 0.359014
0.367041 0.609766 0.359594
0.368902 0.609949 0.359960
0.372168 0.609735 0.360235
0.377203 0.609339 0.360327
0.384100 0.609003 0.360906
0.393072 0.609064 0.362097
0.403937 0.609308 0.363714
0.416571 0.610010 0.366278
0.430640 0.610895 0.369055
0.445930 0.611994 0.372442
0.461891 0.613123 0.375860
0.478401 0.614008 0.379309
0.494911 0.614435 0.382238
0.506615 0.620142 0.373938
0.519036 0.625879 0.362737
0.533318 0.631617 0.349310
0.549767 0.637629 0.334295
0.568811 0.644221 0.317510
0.590509 0.651423 0.298192
0.614740 0.658961 0.276097
0.641535 0.666621 0.249546
0.670008 0.673335 0.220249
0.696407 0.675807 0.207279
0.723812 0.677943 0.191897
0.747768 0.675929 0.176272
0.771786 0.674372 0.170962
0.805142 0.686671 0.217868
0.835599 0.697047 0.256748
0.871366 0.712123 0.292241
0.906218 0.727138 0.324956
0.937560 0.740200 0.353460
0.403174 0.644373 0.394049
0.404578 0.644587 0.394446
0.405829 0.644495 0.394446
0.408301 0.644038 0.394232
0.412207 0.643275 0.393988
0.417670 0.642481 0.393866
0.424720 0.641810 0.394110
0.433387 0.641352 0.394568
0.443580 0.641108 0.395605
0.455207 0.641108 0.396979
0.467994 0.641108 0.398505
0.481666 0.641260 0.400336
0.496101 0.641321 0.402197
0.510979 0.641169 0.404028
