data/fiter_cube/11206988/1023413/file.cube
# Created by Adobe Lightroom plugin Export LUT (1.17.0)
# www.johnrellis.com/lightroom/exportlut.htm
# Preset: 焦糖暖色调人像产品_02 云集
# Color profile: C:\Program Files (x86)\Common Files\Adobe\Color\Profiles\Recommended\AdobeRGB1998.icc
LUT_3D_SIZE 8
DOMAIN_MIN 0.000000 0.000000 0.000000
DOMAIN_MAX 0.903226 0.903226 0.903226
0.024353 0.034791 0.030060
0.042817 0.034058 0.030732
0.137362 0.068482 0.017884
0.311192 0.098024 0.000000
0.488472 0.136660 0.000000
0.621424 0.190860 0.000000
0.729274 0.250004 0.000000
0.835599 0.304265 0.051820
0.023987 0.045380 0.030274
0.049104 0.056703 0.028412
0.139712 0.095827 0.011780
0.306004 0.132265 0.000000
0.480415 0.164614 0.000000
0.607630 0.209323 0.000000
0.714748 0.261540 0.000000
0.825834 0.314885 0.060395
0.028138 0.111208 0.033539
0.071199 0.112001 0.034699
0.149355 0.147127 0.000000
0.344823 0.220401 0.000000
0.512535 0.262242 0.000000
0.626215 0.295140 0.000000
0.741665 0.343114 0.084230
0.846250 0.384009 0.155520
0.049714 0.218479 0.067353
0.092134 0.217044 0.067872
0.172946 0.235996 0.023499
0.341131 0.294530 0.000000
0.550591 0.380499 0.000000
0.661799 0.425971 0.149844
0.756161 0.446540 0.197635
0.850950 0.470192 0.242283
0.105440 0.349706 0.118929
0.141878 0.349096 0.120058
0.231937 0.349767 0.126040
0.352544 0.394873 0.000763
0.489387 0.414588 0.000000
0.635065 0.469184 0.000000
0.751553 0.525780 0.243168
0.855161 0.568322 0.335790
0.193881 0.467659 0.199588
0.227756 0.474556 0.209018
0.298589 0.470985 0.213321
0.382330 0.480842 0.190524
0.485878 0.503899 0.084565
0.591730 0.508354 0.000000
0.738216 0.571557 0.171328
0.858946 0.628168 0.332677
0.312840 0.565026 0.310277
0.329747 0.565911 0.313390
0.372412 0.561028 0.313725
0.437507 0.556573 0.319371
0.498054 0.576196 0.261845
0.595941 0.601892 0.158358
0.696315 0.605585 0.088777
0.838132 0.664515 0.261448
0.425818 0.670558 0.414405
0.434150 0.669734 0.414527
0.464118 0.669001 0.416938
0.515190 0.671595 0.424445
0.552911 0.667353 0.396857
0.624353 0.698970 0.345983
0.732662 0.731991 0.257023
0.837461 0.731960 0.214969
0.021729 0.036896 0.047974
0.036866 0.034455 0.047028
0.121126 0.041352 0.043732
0.278447 0.081209 0.031220
0.460273 0.117403 0.000000
0.591089 0.179049 0.000000
0.699672 0.242313 0.066896
0.811643 0.301732 0.121492
0.019837 0.050965 0.051148
0.043397 0.057710 0.051759
0.128145 0.082185 0.052827
0.284489 0.115084 0.034058
0.461585 0.151034 0.000000
0.587213 0.201938 0.000000
0.690394 0.255009 0.067872
0.801541 0.310369 0.120760
0.017243 0.114412 0.077546
0.062562 0.120699 0.069520
0.143160 0.144045 0.041260
0.322911 0.210513 0.058747
0.488289 0.248753 0.040894
0.600549 0.283055 0.079652
0.706416 0.327428 0.127749
0.818235 0.375036 0.181186
0.057984 0.215976 0.106203
0.083742 0.218143 0.095949
0.166964 0.231083 0.085786
0.311681 0.273747 0.000000
0.511376 0.352972 0.042573
0.621210 0.396826 0.164401
0.718990 0.424201 0.205783
0.824399 0.458015 0.252232
0.101015 0.350622 0.148928
0.134157 0.348516 0.145205
0.223301 0.345800 0.148714
0.332586 0.377539 0.091402
0.466407 0.396246 0.000000
0.614282 0.455512 0.104555
0.732326 0.518059 0.269047
0.838804 0.560632 0.345251
0.184085 0.460639 0.213748
0.209964 0.460273 0.215274
0.282017 0.457618 0.219455
0.369787 0.467201 0.207797
0.474678 0.494423 0.127535
0.584283 0.503258 0.000000
0.728634 0.567773 0.209049
0.847837 0.624903 0.350164
0.297612 0.553460 0.309758
0.309606 0.550744 0.307744
0.355718 0.547845 0.310246
0.425940 0.546807 0.319890
0.490211 0.567468 0.275364
0.585290 0.592218 0.183444
0.681880 0.593835 0.118074
0.822477 0.653834 0.270298
0.416419 0.661555 0.413794
0.426368 0.662257 0.415290
0.457130 0.662379 0.418311
0.508904 0.665858 0.426154
0.562432 0.676356 0.416938
0.627253 0.702174 0.366003
0.727993 0.728634 0.275547
0.828946 0.725795 0.229191
0.000000 0.085817 0.159121
0.000000 0.048951 0.151400
0.114260 0.033600 0.131594
0.258793 0.000000 0.136507
0.440589 0.058534 0.144442
0.580560 0.191196 0.190524
0.693172 0.276860 0.234836
0.808469 0.342504 0.273838
0.000000 0.107851 0.162264
0.000000 0.097658 0.155703
0.116945 0.074464 0.133516
0.259129 0.074678 0.135775
0.442390 0.122744 0.152560
0.576562 0.212314 0.191958
0.687312 0.288212 0.234073
0.804074 0.352422 0.274998
0.000000 0.143587 0.158450
0.030243 0.145846 0.155581
0.132723 0.152926 0.144808
0.290806 0.189944 0.161471
0.474067 0.243259 0.190921
0.589380 0.296696 0.226169
0.695399 0.352605 0.266026
0.808560 0.403693 0.303777
0.000000 0.235538 0.199405
0.062440 0.240604 0.196841
0.169162 0.253727 0.180362
0.314488 0.285435 0.148470
0.507469 0.372900 0.242283
0.609827 0.411170 0.291020
0.712032 0.448737 0.326146
0.819974 0.484627 0.356390
0.104585 0.362127 0.252201
0.145815 0.365026 0.250553
0.222812 0.370520 0.230869
0.335729 0.386694 0.217441
0.470344 0.407904 0.155459
0.609461 0.472755 0.272068
0.727321 0.545922 0.386908
0.832517 0.574853 0.412634
0.222660 0.467201 0.309972
0.248661 0.468025 0.310735
0.285191 0.468086 0.287877
0.375250 0.463569 0.292821
0.465034 0.490486 0.239231
0.573480 0.500999 0.185855
0.718349 0.575280 0.319463
0.845365 0.642969 0.426337
0.340642 0.559442 0.383795
0.342321 0.558679 0.375708
0.366400 0.555535 0.362463
0.428290 0.551446 0.365545
0.489601 0.563653 0.342290
0.579034 0.591211 0.279149
0.681483 0.601038 0.234836
0.829252 0.672236 0.363531
0.429572 0.665003 0.450233
0.428901 0.663844 0.443244
0.452705 0.662745 0.440070
0.506737 0.669368 0.449104
0.563104 0.672419 0.448585
0.625727 0.701045 0.409888
0.725551 0.731289 0.341100
0.829740 0.732631 0.303716
0.000000 0.153994 0.358618
0.000000 0.134829 0.350256
0.045350 0.089113 0.310704
0.233433 0.053376 0.262486
0.404364 0.000000 0.267338
0.543389 0.140536 0.277806
0.651118 0.277317 0.331304
0.775448 0.361791 0.375677
0.000000 0.193149 0.373297
0.000000 0.179538 0.361700
0.068269 0.128420 0.318120
0.239322 0.095003 0.266636
0.409155 0.089204 0.270634
0.541680 0.174075 0.282200
0.649897 0.293645 0.334844
0.775143 0.371740 0.377142
0.000000 0.243107 0.362310
0.000000 0.245731 0.358892
0.144900 0.236423 0.334722
0.255589 0.178958 0.277012
0.426490 0.205600 0.287541
0.554314 0.289647 0.326940
0.673243 0.376654 0.380224
0.793149 0.429084 0.406989
0.000000 0.295933 0.344793
0.000000 0.297551 0.341741
0.183902 0.300359 0.328832
0.290715 0.295537 0.299626
0.456611 0.347784 0.336461
0.570031 0.399847 0.373907
0.681971 0.453040 0.409888
0.803342 0.496956 0.434882
0.000000 0.384741 0.372595
0.069184 0.386969 0.371313
0.216068 0.391455 0.358618
0.339269 0.400916 0.342779
0.459998 0.419654 0.310552
0.597284 0.501061 0.418067
0.711971 0.552697 0.458778
0.822782 0.581720 0.472694
0.205570 0.485328 0.403876
0.243229 0.490547 0.407630
0.316289 0.487739 0.400427
0.388434 0.487678 0.386206
0.466957 0.497810 0.371984
0.566644 0.511772 0.327520
0.713375 0.596460 0.435798
0.844633 0.665736 0.504540
0.342351 0.567010 0.445930
0.358953 0.567651 0.446754
0.404517 0.568353 0.447852
0.440558 0.570245 0.432074
0.503716 0.569421 0.431464
0.576684 0.597253 0.391302
0.675593 0.608850 0.349493
0.830106 0.687404 0.445045
0.451972 0.676387 0.510552
0.460273 0.677241 0.510246
0.480232 0.677546 0.503593
0.499611 0.679286 0.483131
0.559869 0.677546 0.485298
0.621698 0.699153 0.463478
0.718227 0.732448 0.415412
0.827176 0.739590 0.383764
0.000000 0.233433 0.514611
0.000000 0.227634 0.509941
0.000000 0.178622 0.488136
0.224887 0.141848 0.445136
0.378820 0.094575 0.405554
0.511345 0.133150 0.390814
0.623011 0.253605 0.405127
0.744594 0.360235 0.447272
0.000000 0.271061 0.518212
0.000000 0.267094 0.514702
0.000000 0.230045 0.491646
0.236362 0.175906 0.449134
0.381109 0.131075 0.406317
0.512291 0.165927 0.392645
0.623865 0.275425 0.409979
0.745296 0.372015 0.450111
0.000000 0.341741 0.519341
0.000000 0.349279 0.517998
0.198703 0.337530 0.499672
0.279118 0.271794 0.459419
0.387610 0.215000 0.407172
0.511559 0.245914 0.396185
0.622614 0.332860 0.421027
0.745327 0.412543 0.460365
0.000000 0.393103 0.508110
0.131960 0.396826 0.505730
0.275822 0.410132 0.499489
0.372992 0.406378 0.478004
0.407080 0.320836 0.416327
0.522759 0.356115 0.418219
0.632898 0.419593 0.449226
0.768826 0.472572 0.476967
0.166964 0.439124 0.488350
0.205905 0.440558 0.486427
0.291905 0.441779 0.477302
0.375494 0.438911 0.459846
0.426886 0.418830 0.424628
0.547387 0.467842 0.456672
0.666651 0.516045 0.485206
0.795193 0.557977 0.506432
0.200046 0.485115 0.477058
0.223301 0.485512 0.476112
0.280339 0.484108 0.470619
0.367407 0.486183 0.460090
0.448402 0.487678 0.442359
0.542077 0.509178 0.425177
0.703609 0.610101 0.516106
0.831754 0.665003 0.555444
0.316136 0.573907 0.510765
0.331334 0.572778 0.508507
0.378180 0.571344 0.502922
0.439399 0.572625 0.495796
0.490150 0.575280 0.477882
0.559991 0.589105 0.465339
0.658015 0.607355 0.432044
0.823972 0.696162 0.513725
0.426307 0.674952 0.555291
0.433906 0.674556 0.553643
0.459174 0.674342 0.548394
0.506279 0.684291 0.545861
0.538811 0.685725 0.519127
0.610132 0.688777 0.516197
0.698390 0.724575 0.477668
0.813352 0.737118 0.444587
0.000000 0.326848 0.629450
0.000000 0.329168 0.624933
0.130343 0.329503 0.604395
0.261479 0.286412 0.581750
0.374701 0.227451 0.535760
0.485939 0.191531 0.501335
0.598932 0.253056 0.492561
0.724941 0.349065 0.514672
0.000000 0.353796 0.624842
0.000000 0.354314 0.620111
0.179690 0.352850 0.602289
0.278569 0.309117 0.577905
0.377081 0.247898 0.532586
0.483833 0.210178 0.498482
0.596735 0.267185 0.491310
0.723507 0.358373 0.514427
0.145510 0.443488 0.637903
0.199588 0.443153 0.633356
0.303777 0.437873 0.616541
0.357092 0.396277 0.586084
0.407813 0.328985 0.539117
0.490181 0.278386 0.500175
0.598993 0.322240 0.495735
0.728389 0.395697 0.520317
0.257115 0.489723 0.630457
0.293584 0.494240 0.627955
0.383734 0.511620 0.624384
0.452796 0.509026 0.608362
0.463386 0.439643 0.557702
0.506676 0.373022 0.508659
0.609918 0.399786 0.508202
0.743587 0.451637 0.531701
0.309819 0.521843 0.608423
0.334966 0.525200 0.607446
0.397986 0.534295 0.603693
0.465736 0.544366 0.597559
0.510338 0.530602 0.573938
0.510063 0.441566 0.505364
0.617731 0.467506 0.513481
0.752987 0.513603 0.538476
0.342840 0.546410 0.581781
0.361730 0.549401 0.582269
0.404700 0.551507 0.577356
0.454170 0.551171 0.567285
0.495918 0.542473 0.548180
0.524834 0.516564 0.511559
0.662196 0.578820 0.552605
0.803281 0.630732 0.583551
0.370459 0.592218 0.580102
0.381842 0.594049 0.580774
0.409003 0.594568 0.577752
0.442969 0.594171 0.571496
0.488441 0.594781 0.558587
0.552880 0.596216 0.534966
0.647333 0.615106 0.512169
0.831235 0.726345 0.611658
0.400153 0.687831 0.626581
0.408179 0.687282 0.624353
0.435126 0.686976 0.617731
0.479469 0.691127 0.609308
0.534813 0.694881 0.594079
0.588922 0.698146 0.565179
0.678004 0.718746 0.549432
0.802182 0.740139 0.513695
0.000000 0.419257 0.731930
0.000000 0.427375 0.730282
0.268894 0.443824 0.717708
0.343297 0.417243 0.697597
0.423590 0.383764 0.662196
0.480079 0.306889 0.606470
0.570184 0.285222 0.577081
0.695064 0.342931 0.586603
0.000000 0.438788 0.728511
0.104067 0.445167 0.726680
0.289342 0.457435 0.714626
0.360662 0.433509 0.692592
0.427008 0.394903 0.657557
0.478248 0.317052 0.601923
0.564660 0.290562 0.571283
0.687526 0.343725 0.580133
0.233127 0.507439 0.739651
0.272038 0.509819 0.736477
0.356573 0.512657 0.723964
0.430671 0.502068 0.699062
0.458076 0.449012 0.663569
0.496407 0.375586 0.607507
0.571466 0.339940 0.574701
0.696101 0.381598 0.586877
0.328618 0.562432 0.742733
0.352148 0.566522 0.741329
0.418250 0.581598 0.740200
0.478553 0.572412 0.719936
0.500145 0.521813 0.680079
0.526513 0.454444 0.622614
0.582757 0.405066 0.580896
0.706142 0.428229 0.592309
0.371832 0.593805 0.726070
0.387762 0.596155 0.724849
0.436164 0.605463 0.723323
0.501823 0.621302 0.724117
0.555657 0.612268 0.704311
0.553216 0.528954 0.638788
0.586633 0.459815 0.579858
0.713527 0.477668 0.591943
0.408576 0.626154 0.708553
0.420630 0.628290 0.708370
0.457740 0.634974 0.707698
0.510704 0.645838 0.707729
0.571923 0.658076 0.706477
0.622766 0.648920 0.686122
0.604364 0.532250 0.590326
0.740597 0.559625 0.605463
0.436683 0.655879 0.689387
0.445960 0.657740 0.689754
0.472938 0.660945 0.687922
0.512779 0.665705 0.684749
0.557977 0.666926 0.675166
0.602441 0.659693 0.654810
0.621424 0.615808 0.598047
0.795865 0.696773 0.656397
0.446571 0.696773 0.684504
0.452186 0.697688 0.684443
0.473793 0.704707 0.687678
0.501976 0.710445 0.686915
0.533501 0.713771 0.680720
0.579095 0.717494 0.665003
0.659113 0.721096 0.630579
0.785672 0.744808 0.600519
0.137667 0.502556 0.829404
0.216770 0.510796 0.828183
0.340215 0.527947 0.820432
0.429908 0.533440 0.807858
0.467842 0.498390 0.787808
0.529351 0.461341 0.752682
0.579431 0.384375 0.697017
0.673213 0.371893 0.676081
0.181430 0.514824 0.828336
0.240543 0.521935 0.827207
0.349706 0.536950 0.820096
0.442603 0.545434 0.806607
0.472663 0.506859 0.786740
0.531212 0.468971 0.751461
0.578637 0.391272 0.694667
0.670527 0.375982 0.672908
0.258518 0.553033 0.831937
0.294682 0.557702 0.830533
0.376776 0.567254 0.823209
0.466468 0.578149 0.813016
0.495735 0.542321 0.791928
0.543664 0.500603 0.755337
0.585687 0.424201 0.697719
0.672602 0.400275 0.673274
0.301488 0.596582 0.838285
0.334386 0.604150 0.839048
0.408484 0.615564 0.834897
0.490425 0.623316 0.824582
0.547387 0.609735 0.803342
0.568078 0.555016 0.768643
0.601068 0.476814 0.709651
0.680323 0.439185 0.678187
0.359075 0.633631 0.830686
0.376837 0.637842 0.831693
0.426581 0.649012 0.832883
0.497230 0.667811 0.836728
0.580407 0.674128 0.822690
0.600641 0.623896 0.786954
0.620935 0.542351 0.726589
0.690547 0.487922 0.684596
0.412238 0.674250 0.821256
0.423255 0.676081 0.820951
0.459174 0.683284 0.821164
0.515679 0.697017 0.823728
0.590845 0.718959 0.829801
0.669703 0.729030 0.823056
0.666224 0.643183 0.764187
0.711086 0.555901 0.699580
0.458228 0.716213 0.812467
0.466438 0.717617 0.812314
0.493843 0.722805 0.812406
0.540642 0.733730 0.814572
0.604120 0.750301 0.818631
0.684138 0.774166 0.826078
0.759182 0.785916 0.822995
0.725612 0.633692 0.706264
0.496162 0.758083 0.804471
0.502403 0.759121 0.804440
0.524132 0.763149 0.804501
0.561913 0.770962 0.805325
0.612268 0.781338 0.805539
0.671931 0.792447 0.803769
0.733394 0.798428 0.793973
0.751919 0.747158 0.720638
