data/fiter_cube/12898295/1023040/file.cube
# Created by Adobe Lightroom plugin Export LUT (1.17.0)
# www.johnrellis.com/lightroom/exportlut.htm
# Preset: 经典婚礼摄影_02 云集
# Color profile: C:\Program Files (x86)\Common Files\Adobe\Color\Profiles\Recommended\AdobeRGB1998.icc
LUT_3D_SIZE 5
DOMAIN_MIN 0.000000 0.000000 0.000000
DOMAIN_MAX 0.903226 0.903226 0.903226
0.000000 0.000000 0.000000
0.282841 0.000000 0.009186
0.719692 0.000000 0.000000
0.944671 0.097566 0.000000
1.000000 0.307073 0.066407
0.000000 0.214420 0.136294
0.171237 0.196017 0.135866
0.704738 0.307164 0.000000
0.935332 0.370214 0.000000
1.000000 0.442634 0.163577
0.000000 0.546624 0.337896
0.196048 0.527672 0.312993
0.515160 0.541314 0.374426
0.889494 0.674525 0.410254
1.000000 0.669459 0.392309
0.290318 0.779171 0.562646
0.408453 0.772946 0.571283
0.464607 0.745449 0.500237
0.738582 0.753506 0.617090
0.960021 0.853788 0.704860
0.598535 0.940887 0.765225
0.641779 0.936767 0.770901
0.689143 0.920836 0.752438
0.763638 0.919646 0.749447
0.914244 0.926085 0.832059
0.000000 0.000214 0.208103
0.210147 0.000000 0.190890
0.658106 0.000000 0.156710
0.910826 0.000000 0.157656
1.000000 0.293797 0.124392
0.000000 0.206699 0.236698
0.221195 0.234562 0.236942
0.658717 0.255833 0.229038
0.905058 0.342229 0.222599
1.000000 0.422187 0.211765
0.000000 0.547478 0.388830
0.257328 0.539849 0.396674
0.508934 0.527733 0.418128
0.880003 0.663142 0.469184
1.000000 0.668421 0.462837
0.277958 0.779446 0.585107
0.404578 0.773404 0.592920
0.510277 0.745968 0.549798
0.740780 0.753140 0.638422
0.961486 0.854215 0.719203
0.582635 0.941283 0.769863
0.628168 0.937011 0.774868
0.717556 0.929625 0.781003
0.768734 0.924407 0.762905
0.918669 0.929808 0.842069
0.000000 0.000000 0.516197
0.104433 0.000000 0.499886
0.552697 0.000000 0.469734
0.865782 0.000000 0.452918
1.000000 0.000000 0.395636
0.000000 0.185183 0.535027
0.093019 0.178653 0.524102
0.560418 0.171176 0.496010
0.857786 0.231144 0.473426
1.000000 0.322728 0.438209
0.000000 0.530266 0.565179
0.116274 0.539086 0.563653
0.571801 0.570825 0.568933
0.846799 0.615808 0.591363
1.000000 0.643214 0.585016
0.141390 0.789212 0.661372
0.332525 0.779324 0.658106
0.600214 0.760586 0.668513
0.756832 0.761898 0.700496
0.973816 0.854185 0.758938
0.520958 0.940459 0.789395
0.575647 0.938903 0.793942
0.707637 0.932067 0.807187
0.775235 0.920897 0.787564
0.917449 0.926452 0.853269
0.000000 0.000000 0.750820
0.000000 0.000000 0.743771
0.490455 0.000000 0.719814
0.791745 0.000000 0.695949
0.998169 0.309209 0.678523
0.000000 0.134798 0.752956
0.000000 0.114321 0.745937
0.486244 0.000000 0.725521
0.784237 0.134768 0.697810
0.992218 0.387793 0.683833
0.000000 0.479408 0.757717
0.000000 0.479774 0.754879
0.472724 0.469459 0.742306
0.770871 0.512535 0.717311
0.987610 0.569604 0.712245
0.000000 0.747860 0.775265
0.167666 0.746365 0.771664
0.524620 0.751125 0.768704
0.780331 0.775296 0.775113
0.981079 0.807767 0.792691
0.402258 0.950469 0.851835
0.476143 0.948913 0.851774
0.641444 0.943084 0.853971
0.810239 0.933227 0.859861
0.925963 0.931212 0.884886
0.000000 0.000000 0.940490
0.000000 0.000000 0.938445
0.505150 0.000000 0.930175
0.773068 0.000000 0.913359
0.970916 0.000000 0.870359
0.000000 0.000000 0.942351
0.000000 0.000000 0.940032
0.488136 0.000000 0.930968
0.764584 0.000000 0.913207
0.967468 0.203586 0.871794
0.000000 0.417670 0.943999
0.000000 0.398138 0.942962
0.419226 0.375738 0.934142
0.736660 0.322911 0.916564
0.958801 0.491554 0.880705
0.000000 0.729824 0.941894
0.000000 0.726131 0.940703
0.372686 0.712581 0.937682
0.699519 0.688960 0.927855
0.950378 0.733852 0.904021
0.228733 0.924590 0.951690
0.329717 0.924376 0.951171
0.534874 0.925383 0.950317
0.746334 0.930694 0.948394
0.952331 0.950622 0.950713
