data/fiter_cube/12898295/1023040/file.cube
# Created by Adobe Lightroom plugin Export LUT (1.17.0)
# www.johnrellis.com/lightroom/exportlut.htm
# Preset: 经典婚礼摄影_02 云集
# Color profile: C:\Program Files (x86)\Common Files\Adobe\Color\Profiles\Recommended\AdobeRGB1998.icc
LUT_3D_SIZE 32
DOMAIN_MIN 0.0 0.0 0.0
DOMAIN_MAX 1.0 1.0 1.0
0.000000 0.000000 0.000000
0.024872 0.000000 0.001556
0.051942 0.000000 0.002991
0.080140 0.000000 0.006653
0.117159 0.000000 0.010376
0.165133 0.000000 0.012726
0.220706 0.000000 0.012726
0.282841 0.000000 0.009186
0.350256 0.000000 0.000000
0.420356 0.000000 0.000000
0.490791 0.000000 0.000000
0.557641 0.000000 0.000000
0.618952 0.000000 0.000000
0.673426 0.000000 0.000000
0.719692 0.000000 0.000000
0.759335 0.000000 0.000000
0.793912 0.000000 0.000000
0.824796 0.000000 0.000000
0.859678 0.000000 0.000000
0.892546 0.000000 0.000000
0.920500 0.000000 0.000000
0.944671 0.097566 0.000000
0.965667 0.148074 0.000000
0.984497 0.183719 0.000000
1.000000 0.211612 0.000000
1.000000 0.236454 0.000000
1.000000 0.259953 0.000000
1.000000 0.283360 0.000000
1.000000 0.307073 0.066407
1.000000 0.332189 0.117067
1.000000 0.358709 0.161257
1.000000 0.387549 0.208011
0.002930 0.013062 0.015076
0.013397 0.012451 0.015930
0.045045 0.015534 0.013794
0.077821 0.020050 0.014771
0.114717 0.017517 0.017395
0.162325 0.000000 0.018585
0.218021 0.000000 0.018677
0.279149 0.000000 0.012940
0.345953 0.000000 0.000855
0.415747 0.000000 0.000000
0.485451 0.000000 0.000000
0.552178 0.000000 0.000000
0.613428 0.000000 0.000000
0.668086 0.000000 0.000000
0.714656 0.000000 0.000000
0.754635 0.000000 0.000000
0.789487 0.000000 0.000000
0.820676 0.000000 0.000000
0.855589 0.000000 0.000000
0.887785 0.000000 0.000000
0.915465 0.000000 0.000000
0.939727 0.104250 0.000000
0.960937 0.150881 0.000000
0.979980 0.184360 0.000000
0.997528 0.211704 0.000000
1.000000 0.236240 0.000000
1.000000 0.259464 0.000000
1.000000 0.282750 0.000000
1.000000 0.306432 0.056733
1.000000 0.330999 0.111818
1.000000 0.357488 0.156466
1.000000 0.385901 0.202792
0.006714 0.032868 0.033936
0.015503 0.031525 0.030549
0.033234 0.028382 0.036835
0.072023 0.044648 0.034882
0.111604 0.048554 0.027131
0.159548 0.029969 0.028229
0.214603 0.000000 0.024689
0.275578 0.000000 0.017578
0.342107 0.000000 0.004089
0.411536 0.000000 0.000000
0.481544 0.000000 0.000000
0.548486 0.000000 0.000000
0.609827 0.000000 0.000000
0.664881 0.000000 0.000000
0.711574 0.000000 0.000000
0.751858 0.000000 0.000000
0.786862 0.000000 0.000000
0.818143 0.000000 0.000000
0.853422 0.000000 0.000000
0.885130 0.000000 0.000000
0.912749 0.053895 0.000000
0.937072 0.123934 0.000000
0.958373 0.163729 0.000000
0.977539 0.193637 0.000000
0.995178 0.219364 0.000000
1.000000 0.242008 0.000000
1.000000 0.264500 0.000000
1.000000 0.287022 0.000000
1.000000 0.309758 0.054170
1.000000 0.334051 0.110262
1.000000 0.359808 0.155489
1.000000 0.387610 0.201297
0.016754 0.065217 0.063325
0.028626 0.065339 0.063203
0.034577 0.064668 0.059724
0.062409 0.061555 0.063905
0.096620 0.073732 0.062470
0.155459 0.077424 0.046937
0.211124 0.070314 0.034272
0.272679 0.038209 0.023499
0.339208 0.000000 0.008759
0.408606 0.000000 0.000000
0.478218 0.000000 0.000000
0.545068 0.000000 0.000000
0.606256 0.000000 0.000000
0.661189 0.000000 0.000000
0.708278 0.000000 0.000000
0.748623 0.000000 0.000000
0.783749 0.000000 0.000000
0.815061 0.000000 0.000000
0.850736 0.000000 0.000000
0.881193 0.059907 0.000000
0.908141 0.120668 0.000000
0.932219 0.158755 0.000000
0.953918 0.188937 0.000000
0.973816 0.214878 0.000000
0.992370 0.237797 0.000000
1.000000 0.259190 0.000000
1.000000 0.280278 0.000000
1.000000 0.301549 0.000000
1.000000 0.323156 0.066316
1.000000 0.345617 0.116518
1.000000 0.369665 0.159792
1.000000 0.395758 0.204379
0.019898 0.092561 0.079072
0.037598 0.092958 0.079866
0.044465 0.091585 0.076661
0.059419 0.088808 0.072633
0.081788 0.085756 0.078187
0.122438 0.101930 0.077363
0.191989 0.113771 0.063996
0.264988 0.111177 0.043305
0.331975 0.100313 0.017517
0.401678 0.081117 0.000000
0.471656 0.031739 0.000000
0.538598 0.000000 0.000000
0.600244 0.000000 0.000000
0.655909 0.000000 0.000000
0.703822 0.000000 0.000000
0.745113 0.000000 0.000000
0.781064 0.000000 0.000000
0.815549 0.080873 0.000000
0.849882 0.123171 0.000000
0.879454 0.155123 0.000000
0.905699 0.182040 0.000000
0.929473 0.206363 0.000000
0.951019 0.227909 0.000000
0.971008 0.247715 0.000000
0.989746 0.266361 0.000000
1.000000 0.284642 0.000000
1.000000 0.303014 0.000000
1.000000 0.321294 0.000000
1.000000 0.340703 0.076539
1.000000 0.361212 0.122621
1.000000 0.383551 0.164981
1.000000 0.408118 0.209049
0.012055 0.126589 0.095491
0.027832 0.127321 0.096345
0.043641 0.126894 0.095277
0.055909 0.123415 0.088319
0.076173 0.119417 0.086427
0.105318 0.116121 0.094026
0.151369 0.134920 0.096620
0.229191 0.155978 0.080201
0.320012 0.161990 0.056977
0.396765 0.157626 0.016419
0.467170 0.150729 0.000000
0.534691 0.143252 0.000000
0.596551 0.139712 0.000000
0.652766 0.140505 0.000000
0.701198 0.146578 0.000000
0.742977 0.155886 0.000000
0.779385 0.168093 0.000000
0.817014 0.188083 0.000000
0.850065 0.206546 0.000000
0.879088 0.224582 0.000000
0.905180 0.241978 0.000000
0.929015 0.258549 0.000000
0.977356 0.312993 0.000000
0.995361 0.326604 0.000000
1.000000 0.339330 0.000000
1.000000 0.351690 0.000000
1.000000 0.364782 0.062837
1.000000 0.378424 0.104768
1.000000 0.393622 0.139986
1.000000 0.410651 0.176028
1.000000 0.429419 0.213993
1.000000 0.450324 0.255467
0.000000 0.172671 0.116487
0.003357 0.173129 0.117159
0.030762 0.173526 0.118166
0.053040 0.170169 0.111696
0.066499 0.164126 0.101808
0.102144 0.160494 0.105104
0.138857 0.157717 0.115206
0.190005 0.177920 0.122988
0.281559 0.209964 0.104799
0.382483 0.226200 0.080964
0.481147 0.231907 0.028229
0.549187 0.231632 0.000000
0.610163 0.232609 0.000000
0.664393 0.235294 0.000000
0.710384 0.238499 0.000000
0.749844 0.243107 0.000000
0.788632 0.253147 0.000000
0.826383 0.267491 0.000000
0.858579 0.281376 0.000000
0.887785 0.295872 0.000000
0.915007 0.311528 0.000000
0.940429 0.326299 0.000000
0.963867 0.341131 0.000000
0.985321 0.355016 0.000000
1.000000 0.368017 0.000000
1.000000 0.379950 0.000000
1.000000 0.391577 0.080385
1.000000 0.403479 0.116548
1.000000 0.416632 0.150423
1.000000 0.431373 0.184482
1.000000 0.448157 0.221500
1.000000 0.467140 0.262028
0.000000 0.214420 0.136294
0.000000 0.214542 0.136843
0.003357 0.214817 0.137697
0.050324 0.212772 0.134768
0.067292 0.206638 0.124269
0.080415 0.198825 0.114260
0.130770 0.197513 0.123781
0.171237 0.196017 0.135866
0.223239 0.215152 0.149844
0.321386 0.255650 0.132113
0.425360 0.280522 0.110170
0.525719 0.295109 0.079133
0.603418 0.301946 0.020294
0.658167 0.304753 0.000000
0.704738 0.307164 0.000000
0.746853 0.311315 0.000000
0.788632 0.320867 0.000000
0.823850 0.329412 0.000000
0.854704 0.337896 0.000000
0.883207 0.347509 0.000000
0.910002 0.358495 0.000000
0.935332 0.370214 0.000000
0.958801 0.382574 0.000000
0.980133 0.393225 0.000000
0.999573 0.403113 0.000000
1.000000 0.412421 0.059876
1.000000 0.421546 0.099763
1.000000 0.431403 0.131807
1.000000 0.442634 0.163577
1.000000 0.455421 0.196384
1.000000 0.470466 0.232609
1.000000 0.487648 0.272465
0.000000 0.258396 0.158358
0.000000 0.258366 0.158541
0.000000 0.258640 0.159365
0.051087 0.258274 0.160708
0.070344 0.252171 0.149844
0.084230 0.244633 0.138460
0.111177 0.237980 0.133669
0.163912 0.237919 0.144900
0.208255 0.237675 0.158785
0.260136 0.254612 0.180209
0.363684 0.303014 0.163943
0.468910 0.334478 0.143587
0.565454 0.355444 0.118715
0.649195 0.369574 0.083894
0.703639 0.375067 0.060151
0.749722 0.381445 0.025147
0.788418 0.385870 0.000000
0.821988 0.389868 0.000000
0.851896 0.394141 0.000000
0.879789 0.399847 0.000000
0.906218 0.407141 0.000000
0.931243 0.415534 0.000000
0.954498 0.424323 0.000000
0.975891 0.433295 0.000000
0.995422 0.441352 0.050965
1.000000 0.447974 0.093172
1.000000 0.454963 0.123842
1.000000 0.462684 0.151797
1.000000 0.471839 0.181521
1.000000 0.482704 0.212772
1.000000 0.495674 0.247471
1.000000 0.510887 0.286290
0.000000 0.303746 0.181918
0.000000 0.303685 0.182193
0.000000 0.303441 0.182712
0.036316 0.303197 0.184268
0.074647 0.298772 0.177188
0.089815 0.291173 0.165316
0.103792 0.282414 0.153079
0.145754 0.278630 0.154879
0.200778 0.279576 0.167971
0.248325 0.280888 0.183536
0.300908 0.295995 0.209903
0.404639 0.347814 0.197299
0.507866 0.384314 0.179599
0.606592 0.415320 0.161227
0.688716 0.436408 0.139895
0.751064 0.446479 0.118318
0.788876 0.448188 0.110109
0.821866 0.449317 0.103487
0.851133 0.450752 0.099123
0.878202 0.453132 0.097505
0.903685 0.456764 0.097688
0.927428 0.461280 0.099702
0.949615 0.466255 0.103883
0.970245 0.471595 0.108888
0.989410 0.477119 0.115084
1.000000 0.482460 0.120455
1.000000 0.487678 0.146365
1.000000 0.494057 0.172641
1.000000 0.501946 0.201144
1.000000 0.511650 0.232181
1.000000 0.523552 0.267002
1.000000 0.537560 0.305730
0.000000 0.347326 0.205722
0.000000 0.347417 0.206241
0.000000 0.347295 0.206668
0.010529 0.346990 0.208011
0.082856 0.344701 0.206027
0.097993 0.338079 0.194095
0.112245 0.330022 0.181155
0.125277 0.320867 0.168429
0.183841 0.321050 0.178042
0.241642 0.323339 0.193027
0.291752 0.325750 0.210452
0.352514 0.346410 0.240848
0.454871 0.400397 0.238926
0.558892 0.444129 0.225528
0.648157 0.474556 0.210300
0.719417 0.492103 0.194339
0.777340 0.500999 0.176699
0.818173 0.502953 0.164584
0.847044 0.501884 0.160098
0.873899 0.501823 0.157321
0.899138 0.503258 0.157107
0.922820 0.505486 0.158206
0.945006 0.508598 0.161227
0.965637 0.511925 0.165011
0.984802 0.515526 0.168795
1.000000 0.518883 0.172854
1.000000 0.522606 0.176822
1.000000 0.527214 0.197940
1.000000 0.533257 0.223941
1.000000 0.541222 0.253544
1.000000 0.551385 0.287144
1.000000 0.563867 0.324895
0.000000 0.392798 0.232181
0.000000 0.392676 0.232395
0.000000 0.392523 0.232944
0.000000 0.392157 0.234012
0.093080 0.391791 0.236393
0.108583 0.385748 0.224826
0.122713 0.378363 0.211521
0.136385 0.369757 0.197940
0.157931 0.361486 0.188968
0.228000 0.367620 0.204898
0.291905 0.375280 0.224643
0.348974 0.382696 0.247288
0.445869 0.434821 0.305791
0.544427 0.488960 0.315190
0.639918 0.532219 0.305241
0.715053 0.557061 0.294102
0.774807 0.570214 0.281804
0.823880 0.576074 0.267765
0.864744 0.576959 0.252628
0.890776 0.573724 0.246189
0.913237 0.571099 0.243229
0.934325 0.569421 0.241978
0.953979 0.568353 0.241611
0.972595 0.568048 0.242069
0.990143 0.568170 0.243046
1.000000 0.568872 0.244633
1.000000 0.570001 0.246616
1.000000 0.571984 0.250065
1.000000 0.575677 0.269902
1.000000 0.581415 0.296941
1.000000 0.589258 0.327459
1.000000 0.599603 0.362951
0.000000 0.449104 0.267369
0.000000 0.448951 0.267491
0.000000 0.448188 0.267643
0.000000 0.446815 0.267857
0.096345 0.445075 0.269169
0.125490 0.439704 0.261814
0.139437 0.433051 0.248264
0.154513 0.428046 0.235355
0.169497 0.422278 0.222507
0.213352 0.422370 0.223941
0.290043 0.432502 0.245182
0.360235 0.443122 0.270329
0.422950 0.454231 0.299535
0.485664 0.474281 0.337621
0.576043 0.525566 0.357244
0.664088 0.567437 0.350744
0.732692 0.591119 0.342077
0.787961 0.603967 0.331395
0.834073 0.610315 0.320012
0.873381 0.612451 0.307836
0.905577 0.611444 0.296696
0.926757 0.608362 0.293400
0.946441 0.606043 0.291325
0.965087 0.604273 0.290257
0.982696 0.603052 0.289799
0.999420 0.602380 0.289982
1.000000 0.602319 0.290562
1.000000 0.603174 0.292851
1.000000 0.605158 0.297154
1.000000 0.609766 0.320409
1.000000 0.616449 0.349981
1.000000 0.625696 0.384466
0.000000 0.496132 0.299626
0.000000 0.496223 0.300114
0.000000 0.495949 0.300389
0.000000 0.495644 0.301396
0.103761 0.494697 0.302800
0.148257 0.492531 0.301823
0.161105 0.486854 0.288487
0.174533 0.480537 0.273960
0.188510 0.474037 0.259403
0.202396 0.467140 0.245182
0.266514 0.471229 0.256870
0.343236 0.481086 0.280583
0.412024 0.490852 0.307713
0.471595 0.500206 0.337377
0.526421 0.515007 0.373022
0.605432 0.559503 0.399390
0.684474 0.597711 0.393378
0.747066 0.620081 0.386328
0.799191 0.633417 0.377935
0.843320 0.641047 0.369116
0.881498 0.644648 0.360235
0.914641 0.645350 0.350408
0.939055 0.642939 0.343328
0.957916 0.640375 0.340764
0.975677 0.638178 0.338964
0.992584 0.636469 0.337987
1.000000 0.635401 0.337530
1.000000 0.635309 0.338750
1.000000 0.636500 0.342535
1.000000 0.639033 0.348516
1.000000 0.644831 0.376654
1.000000 0.652918 0.409552
0.000000 0.546624 0.337896
0.000000 0.546654 0.338354
0.000000 0.545892 0.338262
0.050813 0.544610 0.338293
0.118410 0.542565 0.338720
0.168765 0.540124 0.340215
0.184421 0.534325 0.328283
0.196048 0.527672 0.312993
0.208713 0.521141 0.297734
0.221988 0.514519 0.282383
0.236942 0.507774 0.269169
0.319768 0.516258 0.291234
0.394812 0.525231 0.316960
0.460365 0.533623 0.345037
0.515160 0.541314 0.374426
0.562585 0.551354 0.406653
0.630671 0.589075 0.438819
0.702541 0.624720 0.434058
0.761074 0.646876 0.428626
0.810758 0.661250 0.423102
0.853025 0.669947 0.417029
0.889494 0.674525 0.410254
0.921263 0.675807 0.402045
0.949462 0.674647 0.392065
0.968353 0.671962 0.388342
0.985534 0.669856 0.386664
1.000000 0.668544 0.386389
1.000000 0.668360 0.388220
1.000000 0.669459 0.392309
1.000000 0.672023 0.399176
1.000000 0.676173 0.411810
1.000000 0.683986 0.444312
0.000000 0.590204 0.373999
0.000000 0.590478 0.374517
0.000000 0.589990 0.374640
0.087465 0.588922 0.374853
0.137942 0.587335 0.375494
0.185367 0.585260 0.376837
0.213046 0.581537 0.371221
0.223697 0.575982 0.356878
0.235172 0.569818 0.341192
0.247257 0.563287 0.325170
0.259190 0.556085 0.308904
0.292851 0.551751 0.304662
0.373053 0.558373 0.327825
0.442939 0.564508 0.353094
0.502190 0.570123 0.379736
0.551202 0.575402 0.407202
0.592096 0.581567 0.436194
0.651698 0.614160 0.474342
0.719295 0.649439 0.472297
0.775662 0.673060 0.470405
0.823453 0.688808 0.468025
0.864134 0.698817 0.465278
0.899046 0.704433 0.461006
0.929656 0.706722 0.455085
0.956878 0.706538 0.447364
0.979919 0.704555 0.439918
0.996735 0.702754 0.438849
1.000000 0.702083 0.440009
1.000000 0.702449 0.442908
1.000000 0.703975 0.448371
1.000000 0.706691 0.456306
1.000000 0.711666 0.474006
0.000000 0.626703 0.406409
0.047272 0.626490 0.406561
0.079774 0.625818 0.406500
0.117311 0.624781 0.406592
0.158633 0.623133 0.407019
0.200839 0.621118 0.408087
0.239506 0.618494 0.408087
0.248417 0.613367 0.394232
0.258579 0.607843 0.379492
0.269261 0.601862 0.363561
0.280766 0.595453 0.347448
0.292119 0.588403 0.331365
0.345281 0.587884 0.338140
0.421088 0.593408 0.362158
0.485512 0.598047 0.387304
0.539055 0.602136 0.413153
0.583612 0.606195 0.439612
0.620386 0.610773 0.466560
0.672053 0.638300 0.508995
0.735653 0.673121 0.509148
0.789334 0.697169 0.509300
0.834653 0.713405 0.508904
0.873320 0.723873 0.507530
0.906767 0.730343 0.505089
0.936370 0.733608 0.501122
0.962890 0.734463 0.495644
0.987091 0.733639 0.488899
1.000000 0.732448 0.486122
1.000000 0.732479 0.488624
1.000000 0.733761 0.493721
1.000000 0.736141 0.500999
1.000000 0.739651 0.510979
0.099123 0.660548 0.438636
0.112612 0.660883 0.439307
0.161746 0.683497 0.462715
0.184665 0.682277 0.462684
0.214969 0.680232 0.462745
0.249699 0.677485 0.462989
0.287968 0.674128 0.463935
0.301244 0.669184 0.453620
0.308659 0.663691 0.439094
0.316991 0.657832 0.423438
0.326024 0.651514 0.406775
0.335302 0.644495 0.389563
0.344060 0.636378 0.371771
0.414221 0.637110 0.389410
0.482795 0.639826 0.413031
0.539879 0.642329 0.437415
0.587610 0.644800 0.462074
0.627314 0.647547 0.486824
0.660151 0.650935 0.511925
0.702541 0.672419 0.556298
0.760861 0.705501 0.557275
0.810208 0.728389 0.558221
0.851835 0.743893 0.558404
0.887388 0.753902 0.557458
0.918273 0.759670 0.554681
0.945708 0.762661 0.550835
0.970611 0.763424 0.545556
0.993683 0.762875 0.539544
1.000000 0.761410 0.533257
1.000000 0.761959 0.536370
1.000000 0.763760 0.542504
1.000000 0.766537 0.550958
0.158450 0.696651 0.474647
0.170413 0.699275 0.477821
0.185214 0.701686 0.480934
0.207950 0.703212 0.483742
0.237003 0.703456 0.486061
0.269566 0.701961 0.487465
0.304814 0.699336 0.488808
0.328649 0.695552 0.484901
0.334691 0.690883 0.471839
0.341863 0.685817 0.457862
0.349737 0.680293 0.442512
0.358038 0.674281 0.426459
0.365972 0.667201 0.409461
0.383337 0.659968 0.398077
0.457618 0.662013 0.420356
0.519371 0.663844 0.443366
0.571069 0.665736 0.466529
0.614771 0.667842 0.490303
0.651789 0.670741 0.514611
0.682887 0.674586 0.539483
0.722438 0.694514 0.581842
0.775692 0.725856 0.588434
0.822660 0.749020 0.590936
0.862364 0.764920 0.592615
0.896361 0.775387 0.592798
0.926177 0.782132 0.591821
0.953002 0.786221 0.589837
0.977508 0.788540 0.587366
1.000000 0.789761 0.584802
1.000000 0.789853 0.581811
1.000000 0.789883 0.581231
1.000000 0.792111 0.588281
0.197147 0.721920 0.500633
0.207523 0.724117 0.503502
0.219821 0.726284 0.506279
0.239231 0.727596 0.508965
0.264591 0.727718 0.511101
0.293156 0.726375 0.512596
0.325139 0.723934 0.513909
0.357794 0.720851 0.515160
0.362951 0.716854 0.503716
0.368994 0.712490 0.491096
0.376196 0.707881 0.477821
0.383551 0.702724 0.463294
0.390539 0.696559 0.447395
0.397620 0.689754 0.431220
0.433051 0.685237 0.431006
0.499458 0.686488 0.452735
0.555108 0.687800 0.474861
0.602319 0.689448 0.497475
0.642817 0.691768 0.520714
0.677516 0.695064 0.544640
0.706783 0.699306 0.568566
0.744656 0.718593 0.607477
0.791714 0.746822 0.619501
0.836088 0.769711 0.623041
0.873564 0.785489 0.625269
0.906035 0.796323 0.626337
0.934813 0.803769 0.626642
0.960906 0.808927 0.626551
0.984985 0.812589 0.626368
1.000000 0.815061 0.626307
1.000000 0.816403 0.625849
1.000000 0.816556 0.624903
0.235203 0.746456 0.526513
0.244205 0.748470 0.529198
0.254826 0.750423 0.531884
0.272068 0.751583 0.534478
0.294163 0.751644 0.536492
0.319768 0.750332 0.537896
0.348180 0.748074 0.539178
0.379126 0.745174 0.540917
0.392645 0.741726 0.534630
0.397772 0.737819 0.523369
0.403601 0.733669 0.511131
0.409949 0.729061 0.498116
0.416297 0.723781 0.483864
0.422766 0.717861 0.468910
0.429023 0.711330 0.453498
0.480018 0.709621 0.464637
0.540795 0.711452 0.487098
0.592828 0.713832 0.510277
0.637751 0.716976 0.534417
0.676539 0.721096 0.558923
0.709895 0.726009 0.583154
0.738430 0.731624 0.607050
0.774258 0.750179 0.642756
0.815305 0.775326 0.659327
0.856596 0.797604 0.664118
0.891722 0.813352 0.667628
0.922423 0.824582 0.670253
0.949889 0.832792 0.672358
0.975036 0.838956 0.674434
0.998077 0.843534 0.676356
1.000000 0.846677 0.678096
1.000000 0.848753 0.679835
0.290318 0.779171 0.562646
0.296208 0.779965 0.563928
0.303197 0.780392 0.565026
0.315831 0.780209 0.566094
0.333654 0.779355 0.567163
0.355138 0.777646 0.568078
0.380224 0.775418 0.569329
0.408453 0.772946 0.571283
0.430762 0.770230 0.570428
0.435615 0.767269 0.561089
0.441382 0.764157 0.551049
0.447456 0.760464 0.539849
0.453193 0.756100 0.527428
0.459083 0.751125 0.514244
0.464607 0.745449 0.500237
0.471901 0.739132 0.487495
0.533013 0.739620 0.507378
0.587366 0.741085 0.529198
0.633967 0.743252 0.551446
0.674159 0.746059 0.573602
0.708797 0.749508 0.595514
0.738582 0.753506 0.617090
0.763912 0.757870 0.637964
0.795438 0.773190 0.668757
0.831296 0.795285 0.687831
0.870024 0.816831 0.692836
0.903502 0.832700 0.697108
0.933196 0.844602 0.701076
0.960021 0.853788 0.704860
0.984405 0.860838 0.708431
1.000000 0.866270 0.711940
1.000000 0.870573 0.715999
0.328985 0.802029 0.588403
0.334447 0.802731 0.589715
0.340764 0.803250 0.590906
0.352178 0.803098 0.592065
0.367559 0.802274 0.593133
0.386389 0.800626 0.594018
0.408515 0.798428 0.595117
0.433356 0.795895 0.596735
0.461219 0.793149 0.599420
0.466682 0.790494 0.591669
0.471687 0.787747 0.582788
0.476967 0.784604 0.572869
0.482338 0.780972 0.562158
0.487922 0.776852 0.550652
0.493538 0.772274 0.538506
0.499336 0.767269 0.526177
0.520775 0.763210 0.523552
0.577905 0.764462 0.544518
0.626978 0.766293 0.565759
0.669337 0.768795 0.587060
0.706172 0.772000 0.608240
0.738094 0.775662 0.629145
0.765805 0.779843 0.649561
0.789517 0.784237 0.669398
0.812680 0.792233 0.690547
0.845060 0.812467 0.712367
0.882048 0.833982 0.718135
0.914397 0.850217 0.723537
0.943297 0.862852 0.728695
0.969482 0.872831 0.733791
0.993591 0.881163 0.739437
1.000000 0.887907 0.745418
0.382422 0.830655 0.622675
0.387610 0.831449 0.624170
0.392950 0.831724 0.625208
0.401862 0.831266 0.625971
0.414374 0.830076 0.626520
0.429938 0.828153 0.627070
0.448493 0.825681 0.627680
0.469703 0.822751 0.628717
0.493324 0.819486 0.630426
0.505089 0.816373 0.626551
0.507927 0.813230 0.617670
0.511589 0.809995 0.608362
0.515618 0.806424 0.598291
0.519585 0.802335 0.587304
0.523278 0.797635 0.575402
0.527245 0.792599 0.563165
0.531640 0.787320 0.550927
0.565240 0.784634 0.556970
0.615930 0.785794 0.576593
0.660334 0.787900 0.596918
0.699336 0.790799 0.617517
0.733181 0.794095 0.637598
0.762356 0.797421 0.656886
0.787259 0.800717 0.675196
0.808286 0.803830 0.692531
0.832547 0.813962 0.716182
0.861631 0.832395 0.739986
0.896513 0.853269 0.745937
0.927367 0.869474 0.751766
0.955352 0.882628 0.757931
0.981048 0.893645 0.764797
1.000000 0.902770 0.772030
0.419928 0.850767 0.647303
0.424781 0.851499 0.648768
0.429603 0.851835 0.649805
0.437415 0.851408 0.650629
0.448524 0.850309 0.651301
0.462623 0.848600 0.652003
0.479286 0.846494 0.652949
0.498451 0.844022 0.654200
0.519738 0.841367 0.656092
0.538323 0.838773 0.656641
0.541375 0.836393 0.649378
0.545342 0.833982 0.641718
0.549493 0.831357 0.633539
0.553643 0.828275 0.624414
0.557763 0.824704 0.614649
0.562097 0.820798 0.604486
0.566644 0.816709 0.594232
0.571984 0.812711 0.584405
0.615747 0.812192 0.598993
0.660853 0.813657 0.617823
0.700374 0.815732 0.636744
0.735073 0.818265 0.655421
0.765164 0.820951 0.673579
0.791196 0.823667 0.690913
0.813504 0.826291 0.707485
0.832517 0.828946 0.723140
0.853788 0.837125 0.743771
0.880186 0.854154 0.769314
0.913542 0.875029 0.776272
0.943633 0.891966 0.783719
0.970855 0.905882 0.791562
0.995483 0.917388 0.799710
0.463722 0.872709 0.675471
0.467506 0.873167 0.676570
0.471168 0.873167 0.677150
0.477272 0.872526 0.677546
0.486183 0.871244 0.677790
0.497719 0.869474 0.678187
0.511772 0.867399 0.678798
0.528222 0.865080 0.679866
0.547082 0.862669 0.681575
0.567651 0.860258 0.684016
0.573449 0.858274 0.679225
0.577295 0.856504 0.672847
0.581537 0.854520 0.666011
0.585718 0.852140 0.658473
0.589746 0.849271 0.650111
0.593805 0.846098 0.641321
0.598230 0.842679 0.632380
0.603265 0.839384 0.623804
0.614740 0.836423 0.619898
0.660060 0.837217 0.637110
0.700130 0.838651 0.654566
0.735439 0.840513 0.672114
0.766293 0.842557 0.689113
0.793240 0.844694 0.705562
0.816495 0.846799 0.721157
0.836576 0.848905 0.735958
0.853910 0.851194 0.750149
0.872679 0.857755 0.768093
0.896941 0.873686 0.795193
0.929412 0.894987 0.803494
0.958526 0.912261 0.811978
0.984802 0.926543 0.820859
0.502434 0.892485 0.700984
0.505272 0.892729 0.701717
0.508415 0.892699 0.702266
0.513939 0.892241 0.702785
0.522362 0.891417 0.703517
0.533532 0.890440 0.704707
0.547906 0.889616 0.706813
0.564813 0.888792 0.709590
0.584039 0.888121 0.713252
0.604791 0.887480 0.717647
0.618647 0.887144 0.718654
0.624567 0.887053 0.715236
0.630396 0.886687 0.711208
0.636011 0.885863 0.706447
0.641199 0.884459 0.700893
0.645777 0.882414 0.694362
0.650385 0.880095 0.687495
0.655512 0.877836 0.680873
0.661646 0.875853 0.675105
0.682704 0.874540 0.678981
0.720912 0.875059 0.694423
0.754726 0.875975 0.709834
0.784360 0.877012 0.724788
0.810391 0.878202 0.739162
0.833097 0.879423 0.752773
0.852995 0.880797 0.765866
0.870573 0.882414 0.778653
0.885832 0.884245 0.790921
0.902068 0.889372 0.806149
0.923644 0.903655 0.832853
0.953674 0.923980 0.841703
0.980621 0.940551 0.850523
0.560296 0.920745 0.738888
0.562341 0.920836 0.739406
0.564446 0.920653 0.739590
0.568597 0.920012 0.739803
0.574975 0.919005 0.740139
0.583642 0.917815 0.740780
0.594659 0.916594 0.741909
0.607935 0.915343 0.743679
0.623255 0.914092 0.746090
0.640253 0.912840 0.749172
0.656611 0.911589 0.751888
0.660670 0.910948 0.748074
0.664942 0.910155 0.743923
0.669337 0.909087 0.739376
