data/fiter_cube/12898295/1023040/file.cube
# Created by Adobe Lightroom plugin Export LUT (1.17.0)
# www.johnrellis.com/lightroom/exportlut.htm
# Preset: 经典婚礼摄影_02 云集
# Color profile: C:\Program Files (x86)\Common Files\Adobe\Color\Profiles\Recommended\AdobeRGB1998.icc
LUT_3D_SIZE 8
DOMAIN_MIN 0.000000 0.000000 0.000000
DOMAIN_MAX 0.903226 0.903226 0.903226
0.000000 0.000000 0.000000
0.117159 0.000000 0.010376
0.350256 0.000000 0.000000
0.618952 0.000000 0.000000
0.793912 0.000000 0.000000
0.920500 0.000000 0.000000
1.000000 0.211612 0.000000
1.000000 0.307073 0.066407
0.019898 0.092561 0.079072
0.081788 0.085756 0.078187
0.331975 0.100313 0.017517
0.600244 0.000000 0.000000
0.781064 0.000000 0.000000
0.905699 0.182040 0.000000
0.989746 0.266361 0.000000
1.000000 0.340703 0.076539
0.000000 0.258396 0.158358
0.070344 0.252171 0.149844
0.208255 0.237675 0.158785
0.565454 0.355444 0.118715
0.788418 0.385870 0.000000
0.906218 0.407141 0.000000
0.995422 0.441352 0.050965
1.000000 0.471839 0.181521
0.000000 0.449104 0.267369
0.096345 0.445075 0.269169
0.169497 0.422278 0.222507
0.422950 0.454231 0.299535
0.732692 0.591119 0.342077
0.905577 0.611444 0.296696
0.982696 0.603052 0.289799
1.000000 0.605158 0.297154
0.000000 0.626703 0.406409
0.158633 0.623133 0.407019
0.258579 0.607843 0.379492
0.345281 0.587884 0.338140
0.583612 0.606195 0.439612
0.789334 0.697169 0.509300
0.936370 0.733608 0.501122
1.000000 0.732479 0.488624
0.235203 0.746456 0.526513
0.294163 0.751644 0.536492
0.392645 0.741726 0.534630
0.416297 0.723781 0.483864
0.540795 0.711452 0.487098
0.709895 0.726009 0.583154
0.856596 0.797604 0.664118
0.975036 0.838956 0.674434
0.419928 0.850767 0.647303
0.448524 0.850309 0.651301
0.519738 0.841367 0.656092
0.549493 0.831357 0.633539
0.566644 0.816709 0.594232
0.700374 0.815732 0.636744
0.813504 0.826291 0.707485
0.913542 0.875029 0.776272
0.598535 0.940887 0.765225
0.611536 0.939452 0.766567
0.655818 0.935912 0.773526
0.700954 0.934020 0.777188
0.700069 0.919432 0.744594
0.730678 0.918853 0.735714
0.844938 0.923003 0.789273
0.914244 0.926085 0.832059
0.000000 0.002594 0.106630
0.094575 0.000000 0.098360
0.307958 0.000000 0.085908
0.572564 0.000000 0.072267
0.767300 0.000000 0.000000
0.895476 0.000000 0.000000
0.984497 0.211704 0.000000
1.000000 0.294835 0.000000
0.000000 0.090425 0.117220
0.098238 0.101595 0.118685
0.302770 0.092409 0.114809
0.568200 0.000000 0.092470
0.761746 0.000000 0.016175
0.888212 0.177462 0.000000
0.975341 0.262974 0.000000
1.000000 0.327611 0.009277
0.000000 0.254917 0.181308
0.105318 0.258244 0.190402
0.223117 0.247440 0.194156
0.561608 0.347295 0.175174
0.763546 0.367834 0.144594
0.884916 0.389593 0.128908
0.974395 0.419623 0.123507
1.000000 0.454200 0.148928
0.000000 0.438483 0.280186
0.100038 0.437781 0.284672
0.205386 0.423468 0.256901
0.404425 0.432471 0.306218
0.701259 0.558587 0.335088
0.876066 0.582330 0.302831
0.961883 0.580407 0.294194
1.000000 0.589227 0.300328
0.002441 0.621576 0.416938
0.155856 0.616724 0.415686
0.281956 0.601312 0.399603
0.334630 0.570092 0.341344
0.564843 0.586664 0.433814
0.776791 0.683375 0.502525
0.928344 0.723293 0.500206
1.000000 0.724117 0.490455
0.220615 0.737118 0.525200
0.268070 0.735256 0.526696
0.389441 0.726894 0.533043
0.416052 0.711116 0.485634
0.530968 0.701076 0.485054
0.705715 0.721035 0.585199
0.853483 0.793912 0.663386
0.971252 0.833310 0.670924
0.392065 0.839200 0.636378
0.414435 0.835538 0.635676
0.493172 0.828428 0.642145
0.542046 0.821012 0.628992
0.563134 0.808988 0.592859
0.690761 0.807248 0.629999
0.804013 0.816617 0.698634
0.906157 0.866392 0.766262
0.579889 0.934569 0.757473
0.595636 0.934112 0.760189
0.642756 0.931121 0.767788
0.696986 0.929320 0.775357
0.715358 0.926238 0.759396
0.737057 0.921691 0.743160
0.842313 0.920745 0.787991
0.910277 0.921935 0.828305
0.000000 0.000000 0.252811
0.014618 0.000000 0.246494
0.259831 0.000000 0.228733
0.534539 0.000000 0.221164
0.743801 0.000000 0.186893
0.886503 0.000000 0.206973
0.982940 0.195499 0.201389
1.000000 0.296574 0.182010
0.000000 0.088899 0.263737
0.021424 0.089784 0.259983
0.261723 0.076844 0.240330
0.527214 0.000000 0.229068
0.740627 0.000000 0.209110
0.879118 0.121248 0.219577
0.975738 0.256870 0.212772
1.000000 0.334417 0.197665
0.000000 0.251530 0.281834
0.000000 0.260563 0.282170
0.271061 0.283909 0.282261
0.534356 0.298802 0.283024
0.748989 0.338598 0.289128
0.876219 0.380774 0.288151
0.969055 0.418830 0.282628
1.000000 0.453101 0.273106
0.000000 0.461433 0.355047
0.000000 0.464118 0.358526
0.293645 0.465400 0.372198
0.445869 0.462501 0.390326
0.730892 0.577020 0.432898
0.868070 0.586023 0.422766
0.957763 0.589868 0.413123
1.000000 0.597498 0.404669
0.000000 0.630243 0.463264
0.113588 0.628717 0.465370
0.328801 0.620966 0.472938
0.403082 0.595209 0.429145
0.592920 0.607904 0.500084
0.793454 0.700343 0.560540
0.933745 0.732143 0.563470
1.000000 0.730648 0.553552
0.197177 0.742672 0.555016
0.257939 0.740871 0.557122
0.389349 0.732143 0.562188
0.474250 0.715724 0.544152
0.535760 0.698177 0.515709
0.708553 0.720790 0.610254
0.858122 0.797971 0.682460
0.975463 0.837278 0.695491
0.386877 0.845121 0.657496
0.413519 0.842130 0.657801
0.490974 0.833371 0.660761
0.576410 0.822416 0.662928
0.589929 0.808865 0.624018
0.693477 0.807065 0.646571
0.812100 0.822904 0.719905
0.917235 0.877623 0.785672
0.565850 0.936553 0.764767
0.577600 0.934478 0.764584
0.625360 0.930236 0.769894
0.704982 0.929534 0.788724
0.725917 0.925414 0.773465
0.747524 0.922179 0.757382
0.844663 0.922698 0.796719
0.914916 0.925841 0.838682
0.000000 0.000000 0.427527
0.000000 0.000000 0.424811
0.215305 0.000000 0.406409
0.461494 0.000000 0.389197
0.696956 0.000000 0.381598
0.853208 0.000000 0.363561
0.962219 0.000000 0.329320
1.000000 0.179660 0.321599
0.000000 0.075776 0.443214
0.000000 0.070954 0.438453
0.220890 0.000000 0.418860
0.465034 0.000000 0.399023
0.698360 0.000000 0.392920
0.848905 0.000000 0.369207
0.957458 0.000000 0.343023
1.000000 0.246708 0.332067
0.000000 0.241093 0.454780
0.000000 0.244968 0.454170
0.219028 0.245487 0.446906
0.468360 0.252964 0.426368
0.701045 0.266178 0.427253
0.850370 0.266789 0.405097
0.959991 0.377539 0.421912
1.000000 0.421820 0.401709
0.000000 0.440528 0.477394
0.000000 0.446571 0.478309
0.233890 0.464118 0.481422
0.488563 0.491188 0.488258
0.701076 0.519127 0.501823
0.838956 0.545647 0.509270
0.942229 0.569055 0.510185
1.000000 0.585229 0.500008
0.000000 0.651362 0.554376
0.000000 0.650660 0.552758
0.291752 0.642908 0.549950
0.506401 0.632105 0.559045
0.623621 0.629450 0.578271
0.818631 0.717708 0.631769
0.930053 0.732265 0.633265
1.000000 0.730098 0.618769
0.130922 0.760250 0.614313
0.228305 0.763546 0.620569
0.381872 0.752987 0.619806
0.537804 0.739101 0.627527
0.580560 0.715236 0.590204
0.727871 0.734981 0.660853
0.874632 0.811917 0.720638
0.983764 0.840635 0.729091
0.355200 0.851621 0.688350
0.389197 0.850645 0.690303
0.481849 0.845518 0.695430
0.592187 0.836912 0.704219
0.648463 0.823301 0.689052
0.703273 0.813962 0.679133
0.821592 0.829770 0.747677
0.928069 0.886412 0.803830
0.552422 0.943633 0.785641
0.568170 0.943114 0.787198
0.613336 0.939696 0.789975
0.685512 0.934569 0.798245
0.747494 0.927855 0.801877
0.765103 0.924041 0.781888
0.845640 0.924712 0.808286
0.919951 0.929717 0.852079
0.000000 0.000000 0.593774
0.000000 0.000000 0.591058
0.157931 0.000000 0.575799
0.409796 0.000000 0.553216
0.637568 0.000000 0.548791
0.811063 0.000000 0.534081
0.932921 0.000000 0.520531
1.000000 0.121248 0.495766
0.000000 0.043000 0.598962
0.000000 0.014557 0.597833
0.159548 0.000000 0.583459
0.410101 0.000000 0.557488
0.638483 0.000000 0.554040
0.809628 0.125948 0.540398
0.931579 0.154574 0.526238
1.000000 0.193545 0.500298
0.000000 0.220005 0.609155
0.000000 0.218692 0.608209
0.145357 0.210513 0.596704
0.417121 0.182284 0.577722
0.636042 0.225772 0.567742
0.799435 0.312383 0.554772
0.923796 0.318914 0.540459
1.000000 0.321447 0.510155
0.000000 0.419806 0.618280
0.000000 0.422766 0.617853
0.137942 0.431922 0.617853
0.431922 0.436408 0.613489
0.637446 0.458869 0.597650
0.795468 0.486458 0.590539
0.918975 0.480476 0.571679
1.000000 0.507774 0.557336
0.000000 0.603693 0.635950
0.000000 0.605951 0.635920
0.208194 0.610986 0.634241
0.457465 0.620874 0.634089
0.640986 0.637781 0.636591
0.796780 0.662013 0.650904
0.911254 0.681422 0.657099
1.000000 0.690700 0.649683
0.000000 0.752590 0.674678
0.000000 0.752316 0.674250
0.298894 0.749172 0.671473
0.491615 0.742000 0.670283
0.635981 0.727596 0.671565
0.734432 0.736110 0.697444
0.893858 0.818448 0.755856
0.987610 0.829862 0.755520
0.283574 0.857389 0.730831
0.322545 0.854948 0.730007
0.429572 0.848478 0.729641
0.554955 0.840482 0.732265
0.668513 0.830320 0.736965
0.701534 0.811673 0.705592
0.825132 0.830137 0.770413
0.938811 0.890379 0.817990
0.495033 0.942107 0.801907
0.511589 0.940764 0.801907
0.563775 0.936980 0.802792
0.649073 0.937621 0.812528
0.733242 0.931090 0.818997
0.782986 0.924041 0.811521
0.836515 0.922057 0.814633
0.920043 0.928191 0.861448
0.000000 0.000000 0.729427
0.000000 0.000000 0.726925
0.102358 0.000000 0.715236
0.393378 0.000000 0.698665
0.600244 0.000000 0.689967
0.768032 0.000000 0.673152
0.901030 0.215702 0.656245
1.000000 0.290715 0.652308
0.000000 0.000000 0.724147
0.000000 0.000000 0.721431
0.080385 0.000000 0.712154
0.387579 0.000000 0.696620
0.594324 0.000000 0.687129
0.763302 0.000000 0.671473
0.897429 0.264012 0.657008
1.000000 0.317937 0.653529
0.000000 0.187533 0.731685
0.000000 0.188388 0.728786
0.000000 0.175082 0.719936
0.390021 0.135714 0.710414
0.590051 0.016205 0.693507
0.760952 0.222019 0.680201
0.893248 0.394476 0.670344
1.000000 0.409827 0.665644
0.000000 0.401007 0.739742
0.000000 0.400580 0.738094
0.000000 0.397528 0.735195
0.396185 0.395972 0.730861
0.594202 0.380835 0.714168
0.763058 0.452003 0.702571
0.892546 0.531060 0.699062
1.000000 0.524773 0.687434
0.000000 0.578546 0.740078
0.000000 0.579614 0.739620
0.086793 0.582605 0.737667
0.396429 0.587488 0.735195
0.591180 0.588159 0.727901
0.750484 0.609522 0.716060
0.884062 0.632563 0.715023
0.996460 0.620325 0.697597
0.000000 0.717556 0.745815
0.000000 0.720027 0.747250
0.229313 0.721798 0.746242
0.443458 0.724971 0.744564
0.609064 0.731350 0.743038
0.755947 0.750912 0.750607
0.890318 0.779477 0.771267
0.987488 0.790555 0.772183
0.143740 0.858793 0.794522
0.222843 0.859251 0.795315
0.368688 0.856687 0.793729
0.519554 0.854032 0.792508
0.650782 0.849760 0.790829
0.760372 0.836454 0.788846
0.839384 0.840299 0.808408
0.963195 0.901732 0.850309
0.428473 0.950317 0.840452
0.448707 0.948852 0.839963
0.511833 0.944884 0.839200
0.601678 0.941527 0.840909
0.696132 0.936431 0.842496
0.790860 0.930419 0.848112
0.827848 0.923064 0.830472
0.925170 0.931090 0.880125
0.000000 0.000000 0.833829
0.000000 0.000000 0.832944
0.081239 0.000000 0.827634
0.389563 0.000000 0.818753
0.577600 0.000000 0.805783
0.743679 0.000000 0.797879
0.867887 0.000000 0.769802
0.979278 0.314824 0.756619
0.000000 0.000000 0.832547
0.000000 0.000000 0.831571
0.000000 0.000000 0.826352
0.382666 0.000000 0.817624
0.572900 0.000000 0.804196
0.739345 0.000000 0.795804
0.864561 0.000000 0.768460
0.976287 0.339818 0.755856
0.000000 0.153719 0.835966
0.000000 0.148806 0.834592
0.000000 0.124727 0.830259
0.369146 0.000000 0.821683
0.565911 0.000000 0.807706
0.733120 0.000000 0.797482
0.862425 0.215854 0.773922
0.974426 0.437934 0.765255
0.000000 0.358068 0.840421
0.000000 0.353674 0.838956
0.000000 0.340459 0.835782
0.344366 0.331731 0.827451
0.553552 0.306676 0.814328
0.720455 0.294774 0.800809
0.858274 0.420478 0.783597
0.970947 0.553002 0.779171
0.000000 0.553033 0.838132
0.000000 0.552117 0.837125
0.000000 0.548577 0.834684
0.307134 0.537957 0.830900
0.534874 0.525078 0.821500
0.701198 0.504387 0.804929
0.849729 0.578241 0.794278
0.968170 0.650263 0.795987
0.000000 0.703151 0.839872
0.000000 0.703120 0.839506
0.000000 0.702785 0.838010
0.359564 0.701930 0.835691
0.542535 0.701045 0.831876
0.702541 0.696956 0.824796
0.847105 0.721035 0.815946
0.969299 0.745388 0.818296
0.000000 0.821744 0.847868
0.000000 0.822019 0.847959
0.272618 0.822232 0.847105
0.441871 0.823209 0.845975
0.590539 0.825437 0.844022
0.726497 0.831876 0.843107
0.853269 0.848905 0.848936
0.971099 0.871855 0.864927
0.287449 0.946227 0.891722
0.321630 0.945769 0.891447
0.416968 0.945342 0.891600
0.531212 0.944060 0.890471
0.650507 0.943053 0.889128
0.764553 0.942321 0.889128
0.862181 0.935576 0.890135
0.934661 0.937438 0.908080
0.000000 0.000000 0.940490
0.000000 0.000000 0.940215
0.090791 0.000000 0.937621
0.405524 0.000000 0.933288
0.589746 0.000000 0.926024
0.738308 0.000000 0.915801
0.879667 0.000000 0.910674
0.970916 0.000000 0.870359
0.000000 0.000000 0.940398
0.000000 0.000000 0.940093
0.107210 0.000000 0.937682
0.404089 0.000000 0.933074
0.585260 0.000000 0.925597
0.735286 0.000000 0.915312
0.876982 0.000000 0.909667
0.969085 0.000000 0.869902
0.000000 0.103212 0.942626
0.000000 0.091188 0.942016
0.000000 0.000000 0.938903
0.379736 0.000000 0.934844
0.572107 0.000000 0.926970
0.727138 0.000000 0.916320
0.870939 0.000000 0.909697
0.966064 0.248631 0.872038
0.000000 0.300145 0.945220
0.000000 0.297307 0.944945
0.000000 0.298466 0.941894
0.329015 0.276890 0.937041
0.546349 0.242008 0.929595
0.712062 0.194339 0.919371
0.860014 0.229496 0.911101
0.961975 0.415961 0.877440
0.000000 0.526665 0.942596
0.000000 0.523400 0.942626
0.000000 0.509087 0.941527
0.184970 0.478340 0.939910
0.502525 0.471504 0.932158
0.685725 0.447517 0.922057
0.840208 0.445747 0.911589
0.955993 0.564172 0.885496
0.000000 0.693568 0.940764
0.000000 0.692164 0.940276
0.000000 0.687068 0.939055
0.218021 0.676905 0.937499
0.459998 0.661494 0.934936
0.662409 0.649195 0.928222
0.819089 0.630793 0.917266
0.951690 0.701991 0.899992
0.000000 0.822202 0.943542
0.000000 0.821592 0.943206
0.102785 0.819760 0.942199
0.349981 0.817472 0.940948
0.518700 0.814725 0.939025
0.665003 0.810971 0.936309
0.808042 0.802701 0.930144
0.947326 0.826017 0.918547
0.228733 0.924590 0.951690
0.263584 0.924498 0.951537
0.356573 0.924346 0.951049
0.473976 0.924834 0.950622
0.596094 0.926207 0.949859
0.716854 0.929442 0.948699
0.833310 0.935851 0.947539
0.952331 0.950622 0.950713
