data/fiter_cube/37639453/1023438/file.cube
# Created by Adobe Lightroom plugin Export LUT (1.17.0)
# www.johnrellis.com/lightroom/exportlut.htm
# Preset: 油管牛人_04 云集
# Color profile: C:\Program Files (x86)\Common Files\Adobe\Color\Profiles\Recommended\AdobeRGB1998.icc
LUT_3D_SIZE 5
DOMAIN_MIN 0.000000 0.000000 0.000000
DOMAIN_MAX 0.903226 0.903226 0.903226
0.028626 0.033387 0.048890
0.111299 0.051270 0.059937
0.411048 0.000000 0.028809
0.800198 0.000000 0.000000
0.979644 0.191653 0.000000
0.024659 0.107210 0.065431
0.101289 0.122621 0.066773
0.418128 0.141054 0.003052
0.799130 0.159915 0.000000
0.979400 0.306493 0.000000
0.000000 0.337499 0.036957
0.022980 0.343816 0.084291
0.359472 0.405066 0.000000
0.798123 0.499031 0.000000
0.971313 0.525658 0.000000
0.000000 0.681727 0.000000
0.000000 0.682979 0.000000
0.329686 0.643244 0.080964
0.701717 0.711025 0.000000
0.952636 0.751797 0.132479
0.000000 0.912993 0.171572
0.000000 0.910826 0.189090
0.486000 0.885466 0.380285
0.660273 0.859159 0.290776
0.895567 0.893950 0.377539
0.036072 0.048920 0.110597
0.119417 0.042145 0.125032
0.411872 0.000000 0.129732
0.787076 0.000000 0.134249
0.973968 0.192599 0.173831
0.006409 0.120455 0.126375
0.108583 0.132601 0.140963
0.415656 0.127718 0.144289
0.788876 0.121614 0.132204
0.972503 0.303868 0.178500
0.000000 0.360266 0.138125
0.000000 0.372168 0.144503
0.372503 0.409430 0.143191
0.793942 0.485451 0.122683
0.967010 0.526940 0.206180
0.000000 0.695369 0.152316
0.000000 0.697597 0.145937
0.357641 0.665064 0.204196
0.707362 0.714046 0.163088
0.949950 0.751766 0.280156
0.000000 0.915221 0.260380
0.000000 0.912810 0.275059
0.506096 0.890532 0.448402
0.669123 0.863371 0.366888
0.895109 0.894652 0.448066
0.000000 0.060945 0.294896
0.135439 0.003876 0.345800
0.509789 0.000000 0.404486
0.821714 0.000000 0.403784
0.964141 0.262119 0.448920
0.000000 0.133028 0.287236
0.080964 0.137697 0.339391
0.500206 0.023743 0.415259
0.808103 0.007904 0.413672
0.954070 0.393439 0.487800
0.000000 0.389105 0.362280
0.000000 0.408026 0.381720
0.443397 0.450507 0.446937
0.778256 0.484108 0.460456
0.949340 0.558953 0.504143
0.000000 0.736843 0.420966
0.000000 0.735744 0.427344
0.406317 0.724514 0.451423
0.724880 0.727474 0.467018
0.936858 0.760342 0.559442
0.000000 0.920989 0.472297
0.000000 0.918791 0.480171
0.444953 0.905577 0.515007
0.695644 0.871611 0.562890
0.890562 0.893523 0.600122
0.000000 0.035065 0.605676
0.161563 0.000000 0.642817
0.624537 0.000000 0.745907
0.838743 0.000000 0.715114
0.966369 0.368414 0.694392
0.000000 0.143801 0.591638
0.000000 0.139956 0.628962
0.590509 0.000000 0.734981
0.830472 0.169833 0.719265
0.958556 0.454231 0.705745
0.000000 0.348852 0.535424
0.000000 0.345006 0.543542
0.432471 0.408850 0.680842
0.800778 0.526390 0.734463
0.937560 0.627131 0.736263
0.000000 0.722744 0.674922
0.000000 0.726467 0.681209
0.403235 0.734798 0.705379
0.756283 0.756039 0.756069
0.915770 0.775662 0.764858
0.210727 0.926024 0.702327
0.364782 0.923949 0.712886
0.570642 0.912963 0.735073
0.733913 0.895537 0.752621
0.889372 0.895171 0.765927
0.198032 0.059388 0.860563
0.349126 0.000000 0.868376
0.632776 0.000000 0.892515
0.866484 0.252811 0.913909
0.957763 0.455360 0.866026
0.000000 0.184787 0.853208
0.291234 0.176883 0.861723
0.610376 0.195621 0.887266
0.859373 0.379309 0.911620
0.952758 0.520867 0.868772
0.000000 0.385412 0.814786
0.000000 0.377020 0.829129
0.493477 0.413428 0.865263
0.832792 0.596185 0.903868
0.940246 0.670130 0.879545
0.000000 0.684749 0.823789
0.000000 0.674464 0.822202
0.121523 0.629389 0.816831
0.722072 0.701503 0.871550
0.927306 0.810941 0.897734
0.000000 0.926635 0.873869
0.158724 0.924010 0.874479
0.480598 0.914366 0.877226
0.723629 0.901335 0.883696
0.906737 0.909667 0.909972
