data/fiter_cube/37639453/1023438/file.cube
# Created by Adobe Lightroom plugin Export LUT (1.17.0)
# www.johnrellis.com/lightroom/exportlut.htm
# Preset: 油管牛人_04 云集
# Color profile: C:\Program Files (x86)\Common Files\Adobe\Color\Profiles\Recommended\AdobeRGB1998.icc
LUT_3D_SIZE 32
DOMAIN_MIN 0.0 0.0 0.0
DOMAIN_MAX 1.0 1.0 1.0
0.028626 0.033387 0.048890
0.036225 0.034455 0.049470
0.045167 0.035279 0.050050
0.057740 0.038392 0.052003
0.068452 0.042115 0.053681
0.079469 0.046876 0.056794
0.093263 0.050111 0.059144
0.111299 0.051270 0.059937
0.134066 0.048341 0.060883
0.162539 0.039887 0.060792
0.197726 0.021576 0.060243
0.240482 0.000000 0.058808
0.291051 0.000000 0.053864
0.348638 0.000000 0.045716
0.411048 0.000000 0.028809
0.475685 0.000000 0.007141
0.539849 0.000000 0.000000
0.600793 0.000000 0.000000
0.659846 0.000000 0.000000
0.713039 0.000000 0.000000
0.759457 0.000000 0.000000
0.800198 0.000000 0.000000
0.835752 0.000000 0.000000
0.866850 0.000000 0.000000
0.894347 0.000000 0.000000
0.918761 0.000000 0.000000
0.940856 0.085756 0.000000
0.961028 0.146578 0.000000
0.979644 0.191653 0.000000
0.997070 0.231510 0.000000
1.000000 0.269780 0.044282
1.000000 0.308202 0.105959
0.028717 0.039155 0.050141
0.034974 0.040467 0.050752
0.045258 0.041077 0.051331
0.058106 0.042969 0.052522
0.068055 0.046906 0.055024
0.079133 0.050507 0.058137
0.093050 0.053712 0.059419
0.111116 0.054871 0.060243
0.133730 0.053040 0.060700
0.162081 0.046357 0.061036
0.197055 0.029694 0.060456
0.239536 0.000000 0.059083
0.289860 0.000000 0.054292
0.347082 0.000000 0.045258
0.409186 0.000000 0.029511
0.473640 0.000000 0.007843
0.537621 0.000000 0.000000
0.598322 0.000000 0.000000
0.657282 0.000000 0.000000
0.710231 0.000000 0.000000
0.756710 0.000000 0.000000
0.797513 0.000000 0.000000
0.833310 0.000000 0.000000
0.864714 0.000000 0.000000
0.892454 0.000000 0.000000
0.917144 0.000000 0.000000
0.939483 0.090852 0.000000
0.959838 0.149111 0.000000
0.978637 0.193210 0.000000
0.996185 0.232731 0.000000
1.000000 0.270603 0.037201
1.000000 0.308659 0.103365
0.029694 0.047974 0.051179
0.035645 0.048035 0.053498
0.043458 0.048829 0.053285
0.057923 0.050111 0.053651
0.068055 0.053071 0.055329
0.079194 0.055756 0.058503
0.093080 0.058808 0.059632
0.110872 0.059510 0.060456
0.133516 0.058473 0.060914
0.161715 0.052979 0.061219
0.196628 0.040955 0.060578
0.238956 0.011231 0.059144
0.289281 0.000000 0.054322
0.346410 0.000000 0.045258
0.408087 0.000000 0.029297
0.472663 0.000000 0.007446
0.536492 0.000000 0.000000
0.597314 0.000000 0.000000
0.656306 0.000000 0.000000
0.708888 0.000000 0.000000
0.755337 0.000000 0.000000
0.796231 0.000000 0.000000
0.832059 0.000000 0.000000
0.863615 0.000000 0.000000
0.891478 0.000000 0.000000
0.916258 0.000000 0.000000
0.938720 0.101656 0.000000
0.959167 0.155215 0.000000
0.978088 0.197635 0.000000
0.995697 0.236240 0.000000
1.000000 0.273350 0.031495
1.000000 0.310735 0.102174
0.030152 0.059419 0.055055
0.038178 0.059266 0.059266
0.043458 0.059388 0.059205
0.054902 0.060822 0.058930
0.067262 0.062806 0.058350
0.079103 0.063661 0.059327
0.093385 0.065248 0.059937
0.111421 0.065797 0.060761
0.134127 0.065705 0.061158
0.162142 0.063844 0.061372
0.196933 0.059174 0.060670
0.239139 0.040192 0.059022
0.289128 0.000000 0.053834
0.345922 0.000000 0.045258
0.407813 0.000000 0.027710
0.471931 0.000000 0.005463
0.535424 0.000000 0.000000
0.596185 0.000000 0.000000
0.655024 0.000000 0.000000
0.706935 0.000000 0.000000
0.753048 0.000000 0.000000
0.793820 0.000000 0.000000
0.830014 0.000000 0.000000
0.861967 0.000000 0.000000
0.890349 0.000000 0.000000
0.915587 0.051820 0.000000
0.938262 0.125277 0.000000
0.958862 0.170901 0.000000
0.977844 0.209476 0.000000
0.995422 0.245487 0.000000
1.000000 0.281041 0.031250
1.000000 0.316960 0.102052
0.032288 0.067781 0.059022
0.037873 0.068238 0.060670
0.044770 0.068177 0.062776
0.054231 0.068330 0.062623
0.065095 0.070832 0.061311
0.078004 0.073762 0.060609
0.093263 0.074525 0.060792
0.111818 0.075685 0.061097
0.134340 0.076692 0.061372
0.162417 0.076600 0.061433
0.197055 0.074861 0.060548
0.239261 0.068849 0.058717
0.289128 0.052216 0.053468
0.345739 0.000000 0.043977
0.407294 0.000000 0.026856
0.471534 0.000000 0.003449
0.535302 0.000000 0.000000
0.597070 0.000000 0.000000
0.655421 0.000000 0.000000
0.706691 0.000000 0.000000
0.752193 0.000000 0.000000
0.792844 0.000000 0.000000
0.828946 0.000000 0.000000
0.860990 0.000000 0.000000
0.889433 0.003723 0.000000
0.914763 0.108919 0.000000
0.937530 0.154025 0.000000
0.958190 0.191257 0.000000
0.977173 0.225925 0.000000
0.994751 0.259281 0.000000
1.000000 0.292393 0.028626
1.000000 0.326696 0.101289
0.031678 0.077790 0.061524
0.035218 0.078309 0.061860
0.043305 0.078553 0.063905
0.054505 0.078553 0.065431
0.063172 0.079500 0.065187
0.074372 0.083406 0.063569
0.091279 0.088380 0.061921
0.110689 0.090089 0.062074
0.135073 0.092012 0.061677
0.163394 0.093263 0.061555
0.198398 0.093935 0.060304
0.240635 0.091676 0.058534
0.290379 0.085512 0.051637
0.346990 0.070985 0.040467
0.408667 0.024048 0.021759
0.472694 0.000000 0.000000
0.536461 0.000000 0.000000
0.599115 0.000000 0.000000
0.656397 0.000000 0.000000
0.707362 0.000000 0.000000
0.752743 0.000000 0.000000
0.793362 0.000000 0.000000
0.843656 0.011566 0.000000
0.873655 0.098116 0.000000
0.900145 0.137484 0.000000
0.923674 0.170840 0.000000
0.944915 0.201450 0.000000
0.964233 0.230594 0.000000
0.982116 0.259373 0.000000
0.998871 0.288273 0.000000
1.000000 0.318029 0.068238
1.000000 0.349432 0.117098
0.029969 0.091066 0.063416
0.032349 0.091554 0.063325
0.039124 0.092134 0.064912
0.053254 0.092866 0.068177
0.062715 0.092714 0.068025
0.071962 0.094820 0.067140
0.086305 0.101137 0.065492
0.109041 0.109407 0.062837
0.134218 0.112459 0.062135
0.166049 0.115541 0.060945
0.203403 0.117769 0.059510
0.246860 0.118227 0.054932
0.297704 0.115908 0.048249
0.354803 0.109438 0.033722
0.416480 0.097444 0.013977
0.479805 0.079438 0.000000
0.543450 0.047303 0.000000
0.606928 0.000000 0.000000
0.663539 0.000000 0.000000
0.714015 0.000000 0.000000
0.759670 0.048005 0.000000
0.800748 0.089387 0.000000
0.837156 0.121248 0.000000
0.869200 0.151522 0.000000
0.897215 0.179446 0.000000
0.921569 0.206119 0.000000
0.943206 0.231296 0.000000
0.962768 0.256352 0.000000
0.980804 0.281559 0.000000
0.997589 0.307561 0.000000
1.000000 0.334752 0.065461
1.000000 0.363958 0.116640
0.024659 0.107210 0.065431
0.027283 0.107607 0.064942
0.031830 0.108400 0.065187
0.048219 0.109438 0.069154
0.061097 0.109926 0.070436
0.070069 0.109865 0.070222
0.082338 0.114107 0.069215
0.101289 0.122621 0.066773
0.130190 0.134829 0.062531
0.161898 0.139315 0.060548
0.200717 0.143740 0.058350
0.248173 0.146914 0.050935
0.299565 0.147494 0.041657
0.356603 0.145632 0.025940
0.418128 0.141054 0.003052
0.481025 0.133791 0.000000
0.546502 0.127291 0.000000
0.608301 0.123049 0.000000
0.663722 0.123873 0.000000
0.713436 0.130404 0.000000
0.758511 0.142855 0.000000
0.799130 0.159915 0.000000
0.835416 0.179141 0.000000
0.867308 0.200259 0.000000
0.895384 0.221164 0.000000
0.919829 0.242344 0.000000
0.941558 0.263218 0.000000
0.961273 0.284306 0.000000
0.979400 0.306493 0.000000
0.996307 0.329412 0.000000
1.000000 0.354376 0.064698
1.000000 0.381292 0.117006
0.016419 0.127657 0.066529
0.018647 0.128176 0.066407
0.022034 0.128878 0.066255
0.036469 0.130159 0.069001
0.058015 0.131533 0.073304
0.068116 0.131228 0.073121
0.079469 0.130678 0.072938
0.095918 0.138308 0.070741
0.119997 0.149020 0.067109
0.156374 0.165682 0.060273
0.195773 0.172244 0.055604
0.242832 0.177707 0.047822
0.298711 0.181613 0.032471
0.359960 0.183200 0.012360
0.421057 0.182376 0.000000
0.486122 0.181216 0.000000
0.550530 0.179995 0.000000
0.610742 0.181308 0.000000
0.664851 0.184817 0.000000
0.713771 0.191440 0.000000
0.758267 0.201480 0.000000
0.798581 0.214206 0.000000
0.834409 0.229526 0.000000
0.866178 0.245701 0.000000
0.894072 0.262547 0.000000
0.918486 0.279362 0.000000
0.940246 0.296971 0.000000
0.959991 0.314885 0.000000
0.978119 0.334020 0.000000
0.995056 0.354253 0.000000
1.000000 0.376501 0.065064
1.000000 0.401129 0.118379
0.000000 0.152499 0.067262
0.003296 0.153048 0.067109
0.006561 0.153780 0.066926
0.017395 0.155093 0.068482
0.044800 0.156893 0.074434
0.064332 0.156771 0.076265
0.077424 0.155795 0.075471
0.091798 0.155428 0.074739
0.113375 0.166934 0.071473
0.143008 0.180453 0.066468
0.187503 0.199924 0.054261
0.236271 0.209659 0.039796
0.291814 0.216037 0.023072
0.354498 0.221042 0.000580
0.424994 0.225376 0.000000
0.492103 0.227451 0.000000
0.555474 0.230076 0.000000
0.614801 0.233616 0.000000
0.667781 0.238407 0.000000
0.715633 0.245121 0.000000
0.759182 0.253696 0.000000
0.798337 0.264408 0.000000
0.833402 0.275944 0.000000
0.864530 0.288609 0.000000
0.892119 0.302342 0.000000
0.916564 0.316350 0.000000
0.938476 0.330785 0.000000
0.958373 0.346197 0.000000
0.976715 0.362890 0.000000
0.993805 0.380926 0.000000
1.000000 0.401038 0.068147
1.000000 0.423438 0.121279
0.000000 0.181094 0.067597
0.000000 0.181430 0.067079
0.000000 0.182284 0.066835
0.000000 0.183627 0.066773
0.016724 0.185397 0.072816
0.055451 0.186831 0.078920
0.073518 0.185428 0.078218
0.089845 0.183780 0.077516
0.107912 0.186191 0.075990
0.135378 0.200381 0.070985
0.171603 0.216403 0.063294
0.224674 0.238560 0.039582
0.284581 0.252384 0.008881
0.349035 0.260777 0.000000
0.418616 0.267796 0.000000
0.490364 0.273625 0.000000
0.559014 0.278691 0.000000
0.617182 0.283604 0.000000
0.669184 0.288731 0.000000
0.716335 0.294713 0.000000
0.759152 0.302678 0.000000
0.797910 0.311467 0.000000
0.832700 0.321508 0.000000
0.863615 0.331945 0.000000
0.891020 0.342962 0.000000
0.915343 0.354345 0.000000
0.937102 0.366339 0.000000
0.956970 0.379065 0.000000
0.975311 0.393164 0.000000
0.992370 0.409003 0.000000
1.000000 0.426703 0.071229
1.000000 0.447028 0.124727
0.000000 0.214084 0.065949
0.000000 0.214572 0.065797
0.000000 0.215274 0.065522
0.000000 0.216403 0.064240
0.000000 0.218387 0.070008
0.025757 0.220371 0.079042
0.065644 0.219455 0.080781
0.085969 0.217380 0.079896
0.105013 0.214847 0.078981
0.128176 0.221469 0.075837
0.162295 0.238010 0.068666
0.207218 0.257633 0.055787
0.279301 0.289952 0.004761
0.356542 0.311620 0.000000
0.428504 0.321050 0.000000
0.500969 0.329381 0.000000
0.570764 0.337163 0.000000
0.634455 0.344945 0.000000
0.686183 0.349950 0.000000
0.730434 0.354711 0.000000
0.770840 0.360479 0.000000
0.807126 0.366796 0.000000
0.839780 0.373754 0.000000
0.868986 0.381598 0.000000
0.895018 0.389532 0.000000
0.918303 0.397925 0.000000
0.939300 0.407172 0.000000
0.958434 0.417304 0.000000
0.976226 0.428656 0.000000
0.992889 0.441810 0.000000
1.000000 0.457252 0.085176
1.000000 0.475349 0.135988
0.000000 0.253849 0.062348
0.000000 0.254276 0.062135
0.000000 0.254673 0.061494
0.000000 0.255680 0.060090
0.000000 0.257145 0.063935
0.000000 0.258732 0.074556
0.043732 0.259312 0.082856
0.078645 0.256382 0.081697
0.102327 0.253117 0.080507
0.124422 0.249912 0.079377
0.155795 0.263767 0.073487
0.199619 0.285222 0.062409
0.256321 0.308721 0.028107
0.327214 0.333440 0.000000
0.415930 0.362066 0.000000
0.489387 0.372381 0.000000
0.559289 0.381506 0.000000
0.623407 0.390082 0.000000
0.679805 0.396857 0.000000
0.729793 0.402716 0.000000
0.769650 0.407019 0.000000
0.805600 0.411810 0.000000
0.837949 0.416999 0.000000
0.866972 0.422522 0.000000
0.892943 0.428687 0.000000
0.916167 0.435096 0.000000
0.937194 0.442329 0.000000
0.956451 0.450477 0.000000
0.974273 0.459937 0.000000
0.991058 0.471199 0.000000
1.000000 0.484627 0.089204
1.000000 0.500755 0.140566
0.000000 0.293889 0.055604
0.000000 0.294163 0.054475
0.000000 0.294560 0.052369
0.000000 0.295567 0.049561
0.000000 0.296696 0.051240
0.000000 0.298222 0.067323
0.000000 0.299870 0.082124
0.065187 0.297856 0.083436
0.096345 0.294926 0.081910
0.123018 0.291356 0.080415
0.147982 0.287327 0.078767
0.188846 0.308354 0.068452
0.241245 0.331731 0.046082
0.306218 0.356664 0.000000
0.382605 0.382238 0.000000
0.475929 0.414130 0.000000
0.546563 0.424262 0.000000
0.611505 0.433539 0.000000
0.669123 0.440711 0.000000
0.720119 0.446998 0.000000
0.765866 0.452308 0.000000
0.804349 0.456611 0.000000
0.836484 0.459998 0.000000
0.865385 0.464027 0.000000
0.891264 0.468330 0.000000
0.914458 0.472908 0.000000
0.935454 0.478279 0.000000
0.954711 0.484504 0.000000
0.972595 0.492195 0.000000
0.989380 0.501701 0.000000
1.000000 0.513268 0.096284
1.000000 0.527642 0.147219
0.000000 0.337499 0.036957
0.000000 0.337835 0.035248
0.000000 0.338293 0.032288
0.000000 0.339330 0.027161
0.000000 0.340887 0.019928
0.000000 0.342412 0.052186
0.000000 0.344091 0.073121
0.022980 0.343816 0.084291
0.086091 0.340185 0.082887
0.119600 0.335760 0.080934
0.148470 0.330632 0.078645
0.178683 0.331151 0.074800
0.227909 0.354345 0.059693
0.288273 0.379339 0.010895
0.359472 0.405066 0.000000
0.438788 0.430976 0.000000
0.533043 0.465705 0.000000
0.599084 0.475532 0.000000
0.658076 0.483162 0.000000
0.710292 0.489418 0.000000
0.756863 0.494484 0.000000
0.798123 0.499031 0.000000
0.834409 0.502770 0.000000
0.863767 0.505119 0.000000
0.889555 0.507591 0.000000
0.912779 0.510613 0.000000
0.933867 0.514549 0.000000
0.953307 0.519371 0.000000
0.971313 0.525658 0.000000
0.988220 0.533654 0.017334
1.000000 0.543816 0.108370
1.000000 0.556756 0.159243
0.000000 0.386175 0.006165
0.000000 0.386603 0.005249
0.000000 0.386938 0.001282
0.000000 0.387915 0.000000
0.000000 0.388983 0.000000
0.000000 0.390448 0.012055
0.000000 0.391852 0.058228
0.000000 0.393378 0.082887
0.069337 0.389624 0.083467
0.113527 0.384314 0.081239
0.147829 0.378058 0.078462
0.178225 0.371283 0.075898
0.215732 0.377081 0.067689
0.272038 0.401251 0.033967
0.338140 0.426307 0.000000
0.412696 0.451972 0.000000
0.492561 0.477882 0.000000
0.585107 0.515312 0.000000
0.646265 0.523949 0.000000
0.700435 0.530694 0.000000
0.748226 0.535973 0.000000
0.790677 0.540246 0.000000
0.827970 0.543633 0.000000
0.860746 0.546166 0.000000
0.888823 0.548058 0.000000
0.911894 0.549432 0.000000
0.932921 0.551629 0.000000
0.952239 0.554925 0.000000
0.970153 0.559533 0.000000
0.986938 0.565789 0.057038
1.000000 0.574060 0.121035
1.000000 0.585229 0.170382
0.000000 0.434791 0.000000
0.000000 0.434913 0.000000
0.000000 0.435370 0.000000
0.000000 0.435920 0.000000
0.000000 0.436805 0.000000
0.000000 0.437934 0.000000
0.000000 0.438849 0.014618
0.000000 0.439948 0.068818
0.018311 0.438087 0.084169
0.103578 0.432288 0.081544
0.144930 0.425666 0.078706
0.179721 0.418036 0.075288
0.211032 0.409522 0.071809
0.257389 0.422522 0.055909
0.319554 0.447303 0.000000
0.389502 0.472480 0.000000
0.465553 0.497841 0.000000
0.543908 0.523796 0.000000
0.631769 0.561181 0.000000
0.688930 0.569787 0.000000
0.738369 0.575219 0.000000
0.781765 0.579126 0.000000
0.820066 0.582086 0.000000
0.853788 0.584253 0.000000
0.883421 0.585748 0.000000
0.909422 0.586877 0.000000
0.931243 0.587823 0.000000
0.950561 0.589563 0.000000
0.968505 0.592706 0.000000
0.985290 0.597498 0.078035
1.000000 0.604334 0.134371
1.000000 0.613855 0.183169
0.000000 0.484108 0.000000
0.000000 0.484443 0.000000
0.000000 0.495552 0.000000
0.000000 0.495918 0.000000
0.000000 0.496407 0.000000
0.000000 0.496925 0.000000
0.000000 0.497322 0.000000
0.000000 0.497475 0.032532
0.000000 0.497200 0.085267
0.093782 0.490761 0.082795
0.145327 0.483314 0.078981
0.185641 0.474739 0.074952
0.220645 0.465034 0.070375
0.252232 0.453986 0.065156
0.309483 0.474952 0.021912
0.376837 0.499611 0.000000
0.449866 0.524590 0.000000
0.525261 0.549676 0.000000
0.598749 0.574212 0.000000
0.678767 0.607904 0.000000
0.731868 0.616907 0.000000
0.776150 0.620264 0.000000
0.814847 0.622339 0.000000
0.848875 0.623529 0.000000
0.878630 0.623865 0.000000
0.904814 0.623926 0.000000
0.928130 0.623896 0.000000
0.949065 0.624292 0.000000
0.966796 0.625757 0.000000
0.983551 0.628992 0.095583
0.999451 0.634333 0.148836
1.000000 0.642329 0.197086
0.000000 0.536614 0.000000
0.000000 0.538231 0.000000
0.000000 0.539971 0.000000
0.000000 0.541650 0.000000
0.000000 0.543145 0.000000
0.000000 0.544030 0.000000
0.000000 0.544366 0.000000
0.000000 0.544244 0.000000
0.000000 0.543938 0.068330
0.076143 0.540002 0.087007
0.141024 0.532311 0.082155
0.186587 0.523857 0.077058
0.225315 0.514153 0.071351
0.259617 0.503014 0.063813
0.294713 0.495705 0.049714
0.359106 0.519890 0.000000
0.429114 0.544427 0.000000
0.501640 0.568658 0.000000
0.573053 0.592126 0.000000
0.641444 0.614984 0.000000
0.715389 0.646082 0.000000
0.765835 0.656062 0.000000
0.806210 0.658015 0.000000
0.841428 0.658991 0.000000
0.872038 0.658991 0.000000
0.899046 0.658564 0.000000
0.923033 0.657954 0.000000
0.944640 0.657679 0.000000
0.964324 0.658381 0.028016
0.981781 0.660212 0.115602
0.997650 0.664149 0.165316
1.000000 0.670771 0.213107
0.000000 0.585412 0.000000
0.000000 0.586999 0.000000
0.000000 0.588464 0.000000
0.000000 0.589868 0.000000
0.000000 0.591150 0.000000
0.000000 0.591882 0.000000
0.000000 0.592065 0.000000
0.000000 0.591791 0.000000
0.000000 0.591150 0.029358
0.050690 0.589502 0.094087
0.137728 0.582422 0.088746
0.189181 0.574090 0.082277
0.231449 0.564477 0.074403
0.268742 0.553704 0.066407
0.302190 0.541497 0.055573
0.344884 0.541741 0.016938
0.412329 0.565637 0.000000
0.482216 0.588769 0.000000
0.551202 0.611170 0.000000
0.617853 0.632990 0.000000
0.681422 0.653895 0.000000
0.749569 0.682429 0.000000
0.797116 0.692775 0.000000
0.833585 0.693507 0.000000
0.865446 0.692988 0.000000
0.893095 0.691951 0.000000
0.917693 0.690700 0.000000
0.939757 0.689876 0.000000
0.959899 0.689754 0.074556
0.978363 0.690761 0.135134
0.995605 0.693355 0.182010
1.000000 0.698573 0.229740
0.000000 0.632715 0.000000
0.000000 0.633936 0.000000
0.000000 0.635340 0.000000
0.000000 0.636530 0.000000
0.000000 0.637507 0.000000
0.000000 0.638117 0.000000
0.000000 0.638148 0.000000
0.000000 0.637629 0.000000
0.000000 0.636591 0.000000
0.000000 0.635065 0.084413
0.136751 0.630213 0.101106
0.192813 0.622339 0.093782
0.238437 0.613367 0.084413
0.278477 0.603388 0.075105
0.314519 0.592157 0.062867
0.347265 0.579797 0.038331
0.399176 0.588128 0.000000
0.466835 0.610651 0.000000
0.534356 0.632624 0.000000
0.599725 0.653712 0.000000
0.662165 0.674067 0.000000
0.721309 0.693446 0.000000
0.784268 0.719234 0.000000
0.828367 0.729335 0.000000
0.861082 0.728634 0.000000
0.889586 0.726986 0.000000
0.914549 0.725154 0.000000
0.936919 0.723598 0.000000
0.957214 0.722713 0.113069
0.975830 0.723018 0.164218
0.993103 0.724849 0.210330
1.000000 0.728847 0.257816
0.000000 0.681727 0.000000
0.000000 0.682368 0.000000
0.000000 0.682734 0.000000
0.000000 0.683192 0.000000
0.000000 0.683528 0.000000
0.000000 0.683650 0.000000
0.000000 0.683619 0.000000
0.000000 0.682979 0.000000
0.000000 0.681971 0.000000
0.000000 0.680446 0.077028
0.143557 0.677729 0.122774
0.202304 0.670741 0.114443
0.249729 0.662715 0.105013
0.291814 0.653376 0.093507
0.329686 0.643244 0.080964
0.364416 0.631708 0.063783
0.396216 0.619348 0.030396
0.455756 0.634455 0.000000
0.520653 0.654810 0.000000
0.583886 0.674434 0.000000
0.644312 0.693233 0.000000
0.701717 0.711025 0.000000
0.755612 0.727779 0.000000
0.811154 0.748562 0.000000
0.853635 0.759640 0.000000
0.882994 0.757778 0.000000
0.908904 0.755428 0.000000
0.931914 0.753323 0.060517
0.952636 0.751797 0.132479
0.971618 0.751339 0.182620
0.989166 0.752407 0.229587
1.000000 0.755642 0.277745
0.000000 0.722896 0.000000
0.000000 0.723476 0.000000
0.000000 0.723934 0.000000
0.000000 0.724239 0.000000
0.000000 0.724422 0.000000
0.000000 0.724392 0.000000
0.000000 0.724208 0.000000
0.000000 0.723445 0.000000
0.000000 0.722255 0.000000
0.000000 0.720455 0.074922
0.131350 0.717861 0.127840
0.212894 0.712490 0.139406
0.260533 0.705379 0.129976
0.303593 0.697139 0.118868
0.342687 0.687984 0.105776
0.378882 0.677943 0.091310
0.412238 0.666896 0.072389
0.444862 0.656916 0.037171
0.508232 0.676112 0.000000
0.569604 0.694667 0.000000
0.628565 0.712367 0.000000
0.684779 0.729122 0.000000
0.737606 0.744808 0.000000
0.786984 0.759365 0.000000
0.834195 0.773953 0.000000
0.875547 0.786374 0.000000
0.902434 0.783688 0.000000
0.926238 0.781125 0.086030
0.947570 0.778988 0.147463
0.966949 0.777920 0.198703
0.984863 0.778408 0.247074
1.000000 0.780850 0.296574
0.000000 0.764401 0.000000
0.000000 0.764950 0.000000
0.000000 0.765286 0.000000
0.000000 0.765316 0.000000
0.000000 0.765255 0.000000
0.000000 0.764889 0.000000
0.000000 0.764340 0.000000
0.000000 0.763455 0.000000
0.000000 0.761776 0.000000
0.000000 0.759518 0.083558
0.119753 0.756344 0.135836
0.229709 0.752163 0.171267
0.276219 0.745418 0.161105
0.318181 0.737942 0.149935
0.356909 0.729458 0.137179
0.393072 0.720150 0.122744
0.426642 0.710140 0.106416
0.458045 0.699550 0.086336
0.496559 0.696590 0.065034
0.556329 0.713924 0.043153
0.613977 0.730556 0.013519
0.668727 0.746212 0.000000
0.720333 0.760678 0.000000
0.768551 0.773983 0.000000
0.813382 0.786038 0.000000
0.856077 0.798123 0.000000
0.896452 0.811490 0.020478
0.920836 0.808377 0.117739
0.942718 0.805661 0.167819
0.962585 0.803830 0.214969
0.980743 0.803525 0.264805
0.997681 0.805295 0.316136
0.000000 0.798856 0.000000
0.000000 0.799344 0.000000
0.000000 0.799557 0.000000
0.000000 0.799619 0.000000
0.000000 0.799496 0.000000
0.000000 0.799161 0.000000
0.000000 0.798672 0.000000
0.000000 0.798032 0.000000
0.000000 0.796384 0.000000
0.000000 0.794247 0.099611
0.112123 0.791348 0.149050
0.237186 0.787503 0.191440
0.296757 0.782071 0.197971
0.337011 0.775723 0.187320
0.374945 0.768551 0.175051
0.410590 0.760616 0.160952
0.444190 0.752102 0.145907
0.475898 0.742916 0.128481
0.505608 0.733394 0.108797
0.548913 0.736660 0.096498
0.604700 0.751797 0.095064
0.657893 0.766018 0.095735
0.708003 0.779202 0.098177
0.754971 0.791226 0.103517
0.798734 0.802182 0.110201
0.839353 0.812100 0.118624
0.877043 0.821195 0.128939
0.915404 0.834165 0.149355
0.938354 0.831968 0.194278
0.958648 0.829679 0.239384
0.977203 0.828580 0.286259
0.994324 0.829709 0.339391
0.000000 0.831479 0.000000
0.000000 0.831693 0.000000
0.000000 0.831815 0.000000
0.000000 0.831724 0.000000
0.000000 0.831388 0.000000
0.000000 0.830991 0.000000
0.000000 0.830442 0.000000
0.000000 0.829709 0.000000
0.000000 0.828122 0.057221
0.000000 0.825986 0.122072
0.117983 0.823026 0.168460
0.243107 0.819364 0.209598
0.322148 0.814633 0.239719
0.359625 0.809262 0.229099
0.395300 0.803281 0.217380
0.429328 0.796567 0.204105
0.461799 0.789303 0.189425
0.492866 0.781552 0.173373
0.522393 0.773495 0.156039
0.550683 0.765103 0.136416
0.597559 0.772976 0.133791
0.649042 0.785733 0.139132
0.697597 0.797574 0.145846
0.743252 0.808347 0.154147
0.785794 0.818143 0.163485
0.825406 0.827085 0.173678
0.862272 0.835294 0.184543
0.896574 0.842863 0.196292
0.932158 0.854612 0.219852
0.953948 0.853605 0.261326
0.972839 0.851926 0.307866
0.990417 0.852262 0.359350
0.000000 0.860288 0.069123
0.000000 0.860410 0.068757
0.000000 0.860441 0.068452
0.000000 0.860380 0.068086
0.000000 0.860166 0.066102
0.000000 0.859983 0.065248
0.000000 0.859800 0.064729
0.000000 0.859556 0.066499
0.000000 0.858640 0.106844
0.000000 0.856962 0.156222
0.147158 0.854551 0.199283
0.263523 0.851286 0.240177
0.349554 0.846983 0.280430
0.395026 0.842618 0.284459
0.427314 0.837888 0.273259
0.458289 0.832609 0.260655
0.488594 0.826810 0.246769
0.517845 0.820645 0.231724
0.546471 0.814176 0.216007
0.574151 0.807492 0.198581
0.600946 0.800443 0.179873
0.649317 0.810758 0.187808
0.695674 0.820706 0.197513
0.739193 0.829892 0.208408
0.779843 0.838254 0.220066
0.817716 0.845914 0.232456
0.853086 0.853025 0.245426
0.886107 0.859648 0.258518
0.916899 0.865782 0.271916
0.949645 0.876371 0.298894
0.970001 0.876677 0.341680
0.987579 0.876402 0.394110
0.000000 0.889433 0.128115
0.000000 0.889464 0.127962
0.000000 0.889433 0.128603
0.000000 0.889220 0.128511
0.000000 0.888914 0.129549
0.000000 0.888518 0.130831
0.000000 0.887999 0.132815
0.000000 0.887388 0.136385
0.000000 0.886351 0.153384
0.000000 0.884154 0.194461
0.183352 0.881254 0.233768
0.287785 0.877623 0.272923
0.369482 0.873198 0.312230
0.429725 0.868498 0.339178
