data/fiter_cube/37639453/1023438/file.cube
# Created by Adobe Lightroom plugin Export LUT (1.17.0)
# www.johnrellis.com/lightroom/exportlut.htm
# Preset: 油管牛人_04 云集
# Color profile: C:\Program Files (x86)\Common Files\Adobe\Color\Profiles\Recommended\AdobeRGB1998.icc
LUT_3D_SIZE 8
DOMAIN_MIN 0.000000 0.000000 0.000000
DOMAIN_MAX 0.903226 0.903226 0.903226
0.028626 0.033387 0.048890
0.068452 0.042115 0.053681
0.134066 0.048341 0.060883
0.291051 0.000000 0.053864
0.539849 0.000000 0.000000
0.759457 0.000000 0.000000
0.894347 0.000000 0.000000
0.979644 0.191653 0.000000
0.032288 0.067781 0.059022
0.065095 0.070832 0.061311
0.134340 0.076692 0.061372
0.289128 0.052216 0.053468
0.535302 0.000000 0.000000
0.752193 0.000000 0.000000
0.889433 0.003723 0.000000
0.977173 0.225925 0.000000
0.016419 0.127657 0.066529
0.058015 0.131533 0.073304
0.119997 0.149020 0.067109
0.298711 0.181613 0.032471
0.550530 0.179995 0.000000
0.758267 0.201480 0.000000
0.894072 0.262547 0.000000
0.978119 0.334020 0.000000
0.000000 0.253849 0.062348
0.000000 0.257145 0.063935
0.102327 0.253117 0.080507
0.256321 0.308721 0.028107
0.559289 0.381506 0.000000
0.769650 0.407019 0.000000
0.892943 0.428687 0.000000
0.974273 0.459937 0.000000
0.000000 0.434791 0.000000
0.000000 0.436805 0.000000
0.018311 0.438087 0.084169
0.211032 0.409522 0.071809
0.465553 0.497841 0.000000
0.738369 0.575219 0.000000
0.883421 0.585748 0.000000
0.968505 0.592706 0.000000
0.000000 0.632715 0.000000
0.000000 0.637507 0.000000
0.000000 0.636591 0.000000
0.238437 0.613367 0.084413
0.399176 0.588128 0.000000
0.662165 0.674067 0.000000
0.861082 0.728634 0.000000
0.957214 0.722713 0.113069
0.000000 0.798856 0.000000
0.000000 0.799496 0.000000
0.000000 0.796384 0.000000
0.296757 0.782071 0.197971
0.444190 0.752102 0.145907
0.604700 0.751797 0.095064
0.798734 0.802182 0.110201
0.938354 0.831968 0.194278
0.000000 0.912993 0.171572
0.000000 0.912413 0.175479
0.000000 0.909941 0.197543
0.396765 0.896880 0.350805
0.535180 0.878752 0.358312
0.635431 0.863279 0.305791
0.769436 0.872953 0.317205
0.895567 0.893950 0.377539
0.035431 0.040711 0.075593
0.068391 0.042329 0.077760
0.132906 0.045594 0.080934
0.284306 0.000000 0.085817
0.529686 0.000000 0.069398
0.746914 0.000000 0.000000
0.886534 0.000000 0.000000
0.975402 0.184756 0.050629
0.031403 0.070863 0.079225
0.065736 0.072633 0.083375
0.132784 0.078492 0.086763
0.286412 0.054353 0.086000
0.530083 0.000000 0.067414
0.744381 0.000000 0.000000
0.883116 0.000000 0.000000
0.972869 0.219303 0.032563
0.018982 0.131319 0.084382
0.054261 0.137636 0.089296
0.123598 0.152834 0.091646
0.298741 0.178073 0.083375
0.541680 0.172030 0.048859
0.748745 0.187808 0.000000
0.885100 0.249149 0.000000
0.973175 0.327123 0.047822
0.000000 0.257755 0.088899
0.000000 0.262608 0.089174
0.107790 0.263615 0.105745
0.256077 0.305852 0.083772
0.543450 0.366064 0.000000
0.754452 0.390570 0.000000
0.883787 0.416724 0.000000
0.969543 0.453864 0.059602
0.000000 0.440711 0.071626
0.000000 0.441962 0.065217
0.006775 0.445045 0.112306
0.216556 0.414435 0.103090
0.461067 0.492103 0.000000
0.732723 0.567193 0.000000
0.879728 0.580011 0.000000
0.965362 0.589471 0.099092
0.000000 0.633051 0.000000
0.000000 0.633997 0.000000
0.000000 0.634363 0.051545
0.241672 0.614984 0.125673
0.398016 0.585840 0.084535
0.662379 0.673304 0.000000
0.859678 0.726131 0.000000
0.955169 0.720699 0.166201
0.000000 0.795804 0.062348
0.000000 0.794949 0.041749
0.000000 0.793423 0.035981
0.299413 0.781399 0.226535
0.445991 0.752590 0.177493
0.601953 0.748959 0.133791
0.796048 0.799374 0.151827
0.935576 0.829038 0.224063
0.000000 0.911589 0.197024
0.000000 0.911345 0.201236
0.000000 0.909117 0.221103
0.385504 0.897063 0.354284
0.545159 0.881224 0.388067
0.639094 0.864866 0.330510
0.768582 0.872129 0.334661
0.894194 0.892882 0.393744
0.030823 0.051423 0.128267
0.067201 0.050294 0.137240
0.149294 0.027497 0.149722
0.320775 0.000000 0.157076
0.545251 0.000000 0.153170
0.749783 0.000000 0.169619
0.887602 0.000000 0.180240
0.974548 0.204929 0.213901
0.025757 0.076295 0.131594
0.061585 0.076600 0.141268
0.146334 0.074891 0.153902
0.311620 0.000000 0.159548
0.535576 0.000000 0.165591
0.747189 0.000000 0.169192
0.885191 0.000000 0.178592
0.973053 0.237705 0.213199
0.000000 0.146426 0.148989
0.019135 0.151705 0.154299
0.133150 0.164004 0.169223
0.302770 0.173678 0.173312
0.549340 0.157473 0.173159
0.751583 0.170535 0.170687
0.884886 0.244388 0.180606
0.971008 0.335882 0.218753
0.000000 0.281224 0.156680
0.000000 0.286717 0.160922
0.106142 0.300298 0.173342
0.282536 0.323644 0.176822
0.564935 0.364813 0.172946
0.757382 0.384192 0.171145
0.884367 0.416449 0.187594
0.967834 0.461738 0.233646
0.000000 0.463966 0.165835
0.000000 0.467536 0.168399
0.000000 0.475593 0.173404
0.254551 0.457588 0.195285
0.488594 0.509667 0.173098
0.742763 0.567803 0.160678
0.880949 0.579736 0.202457
0.962341 0.594049 0.260899
0.000000 0.650996 0.177035
0.000000 0.652430 0.177707
0.000000 0.654078 0.175662
0.273686 0.642542 0.236515
0.413794 0.596399 0.192386
0.669978 0.677455 0.187045
0.859983 0.724056 0.211673
0.953002 0.723110 0.307378
0.000000 0.805966 0.212467
0.000000 0.805417 0.211978
0.000000 0.803189 0.209506
0.279667 0.792905 0.279881
0.466529 0.764614 0.279088
0.605066 0.750301 0.234531
0.799741 0.802426 0.273228
0.934783 0.830503 0.345464
0.000000 0.914427 0.282109
0.000000 0.913664 0.282841
0.000000 0.910857 0.299351
0.354101 0.902190 0.376379
0.565606 0.883299 0.464302
0.648371 0.867918 0.404578
0.768643 0.871733 0.398444
0.893767 0.893675 0.463508
0.000000 0.059144 0.226566
0.021088 0.055787 0.240513
0.186007 0.000000 0.289494
0.362554 0.000000 0.298680
0.615869 0.000000 0.315038
0.773922 0.000000 0.306523
0.886442 0.000000 0.316167
0.964569 0.258946 0.381262
0.000000 0.080964 0.232273
0.000000 0.081605 0.244419
0.175967 0.065461 0.289891
0.360418 0.000000 0.302556
0.609644 0.000000 0.315923
0.768399 0.000000 0.308354
0.881895 0.000000 0.324163
0.963958 0.281437 0.379980
0.000000 0.148531 0.226444
0.000000 0.150332 0.232090
0.127749 0.164309 0.280461
0.348302 0.165560 0.314824
0.587884 0.119570 0.322545
0.756069 0.129091 0.323613
0.879759 0.268803 0.359533
0.963653 0.370184 0.391485
0.000000 0.294957 0.277104
0.000000 0.301457 0.283024
0.074372 0.321263 0.303716
0.318761 0.344640 0.339117
0.560418 0.355261 0.344427
0.748745 0.378820 0.352453
0.876005 0.423468 0.370062
0.959350 0.482795 0.406714
0.000000 0.503197 0.304753
0.000000 0.511284 0.309819
0.000000 0.518090 0.321996
0.296574 0.521477 0.342351
0.525322 0.533074 0.346777
0.751095 0.569818 0.371893
0.873777 0.583642 0.396857
0.953613 0.608057 0.435096
0.000000 0.683894 0.329381
0.000000 0.687678 0.333837
0.000000 0.687617 0.340398
0.268681 0.683284 0.350958
0.477790 0.646967 0.360937
0.687007 0.690303 0.366003
0.859464 0.725093 0.407965
0.946227 0.731197 0.478462
0.000000 0.820371 0.358373
0.000000 0.820493 0.360266
0.000000 0.819272 0.366308
0.263462 0.812955 0.377386
0.517082 0.788571 0.443519
0.612238 0.754299 0.366705
0.803464 0.806241 0.422583
0.929595 0.831022 0.493690
0.000000 0.920012 0.408240
0.000000 0.919524 0.410407
0.000000 0.916716 0.416327
0.332006 0.909270 0.442329
0.583642 0.889403 0.551202
0.668269 0.873075 0.519615
0.767605 0.870237 0.489296
0.892424 0.894347 0.557092
0.000000 0.061158 0.373816
0.000000 0.053071 0.389807
0.188510 0.000000 0.444373
0.449866 0.000000 0.514580
0.641749 0.000000 0.515465
0.810513 0.000000 0.511345
0.901183 0.000000 0.497353
0.965270 0.290379 0.523278
0.000000 0.086580 0.375158
0.000000 0.085389 0.390692
0.175082 0.050660 0.443488
0.448280 0.000000 0.519219
0.638392 0.000000 0.517174
0.807034 0.000000 0.513237
0.898466 0.000000 0.501701
0.962860 0.324254 0.529229
0.000000 0.158053 0.354162
0.000000 0.161074 0.374792
0.105318 0.166293 0.428077
0.423590 0.149783 0.523369
0.625483 0.100832 0.522789
0.791348 0.153567 0.518151
0.887144 0.275731 0.515160
0.953857 0.414374 0.547387
0.000000 0.278904 0.371405
0.000000 0.281376 0.376593
0.000000 0.288975 0.395117
0.314946 0.328893 0.486152
0.602411 0.363622 0.537682
0.765194 0.396643 0.534844
0.867491 0.449317 0.542535
0.941344 0.532280 0.579919
0.000000 0.488441 0.454688
0.000000 0.493782 0.460090
0.000000 0.510277 0.478218
0.291386 0.533593 0.510185
0.558984 0.555077 0.553613
0.734676 0.568933 0.558221
0.855894 0.593774 0.569299
0.938476 0.628504 0.590509
0.000000 0.686702 0.487709
0.000000 0.691310 0.492348
0.000000 0.704799 0.507805
0.348547 0.709804 0.529625
0.529778 0.695033 0.543969
0.700191 0.700862 0.551934
0.852201 0.729152 0.594446
0.933501 0.740047 0.622827
0.000000 0.837003 0.516320
0.000000 0.836210 0.518273
0.000000 0.833310 0.525841
0.346319 0.826322 0.538659
0.519890 0.812528 0.553368
0.651179 0.778195 0.548791
0.805081 0.809018 0.574060
0.922118 0.830564 0.628504
0.000000 0.923247 0.540185
0.000000 0.922301 0.542168
0.181949 0.918853 0.549493
0.382727 0.913390 0.564782
0.542565 0.901793 0.588342
0.699184 0.880400 0.647150
0.762142 0.865904 0.581476
0.889891 0.893919 0.648615
0.000000 0.047242 0.561944
0.000000 0.015137 0.575036
0.217807 0.000000 0.616205
0.494728 0.000000 0.683711
0.695613 0.000000 0.716396
0.811002 0.000000 0.684047
0.912535 0.058412 0.667201
0.966613 0.356146 0.663996
0.000000 0.088777 0.556298
0.000000 0.082521 0.568627
0.196628 0.000000 0.610925
0.479744 0.000000 0.678126
0.690913 0.000000 0.715602
0.807584 0.000000 0.684291
0.909972 0.171878 0.669520
0.964141 0.384588 0.667720
0.000000 0.161746 0.541253
0.000000 0.164340 0.554162
0.096407 0.167605 0.597620
0.433570 0.143648 0.666804
0.681636 0.122988 0.720180
0.799954 0.197787 0.690822
0.900816 0.342809 0.680385
0.956359 0.471382 0.682551
0.000000 0.266575 0.476143
0.000000 0.267247 0.482368
0.000000 0.289677 0.547387
0.329747 0.320745 0.637720
0.660700 0.396338 0.725612
0.786282 0.431891 0.705043
0.884916 0.509483 0.700618
0.944610 0.575586 0.704005
0.000000 0.460334 0.552361
0.000000 0.462043 0.555810
0.000000 0.466011 0.566949
0.208713 0.467750 0.585779
0.543847 0.526574 0.674220
0.759792 0.596704 0.714992
0.861204 0.630793 0.713405
0.928313 0.665064 0.720119
0.000000 0.679622 0.634089
0.000000 0.682948 0.637812
0.000000 0.689876 0.647578
0.264286 0.698146 0.664027
0.529839 0.705318 0.687221
0.725948 0.723934 0.723873
0.838834 0.735164 0.728237
0.919982 0.752224 0.737758
0.000000 0.826474 0.651453
0.000000 0.828244 0.654688
0.159701 0.831479 0.664790
0.432349 0.834714 0.685878
0.605280 0.833066 0.710445
0.706020 0.817319 0.716182
0.812955 0.817502 0.718532
0.916320 0.837064 0.755062
0.180819 0.927337 0.674006
0.233158 0.926116 0.676234
0.353765 0.922026 0.683925
0.485145 0.915679 0.697292
0.600580 0.907195 0.710567
0.700099 0.895781 0.722133
0.780941 0.873686 0.713710
0.889220 0.894896 0.743709
0.000000 0.000000 0.733333
0.000000 0.000000 0.740963
0.287938 0.000000 0.762783
0.512566 0.000000 0.797421
0.721553 0.000000 0.836545
0.840360 0.000000 0.839536
0.902953 0.177554 0.792538
0.964355 0.410376 0.778439
0.000000 0.083558 0.726986
0.000000 0.070222 0.734585
0.265446 0.000000 0.757198
0.498665 0.000000 0.792233
0.712459 0.000000 0.832364
0.835508 0.000000 0.837064
0.899290 0.223728 0.791226
0.961608 0.426978 0.778073
0.000000 0.175570 0.715724
0.000000 0.175509 0.722774
0.179355 0.169863 0.746120
0.458412 0.152468 0.783474
0.688960 0.195438 0.825437
0.827085 0.261814 0.837278
0.893462 0.371405 0.797543
0.956481 0.514183 0.789334
0.000000 0.294377 0.673793
0.000000 0.294255 0.683894
0.000000 0.284520 0.717708
0.361273 0.314122 0.762203
0.641138 0.382666 0.810971
0.812650 0.470985 0.837675
0.883177 0.528344 0.808072
0.948302 0.615259 0.804227
0.000000 0.439551 0.655390
0.000000 0.436042 0.655238
0.000000 0.423072 0.655848
0.116243 0.429511 0.697444
0.533867 0.496407 0.775631
0.789853 0.623987 0.834653
0.867857 0.650568 0.816342
0.935973 0.703212 0.817014
0.000000 0.646784 0.716976
0.000000 0.646143 0.717861
0.000000 0.643336 0.720638
0.082918 0.635492 0.725307
0.403357 0.619165 0.730434
0.702785 0.690517 0.797726
0.852995 0.757870 0.828733
0.922179 0.778775 0.829252
0.000000 0.825681 0.773251
0.000000 0.826200 0.774563
0.000000 0.825956 0.777829
0.281926 0.824277 0.783810
0.518456 0.819852 0.792233
0.696529 0.819211 0.806760
0.830198 0.832914 0.833249
0.908537 0.839719 0.836057
0.000000 0.912291 0.768490
0.151644 0.912016 0.769986
0.333043 0.911589 0.777127
0.498116 0.909392 0.788785
0.647486 0.907591 0.807004
0.758572 0.906584 0.827329
0.816526 0.896574 0.827726
0.892607 0.898039 0.830076
0.198032 0.059388 0.860563
0.252873 0.017578 0.863279
0.387091 0.000000 0.870848
0.550317 0.000000 0.884398
0.712306 0.000000 0.900999
0.845609 0.232181 0.914366
0.926299 0.314855 0.912352
0.957763 0.455360 0.866026
0.166415 0.114107 0.857725
0.229221 0.106081 0.860472
0.372961 0.066987 0.868528
0.541100 0.000000 0.882139
0.706661 0.117006 0.899077
0.843168 0.276677 0.913390
0.923430 0.345953 0.911192
0.955932 0.472999 0.866148
0.000000 0.208072 0.850187
0.094057 0.207401 0.852995
0.314153 0.203098 0.861295
0.510216 0.212406 0.876890
0.688350 0.270970 0.894316
0.836851 0.401373 0.911406
0.915526 0.447730 0.909361
0.951080 0.538354 0.869505
0.000000 0.310369 0.833616
0.000000 0.302831 0.837522
0.104433 0.313207 0.847807
0.433051 0.338323 0.864988
0.649348 0.403418 0.884947
0.815549 0.522118 0.904540
0.903716 0.570031 0.907652
0.944335 0.626093 0.875822
0.000000 0.446998 0.789761
0.000000 0.446418 0.794888
0.000000 0.441810 0.810971
0.216617 0.439643 0.839170
0.559014 0.495979 0.866545
0.774472 0.607050 0.892180
0.888640 0.679072 0.905760
0.936278 0.714260 0.884215
0.000000 0.637049 0.814115
0.000000 0.633234 0.813443
0.000000 0.619257 0.811337
0.000000 0.589410 0.807645
0.323247 0.565454 0.820706
0.690944 0.662806 0.869902
0.875181 0.776883 0.906706
0.929412 0.794705 0.895567
0.000000 0.805447 0.845640
0.000000 0.804013 0.845457
0.000000 0.798672 0.845029
0.149722 0.788937 0.844724
0.401801 0.773098 0.843656
0.575952 0.749599 0.841032
0.809567 0.805325 0.881682
0.920897 0.856352 0.904570
0.000000 0.926635 0.873869
0.000000 0.925841 0.874052
0.216342 0.923033 0.874693
0.400122 0.917784 0.876188
0.556146 0.910430 0.878477
0.692805 0.902831 0.882322
0.807614 0.899077 0.889891
0.906737 0.909667 0.909972
