data/fiter_cube/49007420/1023420/file.cube
# Created by Adobe Lightroom plugin Export LUT (1.17.0)
# www.johnrellis.com/lightroom/exportlut.htm
# Preset: 04 - 日系情绪-春 [云集]
# Color profile: C:\Program Files (x86)\Common Files\Adobe\Color\Profiles\Recommended\AdobeRGB1998.icc
LUT_3D_SIZE 32
DOMAIN_MIN 0.0 0.0 0.0
DOMAIN_MAX 1.0 1.0 1.0
0.020569 0.059266 0.065461
0.028168 0.059693 0.065736
0.036744 0.060517 0.066377
0.059937 0.062318 0.067506
0.084749 0.065248 0.068544
0.121950 0.065553 0.069215
0.171389 0.058473 0.068818
0.231693 0.014893 0.066682
0.302708 0.000000 0.062257
0.381872 0.000000 0.051270
0.464942 0.000000 0.026703
0.545373 0.000000 0.000000
0.619440 0.000000 0.000000
0.686183 0.000000 0.000000
0.743465 0.000000 0.000000
0.792355 0.000000 0.000000
0.834043 0.000000 0.000000
0.869535 0.000000 0.000000
0.899199 0.000000 0.000000
0.924804 0.000000 0.000000
0.946929 0.000000 0.000000
0.966094 0.000000 0.000000
0.982757 0.109895 0.000000
0.997314 0.167880 0.040528
1.000000 0.209506 0.088960
1.000000 0.245243 0.120638
1.000000 0.277348 0.150088
1.000000 0.306981 0.178836
1.000000 0.334905 0.208011
1.000000 0.361944 0.237705
1.000000 0.388251 0.268406
1.000000 0.414221 0.300145
0.018982 0.063996 0.067445
0.025055 0.063630 0.066255
0.035431 0.064363 0.066102
0.058717 0.066987 0.067201
0.083650 0.071290 0.068452
0.120668 0.072877 0.069062
0.170504 0.068940 0.068086
0.230869 0.047913 0.065797
0.301915 0.000000 0.061158
0.381598 0.000000 0.049531
0.464546 0.000000 0.023987
0.545006 0.000000 0.000000
0.619196 0.000000 0.000000
0.685969 0.000000 0.000000
0.743191 0.000000 0.000000
0.792081 0.000000 0.000000
0.833646 0.000000 0.000000
0.869169 0.000000 0.000000
0.898863 0.000000 0.000000
0.924437 0.000000 0.000000
0.946502 0.000000 0.000000
0.965698 0.000000 0.000000
0.982391 0.125673 0.000000
0.996979 0.176730 0.036042
1.000000 0.216373 0.087465
1.000000 0.250858 0.119875
1.000000 0.281712 0.149386
1.000000 0.311009 0.178286
1.000000 0.338354 0.207553
1.000000 0.364813 0.237339
1.000000 0.390784 0.268101
1.000000 0.416358 0.299901
0.014740 0.070130 0.070497
0.022187 0.069734 0.069276
0.030793 0.069673 0.068055
0.057984 0.073121 0.066682
0.082002 0.078309 0.068269
0.119142 0.082612 0.068605
0.168856 0.081544 0.067414
0.229526 0.071473 0.064912
0.301122 0.014343 0.059907
0.381018 0.000000 0.046662
0.464118 0.000000 0.019471
0.544793 0.000000 0.000000
0.618982 0.000000 0.000000
0.685786 0.000000 0.000000
0.742916 0.000000 0.000000
0.791867 0.000000 0.000000
0.833433 0.000000 0.000000
0.868864 0.000000 0.000000
0.898589 0.000000 0.000000
0.924071 0.000000 0.000000
0.946166 0.000000 0.000000
0.965362 0.074617 0.000000
0.982055 0.144320 0.000000
0.996674 0.189273 0.029358
1.000000 0.226139 0.086030
1.000000 0.258579 0.118990
1.000000 0.288396 0.148745
1.000000 0.316472 0.177920
1.000000 0.343114 0.207279
1.000000 0.368994 0.237247
1.000000 0.394263 0.267979
1.000000 0.419440 0.299748
0.002136 0.088197 0.079957
0.009979 0.087922 0.078279
0.022736 0.086213 0.074311
0.049653 0.086641 0.071534
0.081483 0.095918 0.065156
0.115694 0.101198 0.066957
0.165743 0.105226 0.065614
0.227390 0.102541 0.062226
0.299443 0.087098 0.054902
0.380133 0.022065 0.035889
0.463722 0.000000 0.008057
0.544671 0.000000 0.000000
0.618860 0.000000 0.000000
0.685573 0.000000 0.000000
0.742763 0.000000 0.000000
0.791531 0.000000 0.000000
0.833036 0.000000 0.000000
0.868376 0.000000 0.000000
0.898039 0.000000 0.000000
0.923430 0.000000 0.000000
0.945495 0.064973 0.000000
0.964660 0.133883 0.000000
0.981415 0.178286 0.000000
0.996063 0.214298 0.016938
1.000000 0.245975 0.083131
1.000000 0.275120 0.117159
1.000000 0.302281 0.147799
1.000000 0.328618 0.177340
1.000000 0.353643 0.206882
1.000000 0.378119 0.236973
1.000000 0.402319 0.267887
1.000000 0.426490 0.299718
0.000000 0.128939 0.100557
0.000000 0.128573 0.097597
0.000000 0.127504 0.091646
0.021668 0.120974 0.078614
0.069306 0.123445 0.072938
0.118593 0.139986 0.059541
0.165591 0.142458 0.057099
0.223087 0.141085 0.055451
0.296757 0.135958 0.041657
0.378485 0.119753 0.017304
0.462776 0.086488 0.000000
0.544213 0.000000 0.000000
0.618708 0.000000 0.000000
0.685267 0.000000 0.000000
0.742367 0.000000 0.000000
0.790982 0.000000 0.000000
0.832425 0.000000 0.000000
0.867704 0.000000 0.000000
0.897307 0.044221 0.000000
0.922637 0.114473 0.000000
0.944640 0.155337 0.000000
0.963806 0.190005 0.000000
0.980529 0.220340 0.000000
0.995209 0.248417 0.000000
1.000000 0.274357 0.078218
1.000000 0.299077 0.114473
1.000000 0.323156 0.146059
1.000000 0.346288 0.176211
1.000000 0.369360 0.206332
1.000000 0.392065 0.236667
1.000000 0.414557 0.267796
1.000000 0.437293 0.299779
0.000000 0.189792 0.130007
0.000000 0.189609 0.126558
0.000000 0.188449 0.118624
0.000000 0.184634 0.101595
0.022126 0.169619 0.084962
0.091920 0.177615 0.071626
0.170962 0.202304 0.026123
0.231235 0.198886 0.012787
0.298405 0.192020 0.002960
0.376013 0.181491 0.000000
0.461707 0.168673 0.000000
0.543694 0.151400 0.000000
0.618341 0.134646 0.000000
0.685115 0.121767 0.000000
0.742000 0.117098 0.000000
0.790524 0.122499 0.000000
0.831754 0.136538 0.000000
0.866850 0.155673 0.000000
0.896330 0.176974 0.000000
0.921630 0.199313 0.000000
0.943572 0.222263 0.000000
0.962799 0.244297 0.000000
0.980743 0.269017 0.000000
0.995300 0.290288 0.000000
1.000000 0.310979 0.075074
1.000000 0.331151 0.113375
1.000000 0.351385 0.146029
1.000000 0.371344 0.177035
1.000000 0.391516 0.207431
1.000000 0.411627 0.237980
1.000000 0.432074 0.269200
1.000000 0.452918 0.301396
0.000000 0.264012 0.165713
0.000000 0.263554 0.161288
0.000000 0.262638 0.153140
0.000000 0.259434 0.134768
0.000000 0.250462 0.104524
0.035065 0.228244 0.095308
0.124392 0.244022 0.068849
0.218173 0.261265 0.000000
0.314885 0.267247 0.000000
0.389837 0.255924 0.000000
0.466255 0.244236 0.000000
0.543999 0.232914 0.000000
0.619104 0.227359 0.000000
0.685664 0.224094 0.000000
0.742306 0.224033 0.000000
0.790372 0.227481 0.000000
0.831266 0.234379 0.000000
0.866209 0.243992 0.000000
0.895506 0.255772 0.000000
0.920775 0.269230 0.000000
0.942809 0.284062 0.000000
0.962066 0.299413 0.000000
0.978820 0.315404 0.000000
0.993591 0.331395 0.000000
1.000000 0.347784 0.064576
1.000000 0.364111 0.108644
1.000000 0.380957 0.143252
1.000000 0.397986 0.175204
1.000000 0.415167 0.206271
1.000000 0.432959 0.237430
1.000000 0.451148 0.269047
1.000000 0.469978 0.301457
0.000000 0.344396 0.205631
0.000000 0.343938 0.200046
0.000000 0.342962 0.192111
0.000000 0.340002 0.174075
0.000000 0.333654 0.148318
0.000000 0.318120 0.101320
0.072450 0.292058 0.112917
0.166781 0.316258 0.069734
0.281437 0.333654 0.000000
0.408392 0.346349 0.000000
0.484077 0.329870 0.000000
0.555352 0.318334 0.000000
0.621118 0.310399 0.000000
0.684474 0.306188 0.000000
0.741115 0.306950 0.000000
0.789090 0.308843 0.000000
0.829862 0.312688 0.000000
0.864500 0.318090 0.000000
0.893736 0.324926 0.000000
0.918975 0.333074 0.000000
0.940978 0.342565 0.000000
0.960204 0.352850 0.000000
0.977020 0.363836 0.000000
0.991821 0.375494 0.000000
1.000000 0.387640 0.042847
1.000000 0.400488 0.102449
1.000000 0.413794 0.139895
1.000000 0.427619 0.173098
1.000000 0.442206 0.205112
1.000000 0.457252 0.236790
1.000000 0.473213 0.268956
1.000000 0.489906 0.301610
0.000000 0.429328 0.248203
0.000000 0.428656 0.242802
0.000000 0.427863 0.235447
0.000000 0.425055 0.219242
0.000000 0.420020 0.194919
0.000000 0.410559 0.169436
0.000000 0.389288 0.125307
0.114199 0.364599 0.135317
0.222446 0.392309 0.079469
0.355505 0.411719 0.000000
0.503105 0.433143 0.000000
0.572259 0.412634 0.000000
0.635615 0.400275 0.000000
0.691951 0.391913 0.000000
0.741207 0.386206 0.000000
0.787442 0.384222 0.000000
0.827970 0.385351 0.000000
0.862516 0.387427 0.000000
0.891661 0.390478 0.000000
0.916899 0.394629 0.000000
0.938872 0.400000 0.000000
0.958160 0.406073 0.000000
0.975006 0.413214 0.000000
0.989807 0.421057 0.000000
1.000000 0.429694 0.004822
1.000000 0.438972 0.095308
1.000000 0.449226 0.135988
1.000000 0.460029 0.170932
1.000000 0.471717 0.203952
1.000000 0.484291 0.236423
1.000000 0.497780 0.269017
1.000000 0.512200 0.302037
0.000000 0.514702 0.294469
0.000000 0.514122 0.289738
0.000000 0.513207 0.282872
0.000000 0.510796 0.267826
0.000000 0.506462 0.245792
0.000000 0.498848 0.220218
0.000000 0.485420 0.190005
0.000000 0.460548 0.157900
0.172244 0.441260 0.160739
0.292027 0.468330 0.099153
0.432746 0.488350 0.000000
0.589380 0.520714 0.000000
0.650263 0.498146 0.000000
0.703395 0.481788 0.000000
0.749966 0.469947 0.000000
0.790646 0.461677 0.000000
0.826200 0.454902 0.000000
0.860258 0.453651 0.000000
0.889403 0.453773 0.000000
0.914580 0.454597 0.000000
0.936584 0.456519 0.000000
0.955810 0.459297 0.000000
0.972656 0.462806 0.000000
0.987488 0.467353 0.000000
1.000000 0.472694 0.000000
1.000000 0.478950 0.086671
1.000000 0.486091 0.131685
1.000000 0.494209 0.168582
1.000000 0.503197 0.202853
1.000000 0.513268 0.236088
1.000000 0.524407 0.269169
1.000000 0.536584 0.302770
0.000000 0.597528 0.344610
0.000000 0.597070 0.340215
0.000000 0.596155 0.333898
0.000000 0.594079 0.320745
0.000000 0.590265 0.300786
0.000000 0.584100 0.276951
0.000000 0.574243 0.253758
0.000000 0.556817 0.205509
0.109834 0.529839 0.195315
0.244694 0.516258 0.190127
0.370031 0.541711 0.126833
0.507927 0.562036 0.000000
0.652979 0.594873 0.000000
0.714900 0.577783 0.000000
0.758724 0.557488 0.000000
0.797055 0.542168 0.000000
0.830808 0.530358 0.000000
0.860410 0.522057 0.000000
0.886625 0.514916 0.000000
0.911894 0.512902 0.000000
0.933867 0.511986 0.000000
0.953124 0.511742 0.000000
0.970031 0.512474 0.000000
0.984955 0.514000 0.000000
0.998169 0.516533 0.000000
1.000000 0.519921 0.075868
1.000000 0.524315 0.127108
1.000000 0.529747 0.166262
1.000000 0.536217 0.201785
1.000000 0.543786 0.236027
1.000000 0.552575 0.269749
1.000000 0.562585 0.303716
0.000000 0.673823 0.394934
0.000000 0.673457 0.391150
0.000000 0.672602 0.385779
0.000000 0.670893 0.374395
0.000000 0.667933 0.357031
0.000000 0.662989 0.335698
0.000000 0.655451 0.312902
0.000000 0.643549 0.293492
0.000000 0.623957 0.224643
0.208499 0.595117 0.235630
0.325200 0.587335 0.222232
0.448157 0.610315 0.159426
0.576745 0.631678 0.000000
0.695094 0.650599 0.000000
0.769680 0.650996 0.000000
0.805661 0.627466 0.000000
0.837278 0.609094 0.000000
0.865141 0.594629 0.000000
0.889769 0.583185 0.000000
0.911803 0.574884 0.000000
0.931975 0.567803 0.000000
0.951080 0.564935 0.000000
0.967864 0.562737 0.000000
0.982727 0.561578 0.000000
0.995941 0.561364 0.000000
1.000000 0.562158 0.066468
1.000000 0.563928 0.124025
1.000000 0.566796 0.165347
1.000000 0.570825 0.202029
1.000000 0.576043 0.237156
1.000000 0.582483 0.271336
1.000000 0.590234 0.305760
0.000000 0.740108 0.442298
0.000000 0.739803 0.439155
0.000000 0.739132 0.434516
0.000000 0.737728 0.424872
0.000000 0.735256 0.410193
0.000000 0.731350 0.391852
0.000000 0.725429 0.371405
0.000000 0.716274 0.351507
0.000000 0.702296 0.323705
0.122011 0.681971 0.268711
0.298528 0.653803 0.278294
0.405066 0.651942 0.257267
0.518486 0.671656 0.197940
0.630762 0.688624 0.094484
0.728115 0.697108 0.000000
0.811612 0.711330 0.000000
0.841581 0.686183 0.000000
0.867857 0.665766 0.000000
0.891325 0.649287 0.000000
0.912505 0.636072 0.000000
0.931609 0.625727 0.000000
0.948547 0.616388 0.000000
0.964721 0.610742 0.000000
0.979644 0.607141 0.000000
0.992950 0.604639 0.000000
1.000000 0.603082 0.048554
1.000000 0.602686 0.119997
1.000000 0.603326 0.163790
1.000000 0.605127 0.201938
1.000000 0.608209 0.237705
1.000000 0.612543 0.272557
1.000000 0.618189 0.307530
0.000000 0.794766 0.484749
0.000000 0.794339 0.481758
0.000000 0.793881 0.478035
0.000000 0.792782 0.470069
0.000000 0.790707 0.457771
0.000000 0.787594 0.442420
0.000000 0.782925 0.425055
0.000000 0.775845 0.406836
0.000000 0.765194 0.390082
0.068757 0.750576 0.343999
0.252934 0.729671 0.313603
0.379980 0.702846 0.321508
0.475441 0.706203 0.294347
0.576226 0.722560 0.238376
0.675532 0.736477 0.156100
0.762997 0.743862 0.000000
0.845762 0.761654 0.000000
0.870634 0.736172 0.000000
0.892912 0.714839 0.000000
0.913085 0.697383 0.000000
0.931487 0.682918 0.000000
0.948211 0.671046 0.000000
0.963378 0.660945 0.000000
0.976440 0.651667 0.000000
0.989837 0.647150 0.000000
1.000000 0.643641 0.018677
1.000000 0.641077 0.116732
1.000000 0.639704 0.163210
1.000000 0.639551 0.202487
1.000000 0.640650 0.239048
1.000000 0.643061 0.274662
1.000000 0.646784 0.310063
0.000000 0.839567 0.522210
0.000000 0.839322 0.519951
0.000000 0.838834 0.516777
0.000000 0.837949 0.510063
0.000000 0.836332 0.499977
0.000000 0.833860 0.487190
0.000000 0.830167 0.472694
0.000000 0.824552 0.457099
0.000000 0.816220 0.441718
0.107576 0.804013 0.429633
0.207736 0.790494 0.365606
0.350408 0.769070 0.358373
0.451392 0.744350 0.365057
0.535882 0.751858 0.332677
0.625483 0.765194 0.280369
0.713466 0.776333 0.209293
0.791745 0.782345 0.077638
0.872770 0.802152 0.000000
0.894652 0.778103 0.000000
0.913878 0.757015 0.000000
0.931395 0.739101 0.000000
0.947509 0.723903 0.000000
0.962341 0.710964 0.000000
0.976013 0.699977 0.000000
0.987610 0.689906 0.000000
0.998688 0.683009 0.000732
1.000000 0.678706 0.115236
1.000000 0.675654 0.163699
1.000000 0.673762 0.204166
1.000000 0.673060 0.241642
1.000000 0.673671 0.277745
1.000000 0.675624 0.313512
0.000000 0.875914 0.555657
0.000000 0.875731 0.553765
0.000000 0.875425 0.551202
0.000000 0.874693 0.545678
0.000000 0.873411 0.537346
0.000000 0.871489 0.526909
0.000000 0.868589 0.514946
0.000000 0.864225 0.502007
0.000000 0.857542 0.488777
0.000000 0.847776 0.477211
0.259403 0.835203 0.457069
0.310307 0.822599 0.398047
0.431159 0.801694 0.402838
0.512688 0.779324 0.408362
0.587945 0.789700 0.371649
0.667048 0.800290 0.322515
0.745022 0.808865 0.259464
0.815274 0.813565 0.167056
0.889586 0.829984 0.000000
0.914885 0.812833 0.000000
0.931579 0.792538 0.000000
0.946960 0.774838 0.000000
0.961242 0.759457 0.000000
0.974578 0.746029 0.000000
0.986999 0.734340 0.000000
0.997498 0.723934 0.000000
1.000000 0.715511 0.110170
1.000000 0.710658 0.166262
1.000000 0.707179 0.207340
1.000000 0.704891 0.245304
1.000000 0.703853 0.281743
1.000000 0.704158 0.317754
0.000000 0.904967 0.584985
0.000000 0.904784 0.583337
0.000000 0.904540 0.581323
0.000000 0.903960 0.576745
0.000000 0.902983 0.570001
0.000000 0.901427 0.561517
0.000000 0.899046 0.551751
0.000000 0.895445 0.540948
0.000000 0.889952 0.529961
0.000000 0.881926 0.519829
0.247471 0.870848 0.513237
0.342351 0.859922 0.478218
0.405859 0.846769 0.441962
0.498360 0.828031 0.445930
0.565789 0.810422 0.447791
0.632288 0.820432 0.410529
0.702266 0.828550 0.364874
0.771420 0.835019 0.307561
0.835172 0.839048 0.230411
0.899443 0.849180 0.105898
0.931884 0.841489 0.000000
0.946563 0.822080 0.000000
0.960235 0.804898 0.000000
0.973083 0.789792 0.000000
0.985168 0.776303 0.000000
0.996612 0.764340 0.000000
1.000000 0.753750 0.000000
1.000000 0.745266 0.145937
1.000000 0.739315 0.212100
1.000000 0.735683 0.250126
1.000000 0.733211 0.286809
1.000000 0.732082 0.323125
0.000000 0.928069 0.610285
0.000000 0.927947 0.608972
0.000000 0.928679 0.608453
0.000000 0.928191 0.604639
0.000000 0.927367 0.599207
0.000000 0.926024 0.592340
0.000000 0.924010 0.584405
0.000000 0.920897 0.575677
0.000000 0.916228 0.566827
0.000000 0.909392 0.558618
0.201389 0.900023 0.552850
0.384375 0.888151 0.552239
0.413855 0.879881 0.502708
0.484016 0.866392 0.486122
0.557122 0.849912 0.489326
0.613672 0.838132 0.485725
0.672236 0.846006 0.450324
0.733608 0.852201 0.407446
0.794766 0.857084 0.354620
0.852445 0.860441 0.287114
0.908293 0.866148 0.194736
0.946593 0.865507 0.101930
0.959625 0.847105 0.073610
0.971954 0.830655 0.012024
0.983551 0.815915 0.000000
0.994659 0.802640 0.000000
1.000000 0.790555 0.000000
1.000000 0.780026 0.060700
1.000000 0.771572 0.180728
1.000000 0.765255 0.251835
1.000000 0.761471 0.293065
1.000000 0.759091 0.329534
0.000000 0.947295 0.632685
0.000000 0.947265 0.631800
0.000000 0.947173 0.630488
0.000000 0.946899 0.627680
0.000000 0.946288 0.623346
0.000000 0.945190 0.617914
0.000000 0.943481 0.611536
0.000000 0.940795 0.604669
0.000000 0.936767 0.597711
0.000000 0.930816 0.591394
0.146395 0.922667 0.586847
0.358312 0.912413 0.586328
0.457893 0.902159 0.576654
0.474617 0.895354 0.527977
0.547936 0.881773 0.527977
0.607233 0.867369 0.530663
0.655390 0.860166 0.522454
0.706416 0.866361 0.488594
0.760403 0.871244 0.448188
0.814572 0.875029 0.399054
0.866606 0.877867 0.337896
0.915740 0.880583 0.257542
0.958862 0.885313 0.172549
0.970672 0.868040 0.152621
0.981964 0.852384 0.130648
0.992737 0.838224 0.104982
1.000000 0.825254 0.059022
1.000000 0.813352 0.000000
1.000000 0.803037 0.122652
1.000000 0.794827 0.215824
1.000000 0.788693 0.284642
1.000000 0.784909 0.337377
0.000000 0.963287 0.652308
0.000000 0.963256 0.651575
0.000000 0.963226 0.650538
0.000000 0.962951 0.648249
0.000000 0.962402 0.644800
0.000000 0.961425 0.640436
0.000000 0.959899 0.635462
0.000000 0.957549 0.630060
0.000000 0.953887 0.624720
0.000000 0.948577 0.620020
0.072602 0.941314 0.617060
0.336706 0.932158 0.617304
0.469398 0.921447 0.622766
0.515679 0.914031 0.599268
0.542870 0.906737 0.566918
0.602991 0.894560 0.568719
0.651331 0.882139 0.570855
0.692531 0.878477 0.558923
0.736965 0.883421 0.527031
0.784115 0.887266 0.488533
0.831907 0.890227 0.442267
0.878813 0.892576 0.385931
0.924071 0.894957 0.313939
0.968780 0.901823 0.230198
0.980316 0.886015 0.205905
0.990845 0.871183 0.183474
1.000000 0.857603 0.158175
1.000000 0.845060 0.124117
1.000000 0.833310 0.059785
1.000000 0.823362 0.168673
1.000000 0.815518 0.251743
1.000000 0.809751 0.319768
0.000000 0.977081 0.669825
0.000000 0.977081 0.669215
0.000000 0.976989 0.668391
0.000000 0.976776 0.666529
0.000000 0.976257 0.663752
0.000000 0.975372 0.660365
0.000000 0.973968 0.656550
0.000000 0.971801 0.652491
0.000000 0.968444 0.648524
0.000000 0.963531 0.645319
0.000000 0.956878 0.643641
0.318761 0.948516 0.644831
0.455787 0.938811 0.650263
0.555444 0.928435 0.659022
0.566583 0.923888 0.622919
0.601678 0.916075 0.605768
0.650050 0.905516 0.607294
0.690028 0.894835 0.609247
0.725490 0.893889 0.594232
0.764218 0.897917 0.564904
0.805325 0.901061 0.529168
0.847501 0.903441 0.485359
0.889769 0.905425 0.432441
0.931609 0.907591 0.366369
0.976043 0.915221 0.288884
0.988983 0.901762 0.251774
0.998901 0.887755 0.228153
1.000000 0.874846 0.200839
1.000000 0.862699 0.165286
1.000000 0.851102 0.107240
1.000000 0.841764 0.212161
1.000000 0.834379 0.290471
0.000000 0.989349 0.685756
0.000000 0.989288 0.685267
0.000000 0.989197 0.684565
0.000000 0.988922 0.683070
0.000000 0.988434 0.680903
0.000000 0.987610 0.678248
0.000000 0.986297 0.675380
0.000000 0.984222 0.672419
0.000000 0.981079 0.669703
0.000000 0.976440 0.667781
0.000000 0.970184 0.667475
0.306310 0.962371 0.669642
0.446906 0.953368 0.675593
0.549187 0.943725 0.684810
0.603296 0.936339 0.679866
0.612268 0.932403 0.647700
0.651789 0.924224 0.642817
0.691005 0.915099 0.644007
0.724147 0.905913 0.645655
0.754665 0.906981 0.628138
0.788205 0.910307 0.600977
0.824063 0.912871 0.567803
0.861234 0.914794 0.527092
0.899168 0.916411 0.476875
0.937896 0.918456 0.414984
0.978851 0.924163 0.341772
0.996490 0.915312 0.292424
1.000000 0.902159 0.266087
1.000000 0.889799 0.235264
1.000000 0.878080 0.194827
1.000000 0.866819 0.157351
1.000000 0.857939 0.253544
0.000000 0.999908 0.699672
0.000000 0.999847 0.699275
0.000000 0.999756 0.698756
0.000000 0.999512 0.697566
0.000000 0.999023 0.695918
0.000000 0.998230 0.693904
0.000000 0.996979 0.691829
0.000000 0.995026 0.689784
0.000000 0.991943 0.688197
0.000000 0.987518 0.687404
0.000000 0.981537 0.688106
0.295537 0.974151 0.691157
0.439155 0.965637 0.697566
0.543175 0.956603 0.706844
0.623713 0.947478 0.718257
0.645289 0.943023 0.700740
0.657038 0.939086 0.676326
0.694179 0.931304 0.677028
0.726345 0.923461 0.678096
0.753994 0.915587 0.679469
0.780270 0.918242 0.660182
0.809415 0.920989 0.635187
0.840696 0.923186 0.604700
0.873564 0.924804 0.566918
0.907469 0.926024 0.519432
0.943328 0.928008 0.460914
0.981292 0.932219 0.390051
1.000000 0.927276 0.329900
1.000000 0.914885 0.300603
1.000000 0.903105 0.265202
1.000000 0.891722 0.217227
1.000000 0.880735 0.206638
0.000000 1.000000 0.712306
0.000000 1.000000 0.712032
0.000000 1.000000 0.711604
0.000000 1.000000 0.710689
0.000000 1.000000 0.709468
0.000000 1.000000 0.708034
0.000000 1.000000 0.706630
0.000000 1.000000 0.705379
0.000000 1.000000 0.704646
0.000000 0.997314 0.704829
0.000000 0.991516 0.706477
0.288762 0.984405 0.710353
0.434913 0.976226 0.717311
0.539330 0.967620 0.726619
0.620447 0.959014 0.737728
0.677180 0.951507 0.745083
0.682826 0.948852 0.721889
0.700557 0.944305 0.708309
0.730648 0.937621 0.708797
0.757137 0.930907 0.709621
0.780209 0.925078 0.709194
0.802853 0.928008 0.690242
0.828092 0.930358 0.667323
0.855497 0.932219 0.639063
0.884550 0.933593 0.604120
0.915068 0.934630 0.560266
0.948302 0.936614 0.505913
0.983551 0.939788 0.436561
1.000000 0.938018 0.366003
1.000000 0.926299 0.333013
1.000000 0.914916 0.290043
1.000000 0.903380 0.227207
0.000000 1.000000 0.723232
0.000000 1.000000 0.723018
0.000000 1.000000 0.722713
0.000000 1.000000 0.722072
0.000000 1.000000 0.721187
0.000000 1.000000 0.720241
0.000000 1.000000 0.719478
0.000000 1.000000 0.718959
0.000000 1.000000 0.719051
0.000000 1.000000 0.720119
0.000000 1.000000 0.722621
0.284947 0.993378 0.727352
0.433204 0.985443 0.734951
0.538170 0.977142 0.744472
0.619593 0.968933 0.755550
0.684596 0.961028 0.767788
0.712612 0.956390 0.763729
0.717250 0.954101 0.743709
0.738521 0.949248 0.738521
0.762966 0.943572 0.738949
0.784756 0.937835 0.739651
0.803952 0.934264 0.736568
0.823392 0.936767 0.719234
0.845182 0.938842 0.698116
0.869108 0.940459 0.672267
0.894835 0.941680 0.640070
0.922148 0.942504 0.599420
0.952850 0.944488 0.549645
0.985626 0.946990 0.482551
1.000000 0.947723 0.400946
1.000000 0.936370 0.360754
1.000000 0.925139 0.306523
0.000000 1.000000 0.732967
0.000000 1.000000 0.732815
0.000000 1.000000 0.732570
0.000000 1.000000 0.732143
0.000000 1.000000 0.731533
0.000000 1.000000 0.731075
0.000000 1.000000 0.730800
0.000000 1.000000 0.730892
0.000000 1.000000 0.731685
0.000000 1.000000 0.733547
0.000000 1.000000 0.736904
0.282139 1.000000 0.742397
0.432746 0.993591 0.750515
0.538750 0.985473 0.760433
0.620417 0.977539 0.771542
0.685603 0.969940 0.783597
0.738094 0.962890 0.796323
0.744625 0.960754 0.782406
0.749569 0.958679 0.766384
0.771389 0.953887 0.766476
0.791287 0.949065 0.766781
0.809323 0.944244 0.767391
0.825254 0.942473 0.762234
0.841947 0.944671 0.746639
0.860746 0.946502 0.727443
0.881590 0.947936 0.703792
0.904326 0.949035 0.674342
0.928832 0.949767 0.636927
0.957000 0.951720 0.591424
0.987335 0.953491 0.525719
1.000000 0.955749 0.440162
1.000000 0.945220 0.381933
0.000000 1.000000 0.741329
0.000000 1.000000 0.741238
0.000000 1.000000 0.741115
0.000000 1.000000 0.740780
0.000000 1.000000 0.740505
0.000000 1.000000 0.740414
0.000000 1.000000 0.740658
0.000000 1.000000 0.741421
0.000000 1.000000 0.742977
0.000000 1.000000 0.745632
0.000000 1.000000 0.749813
0.283452 1.000000 0.756161
0.435737 1.000000 0.764981
0.542229 0.992950 0.775326
0.624414 0.985138 0.786709
0.689631 0.977783 0.798764
0.742031 0.971038 0.811276
0.772122 0.966400 0.815579
0.774838 0.964965 0.802060
0.783688 0.962493 0.793210
0.801144 0.958495 0.793271
0.817350 0.954467 0.793515
0.832181 0.950469 0.794034
0.845365 0.950103 0.787350
0.859586 0.952026 0.773556
0.875639 0.953704 0.756558
0.893645 0.955016 0.735348
0.913420 0.955901 0.707942
0.935149 0.956512 0.672938
0.960723 0.958129 0.629419
0.989166 0.959838 0.567010
1.000000 0.963134 0.478767
0.000000 1.000000 0.749020
0.000000 1.000000 0.748867
0.000000 1.000000 0.748653
0.000000 1.000000 0.748409
0.000000 1.000000 0.748348
0.000000 1.000000 0.748623
0.000000 1.000000 0.749264
0.000000 1.000000 0.750546
0.000000 1.000000 0.752651
0.000000 1.000000 0.756039
0.000000 1.000000 0.760952
0.282933 1.000000 0.768002
0.438392 1.000000 0.777462
0.546136 0.999481 0.788235
