data/fiter_cube/49007420/1023420/file.cube
# Created by Adobe Lightroom plugin Export LUT (1.17.0)
# www.johnrellis.com/lightroom/exportlut.htm
# Preset: 04 - 日系情绪-春 [云集]
# Color profile: C:\Program Files (x86)\Common Files\Adobe\Color\Profiles\Recommended\AdobeRGB1998.icc
LUT_3D_SIZE 8
DOMAIN_MIN 0.000000 0.000000 0.000000
DOMAIN_MAX 0.903226 0.903226 0.903226
0.020569 0.059266 0.065461
0.084749 0.065248 0.068544
0.302708 0.000000 0.062257
0.619440 0.000000 0.000000
0.834043 0.000000 0.000000
0.946929 0.000000 0.000000
1.000000 0.209506 0.088960
1.000000 0.334905 0.208011
0.000000 0.128939 0.100557
0.069306 0.123445 0.072938
0.296757 0.135958 0.041657
0.618708 0.000000 0.000000
0.832425 0.000000 0.000000
0.944640 0.155337 0.000000
1.000000 0.274357 0.078218
1.000000 0.369360 0.206332
0.000000 0.429328 0.248203
0.000000 0.420020 0.194919
0.222446 0.392309 0.079469
0.635615 0.400275 0.000000
0.827970 0.385351 0.000000
0.938872 0.400000 0.000000
1.000000 0.429694 0.004822
1.000000 0.471717 0.203952
0.000000 0.740108 0.442298
0.000000 0.735256 0.410193
0.000000 0.702296 0.323705
0.518486 0.671656 0.197940
0.841581 0.686183 0.000000
0.931609 0.625727 0.000000
0.992950 0.604639 0.000000
1.000000 0.605127 0.201938
0.000000 0.904967 0.584985
0.000000 0.902983 0.570001
0.000000 0.889952 0.529961
0.405859 0.846769 0.441962
0.702266 0.828550 0.364874
0.931884 0.841489 0.000000
0.985168 0.776303 0.000000
1.000000 0.739315 0.212100
0.000000 0.977081 0.669825
0.000000 0.976257 0.663752
0.000000 0.968444 0.648524
0.455787 0.938811 0.650263
0.650050 0.905516 0.607294
0.805325 0.901061 0.529168
0.976043 0.915221 0.288884
1.000000 0.862699 0.165286
0.000000 1.000000 0.723232
0.000000 1.000000 0.721187
0.000000 1.000000 0.719051
0.433204 0.985443 0.734951
0.712612 0.956390 0.763729
0.784756 0.937835 0.739651
0.869108 0.940459 0.672267
0.985626 0.946990 0.482551
0.000000 1.000000 0.756069
0.000000 1.000000 0.754574
0.000000 1.000000 0.760739
0.441596 1.000000 0.788602
0.752224 0.984039 0.836790
0.826719 0.972320 0.839811
0.870176 0.961395 0.839048
0.913634 0.966430 0.786801
0.000000 0.067903 0.142245
0.096742 0.060121 0.130800
0.322454 0.000000 0.096712
0.627375 0.000000 0.000000
0.834775 0.000000 0.000000
0.945586 0.130037 0.000000
1.000000 0.254093 0.082795
1.000000 0.349096 0.207309
0.000000 0.146548 0.188815
0.036866 0.148653 0.172671
0.320592 0.150576 0.132296
0.629145 0.091310 0.030671
0.833646 0.161440 0.000000
0.943755 0.232761 0.000000
1.000000 0.306798 0.071870
1.000000 0.381231 0.205661
0.000000 0.464485 0.347662
0.000000 0.456336 0.312993
0.242618 0.405463 0.223819
0.641321 0.408911 0.110658
0.830045 0.402411 0.000000
0.938140 0.425086 0.000000
1.000000 0.445411 0.000000
1.000000 0.478523 0.203342
0.000000 0.754696 0.507561
0.000000 0.750332 0.484535
0.000000 0.718929 0.411994
0.527581 0.673732 0.305547
0.839109 0.686915 0.069337
0.928771 0.628962 0.000000
0.992218 0.610803 0.000000
1.000000 0.608148 0.201480
0.000000 0.909606 0.623407
0.000000 0.907500 0.610315
0.000000 0.894102 0.572778
0.430732 0.851865 0.492958
0.705348 0.828153 0.430640
0.928679 0.841520 0.213260
0.982452 0.778286 0.160769
1.000000 0.740414 0.212589
0.000000 0.978515 0.692256
0.000000 0.977386 0.686549
0.000000 0.969268 0.671748
0.459693 0.939818 0.670558
0.661616 0.906706 0.634546
0.807523 0.900603 0.570855
0.972839 0.915221 0.365972
1.000000 0.863584 0.261112
0.000000 1.000000 0.736843
0.000000 1.000000 0.734737
0.000000 1.000000 0.732265
0.435920 0.985657 0.745998
0.727962 0.955261 0.781216
0.790097 0.938079 0.752865
0.870176 0.940002 0.694423
0.983185 0.947112 0.526513
0.000000 1.000000 0.763790
0.000000 1.000000 0.762600
0.000000 1.000000 0.768093
0.437354 1.000000 0.794034
0.752438 0.984466 0.840452
0.832944 0.971923 0.847654
0.872740 0.961517 0.844724
0.914580 0.966186 0.797421
0.000000 0.089662 0.414313
0.000000 0.083284 0.423529
0.430701 0.000000 0.393713
0.699916 0.000000 0.290410
0.839506 0.000000 0.239506
0.944518 0.229862 0.198520
1.000000 0.324834 0.093812
1.000000 0.376074 0.211154
0.000000 0.184329 0.409522
0.000000 0.182620 0.430793
0.406378 0.164370 0.423102
0.676967 0.000000 0.320012
0.836271 0.182925 0.269810
0.942077 0.295323 0.215366
1.000000 0.363317 0.114107
1.000000 0.404883 0.209964
0.000000 0.430091 0.516503
0.000000 0.435462 0.509911
0.266331 0.448371 0.481636
0.636774 0.437171 0.421790
0.827359 0.438849 0.349615
0.934142 0.457465 0.275639
1.000000 0.477821 0.181064
1.000000 0.493660 0.207492
0.000000 0.775448 0.664240
0.000000 0.781613 0.659266
0.000000 0.766903 0.612329
0.562188 0.677455 0.528191
0.825620 0.690578 0.439643
0.917906 0.651728 0.393011
0.986664 0.632166 0.295872
1.000000 0.616144 0.207218
0.000000 0.924437 0.726192
0.000000 0.922576 0.718318
0.000000 0.908934 0.691463
0.526848 0.864591 0.656092
0.721340 0.828367 0.598047
0.915618 0.842435 0.480079
0.970245 0.788266 0.430457
1.000000 0.748959 0.328008
0.000000 0.984222 0.756069
0.000000 0.982940 0.752743
0.000000 0.973602 0.741939
0.470619 0.944579 0.733089
0.696925 0.911498 0.711574
0.815427 0.899351 0.678981
0.961028 0.915251 0.555261
1.000000 0.867948 0.466255
0.000000 1.000000 0.778836
0.000000 1.000000 0.777401
0.000000 1.000000 0.774289
0.442573 0.987335 0.781491
0.738491 0.956756 0.809628
0.808255 0.939544 0.792691
0.875395 0.939208 0.757748
0.976287 0.948241 0.647425
0.000000 1.000000 0.790158
0.000000 1.000000 0.788693
0.000000 1.000000 0.791714
0.413611 1.000000 0.811582
0.748196 0.986114 0.850767
0.851804 0.970794 0.870970
0.881193 0.962127 0.862333
0.918364 0.965667 0.829007
0.000000 0.156313 0.680537
0.000000 0.159640 0.688746
0.530083 0.137514 0.713466
0.758419 0.000000 0.667201
0.896971 0.000000 0.557641
0.946715 0.191073 0.441749
0.996063 0.375372 0.416846
1.000000 0.401099 0.306249
0.000000 0.247745 0.674006
0.000000 0.249760 0.684779
0.486519 0.266453 0.710811
0.744839 0.227939 0.677974
0.885924 0.249088 0.573816
0.937102 0.300023 0.468330
0.993011 0.416205 0.432074
1.000000 0.426154 0.313359
0.000000 0.439704 0.685451
0.000000 0.443397 0.681697
0.261418 0.451789 0.680842
0.717006 0.513085 0.720699
0.843870 0.495064 0.618952
0.912535 0.511345 0.549279
0.983215 0.532250 0.482765
1.000000 0.513054 0.352026
0.000000 0.699062 0.760006
0.000000 0.702022 0.757443
0.000000 0.707637 0.747646
0.581964 0.709010 0.726436
0.790463 0.702327 0.687373
0.893645 0.693233 0.636988
0.966003 0.676417 0.562585
1.000000 0.641444 0.435889
0.000000 0.915373 0.826108
0.000000 0.916320 0.824155
0.000000 0.914641 0.816251
0.515038 0.890593 0.794217
0.752926 0.834989 0.748806
0.890959 0.841276 0.703853
0.944457 0.809659 0.670466
1.000000 0.774166 0.561334
0.000000 0.992462 0.841794
0.000000 0.992676 0.840452
0.000000 0.982666 0.830137
0.476081 0.953185 0.816159
0.748226 0.917784 0.809903
0.830045 0.897276 0.786130
0.942443 0.913176 0.733394
0.983856 0.876829 0.673335
0.000000 1.000000 0.839261
0.000000 1.000000 0.837644
0.000000 1.000000 0.833036
0.425788 0.992187 0.830930
0.735897 0.961852 0.842924
0.833463 0.942748 0.841245
0.884764 0.938201 0.825284
0.969512 0.950134 0.768612
0.000000 1.000000 0.835752
0.000000 1.000000 0.834287
0.000000 1.000000 0.831266
0.299168 1.000000 0.837034
0.730739 0.990204 0.866087
0.868711 0.970916 0.895384
0.892851 0.963500 0.885222
0.924529 0.965148 0.866270
0.000000 0.263462 0.836088
0.243412 0.269566 0.838712
0.541619 0.297795 0.847379
0.790829 0.404700 0.860685
0.889677 0.361791 0.814298
0.959777 0.426581 0.736202
0.990570 0.462257 0.649775
1.000000 0.540642 0.616876
0.000000 0.332006 0.831937
0.187198 0.339086 0.834897
0.516503 0.367346 0.844175
0.775357 0.462959 0.858061
0.882078 0.439185 0.819120
0.952911 0.487678 0.746975
0.985168 0.503136 0.662318
1.000000 0.573266 0.633417
0.000000 0.483406 0.805661
0.000000 0.487922 0.810452
0.392126 0.502678 0.828214
0.716457 0.584710 0.846464
0.857420 0.611658 0.831754
0.930663 0.629877 0.775662
0.967437 0.607904 0.697292
1.000000 0.630121 0.652369
0.000000 0.662806 0.836698
0.000000 0.664179 0.834775
0.221897 0.667079 0.827451
0.562554 0.676295 0.812284
0.832792 0.771908 0.848631
0.897673 0.752438 0.801816
0.939178 0.726741 0.744259
0.998901 0.697627 0.666835
0.000000 0.841184 0.866819
0.000000 0.842008 0.865782
0.000000 0.842161 0.861753
0.535668 0.840482 0.854063
0.756741 0.841489 0.843503
0.865568 0.837491 0.824002
0.927611 0.825650 0.791348
0.982483 0.799619 0.726955
0.000000 0.970062 0.895872
0.000000 0.971008 0.896422
0.000000 0.967895 0.895171
0.488716 0.951446 0.887358
0.738582 0.932647 0.876127
0.851133 0.901976 0.854734
0.927794 0.907897 0.835325
0.965087 0.886320 0.806149
0.000000 1.000000 0.900298
0.000000 1.000000 0.899413
0.000000 1.000000 0.896330
0.395941 0.998871 0.890257
0.713741 0.970520 0.882597
0.856626 0.947265 0.886534
0.895659 0.937316 0.874693
0.963836 0.949279 0.849943
0.000000 1.000000 0.890379
0.000000 1.000000 0.888975
0.000000 1.000000 0.884977
0.027222 1.000000 0.879973
0.669673 0.999603 0.884764
0.858061 0.975463 0.906371
0.904997 0.965789 0.908049
0.931670 0.964874 0.898283
0.370855 0.393317 0.909117
0.432990 0.402075 0.909514
0.590692 0.436469 0.910826
0.763027 0.515618 0.913359
0.887327 0.611963 0.915953
0.938781 0.582177 0.880919
0.982605 0.622827 0.834958
1.000000 0.630701 0.778500
0.359258 0.441596 0.906065
0.421485 0.449012 0.906554
0.581018 0.480018 0.908202
0.755215 0.552300 0.911162
0.883604 0.651759 0.914977
0.934417 0.619959 0.883238
0.978576 0.653315 0.840238
1.000000 0.652735 0.785061
0.275731 0.548211 0.894774
0.351507 0.553124 0.896025
0.536919 0.580468 0.899718
0.726070 0.640009 0.904112
0.866789 0.730770 0.911101
0.921386 0.716915 0.890166
0.966308 0.733883 0.855741
0.993164 0.714748 0.804410
0.000000 0.666072 0.890593
0.168399 0.667567 0.889067
0.399390 0.674525 0.883421
0.651270 0.715053 0.889494
0.829038 0.787503 0.901701
0.907774 0.811917 0.901122
0.950469 0.812467 0.873136
0.979339 0.782528 0.826535
0.000000 0.798093 0.904356
0.000000 0.798734 0.903380
0.353460 0.801144 0.899687
0.581353 0.806607 0.892760
0.743221 0.815030 0.881895
0.894133 0.875975 0.905882
0.932799 0.861418 0.881743
0.962341 0.838865 0.845487
0.000000 0.909941 0.917693
0.000000 0.909483 0.917144
0.272801 0.907164 0.915007
0.558038 0.903655 0.911284
0.737606 0.902190 0.906615
0.853300 0.904051 0.901213
0.914916 0.901671 0.890227
0.957092 0.892943 0.869474
0.000000 0.995819 0.933867
0.000000 0.994903 0.933684
0.000000 0.991211 0.933654
0.495338 0.984466 0.934508
0.717708 0.970031 0.928618
0.849271 0.957733 0.921965
0.909178 0.940124 0.911131
0.957427 0.945037 0.900664
0.000000 1.000000 0.939239
0.000000 1.000000 0.938506
0.000000 1.000000 0.935729
0.227298 1.000000 0.930968
0.643519 1.000000 0.926268
0.833402 0.982910 0.924437
0.919646 0.968719 0.933410
0.939910 0.965026 0.926085
0.558770 0.541039 0.947082
0.588830 0.551110 0.947204
0.670649 0.578515 0.946380
0.774990 0.629023 0.945434
0.869596 0.701564 0.944945
0.932586 0.737240 0.944671
0.963714 0.718929 0.916777
0.993927 0.734676 0.885100
0.553002 0.565576 0.944030
0.582513 0.574121 0.944152
0.664149 0.598749 0.943694
0.768887 0.644800 0.942992
0.864378 0.711849 0.942840
0.928923 0.749416 0.942809
0.960510 0.728573 0.916197
0.991821 0.740627 0.884947
0.546960 0.643397 0.939483
0.579644 0.652644 0.939330
0.655909 0.669276 0.939025
0.759548 0.706172 0.938964
0.854643 0.759060 0.939635
0.923095 0.804623 0.941558
0.953887 0.786343 0.921538
0.985290 0.794034 0.896422
0.442329 0.706722 0.932219
0.480751 0.710018 0.932006
0.593957 0.726436 0.931762
0.735683 0.769162 0.932830
0.837949 0.809873 0.935241
0.915282 0.856931 0.940734
0.946166 0.847593 0.929046
0.977325 0.847990 0.909667
0.366308 0.789181 0.935271
0.403265 0.789761 0.934112
0.509361 0.793454 0.930632
0.636652 0.800992 0.925078
0.789273 0.833158 0.925811
0.892027 0.876219 0.934508
0.938689 0.888121 0.934813
0.968902 0.886137 0.918975
0.267826 0.874144 0.941711
0.327214 0.874327 0.941100
0.468727 0.875059 0.939086
0.619348 0.877104 0.935790
0.746731 0.880735 0.930724
0.842069 0.887297 0.923552
0.934051 0.924956 0.940795
0.960143 0.915129 0.925628
0.000000 0.948058 0.949828
0.189090 0.947417 0.949615
0.408484 0.944732 0.948394
0.593530 0.941314 0.946532
0.740963 0.938872 0.943816
0.843442 0.939452 0.941161
0.912016 0.942229 0.938903
0.951141 0.940520 0.931701
0.000000 1.000000 0.962097
0.000000 1.000000 0.961913
0.000000 1.000000 0.961639
0.489235 1.000000 0.960571
0.700710 0.993866 0.960601
0.833188 0.983581 0.956451
0.912322 0.975250 0.951873
0.948638 0.965728 0.948486
0.687068 0.672267 0.967315
0.700893 0.677638 0.967132
0.741024 0.691341 0.965972
0.801266 0.719692 0.964569
0.864469 0.758572 0.963012
0.920836 0.803555 0.962005
0.959350 0.804013 0.962188
0.979522 0.790372 0.937499
0.686397 0.686122 0.965881
0.700038 0.691066 0.965728
0.740108 0.704189 0.964782
0.799313 0.729824 0.963409
0.862486 0.766598 0.962066
0.918944 0.809323 0.961303
0.957580 0.811307 0.961456
0.978119 0.797330 0.937804
0.687098 0.730098 0.962676
0.699641 0.733577 0.962524
0.737148 0.742885 0.961608
0.797604 0.767422 0.961059
0.858915 0.796658 0.960143
0.914366 0.831235 0.959899
0.953368 0.840208 0.960418
0.974304 0.827207 0.940764
0.632868 0.756344 0.960357
0.655116 0.762966 0.960052
0.719142 0.784207 0.958587
0.789364 0.809262 0.957794
0.851957 0.832609 0.957733
0.907927 0.860197 0.958495
0.949035 0.877867 0.960052
0.969696 0.866361 0.945983
0.551293 0.801480 0.958434
0.570977 0.803647 0.958007
0.624842 0.808072 0.955840
0.724697 0.821714 0.955261
0.832151 0.858518 0.954620
0.895354 0.881956 0.956390
0.945312 0.909209 0.960235
0.965667 0.902434 0.952209
0.500999 0.860014 0.962280
0.521416 0.860349 0.961730
0.585412 0.861997 0.959960
0.674037 0.865721 0.957183
0.765103 0.872435 0.953124
0.871550 0.899321 0.953948
0.935943 0.926940 0.960021
0.962707 0.932219 0.958587
0.436500 0.919677 0.967956
0.465370 0.919585 0.967590
0.549645 0.919432 0.966491
0.660761 0.920317 0.964721
0.764828 0.922911 0.962127
0.844633 0.926909 0.958923
0.906767 0.933043 0.955138
0.960876 0.953948 0.963714
0.189059 0.973968 0.972473
0.262394 0.973114 0.972198
0.421576 0.970306 0.971313
0.591302 0.966278 0.970001
0.736843 0.963134 0.968383
0.838254 0.962921 0.966918
0.906584 0.964874 0.965789
0.952422 0.967102 0.964538
