data/fiter_cube/49007420/1023420/file.cube
# Created by Adobe Lightroom plugin Export LUT (1.17.0)
# www.johnrellis.com/lightroom/exportlut.htm
# Preset: 04 - 日系情绪-春 [云集]
# Color profile: C:\Program Files (x86)\Common Files\Adobe\Color\Profiles\Recommended\AdobeRGB1998.icc
LUT_3D_SIZE 5
DOMAIN_MIN 0.000000 0.000000 0.000000
DOMAIN_MAX 0.903226 0.903226 0.903226
0.020569 0.059266 0.065461
0.231693 0.014893 0.066682
0.743465 0.000000 0.000000
0.966094 0.000000 0.000000
1.000000 0.334905 0.208011
0.000000 0.344396 0.205631
0.166781 0.316258 0.069734
0.741115 0.306950 0.000000
0.960204 0.352850 0.000000
1.000000 0.442206 0.205112
0.000000 0.839567 0.522210
0.000000 0.824552 0.457099
0.625483 0.765194 0.280369
0.947509 0.723903 0.000000
1.000000 0.673762 0.204166
0.000000 0.989349 0.685756
0.000000 0.984222 0.672419
0.603296 0.936339 0.679866
0.824063 0.912871 0.567803
1.000000 0.889799 0.235264
0.000000 1.000000 0.756069
0.000000 1.000000 0.757900
0.633387 0.997650 0.811582
0.838468 0.969635 0.839475
0.913634 0.966430 0.786801
0.000000 0.081392 0.340764
0.325383 0.000000 0.318975
0.755825 0.000000 0.196017
0.964538 0.248051 0.069459
1.000000 0.369635 0.209445
0.000000 0.352667 0.436805
0.180270 0.369879 0.404456
0.750484 0.356634 0.288548
0.958129 0.409888 0.146212
1.000000 0.463294 0.206699
0.000000 0.865751 0.667201
0.000000 0.851560 0.625422
0.644251 0.767025 0.507164
0.936461 0.734218 0.354467
1.000000 0.679896 0.208927
0.000000 0.993713 0.746120
0.000000 0.987579 0.736782
0.634394 0.938201 0.742550
0.830747 0.911681 0.673671
1.000000 0.892027 0.449775
0.000000 1.000000 0.781704
0.000000 1.000000 0.782742
0.627893 0.999298 0.826078
0.850950 0.969574 0.858701
0.917296 0.965850 0.820249
0.000000 0.207004 0.772671
0.443641 0.216342 0.788449
0.840757 0.212833 0.755428
0.965454 0.329473 0.576715
1.000000 0.465248 0.476753
0.000000 0.413367 0.741329
0.254337 0.423468 0.770779
0.808164 0.498848 0.776608
0.941222 0.504234 0.624994
1.000000 0.534295 0.497353
0.000000 0.784085 0.825711
0.000000 0.788083 0.820127
0.683162 0.789212 0.797360
0.893797 0.776211 0.741238
1.000000 0.728847 0.603082
0.000000 0.998871 0.874174
0.000000 0.995361 0.870207
0.628779 0.952789 0.851865
0.853574 0.908232 0.831846
0.972351 0.900328 0.763088
0.000000 1.000000 0.862394
0.000000 1.000000 0.858366
0.529747 1.000000 0.861509
0.884062 0.969635 0.905608
0.927886 0.964935 0.882658
0.422858 0.428748 0.920745
0.570001 0.459602 0.921263
0.829435 0.595026 0.923705
0.946380 0.623011 0.891783
1.000000 0.659602 0.811795
0.386419 0.544366 0.912016
0.541955 0.569177 0.913664
0.810208 0.675410 0.918303
0.934722 0.715694 0.898100
0.993591 0.721553 0.828489
0.099519 0.732692 0.907164
0.370367 0.737270 0.902831
0.712245 0.774380 0.897002
0.913512 0.849241 0.912627
0.971801 0.825711 0.858885
0.000000 0.921691 0.927153
0.227604 0.919219 0.925322
0.659236 0.913542 0.919646
0.870298 0.915129 0.911925
0.954314 0.907652 0.889342
0.000000 1.000000 0.950042
0.000000 1.000000 0.947417
0.518853 1.000000 0.938933
0.858396 0.980346 0.932403
0.942046 0.965118 0.932219
0.687068 0.672267 0.967315
0.728542 0.686580 0.966308
0.833341 0.738186 0.963806
0.933349 0.815335 0.961975
0.979522 0.790372 0.937499
0.688991 0.719142 0.963775
0.728359 0.730343 0.963043
0.829862 0.772091 0.961273
0.928344 0.835050 0.960510
0.975494 0.819638 0.940093
0.585382 0.775174 0.958434
0.650568 0.783932 0.957763
0.810330 0.834348 0.955718
0.914488 0.876890 0.957671
0.967468 0.884459 0.948821
0.493141 0.876158 0.963928
0.562371 0.877348 0.962371
0.722530 0.883635 0.957671
0.881010 0.908598 0.954284
0.962341 0.937987 0.960174
0.189059 0.973968 0.972473
0.378698 0.971191 0.971588
0.668757 0.964446 0.969207
0.857633 0.963287 0.966613
0.952422 0.967102 0.964538
