data/fiter_cube/52608991/1023028/file.cube
# Created by Adobe Lightroom plugin Export LUT (1.17.0)
# www.johnrellis.com/lightroom/exportlut.htm
# Preset: 大神蓝橙街拍_08 云集
# Color profile: C:\Program Files (x86)\Common Files\Adobe\Color\Profiles\Recommended\AdobeRGB1998.icc
LUT_3D_SIZE 8
DOMAIN_MIN 0.000000 0.000000 0.000000
DOMAIN_MAX 0.903226 0.903226 0.903226
0.121706 0.121706 0.121706
0.188174 0.115053 0.123720
0.342687 0.151003 0.126741
0.493965 0.203433 0.124605
0.652949 0.269780 0.127443
0.819547 0.342168 0.141817
0.931701 0.395941 0.179507
1.000000 0.445594 0.242924
0.129915 0.136995 0.128359
0.189487 0.156893 0.126192
0.334630 0.185275 0.128420
0.481025 0.226780 0.125643
0.637232 0.284062 0.129152
0.794247 0.346319 0.139437
0.915465 0.398352 0.173983
1.000000 0.448341 0.237491
0.180880 0.194156 0.166964
0.199649 0.194369 0.173953
0.349584 0.263188 0.119753
0.487526 0.301701 0.133761
0.647028 0.347875 0.136416
0.802060 0.398627 0.148806
0.932433 0.447303 0.192447
1.000000 0.487312 0.258335
0.248722 0.272251 0.222782
0.254582 0.255100 0.239475
0.344701 0.308080 0.185794
0.525566 0.388067 0.095644
0.691768 0.445411 0.137392
0.823545 0.482033 0.170535
0.933471 0.508202 0.210483
1.000000 0.534386 0.273045
0.310124 0.341955 0.274235
0.318639 0.328374 0.286717
0.355077 0.342016 0.289982
0.514488 0.437598 0.180606
0.694911 0.509972 0.062989
0.818906 0.541131 0.149416
0.922179 0.572229 0.227207
1.000000 0.592554 0.293126
0.383154 0.423285 0.337499
0.396063 0.417273 0.351476
0.383246 0.382910 0.381140
0.515160 0.472816 0.319341
0.702815 0.579919 0.138643
0.842527 0.617395 0.074281
0.937896 0.634607 0.207736
1.000000 0.659236 0.319585
0.465126 0.516411 0.406287
0.473030 0.506889 0.414923
0.468818 0.469673 0.436286
0.527062 0.506310 0.422187
0.692714 0.612329 0.329259
0.873289 0.707729 0.000000
0.953368 0.700954 0.165652
1.000000 0.706691 0.298833
0.566430 0.632990 0.489601
0.572137 0.622065 0.495552
0.577386 0.588098 0.517510
0.575860 0.569909 0.543786
0.722957 0.669886 0.469032
0.876188 0.757107 0.349432
0.994568 0.796780 0.174380
1.000000 0.776638 0.306035
0.113100 0.120546 0.177035
0.168582 0.134707 0.171481
0.321752 0.174746 0.145418
0.468971 0.235019 0.129061
0.624659 0.290440 0.129641
0.779080 0.347326 0.138399
0.905364 0.396582 0.169986
1.000000 0.442573 0.230228
0.104646 0.152529 0.182620
0.175753 0.175753 0.175753
0.322148 0.206577 0.158877
0.467109 0.251835 0.133608
0.619287 0.303288 0.131441
0.768551 0.355261 0.138918
0.893492 0.400610 0.167208
0.993774 0.444556 0.224765
0.138552 0.237980 0.200381
0.220066 0.229618 0.210056
0.343877 0.271763 0.158999
0.475196 0.307713 0.149294
0.621607 0.352361 0.137453
0.772213 0.398413 0.146578
0.901671 0.440284 0.178927
1.000000 0.479500 0.241154
0.217624 0.307103 0.219821
0.271061 0.291508 0.248783
0.339879 0.313878 0.227604
0.507256 0.381231 0.137270
0.645960 0.423499 0.137209
0.778561 0.464546 0.160769
0.901549 0.495338 0.193545
0.999145 0.524956 0.255100
0.305028 0.373083 0.281285
0.327123 0.356786 0.293858
0.348608 0.342351 0.316503
0.499580 0.431617 0.215244
0.668605 0.495125 0.118532
0.795621 0.529839 0.139101
0.906188 0.564752 0.215457
1.000000 0.586969 0.281407
0.377966 0.442786 0.339330
0.392248 0.430426 0.348943
0.394598 0.393500 0.378515
0.499306 0.463691 0.334691
0.685267 0.570184 0.182925
0.834379 0.614740 0.104158
0.930816 0.631891 0.199466
1.000000 0.654383 0.308629
0.453895 0.524407 0.400824
0.461952 0.510735 0.406378
0.468940 0.474067 0.429206
0.510033 0.494118 0.428809
0.678706 0.604150 0.343755
0.860746 0.700771 0.086763
0.942199 0.694057 0.150851
1.000000 0.699214 0.283177
0.555413 0.639246 0.483070
0.565148 0.629816 0.490517
0.577966 0.595727 0.513298
0.559808 0.557733 0.548272
0.729763 0.680293 0.492653
0.877134 0.761715 0.371832
0.992065 0.796414 0.167819
1.000000 0.774105 0.297093
0.000000 0.154177 0.316808
0.000000 0.160769 0.318181
0.301793 0.194858 0.310338
0.472724 0.244480 0.261173
0.638087 0.312627 0.236881
0.787228 0.380346 0.215213
0.911070 0.434638 0.182162
1.000000 0.468025 0.241855
0.000000 0.192325 0.319280
0.084382 0.196292 0.320775
0.303227 0.226841 0.309361
0.466865 0.269780 0.267063
0.627619 0.326177 0.242344
0.777096 0.386572 0.215518
0.902800 0.438514 0.181308
1.000000 0.472328 0.239841
0.000000 0.258793 0.333471
0.115450 0.269139 0.332586
0.311772 0.311772 0.311772
0.471748 0.338293 0.290227
0.635615 0.380652 0.263066
0.781247 0.425910 0.229831
0.903624 0.468727 0.195377
1.000000 0.498177 0.247684
0.000000 0.366064 0.363806
0.108095 0.386969 0.372625
0.344945 0.358129 0.331121
0.509697 0.411261 0.265354
0.651606 0.453193 0.281407
0.788327 0.488930 0.255528
0.907927 0.520500 0.222416
1.000000 0.543297 0.265171
0.171328 0.454597 0.360815
0.236820 0.451637 0.344762
0.391852 0.416480 0.365606
0.495735 0.455238 0.332433
0.678431 0.520470 0.244022
0.799435 0.549310 0.257145
0.908171 0.578973 0.248295
1.000000 0.599756 0.287785
0.292515 0.518242 0.357824
0.328801 0.513787 0.353918
0.439857 0.473945 0.402075
0.482246 0.467079 0.408545
0.666743 0.573480 0.295995
0.825589 0.621332 0.227787
0.924834 0.638880 0.249332
1.000000 0.661250 0.307805
0.392004 0.603113 0.397009
0.433753 0.592737 0.415534
0.501244 0.547326 0.449531
0.488228 0.487190 0.482704
0.663172 0.605921 0.408423
0.850156 0.705013 0.243290
0.944366 0.705501 0.223178
1.000000 0.710292 0.289769
0.520287 0.704005 0.485908
0.546227 0.692866 0.499031
0.590478 0.651850 0.520714
0.598718 0.598108 0.564721
0.706203 0.671931 0.538903
0.867033 0.765988 0.434852
0.990997 0.804807 0.216526
1.000000 0.780209 0.297551
0.000000 0.206302 0.450202
0.000000 0.211063 0.454994
0.161868 0.216373 0.460243
0.435981 0.253391 0.449287
0.621027 0.326940 0.400275
0.773281 0.385107 0.363592
0.897429 0.440192 0.333349
0.997650 0.481880 0.296208
0.000000 0.237675 0.460121
0.000000 0.235752 0.463264
0.151827 0.233188 0.464118
0.440681 0.278752 0.453498
0.620050 0.345983 0.403082
0.768856 0.397528 0.366491
0.893492 0.447547 0.334295
0.995941 0.486610 0.294835
0.000000 0.287449 0.467506
0.000000 0.290562 0.469032
0.178012 0.303136 0.466499
0.446235 0.347814 0.454841
0.622461 0.407233 0.417762
0.779110 0.451240 0.390021
0.908782 0.492836 0.359014
1.000000 0.517998 0.311284
0.000000 0.366491 0.484474
0.000000 0.371527 0.483650
0.211368 0.398901 0.483406
0.457618 0.457618 0.457618
0.625360 0.485267 0.438666
0.775418 0.511925 0.406195
0.901366 0.537499 0.368414
1.000000 0.559136 0.327459
0.000000 0.466926 0.502831
0.000000 0.475257 0.502586
0.228550 0.524163 0.519158
0.489082 0.503319 0.474434
0.666224 0.555688 0.404303
0.791409 0.585931 0.422583
0.905974 0.606317 0.396399
1.000000 0.616388 0.355291
0.000000 0.633295 0.593835
0.000000 0.639704 0.583398
0.310918 0.617060 0.510613
0.525170 0.552514 0.496223
0.652003 0.600366 0.452430
0.823239 0.648859 0.372107
0.919768 0.663966 0.393500
1.000000 0.678401 0.383124
0.214694 0.701991 0.549340
0.269566 0.698512 0.535332
0.402930 0.679774 0.492439
0.572656 0.613764 0.527672
0.638239 0.613855 0.523461
0.831846 0.718593 0.404120
0.940856 0.724422 0.351110
1.000000 0.725887 0.371588
0.379980 0.795712 0.553002
0.410864 0.791287 0.544305
0.501274 0.769039 0.522179
0.647913 0.702541 0.587304
0.653529 0.646571 0.616510
0.842405 0.769711 0.535058
0.982025 0.820066 0.351293
1.000000 0.791836 0.351629
0.000000 0.267155 0.590082
0.000000 0.267124 0.594232
0.000000 0.258854 0.600092
0.318669 0.296880 0.606592
0.579675 0.333837 0.597925
0.753597 0.413367 0.538598
0.884489 0.480873 0.508812
0.986877 0.529290 0.483650
0.000000 0.286290 0.596155
0.000000 0.285649 0.601526
0.000000 0.280766 0.605341
0.320745 0.314519 0.608515
0.579461 0.349889 0.596796
0.753658 0.427985 0.540581
0.884398 0.491341 0.511711
0.986694 0.534813 0.483711
0.000000 0.330266 0.606012
0.000000 0.332341 0.608911
0.000000 0.336797 0.614282
0.314580 0.361151 0.609796
0.578271 0.399756 0.592798
0.746212 0.468879 0.541039
0.879942 0.519188 0.514580
0.984039 0.548363 0.477119
0.000000 0.394995 0.621485
0.000000 0.397833 0.622095
0.000000 0.411017 0.623774
0.322026 0.438239 0.618097
0.587121 0.485451 0.596094
0.750729 0.542351 0.558190
0.883055 0.569604 0.525628
0.988891 0.578576 0.470680
0.000000 0.480323 0.639490
0.000000 0.485023 0.640162
0.000000 0.500908 0.637781
0.349615 0.534722 0.627924
0.592676 0.592676 0.592676
0.754086 0.615320 0.571160
0.884947 0.627802 0.533257
0.989502 0.631800 0.481636
0.000000 0.570916 0.647761
0.000000 0.576287 0.647333
0.135988 0.593256 0.641749
0.347936 0.645655 0.647486
0.603815 0.618708 0.588525
0.787869 0.673762 0.525261
0.897063 0.699794 0.552605
0.992187 0.706813 0.521477
0.000000 0.729549 0.724819
0.000000 0.736355 0.726131
0.000000 0.763790 0.732753
0.389960 0.759640 0.657008
0.644068 0.673762 0.612787
0.782406 0.724422 0.565393
0.922210 0.745754 0.485542
0.997894 0.748470 0.501030
0.000000 0.870787 0.773892
0.000000 0.866941 0.759518
0.266331 0.852598 0.708919
0.502861 0.828031 0.637537
0.700893 0.744015 0.654322
0.781643 0.752255 0.647730
0.947662 0.828031 0.519402
1.000000 0.808957 0.468269
0.000000 0.330785 0.742123
0.000000 0.330144 0.746548
0.000000 0.325231 0.751492
0.000000 0.319860 0.755673
0.464607 0.382238 0.746883
0.711086 0.422156 0.732692
0.863371 0.535332 0.680354
0.962432 0.642939 0.689937
0.000000 0.340642 0.738521
0.000000 0.339239 0.740322
0.000000 0.335454 0.744747
0.000000 0.332189 0.747860
0.460883 0.390173 0.740597
0.707301 0.430365 0.728084
0.860624 0.541833 0.678645
0.961242 0.643824 0.687343
0.000000 0.381262 0.753048
0.000000 0.380194 0.752712
0.000000 0.379706 0.753628
0.072023 0.386114 0.753964
0.465919 0.433997 0.744289
0.711299 0.473915 0.729976
0.860807 0.578180 0.685359
0.962005 0.658839 0.688838
0.000000 0.434089 0.760952
0.000000 0.434546 0.759884
0.000000 0.440925 0.760830
0.159487 0.459632 0.765530
0.480323 0.510979 0.757504
0.726345 0.554528 0.740749
0.866056 0.641627 0.703700
0.966766 0.685817 0.692378
0.000000 0.498085 0.763241
0.000000 0.500725 0.763729
0.000000 0.510491 0.764248
0.193759 0.530968 0.763119
0.455909 0.566644 0.753536
0.722408 0.627985 0.730861
0.860777 0.688655 0.703914
0.968536 0.700710 0.671229
0.000000 0.576806 0.770382
0.000000 0.581750 0.772549
0.000000 0.593896 0.772000
0.234318 0.617548 0.768307
0.475410 0.658228 0.756374
0.728634 0.728511 0.728573
0.868406 0.749752 0.713863
0.975097 0.749386 0.673213
0.000000 0.682490 0.800381
0.000000 0.687617 0.801511
0.000000 0.701228 0.799374
0.265995 0.728725 0.793942
0.491859 0.784085 0.790494
0.744015 0.757321 0.730312
0.894438 0.794461 0.672908
0.978149 0.805234 0.684108
0.000000 0.812467 0.845640
0.000000 0.817380 0.846036
0.000000 0.836240 0.848417
0.190738 0.874235 0.854978
0.514855 0.885679 0.794339
0.768460 0.795651 0.740139
0.896025 0.842069 0.702815
1.000000 0.844694 0.630060
0.000000 0.375891 0.852262
0.000000 0.375250 0.853941
0.000000 0.372534 0.856077
0.000000 0.377417 0.858793
0.345037 0.431159 0.855253
0.597436 0.480995 0.847349
0.814389 0.538109 0.836088
0.938476 0.672541 0.803281
0.000000 0.383581 0.850217
0.000000 0.382910 0.851713
0.000000 0.380713 0.853788
0.000000 0.385901 0.855253
0.335454 0.432227 0.852140
0.594537 0.485389 0.843931
0.810941 0.540642 0.832273
0.936004 0.672450 0.800076
0.000000 0.412024 0.855528
0.000000 0.411475 0.855955
0.000000 0.411261 0.856840
0.000000 0.419226 0.857542
0.313970 0.448157 0.854398
0.600336 0.518486 0.845274
0.815030 0.574701 0.834653
0.937865 0.697017 0.806302
0.000000 0.455268 0.861875
0.000000 0.454963 0.861173
0.000000 0.456886 0.861234
0.000000 0.468086 0.861875
0.315129 0.496315 0.858793
0.612665 0.575097 0.849241
0.821866 0.628809 0.838285
0.939818 0.730800 0.813046
0.000000 0.509331 0.863981
0.000000 0.510002 0.863554
0.000000 0.514061 0.863279
0.000000 0.523766 0.863401
0.303380 0.550225 0.860746
0.617029 0.636225 0.848966
0.824369 0.686122 0.836667
0.941009 0.768734 0.818265
0.000000 0.576959 0.869749
0.000000 0.578790 0.869871
0.000000 0.585748 0.869993
0.000000 0.599908 0.869963
0.317357 0.626551 0.867369
0.599329 0.690517 0.858335
0.834012 0.762570 0.840726
0.945037 0.812955 0.825650
0.000000 0.656062 0.878904
0.000000 0.658778 0.879362
0.000000 0.667872 0.879149
0.000000 0.685939 0.878355
0.367895 0.718349 0.873991
0.627375 0.776669 0.863340
0.840116 0.840055 0.840085
0.952087 0.853086 0.824063
0.000000 0.751461 0.902770
0.000000 0.754269 0.902647
0.000000 0.766659 0.904112
0.000000 0.788022 0.902800
0.394049 0.824094 0.897093
0.641077 0.882689 0.891234
0.849271 0.860563 0.837827
0.973175 0.893339 0.801328
0.000000 0.410803 0.947265
0.000000 0.414313 0.947387
0.000000 0.415015 0.947509
0.000000 0.428260 0.948119
0.183719 0.464393 0.946807
0.564233 0.577905 0.939391
0.746914 0.638514 0.933440
0.908507 0.703304 0.926055
0.000000 0.417273 0.946227
0.000000 0.419898 0.946471
0.000000 0.420813 0.946838
0.000000 0.433600 0.947112
0.182284 0.469368 0.945892
0.564202 0.582330 0.938476
0.746242 0.641688 0.932433
0.908110 0.706294 0.925414
0.000000 0.437537 0.946624
0.000000 0.438849 0.946715
0.000000 0.440009 0.946563
0.000000 0.453895 0.948028
0.184543 0.490028 0.946319
0.570275 0.603632 0.938140
0.750118 0.660914 0.932280
0.909606 0.722560 0.925841
0.000000 0.465553 0.949004
0.000000 0.468391 0.949065
0.000000 0.470222 0.949126
0.000000 0.483040 0.949554
0.162325 0.519493 0.948119
0.551019 0.616571 0.941131
0.757961 0.694331 0.933654
0.912535 0.749142 0.927031
0.000000 0.513481 0.950988
0.000000 0.513970 0.951385
0.000000 0.513542 0.951446
0.000000 0.514611 0.951934
0.000000 0.546410 0.950378
0.506310 0.627008 0.944427
0.764157 0.733669 0.935027
0.916167 0.783444 0.928222
0.000000 0.571527 0.954376
0.000000 0.571801 0.954131
0.000000 0.573510 0.953674
0.000000 0.578515 0.953521
0.000000 0.591760 0.953338
0.454353 0.654871 0.950195
0.776394 0.786831 0.939300
0.922271 0.828275 0.930999
0.000000 0.639307 0.959686
0.000000 0.640314 0.959503
0.000000 0.644373 0.959045
0.000000 0.654078 0.958862
0.000000 0.674372 0.958007
0.452735 0.721340 0.954894
0.745632 0.812711 0.945678
0.927642 0.877501 0.932464
0.000000 0.714626 0.965576
0.000000 0.716213 0.965393
0.000000 0.722835 0.965332
0.000000 0.737514 0.965606
0.196933 0.765286 0.964843
0.524712 0.814725 0.959777
0.769528 0.881437 0.950530
0.934997 0.934997 0.934997
