data/fiter_cube/52608991/1023028/file.cube
# Created by Adobe Lightroom plugin Export LUT (1.17.0)
# www.johnrellis.com/lightroom/exportlut.htm
# Preset: 大神蓝橙街拍_08 云集
# Color profile: C:\Program Files (x86)\Common Files\Adobe\Color\Profiles\Recommended\AdobeRGB1998.icc
LUT_3D_SIZE 32
DOMAIN_MIN 0.0 0.0 0.0
DOMAIN_MAX 1.0 1.0 1.0
0.121706 0.121706 0.121706
0.121706 0.121706 0.121706
0.122377 0.121584 0.121889
0.150179 0.117678 0.122499
0.188174 0.115053 0.123720
0.226902 0.121614 0.125093
0.265660 0.130434 0.125978
0.304295 0.140322 0.126650
0.342687 0.151003 0.126741
0.380591 0.162997 0.126009
0.418555 0.175479 0.125002
0.456397 0.188815 0.124636
0.493965 0.203433 0.124605
0.531151 0.219059 0.124910
0.568048 0.234501 0.125948
0.604730 0.249943 0.126497
0.652949 0.269780 0.127443
0.701106 0.290227 0.129427
0.743313 0.308446 0.131991
0.783200 0.325902 0.136019
0.819547 0.342168 0.141817
0.852323 0.357397 0.149264
0.881407 0.371008 0.157961
0.907622 0.384039 0.168032
0.931701 0.395941 0.179507
0.954223 0.407538 0.191989
0.976043 0.419562 0.206882
0.997162 0.432136 0.223453
1.000000 0.445594 0.242924
1.000000 0.460395 0.265080
1.000000 0.476753 0.290990
1.000000 0.495308 0.320867
0.121706 0.121706 0.121706
0.121706 0.121706 0.121706
0.123140 0.121462 0.121675
0.150790 0.117556 0.122316
0.187900 0.120729 0.124056
0.225895 0.127230 0.125429
0.264286 0.135439 0.126345
0.302373 0.144381 0.126955
0.340276 0.154910 0.127108
0.378088 0.165866 0.126284
0.415625 0.178042 0.125216
0.453010 0.190890 0.124575
0.490150 0.205112 0.124666
0.527001 0.220096 0.125338
0.563439 0.235264 0.125978
0.599817 0.250584 0.126497
0.646784 0.269749 0.127474
0.693324 0.288975 0.129091
0.734524 0.306554 0.131624
0.774105 0.323766 0.135073
0.810849 0.339849 0.140200
0.844175 0.354803 0.147219
0.873869 0.368658 0.155673
0.900786 0.381445 0.165377
0.925444 0.393500 0.176364
0.948699 0.405310 0.188937
0.971130 0.417365 0.203403
0.992920 0.430152 0.220066
1.000000 0.443610 0.239322
1.000000 0.458289 0.261570
1.000000 0.474525 0.287083
1.000000 0.492927 0.316716
0.121706 0.121706 0.121706
0.121706 0.121706 0.121706
0.124025 0.121279 0.121859
0.151217 0.122316 0.122866
0.187594 0.127718 0.124605
0.225315 0.134279 0.125765
0.263005 0.141421 0.126619
0.300481 0.150240 0.127077
0.338384 0.159792 0.127108
0.375738 0.170413 0.126375
0.413336 0.181918 0.125704
0.450660 0.194491 0.124758
0.487617 0.208499 0.124514
0.524376 0.223056 0.125246
0.560754 0.237644 0.126345
0.597040 0.252262 0.126650
0.643366 0.271244 0.127626
0.688838 0.289921 0.129213
0.729610 0.307134 0.131624
0.768978 0.323857 0.134798
0.806149 0.339818 0.139925
0.839841 0.354864 0.146426
0.869902 0.368475 0.154665
0.897185 0.381231 0.164126
0.922148 0.393286 0.175174
0.945708 0.404852 0.187533
0.968475 0.417151 0.201724
0.990570 0.429755 0.218448
1.000000 0.443183 0.237613
1.000000 0.457862 0.259709
1.000000 0.473976 0.285130
1.000000 0.492226 0.314702
0.123354 0.124453 0.122957
0.124300 0.126284 0.123720
0.128176 0.127565 0.125734
0.152956 0.135317 0.124331
0.188754 0.142092 0.125887
0.225650 0.148074 0.127047
0.262760 0.154482 0.127749
0.300053 0.162264 0.128023
0.337285 0.170596 0.127810
0.374395 0.180484 0.126741
0.411536 0.191043 0.126009
0.448493 0.203067 0.125093
0.484962 0.216098 0.125002
0.521538 0.229862 0.125826
0.557671 0.243442 0.126345
0.593805 0.257572 0.127474
0.639826 0.276188 0.128145
0.683680 0.293584 0.129610
0.723110 0.309728 0.131838
0.761349 0.325566 0.134798
0.798245 0.340978 0.139223
0.832181 0.355474 0.145602
0.863249 0.369299 0.153384
0.891905 0.382238 0.162814
0.918456 0.394690 0.173953
0.943481 0.406836 0.187045
0.967254 0.419318 0.201602
0.989929 0.432197 0.218753
1.000000 0.445502 0.238132
1.000000 0.459876 0.260014
1.000000 0.475624 0.284916
1.000000 0.493233 0.313787
0.129915 0.136995 0.128359
0.130617 0.138491 0.128939
0.136263 0.136324 0.134035
0.152865 0.145235 0.127474
0.189487 0.156893 0.126192
0.225101 0.165530 0.128878
0.261326 0.171145 0.129610
0.298039 0.177951 0.129091
0.334630 0.185275 0.128420
0.371283 0.194064 0.127657
0.407935 0.203738 0.126619
0.444709 0.214633 0.125826
0.481025 0.226780 0.125643
0.517388 0.239475 0.126802
0.553765 0.252598 0.127321
0.590417 0.266178 0.127810
0.637232 0.284062 0.129152
0.680476 0.300786 0.130404
0.719966 0.316381 0.132143
0.757809 0.331609 0.135286
0.794247 0.346319 0.139437
0.828183 0.360327 0.145418
0.859312 0.373541 0.153048
0.888426 0.386114 0.162631
0.915465 0.398352 0.173983
0.940917 0.410590 0.186618
0.965026 0.422705 0.201633
0.987945 0.435157 0.218326
1.000000 0.448341 0.237491
1.000000 0.462379 0.259068
1.000000 0.477638 0.283909
1.000000 0.494972 0.312657
0.137667 0.149477 0.134737
0.141299 0.149203 0.136843
0.145785 0.146853 0.141512
0.155428 0.152102 0.140932
0.187625 0.168704 0.126802
0.227329 0.180758 0.127321
0.263737 0.190372 0.129793
0.298253 0.197177 0.130343
0.334447 0.203799 0.129549
0.370672 0.211521 0.128481
0.406897 0.220371 0.127535
0.443397 0.230167 0.126986
0.479500 0.241306 0.127199
0.515801 0.252995 0.127871
0.552148 0.265019 0.128603
0.591302 0.278874 0.129244
0.636713 0.295598 0.130159
0.679316 0.311620 0.131502
0.718654 0.326665 0.133272
0.756954 0.341009 0.136721
0.793912 0.355413 0.140658
0.828305 0.369177 0.146792
0.902983 0.405127 0.171054
0.928008 0.416388 0.182712
0.950866 0.426856 0.195438
0.972076 0.437354 0.209445
0.992065 0.447883 0.224857
1.000000 0.458930 0.241917
1.000000 0.470771 0.261143
1.000000 0.483925 0.283238
1.000000 0.498451 0.308293
1.000000 0.514916 0.336797
0.150973 0.164401 0.143893
0.155337 0.162631 0.146914
0.158389 0.160220 0.151095
0.163607 0.161898 0.155062
0.190341 0.178286 0.142336
0.232425 0.199619 0.124544
0.273228 0.210971 0.126497
0.311040 0.220798 0.128481
0.344335 0.228977 0.130617
0.380438 0.236545 0.129885
0.417212 0.244816 0.129213
0.453925 0.254032 0.128786
0.490120 0.264073 0.129213
0.526207 0.274449 0.129641
0.561975 0.285191 0.130220
0.604608 0.299901 0.131106
0.650446 0.316045 0.132265
0.692622 0.331212 0.133730
0.732509 0.345525 0.136477
0.772305 0.360418 0.139803
0.811307 0.375372 0.145815
0.848478 0.390204 0.154116
0.882933 0.404486 0.164767
0.914092 0.417823 0.177768
0.941711 0.430213 0.191928
0.965759 0.441566 0.207126
0.987274 0.452430 0.222812
1.000000 0.463294 0.240177
1.000000 0.474800 0.259617
1.000000 0.487312 0.281132
1.000000 0.501244 0.305852
1.000000 0.517113 0.333928
0.165347 0.177066 0.153902
0.168368 0.174777 0.156893
0.170565 0.172396 0.160830
0.169955 0.169741 0.168551
0.193729 0.185641 0.157321
0.224796 0.202914 0.140749
0.270634 0.225315 0.122866
0.310979 0.236515 0.123842
0.348730 0.246555 0.125948
0.381537 0.254917 0.128481
0.415473 0.264714 0.131411
0.451759 0.272831 0.130770
0.487831 0.281804 0.130953
0.523613 0.291295 0.131289
0.559228 0.301213 0.132113
0.604028 0.316167 0.132753
0.647425 0.330724 0.133974
0.688136 0.344396 0.135409
0.727077 0.357580 0.137819
0.766354 0.371313 0.141573
0.805173 0.385626 0.147036
0.842283 0.399420 0.154910
0.876799 0.412970 0.165255
0.908141 0.425788 0.177401
0.936126 0.437415 0.191226
0.960632 0.448280 0.206088
0.982666 0.458595 0.221866
1.000000 0.468910 0.238987
1.000000 0.480049 0.258122
1.000000 0.492042 0.279576
1.000000 0.505547 0.304204
1.000000 0.520836 0.332097
0.180880 0.194156 0.166964
0.183474 0.192233 0.169558
0.185672 0.189487 0.173068
0.185031 0.184604 0.180514
0.199649 0.194369 0.173953
0.227756 0.211215 0.157687
0.262028 0.229648 0.137270
0.310216 0.252445 0.119570
0.349584 0.263188 0.119753
0.387213 0.273655 0.122499
0.420050 0.282231 0.125765
0.453223 0.291997 0.130556
0.487526 0.301701 0.133761
0.523095 0.310277 0.133791
0.562463 0.321447 0.134463
0.605432 0.335027 0.135256
0.647028 0.347875 0.136416
0.686580 0.360357 0.137667
0.724819 0.372351 0.140139
0.763546 0.385321 0.143526
0.802060 0.398627 0.148806
0.838834 0.411749 0.156558
0.873167 0.424353 0.166690
0.904387 0.436255 0.178805
0.932433 0.447303 0.192447
0.957153 0.457374 0.206699
0.979461 0.467109 0.222263
1.000000 0.476905 0.239414
1.000000 0.487312 0.258335
1.000000 0.498756 0.279515
1.000000 0.511498 0.303899
1.000000 0.526116 0.331487
0.196780 0.212192 0.180301
0.199252 0.210575 0.182528
0.201358 0.207645 0.185672
0.202335 0.202579 0.192325
0.205997 0.203830 0.194644
0.232212 0.220737 0.179110
0.263676 0.238499 0.158297
0.300511 0.257359 0.131746
0.349126 0.279515 0.114534
0.387304 0.289708 0.114626
0.424659 0.300298 0.118563
0.457069 0.308721 0.123690
0.489845 0.318334 0.129671
0.522911 0.329015 0.135134
0.565820 0.342901 0.137789
0.607874 0.355505 0.138491
0.649470 0.367803 0.139498
0.689021 0.379461 0.140871
0.726894 0.390936 0.143557
0.764736 0.402594 0.147036
0.801724 0.414527 0.151888
0.836637 0.425940 0.159457
0.869230 0.436866 0.168582
0.899290 0.447272 0.179843
0.926787 0.457160 0.192416
0.951690 0.466560 0.206516
0.974701 0.475685 0.222202
0.996216 0.485237 0.239353
1.000000 0.495460 0.258640
1.000000 0.506676 0.280430
1.000000 0.519310 0.304936
1.000000 0.533776 0.333227
0.212314 0.229953 0.192905
0.214481 0.228305 0.195102
0.216861 0.225650 0.198001
0.218753 0.220859 0.203952
0.214511 0.214298 0.213199
0.237064 0.229709 0.200931
0.267094 0.248020 0.182498
0.300999 0.266575 0.158358
0.344457 0.289494 0.123140
0.388556 0.306920 0.107973
0.426001 0.316777 0.109133
0.462898 0.327520 0.114778
0.494728 0.335943 0.122103
0.531945 0.348333 0.128817
0.570703 0.362219 0.135164
0.608972 0.375830 0.142000
0.649256 0.387091 0.142763
0.687800 0.397772 0.144350
0.725063 0.408118 0.146639
0.762387 0.419043 0.149874
0.799100 0.430030 0.154818
0.833860 0.440833 0.161898
0.866514 0.451118 0.171450
0.896605 0.460853 0.182345
0.924132 0.469978 0.195163
0.949035 0.478492 0.208713
0.971923 0.486885 0.223789
0.993439 0.495552 0.240726
1.000000 0.505089 0.259525
1.000000 0.515526 0.281102
1.000000 0.527459 0.305608
1.000000 0.541253 0.333562
0.228367 0.248386 0.206180
0.230442 0.247044 0.208072
0.232761 0.244450 0.210880
0.235233 0.239689 0.216342
0.233707 0.233097 0.224979
0.242985 0.238956 0.222538
0.271092 0.257359 0.206271
0.303777 0.276432 0.184360
0.339971 0.295659 0.155856
0.389288 0.322576 0.112245
0.428656 0.335241 0.100130
0.465522 0.344976 0.103212
0.528191 0.373419 0.110323
0.571740 0.388983 0.119142
0.613672 0.403662 0.128054
0.653895 0.417731 0.136995
0.691188 0.430610 0.146944
0.726925 0.441260 0.153323
0.762325 0.449714 0.156435
0.796719 0.458045 0.161135
0.829068 0.466133 0.167300
0.859586 0.474006 0.175296
0.887907 0.481300 0.185031
0.914397 0.488533 0.196597
0.938872 0.495338 0.209049
0.961425 0.502159 0.222599
0.982330 0.508934 0.237613
1.000000 0.516106 0.254215
1.000000 0.524132 0.272648
1.000000 0.533379 0.293889
1.000000 0.544152 0.317876
1.000000 0.557000 0.345708
0.248722 0.272251 0.222782
0.250706 0.270237 0.224613
0.252659 0.267765 0.226993
0.255283 0.262455 0.231907
0.254582 0.255100 0.239475
0.251347 0.250370 0.246036
0.278233 0.268711 0.231052
0.309483 0.288121 0.211398
0.344701 0.308080 0.185794
0.383154 0.328069 0.151736
0.439246 0.359777 0.097322
0.477211 0.369879 0.092836
0.525566 0.388067 0.095644
0.574426 0.406714 0.106142
0.615930 0.420783 0.116854
0.655421 0.433814 0.126833
0.691768 0.445411 0.137392
0.725338 0.456092 0.148226
0.757748 0.466743 0.159701
0.791379 0.474739 0.164675
0.823545 0.482033 0.170535
0.854002 0.489052 0.178439
0.882322 0.495674 0.187655
0.908812 0.502068 0.198337
0.933471 0.508202 0.210483
0.956237 0.514244 0.223880
0.977447 0.520409 0.238437
0.997528 0.526940 0.254765
1.000000 0.534386 0.273045
1.000000 0.543145 0.294347
1.000000 0.553338 0.318273
1.000000 0.565667 0.346288
0.263981 0.289647 0.235355
0.265812 0.287999 0.237034
0.267582 0.285649 0.239109
0.270481 0.280674 0.243748
0.271122 0.273472 0.250736
0.265721 0.264958 0.259922
0.281956 0.276310 0.252323
0.311559 0.295567 0.234989
0.344823 0.315526 0.212741
0.381781 0.336034 0.183963
0.421973 0.356756 0.145510
0.484901 0.392706 0.091859
0.529076 0.407538 0.086366
0.574578 0.423285 0.088075
0.619898 0.439307 0.101381
0.657954 0.450874 0.113649
0.692561 0.460975 0.126040
0.725063 0.470375 0.138308
0.756771 0.479896 0.150759
0.787930 0.489906 0.163180
0.818784 0.498756 0.174411
0.849363 0.505333 0.182162
0.877867 0.511345 0.190921
0.904662 0.517205 0.201358
0.929503 0.522820 0.213382
0.952514 0.528222 0.226352
0.974029 0.533715 0.240879
0.994354 0.539696 0.257084
1.000000 0.546563 0.275517
1.000000 0.554742 0.296635
1.000000 0.564446 0.320745
1.000000 0.576196 0.348852
0.279454 0.307530 0.248203
0.281224 0.305760 0.249790
0.282902 0.303593 0.251591
0.285740 0.298680 0.255894
0.287297 0.291752 0.262425
0.283879 0.283299 0.270848
0.286107 0.283665 0.273014
0.314183 0.302892 0.257877
0.346014 0.322972 0.238254
0.381323 0.343664 0.213718
0.423987 0.368170 0.183261
0.474037 0.396307 0.138949
0.534295 0.428748 0.085847
0.576898 0.441932 0.079225
0.619806 0.455848 0.079316
0.661250 0.469276 0.096193
0.695399 0.478218 0.111971
0.726680 0.486244 0.126711
0.757473 0.494667 0.140352
0.787839 0.503471 0.154513
0.817166 0.512474 0.169314
0.845274 0.521691 0.185153
0.873564 0.527489 0.194614
0.900450 0.532799 0.204898
0.925628 0.537865 0.216739
0.949218 0.543023 0.229801
0.971557 0.548333 0.244907
0.992767 0.554406 0.261723
1.000000 0.561303 0.280858
1.000000 0.569512 0.303136
1.000000 0.579431 0.328649
1.000000 0.591302 0.358160
0.294957 0.325292 0.261143
0.296727 0.323644 0.262821
0.298405 0.321386 0.264591
0.301427 0.317082 0.268772
0.303563 0.310796 0.274876
0.302129 0.302617 0.282933
0.294408 0.294102 0.292607
0.318730 0.311376 0.280735
0.350286 0.332586 0.264408
0.387152 0.356176 0.245090
0.427710 0.380377 0.218906
0.471626 0.405005 0.183536
0.526268 0.436072 0.129091
0.580102 0.461799 0.078370
0.619623 0.472633 0.070619
0.658808 0.483894 0.071077
0.696071 0.494697 0.092958
0.728267 0.502586 0.111269
0.759121 0.510369 0.127565
0.789609 0.518761 0.143862
0.819059 0.527398 0.160403
0.847288 0.535912 0.178042
0.873899 0.544457 0.195987
0.899992 0.551202 0.211154
0.925322 0.555932 0.222690
0.949157 0.560601 0.236271
0.971618 0.565545 0.251316
0.992889 0.571130 0.268315
1.000000 0.577447 0.287816
1.000000 0.584863 0.309941
1.000000 0.593805 0.335027
1.000000 0.604761 0.364172
0.310124 0.341955 0.274235
0.311559 0.340459 0.275517
0.313207 0.338689 0.277287
0.316045 0.334417 0.280980
0.318639 0.328374 0.286717
0.318364 0.320623 0.294224
0.313848 0.312840 0.303716
0.323949 0.320165 0.303380
0.355077 0.342016 0.289982
0.389715 0.364965 0.272740
0.428016 0.388708 0.250340
0.469642 0.412909 0.220859
0.514488 0.437598 0.180606
0.574243 0.472297 0.113954
0.622065 0.491859 0.070253
0.659052 0.501091 0.059968
0.694911 0.509972 0.062989
0.729335 0.518944 0.090303
0.760586 0.526452 0.111757
0.790127 0.533593 0.130709
0.818906 0.541131 0.149416
0.846586 0.548791 0.168338
0.872984 0.556512 0.187747
0.898161 0.564508 0.207401
0.922179 0.572229 0.227207
0.946349 0.576654 0.240635
0.969238 0.581292 0.255863
0.990936 0.586542 0.273442
1.000000 0.592554 0.293126
1.000000 0.599634 0.315496
1.000000 0.608301 0.341253
1.000000 0.618891 0.371099
0.326238 0.359960 0.288273
0.327977 0.358831 0.289860
0.337072 0.365515 0.298100
0.340673 0.362005 0.302251
0.344305 0.357061 0.308568
0.346075 0.350622 0.316564
0.343572 0.342901 0.326146
0.339025 0.338140 0.334386
0.369635 0.360449 0.322179
0.403784 0.383886 0.306828
0.441505 0.408301 0.287083
0.482521 0.433112 0.261357
0.526329 0.458045 0.227359
0.573083 0.483162 0.179690
0.639399 0.522393 0.091310
0.679469 0.534112 0.053773
0.713313 0.540551 0.033722
0.745876 0.546929 0.051423
0.776852 0.553460 0.090730
0.804776 0.558801 0.117006
0.830991 0.563928 0.139773
0.856870 0.569726 0.161410
0.881682 0.575799 0.182834
0.905211 0.582147 0.204135
0.927184 0.588373 0.225254
0.948028 0.595026 0.246738
0.969085 0.599237 0.263188
0.989868 0.603174 0.279576
1.000000 0.608270 0.298833
1.000000 0.614710 0.321233
1.000000 0.622797 0.347356
1.000000 0.632746 0.377050
0.348333 0.384497 0.307591
0.350927 0.384466 0.309850
0.353857 0.384161 0.312657
0.358038 0.382300 0.317205
0.362127 0.377661 0.323400
0.364355 0.371405 0.330785
0.362799 0.363409 0.339330
0.355505 0.354528 0.348974
0.372961 0.367346 0.343542
0.404822 0.389868 0.329931
0.440620 0.413642 0.312230
0.479469 0.438056 0.290288
0.521172 0.462745 0.261692
0.565576 0.487495 0.223789
0.613367 0.513054 0.169650
0.680232 0.552636 0.049500
0.712764 0.557580 0.029999
0.744442 0.562737 0.010986
0.775204 0.568200 0.049775
0.803922 0.573541 0.094606
0.830625 0.578393 0.123171
0.856443 0.583581 0.148714
0.881376 0.589166 0.172244
0.905028 0.594903 0.195071
0.927214 0.600702 0.217563
0.948241 0.606867 0.240421
0.968292 0.613611 0.264042
0.988342 0.619623 0.285954
1.000000 0.624323 0.305272
1.000000 0.630396 0.327916
1.000000 0.637934 0.354162
1.000000 0.647364 0.384222
0.366033 0.404273 0.322911
0.368597 0.404425 0.325200
0.371527 0.404608 0.327855
0.375402 0.402258 0.332067
0.379431 0.397986 0.337682
0.381628 0.391363 0.344305
0.380713 0.383032 0.351965
0.374945 0.373785 0.360601
0.376074 0.373846 0.363806
0.406531 0.395819 0.351293
0.440681 0.419287 0.335882
0.477913 0.443427 0.316716
0.517815 0.467994 0.292393
0.560479 0.492836 0.260899
0.605676 0.517571 0.218723
0.657984 0.546258 0.155612
0.716060 0.577691 0.014862
0.746944 0.581659 0.000000
0.776791 0.585901 0.000000
0.805325 0.590051 0.057893
0.831876 0.594293 0.101778
0.857450 0.598688 0.132692
0.882231 0.603662 0.160098
0.905760 0.608698 0.185153
0.927794 0.613764 0.209293
0.948669 0.619196 0.233768
0.968566 0.625238 0.258335
0.987793 0.632349 0.284520
1.000000 0.640192 0.311498
1.000000 0.645686 0.334112
1.000000 0.652705 0.360235
1.000000 0.661738 0.390814
0.383154 0.423285 0.337499
0.385657 0.423743 0.339727
0.388464 0.423774 0.342321
0.392218 0.421698 0.346288
0.396063 0.417273 0.351476
0.398383 0.410895 0.357458
0.397986 0.402411 0.364385
0.393408 0.392889 0.372198
0.383246 0.382910 0.381140
0.408576 0.401617 0.371588
0.441077 0.424475 0.357671
0.476722 0.448371 0.340703
0.515160 0.472816 0.319341
0.556390 0.497688 0.292576
0.600397 0.523095 0.258213
0.646601 0.548180 0.211612
0.702815 0.579919 0.138643
0.755001 0.605402 0.000000
0.785641 0.609461 0.000000
0.814847 0.613458 0.000000
0.842527 0.617395 0.074281
0.868132 0.621332 0.118074
0.892241 0.625269 0.150820
0.915862 0.629938 0.180087
0.937896 0.634607 0.207736
0.958465 0.639460 0.234592
0.977966 0.644892 0.261448
0.996612 0.651331 0.289403
1.000000 0.659236 0.319585
1.000000 0.668788 0.352483
1.000000 0.675837 0.380499
1.000000 0.684627 0.412451
0.406348 0.449561 0.357275
0.408057 0.449073 0.358831
0.409857 0.448310 0.360571
0.412696 0.445258 0.363561
0.415686 0.440253 0.367834
0.417731 0.433051 0.373083
0.417700 0.424598 0.379431
0.414343 0.415137 0.386847
0.406287 0.405035 0.395331
0.414801 0.411109 0.394629
0.446967 0.434363 0.382483
0.482124 0.458839 0.367468
0.520226 0.483986 0.348699
0.560967 0.509575 0.325292
0.604456 0.535485 0.295598
0.649928 0.561334 0.257145
0.695491 0.585534 0.205875
0.754177 0.618952 0.117281
0.797147 0.635859 0.000000
0.824460 0.637568 0.000000
0.850248 0.639307 0.027985
0.874388 0.640986 0.093507
0.896513 0.642847 0.134524
0.917327 0.644953 0.167178
0.938781 0.648524 0.197086
0.959136 0.652644 0.226017
0.978576 0.657465 0.254398
0.997192 0.663233 0.283604
1.000000 0.670405 0.314885
1.000000 0.679133 0.348486
1.000000 0.689876 0.385473
1.000000 0.699947 0.420905
0.423651 0.469093 0.371862
0.425360 0.468879 0.373388
0.427222 0.468025 0.375036
0.429908 0.465156 0.377996
0.432776 0.460243 0.381903
0.434882 0.453193 0.386755
0.435035 0.444617 0.392432
0.432471 0.435035 0.399176
0.425635 0.424445 0.406928
0.417731 0.416968 0.413733
0.448646 0.440040 0.402960
0.482826 0.464240 0.389624
0.519921 0.489479 0.372747
0.559899 0.515496 0.352361
0.602777 0.542107 0.326513
0.647608 0.568658 0.294438
0.692744 0.593835 0.252995
0.738155 0.617456 0.195651
0.797269 0.651209 0.085908
0.832334 0.660822 0.000000
0.857755 0.661463 0.000000
0.881743 0.662287 0.073030
0.903990 0.663172 0.116976
0.924224 0.664271 0.155764
0.937682 0.661219 0.183139
0.957885 0.664546 0.214115
0.977356 0.668696 0.244450
0.996002 0.673823 0.275090
1.000000 0.680171 0.306798
1.000000 0.688167 0.341344
1.000000 0.698268 0.379187
1.000000 0.711452 0.422553
0.447578 0.496315 0.391943
0.449409 0.496193 0.393500
0.451118 0.495369 0.395178
0.453346 0.492134 0.397559
0.455695 0.486488 0.400946
0.457404 0.479133 0.405066
0.457496 0.470008 0.410163
0.454932 0.459602 0.416083
0.448768 0.448280 0.422858
0.437415 0.436439 0.430457
0.453956 0.448646 0.425299
0.486824 0.472389 0.412726
0.522698 0.497353 0.397345
0.561151 0.522850 0.378576
0.602258 0.549004 0.355444
0.644892 0.574853 0.326848
0.688106 0.599481 0.291478
0.731838 0.622980 0.246036
0.778256 0.647211 0.181430
0.832670 0.677363 0.000000
0.861479 0.681086 0.000000
0.885161 0.681056 0.022675
0.906889 0.680720 0.098695
0.926574 0.680140 0.137636
0.944060 0.679774 0.174136
0.960204 0.679561 0.204349
0.979034 0.682612 0.236393
0.997040 0.686610 0.268070
1.000000 0.691920 0.300938
1.000000 0.698909 0.335912
1.000000 0.708156 0.374640
1.000000 0.720516 0.418860
0.465126 0.516411 0.406287
0.466865 0.516625 0.407965
0.468574 0.515618 0.409461
0.470741 0.512505 0.411780
0.473030 0.506889 0.414923
0.474861 0.499825 0.418921
0.475319 0.490852 0.423835
0.473671 0.480751 0.429603
0.468818 0.469673 0.436286
0.459480 0.457893 0.443824
0.458473 0.456367 0.446540
0.491249 0.480751 0.435737
0.527062 0.506310 0.422187
0.565667 0.532799 0.405676
0.607080 0.560113 0.385077
0.649622 0.586786 0.360052
0.692714 0.612329 0.329259
0.736324 0.636835 0.291142
0.778866 0.659052 0.242130
0.825132 0.682887 0.169833
0.873289 0.707729 0.000000
0.896025 0.706111 0.000000
0.916960 0.704494 0.087617
0.936065 0.702693 0.130129
0.953368 0.700954 0.165652
0.968841 0.699702 0.200198
0.983093 0.698909 0.230289
1.000000 0.702083 0.263981
1.000000 0.706691 0.298833
1.000000 0.712917 0.335332
1.000000 0.721523 0.375738
1.000000 0.733211 0.421607
0.486213 0.540826 0.423590
0.487770 0.540490 0.424994
0.488991 0.539208 0.426154
0.490730 0.535821 0.428138
0.492714 0.530175 0.430762
0.494209 0.522545 0.434302
0.494636 0.513390 0.438788
0.493385 0.503166 0.444160
0.489296 0.491890 0.450477
0.481544 0.480232 0.457771
0.468513 0.468055 0.465797
0.495888 0.488838 0.458045
0.531579 0.514977 0.446052
0.570214 0.542229 0.431373
0.611322 0.570062 0.412848
0.653407 0.597253 0.390478
0.695796 0.623285 0.363531
0.738674 0.648280 0.330663
0.780423 0.670771 0.289677
0.819974 0.690150 0.236728
0.865232 0.712947 0.154513
0.904845 0.729946 0.000000
0.925048 0.727108 0.071321
0.943664 0.724269 0.123049
0.960601 0.721370 0.159426
0.975891 0.718807 0.192844
0.989746 0.717098 0.226291
1.000000 0.715908 0.256229
1.000000 0.719265 0.291783
1.000000 0.724575 0.329473
1.000000 0.732357 0.371099
1.000000 0.743008 0.417762
0.506432 0.564324 0.439918
0.507683 0.563684 0.441016
0.508904 0.562463 0.442176
0.510735 0.559319 0.444099
0.512993 0.554009 0.447150
0.515312 0.547417 0.451118
0.517418 0.539849 0.456641
0.518151 0.531060 0.463233
0.516686 0.521538 0.471168
0.511955 0.511467 0.480110
0.502342 0.500786 0.489815
0.512352 0.508598 0.491493
0.550591 0.537499 0.482185
0.592065 0.567864 0.469673
0.634882 0.597955 0.453864
0.677607 0.626429 0.433814
0.720577 0.653620 0.409613
0.762570 0.678492 0.380285
0.802457 0.700252 0.344976
0.840024 0.718807 0.301305
0.875334 0.734005 0.243656
0.917052 0.753597 0.155856
0.947417 0.762356 0.082704
0.964416 0.757473 0.135805
0.979919 0.752804 0.173709
0.994049 0.748592 0.205570
1.000000 0.745174 0.237949
1.000000 0.742855 0.270939
1.000000 0.741329 0.301213
1.000000 0.744961 0.339666
1.000000 0.751827 0.383581
1.000000 0.761563 0.432349
0.541131 0.603937 0.468452
0.542138 0.603296 0.469398
0.543084 0.601862 0.470253
0.544579 0.598077 0.471839
0.546593 0.592615 0.474464
0.548486 0.585168 0.478004
0.550011 0.576654 0.482673
0.550164 0.566735 0.488441
0.548333 0.555993 0.495430
0.543450 0.544518 0.503471
0.534112 0.532219 0.512139
0.523766 0.523064 0.520043
0.561242 0.551812 0.510948
0.601770 0.581933 0.499245
