data/fiter_cube/52608991/1023028/file.cube
# Created by Adobe Lightroom plugin Export LUT (1.17.0)
# www.johnrellis.com/lightroom/exportlut.htm
# Preset: 大神蓝橙街拍_08 云集
# Color profile: C:\Program Files (x86)\Common Files\Adobe\Color\Profiles\Recommended\AdobeRGB1998.icc
LUT_3D_SIZE 5
DOMAIN_MIN 0.000000 0.000000 0.000000
DOMAIN_MAX 0.903226 0.903226 0.903226
0.121706 0.121706 0.121706
0.304295 0.140322 0.126650
0.568048 0.234501 0.125948
0.852323 0.357397 0.149264
1.000000 0.445594 0.242924
0.165347 0.177066 0.153902
0.310979 0.236515 0.123842
0.559228 0.301213 0.132113
0.842283 0.399420 0.154910
1.000000 0.480049 0.258122
0.279454 0.307530 0.248203
0.314183 0.302892 0.257877
0.619806 0.455848 0.079316
0.845274 0.521691 0.185153
1.000000 0.561303 0.280858
0.406348 0.449561 0.357275
0.414343 0.415137 0.386847
0.604456 0.535485 0.295598
0.874388 0.640986 0.093507
1.000000 0.670405 0.314885
0.566430 0.632990 0.489601
0.577996 0.598260 0.510246
0.637537 0.610986 0.502861
0.908629 0.771084 0.303868
1.000000 0.776638 0.306035
0.000000 0.141512 0.278233
0.265965 0.179385 0.272984
0.544182 0.269963 0.206943
0.809293 0.386297 0.161959
1.000000 0.457374 0.234073
0.014710 0.231998 0.294865
0.277195 0.277195 0.277195
0.550347 0.331548 0.231907
0.808988 0.419837 0.175296
1.000000 0.484565 0.243259
0.159060 0.399847 0.318975
0.343389 0.364416 0.320623
0.590387 0.453620 0.215671
0.818173 0.520470 0.219028
1.000000 0.568780 0.277256
0.352514 0.528893 0.356420
0.452338 0.491615 0.408515
0.590814 0.541466 0.373297
0.867308 0.647211 0.199100
1.000000 0.673152 0.307836
0.550591 0.694331 0.498726
0.591943 0.655146 0.519890
0.627741 0.614557 0.558587
0.906493 0.781186 0.376104
1.000000 0.782467 0.306462
0.000000 0.236484 0.520165
0.000000 0.231174 0.528618
0.509422 0.295079 0.525261
0.801419 0.412818 0.440833
0.993774 0.498329 0.385992
0.000000 0.294591 0.534630
0.000000 0.297032 0.536736
0.513695 0.356023 0.526543
0.796841 0.454932 0.450629
0.995605 0.520195 0.388312
0.000000 0.423499 0.562646
0.022583 0.441321 0.561395
0.523949 0.523949 0.523949
0.800290 0.566857 0.480964
0.996704 0.593317 0.405341
0.000000 0.640406 0.636408
0.000000 0.671443 0.644526
0.576135 0.601648 0.549401
0.845396 0.681880 0.439307
0.998505 0.698970 0.443214
0.240482 0.829679 0.647517
0.383825 0.816800 0.607141
0.671931 0.721401 0.617762
0.857023 0.784115 0.559594
1.000000 0.796872 0.401129
0.000000 0.340581 0.765957
0.000000 0.336522 0.773159
0.280430 0.369757 0.777523
0.735988 0.444038 0.758083
0.954650 0.650141 0.717159
0.000000 0.375433 0.771420
0.000000 0.373297 0.774166
0.251865 0.388830 0.775479
0.733516 0.477577 0.753567
0.951019 0.663844 0.716884
0.000000 0.463233 0.779416
0.000000 0.468574 0.780056
0.274052 0.496773 0.776852
0.736904 0.585962 0.750057
0.954986 0.706630 0.717891
0.000000 0.601648 0.803738
0.000000 0.609735 0.800534
0.327123 0.651575 0.794278
0.757626 0.757565 0.757595
0.966857 0.772824 0.709865
0.000000 0.790921 0.855497
0.000000 0.805264 0.854337
0.326452 0.874540 0.865873
0.790616 0.813382 0.766934
0.996612 0.855253 0.672572
0.000000 0.410803 0.947265
0.000000 0.414252 0.947387
0.000000 0.442695 0.947875
0.612757 0.592065 0.938079
0.908507 0.703304 0.926055
0.000000 0.431800 0.946899
0.000000 0.433692 0.947265
0.000000 0.462776 0.947478
0.616571 0.610681 0.937011
0.909422 0.718135 0.925994
0.000000 0.487648 0.949889
0.000000 0.487495 0.949798
0.000000 0.510887 0.949371
0.612390 0.657282 0.938384
0.914061 0.764828 0.927367
0.000000 0.588464 0.956756
0.000000 0.590600 0.956268
0.000000 0.603540 0.955718
0.533074 0.692378 0.949462
0.923339 0.839567 0.931212
0.000000 0.714626 0.965576
0.000000 0.720516 0.965301
0.000000 0.749294 0.965515
0.593622 0.831174 0.957794
0.934997 0.934997 0.934997
