data/filter_cube/10491141/1023206/file.cube
# Created by Adobe Lightroom plugin Export LUT (1.17.0)
# www.johnrellis.com/lightroom/exportlut.htm
# Preset: 莫兰迪丛林_05 云集
# Color profile: C:\Program Files (x86)\Common Files\Adobe\Color\Profiles\Recommended\AdobeRGB1998.icc
LUT_3D_SIZE 5
DOMAIN_MIN 0.000000 0.000000 0.000000
DOMAIN_MAX 0.903226 0.903226 0.903226
0.069123 0.076112 0.088075
0.198520 0.084535 0.083040
0.597864 0.000000 0.000000
0.775998 0.169497 0.000000
0.891508 0.341711 0.000000
0.091279 0.126955 0.113130
0.135805 0.140932 0.120333
0.616419 0.220615 0.000000
0.778378 0.279149 0.000000
0.894072 0.394995 0.000000
0.276585 0.419959 0.265629
0.412146 0.485817 0.363195
0.433875 0.391547 0.254643
0.775692 0.503868 0.000000
0.892668 0.540795 0.000000
0.553429 0.643580 0.495918
0.602991 0.662684 0.550744
0.687343 0.715419 0.635889
0.638178 0.589960 0.442390
0.858671 0.668330 0.257725
0.693324 0.769070 0.658900
0.712367 0.779477 0.683345
0.765835 0.811490 0.751095
0.806760 0.836881 0.780728
0.766720 0.742672 0.635676
0.069459 0.089509 0.136019
0.200015 0.078218 0.157198
0.570672 0.000000 0.131319
0.761898 0.191714 0.068605
0.883970 0.347784 0.000000
0.093294 0.142184 0.142855
0.180301 0.196078 0.194675
0.600793 0.225071 0.134859
0.768673 0.287846 0.034730
0.886839 0.395422 0.000000
0.272374 0.413764 0.280919
0.416175 0.481910 0.389288
0.454566 0.418860 0.317967
0.773373 0.521355 0.132204
0.887999 0.545892 0.000000
0.549950 0.639643 0.500694
0.599939 0.659113 0.554345
0.686976 0.713344 0.644739
0.641749 0.598993 0.473030
0.860746 0.676692 0.311986
0.688533 0.765835 0.655818
0.707546 0.776242 0.679835
0.766598 0.811612 0.755856
0.811398 0.841642 0.792203
0.768276 0.745876 0.644282
0.000000 0.151247 0.336248
0.199405 0.126986 0.405554
0.599359 0.148318 0.386786
0.715877 0.319585 0.361334
0.855985 0.433631 0.346868
0.167208 0.264073 0.325719
0.235721 0.279057 0.402319
0.583154 0.305608 0.411078
0.723751 0.382300 0.376318
0.860502 0.460822 0.343694
0.247074 0.407172 0.345129
0.356481 0.451637 0.396826
0.534844 0.512108 0.474464
0.744472 0.546105 0.423774
0.872282 0.560418 0.351232
0.512718 0.617365 0.487160
0.565270 0.637324 0.535729
0.673823 0.695918 0.651484
0.653010 0.625208 0.549493
0.864378 0.702846 0.465034
0.672511 0.754025 0.646906
0.689723 0.763882 0.666987
0.744900 0.797482 0.734340
0.816129 0.846616 0.810605
0.769833 0.751827 0.665492
0.181765 0.292393 0.547906
0.287175 0.284489 0.577661
0.613977 0.222965 0.640864
0.742519 0.435767 0.575738
0.830991 0.508476 0.557916
0.314275 0.403693 0.537072
0.344213 0.387701 0.569085
0.607416 0.353246 0.642420
0.733974 0.484108 0.584344
0.825528 0.530785 0.564263
0.387060 0.518700 0.526390
0.443244 0.530388 0.541802
0.570581 0.565698 0.616876
0.709285 0.580652 0.604547
0.818509 0.602747 0.590967
0.483558 0.609918 0.538018
0.521935 0.618677 0.555077
0.619684 0.655848 0.614954
0.683040 0.673640 0.645319
0.852049 0.702968 0.610895
0.640925 0.731167 0.627619
0.657038 0.739864 0.644556
0.707759 0.771176 0.701198
0.795895 0.829496 0.802213
0.775601 0.765957 0.706172
0.451942 0.492927 0.698665
0.483925 0.487037 0.710079
0.610895 0.459876 0.750179
0.773892 0.487861 0.770016
0.848783 0.611139 0.727321
0.489662 0.541436 0.688197
0.498573 0.527672 0.700710
0.604852 0.509697 0.741970
0.766781 0.521538 0.769009
0.846403 0.623713 0.729915
0.522210 0.596185 0.647761
0.538201 0.599420 0.657771
0.594324 0.607538 0.713344
0.746944 0.603235 0.773190
0.839872 0.661158 0.739071
0.565026 0.685084 0.675319
0.577508 0.684352 0.677455
0.617578 0.684199 0.687831
0.692500 0.701808 0.753109
0.828092 0.721401 0.756619
0.626307 0.741573 0.685359
0.634760 0.743526 0.689509
0.666499 0.753994 0.708034
0.728664 0.781613 0.751705
0.801328 0.809293 0.796658
