data/filter_cube/10491141/1023206/file.cube
# Created by Adobe Lightroom plugin Export LUT (1.17.0)
# www.johnrellis.com/lightroom/exportlut.htm
# Preset: 莫兰迪丛林_05 云集
# Color profile: C:\Program Files (x86)\Common Files\Adobe\Color\Profiles\Recommended\AdobeRGB1998.icc
LUT_3D_SIZE 32
DOMAIN_MIN 0.0 0.0 0.0
DOMAIN_MAX 1.0 1.0 1.0
0.069123 0.076112 0.088075
0.071778 0.076448 0.087984
0.075196 0.076997 0.087861
0.083284 0.078126 0.087617
0.099031 0.079988 0.087312
0.123415 0.082551 0.086549
0.156649 0.084535 0.085451
0.198520 0.084535 0.083040
0.249912 0.080720 0.079438
0.311833 0.067323 0.073793
0.378485 0.013642 0.064668
0.443061 0.000000 0.047669
0.502342 0.000000 0.013275
0.554070 0.000000 0.000000
0.597864 0.000000 0.000000
0.637110 0.000000 0.000000
0.670802 0.000000 0.000000
0.698268 0.000000 0.000000
0.721004 0.077607 0.000000
0.740963 0.113771 0.000000
0.758846 0.142947 0.000000
0.775998 0.169497 0.000000
0.792691 0.195193 0.000000
0.809079 0.219974 0.000000
0.825284 0.244541 0.000000
0.841550 0.269108 0.000000
0.857969 0.293553 0.000000
0.874540 0.317967 0.000000
0.891508 0.341711 0.000000
0.908751 0.365148 0.000000
0.926238 0.387610 0.000000
0.943755 0.409247 0.000000
0.069673 0.077058 0.088838
0.070893 0.077607 0.089082
0.075227 0.078737 0.088319
0.083314 0.079866 0.088045
0.099275 0.082246 0.087709
0.124331 0.084962 0.086610
0.157839 0.087282 0.085145
0.200076 0.087617 0.082673
0.251469 0.084413 0.078950
0.313390 0.072694 0.073152
0.379644 0.031800 0.064240
0.443854 0.000000 0.045655
0.502708 0.000000 0.011017
0.554192 0.000000 0.000000
0.597772 0.000000 0.000000
0.636774 0.000000 0.000000
0.669947 0.000000 0.000000
0.697261 0.011475 0.000000
0.719997 0.084352 0.000000
0.739956 0.118349 0.000000
0.757900 0.145785 0.000000
0.775051 0.171603 0.000000
0.791745 0.196628 0.000000
0.808133 0.221134 0.000000
0.824399 0.245457 0.000000
0.840696 0.269810 0.000000
0.857145 0.294102 0.000000
0.873808 0.318395 0.000000
0.890776 0.342107 0.000000
0.908080 0.365362 0.000000
0.925597 0.387854 0.000000
0.943145 0.409461 0.000000
0.070527 0.078676 0.089815
0.071870 0.079500 0.090822
0.073091 0.080049 0.090761
0.082826 0.082277 0.088746
0.099428 0.085481 0.088045
0.124331 0.088685 0.087190
0.158175 0.091371 0.085359
0.200381 0.092561 0.083101
0.252567 0.090242 0.078950
0.314916 0.080079 0.072633
0.381384 0.056397 0.062928
0.445686 0.000000 0.041932
0.504051 0.000000 0.007233
0.555230 0.000000 0.000000
0.598444 0.000000 0.000000
0.637201 0.000000 0.000000
0.670100 0.000000 0.000000
0.697139 0.051911 0.000000
0.719753 0.095033 0.000000
0.739651 0.125460 0.000000
0.757595 0.151400 0.000000
0.774716 0.175875 0.000000
0.791409 0.200290 0.000000
0.807797 0.224125 0.000000
0.824063 0.247929 0.000000
0.840330 0.271977 0.000000
0.856809 0.296056 0.000000
0.873442 0.320043 0.000000
0.890471 0.343542 0.000000
0.907774 0.366644 0.000000
0.925261 0.388983 0.000000
0.942870 0.410468 0.000000
0.072969 0.082643 0.092775
0.074037 0.083742 0.094484
0.075196 0.084230 0.094697
0.077668 0.084535 0.094362
0.096773 0.090791 0.090455
0.124880 0.097414 0.088106
0.159152 0.101259 0.086122
0.201968 0.103517 0.083406
0.254398 0.102785 0.079072
0.317235 0.096101 0.072053
0.383551 0.081147 0.061921
0.447761 0.052979 0.038666
0.506065 0.000000 0.002289
0.557000 0.000000 0.000000
0.600153 0.000000 0.000000
0.638727 0.000000 0.000000
0.671015 0.045747 0.000000
0.697627 0.087831 0.000000
0.719875 0.115480 0.000000
0.739498 0.140505 0.000000
0.757229 0.163119 0.000000
0.774258 0.185763 0.000000
0.791012 0.208377 0.000000
0.807462 0.231266 0.000000
0.823880 0.254246 0.000000
0.840299 0.277867 0.000000
0.856901 0.301396 0.000000
0.873594 0.324956 0.000000
0.890593 0.347997 0.000000
0.907836 0.370581 0.000000
0.925261 0.392401 0.000000
0.942748 0.413336 0.000000
0.075532 0.087922 0.095705
0.076814 0.089204 0.097627
0.078492 0.090974 0.099184
0.081117 0.092653 0.100008
0.085298 0.092103 0.098482
0.113191 0.102266 0.093294
0.158297 0.114687 0.087068
0.203738 0.120638 0.083406
0.257115 0.121767 0.078340
0.320104 0.118807 0.070802
0.386481 0.109560 0.059907
0.450263 0.095674 0.031800
0.508141 0.080171 0.000000
0.558556 0.069276 0.000000
0.601862 0.069551 0.000000
0.639704 0.083558 0.000000
0.671656 0.102815 0.000000
0.698146 0.123354 0.000000
0.720363 0.143313 0.000000
0.739956 0.162905 0.000000
0.757626 0.181735 0.000000
0.774624 0.201511 0.000000
0.791318 0.222019 0.000000
0.807706 0.243259 0.000000
0.824063 0.264927 0.000000
0.840452 0.287236 0.000000
0.856962 0.309819 0.000000
0.873625 0.332311 0.000000
0.890562 0.354528 0.000000
0.907744 0.376349 0.000000
0.925139 0.397467 0.000000
0.942596 0.417914 0.000000
0.078981 0.096071 0.099794
0.080507 0.097963 0.101534
0.083131 0.100221 0.104128
0.086915 0.103731 0.106508
0.091920 0.106050 0.106447
0.096834 0.103182 0.103822
0.132937 0.116854 0.096620
0.198001 0.136080 0.085054
0.261357 0.147555 0.076448
0.325475 0.147005 0.067842
0.391821 0.141848 0.053559
0.455085 0.134005 0.020569
0.512139 0.126192 0.000000
0.561913 0.121920 0.000000
0.605005 0.124269 0.000000
0.641871 0.132815 0.000000
0.673182 0.145296 0.000000
0.699214 0.160037 0.000000
0.721157 0.174746 0.000000
0.740597 0.190341 0.000000
0.758114 0.206241 0.000000
0.775143 0.223209 0.000000
0.798398 0.250919 0.000000
0.814542 0.269871 0.000000
0.830564 0.289342 0.000000
0.846616 0.309270 0.000000
0.862730 0.329625 0.000000
0.878904 0.349920 0.000000
0.895323 0.370306 0.000000
0.912078 0.390326 0.000000
0.928954 0.409735 0.000000
0.945830 0.428595 0.000000
0.083986 0.109041 0.105470
0.085908 0.111086 0.107515
0.088685 0.114290 0.110475
0.094881 0.120516 0.115908
0.101778 0.126741 0.118410
0.109529 0.127169 0.115785
0.113863 0.119722 0.110903
0.157687 0.135958 0.101595
0.239536 0.160647 0.084260
0.327733 0.176761 0.065583
0.403510 0.180911 0.035309
0.466011 0.176303 0.000000
0.521721 0.171695 0.000000
0.570336 0.170443 0.000000
0.612818 0.173831 0.000000
0.648188 0.180423 0.000000
0.678187 0.189792 0.000000
0.703182 0.200320 0.000000
0.724453 0.211765 0.000000
0.743557 0.223819 0.000000
0.761166 0.237247 0.000000
0.778592 0.252262 0.000000
0.795773 0.269017 0.000000
0.812650 0.286748 0.000000
0.829282 0.305486 0.000000
0.845670 0.324346 0.000000
0.861906 0.343481 0.000000
0.878264 0.362493 0.000000
0.894835 0.381231 0.000000
0.911620 0.399878 0.000000
0.928557 0.417975 0.000000
0.945464 0.435920 0.000000
0.091279 0.126955 0.113130
0.093416 0.129580 0.115297
0.096834 0.133089 0.118532
0.104799 0.141329 0.126375
0.113558 0.149722 0.131319
0.125490 0.160006 0.135714
0.133272 0.154147 0.127535
0.135805 0.140932 0.120333
0.184817 0.157534 0.108705
0.281346 0.186496 0.085420
0.388159 0.206943 0.045289
0.469978 0.219608 0.000000
0.527123 0.218509 0.000000
0.575769 0.218296 0.000000
0.616419 0.220615 0.000000
0.650599 0.225284 0.000000
0.679683 0.231724 0.000000
0.704036 0.238987 0.000000
0.724910 0.247135 0.000000
0.743679 0.256138 0.000000
0.761105 0.266636 0.000000
0.778378 0.279149 0.000000
0.795407 0.293584 0.000000
0.812161 0.308965 0.000000
0.828702 0.325475 0.000000
0.844999 0.342718 0.000000
0.861204 0.359991 0.000000
0.877531 0.377508 0.000000
0.894072 0.394995 0.000000
0.910857 0.412360 0.000000
0.927825 0.429450 0.000000
0.944823 0.446143 0.000000
0.101961 0.152346 0.124056
0.104677 0.155001 0.126497
0.108309 0.158968 0.130159
0.117037 0.167758 0.138460
0.130068 0.179629 0.148623
0.143038 0.191318 0.153902
0.157687 0.198764 0.154757
0.165072 0.187930 0.142763
0.163638 0.167361 0.132509
0.215518 0.182498 0.118624
0.325811 0.215183 0.089326
0.441169 0.239261 0.016297
0.521996 0.256474 0.000000
0.581842 0.269810 0.000000
0.620722 0.270329 0.000000
0.653803 0.272465 0.000000
0.681880 0.275975 0.000000
0.705592 0.280339 0.000000
0.725948 0.285313 0.000000
0.744320 0.291508 0.000000
0.761563 0.299443 0.000000
0.778622 0.309178 0.000000
0.795499 0.321050 0.000000
0.812070 0.334356 0.000000
0.828458 0.348882 0.000000
0.844663 0.363806 0.000000
0.860807 0.379370 0.000000
0.877043 0.395148 0.000000
0.893553 0.410986 0.000000
0.910277 0.426947 0.000000
0.927153 0.442817 0.000000
0.944121 0.458473 0.000000
0.116762 0.184482 0.138613
0.119661 0.187503 0.141299
0.123781 0.191562 0.145174
0.133608 0.200565 0.154147
0.150851 0.215335 0.169192
0.165896 0.228519 0.175753
0.186343 0.245243 0.183658
0.199557 0.243839 0.177096
0.204959 0.227268 0.160800
0.197604 0.198398 0.146853
0.250340 0.209720 0.130953
0.370642 0.246006 0.096834
0.483894 0.273350 0.010590
0.565209 0.295415 0.000000
0.620539 0.315557 0.000000
0.657404 0.322118 0.000000
0.684779 0.322942 0.000000
0.707790 0.324163 0.000000
0.727626 0.326238 0.000000
0.745480 0.329473 0.000000
0.762417 0.334539 0.000000
0.779110 0.341894 0.000000
0.795590 0.350866 0.000000
0.811826 0.361639 0.000000
0.827939 0.373632 0.000000
0.844022 0.386633 0.000000
0.860166 0.400275 0.000000
0.876432 0.414374 0.000000
0.892943 0.428809 0.000000
0.909728 0.443427 0.000000
0.926665 0.458228 0.000000
0.943694 0.472816 0.000000
0.135775 0.222721 0.156344
0.139132 0.225742 0.159274
0.143832 0.230106 0.163424
0.154696 0.239384 0.172610
0.173281 0.254429 0.187900
0.194583 0.271397 0.201389
0.217044 0.289433 0.210117
0.246677 0.311101 0.221073
0.252232 0.294835 0.202670
0.254032 0.271519 0.181613
0.239017 0.234012 0.163973
0.290105 0.240116 0.145907
0.412757 0.278172 0.108461
0.519677 0.307774 0.027710
0.600122 0.334020 0.000000
0.648737 0.353826 0.000000
0.687098 0.370825 0.000000
0.709377 0.369055 0.000000
0.728725 0.367987 0.000000
0.746181 0.368444 0.000000
0.762966 0.371038 0.000000
0.779538 0.375830 0.000000
0.795895 0.382818 0.000000
0.812009 0.391241 0.000000
0.828000 0.401068 0.000000
0.843931 0.411841 0.000000
0.859861 0.423468 0.000000
0.876036 0.435645 0.000000
0.892454 0.448371 0.000000
0.909117 0.461433 0.000000
0.926024 0.474891 0.000000
0.942992 0.488350 0.000000
0.160555 0.267491 0.177737
0.164248 0.270787 0.180819
0.169619 0.275181 0.185183
0.181430 0.284520 0.194400
0.201633 0.299565 0.210086
0.229862 0.318975 0.230808
0.253696 0.336400 0.240513
0.284154 0.357031 0.252903
0.313207 0.371160 0.259129
0.313359 0.347997 0.232303
0.311864 0.319951 0.205692
0.287541 0.273198 0.183200
0.340063 0.277562 0.165835
0.462348 0.318486 0.125856
0.560449 0.350561 0.063264
0.633265 0.377813 0.000000
0.679774 0.397650 0.000000
0.712520 0.413001 0.000000
0.735103 0.417578 0.000000
0.751705 0.414862 0.000000
0.767971 0.414649 0.000000
0.783963 0.416785 0.000000
0.799741 0.420844 0.000000
0.815335 0.426581 0.000000
0.830900 0.433753 0.000000
0.846464 0.442206 0.000000
0.862058 0.451453 0.000000
0.877897 0.461463 0.000000
0.893950 0.472206 0.000000
0.910338 0.483436 0.000000
0.926909 0.495064 0.000000
0.943633 0.507012 0.000000
0.193576 0.320562 0.204044
0.197696 0.323491 0.207095
0.203555 0.327398 0.211551
0.216342 0.336034 0.221225
0.237613 0.349554 0.237125
0.268406 0.367132 0.259800
0.298009 0.385260 0.276921
0.328618 0.405005 0.290745
0.364904 0.427344 0.307195
0.382635 0.428046 0.300999
0.379187 0.402106 0.268772
0.373968 0.370794 0.235111
0.343236 0.317205 0.206882
0.374182 0.305608 0.183871
0.492470 0.348363 0.144686
0.583185 0.381689 0.090486
0.650629 0.408789 0.000000
0.697017 0.427832 0.000000
0.726436 0.440925 0.000000
0.751369 0.453071 0.000000
0.768185 0.451942 0.000000
0.784054 0.451911 0.000000
0.799649 0.453742 0.000000
0.815091 0.457343 0.000000
0.830533 0.462440 0.000000
0.845945 0.468910 0.000000
0.861479 0.476356 0.000000
0.877165 0.484718 0.000000
0.893187 0.493751 0.000000
0.909514 0.503655 0.000000
0.926055 0.514061 0.000000
0.942779 0.524895 0.000000
0.230900 0.370184 0.231968
0.235416 0.373114 0.235538
0.241764 0.376684 0.239963
0.255558 0.384619 0.250187
0.277806 0.396551 0.266606
0.308598 0.412299 0.289616
0.343572 0.430426 0.314275
0.371313 0.447456 0.327398
0.403510 0.466743 0.343053
0.439277 0.487831 0.361028
0.441718 0.474098 0.338964
0.435065 0.446723 0.303227
0.426184 0.413367 0.264775
0.390387 0.355322 0.229862
0.407477 0.333989 0.203708
0.519615 0.377569 0.166140
0.603082 0.411078 0.117494
0.665156 0.436927 0.000000
0.710933 0.454780 0.000000
0.739101 0.466773 0.000000
0.763607 0.478889 0.000000
0.784329 0.487129 0.000000
0.799832 0.487068 0.000000
0.815152 0.488746 0.000000
0.830472 0.492073 0.000000
0.845762 0.496681 0.000000
0.861143 0.502342 0.000000
0.876768 0.509056 0.000000
0.892699 0.516686 0.000000
0.908934 0.525170 0.000000
0.925414 0.534356 0.000000
0.942016 0.543938 0.000000
0.276585 0.419959 0.265629
0.281315 0.422309 0.268986
0.287327 0.425147 0.273503
0.300816 0.431617 0.283543
0.321782 0.441566 0.299382
0.349737 0.454536 0.320470
0.384283 0.470466 0.346838
0.412146 0.485817 0.363195
0.440375 0.502190 0.377844
0.471229 0.520134 0.394629
0.499672 0.535637 0.408728
0.492287 0.513420 0.375067
0.483772 0.485847 0.336980
0.471748 0.451240 0.295171
0.433875 0.391547 0.254643
0.437842 0.361303 0.224460
0.543114 0.405219 0.188937
0.620386 0.438239 0.144869
0.678157 0.463050 0.082399
0.721157 0.479622 0.000000
0.751400 0.491432 0.000000
0.775692 0.503868 0.000000
0.798489 0.516930 0.000000
0.815305 0.520165 0.000000
0.830472 0.521782 0.000000
0.845701 0.524834 0.000000
0.861051 0.529076 0.000000
0.876707 0.534447 0.000000
0.892668 0.540795 0.000000
0.908904 0.548150 0.000000
0.925414 0.556176 0.000000
0.941833 0.564508 0.000000
0.324041 0.464393 0.300633
0.328527 0.466438 0.304021
0.334051 0.468910 0.308232
0.346685 0.474342 0.317723
0.365759 0.482612 0.332311
0.391302 0.493599 0.351995
0.421759 0.506676 0.376165
0.452094 0.521141 0.398962
0.476234 0.535119 0.412757
0.502068 0.550378 0.428077
0.528862 0.566705 0.444953
0.542657 0.569696 0.444038
0.534112 0.547112 0.408911
0.524102 0.519310 0.368719
0.509331 0.483650 0.324468
0.472084 0.424720 0.280186
0.464729 0.386511 0.245701
0.563134 0.430671 0.212894
0.636133 0.463783 0.172854
0.690394 0.487770 0.124208
0.730983 0.503349 0.004944
0.763943 0.515709 0.000000
0.788052 0.528405 0.000000
0.810758 0.541558 0.000000
0.831113 0.552300 0.000000
0.846220 0.553826 0.000000
0.861479 0.556603 0.000000
0.876982 0.560571 0.000000
0.892760 0.565545 0.000000
0.908843 0.571466 0.000000
0.925109 0.578210 0.000000
0.941192 0.585138 0.000000
0.369879 0.503044 0.334966
0.373510 0.504540 0.337835
0.378607 0.506584 0.341863
0.389624 0.510979 0.350439
0.406531 0.517723 0.363867
0.428687 0.526604 0.381598
0.454963 0.537469 0.403449
0.484504 0.550347 0.429145
0.506096 0.562707 0.443427
0.527947 0.575891 0.457435
0.550835 0.590173 0.472724
0.573846 0.604669 0.489082
0.576318 0.597284 0.474006
0.567681 0.575158 0.438819
0.557244 0.547906 0.398016
0.541222 0.512291 0.352636
0.505943 0.455512 0.305943
0.489143 0.410864 0.267979
0.581720 0.455268 0.238254
0.650752 0.487922 0.202090
0.701564 0.510735 0.161532
0.740200 0.525841 0.105135
0.774136 0.538750 0.000000
0.799985 0.551659 0.000000
0.822660 0.564813 0.000000
0.844236 0.577844 0.000000
0.861479 0.583520 0.000000
0.876890 0.586145 0.000000
0.892576 0.589960 0.000000
0.908537 0.594751 0.000000
0.924743 0.600397 0.000000
0.940520 0.606104 0.000000
0.413245 0.536980 0.368719
0.416754 0.538415 0.371588
0.429633 0.546349 0.382025
0.439124 0.549920 0.389868
0.453437 0.555383 0.401892
0.471687 0.562432 0.417731
0.493416 0.571344 0.437201
0.517479 0.581903 0.459602
0.539635 0.593225 0.478828
0.557580 0.604303 0.491249
0.576287 0.615839 0.504814
0.595300 0.627741 0.519310
0.613916 0.639643 0.534539
0.607721 0.624048 0.506065
0.599573 0.603235 0.470863
0.589441 0.577050 0.429877
0.572717 0.541741 0.383764
0.539757 0.487892 0.334905
0.516930 0.438911 0.293217
0.601648 0.481483 0.267063
0.665980 0.513176 0.235813
0.713222 0.534478 0.200534
0.750698 0.549523 0.155459
0.784543 0.562982 0.081422
0.813016 0.575525 0.000000
0.835477 0.588464 0.000000
0.856901 0.600855 0.000000
0.876982 0.611872 0.000000
0.892424 0.614343 0.000000
0.908202 0.618006 0.000000
0.924102 0.622431 0.000000
0.939666 0.627100 0.000000
0.455482 0.568750 0.403357
0.459205 0.570611 0.406561
0.464118 0.572747 0.410803
0.472999 0.576410 0.418616
0.485756 0.581567 0.429999
0.501488 0.587976 0.444556
0.519951 0.595697 0.462013
0.540490 0.604608 0.482185
0.562676 0.614679 0.504845
0.578088 0.624048 0.516503
0.594018 0.633906 0.528893
0.610254 0.644099 0.542138
0.626337 0.654414 0.556054
0.636622 0.658808 0.560266
0.629816 0.643122 0.530388
0.622339 0.623621 0.495613
0.613245 0.599298 0.455390
0.597040 0.565270 0.409735
0.566461 0.514214 0.360449
0.544518 0.467201 0.316960
0.617700 0.503441 0.293278
0.678065 0.534325 0.266911
0.722530 0.554986 0.237034
0.759731 0.571038 0.199344
0.793881 0.585260 0.144991
0.825254 0.597620 0.000000
0.847929 0.610529 0.000000
0.869535 0.622797 0.000000
0.890257 0.634455 0.000000
0.907927 0.641230 0.000000
0.923400 0.644434 0.000000
0.938750 0.648219 0.000000
0.490761 0.595727 0.434272
0.493996 0.597253 0.437263
0.498085 0.599084 0.441047
0.505364 0.602136 0.448035
0.516075 0.606439 0.458228
0.529290 0.611780 0.471138
0.544854 0.618097 0.486763
0.562310 0.625452 0.504753
0.581170 0.633845 0.525078
0.597559 0.642359 0.541222
0.611170 0.650813 0.552605
0.625086 0.659602 0.564691
0.638880 0.668544 0.577020
0.652705 0.677974 0.589502
0.655756 0.675441 0.582452
0.649195 0.660395 0.553887
0.642420 0.642267 0.519890
0.634394 0.619806 0.480659
0.619471 0.587701 0.435859
0.591608 0.539849 0.386419
0.570764 0.494850 0.341802
0.633326 0.524987 0.320134
0.689570 0.554742 0.298344
0.731838 0.575128 0.273259
0.769131 0.592493 0.241550
0.803525 0.607630 0.197574
0.835355 0.620264 0.129610
0.860838 0.632288 0.077760
0.882658 0.644526 0.063172
0.903410 0.656031 0.039918
0.922515 0.666133 0.009827
0.937591 0.669093 0.022583
0.522362 0.620050 0.464271
0.525048 0.621271 0.466926
0.528496 0.622827 0.470283
0.534691 0.625360 0.476539
0.543603 0.628901 0.485603
0.554742 0.633234 0.497200
0.567926 0.638392 0.511040
0.582696 0.644465 0.527214
0.598932 0.651484 0.545556
0.615778 0.659144 0.565209
0.627283 0.666407 0.575250
0.639216 0.674220 0.585809
0.651362 0.682582 0.596612
0.663722 0.691524 0.607599
0.676173 0.700862 0.618585
0.673426 0.691890 0.602838
0.666804 0.676783 0.576379
0.660456 0.659785 0.544182
0.653803 0.639399 0.506401
0.640558 0.609735 0.463325
0.616480 0.566094 0.414740
0.597253 0.523644 0.369635
0.649805 0.547570 0.349310
0.701930 0.576135 0.332464
0.743069 0.597192 0.311742
0.780514 0.616052 0.285740
0.815183 0.632258 0.250095
0.847440 0.645289 0.199222
0.875944 0.656153 0.140841
0.897581 0.667964 0.139193
0.917571 0.678492 0.139193
0.935943 0.688228 0.143160
0.553429 0.643580 0.495918
0.555352 0.644373 0.497932
0.557733 0.645350 0.500450
0.562676 0.647120 0.505669
0.569909 0.649866 0.513481
0.579217 0.653315 0.523705
0.590326 0.657618 0.536156
0.602991 0.662684 0.550744
0.616938 0.668605 0.567254
0.631586 0.675441 0.584833
0.643885 0.682734 0.597925
0.654322 0.690211 0.607202
0.665064 0.698207 0.616693
0.676081 0.706630 0.626276
0.687343 0.715419 0.635889
0.697353 0.722744 0.643183
0.691127 0.709255 0.622919
0.684413 0.694118 0.598322
0.677638 0.677089 0.568566
0.671229 0.657771 0.532067
0.659174 0.630060 0.490211
0.638178 0.589960 0.442390
0.621027 0.550164 0.396948
0.663874 0.567681 0.377173
0.712398 0.595209 0.364385
0.753414 0.617456 0.347539
0.791043 0.637537 0.326574
0.825986 0.654627 0.297765
0.858671 0.668330 0.257725
0.888853 0.677852 0.196628
0.910735 0.688716 0.190890
0.930022 0.699214 0.198245
0.578729 0.662593 0.523339
0.580346 0.663264 0.525170
0.582391 0.664118 0.527489
0.586572 0.665675 0.532189
0.592737 0.667872 0.539208
0.600641 0.670741 0.548333
0.610071 0.674372 0.559472
0.620844 0.678798 0.572198
0.632776 0.684291 0.586603
0.645472 0.690730 0.601984
0.658412 0.698116 0.617487
0.667628 0.705135 0.625544
0.677211 0.712642 0.633875
0.687190 0.720638 0.642359
0.697475 0.728939 0.651148
0.708125 0.737484 0.660334
0.713100 0.738796 0.659907
0.707149 0.725551 0.640253
0.700618 0.710567 0.617670
0.693721 0.693782 0.590234
0.686854 0.674830 0.556542
0.675532 0.648615 0.516258
0.657618 0.612238 0.470069
0.643030 0.575830 0.425422
0.676783 0.586694 0.404517
0.723018 0.614008 0.395850
0.764248 0.637812 0.383154
0.802121 0.659083 0.367193
0.837034 0.676600 0.344488
0.869352 0.690089 0.312352
0.899260 0.700130 0.267613
0.923461 0.709438 0.241154
0.603479 0.681178 0.551812
0.604883 0.681849 0.553491
0.606622 0.682521 0.555535
0.610040 0.683864 0.559503
0.615137 0.685817 0.565576
0.621668 0.688411 0.573358
0.629633 0.691798 0.582818
0.638697 0.695918 0.593744
0.648798 0.700984 0.606012
0.659724 0.706905 0.619226
0.671229 0.713771 0.633173
0.680873 0.720729 0.643183
0.689479 0.727657 0.650538
0.698512 0.734920 0.658381
0.707881 0.742489 0.666590
0.717556 0.750240 0.675196
0.727535 0.758206 0.684138
0.727840 0.753872 0.676081
0.722072 0.740932 0.656367
0.715846 0.726345 0.634943
0.709071 0.709987 0.609796
0.701991 0.691493 0.578912
0.690272 0.665858 0.541192
0.674525 0.632380 0.496498
0.662196 0.599084 0.453193
0.690028 0.606378 0.433845
0.735164 0.634516 0.429084
0.776486 0.659693 0.420752
0.813962 0.681117 0.408820
0.848417 0.698665 0.392340
0.880186 0.712642 0.370031
0.909056 0.723629 0.341985
0.623896 0.697993 0.575860
0.625116 0.698573 0.577295
0.626612 0.699275 0.579065
0.629541 0.700496 0.582544
0.633875 0.702388 0.587762
0.639490 0.704921 0.594568
0.646296 0.708156 0.602838
0.654200 0.712123 0.612421
0.663081 0.716915 0.623194
0.672755 0.722591 0.634913
0.683070 0.729091 0.647364
0.693874 0.736233 0.660426
0.701839 0.742702 0.667536
0.710231 0.749477 0.675105
0.718959 0.756558 0.683040
0.728023 0.763760 0.691341
0.737301 0.771145 0.699977
0.746883 0.778653 0.708888
0.743282 0.769680 0.693874
0.737881 0.757412 0.674403
0.732052 0.743496 0.653132
0.725521 0.727657 0.629786
0.718410 0.709743 0.601648
0.706325 0.684810 0.567437
0.691341 0.653285 0.525200
0.681209 0.623285 0.484047
0.703792 0.627008 0.465126
0.748653 0.656458 0.463783
0.789548 0.682277 0.459358
0.826719 0.704128 0.452827
0.860624 0.722133 0.444282
0.891173 0.736995 0.434058
0.643091 0.715358 0.598566
0.644099 0.715908 0.599847
0.645289 0.716487 0.601282
0.647700 0.717617 0.604181
0.651331 0.719356 0.608606
0.656123 0.721706 0.614435
0.661982 0.724697 0.621546
0.668849 0.728450 0.629938
0.676661 0.732967 0.639399
0.685267 0.738216 0.649897
0.694850 0.744259 0.661738
0.705257 0.751003 0.674861
0.714199 0.757504 0.684688
0.722011 0.763790 0.691920
0.730098 0.770260 0.699519
0.738491 0.776913 0.707393
0.747158 0.783688 0.715541
0.756039 0.790585 0.723995
0.762905 0.794949 0.728664
0.758083 0.784787 0.711482
0.753109 0.773251 0.692439
0.747738 0.760159 0.671443
0.741787 0.745205 0.648463
0.734981 0.728206 0.622950
0.722927 0.704250 0.592279
0.708431 0.674556 0.553979
0.698909 0.646571 0.515068
0.718105 0.648157 0.496223
0.762417 0.678309 0.497932
0.802945 0.704921 0.498360
0.839567 0.727108 0.497841
0.872282 0.745968 0.498421
0.660304 0.732570 0.619074
0.661067 0.733028 0.620050
0.662135 0.733577 0.621332
0.664210 0.734646 0.623835
0.667445 0.736355 0.627832
0.671748 0.738705 0.633051
0.677058 0.741756 0.639521
0.683406 0.745541 0.647272
0.690791 0.750057 0.656489
0.699123 0.755215 0.666926
0.708339 0.761013 0.678614
0.718288 0.767422 0.691432
0.728634 0.774258 0.704707
0.735988 0.780148 0.711788
0.743618 0.786130 0.719142
0.751431 0.792233 0.726619
0.759548 0.798459 0.734371
0.767849 0.804746 0.742245
0.776364 0.811124 0.750362
0.779477 0.811185 0.748714
0.774990 0.801846 0.732357
0.770352 0.791257 0.714046
0.765560 0.779171 0.693629
0.760342 0.765377 0.671077
0.754177 0.749386 0.646113
0.742153 0.726345 0.618677
0.728145 0.698573 0.584710
0.719570 0.673396 0.550469
0.736294 0.674098 0.533165
0.779721 0.704524 0.538140
0.819455 0.731380 0.544091
0.854948 0.753964 0.550896
0.678065 0.751797 0.640345
0.678767 0.752193 0.641138
0.679591 0.752651 0.642176
0.681361 0.753628 0.644373
0.684199 0.755123 0.647822
0.687922 0.757229 0.652522
0.692683 0.759915 0.658473
0.698390 0.763180 0.665736
0.705104 0.767117 0.674250
0.712734 0.771633 0.684077
0.721096 0.776730 0.695003
0.730251 0.782406 0.706966
0.740078 0.788540 0.719875
0.748409 0.794339 0.729458
