data/filter_cube/10491141/1023206/file.cube
# Created by Adobe Lightroom plugin Export LUT (1.17.0)
# www.johnrellis.com/lightroom/exportlut.htm
# Preset: 莫兰迪丛林_05 云集
# Color profile: C:\Program Files (x86)\Common Files\Adobe\Color\Profiles\Recommended\AdobeRGB1998.icc
LUT_3D_SIZE 8
DOMAIN_MIN 0.000000 0.000000 0.000000
DOMAIN_MAX 0.903226 0.903226 0.903226
0.069123 0.076112 0.088075
0.099031 0.079988 0.087312
0.249912 0.080720 0.079438
0.502342 0.000000 0.013275
0.670802 0.000000 0.000000
0.758846 0.142947 0.000000
0.825284 0.244541 0.000000
0.891508 0.341711 0.000000
0.075532 0.087922 0.095705
0.085298 0.092103 0.098482
0.257115 0.121767 0.078340
0.508141 0.080171 0.000000
0.671656 0.102815 0.000000
0.757626 0.181735 0.000000
0.824063 0.264927 0.000000
0.890562 0.354528 0.000000
0.101961 0.152346 0.124056
0.130068 0.179629 0.148623
0.163638 0.167361 0.132509
0.521996 0.256474 0.000000
0.681880 0.275975 0.000000
0.761563 0.299443 0.000000
0.828458 0.348882 0.000000
0.893553 0.410986 0.000000
0.193576 0.320562 0.204044
0.237613 0.349554 0.237125
0.364904 0.427344 0.307195
0.343236 0.317205 0.206882
0.650629 0.408789 0.000000
0.768185 0.451942 0.000000
0.830533 0.462440 0.000000
0.893187 0.493751 0.000000
0.369879 0.503044 0.334966
0.406531 0.517723 0.363867
0.506096 0.562707 0.443427
0.576318 0.597284 0.474006
0.505943 0.455512 0.305943
0.701564 0.510735 0.161532
0.822660 0.564813 0.000000
0.892576 0.589960 0.000000
0.522362 0.620050 0.464271
0.543603 0.628901 0.485603
0.598932 0.651484 0.545556
0.651362 0.682582 0.596612
0.666804 0.676783 0.576379
0.616480 0.566094 0.414740
0.743069 0.597192 0.311742
0.875944 0.656153 0.140841
0.623896 0.697993 0.575860
0.633875 0.702388 0.587762
0.663081 0.716915 0.623194
0.701839 0.742702 0.667536
0.737301 0.771145 0.699977
0.732052 0.743496 0.653132
0.691341 0.653285 0.525200
0.789548 0.682277 0.459358
0.693324 0.769070 0.658900
0.699062 0.772091 0.666102
0.718624 0.783047 0.691524
0.751736 0.802731 0.735073
0.779934 0.821897 0.764462
0.809689 0.842924 0.792081
0.795804 0.810269 0.731624
0.766720 0.742672 0.635676
0.071504 0.081483 0.101900
0.097414 0.080873 0.106050
0.233982 0.082094 0.102022
0.487098 0.000000 0.075563
0.660090 0.000000 0.000000
0.751156 0.141512 0.000000
0.819394 0.241245 0.000000
0.887266 0.338567 0.000000
0.075196 0.091310 0.102113
0.093355 0.103761 0.115602
0.251225 0.121187 0.103487
0.501091 0.082856 0.068177
0.665217 0.102510 0.000000
0.752316 0.181369 0.000000
0.819028 0.262364 0.000000
0.886351 0.351019 0.000000
0.104707 0.157443 0.132845
0.140078 0.190036 0.168002
0.177981 0.185092 0.157473
0.523278 0.263249 0.037263
0.674525 0.272984 0.000000
0.756252 0.297704 0.000000
0.822538 0.344060 0.000000
0.889250 0.406592 0.000000
0.197635 0.321386 0.214359
0.244175 0.351659 0.250248
0.371679 0.427771 0.326909
0.348699 0.324804 0.227146
0.648096 0.411322 0.046937
0.760678 0.446662 0.000000
0.824369 0.458167 0.000000
0.888975 0.490944 0.000000
0.374029 0.502434 0.344121
0.408209 0.516045 0.370733
0.506828 0.559899 0.451362
0.577356 0.597589 0.485695
0.506065 0.458198 0.319951
0.701320 0.514397 0.186160
0.820432 0.566888 0.000000
0.889586 0.589136 0.000000
0.520714 0.617273 0.466041
0.539178 0.624353 0.484199
0.594141 0.647150 0.542473
0.649134 0.679408 0.597284
0.667018 0.677241 0.582849
0.617029 0.568414 0.424598
0.743557 0.600214 0.325353
0.874327 0.657954 0.179599
0.620417 0.694789 0.573388
0.629572 0.698451 0.584253
0.659327 0.713161 0.619928
0.699825 0.739956 0.666957
0.736110 0.769497 0.700374
0.731838 0.743648 0.656214
0.690028 0.652705 0.528161
0.788724 0.681910 0.462226
0.690761 0.766781 0.656550
0.696620 0.770047 0.663935
0.716396 0.781186 0.689387
0.749630 0.801022 0.732967
0.781094 0.822782 0.767056
0.810239 0.843320 0.793851
0.796139 0.810971 0.734249
0.765957 0.742245 0.636652
0.066529 0.093904 0.155215
0.092256 0.088380 0.177859
0.256077 0.071473 0.183444
0.452461 0.055787 0.176028
0.642786 0.069825 0.151705
0.741634 0.189853 0.129061
0.812833 0.271580 0.086824
0.883360 0.356573 0.000000
0.089693 0.124849 0.157168
0.100771 0.127565 0.183902
0.251469 0.127352 0.193210
0.468849 0.120211 0.180697
0.647395 0.143679 0.154238
0.742824 0.220157 0.126986
0.813077 0.290135 0.081209
0.883330 0.368780 0.000000
0.103944 0.170352 0.164187
0.133150 0.194064 0.186374
0.228611 0.240879 0.232029
0.514763 0.270787 0.192111
0.666651 0.288762 0.160403
0.750454 0.317784 0.125185
0.818082 0.358831 0.065187
0.886046 0.415045 0.000000
0.188479 0.317082 0.224765
0.233951 0.347326 0.260563
0.386969 0.430915 0.371832
0.389715 0.368719 0.301030
0.664210 0.448920 0.197177
0.754482 0.459022 0.159731
0.820066 0.471229 0.119783
0.886564 0.499611 0.000000
0.359136 0.493172 0.346532
0.398291 0.509239 0.376684
0.504479 0.555810 0.464179
0.596460 0.614496 0.535332
0.526268 0.485206 0.377478
0.711269 0.540337 0.272435
0.820798 0.586175 0.199863
0.885832 0.596155 0.162051
0.513176 0.612085 0.467903
0.533867 0.619928 0.487861
0.589776 0.643183 0.545281
0.648890 0.676295 0.607568
0.673426 0.684901 0.609430
0.622187 0.579461 0.458839
0.748531 0.614374 0.373205
0.873564 0.669947 0.284031
0.616724 0.692012 0.574273
0.626429 0.695918 0.585534
0.655543 0.710048 0.619684
0.697780 0.736782 0.670069
0.735439 0.767849 0.706050
0.736080 0.749874 0.672786
0.692226 0.659144 0.549187
0.794675 0.692317 0.488380
0.685908 0.763668 0.653620
0.691005 0.766323 0.659846
0.710689 0.777279 0.684688
0.744625 0.797726 0.728603
0.780240 0.821530 0.769741
0.810575 0.843351 0.797726
0.799008 0.815213 0.745632
0.767575 0.745541 0.645472
0.003143 0.124910 0.265660
0.071901 0.122255 0.291020
0.283818 0.039643 0.355016
0.512657 0.030152 0.315770
0.624170 0.122683 0.278477
0.714260 0.255772 0.285039
0.791958 0.328466 0.269932
0.868284 0.398230 0.248081
0.098329 0.178042 0.274540
0.101961 0.168215 0.298863
0.288670 0.123720 0.365362
0.508751 0.149599 0.325994
0.617578 0.205417 0.299321
0.716548 0.282353 0.289799
0.792844 0.345159 0.271977
0.869078 0.407172 0.245274
0.135592 0.250614 0.276646
0.168338 0.264775 0.293156
0.271733 0.292699 0.362860
0.489631 0.302342 0.354925
0.628138 0.332555 0.334356
0.726741 0.368505 0.309239
0.800229 0.406928 0.283879
0.874022 0.447303 0.245609
0.180819 0.326635 0.280369
0.216007 0.343999 0.298375
0.342107 0.406500 0.365240
0.456550 0.437873 0.404456
0.654719 0.478309 0.365576
0.735897 0.481056 0.337743
0.806332 0.491554 0.301030
0.878721 0.512413 0.251682
0.330907 0.475135 0.346258
0.366583 0.490242 0.371954
0.473060 0.536828 0.452979
0.589014 0.603265 0.552483
0.553002 0.522179 0.453712
0.724697 0.578149 0.389837
0.809354 0.597986 0.358892
0.877714 0.605127 0.319463
0.494636 0.601343 0.465003
0.516930 0.610437 0.484901
0.574701 0.634089 0.540002
0.643854 0.669123 0.614649
0.686976 0.701411 0.648524
0.632593 0.598962 0.510033
0.759792 0.639399 0.445106
0.873106 0.687495 0.400793
0.604822 0.684596 0.569085
0.615137 0.688716 0.580407
0.645594 0.703090 0.614740
0.687739 0.729397 0.663416
0.733425 0.764736 0.713436
0.745052 0.762478 0.701717
0.695583 0.668696 0.578882
0.804166 0.706996 0.524559
0.679194 0.759213 0.651209
0.684474 0.762142 0.657435
0.701778 0.772000 0.678218
0.733242 0.790646 0.717525
0.776913 0.817960 0.771695
0.809751 0.842374 0.802152
0.804196 0.822690 0.764431
0.769741 0.750301 0.658961
0.000000 0.183597 0.403113
0.074861 0.182223 0.420569
0.263981 0.151339 0.475715
0.526482 0.057740 0.493996
0.657923 0.242100 0.450752
0.713741 0.299016 0.409461
0.756985 0.405310 0.427955
0.840970 0.468147 0.432319
0.115724 0.235233 0.407080
0.127291 0.226383 0.423987
0.273198 0.204166 0.475959
0.529625 0.158328 0.501488
0.653498 0.282628 0.456397
0.710384 0.325231 0.416022
0.758846 0.417456 0.431189
0.842191 0.475013 0.432502
0.216739 0.319921 0.383948
0.245579 0.333745 0.402472
0.309911 0.341436 0.466560
0.526146 0.322210 0.515679
0.638544 0.382757 0.472694
0.696437 0.406409 0.441871
0.764736 0.455604 0.440467
0.846342 0.496468 0.430243
0.246891 0.417365 0.411872
0.279088 0.425971 0.421637
0.377142 0.453590 0.454108
0.501274 0.486732 0.518761
0.616205 0.490761 0.497078
0.701350 0.503899 0.478279
0.777035 0.516564 0.454536
0.856718 0.533074 0.421271
0.321904 0.477363 0.406348
0.349035 0.485237 0.417578
0.436439 0.518242 0.459968
0.547631 0.569512 0.530297
0.591577 0.569848 0.532097
0.719142 0.600458 0.508537
0.790341 0.598260 0.477424
0.865751 0.603082 0.435492
0.452888 0.580957 0.452338
0.475074 0.586328 0.466835
0.536797 0.609644 0.516625
0.613916 0.647181 0.590661
0.679927 0.694148 0.658900
0.642908 0.619654 0.562127
0.777646 0.669673 0.522728
0.867765 0.693935 0.499001
0.583001 0.671748 0.556847
0.593225 0.675166 0.567193
0.624628 0.688106 0.600000
0.667414 0.712764 0.646845
0.718776 0.749477 0.706386
0.757259 0.779294 0.738308
0.699214 0.679133 0.610193
0.818723 0.724819 0.565820
0.665431 0.748775 0.642847
0.670375 0.751492 0.648371
0.687190 0.761105 0.667628
0.716609 0.779416 0.702449
0.757900 0.805417 0.752499
0.804410 0.837613 0.802914
0.812222 0.833677 0.789731
0.771206 0.755093 0.674922
0.143771 0.268498 0.522911
0.180056 0.267369 0.533257
0.305699 0.253422 0.567071
0.532372 0.176120 0.618860
0.658473 0.275303 0.585473
0.728328 0.403540 0.553338
0.773556 0.443153 0.528649
0.828061 0.503227 0.537804
0.199924 0.308995 0.520958
0.216861 0.303685 0.530938
0.319402 0.292241 0.563745
0.527245 0.237339 0.615015
0.655756 0.311498 0.587091
0.725032 0.421637 0.555810
0.771054 0.454505 0.531212
0.825742 0.512749 0.541741
0.308049 0.402472 0.504173
0.326970 0.408759 0.517632
0.366155 0.398779 0.555322
0.516075 0.380011 0.606531
0.650263 0.411933 0.596979
0.716213 0.477455 0.566827
0.763973 0.491707 0.541650
0.818997 0.544640 0.556146
0.350011 0.469398 0.498299
0.370825 0.474159 0.503685
0.436530 0.491188 0.523003
0.514977 0.514580 0.589227
0.642573 0.522087 0.614099
0.703456 0.546502 0.584344
0.752163 0.546319 0.560662
0.822599 0.580163 0.567132
0.388190 0.551385 0.522820
0.407477 0.554955 0.528130
0.466072 0.566949 0.546166
0.543725 0.587060 0.575677
0.623224 0.610101 0.624506
0.684169 0.606714 0.601343
0.755917 0.608362 0.584619
0.838071 0.617853 0.566644
0.454871 0.586145 0.513054
0.470253 0.590204 0.519860
0.516594 0.603601 0.542107
0.582300 0.629541 0.581659
0.647700 0.663355 0.634730
0.667750 0.655970 0.626154
0.779965 0.688167 0.613123
0.854917 0.685542 0.582177
0.556329 0.662074 0.556237
0.566003 0.664820 0.562921
0.594507 0.673274 0.583520
0.640314 0.691371 0.625483
0.690883 0.726009 0.680934
0.753079 0.776486 0.750942
0.708003 0.695766 0.648402
0.843015 0.749477 0.620996
0.647120 0.735470 0.631617
0.651820 0.737942 0.636713
0.667994 0.747097 0.654200
0.695796 0.764126 0.685420
0.734615 0.788937 0.730709
0.787198 0.823728 0.791318
0.827237 0.851347 0.825193
0.774472 0.763272 0.698848
0.302556 0.375921 0.620813
0.324498 0.376226 0.627649
0.397223 0.368170 0.646509
0.525933 0.344152 0.676631
0.670344 0.334813 0.700465
0.735409 0.437659 0.661769
0.786374 0.521447 0.642969
0.836240 0.554772 0.635645
0.320043 0.397589 0.614984
0.337133 0.396796 0.621698
0.401892 0.390051 0.640986
0.521935 0.369329 0.671290
0.665156 0.355993 0.697139
0.730770 0.447089 0.659174
0.781735 0.523980 0.639857
0.832578 0.554742 0.632441
0.406104 0.480385 0.604730
0.419135 0.482490 0.612726
0.434333 0.463630 0.632929
0.524651 0.454414 0.663813
0.658656 0.437232 0.698207
0.725948 0.500084 0.665888
0.777829 0.556359 0.648524
0.831357 0.576501 0.640223
0.440620 0.522759 0.575708
0.451423 0.524193 0.578119
0.488319 0.541039 0.606897
0.536461 0.545312 0.649439
0.639887 0.539849 0.692042
0.719692 0.569421 0.678981
0.772122 0.598596 0.660761
0.827878 0.603449 0.647333
0.463722 0.583734 0.590509
0.473213 0.584375 0.592248
0.505882 0.588281 0.600031
0.555962 0.596368 0.614588
0.615412 0.615595 0.666651
0.706325 0.624689 0.689052
0.760006 0.634272 0.666560
0.820493 0.630030 0.649256
0.497993 0.640589 0.606897
0.506981 0.642084 0.609735
0.536187 0.647272 0.619654
0.580072 0.655695 0.635767
0.629694 0.665400 0.655360
0.688930 0.686244 0.701808
0.747646 0.678401 0.678157
0.820859 0.682124 0.667536
0.551812 0.665949 0.600977
0.559777 0.667659 0.604761
0.582879 0.672297 0.615808
0.617182 0.681788 0.634760
0.658350 0.702113 0.664240
0.710353 0.734920 0.710506
0.730495 0.727901 0.703517
0.846403 0.757321 0.693874
0.626551 0.727047 0.638941
0.630762 0.728817 0.641962
0.646052 0.736873 0.653895
0.668513 0.748531 0.671260
0.703700 0.765347 0.702510
0.754513 0.799283 0.760678
0.821012 0.846891 0.831296
0.780667 0.776852 0.734249
0.451942 0.492927 0.698665
0.462074 0.492226 0.702602
0.495216 0.484657 0.713832
0.563531 0.471107 0.735805
0.665766 0.444404 0.766354
0.756771 0.471778 0.772366
0.802792 0.550866 0.739437
0.848783 0.611139 0.727321
0.457221 0.503960 0.694636
0.466529 0.503380 0.698543
0.497597 0.497078 0.710292
0.561730 0.484260 0.731960
0.661402 0.460029 0.762936
0.753841 0.481880 0.771054
0.800565 0.555871 0.738827
0.847532 0.614130 0.727382
0.501396 0.554772 0.684047
0.501671 0.550500 0.688045
0.508965 0.535515 0.700313
0.563684 0.530449 0.724575
0.651728 0.513542 0.756069
0.747250 0.519951 0.771145
0.797086 0.579156 0.742336
0.845365 0.627161 0.730312
0.513481 0.582940 0.659846
0.521386 0.585931 0.664973
0.546319 0.593622 0.681788
0.568872 0.585351 0.709560
0.637140 0.579126 0.744015
0.737545 0.574151 0.774807
0.793118 0.614282 0.750729
0.842344 0.648524 0.735988
0.531701 0.620569 0.653437
0.537530 0.621027 0.654688
0.553368 0.619654 0.656794
0.579980 0.624445 0.673579
0.620844 0.631861 0.720882
0.711727 0.628901 0.770230
0.786465 0.652277 0.761654
0.837308 0.676081 0.743221
0.555352 0.670527 0.668421
0.559075 0.670039 0.668788
0.572564 0.669093 0.670924
0.595544 0.668269 0.676020
0.626520 0.667933 0.685023
0.675929 0.685084 0.744259
0.778164 0.700282 0.780423
0.830991 0.712367 0.754513
0.588342 0.715450 0.685115
0.591577 0.715816 0.686244
0.602808 0.717678 0.690852
0.622583 0.722621 0.700710
0.650019 0.730556 0.715877
0.686213 0.735653 0.731685
0.745693 0.754910 0.780362
0.817136 0.751980 0.764309
0.626307 0.741573 0.685359
0.628717 0.742000 0.686458
0.637720 0.744411 0.691157
0.654841 0.750027 0.701015
0.680323 0.758877 0.716579
0.717189 0.775479 0.742672
0.769192 0.804868 0.785306
0.801328 0.809293 0.796658
