data/fiter_cube/12898295/1023045/file.cube
# Created by Adobe Lightroom plugin Export LUT (1.17.0)
# www.johnrellis.com/lightroom/exportlut.htm
# Preset: 经典婚礼摄影_07 云集
# Color profile: C:\Program Files (x86)\Common Files\Adobe\Color\Profiles\Recommended\AdobeRGB1998.icc
LUT_3D_SIZE 8
DOMAIN_MIN 0.000000 0.000000 0.000000
DOMAIN_MAX 0.903226 0.903226 0.903226
0.000000 0.000000 0.000000
0.107424 0.000000 0.001495
0.290318 0.000000 0.000000
0.548150 0.000000 0.000000
0.749416 0.000000 0.000000
0.907622 0.000000 0.000000
0.988739 0.000000 0.000000
1.000000 0.237247 0.000000
0.048432 0.058747 0.017395
0.097047 0.062287 0.007599
0.270054 0.000000 0.000000
0.511559 0.000000 0.000000
0.722652 0.000000 0.000000
0.882506 0.000000 0.000000
0.972595 0.005219 0.000000
1.000000 0.244541 0.000000
0.085756 0.160830 0.060060
0.122988 0.164157 0.059083
0.233860 0.181003 0.000000
0.499550 0.148684 0.000000
0.729824 0.130465 0.000000
0.879393 0.204227 0.000000
0.981659 0.291997 0.000000
1.000000 0.355200 0.000000
0.127810 0.318944 0.111116
0.165286 0.317510 0.108614
0.226139 0.312352 0.075746
0.496834 0.409216 0.000000
0.764157 0.449897 0.000000
0.880125 0.426093 0.000000
0.971496 0.441962 0.000000
1.000000 0.462959 0.000000
0.194827 0.523827 0.222324
0.234562 0.521904 0.219516
0.344091 0.518944 0.211795
0.396826 0.483864 0.137728
0.672206 0.583642 0.000000
0.857603 0.605768 0.000000
0.946532 0.576043 0.000000
1.000000 0.576745 0.000000
0.298650 0.680751 0.360082
0.346410 0.693324 0.373999
0.442451 0.687129 0.371435
0.486122 0.669551 0.299413
0.579644 0.647547 0.242741
0.797665 0.726802 0.186038
0.943297 0.745388 0.000000
1.000000 0.717006 0.000000
0.456611 0.808164 0.506920
0.484291 0.809079 0.511620
0.549493 0.801175 0.512291
0.633387 0.791958 0.516197
0.633845 0.771786 0.426917
0.728908 0.781186 0.400824
0.880797 0.830350 0.381170
0.994232 0.841611 0.340246
0.617670 0.897581 0.643702
0.631434 0.896269 0.645747
0.678035 0.893523 0.656794
0.745449 0.892668 0.680568
0.748836 0.875364 0.631861
0.778012 0.871580 0.606500
0.854704 0.896483 0.610712
0.949157 0.922881 0.594659
0.038392 0.007965 0.026490
0.093751 0.000000 0.027619
0.250828 0.000000 0.026215
0.495399 0.000000 0.000000
0.713497 0.000000 0.000000
0.871183 0.000000 0.000000
0.965454 0.000000 0.000000
1.000000 0.196139 0.000000
0.052674 0.048951 0.032380
0.100649 0.058869 0.041413
0.247929 0.000000 0.026307
0.483284 0.000000 0.000000
0.705043 0.000000 0.000000
0.858183 0.000000 0.000000
0.952758 0.000000 0.000000
1.000000 0.206119 0.000000
0.091463 0.150912 0.072450
0.133669 0.156741 0.076143
0.231998 0.171817 0.041810
0.470802 0.129854 0.000000
0.697017 0.082551 0.000000
0.850278 0.155276 0.000000
0.953399 0.244083 0.000000
1.000000 0.321782 0.000000
0.134432 0.300023 0.121004
0.172671 0.302464 0.121798
0.238010 0.305821 0.098909
0.449073 0.360266 0.000000
0.700404 0.378851 0.000000
0.834623 0.368292 0.000000
0.941009 0.398535 0.000000
1.000000 0.434974 0.000000
0.203189 0.511406 0.232761
0.238102 0.507073 0.228183
0.342016 0.500420 0.220829
0.384924 0.458412 0.147341
0.637140 0.543694 0.000000
0.832029 0.573724 0.000000
0.929595 0.551751 0.000000
1.000000 0.559838 0.000000
0.289769 0.662104 0.355200
0.322057 0.661891 0.355230
0.415595 0.657740 0.352941
0.479438 0.646174 0.301305
0.563897 0.625971 0.244602
0.789303 0.715969 0.205356
0.935546 0.735317 0.086366
1.000000 0.705074 0.000000
0.425971 0.789548 0.489570
0.444984 0.785550 0.486519
0.516625 0.780514 0.488869
0.617121 0.776364 0.502831
0.623987 0.760555 0.420539
0.716213 0.766659 0.391333
0.869627 0.815854 0.366369
0.985138 0.827543 0.317815
0.596216 0.889189 0.631434
0.613581 0.889128 0.635737
0.663355 0.887114 0.647303
0.735012 0.886900 0.672297
0.766384 0.883848 0.658045
0.784604 0.875273 0.620325
0.851804 0.892821 0.610407
0.945251 0.917540 0.588678
0.080842 0.024292 0.086519
0.120333 0.000000 0.093111
0.250492 0.000000 0.100649
0.509697 0.000000 0.112795
0.720668 0.000000 0.105684
0.875975 0.000000 0.098299
0.969970 0.005524 0.078340
1.000000 0.241794 0.068757
0.094362 0.067597 0.089967
0.130068 0.068971 0.098390
0.247501 0.014099 0.105898
0.487861 0.000000 0.113863
0.710262 0.000000 0.102541
0.863676 0.000000 0.082490
0.960998 0.099397 0.033906
1.000000 0.255863 0.007385
0.103761 0.138491 0.106203
0.139834 0.146883 0.110567
0.249332 0.167025 0.122347
0.471656 0.132845 0.110170
0.711208 0.104005 0.088472
0.857420 0.174441 0.023407
0.955261 0.260136 0.000000
1.000000 0.336339 0.000000
0.137484 0.311009 0.174105
0.182254 0.316747 0.177310
0.306432 0.330694 0.186191
0.469856 0.363378 0.149722
0.701472 0.361273 0.000000
0.844602 0.374151 0.000000
0.947723 0.409033 0.000000
1.000000 0.447089 0.000000
0.201663 0.512535 0.283574
0.248234 0.514092 0.285649
0.367132 0.513695 0.287205
0.445197 0.493782 0.237217
0.654749 0.554498 0.193057
0.832120 0.568292 0.000000
0.929656 0.543267 0.000000
1.000000 0.561364 0.000000
0.295964 0.664485 0.397131
0.334203 0.664637 0.399084
0.430671 0.659541 0.398291
0.539483 0.649165 0.389715
0.566094 0.609369 0.301762
0.781674 0.704158 0.290501
0.926879 0.724910 0.226902
1.000000 0.701472 0.052155
0.438453 0.794797 0.523919
0.460853 0.791989 0.523095
0.527276 0.784298 0.521752
0.618891 0.776242 0.527123
0.640131 0.761563 0.462165
0.717922 0.760647 0.434516
0.872801 0.819699 0.437507
0.986786 0.835691 0.411933
0.589563 0.889555 0.645106
0.601007 0.887449 0.644556
0.649958 0.884001 0.652430
0.730129 0.886473 0.681056
0.779538 0.882567 0.684627
0.791440 0.876524 0.642267
0.853941 0.892363 0.635676
0.946960 0.920287 0.624781
0.114046 0.051362 0.167269
0.159060 0.012268 0.181155
0.314458 0.000000 0.216007
0.492409 0.000000 0.223301
0.730556 0.000000 0.265446
0.865873 0.000000 0.284611
0.951110 0.179110 0.308598
1.000000 0.298924 0.311192
0.137209 0.085603 0.180270
0.173709 0.083528 0.189456
0.315221 0.006043 0.221683
0.492653 0.000000 0.231174
0.727871 0.000000 0.272831
0.857816 0.000000 0.284459
0.946319 0.199619 0.299290
1.000000 0.307042 0.301366
0.140261 0.153536 0.172030
0.169039 0.159152 0.176120
0.286900 0.179568 0.214359
0.480079 0.176303 0.246189
0.715084 0.185367 0.291081
0.852811 0.249790 0.310185
0.953735 0.336309 0.320928
1.000000 0.389258 0.313298
0.150759 0.270695 0.218448
0.186099 0.279850 0.225498
0.299565 0.306188 0.246738
0.474281 0.344579 0.280674
0.684871 0.349828 0.277897
0.833249 0.377142 0.274968
0.938842 0.420783 0.279088
1.000000 0.467842 0.291142
0.195529 0.514122 0.366064
0.244663 0.517662 0.369451
0.376898 0.527276 0.379095
0.527611 0.527092 0.381628
0.662806 0.552514 0.345129
0.823484 0.545434 0.261021
0.929870 0.548150 0.244755
1.000000 0.570001 0.265629
0.308537 0.682185 0.477394
0.358587 0.691493 0.488716
0.457984 0.683070 0.484413
0.577081 0.674495 0.483284
0.629145 0.648127 0.427710
0.787381 0.707668 0.422492
0.920409 0.718135 0.367193
1.000000 0.689937 0.256077
0.438209 0.797360 0.570306
0.466011 0.797574 0.572930
0.542992 0.795621 0.578607
0.636378 0.791562 0.585931
0.708583 0.780819 0.578058
0.730983 0.760647 0.511192
0.874052 0.820981 0.523033
0.982452 0.834592 0.495949
0.594812 0.894621 0.680537
0.610529 0.894499 0.682979
0.653285 0.892058 0.687221
0.719966 0.889128 0.699275
0.788174 0.885008 0.715877
0.802670 0.880034 0.677974
0.854643 0.889403 0.668849
0.947662 0.921813 0.669001
0.163516 0.076661 0.305028
0.209964 0.051057 0.320134
0.354498 0.000000 0.357763
0.557336 0.000000 0.406500
0.714443 0.000000 0.418433
0.867063 0.024414 0.456428
0.946105 0.267277 0.464973
1.000000 0.417243 0.502678
0.184237 0.102052 0.313878
0.224125 0.098482 0.328069
0.357580 0.042084 0.362860
0.560021 0.000000 0.412879
0.713405 0.000000 0.424811
0.863645 0.166049 0.461311
0.943572 0.303990 0.470649
1.000000 0.434638 0.506859
0.185611 0.183749 0.290196
0.219669 0.190402 0.307469
0.335546 0.197726 0.348974
0.553033 0.208774 0.422797
0.700649 0.220310 0.435340
0.844205 0.303410 0.463844
0.931395 0.383398 0.478462
0.996612 0.475380 0.511101
0.187716 0.278325 0.309667
0.217197 0.283940 0.314458
0.311803 0.301427 0.330571
0.500237 0.354192 0.404578
0.682948 0.401465 0.455116
0.824765 0.443275 0.481819
0.918700 0.486458 0.496986
0.997559 0.517082 0.494545
0.205234 0.438422 0.389960
0.242069 0.443915 0.394598
0.348913 0.458167 0.406470
0.497078 0.483009 0.428717
0.642420 0.515526 0.455970
0.797116 0.527367 0.453681
0.910430 0.551415 0.455695
0.995026 0.579828 0.460639
0.259770 0.633722 0.504234
0.300237 0.637110 0.508019
0.410925 0.643885 0.516564
0.552300 0.657099 0.533501
0.657099 0.647303 0.522454
0.771145 0.682521 0.509483
0.903655 0.684230 0.455238
0.992737 0.682582 0.440345
0.423774 0.794919 0.625147
0.447913 0.792844 0.623926
0.522454 0.788754 0.623468
0.618250 0.785916 0.626337
0.707271 0.781460 0.627100
0.745602 0.761105 0.580743
0.866117 0.809812 0.589014
0.972839 0.818051 0.549889
0.562280 0.886687 0.704768
0.576440 0.885618 0.704860
0.621637 0.882933 0.706386
0.699336 0.887419 0.722377
0.766506 0.884703 0.729152
0.820706 0.880217 0.728603
0.846036 0.876310 0.692927
0.942870 0.915587 0.701595
0.237064 0.116640 0.490303
0.284367 0.098146 0.500008
0.421607 0.000000 0.525322
0.603967 0.000000 0.568200
0.750332 0.000000 0.601373
0.849088 0.082582 0.585229
0.941833 0.354864 0.602167
0.999512 0.469123 0.616968
0.252567 0.122347 0.484321
0.290074 0.115663 0.490578
0.412299 0.075319 0.514458
0.593164 0.000000 0.559350
0.744533 0.000000 0.597742
0.842496 0.168002 0.582208
0.937682 0.377325 0.602686
0.996918 0.480842 0.617853
0.250095 0.223209 0.475990
0.281895 0.221897 0.482460
0.398413 0.223392 0.507683
0.584619 0.241825 0.564538
0.745846 0.279881 0.612757
0.835904 0.336095 0.595178
0.930632 0.463874 0.618799
0.991852 0.535119 0.632624
0.231510 0.315160 0.439063
0.256931 0.316442 0.439368
0.361639 0.337865 0.477150
0.554528 0.392645 0.557458
0.746792 0.480568 0.636561
0.831693 0.504021 0.626490
0.923247 0.573785 0.649226
0.986236 0.612299 0.658625
0.247929 0.445075 0.488777
0.276860 0.447639 0.490761
0.363989 0.455695 0.496651
0.485542 0.468879 0.506767
0.661982 0.531029 0.574304
0.802182 0.592615 0.623194
0.902617 0.632410 0.646815
0.974792 0.661311 0.659724
0.275303 0.585443 0.544121
0.309636 0.591272 0.550072
0.401190 0.599207 0.557610
0.523400 0.612116 0.569726
0.644770 0.630457 0.585077
0.765133 0.668116 0.616907
0.887358 0.688685 0.626062
0.976593 0.707942 0.631403
0.377478 0.769650 0.663813
0.410193 0.772763 0.668055
0.495552 0.776089 0.674220
0.606928 0.784268 0.686641
0.716640 0.796597 0.703914
0.788357 0.787747 0.692531
0.864591 0.806577 0.675166
0.968505 0.803403 0.625818
0.543664 0.887053 0.754116
0.559380 0.886625 0.754665
0.608209 0.885069 0.755947
0.679500 0.884794 0.760464
0.750515 0.884215 0.764004
0.817136 0.883909 0.767788
0.851377 0.875425 0.740536
0.940093 0.912078 0.750240
0.331762 0.186648 0.641840
0.369421 0.177157 0.647059
0.481697 0.132540 0.664088
0.629419 0.000000 0.692805
0.774380 0.092439 0.729519
0.861570 0.094209 0.731136
0.920775 0.306859 0.689906
0.988067 0.494148 0.703975
0.348669 0.184604 0.646174
0.383490 0.174990 0.650965
0.489052 0.134524 0.666804
0.625849 0.118807 0.690883
0.770687 0.184543 0.728237
0.859922 0.193454 0.732357
0.919036 0.343084 0.692744
0.986603 0.512566 0.707729
0.343328 0.261814 0.640742
0.375402 0.261814 0.644831
0.475257 0.263279 0.659876
0.615808 0.281224 0.688838
0.758663 0.336797 0.725154
0.854490 0.359442 0.737057
0.913939 0.442847 0.703761
0.982177 0.568139 0.721157
0.307500 0.368475 0.608789
0.335973 0.369848 0.615045
0.435950 0.381109 0.641566
0.583337 0.408484 0.673701
0.733913 0.467659 0.714961
0.845609 0.516014 0.744228
0.906004 0.556054 0.720882
0.975982 0.638148 0.740169
0.295048 0.475471 0.606531
0.317174 0.475441 0.606378
0.384985 0.474678 0.605707
0.498329 0.482277 0.621271
0.681056 0.546624 0.687770
0.834226 0.639155 0.751492
0.896147 0.656550 0.740261
0.968963 0.706630 0.760464
0.326696 0.602594 0.648646
0.349371 0.603235 0.649226
0.419196 0.605127 0.650904
0.514977 0.607935 0.653071
0.618189 0.611872 0.654200
0.772671 0.675807 0.711696
0.883696 0.738857 0.757565
0.961059 0.766659 0.776303
0.377661 0.723049 0.694362
0.399573 0.723964 0.695430
0.466773 0.727169 0.698848
0.559716 0.733394 0.704799
0.662196 0.744320 0.714046
0.764157 0.762509 0.728267
0.854948 0.790982 0.751827
0.953887 0.806271 0.758145
0.465431 0.862028 0.779385
0.484718 0.862943 0.780880
0.544854 0.865080 0.784939
0.630213 0.869413 0.792233
0.726040 0.877256 0.804379
0.815793 0.891447 0.823636
0.873930 0.890837 0.819760
0.937499 0.908721 0.809506
0.488899 0.351873 0.794186
0.510582 0.349310 0.796017
0.579736 0.343450 0.803952
0.676112 0.333227 0.816159
0.781827 0.322271 0.831968
0.881956 0.335241 0.848020
0.940490 0.335241 0.834012
0.980865 0.471168 0.788968
0.493050 0.353521 0.795590
0.514122 0.351019 0.797391
0.581689 0.345464 0.805203
0.676600 0.335424 0.817075
0.781460 0.324407 0.832609
0.880949 0.374701 0.848386
0.939635 0.371069 0.836088
0.979614 0.491341 0.791409
0.497902 0.362341 0.799680
0.518303 0.363806 0.801541
0.582208 0.370001 0.807675
0.673457 0.384924 0.817227
0.775113 0.417762 0.830594
0.876493 0.476814 0.849210
0.936950 0.468391 0.843534
0.975647 0.552880 0.800137
0.472297 0.464790 0.790555
0.496529 0.468635 0.793210
0.562799 0.476112 0.799863
0.656703 0.492592 0.809873
0.760586 0.524926 0.825254
0.862394 0.578576 0.846525
0.930449 0.584497 0.851835
0.970001 0.632990 0.814572
0.419196 0.555718 0.762936
0.435523 0.555016 0.763638
0.499458 0.555657 0.773068
0.601892 0.565332 0.792203
0.728237 0.604395 0.814054
0.839872 0.657984 0.840208
0.920256 0.690211 0.858305
0.963775 0.714412 0.833310
0.441993 0.657374 0.782223
0.455970 0.657008 0.781979
0.500450 0.655726 0.781064
0.564813 0.652155 0.778744
0.649409 0.650446 0.780179
0.798642 0.709865 0.823941
0.912230 0.781552 0.868772
0.958007 0.790951 0.855772
0.476722 0.755550 0.806729
0.489906 0.755734 0.806851
0.531884 0.756283 0.807187
0.595483 0.757473 0.807706
0.671962 0.759823 0.807828
0.750027 0.762051 0.805905
0.866117 0.807614 0.843931
0.952575 0.858885 0.879454
0.518883 0.844846 0.834562
0.530724 0.845182 0.834928
0.569818 0.846616 0.836362
0.632105 0.849821 0.839200
0.707698 0.855802 0.843900
0.784939 0.865599 0.851133
0.860594 0.880827 0.862791
0.935302 0.905791 0.884581
