data/fiter_cube/12898295/1023045/file.cube
# Created by Adobe Lightroom plugin Export LUT (1.17.0)
# www.johnrellis.com/lightroom/exportlut.htm
# Preset: 经典婚礼摄影_07 云集
# Color profile: C:\Program Files (x86)\Common Files\Adobe\Color\Profiles\Recommended\AdobeRGB1998.icc
LUT_3D_SIZE 5
DOMAIN_MIN 0.000000 0.000000 0.000000
DOMAIN_MAX 0.903226 0.903226 0.903226
0.000000 0.000000 0.000000
0.234989 0.000000 0.000000
0.661463 0.000000 0.000000
0.932982 0.000000 0.000000
1.000000 0.237247 0.000000
0.078492 0.131258 0.047700
0.194278 0.147158 0.000000
0.619318 0.000000 0.000000
0.915770 0.177493 0.000000
1.000000 0.337072 0.000000
0.157870 0.425788 0.160311
0.275364 0.422126 0.151614
0.602625 0.510918 0.000000
0.889250 0.506798 0.000000
1.000000 0.517906 0.000000
0.344976 0.725795 0.407660
0.444282 0.724239 0.411261
0.544854 0.693812 0.317815
0.822568 0.756954 0.237980
1.000000 0.750088 0.000000
0.617670 0.897581 0.643702
0.663294 0.894072 0.652552
0.750515 0.876555 0.659144
0.790249 0.871031 0.605798
0.949157 0.922881 0.594659
0.072236 0.017914 0.069947
0.198611 0.000000 0.079835
0.610193 0.000000 0.074556
0.894163 0.000000 0.000000
1.000000 0.208835 0.000000
0.092256 0.112062 0.087160
0.205142 0.134432 0.099001
0.596551 0.000000 0.058473
0.884489 0.116152 0.000000
1.000000 0.306371 0.000000
0.166079 0.411078 0.206577
0.292943 0.412207 0.207797
0.556695 0.453803 0.121401
0.857328 0.455818 0.000000
1.000000 0.507561 0.000000
0.352636 0.720638 0.440558
0.453986 0.719539 0.445991
0.569909 0.695125 0.376684
0.816373 0.747677 0.318547
1.000000 0.742397 0.159274
0.607538 0.896147 0.653010
0.654719 0.892546 0.660822
0.768276 0.887419 0.692988
0.803311 0.877806 0.638911
0.950713 0.925475 0.629969
0.138064 0.064546 0.230411
0.283543 0.000000 0.269993
0.609766 0.000000 0.313176
0.890562 0.000000 0.376226
1.000000 0.386694 0.436378
0.163027 0.150637 0.226352
0.277409 0.159701 0.270359
0.609705 0.128908 0.338994
0.874968 0.250706 0.385840
1.000000 0.418799 0.425208
0.176059 0.355322 0.303471
0.287816 0.373480 0.317784
0.564599 0.430671 0.368353
0.846006 0.462654 0.368536
1.000000 0.527153 0.383612
0.335882 0.715267 0.537011
0.435462 0.707118 0.531579
0.636408 0.699763 0.534264
0.807950 0.732815 0.492561
0.992462 0.711940 0.352209
0.572534 0.887846 0.686275
0.624231 0.887877 0.693599
0.741939 0.885954 0.712306
0.810422 0.875212 0.684565
0.943297 0.915953 0.677821
0.250462 0.125704 0.517357
0.390234 0.001434 0.546288
0.695064 0.000000 0.622858
0.867155 0.152224 0.610254
0.995453 0.467720 0.635279
0.266667 0.200259 0.514214
0.381659 0.196536 0.536339
0.681666 0.222538 0.621576
0.855741 0.311742 0.613794
0.988128 0.510460 0.641077
0.240330 0.371954 0.477852
0.319402 0.376532 0.480385
0.598688 0.447150 0.574914
0.832273 0.544640 0.638361
0.975647 0.632929 0.673579
0.304723 0.627985 0.589807
0.388006 0.629206 0.590539
0.587945 0.649317 0.609216
0.788357 0.699184 0.650416
0.968475 0.726345 0.656306
0.526177 0.881346 0.759731
0.582940 0.882628 0.764553
0.717159 0.887388 0.778805
0.833890 0.887541 0.783536
0.938445 0.909850 0.761532
0.488899 0.351873 0.794186
0.558953 0.345403 0.801511
0.728511 0.327367 0.823575
0.897856 0.334691 0.847318
0.980865 0.471168 0.788968
0.497688 0.358404 0.798672
0.563836 0.353002 0.805692
0.725887 0.369879 0.824277
0.893828 0.448096 0.848936
0.976928 0.534661 0.797452
0.445411 0.510185 0.777066
0.510674 0.512261 0.786282
0.692988 0.549981 0.811337
0.876982 0.637110 0.850675
0.966888 0.673915 0.823362
0.449928 0.682704 0.788113
0.494514 0.682063 0.787564
0.608820 0.677974 0.784268
0.815702 0.734859 0.827787
0.956634 0.808713 0.861601
0.518883 0.844846 0.834562
0.557580 0.846098 0.835874
0.669215 0.852415 0.841276
0.804013 0.868803 0.853544
0.935302 0.905791 0.884581
