data/fiter_cube/12898295/1023045/file.cube
# Created by Adobe Lightroom plugin Export LUT (1.17.0)
# www.johnrellis.com/lightroom/exportlut.htm
# Preset: 经典婚礼摄影_07 云集
# Color profile: C:\Program Files (x86)\Common Files\Adobe\Color\Profiles\Recommended\AdobeRGB1998.icc
LUT_3D_SIZE 32
DOMAIN_MIN 0.0 0.0 0.0
DOMAIN_MAX 1.0 1.0 1.0
0.000000 0.000000 0.000000
0.021180 0.000000 0.000610
0.047547 0.000000 0.001190
0.077882 0.000000 0.001892
0.107424 0.000000 0.001495
0.143435 0.000000 0.000916
0.186130 0.000000 0.000000
0.234989 0.000000 0.000000
0.290318 0.000000 0.000000
0.351690 0.000000 0.000000
0.417365 0.000000 0.000000
0.483894 0.000000 0.000000
0.548150 0.000000 0.000000
0.607813 0.000000 0.000000
0.661463 0.000000 0.000000
0.708461 0.000000 0.000000
0.749416 0.000000 0.000000
0.792325 0.000000 0.000000
0.840085 0.000000 0.000000
0.877317 0.000000 0.000000
0.907622 0.000000 0.000000
0.932982 0.000000 0.000000
0.954162 0.000000 0.000000
0.972473 0.000000 0.000000
0.988739 0.000000 0.000000
1.000000 0.078004 0.000000
1.000000 0.145724 0.000000
1.000000 0.193912 0.000000
1.000000 0.237247 0.000000
1.000000 0.279881 0.000000
1.000000 0.324071 0.039734
1.000000 0.371527 0.152285
0.006683 0.004669 0.002686
0.018769 0.005066 0.001251
0.048951 0.002319 0.000671
0.078950 0.000000 0.000275
0.107546 0.000000 0.000000
0.142306 0.000000 0.000000
0.183963 0.000000 0.000000
0.231388 0.000000 0.000000
0.285191 0.000000 0.000000
0.345220 0.000000 0.000000
0.409583 0.000000 0.000000
0.475196 0.000000 0.000000
0.539025 0.000000 0.000000
0.598627 0.000000 0.000000
0.652461 0.000000 0.000000
0.700008 0.000000 0.000000
0.741604 0.000000 0.000000
0.785672 0.000000 0.000000
0.832059 0.000000 0.000000
0.869139 0.000000 0.000000
0.899748 0.000000 0.000000
0.925597 0.000000 0.000000
0.947356 0.000000 0.000000
0.966247 0.000000 0.000000
0.983093 0.000000 0.000000
0.998749 0.043793 0.000000
1.000000 0.132906 0.000000
1.000000 0.184268 0.000000
1.000000 0.228885 0.000000
1.000000 0.272221 0.000000
1.000000 0.316533 0.000000
1.000000 0.363592 0.136477
0.013001 0.011749 0.005188
0.024903 0.012116 0.004852
0.042420 0.011627 0.003357
0.078798 0.009491 0.000427
0.107820 0.002838 0.000000
0.141726 0.000000 0.000000
0.182071 0.000000 0.000000
0.228000 0.000000 0.000000
0.280888 0.000000 0.000000
0.339696 0.000000 0.000000
0.403388 0.000000 0.000000
0.468635 0.000000 0.000000
0.532250 0.000000 0.000000
0.592248 0.000000 0.000000
0.646326 0.000000 0.000000
0.694484 0.000000 0.000000
0.736477 0.000000 0.000000
0.781888 0.000000 0.000000
0.827298 0.000000 0.000000
0.864256 0.000000 0.000000
0.895262 0.000000 0.000000
0.921477 0.000000 0.000000
0.943603 0.000000 0.000000
0.962799 0.000000 0.000000
0.979919 0.000000 0.000000
0.995850 0.042390 0.000000
1.000000 0.132021 0.000000
1.000000 0.182956 0.000000
1.000000 0.226932 0.000000
1.000000 0.270115 0.000000
1.000000 0.313970 0.000000
1.000000 0.360388 0.126223
0.030243 0.029786 0.010834
0.045655 0.031922 0.011353
0.052399 0.030579 0.009064
0.074464 0.033906 0.005280
0.106813 0.032898 0.000000
0.142550 0.012940 0.000000
0.181521 0.000000 0.000000
0.226200 0.000000 0.000000
0.277317 0.000000 0.000000
0.334844 0.000000 0.000000
0.396948 0.000000 0.000000
0.461219 0.000000 0.000000
0.524071 0.000000 0.000000
0.583764 0.000000 0.000000
0.638331 0.000000 0.000000
0.687068 0.000000 0.000000
0.729641 0.000000 0.000000
0.777371 0.000000 0.000000
0.820676 0.000000 0.000000
0.856657 0.000000 0.000000
0.887358 0.000000 0.000000
0.913878 0.000000 0.000000
0.936980 0.000000 0.000000
0.957549 0.000000 0.000000
0.976165 0.000000 0.000000
0.993439 0.083284 0.000000
1.000000 0.146944 0.000000
1.000000 0.193912 0.000000
1.000000 0.235477 0.000000
1.000000 0.275914 0.000000
1.000000 0.317266 0.000000
1.000000 0.361181 0.113619
0.048432 0.058747 0.017395
0.059449 0.059113 0.017975
0.066590 0.059785 0.017365
0.072969 0.057740 0.013977
0.097047 0.062287 0.007599
0.137209 0.060792 0.000000
0.177768 0.035523 0.000000
0.220920 0.000000 0.000000
0.270054 0.000000 0.000000
0.325383 0.000000 0.000000
0.385626 0.000000 0.000000
0.448737 0.000000 0.000000
0.511559 0.000000 0.000000
0.571649 0.000000 0.000000
0.627588 0.000000 0.000000
0.678157 0.000000 0.000000
0.722652 0.000000 0.000000
0.774289 0.000000 0.000000
0.816556 0.000000 0.000000
0.852140 0.000000 0.000000
0.882506 0.000000 0.000000
0.909026 0.000000 0.000000
0.932372 0.000000 0.000000
0.953399 0.000000 0.000000
0.972595 0.005219 0.000000
0.990417 0.118563 0.000000
1.000000 0.166873 0.000000
1.000000 0.207004 0.000000
1.000000 0.244541 0.000000
1.000000 0.282078 0.000000
1.000000 0.321141 0.000000
1.000000 0.363195 0.093935
0.062257 0.076631 0.024628
0.067567 0.077333 0.025147
0.074159 0.078157 0.025513
0.078950 0.078126 0.020783
0.090822 0.077058 0.017762
0.122316 0.084596 0.006287
0.173495 0.084627 0.000000
0.217899 0.070344 0.000000
0.266117 0.020813 0.000000
0.319951 0.000000 0.000000
0.378759 0.000000 0.000000
0.440742 0.000000 0.000000
0.502800 0.000000 0.000000
0.563165 0.000000 0.000000
0.619715 0.000000 0.000000
0.671290 0.000000 0.000000
0.722683 0.000000 0.000000
0.772641 0.000000 0.000000
0.813931 0.000000 0.000000
0.849516 0.000000 0.000000
0.880339 0.000000 0.000000
0.907530 0.000000 0.000000
0.969696 0.154330 0.000000
0.987274 0.186252 0.000000
1.000000 0.213230 0.000000
1.000000 0.237980 0.000000
1.000000 0.262272 0.000000
1.000000 0.287327 0.000000
1.000000 0.314092 0.000000
1.000000 0.343969 0.000000
1.000000 0.376623 0.053559
1.000000 0.413092 0.157259
0.071962 0.104982 0.036378
0.076143 0.105531 0.035828
0.082185 0.106538 0.035981
0.093629 0.108186 0.036347
0.097108 0.105592 0.025086
0.115572 0.107240 0.018891
0.160403 0.118044 0.000000
0.226444 0.121096 0.000000
0.278233 0.106661 0.000000
0.334112 0.080903 0.000000
0.393622 0.005280 0.000000
0.456672 0.000000 0.000000
0.518303 0.000000 0.000000
0.577356 0.000000 0.000000
0.631434 0.000000 0.000000
0.680598 0.000000 0.000000
0.739223 0.000000 0.000000
0.786252 0.000000 0.000000
0.826413 0.000000 0.000000
0.862089 0.000000 0.000000
0.894469 0.019806 0.000000
0.923949 0.120821 0.000000
0.950378 0.167117 0.000000
0.973541 0.201694 0.000000
0.993622 0.230686 0.000000
1.000000 0.254978 0.000000
1.000000 0.277470 0.000000
1.000000 0.299870 0.000000
1.000000 0.323796 0.000000
1.000000 0.350164 0.000000
1.000000 0.379950 0.000000
1.000000 0.413672 0.124697
0.078492 0.131258 0.047700
0.082551 0.131838 0.048005
0.087770 0.132448 0.048219
0.099306 0.134005 0.048310
0.106294 0.133028 0.037629
0.116335 0.128267 0.031128
0.141939 0.134829 0.017273
0.194278 0.147158 0.000000
0.271397 0.154696 0.000000
0.327703 0.142428 0.000000
0.386358 0.123018 0.000000
0.444923 0.092805 0.000000
0.505699 0.043915 0.000000
0.564660 0.000000 0.000000
0.619318 0.000000 0.000000
0.681392 0.000000 0.000000
0.734279 0.000000 0.000000
0.778592 0.000000 0.000000
0.817716 0.029816 0.000000
0.853330 0.100801 0.000000
0.885924 0.141817 0.000000
0.915770 0.177493 0.000000
0.942626 0.208835 0.000000
0.966308 0.236301 0.000000
0.986999 0.259495 0.000000
1.000000 0.278965 0.000000
1.000000 0.297246 0.000000
1.000000 0.316167 0.000000
1.000000 0.337072 0.000000
1.000000 0.360235 0.000000
1.000000 0.387152 0.000000
1.000000 0.418006 0.080293
0.085756 0.160830 0.060060
0.089509 0.161135 0.059815
0.095155 0.161837 0.059846
0.106874 0.162966 0.059846
0.122988 0.164157 0.059083
0.122805 0.160128 0.040345
0.139254 0.153048 0.037781
0.173098 0.166049 0.014130
0.233860 0.181003 0.000000
0.323552 0.194186 0.000000
0.383246 0.184360 0.000000
0.442634 0.168795 0.000000
0.499550 0.148684 0.000000
0.554894 0.126467 0.000000
0.622065 0.121004 0.000000
0.680415 0.123018 0.000000
0.729824 0.130465 0.000000
0.772580 0.142611 0.000000
0.810971 0.159640 0.000000
0.846586 0.180789 0.000000
0.879393 0.204227 0.000000
0.909453 0.228244 0.000000
0.936553 0.251377 0.000000
0.960571 0.272923 0.000000
0.981659 0.291997 0.000000
0.999908 0.308202 0.000000
1.000000 0.322881 0.000000
1.000000 0.337987 0.000000
1.000000 0.355200 0.000000
1.000000 0.375128 0.000000
1.000000 0.398505 0.000000
1.000000 0.425849 0.000000
0.094484 0.193423 0.069276
0.098421 0.193729 0.069001
0.103609 0.194064 0.069093
0.115114 0.194888 0.068696
0.132296 0.195956 0.068635
0.140414 0.193606 0.061036
0.147097 0.187411 0.048829
0.166201 0.182589 0.041779
0.208927 0.200168 0.007568
0.277134 0.217746 0.000000
0.378088 0.237064 0.000000
0.438270 0.228824 0.000000
0.501183 0.219730 0.000000
0.565545 0.212009 0.000000
0.623133 0.203555 0.000000
0.678035 0.204196 0.000000
0.727047 0.210208 0.000000
0.769619 0.218814 0.000000
0.807950 0.229984 0.000000
0.842954 0.243931 0.000000
0.874815 0.259373 0.000000
0.903655 0.275517 0.000000
0.929747 0.291478 0.000000
0.953124 0.306950 0.000000
0.974090 0.321324 0.000000
0.992859 0.334569 0.000000
1.000000 0.347509 0.000000
1.000000 0.360540 0.000000
1.000000 0.375525 0.000000
1.000000 0.393194 0.000000
1.000000 0.414130 0.000000
1.000000 0.439277 0.000000
0.103487 0.226474 0.079011
0.107240 0.226841 0.079103
0.112642 0.227237 0.079103
0.124025 0.228153 0.078676
0.140902 0.229068 0.078553
0.160403 0.229953 0.077150
0.158511 0.224765 0.061677
0.173556 0.216922 0.056092
0.198795 0.218509 0.042847
0.249882 0.238743 0.000000
0.327153 0.260075 0.000000
0.443610 0.291630 0.000000
0.513634 0.291630 0.000000
0.573785 0.286351 0.000000
0.627863 0.280003 0.000000
0.675532 0.273686 0.000000
0.718654 0.269169 0.000000
0.760983 0.274998 0.000000
0.799252 0.283146 0.000000
0.834775 0.293523 0.000000
0.867155 0.305547 0.000000
0.896696 0.318303 0.000000
0.923461 0.331243 0.000000
0.947448 0.343664 0.000000
0.968872 0.355322 0.000000
0.988006 0.365850 0.000000
1.000000 0.376074 0.000000
1.000000 0.386816 0.000000
1.000000 0.398688 0.000000
1.000000 0.412970 0.000000
1.000000 0.430640 0.000000
1.000000 0.452338 0.000000
0.113619 0.263920 0.091096
0.117403 0.264347 0.091127
0.122774 0.264683 0.091096
0.134005 0.265385 0.090730
0.150576 0.266453 0.090486
0.171878 0.267613 0.090120
0.180545 0.264958 0.080446
0.183139 0.258396 0.064912
0.203281 0.249210 0.062165
0.240635 0.263523 0.040681
0.307378 0.292515 0.000000
0.398871 0.321386 0.000000
0.576654 0.410010 0.000000
0.645228 0.415442 0.000000
0.693172 0.409339 0.000000
0.734096 0.400977 0.000000
0.769772 0.391913 0.000000
0.801633 0.383246 0.000000
0.833097 0.381292 0.000000
0.863706 0.385199 0.000000
0.891569 0.389929 0.000000
0.916930 0.395392 0.000000
0.939788 0.401038 0.000000
0.960754 0.406989 0.000000
0.979828 0.413001 0.000000
0.997253 0.418982 0.000000
1.000000 0.425177 0.000000
1.000000 0.432074 0.000000
1.000000 0.440040 0.000000
1.000000 0.450172 0.000000
1.000000 0.463783 0.000000
1.000000 0.481544 0.000000
0.127810 0.318944 0.111116
0.131685 0.319066 0.110964
0.137179 0.318608 0.110475
0.148714 0.318029 0.109804
0.165286 0.317510 0.108614
0.186587 0.316777 0.107424
0.210605 0.318151 0.105653
0.210483 0.316350 0.086366
0.226139 0.312352 0.075746
0.252811 0.306828 0.072938
0.307744 0.334783 0.041352
0.391699 0.371344 0.000000
0.496834 0.409216 0.000000
0.617151 0.454597 0.000000
0.685695 0.465522 0.000000
0.728145 0.459174 0.000000
0.764157 0.449897 0.000000
0.795590 0.439918 0.000000
0.824399 0.430854 0.000000
0.851316 0.423041 0.000000
0.880125 0.426093 0.000000
0.906462 0.429664 0.000000
0.930083 0.433509 0.000000
0.951751 0.437751 0.000000
0.971496 0.441962 0.000000
0.989532 0.446265 0.000000
1.000000 0.450843 0.000000
1.000000 0.456306 0.000000
1.000000 0.462959 0.000000
1.000000 0.471290 0.000000
1.000000 0.482002 0.000000
1.000000 0.497017 0.000000
0.140566 0.366979 0.131441
0.145113 0.367681 0.131289
0.150607 0.367803 0.131258
0.162783 0.368658 0.130983
0.180728 0.369604 0.130770
0.203586 0.370794 0.130159
0.231693 0.372564 0.129915
0.242527 0.370336 0.116732
0.240848 0.365881 0.091371
0.267796 0.358495 0.087404
0.298039 0.354589 0.082277
0.364721 0.390173 0.044099
0.452583 0.426825 0.000000
0.553460 0.462684 0.000000
0.660578 0.503838 0.000000
0.722896 0.512993 0.000000
0.758206 0.503227 0.000000
0.789395 0.492531 0.000000
0.818143 0.482460 0.000000
0.845060 0.473610 0.000000
0.870726 0.466438 0.000000
0.896208 0.464088 0.000000
0.920928 0.466621 0.000000
0.943603 0.469612 0.000000
0.964141 0.472633 0.000000
0.982940 0.475593 0.000000
1.000000 0.478920 0.000000
1.000000 0.483131 0.000000
1.000000 0.488563 0.000000
1.000000 0.495613 0.000000
1.000000 0.504295 0.000000
1.000000 0.516289 0.000000
0.157870 0.425788 0.160311
0.162570 0.426429 0.160586
0.168276 0.425910 0.160006
0.180331 0.425238 0.159152
0.198337 0.424231 0.157717
0.220920 0.423133 0.156191
0.248081 0.422736 0.155001
0.275364 0.422126 0.151614
0.272618 0.416419 0.125765
0.281590 0.410132 0.105623
0.310277 0.402014 0.101503
0.349035 0.407813 0.091920
0.421485 0.443488 0.057160
0.509270 0.478340 0.000000
0.602625 0.510918 0.000000
0.693965 0.543572 0.000000
0.754513 0.554864 0.000000
0.785245 0.543694 0.000000
0.813504 0.532677 0.000000
0.840024 0.522576 0.000000
0.865232 0.514000 0.000000
0.889250 0.506798 0.000000
0.911772 0.500328 0.000000
0.934905 0.500816 0.000000
0.956481 0.502831 0.000000
0.976349 0.505333 0.000000
0.995087 0.508415 0.000000
1.000000 0.512535 0.000000
1.000000 0.517906 0.000000
1.000000 0.524895 0.000000
1.000000 0.533440 0.000000
1.000000 0.543542 0.000000
0.176272 0.478798 0.191623
0.181155 0.479530 0.191897
0.186862 0.479408 0.191562
0.199252 0.479133 0.190951
0.217624 0.478309 0.189731
0.241032 0.477821 0.188510
0.268650 0.477699 0.187503
0.300633 0.477882 0.186862
0.311925 0.474372 0.169863
0.308843 0.468330 0.139010
0.329564 0.459113 0.126101
0.357000 0.448066 0.119997
0.402747 0.460853 0.105959
0.475349 0.492348 0.072206
0.557153 0.521813 0.000000
0.639460 0.548760 0.000000
0.718654 0.574701 0.000000
0.780697 0.590906 0.000000
0.809628 0.580529 0.000000
0.836790 0.570977 0.000000
0.862516 0.562432 0.000000
0.886809 0.554711 0.000000
0.909514 0.547570 0.000000
0.931060 0.541344 0.000000
0.951965 0.537407 0.000000
0.972717 0.539117 0.000000
0.992157 0.541314 0.000000
1.000000 0.544457 0.000000
1.000000 0.548638 0.000000
1.000000 0.554070 0.000000
1.000000 0.560754 0.000000
1.000000 0.569116 0.000000
0.194827 0.523827 0.222324
0.199130 0.523796 0.222049
0.204685 0.523308 0.221561
0.216709 0.522667 0.220676
0.234562 0.521904 0.219516
0.257145 0.521019 0.218082
0.284367 0.520409 0.217014
0.315282 0.520043 0.216007
0.344091 0.518944 0.211795
0.340887 0.512840 0.181765
0.341924 0.506340 0.151308
0.370245 0.495705 0.144717
0.396826 0.483864 0.137728
0.451392 0.505730 0.120882
0.522881 0.534295 0.090730
0.597955 0.559808 0.000000
0.672206 0.583642 0.000000
0.744076 0.606744 0.000000
0.805539 0.625238 0.000000
0.832273 0.615045 0.000000
0.857603 0.605768 0.000000
0.881651 0.597192 0.000000
0.904234 0.589258 0.000000
0.925841 0.582361 0.000000
0.946532 0.576043 0.000000
0.966461 0.570794 0.000000
0.986481 0.570550 0.000000
1.000000 0.573144 0.000000
1.000000 0.576745 0.000000
1.000000 0.581445 0.000000
1.000000 0.587488 0.000000
1.000000 0.595026 0.000000
0.217075 0.568048 0.256443
0.222110 0.569055 0.257053
0.255741 0.609644 0.292668
0.267948 0.608728 0.291630
0.285954 0.606958 0.289921
0.308385 0.604639 0.287510
0.334905 0.601953 0.284977
0.364813 0.599145 0.282322
0.397864 0.596460 0.280552
0.407263 0.591241 0.259373
0.402197 0.584100 0.223087
0.413367 0.574212 0.198398
0.438849 0.560601 0.188022
0.463294 0.547265 0.176791
0.523430 0.572686 0.160372
0.588952 0.595972 0.136568
0.655756 0.617639 0.099611
0.721584 0.638148 0.000000
0.785428 0.657679 0.000000
0.841947 0.673579 0.000000
0.864805 0.661646 0.000000
0.887022 0.650843 0.000000
0.908324 0.640833 0.000000
0.928496 0.631525 0.000000
0.947448 0.622614 0.000000
0.965789 0.614649 0.000000
0.983795 0.607782 0.000000
1.000000 0.602991 0.000000
1.000000 0.605035 0.000000
1.000000 0.608606 0.000000
1.000000 0.613672 0.000000
1.000000 0.620050 0.000000
0.249699 0.618128 0.300145
0.257511 0.623133 0.304662
0.267338 0.628046 0.309361
0.282292 0.631891 0.312963
0.302251 0.634028 0.315038
0.324865 0.633783 0.314916
0.350500 0.632136 0.313390
0.379156 0.629633 0.311406
0.410498 0.627283 0.310002
0.438087 0.624170 0.304692
0.433051 0.617792 0.271550
0.427619 0.610803 0.233249
0.449195 0.598840 0.219394
0.472114 0.584924 0.207431
0.501884 0.580468 0.194797
0.559472 0.602930 0.178897
0.620294 0.624048 0.157321
0.682185 0.644068 0.126558
0.743679 0.663447 0.075654
0.803494 0.681910 0.000000
0.859220 0.699214 0.000000
0.881743 0.688930 0.000000
0.903288 0.679103 0.000000
0.923674 0.669825 0.000000
0.942992 0.660822 0.000000
0.961639 0.652583 0.000000
0.979858 0.645411 0.000000
0.998077 0.639796 0.000000
1.000000 0.635889 0.000000
1.000000 0.636072 0.000000
1.000000 0.640253 0.000000
1.000000 0.645838 0.000000
0.273259 0.649866 0.329808
0.281041 0.654261 0.334142
0.290196 0.658564 0.338445
0.304479 0.661952 0.342016
0.323033 0.663844 0.344121
0.344549 0.663600 0.344213
0.368750 0.662043 0.343175
0.395819 0.659815 0.341650
0.425422 0.657710 0.340673
0.457191 0.655268 0.339818
0.465461 0.650813 0.320104
0.460243 0.644678 0.285649
0.462348 0.636255 0.253819
0.484810 0.623835 0.242313
0.505150 0.609735 0.229007
0.540581 0.613428 0.216281
0.594934 0.633875 0.201328
0.651759 0.653437 0.182406
0.709651 0.672297 0.157076
0.766964 0.690425 0.123445
0.822660 0.707668 0.066560
0.875303 0.724392 0.000000
0.899138 0.716640 0.000000
0.919615 0.707301 0.000000
0.938933 0.698054 0.000000
0.957458 0.689387 0.000000
0.975616 0.681514 0.000000
0.993744 0.675227 0.000000
1.000000 0.670710 0.000000
1.000000 0.667781 0.000000
1.000000 0.666316 0.000000
1.000000 0.670832 0.000000
0.298650 0.680751 0.360082
0.306371 0.684749 0.364324
0.315312 0.688685 0.368536
0.328801 0.691768 0.371954
0.346410 0.693324 0.373999
0.366491 0.693080 0.374395
0.389197 0.691524 0.373449
0.414527 0.689357 0.372229
0.442451 0.687129 0.371435
0.472053 0.684657 0.370794
0.497169 0.681636 0.366369
0.492012 0.676020 0.335363
0.486122 0.669551 0.299413
0.498024 0.659785 0.278080
0.518425 0.647608 0.265660
0.537346 0.634607 0.252506
0.579644 0.647547 0.242741
0.632929 0.668666 0.231876
0.687953 0.688960 0.219242
0.743313 0.708400 0.204410
0.797665 0.726802 0.186038
0.850340 0.744137 0.161898
0.899290 0.759792 0.152285
0.923705 0.754025 0.112490
0.943297 0.745388 0.000000
0.961913 0.736751 0.000000
0.980011 0.728878 0.000000
0.998016 0.722225 0.000000
1.000000 0.717006 0.000000
1.000000 0.713283 0.000000
1.000000 0.710933 0.000000
1.000000 0.710262 0.000000
0.344976 0.725795 0.407660
0.350317 0.727321 0.409522
0.356329 0.728450 0.410986
0.366918 0.729000 0.412085
0.381323 0.728725 0.412512
0.399298 0.727535 0.412024
0.420325 0.725948 0.411536
0.444282 0.724239 0.411261
0.471138 0.722560 0.411627
0.499977 0.720882 0.412634
0.529625 0.719081 0.414252
0.536675 0.715511 0.396796
0.531304 0.710414 0.365423
0.526329 0.704311 0.330144
0.544854 0.693812 0.317815
0.562646 0.682429 0.304479
0.579675 0.670283 0.290623
0.625605 0.689479 0.283574
0.674250 0.707851 0.275273
0.724147 0.725277 0.265049
0.773739 0.741604 0.252903
0.822568 0.756954 0.237980
0.869871 0.771054 0.219272
0.914427 0.783993 0.210849
0.938323 0.778653 0.185702
0.956878 0.770108 0.142123
0.975067 0.762295 0.085817
0.993133 0.755520 0.000000
1.000000 0.750088 0.000000
1.000000 0.746090 0.000000
1.000000 0.743679 0.000000
1.000000 0.742763 0.000000
0.375860 0.752346 0.437201
0.381048 0.753811 0.439216
0.386938 0.754971 0.440955
0.397040 0.755459 0.442084
0.410468 0.755154 0.442725
0.426703 0.753902 0.442420
0.445686 0.752102 0.441962
0.467536 0.750118 0.441688
0.492164 0.748226 0.442084
0.518639 0.746304 0.443244
0.546410 0.744411 0.445289
0.568505 0.741909 0.442847
0.563806 0.737819 0.415869
0.558495 0.733089 0.384375
0.562341 0.726375 0.359167
0.579126 0.717067 0.347143
0.595850 0.707424 0.334874
0.618280 0.703944 0.324285
0.662043 0.721950 0.319829
0.707637 0.739040 0.314397
0.753811 0.755245 0.308049
0.799863 0.770504 0.300053
0.844938 0.784726 0.290074
0.888853 0.797787 0.276707
0.925689 0.802945 0.251957
0.949706 0.798825 0.236362
0.967926 0.791287 0.203250
0.986023 0.784604 0.169955
1.000000 0.779141 0.135927
1.000000 0.775113 0.102235
1.000000 0.773098 0.070130
1.000000 0.772457 0.027771
0.425757 0.787411 0.480415
0.431281 0.788846 0.482673
0.436378 0.789578 0.484047
0.444648 0.789364 0.484627
0.455756 0.788388 0.484565
0.469459 0.786557 0.483894
0.485634 0.784268 0.483040
0.504112 0.781491 0.482124
0.524926 0.778592 0.481727
0.547692 0.775692 0.482002
0.571160 0.772580 0.482612
0.595087 0.769558 0.483803
0.598993 0.765652 0.467170
0.592950 0.760800 0.438636
0.585931 0.755154 0.405463
0.595239 0.746517 0.387793
0.608820 0.736934 0.374060
0.623194 0.727443 0.360876
0.649683 0.730495 0.352880
0.691157 0.747341 0.350286
0.734066 0.763516 0.347570
0.777157 0.778683 0.343603
0.819486 0.792355 0.336736
0.860685 0.804501 0.326909
0.900542 0.815122 0.312932
0.939239 0.825284 0.303716
0.962890 0.822019 0.294896
0.980438 0.815000 0.267247
0.998199 0.809140 0.242649
1.000000 0.805081 0.223941
1.000000 0.802853 0.211826
1.000000 0.802304 0.207767
0.456611 0.808164 0.506920
0.461707 0.809476 0.509270
0.466682 0.810178 0.510613
0.474037 0.809995 0.511376
0.484291 0.809079 0.511620
0.496925 0.807553 0.511498
0.512139 0.805661 0.511467
0.529656 0.803464 0.511620
0.549493 0.801175 0.512291
0.570947 0.799008 0.513878
0.593164 0.796719 0.515709
0.616083 0.794583 0.518303
0.633387 0.791958 0.516197
0.629114 0.788510 0.492958
0.623743 0.784421 0.465553
0.621393 0.779355 0.438453
0.633845 0.771786 0.426917
0.646998 0.764279 0.415412
0.661280 0.757107 0.404852
0.691188 0.766110 0.401648
0.728908 0.781186 0.400824
0.767422 0.795315 0.399329
0.805783 0.808286 0.395911
0.843626 0.819944 0.389837
0.880797 0.830350 0.381170
0.917205 0.839506 0.368963
0.953429 0.848936 0.360693
0.976593 0.846799 0.359564
0.994232 0.841611 0.340246
1.000000 0.837888 0.326299
1.000000 0.835752 0.318425
1.000000 0.835386 0.317937
0.494606 0.831235 0.538933
0.498787 0.831998 0.540429
0.502464 0.832212 0.541314
0.508415 0.831601 0.541527
0.516747 0.830381 0.541405
0.527611 0.828641 0.541100
0.540734 0.826658 0.540978
0.556268 0.824460 0.541161
0.574151 0.822354 0.542199
0.593683 0.820493 0.544121
0.614374 0.818570 0.546654
0.635859 0.816892 0.550072
0.657282 0.815000 0.553674
0.660945 0.812467 0.540551
0.656641 0.809293 0.517693
0.651728 0.805661 0.491371
0.655665 0.800351 0.473030
0.667323 0.794003 0.462776
0.680110 0.788113 0.453376
0.693904 0.782712 0.444862
0.725826 0.795712 0.444862
0.760006 0.809079 0.444953
0.794522 0.821408 0.443488
0.829068 0.832639 0.440192
0.863249 0.842710 0.434577
0.897032 0.851682 0.426459
0.930694 0.859861 0.415808
0.965057 0.868986 0.407630
0.987762 0.868009 0.413611
1.000000 0.864591 0.401251
1.000000 0.862608 0.394293
1.000000 0.862211 0.394385
0.527245 0.850370 0.566644
0.530419 0.850828 0.567803
0.533684 0.850919 0.568566
0.539361 0.850553 0.569146
0.547845 0.849821 0.569879
0.559167 0.849119 0.571313
0.573754 0.848753 0.573968
0.591028 0.848508 0.577539
0.610773 0.848631 0.582513
0.631922 0.848905 0.588525
0.654047 0.849241 0.595361
0.676326 0.849485 0.602716
0.698085 0.849363 0.610040
0.713954 0.848692 0.612299
0.712276 0.847440 0.596155
0.709102 0.845365 0.576257
0.705592 0.842924 0.553643
0.714412 0.838651 0.545006
0.724910 0.834531 0.537621
0.736385 0.830716 0.530846
0.751217 0.829984 0.526085
0.778531 0.841489 0.527062
0.806607 0.852110 0.526696
0.835142 0.861814 0.524804
0.864012 0.870573 0.521416
0.893217 0.878721 0.516381
0.922637 0.886168 0.509697
0.952361 0.892943 0.501091
0.983673 0.901274 0.494331
1.000000 0.900267 0.504814
1.000000 0.898528 0.499275
1.000000 0.898192 0.499855
0.585199 0.879881 0.614740
0.587518 0.880064 0.615503
0.589654 0.879911 0.615839
0.593866 0.879271 0.616022
0.600336 0.878294 0.616327
0.609064 0.877195 0.617121
0.620264 0.876127 0.618677
0.633814 0.875120 0.621118
0.649348 0.874266 0.624475
0.666590 0.873472 0.628901
0.684535 0.872679 0.633814
0.703120 0.871916 0.639429
0.721218 0.871061 0.645014
0.738491 0.869932 0.650294
