data/fiter_cube/49007420/1023419/file.cube
# Created by Adobe Lightroom plugin Export LUT (1.17.0)
# www.johnrellis.com/lightroom/exportlut.htm
# Preset: 03 - 日系情绪-春 [云集]
# Color profile: C:\Program Files (x86)\Common Files\Adobe\Color\Profiles\Recommended\AdobeRGB1998.icc
LUT_3D_SIZE 8
DOMAIN_MIN 0.000000 0.000000 0.000000
DOMAIN_MAX 0.903226 0.903226 0.903226
0.113985 0.161349 0.182712
0.128664 0.163699 0.184543
0.210086 0.168276 0.187381
0.402747 0.163699 0.190249
0.627466 0.162264 0.194919
0.800076 0.240757 0.220951
0.904234 0.355444 0.290349
0.970245 0.487831 0.416693
0.115694 0.171420 0.187533
0.130282 0.174777 0.186496
0.214023 0.182712 0.185122
0.396399 0.188174 0.186526
0.617487 0.195682 0.189120
0.786954 0.258183 0.210849
0.895354 0.358618 0.274907
0.966766 0.486061 0.401953
0.114839 0.232334 0.211887
0.129580 0.241245 0.209354
0.239536 0.264317 0.201938
0.435401 0.274418 0.184146
0.639185 0.297154 0.175296
0.794644 0.346838 0.190005
0.905303 0.426703 0.264683
0.972076 0.528557 0.400031
0.109590 0.388495 0.280522
0.147250 0.396826 0.280674
0.198215 0.428016 0.247349
0.528710 0.502068 0.264256
0.722591 0.498939 0.232334
0.808072 0.473091 0.182254
0.905577 0.512993 0.232395
0.971710 0.577142 0.367346
0.173617 0.596796 0.404486
0.221317 0.601923 0.406561
0.317906 0.622370 0.397314
0.434577 0.656306 0.365789
0.721340 0.691432 0.407019
0.841428 0.667903 0.386755
0.904692 0.633783 0.302129
0.969909 0.644892 0.319646
0.344762 0.744594 0.534997
0.388708 0.752468 0.545617
0.487221 0.757870 0.560296
0.522210 0.775357 0.524071
0.655329 0.790646 0.532372
0.830198 0.812192 0.581170
0.914611 0.801724 0.597253
0.965484 0.778042 0.530724
0.533196 0.847623 0.664271
0.554467 0.848875 0.669490
0.609949 0.849119 0.680415
0.658534 0.855192 0.680842
0.683619 0.865476 0.655085
0.790219 0.875181 0.681941
0.897490 0.887816 0.721553
0.955566 0.882658 0.747707
0.677668 0.914611 0.770138
0.688258 0.914458 0.772763
0.723354 0.914794 0.783200
0.775509 0.917418 0.802304
0.776364 0.920439 0.779660
0.807553 0.928069 0.779477
0.882261 0.935821 0.805509
0.946990 0.942657 0.829770
0.114199 0.162936 0.190311
0.126436 0.163882 0.190066
0.200046 0.171481 0.197665
0.382727 0.174441 0.204074
0.608057 0.177249 0.206821
0.778622 0.241917 0.219211
0.890501 0.343297 0.273045
0.963714 0.471687 0.397192
0.114931 0.172641 0.193637
0.130404 0.175082 0.195529
0.207340 0.184237 0.199649
0.386175 0.192538 0.203403
0.606134 0.203433 0.205478
0.773159 0.261814 0.216953
0.884001 0.350469 0.261814
0.959899 0.470069 0.382513
0.119692 0.225498 0.218936
0.142702 0.234928 0.223697
0.232456 0.257603 0.220157
0.411872 0.264317 0.201480
0.620935 0.289189 0.202152
0.776608 0.338109 0.215335
0.888518 0.410254 0.251987
0.964080 0.509789 0.376654
0.123171 0.371893 0.287602
0.159457 0.381476 0.291112
0.216892 0.415564 0.269902
0.492439 0.469062 0.282414
0.680568 0.463752 0.246616
0.780636 0.449561 0.208988
0.886412 0.494759 0.250553
0.963653 0.560815 0.345312
0.188754 0.585107 0.413519
0.230228 0.588861 0.414740
0.340520 0.605615 0.416510
0.419684 0.634546 0.374121
0.700801 0.669459 0.411139
0.825345 0.651514 0.391119
0.893370 0.620935 0.309697
0.962921 0.638727 0.335515
0.341283 0.732845 0.535241
0.373785 0.735103 0.539025
0.470497 0.741726 0.552667
0.523583 0.760952 0.529717
0.647395 0.780850 0.535973
0.825132 0.806943 0.588922
0.909667 0.797574 0.601373
0.961151 0.772824 0.531273
0.518700 0.838407 0.657557
0.535546 0.837736 0.659419
0.594568 0.839353 0.671565
0.655818 0.847105 0.680293
0.681209 0.860105 0.655726
0.785245 0.870237 0.681147
0.892790 0.882780 0.718593
0.951812 0.877775 0.742519
0.668757 0.911009 0.766354
0.680751 0.911315 0.769833
0.717128 0.911986 0.780545
0.771054 0.914885 0.800168
0.785550 0.922148 0.790066
0.811368 0.928527 0.785397
0.881468 0.934874 0.807095
0.945678 0.941283 0.829648
0.105928 0.166629 0.238773
0.136934 0.167239 0.234195
0.206577 0.171328 0.234836
0.401709 0.166567 0.259617
0.607965 0.203494 0.291661
0.777340 0.288762 0.327642
0.888487 0.390082 0.370184
0.964508 0.494881 0.434150
0.107057 0.195407 0.253300
0.134554 0.186099 0.248386
0.211154 0.189303 0.241642
0.394903 0.194553 0.263462
0.607599 0.228244 0.292699
0.772152 0.301671 0.322820
0.884001 0.395605 0.363104
0.962341 0.498390 0.428473
0.113375 0.245365 0.263218
0.142672 0.247257 0.264256
0.224338 0.249424 0.264927
0.406378 0.269657 0.276768
0.625940 0.305455 0.296361
0.776059 0.364202 0.321599
0.883726 0.441077 0.362127
0.961028 0.529198 0.427893
0.132815 0.358221 0.318761
0.169192 0.368383 0.325505
0.283482 0.401770 0.346899
0.480995 0.455756 0.356298
0.657221 0.445441 0.311986
0.781064 0.463325 0.317327
0.884581 0.516869 0.361669
0.960021 0.583795 0.430243
0.196139 0.567041 0.443000
0.243961 0.573297 0.448676
0.369940 0.591485 0.464759
0.462318 0.624964 0.445136
0.696040 0.664576 0.486122
0.811551 0.646601 0.453132
0.882811 0.613550 0.366125
0.957397 0.652430 0.428779
0.349645 0.722560 0.558770
0.385565 0.724849 0.563714
0.479957 0.730678 0.577569
0.569787 0.744961 0.583673
0.645106 0.767971 0.572168
0.816220 0.798459 0.623224
0.900237 0.793484 0.628382
0.955810 0.772335 0.563226
0.526390 0.834897 0.675166
0.544579 0.834653 0.677790
0.598657 0.835294 0.687007
0.675349 0.839841 0.705592
0.695827 0.853696 0.681331
0.785702 0.866575 0.703273
0.892424 0.883330 0.744137
0.950896 0.881773 0.764370
0.665339 0.908904 0.772976
0.674250 0.908568 0.774411
0.709865 0.908782 0.783444
0.766873 0.912810 0.803738
0.796017 0.918975 0.804685
0.817594 0.927092 0.797757
0.882811 0.934661 0.818387
0.946410 0.942351 0.841642
0.000000 0.176822 0.385321
0.132143 0.177340 0.379156
0.270909 0.178225 0.348943
0.407843 0.173434 0.353643
0.642603 0.192538 0.400977
0.774807 0.304173 0.434668
0.865629 0.460548 0.511070
0.945037 0.554284 0.560845
0.000000 0.221256 0.410101
0.117586 0.208377 0.401099
0.279210 0.204837 0.367041
0.413428 0.203006 0.362097
0.640772 0.234226 0.407782
0.769039 0.329747 0.439185
0.863737 0.465461 0.507408
0.944579 0.556451 0.556695
0.000000 0.342107 0.439673
0.117678 0.341680 0.439765
0.269261 0.293828 0.410803
0.422400 0.290684 0.385534
0.632746 0.338781 0.428626
0.761471 0.433051 0.478889
0.871702 0.512902 0.521080
0.947936 0.586755 0.563012
0.097444 0.425544 0.439094
0.162387 0.426581 0.439277
0.295903 0.425910 0.437324
0.435523 0.412909 0.424323
0.625360 0.447120 0.444404
0.763119 0.493568 0.469978
0.868894 0.554101 0.506584
0.947051 0.622583 0.557031
0.208591 0.553674 0.494606
0.251255 0.552758 0.494820
0.367864 0.564263 0.506584
0.519463 0.593622 0.534783
0.674769 0.641688 0.557244
0.782254 0.621393 0.507927
0.871580 0.629969 0.500114
0.946990 0.677424 0.552514
0.361791 0.710231 0.597467
0.401434 0.716854 0.606012
0.489815 0.721126 0.616327
0.598901 0.733059 0.636316
0.662379 0.757565 0.630152
0.808682 0.791653 0.673884
0.888334 0.786923 0.662470
0.947692 0.763302 0.592554
0.525658 0.825803 0.697139
0.545403 0.826963 0.700740
0.601617 0.830167 0.711238
0.675990 0.836515 0.727779
0.733455 0.847623 0.734432
0.787655 0.863249 0.736629
0.890349 0.882109 0.774166
0.947173 0.881529 0.783047
0.667872 0.906401 0.789120
0.678004 0.906859 0.791348
0.707942 0.907774 0.797208
0.757046 0.910216 0.809873
0.812161 0.914611 0.827634
0.825650 0.924865 0.815152
0.883085 0.933745 0.833219
0.946929 0.943267 0.857237
0.000000 0.204440 0.596551
0.104616 0.204013 0.590143
0.341985 0.197421 0.561059
0.496315 0.195987 0.515770
0.639979 0.221042 0.528191
0.793118 0.349462 0.568383
0.874022 0.480110 0.602747
0.935698 0.602747 0.660578
0.000000 0.247562 0.609613
0.093965 0.247135 0.604456
0.346502 0.239750 0.575219
0.501823 0.234470 0.522911
0.639979 0.260105 0.533379
0.790249 0.378729 0.573388
0.871702 0.497292 0.607568
0.934112 0.611414 0.663447
0.092103 0.429084 0.637781
0.203067 0.416083 0.630549
0.333074 0.355962 0.604334
0.517296 0.343938 0.557610
0.635950 0.360845 0.546868
0.775753 0.451392 0.582879
0.861753 0.541527 0.617395
0.925383 0.646387 0.677607
0.156649 0.548882 0.642420
0.230320 0.548943 0.641779
0.385046 0.548486 0.639460
0.517662 0.492378 0.605982
0.631861 0.483436 0.570123
0.760037 0.543389 0.602106
0.848173 0.611353 0.639612
0.928496 0.666957 0.670710
0.250645 0.625391 0.631189
0.296269 0.624598 0.630457
0.409613 0.619074 0.625330
0.530510 0.606958 0.613428
0.617334 0.579858 0.586023
0.746975 0.611139 0.602594
0.851377 0.652155 0.626032
0.931853 0.699397 0.657618
0.357031 0.700099 0.643244
0.386603 0.699214 0.643580
0.466957 0.694148 0.642695
0.567559 0.694972 0.648524
0.667384 0.716304 0.668452
0.783627 0.764340 0.699794
0.865599 0.755154 0.667048
0.935912 0.757168 0.652644
0.517052 0.808591 0.720089
0.533349 0.808804 0.721523
0.584588 0.811490 0.727993
0.655848 0.819028 0.740444
0.731594 0.831083 0.757229
0.780697 0.849943 0.758236
0.882689 0.874540 0.795560
0.939940 0.872374 0.789425
0.654475 0.896391 0.800961
0.663386 0.896513 0.802090
0.692439 0.897581 0.806455
0.741848 0.903502 0.818509
0.794919 0.908995 0.831113
0.837675 0.918303 0.838956
0.878080 0.929992 0.845335
0.945464 0.942046 0.870817
0.000000 0.265751 0.760067
0.203769 0.267063 0.755764
0.410590 0.267765 0.737240
0.580102 0.278904 0.706630
0.694362 0.303716 0.683742
0.781827 0.377325 0.672358
0.883116 0.529931 0.710201
0.938354 0.637446 0.739834
0.067506 0.311254 0.759762
0.214206 0.311254 0.755123
0.412390 0.310735 0.738460
0.580133 0.318578 0.709651
0.690944 0.335180 0.682185
0.777859 0.400336 0.672389
0.880095 0.542687 0.711238
0.936553 0.644129 0.740871
0.327184 0.496132 0.771481
0.345678 0.478523 0.767666
0.434485 0.440955 0.756863
0.591516 0.440101 0.729824
0.694118 0.439185 0.691859
0.774258 0.481422 0.683619
0.874449 0.590997 0.721157
0.932769 0.671962 0.748775
0.367468 0.649256 0.791745
0.408362 0.650324 0.790524
0.517418 0.632044 0.778683
0.605402 0.585718 0.757870
0.703304 0.567864 0.716579
0.773007 0.582727 0.704311
0.868132 0.656031 0.737301
0.928283 0.712612 0.761013
0.409491 0.709957 0.775265
0.441993 0.710628 0.775021
0.528435 0.712093 0.773434
0.624414 0.712917 0.770413
0.689174 0.665888 0.741939
0.757931 0.651942 0.709773
0.852140 0.700374 0.737758
0.917967 0.747280 0.764889
0.452216 0.758511 0.758999
0.477913 0.759274 0.759884
0.542687 0.757015 0.758053
0.619257 0.751949 0.753201
0.685725 0.740566 0.741451
0.739956 0.714748 0.714595
0.842771 0.745602 0.733211
0.923095 0.778378 0.754879
0.534783 0.821469 0.775265
0.551598 0.821683 0.776364
0.596368 0.819333 0.776425
0.655085 0.816190 0.776211
0.716548 0.814755 0.777066
0.788785 0.831113 0.792752
0.872282 0.863890 0.818173
0.930785 0.853758 0.789883
0.648249 0.887236 0.821561
0.656275 0.887327 0.822232
0.683406 0.888518 0.825132
0.727199 0.892851 0.832151
0.778256 0.899474 0.841581
0.834531 0.909606 0.855375
0.873411 0.924681 0.860594
0.944457 0.941253 0.888426
0.296239 0.360082 0.859922
0.354803 0.364660 0.857847
0.491920 0.378729 0.849424
0.633021 0.406226 0.834195
0.741939 0.438849 0.808225
0.814359 0.461707 0.796078
0.868162 0.535760 0.777737
0.937499 0.660945 0.805631
0.323186 0.403784 0.860166
0.374487 0.407050 0.858091
0.501213 0.418494 0.850217
0.634699 0.438727 0.834409
0.740780 0.464057 0.808835
0.812161 0.481819 0.795407
0.865934 0.548150 0.777920
0.936004 0.667170 0.806088
0.454231 0.555535 0.863981
0.464576 0.543786 0.862638
0.534905 0.531456 0.855741
0.647578 0.537926 0.840787
0.743038 0.544671 0.816495
0.810239 0.550072 0.798886
0.863645 0.597650 0.785306
0.934600 0.698665 0.814420
0.528252 0.696010 0.871153
0.551049 0.693629 0.869078
0.615900 0.686824 0.862394
0.661799 0.650599 0.851835
0.745754 0.642939 0.829923
0.808377 0.634333 0.805295
0.860563 0.661830 0.796292
0.931914 0.738979 0.824765
0.548425 0.773373 0.869749
0.567590 0.774594 0.869566
0.624384 0.778988 0.869413
0.694148 0.773770 0.865110
0.742428 0.732326 0.847105
0.804440 0.710353 0.814908
0.855009 0.721126 0.805966
0.927031 0.778012 0.833158
0.576623 0.817380 0.860136
0.591669 0.817868 0.860227
0.636927 0.819364 0.860288
0.696986 0.821775 0.860655
0.758145 0.823667 0.860655
0.801236 0.791775 0.842222
0.849546 0.778897 0.817380
0.920714 0.815061 0.839536
0.605951 0.853941 0.852049
0.617395 0.853941 0.852171
0.652033 0.853513 0.852110
0.699947 0.852903 0.851774
0.751522 0.850889 0.849668
0.799252 0.844999 0.843229
0.832822 0.820768 0.817685
0.915526 0.844480 0.833158
0.654627 0.899443 0.863615
0.662837 0.899229 0.863798
0.690242 0.899107 0.865019
0.729122 0.898436 0.866087
0.773739 0.897520 0.867033
0.819669 0.897826 0.868772
0.876829 0.912932 0.883604
0.941161 0.938018 0.906645
0.485512 0.494728 0.928649
0.513817 0.500328 0.927367
0.593103 0.517815 0.922362
0.690639 0.545556 0.913695
0.779599 0.577234 0.900816
0.850248 0.605585 0.882811
0.900603 0.619196 0.881590
0.931670 0.674647 0.859525
0.503655 0.527489 0.928313
0.529137 0.531945 0.927092
0.601953 0.545800 0.922332
0.694026 0.568322 0.913817
0.780087 0.594568 0.901183
0.849393 0.618463 0.883391
0.899290 0.629877 0.881407
0.930785 0.681727 0.860166
0.563714 0.624537 0.928161
0.571038 0.618189 0.927581
0.625940 0.622278 0.923308
0.705287 0.634852 0.915831
0.782712 0.648463 0.903899
0.847929 0.660548 0.886717
0.896483 0.666773 0.882414
0.929107 0.707698 0.864073
0.635981 0.741085 0.929015
0.654047 0.743526 0.928130
0.679988 0.732937 0.925566
0.718288 0.715572 0.920409
0.786007 0.718349 0.909636
0.846342 0.719112 0.893706
0.893065 0.718471 0.885191
0.927398 0.745785 0.871061
0.640742 0.819486 0.933501
0.654688 0.818784 0.933013
0.695033 0.815305 0.930846
0.747219 0.807553 0.926696
0.786526 0.785489 0.918853
0.843381 0.778683 0.903929
0.889220 0.771206 0.889036
0.925780 0.788724 0.880156
0.662928 0.857542 0.927733
0.673030 0.858274 0.927794
0.704921 0.860838 0.928252
0.751156 0.865324 0.929564
0.803189 0.866392 0.930053
0.841428 0.840421 0.919524
0.887877 0.826261 0.898375
0.925566 0.834409 0.892241
0.687800 0.891173 0.922637
0.695460 0.891447 0.922728
0.720272 0.892454 0.923186
0.758572 0.894621 0.924346
0.804135 0.898100 0.926390
0.851896 0.902892 0.929656
0.887724 0.885740 0.921447
0.924620 0.876890 0.904143
0.714839 0.920775 0.919738
0.720638 0.920806 0.919829
0.739895 0.921050 0.920287
0.770932 0.921874 0.921294
0.808804 0.923217 0.922698
0.849149 0.925048 0.924315
0.888853 0.926116 0.924804
0.916258 0.911772 0.909148
