data/fiter_cube/49007420/1023419/file.cube
# Created by Adobe Lightroom plugin Export LUT (1.17.0)
# www.johnrellis.com/lightroom/exportlut.htm
# Preset: 03 - 日系情绪-春 [云集]
# Color profile: C:\Program Files (x86)\Common Files\Adobe\Color\Profiles\Recommended\AdobeRGB1998.icc
LUT_3D_SIZE 5
DOMAIN_MIN 0.000000 0.000000 0.000000
DOMAIN_MAX 0.903226 0.903226 0.903226
0.113985 0.161349 0.182712
0.180636 0.167208 0.186557
0.520836 0.157229 0.191745
0.831754 0.268772 0.233860
0.970245 0.487831 0.416693
0.115145 0.210117 0.202792
0.198520 0.230961 0.196048
0.526970 0.252201 0.178683
0.828244 0.342809 0.210666
0.973175 0.522515 0.408728
0.122408 0.492744 0.336278
0.234073 0.520928 0.327520
0.647028 0.613916 0.330816
0.842679 0.558770 0.238712
0.970459 0.607538 0.342626
0.401251 0.778378 0.572961
0.495613 0.783871 0.589166
0.588251 0.807584 0.556542
0.850217 0.834623 0.620569
0.962402 0.809018 0.594079
0.677668 0.914611 0.770138
0.712398 0.914549 0.779660
0.770352 0.916258 0.787015
0.823087 0.929961 0.784421
0.946990 0.942657 0.829770
0.110475 0.165377 0.218387
0.175692 0.168856 0.217350
0.495277 0.182528 0.255222
0.805295 0.290379 0.298253
0.964324 0.475196 0.397894
0.115053 0.217777 0.236881
0.189914 0.222782 0.239994
0.510979 0.253788 0.257206
0.805570 0.351080 0.295689
0.963928 0.508446 0.397620
0.147189 0.466682 0.367895
0.281254 0.492103 0.384039
0.605219 0.571038 0.391485
0.810819 0.528313 0.295262
0.962188 0.613550 0.405310
0.411414 0.766690 0.593011
0.503075 0.772305 0.609033
0.612970 0.796048 0.596765
0.843565 0.828641 0.652522
0.956268 0.807034 0.617548
0.672877 0.912047 0.775265
0.707637 0.912016 0.783963
0.789425 0.916747 0.808621
0.827756 0.930114 0.798672
0.947723 0.943694 0.841611
0.000000 0.187839 0.493324
0.265660 0.184848 0.462257
0.528466 0.180179 0.436561
0.808316 0.358251 0.509880
0.933776 0.601221 0.631434
0.000000 0.355291 0.541802
0.250217 0.294408 0.509361
0.540368 0.292027 0.462898
0.795560 0.432471 0.526574
0.935821 0.613428 0.626734
0.149752 0.534722 0.544427
0.307866 0.530175 0.539330
0.535515 0.499672 0.509056
0.782742 0.567254 0.547448
0.939178 0.663478 0.611109
0.403235 0.731594 0.638544
0.483406 0.734493 0.646052
0.655238 0.757626 0.678737
0.825528 0.811154 0.716670
0.940764 0.786496 0.647547
0.658717 0.900694 0.792844
0.691249 0.902586 0.799496
0.775418 0.909148 0.819821
0.836240 0.923949 0.824063
0.945495 0.941894 0.862181
0.108186 0.282780 0.785245
0.378088 0.287602 0.772396
0.657069 0.321538 0.725795
0.805020 0.415503 0.699672
0.937774 0.641382 0.755642
0.295415 0.452461 0.793454
0.405005 0.421881 0.783261
0.659266 0.430671 0.737697
0.798276 0.485542 0.705470
0.932769 0.664698 0.759792
0.416876 0.693141 0.805661
0.514855 0.697780 0.804349
0.658228 0.638392 0.772335
0.785031 0.625940 0.724758
0.923247 0.730587 0.775479
0.501213 0.788327 0.787747
0.555230 0.784848 0.784756
0.671199 0.777493 0.777676
0.764401 0.742947 0.741695
0.919432 0.792660 0.772488
0.649714 0.890013 0.831327
0.675898 0.888945 0.832395
0.750668 0.894011 0.841917
0.846342 0.911284 0.863462
0.943603 0.940429 0.892454
0.485512 0.494728 0.928649
0.570062 0.512200 0.923980
0.737087 0.561456 0.907836
0.863066 0.609796 0.881437
0.931670 0.674647 0.859525
0.537591 0.590600 0.928710
0.601587 0.598718 0.924529
0.743313 0.624353 0.909697
0.861723 0.650965 0.881956
0.929778 0.700343 0.863066
0.636500 0.779263 0.931121
0.679866 0.777615 0.928679
0.754635 0.753017 0.919158
0.857237 0.746334 0.892912
0.926421 0.766629 0.875151
0.670069 0.866789 0.926635
0.700374 0.868803 0.927001
0.778622 0.875883 0.929564
0.853696 0.852537 0.919921
0.925444 0.845243 0.895262
0.714839 0.920775 0.919738
0.733791 0.920989 0.920134
0.789273 0.922484 0.921965
0.859251 0.925536 0.924681
0.916258 0.911772 0.909148
