data/fiter_cube/49007420/1023419/file.cube
# Created by Adobe Lightroom plugin Export LUT (1.17.0)
# www.johnrellis.com/lightroom/exportlut.htm
# Preset: 03 - 日系情绪-春 [云集]
# Color profile: C:\Program Files (x86)\Common Files\Adobe\Color\Profiles\Recommended\AdobeRGB1998.icc
LUT_3D_SIZE 32
DOMAIN_MIN 0.0 0.0 0.0
DOMAIN_MAX 1.0 1.0 1.0
0.113985 0.161349 0.182712
0.115114 0.161654 0.182895
0.116732 0.161929 0.183108
0.120974 0.162600 0.183688
0.128664 0.163699 0.184543
0.140871 0.164828 0.185275
0.157931 0.165896 0.185916
0.180636 0.167208 0.186557
0.210086 0.168276 0.187381
0.247105 0.168887 0.188174
0.292760 0.168399 0.188876
0.345464 0.166720 0.189578
0.402747 0.163699 0.190249
0.462135 0.159884 0.190951
0.520836 0.157229 0.191745
0.576501 0.157229 0.193057
0.627466 0.162264 0.194919
0.672755 0.172549 0.197574
0.720882 0.190707 0.202792
0.763607 0.214267 0.210727
0.800076 0.240757 0.220951
0.831754 0.268772 0.233860
0.859098 0.297246 0.249760
0.883085 0.326146 0.268589
0.904234 0.355444 0.290349
0.923247 0.385534 0.315221
0.940459 0.417517 0.344640
0.956115 0.451514 0.378424
0.970245 0.487831 0.416693
0.982757 0.526909 0.459876
0.993683 0.568322 0.506584
1.000000 0.609979 0.554314
0.114137 0.162203 0.183230
0.115145 0.162387 0.183078
0.117250 0.162722 0.183139
0.121523 0.163394 0.183627
0.129213 0.164492 0.184360
0.141329 0.165774 0.185092
0.158328 0.166995 0.185702
0.180819 0.168307 0.186343
0.209628 0.169528 0.187076
0.246281 0.170504 0.187869
0.291081 0.170352 0.188571
0.342931 0.168978 0.189212
0.399390 0.166323 0.189822
0.458259 0.163333 0.190463
0.516533 0.160952 0.191196
0.571984 0.161044 0.192477
0.623194 0.165682 0.194156
0.668696 0.175296 0.196780
0.716732 0.192538 0.201694
0.758907 0.214603 0.208957
0.795315 0.239719 0.218723
0.827146 0.266636 0.231174
0.854734 0.294408 0.246311
0.879149 0.322820 0.264469
0.900816 0.351812 0.285649
0.920256 0.381781 0.310460
0.937957 0.413489 0.339544
0.954070 0.447395 0.372869
0.968566 0.483803 0.411383
0.981445 0.522942 0.454597
0.992676 0.564263 0.501183
1.000000 0.606287 0.549401
0.114412 0.163455 0.183719
0.114870 0.163699 0.183719
0.116854 0.163790 0.183658
0.121736 0.164553 0.183658
0.130068 0.165682 0.184268
0.142153 0.166964 0.184878
0.158999 0.168460 0.185458
0.181216 0.169924 0.186099
0.209689 0.171450 0.186831
0.245823 0.172427 0.187503
0.290257 0.172824 0.188083
0.341527 0.172030 0.188724
0.397772 0.169924 0.189242
0.456367 0.167483 0.189761
0.514244 0.165255 0.190646
0.569757 0.165927 0.191592
0.620905 0.170504 0.193301
0.666438 0.179660 0.195834
0.714687 0.196567 0.200565
0.756435 0.217441 0.207706
0.792782 0.241794 0.217105
0.824735 0.267826 0.229191
0.852537 0.294896 0.244083
0.877134 0.322759 0.262211
0.898985 0.351385 0.283177
0.918669 0.380957 0.307805
0.936614 0.412421 0.336492
0.952911 0.446174 0.370001
0.967681 0.482429 0.408301
0.980774 0.521233 0.451118
0.992126 0.562615 0.498085
1.000000 0.604700 0.546593
0.115206 0.166354 0.185275
0.116091 0.166690 0.185336
0.116640 0.167086 0.184970
0.121584 0.167514 0.184970
0.131014 0.168826 0.184726
0.144717 0.170565 0.184329
0.161379 0.172152 0.184909
0.183352 0.173983 0.185519
0.211612 0.175570 0.186099
0.247471 0.177310 0.186740
0.291325 0.178195 0.187289
0.341955 0.178103 0.187808
0.397436 0.177340 0.188144
0.455177 0.175723 0.188571
0.512657 0.174411 0.189242
0.567681 0.175753 0.190066
0.618616 0.180606 0.191562
0.664912 0.189639 0.194156
0.712337 0.205478 0.198734
0.752926 0.224704 0.205173
0.788663 0.246830 0.213962
0.820493 0.271397 0.225711
0.848783 0.297429 0.240330
0.874205 0.324651 0.257908
0.897002 0.353216 0.279332
0.917479 0.383154 0.304295
0.936034 0.414710 0.333745
0.952667 0.448524 0.367803
0.967529 0.484413 0.406409
0.980621 0.522759 0.449500
0.991943 0.563195 0.495918
1.000000 0.604486 0.544030
0.115694 0.171420 0.187533
0.116976 0.171969 0.187716
0.117433 0.172610 0.187320
0.119631 0.173648 0.186496
0.130282 0.174777 0.186496
0.145083 0.176333 0.185977
0.163973 0.178500 0.184848
0.186282 0.180545 0.184604
0.214023 0.182712 0.185122
0.249302 0.184909 0.185611
0.292302 0.186801 0.185885
0.342077 0.187961 0.186221
0.396399 0.188174 0.186526
0.453712 0.187961 0.186679
0.510918 0.188388 0.187045
0.566033 0.190433 0.187808
0.617487 0.195682 0.189120
0.666285 0.205386 0.191684
0.712245 0.220127 0.195956
0.751949 0.237919 0.202060
0.786954 0.258183 0.210849
0.818509 0.280888 0.221988
0.846708 0.305089 0.236118
0.872282 0.331182 0.253788
0.895354 0.358618 0.274907
0.916197 0.387518 0.299962
0.934966 0.418250 0.329290
0.951781 0.450965 0.363409
0.966766 0.486061 0.401953
0.979980 0.523613 0.445045
0.991455 0.563592 0.491829
1.000000 0.604425 0.540185
0.115969 0.179446 0.190799
0.116945 0.180270 0.190921
0.118868 0.181247 0.191043
0.119448 0.182681 0.189029
0.126802 0.184360 0.188540
0.144503 0.186374 0.188418
0.166445 0.188327 0.187900
0.190951 0.190860 0.186069
0.219120 0.193240 0.184451
0.254063 0.196170 0.184115
0.296666 0.198947 0.184054
0.345647 0.201205 0.184054
0.399084 0.202914 0.184024
0.455512 0.204044 0.184085
0.512200 0.205692 0.184237
0.566949 0.208957 0.184817
0.617853 0.214908 0.185855
0.669123 0.225589 0.188296
0.713558 0.239567 0.192416
0.752590 0.255955 0.198398
0.787442 0.274907 0.206943
0.819028 0.295995 0.218357
0.872648 0.347387 0.248875
0.895354 0.372625 0.269993
0.915312 0.398474 0.294041
0.933074 0.425635 0.321691
0.948943 0.454170 0.352728
0.963226 0.484535 0.387671
0.975982 0.517296 0.426581
0.987304 0.552514 0.469276
0.997101 0.589502 0.514611
1.000000 0.626520 0.559991
0.115755 0.193271 0.196109
0.116945 0.194125 0.196231
0.119051 0.195224 0.196323
0.121462 0.197513 0.195132
0.123995 0.200046 0.191806
0.140475 0.202945 0.191714
0.168765 0.206424 0.191623
0.201358 0.208560 0.191257
0.233951 0.211795 0.188144
0.270756 0.214450 0.185367
0.311894 0.216831 0.183047
0.361883 0.220310 0.182315
0.415778 0.223362 0.181582
0.471412 0.226383 0.180484
0.526207 0.229435 0.180209
0.578332 0.233799 0.180606
0.630579 0.241581 0.181582
0.681209 0.253544 0.184085
0.724269 0.267338 0.188602
0.762997 0.283848 0.195315
0.798611 0.303075 0.204868
0.831449 0.325109 0.218540
0.861112 0.349767 0.236088
0.887449 0.375830 0.257694
0.910307 0.402869 0.283177
0.929808 0.429999 0.311833
0.946593 0.458045 0.343542
0.961425 0.487343 0.378668
0.974609 0.519158 0.418219
0.986175 0.553155 0.461067
0.996185 0.589197 0.506554
1.000000 0.625788 0.552789
0.115145 0.210117 0.202792
0.116854 0.210971 0.202914
0.119112 0.212161 0.202976
0.124117 0.215030 0.202976
0.125246 0.217990 0.198581
0.132784 0.221439 0.195865
0.160311 0.225803 0.196048
0.198520 0.230961 0.196048
0.242771 0.233982 0.196262
0.283116 0.237827 0.191470
0.325841 0.240269 0.187076
0.369482 0.241672 0.182986
0.418494 0.244083 0.180636
0.473091 0.247929 0.179568
0.526970 0.252201 0.178683
0.578851 0.257908 0.177676
0.634546 0.268620 0.176761
0.681971 0.279637 0.178317
0.723262 0.291905 0.182223
0.760861 0.306126 0.188663
0.795773 0.322972 0.197787
0.828244 0.342809 0.210666
0.857786 0.364508 0.227817
0.884184 0.388128 0.248875
0.907286 0.412726 0.273838
0.927092 0.437964 0.302373
0.944335 0.464179 0.333776
0.959594 0.492164 0.369238
0.973175 0.522515 0.408728
0.985077 0.555108 0.451881
0.995392 0.590387 0.498390
1.000000 0.626307 0.545434
0.114839 0.232334 0.211887
0.116732 0.233249 0.211978
0.119387 0.234653 0.212009
0.125124 0.237522 0.212161
0.129580 0.241245 0.209354
0.131167 0.245762 0.202335
0.148959 0.250401 0.201755
0.189151 0.256931 0.201877
0.239536 0.264317 0.201938
0.298344 0.269017 0.203433
0.344427 0.272526 0.196323
0.390600 0.274113 0.189975
0.435401 0.274418 0.184146
0.478279 0.273991 0.178439
0.530327 0.278508 0.176974
0.587671 0.287327 0.175875
0.639185 0.297154 0.175296
0.683986 0.307530 0.175723
0.723690 0.318791 0.177401
0.760403 0.332036 0.181155
0.794644 0.346838 0.190005
0.826658 0.364019 0.202609
0.855894 0.383398 0.219089
0.882139 0.404395 0.240085
0.905303 0.426703 0.264683
0.925292 0.449653 0.293065
0.942779 0.473915 0.324895
0.958282 0.500008 0.360388
0.972076 0.528557 0.400031
0.984253 0.559655 0.443458
0.994781 0.593347 0.490303
1.000000 0.628138 0.537835
0.114260 0.260838 0.223636
0.116335 0.261784 0.223697
0.119356 0.263249 0.223789
0.126009 0.266270 0.223972
0.135225 0.270817 0.223209
0.136873 0.275547 0.216037
0.144625 0.281163 0.209293
0.175784 0.287846 0.209201
0.228214 0.296696 0.209628
0.291081 0.305974 0.209628
0.362707 0.311681 0.213046
0.412390 0.314244 0.203525
0.458991 0.314672 0.194705
0.504570 0.314855 0.186679
0.550896 0.316625 0.178897
0.595697 0.320043 0.173251
0.644800 0.329046 0.172824
0.687984 0.338598 0.173465
0.726436 0.348608 0.175845
0.761898 0.360204 0.179385
0.794980 0.373480 0.184390
0.825742 0.388251 0.193515
0.853758 0.404242 0.209628
0.879271 0.421851 0.229679
0.902190 0.441169 0.253788
0.922393 0.461860 0.281621
0.940429 0.484016 0.313329
0.956512 0.508568 0.349279
0.970886 0.535698 0.389776
0.983551 0.565698 0.434424
0.994476 0.598352 0.482277
1.000000 0.632654 0.531762
0.112886 0.294591 0.237949
0.115358 0.295750 0.237980
0.118776 0.297215 0.238132
0.126589 0.300298 0.238407
0.139071 0.305180 0.238560
0.144717 0.310826 0.233066
0.146975 0.317479 0.222812
0.165499 0.324559 0.218479
0.213169 0.333745 0.218692
0.278264 0.344640 0.219394
0.352697 0.355474 0.219577
0.431952 0.362341 0.224002
0.490761 0.367132 0.214603
0.538842 0.368444 0.202731
0.581567 0.368048 0.192020
0.619196 0.367132 0.182101
0.652094 0.365515 0.172946
0.689021 0.369940 0.171054
0.726345 0.378332 0.173495
0.760952 0.388190 0.177127
0.793484 0.399817 0.182620
0.824033 0.412879 0.190158
0.852293 0.427588 0.199802
0.877806 0.443000 0.218784
0.900694 0.459998 0.243168
0.920989 0.478157 0.271153
0.939055 0.498054 0.302739
0.955291 0.520165 0.338750
0.969818 0.545037 0.379553
0.982696 0.572869 0.424140
0.993896 0.603784 0.472877
1.000000 0.636683 0.523186
0.111269 0.334966 0.255619
0.114229 0.336004 0.255711
0.118379 0.337407 0.255741
0.127291 0.340612 0.255985
0.141665 0.345556 0.256260
0.155367 0.351812 0.254002
0.158083 0.358679 0.243565
0.162753 0.366979 0.230320
0.195285 0.375036 0.230045
0.262089 0.386816 0.231113
0.341283 0.401617 0.232822
0.430060 0.418341 0.234958
0.551904 0.456703 0.252750
0.609125 0.459907 0.242863
0.646479 0.455451 0.224979
0.677943 0.448920 0.209201
0.705043 0.441840 0.195377
0.728939 0.435187 0.182895
0.750973 0.429725 0.172213
0.782284 0.436835 0.178103
0.811734 0.445533 0.185855
0.839139 0.455787 0.194858
0.864469 0.467109 0.206119
0.887968 0.479652 0.219364
0.909026 0.493233 0.241611
0.927794 0.508415 0.270939
0.944610 0.525444 0.303960
0.959777 0.544610 0.340642
0.973358 0.566674 0.381659
0.985534 0.591669 0.426368
0.996094 0.619684 0.474708
1.000000 0.650080 0.524926
0.109590 0.388495 0.280522
0.113558 0.389471 0.280583
0.118929 0.390448 0.280491
0.130251 0.392981 0.280705
0.147250 0.396826 0.280674
0.169528 0.402197 0.280613
0.175143 0.408637 0.270848
0.179049 0.416632 0.256962
0.198215 0.428016 0.247349
0.248142 0.442817 0.249058
0.337041 0.462165 0.253452
0.431830 0.481971 0.258427
0.528710 0.502068 0.264256
0.612665 0.514519 0.277409
0.666346 0.516381 0.272648
0.696895 0.508659 0.251804
0.722591 0.498939 0.232334
0.744533 0.488930 0.215122
0.764858 0.479988 0.200259
0.784817 0.473182 0.186679
0.808072 0.473091 0.182254
0.835355 0.481392 0.191684
0.860563 0.490730 0.203616
0.884031 0.501366 0.216953
0.905577 0.512993 0.232395
0.924926 0.525719 0.255863
0.942077 0.540429 0.289220
0.957641 0.557397 0.325994
0.971710 0.577142 0.367346
0.984314 0.600214 0.412940
0.995300 0.626398 0.462379
1.000000 0.655390 0.514336
0.111879 0.435462 0.304448
0.116854 0.436469 0.304540
0.122713 0.437385 0.304448
0.135470 0.439673 0.304692
0.154696 0.443305 0.304906
0.179873 0.450416 0.306340
0.198367 0.459144 0.302922
0.203616 0.469154 0.290166
0.209934 0.481575 0.273106
0.247227 0.494026 0.269963
0.315801 0.509392 0.273472
0.411383 0.527703 0.279606
0.506126 0.545556 0.286748
0.594293 0.562493 0.294835
0.665278 0.569512 0.309728
0.713313 0.568322 0.310674
0.737392 0.556756 0.285100
0.758419 0.544579 0.262242
0.777768 0.533043 0.242191
0.796628 0.523674 0.224430
0.815396 0.516503 0.209018
0.833890 0.511315 0.194705
0.857267 0.516136 0.200717
0.880827 0.525261 0.214481
0.902556 0.535241 0.230259
0.922423 0.545983 0.247807
0.940307 0.558129 0.274449
0.956146 0.573022 0.312383
0.970550 0.590661 0.354131
0.983520 0.611444 0.400488
0.994873 0.635676 0.450965
1.000000 0.663081 0.504509
0.122408 0.492744 0.336278
0.127749 0.493965 0.336706
0.134920 0.494911 0.336736
0.149630 0.497383 0.337285
0.170779 0.500938 0.337957
0.197787 0.506035 0.339025
0.229313 0.512627 0.340368
0.234073 0.520928 0.327520
0.240574 0.531518 0.311589
0.254673 0.543969 0.294865
0.304265 0.555535 0.297032
0.387976 0.570550 0.303349
0.482094 0.585931 0.311620
0.568811 0.600458 0.320867
0.647028 0.613916 0.330816
0.707118 0.616754 0.345464
0.750851 0.614343 0.353582
0.771084 0.600946 0.324437
0.789639 0.587793 0.298405
0.807614 0.576196 0.276005
0.825223 0.566461 0.256229
0.842679 0.558770 0.238712
0.859770 0.552758 0.222751
0.877592 0.549950 0.211490
0.899504 0.558343 0.227634
0.919738 0.567864 0.246067
0.938476 0.578515 0.266941
0.955413 0.591424 0.298924
0.970459 0.607538 0.342626
0.983886 0.626886 0.391241
0.995636 0.649592 0.443885
1.000000 0.675654 0.499855
0.143648 0.548821 0.371038
0.149783 0.549950 0.371588
0.156741 0.550896 0.371923
0.172000 0.553002 0.372595
0.194034 0.556146 0.373541
0.221988 0.560510 0.374945
0.254917 0.566430 0.376989
0.273198 0.573663 0.370947
0.279942 0.582666 0.356023
0.287602 0.593164 0.337224
0.317418 0.603082 0.327825
0.367376 0.611994 0.330632
0.458534 0.623560 0.338720
0.543053 0.634607 0.347967
0.618982 0.645197 0.357702
0.687312 0.655329 0.367987
0.739498 0.655909 0.381353
0.781033 0.654383 0.397864
0.799619 0.641413 0.367407
0.817502 0.629328 0.340887
0.834928 0.618647 0.317357
0.851835 0.609216 0.296086
0.868254 0.601282 0.277226
0.884550 0.595117 0.259892
0.900725 0.590509 0.244327
0.918761 0.592920 0.246220
0.937652 0.602167 0.267735
0.955200 0.612879 0.291844
0.970672 0.626337 0.331456
0.984192 0.643244 0.380835
0.995972 0.663355 0.434363
1.000000 0.686702 0.490730
0.173617 0.596796 0.404486
0.178866 0.597498 0.404822
0.185702 0.597986 0.404944
0.200229 0.599573 0.405585
0.221317 0.601923 0.406561
0.248478 0.605219 0.408057
0.280674 0.609613 0.410163
0.311803 0.615045 0.410529
0.317906 0.622370 0.397314
0.325841 0.630945 0.381384
0.334447 0.640772 0.361028
0.377386 0.648341 0.361028
0.434577 0.656306 0.365789
0.518669 0.665736 0.375463
0.593805 0.674647 0.385779
0.660761 0.683101 0.396155
0.721340 0.691432 0.407019
0.768826 0.692561 0.420172
0.807126 0.691310 0.444648
0.824521 0.679286 0.414069
0.841428 0.667903 0.386755
0.857694 0.657374 0.362188
0.873533 0.647944 0.339757
0.889158 0.640101 0.320104
0.904692 0.633783 0.302129
0.920195 0.628992 0.286107
0.935821 0.626154 0.272160
0.953277 0.633997 0.291539
0.969909 0.644892 0.319646
0.983978 0.659480 0.367895
0.996124 0.677546 0.423163
1.000000 0.698909 0.481361
0.211215 0.640131 0.438209
0.216648 0.641047 0.438941
0.245487 0.661707 0.456489
0.258824 0.662684 0.457191
0.279026 0.664088 0.458137
0.304143 0.665797 0.459571
0.334478 0.668116 0.461646
0.368658 0.671015 0.464515
0.382361 0.675898 0.456458
0.388769 0.682338 0.442023
0.396307 0.689601 0.424842
0.412909 0.696803 0.409979
0.454353 0.701472 0.412604
0.513725 0.707271 0.418494
0.585504 0.714076 0.428809
0.649805 0.720607 0.439033
0.707668 0.727169 0.449775
0.760037 0.733761 0.460731
0.802609 0.735470 0.473640
0.835904 0.733242 0.504234
0.851255 0.721462 0.473671
0.866453 0.710109 0.445228
0.881224 0.699367 0.419471
0.895811 0.689662 0.395697
0.909972 0.680995 0.374121
0.924132 0.673701 0.354681
0.938384 0.668025 0.337438
0.953033 0.664515 0.322911
0.968322 0.665370 0.319646
0.983673 0.676509 0.353246
0.996124 0.692287 0.410040
1.000000 0.711269 0.470069
0.259770 0.683223 0.475288
0.267155 0.686000 0.477882
0.276432 0.688930 0.480629
0.291722 0.691798 0.483467
0.311833 0.694545 0.486275
0.336492 0.696681 0.488808
0.364843 0.698817 0.491524
0.396674 0.701106 0.494759
0.422065 0.704616 0.494392
0.427741 0.709895 0.482551
0.434241 0.716213 0.467994
0.441627 0.723018 0.450752
0.467659 0.728023 0.445014
0.503990 0.731930 0.447303
0.565148 0.737179 0.455238
0.628077 0.742702 0.465370
0.685084 0.748318 0.476020
0.736568 0.754086 0.486702
0.783749 0.760189 0.498360
0.823667 0.763333 0.511376
0.853147 0.760647 0.543786
0.868620 0.751369 0.520104
0.883024 0.741421 0.494026
0.897215 0.731777 0.469581
0.911131 0.722774 0.446448
0.924956 0.714839 0.425483
0.938842 0.708248 0.406806
0.952972 0.703517 0.391028
0.967468 0.700710 0.378485
0.982361 0.699977 0.369116
0.996185 0.708095 0.396368
1.000000 0.724819 0.458289
0.301488 0.715084 0.505058
0.308690 0.717403 0.507591
0.317174 0.719844 0.510216
0.330755 0.722286 0.512932
0.349615 0.724483 0.515862
0.371893 0.726223 0.518639
0.397681 0.727779 0.521477
0.426795 0.729580 0.525170
0.458961 0.731868 0.530022
0.467109 0.736263 0.521569
0.473243 0.741634 0.510155
0.479774 0.747494 0.496101
0.486488 0.753536 0.479011
0.518730 0.756863 0.481392
0.551568 0.760037 0.483711
0.612390 0.764736 0.493538
0.667475 0.769528 0.503563
0.717708 0.774441 0.514000
0.763821 0.779690 0.524895
0.806271 0.785336 0.536736
0.843503 0.789425 0.549493
0.868742 0.785885 0.579644
0.884581 0.778988 0.565179
0.898039 0.770382 0.542046
0.911315 0.761807 0.519707
0.924590 0.753780 0.498482
0.937926 0.746700 0.479011
0.951507 0.740993 0.462074
0.965393 0.737209 0.448341
0.979614 0.735195 0.438056
0.994141 0.735073 0.431159
1.000000 0.738582 0.444343
0.344762 0.744594 0.534997
0.351263 0.746578 0.537316
0.359289 0.748653 0.539849
0.371771 0.750698 0.542748
0.388708 0.752468 0.545617
0.408789 0.753780 0.548455
0.432074 0.754940 0.551629
0.458259 0.756252 0.555322
0.487221 0.757870 0.560296
0.505882 0.760769 0.559503
0.510674 0.765255 0.549493
0.516442 0.770108 0.537957
0.522210 0.775357 0.524071
0.536431 0.779904 0.514824
0.564996 0.782681 0.517296
0.601434 0.786038 0.521874
0.655329 0.790646 0.532372
0.704646 0.795560 0.543633
0.749935 0.800809 0.555444
0.791745 0.806424 0.568231
0.830198 0.812192 0.581170
0.865080 0.817563 0.594903
0.886320 0.813443 0.622705
0.902068 0.808835 0.617121
0.914611 0.801724 0.597253
0.927123 0.794553 0.577905
0.939666 0.787961 0.560082
0.952422 0.782315 0.544060
0.965484 0.778042 0.530724
0.978851 0.775265 0.520165
0.992401 0.774136 0.513176
1.000000 0.774777 0.510979
0.401251 0.778378 0.572961
0.405524 0.779232 0.574212
0.410773 0.780026 0.575494
0.420569 0.780819 0.577142
0.434363 0.781552 0.579309
0.451545 0.782132 0.581903
0.472267 0.782895 0.585107
0.495613 0.783871 0.589166
0.521538 0.785336 0.594293
0.548516 0.787228 0.600000
0.553307 0.791226 0.592309
0.558312 0.795621 0.583032
0.563531 0.800046 0.571893
0.568841 0.804685 0.558709
0.588251 0.807584 0.556542
0.612879 0.809934 0.558679
0.651118 0.813077 0.565148
0.697505 0.816953 0.575250
0.740261 0.821103 0.586084
0.779873 0.825406 0.597314
0.816373 0.829984 0.608820
0.850217 0.834623 0.620569
0.881468 0.839322 0.632532
0.899413 0.834348 0.656123
0.914611 0.830869 0.656458
0.926238 0.824643 0.638697
0.938018 0.818631 0.621912
0.950072 0.813382 0.607050
0.962402 0.809018 0.594079
0.974975 0.805905 0.583856
0.987823 0.804135 0.576257
1.000000 0.804135 0.572534
0.444373 0.802518 0.602319
0.448402 0.803281 0.603662
0.453437 0.804013 0.605097
0.461952 0.804593 0.606867
0.474128 0.805112 0.609003
0.489204 0.805478 0.611444
0.506828 0.805875 0.614343
0.527092 0.806485 0.617975
0.549767 0.807462 0.622644
0.573938 0.808774 0.628138
0.586328 0.811490 0.626490
0.590784 0.815122 0.618799
0.595331 0.818997 0.609674
0.600336 0.822995 0.599176
0.607080 0.826963 0.588464
0.628962 0.829099 0.590845
0.651087 0.831388 0.593439
0.690883 0.834592 0.602075
0.731807 0.838254 0.612482
0.769741 0.842161 0.623194
0.805081 0.846220 0.634363
0.837766 0.850431 0.645930
0.868101 0.854734 0.657740
0.896208 0.859037 0.669245
0.910246 0.851743 0.684810
0.925078 0.849546 0.690578
0.936095 0.844358 0.675196
0.947417 0.839536 0.660975
0.958984 0.835416 0.648768
0.970855 0.832242 0.638575
0.983093 0.830381 0.631342
0.995575 0.830198 0.627985
0.496071 0.828824 0.637751
0.499825 0.829557 0.639185
0.503746 0.829984 0.640192
0.510460 0.830228 0.641657
0.520317 0.830320 0.643183
0.532403 0.830259 0.645136
0.547112 0.830259 0.647486
0.563928 0.830259 0.650385
0.582727 0.830442 0.654078
0.603052 0.831022 0.658473
0.621027 0.832059 0.661433
0.624201 0.834714 0.654505
0.627527 0.837675 0.646357
0.631189 0.840696 0.637171
0.634852 0.843839 0.626337
0.645411 0.846220 0.620600
0.664088 0.847684 0.622095
0.685115 0.849516 0.624781
0.723781 0.852537 0.634272
0.760342 0.855955 0.644556
0.794369 0.859648 0.655451
0.825986 0.863432 0.666651
0.855222 0.867155 0.677455
0.882322 0.870756 0.687953
0.907378 0.874144 0.697932
0.921447 0.869322 0.714900
0.935668 0.868132 0.725185
0.945922 0.863737 0.711727
0.956542 0.859800 0.699733
0.967529 0.856626 0.689754
0.978943 0.854795 0.682887
0.990753 0.854276 0.679042
0.533196 0.847623 0.664271
0.536492 0.848295 0.665522
0.540093 0.848692 0.666621
0.546014 0.848875 0.667903
0.554467 0.848875 0.669490
0.565118 0.848875 0.671351
0.578058 0.848814 0.673762
0.593042 0.848875 0.676722
0.609949 0.849119 0.680415
0.628443 0.849668 0.684932
0.647730 0.850401 0.689906
0.655177 0.852537 0.687221
0.658534 0.855192 0.680842
0.661952 0.857969 0.673426
0.665461 0.860838 0.664881
0.669184 0.863828 0.655299
0.683619 0.865476 0.655085
0.700618 0.867094 0.657343
0.724331 0.869230 0.662379
0.758358 0.872099 0.671962
0.790219 0.875181 0.681941
0.820035 0.878386 0.692256
0.847776 0.881621 0.702296
0.873503 0.884764 0.712093
0.897490 0.887816 0.721553
0.919951 0.890715 0.730556
0.932433 0.886229 0.744686
0.945953 0.885924 0.758297
0.955566 0.882658 0.747707
0.965698 0.879911 0.738674
0.976196 0.878202 0.732265
0.987091 0.877592 0.728573
0.571496 0.866239 0.691920
0.574212 0.866636 0.692897
0.576837 0.866728 0.693599
0.581506 0.866728 0.694545
0.588434 0.866606 0.695705
0.597589 0.866361 0.697292
0.608545 0.866209 0.699367
0.621576 0.866148 0.702052
0.636439 0.866239 0.705470
0.652888 0.866606 0.709712
0.670344 0.867216 0.714595
0.683833 0.868498 0.716976
0.686976 0.870909 0.711940
0.690150 0.873350 0.706020
0.693294 0.875853 0.699123
0.696590 0.878447 0.691218
0.702327 0.880888 0.684749
0.717128 0.882231 0.686824
0.732509 0.883879 0.689418
0.757748 0.886107 0.696071
0.787594 0.888731 0.705226
0.815610 0.891508 0.714717
0.841764 0.894285 0.723934
0.866239 0.897063 0.733089
0.889067 0.899748 0.741817
0.910491 0.902373 0.750149
0.930724 0.904997 0.758297
0.942046 0.900816 0.770199
0.954711 0.900969 0.785916
0.963897 0.898772 0.777981
0.973510 0.897154 0.771725
0.983490 0.896513 0.768002
0.605035 0.882200 0.716548
0.606989 0.882414 0.717250
0.609339 0.882536 0.717861
0.613550 0.882536 0.718837
0.620020 0.882567 0.720272
0.628687 0.882658 0.722316
0.639612 0.882963 0.725277
0.652644 0.883513 0.728969
0.667445 0.884245 0.733608
0.683619 0.885222 0.738949
0.700679 0.886381 0.744930
0.718196 0.887663 0.751400
0.723537 0.890043 0.749477
0.727138 0.892546 0.745602
0.730465 0.894987 0.740810
0.733700 0.897307 0.735164
0.736904 0.899748 0.728634
0.745510 0.901518 0.726894
0.758450 0.902953 0.729305
0.771847 0.904570 0.732174
0.796567 0.906645 0.739590
0.821622 0.908873 0.747829
0.845121 0.911131 0.755764
0.867247 0.913359 0.763668
0.888060 0.915587 0.771237
0.907683 0.917754 0.778531
0.926299 0.919951 0.785641
0.943999 0.922148 0.792782
0.954040 0.918517 0.802457
0.965301 0.918669 0.818631
0.973632 0.917235 0.813016
0.982391 0.916533 0.809171
0.647639 0.901091 0.747707
0.649165 0.901183 0.748226
0.650904 0.901152 0.748623
0.654261 0.901061 0.749325
0.659480 0.900908 0.750423
0.666590 0.900755 0.752071
0.675502 0.900725 0.754330
0.686091 0.900816 0.757229
0.698238 0.901061 0.760891
0.711635 0.901488 0.765133
0.725826 0.902007 0.769863
0.740719 0.902739 0.775174
0.749996 0.904021 0.776699
0.752621 0.905943 0.773129
