data/fiter_cube/28334299/1023164/file.cube
# Created by Adobe Lightroom plugin Export LUT (1.17.0)
# www.johnrellis.com/lightroom/exportlut.htm
# Preset: 梦幻人像_03 云集
# Color profile: C:\Program Files (x86)\Common Files\Adobe\Color\Profiles\Recommended\AdobeRGB1998.icc
LUT_3D_SIZE 8
DOMAIN_MIN 0.000000 0.000000 0.000000
DOMAIN_MAX 0.903226 0.903226 0.903226
0.000000 0.000000 0.000000
0.132876 0.006561 0.005798
0.314366 0.000000 0.000000
0.512871 0.000000 0.000000
0.680110 0.031159 0.000000
0.833158 0.114412 0.036591
0.948150 0.169589 0.116823
1.000000 0.230594 0.185611
0.062104 0.100343 0.061280
0.119020 0.114046 0.055909
0.306828 0.138460 0.000000
0.497230 0.150820 0.000000
0.667659 0.162783 0.000000
0.813962 0.185489 0.047211
0.933135 0.215274 0.116457
1.000000 0.260960 0.185397
0.115328 0.229343 0.126131
0.146273 0.219333 0.129091
0.259312 0.253971 0.108919
0.487037 0.308324 0.060578
0.678523 0.328374 0.065034
0.817441 0.332769 0.105074
0.945342 0.348486 0.163027
1.000000 0.371710 0.228885
0.182650 0.363561 0.204379
0.202243 0.355322 0.202548
0.274327 0.336400 0.236912
0.432349 0.433875 0.189822
0.665431 0.489479 0.146029
0.826841 0.496315 0.184054
0.941405 0.492256 0.224247
1.000000 0.497505 0.282292
0.251347 0.518761 0.295048
0.266941 0.513298 0.293126
0.318791 0.497261 0.301061
0.406622 0.508324 0.330846
0.564324 0.574487 0.271611
0.755520 0.601862 0.230869
0.908690 0.621088 0.286778
1.000000 0.629084 0.359289
0.337407 0.639460 0.390661
0.356878 0.643885 0.398383
0.397253 0.632715 0.405097
0.472297 0.612085 0.447700
0.538262 0.641962 0.441260
0.681147 0.697505 0.389654
0.862272 0.729244 0.370062
0.993133 0.751644 0.442084
0.457771 0.760952 0.514885
0.468116 0.760708 0.517906
0.493874 0.751217 0.520928
0.539208 0.738125 0.537865
0.604730 0.717830 0.583642
0.667140 0.769986 0.557916
0.797330 0.817411 0.523339
0.951171 0.839750 0.516503
0.581140 0.882078 0.643793
0.586694 0.880552 0.644526
0.607874 0.876707 0.649958
0.647181 0.872770 0.666835
0.687404 0.848997 0.685298
0.743343 0.859464 0.715969
0.811398 0.903655 0.704921
0.914458 0.933867 0.683101
0.004974 0.016205 0.086976
0.115175 0.000000 0.100832
0.290166 0.000000 0.107637
0.483467 0.000000 0.102663
0.658503 0.000000 0.103731
0.802426 0.060182 0.123293
0.924651 0.142184 0.155123
1.000000 0.212467 0.204562
0.009400 0.105135 0.098939
0.125216 0.115755 0.108309
0.292210 0.118837 0.110964
0.479652 0.121553 0.108064
0.656062 0.134829 0.109529
0.794034 0.162173 0.126772
0.913725 0.195895 0.155093
1.000000 0.243870 0.202640
0.092470 0.236118 0.143038
0.157168 0.233066 0.153323
0.259037 0.251682 0.142428
0.477790 0.296574 0.133455
0.656855 0.310979 0.135714
0.793393 0.315557 0.152773
0.917815 0.328893 0.185214
1.000000 0.355505 0.237858
0.174502 0.363348 0.214694
0.205295 0.359289 0.217533
0.274479 0.339635 0.241276
0.410468 0.409613 0.201663
0.633234 0.460334 0.168246
0.792142 0.470222 0.203281
0.912749 0.470924 0.232609
1.000000 0.482307 0.284886
0.252415 0.520287 0.307561
0.267216 0.513481 0.303441
0.315740 0.494972 0.304234
0.397070 0.491035 0.332738
0.547326 0.555688 0.273533
0.739162 0.585657 0.236973
0.895445 0.609491 0.297673
1.000000 0.620325 0.364752
0.332250 0.634028 0.392981
0.344640 0.631373 0.392981
0.384802 0.621118 0.397467
0.460243 0.603357 0.437171
0.530755 0.631403 0.441413
0.675624 0.691218 0.395392
0.856260 0.723232 0.376135
0.987091 0.745205 0.444923
0.444800 0.749783 0.506828
0.451209 0.745724 0.505425
0.479561 0.738216 0.509819
0.528038 0.728878 0.528313
0.598413 0.710231 0.578820
0.659113 0.760525 0.554498
0.786618 0.806241 0.517052
0.941497 0.829191 0.507500
0.571160 0.875608 0.637659
0.578302 0.875273 0.639673
0.600549 0.872190 0.645563
0.640925 0.868894 0.662562
0.696437 0.858549 0.696132
0.748013 0.861784 0.723537
0.809079 0.901122 0.705470
0.910521 0.929931 0.679652
0.000000 0.040314 0.210788
0.119356 0.000000 0.219028
0.264683 0.000000 0.239414
0.443824 0.000000 0.254856
0.644587 0.000000 0.252750
0.799313 0.000000 0.250584
0.926360 0.079500 0.270756
1.000000 0.204868 0.302342
0.003174 0.107393 0.220676
0.108278 0.090883 0.230381
0.270237 0.000000 0.244633
0.446082 0.000000 0.249424
0.644556 0.000000 0.242863
0.790890 0.060914 0.251286
0.918395 0.164614 0.270054
1.000000 0.241886 0.303014
0.000000 0.245579 0.236057
0.101808 0.250278 0.240421
0.269902 0.254276 0.242252
0.461372 0.264317 0.250248
0.651118 0.280064 0.261021
0.790372 0.296178 0.272404
0.915618 0.319005 0.291295
1.000000 0.354528 0.325628
0.042969 0.391424 0.262089
0.138613 0.392035 0.263737
0.288670 0.386358 0.283696
0.421393 0.417548 0.274052
0.644923 0.462440 0.289677
0.789181 0.469215 0.315221
0.913359 0.476112 0.336370
1.000000 0.492317 0.373449
0.188479 0.534874 0.332158
0.229526 0.534478 0.336248
0.331914 0.526268 0.352422
0.422248 0.495888 0.390051
0.557916 0.564538 0.336522
0.748867 0.589746 0.313909
0.898924 0.617945 0.391211
1.000000 0.628962 0.438483
0.300420 0.645411 0.410101
0.328954 0.644678 0.417243
0.397162 0.636194 0.432441
0.461616 0.617090 0.450050
0.535729 0.625452 0.474403
0.672450 0.686091 0.432471
0.854978 0.721248 0.420111
0.988556 0.749905 0.497841
0.435126 0.762051 0.524193
0.452552 0.759670 0.529503
0.487892 0.750942 0.534691
0.532891 0.738155 0.543999
0.599176 0.718532 0.584039
0.661769 0.759121 0.576776
0.792264 0.810941 0.546868
0.950164 0.838010 0.546136
0.566552 0.881773 0.649042
0.576043 0.879728 0.651637
0.597070 0.875181 0.654139
0.641535 0.874266 0.671809
0.693111 0.863676 0.697749
0.753292 0.859953 0.737423
0.812192 0.901946 0.721523
0.914214 0.932738 0.699123
0.000000 0.058839 0.356512
0.120729 0.000000 0.362707
0.260044 0.000000 0.378515
0.412177 0.000000 0.388403
0.580560 0.000000 0.397803
0.750790 0.000000 0.399664
0.895903 0.000000 0.395514
1.000000 0.167025 0.413916
0.000000 0.097169 0.372869
0.110414 0.080323 0.377508
0.255222 0.000000 0.388495
0.418006 0.000000 0.394537
0.586206 0.000000 0.398260
0.750362 0.000000 0.396399
0.893584 0.000000 0.394751
1.000000 0.214908 0.415106
0.054658 0.251621 0.376074
0.128206 0.249729 0.379553
0.228397 0.209476 0.392981
0.425330 0.150759 0.401923
0.605066 0.205081 0.401740
0.764981 0.249516 0.407385
0.908049 0.316320 0.430335
1.000000 0.358740 0.445350
0.000000 0.396643 0.390295
0.000000 0.400488 0.394079
0.222416 0.409583 0.402594
0.425483 0.412665 0.401678
0.613947 0.436225 0.423255
0.760433 0.454047 0.439033
0.896300 0.473457 0.456153
1.000000 0.496529 0.478187
0.000000 0.566247 0.412207
0.000000 0.564599 0.410559
0.241276 0.560571 0.410559
0.443732 0.546166 0.445563
0.565789 0.567926 0.438239
0.753475 0.604059 0.468452
0.894591 0.627375 0.508873
1.000000 0.634455 0.527855
0.198245 0.669764 0.451575
0.243198 0.674434 0.459052
0.352850 0.667262 0.471321
0.487709 0.653803 0.508080
0.564538 0.629419 0.542901
0.680842 0.691859 0.504417
0.863493 0.725826 0.495766
0.990631 0.756435 0.576562
0.368719 0.775998 0.535485
0.393072 0.775875 0.541466
0.464424 0.773495 0.561151
0.548394 0.766201 0.586297
0.609339 0.747799 0.606378
0.674830 0.763729 0.622827
0.797726 0.814664 0.590906
0.955444 0.841459 0.592187
0.529473 0.895628 0.657099
0.543359 0.895506 0.661646
0.586542 0.892638 0.675441
0.642390 0.886900 0.692622
0.691951 0.876066 0.708156
0.760128 0.861601 0.754665
0.815610 0.901610 0.746365
0.917876 0.935027 0.726436
0.000000 0.070375 0.525780
0.103059 0.000000 0.527977
0.261051 0.000000 0.531365
0.401251 0.000000 0.539178
0.559533 0.000000 0.545739
0.701228 0.000000 0.531304
0.851255 0.000000 0.529137
0.990631 0.000000 0.532464
0.000000 0.088106 0.532280
0.107485 0.068330 0.536431
0.252201 0.000000 0.540154
0.397955 0.000000 0.543420
0.562615 0.000000 0.549065
0.702571 0.000000 0.530541
0.853300 0.000000 0.529473
0.990936 0.084230 0.534447
0.000000 0.245792 0.542565
0.000000 0.230564 0.545861
0.213291 0.193515 0.547784
0.383215 0.092195 0.553185
0.567041 0.000000 0.553948
0.699306 0.132387 0.523247
0.854948 0.201541 0.530327
0.989105 0.286015 0.541344
0.000000 0.399908 0.542626
0.094179 0.399756 0.545373
0.252445 0.399908 0.553002
0.374090 0.360876 0.560021
0.571466 0.308934 0.558770
0.710109 0.383581 0.537407
0.864164 0.424567 0.554162
0.994751 0.460883 0.566308
0.000000 0.549889 0.550408
0.000000 0.551659 0.552117
0.185550 0.554772 0.554437
0.379522 0.557855 0.555505
0.558160 0.552331 0.545037
0.720211 0.575708 0.567071
0.868894 0.594018 0.583917
0.990631 0.609125 0.597955
0.000000 0.681483 0.528435
0.000000 0.682002 0.527459
0.152651 0.677943 0.525170
0.379889 0.669581 0.533043
0.561334 0.650752 0.568505
0.674159 0.680751 0.571313
0.864073 0.729549 0.609552
0.987152 0.753933 0.655848
0.208896 0.790585 0.569055
0.245701 0.789059 0.570184
0.349950 0.785183 0.578363
0.481209 0.780179 0.600031
0.605798 0.769741 0.633631
0.681636 0.751034 0.667720
0.795071 0.809354 0.636439
0.957946 0.836240 0.638636
0.438361 0.900694 0.661158
0.453742 0.899687 0.663203
0.504265 0.896941 0.671687
0.594598 0.899168 0.699214
0.684535 0.890288 0.726925
0.750759 0.875059 0.754818
0.813779 0.894499 0.772488
0.916411 0.931914 0.751492
0.000000 0.110140 0.671443
0.021607 0.076204 0.671473
0.250462 0.000000 0.668025
0.383825 0.000000 0.668818
0.525292 0.000000 0.673457
0.679377 0.000000 0.674708
0.819242 0.000000 0.660517
0.957519 0.000000 0.656001
0.000000 0.086915 0.665888
0.103761 0.066377 0.666011
0.241978 0.000000 0.666804
0.376257 0.000000 0.668025
0.520592 0.000000 0.672236
0.677394 0.000000 0.672419
0.817411 0.000000 0.657649
0.956786 0.000000 0.654536
0.000000 0.226932 0.678157
0.000000 0.219059 0.677577
0.205997 0.188266 0.677180
0.360204 0.106050 0.681636
0.514672 0.000000 0.681727
0.682551 0.000000 0.678065
0.820615 0.000000 0.657069
0.960845 0.168154 0.657527
0.139712 0.412177 0.683223
0.166415 0.407263 0.684230
0.238834 0.386999 0.689357
0.355474 0.344549 0.697261
0.508721 0.259159 0.697841
0.694423 0.225223 0.690944
0.827604 0.328344 0.664546
0.969818 0.387030 0.670832
0.033661 0.536828 0.679744
0.135012 0.537560 0.681086
0.272007 0.540764 0.684810
0.428138 0.552575 0.689631
0.521996 0.517235 0.688533
0.685176 0.465431 0.681544
0.827329 0.519951 0.668574
0.973632 0.553948 0.681697
0.000000 0.667903 0.673823
0.000000 0.670741 0.676570
0.190463 0.673854 0.679011
0.367559 0.677485 0.680964
0.520317 0.678401 0.679042
0.674464 0.674464 0.670802
0.847105 0.709560 0.705257
0.977905 0.730800 0.725795
0.000000 0.810666 0.670069
0.000000 0.812772 0.670619
0.075074 0.814328 0.667597
0.327886 0.813596 0.666255
0.520623 0.804654 0.675990
0.693690 0.787076 0.710475
0.801053 0.811307 0.711147
0.965728 0.848875 0.749355
0.259586 0.919402 0.699977
0.287999 0.918334 0.700740
0.370184 0.915709 0.704738
0.482094 0.914153 0.715846
0.611170 0.908690 0.736629
0.744350 0.897795 0.776669
0.821988 0.886198 0.814908
0.918853 0.931731 0.794491
0.000000 0.168826 0.794247
0.000000 0.151217 0.794949
0.214176 0.025208 0.794400
0.367956 0.000000 0.793454
0.500603 0.000000 0.794858
0.639612 0.000000 0.792844
0.789761 0.000000 0.791501
0.932219 0.000000 0.781277
0.000000 0.158694 0.792264
0.000000 0.140139 0.792813
0.226047 0.000000 0.792416
0.362615 0.000000 0.792569
0.495125 0.000000 0.793606
0.635889 0.000000 0.791287
0.787625 0.000000 0.789181
0.929595 0.000000 0.777798
0.000000 0.221836 0.798611
0.000000 0.214542 0.798672
0.199008 0.185275 0.798978
0.342412 0.106447 0.800412
0.482673 0.000000 0.799466
0.630884 0.000000 0.796445
0.792691 0.000000 0.794461
0.934478 0.000000 0.779110
0.013672 0.392493 0.805692
0.092805 0.384741 0.805997
0.194217 0.358495 0.807889
0.326055 0.317388 0.808865
0.465461 0.237186 0.808103
0.620905 0.000000 0.805203
0.799741 0.000000 0.801877
0.938781 0.202945 0.779721
0.233738 0.548028 0.801755
0.263462 0.549340 0.802152
0.351110 0.555962 0.804746
0.409918 0.536248 0.809262
0.481514 0.478065 0.811154
0.610742 0.375891 0.808927
0.800656 0.359228 0.802976
0.938903 0.443214 0.779843
0.164065 0.661952 0.799954
0.204410 0.662898 0.800809
0.306249 0.666560 0.803586
0.426825 0.672786 0.808408
0.555383 0.680995 0.814359
0.642786 0.644343 0.814755
0.803799 0.589441 0.806607
0.944915 0.642573 0.792111
0.000000 0.790127 0.800015
0.009827 0.791287 0.801022
0.229587 0.793942 0.803067
0.367529 0.798428 0.806394
0.501091 0.802945 0.809171
0.647059 0.806668 0.809995
0.796689 0.800229 0.799466
0.956542 0.837644 0.836362
0.000000 0.925109 0.797391
0.000000 0.925689 0.797177
0.144381 0.929046 0.797787
0.308080 0.932647 0.795468
0.452827 0.935210 0.790524
0.648981 0.927184 0.805142
0.828702 0.911833 0.847745
0.923491 0.932250 0.855467
0.000000 0.261967 0.913603
0.000000 0.250858 0.914244
0.186526 0.204959 0.914794
0.334569 0.055818 0.916167
0.476143 0.000000 0.916838
0.616052 0.000000 0.917052
0.759670 0.000000 0.917327
0.911772 0.000000 0.916320
0.000000 0.258976 0.913024
0.000000 0.247837 0.913634
0.190768 0.202365 0.914427
0.335821 0.042451 0.915435
0.476234 0.000000 0.916167
0.612299 0.000000 0.916838
0.757321 0.000000 0.916716
0.911009 0.000000 0.915496
0.000000 0.256352 0.914031
0.000000 0.245304 0.914427
0.196628 0.200015 0.914763
0.332158 0.115419 0.917235
0.463325 0.000000 0.918486
0.601068 0.000000 0.919005
0.752407 0.000000 0.918761
0.912810 0.000000 0.917266
0.000000 0.370214 0.917632
0.000000 0.365179 0.918151
0.178470 0.344488 0.918791
0.308568 0.303075 0.920653
0.440131 0.222446 0.922545
0.582605 0.000000 0.923766
0.743221 0.000000 0.923705
0.917052 0.000000 0.921477
0.291569 0.557977 0.912657
0.299992 0.554711 0.913817
0.323644 0.539178 0.916533
0.356481 0.498573 0.921721
0.445045 0.443305 0.924224
0.566033 0.343328 0.926665
0.725338 0.067750 0.928099
0.920867 0.192508 0.925231
0.322881 0.674952 0.911315
0.339818 0.675349 0.911559
0.393927 0.676905 0.912902
0.475349 0.679988 0.916014
0.537743 0.662593 0.922210
0.598840 0.601190 0.928771
0.726101 0.498726 0.932464
0.926146 0.490700 0.930266
0.277653 0.783963 0.913725
0.296208 0.784207 0.913939
0.353948 0.784878 0.915099
0.440162 0.786984 0.918029
0.551385 0.792050 0.922393
0.688258 0.806271 0.928557
0.775570 0.780301 0.933806
0.927031 0.726558 0.930846
0.203830 0.906706 0.918151
0.228061 0.907073 0.918395
0.298192 0.908965 0.919829
0.395209 0.912840 0.922820
0.511192 0.917571 0.926146
0.646967 0.923644 0.930053
0.796201 0.930449 0.933898
0.926421 0.929229 0.929625
