data/fiter_cube/28334299/1023164/file.cube
# Created by Adobe Lightroom plugin Export LUT (1.17.0)
# www.johnrellis.com/lightroom/exportlut.htm
# Preset: 梦幻人像_03 云集
# Color profile: C:\Program Files (x86)\Common Files\Adobe\Color\Profiles\Recommended\AdobeRGB1998.icc
LUT_3D_SIZE 32
DOMAIN_MIN 0.0 0.0 0.0
DOMAIN_MAX 1.0 1.0 1.0
0.000000 0.000000 0.000000
0.021973 0.001007 0.001495
0.052583 0.002625 0.002686
0.088960 0.005646 0.005188
0.132876 0.006561 0.005798
0.178897 0.004089 0.004456
0.224002 0.000000 0.000000
0.268742 0.000000 0.000000
0.314366 0.000000 0.000000
0.361364 0.000000 0.000000
0.410254 0.000000 0.000000
0.461067 0.000000 0.000000
0.512871 0.000000 0.000000
0.562066 0.000000 0.000000
0.605768 0.000000 0.000000
0.644800 0.004059 0.000000
0.680110 0.031159 0.000000
0.718685 0.062837 0.000000
0.760250 0.081605 0.000000
0.798093 0.098604 0.000000
0.833158 0.114412 0.036591
0.865660 0.129091 0.067170
0.895232 0.142702 0.085451
0.922637 0.156313 0.101747
0.948150 0.169589 0.116823
0.972442 0.182803 0.132326
0.996033 0.197391 0.148226
1.000000 0.213016 0.166232
1.000000 0.230594 0.185611
1.000000 0.250614 0.208011
1.000000 0.273747 0.233738
1.000000 0.300816 0.263615
0.007202 0.013825 0.006256
0.019715 0.017609 0.006714
0.051850 0.021424 0.006592
0.089540 0.030976 0.007385
0.133272 0.037690 0.008606
0.178408 0.039948 0.005982
0.222904 0.038605 0.000641
0.266911 0.033265 0.000000
0.311925 0.029023 0.000000
0.358618 0.026032 0.000000
0.406958 0.021118 0.000000
0.457038 0.017517 0.000000
0.508354 0.021118 0.000000
0.557397 0.029084 0.000000
0.601343 0.039490 0.000000
0.640436 0.056428 0.000000
0.675868 0.068421 0.000000
0.714473 0.081209 0.000000
0.754788 0.095308 0.000000
0.791897 0.108888 0.000000
0.826596 0.121981 0.030945
0.859068 0.134951 0.064240
0.888884 0.147799 0.082338
0.916625 0.159701 0.098665
0.942596 0.172091 0.113802
0.967376 0.185092 0.128725
0.991516 0.198764 0.145083
1.000000 0.214176 0.162722
1.000000 0.230991 0.182406
1.000000 0.250553 0.204471
1.000000 0.273014 0.229831
1.000000 0.299168 0.259403
0.018189 0.033967 0.015137
0.028199 0.032166 0.019348
0.047974 0.043030 0.015778
0.088655 0.058808 0.013519
0.133455 0.065431 0.010559
0.178134 0.068544 0.007507
0.221958 0.069429 0.000977
0.265476 0.068910 0.000000
0.310094 0.068482 0.000000
0.356359 0.067842 0.000000
0.404303 0.068360 0.000000
0.454231 0.068727 0.000000
0.505303 0.070619 0.000000
0.554528 0.073518 0.000000
0.598383 0.078157 0.000000
0.637812 0.084077 0.000000
0.673304 0.089937 0.000000
0.712337 0.100160 0.000000
0.751766 0.110689 0.000000
0.788388 0.122255 0.000000
0.823087 0.133486 0.031556
0.855589 0.145266 0.064118
0.885588 0.156161 0.081788
0.913451 0.167391 0.097719
0.939605 0.178653 0.112856
0.964599 0.190494 0.128145
0.989014 0.203555 0.143893
1.000000 0.217990 0.161715
1.000000 0.234531 0.181125
1.000000 0.253483 0.203433
1.000000 0.275212 0.228672
1.000000 0.300908 0.258000
0.038666 0.071443 0.036530
0.049836 0.070375 0.037568
0.061952 0.069093 0.045991
0.083894 0.080323 0.034882
0.129854 0.091707 0.022370
0.178988 0.098817 0.011383
0.222324 0.101106 0.004334
0.265232 0.102358 0.000000
0.309239 0.103273 0.000000
0.354986 0.104372 0.000000
0.402319 0.106081 0.000000
0.451667 0.108278 0.000000
0.502220 0.110872 0.000000
0.551110 0.114015 0.000000
0.595209 0.116915 0.000000
0.634516 0.120851 0.000000
0.670069 0.124300 0.000000
0.710018 0.131716 0.000000
0.747768 0.139071 0.000000
0.783169 0.147372 0.000000
0.817105 0.155489 0.033204
0.849363 0.164431 0.064912
0.879850 0.173617 0.082307
0.908721 0.183352 0.098146
0.936156 0.193576 0.113039
0.962371 0.204257 0.129244
0.987671 0.216495 0.145571
1.000000 0.230167 0.163851
1.000000 0.245548 0.183413
1.000000 0.263127 0.205081
1.000000 0.283604 0.230014
1.000000 0.307591 0.258579
0.062104 0.100343 0.061280
0.067323 0.099306 0.061707
0.074189 0.097414 0.063508
0.087129 0.099428 0.066865
0.119020 0.114046 0.055909
0.168246 0.125734 0.032868
0.216678 0.133089 0.016876
0.263493 0.136660 0.003754
0.306828 0.138460 0.000000
0.351690 0.141085 0.000000
0.398505 0.143526 0.000000
0.447089 0.146853 0.000000
0.497230 0.150820 0.000000
0.546288 0.154208 0.000000
0.590845 0.157412 0.000000
0.630915 0.160159 0.000000
0.667659 0.162783 0.000000
0.708888 0.168612 0.000000
0.745785 0.173678 0.000000
0.780667 0.179171 0.011139
0.813962 0.185489 0.047211
0.845884 0.192081 0.069703
0.876280 0.199222 0.085939
0.905364 0.206882 0.100954
0.933135 0.215274 0.116457
0.959747 0.224338 0.131807
0.985321 0.235080 0.147921
1.000000 0.246983 0.165927
1.000000 0.260960 0.185397
1.000000 0.276890 0.207126
1.000000 0.295689 0.231479
1.000000 0.318212 0.259953
0.073610 0.131868 0.076051
0.078065 0.130922 0.075746
0.083925 0.129030 0.075868
0.098421 0.124514 0.082490
0.115267 0.132845 0.080110
0.153811 0.148714 0.067048
0.205081 0.159304 0.045167
0.253666 0.167941 0.022004
0.303471 0.173617 0.005890
0.351141 0.177462 0.000000
0.397345 0.181552 0.000000
0.445472 0.185611 0.000000
0.495125 0.190341 0.000000
0.543999 0.194339 0.000000
0.588525 0.197391 0.000000
0.628870 0.199435 0.000000
0.669215 0.202914 0.000000
0.708888 0.207126 0.000000
0.745174 0.211032 0.002228
0.779843 0.215030 0.033661
0.813321 0.219638 0.062989
0.845609 0.224582 0.078401
0.912627 0.248478 0.118685
0.939330 0.255344 0.133516
0.964141 0.262089 0.148043
0.987457 0.269871 0.163241
1.000000 0.278660 0.179141
1.000000 0.289128 0.196536
1.000000 0.301427 0.215702
1.000000 0.316320 0.237522
1.000000 0.333989 0.262211
1.000000 0.355261 0.290410
0.087190 0.168246 0.093019
0.091371 0.166934 0.092866
0.096956 0.165316 0.092958
0.108980 0.161654 0.095277
0.129122 0.155245 0.107057
0.149508 0.171389 0.096315
0.193332 0.187778 0.080507
0.246891 0.197879 0.060365
0.298558 0.208591 0.032288
0.351598 0.217716 0.019257
0.406806 0.225681 0.003784
0.457252 0.231205 0.000000
0.506889 0.236179 0.000000
0.554498 0.240146 0.000000
0.597162 0.242130 0.000000
0.636866 0.243595 0.000000
0.680049 0.247654 0.000000
0.718868 0.250645 0.013550
0.755062 0.253452 0.045411
0.790616 0.256962 0.066712
0.826108 0.261479 0.083070
0.861204 0.266789 0.099031
0.894896 0.273411 0.115480
0.926452 0.280064 0.132479
0.955291 0.287144 0.149111
0.981048 0.294469 0.165255
1.000000 0.302373 0.181888
1.000000 0.311315 0.199374
1.000000 0.321935 0.218357
1.000000 0.334905 0.239811
1.000000 0.350530 0.263676
1.000000 0.369848 0.291691
0.100191 0.198795 0.108949
0.104067 0.197696 0.108827
0.109102 0.196048 0.108309
0.119509 0.192599 0.109255
0.137758 0.186770 0.117342
0.155215 0.187625 0.122316
0.180667 0.203922 0.110262
0.225834 0.220157 0.093690
0.280705 0.230564 0.072999
0.334142 0.243809 0.051575
0.389197 0.255924 0.045716
0.446387 0.266484 0.031250
0.503624 0.274998 0.012451
0.550866 0.279362 0.002472
0.593408 0.281376 0.001007
0.638758 0.285527 0.010681
0.678828 0.287755 0.029145
0.715816 0.289250 0.050935
0.750942 0.290806 0.066072
0.785794 0.293004 0.078981
0.820737 0.296239 0.093324
0.855467 0.300481 0.107576
0.889006 0.305516 0.122805
0.920500 0.310704 0.138796
0.949554 0.316533 0.154574
0.975677 0.322484 0.170413
0.999573 0.328771 0.186465
1.000000 0.336278 0.203433
1.000000 0.345342 0.222293
1.000000 0.356512 0.243534
1.000000 0.370611 0.267674
1.000000 0.387976 0.295201
0.115328 0.229343 0.126131
0.118654 0.228428 0.125826
0.123079 0.227207 0.125734
0.132479 0.223941 0.125826
0.146273 0.219333 0.129091
0.167605 0.212070 0.141482
0.183291 0.220645 0.138613
0.212558 0.237125 0.126101
0.259312 0.253971 0.108919
0.315618 0.266575 0.088746
0.370947 0.280858 0.072236
0.428351 0.295323 0.065492
0.487037 0.308324 0.060578
0.544305 0.317571 0.050721
0.598230 0.325292 0.049561
0.640558 0.327794 0.056855
0.678523 0.328374 0.065034
0.714260 0.328923 0.073243
0.748531 0.329107 0.082979
0.782864 0.330449 0.093385
0.817441 0.332769 0.105074
0.851774 0.335882 0.118410
0.885039 0.339757 0.132601
0.916350 0.343908 0.147677
0.945342 0.348486 0.163027
0.971679 0.352819 0.178134
0.995819 0.358068 0.194034
1.000000 0.364080 0.210636
1.000000 0.371710 0.228885
1.000000 0.381292 0.249607
1.000000 0.393713 0.273472
1.000000 0.409186 0.300816
0.131624 0.260349 0.144289
0.134585 0.259403 0.143740
0.138552 0.258000 0.143557
0.146548 0.255283 0.143648
0.158572 0.251072 0.145083
0.177005 0.244846 0.153292
0.196933 0.237766 0.165560
0.212985 0.254032 0.155612
0.245365 0.271000 0.142580
0.293217 0.288426 0.125643
0.350439 0.302831 0.105013
0.407446 0.317510 0.089021
0.469337 0.336095 0.078431
0.533379 0.353735 0.077516
0.590417 0.364324 0.078157
0.640192 0.369360 0.081270
0.679683 0.369909 0.086458
0.715114 0.369574 0.092958
0.749111 0.369146 0.101259
0.782712 0.369360 0.110170
0.816037 0.370489 0.119997
0.848905 0.372107 0.131533
0.880705 0.374395 0.143618
0.910918 0.376989 0.157137
0.939391 0.379980 0.170840
0.965789 0.383307 0.185580
0.990539 0.387304 0.201053
1.000000 0.392615 0.217716
1.000000 0.399237 0.236576
1.000000 0.408118 0.257786
1.000000 0.419501 0.282322
1.000000 0.434089 0.310307
0.147433 0.290623 0.162112
0.150271 0.289982 0.162020
0.153780 0.288762 0.161715
0.161074 0.286473 0.161624
0.171695 0.282750 0.162203
0.185641 0.277745 0.165927
0.207218 0.270695 0.178225
0.223636 0.271885 0.183383
0.244083 0.288975 0.172824
0.279484 0.306706 0.159426
0.329137 0.325353 0.142641
0.391821 0.345312 0.122530
0.453681 0.362768 0.107454
0.517601 0.382696 0.092042
0.575006 0.396643 0.095399
0.625544 0.404059 0.100221
0.670771 0.407324 0.105470
0.712825 0.408484 0.111849
0.746273 0.407294 0.118257
0.779599 0.406806 0.125338
0.812680 0.407172 0.134676
0.845426 0.408179 0.145022
0.877165 0.409827 0.157168
0.907469 0.411688 0.169406
0.935912 0.413855 0.182986
0.962280 0.416144 0.196933
0.986908 0.419043 0.211795
1.000000 0.422980 0.227878
1.000000 0.428595 0.246220
1.000000 0.436072 0.267063
1.000000 0.445991 0.291295
1.000000 0.459113 0.319158
0.163577 0.322728 0.181033
0.165957 0.322087 0.180850
0.169039 0.321141 0.180575
0.175570 0.318883 0.180179
0.185397 0.315679 0.180423
0.197635 0.311437 0.182315
0.216587 0.305394 0.190921
0.237461 0.297948 0.204288
0.252415 0.307805 0.201999
0.278691 0.328130 0.192020
0.319799 0.350042 0.179965
0.373999 0.372198 0.162936
0.466651 0.419989 0.150973
0.531548 0.435950 0.135195
0.590387 0.450690 0.122530
0.640894 0.458900 0.128481
0.686366 0.462928 0.136995
0.728634 0.464454 0.144930
0.768368 0.464363 0.152560
0.804288 0.463264 0.160189
0.835080 0.461402 0.168185
0.865110 0.460212 0.177951
0.893919 0.459419 0.188052
0.921538 0.459297 0.199527
0.947631 0.459510 0.211490
0.972107 0.460304 0.224735
0.995026 0.461585 0.238865
1.000000 0.464179 0.254337
1.000000 0.468116 0.271580
1.000000 0.474128 0.291844
1.000000 0.482673 0.315404
1.000000 0.494331 0.343206
0.182650 0.363561 0.204379
0.184787 0.362982 0.204105
0.187594 0.361639 0.203647
0.193301 0.359228 0.203067
0.202243 0.355322 0.202548
0.213382 0.350500 0.203098
0.228244 0.345159 0.207309
0.251804 0.340520 0.221408
0.274327 0.336400 0.236912
0.292576 0.358129 0.229099
0.325017 0.382055 0.219303
0.371954 0.407416 0.206668
0.432349 0.433875 0.189822
0.502159 0.458137 0.166903
0.563287 0.469917 0.153658
0.617853 0.482887 0.144045
0.665431 0.489479 0.146029
0.708888 0.493324 0.155978
0.749691 0.495186 0.165377
0.788968 0.496010 0.174075
0.826841 0.496315 0.184054
0.858915 0.495125 0.192721
0.887602 0.493751 0.202060
0.915221 0.492775 0.212863
0.941405 0.492256 0.224247
0.966064 0.492195 0.236698
0.989258 0.492744 0.250126
1.000000 0.494514 0.265354
1.000000 0.497505 0.282292
1.000000 0.502617 0.302708
1.000000 0.510094 0.326238
1.000000 0.520806 0.354131
0.198642 0.399664 0.224979
0.200809 0.399207 0.224735
0.203494 0.398505 0.224613
0.209201 0.396887 0.224277
0.218082 0.394202 0.224216
0.229313 0.390906 0.225010
0.243015 0.386694 0.227573
0.263645 0.381445 0.237552
0.287053 0.375341 0.252720
0.306218 0.379828 0.260349
0.328527 0.402655 0.251682
0.364416 0.427314 0.240879
0.413275 0.452583 0.227115
0.472602 0.476661 0.209354
0.538811 0.497688 0.186648
0.592950 0.502220 0.173404
0.642542 0.512108 0.165316
0.687770 0.517571 0.162997
0.729915 0.521813 0.174838
0.770443 0.524743 0.185183
0.809537 0.526787 0.196262
0.847013 0.527977 0.207187
0.882109 0.528222 0.218509
0.910002 0.526909 0.228580
0.936370 0.525872 0.239780
0.961273 0.525139 0.251560
0.984710 0.525200 0.264439
1.000000 0.526146 0.279332
1.000000 0.528527 0.296574
1.000000 0.532952 0.316808
1.000000 0.539635 0.340642
1.000000 0.549432 0.368902
0.216922 0.442969 0.249638
0.218936 0.442634 0.249546
0.221378 0.441382 0.248905
0.226658 0.439277 0.248203
0.234592 0.435828 0.247349
0.244907 0.431617 0.247105
0.257572 0.426947 0.248569
0.273747 0.421546 0.253391
0.297581 0.415473 0.267399
0.321111 0.409186 0.284031
0.338933 0.423590 0.283330
0.365148 0.447456 0.273899
0.403296 0.471626 0.262486
0.451881 0.494484 0.248203
0.508263 0.514672 0.230076
0.569543 0.531609 0.207858
0.619348 0.531426 0.193942
0.665827 0.540063 0.187076
0.710018 0.545312 0.181765
0.751797 0.550347 0.193881
0.791958 0.554253 0.206363
0.830442 0.557000 0.218662
0.866728 0.558618 0.231083
0.900908 0.559442 0.243656
0.931365 0.559197 0.256291
0.956725 0.558404 0.268223
0.980865 0.558373 0.281651
1.000000 0.559411 0.297337
1.000000 0.562005 0.315740
1.000000 0.566522 0.337377
1.000000 0.573419 0.362890
1.000000 0.582879 0.392126
0.234226 0.483711 0.273289
0.236271 0.483436 0.273136
0.238590 0.482734 0.272831
0.243656 0.480812 0.272160
0.251347 0.477882 0.271336
0.261479 0.474281 0.271092
0.273869 0.470253 0.272068
0.288304 0.465797 0.274998
0.310094 0.460182 0.285740
0.334539 0.453620 0.301305
0.357305 0.448310 0.317327
0.374456 0.469947 0.308415
0.402014 0.491127 0.297551
0.439429 0.511192 0.284215
0.485176 0.529564 0.268742
0.537591 0.545953 0.250278
0.595056 0.560235 0.228428
0.642634 0.559655 0.214664
0.688411 0.567041 0.209262
0.732998 0.573907 0.205936
0.775418 0.580011 0.215579
0.815640 0.585138 0.230686
0.853513 0.588647 0.244907
0.889158 0.591119 0.259403
0.922301 0.592615 0.273991
0.953094 0.593469 0.289036
0.979065 0.593683 0.303777
1.000000 0.594507 0.319677
1.000000 0.596490 0.338201
1.000000 0.600153 0.359564
1.000000 0.605768 0.384222
1.000000 0.613672 0.411963
0.251347 0.518761 0.295048
0.253025 0.518273 0.294835
0.255192 0.517388 0.294469
0.259739 0.515770 0.293828
0.266941 0.513298 0.293126
0.276341 0.510002 0.292821
0.288121 0.506188 0.293187
0.301671 0.502129 0.295415
0.318791 0.497261 0.301061
0.343603 0.491127 0.315709
0.367926 0.484504 0.332616
0.387182 0.488502 0.340215
0.406622 0.508324 0.330846
0.435035 0.527398 0.319615
0.471504 0.544823 0.305974
0.514916 0.560479 0.290196
0.564324 0.574487 0.271611
0.618952 0.587213 0.250523
0.666316 0.588159 0.236728
0.711360 0.594049 0.232303
0.755520 0.601862 0.230869
0.797604 0.608057 0.237186
0.836942 0.613672 0.254002
0.873930 0.618036 0.270207
0.908690 0.621088 0.286778
0.940887 0.623407 0.303563
0.970672 0.625330 0.321141
0.997864 0.627192 0.340276
1.000000 0.629084 0.359289
1.000000 0.632319 0.380682
1.000000 0.637293 0.405097
1.000000 0.644190 0.432624
0.270420 0.551995 0.317967
0.272190 0.552117 0.318212
0.288243 0.572137 0.333776
0.292699 0.570459 0.333074
0.299382 0.567956 0.332341
0.308110 0.564569 0.331792
0.318883 0.560510 0.331914
0.331670 0.555718 0.333135
0.346593 0.550774 0.336645
0.368597 0.544854 0.348089
0.393225 0.538109 0.364050
0.416876 0.530663 0.381811
0.432166 0.541009 0.379492
0.451453 0.557671 0.368261
0.478462 0.573266 0.355352
0.512688 0.587549 0.340642
0.553765 0.600763 0.323796
0.600732 0.613062 0.304753
0.653132 0.624537 0.283574
0.700313 0.626276 0.269169
0.743771 0.629969 0.265202
0.786770 0.637629 0.265141
0.827695 0.643061 0.268376
0.865110 0.648463 0.286961
0.899657 0.652033 0.304662
0.931762 0.654566 0.321904
0.961395 0.656580 0.339818
0.988830 0.658503 0.358831
1.000000 0.660853 0.379736
1.000000 0.663874 0.402594
1.000000 0.667750 0.425879
1.000000 0.673304 0.451911
0.294713 0.587518 0.345220
0.298100 0.589776 0.347326
0.302098 0.591791 0.349279
0.308110 0.592859 0.351019
0.315648 0.592523 0.352026
0.324681 0.590539 0.352605
0.334997 0.587304 0.353124
0.347112 0.583307 0.354528
0.361212 0.578973 0.357671
0.378424 0.573968 0.364385
0.402686 0.567864 0.379614
0.426581 0.561089 0.396490
0.448005 0.555138 0.412390
0.460334 0.570733 0.402350
0.479530 0.585534 0.390631
0.505638 0.599481 0.377325
0.538750 0.612696 0.362188
0.578241 0.625330 0.345464
0.623835 0.637476 0.327337
0.674891 0.649195 0.307408
0.722347 0.652827 0.293217
0.765743 0.655940 0.290745
0.808438 0.664607 0.293004
0.848722 0.670619 0.296880
0.885283 0.676020 0.314336
0.918975 0.680537 0.334325
0.950195 0.684047 0.354559
0.978912 0.687282 0.375372
1.000000 0.690578 0.397742
1.000000 0.694026 0.421332
1.000000 0.697719 0.446174
1.000000 0.702296 0.472297
0.315099 0.613519 0.367193
0.318517 0.615473 0.369329
0.322362 0.617304 0.371283
0.327977 0.618280 0.373083
0.335241 0.618036 0.374426
0.343542 0.616297 0.375189
0.353338 0.613428 0.375952
0.364813 0.609857 0.377478
0.378180 0.606104 0.380652
0.393194 0.601862 0.385657
0.414862 0.596612 0.397925
0.438178 0.590478 0.413855
0.460426 0.583520 0.430549
0.476356 0.585107 0.437018
0.489143 0.599329 0.426703
0.508232 0.613092 0.414954
0.533837 0.626368 0.401556
0.566003 0.639124 0.386572
0.604517 0.651637 0.370459
0.649042 0.663905 0.353216
0.698695 0.675654 0.334386
0.746334 0.681209 0.321019
0.789212 0.683314 0.319493
0.831083 0.692531 0.324132
0.870085 0.698848 0.329808
0.905760 0.704097 0.344823
0.938231 0.709133 0.367071
0.968231 0.713588 0.389807
0.995666 0.717708 0.413153
1.000000 0.721584 0.437171
1.000000 0.725490 0.462379
1.000000 0.730007 0.489723
0.337407 0.639460 0.390661
0.340703 0.641382 0.392889
0.344488 0.643091 0.394965
0.349889 0.644007 0.396796
0.356878 0.643885 0.398383
0.364721 0.642267 0.399451
0.373846 0.639643 0.400397
0.384619 0.636378 0.402014
0.397253 0.632715 0.405097
0.411292 0.628626 0.409583
0.428229 0.624140 0.417548
0.450782 0.618372 0.432227
0.472297 0.612085 0.447700
0.492500 0.605249 0.463722
0.504143 0.613825 0.461433
0.518090 0.627893 0.451789
0.538262 0.641962 0.441260
0.564691 0.656031 0.429908
0.597650 0.670008 0.417365
0.636622 0.683925 0.404120
0.681147 0.697505 0.389654
0.730648 0.710567 0.373846
0.778927 0.717983 0.361608
0.821347 0.719448 0.362249
0.862272 0.729244 0.370062
0.899992 0.736080 0.378973
0.934569 0.741207 0.392523
0.965301 0.746822 0.417517
0.993133 0.751644 0.442084
1.000000 0.755856 0.467140
1.000000 0.759670 0.492836
1.000000 0.763912 0.520500
0.370703 0.674556 0.424994
0.372961 0.675288 0.426123
0.375311 0.675654 0.427039
0.379370 0.675349 0.427893
0.385077 0.674342 0.428779
0.392004 0.672450 0.429450
0.400580 0.669978 0.430640
0.410773 0.667109 0.432624
0.422827 0.664118 0.435859
0.436286 0.660792 0.440497
0.451026 0.657252 0.446723
0.470863 0.652552 0.458778
0.491554 0.646906 0.472999
0.511162 0.640620 0.487678
0.528527 0.635462 0.500755
0.537987 0.649042 0.492378
0.552697 0.662654 0.483375
0.573114 0.676326 0.473457
0.599451 0.689937 0.462867
0.631434 0.703304 0.451179
0.668910 0.716365 0.438575
0.711299 0.728847 0.424689
0.758114 0.740566 0.409461
0.804471 0.747738 0.396490
0.844968 0.747280 0.396704
0.884276 0.756985 0.405707
0.920775 0.764187 0.416358
0.954314 0.769345 0.428962
0.983642 0.775174 0.454475
1.000000 0.780117 0.480415
1.000000 0.784543 0.507286
1.000000 0.788968 0.535729
0.397192 0.700954 0.452125
0.399329 0.701686 0.453315
0.401740 0.702266 0.454444
0.405646 0.702052 0.455390
0.410773 0.701137 0.456306
0.417029 0.699306 0.457008
0.424598 0.696895 0.457954
0.433661 0.694118 0.459480
0.444373 0.691188 0.462196
0.456489 0.688014 0.466072
0.469947 0.684749 0.471412
0.485451 0.680873 0.479255
0.505272 0.675685 0.492287
0.524498 0.670130 0.505974
0.542718 0.664057 0.520073
0.555962 0.666224 0.525414
0.566979 0.679774 0.518029
0.582940 0.693446 0.509880
0.604303 0.707179 0.501305
0.630976 0.720882 0.492103
0.663050 0.734371 0.482155
0.700008 0.747463 0.471321
0.741451 0.760006 0.459541
0.786801 0.771633 0.446418
0.826780 0.773831 0.427039
0.866117 0.773739 0.428717
0.904326 0.782315 0.438575
0.939605 0.789975 0.451026
0.971710 0.795560 0.465614
0.999603 0.800961 0.489021
1.000000 0.806546 0.517876
1.000000 0.811582 0.547967
0.432258 0.735073 0.488167
0.434516 0.736049 0.489631
0.436500 0.736355 0.490517
0.439551 0.735866 0.491005
0.443641 0.734524 0.491249
0.448737 0.732509 0.491493
0.454871 0.729854 0.491768
0.462409 0.726711 0.492500
0.471168 0.723140 0.493812
0.481361 0.719600 0.496315
0.492531 0.715633 0.499733
0.504814 0.711604 0.504540
0.521660 0.706600 0.514458
0.539483 0.700740 0.526268
0.556329 0.694453 0.538293
0.572442 0.687678 0.550805
0.581811 0.695369 0.548241
0.593408 0.708034 0.540734
0.610163 0.721309 0.533257
0.632258 0.735042 0.525750
0.659480 0.748806 0.517784
0.691310 0.762142 0.509178
0.727230 0.774594 0.499367
0.766690 0.786007 0.488014
0.809262 0.796109 0.475135
0.852506 0.802976 0.461860
0.890440 0.803433 0.465187
0.926665 0.809934 0.475227
0.959930 0.817227 0.488991
0.990082 0.822995 0.505943
1.000000 0.828122 0.529076
1.000000 0.833677 0.560967
0.457771 0.760952 0.514885
0.459815 0.761898 0.516258
0.461707 0.762325 0.517113
0.464424 0.761898 0.517693
0.468116 0.760708 0.517906
0.472755 0.758938 0.518151
0.478614 0.756710 0.518608
0.485512 0.754116 0.519371
0.493874 0.751217 0.520928
0.503380 0.748287 0.523278
0.514000 0.745144 0.526604
0.525658 0.741878 0.531060
0.539208 0.738125 0.537865
0.556634 0.733272 0.549035
0.573571 0.727810 0.560571
0.589837 0.722072 0.572686
0.604730 0.717830 0.583642
0.613428 0.730282 0.577234
0.626642 0.743282 0.570855
0.644556 0.756619 0.564416
0.667140 0.769986 0.557916
0.694118 0.783108 0.550622
0.725032 0.795499 0.542657
0.759548 0.807004 0.533593
0.797330 0.817411 0.523339
0.837980 0.826719 0.511772
0.880217 0.833951 0.499397
0.916564 0.834562 0.504540
0.951171 0.839750 0.516503
0.982544 0.847288 0.533715
1.000000 0.852995 0.554498
1.000000 0.857450 0.579644
0.486244 0.790005 0.544884
0.487861 0.790646 0.545861
0.489174 0.790646 0.546288
0.491310 0.790005 0.546410
0.494209 0.788632 0.546380
0.498085 0.786770 0.546258
0.503044 0.784482 0.546319
0.509209 0.781918 0.546807
0.516686 0.779385 0.547997
0.525414 0.776791 0.550103
0.535180 0.774044 0.552972
0.546136 0.771420 0.557031
0.557794 0.768429 0.562005
0.573754 0.764370 0.571618
0.590387 0.759548 0.582666
0.606744 0.754238 0.594263
0.622553 0.748745 0.606500
0.634394 0.750912 0.611261
0.644465 0.763363 0.605585
0.658717 0.776242 0.600000
0.677241 0.789242 0.594354
0.699855 0.801999 0.588342
0.726162 0.814206 0.581598
0.756039 0.825650 0.573999
0.789059 0.836118 0.565362
0.825040 0.845609 0.555810
0.863890 0.854185 0.545342
0.905272 0.861906 0.534173
0.939727 0.862608 0.541192
0.972473 0.866453 0.555810
1.000000 0.873686 0.576806
1.000000 0.879026 0.601740
0.512261 0.817014 0.572595
0.513481 0.817380 0.573236
0.514672 0.817441 0.573632
0.516747 0.816953 0.573877
0.519738 0.816068 0.574121
0.524071 0.815122 0.574853
0.529839 0.814328 0.576196
0.537011 0.813687 0.578363
0.545800 0.813077 0.581384
0.555779 0.812619 0.585321
0.566857 0.812070 0.590082
0.578912 0.811246 0.595666
0.591516 0.809964 0.601923
0.605707 0.807797 0.609949
0.623102 0.804410 0.621668
0.639643 0.800168 0.633265
0.655695 0.795529 0.645258
0.671443 0.790860 0.657984
0.681147 0.799039 0.657343
0.692164 0.811154 0.652613
0.706905 0.823331 0.647883
0.725216 0.835294 0.642756
0.746853 0.846708 0.637110
0.771695 0.857420 0.630701
0.799588 0.867277 0.623560
0.830564 0.876463 0.615869
0.864286 0.884916 0.607691
0.900572 0.892454 0.598810
0.939055 0.899168 0.589593
0.970642 0.899474 0.598505
0.998657 0.900816 0.616480
1.000000 0.906249 0.641871
0.551110 0.854856 0.613092
0.552056 0.854978 0.613519
0.552880 0.854765 0.613550
0.554467 0.854063 0.613581
0.556878 0.852995 0.613519
0.560388 0.851682 0.613733
0.565118 0.850340 0.614435
0.571038 0.848966 0.615656
0.578302 0.847684 0.617670
0.586755 0.846311 0.620447
0.596216 0.844846 0.623865
0.606592 0.843229 0.628107
0.617670 0.841306 0.633021
0.629236 0.838956 0.638605
