data/fiter_cube/28334299/1023164/file.cube
# Created by Adobe Lightroom plugin Export LUT (1.17.0)
# www.johnrellis.com/lightroom/exportlut.htm
# Preset: 梦幻人像_03 云集
# Color profile: C:\Program Files (x86)\Common Files\Adobe\Color\Profiles\Recommended\AdobeRGB1998.icc
LUT_3D_SIZE 5
DOMAIN_MIN 0.000000 0.000000 0.000000
DOMAIN_MAX 0.903226 0.903226 0.903226
0.000000 0.000000 0.000000
0.268742 0.000000 0.000000
0.605768 0.000000 0.000000
0.865660 0.129091 0.067170
1.000000 0.230594 0.185611
0.100191 0.198795 0.108949
0.225834 0.220157 0.093690
0.593408 0.281376 0.001007
0.855467 0.300481 0.107576
1.000000 0.345342 0.222293
0.216922 0.442969 0.249638
0.273747 0.421546 0.253391
0.508263 0.514672 0.230076
0.830442 0.557000 0.218662
1.000000 0.562005 0.315740
0.370703 0.674556 0.424994
0.410773 0.667109 0.432624
0.528527 0.635462 0.500755
0.711299 0.728847 0.424689
0.983642 0.775174 0.454475
0.581140 0.882078 0.643793
0.600763 0.877653 0.647669
0.654444 0.854704 0.662074
0.756558 0.871366 0.713863
0.914458 0.933867 0.683101
0.000000 0.033997 0.174960
0.226535 0.000000 0.202640
0.560876 0.000000 0.215213
0.827451 0.000000 0.217594
1.000000 0.198703 0.268650
0.000000 0.210727 0.201114
0.234653 0.219638 0.208194
0.567224 0.232547 0.215427
0.823636 0.262943 0.235630
1.000000 0.323888 0.292241
0.164309 0.457221 0.281254
0.283085 0.448341 0.295354
0.488045 0.490730 0.277195
0.811704 0.540826 0.307652
1.000000 0.562341 0.385412
0.358312 0.682612 0.444862
0.419226 0.677028 0.461006
0.532189 0.643885 0.511070
0.708614 0.724575 0.457252
0.981689 0.774472 0.493416
0.579980 0.886442 0.655787
0.599817 0.881956 0.658137
0.667323 0.870481 0.681819
0.765835 0.874632 0.733425
0.917937 0.936492 0.702052
0.000000 0.062867 0.443366
0.227878 0.000000 0.452003
0.487678 0.000000 0.468391
0.762081 0.000000 0.466163
1.000000 0.079408 0.471870
0.000000 0.211002 0.463661
0.187594 0.165713 0.471717
0.501823 0.000000 0.483558
0.767056 0.141146 0.464637
1.000000 0.301335 0.491127
0.000000 0.480140 0.477363
0.146181 0.485267 0.481941
0.496437 0.487129 0.477943
0.776761 0.525811 0.514000
0.999786 0.556909 0.542565
0.137087 0.705043 0.496529
0.277989 0.699184 0.500145
0.537499 0.682765 0.556115
0.709438 0.720607 0.555108
0.980743 0.775753 0.611902
0.486732 0.894957 0.653742
0.535637 0.894835 0.667231
0.661006 0.887602 0.707515
0.771878 0.861357 0.766415
0.914733 0.931334 0.733547
0.000000 0.120333 0.696864
0.200656 0.000000 0.696986
0.445716 0.000000 0.698787
0.704372 0.000000 0.701320
0.944152 0.000000 0.682185
0.000000 0.187442 0.702388
0.174868 0.155734 0.702968
0.432197 0.000000 0.706905
0.704402 0.000000 0.701503
0.942901 0.000000 0.678187
0.151980 0.472084 0.705959
0.273655 0.475990 0.709529
0.419409 0.411109 0.713832
0.707271 0.309758 0.704646
0.956298 0.434241 0.691188
0.000000 0.701961 0.709102
0.144717 0.702235 0.708766
0.440192 0.708492 0.712123
0.703243 0.704372 0.701503
0.970611 0.753567 0.749599
0.147646 0.924071 0.714809
0.282658 0.922881 0.718837
0.513054 0.919799 0.736599
0.766415 0.902983 0.795560
0.918761 0.930846 0.806302
0.000000 0.261967 0.913603
0.143008 0.220829 0.914549
0.405402 0.000000 0.916655
0.650568 0.000000 0.917296
0.911772 0.000000 0.916320
0.000000 0.256809 0.914122
0.158175 0.216342 0.915038
0.403082 0.000000 0.917266
0.640558 0.000000 0.918639
0.912810 0.000000 0.917327
0.171817 0.466865 0.915557
0.211429 0.444099 0.918273
0.372168 0.368261 0.921935
0.608637 0.129976 0.924559
0.918669 0.000000 0.923125
0.315648 0.702144 0.912749
0.370764 0.703365 0.913909
0.520348 0.709438 0.919524
0.640528 0.643854 0.929931
0.926787 0.549859 0.930846
0.203830 0.906706 0.918151
0.277287 0.908324 0.919280
0.450690 0.915099 0.924407
0.683619 0.925383 0.931090
0.926421 0.929229 0.929625
