data/fiter_cube/55192441/1023189/file.cube
# Created by Adobe Lightroom plugin Export LUT (1.17.0)
# www.johnrellis.com/lightroom/exportlut.htm
# Preset: 清新轻盈通透人像_07 云集
# Color profile: C:\Program Files (x86)\Common Files\Adobe\Color\Profiles\Recommended\AdobeRGB1998.icc
LUT_3D_SIZE 8
DOMAIN_MIN 0.000000 0.000000 0.000000
DOMAIN_MAX 0.903226 0.903226 0.903226
0.000000 0.000000 0.000000
0.165225 0.000000 0.000000
0.521569 0.000000 0.000000
0.717037 0.000000 0.000000
0.831632 0.000000 0.000000
0.934081 0.000000 0.000000
1.000000 0.130007 0.132753
1.000000 0.221866 0.223239
0.000000 0.169467 0.000000
0.179202 0.181003 0.000000
0.505852 0.235599 0.000000
0.702968 0.201480 0.000000
0.820615 0.160769 0.000000
0.921691 0.157290 0.000000
1.000000 0.198367 0.121950
1.000000 0.254826 0.216526
0.000000 0.526787 0.000000
0.196780 0.523430 0.000000
0.502892 0.507561 0.000000
0.700313 0.452979 0.000000
0.820462 0.395239 0.000000
0.922423 0.369451 0.032380
1.000000 0.375311 0.197696
1.000000 0.389105 0.270115
0.000000 0.710475 0.000000
0.000000 0.705745 0.000000
0.412970 0.695094 0.000000
0.682765 0.688960 0.000000
0.834257 0.624842 0.000000
0.924163 0.571160 0.197208
0.999237 0.540703 0.264134
1.000000 0.522698 0.311406
0.000000 0.826505 0.000000
0.000000 0.823972 0.000000
0.351049 0.818418 0.000000
0.579980 0.810483 0.000000
0.782986 0.789517 0.117556
0.903288 0.732479 0.227756
0.981598 0.685756 0.304387
1.000000 0.655116 0.354650
0.000000 0.911345 0.151919
0.170626 0.915068 0.171023
0.350958 0.910124 0.174044
0.524590 0.902525 0.182223
0.700710 0.887541 0.224735
0.863828 0.870542 0.286290
0.972869 0.829343 0.348211
1.000000 0.783780 0.396765
0.237797 0.981323 0.292912
0.279728 0.981262 0.296269
0.378576 0.976715 0.293614
0.507012 0.970642 0.295537
0.641474 0.961486 0.296544
0.791440 0.948547 0.336126
0.928466 0.935180 0.378973
1.000000 0.899962 0.418097
0.338567 1.000000 0.379706
0.358373 1.000000 0.379217
0.422675 1.000000 0.380255
0.519158 1.000000 0.387274
0.614710 1.000000 0.367895
0.737026 1.000000 0.385473
0.864530 0.999054 0.422522
0.979828 0.986572 0.451148
0.000000 0.000000 0.167880
0.167636 0.000000 0.167727
0.503593 0.000000 0.189303
0.701381 0.000000 0.168917
0.815946 0.000000 0.187198
0.911772 0.152804 0.230137
0.991608 0.233829 0.277256
1.000000 0.289769 0.318242
0.000000 0.173556 0.173739
0.170413 0.170413 0.170413
0.502068 0.164736 0.165133
0.695705 0.166690 0.167422
0.810666 0.187289 0.188052
0.905638 0.228550 0.229496
0.983948 0.268681 0.269657
1.000000 0.308141 0.308934
0.000000 0.513390 0.194522
0.000000 0.516197 0.066102
0.496101 0.500389 0.104311
0.688533 0.446357 0.179812
0.805417 0.406653 0.213138
0.901946 0.395514 0.256779
0.983795 0.401007 0.299992
1.000000 0.414740 0.339971
0.000000 0.698207 0.132998
0.000000 0.696803 0.021546
0.402930 0.689174 0.000000
0.665492 0.670832 0.159304
0.802914 0.608270 0.243015
0.894743 0.566918 0.298375
0.975708 0.543572 0.332036
1.000000 0.532128 0.364141
0.000000 0.817807 0.215488
0.099886 0.815640 0.180941
0.364385 0.808164 0.177798
0.574762 0.796048 0.193729
0.767788 0.773648 0.255070
0.886442 0.724178 0.313664
0.967773 0.686366 0.368200
1.000000 0.660334 0.402380
0.148684 0.901305 0.270787
0.220371 0.900359 0.270451
0.368109 0.896239 0.270817
0.530083 0.890837 0.276890
0.699550 0.879210 0.306676
0.859342 0.865568 0.356939
0.965240 0.827176 0.402319
1.000000 0.784573 0.436316
0.271885 0.971344 0.344854
0.300572 0.969390 0.341772
0.391821 0.966064 0.341131
0.515496 0.962280 0.346563
0.646082 0.955383 0.350286
0.789975 0.942748 0.380011
0.922148 0.928618 0.411810
1.000000 0.894438 0.441321
0.360296 1.000000 0.413855
0.380285 1.000000 0.415198
0.440192 1.000000 0.416846
0.531670 1.000000 0.423651
0.633875 1.000000 0.426246
0.745449 1.000000 0.431983
0.865965 0.997406 0.455085
0.977935 0.984466 0.475563
0.000000 0.000000 0.515099
0.229099 0.000000 0.510765
0.501884 0.000000 0.501976
0.693721 0.000000 0.452918
0.802426 0.259648 0.451911
0.894377 0.402380 0.503685
0.975433 0.439582 0.516533
1.000000 0.462745 0.524041
0.000000 0.171145 0.520439
0.136019 0.135866 0.513542
0.498085 0.143313 0.498207
0.683192 0.244999 0.460334
0.793973 0.351324 0.469734
0.888457 0.424384 0.500633
0.970367 0.450629 0.510124
1.000000 0.471901 0.519585
0.000000 0.511345 0.511315
0.000000 0.508263 0.508385
0.490822 0.490822 0.490822
0.669734 0.491096 0.491249
0.790799 0.500969 0.501030
0.886473 0.508232 0.508354
0.967376 0.515801 0.515984
1.000000 0.523613 0.523827
0.000000 0.698634 0.442359
0.126436 0.695125 0.446052
0.450416 0.684535 0.458595
0.668299 0.671260 0.479744
0.790097 0.640497 0.510826
0.882597 0.623316 0.521050
0.963714 0.613184 0.528496
1.000000 0.605859 0.535058
0.105165 0.812741 0.425879
0.261540 0.809384 0.440955
0.450324 0.801053 0.464118
0.605615 0.795071 0.461799
0.772610 0.776730 0.490394
0.876707 0.740383 0.512078
0.955322 0.718318 0.536675
1.000000 0.700252 0.546288
0.281163 0.895293 0.448493
0.349371 0.892760 0.465064
0.459388 0.887175 0.477241
0.576196 0.881529 0.474525
0.713832 0.871794 0.482094
0.854643 0.859556 0.510277
0.952819 0.830472 0.535088
1.000000 0.802792 0.560021
0.385687 0.966400 0.493599
0.423743 0.963684 0.505364
0.478462 0.959930 0.499092
0.567926 0.955230 0.496529
0.674769 0.948882 0.493812
0.801083 0.939147 0.510338
0.923674 0.929107 0.535576
1.000000 0.901518 0.556939
0.458442 1.000000 0.536400
0.479805 1.000000 0.542535
0.504814 1.000000 0.526909
0.581903 1.000000 0.534783
0.666804 1.000000 0.533532
0.763912 1.000000 0.534997
0.874449 0.995361 0.552026
0.978485 0.984222 0.567254
0.000000 0.000000 0.687129
0.183810 0.000000 0.686946
0.433417 0.000000 0.676875
0.668757 0.000000 0.668757
0.791684 0.262242 0.614069
0.883085 0.395361 0.608057
0.957855 0.479591 0.623102
1.000000 0.540002 0.644190
0.000000 0.140719 0.694087
0.143282 0.143984 0.691249
0.439673 0.176822 0.678309
0.667597 0.242069 0.667567
0.788022 0.355383 0.621363
0.877562 0.442145 0.615717
0.953033 0.507134 0.629267
1.000000 0.557641 0.648798
0.000000 0.442939 0.692592
0.192813 0.450416 0.690455
0.472511 0.472358 0.674281
0.661219 0.489265 0.661189
0.778958 0.528649 0.643061
0.872709 0.566674 0.649622
0.953704 0.601007 0.664759
1.000000 0.609979 0.663844
0.000000 0.680415 0.680537
0.229709 0.678950 0.678981
0.479835 0.673152 0.673274
0.660334 0.660334 0.660334
0.769406 0.660761 0.660792
0.862974 0.661250 0.661280
0.945800 0.662684 0.662745
1.000000 0.663722 0.663813
0.229923 0.810086 0.623957
0.319646 0.805356 0.626520
0.492897 0.794339 0.637110
0.642206 0.785214 0.646540
0.772671 0.774685 0.652735
0.864683 0.757168 0.663996
0.943847 0.747524 0.668482
1.000000 0.736690 0.667659
0.341253 0.894896 0.600397
0.401556 0.895842 0.612726
0.521111 0.886290 0.631189
0.633417 0.878141 0.641474
0.737057 0.872557 0.637171
0.856565 0.859831 0.649928
0.943755 0.837766 0.659266
1.000000 0.820523 0.673060
0.415717 0.963073 0.600519
0.451331 0.961669 0.609094
0.544060 0.956481 0.632471
0.629297 0.952056 0.640620
0.714473 0.947112 0.636713
0.816953 0.938903 0.639124
0.924254 0.928435 0.650416
1.000000 0.904479 0.659998
0.485664 1.000000 0.620172
0.509850 1.000000 0.627588
0.574182 1.000000 0.645808
0.633631 1.000000 0.647364
0.703090 1.000000 0.644251
0.784726 1.000000 0.641474
0.882841 0.992767 0.650752
0.978607 0.983337 0.661524
0.000000 0.000000 0.796963
0.145296 0.000000 0.796292
0.380682 0.000000 0.789029
0.586419 0.139590 0.775265
0.773770 0.275853 0.773800
0.873503 0.396002 0.732967
0.950591 0.478218 0.718227
1.000000 0.538476 0.718563
0.000000 0.164492 0.798886
0.178012 0.178836 0.798642
0.403632 0.220829 0.790372
0.595727 0.285313 0.774136
0.771878 0.358099 0.771939
0.870787 0.443641 0.736049
0.948363 0.508934 0.723293
1.000000 0.557671 0.722560
0.243168 0.444007 0.799222
0.335424 0.461311 0.796048
0.475074 0.475105 0.786465
0.624537 0.494759 0.773465
0.765286 0.515435 0.765286
0.859159 0.551232 0.740414
0.939727 0.583459 0.733059
1.000000 0.609033 0.730861
0.278386 0.621027 0.797574
0.353979 0.626307 0.796017
0.512383 0.642237 0.792325
0.652216 0.652216 0.776974
0.762570 0.652552 0.762600
0.853391 0.662745 0.750942
0.933654 0.674983 0.748623
1.000000 0.688411 0.750027
0.321172 0.786038 0.786130
0.381994 0.785367 0.785428
0.518273 0.781369 0.781399
0.647822 0.774166 0.774197
0.758053 0.758053 0.758053
0.846769 0.756893 0.756924
0.927855 0.756649 0.756710
0.997467 0.755581 0.755612
0.378820 0.880949 0.735714
0.420478 0.878660 0.737331
0.524254 0.870329 0.740444
0.634821 0.861692 0.743221
0.735897 0.853422 0.739345
0.846983 0.848692 0.747219
0.929931 0.839445 0.759152
0.996216 0.831540 0.762936
0.444984 0.956023 0.713710
0.472816 0.953887 0.716609
0.550195 0.948486 0.725490
0.643397 0.942840 0.735592
0.732387 0.937713 0.738796
0.819821 0.932952 0.734768
0.919677 0.922576 0.742306
0.993011 0.902220 0.745235
0.495430 1.000000 0.703822
0.515099 1.000000 0.707118
0.572503 1.000000 0.716518
0.658717 1.000000 0.735775
0.731319 0.999817 0.740078
0.802060 0.995270 0.735683
0.887419 0.988403 0.737728
0.976135 0.979797 0.744900
0.000000 0.000000 0.887297
0.156008 0.000000 0.886229
0.360418 0.103487 0.880125
0.548882 0.231144 0.872648
0.711971 0.328252 0.861112
0.857359 0.402319 0.857389
0.943328 0.480262 0.824796
1.000000 0.539940 0.805905
0.124971 0.209812 0.882902
0.221164 0.221958 0.881407
0.391058 0.262028 0.876127
0.561975 0.323949 0.868589
0.713466 0.385718 0.856291
0.853635 0.441352 0.853666
0.940063 0.506065 0.824399
1.000000 0.556268 0.806729
0.359838 0.472999 0.882811
0.392584 0.476112 0.881315
0.487678 0.487739 0.876707
0.609583 0.506554 0.868620
0.729671 0.526116 0.854765
0.851194 0.549554 0.851194
0.935698 0.582757 0.828489
1.000000 0.611475 0.813077
0.411505 0.617060 0.887999
0.450782 0.623285 0.885405
0.554772 0.643732 0.878965
0.656428 0.656428 0.872709
0.752529 0.658808 0.860472
0.853574 0.662135 0.853574
0.933623 0.676631 0.836637
0.999359 0.690974 0.824979
0.425727 0.741207 0.876951
0.462135 0.744228 0.876432
0.556451 0.752224 0.874693
0.661250 0.759640 0.872374
0.757565 0.757534 0.858610
0.844694 0.751797 0.844694
0.923491 0.758297 0.835843
0.990387 0.765774 0.831601
0.443244 0.864591 0.864683
0.476478 0.865385 0.865476
0.557366 0.863981 0.864012
0.653346 0.860807 0.860807
0.749966 0.853819 0.853819
0.841245 0.841215 0.841245
0.920012 0.843076 0.843107
0.986450 0.843046 0.843076
0.487617 0.952911 0.833616
0.511620 0.952209 0.834897
0.574090 0.947845 0.835416
0.657893 0.941985 0.836576
0.747860 0.934905 0.837644
0.833188 0.927459 0.835874
0.918486 0.919951 0.835325
0.984405 0.908354 0.839872
0.520531 1.000000 0.801877
0.536278 1.000000 0.802884
0.585534 1.000000 0.806271
0.660609 1.000000 0.813657
0.745327 0.994293 0.822965
0.824247 0.988617 0.829191
0.894621 0.984527 0.826627
0.974548 0.976959 0.830533
0.090425 0.093812 0.950530
0.193118 0.124086 0.950713
0.355962 0.192569 0.947875
0.519890 0.277043 0.942962
0.668788 0.353582 0.934661
0.800778 0.417304 0.925933
0.922423 0.470100 0.922423
0.998322 0.526635 0.893095
0.198184 0.245151 0.946471
0.257572 0.258213 0.946441
0.388617 0.293767 0.943694
0.534264 0.344427 0.938262
0.672847 0.397925 0.929992
0.798581 0.445441 0.920836
0.917205 0.487922 0.917205
0.993805 0.534905 0.889128
0.385229 0.470558 0.944976
0.410010 0.473732 0.944152
0.484291 0.484413 0.940948
0.587793 0.502464 0.935851
0.697993 0.522210 0.927581
0.806638 0.543572 0.918517
0.917144 0.566766 0.917174
0.993194 0.596246 0.893706
0.479255 0.618158 0.945129
0.503929 0.623926 0.943359
0.567987 0.636591 0.939391
0.641199 0.641199 0.935210
0.726558 0.644373 0.927886
0.817350 0.647944 0.918517
0.917967 0.657343 0.917998
0.990387 0.674403 0.897765
0.487678 0.716548 0.941741
0.510002 0.719448 0.940764
0.575494 0.728664 0.938933
0.660578 0.739284 0.934569
0.742184 0.742153 0.926787
0.822293 0.738399 0.916075
0.912139 0.740230 0.912139
0.984161 0.753933 0.899199
0.499184 0.821164 0.934539
0.519860 0.822507 0.934295
0.579919 0.826169 0.933593
0.663508 0.831907 0.932952
0.755856 0.838621 0.931609
0.838560 0.838499 0.922911
0.912993 0.832395 0.912993
0.979339 0.837827 0.904814
0.515221 0.928923 0.928985
0.533593 0.929229 0.929290
0.587579 0.928740 0.928832
0.665614 0.928069 0.928130
0.751949 0.925597 0.925628
0.836759 0.921172 0.921202
0.910277 0.910246 0.910277
0.974823 0.910704 0.910735
0.534234 1.000000 0.898405
0.548791 1.000000 0.898466
0.600031 1.000000 0.900511
0.670619 0.996765 0.901610
0.751736 0.990845 0.903136
0.834318 0.984497 0.906584
0.907561 0.978668 0.909545
0.972412 0.973541 0.907744
0.164981 0.166659 0.999878
0.223392 0.183383 0.999725
0.349279 0.227848 0.997498
0.491676 0.293706 0.994568
0.628626 0.360388 0.990143
0.754177 0.418830 0.984466
0.870054 0.469429 0.980346
0.977478 0.509941 0.977478
0.237827 0.269596 0.997436
0.279271 0.279973 0.997284
0.382452 0.308049 0.995300
0.509270 0.352209 0.992187
0.637110 0.402045 0.987945
0.757046 0.448096 0.982452
0.869352 0.488991 0.978088
0.975463 0.523125 0.975463
0.384649 0.455207 0.992737
0.405859 0.458930 0.992401
0.467964 0.468116 0.990265
0.563989 0.490944 0.988739
0.666346 0.512657 0.984741
0.769528 0.534081 0.979278
0.872038 0.555901 0.975189
0.973510 0.574701 0.973541
0.499702 0.607965 0.988495
0.513146 0.609796 0.988342
0.552972 0.612268 0.986816
0.618891 0.618921 0.984894
0.698817 0.626001 0.981842
0.785214 0.631556 0.977386
0.876371 0.637812 0.973297
0.972412 0.647730 0.972412
0.514183 0.693782 0.987243
0.532403 0.697841 0.987030
0.581842 0.706416 0.985199
0.652827 0.718807 0.982574
0.719448 0.719417 0.979309
0.796109 0.719905 0.974914
0.879118 0.721218 0.969970
0.970489 0.731655 0.970489
0.522850 0.783902 0.983673
0.537072 0.785092 0.983185
0.582605 0.789242 0.982055
0.653254 0.797330 0.980896
0.738399 0.809415 0.978485
0.816800 0.816770 0.975067
0.890806 0.817685 0.971374
0.971252 0.824582 0.971252
0.536645 0.879820 0.980163
0.549615 0.880217 0.979858
0.592309 0.881743 0.979065
0.661799 0.885710 0.978332
0.746365 0.892210 0.977508
0.834653 0.901976 0.976898
0.907591 0.907530 0.973754
0.968414 0.901549 0.968414
0.557671 0.977630 0.977661
0.569512 0.977386 0.977417
0.610407 0.976928 0.976989
0.677028 0.976562 0.976593
0.756344 0.975891 0.975921
0.837339 0.974853 0.974853
0.910887 0.973083 0.973114
0.967071 0.967041 0.967071
