data/fiter_cube/55192441/1023189/file.cube
# Created by Adobe Lightroom plugin Export LUT (1.17.0)
# www.johnrellis.com/lightroom/exportlut.htm
# Preset: 清新轻盈通透人像_07 云集
# Color profile: C:\Program Files (x86)\Common Files\Adobe\Color\Profiles\Recommended\AdobeRGB1998.icc
LUT_3D_SIZE 5
DOMAIN_MIN 0.000000 0.000000 0.000000
DOMAIN_MAX 0.903226 0.903226 0.903226
0.000000 0.000000 0.000000
0.451453 0.000000 0.000000
0.779171 0.000000 0.000000
0.957458 0.000000 0.000000
1.000000 0.221866 0.223239
0.000000 0.462379 0.000000
0.445380 0.449653 0.000000
0.765774 0.363226 0.000000
0.949248 0.322210 0.084199
1.000000 0.360967 0.266239
0.000000 0.770626 0.000000
0.308843 0.762661 0.000000
0.740108 0.746456 0.000000
0.933440 0.641382 0.236301
1.000000 0.588342 0.330632
0.113069 0.933654 0.206882
0.318364 0.930785 0.214054
0.599756 0.918181 0.226627
0.882017 0.888701 0.314702
1.000000 0.813077 0.401068
0.338567 1.000000 0.379706
0.402564 1.000000 0.379278
0.557855 1.000000 0.365057
0.770016 1.000000 0.395178
0.979828 0.986572 0.451148
0.000000 0.000000 0.442481
0.436439 0.000000 0.436408
0.752865 0.145357 0.392279
0.916838 0.359319 0.446296
1.000000 0.415473 0.470100
0.000000 0.449042 0.448951
0.430488 0.430488 0.430488
0.737819 0.430854 0.430854
0.912474 0.452918 0.453193
1.000000 0.478370 0.478645
0.000000 0.759823 0.365545
0.372808 0.748196 0.388830
0.719783 0.724056 0.419928
0.901793 0.665187 0.477821
1.000000 0.640833 0.506798
0.322271 0.922637 0.441932
0.432868 0.919341 0.454658
0.636530 0.908965 0.452064
0.878080 0.883482 0.487587
1.000000 0.824765 0.530724
0.455787 1.000000 0.521782
0.482887 1.000000 0.507103
0.613672 1.000000 0.508110
0.789548 1.000000 0.516014
0.980285 0.986206 0.551110
0.000000 0.000000 0.745815
0.345281 0.000000 0.738766
0.721920 0.164340 0.721950
0.899016 0.419867 0.667903
1.000000 0.539239 0.679561
0.099886 0.381933 0.750057
0.410803 0.410834 0.738247
0.719417 0.456458 0.719417
0.887877 0.537346 0.685786
1.000000 0.600824 0.696925
0.212772 0.736629 0.736660
0.449439 0.731258 0.731289
0.711238 0.711238 0.711238
0.875242 0.711940 0.711971
1.000000 0.713039 0.713100
0.384039 0.909606 0.666682
0.499062 0.900603 0.678340
0.688258 0.889189 0.694514
0.872496 0.875273 0.701503
0.999847 0.842313 0.713405
0.485847 1.000000 0.657801
0.555077 1.000000 0.675166
0.682490 1.000000 0.693568
0.812222 0.996399 0.685512
0.976471 0.980743 0.699702
0.000000 0.000000 0.901030
0.307744 0.094026 0.897856
0.621973 0.289464 0.885557
0.873075 0.419440 0.873136
1.000000 0.534203 0.825803
0.316747 0.412970 0.897642
0.429084 0.429206 0.893919
0.653101 0.474769 0.880461
0.867247 0.524620 0.867247
1.000000 0.586053 0.827878
0.426703 0.668330 0.895903
0.528740 0.684260 0.893523
0.697780 0.697719 0.877409
0.857298 0.693111 0.857298
0.990784 0.717433 0.839872
0.470771 0.884520 0.884581
0.544488 0.881773 0.881834
0.702571 0.876860 0.876890
0.859129 0.859098 0.859129
0.982086 0.858244 0.858274
0.525292 1.000000 0.825986
0.575708 1.000000 0.829252
0.706874 0.997284 0.840330
0.848783 0.986694 0.852811
0.973693 0.975799 0.849851
0.164981 0.166659 0.999878
0.314977 0.214145 0.998138
0.561456 0.327825 0.992584
0.783871 0.432380 0.983032
0.977478 0.509941 0.977478
0.351354 0.412146 0.994507
0.426307 0.426551 0.992889
0.603845 0.469764 0.988067
0.792691 0.517418 0.978973
0.974701 0.561608 0.974701
0.509361 0.650996 0.987732
0.563073 0.663172 0.985718
0.669551 0.669551 0.981384
0.809201 0.672053 0.973541
0.971069 0.687709 0.971069
0.530175 0.809354 0.983642
0.574884 0.812802 0.982513
0.700649 0.826444 0.980499
0.840177 0.840146 0.974304
0.970733 0.844999 0.970733
0.557671 0.977630 0.977661
0.597314 0.977050 0.977081
0.715969 0.976287 0.976349
0.856840 0.974517 0.974548
0.967071 0.967041 0.967071
