data/fiter_cube/55192441/1023189/file.cube
# Created by Adobe Lightroom plugin Export LUT (1.17.0)
# www.johnrellis.com/lightroom/exportlut.htm
# Preset: 清新轻盈通透人像_07 云集
# Color profile: C:\Program Files (x86)\Common Files\Adobe\Color\Profiles\Recommended\AdobeRGB1998.icc
LUT_3D_SIZE 32
DOMAIN_MIN 0.0 0.0 0.0
DOMAIN_MAX 1.0 1.0 1.0
0.000000 0.000000 0.000000
0.012207 0.000000 0.000000
0.048371 0.000000 0.000000
0.089143 0.000000 0.000000
0.165225 0.000000 0.000000
0.268070 0.000000 0.000000
0.367681 0.000000 0.000000
0.451453 0.000000 0.000000
0.521569 0.000000 0.000000
0.581140 0.000000 0.000000
0.632746 0.000000 0.000000
0.677943 0.000000 0.000000
0.717037 0.000000 0.000000
0.750332 0.000000 0.000000
0.779171 0.000000 0.000000
0.806119 0.000000 0.000000
0.831632 0.000000 0.000000
0.855924 0.000000 0.000000
0.878782 0.000000 0.000000
0.907652 0.000000 0.000000
0.934081 0.000000 0.000000
0.957458 0.000000 0.000000
0.977905 0.039033 0.054566
0.996155 0.099153 0.102907
1.000000 0.130007 0.132753
1.000000 0.155581 0.157900
1.000000 0.178744 0.180453
1.000000 0.200534 0.201968
1.000000 0.221866 0.223239
1.000000 0.243412 0.244541
1.000000 0.265049 0.266178
1.000000 0.286839 0.287846
0.000000 0.012024 0.000000
0.011261 0.014618 0.000000
0.048035 0.014374 0.000000
0.089052 0.017700 0.000000
0.164340 0.032380 0.000000
0.265660 0.050599 0.000000
0.364385 0.042512 0.000000
0.447547 0.013947 0.000000
0.517540 0.000000 0.000000
0.577264 0.000000 0.000000
0.628870 0.000000 0.000000
0.674067 0.000000 0.000000
0.713375 0.000000 0.000000
0.746883 0.000000 0.000000
0.775784 0.000000 0.000000
0.802701 0.000000 0.000000
0.828183 0.000000 0.000000
0.852537 0.000000 0.000000
0.875486 0.000000 0.000000
0.903990 0.000000 0.000000
0.929931 0.000000 0.000000
0.953094 0.000000 0.000000
0.973632 0.063844 0.021729
0.992096 0.103365 0.092500
1.000000 0.131594 0.123873
1.000000 0.155520 0.149905
1.000000 0.177035 0.172641
1.000000 0.199039 0.195346
1.000000 0.219547 0.216526
1.000000 0.240635 0.238224
1.000000 0.261662 0.259648
1.000000 0.283238 0.281437
0.000000 0.047791 0.000000
0.010346 0.049256 0.000000
0.047364 0.049073 0.000000
0.088869 0.057710 0.000000
0.163699 0.077821 0.000000
0.263828 0.096925 0.000000
0.361120 0.105257 0.000000
0.443946 0.103426 0.000000
0.513970 0.095766 0.000000
0.573907 0.082765 0.000000
0.625727 0.065736 0.000000
0.671138 0.027008 0.000000
0.710750 0.000000 0.000000
0.744533 0.000000 0.000000
0.773556 0.000000 0.000000
0.800534 0.000000 0.000000
0.825986 0.000000 0.000000
0.850370 0.000000 0.000000
0.873533 0.000000 0.000000
0.902007 0.000000 0.000000
0.927672 0.000000 0.000000
0.950774 0.042176 0.000000
0.971313 0.089998 0.011322
0.989899 0.117830 0.088167
1.000000 0.141848 0.120729
1.000000 0.162539 0.146487
1.000000 0.182650 0.169619
1.000000 0.202914 0.192325
1.000000 0.222690 0.213779
1.000000 0.242985 0.235508
1.000000 0.263188 0.256992
1.000000 0.284031 0.278630
0.000000 0.090669 0.000000
0.011292 0.092042 0.000000
0.055207 0.093599 0.000000
0.095338 0.096315 0.000000
0.166232 0.121340 0.000000
0.264775 0.151125 0.000000
0.360327 0.167330 0.000000
0.442145 0.171695 0.000000
0.511406 0.168582 0.000000
0.571160 0.161440 0.000000
0.622766 0.152132 0.000000
0.668086 0.141176 0.000000
0.707729 0.129397 0.000000
0.741604 0.117006 0.000000
0.770779 0.104005 0.000000
0.797757 0.091646 0.000000
0.823270 0.080781 0.000000
0.847593 0.073671 0.000000
0.871855 0.071626 0.000000
0.898985 0.080140 0.000000
0.923796 0.093416 0.000000
0.946532 0.110445 0.000000
0.967346 0.129030 0.000000
0.986542 0.147402 0.085512
1.000000 0.165194 0.118990
1.000000 0.182925 0.146731
1.000000 0.200504 0.170871
1.000000 0.218936 0.194217
1.000000 0.236759 0.215763
1.000000 0.254826 0.237003
1.000000 0.272892 0.257511
1.000000 0.291173 0.277836
0.000000 0.169467 0.000000
0.000000 0.171298 0.000000
0.069520 0.173373 0.000000
0.122225 0.176974 0.000000
0.179202 0.181003 0.000000
0.262913 0.205997 0.000000
0.356390 0.228580 0.000000
0.436927 0.236637 0.000000
0.505852 0.235599 0.000000
0.565423 0.230411 0.000000
0.617304 0.221897 0.000000
0.662867 0.212070 0.000000
0.702968 0.201480 0.000000
0.737331 0.190646 0.000000
0.767086 0.179507 0.000000
0.794553 0.169711 0.000000
0.820615 0.160769 0.000000
0.845335 0.154452 0.000000
0.871336 0.151522 0.000000
0.897581 0.152743 0.000000
0.921691 0.157290 0.000000
0.944060 0.164736 0.000000
0.964721 0.174502 0.010193
0.983978 0.186130 0.088441
1.000000 0.198367 0.121950
1.000000 0.211582 0.148989
1.000000 0.225498 0.172854
1.000000 0.239841 0.195315
1.000000 0.254826 0.216526
1.000000 0.270420 0.237247
1.000000 0.286168 0.257450
1.000000 0.302770 0.277531
0.000000 0.272984 0.000000
0.000000 0.274601 0.000000
0.064332 0.275486 0.000000
0.140200 0.277440 0.000000
0.209873 0.279057 0.000000
0.277714 0.280491 0.000000
0.357214 0.292821 0.000000
0.435920 0.302312 0.000000
0.503685 0.301793 0.000000
0.562860 0.296147 0.000000
0.614466 0.287663 0.000000
0.659968 0.277348 0.000000
0.700099 0.266300 0.000000
0.734676 0.254429 0.000000
0.764614 0.243046 0.000000
0.792355 0.232517 0.000000
0.818631 0.223545 0.000000
0.843565 0.216403 0.000000
0.871366 0.212955 0.000000
0.897154 0.211856 0.000000
0.921111 0.213260 0.000000
0.943572 0.216739 0.000000
0.988586 0.252567 0.134310
1.000000 0.262852 0.164187
1.000000 0.272923 0.188632
1.000000 0.282872 0.209873
1.000000 0.293156 0.229282
1.000000 0.303807 0.247654
1.000000 0.315068 0.265293
1.000000 0.326726 0.282536
1.000000 0.338811 0.299535
1.000000 0.350927 0.315770
0.000000 0.385809 0.000000
0.000000 0.385870 0.000000
0.000000 0.386053 0.000000
0.144289 0.386419 0.000000
0.226352 0.386816 0.000000
0.304936 0.384588 0.000000
0.378302 0.381842 0.000000
0.450263 0.380682 0.000000
0.516197 0.377539 0.000000
0.573968 0.369451 0.000000
0.624506 0.358740 0.000000
0.669306 0.346471 0.000000
0.707912 0.333196 0.000000
0.741054 0.319371 0.000000
0.769894 0.305913 0.000000
0.796689 0.293980 0.000000
0.822324 0.283787 0.000000
0.850126 0.276768 0.000000
0.877958 0.272862 0.000000
0.904234 0.271153 0.000000
0.929473 0.272526 0.000000
0.953704 0.276646 0.069062
0.976349 0.283757 0.119142
0.997070 0.292393 0.155398
1.000000 0.301854 0.184909
1.000000 0.310552 0.208774
1.000000 0.319188 0.229496
1.000000 0.327611 0.247990
1.000000 0.336370 0.265263
1.000000 0.345647 0.281804
1.000000 0.355138 0.297826
1.000000 0.365270 0.313634
0.000000 0.462379 0.000000
0.000000 0.462135 0.000000
0.000000 0.461738 0.000000
0.120974 0.461036 0.000000
0.216251 0.459968 0.000000
0.296361 0.457893 0.000000
0.373266 0.453803 0.000000
0.445380 0.449653 0.000000
0.512230 0.442847 0.000000
0.569665 0.433478 0.000000
0.620050 0.421271 0.000000
0.664698 0.407691 0.000000
0.703456 0.393103 0.000000
0.736751 0.377905 0.000000
0.765774 0.363226 0.000000
0.792752 0.349828 0.000000
0.820066 0.339178 0.000000
0.848875 0.331701 0.000000
0.875364 0.325872 0.000000
0.900786 0.322026 0.000000
0.925414 0.320958 0.000000
0.949248 0.322210 0.084199
0.971679 0.325994 0.127596
0.992370 0.331151 0.161410
1.000000 0.336980 0.188937
1.000000 0.343023 0.212192
1.000000 0.348638 0.231815
1.000000 0.354314 0.249241
1.000000 0.360967 0.266239
1.000000 0.367803 0.282139
1.000000 0.375647 0.298192
1.000000 0.383642 0.313512
0.000000 0.526787 0.000000
0.000000 0.526452 0.000000
0.000000 0.526055 0.000000
0.075044 0.524865 0.000000
0.196780 0.523430 0.000000
0.279973 0.521294 0.000000
0.358190 0.517601 0.000000
0.432441 0.512749 0.000000
0.502892 0.507561 0.000000
0.567010 0.499397 0.000000
0.617090 0.484749 0.000000
0.661646 0.469215 0.000000
0.700313 0.452979 0.000000
0.733516 0.436164 0.000000
0.762539 0.419867 0.000000
0.790890 0.405951 0.000000
0.820462 0.395239 0.000000
0.847868 0.385931 0.000000
0.873381 0.378149 0.000000
0.898192 0.372564 0.000000
0.922423 0.369451 0.032380
0.945892 0.368353 0.102846
0.968109 0.369482 0.140871
0.988678 0.372015 0.171359
1.000000 0.375311 0.197696
1.000000 0.378302 0.219272
1.000000 0.381598 0.237736
1.000000 0.385046 0.254398
1.000000 0.389105 0.270115
1.000000 0.393866 0.285435
1.000000 0.399298 0.300420
1.000000 0.405158 0.314885
0.000000 0.581323 0.000000
0.000000 0.580835 0.000000
0.000000 0.580194 0.000000
0.000000 0.578973 0.000000
0.169711 0.577203 0.000000
0.260258 0.574853 0.000000
0.336553 0.572015 0.000000
0.412421 0.567163 0.000000
0.483497 0.561975 0.000000
0.551232 0.556481 0.000000
0.613123 0.547906 0.000000
0.657313 0.529351 0.000000
0.696132 0.511284 0.000000
0.729610 0.492927 0.000000
0.761318 0.476875 0.000000
0.792020 0.463294 0.000000
0.820890 0.450965 0.000000
0.847868 0.440009 0.000000
0.872984 0.430854 0.000000
0.897093 0.423468 0.000000
0.920439 0.418158 0.084840
0.942809 0.414710 0.124514
0.964080 0.412634 0.154604
0.983917 0.412055 0.181064
1.000000 0.412207 0.203952
1.000000 0.412940 0.224033
1.000000 0.414038 0.241794
1.000000 0.415839 0.258335
1.000000 0.418555 0.274571
1.000000 0.421851 0.289830
1.000000 0.426062 0.305119
1.000000 0.430701 0.319860
0.000000 0.626062 0.000000
0.000000 0.625788 0.000000
0.000000 0.625269 0.000000
0.000000 0.624292 0.000000
0.134615 0.622736 0.000000
0.235721 0.620905 0.000000
0.315373 0.618677 0.000000
0.388556 0.615534 0.000000
0.460945 0.610651 0.000000
0.529168 0.605432 0.000000
0.594018 0.599634 0.000000
0.654322 0.591699 0.000000
0.693446 0.570520 0.000000
0.729641 0.552056 0.000000
0.761440 0.534234 0.000000
0.790982 0.518395 0.000000
0.818875 0.504204 0.000000
0.845060 0.491920 0.000000
0.869718 0.480873 0.000000
0.893614 0.471809 0.066651
0.916747 0.464881 0.111757
0.939055 0.459571 0.143587
0.960327 0.456031 0.171145
0.980255 0.453529 0.195102
0.998749 0.451820 0.216342
1.000000 0.450385 0.234501
1.000000 0.449348 0.250675
1.000000 0.449104 0.265873
1.000000 0.449592 0.280522
1.000000 0.450935 0.294774
1.000000 0.453162 0.309209
1.000000 0.456153 0.323430
0.000000 0.667170 0.000000
0.000000 0.666926 0.000000
0.000000 0.666407 0.000000
0.000000 0.665522 0.000000
0.086305 0.664210 0.000000
0.209873 0.662470 0.000000
0.292973 0.660426 0.000000
0.365515 0.657954 0.000000
0.436500 0.654139 0.000000
0.505180 0.649195 0.000000
0.570184 0.643915 0.000000
0.635279 0.641108 0.000000
0.717220 0.655665 0.000000
0.751247 0.630671 0.000000
0.783230 0.610040 0.000000
0.812467 0.591699 0.000000
0.839475 0.575402 0.000000
0.864103 0.560815 0.080018
0.886870 0.548119 0.126925
0.909026 0.537194 0.156344
0.930327 0.527916 0.180240
0.950622 0.520409 0.202487
0.969787 0.513970 0.221592
0.987884 0.508873 0.239719
1.000000 0.504448 0.255924
1.000000 0.500755 0.270573
1.000000 0.497475 0.283604
1.000000 0.494667 0.295445
1.000000 0.492805 0.307317
1.000000 0.491737 0.319036
1.000000 0.491707 0.331182
1.000000 0.492287 0.343206
0.000000 0.710475 0.000000
0.000000 0.710140 0.000000
0.000000 0.709316 0.000000
0.000000 0.707851 0.000000
0.000000 0.705745 0.000000
0.184787 0.703151 0.000000
0.272099 0.700465 0.000000
0.345190 0.697688 0.000000
0.412970 0.695094 0.000000
0.484382 0.694026 0.000000
0.553002 0.692714 0.000000
0.619226 0.691096 0.000000
0.682765 0.688960 0.000000
0.743313 0.685695 0.000000
0.777157 0.662898 0.000000
0.807187 0.643122 0.000000
0.834257 0.624842 0.000000
0.858671 0.608301 0.095399
0.881346 0.593835 0.139834
0.903105 0.581476 0.171359
0.924163 0.571160 0.197208
0.944549 0.561822 0.216068
0.963775 0.553826 0.233829
0.982055 0.546868 0.249851
0.999237 0.540703 0.264134
1.000000 0.535180 0.277256
1.000000 0.530297 0.289189
1.000000 0.526146 0.300603
1.000000 0.522698 0.311406
1.000000 0.520409 0.322911
1.000000 0.518822 0.334203
1.000000 0.518303 0.346288
0.000000 0.738674 0.000000
0.000000 0.738369 0.000000
0.000000 0.737667 0.000000
0.000000 0.736416 0.000000
0.000000 0.734493 0.000000
0.158145 0.733059 0.000000
0.250919 0.732143 0.000000
0.325536 0.731136 0.000000
0.393347 0.730312 0.000000
0.459602 0.729305 0.000000
0.527153 0.727352 0.000000
0.592004 0.725368 0.000000
0.654078 0.722835 0.000000
0.713069 0.719417 0.000000
0.768643 0.714748 0.000000
0.800992 0.692866 0.000000
0.828153 0.672633 0.000000
0.852689 0.654231 0.105287
0.875456 0.637995 0.148806
0.897307 0.624109 0.180179
0.918456 0.612451 0.206821
0.938842 0.602502 0.229557
0.958221 0.593469 0.247410
0.976806 0.585138 0.261845
0.994232 0.577691 0.275120
1.000000 0.570764 0.287083
1.000000 0.564538 0.298039
1.000000 0.559045 0.308354
1.000000 0.554437 0.318730
1.000000 0.550835 0.329564
1.000000 0.548272 0.340887
1.000000 0.546349 0.352270
0.000000 0.770626 0.000000
0.000000 0.770596 0.000000
0.000000 0.770077 0.000000
0.000000 0.769192 0.000000
0.000000 0.767727 0.000000
0.139803 0.765988 0.000000
0.234897 0.764309 0.000000
0.308843 0.762661 0.000000
0.375494 0.761379 0.000000
0.438514 0.760525 0.000000
0.502647 0.759030 0.000000
0.566461 0.756924 0.000000
0.627344 0.754391 0.000000
0.685359 0.751003 0.000000
0.740108 0.746456 0.000000
0.791135 0.740566 0.000000
0.822263 0.719814 0.067903
0.846952 0.699641 0.120394
0.870054 0.681575 0.155001
0.891936 0.666102 0.187655
0.913054 0.652857 0.214115
0.933440 0.641382 0.236301
0.952819 0.631281 0.255467
0.971374 0.622461 0.273106
0.989166 0.613947 0.285985
1.000000 0.606165 0.297398
1.000000 0.599268 0.308476
1.000000 0.593378 0.319615
1.000000 0.588342 0.330632
1.000000 0.584375 0.342168
1.000000 0.581292 0.354192
1.000000 0.579034 0.366644
0.000000 0.800839 0.000000
0.000000 0.800900 0.000000
0.000000 0.800595 0.000000
0.000000 0.799832 0.000000
0.000000 0.798642 0.000000
0.131807 0.797269 0.000000
0.225528 0.795895 0.000000
0.298100 0.794583 0.000000
0.363165 0.793301 0.000000
0.424048 0.792081 0.000000
0.482582 0.790768 0.000000
0.544335 0.787869 0.000000
0.603235 0.784237 0.000000
0.659297 0.779934 0.000000
0.712398 0.774838 0.000000
0.762570 0.768978 0.000000
0.809903 0.762539 0.084718
0.840696 0.743923 0.135683
0.864347 0.724575 0.169100
0.887205 0.707942 0.195590
0.908934 0.693660 0.222049
0.929717 0.681209 0.245945
0.949432 0.670161 0.265934
0.968261 0.660334 0.283360
0.986114 0.651484 0.299077
1.000000 0.643519 0.313024
1.000000 0.635645 0.323247
1.000000 0.628779 0.333684
1.000000 0.622827 0.344488
1.000000 0.617487 0.354711
1.000000 0.612940 0.365576
1.000000 0.609033 0.376379
0.000000 0.826505 0.000000
0.000000 0.826322 0.000000
0.000000 0.825895 0.000000
0.000000 0.825101 0.000000
0.000000 0.823972 0.000000
0.130007 0.822660 0.000000
0.219181 0.821256 0.000000
0.288701 0.819791 0.000000
0.351049 0.818418 0.000000
0.409583 0.817044 0.000000
0.465919 0.815702 0.000000
0.522087 0.813840 0.000000
0.579980 0.810483 0.000000
0.634943 0.806424 0.000000
0.687098 0.801511 0.000000
0.736263 0.795773 0.073732
0.782986 0.789517 0.117556
0.827512 0.783108 0.148806
0.858579 0.766964 0.179538
0.881163 0.748257 0.206180
0.903288 0.732479 0.227756
0.924376 0.718563 0.249210
0.944305 0.706355 0.270054
0.963409 0.695552 0.288365
0.981598 0.685756 0.304387
0.998901 0.676997 0.319188
1.000000 0.669184 0.332799
1.000000 0.661952 0.344335
1.000000 0.655116 0.354650
1.000000 0.649134 0.365148
1.000000 0.643732 0.375555
1.000000 0.639063 0.386542
0.000000 0.850462 0.000000
0.000000 0.850706 0.000000
0.000000 0.865721 0.000000
0.000000 0.864927 0.000000
0.073060 0.863645 0.000000
0.173220 0.861967 0.000000
0.241855 0.860044 0.000000
0.301946 0.857969 0.000000
0.358679 0.855955 0.000000
0.413062 0.853971 0.000000
0.465614 0.851987 0.000000
0.516838 0.849760 0.000000
0.570123 0.846098 0.005829
0.623224 0.841398 0.090455
0.673610 0.836118 0.124544
0.721523 0.830198 0.150027
0.767147 0.823819 0.173068
0.810605 0.817197 0.193027
0.852201 0.810483 0.211246
0.883024 0.796109 0.232425
0.903899 0.777249 0.252140
0.924620 0.761563 0.269261
0.944366 0.747524 0.285740
0.962890 0.735042 0.303075
0.980316 0.723445 0.317754
0.996918 0.712856 0.330694
1.000000 0.703182 0.342321
1.000000 0.694606 0.353491
1.000000 0.687129 0.364904
1.000000 0.680140 0.374823
1.000000 0.673823 0.384802
1.000000 0.668086 0.395117
0.000000 0.875883 0.000000
0.000000 0.877653 0.000000
0.000000 0.879332 0.011048
0.000000 0.880400 0.045960
0.107942 0.880674 0.061830
0.185122 0.879881 0.066987
0.245518 0.878416 0.067109
0.300633 0.876585 0.069276
0.353216 0.874784 0.072480
0.403906 0.872892 0.077882
0.453712 0.870970 0.084169
0.502281 0.868864 0.091371
0.549767 0.866239 0.098451
0.601099 0.861906 0.125307
0.650263 0.856901 0.149325
0.697230 0.851347 0.169955
0.742123 0.845426 0.188479
0.785122 0.839292 0.205509
0.826566 0.833158 0.222660
0.866545 0.827237 0.238956
0.898131 0.815427 0.257298
0.918669 0.797574 0.276219
0.938994 0.782773 0.291844
0.958221 0.769223 0.306065
0.976074 0.756893 0.321813
0.993072 0.745602 0.335485
1.000000 0.735256 0.347784
1.000000 0.726009 0.359625
1.000000 0.717800 0.371313
1.000000 0.710536 0.383246
1.000000 0.703853 0.394476
1.000000 0.697230 0.404425
0.000000 0.894011 0.101930
0.000000 0.895506 0.110994
0.000000 0.897002 0.118135
0.045594 0.897917 0.124392
0.141482 0.898161 0.128878
0.200473 0.897459 0.131228
0.252995 0.896147 0.132113
0.302464 0.894560 0.132509
0.350774 0.892912 0.133913
0.398199 0.891173 0.136355
0.445075 0.889403 0.140597
0.491188 0.887419 0.144503
0.536156 0.885008 0.147707
0.581903 0.881865 0.155337
0.629999 0.877226 0.173587
0.675929 0.872099 0.190341
0.719966 0.866636 0.205264
0.762387 0.860960 0.220401
0.803403 0.855283 0.235264
0.843229 0.849851 0.250309
0.881712 0.844572 0.265476
0.914061 0.835294 0.282170
0.933989 0.817960 0.299840
0.953552 0.803708 0.314153
0.971954 0.790341 0.326574
0.989197 0.778042 0.339727
1.000000 0.766842 0.352300
1.000000 0.756680 0.364233
1.000000 0.747677 0.376135
1.000000 0.739528 0.387915
1.000000 0.732113 0.399603
1.000000 0.725154 0.411261
0.000000 0.911345 0.151919
0.000000 0.912718 0.157504
0.047486 0.914031 0.162814
0.118624 0.914855 0.167605
0.170626 0.915068 0.171023
0.217563 0.914427 0.172519
0.262333 0.913237 0.172763
0.306584 0.911742 0.173068
0.350958 0.910124 0.174044
0.394903 0.908446 0.175692
0.438514 0.906706 0.177432
0.481941 0.904753 0.180117
0.524590 0.902525 0.182223
0.566735 0.899962 0.184482
0.611505 0.896361 0.194705
0.656794 0.892027 0.209506
0.700710 0.887541 0.224735
0.743252 0.883116 0.239658
0.784573 0.878752 0.254856
0.824796 0.874540 0.270695
0.863828 0.870542 0.286290
0.901732 0.866636 0.302098
0.934844 0.859709 0.317937
0.954131 0.843015 0.334691
0.972869 0.829343 0.348211
0.990478 0.816434 0.359930
1.000000 0.804440 0.371923
1.000000 0.793668 0.384649
1.000000 0.783780 0.396765
1.000000 0.774807 0.408667
1.000000 0.766445 0.420569
1.000000 0.758541 0.431952
0.113069 0.933654 0.206882
0.128603 0.934203 0.208927
0.144900 0.934539 0.210513
0.172213 0.934508 0.211795
0.205722 0.934081 0.212833
0.241733 0.933196 0.213230
0.279393 0.932067 0.213413
0.318364 0.930785 0.214054
0.358160 0.929534 0.215000
0.398840 0.928222 0.216831
0.439643 0.926818 0.219333
0.480415 0.925200 0.221744
0.520623 0.923186 0.223789
0.560388 0.920836 0.225345
0.599756 0.918181 0.226627
0.643427 0.914183 0.238132
0.686030 0.909911 0.250462
0.727474 0.905608 0.262638
0.767727 0.901335 0.275456
0.806943 0.897063 0.288426
0.845029 0.892851 0.301671
0.882017 0.888701 0.314702
0.917845 0.884550 0.327855
0.950500 0.878630 0.340673
0.968475 0.861662 0.355016
0.986236 0.848081 0.366674
1.000000 0.835386 0.377569
1.000000 0.823636 0.388342
1.000000 0.813077 0.401068
1.000000 0.803220 0.413123
1.000000 0.794003 0.424964
1.000000 0.785214 0.436225
0.160616 0.949218 0.235325
0.170932 0.949706 0.237186
0.182742 0.950103 0.238865
0.203037 0.950103 0.240146
0.229404 0.949706 0.241154
0.259159 0.948852 0.241062
0.291417 0.947723 0.240726
0.325597 0.946441 0.240574
0.361883 0.945129 0.241184
0.399145 0.943786 0.242435
0.437110 0.942412 0.244297
0.475257 0.940887 0.246311
0.513176 0.939055 0.247715
0.551293 0.936950 0.249516
0.588952 0.934630 0.250858
0.627741 0.931853 0.254643
0.669551 0.928099 0.265843
0.710292 0.924315 0.277562
0.750057 0.920531 0.289769
0.788785 0.916777 0.302129
0.826596 0.913085 0.314855
0.863401 0.909453 0.327764
0.899138 0.905852 0.340673
0.933806 0.902220 0.353063
0.963622 0.894682 0.356329
0.980896 0.877989 0.369360
0.998077 0.864622 0.380499
1.000000 0.852232 0.390845
1.000000 0.840696 0.401038
1.000000 0.830106 0.413275
1.000000 0.820249 0.425513
1.000000 0.810849 0.437507
0.213535 0.968109 0.273442
0.221195 0.968627 0.275425
0.229313 0.968872 0.276616
0.243351 0.968627 0.277104
0.262608 0.968017 0.276738
0.285863 0.967010 0.275914
0.312352 0.965728 0.274907
0.341161 0.964202 0.273533
0.372473 0.962554 0.272435
0.405310 0.960845 0.272038
0.439246 0.959014 0.271794
0.473976 0.957183 0.272099
0.509178 0.955169 0.272435
0.544457 0.952850 0.272343
0.579583 0.950225 0.272007
0.614710 0.947387 0.271550
0.652705 0.943847 0.276432
0.692103 0.939971 0.285985
0.730953 0.936370 0.296574
0.769192 0.933013 0.308324
0.806699 0.929778 0.320928
0.843137 0.926513 0.333257
0.878447 0.923033 0.345251
0.912627 0.919310 0.356390
0.945525 0.915373 0.366552
0.978119 0.911925 0.375738
0.994659 0.895628 0.387488
1.000000 0.881956 0.397284
1.000000 0.869566 0.406744
1.000000 0.857939 0.416510
1.000000 0.847135 0.427893
1.000000 0.836942 0.440040
0.237797 0.981323 0.292912
0.244236 0.981811 0.294957
0.251194 0.982025 0.295995
0.263218 0.981842 0.296574
0.279728 0.981262 0.296269
0.299901 0.980407 0.295506
0.323613 0.979339 0.294804
0.349859 0.978058 0.294102
0.378576 0.976715 0.293614
0.409155 0.975311 0.293675
0.440772 0.973846 0.293858
0.473701 0.972320 0.294713
0.507012 0.970642 0.295537
0.540520 0.968688 0.295995
0.574090 0.966461 0.296178
0.607721 0.964050 0.296117
0.641474 0.961486 0.296544
0.679500 0.958099 0.304387
0.717433 0.954803 0.314244
0.754788 0.951629 0.324834
0.791440 0.948547 0.336126
0.827268 0.945434 0.347570
0.862028 0.942199 0.358495
0.895750 0.938811 0.368902
0.928466 0.935180 0.378973
0.960143 0.931426 0.388190
0.990997 0.927642 0.397314
1.000000 0.913573 0.408026
1.000000 0.899962 0.418097
1.000000 0.887663 0.427832
1.000000 0.876005 0.438117
1.000000 0.864836 0.449073
0.264775 0.995239 0.315465
0.270024 0.995514 0.316808
0.275059 0.995514 0.317235
0.284459 0.995209 0.317144
0.297887 0.994537 0.316228
0.314946 0.993622 0.315129
0.335424 0.992523 0.313878
0.358801 0.991333 0.312902
0.384863 0.990051 0.312352
0.412787 0.988800 0.312200
0.442390 0.987457 0.312505
0.473243 0.986145 0.313573
0.504723 0.984680 0.314458
0.536645 0.982940 0.315190
0.568505 0.980957 0.315435
0.600458 0.978729 0.315312
0.632654 0.976349 0.315343
0.666224 0.973754 0.317693
0.703151 0.970642 0.326299
0.739620 0.967651 0.335882
0.775509 0.964752 0.346166
0.810636 0.961822 0.356817
0.844846 0.958740 0.367102
0.878172 0.955566 0.377173
0.910491 0.952239 0.386450
0.941924 0.948699 0.395453
0.972595 0.945190 0.404273
1.000000 0.941588 0.412757
1.000000 0.928923 0.422827
1.000000 0.915190 0.432990
1.000000 0.902770 0.442603
1.000000 0.890745 0.452613
0.284123 1.000000 0.332036
0.288090 1.000000 0.333013
0.292576 1.000000 0.333318
0.300725 1.000000 0.333196
0.313359 1.000000 0.333135
0.329656 1.000000 0.333349
0.349767 1.000000 0.334264
0.372839 1.000000 0.335851
0.398657 1.000000 0.338323
0.426123 1.000000 0.341131
0.455024 1.000000 0.344366
0.484779 1.000000 0.347662
0.514946 1.000000 0.350683
0.545251 1.000000 0.353124
0.575525 0.999908 0.354864
0.605493 0.998016 0.355322
0.635767 0.995941 0.355810
0.666224 0.993774 0.356420
0.699641 0.991211 0.361639
0.734554 0.988373 0.369848
0.768978 0.985565 0.378943
0.802823 0.982696 0.388251
0.835813 0.979706 0.397131
0.868040 0.976593 0.405890
0.899443 0.973358 0.414527
0.930022 0.970031 0.422614
0.959930 0.966644 0.430518
0.989166 0.963226 0.438392
1.000000 0.959899 0.446509
1.000000 0.948241 0.455970
1.000000 0.933837 0.466011
1.000000 0.920714 0.475288
0.322545 1.000000 0.365209
0.325414 1.000000 0.365637
0.328618 1.000000 0.365698
0.334905 1.000000 0.365179
0.344549 1.000000 0.364446
0.357519 1.000000 0.363836
0.373602 1.000000 0.363531
0.392462 1.000000 0.363470
0.414038 1.000000 0.363989
0.437751 1.000000 0.365179
0.462837 1.000000 0.366308
0.489204 1.000000 0.367681
0.516350 1.000000 0.368963
0.544152 1.000000 0.370153
