data/fiter_cube/72007313/1022721/file.cube
# Created by Adobe Lightroom plugin Export LUT (1.17.0)
# www.johnrellis.com/lightroom/exportlut.htm
# Preset: 高级电影暗青色_10 云集
# Color profile: C:\Program Files (x86)\Common Files\Adobe\Color\Profiles\Recommended\AdobeRGB1998.icc
LUT_3D_SIZE 5
DOMAIN_MIN 0.000000 0.000000 0.000000
DOMAIN_MAX 0.903226 0.903226 0.903226
0.061219 0.065095 0.037201
0.219486 0.051514 0.041596
0.562158 0.000000 0.000000
0.806363 0.000000 0.000000
0.930083 0.264775 0.068116
0.067353 0.206241 0.093660
0.211154 0.232822 0.090364
0.583246 0.173587 0.000000
0.807828 0.231388 0.000000
0.932219 0.349798 0.082734
0.000000 0.531975 0.240757
0.260380 0.534722 0.257755
0.549798 0.567163 0.254459
0.809751 0.547631 0.153628
0.926482 0.522026 0.209873
0.262821 0.741604 0.476234
0.396307 0.736324 0.489906
0.606256 0.711421 0.535485
0.741360 0.724910 0.511742
0.905272 0.731228 0.448585
0.539483 0.843107 0.662959
0.596033 0.838102 0.674800
0.720027 0.822812 0.713008
0.792813 0.811978 0.744930
0.857786 0.836362 0.732723
0.045777 0.077546 0.145144
0.245853 0.084932 0.161563
0.567742 0.000000 0.139590
0.794308 0.152071 0.124849
0.924498 0.286748 0.114382
0.000000 0.241611 0.215732
0.255741 0.268498 0.209445
0.589075 0.251377 0.177401
0.797208 0.285863 0.154726
0.923796 0.364080 0.156039
0.000000 0.564782 0.333410
0.260929 0.566339 0.340887
0.557122 0.569146 0.341833
0.800717 0.545830 0.272953
0.919982 0.536614 0.298558
0.263523 0.748653 0.518486
0.403967 0.743282 0.530266
0.620508 0.720302 0.567987
0.744625 0.726925 0.552422
0.902098 0.732174 0.497993
0.530175 0.846006 0.674769
0.588678 0.840970 0.685054
0.723140 0.828489 0.725368
0.798764 0.816617 0.755978
0.859892 0.838254 0.746059
0.000000 0.100404 0.435981
0.155978 0.106355 0.454139
0.625147 0.149569 0.469520
0.775448 0.375036 0.431342
0.909728 0.409674 0.394018
0.000000 0.257511 0.495857
0.123812 0.243503 0.503593
0.627161 0.340398 0.500877
0.774685 0.440284 0.453895
0.909026 0.454658 0.414588
0.000000 0.594934 0.583825
0.178225 0.604730 0.584466
0.617029 0.612726 0.572412
0.786557 0.589136 0.531334
0.903777 0.580194 0.496162
0.196872 0.769467 0.640467
0.361639 0.765011 0.638849
0.632471 0.744411 0.651270
0.759762 0.737362 0.655360
0.892424 0.733486 0.618830
0.503380 0.854917 0.720119
0.561639 0.851011 0.724758
0.696284 0.838926 0.742000
0.805905 0.825437 0.776761
0.861631 0.839078 0.773037
0.000000 0.147829 0.696101
0.000000 0.156252 0.700557
0.556817 0.195895 0.708614
0.803738 0.430304 0.683894
0.882841 0.588006 0.673304
0.000000 0.285222 0.711391
0.000000 0.268620 0.713893
0.555169 0.333898 0.715908
0.798428 0.502495 0.693141
0.878386 0.611963 0.681819
0.000000 0.562463 0.734371
0.180789 0.568536 0.734737
0.558068 0.584222 0.732967
0.787747 0.638453 0.719997
0.868803 0.676539 0.709163
0.249454 0.753933 0.770047
0.378088 0.753780 0.769039
0.606622 0.756374 0.768460
0.788205 0.760403 0.763912
0.882231 0.741573 0.734798
0.497383 0.864042 0.804990
0.547814 0.861723 0.804349
0.670680 0.856443 0.803616
0.801999 0.843900 0.809964
0.869139 0.844907 0.817533
0.000000 0.236179 0.837613
0.119631 0.250828 0.837583
0.525078 0.321202 0.836881
0.773556 0.479866 0.833402
0.888640 0.628138 0.807919
0.000000 0.320867 0.838987
0.141024 0.332860 0.838743
0.526787 0.400244 0.837034
0.770321 0.524590 0.832853
0.886625 0.648585 0.811185
0.000000 0.544884 0.841276
0.207126 0.544030 0.840757
0.530907 0.567987 0.839078
0.761440 0.628077 0.835843
0.883787 0.708827 0.824949
0.290593 0.720943 0.851255
0.374182 0.721096 0.850431
0.559503 0.723659 0.848936
0.757198 0.741238 0.847898
0.883177 0.786831 0.847776
0.510216 0.840879 0.868803
0.549401 0.840970 0.868650
0.662196 0.843381 0.869474
0.787961 0.850065 0.871122
0.886229 0.860472 0.874144
