data/fiter_cube/72007313/1022721/file.cube
# Created by Adobe Lightroom plugin Export LUT (1.17.0)
# www.johnrellis.com/lightroom/exportlut.htm
# Preset: 高级电影暗青色_10 云集
# Color profile: C:\Program Files (x86)\Common Files\Adobe\Color\Profiles\Recommended\AdobeRGB1998.icc
LUT_3D_SIZE 32
DOMAIN_MIN 0.0 0.0 0.0
DOMAIN_MAX 1.0 1.0 1.0
0.061219 0.065095 0.037201
0.067536 0.065797 0.038788
0.075410 0.066926 0.039002
0.091493 0.069368 0.042329
0.116701 0.070741 0.044343
0.146944 0.069734 0.046174
0.181277 0.065126 0.044312
0.219486 0.051514 0.041596
0.261631 0.012512 0.037354
0.308110 0.000000 0.029755
0.358129 0.000000 0.020325
0.410101 0.000000 0.007691
0.462287 0.000000 0.000000
0.513542 0.000000 0.000000
0.562158 0.000000 0.000000
0.606775 0.000000 0.000000
0.646387 0.000000 0.000000
0.682612 0.000000 0.000000
0.719875 0.000000 0.000000
0.752346 0.000000 0.000000
0.781003 0.000000 0.000000
0.806363 0.000000 0.000000
0.828824 0.000000 0.000000
0.848936 0.093324 0.000000
0.867247 0.139284 0.000000
0.884215 0.174960 0.000000
0.900237 0.206546 0.000000
0.915496 0.236362 0.003021
0.930083 0.264775 0.068116
0.943969 0.293248 0.100710
0.957092 0.321263 0.131746
0.969299 0.348882 0.163516
0.062654 0.070314 0.041321
0.067445 0.071168 0.041871
0.076539 0.072786 0.040772
0.092561 0.074220 0.043214
0.117983 0.075349 0.045197
0.147951 0.074403 0.045930
0.182223 0.070100 0.044038
0.219730 0.061219 0.041321
0.261570 0.029145 0.036011
0.307713 0.000000 0.029480
0.357183 0.000000 0.020233
0.408576 0.000000 0.007782
0.460487 0.000000 0.000000
0.511437 0.000000 0.000000
0.559808 0.000000 0.000000
0.604486 0.000000 0.000000
0.644068 0.000000 0.000000
0.680537 0.000000 0.000000
0.716976 0.000000 0.000000
0.749111 0.000000 0.000000
0.777676 0.000000 0.000000
0.803220 0.000000 0.000000
0.825864 0.000000 0.000000
0.846250 0.094118 0.000000
0.864775 0.139406 0.000000
0.882017 0.174380 0.000000
0.898314 0.205875 0.000000
0.913817 0.235721 0.000000
0.928588 0.264408 0.064027
0.942687 0.292546 0.097993
0.955962 0.320500 0.129427
0.968322 0.348028 0.161196
0.064729 0.076814 0.046052
0.070649 0.076997 0.048341
0.075380 0.079469 0.049165
0.094118 0.083345 0.046998
0.119722 0.082216 0.046296
0.149874 0.081209 0.045899
0.183444 0.077089 0.044160
0.220829 0.069703 0.040223
0.262150 0.051026 0.036072
0.307988 0.000000 0.028412
0.357244 0.000000 0.018982
0.408515 0.000000 0.006409
0.460182 0.000000 0.000000
0.510979 0.000000 0.000000
0.559136 0.000000 0.000000
0.603632 0.000000 0.000000
0.643153 0.000000 0.000000
0.679866 0.000000 0.000000
0.715785 0.000000 0.000000
0.747555 0.000000 0.000000
0.776150 0.000000 0.000000
0.801694 0.000000 0.000000
0.824430 0.000000 0.000000
0.844907 0.102998 0.000000
0.863584 0.144442 0.000000
0.880888 0.178103 0.000000
0.897307 0.208743 0.000000
0.912902 0.237980 0.000000
0.927855 0.266056 0.062470
0.942016 0.294102 0.096529
0.955352 0.321782 0.128389
0.967773 0.349004 0.160281
0.069062 0.091066 0.055879
0.075319 0.092042 0.057710
0.080659 0.092164 0.059663
0.091798 0.098116 0.058839
0.122927 0.104616 0.050202
0.153964 0.098756 0.047822
0.187747 0.092317 0.043977
0.224826 0.085603 0.039063
0.265904 0.074464 0.032471
0.311284 0.049653 0.024659
0.359930 0.000000 0.014893
0.410590 0.000000 0.003143
0.461616 0.000000 0.000000
0.511803 0.000000 0.000000
0.559472 0.000000 0.000000
0.603693 0.000000 0.000000
0.642878 0.000000 0.000000
0.679896 0.000000 0.000000
0.714473 0.000000 0.000000
0.745480 0.000000 0.000000
0.773709 0.000000 0.000000
0.799130 0.000000 0.000000
0.822141 0.071168 0.000000
0.843076 0.121767 0.000000
0.862303 0.158175 0.000000
0.880156 0.189578 0.000000
0.896910 0.218753 0.000000
0.912718 0.246891 0.000000
0.927672 0.274022 0.063111
0.941802 0.300511 0.097139
0.955047 0.327031 0.128420
0.967346 0.353368 0.160555
0.071962 0.112093 0.063905
0.077028 0.113191 0.064881
0.084901 0.114321 0.066773
0.096315 0.113741 0.069551
0.114656 0.124025 0.065919
0.154238 0.133059 0.053681
0.192172 0.124575 0.047150
0.229709 0.111727 0.042237
0.270848 0.100160 0.034546
0.315465 0.087221 0.025452
0.363378 0.066804 0.013245
0.413336 0.003845 0.000000
0.463691 0.000000 0.000000
0.513359 0.000000 0.000000
0.560693 0.000000 0.000000
0.604608 0.000000 0.000000
0.643824 0.000000 0.000000
0.681483 0.000000 0.000000
0.715236 0.000000 0.000000
0.745571 0.000000 0.000000
0.773251 0.000000 0.000000
0.798398 0.070497 0.000000
0.821256 0.115541 0.000000
0.842191 0.149935 0.000000
0.861448 0.179751 0.000000
0.879362 0.207279 0.000000
0.896208 0.233646 0.000000
0.912016 0.258946 0.000000
0.927001 0.284428 0.061402
0.941100 0.309728 0.096712
0.954376 0.334966 0.128756
0.966735 0.360143 0.160800
0.072236 0.138277 0.072541
0.077790 0.139101 0.072969
0.085328 0.140017 0.073976
0.098787 0.140597 0.074830
0.116243 0.141054 0.080049
0.141970 0.155001 0.072877
0.189334 0.167178 0.058625
0.236149 0.158206 0.040833
0.277562 0.142672 0.036225
0.323217 0.123842 0.029236
0.370947 0.109438 0.017334
0.420081 0.093202 0.003357
0.469642 0.070192 0.000000
0.518273 0.013855 0.000000
0.564813 0.000000 0.000000
0.607996 0.000000 0.000000
0.646662 0.000000 0.000000
0.684443 0.000000 0.000000
0.717281 0.000000 0.000000
0.747189 0.065583 0.000000
0.774533 0.102083 0.000000
0.799557 0.131746 0.000000
0.839902 0.189303 0.000000
0.858946 0.212284 0.000000
0.876249 0.233890 0.000000
0.892302 0.254795 0.000000
0.907256 0.275639 0.000000
0.921477 0.296422 0.037018
0.934966 0.317632 0.084138
0.947814 0.339086 0.115450
0.959869 0.360906 0.145937
0.971008 0.382879 0.177127
0.070863 0.171725 0.082795
0.076387 0.172610 0.083101
0.084840 0.173404 0.083650
0.102449 0.174960 0.086366
0.121889 0.173312 0.088869
0.143130 0.177340 0.091371
0.176272 0.193759 0.081270
0.232334 0.210636 0.061830
0.290440 0.202701 0.026764
0.338018 0.186252 0.024689
0.387121 0.167330 0.018036
0.437995 0.144442 0.005249
0.486580 0.132601 0.000000
0.533715 0.120912 0.000000
0.578332 0.111177 0.000000
0.618769 0.105440 0.000000
0.658015 0.108034 0.000000
0.694179 0.117678 0.000000
0.726101 0.131777 0.000000
0.755673 0.149447 0.000000
0.783322 0.169924 0.000000
0.809079 0.191226 0.000000
0.832609 0.213535 0.000000
0.853910 0.234684 0.000000
0.872984 0.255680 0.000000
0.890013 0.275273 0.000000
0.905547 0.294224 0.000000
0.919951 0.313176 0.031556
0.933593 0.332464 0.083101
0.946471 0.352178 0.114992
0.958618 0.372229 0.145937
0.969818 0.392676 0.177157
0.067353 0.206241 0.093660
0.073182 0.207065 0.093874
0.081941 0.207828 0.094331
0.100038 0.209232 0.095644
0.122560 0.209628 0.097414
0.148379 0.205539 0.104463
0.172244 0.214603 0.102846
0.211154 0.232822 0.090364
0.273655 0.254459 0.067933
0.337621 0.249332 0.015198
0.392645 0.235294 0.009430
0.442298 0.217655 0.003113
0.491859 0.198306 0.000000
0.539940 0.178683 0.000000
0.583246 0.173587 0.000000
0.623346 0.171633 0.000000
0.662501 0.174929 0.000000
0.696498 0.180545 0.000000
0.727016 0.189059 0.000000
0.755612 0.200809 0.000000
0.782650 0.215030 0.000000
0.807828 0.231388 0.000000
0.831022 0.248661 0.000000
0.852171 0.265995 0.000000
0.871336 0.282719 0.000000
0.888365 0.299474 0.000000
0.903929 0.315984 0.000000
0.918456 0.332525 0.025879
0.932219 0.349798 0.082734
0.945159 0.367681 0.115602
0.957366 0.386053 0.146853
0.968719 0.405127 0.178836
0.060304 0.245762 0.106569
0.067903 0.246311 0.106783
0.077668 0.247196 0.107088
0.096681 0.248508 0.107973
0.125063 0.249851 0.111482
0.149142 0.247105 0.112337
0.179782 0.241794 0.123751
0.206607 0.257206 0.116548
0.250858 0.276890 0.102296
0.317571 0.301061 0.078676
0.386175 0.302159 0.018097
0.448432 0.291112 0.000000
0.496956 0.274601 0.000000
0.543969 0.257755 0.000000
0.588373 0.241032 0.000000
0.631647 0.230991 0.000000
0.667964 0.232700 0.000000
0.700191 0.236027 0.000000
0.729366 0.241337 0.000000
0.757046 0.249332 0.000000
0.783230 0.260044 0.000000
0.807828 0.272404 0.000000
0.830564 0.285832 0.000000
0.851316 0.299901 0.000000
0.870207 0.313787 0.000000
0.887358 0.326848 0.000000
0.902983 0.340459 0.000000
0.917449 0.354772 0.022278
0.931182 0.369848 0.084047
0.944121 0.385595 0.117220
0.956329 0.402197 0.149233
0.967681 0.419501 0.181399
0.042359 0.289677 0.121401
0.058869 0.290196 0.121767
0.070893 0.290684 0.121706
0.092744 0.291936 0.122591
0.122194 0.293278 0.125216
0.154025 0.292912 0.128023
0.183566 0.287724 0.133394
0.214908 0.283604 0.144564
0.245853 0.303716 0.132601
0.294438 0.324071 0.116915
0.362188 0.347295 0.092897
0.434180 0.355047 0.033143
0.498939 0.347326 0.000000
0.547662 0.333227 0.000000
0.594476 0.321477 0.000000
0.636133 0.308690 0.000000
0.673243 0.295781 0.000000
0.705531 0.289647 0.000000
0.733608 0.292638 0.000000
0.760098 0.297887 0.000000
0.785061 0.305089 0.000000
0.808316 0.313909 0.000000
0.829953 0.323430 0.000000
0.849943 0.333928 0.000000
0.868376 0.344610 0.000000
0.885374 0.355383 0.000000
0.901244 0.366186 0.000000
0.916136 0.377783 0.020539
0.930022 0.391211 0.085573
0.943206 0.405249 0.120211
0.955535 0.420386 0.153201
0.966979 0.436286 0.186069
0.011200 0.335454 0.138857
0.034577 0.335973 0.138979
0.061524 0.336461 0.139223
0.087617 0.337652 0.139742
0.119753 0.338933 0.141787
0.157168 0.340032 0.146548
0.184268 0.337346 0.145052
0.222568 0.330968 0.158114
0.253910 0.332525 0.164462
0.289799 0.353155 0.151217
0.341375 0.373205 0.134127
0.408057 0.394415 0.109865
0.482429 0.408911 0.063111
0.548608 0.405310 0.000000
0.599145 0.396399 0.000000
0.638361 0.383246 0.000000
0.673884 0.370062 0.000000
0.705867 0.357824 0.000000
0.735256 0.345922 0.000000
0.761685 0.343755 0.000000
0.785885 0.348302 0.000000
0.808682 0.354314 0.000000
0.829892 0.361578 0.000000
0.849546 0.369451 0.000000
0.867674 0.377783 0.000000
0.884428 0.386236 0.023102
0.900084 0.394751 0.050233
0.914977 0.403845 0.068238
0.929107 0.413672 0.088258
0.942199 0.425849 0.124117
0.954498 0.439185 0.157137
0.965942 0.453620 0.190616
0.000000 0.384161 0.158907
0.001190 0.384619 0.158999
0.038392 0.385168 0.159304
0.080537 0.385992 0.159915
0.116762 0.387335 0.161685
0.155917 0.388464 0.165469
0.196109 0.388373 0.170504
0.226627 0.382849 0.171817
0.266178 0.375708 0.186709
0.297368 0.383551 0.187228
0.337407 0.403632 0.172396
0.392859 0.424994 0.155520
0.478981 0.463142 0.141146
0.554620 0.482582 0.097169
0.614038 0.478950 0.000000
0.660945 0.469734 0.000000
0.693446 0.455451 0.000000
0.722835 0.441840 0.016388
0.749783 0.429023 0.029877
0.775326 0.417700 0.044007
0.799191 0.407935 0.057343
0.820035 0.407965 0.064179
0.839078 0.411200 0.070161
0.856931 0.415534 0.077516
0.873625 0.420325 0.085939
0.889250 0.425757 0.094697
0.903929 0.431647 0.103761
0.917967 0.438056 0.113252
0.931426 0.445075 0.122652
0.944274 0.452979 0.137667
0.955962 0.463996 0.170169
0.966918 0.476234 0.203494
0.000000 0.440772 0.185763
0.000000 0.441169 0.185946
0.000000 0.441016 0.185855
0.072389 0.441321 0.186313
0.114107 0.441657 0.187350
0.156588 0.441840 0.189761
0.202121 0.441749 0.195773
0.233677 0.438453 0.193240
0.275669 0.431434 0.204837
0.315923 0.424689 0.221988
0.351629 0.442329 0.218051
0.398993 0.465431 0.205142
0.457801 0.487007 0.189151
0.523339 0.505974 0.168826
0.593835 0.525078 0.131044
0.646662 0.521263 0.084016
0.689967 0.511864 0.039826
0.720455 0.498512 0.063081
0.746700 0.485420 0.075898
0.771633 0.473793 0.083894
0.795163 0.463294 0.090364
0.817227 0.454200 0.096712
0.837705 0.446357 0.103120
0.855283 0.448005 0.109255
0.871794 0.450935 0.116304
0.887236 0.454627 0.123903
0.901854 0.458961 0.131563
0.915831 0.464057 0.140505
0.929320 0.469673 0.149691
0.942321 0.476081 0.160311
0.954681 0.483558 0.175692
0.965667 0.494484 0.209537
0.000000 0.487465 0.211795
0.000000 0.487648 0.211765
0.000000 0.487770 0.211856
0.064118 0.487831 0.212070
0.112520 0.487770 0.212802
0.156619 0.487953 0.215152
0.203372 0.487648 0.219791
0.251499 0.487160 0.227237
0.281621 0.483742 0.224765
0.328283 0.478370 0.242679
0.368597 0.473304 0.262211
0.404639 0.494362 0.250431
0.452125 0.513970 0.236790
0.507256 0.530999 0.220523
0.565332 0.545190 0.201266
0.627588 0.561334 0.168185
0.674372 0.556603 0.128298
0.713710 0.546838 0.094392
0.743923 0.535454 0.098878
0.768307 0.523400 0.110658
0.791501 0.512871 0.118959
0.813382 0.503410 0.126162
0.833738 0.494881 0.132631
0.852873 0.487373 0.139284
0.870451 0.481910 0.145968
0.885740 0.484047 0.153201
0.900298 0.486885 0.160555
0.914183 0.490639 0.168917
0.927581 0.495216 0.178195
0.940581 0.500694 0.188540
0.953063 0.506584 0.199557
0.964721 0.514000 0.217655
0.000000 0.531975 0.240757
0.000000 0.532280 0.240940
0.000000 0.532128 0.240970
0.061402 0.532891 0.241672
0.114351 0.533501 0.242893
0.161532 0.534081 0.245243
0.209262 0.534752 0.249790
0.260380 0.534722 0.257755
0.296818 0.532616 0.256870
0.337713 0.527459 0.265446
0.382055 0.521508 0.284215
0.418616 0.521569 0.297063
0.455360 0.539117 0.284916
0.500267 0.554345 0.270726
0.549798 0.567163 0.254459
0.600549 0.577539 0.235447
0.656458 0.591852 0.206149
0.698482 0.586999 0.170138
0.735164 0.577691 0.133944
0.765805 0.568505 0.131563
0.788327 0.557488 0.144625
0.809751 0.547631 0.153628
0.829892 0.538750 0.161501
0.848875 0.530907 0.168368
0.866697 0.523766 0.175540
0.883513 0.517754 0.182712
0.899016 0.514916 0.190402
0.912993 0.517967 0.199832
0.926482 0.522026 0.209873
0.939544 0.526909 0.221164
0.952056 0.532341 0.233127
0.964050 0.538079 0.245121
0.000000 0.577325 0.276585
0.000000 0.577661 0.276829
0.000000 0.577783 0.277043
0.077028 0.577996 0.277562
0.126467 0.578241 0.278630
0.173220 0.578302 0.280674
0.220371 0.578393 0.284733
0.270878 0.577935 0.291264
0.324010 0.576715 0.302098
0.348516 0.572930 0.293370
0.395300 0.566217 0.310491
0.435218 0.559228 0.328771
0.466835 0.562310 0.333471
0.500999 0.575341 0.319982
0.540978 0.586511 0.304753
0.584527 0.596033 0.288182
0.629725 0.604059 0.269505
0.681056 0.617243 0.242893
0.720089 0.613855 0.211307
0.754940 0.606409 0.180423
0.784756 0.598077 0.171176
0.807584 0.588861 0.180514
0.827451 0.579950 0.190982
0.846250 0.571893 0.199924
0.863981 0.564813 0.208133
0.880735 0.558556 0.215854
0.896635 0.553124 0.223972
0.911711 0.548852 0.233219
0.925536 0.548852 0.243320
0.938293 0.552728 0.254734
0.950500 0.557275 0.267033
0.962158 0.562097 0.279088
0.000000 0.613794 0.310796
0.007202 0.613764 0.310857
0.061830 0.613703 0.310979
0.102815 0.613581 0.311315
0.145022 0.613397 0.312352
0.188296 0.613092 0.314244
0.233585 0.612512 0.317540
0.281956 0.611505 0.323003
0.333227 0.609888 0.332128
0.370764 0.607019 0.333379
0.404456 0.601831 0.336004
0.446082 0.594965 0.352972
0.481483 0.588128 0.370977
0.508873 0.594263 0.367803
0.540154 0.604639 0.354162
0.575982 0.613428 0.338933
0.614954 0.620935 0.322362
0.655695 0.627527 0.304356
0.702235 0.638727 0.280705
0.739986 0.638422 0.252873
0.772793 0.632074 0.224949
0.801236 0.624231 0.209354
0.824155 0.616266 0.214633
0.842710 0.608179 0.227298
0.860288 0.600977 0.237308
0.877012 0.594568 0.246525
0.892912 0.589227 0.256016
0.908019 0.584802 0.266239
0.922454 0.581415 0.277043
0.936187 0.579095 0.288457
0.948577 0.581506 0.301122
0.960082 0.586114 0.314672
0.077150 0.645075 0.344762
0.090944 0.645380 0.345373
0.125795 0.656733 0.359319
0.152255 0.656367 0.359716
0.185824 0.655726 0.360571
0.223819 0.654688 0.362036
0.265812 0.653254 0.364721
0.311101 0.651331 0.369329
0.359808 0.648920 0.377173
0.410468 0.645838 0.389258
0.431342 0.641962 0.380346
0.469886 0.635187 0.392737
0.504814 0.627893 0.408240
0.533806 0.620539 0.424323
0.556237 0.628565 0.413153
0.583642 0.636408 0.399084
0.615229 0.643244 0.383459
0.649592 0.649104 0.366918
0.685603 0.654231 0.349493
0.727199 0.663386 0.327916
0.762631 0.664851 0.302617
0.792813 0.659205 0.276982
0.819730 0.651453 0.255131
0.842100 0.644495 0.256901
0.858762 0.636530 0.269596
0.874662 0.629603 0.280034
0.889891 0.623529 0.289830
0.904570 0.618616 0.300237
0.918761 0.614801 0.311315
0.932403 0.612268 0.323461
0.945342 0.610620 0.336645
0.957488 0.609674 0.350408
0.132906 0.675044 0.381292
0.143404 0.676448 0.383612
0.157259 0.677668 0.385504
0.180575 0.678584 0.387884
0.210880 0.678828 0.389960
0.245914 0.678218 0.392279
0.284977 0.676875 0.394965
0.327062 0.674952 0.399359
0.372747 0.672541 0.406195
0.419928 0.669459 0.416510
0.455512 0.665858 0.420478
0.479622 0.661158 0.418708
0.514733 0.654170 0.432746
0.544244 0.647150 0.447028
0.567742 0.642817 0.456916
0.588098 0.650324 0.444373
0.613123 0.656977 0.430640
0.641657 0.662837 0.415961
0.672999 0.668055 0.400366
0.706050 0.672908 0.384558
0.743801 0.680995 0.365637
0.778531 0.684871 0.343999
0.807065 0.680385 0.320928
0.832792 0.673701 0.299321
0.854276 0.667170 0.297917
0.871366 0.660456 0.307744
0.886442 0.654475 0.320226
0.900999 0.649592 0.332525
0.915038 0.645960 0.345190
0.928557 0.643336 0.358770
0.941344 0.641749 0.373175
0.953399 0.640955 0.388159
0.173587 0.697932 0.411719
0.183017 0.699001 0.413581
0.193973 0.700008 0.415656
0.213474 0.700679 0.417792
0.240665 0.700679 0.419928
0.271733 0.700008 0.422309
0.307286 0.698604 0.425086
0.346593 0.696559 0.429114
0.388556 0.694209 0.435401
0.433112 0.691218 0.444465
0.478492 0.687648 0.457557
0.497780 0.684077 0.452125
0.525963 0.678370 0.458808
0.555291 0.671870 0.471473
0.580041 0.665278 0.484199
0.599145 0.664179 0.487251
0.618036 0.670619 0.475380
0.640864 0.676417 0.462623
0.667079 0.681697 0.449409
0.695705 0.686580 0.435340
0.725887 0.691066 0.421180
0.760067 0.698360 0.405158
0.793606 0.704158 0.386664
0.820462 0.700740 0.366796
0.844724 0.695033 0.347173
0.865690 0.688960 0.340581
0.883116 0.683314 0.347326
0.897337 0.678401 0.362524
0.911162 0.674678 0.377356
0.924468 0.672114 0.392523
0.937133 0.670588 0.408118
0.949035 0.670008 0.424445
0.213291 0.718807 0.441382
0.221622 0.719692 0.443122
0.231113 0.720546 0.445136
0.248234 0.721004 0.447120
0.271824 0.720882 0.449409
0.299992 0.719997 0.451667
0.332280 0.718502 0.454444
0.368200 0.716487 0.458289
0.407263 0.714015 0.464118
0.448463 0.710994 0.472267
0.490211 0.707546 0.483619
0.521538 0.704005 0.489570
0.537530 0.700191 0.484627
0.566186 0.694118 0.495766
0.591089 0.688106 0.507317
0.612360 0.682185 0.518975
0.628840 0.684352 0.517266
0.647150 0.690486 0.507378
0.668879 0.696284 0.496956
0.693507 0.701686 0.486488
0.720027 0.706752 0.475502
0.747860 0.711513 0.464118
0.778683 0.718196 0.451575
0.810666 0.725856 0.437293
0.835843 0.723507 0.420905
0.858610 0.719051 0.404974
0.878996 0.713771 0.395331
0.896422 0.709529 0.400855
0.909819 0.705806 0.418067
0.922576 0.703304 0.434974
0.934722 0.701778 0.451789
0.946197 0.701045 0.468452
0.262821 0.741604 0.476234
0.268467 0.741878 0.477180
0.275456 0.742000 0.478096
0.289220 0.741756 0.479316
0.309270 0.741085 0.480934
0.334112 0.739895 0.482948
0.363378 0.738308 0.485847
0.396307 0.736324 0.489906
0.432410 0.734005 0.495766
0.470680 0.731167 0.503807
0.508782 0.728176 0.514092
0.546319 0.724697 0.526421
0.562768 0.721523 0.523308
0.582452 0.717006 0.525536
0.606256 0.711421 0.535485
0.627222 0.705867 0.545739
0.645289 0.700587 0.556329
0.659297 0.705043 0.549950
0.676081 0.710536 0.541009
0.695705 0.715663 0.531670
0.717678 0.720455 0.521935
0.741360 0.724910 0.511742
0.766140 0.729061 0.501183
0.793240 0.734524 0.489601
0.823545 0.743343 0.478096
0.847074 0.741878 0.464729
0.868650 0.738674 0.452186
0.888609 0.734310 0.440986
0.905272 0.731228 0.448585
0.918944 0.728603 0.463081
0.930846 0.727047 0.481758
0.942077 0.726253 0.499306
0.302251 0.758572 0.503624
0.307439 0.758816 0.504662
0.313817 0.758938 0.505669
0.326268 0.758663 0.507012
0.343816 0.757931 0.508659
0.366155 0.756649 0.510674
0.392432 0.755032 0.513542
0.422309 0.752926 0.517388
0.455207 0.750546 0.523003
0.489387 0.747921 0.530358
0.524071 0.745022 0.539269
0.558343 0.741787 0.550011
0.584771 0.738552 0.556603
0.596124 0.735622 0.551415
0.618250 0.730709 0.559380
0.638819 0.725704 0.568688
0.656916 0.720882 0.578210
0.672328 0.717464 0.586206
0.685328 0.722927 0.578851
0.701106 0.728176 0.571191
0.719295 0.733120 0.563287
0.739437 0.737758 0.555016
0.761013 0.742184 0.546532
0.783566 0.746334 0.537713
0.805844 0.749142 0.523339
0.834897 0.759213 0.514611
0.857145 0.758816 0.504570
0.877684 0.756832 0.495644
0.896727 0.753872 0.488136
0.913085 0.751583 0.493568
0.927031 0.749996 0.506310
0.938048 0.749264 0.525719
0.349706 0.776883 0.535424
0.354559 0.777096 0.536492
0.359960 0.777096 0.537346
0.370275 0.776608 0.538445
0.385657 0.775662 0.539940
0.405005 0.774289 0.541924
0.428199 0.772396 0.544549
0.454292 0.770169 0.548150
0.482826 0.767636 0.552850
0.512718 0.764858 0.558831
0.543267 0.761837 0.566247
0.573754 0.758663 0.575158
0.603662 0.755276 0.585809
0.617517 0.752255 0.583886
0.630640 0.748592 0.583093
0.649897 0.743679 0.590661
0.667170 0.738857 0.598657
0.682612 0.734401 0.607141
0.695552 0.733577 0.610864
0.707942 0.738796 0.604364
0.722805 0.743862 0.598016
0.739651 0.748684 0.591333
0.757992 0.753079 0.584222
0.777493 0.757107 0.576349
0.797726 0.760739 0.567773
0.819028 0.764645 0.558801
0.846891 0.775235 0.552300
0.867582 0.776242 0.545617
0.886900 0.775387 0.540032
0.904906 0.773678 0.536065
0.920745 0.772091 0.539849
0.934447 0.771176 0.550500
0.387091 0.790799 0.560327
0.391394 0.790982 0.561395
0.396460 0.790982 0.562371
0.405829 0.790494 0.563561
0.419471 0.789548 0.565148
0.436805 0.788205 0.567346
0.457649 0.786496 0.570092
0.480964 0.784482 0.573663
0.506645 0.782223 0.578241
0.533715 0.779782 0.584131
0.561639 0.777096 0.591089
0.589929 0.774319 0.599542
0.617731 0.771328 0.609186
0.639948 0.768368 0.615930
0.648615 0.765805 0.611536
0.664240 0.761868 0.615717
0.680903 0.757626 0.622950
0.695979 0.753658 0.630640
0.709682 0.749966 0.638849
0.720760 0.751553 0.639368
0.732418 0.756497 0.634028
0.745998 0.761257 0.628565
0.761196 0.765652 0.622553
0.777646 0.769802 0.616297
0.795193 0.773617 0.609522
0.813474 0.777188 0.602319
0.832395 0.780575 0.594781
0.858335 0.791226 0.591089
0.878416 0.794369 0.588251
0.896544 0.794766 0.586450
0.913268 0.794186 0.585931
0.928252 0.793332 0.589075
0.427070 0.804654 0.586633
0.430579 0.804715 0.587488
0.434577 0.804593 0.588190
0.442542 0.803983 0.589258
0.453925 0.803006 0.590570
0.469032 0.801663 0.592462
0.487007 0.800015 0.595026
0.507683 0.798062 0.598322
0.530571 0.795956 0.602686
0.554986 0.793698 0.608118
0.580438 0.791257 0.614710
0.606287 0.788785 0.622522
0.631983 0.786099 0.631373
0.656886 0.783291 0.641321
0.669062 0.780911 0.641199
0.678126 0.778317 0.639216
0.693812 0.774472 0.645563
0.708217 0.770809 0.652369
0.721553 0.767483 0.659693
0.733700 0.764492 0.667506
0.743252 0.768032 0.665248
0.754086 0.772671 0.660945
0.766506 0.777096 0.656092
0.780301 0.781308 0.651087
0.795254 0.785214 0.645686
0.811063 0.788907 0.639948
0.827695 0.792447 0.634028
0.844938 0.795834 0.627771
0.868650 0.806088 0.626490
0.888060 0.810971 0.626673
0.904906 0.812253 0.627558
0.920317 0.812711 0.630213
0.462562 0.817105 0.610681
0.465614 0.817044 0.611322
0.469123 0.816892 0.611963
0.476020 0.816403 0.612970
0.486488 0.815579 0.614618
0.500450 0.814542 0.616968
0.517632 0.813352 0.620203
0.537255 0.812009 0.624475
0.559136 0.810513 0.629786
0.582422 0.808896 0.636042
0.606500 0.807156 0.643305
0.630945 0.805295 0.651484
0.654871 0.803281 0.660456
0.678004 0.801053 0.670039
0.697078 0.798856 0.677485
0.703975 0.797086 0.674647
0.714900 0.794400 0.676753
0.728115 0.791348 0.682734
0.740536 0.788418 0.689113
0.751949 0.785855 0.695949
0.762203 0.783993 0.702388
0.770413 0.788479 0.698939
0.780087 0.792752 0.695186
0.791073 0.796872 0.691341
0.803220 0.800748 0.687190
0.816342 0.804471 0.682826
0.830381 0.808072 0.678370
0.845151 0.811551 0.673854
0.860502 0.814969 0.669215
0.881468 0.824430 0.669581
0.899504 0.830625 0.672480
0.914580 0.832486 0.676020
0.506889 0.831754 0.640406
0.509239 0.831632 0.640894
0.512078 0.831418 0.641413
0.517906 0.830869 0.642298
0.526787 0.830014 0.643610
0.538445 0.828916 0.645655
0.552789 0.827634 0.648402
0.569451 0.826169 0.651972
0.588190 0.824552 0.656428
0.608362 0.822812 0.661830
0.629267 0.820951 0.667964
0.650690 0.818967 0.674922
0.671962 0.816922 0.682612
0.692836 0.814755 0.690974
