data/fiter_cube/72007313/1022721/file.cube
# Created by Adobe Lightroom plugin Export LUT (1.17.0)
# www.johnrellis.com/lightroom/exportlut.htm
# Preset: 高级电影暗青色_10 云集
# Color profile: C:\Program Files (x86)\Common Files\Adobe\Color\Profiles\Recommended\AdobeRGB1998.icc
LUT_3D_SIZE 8
DOMAIN_MIN 0.000000 0.000000 0.000000
DOMAIN_MAX 0.903226 0.903226 0.903226
0.061219 0.065095 0.037201
0.116701 0.070741 0.044343
0.261631 0.012512 0.037354
0.462287 0.000000 0.000000
0.646387 0.000000 0.000000
0.781003 0.000000 0.000000
0.867247 0.139284 0.000000
0.930083 0.264775 0.068116
0.071962 0.112093 0.063905
0.114656 0.124025 0.065919
0.270848 0.100160 0.034546
0.463691 0.000000 0.000000
0.643824 0.000000 0.000000
0.773251 0.000000 0.000000
0.861448 0.179751 0.000000
0.927001 0.284428 0.061402
0.060304 0.245762 0.106569
0.125063 0.249851 0.111482
0.250858 0.276890 0.102296
0.496956 0.274601 0.000000
0.667964 0.232700 0.000000
0.783230 0.260044 0.000000
0.870207 0.313787 0.000000
0.931182 0.369848 0.084047
0.000000 0.440772 0.185763
0.114107 0.441657 0.187350
0.275669 0.431434 0.204837
0.457801 0.487007 0.189151
0.689967 0.511864 0.039826
0.795163 0.463294 0.090364
0.871794 0.450935 0.116304
0.929320 0.469673 0.149691
0.000000 0.613794 0.310796
0.145022 0.613397 0.312352
0.333227 0.609888 0.332128
0.481483 0.588128 0.370977
0.614954 0.620935 0.322362
0.772793 0.632074 0.224949
0.860288 0.600977 0.237308
0.922454 0.581415 0.277043
0.213291 0.718807 0.441382
0.271824 0.720882 0.449409
0.407263 0.714015 0.464118
0.537530 0.700191 0.484627
0.628840 0.684352 0.517266
0.720027 0.706752 0.475502
0.835843 0.723507 0.420905
0.909819 0.705806 0.418067
0.387091 0.790799 0.560327
0.419471 0.789548 0.565148
0.506645 0.782223 0.578241
0.617731 0.771328 0.609186
0.680903 0.757626 0.622950
0.732418 0.756497 0.634028
0.795193 0.773617 0.609522
0.878416 0.794369 0.588251
0.539483 0.843107 0.662959
0.557214 0.841520 0.666255
0.613092 0.836698 0.679225
0.690211 0.830137 0.704768
0.742733 0.819974 0.718959
0.783413 0.813260 0.738399
0.816403 0.822110 0.743099
0.857786 0.836362 0.732723
0.064393 0.071046 0.080140
0.122316 0.077790 0.084047
0.263310 0.075410 0.079744
0.461219 0.000000 0.070405
0.641352 0.000000 0.012146
0.768307 0.000000 0.000000
0.858061 0.156405 0.000000
0.924651 0.263035 0.051362
0.064546 0.123995 0.100649
0.129824 0.136141 0.101717
0.275700 0.131777 0.094575
0.468269 0.083070 0.077882
0.644007 0.000000 0.030762
0.766079 0.095766 0.000000
0.853941 0.193973 0.000000
0.921447 0.281529 0.035828
0.033600 0.261997 0.137758
0.129610 0.269993 0.143648
0.265568 0.287297 0.142977
0.496712 0.279850 0.098787
0.660548 0.250736 0.075868
0.773129 0.270634 0.050996
0.858488 0.313054 0.039094
0.924651 0.363500 0.073091
0.000000 0.447730 0.213321
0.117372 0.451362 0.216861
0.286229 0.446387 0.228275
0.453529 0.480110 0.216953
0.673854 0.496895 0.117800
0.779629 0.449989 0.133700
0.859678 0.444465 0.145113
0.922087 0.466133 0.171206
0.000000 0.618494 0.335546
0.148135 0.617090 0.335210
0.331151 0.611688 0.348119
0.481056 0.587274 0.378943
0.607752 0.614191 0.335485
0.766293 0.625666 0.242405
0.854459 0.596399 0.258854
0.918212 0.577813 0.292210
0.210330 0.717372 0.451453
0.261021 0.716213 0.453742
0.396277 0.709987 0.466041
0.537560 0.697566 0.491371
0.628595 0.681422 0.524712
0.719081 0.705592 0.486763
0.833677 0.721645 0.432227
0.906645 0.703395 0.429114
0.374243 0.787778 0.560418
0.403113 0.785336 0.562219
0.493812 0.778866 0.575372
0.609888 0.769192 0.606714
0.679255 0.756710 0.623926
0.730617 0.754025 0.635859
0.791836 0.770352 0.609308
0.875395 0.790463 0.585534
0.529870 0.842008 0.661952
0.549248 0.840726 0.665797
0.606744 0.836088 0.678737
0.685817 0.829648 0.703944
0.749630 0.822782 0.728298
0.785916 0.815061 0.742702
0.816373 0.821622 0.745144
0.856657 0.835111 0.732967
0.010834 0.079438 0.177035
0.100710 0.082948 0.185183
0.300359 0.084077 0.197238
0.470680 0.135866 0.190280
0.655543 0.077729 0.167819
0.774716 0.173678 0.168307
0.860533 0.242405 0.160616
0.926116 0.304753 0.155337
0.009674 0.133669 0.206271
0.098543 0.131411 0.212131
0.306065 0.155917 0.213596
0.476112 0.180484 0.198550
0.655634 0.164767 0.180667
0.772000 0.213962 0.174350
0.857603 0.268345 0.165927
0.924193 0.324285 0.162753
0.000000 0.291386 0.266331
0.076905 0.303624 0.268254
0.308934 0.323705 0.257694
0.510277 0.313298 0.236790
0.670863 0.315953 0.220371
0.777066 0.331365 0.207279
0.858061 0.359716 0.200534
0.922515 0.394659 0.201694
0.000000 0.492622 0.324163
0.000000 0.500633 0.324926
0.306584 0.502281 0.327855
0.492195 0.508659 0.330938
0.684504 0.507897 0.278355
0.784054 0.472023 0.270390
0.859129 0.476570 0.268254
0.920104 0.490974 0.274998
0.000000 0.639582 0.411902
0.104463 0.640070 0.414008
0.337682 0.636164 0.422889
0.517937 0.617731 0.447456
0.628992 0.628962 0.427710
0.774441 0.632197 0.339696
0.852873 0.604028 0.361273
0.914855 0.589166 0.375799
0.194980 0.728023 0.500298
0.258762 0.726925 0.503380
0.403998 0.720302 0.513146
0.562097 0.706813 0.542473
0.645472 0.686702 0.565820
0.723415 0.708186 0.533349
0.833036 0.722408 0.482429
0.903288 0.707332 0.491493
0.375860 0.794400 0.591547
0.407843 0.792233 0.593866
0.496803 0.785122 0.602930
0.609186 0.774624 0.625360
0.687434 0.762600 0.643885
0.738735 0.756222 0.660670
0.796231 0.773983 0.638758
0.877470 0.794308 0.618402
0.521386 0.845518 0.675593
0.537682 0.843839 0.677150
0.596735 0.838743 0.687678
0.680842 0.832822 0.711788
0.756649 0.825101 0.742397
0.790066 0.818479 0.751980
0.820066 0.823087 0.757412
0.858854 0.837064 0.746578
0.000000 0.090974 0.338415
0.000000 0.095430 0.348425
0.260929 0.091218 0.368414
0.529290 0.091310 0.374884
0.664057 0.225986 0.349493
0.761318 0.272374 0.322484
0.849943 0.317144 0.311254
0.917174 0.357916 0.298955
0.000000 0.146059 0.373785
0.000000 0.138827 0.378851
0.266178 0.148806 0.389776
0.533593 0.179904 0.389319
0.662226 0.279210 0.362921
0.761929 0.304814 0.332830
0.848325 0.341009 0.319402
0.916289 0.372992 0.303960
0.000000 0.291417 0.423468
0.000000 0.297765 0.427344
0.249943 0.303593 0.432074
0.538781 0.355718 0.429114
0.655787 0.414160 0.410071
0.770382 0.409522 0.379644
0.852384 0.428565 0.366094
0.916869 0.438788 0.342473
0.000000 0.511742 0.494545
0.000000 0.518303 0.496132
0.259037 0.535607 0.497414
0.536492 0.543908 0.485786
0.677363 0.528405 0.459602
0.772030 0.519188 0.435370
0.848600 0.517296 0.415900
0.912200 0.522545 0.402197
0.000000 0.664454 0.543023
0.000000 0.665126 0.541466
0.305455 0.666835 0.537743
0.542351 0.653254 0.543694
0.655207 0.646296 0.545190
0.776089 0.642939 0.499001
0.848539 0.616266 0.491615
0.906798 0.613001 0.484688
0.144320 0.748409 0.584344
0.235538 0.749081 0.588312
0.400427 0.740993 0.589807
0.566979 0.727779 0.602228
0.675074 0.710658 0.622400
0.737209 0.718135 0.607507
0.836179 0.726375 0.557855
0.898405 0.711879 0.571221
0.360449 0.804471 0.639368
0.396704 0.802914 0.641535
0.493782 0.797024 0.648371
0.607965 0.787411 0.662013
0.711910 0.775540 0.690181
0.755581 0.762478 0.701625
0.802365 0.778836 0.679225
0.878904 0.796170 0.656550
0.517296 0.852598 0.705501
0.535363 0.851377 0.707271
0.587762 0.846799 0.712184
0.666468 0.839506 0.725277
0.749569 0.831052 0.750790
0.795895 0.824552 0.766445
0.825620 0.825101 0.775631
0.861692 0.839506 0.765713
0.000000 0.111299 0.526085
0.000000 0.114961 0.531182
0.198489 0.115328 0.541863
0.493446 0.092256 0.555352
0.695094 0.231785 0.546929
0.773983 0.372442 0.511620
0.826200 0.464088 0.513787
0.896605 0.477516 0.496895
0.000000 0.154025 0.545129
0.000000 0.154635 0.549584
0.202304 0.162814 0.556054
0.497383 0.170718 0.564996
0.694148 0.285679 0.553277
0.771633 0.404944 0.520348
0.824125 0.482673 0.522454
0.896818 0.486305 0.500267
0.000000 0.307591 0.576959
0.000000 0.309880 0.579767
0.176120 0.293797 0.584833
0.494331 0.332708 0.587610
0.688930 0.419989 0.572869
0.761105 0.488045 0.544671
0.823911 0.515404 0.533043
0.897063 0.510979 0.506920
0.000000 0.495064 0.612299
0.000000 0.499092 0.613092
0.223545 0.511467 0.615808
0.490150 0.525109 0.615259
0.684352 0.563745 0.607568
0.750881 0.583825 0.586999
0.831296 0.568627 0.557458
0.898222 0.556817 0.525170
0.000000 0.655085 0.652125
0.000000 0.657282 0.652613
0.289220 0.661707 0.652644
0.516686 0.666011 0.650690
0.678645 0.664393 0.640803
0.765377 0.649409 0.618097
0.834226 0.636896 0.594507
0.895781 0.628962 0.573144
0.118776 0.751095 0.676997
0.207767 0.750576 0.676295
0.372107 0.747036 0.672694
0.537865 0.741787 0.669429
0.674983 0.728481 0.669886
0.748348 0.725002 0.673915
0.835813 0.727443 0.644221
0.893248 0.710872 0.641779
0.339666 0.813718 0.703029
0.372717 0.812436 0.702754
0.467597 0.808286 0.702815
0.586938 0.798978 0.705348
0.693843 0.787716 0.713222
0.767514 0.775265 0.730556
0.807645 0.782467 0.719387
0.880461 0.794369 0.692378
0.493568 0.859098 0.740749
0.511559 0.857694 0.741176
0.566613 0.853178 0.743038
0.646235 0.847898 0.750088
0.726741 0.839231 0.760250
0.803250 0.831510 0.787015
0.831205 0.826078 0.795285
0.863493 0.840574 0.784665
0.000000 0.140536 0.671778
0.000000 0.143954 0.673457
0.138430 0.148653 0.676905
0.451789 0.156069 0.683864
0.666255 0.234623 0.687251
0.787991 0.396368 0.662531
0.842435 0.510155 0.642573
0.881834 0.581445 0.652033
0.000000 0.174014 0.675898
0.000000 0.177890 0.676722
0.140169 0.187350 0.680354
0.449470 0.204837 0.684596
0.663081 0.278294 0.687404
0.785183 0.422950 0.664393
0.840085 0.523980 0.645655
0.880247 0.588708 0.654658
0.000000 0.325994 0.695216
0.000000 0.323827 0.695583
0.138460 0.307561 0.697719
0.453010 0.342138 0.698573
0.662196 0.408209 0.697658
0.781582 0.506432 0.678035
0.835233 0.571405 0.661372
0.876493 0.616419 0.667536
0.000000 0.495399 0.712062
0.000000 0.497383 0.711849
0.228031 0.505974 0.712978
0.465034 0.513939 0.715816
0.663355 0.553796 0.714931
0.779995 0.603784 0.702510
0.829801 0.633631 0.686671
0.871946 0.655543 0.687007
0.000000 0.634028 0.728359
0.000000 0.635767 0.728725
0.294926 0.640711 0.729305
0.495552 0.648554 0.729183
0.653956 0.655818 0.726101
0.773159 0.677272 0.720729
0.819181 0.684352 0.704768
0.880766 0.670619 0.682734
0.175875 0.736660 0.749111
0.243046 0.737697 0.750027
0.386664 0.738735 0.750118
0.536919 0.740200 0.749722
0.664790 0.742611 0.747951
0.770504 0.743954 0.743923
0.830869 0.733120 0.727901
0.884916 0.723171 0.710323
0.369329 0.816953 0.777493
0.400610 0.816342 0.777432
0.483558 0.813138 0.775113
0.585840 0.808804 0.771817
0.684504 0.804593 0.768338
0.773526 0.795163 0.769009
0.819547 0.791836 0.769284
0.883696 0.796353 0.750088
0.494697 0.863828 0.791806
0.510246 0.862943 0.791470
0.559411 0.860319 0.790707
0.630426 0.857176 0.790738
0.710445 0.850278 0.791775
0.786526 0.841917 0.798947
0.839628 0.835142 0.815549
0.867948 0.844022 0.810697
0.000000 0.178836 0.768460
0.000000 0.183261 0.770077
0.130922 0.193210 0.771298
0.426703 0.217380 0.773037
0.627832 0.289494 0.773007
0.772641 0.400671 0.771786
0.846036 0.525566 0.743984
0.887663 0.613245 0.738094
0.000000 0.206760 0.768032
0.000000 0.211337 0.769284
0.129213 0.223484 0.770413
0.422919 0.249363 0.771176
0.623041 0.316014 0.770657
0.767758 0.416663 0.768795
0.842405 0.531334 0.741665
0.884886 0.613367 0.735225
0.000000 0.341863 0.776822
0.000000 0.338354 0.777249
0.148104 0.327062 0.777798
0.429419 0.359869 0.777066
0.623377 0.417853 0.774746
0.764950 0.493629 0.772732
0.841001 0.579339 0.751553
0.883665 0.643824 0.747097
0.000000 0.493935 0.785428
0.000000 0.494087 0.784939
0.248936 0.498085 0.784268
0.444739 0.503075 0.784756
0.627955 0.541192 0.782315
0.763058 0.587274 0.781125
0.839658 0.641596 0.766812
0.880980 0.681605 0.761227
0.000000 0.618677 0.791501
0.090120 0.619074 0.790921
0.293370 0.621546 0.790036
0.467018 0.627588 0.789242
0.624292 0.635981 0.787808
0.754086 0.660975 0.786618
0.834714 0.694789 0.778500
0.876066 0.718959 0.773495
0.227054 0.716762 0.802335
0.271763 0.717281 0.802335
0.387060 0.718959 0.802213
0.518639 0.722286 0.802243
0.641901 0.727016 0.801511
0.753628 0.736538 0.800412
0.835142 0.754971 0.798642
0.871580 0.760433 0.789456
0.382879 0.794125 0.817350
0.409308 0.794522 0.817746
0.482002 0.795041 0.817899
0.576867 0.796414 0.818326
0.674037 0.798550 0.818021
0.762539 0.802609 0.817838
0.835019 0.806271 0.816709
0.880125 0.798093 0.804715
0.495430 0.861845 0.841306
0.510796 0.861753 0.841398
0.563775 0.862516 0.843137
0.633326 0.859586 0.841093
0.707607 0.856382 0.838346
0.778561 0.854215 0.836637
0.841581 0.849119 0.838712
0.875090 0.849882 0.841855
0.000000 0.236179 0.837613
0.000000 0.241276 0.838041
0.204288 0.255863 0.837461
0.432471 0.291051 0.837278
0.607782 0.360113 0.836027
0.745846 0.456489 0.833707
0.844755 0.543114 0.832761
0.888640 0.628138 0.807919
0.000000 0.260105 0.837278
0.000000 0.265324 0.837644
0.206424 0.280644 0.837247
0.431373 0.314824 0.836606
0.606073 0.380468 0.835172
0.743801 0.469978 0.832883
0.842527 0.550286 0.831754
0.887419 0.631983 0.807706
0.000000 0.359838 0.838346
0.000000 0.352850 0.838834
0.213382 0.360113 0.837980
0.437873 0.397955 0.838102
0.607752 0.453101 0.835904
0.741390 0.520195 0.833219
0.838895 0.584375 0.832456
0.885832 0.654139 0.811887
0.000000 0.482307 0.840146
0.000000 0.486580 0.840360
0.293828 0.500542 0.839475
0.447272 0.506401 0.839750
0.611414 0.544793 0.837949
0.739681 0.589410 0.836088
0.834897 0.635828 0.835782
0.884611 0.689418 0.820249
0.000000 0.602777 0.842924
0.123293 0.603723 0.843198
0.282658 0.603998 0.842557
0.441291 0.604242 0.841581
0.606409 0.623987 0.840360
0.732876 0.652827 0.838987
0.828977 0.687800 0.839536
0.883513 0.730953 0.831113
0.242344 0.698543 0.848295
0.274266 0.698390 0.847959
0.365026 0.698482 0.847013
0.480262 0.699306 0.846067
0.602441 0.703120 0.845121
0.730159 0.718959 0.845640
0.826993 0.747311 0.848325
0.883574 0.776699 0.844938
0.388434 0.776791 0.857115
0.407111 0.776791 0.856901
0.465248 0.777005 0.856474
0.551629 0.778622 0.856352
0.649042 0.782498 0.856352
0.742367 0.789822 0.856870
0.826322 0.802609 0.857908
0.882933 0.818845 0.857786
0.510216 0.840879 0.868803
0.521996 0.840818 0.868681
0.562066 0.841093 0.868711
0.625757 0.842313 0.869139
0.699428 0.844724 0.869810
0.771054 0.848753 0.870756
0.835691 0.854551 0.872282
0.886229 0.860472 0.874144
