data/fiter_cube/27130762/1023403/file.cube
# Created by Adobe Lightroom plugin Export LUT (1.17.0)
# www.johnrellis.com/lightroom/exportlut.htm
# Preset: 森系文艺人像美食静物_07 云集
# Color profile: C:\Program Files (x86)\Common Files\Adobe\Color\Profiles\Recommended\AdobeRGB1998.icc
LUT_3D_SIZE 32
DOMAIN_MIN 0.0 0.0 0.0
DOMAIN_MAX 1.0 1.0 1.0
0.118349 0.118349 0.118349
0.123384 0.118776 0.118776
0.130312 0.119417 0.119509
0.144472 0.120851 0.120912
0.162509 0.123079 0.123171
0.181765 0.125429 0.125429
0.202457 0.127474 0.127657
0.224949 0.129732 0.129824
0.249699 0.132174 0.131991
0.277806 0.134463 0.134279
0.309331 0.136751 0.136721
0.344121 0.139498 0.139559
0.381903 0.142702 0.142184
0.422217 0.145632 0.145571
0.464454 0.149172 0.148928
0.508141 0.152529 0.152499
0.550713 0.156313 0.156252
0.592004 0.160830 0.160525
0.632380 0.165621 0.165530
0.674159 0.171542 0.171328
0.713771 0.178256 0.178073
0.751644 0.185885 0.185733
0.787594 0.194705 0.194400
0.821775 0.204898 0.204532
0.854429 0.216159 0.215885
0.885588 0.228916 0.228672
0.915404 0.243656 0.243198
0.943877 0.260075 0.259617
0.971069 0.278569 0.278386
0.996765 0.299657 0.299413
1.000000 0.323644 0.323369
1.000000 0.350713 0.350439
0.118532 0.123720 0.119265
0.122957 0.124239 0.119112
0.130739 0.125154 0.119783
0.144076 0.126802 0.122164
0.162325 0.128878 0.124392
0.181674 0.130709 0.126467
0.202670 0.132570 0.128481
0.225010 0.134554 0.130648
0.249882 0.136690 0.132815
0.278050 0.139040 0.134890
0.309697 0.141543 0.137484
0.344366 0.144198 0.140139
0.382147 0.147433 0.143038
0.422431 0.150912 0.146181
0.464637 0.154482 0.149538
0.508049 0.158145 0.153048
0.550683 0.161929 0.156802
0.591913 0.166293 0.161044
0.632349 0.171115 0.165988
0.673701 0.176913 0.171725
0.713039 0.183536 0.178470
0.750759 0.190829 0.186130
0.786618 0.199161 0.194919
0.820829 0.208988 0.204715
0.853483 0.220157 0.215976
0.884672 0.232731 0.229007
0.914549 0.246830 0.243381
0.943114 0.263157 0.260075
0.970367 0.281498 0.278569
0.996155 0.302251 0.299596
1.000000 0.325811 0.323644
1.000000 0.352605 0.350622
0.118715 0.131136 0.120577
0.121584 0.131899 0.119844
0.128908 0.132235 0.120394
0.146395 0.134432 0.121401
0.162081 0.135653 0.126223
0.181765 0.137301 0.128054
0.202792 0.138888 0.129915
0.225132 0.140780 0.132021
0.250309 0.142702 0.134005
0.278477 0.145235 0.136019
0.310307 0.147707 0.138399
0.345220 0.150729 0.141115
0.382910 0.154116 0.143984
0.423163 0.157687 0.147219
0.465492 0.161563 0.150484
0.508934 0.165255 0.153933
0.551263 0.169253 0.157931
0.592432 0.173709 0.161990
0.633082 0.178103 0.166903
0.673976 0.183810 0.172732
0.713283 0.190158 0.179324
0.750790 0.197330 0.186831
0.786557 0.205722 0.195682
0.820706 0.215061 0.205661
0.853330 0.225895 0.216953
0.884459 0.237980 0.229862
0.914336 0.252079 0.244388
0.942870 0.267857 0.261021
0.970123 0.285801 0.279515
0.995911 0.306279 0.300664
1.000000 0.329503 0.324437
1.000000 0.355932 0.351598
0.119142 0.146304 0.123720
0.120577 0.147158 0.121675
0.126589 0.147829 0.122042
0.142153 0.148653 0.122621
0.166629 0.152041 0.124086
0.182040 0.150088 0.131319
0.203281 0.151614 0.132906
0.226322 0.153170 0.134463
0.251499 0.155154 0.136355
0.280247 0.157687 0.138277
0.312169 0.160555 0.140658
0.347295 0.164004 0.143252
0.385138 0.167727 0.146273
0.425330 0.171847 0.149508
0.467659 0.175753 0.152621
0.510979 0.179965 0.155947
0.553338 0.183963 0.159945
0.594263 0.188418 0.164034
0.635065 0.193179 0.168917
0.675227 0.198428 0.174868
0.714015 0.204471 0.181277
0.751186 0.211185 0.188968
0.786862 0.219089 0.197787
0.820951 0.227909 0.207950
0.853635 0.238346 0.219333
0.884886 0.249790 0.232334
0.914763 0.263096 0.247013
0.943297 0.278660 0.263798
0.970397 0.295903 0.282567
0.996002 0.315587 0.303746
1.000000 0.338140 0.327550
1.000000 0.363806 0.354559
0.120027 0.164981 0.128176
0.120790 0.165957 0.125673
0.124392 0.166873 0.124178
0.136995 0.168032 0.124636
0.158755 0.169314 0.125093
0.188876 0.174838 0.125673
0.209598 0.171603 0.131594
0.227726 0.170565 0.138827
0.253605 0.172824 0.140383
0.282628 0.175814 0.142306
0.314885 0.179202 0.144320
0.350469 0.183230 0.146975
0.388464 0.187533 0.149905
0.429023 0.192050 0.152895
0.471412 0.196414 0.156069
0.514824 0.201053 0.159274
0.556970 0.205356 0.163210
0.597711 0.209873 0.167269
0.638819 0.214542 0.172305
0.678401 0.219608 0.178103
0.716426 0.225315 0.184787
0.753140 0.231418 0.192660
0.788388 0.238743 0.201419
0.822263 0.247074 0.211856
0.854673 0.256565 0.223301
0.885710 0.267277 0.236667
0.915404 0.280003 0.251438
0.943694 0.294163 0.268223
0.970581 0.310735 0.287083
0.996002 0.329595 0.308324
1.000000 0.351171 0.332219
1.000000 0.375982 0.359167
0.120241 0.185550 0.132845
0.120821 0.186435 0.130282
0.121767 0.187533 0.126680
0.131899 0.188968 0.126589
0.151461 0.190585 0.126711
0.177310 0.192233 0.126680
0.213870 0.201480 0.126162
0.239658 0.199039 0.131624
0.259129 0.195560 0.143313
0.286229 0.197971 0.148043
0.319280 0.202365 0.150027
0.355169 0.206943 0.152377
0.393652 0.211704 0.155123
0.434546 0.216861 0.157748
0.477363 0.222171 0.160678
0.520409 0.226841 0.164096
0.562310 0.231418 0.167758
0.603357 0.235996 0.172030
0.644068 0.240787 0.177157
0.683009 0.245548 0.183017
0.720485 0.251041 0.189914
0.756741 0.256809 0.197971
0.800046 0.266972 0.210330
0.832975 0.274937 0.221073
0.864286 0.283635 0.233463
0.894133 0.293767 0.247105
0.922637 0.305638 0.262394
0.949828 0.319036 0.279576
0.975677 0.334661 0.298650
1.000000 0.352575 0.319982
1.000000 0.373236 0.344213
1.000000 0.396979 0.371130
0.119844 0.208499 0.138033
0.120546 0.209354 0.135897
0.121248 0.210330 0.132509
0.127687 0.212192 0.128695
0.143374 0.214298 0.128847
0.169619 0.216403 0.128756
0.198978 0.218875 0.128450
0.239567 0.229892 0.126284
0.272892 0.231632 0.133089
0.302129 0.230472 0.143160
0.326787 0.230076 0.158022
0.363684 0.235447 0.160037
0.402777 0.241215 0.162295
0.444221 0.247044 0.164736
0.487190 0.252506 0.167422
0.529625 0.257603 0.170504
0.570855 0.262303 0.174258
0.612970 0.267247 0.178744
0.652827 0.271763 0.184085
0.691157 0.276432 0.190311
0.728542 0.281682 0.197543
0.764858 0.287297 0.206332
0.799802 0.294011 0.216312
0.833219 0.301305 0.227481
0.864958 0.309850 0.240360
0.894896 0.319188 0.254368
0.923278 0.330175 0.270054
0.950195 0.342626 0.287388
0.975738 0.357153 0.306615
0.999817 0.373938 0.328222
1.000000 0.393286 0.352178
1.000000 0.415869 0.379431
0.119203 0.232883 0.144137
0.119661 0.233646 0.142123
0.120577 0.234592 0.138888
0.122225 0.236973 0.131167
0.138369 0.239322 0.131044
0.160494 0.242039 0.131136
0.190707 0.244816 0.130770
0.223362 0.248417 0.129915
0.267185 0.261051 0.125948
0.310094 0.269139 0.133547
0.348730 0.271946 0.141756
0.376989 0.269871 0.159609
0.410864 0.273014 0.171267
0.452766 0.279606 0.173251
0.495766 0.285771 0.175601
0.537774 0.290959 0.178470
0.580041 0.296300 0.182376
0.621118 0.301030 0.186831
0.659724 0.305150 0.192172
0.696986 0.309209 0.198611
0.733333 0.313970 0.206363
0.768856 0.319280 0.215030
0.803006 0.325048 0.225284
0.835752 0.331701 0.236942
0.866880 0.339330 0.249790
0.896330 0.348089 0.264195
0.924254 0.357946 0.279789
0.950805 0.369329 0.297063
0.975982 0.382696 0.316716
0.999664 0.398474 0.338262
1.000000 0.416754 0.362524
1.000000 0.437964 0.389624
0.117983 0.260563 0.151400
0.118318 0.261448 0.148867
0.119173 0.262425 0.145937
0.120760 0.264591 0.138827
0.132113 0.267491 0.134188
0.152621 0.270817 0.133852
0.181674 0.274418 0.133364
0.215854 0.278477 0.132326
0.252506 0.283268 0.131014
0.299229 0.296849 0.126284
0.352667 0.312749 0.132509
0.395514 0.316991 0.142153
0.433753 0.317845 0.157626
0.465736 0.317113 0.179355
0.506096 0.322362 0.186435
0.548943 0.328405 0.189273
0.590784 0.333562 0.192996
0.630579 0.338140 0.197452
0.667781 0.341466 0.203006
0.703975 0.345159 0.209598
0.739437 0.349310 0.217411
0.774014 0.353765 0.226322
0.807279 0.358953 0.236912
0.839261 0.365057 0.248631
0.869657 0.371801 0.261784
0.898497 0.379553 0.276036
0.925841 0.388525 0.291966
0.951812 0.398932 0.309514
0.976471 0.411383 0.329046
0.999664 0.425879 0.350958
1.000000 0.442878 0.375097
1.000000 0.462898 0.402350
0.115023 0.292302 0.159030
0.115572 0.292943 0.156954
0.116457 0.293980 0.153902
0.117739 0.296391 0.146700
0.122835 0.299809 0.136782
0.145663 0.303288 0.136477
0.170626 0.307713 0.135927
0.207523 0.312108 0.135042
0.245823 0.317296 0.133852
0.286137 0.323369 0.131563
0.335607 0.337011 0.126558
0.399969 0.361395 0.128786
0.446235 0.366552 0.141146
0.494087 0.371221 0.152590
0.527672 0.368658 0.178683
0.562005 0.369299 0.202976
0.602777 0.374121 0.206760
0.641321 0.377813 0.211276
0.677333 0.380774 0.216739
0.712367 0.383642 0.223423
0.746609 0.387060 0.231327
0.779843 0.390753 0.240543
0.812070 0.395056 0.250797
0.842863 0.400183 0.262730
0.872404 0.406012 0.275700
0.900450 0.412879 0.290379
0.927245 0.421088 0.306371
0.952758 0.430579 0.324010
0.976928 0.442084 0.343999
0.999695 0.455573 0.365698
1.000000 0.471778 0.390448
1.000000 0.490333 0.417273
0.109987 0.327489 0.168154
0.110323 0.328283 0.165774
0.111238 0.329229 0.162905
0.112795 0.331640 0.155886
0.115572 0.335210 0.143984
0.135286 0.339208 0.139101
0.163333 0.343938 0.138460
0.196170 0.349340 0.137453
0.237644 0.354955 0.136141
0.280064 0.361395 0.134218
0.324254 0.368658 0.131197
0.375830 0.381659 0.125368
0.452644 0.415961 0.121798
0.502190 0.422095 0.136934
0.550835 0.426093 0.151522
0.588800 0.423407 0.176791
0.619440 0.419684 0.208438
0.651911 0.419837 0.228305
0.686793 0.421759 0.233463
0.720729 0.423987 0.240024
0.753902 0.426520 0.248051
0.786191 0.429450 0.257115
0.817350 0.433143 0.267887
0.847318 0.437476 0.279789
0.876005 0.442603 0.293004
0.903258 0.448493 0.307561
0.929229 0.455726 0.323766
0.954009 0.464424 0.341466
0.977539 0.474922 0.361212
0.999573 0.487434 0.383215
1.000000 0.502159 0.407477
1.000000 0.519219 0.433906
0.101228 0.366461 0.177615
0.101686 0.367254 0.175723
0.102754 0.368200 0.172641
0.104677 0.370520 0.165774
0.107393 0.374212 0.153811
0.119539 0.378851 0.141299
0.152407 0.383825 0.140230
0.185000 0.389624 0.139376
0.226383 0.395941 0.137972
0.272068 0.402777 0.135836
0.318914 0.410864 0.133089
0.368231 0.420722 0.128939
0.428565 0.439643 0.121401
0.513725 0.479408 0.110842
0.565026 0.485023 0.132021
0.611444 0.485512 0.152590
0.652766 0.482582 0.176028
0.679561 0.474556 0.214267
0.705135 0.470344 0.251194
0.736019 0.470771 0.264134
0.767514 0.471870 0.271855
0.798001 0.473823 0.281285
0.827512 0.476295 0.291569
0.855863 0.479469 0.303532
0.883085 0.483436 0.316503
0.909056 0.488533 0.331182
0.933837 0.494667 0.347082
0.957397 0.502281 0.364782
0.979797 0.511650 0.384436
1.000000 0.522911 0.405921
1.000000 0.536065 0.429358
1.000000 0.551324 0.454658
0.086152 0.410437 0.188815
0.086763 0.411231 0.186709
0.087678 0.412207 0.183566
0.089937 0.414405 0.176333
0.093233 0.418097 0.164096
0.098024 0.422797 0.145449
0.135348 0.427710 0.141665
0.173465 0.433661 0.140444
0.211063 0.441199 0.139040
0.262058 0.449714 0.136629
0.313115 0.459083 0.133761
0.365057 0.469215 0.130007
0.418555 0.479744 0.124819
0.473732 0.490547 0.118135
0.559686 0.529992 0.102113
0.615595 0.538476 0.127565
0.658320 0.535546 0.154879
0.697932 0.530846 0.179629
0.725887 0.521874 0.217685
0.750027 0.515709 0.259281
0.774685 0.514580 0.295995
0.804166 0.515282 0.304814
0.832578 0.516991 0.315068
0.859953 0.519249 0.326757
0.886229 0.522423 0.339757
0.911345 0.526513 0.353948
0.935363 0.531884 0.369848
0.958160 0.538628 0.387457
0.979828 0.546807 0.406592
1.000000 0.556817 0.427527
1.000000 0.568475 0.449928
1.000000 0.582269 0.474525
0.059754 0.455238 0.199649
0.061067 0.455909 0.197879
0.063020 0.456855 0.194736
0.066102 0.459022 0.187839
0.071077 0.462593 0.176120
0.077607 0.467903 0.157595
0.108064 0.474159 0.142245
0.156466 0.480598 0.141054
0.199802 0.488045 0.139467
0.245823 0.496376 0.137667
0.300877 0.504692 0.134798
0.354894 0.513878 0.131533
0.409003 0.523247 0.127138
0.463935 0.532982 0.121767
0.519738 0.542687 0.114382
0.602258 0.578241 0.093874
0.661555 0.588617 0.124849
0.700374 0.582452 0.159243
0.736995 0.575525 0.188815
0.768765 0.567773 0.222385
0.791409 0.559991 0.269261
0.813626 0.557580 0.314275
0.837888 0.558709 0.342290
0.864286 0.560327 0.353765
0.889647 0.562554 0.366339
0.913878 0.565820 0.380529
0.936980 0.570275 0.396002
0.959045 0.575860 0.412848
0.980041 0.582910 0.431281
0.999847 0.591485 0.451026
1.000000 0.601862 0.472786
1.000000 0.614130 0.496345
0.000000 0.503471 0.212345
0.000000 0.504265 0.210269
0.000000 0.505211 0.207004
0.000000 0.507439 0.200320
0.000000 0.510643 0.188479
0.019959 0.515373 0.170291
0.051026 0.521172 0.143069
0.131716 0.526757 0.141909
0.183291 0.533379 0.140627
0.229465 0.541161 0.138918
0.283330 0.549035 0.136904
0.340429 0.557153 0.133974
0.396002 0.565881 0.130373
0.451575 0.574640 0.126131
0.506981 0.583246 0.121065
0.562799 0.591455 0.114321
0.640009 0.622370 0.089937
0.703182 0.635279 0.126070
0.739132 0.626673 0.167758
0.773861 0.618708 0.201633
0.807004 0.611322 0.232486
0.829953 0.603113 0.279942
0.850248 0.599329 0.329259
0.869566 0.601038 0.377935
0.892912 0.603235 0.396490
0.916289 0.605676 0.410040
0.938750 0.609064 0.424598
0.960113 0.613733 0.440711
0.980438 0.619745 0.458198
0.999542 0.627222 0.477394
1.000000 0.636378 0.498329
1.000000 0.647303 0.521141
0.000000 0.550347 0.225010
0.000000 0.551019 0.223239
0.000000 0.551873 0.219944
0.000000 0.553857 0.213352
0.000000 0.556878 0.202090
0.000000 0.561120 0.185031
0.000000 0.566522 0.159274
0.092348 0.572259 0.143954
0.161288 0.578210 0.142977
0.213748 0.585107 0.141512
0.261601 0.592706 0.139895
0.322179 0.599664 0.138216
0.379950 0.606806 0.135561
0.435981 0.614099 0.132662
0.491127 0.621302 0.129549
0.546105 0.628473 0.124941
0.600916 0.635309 0.120211
0.673182 0.661433 0.099031
0.741665 0.679164 0.132448
0.775937 0.669368 0.179934
0.808835 0.660670 0.217594
0.840024 0.652522 0.252354
0.865660 0.644892 0.293950
0.884398 0.640192 0.346777
0.901762 0.641016 0.398840
0.919188 0.645869 0.442145
0.940734 0.648249 0.455756
0.961273 0.651820 0.470802
0.980743 0.656550 0.487282
0.999054 0.662745 0.505089
1.000000 0.670344 0.524651
1.000000 0.679652 0.545953
0.000000 0.594232 0.238224
0.000000 0.594812 0.235904
0.000000 0.595544 0.233280
0.000000 0.597284 0.227146
0.000000 0.600031 0.216373
0.000000 0.603845 0.200259
0.000000 0.608606 0.177127
0.000000 0.614313 0.147280
0.131685 0.619348 0.146975
0.194369 0.625299 0.146212
0.246433 0.631952 0.145327
0.299351 0.638666 0.144442
0.360174 0.644892 0.143069
0.417426 0.651148 0.141756
0.473213 0.657465 0.139803
0.527703 0.663600 0.137453
0.581811 0.669551 0.135317
0.635798 0.675441 0.132204
0.704250 0.697597 0.117861
0.776211 0.719661 0.144717
0.810330 0.710262 0.195315
0.841154 0.700313 0.236912
0.870268 0.691554 0.274540
0.897673 0.684260 0.309667
0.914946 0.678706 0.365698
0.930632 0.678645 0.419867
0.945159 0.683375 0.470802
0.961883 0.688838 0.501762
0.980591 0.692470 0.516991
0.998169 0.697444 0.533715
1.000000 0.703670 0.551751
1.000000 0.711360 0.571435
0.000000 0.635645 0.251682
0.000000 0.636194 0.250156
0.000000 0.642115 0.248997
0.000000 0.643549 0.243076
0.000000 0.645960 0.232639
0.000000 0.649073 0.218112
0.000000 0.653132 0.196841
0.000000 0.658106 0.165469
0.091585 0.662806 0.154635
0.173220 0.667659 0.154452
0.231083 0.673243 0.154177
0.281804 0.679347 0.154177
0.339696 0.684840 0.154055
0.399603 0.690089 0.153811
0.456306 0.695369 0.153384
0.511192 0.700587 0.152773
0.564935 0.705806 0.152682
0.618158 0.710903 0.151766
0.670954 0.715877 0.151095
0.735866 0.734218 0.143954
0.805570 0.755673 0.167025
0.844236 0.750637 0.217136
0.872740 0.739559 0.261997
0.899535 0.730007 0.302007
0.924376 0.722011 0.339574
0.943297 0.716213 0.387396
0.957031 0.714839 0.442695
0.969665 0.718471 0.494270
0.981170 0.726497 0.543114
0.997162 0.731014 0.562463
1.000000 0.735866 0.579034
1.000000 0.742000 0.597070
0.000000 0.676020 0.266606
0.000000 0.677119 0.265110
0.000000 0.678431 0.262669
0.000000 0.680323 0.257572
0.000000 0.682948 0.248447
0.000000 0.685969 0.235203
0.000000 0.689723 0.215763
0.000000 0.694118 0.189242
0.000000 0.699001 0.163607
0.146578 0.703304 0.163729
0.212528 0.708125 0.164492
0.266606 0.713497 0.165103
0.315892 0.719142 0.166140
0.377569 0.723720 0.166812
0.435554 0.728359 0.167819
0.491127 0.732937 0.168551
0.545098 0.737545 0.169375
0.597803 0.742031 0.170748
0.649928 0.746609 0.172091
0.701656 0.751064 0.173495
0.762814 0.766201 0.171420
0.830472 0.787289 0.192172
0.873716 0.786954 0.241032
0.900206 0.775204 0.288426
0.924804 0.765164 0.330846
0.947601 0.756924 0.370275
0.968109 0.750607 0.408728
0.980163 0.748531 0.465644
0.991119 0.751339 0.518303
1.000000 0.758267 0.567437
1.000000 0.766873 0.606500
1.000000 0.771664 0.623011
0.000000 0.712978 0.281712
0.000000 0.713985 0.280186
0.000000 0.715175 0.278172
0.000000 0.716945 0.273014
0.000000 0.719234 0.264836
0.000000 0.721981 0.252659
0.000000 0.725277 0.235660
0.000000 0.729183 0.212772
0.000000 0.734035 0.179843
0.115206 0.737972 0.175631
0.193423 0.742245 0.177096
0.251621 0.746883 0.178714
0.302647 0.751919 0.179873
0.354833 0.756710 0.182071
0.414984 0.760708 0.183749
0.471412 0.764706 0.185794
0.525505 0.768734 0.187778
0.578149 0.772641 0.190707
0.629725 0.776669 0.193210
0.680507 0.780636 0.196628
0.730800 0.784543 0.200290
0.788235 0.796689 0.202914
0.853422 0.817258 0.220890
0.901061 0.821317 0.269047
0.925383 0.808835 0.318334
0.947845 0.798245 0.362524
0.968566 0.789639 0.402808
0.987579 0.783139 0.440101
1.000000 0.780087 0.489570
1.000000 0.781979 0.542748
1.000000 0.787839 0.591699
1.000000 0.796902 0.636774
0.000000 0.748684 0.297276
0.000000 0.749599 0.295995
0.000000 0.750668 0.294194
0.000000 0.752255 0.289586
0.000000 0.754238 0.281987
0.000000 0.756680 0.271122
0.000000 0.759579 0.256260
0.000000 0.763088 0.236576
0.000000 0.767269 0.209140
0.074708 0.771450 0.189914
0.174136 0.775143 0.191562
0.237125 0.779141 0.193790
0.290105 0.783413 0.196292
0.338537 0.787991 0.198581
0.394018 0.791928 0.201724
0.451698 0.795499 0.204837
0.506676 0.799069 0.208469
0.559442 0.802792 0.212314
0.610864 0.806516 0.216587
0.661311 0.810178 0.221714
0.710933 0.813870 0.227237
0.759976 0.817441 0.232853
0.813901 0.826932 0.239200
0.876188 0.846708 0.255650
0.927520 0.854734 0.303716
0.949584 0.841642 0.354467
0.969848 0.830533 0.399359
0.988373 0.821805 0.439734
1.000000 0.815030 0.477546
1.000000 0.810941 0.517662
1.000000 0.811948 0.570764
1.000000 0.816770 0.619409
0.000000 0.784909 0.315709
0.000000 0.785458 0.314397
0.000000 0.786130 0.312383
0.000000 0.787289 0.307988
0.000000 0.788876 0.301061
0.000000 0.790860 0.291478
0.000000 0.793454 0.277989
0.000000 0.796567 0.261021
0.000000 0.800381 0.237827
0.000000 0.804715 0.207645
0.157809 0.807980 0.210025
0.225803 0.811521 0.212741
0.280674 0.815213 0.215946
0.329747 0.819150 0.219059
0.375647 0.823239 0.222568
0.433936 0.826261 0.226688
0.489143 0.829282 0.231113
0.542077 0.832364 0.235691
0.593133 0.835416 0.241367
0.642969 0.838437 0.247227
0.691615 0.841459 0.253788
0.739467 0.844327 0.260685
0.786404 0.847105 0.268345
0.836423 0.853788 0.276799
0.895201 0.872465 0.290898
0.949767 0.884154 0.338964
0.969848 0.870542 0.389624
0.988098 0.859159 0.434119
1.000000 0.850065 0.475013
1.000000 0.843168 0.512749
1.000000 0.838346 0.548760
1.000000 0.838102 0.596887
0.000000 0.817441 0.333715
0.000000 0.818021 0.332250
0.000000 0.818631 0.330755
0.000000 0.819608 0.326970
0.000000 0.821012 0.320562
0.000000 0.822782 0.311803
0.000000 0.825010 0.300359
0.000000 0.827756 0.284764
0.000000 0.831022 0.265721
0.060914 0.834836 0.240177
0.145144 0.838224 0.229801
0.216648 0.841215 0.232853
0.272648 0.844419 0.236393
0.322454 0.847745 0.240299
0.368261 0.851347 0.244663
0.416297 0.854704 0.249210
0.472236 0.857237 0.254276
0.525322 0.859831 0.260105
0.576165 0.862425 0.266361
0.625452 0.865019 0.273381
0.673548 0.867582 0.281102
0.720485 0.870024 0.289067
0.766384 0.872404 0.298131
0.811398 0.874601 0.307561
0.856840 0.878111 0.316014
0.912108 0.895323 0.330755
0.964019 0.905974 0.376654
0.987579 0.896757 0.425116
1.000000 0.885130 0.469429
1.000000 0.875731 0.510216
1.000000 0.868620 0.548150
1.000000 0.863706 0.584009
0.000000 0.849943 0.354040
0.000000 0.850431 0.353002
0.000000 0.850889 0.351812
0.000000 0.851743 0.348119
0.000000 0.852842 0.342565
0.000000 0.854337 0.334752
0.000000 0.856168 0.324620
0.043244 0.858427 0.311254
0.082063 0.861143 0.294560
0.106783 0.864286 0.273472
0.140810 0.867643 0.252201
0.212924 0.870054 0.255589
0.269017 0.872648 0.259342
0.318242 0.875364 0.263615
0.363653 0.878172 0.268193
0.406683 0.881102 0.273381
0.456794 0.883482 0.278782
0.509758 0.885405 0.285252
0.560235 0.887541 0.291936
0.609064 0.889677 0.299657
0.656336 0.891783 0.308110
0.702419 0.893797 0.317174
0.747372 0.895628 0.326818
0.791104 0.897337 0.336919
0.833707 0.898772 0.347204
0.876158 0.900999 0.358404
0.928222 0.916228 0.375219
0.976745 0.926085 0.416175
1.000000 0.920775 0.462562
1.000000 0.908690 0.506767
1.000000 0.899138 0.546899
1.000000 0.891905 0.584436
0.000000 0.878996 0.374365
0.000000 0.879393 0.373754
0.006561 0.879820 0.372625
0.027344 0.880522 0.369329
0.059205 0.881529 0.364324
0.076936 0.882811 0.357336
0.094240 0.884489 0.348425
0.111452 0.886442 0.337163
0.128634 0.888853 0.322850
0.146212 0.891661 0.305852
0.163088 0.894865 0.284276
0.216098 0.897246 0.280674
0.270542 0.899474 0.284916
0.318822 0.901762 0.289647
0.363317 0.904173 0.294835
0.405463 0.906645 0.300389
0.445930 0.909209 0.306432
0.497810 0.910826 0.313420
0.547906 0.912383 0.321111
0.596033 0.914031 0.329229
0.642481 0.915587 0.338354
0.687556 0.917082 0.348028
0.731350 0.918486 0.357855
0.773831 0.919707 0.368353
0.815213 0.920775 0.379187
0.855467 0.921630 0.390204
0.894621 0.922332 0.401862
0.942931 0.935363 0.420569
0.987732 0.944366 0.457679
1.000000 0.942504 0.502464
1.000000 0.930205 0.545800
1.000000 0.920470 0.585473
0.112825 0.906828 0.396857
0.115572 0.907134 0.396277
0.117372 0.907469 0.394965
0.122591 0.907988 0.392432
0.128450 0.908812 0.387793
0.137026 0.909880 0.381720
0.147311 0.911223 0.374212
0.158724 0.912871 0.364416
0.171267 0.914946 0.352392
0.184237 0.917388 0.337774
0.198398 0.920165 0.320073
0.226413 0.922820 0.307591
0.277958 0.924620 0.312078
0.324102 0.926482 0.317205
0.366918 0.928405 0.322881
0.407691 0.930388 0.328893
0.446998 0.932464 0.335454
0.488624 0.934295 0.342535
0.537957 0.935363 0.350744
0.585077 0.936522 0.358953
0.630579 0.937621 0.368231
0.674525 0.938659 0.378058
0.717159 0.939574 0.388281
0.758419 0.940368 0.398840
0.798489 0.940978 0.409644
0.837400 0.941436 0.421180
0.875151 0.941741 0.433143
0.911711 0.941955 0.445167
0.955535 0.952056 0.465034
0.996551 0.960052 0.498970
1.000000 0.961242 0.541711
1.000000 0.948791 0.584344
0.168856 0.932555 0.420661
0.170230 0.932769 0.419989
0.171817 0.933043 0.418860
0.174899 0.933532 0.416541
0.179965 0.934264 0.412848
0.186099 0.935302 0.407721
0.194095 0.936675 0.401160
0.203830 0.938323 0.393347
0.214847 0.940307 0.383856
0.226383 0.942657 0.371984
0.239628 0.945220 0.358740
0.253208 0.948058 0.342535
0.295689 0.949798 0.345159
0.338720 0.951354 0.350896
0.379248 0.952941 0.356878
0.417884 0.954467 0.363409
0.455268 0.956023 0.370184
0.491585 0.957610 0.377478
0.534417 0.958648 0.385534
0.580072 0.959258 0.394171
0.624079 0.959838 0.403388
0.666560 0.960357 0.413123
0.707637 0.960754 0.423316
0.747494 0.960998 0.433906
0.786069 0.961089 0.445075
0.823392 0.961089 0.456580
0.859617 0.960937 0.468269
0.894621 0.960693 0.480964
0.928405 0.960327 0.493599
0.967498 0.967651 0.513939
1.000000 0.974334 0.544671
1.000000 0.977874 0.585809
0.223148 0.958038 0.448188
0.224369 0.958190 0.447669
0.225589 0.958373 0.446845
0.227970 0.958740 0.444800
0.231724 0.959289 0.441627
0.236484 0.960052 0.437171
0.242893 0.961089 0.431586
0.250492 0.962371 0.424933
0.258976 0.963897 0.416449
0.269169 0.965698 0.407050
0.279759 0.967712 0.395544
0.291478 0.969970 0.382452
0.316350 0.971740 0.376684
0.355444 0.972808 0.382422
