data/fiter_cube/27130762/1023403/file.cube
# Created by Adobe Lightroom plugin Export LUT (1.17.0)
# www.johnrellis.com/lightroom/exportlut.htm
# Preset: 森系文艺人像美食静物_07 云集
# Color profile: C:\Program Files (x86)\Common Files\Adobe\Color\Profiles\Recommended\AdobeRGB1998.icc
LUT_3D_SIZE 5
DOMAIN_MIN 0.000000 0.000000 0.000000
DOMAIN_MAX 0.903226 0.903226 0.903226
0.118349 0.118349 0.118349
0.224949 0.129732 0.129824
0.464454 0.149172 0.148928
0.751644 0.185885 0.185733
0.971069 0.278569 0.278386
0.119203 0.232883 0.144137
0.223362 0.248417 0.129915
0.495766 0.285771 0.175601
0.768856 0.319280 0.215030
0.975982 0.382696 0.316716
0.000000 0.503471 0.212345
0.131716 0.526757 0.141909
0.506981 0.583246 0.121065
0.829953 0.603113 0.279942
0.980438 0.619745 0.458198
0.000000 0.784909 0.315709
0.000000 0.796567 0.261021
0.375647 0.823239 0.222568
0.739467 0.844327 0.260685
1.000000 0.850065 0.475013
0.270481 0.979950 0.475441
0.293492 0.983612 0.455543
0.406592 0.991852 0.416846
0.653986 0.995026 0.474159
0.895415 0.989593 0.553582
0.131197 0.131380 0.212131
0.219638 0.131472 0.219608
0.440314 0.124758 0.241245
0.722805 0.132876 0.265934
0.959014 0.273320 0.347814
0.154238 0.218265 0.218143
0.227359 0.227359 0.227359
0.462043 0.252628 0.252567
0.742885 0.295415 0.295476
0.963287 0.383490 0.383154
0.120760 0.479225 0.296117
0.219760 0.494667 0.284398
0.492348 0.554009 0.244846
0.799619 0.591485 0.418311
0.971496 0.627283 0.514794
0.148165 0.770321 0.401617
0.235325 0.779080 0.386969
0.404974 0.811124 0.333928
0.743648 0.836606 0.370214
0.997375 0.848814 0.558404
0.376104 0.971557 0.551324
0.392462 0.975402 0.536126
0.460212 0.987396 0.491829
0.675471 0.991791 0.539727
0.902739 0.987854 0.607507
0.157290 0.157015 0.451484
0.253666 0.148196 0.447822
0.443030 0.108858 0.443122
0.708888 0.059785 0.473793
0.941711 0.214939 0.499458
0.197482 0.283299 0.465003
0.266514 0.266514 0.459510
0.450538 0.224704 0.450599
0.710353 0.237308 0.473732
0.940764 0.325689 0.508385
0.206424 0.460090 0.460090
0.289799 0.463508 0.463508
0.470802 0.470802 0.470802
0.733425 0.525200 0.525231
0.949584 0.599634 0.599573
0.221378 0.722896 0.527031
0.317571 0.730495 0.537255
0.519890 0.758846 0.564721
0.754818 0.809903 0.577264
0.974273 0.844694 0.727626
0.398657 0.958160 0.641260
0.464820 0.959503 0.653620
0.604364 0.965026 0.675349
0.720058 0.980804 0.673793
0.920317 0.982208 0.724666
0.208835 0.208804 0.728054
0.298711 0.199222 0.724697
0.480354 0.127596 0.710109
0.703365 0.000000 0.703517
0.936126 0.208560 0.712428
0.266239 0.342443 0.734035
0.330022 0.329839 0.731075
0.486549 0.270817 0.715114
0.704005 0.227787 0.704097
0.934539 0.317998 0.714351
0.419715 0.582391 0.749264
0.489387 0.597986 0.752438
0.560327 0.560235 0.734401
0.710079 0.484443 0.710140
0.933196 0.528985 0.724300
0.388464 0.725643 0.725673
0.446632 0.726345 0.726375
0.581964 0.729183 0.729244
0.723995 0.723964 0.723995
0.941924 0.783078 0.783047
0.461494 0.920378 0.756710
0.505547 0.923247 0.763210
0.626703 0.934997 0.784268
0.789639 0.955688 0.817838
0.942748 0.974609 0.851194
0.335729 0.335576 0.937926
0.387915 0.330449 0.937682
0.524926 0.297063 0.935882
0.702815 0.150332 0.930510
0.930602 0.220310 0.930724
0.415747 0.457649 0.937804
0.450233 0.450141 0.937591
0.553796 0.413825 0.936126
0.708949 0.300938 0.931456
0.930968 0.328588 0.931060
0.595575 0.687892 0.937896
0.616907 0.687739 0.937926
0.656672 0.656641 0.937072
0.740993 0.568627 0.933227
0.931273 0.535882 0.931334
0.658228 0.820310 0.936828
0.688441 0.826535 0.938201
0.772580 0.845823 0.943145
0.820645 0.820584 0.941466
0.932677 0.749996 0.932708
0.638819 0.931884 0.931975
0.663294 0.932830 0.932860
0.736507 0.935485 0.935515
0.840299 0.941039 0.941070
0.942229 0.942199 0.942229
