data/fiter_cube/27130762/1023403/file.cube
# Created by Adobe Lightroom plugin Export LUT (1.17.0)
# www.johnrellis.com/lightroom/exportlut.htm
# Preset: 森系文艺人像美食静物_07 云集
# Color profile: C:\Program Files (x86)\Common Files\Adobe\Color\Profiles\Recommended\AdobeRGB1998.icc
LUT_3D_SIZE 8
DOMAIN_MIN 0.000000 0.000000 0.000000
DOMAIN_MAX 0.903226 0.903226 0.903226
0.118349 0.118349 0.118349
0.162509 0.123079 0.123171
0.249699 0.132174 0.131991
0.381903 0.142702 0.142184
0.550713 0.156313 0.156252
0.713771 0.178256 0.178073
0.854429 0.216159 0.215885
0.971069 0.278569 0.278386
0.120027 0.164981 0.128176
0.158755 0.169314 0.125093
0.253605 0.172824 0.140383
0.388464 0.187533 0.149905
0.556970 0.205356 0.163210
0.716426 0.225315 0.184787
0.854673 0.256565 0.223301
0.970581 0.310735 0.287083
0.117983 0.260563 0.151400
0.132113 0.267491 0.134188
0.252506 0.283268 0.131014
0.433753 0.317845 0.157626
0.590784 0.333562 0.192996
0.739437 0.349310 0.217411
0.869657 0.371801 0.261784
0.976471 0.411383 0.329046
0.086152 0.410437 0.188815
0.093233 0.418097 0.164096
0.211063 0.441199 0.139040
0.418555 0.479744 0.124819
0.658320 0.535546 0.154879
0.774685 0.514580 0.295995
0.886229 0.522423 0.339757
0.979828 0.546807 0.406592
0.000000 0.594232 0.238224
0.000000 0.600031 0.216373
0.131685 0.619348 0.146975
0.360174 0.644892 0.143069
0.581811 0.669551 0.135317
0.810330 0.710262 0.195315
0.914946 0.678706 0.365698
0.980591 0.692470 0.516991
0.000000 0.748684 0.297276
0.000000 0.754238 0.281987
0.000000 0.767269 0.209140
0.290105 0.783413 0.196292
0.506676 0.799069 0.208469
0.710933 0.813870 0.227237
0.927520 0.854734 0.303716
1.000000 0.815030 0.477546
0.000000 0.878996 0.374365
0.059205 0.881529 0.364324
0.128634 0.888853 0.322850
0.270542 0.899474 0.284916
0.445930 0.909209 0.306432
0.642481 0.915587 0.338354
0.815213 0.920775 0.379187
0.987732 0.944366 0.457679
0.270481 0.979950 0.475441
0.277501 0.980987 0.469703
0.301366 0.984894 0.448829
0.341894 0.991943 0.409583
0.473701 0.993469 0.430274
0.614313 0.995361 0.464118
0.764889 0.993469 0.506554
0.895415 0.989593 0.553582
0.123629 0.123659 0.156374
0.161044 0.121828 0.161105
0.243931 0.134463 0.165866
0.368963 0.140688 0.177005
0.536522 0.147189 0.190402
0.700587 0.167575 0.209995
0.844724 0.210208 0.244053
0.965209 0.277989 0.301610
0.130800 0.159030 0.159060
0.164034 0.164034 0.164034
0.247044 0.172671 0.172549
0.377203 0.183871 0.183810
0.544762 0.196933 0.196719
0.705653 0.217075 0.216770
0.846067 0.251804 0.251591
0.964782 0.310002 0.309728
0.136446 0.252567 0.182742
0.164401 0.256291 0.182193
0.249485 0.273381 0.167208
0.411872 0.301884 0.208560
0.578119 0.325475 0.225467
0.728054 0.342870 0.247654
0.859586 0.367712 0.286931
0.970275 0.410925 0.349523
0.126680 0.399084 0.223972
0.147036 0.404791 0.213657
0.215305 0.430243 0.177493
0.409247 0.464912 0.167208
0.642512 0.517174 0.207889
0.761257 0.506645 0.320012
0.876677 0.518700 0.360418
0.974243 0.546777 0.423926
0.072511 0.584070 0.277958
0.084504 0.589715 0.260380
0.143343 0.609888 0.189151
0.355535 0.634760 0.186893
0.576013 0.659602 0.181674
0.802792 0.700160 0.243473
0.906706 0.676753 0.405798
0.976837 0.693202 0.531334
0.000000 0.740719 0.331426
0.004181 0.744656 0.318090
0.104952 0.758206 0.259892
0.297520 0.776394 0.233677
0.506615 0.793851 0.246098
0.710780 0.810178 0.264866
0.924132 0.850004 0.342901
1.000000 0.814481 0.503502
0.143587 0.872770 0.402808
0.153872 0.874632 0.393194
0.188785 0.882506 0.357458
0.287144 0.894896 0.314763
0.455207 0.905638 0.336339
0.645472 0.912627 0.366583
0.815824 0.918090 0.403662
0.987457 0.942779 0.479622
0.303990 0.976440 0.497963
0.310369 0.977691 0.492866
0.331884 0.981750 0.473945
0.368627 0.989044 0.438239
0.489204 0.992676 0.455573
0.622309 0.994385 0.486488
0.768765 0.992370 0.524773
0.897002 0.988647 0.568780
0.134005 0.133974 0.236454
0.162905 0.132509 0.238834
0.243595 0.134096 0.243656
0.366094 0.133425 0.260899
0.520897 0.104921 0.272465
0.677058 0.077241 0.277287
0.829862 0.169741 0.312688
0.957366 0.270054 0.366949
0.154726 0.177066 0.238926
0.175723 0.175631 0.241123
0.245518 0.168826 0.245487
0.367651 0.167575 0.260075
0.522637 0.151522 0.269352
0.682002 0.162234 0.283726
0.832212 0.223606 0.320439
0.957794 0.306493 0.375769
0.162112 0.243076 0.242954
0.187442 0.245670 0.245731
0.253788 0.253788 0.253788
0.382757 0.268894 0.268864
0.550439 0.290593 0.290318
0.706538 0.317052 0.317021
0.845274 0.355840 0.355749
0.961608 0.413336 0.413153
0.153231 0.373754 0.281163
0.180606 0.380224 0.284581
0.256474 0.401556 0.284825
0.400855 0.439979 0.264073
0.614221 0.481819 0.339849
0.743038 0.496040 0.390997
0.864561 0.519158 0.429725
0.966796 0.554131 0.483040
0.108248 0.565972 0.342748
0.158053 0.570123 0.343023
0.253178 0.582788 0.331456
0.353643 0.616083 0.294255
0.573602 0.643885 0.294987
0.790280 0.680079 0.376196
0.887572 0.681178 0.520104
0.970306 0.699641 0.579156
0.127047 0.727962 0.399298
0.184054 0.729488 0.401190
0.267399 0.738521 0.389136
0.333074 0.761196 0.338231
0.513787 0.781674 0.351476
0.713344 0.800259 0.370855
0.915526 0.837400 0.453956
0.993683 0.817166 0.587091
0.239719 0.863859 0.471839
0.278599 0.864073 0.476722
0.324804 0.870115 0.463783
0.356878 0.884764 0.414252
0.491249 0.897124 0.426886
0.660365 0.906889 0.453437
0.824094 0.914794 0.487617
0.991089 0.942718 0.559075
0.383673 0.969177 0.563256
0.404852 0.968994 0.567254
0.420600 0.973144 0.552178
0.450568 0.981109 0.525994
0.529107 0.987182 0.522087
0.645014 0.990478 0.548943
0.782559 0.989532 0.582483
0.904387 0.986938 0.621241
0.148196 0.147860 0.367498
0.181247 0.147189 0.368017
0.261387 0.137209 0.365698
0.367834 0.127535 0.367864
0.520378 0.095857 0.394018
0.673426 0.065034 0.406287
0.815549 0.113802 0.416205
0.942901 0.215976 0.441077
0.165042 0.194919 0.372290
0.191592 0.191653 0.372198
0.264103 0.176181 0.368933
0.369940 0.162661 0.369970
0.522606 0.146212 0.394263
0.673701 0.139376 0.405188
0.814939 0.172183 0.416388
0.942107 0.253574 0.443732
0.197208 0.290196 0.381537
0.225834 0.293370 0.383642
0.278141 0.278050 0.379828
0.376898 0.255375 0.377020
0.529961 0.258213 0.395056
0.678462 0.269749 0.406226
0.818173 0.302434 0.425177
0.946990 0.381140 0.475227
0.188907 0.376928 0.376898
0.215274 0.378820 0.378912
0.290166 0.384253 0.384283
0.391943 0.391943 0.391943
0.550256 0.417884 0.417853
0.701350 0.450263 0.450233
0.838437 0.490822 0.490730
0.953704 0.540398 0.540276
0.175082 0.520195 0.410132
0.204654 0.524773 0.413703
0.290349 0.541833 0.426551
0.410346 0.569879 0.439521
0.567803 0.610132 0.430854
0.761257 0.649622 0.528374
0.865965 0.673640 0.594507
0.960632 0.696071 0.629084
0.178073 0.702144 0.475380
0.217960 0.706172 0.479103
0.320317 0.715236 0.489052
0.438544 0.729366 0.497169
0.532525 0.760922 0.481178
0.719783 0.784329 0.500114
0.902373 0.819028 0.586297
0.975097 0.821561 0.694331
0.259190 0.850889 0.537346
0.292027 0.852384 0.541192
0.388922 0.855131 0.555871
0.483742 0.863890 0.563104
0.544732 0.883574 0.539513
0.683375 0.897704 0.562493
0.835935 0.908568 0.590906
0.988769 0.935271 0.657008
0.392462 0.964263 0.612299
0.416175 0.964172 0.617182
0.486305 0.963836 0.632898
0.547784 0.968109 0.635096
0.580529 0.978668 0.606714
0.678859 0.983886 0.629328
0.801511 0.985107 0.657710
0.915038 0.984192 0.690761
0.167605 0.167697 0.536126
0.203799 0.165316 0.535088
0.290990 0.152377 0.529534
0.392096 0.109590 0.516228
0.521447 0.078126 0.521599
0.670771 0.029053 0.536919
0.812589 0.105013 0.545739
0.940398 0.213443 0.559472
0.179080 0.214511 0.539849
0.211032 0.211002 0.539117
0.293339 0.195041 0.533165
0.392828 0.155734 0.518914
0.522728 0.136934 0.522759
0.671687 0.131685 0.537133
0.812833 0.168276 0.546166
0.939971 0.251987 0.561273
0.223728 0.330938 0.551537
0.246738 0.327184 0.549737
0.308934 0.308843 0.542779
0.399817 0.271550 0.530053
0.526635 0.253696 0.526635
0.672969 0.264134 0.537377
0.812253 0.295293 0.548760
0.938048 0.350500 0.567193
0.255650 0.445899 0.555901
0.285435 0.448646 0.557336
0.371466 0.459327 0.562036
0.435828 0.435859 0.549035
0.534630 0.397070 0.534752
0.676967 0.412390 0.544152
0.812894 0.435920 0.558038
0.937041 0.471870 0.579309
0.238804 0.540520 0.540551
0.266056 0.541436 0.541466
0.344915 0.543633 0.543694
0.447547 0.546136 0.546197
0.546288 0.546288 0.546288
0.695064 0.576898 0.576898
0.831632 0.613306 0.613336
0.946380 0.653254 0.653223
0.241398 0.650782 0.538048
0.267155 0.653956 0.541558
0.345281 0.664118 0.553826
0.455146 0.683101 0.576165
0.572869 0.711696 0.596704
0.716854 0.753445 0.606897
0.882780 0.794217 0.696834
0.958953 0.813870 0.754330
0.306340 0.820859 0.610193
0.330877 0.822263 0.613123
0.404913 0.827695 0.623560
0.508141 0.838773 0.642115
0.612177 0.854765 0.656672
0.697932 0.881285 0.656367
0.845762 0.898070 0.683711
0.980285 0.920195 0.748196
0.415991 0.949462 0.675013
0.434058 0.949950 0.677882
0.490517 0.952026 0.687343
0.576654 0.956451 0.704982
0.658869 0.962219 0.715816
0.713741 0.974304 0.706416
0.819242 0.979217 0.731868
0.926574 0.980438 0.760983
0.198459 0.198520 0.693782
0.231479 0.196139 0.692775
0.315984 0.183597 0.687861
0.420325 0.147463 0.678737
0.531121 0.000000 0.664210
0.669032 0.000000 0.669123
0.809842 0.093904 0.676204
0.937743 0.211582 0.682216
0.212863 0.244694 0.694606
0.241489 0.241489 0.693538
0.320165 0.227573 0.688838
0.421576 0.194461 0.680323
0.529931 0.118502 0.663783
0.668727 0.120302 0.668788
0.809445 0.161257 0.675990
0.937102 0.249332 0.682856
0.274388 0.369085 0.702602
0.292912 0.365301 0.701747
0.350530 0.350469 0.697841
0.435004 0.318578 0.688411
0.533440 0.258000 0.669245
0.671077 0.260655 0.671046
0.810025 0.292668 0.677943
0.936217 0.349706 0.686610
0.383276 0.521843 0.719081
0.398505 0.521416 0.717708
0.441779 0.516625 0.712306
0.488319 0.488197 0.701961
0.554009 0.428931 0.682490
0.676234 0.411414 0.676234
0.811856 0.434699 0.683436
0.935698 0.471260 0.693874
0.377356 0.605585 0.708186
0.400214 0.608209 0.708949
0.469032 0.617243 0.711757
0.560266 0.632288 0.716365
0.601678 0.601648 0.700038
0.679896 0.551873 0.679866
0.812161 0.567437 0.688167
0.933837 0.592706 0.701625
0.352789 0.689906 0.690028
0.374273 0.690761 0.690791
0.436866 0.692195 0.692287
0.520989 0.693843 0.693935
0.606134 0.694148 0.694179
0.690028 0.689967 0.689998
0.829313 0.724788 0.724819
0.943145 0.759030 0.758999
0.363653 0.790768 0.685115
0.381537 0.790921 0.685847
0.435157 0.790341 0.687007
0.516960 0.798734 0.699123
0.616358 0.817746 0.721889
0.726925 0.845426 0.746639
0.851225 0.880156 0.768063
0.971038 0.905608 0.833249
0.452674 0.927367 0.741512
0.466926 0.928008 0.743496
0.513024 0.930724 0.750362
0.583032 0.936767 0.762295
0.670039 0.946014 0.779141
0.763821 0.956725 0.797208
0.836210 0.971130 0.805478
0.939666 0.976043 0.833829
0.250980 0.250675 0.826596
0.275608 0.248569 0.825772
0.347478 0.239872 0.824094
0.443580 0.214725 0.820005
0.549493 0.152193 0.811124
0.667262 0.000000 0.801694
0.804685 0.078309 0.804776
0.933501 0.205325 0.805417
0.272099 0.295933 0.828672
0.293553 0.293339 0.828092
0.358404 0.283085 0.826230
0.449104 0.258213 0.821775
0.552026 0.203952 0.813016
0.668482 0.115877 0.803220
0.806210 0.157229 0.806332
0.934508 0.248356 0.807065
0.348913 0.421241 0.832120
0.362188 0.418036 0.831601
0.406226 0.406134 0.829648
0.475349 0.380285 0.825010
0.562921 0.332036 0.816251
0.669154 0.262181 0.803983
0.806424 0.290288 0.806455
0.933135 0.346715 0.807645
0.464118 0.571435 0.838193
0.475837 0.571832 0.837583
0.506188 0.566949 0.835416
0.540978 0.540917 0.830472
0.595636 0.494850 0.821530
0.673335 0.414008 0.804959
0.806821 0.429236 0.806851
0.931975 0.465949 0.809628
0.531334 0.680018 0.842893
0.547692 0.684199 0.843839
0.597925 0.697749 0.846708
0.634699 0.693141 0.843839
0.656123 0.656092 0.833494
0.698177 0.585809 0.815457
0.810239 0.565972 0.810300
0.931945 0.591180 0.814267
0.520684 0.748531 0.834989
0.535058 0.750301 0.835538
0.580682 0.756497 0.837736
0.645777 0.766171 0.841611
0.720760 0.779751 0.847929
0.750393 0.750362 0.834592
0.813840 0.696773 0.813870
0.931914 0.714778 0.821134
0.496132 0.822416 0.822477
0.508873 0.822660 0.822751
0.549767 0.823850 0.823880
0.609033 0.825742 0.825803
0.679744 0.828458 0.828519
0.754086 0.830045 0.830045
0.823178 0.823148 0.823178
0.941558 0.856413 0.856413
0.508782 0.913298 0.821317
0.519249 0.913329 0.821714
0.551720 0.912840 0.822141
0.602808 0.913085 0.823239
0.671748 0.917632 0.829831
0.762295 0.932433 0.850767
0.861234 0.951720 0.875883
0.951293 0.969574 0.900633
0.335729 0.335576 0.937926
0.351904 0.334081 0.937774
0.403784 0.328405 0.937591
0.480446 0.311955 0.936675
0.572473 0.275364 0.934905
0.675441 0.191135 0.931701
0.798550 0.129488 0.929625
0.930602 0.220310 0.930724
0.360388 0.376104 0.938170
0.374456 0.374334 0.938018
0.420478 0.367254 0.937774
0.491188 0.350103 0.936980
0.578210 0.314275 0.935302
0.677760 0.238590 0.932189
0.799405 0.187716 0.930083
0.931029 0.259251 0.931182
0.440375 0.491005 0.937774
0.449378 0.488808 0.937713
0.480537 0.480446 0.937621
0.531548 0.461067 0.936675
0.601129 0.426307 0.935332
0.687434 0.362188 0.932708
0.801297 0.310979 0.930205
0.931151 0.356725 0.931273
0.552392 0.631128 0.937316
0.556664 0.628656 0.937224
0.572503 0.619776 0.937163
0.601373 0.601343 0.936645
0.645594 0.568505 0.935424
0.708644 0.511742 0.933013
0.804227 0.445228 0.929808
0.930999 0.474281 0.931121
0.638636 0.741543 0.938781
0.644343 0.741756 0.938750
0.662501 0.741482 0.938994
0.685206 0.733547 0.938811
0.706111 0.706050 0.937652
0.743343 0.659113 0.935119
0.809140 0.577722 0.930022
0.931426 0.597742 0.931548
0.660090 0.806851 0.937743
0.669673 0.809110 0.938201
0.700618 0.816526 0.939666
0.747951 0.828428 0.942290
0.784939 0.829984 0.943877
0.798764 0.798734 0.940429
0.831052 0.734768 0.933135
0.931945 0.719478 0.931975
0.653285 0.865110 0.934997
0.661769 0.866148 0.935363
0.689693 0.869627 0.936645
0.733822 0.875486 0.938872
0.790646 0.884611 0.942626
0.855070 0.898528 0.948486
0.881773 0.881712 0.945129
0.935424 0.837888 0.935424
0.638819 0.931884 0.931975
0.646357 0.932189 0.932250
0.671138 0.933074 0.933135
0.711513 0.934447 0.934508
0.764126 0.936767 0.936797
0.824582 0.940063 0.940093
0.887205 0.943908 0.943908
0.942229 0.942199 0.942229
