data/fiter_cube/80369196/1023068/file.cube
# Created by Adobe Lightroom plugin Export LUT (1.17.0)
# www.johnrellis.com/lightroom/exportlut.htm
# Preset: Have Fun_05
# Color profile: C:\Program Files (x86)\Common Files\Adobe\Color\Profiles\Recommended\AdobeRGB1998.icc
LUT_3D_SIZE 5
DOMAIN_MIN 0.000000 0.000000 0.000000
DOMAIN_MAX 0.903226 0.903226 0.903226
0.135927 0.134798 0.138033
0.206821 0.132479 0.135805
0.436500 0.120302 0.130220
0.762661 0.044526 0.108217
1.000000 0.029023 0.073701
0.117891 0.208591 0.145876
0.199588 0.210117 0.138460
0.423835 0.255406 0.130861
0.754482 0.279698 0.096803
1.000000 0.279911 0.052979
0.000000 0.463813 0.213474
0.000000 0.477180 0.140475
0.449439 0.498329 0.105928
0.738674 0.543481 0.041444
0.988891 0.563500 0.000000
0.000000 0.774533 0.303899
0.000000 0.781216 0.248783
0.306493 0.787350 0.000000
0.702632 0.778805 0.000000
0.977539 0.768215 0.006195
0.000000 1.000000 0.340978
0.000000 1.000000 0.297795
0.000000 1.000000 0.154330
0.584863 1.000000 0.187533
0.909636 0.988525 0.233616
0.122621 0.131136 0.243687
0.211215 0.123812 0.249485
0.435126 0.000000 0.284337
0.754696 0.000000 0.285039
1.000000 0.000000 0.239597
0.086854 0.221530 0.255283
0.174380 0.210147 0.259953
0.431342 0.171633 0.271275
0.752499 0.000000 0.253300
0.998993 0.101839 0.241398
0.000000 0.465583 0.326360
0.000000 0.477729 0.318334
0.407599 0.493721 0.249363
0.729183 0.531670 0.259983
0.987610 0.527642 0.255406
0.000000 0.774777 0.408179
0.000000 0.781155 0.383520
0.213993 0.791409 0.259831
0.689387 0.779995 0.266331
0.974243 0.772519 0.283299
0.000000 1.000000 0.420630
0.000000 1.000000 0.390570
0.000000 1.000000 0.319921
0.593011 1.000000 0.354528
0.909941 0.988769 0.385504
0.000000 0.108492 0.591821
0.213657 0.072816 0.596185
0.484169 0.000000 0.609186
0.748501 0.000000 0.604303
0.995697 0.000000 0.563836
0.000000 0.241093 0.605249
0.000000 0.189456 0.609461
0.453956 0.099184 0.618677
0.744533 0.000000 0.605951
0.994995 0.000000 0.560204
0.000000 0.521324 0.622126
0.000000 0.511131 0.625788
0.320775 0.471748 0.633661
0.722621 0.475593 0.620081
0.975067 0.515953 0.613428
0.000000 0.776577 0.635737
0.000000 0.779324 0.632990
0.142061 0.787747 0.619989
0.673060 0.777554 0.628107
0.952422 0.807553 0.634394
0.000000 1.000000 0.625299
0.000000 1.000000 0.609033
0.000000 1.000000 0.550988
0.636439 0.995666 0.630243
0.910338 0.984253 0.636835
0.000000 0.074983 0.853758
0.101564 0.000000 0.855528
0.429694 0.000000 0.859281
0.694636 0.000000 0.862608
0.980163 0.000000 0.866026
0.000000 0.188083 0.858091
0.000000 0.173068 0.858640
0.387457 0.102937 0.861021
0.680293 0.000000 0.863157
0.977264 0.000000 0.863523
0.000000 0.470222 0.860807
0.000000 0.453681 0.862211
0.277562 0.428962 0.864714
0.652796 0.429847 0.863401
0.970214 0.433082 0.855528
0.000000 0.735256 0.868254
0.000000 0.730861 0.868437
0.100679 0.727321 0.870420
0.651484 0.745571 0.869352
0.952697 0.764828 0.850034
0.000000 1.000000 0.884642
0.000000 1.000000 0.879973
0.000000 1.000000 0.857877
0.573053 1.000000 0.822507
0.920012 0.979278 0.861692
0.000000 0.072084 1.000000
0.000000 0.002838 1.000000
0.363684 0.000000 1.000000
0.613733 0.000000 1.000000
0.855314 0.000000 1.000000
0.000000 0.183505 1.000000
0.000000 0.174228 1.000000
0.333867 0.140383 1.000000
0.604608 0.070192 1.000000
0.853727 0.048096 1.000000
0.000000 0.408026 1.000000
0.000000 0.403265 1.000000
0.298436 0.416480 1.000000
0.603418 0.425330 1.000000
0.859922 0.455421 1.000000
0.000000 0.652033 1.000000
0.000000 0.649683 1.000000
0.222721 0.659724 1.000000
0.658503 0.716732 1.000000
0.884550 0.733089 1.000000
0.000000 0.892851 1.000000
0.000000 0.893217 1.000000
0.000000 0.900603 1.000000
0.593927 0.923674 1.000000
0.938140 0.967193 1.000000
