data/fiter_cube/80369196/1023068/file.cube
# Created by Adobe Lightroom plugin Export LUT (1.17.0)
# www.johnrellis.com/lightroom/exportlut.htm
# Preset: Have Fun_05
# Color profile: C:\Program Files (x86)\Common Files\Adobe\Color\Profiles\Recommended\AdobeRGB1998.icc
LUT_3D_SIZE 8
DOMAIN_MIN 0.000000 0.000000 0.000000
DOMAIN_MAX 0.903226 0.903226 0.903226
0.135927 0.134798 0.138033
0.157992 0.132387 0.137606
0.227268 0.131655 0.134920
0.348516 0.127016 0.132479
0.534661 0.108034 0.125795
0.722408 0.063844 0.112032
0.871855 0.000000 0.095705
1.000000 0.029023 0.073701
0.132082 0.157900 0.137606
0.155398 0.158633 0.135378
0.222293 0.163302 0.134157
0.341039 0.168765 0.133364
0.525566 0.173098 0.125490
0.711727 0.165255 0.109834
0.863005 0.156374 0.092042
0.999420 0.160433 0.067292
0.109529 0.230167 0.149905
0.127260 0.233494 0.139376
0.219364 0.233494 0.140322
0.334478 0.258427 0.137911
0.523491 0.304784 0.120455
0.709682 0.318853 0.097902
0.867277 0.319463 0.075227
1.000000 0.319432 0.036316
0.000000 0.365515 0.185000
0.000000 0.369360 0.171695
0.183169 0.379889 0.135348
0.358648 0.394812 0.130343
0.533654 0.421302 0.112123
0.707057 0.488899 0.067201
0.859770 0.486427 0.004120
0.994903 0.481300 0.000000
0.000000 0.566583 0.244388
0.000000 0.569635 0.228275
0.000000 0.581323 0.130404
0.315099 0.587945 0.087739
0.528405 0.587671 0.071626
0.694697 0.567834 0.066957
0.844663 0.621241 0.000000
0.982971 0.647822 0.000000
0.000000 0.734066 0.293400
0.000000 0.739956 0.279789
0.000000 0.746029 0.209476
0.160800 0.750759 0.001312
0.455573 0.747616 0.000000
0.669184 0.742947 0.000000
0.841642 0.713008 0.027924
0.979004 0.748409 0.000000
0.000000 0.881193 0.326787
0.000000 0.883238 0.313970
0.000000 0.886107 0.257939
0.000000 0.891447 0.057649
0.364080 0.887572 0.031983
0.592798 0.884215 0.059541
0.797360 0.877958 0.080598
0.968872 0.856413 0.127596
0.000000 1.000000 0.340978
0.000000 1.000000 0.328954
0.000000 1.000000 0.281987
0.000000 1.000000 0.189120
0.271214 1.000000 0.161105
0.533471 1.000000 0.180880
0.729488 0.998718 0.207401
0.909636 0.988525 0.233616
0.131258 0.134096 0.172213
0.158785 0.128939 0.173587
0.223911 0.128450 0.175692
0.344732 0.096712 0.184665
0.531670 0.000000 0.172213
0.713405 0.000000 0.163210
0.863157 0.000000 0.152010
0.998566 0.000000 0.138308
0.122011 0.160739 0.174990
0.150088 0.158816 0.176333
0.220279 0.155001 0.178683
0.342138 0.131197 0.176974
0.527001 0.079164 0.171176
0.707729 0.000000 0.161349
0.856565 0.000000 0.149142
0.993286 0.000000 0.134920
0.105470 0.230106 0.184604
0.129610 0.232761 0.187778
0.210239 0.235142 0.178531
0.331701 0.255863 0.179538
0.519646 0.274784 0.168582
0.702632 0.278630 0.155367
0.855802 0.277897 0.142641
0.994293 0.283421 0.129519
0.000000 0.362646 0.224247
0.000000 0.367224 0.220096
0.141573 0.381353 0.175174
0.341588 0.387366 0.169924
0.516625 0.408179 0.160220
0.691890 0.462562 0.144228
0.846952 0.461311 0.130251
0.987060 0.460548 0.118410
0.000000 0.564874 0.287633
0.000000 0.567041 0.275822
0.000000 0.576440 0.218326
0.283055 0.582422 0.144564
0.512840 0.579736 0.137728
0.687160 0.562066 0.134920
0.837827 0.615717 0.122438
0.978271 0.635767 0.114168
0.000000 0.729549 0.329473
0.000000 0.731624 0.317937
0.000000 0.737942 0.266361
0.024292 0.746365 0.127504
0.439368 0.744564 0.125765
0.662409 0.741329 0.124697
0.838956 0.710323 0.143069
0.975128 0.746365 0.142916
0.000000 0.874876 0.356237
0.000000 0.875120 0.344732
0.000000 0.878965 0.299168
0.000000 0.886076 0.184817
0.347997 0.884977 0.147158
0.585260 0.881132 0.154086
0.790921 0.873808 0.163119
0.963561 0.851804 0.188693
0.000000 1.000000 0.365759
0.000000 1.000000 0.355200
0.000000 1.000000 0.314183
0.000000 1.000000 0.239689
0.274235 1.000000 0.229435
0.534722 1.000000 0.241611
0.728389 0.997894 0.258732
0.907805 0.987060 0.278172
0.115328 0.129305 0.279423
0.150790 0.126101 0.281498
0.237919 0.118227 0.287083
0.350713 0.088502 0.300053
0.539757 0.000000 0.338781
0.718471 0.000000 0.345220
0.870787 0.000000 0.315862
1.000000 0.000000 0.286503
0.091341 0.161410 0.285527
0.126833 0.154421 0.287755
0.227848 0.145876 0.291112
0.346807 0.124697 0.301152
0.535607 0.000000 0.334295
0.714595 0.000000 0.334630
0.867002 0.000000 0.305119
1.000000 0.000000 0.285344
0.015045 0.252506 0.294957
0.086030 0.250278 0.297673
0.181979 0.234806 0.301854
0.339544 0.219608 0.306737
0.534966 0.175296 0.317723
0.714290 0.061982 0.305364
0.863676 0.080629 0.295781
0.998352 0.156558 0.288609
0.000000 0.371679 0.320195
0.000000 0.377050 0.324407
0.108522 0.388708 0.328710
0.300572 0.395819 0.303624
0.518242 0.414527 0.313390
0.701595 0.411017 0.309270
0.854917 0.410346 0.304204
0.991669 0.417639 0.298131
0.000000 0.568505 0.389075
0.000000 0.572229 0.387976
0.000000 0.582361 0.375769
0.186069 0.594263 0.319860
0.489052 0.590845 0.295964
0.692256 0.572290 0.292851
0.837400 0.620203 0.317540
0.979583 0.615290 0.314427
0.000000 0.731899 0.426215
0.000000 0.734096 0.422309
0.000000 0.739651 0.400855
0.000000 0.747219 0.342535
0.397833 0.747463 0.300938
0.646387 0.742275 0.306889
0.836576 0.713191 0.317052
0.972473 0.755001 0.335698
0.000000 0.877806 0.445594
0.000000 0.878386 0.438972
0.000000 0.881041 0.411292
0.000000 0.885954 0.356847
0.318700 0.886107 0.322759
0.577142 0.882292 0.330694
0.787442 0.876738 0.342687
0.964385 0.856199 0.360815
0.000000 1.000000 0.443488
0.000000 1.000000 0.434302
0.000000 1.000000 0.405097
0.000000 1.000000 0.359777
0.298711 1.000000 0.380987
0.546624 1.000000 0.390967
0.732937 0.997253 0.404395
0.908598 0.987213 0.419013
0.000000 0.118410 0.481880
0.121523 0.112276 0.485695
0.256870 0.082429 0.491890
0.398291 0.000000 0.500145
0.543633 0.000000 0.504936
0.712337 0.000000 0.518334
0.861265 0.000000 0.504173
0.998749 0.000000 0.472969
0.000000 0.151766 0.493812
0.000000 0.146212 0.495369
0.233097 0.123018 0.498939
0.390509 0.013184 0.505577
0.542504 0.000000 0.508293
0.710201 0.000000 0.516991
0.859159 0.000000 0.501183
0.997650 0.000000 0.469825
0.000000 0.284459 0.502281
0.000000 0.273686 0.504936
0.000000 0.217929 0.512139
0.349310 0.189059 0.519310
0.538109 0.142061 0.521355
0.710964 0.073732 0.520562
0.863706 0.000000 0.503807
0.997833 0.000000 0.479774
0.000000 0.436622 0.521233
0.000000 0.433692 0.522942
0.000000 0.420813 0.528618
0.241733 0.387121 0.535363
0.513176 0.360937 0.537804
0.696223 0.367254 0.524132
0.848753 0.382147 0.518608
0.984924 0.415747 0.520470
0.000000 0.578698 0.531365
0.000000 0.580407 0.533196
0.000000 0.588006 0.540276
0.133486 0.597742 0.549737
0.458869 0.592401 0.542535
0.672297 0.595209 0.546075
0.832395 0.601862 0.543908
0.973449 0.610040 0.535241
0.000000 0.739193 0.559564
0.000000 0.743709 0.560876
0.000000 0.747433 0.555138
0.000000 0.753017 0.541924
0.388067 0.752132 0.529198
0.635462 0.745296 0.535637
0.828611 0.733455 0.532738
0.960784 0.780789 0.553887
0.000000 0.880125 0.568048
0.000000 0.881712 0.564935
0.000000 0.885832 0.551537
0.000000 0.890867 0.524620
0.320562 0.889677 0.516564
0.593896 0.883207 0.538231
0.785977 0.877806 0.542504
0.958343 0.859068 0.547051
0.000000 1.000000 0.560571
0.000000 1.000000 0.554742
0.000000 1.000000 0.530968
0.000000 1.000000 0.493111
0.261173 1.000000 0.504326
0.580499 0.999847 0.559197
0.748745 0.994568 0.565606
0.910796 0.986358 0.572961
0.000000 0.099123 0.679774
0.000000 0.088930 0.681209
0.236179 0.000000 0.683436
0.395758 0.000000 0.689021
0.553246 0.000000 0.695155
0.707454 0.000000 0.694301
0.855467 0.000000 0.680476
0.992218 0.000000 0.652216
0.000000 0.138552 0.684291
0.000000 0.131197 0.685969
0.200137 0.098116 0.687526
0.380774 0.000000 0.691890
0.545617 0.000000 0.696590
0.706020 0.000000 0.696834
0.855161 0.000000 0.680781
0.991821 0.000000 0.650996
0.000000 0.267308 0.691554
0.000000 0.251347 0.693721
0.000000 0.208133 0.696193
0.316564 0.176791 0.697932
0.516350 0.114137 0.700252
0.696040 0.000000 0.701381
0.851011 0.000000 0.680049
0.988434 0.000000 0.646632
0.000000 0.433845 0.696498
0.000000 0.427192 0.697322
0.000000 0.402197 0.701076
0.160250 0.357061 0.706020
0.465705 0.342382 0.707393
0.679866 0.331548 0.710048
0.844694 0.347326 0.683223
0.984131 0.349004 0.648005
0.000000 0.589899 0.702815
0.000000 0.587762 0.703944
0.000000 0.578882 0.706508
0.000000 0.564263 0.710079
0.422919 0.555627 0.710475
0.656611 0.555932 0.709010
0.828336 0.571221 0.691707
0.967468 0.590997 0.683925
0.000000 0.735378 0.706203
0.000000 0.736141 0.707332
0.000000 0.737545 0.709712
0.000000 0.740810 0.713344
0.360723 0.744076 0.711543
0.627375 0.737331 0.708980
0.808927 0.751492 0.710414
0.954101 0.765774 0.706111
0.000000 0.880980 0.710628
0.000000 0.881498 0.709255
0.000000 0.884123 0.704036
0.000000 0.888151 0.692195
0.264591 0.888365 0.674403
0.593469 0.879881 0.689387
0.781704 0.874296 0.697353
0.949126 0.866361 0.691859
0.000000 1.000000 0.695094
0.000000 1.000000 0.691432
0.000000 1.000000 0.677424
0.000000 1.000000 0.649897
0.000000 1.000000 0.621668
0.574304 0.998383 0.673518
0.765072 0.989990 0.700710
0.912139 0.983398 0.703426
0.000000 0.079835 0.824460
0.000000 0.066529 0.825620
0.186191 0.000000 0.826841
0.361761 0.000000 0.829221
0.516381 0.000000 0.831144
0.668879 0.000000 0.833310
0.839750 0.000000 0.847807
0.984314 0.000000 0.825101
0.000000 0.124636 0.824460
0.000000 0.117006 0.824765
0.138033 0.082826 0.825742
0.343816 0.000000 0.827665
0.506157 0.000000 0.829892
0.662898 0.000000 0.832517
0.837186 0.000000 0.847532
0.983215 0.000000 0.824094
0.000000 0.218753 0.832364
0.000000 0.213962 0.832029
0.000000 0.200687 0.832059
0.277775 0.174655 0.833127
0.475654 0.128084 0.834134
0.647883 0.000000 0.835721
0.832547 0.000000 0.850217
0.981781 0.000000 0.822873
0.000000 0.402014 0.834379
0.000000 0.394507 0.834379
0.000000 0.370275 0.836332
0.129763 0.345068 0.840543
0.435340 0.340581 0.841794
0.631037 0.337469 0.842008
0.827329 0.325902 0.853971
0.978943 0.340215 0.821103
0.000000 0.558343 0.834409
0.000000 0.554955 0.835080
0.000000 0.543664 0.837003
0.000000 0.530449 0.839597
0.410864 0.533867 0.840024
0.619562 0.538842 0.839719
0.816861 0.534173 0.847196
0.970275 0.541833 0.811826
0.000000 0.706752 0.836576
0.000000 0.706111 0.837827
0.000000 0.701869 0.839353
0.000000 0.697108 0.841062
0.358312 0.699336 0.841154
0.610376 0.710903 0.841062
0.806790 0.716854 0.840970
0.957122 0.734096 0.820096
0.000000 0.867338 0.853849
0.000000 0.868376 0.854765
0.000000 0.870115 0.855619
0.000000 0.874113 0.855863
0.255131 0.880034 0.852720
0.570672 0.882292 0.841917
0.785641 0.872221 0.837827
0.938720 0.888365 0.838499
0.000000 1.000000 0.845457
0.000000 1.000000 0.843595
0.000000 1.000000 0.836545
0.000000 1.000000 0.822202
0.000000 1.000000 0.799924
0.505974 1.000000 0.782742
0.778805 0.986664 0.821103
0.918181 0.980407 0.832395
0.000000 0.062531 0.939910
0.000000 0.036988 0.940826
0.114382 0.000000 0.941283
0.322179 0.000000 0.942412
0.477058 0.000000 0.943236
0.624201 0.000000 0.943999
0.770504 0.000000 0.944732
0.947723 0.000000 0.967559
0.000000 0.112917 0.938415
0.000000 0.105745 0.939178
0.000000 0.072358 0.939727
0.304936 0.000000 0.940398
0.467109 0.000000 0.941039
0.617426 0.000000 0.941466
0.765438 0.000000 0.941863
0.944152 0.000000 0.964630
0.000000 0.209232 0.942718
0.000000 0.206119 0.942718
0.000000 0.195102 0.942565
0.242985 0.174380 0.942901
0.439460 0.140444 0.942809
0.603754 0.086519 0.943145
0.760189 0.000000 0.944121
0.944762 0.000000 0.966644
0.000000 0.363226 0.945647
0.000000 0.357153 0.945403
0.000000 0.340673 0.945586
0.127810 0.335760 0.946044
0.408392 0.332189 0.945769
0.592248 0.332250 0.946044
0.757198 0.338628 0.946563
0.945129 0.325841 0.966278
0.000000 0.519310 0.943999
0.000000 0.515862 0.943755
0.000000 0.506218 0.943908
0.000000 0.499245 0.944671
0.407599 0.516808 0.943908
0.593194 0.520470 0.943633
0.756985 0.526696 0.943725
0.944671 0.522118 0.961456
0.000000 0.665644 0.944152
0.000000 0.664088 0.944366
0.000000 0.659541 0.945068
0.000000 0.656916 0.946044
0.364111 0.666194 0.945739
0.607141 0.690211 0.944762
0.768338 0.699062 0.944610
0.946929 0.694179 0.954711
0.000000 0.808011 0.946471
0.000000 0.807828 0.946990
0.000000 0.806729 0.947509
0.000000 0.807614 0.948150
0.301183 0.814359 0.947295
0.572107 0.827237 0.945830
0.776699 0.847105 0.943938
0.942596 0.858396 0.941863
0.000000 0.968078 0.962615
0.000000 0.968811 0.962707
0.000000 0.972625 0.963653
0.000000 0.978698 0.963470
0.000000 0.986725 0.961303
0.498238 0.996338 0.955962
0.746609 0.989044 0.932097
0.931914 0.976013 0.940063
0.000000 0.072084 1.000000
0.000000 0.062562 1.000000
0.000000 0.000000 1.000000
0.284031 0.000000 1.000000
0.437690 0.000000 1.000000
0.578912 0.000000 1.000000
0.718105 0.000000 1.000000
0.855314 0.000000 1.000000
0.000000 0.116426 1.000000
0.000000 0.111482 1.000000
0.000000 0.088991 1.000000
0.270146 0.000000 1.000000
0.430671 0.000000 1.000000
0.574945 0.000000 1.000000
0.715785 0.000000 1.000000
0.854124 0.000000 1.000000
0.000000 0.209079 1.000000
0.000000 0.207065 1.000000
0.000000 0.198886 1.000000
0.222934 0.187503 1.000000
0.410956 0.169619 1.000000
0.565332 0.148959 1.000000
0.712001 0.137118 1.000000
0.853330 0.150942 1.000000
0.000000 0.334997 1.000000
0.000000 0.337011 1.000000
0.000000 0.335424 1.000000
0.164462 0.334936 1.000000
0.395697 0.335485 1.000000
0.561730 0.338445 1.000000
0.713863 0.347997 1.000000
0.856657 0.367041 1.000000
0.000000 0.479744 1.000000
0.000000 0.478614 1.000000
0.000000 0.475746 1.000000
0.108614 0.482338 1.000000
0.414954 0.505455 1.000000
0.576501 0.511589 1.000000
0.725795 0.522545 1.000000
0.864988 0.540429 1.000000
0.000000 0.617487 1.000000
0.000000 0.616358 1.000000
0.000000 0.613886 1.000000
0.000000 0.616663 1.000000
0.388891 0.635798 1.000000
0.612360 0.675380 1.000000
0.752316 0.687587 1.000000
0.879820 0.695979 1.000000
0.000000 0.752987 1.000000
0.000000 0.752529 1.000000
0.000000 0.751766 1.000000
0.000000 0.755276 1.000000
0.344732 0.769162 1.000000
0.585565 0.790982 1.000000
0.788540 0.833646 1.000000
0.905028 0.845182 1.000000
0.000000 0.892851 1.000000
0.000000 0.892851 1.000000
0.000000 0.893523 1.000000
0.000000 0.896849 1.000000
0.217563 0.905730 1.000000
0.536278 0.919493 1.000000
0.758694 0.939513 1.000000
0.938140 0.967193 1.000000
