data/fiter_cube/80369196/1023068/file.cube
# Created by Adobe Lightroom plugin Export LUT (1.17.0)
# www.johnrellis.com/lightroom/exportlut.htm
# Preset: Have Fun_05
# Color profile: C:\Program Files (x86)\Common Files\Adobe\Color\Profiles\Recommended\AdobeRGB1998.icc
LUT_3D_SIZE 32
DOMAIN_MIN 0.0 0.0 0.0
DOMAIN_MAX 1.0 1.0 1.0
0.135927 0.134798 0.138033
0.135927 0.134798 0.138033
0.135927 0.134798 0.138033
0.144076 0.133364 0.137942
0.157992 0.132387 0.137606
0.172946 0.132753 0.137087
0.188876 0.133272 0.136477
0.206821 0.132479 0.135805
0.227268 0.131655 0.134920
0.250828 0.130373 0.133791
0.278386 0.129152 0.133303
0.310826 0.128511 0.133211
0.348516 0.127016 0.132479
0.390753 0.124056 0.131502
0.436500 0.120302 0.130220
0.484871 0.114900 0.128389
0.534661 0.108034 0.125795
0.583368 0.099519 0.122744
0.631708 0.089326 0.119265
0.678706 0.077150 0.115694
0.722408 0.063844 0.112032
0.762661 0.044526 0.108217
0.800412 0.021149 0.104372
0.836637 0.002502 0.100343
0.871855 0.000000 0.095705
0.906218 0.000000 0.090547
0.939818 0.000000 0.085115
0.972625 0.004730 0.079225
1.000000 0.029023 0.073701
1.000000 0.061402 0.068360
1.000000 0.079683 0.064637
1.000000 0.098573 0.063081
0.135927 0.134798 0.138033
0.135927 0.134798 0.138033
0.135927 0.134798 0.138033
0.143832 0.135256 0.137789
0.157595 0.135988 0.137331
0.172274 0.136416 0.136812
0.188296 0.136385 0.136233
0.206180 0.135805 0.135561
0.226566 0.135073 0.134676
0.250004 0.134066 0.133547
0.277226 0.133394 0.133364
0.309514 0.132937 0.133120
0.346899 0.131930 0.132570
0.388769 0.129854 0.131777
0.434302 0.127047 0.130312
0.482399 0.122438 0.128664
0.532006 0.116823 0.125917
0.580682 0.109712 0.122713
0.629053 0.101106 0.119448
0.675471 0.092012 0.115755
0.718990 0.082612 0.111940
0.759243 0.072969 0.107973
0.797024 0.064881 0.104158
0.833371 0.054108 0.100191
0.868742 0.045655 0.095247
0.903319 0.041291 0.090303
0.937194 0.044373 0.084504
0.970245 0.054749 0.078859
1.000000 0.066621 0.072816
1.000000 0.078828 0.066987
1.000000 0.093263 0.062531
1.000000 0.109224 0.060853
0.135927 0.134798 0.138033
0.135927 0.134798 0.138033
0.136080 0.135134 0.138003
0.143404 0.138430 0.137545
0.156893 0.140597 0.136995
0.171633 0.141024 0.136477
0.187625 0.140658 0.135897
0.205447 0.140139 0.135225
0.225681 0.139498 0.134371
0.248966 0.138766 0.133547
0.276158 0.138918 0.133486
0.308232 0.138796 0.133242
0.345586 0.138125 0.132692
0.387427 0.136995 0.131838
0.432654 0.135042 0.130526
0.480812 0.131655 0.128664
0.530266 0.127413 0.125917
0.578973 0.122042 0.122621
0.627558 0.114931 0.119326
0.673610 0.108217 0.115450
0.717067 0.100984 0.111635
0.757351 0.093782 0.107668
0.795193 0.088045 0.103883
0.831571 0.082673 0.099367
0.867002 0.079194 0.094911
0.901671 0.077150 0.089754
0.935698 0.078614 0.083803
0.968902 0.082429 0.078065
1.000000 0.088655 0.071595
1.000000 0.098024 0.065919
1.000000 0.109133 0.061341
1.000000 0.122072 0.059297
0.134585 0.144228 0.137301
0.134493 0.144747 0.137270
0.137148 0.145022 0.137179
0.144594 0.145357 0.136934
0.156008 0.146273 0.136507
0.170260 0.150393 0.135683
0.186252 0.149905 0.135134
0.204227 0.149264 0.134463
0.224430 0.148867 0.133761
0.247623 0.149081 0.133730
0.274662 0.149783 0.133791
0.306798 0.150546 0.133486
0.343786 0.151156 0.133028
0.385443 0.151156 0.132143
0.430701 0.150698 0.130556
0.478584 0.149538 0.128573
0.528008 0.146975 0.125765
0.576715 0.144076 0.122347
0.625269 0.140108 0.118685
0.670619 0.135531 0.115145
0.713771 0.130739 0.110964
0.753933 0.126223 0.107210
0.792020 0.122042 0.103151
0.828855 0.118654 0.098756
0.864927 0.116640 0.093812
0.900267 0.115541 0.088289
0.934783 0.116243 0.082307
0.968322 0.118715 0.076326
1.000000 0.122866 0.069978
1.000000 0.128908 0.063783
1.000000 0.136995 0.059236
1.000000 0.146639 0.055451
0.132082 0.157900 0.137606
0.131991 0.158206 0.137758
0.133486 0.158816 0.135988
0.141848 0.158724 0.135775
0.155398 0.158633 0.135378
0.169100 0.155978 0.135195
0.184695 0.160220 0.134218
0.201968 0.163058 0.134066
0.222293 0.163302 0.134157
0.245304 0.164034 0.134432
0.272374 0.165194 0.134127
0.304173 0.166781 0.133944
0.341039 0.168765 0.133364
0.382544 0.170809 0.132479
0.427741 0.172274 0.130892
0.475837 0.173190 0.128389
0.525566 0.173098 0.125490
0.575769 0.172457 0.121645
0.624018 0.170321 0.117891
0.669001 0.167971 0.113863
0.711727 0.165255 0.109834
0.751766 0.162478 0.105806
0.789792 0.160037 0.101625
0.826780 0.157687 0.097139
0.863005 0.156374 0.092042
0.898558 0.155581 0.086305
0.933196 0.156130 0.080171
0.966888 0.157321 0.073976
0.999420 0.160433 0.067292
1.000000 0.164706 0.060853
1.000000 0.170260 0.054353
1.000000 0.177676 0.049989
0.128695 0.172702 0.139315
0.128664 0.172976 0.139132
0.129122 0.173678 0.136385
0.136172 0.173953 0.134646
0.149905 0.173648 0.134829
0.167849 0.173037 0.135012
0.183108 0.168185 0.135805
0.200320 0.172824 0.135653
0.219883 0.179416 0.135225
0.242924 0.181827 0.135317
0.270054 0.183932 0.135073
0.301884 0.186648 0.134737
0.338720 0.190097 0.134157
0.380163 0.193668 0.133059
0.425391 0.197299 0.130861
0.473579 0.200137 0.128267
0.523430 0.202426 0.124880
0.575189 0.204074 0.120638
0.622950 0.204135 0.116487
0.667903 0.203342 0.112215
0.710780 0.201938 0.107973
0.751064 0.200168 0.103731
0.808469 0.202060 0.097719
0.844755 0.200504 0.093385
0.879942 0.199527 0.088655
0.914061 0.198795 0.083589
0.947082 0.199283 0.077913
0.979095 0.199893 0.072633
1.000000 0.202182 0.067384
1.000000 0.205173 0.062776
1.000000 0.209506 0.059785
1.000000 0.215030 0.059632
0.123934 0.190036 0.142336
0.124086 0.190402 0.141176
0.124483 0.191165 0.138643
0.130434 0.191836 0.135927
0.144625 0.191714 0.136080
0.162081 0.191318 0.136263
0.183108 0.190646 0.136629
0.199710 0.185214 0.137636
0.220310 0.189029 0.137270
0.243137 0.197391 0.137118
0.270176 0.206760 0.136568
0.302770 0.210880 0.135927
0.340246 0.215885 0.135012
0.382238 0.221195 0.133181
0.427710 0.226413 0.130800
0.475654 0.231113 0.127626
0.527123 0.235691 0.123445
0.579583 0.239322 0.118563
0.627253 0.240970 0.114107
0.672755 0.241398 0.109529
0.716670 0.241550 0.104738
0.758358 0.240879 0.100130
0.798367 0.240330 0.095399
0.837034 0.239536 0.090639
0.874357 0.239322 0.085115
0.909880 0.238926 0.079500
0.943725 0.239048 0.073915
0.976165 0.239628 0.067994
1.000000 0.240818 0.062379
1.000000 0.243107 0.056519
1.000000 0.246067 0.050355
1.000000 0.249943 0.050385
0.117891 0.208591 0.145876
0.118166 0.209049 0.144259
0.118563 0.209720 0.141787
0.124422 0.210452 0.138979
0.137331 0.210910 0.137301
0.155489 0.210788 0.137606
0.175875 0.210636 0.137972
0.199588 0.210117 0.138460
0.220859 0.207004 0.139590
0.241459 0.207187 0.139559
0.268223 0.217716 0.138979
0.299565 0.231083 0.137728
0.336492 0.241581 0.135927
0.378363 0.248447 0.133791
0.423835 0.255406 0.130861
0.472450 0.262272 0.126955
0.525444 0.269413 0.122103
0.576684 0.274510 0.116732
0.623835 0.277287 0.111818
0.669062 0.278752 0.106966
0.712825 0.279637 0.101930
0.754482 0.279698 0.096803
0.794369 0.279728 0.091554
0.833066 0.279271 0.086580
0.870451 0.279118 0.080781
0.906157 0.278935 0.074678
0.940276 0.278813 0.068666
0.973053 0.279088 0.061646
1.000000 0.279911 0.052979
1.000000 0.281315 0.043153
1.000000 0.283391 0.036103
1.000000 0.286076 0.037629
0.109529 0.230167 0.149905
0.109804 0.230686 0.148318
0.111543 0.231266 0.146853
0.117464 0.232151 0.144289
0.127260 0.233494 0.139376
0.146975 0.233616 0.139193
0.169009 0.233616 0.139651
0.192844 0.233646 0.139956
0.219364 0.233494 0.140322
0.244907 0.231968 0.141115
0.266789 0.229129 0.141482
0.298497 0.242344 0.139681
0.334478 0.258427 0.137911
0.374823 0.277134 0.134524
0.420813 0.286687 0.130861
0.471504 0.296269 0.126131
0.523491 0.304784 0.120455
0.574151 0.311223 0.114351
0.620935 0.314824 0.109102
0.666041 0.317174 0.103609
0.709682 0.318853 0.097902
0.751308 0.319402 0.092134
0.791196 0.319554 0.086885
0.829801 0.319615 0.081147
0.867277 0.319463 0.075227
0.903136 0.319036 0.068666
0.937438 0.318975 0.061433
0.970397 0.318944 0.050904
1.000000 0.319432 0.036316
1.000000 0.320165 0.024964
1.000000 0.321386 0.019684
1.000000 0.323156 0.020661
0.096925 0.255711 0.155276
0.098878 0.256046 0.154330
0.101991 0.256504 0.153201
0.108003 0.257572 0.150271
0.117464 0.259220 0.145266
0.134585 0.260380 0.140230
0.159854 0.260594 0.140475
0.185733 0.260929 0.140658
0.213443 0.261357 0.140932
0.243351 0.261631 0.141115
0.272465 0.260899 0.141604
0.296483 0.254795 0.142611
0.333349 0.271122 0.139040
0.374578 0.290440 0.136294
0.420508 0.312444 0.131380
0.469795 0.331670 0.124880
0.521813 0.341802 0.118166
0.572473 0.349340 0.111360
0.619196 0.353948 0.105257
0.664088 0.356847 0.099245
0.707362 0.358770 0.092927
0.748318 0.359503 0.086915
0.787594 0.359655 0.080934
0.825681 0.359594 0.074708
0.862913 0.359350 0.067628
0.898863 0.359075 0.060090
0.933562 0.358892 0.046815
0.967041 0.358709 0.030365
0.999268 0.358831 0.016358
1.000000 0.359197 0.004730
1.000000 0.359991 0.000305
1.000000 0.360998 0.004852
0.080262 0.285283 0.163180
0.082612 0.285740 0.162264
0.085756 0.286320 0.160891
0.092439 0.287510 0.157687
0.103304 0.289342 0.152316
0.117800 0.291661 0.143404
0.145510 0.292729 0.140627
0.176272 0.293431 0.140658
0.206821 0.294255 0.140627
0.239170 0.295201 0.140597
0.272862 0.295964 0.140414
0.306767 0.296666 0.140261
0.332677 0.288701 0.142123
0.375555 0.306401 0.137057
0.420966 0.327977 0.132204
0.468818 0.350958 0.125887
0.518486 0.374853 0.116640
0.568353 0.387579 0.108156
0.615167 0.392859 0.101106
0.660121 0.396429 0.093904
0.703548 0.398840 0.087068
0.744656 0.399878 0.080049
0.784115 0.400244 0.073213
0.822385 0.400305 0.066041
0.859739 0.400092 0.057954
0.895781 0.399634 0.041444
0.930541 0.399207 0.022766
0.964111 0.398840 0.005615
0.996460 0.398596 0.000000
1.000000 0.398535 0.000000
1.000000 0.398779 0.000000
1.000000 0.399115 0.000000
0.032319 0.320745 0.172732
0.040284 0.321294 0.171847
0.050477 0.321935 0.170291
0.064057 0.323247 0.166873
0.079316 0.325353 0.161074
0.097078 0.327886 0.151522
0.121126 0.330602 0.139315
0.161135 0.331487 0.139345
0.197879 0.332586 0.139101
0.233188 0.334112 0.138643
0.271122 0.336706 0.138155
0.310246 0.339147 0.137392
0.360327 0.351751 0.135256
0.387640 0.340887 0.138247
0.436713 0.357427 0.131319
0.486458 0.380804 0.122713
0.536187 0.404150 0.113924
0.583246 0.425544 0.103456
0.627008 0.443732 0.092134
0.671229 0.446571 0.084352
0.713222 0.447791 0.076631
0.752987 0.447852 0.069642
0.791165 0.447242 0.062226
0.828519 0.446418 0.051850
0.865019 0.445533 0.035004
0.900328 0.444526 0.016938
0.934386 0.443397 0.001892
0.967224 0.442329 0.000000
0.998810 0.441382 0.000000
1.000000 0.440497 0.000000
1.000000 0.439826 0.000000
1.000000 0.439246 0.000000
0.000000 0.365515 0.185000
0.000000 0.366033 0.183841
0.000000 0.366461 0.182193
0.000000 0.367651 0.178408
0.000000 0.369360 0.171695
0.051362 0.371740 0.161227
0.086671 0.374670 0.144686
0.134981 0.377173 0.135958
0.183169 0.379889 0.135348
0.226627 0.383154 0.134432
0.268528 0.386969 0.133425
0.313298 0.390814 0.132052
0.358648 0.394812 0.130343
0.403998 0.398260 0.128115
0.431952 0.385626 0.132418
0.482795 0.397833 0.125063
0.533654 0.421302 0.112123
0.580163 0.441871 0.103426
0.623621 0.460456 0.093446
0.665919 0.478401 0.080201
0.707057 0.488899 0.067201
0.747158 0.488960 0.058412
0.785580 0.488319 0.042664
0.823087 0.487404 0.024140
0.859770 0.486427 0.004120
0.895354 0.485267 0.000000
0.929717 0.483986 0.000000
0.962890 0.482643 0.000000
0.994903 0.481300 0.000000
1.000000 0.480171 0.000000
1.000000 0.479042 0.000000
1.000000 0.477913 0.000000
0.000000 0.411048 0.198184
0.000000 0.411627 0.196750
0.000000 0.412238 0.195071
0.000000 0.413764 0.191165
0.000000 0.415961 0.184054
0.000000 0.418952 0.173007
0.000000 0.422736 0.155673
0.078767 0.426825 0.130434
0.156130 0.428962 0.129519
0.210849 0.431830 0.128481
0.259434 0.435370 0.126955
0.305852 0.439399 0.125246
0.355230 0.443000 0.122896
0.403723 0.446265 0.120119
0.451362 0.448859 0.117250
0.485420 0.439094 0.120272
0.529046 0.439002 0.116762
0.576898 0.459632 0.102144
0.620508 0.477546 0.091920
0.662623 0.494759 0.081056
0.703090 0.511315 0.066590
0.741695 0.527031 0.036957
0.780087 0.529931 0.011780
0.817960 0.529046 0.000000
0.854978 0.527886 0.000000
0.890898 0.526574 0.000000
0.925566 0.525078 0.000000
0.959106 0.523491 0.000000
0.991424 0.521935 0.000000
1.000000 0.520378 0.000000
1.000000 0.518853 0.000000
1.000000 0.517235 0.000000
0.000000 0.463813 0.213474
0.000000 0.464393 0.212253
0.000000 0.464790 0.210239
0.000000 0.465949 0.205783
0.000000 0.467597 0.198184
0.000000 0.470008 0.186435
0.000000 0.473213 0.168856
0.000000 0.477180 0.140475
0.104097 0.480354 0.121248
0.184329 0.482887 0.119692
0.243381 0.486030 0.117769
0.295995 0.489631 0.115602
0.346441 0.493355 0.112795
0.398932 0.496315 0.109346
0.449439 0.498329 0.105928
0.498268 0.499458 0.102113
0.538445 0.493111 0.102937
0.572595 0.478706 0.107393
0.617334 0.496254 0.091676
0.659907 0.512902 0.076967
0.700191 0.528618 0.065522
0.738674 0.543481 0.041444
0.775814 0.558068 0.000000
0.812436 0.570855 0.000000
0.849851 0.569635 0.000000
0.886290 0.568292 0.000000
0.921660 0.566766 0.000000
0.955901 0.565179 0.000000
0.988891 0.563500 0.000000
1.000000 0.561852 0.000000
1.000000 0.559991 0.000000
1.000000 0.557824 0.000000
0.000000 0.517021 0.229313
0.000000 0.517693 0.228061
0.000000 0.518212 0.226017
0.000000 0.519341 0.221439
0.000000 0.521050 0.213443
0.000000 0.523491 0.201450
0.000000 0.526696 0.183566
0.000000 0.530663 0.156008
0.000000 0.535027 0.109377
0.138216 0.536767 0.107607
0.218051 0.538750 0.105531
0.279637 0.540948 0.103151
0.334295 0.542931 0.100404
0.386908 0.544488 0.097353
0.440040 0.545129 0.093477
0.490822 0.545281 0.089174
0.539879 0.544823 0.085023
0.583581 0.540429 0.083803
0.612787 0.520714 0.095491
0.657038 0.532708 0.080110
0.698573 0.548089 0.055909
0.737179 0.562341 0.034516
0.774502 0.576165 0.003357
0.811063 0.590112 0.000000
0.847105 0.604211 0.000000
0.883085 0.611505 0.000000
0.918822 0.609766 0.000000
0.953338 0.607904 0.000000
0.986511 0.605829 0.000000
1.000000 0.603601 0.000000
1.000000 0.601038 0.000000
1.000000 0.598260 0.000000
0.000000 0.566583 0.244388
0.000000 0.566918 0.242863
0.000000 0.567285 0.240909
0.000000 0.568231 0.236088
0.000000 0.569635 0.228275
0.000000 0.571649 0.216342
0.000000 0.574334 0.199069
0.000000 0.577539 0.173098
0.000000 0.581323 0.130404
0.000000 0.583825 0.095338
0.177493 0.585168 0.093355
0.253330 0.586603 0.090791
0.315099 0.587945 0.087739
0.370428 0.588922 0.084596
0.424262 0.589258 0.080842
0.477485 0.588647 0.076570
0.528405 0.587671 0.071626
0.577752 0.586633 0.065370
0.623346 0.583062 0.061921
0.651667 0.562493 0.080934
0.694697 0.567834 0.066957
0.734249 0.581384 0.019989
0.771786 0.594446 0.000000
0.808469 0.607721 0.000000
0.844663 0.621241 0.000000
0.880156 0.634821 0.000000
0.914733 0.648341 0.000000
0.949340 0.650202 0.000000
0.982971 0.647822 0.000000
1.000000 0.645258 0.000000
1.000000 0.642329 0.000000
1.000000 0.638972 0.000000
0.000000 0.612299 0.258366
0.000000 0.612879 0.256901
0.000000 0.625299 0.258732
0.000000 0.625971 0.253788
0.000000 0.627039 0.245792
0.000000 0.628351 0.233799
0.000000 0.630091 0.216739
0.000000 0.632288 0.191867
0.000000 0.635096 0.153902
0.000000 0.638239 0.079774
0.108431 0.638605 0.077394
0.219364 0.639002 0.074739
0.292760 0.639124 0.071626
0.354528 0.639094 0.067842
0.410010 0.638758 0.063966
0.465034 0.637690 0.058503
0.518669 0.636072 0.047974
0.569818 0.634119 0.034394
0.619318 0.632044 0.017273
0.666468 0.628901 0.005859
0.694057 0.607538 0.062898
0.735103 0.605463 0.051514
0.773007 0.617395 0.000000
0.809628 0.629450 0.000000
0.845151 0.641596 0.000000
0.880003 0.653925 0.000000
0.913939 0.666255 0.000000
0.947051 0.678645 0.000000
0.979217 0.690272 0.000000
1.000000 0.687190 0.000000
1.000000 0.683772 0.000000
1.000000 0.679774 0.000000
0.000000 0.658198 0.272190
0.000000 0.659937 0.271183
0.000000 0.661799 0.269535
0.000000 0.663844 0.265415
0.000000 0.665827 0.258030
0.000000 0.667567 0.246860
0.000000 0.669368 0.230808
0.000000 0.671351 0.208103
0.000000 0.673854 0.174899
0.000000 0.676600 0.119112
0.000000 0.677974 0.063142
0.167819 0.678035 0.060090
0.259159 0.677913 0.055695
0.328466 0.677485 0.048615
0.388342 0.676814 0.038849
0.442908 0.675776 0.029145
0.498116 0.674037 0.016968
0.551263 0.672084 0.003693
0.602258 0.670039 0.000000
0.651820 0.668055 0.000000
0.699916 0.665766 0.000000
0.728878 0.646082 0.031586
0.769284 0.638148 0.032898
0.806668 0.649561 0.000000
0.843076 0.661036 0.000000
0.878111 0.672786 0.000000
0.912291 0.684565 0.000000
0.945586 0.696407 0.000000
0.977813 0.708156 0.000000
1.000000 0.719631 0.000000
1.000000 0.725551 0.000000
1.000000 0.721035 0.000000
0.000000 0.697047 0.283268
0.000000 0.698573 0.282261
0.000000 0.700191 0.280674
0.000000 0.701930 0.276585
0.000000 0.703639 0.269413
0.000000 0.705226 0.258701
0.000000 0.706722 0.243656
0.000000 0.708461 0.222751
0.000000 0.710658 0.193240
0.000000 0.713069 0.147585
0.000000 0.715633 0.040253
0.073610 0.715511 0.033295
0.217411 0.715053 0.025788
0.298039 0.714534 0.019165
0.363775 0.713680 0.010925
0.421973 0.712520 0.002045
0.475471 0.711238 0.000000
0.530907 0.709255 0.000000
0.583673 0.707240 0.000000
0.634546 0.705257 0.000000
0.683925 0.703334 0.000000
0.732692 0.701900 0.000000
0.767483 0.687800 0.000000
0.803494 0.671626 0.023407
0.840391 0.681819 0.000000
0.876188 0.692714 0.000000
0.910552 0.703700 0.000000
0.943877 0.714900 0.000000
0.976165 0.726009 0.000000
1.000000 0.736904 0.000000
1.000000 0.747219 0.000000
1.000000 0.756680 0.005676
0.000000 0.734066 0.293400
0.000000 0.735409 0.292393
0.000000 0.736904 0.290654
0.000000 0.738430 0.286625
0.000000 0.739956 0.279789
0.000000 0.741329 0.269596
0.000000 0.742702 0.255497
0.000000 0.744228 0.236149
0.000000 0.746029 0.209476
0.000000 0.748104 0.170718
0.000000 0.750454 0.102693
0.000000 0.751247 0.008362
0.160800 0.750759 0.001312
0.262516 0.750118 0.000000
0.336187 0.749355 0.000000
0.398810 0.748470 0.000000
0.455573 0.747616 0.000000
0.509514 0.746731 0.000000
0.564874 0.745388 0.000000
0.617884 0.744137 0.000000
0.669184 0.742947 0.000000
0.719203 0.741726 0.000000
0.768734 0.740932 0.000000
0.809476 0.732418 0.000000
0.841642 0.713008 0.027924
0.878447 0.717922 0.000000
0.913359 0.727993 0.000000
0.946899 0.738186 0.000000
0.979004 0.748409 0.000000
1.000000 0.758389 0.027466
1.000000 0.767819 0.066773
1.000000 0.776272 0.089876
0.000000 0.774533 0.303899
0.000000 0.775265 0.302678
0.000000 0.775875 0.300938
0.000000 0.776699 0.296818
0.000000 0.777615 0.290013
0.000000 0.778592 0.280156
0.000000 0.779751 0.266758
0.000000 0.781216 0.248783
0.000000 0.783017 0.224247
0.000000 0.785092 0.189944
0.000000 0.787411 0.137453
0.000000 0.789334 0.000000
0.042817 0.788846 0.000000
0.220920 0.788205 0.000000
0.306493 0.787350 0.000000
0.375219 0.786435 0.000000
0.435492 0.785428 0.000000
0.490913 0.784482 0.000000
0.544915 0.783352 0.000000
0.599573 0.781857 0.000000
0.651972 0.780362 0.000000
0.702632 0.778805 0.000000
0.751919 0.777157 0.000000
0.800748 0.775998 0.000000
0.846281 0.772244 0.000000
0.874479 0.749935 0.046876
0.910918 0.749477 0.047456
0.944945 0.758907 0.017731
0.977539 0.768215 0.006195
1.000000 0.777523 0.064271
1.000000 0.786282 0.089906
1.000000 0.794064 0.112428
0.000000 0.809689 0.312169
0.000000 0.810391 0.310918
0.000000 0.811063 0.309270
0.000000 0.811795 0.305241
0.000000 0.812650 0.298741
0.000000 0.813474 0.289189
0.000000 0.814450 0.276341
0.000000 0.815610 0.259312
0.000000 0.817166 0.236851
0.000000 0.818997 0.206210
0.000000 0.821042 0.161807
0.000000 0.823087 0.080232
0.000000 0.823270 0.000000
0.165713 0.822690 0.000000
0.271946 0.821988 0.000000
0.348211 0.821195 0.000000
0.412757 0.820310 0.000000
0.470924 0.819547 0.000000
0.525048 0.818723 0.000000
0.579309 0.817716 0.000000
0.633295 0.816403 0.000000
0.685237 0.815061 0.000000
0.735470 0.813687 0.000000
0.784451 0.812161 0.000000
0.830289 0.808438 0.000000
0.880583 0.809476 0.000000
0.905608 0.785153 0.069459
0.941619 0.779660 0.079866
0.974548 0.788327 0.076722
1.000000 0.796719 0.079591
1.000000 0.804776 0.102602
1.000000 0.812039 0.128176
0.000000 0.848081 0.320745
0.000000 0.848753 0.319646
0.000000 0.849271 0.317937
0.000000 0.849790 0.313939
0.000000 0.850278 0.307408
0.000000 0.850797 0.298253
0.000000 0.851408 0.285924
0.000000 0.852171 0.269657
0.000000 0.853117 0.248325
0.000000 0.854337 0.220432
0.000000 0.855680 0.182071
0.000000 0.857145 0.122408
0.000000 0.857847 0.000000
0.069154 0.856901 0.000000
0.231998 0.855741 0.000000
0.318700 0.854459 0.000000
0.388098 0.853208 0.000000
0.449134 0.852079 0.000000
0.505180 0.851225 0.000000
0.558007 0.850553 0.000000
0.612299 0.849546 0.000000
0.665400 0.848356 0.000641
0.716365 0.846921 0.009827
0.765682 0.845182 0.017426
0.813474 0.843168 0.027771
0.860441 0.841245 0.035157
0.912718 0.844541 0.020844
0.937163 0.820737 0.094972
0.972320 0.809995 0.111177
1.000000 0.817563 0.114534
1.000000 0.824613 0.122805
1.000000 0.830961 0.142000
0.000000 0.881193 0.326787
0.000000 0.881865 0.325780
0.000000 0.882353 0.324071
0.000000 0.882811 0.320256
0.000000 0.883238 0.313970
0.000000 0.883757 0.305150
0.000000 0.884367 0.293248
0.000000 0.885130 0.277928
0.000000 0.886107 0.257939
0.000000 0.887327 0.232273
0.000000 0.888670 0.198337
0.000000 0.890105 0.149996
0.000000 0.891447 0.057649
0.000000 0.890806 0.026184
0.185183 0.889799 0.028168
0.288273 0.888731 0.027985
0.364080 0.887572 0.031983
0.428717 0.886503 0.035828
0.487007 0.885618 0.042634
0.541314 0.884916 0.050721
0.592798 0.884215 0.059541
0.647089 0.882933 0.064637
0.698970 0.881529 0.069947
0.748959 0.879850 0.074922
0.797360 0.877958 0.080598
0.844388 0.875792 0.085939
0.890318 0.873533 0.091646
0.942779 0.877562 0.091493
0.968872 0.856413 0.127596
1.000000 0.840909 0.147494
1.000000 0.846708 0.156497
1.000000 0.852049 0.170138
0.000000 0.914702 0.332341
0.000000 0.915160 0.331151
0.000000 0.915435 0.329503
0.000000 0.915679 0.325750
0.000000 0.915892 0.319646
0.000000 0.916228 0.311009
0.000000 0.916655 0.299535
0.000000 0.917235 0.284794
0.000000 0.918059 0.266026
0.000000 0.919158 0.242283
0.000000 0.920317 0.211521
0.000000 0.921660 0.170993
0.000000 0.922850 0.111604
0.000000 0.922850 0.068116
0.122438 0.921904 0.069398
0.255314 0.920836 0.071046
0.338964 0.919646 0.072969
0.407385 0.918547 0.075319
0.468086 0.917571 0.078737
0.523827 0.916747 0.082826
0.576349 0.916014 0.088106
0.627527 0.915068 0.093843
0.680232 0.913634 0.098939
0.730831 0.912016 0.104219
0.779660 0.910155 0.109285
0.826963 0.908049 0.115053
0.873075 0.905852 0.120974
0.918120 0.903502 0.126986
0.969726 0.907561 0.130556
0.998047 0.889647 0.159060
1.000000 0.872709 0.180850
1.000000 0.872740 0.196475
0.000000 0.945983 0.336126
0.000000 0.946288 0.335058
0.000000 0.946532 0.333440
0.000000 0.946807 0.329717
0.000000 0.947143 0.323705
0.000000 0.947753 0.315526
0.000000 0.948638 0.304601
0.000000 0.949798 0.290745
0.000000 0.951232 0.273228
0.000000 0.952880 0.251255
0.000000 0.954620 0.223941
0.000000 0.956298 0.189731
0.000000 0.957733 0.147616
0.000000 0.958404 0.106935
0.000000 0.957733 0.109804
0.226780 0.956756 0.111788
0.319158 0.955657 0.114626
0.391302 0.954528 0.117311
0.454200 0.953460 0.121279
0.511345 0.952483 0.125124
0.564721 0.951537 0.130159
0.615320 0.950530 0.135714
0.665980 0.949157 0.140719
0.717067 0.947326 0.145968
0.766201 0.945342 0.151949
0.813626 0.943175 0.157565
0.859739 0.940826 0.163394
0.904662 0.938354 0.169772
0.948516 0.935821 0.176638
0.998535 0.939300 0.183200
1.000000 0.925261 0.206668
1.000000 0.905394 0.231693
0.000000 0.980346 0.340032
0.000000 0.980560 0.338903
0.000000 0.980621 0.337377
0.000000 0.980743 0.333654
0.000000 0.980926 0.327794
0.000000 0.981201 0.319738
0.000000 0.981689 0.309117
0.000000 0.982361 0.295628
0.000000 0.983215 0.278813
0.000000 0.984222 0.258183
0.000000 0.985229 0.233188
0.000000 0.986206 0.203494
0.000000 0.986969 0.170596
0.000000 0.987304 0.138521
