data/fiter_cube/21023058/1023010/file.cube
# Created by Adobe Lightroom plugin Export LUT (1.17.0)
# www.johnrellis.com/lightroom/exportlut.htm
# Preset: 温暖焦糖婚礼婚纱_06 云集
# Color profile: C:\Program Files (x86)\Common Files\Adobe\Color\Profiles\Recommended\AdobeRGB1998.icc
LUT_3D_SIZE 5
DOMAIN_MIN 0.000000 0.000000 0.000000
DOMAIN_MAX 0.903226 0.903226 0.903226
0.050294 0.046693 0.059266
0.140810 0.062837 0.063111
0.547204 0.000000 0.002747
0.786191 0.323949 0.074403
0.923125 0.531823 0.318120
0.064546 0.079866 0.070558
0.121187 0.119753 0.091768
0.512932 0.196414 0.005859
0.771389 0.378943 0.079500
0.917845 0.553643 0.325628
0.105776 0.291966 0.136263
0.247807 0.377569 0.197299
0.521508 0.484993 0.320073
0.748135 0.570855 0.319890
0.896880 0.613367 0.340124
0.345006 0.598535 0.339025
0.427253 0.621637 0.381872
0.628077 0.663081 0.510033
0.748623 0.707301 0.604120
0.871214 0.780331 0.677333
0.649653 0.775174 0.609033
0.657160 0.779782 0.616815
0.751522 0.802548 0.689754
0.826841 0.823728 0.738643
0.890593 0.860777 0.801541
0.062470 0.060121 0.094270
0.169772 0.063386 0.132418
0.600641 0.094026 0.172549
0.793759 0.367742 0.238346
0.921080 0.550011 0.402838
0.076661 0.105623 0.109438
0.179965 0.170779 0.161105
0.571099 0.254093 0.181521
0.781369 0.413794 0.240360
0.915831 0.568475 0.405615
0.134371 0.314794 0.189029
0.279728 0.403388 0.257267
0.549950 0.512169 0.394324
0.751980 0.569482 0.360723
0.897459 0.624414 0.413733
0.355993 0.600793 0.380133
0.455543 0.626917 0.429023
0.645930 0.673823 0.550622
0.755398 0.714107 0.627619
0.874571 0.780972 0.681270
0.645380 0.774197 0.616571
0.653010 0.778866 0.623926
0.747890 0.804257 0.692287
0.830167 0.827146 0.748745
0.892607 0.863188 0.808164
0.079225 0.118563 0.357092
0.223789 0.131319 0.401282
0.628138 0.253696 0.485084
0.813901 0.466346 0.512932
0.921660 0.615137 0.593103
0.220554 0.253330 0.401282
0.304967 0.268162 0.434241
0.624506 0.374731 0.501396
0.807523 0.506828 0.523400
0.918486 0.624811 0.589197
0.261570 0.422004 0.399969
0.385565 0.470619 0.443824
0.615015 0.576440 0.546899
0.775937 0.598047 0.535393
0.904753 0.661372 0.579675
0.405188 0.609003 0.486366
0.490639 0.632746 0.521447
0.661280 0.688930 0.611414
0.774380 0.733425 0.683772
0.884154 0.773709 0.683040
0.629541 0.771023 0.644923
0.644434 0.776425 0.652796
0.732143 0.801480 0.699763
0.836576 0.835477 0.774319
0.897490 0.869230 0.825467
0.380560 0.314244 0.652369
0.450080 0.337957 0.661646
0.615961 0.406500 0.686091
0.810819 0.568811 0.702327
0.922179 0.696315 0.747097
0.451545 0.430976 0.659083
0.496895 0.443641 0.666377
0.625116 0.483253 0.690242
0.808133 0.599390 0.707637
0.920928 0.704616 0.748684
0.566400 0.594110 0.654994
0.605035 0.612299 0.669001
0.670253 0.629633 0.697932
0.800046 0.667994 0.720272
0.918395 0.727108 0.748867
0.555871 0.666865 0.653529
0.597803 0.677729 0.665064
0.695827 0.709621 0.698817
0.799191 0.759243 0.750149
0.903807 0.765103 0.731807
0.632593 0.770443 0.703761
0.660639 0.777432 0.714076
0.732937 0.800870 0.744656
0.828031 0.841093 0.794675
0.906859 0.880735 0.854185
0.636927 0.589532 0.815763
0.656489 0.595880 0.817685
0.718288 0.617029 0.826017
0.820951 0.655543 0.836271
0.920348 0.744900 0.845365
0.653498 0.620600 0.814145
0.669886 0.624811 0.816190
0.724300 0.640040 0.824796
0.817868 0.668757 0.835630
0.919402 0.752804 0.846891
0.706447 0.700191 0.813718
0.705623 0.693446 0.815702
0.740200 0.697505 0.823758
0.810208 0.710842 0.838895
0.919341 0.782498 0.855711
0.733242 0.758755 0.805997
0.744686 0.762173 0.808469
0.782559 0.776638 0.820920
0.822171 0.784848 0.845701
0.918669 0.828855 0.869932
0.719234 0.804746 0.806241
0.730892 0.807980 0.809384
0.775296 0.824216 0.825284
0.842893 0.852903 0.852659
0.917906 0.894652 0.892027
