data/fiter_cube/21023058/1023010/file.cube
# Created by Adobe Lightroom plugin Export LUT (1.17.0)
# www.johnrellis.com/lightroom/exportlut.htm
# Preset: 温暖焦糖婚礼婚纱_06 云集
# Color profile: C:\Program Files (x86)\Common Files\Adobe\Color\Profiles\Recommended\AdobeRGB1998.icc
LUT_3D_SIZE 32
DOMAIN_MIN 0.0 0.0 0.0
DOMAIN_MAX 1.0 1.0 1.0
0.050294 0.046693 0.059266
0.052033 0.047303 0.059632
0.055695 0.048432 0.059968
0.061982 0.050355 0.061067
0.071626 0.054963 0.061891
0.086580 0.059449 0.062440
0.109407 0.061799 0.062928
0.140810 0.062837 0.063111
0.182162 0.060487 0.062898
0.234195 0.047608 0.061158
0.296239 0.004395 0.058320
0.363104 0.000000 0.048859
0.429938 0.000000 0.034211
0.492439 0.000000 0.017731
0.547204 0.000000 0.002747
0.595209 0.042512 0.000000
0.637324 0.116640 0.000000
0.673732 0.166384 0.000000
0.706081 0.210117 0.000000
0.735103 0.250431 0.000000
0.761746 0.288426 0.036744
0.786191 0.323949 0.074403
0.808652 0.356634 0.102113
0.829465 0.387610 0.131899
0.849516 0.417182 0.163119
0.868864 0.446113 0.197024
0.887541 0.474678 0.234073
0.905669 0.503197 0.274632
0.923125 0.531823 0.318120
0.939788 0.561151 0.365698
0.955566 0.591485 0.415839
0.970275 0.623346 0.468818
0.051026 0.047486 0.059632
0.051759 0.048219 0.060029
0.055421 0.049348 0.060365
0.061311 0.052338 0.061006
0.071077 0.056947 0.061830
0.086061 0.060487 0.062806
0.108705 0.063416 0.063264
0.139712 0.064729 0.063447
0.180575 0.063783 0.062776
0.232456 0.055543 0.061463
0.294255 0.019135 0.058076
0.361181 0.000000 0.049317
0.428046 0.000000 0.035920
0.490700 0.000000 0.019318
0.545769 0.000000 0.003113
0.593805 0.061646 0.000000
0.635676 0.121645 0.000000
0.672053 0.169558 0.000000
0.704555 0.212039 0.000000
0.733761 0.252110 0.000000
0.760525 0.289433 0.037049
0.785031 0.324620 0.073518
0.807614 0.357336 0.101228
0.828550 0.387976 0.130953
0.848692 0.417639 0.162722
0.868070 0.446387 0.196323
0.886900 0.474891 0.233341
0.905089 0.503166 0.273320
0.922576 0.531823 0.317205
0.939330 0.561151 0.364843
0.955200 0.591394 0.414923
0.969940 0.623255 0.468055
0.051637 0.049104 0.059998
0.053254 0.050568 0.060334
0.054963 0.050233 0.061219
0.060456 0.054322 0.061799
0.070466 0.058778 0.062196
0.085176 0.062593 0.062654
0.107454 0.065614 0.063142
0.138094 0.067475 0.063752
0.178927 0.067720 0.063020
0.230411 0.062348 0.061738
0.291752 0.038636 0.058473
0.358618 0.000000 0.049714
0.425818 0.000000 0.036103
0.488777 0.000000 0.019318
0.543755 0.000000 0.004028
0.592187 0.075990 0.000000
0.634028 0.129000 0.000000
0.670619 0.174197 0.000000
0.703182 0.215824 0.000000
0.732601 0.254948 0.000000
0.759426 0.291905 0.035248
0.784115 0.326726 0.073274
0.806790 0.358953 0.100893
0.827817 0.389319 0.130709
0.848020 0.418677 0.162325
0.867521 0.447272 0.196109
0.886351 0.475624 0.232914
0.904601 0.503899 0.273381
0.922210 0.532311 0.316838
0.938994 0.561578 0.364446
0.954894 0.591638 0.414466
0.969665 0.623529 0.467659
0.054444 0.052949 0.061524
0.055177 0.053681 0.061921
0.057679 0.054994 0.062684
0.060456 0.056855 0.063416
0.066835 0.061250 0.064698
0.081971 0.065980 0.064240
0.105074 0.070069 0.063722
0.135653 0.073579 0.063783
0.175479 0.075715 0.063447
0.226474 0.073915 0.062013
0.287633 0.065553 0.058747
0.354284 0.040284 0.050690
0.421210 0.003204 0.037049
0.484688 0.000000 0.020661
0.540642 0.049836 0.004517
0.589166 0.099672 0.000000
0.631250 0.143496 0.000000
0.668025 0.185031 0.000000
0.700526 0.224430 0.000000
0.730190 0.261753 0.000000
0.757351 0.297398 0.033997
0.782223 0.331151 0.072633
0.805173 0.362646 0.100740
0.826413 0.392615 0.130587
0.846830 0.421546 0.162112
0.866575 0.449866 0.196353
0.885618 0.477821 0.233219
0.903960 0.505882 0.273564
0.921630 0.534234 0.317540
0.938506 0.563073 0.364660
0.954467 0.592981 0.414649
0.969299 0.624567 0.467750
0.057008 0.058595 0.062989
0.056733 0.059083 0.063386
0.059815 0.060578 0.064515
0.062531 0.061952 0.065553
0.067292 0.064820 0.067170
0.075257 0.069276 0.068910
0.098085 0.076967 0.067414
0.130098 0.082704 0.065644
0.170352 0.086580 0.063539
0.220127 0.088624 0.062440
0.280858 0.086336 0.059388
0.347112 0.080323 0.051575
0.414710 0.073701 0.038483
0.478492 0.076356 0.021302
0.535271 0.095125 0.005035
0.584527 0.127138 0.000000
0.627192 0.163821 0.000000
0.664271 0.201389 0.000000
0.697383 0.237705 0.000000
0.727413 0.272923 0.000000
0.754726 0.306737 0.036530
0.779995 0.339147 0.073823
0.803159 0.369451 0.101411
0.824704 0.398352 0.131350
0.845274 0.426307 0.162783
0.865202 0.454078 0.197238
0.884337 0.481483 0.233982
0.902861 0.508965 0.273960
0.920684 0.536797 0.317845
0.937652 0.565393 0.365057
0.953765 0.594965 0.415106
0.968719 0.626276 0.467933
0.059236 0.063447 0.065126
0.059724 0.063844 0.065095
0.060914 0.065431 0.065705
0.065248 0.068086 0.067720
0.070588 0.070893 0.069673
0.078187 0.075654 0.072328
0.087922 0.080842 0.076143
0.119570 0.094026 0.073243
0.162051 0.102937 0.069673
0.213169 0.107210 0.064942
0.272526 0.107820 0.060304
0.338872 0.108186 0.053315
0.406622 0.108827 0.040803
0.471046 0.114504 0.023499
0.528862 0.130220 0.005585
0.578851 0.156008 0.000000
0.622065 0.187900 0.000000
0.659785 0.221469 0.000000
0.693233 0.254582 0.000000
0.723903 0.287388 0.000000
0.751766 0.319585 0.037171
0.777401 0.349828 0.075044
0.804776 0.384161 0.108217
0.826200 0.411414 0.138552
0.846677 0.438087 0.170077
0.866453 0.464332 0.204166
0.885466 0.490730 0.241001
0.903899 0.517205 0.281071
0.921538 0.544182 0.324559
0.938415 0.572015 0.371496
0.954345 0.600946 0.421088
0.969177 0.631678 0.473579
0.061860 0.070283 0.067231
0.061646 0.071107 0.067567
0.062989 0.072053 0.067811
0.067994 0.076539 0.070771
0.074434 0.080476 0.073091
0.083314 0.085908 0.075837
0.095613 0.093660 0.080293
0.108858 0.100465 0.085542
0.149691 0.119173 0.083131
0.204807 0.131991 0.076967
0.267674 0.138277 0.069551
0.333165 0.139193 0.059754
0.398779 0.140566 0.041413
0.464057 0.148928 0.024231
0.522911 0.164523 0.005951
0.573785 0.187655 0.000000
0.617273 0.215824 0.000000
0.655695 0.245731 0.000000
0.689723 0.276188 0.000000
0.721035 0.306523 0.000916
0.749569 0.336461 0.044831
0.775906 0.365148 0.078096
0.800076 0.392706 0.107698
0.822416 0.419165 0.138186
0.843565 0.445075 0.170108
0.863828 0.470710 0.204715
0.883238 0.496284 0.241398
0.901884 0.522118 0.281804
0.919860 0.548425 0.324987
0.936919 0.575647 0.371862
0.953094 0.604059 0.421088
0.968139 0.634394 0.473487
0.064546 0.079866 0.070558
0.064881 0.080507 0.070832
0.064912 0.082155 0.071382
0.069490 0.087617 0.073579
0.078981 0.094789 0.078370
0.089021 0.100649 0.081636
0.102907 0.108461 0.085786
0.121187 0.119753 0.091768
0.140352 0.129366 0.098726
0.188327 0.152316 0.099458
0.256535 0.169131 0.088716
0.327092 0.178439 0.077943
0.394659 0.183078 0.064424
0.455818 0.185946 0.035492
0.512932 0.196414 0.005859
0.564752 0.217777 0.000000
0.609339 0.242771 0.000000
0.648310 0.269505 0.000000
0.683070 0.297063 0.000000
0.715114 0.325139 0.000000
0.744411 0.352422 0.046509
0.771389 0.378943 0.079500
0.796048 0.404700 0.108797
0.818814 0.429572 0.139010
0.840330 0.454108 0.171420
0.860929 0.478553 0.205936
0.880613 0.503075 0.242588
0.899565 0.528008 0.282200
0.917845 0.553643 0.325628
0.935210 0.580194 0.372229
0.951659 0.608057 0.421607
0.966949 0.637903 0.473884
0.067292 0.094026 0.075074
0.067048 0.094911 0.075349
0.067872 0.096742 0.076143
0.072328 0.103090 0.077974
0.083833 0.113375 0.084627
0.096712 0.121279 0.089387
0.112490 0.129335 0.093355
0.132326 0.140108 0.099245
0.157656 0.154849 0.107179
0.185611 0.168765 0.116518
0.238010 0.193820 0.123537
0.315618 0.215335 0.107057
0.389563 0.229191 0.092378
0.455238 0.238621 0.075410
0.511070 0.246464 0.051637
0.557366 0.253758 0.001831
0.600366 0.270634 0.000000
0.640253 0.295109 0.000000
0.675868 0.319982 0.000000
0.708705 0.345525 0.002991
0.738735 0.370397 0.049500
0.766323 0.394903 0.082002
0.791684 0.418433 0.111055
0.814908 0.441566 0.141054
0.836728 0.464607 0.173312
0.857725 0.487770 0.207584
0.877775 0.511131 0.243961
0.897093 0.535027 0.283421
0.915618 0.559838 0.326635
0.933318 0.585626 0.373022
0.950042 0.612848 0.422278
0.965637 0.642115 0.474525
0.069947 0.113558 0.080964
0.070100 0.114412 0.081178
0.071443 0.116945 0.082063
0.076204 0.124025 0.084413
0.087190 0.135225 0.089815
0.106661 0.148104 0.099062
0.123903 0.156313 0.103426
0.145968 0.166598 0.108949
0.172976 0.180880 0.117067
0.206577 0.198825 0.127443
0.244724 0.217350 0.139651
0.296086 0.242863 0.156863
0.377844 0.270878 0.135103
0.450080 0.288884 0.115541
0.509911 0.301457 0.097078
0.558373 0.310948 0.076600
0.598810 0.319127 0.047028
0.633448 0.326543 0.000000
0.667811 0.344030 0.000000
0.701686 0.367041 0.006989
0.732570 0.389532 0.055512
0.760678 0.411719 0.084138
0.786587 0.433387 0.112978
0.810330 0.454566 0.142947
0.832517 0.475990 0.174716
0.853880 0.497658 0.208774
0.874327 0.519921 0.245365
0.894102 0.542962 0.284916
0.913054 0.566827 0.328161
0.931151 0.591882 0.374273
0.948272 0.618463 0.423438
0.964233 0.647242 0.475868
0.073945 0.138216 0.088319
0.074067 0.139101 0.088472
0.075990 0.142428 0.089906
0.081758 0.149783 0.092287
0.091859 0.161746 0.096773
0.115267 0.177951 0.108125
0.138308 0.189700 0.116304
0.162203 0.200076 0.122011
0.191623 0.212253 0.129213
0.226627 0.230137 0.140017
0.267796 0.251194 0.153170
0.312535 0.273838 0.168917
0.359869 0.299168 0.193362
0.438758 0.332525 0.174502
0.504479 0.352056 0.150423
0.556756 0.365423 0.130800
0.598993 0.374060 0.111666
0.634730 0.380835 0.092683
0.666072 0.386481 0.072328
0.694820 0.392432 0.037629
0.725124 0.409277 0.059022
0.754238 0.429236 0.087007
0.780880 0.449256 0.115572
0.805356 0.468849 0.145998
0.828092 0.488624 0.177554
0.849851 0.508843 0.211032
0.870726 0.529870 0.247410
0.890898 0.551720 0.286564
0.910216 0.574640 0.329625
0.928740 0.598749 0.375708
0.946227 0.624659 0.424506
0.962615 0.652796 0.476967
0.078706 0.168338 0.097292
0.079500 0.169955 0.098024
0.082368 0.173587 0.099367
0.088655 0.181216 0.101869
0.100069 0.193698 0.106722
0.121889 0.210452 0.116579
0.156008 0.229160 0.132021
0.181643 0.239780 0.138094
0.212924 0.251713 0.145571
0.249393 0.266087 0.154849
0.290440 0.287297 0.168673
0.335698 0.311162 0.185702
0.388067 0.341161 0.208560
0.429541 0.363287 0.235325
0.499153 0.399664 0.230014
0.555871 0.418006 0.201663
0.601404 0.429328 0.180453
0.638758 0.435798 0.161196
0.670832 0.440253 0.143954
0.699886 0.444373 0.128420
0.726284 0.448493 0.114290
0.750698 0.452979 0.102083
0.776822 0.468238 0.122194
0.801663 0.486061 0.152193
0.824735 0.504082 0.183444
0.846799 0.522759 0.216495
0.868009 0.542321 0.252384
0.888426 0.562921 0.291478
0.908080 0.584619 0.333898
0.926818 0.607813 0.379706
0.944671 0.632776 0.428382
0.961303 0.660273 0.480690
0.085512 0.205203 0.108400
0.087282 0.207187 0.109102
0.090455 0.210910 0.110567
0.097688 0.218753 0.113466
0.110292 0.231479 0.118624
0.130251 0.248722 0.126375
0.169284 0.269963 0.144900
0.205112 0.285405 0.157382
0.237736 0.297337 0.165408
0.275059 0.310887 0.175082
0.316167 0.327733 0.187808
0.360510 0.350896 0.205905
0.406683 0.375891 0.227237
0.452430 0.401862 0.251377
0.484688 0.418036 0.277165
0.543908 0.454505 0.289525
0.594354 0.470832 0.258976
0.634943 0.479866 0.234592
0.669368 0.485145 0.215183
0.699519 0.488746 0.198550
0.726558 0.491707 0.185031
0.751247 0.494667 0.173556
0.774136 0.498146 0.165133
0.795712 0.502373 0.158968
0.818967 0.517510 0.185733
0.841581 0.534874 0.218540
0.863371 0.553246 0.254276
0.884337 0.572747 0.293462
0.904479 0.593469 0.335515
0.923796 0.615808 0.381231
0.942138 0.640070 0.429633
0.959289 0.666926 0.482155
0.094148 0.246220 0.121279
0.096620 0.248478 0.122164
0.099977 0.252140 0.123659
0.108522 0.260136 0.126955
0.122560 0.272801 0.132021
0.143099 0.290196 0.139895
0.180514 0.311467 0.156710
0.231235 0.334203 0.180362
0.264256 0.344915 0.188632
0.301213 0.357458 0.199100
0.341588 0.371130 0.211002
0.383490 0.389044 0.227329
0.426673 0.411322 0.248539
0.468666 0.434028 0.272068
0.508354 0.456977 0.298253
0.532891 0.468330 0.321721
0.582269 0.502251 0.351049
0.627161 0.516716 0.319646
0.664851 0.524132 0.292638
0.697047 0.528923 0.273716
0.725216 0.532006 0.258152
0.750546 0.534234 0.245274
0.773709 0.536645 0.235691
0.795346 0.539452 0.228489
0.815946 0.543206 0.224399
0.836240 0.548089 0.223209
0.858457 0.564813 0.256657
0.880003 0.583246 0.295415
0.900725 0.603021 0.337346
0.920592 0.624506 0.382910
0.939452 0.648096 0.431617
0.957183 0.674372 0.484016
0.105776 0.291966 0.136263
0.108370 0.294347 0.137240
0.112306 0.297856 0.138735
0.121859 0.305852 0.142245
0.137331 0.318212 0.147921
0.159854 0.334936 0.156283
0.194034 0.355230 0.170535
0.247807 0.377569 0.197299
0.293034 0.393439 0.216037
0.329229 0.404059 0.226566
0.367590 0.415808 0.238682
0.407080 0.428229 0.252659
0.446845 0.445716 0.271946
0.485389 0.465187 0.295140
0.521508 0.484993 0.320073
0.555200 0.504631 0.345983
0.577661 0.515862 0.369360
0.615473 0.543847 0.410376
0.656733 0.557214 0.380163
0.691768 0.564080 0.353735
0.721767 0.568200 0.334752
0.748135 0.570855 0.319890
0.771847 0.572839 0.308171
0.793759 0.574792 0.299168
0.814542 0.577447 0.293309
0.834867 0.581506 0.290837
0.855070 0.586908 0.291844
0.875456 0.594446 0.298344
0.896880 0.613367 0.340124
0.917357 0.634180 0.385809
0.936889 0.657160 0.434394
0.955169 0.682948 0.487312
0.121675 0.341039 0.154055
0.123873 0.343023 0.155032
0.128725 0.346349 0.156497
0.139193 0.353857 0.160433
0.156374 0.365454 0.166781
0.180331 0.380804 0.175967
0.212314 0.399573 0.188632
0.263920 0.419715 0.214511
0.324376 0.440436 0.247318
0.358862 0.449012 0.257786
0.394720 0.458228 0.269657
0.431403 0.468177 0.283116
0.467018 0.478401 0.297734
0.501640 0.494575 0.319158
0.534478 0.511345 0.342290
0.565545 0.528496 0.366796
0.594781 0.545647 0.391913
0.615778 0.556359 0.413886
0.646662 0.578210 0.450538
0.683833 0.593469 0.437659
0.716030 0.600061 0.414160
0.744076 0.603784 0.395483
0.768765 0.606317 0.381994
0.791104 0.608331 0.371527
0.812253 0.610620 0.364019
0.832761 0.613855 0.359747
0.852964 0.618433 0.359350
0.873106 0.624628 0.362921
0.893400 0.632868 0.371557
0.913909 0.644190 0.388342
0.933989 0.666438 0.436988
0.952880 0.691707 0.490272
0.143709 0.390570 0.175174
0.144900 0.391791 0.175631
0.150301 0.394842 0.177676
0.161715 0.401709 0.181979
0.180026 0.412055 0.188998
0.205081 0.425605 0.198978
0.236790 0.441779 0.212161
0.282231 0.459297 0.234073
0.341466 0.476967 0.267521
0.388006 0.488960 0.290440
0.421302 0.496407 0.302037
0.454414 0.504234 0.314794
0.486610 0.512535 0.328191
0.517449 0.521904 0.343694
0.547570 0.536675 0.365667
0.576165 0.551476 0.388220
0.603510 0.566400 0.411353
0.629572 0.581415 0.434516
0.650263 0.592370 0.455848
0.675074 0.608881 0.487861
0.708278 0.625696 0.490974
0.737789 0.632197 0.469795
0.763821 0.635706 0.451820
0.787045 0.638544 0.440375
0.808743 0.641199 0.431617
0.829496 0.644312 0.426032
0.849821 0.648371 0.423621
0.869932 0.653895 0.425391
0.889952 0.661280 0.431800
0.910124 0.670954 0.443824
0.930388 0.683406 0.462287
0.950286 0.700557 0.492622
0.172702 0.438666 0.200473
0.172885 0.439338 0.200839
0.179873 0.444770 0.204685
0.192020 0.450629 0.209384
0.211002 0.459297 0.216800
0.235935 0.470466 0.227176
0.267552 0.483772 0.240574
0.305333 0.498482 0.258030
0.362158 0.513115 0.290623
0.420722 0.528008 0.327642
0.450477 0.533745 0.338415
0.479866 0.540032 0.350164
0.508598 0.546807 0.362921
0.536492 0.554009 0.376318
0.563409 0.563195 0.392187
0.589807 0.576043 0.413001
0.615351 0.589166 0.434302
0.639643 0.602045 0.455451
0.662837 0.614832 0.477058
0.682490 0.625483 0.497780
0.701991 0.637781 0.525353
0.731380 0.655848 0.542046
0.758328 0.662287 0.523125
0.782528 0.666285 0.507408
0.804898 0.669612 0.496437
0.825956 0.672999 0.489143
0.846250 0.676967 0.485298
0.866239 0.682094 0.484993
0.886107 0.688869 0.489296
0.905943 0.697932 0.499001
0.925872 0.709590 0.514794
0.945434 0.724147 0.537377
0.208652 0.484138 0.230411
0.209842 0.485206 0.231327
0.212131 0.486854 0.232547
0.224369 0.491859 0.237705
0.242802 0.499153 0.245304
0.267613 0.508568 0.256107
0.298009 0.519493 0.269444
0.333165 0.531731 0.285924
0.381567 0.544213 0.313237
0.435554 0.556634 0.348089
0.475898 0.565820 0.372595
0.502068 0.570916 0.383124
0.528099 0.576715 0.395026
0.553399 0.582605 0.407019
0.577966 0.588983 0.419715
0.602197 0.597864 0.435706
0.625788 0.609186 0.455177
0.648707 0.620569 0.475288
0.670466 0.631769 0.495247
0.691035 0.642969 0.515312
0.709682 0.653407 0.535271
0.725277 0.662837 0.559319
0.751705 0.682063 0.586389
0.776669 0.689296 0.570611
0.799802 0.694301 0.557305
0.821500 0.698573 0.547387
0.842161 0.703182 0.542351
0.862181 0.708553 0.540917
0.881926 0.715206 0.543450
0.901640 0.723659 0.550652
0.921294 0.734737 0.563897
0.940459 0.747890 0.582238
0.250248 0.525109 0.263249
0.250919 0.525933 0.264195
0.252201 0.527184 0.265293
0.260807 0.530480 0.269261
0.278599 0.536461 0.276829
0.302068 0.544121 0.287236
0.330602 0.553002 0.300450
0.363622 0.563134 0.316472
0.402777 0.574029 0.337774
0.452308 0.584466 0.370581
0.500145 0.595789 0.405585
0.524956 0.600488 0.416968
0.548302 0.605127 0.427253
0.571221 0.609979 0.438025
0.593805 0.615229 0.449500
0.615717 0.620661 0.461463
0.637446 0.629145 0.477699
0.658717 0.638911 0.496071
0.679103 0.648707 0.514488
0.698573 0.658717 0.533410
0.716823 0.668666 0.552087
0.734218 0.678798 0.570703
0.746822 0.686061 0.590875
0.771145 0.706142 0.623651
0.794766 0.714870 0.612818
0.816861 0.721096 0.602136
0.837888 0.726436 0.594018
0.858091 0.732418 0.591211
0.877806 0.739162 0.592126
0.897337 0.747494 0.597528
0.916899 0.757900 0.607965
0.935637 0.769894 0.622644
0.295140 0.562676 0.299260
0.296208 0.563409 0.300084
0.297429 0.564355 0.301183
0.299565 0.566033 0.302892
0.316716 0.570947 0.310613
0.338384 0.577173 0.320745
0.364874 0.584527 0.333165
0.394690 0.592859 0.348272
0.427680 0.602289 0.366186
0.470649 0.611322 0.394751
0.514092 0.620722 0.426795
0.547753 0.627863 0.450050
0.568597 0.631403 0.458991
0.589502 0.635340 0.468788
0.610132 0.639643 0.479408
0.630365 0.644160 0.490089
0.650172 0.648920 0.501518
0.670039 0.657130 0.517937
0.689235 0.666011 0.535546
0.707485 0.674952 0.553124
0.724849 0.684047 0.570428
0.741146 0.693111 0.587427
0.756924 0.702663 0.604395
0.769375 0.710414 0.623102
0.791226 0.728695 0.651911
0.813474 0.740291 0.651728
0.834623 0.747677 0.643610
0.854978 0.754330 0.638178
0.874784 0.761532 0.637201
0.894163 0.769986 0.640894
0.913298 0.779843 0.648920
0.931731 0.791012 0.660914
0.345006 0.598535 0.339025
0.345678 0.599023 0.339727
0.346441 0.599634 0.340337
0.348425 0.600855 0.341985
0.356603 0.603601 0.346471
0.376318 0.608545 0.355871
0.400458 0.614679 0.367773
0.427253 0.621637 0.381872
0.456580 0.629419 0.398352
0.491005 0.637324 0.420752
0.531090 0.644953 0.450477
0.569604 0.652979 0.481025
0.590570 0.656580 0.492073
0.609430 0.659785 0.500877
0.628077 0.663081 0.510033
0.646662 0.666773 0.519890
0.664759 0.670741 0.530144
0.682460 0.675227 0.541131
0.700160 0.683040 0.557061
0.717098 0.691005 0.572992
0.733272 0.699031 0.588678
0.748623 0.707301 0.604120
0.763363 0.715908 0.619226
0.777890 0.725032 0.634485
0.790616 0.733608 0.652064
0.809934 0.749874 0.677333
0.831083 0.763943 0.686122
0.851438 0.772335 0.680140
0.871214 0.780331 0.677333
0.890654 0.788907 0.678523
0.909392 0.798489 0.684474
0.927489 0.809384 0.694697
0.393439 0.630182 0.378485
0.394049 0.630579 0.378973
0.394873 0.631128 0.379919
0.396582 0.632197 0.381323
0.398932 0.633631 0.383429
0.413672 0.637232 0.391119
0.434546 0.642084 0.401892
0.458320 0.647639 0.414740
0.484474 0.653986 0.429816
0.511894 0.660945 0.446906
0.548211 0.667201 0.474098
0.583673 0.673793 0.502037
0.612116 0.679072 0.523308
0.629084 0.681697 0.531304
0.646113 0.684565 0.539757
0.662928 0.687648 0.548516
0.679438 0.691066 0.557763
0.695583 0.694697 0.567163
0.711421 0.699489 0.578180
0.727230 0.706630 0.592645
0.742458 0.714199 0.606958
0.757107 0.721981 0.621180
0.771298 0.730068 0.635126
0.784848 0.738308 0.648890
0.797726 0.746487 0.661891
0.810788 0.755947 0.678889
0.827939 0.770565 0.701900
0.848112 0.786862 0.718654
0.867765 0.796384 0.715114
0.887022 0.805814 0.715053
0.905455 0.815152 0.717983
0.923308 0.825895 0.726375
0.441932 0.659480 0.419104
0.442603 0.659937 0.419776
0.443153 0.660304 0.420539
0.444587 0.661097 0.421729
0.446601 0.662318 0.423621
0.450904 0.664057 0.426764
0.469123 0.667872 0.436591
0.489967 0.672358 0.448280
0.513054 0.677485 0.461982
0.537469 0.683070 0.477577
0.567346 0.688472 0.499031
0.599817 0.693874 0.524681
0.631769 0.699611 0.550866
0.649531 0.702510 0.561303
0.664607 0.704768 0.568627
0.679500 0.707332 0.576074
0.694362 0.710201 0.584039
0.708980 0.713436 0.592279
0.723384 0.717006 0.600916
0.737789 0.722255 0.611872
0.752193 0.729335 0.624903
0.766110 0.736721 0.638056
0.779629 0.744320 0.650904
0.792569 0.752010 0.663508
0.805020 0.759823 0.675807
0.817258 0.767971 0.688380
0.830442 0.778134 0.705409
0.845701 0.791562 0.726986
0.864836 0.809628 0.750637
0.883726 0.820157 0.749355
0.901701 0.830076 0.751003
0.919310 0.840726 0.756954
0.486275 0.685023 0.457771
0.486885 0.685328 0.458259
0.487556 0.685756 0.458930
0.488624 0.686397 0.460060
0.490364 0.687373 0.461616
0.492714 0.688746 0.463996
0.501518 0.691035 0.469673
0.520134 0.694728 0.480476
0.540703 0.698939 0.493080
0.562921 0.703700 0.507439
0.587213 0.708614 0.524407
0.617426 0.713100 0.548119
0.646479 0.718074 0.571771
0.670192 0.722499 0.590234
0.683558 0.724666 0.596582
0.697047 0.727077 0.603235
0.710475 0.729824 0.610376
0.723842 0.732845 0.617670
0.737087 0.736172 0.625391
0.750118 0.739895 0.633387
0.763333 0.745541 0.643915
0.776516 0.752438 0.655909
0.789273 0.759609 0.667750
0.801633 0.766873 0.679469
0.813626 0.774258 0.691218
0.825162 0.781765 0.703029
0.836240 0.789334 0.714717
0.849546 0.800320 0.732143
0.863401 0.812924 0.752712
0.881224 0.831144 0.778561
0.898711 0.842863 0.782071
0.915923 0.854063 0.786618
0.529320 0.708797 0.496315
0.529717 0.709041 0.496773
0.530175 0.709316 0.497230
0.531212 0.709865 0.498268
0.532616 0.710628 0.499733
0.534661 0.711727 0.501671
0.537041 0.713100 0.504112
0.549920 0.715755 0.512230
0.568536 0.719265 0.523949
0.588586 0.723262 0.537072
0.609766 0.727657 0.551659
0.635554 0.731930 0.571527
0.662074 0.736477 0.592828
0.687495 0.741573 0.613947
0.702510 0.744503 0.623316
0.714595 0.746731 0.629206
0.726802 0.749294 0.635462
0.738888 0.752102 0.641962
0.751125 0.755215 0.648859
0.763180 0.758633 0.655940
0.775113 0.762417 0.663386
0.787411 0.768490 0.673762
0.799527 0.775174 0.684901
0.811276 0.782010 0.696040
0.822721 0.788998 0.707301
0.833768 0.796078 0.718532
0.844450 0.803342 0.729915
0.854765 0.810697 0.741268
0.867826 0.822049 0.758633
0.879850 0.833310 0.777615
0.896452 0.850889 0.802731
0.912840 0.864652 0.813321
0.570397 0.730739 0.534142
0.570733 0.730922 0.534447
0.571099 0.731197 0.534936
0.572076 0.731655 0.535851
0.573358 0.732387 0.537133
0.575280 0.733394 0.539086
0.577630 0.734707 0.541497
0.580621 0.736355 0.544488
0.597467 0.739559 0.555444
0.615747 0.743282 0.567681
0.634760 0.747524 0.580835
0.656001 0.751949 0.596612
0.679957 0.756283 0.615839
0.703182 0.761135 0.635035
0.722896 0.765621 0.650782
0.733730 0.767788 0.656031
0.744808 0.770230 0.661677
0.755856 0.772854 0.667445
0.766995 0.775784 0.673610
0.778164 0.778988 0.680079
0.789303 0.782498 0.686915
0.800381 0.786343 0.694179
0.811765 0.792569 0.704646
0.822934 0.798978 0.715236
0.833768 0.805539 0.726009
0.844266 0.812222 0.736782
0.854429 0.819089 0.747677
0.864286 0.826078 0.758663
0.873442 0.832731 0.769070
0.885405 0.843503 0.785275
0.896544 0.854520 0.803891
0.911803 0.871427 0.828305
0.612085 0.753292 0.573175
0.612360 0.753475 0.573541
0.612696 0.753658 0.573877
0.613336 0.754086 0.574609
0.614557 0.754726 0.575769
0.616083 0.755581 0.577356
0.618097 0.756802 0.579461
0.620630 0.758175 0.582025
0.626093 0.760159 0.586389
0.642054 0.763546 0.597162
0.658747 0.767391 0.608576
0.675776 0.771603 0.620752
0.697230 0.775601 0.637751
0.718196 0.779995 0.654963
