data/fiter_cube/21023058/1023010/file.cube
# Created by Adobe Lightroom plugin Export LUT (1.17.0)
# www.johnrellis.com/lightroom/exportlut.htm
# Preset: 温暖焦糖婚礼婚纱_06 云集
# Color profile: C:\Program Files (x86)\Common Files\Adobe\Color\Profiles\Recommended\AdobeRGB1998.icc
LUT_3D_SIZE 8
DOMAIN_MIN 0.000000 0.000000 0.000000
DOMAIN_MAX 0.903226 0.903226 0.903226
0.050294 0.046693 0.059266
0.071626 0.054963 0.061891
0.182162 0.060487 0.062898
0.429938 0.000000 0.034211
0.637324 0.116640 0.000000
0.761746 0.288426 0.036744
0.849516 0.417182 0.163119
0.923125 0.531823 0.318120
0.057008 0.058595 0.062989
0.067292 0.064820 0.067170
0.170352 0.086580 0.063539
0.414710 0.073701 0.038483
0.627192 0.163821 0.000000
0.754726 0.306737 0.036530
0.845274 0.426307 0.162783
0.920684 0.536797 0.317845
0.067292 0.094026 0.075074
0.083833 0.113375 0.084627
0.157656 0.154849 0.107179
0.389563 0.229191 0.092378
0.600366 0.270634 0.000000
0.738735 0.370397 0.049500
0.836728 0.464607 0.173312
0.915618 0.559838 0.326635
0.085512 0.205203 0.108400
0.110292 0.231479 0.118624
0.237736 0.297337 0.165408
0.406683 0.375891 0.227237
0.594354 0.470832 0.258976
0.726558 0.491707 0.185031
0.818967 0.517510 0.185733
0.904479 0.593469 0.335515
0.143709 0.390570 0.175174
0.180026 0.412055 0.188998
0.341466 0.476967 0.267521
0.486610 0.512535 0.328191
0.603510 0.566400 0.411353
0.708278 0.625696 0.490974
0.808743 0.641199 0.431617
0.889952 0.661280 0.431800
0.295140 0.562676 0.299260
0.316716 0.570947 0.310613
0.427680 0.602289 0.366186
0.568597 0.631403 0.458991
0.650172 0.648920 0.501518
0.724849 0.684047 0.570428
0.791226 0.728695 0.651911
0.874784 0.761532 0.637201
0.486275 0.685023 0.457771
0.490364 0.687373 0.461616
0.540703 0.698939 0.493080
0.646479 0.718074 0.571771
0.710475 0.729824 0.610376
0.763333 0.745541 0.643915
0.813626 0.774258 0.691218
0.863401 0.812924 0.752712
0.649653 0.775174 0.609033
0.651850 0.776516 0.611292
0.659663 0.781369 0.619562
0.715053 0.795377 0.660029
0.778012 0.809049 0.708980
0.816983 0.820249 0.732021
0.856107 0.837949 0.763668
0.890593 0.860777 0.801541
0.055360 0.051514 0.067353
0.074647 0.056519 0.073426
0.207980 0.046082 0.083558
0.454658 0.000000 0.087617
0.645991 0.150668 0.089784
0.762997 0.303410 0.121309
0.848478 0.425360 0.206912
0.921416 0.536156 0.344427
0.059205 0.061921 0.068727
0.076387 0.073396 0.079377
0.196597 0.093385 0.088014
0.442267 0.092073 0.088716
0.637629 0.190127 0.089021
0.757595 0.321904 0.121157
0.844846 0.434455 0.206760
0.919005 0.540887 0.343572
0.069306 0.099855 0.084657
0.092988 0.126375 0.099580
0.181491 0.175051 0.132052
0.413611 0.238773 0.116274
0.611353 0.287480 0.088533
0.741909 0.380804 0.124117
0.835752 0.469551 0.212741
0.913817 0.562463 0.350072
0.096010 0.215732 0.124849
0.127749 0.245304 0.139803
0.263706 0.319432 0.195773
0.422004 0.388739 0.255344
0.599298 0.472999 0.272648
0.725002 0.488045 0.203891
0.818265 0.520134 0.220798
0.902983 0.595148 0.356573
0.162387 0.400549 0.198093
0.200443 0.421302 0.212924
0.345006 0.482521 0.280858
0.496956 0.520256 0.352056
0.607477 0.570397 0.427649
0.710903 0.627192 0.495857
0.808377 0.639857 0.437598
0.889128 0.658503 0.434241
0.294102 0.562036 0.312444
0.328710 0.571862 0.327550
0.435187 0.602380 0.380529
0.574640 0.634485 0.473396
0.653834 0.651728 0.513573
0.726894 0.686000 0.578943
0.793057 0.731075 0.658137
0.874998 0.760861 0.638148
0.481178 0.683253 0.461830
0.484565 0.685237 0.465095
0.542626 0.697902 0.499336
0.644617 0.717800 0.573144
0.712612 0.730983 0.616510
0.764340 0.746242 0.648249
0.813901 0.774594 0.694148
0.863859 0.813596 0.755215
0.647150 0.774105 0.610040
0.649561 0.775601 0.612512
0.657618 0.780575 0.620813
0.712886 0.795132 0.659907
0.780117 0.810758 0.713466
0.818235 0.821439 0.735409
0.856596 0.838437 0.765682
0.890776 0.860990 0.802914
0.063813 0.063905 0.112123
0.079561 0.065766 0.125277
0.231113 0.062776 0.168063
0.517296 0.000000 0.194217
0.682368 0.209384 0.226230
0.777493 0.355444 0.268040
0.853147 0.458930 0.329412
0.921599 0.557214 0.428138
0.078676 0.088411 0.128298
0.095247 0.093629 0.141207
0.235630 0.109041 0.178103
0.515007 0.091310 0.200656
0.673884 0.249485 0.230869
0.772671 0.370367 0.267430
0.850065 0.466651 0.328496
0.919738 0.561822 0.427619
0.087282 0.133791 0.133913
0.116823 0.155978 0.151553
0.244999 0.224826 0.209049
0.484291 0.268650 0.220462
0.650416 0.342199 0.236820
0.758755 0.419959 0.269383
0.841154 0.495979 0.330449
0.914244 0.579736 0.429328
0.111147 0.233555 0.169558
0.149294 0.264164 0.190433
0.299718 0.358373 0.263035
0.471595 0.433417 0.342229
0.626184 0.486519 0.325414
0.733303 0.488075 0.273350
0.825193 0.541283 0.334325
0.904509 0.609674 0.432746
0.185214 0.412543 0.249088
0.232181 0.436011 0.270390
0.374640 0.497536 0.338506
0.532738 0.550042 0.426429
0.628779 0.591180 0.484565
0.724758 0.635981 0.516625
0.811307 0.638239 0.460792
0.890105 0.651575 0.446387
0.320287 0.567803 0.359289
0.358953 0.578546 0.376898
0.462257 0.608698 0.428717
0.591363 0.646418 0.513298
0.668635 0.663294 0.553521
0.734920 0.693843 0.606714
0.800656 0.738033 0.670497
0.878172 0.760494 0.643915
0.473426 0.682612 0.482551
0.490791 0.686305 0.491615
0.554620 0.699580 0.526085
0.641657 0.720363 0.581964
0.721767 0.737240 0.638666
0.770169 0.751217 0.665064
0.818509 0.779599 0.708278
0.869078 0.820371 0.768856
0.642939 0.773312 0.618311
0.645045 0.774533 0.619928
0.653162 0.779416 0.627558
0.712001 0.794858 0.666712
0.783413 0.813840 0.723934
0.821347 0.824582 0.745388
0.858915 0.840848 0.773465
0.892821 0.863493 0.809628
0.064912 0.090822 0.251469
0.100160 0.095979 0.269047
0.235904 0.099031 0.320745
0.529534 0.131838 0.382727
0.701228 0.293431 0.410864
0.795254 0.405310 0.431250
0.858854 0.508141 0.475776
0.921599 0.589837 0.533806
0.102541 0.131380 0.277348
0.132418 0.136385 0.291081
0.252384 0.144503 0.336919
0.530327 0.194186 0.391241
0.698573 0.325139 0.416419
0.791318 0.431922 0.442237
0.856199 0.515312 0.476051
0.920348 0.593011 0.532097
0.184970 0.231113 0.293034
0.223056 0.251499 0.315801
0.313909 0.278386 0.367651
0.529442 0.333745 0.415564
0.690547 0.408698 0.432624
0.778744 0.481880 0.452125
0.849149 0.541680 0.479683
0.916442 0.608270 0.532403
0.177371 0.313725 0.299718
0.219638 0.335302 0.317906
0.356939 0.401312 0.374517
0.525505 0.485237 0.451850
0.661555 0.508263 0.447486
0.756588 0.537255 0.452949
0.834440 0.576287 0.476509
0.907591 0.633051 0.531456
0.223667 0.432013 0.334325
0.268650 0.451942 0.353735
0.404791 0.507805 0.414618
0.558343 0.576776 0.497505
0.656184 0.617578 0.555627
0.740810 0.638697 0.541161
0.814328 0.624109 0.481331
0.894530 0.666438 0.530144
0.353429 0.575647 0.426886
0.389410 0.586084 0.442115
0.485725 0.615106 0.486122
0.597742 0.653376 0.548821
0.691005 0.681758 0.607996
0.748196 0.706935 0.645777
0.811978 0.743465 0.676875
0.883024 0.755184 0.647089
0.485664 0.683772 0.523705
0.506157 0.688075 0.532891
0.566888 0.701381 0.562554
0.647730 0.721736 0.607996
0.735164 0.748348 0.670954
0.779629 0.760800 0.691737
0.825437 0.787289 0.729305
0.876799 0.830320 0.788632
0.636011 0.772519 0.635187
0.638453 0.773892 0.636835
0.652094 0.779141 0.644556
0.706386 0.793332 0.675685
0.772427 0.814328 0.722286
0.825711 0.829709 0.760800
0.862211 0.844480 0.785153
0.895995 0.867338 0.819974
0.141146 0.155947 0.458961
0.186496 0.161471 0.468574
0.316625 0.175174 0.497810
0.515953 0.206882 0.531456
0.698238 0.366125 0.563622
0.793851 0.497444 0.577295
0.863951 0.562921 0.599817
0.922667 0.642878 0.649348
0.194919 0.202823 0.472480
0.230442 0.207919 0.480690
0.341039 0.222690 0.506065
0.519554 0.256291 0.537835
0.696651 0.393805 0.567041
0.792172 0.510155 0.580835
0.862760 0.569940 0.601770
0.921752 0.645258 0.648371
0.312169 0.336461 0.494057
0.328283 0.337987 0.502342
0.404181 0.355230 0.523125
0.527184 0.382177 0.554681
0.691981 0.469642 0.577813
0.786404 0.547387 0.591089
0.858671 0.590906 0.606378
0.918456 0.652583 0.643824
0.366796 0.439521 0.485969
0.399603 0.453132 0.496162
0.489693 0.495399 0.529107
0.565393 0.524712 0.571374
0.686732 0.561608 0.597009
0.779019 0.596368 0.604456
0.848356 0.628046 0.614801
0.913756 0.664057 0.632074
0.358312 0.511467 0.487037
0.390173 0.521660 0.496925
0.480293 0.553155 0.528069
0.587457 0.597650 0.572930
0.681666 0.641749 0.619013
0.759579 0.643946 0.605554
0.831022 0.656428 0.602350
0.903105 0.688991 0.623499
0.393866 0.583185 0.501305
0.423163 0.591913 0.512139
0.506004 0.618677 0.546136
0.608026 0.655024 0.594781
0.698909 0.693141 0.645167
0.762081 0.720851 0.684291
0.822019 0.738155 0.674983
0.888365 0.733120 0.634668
0.507286 0.685847 0.576959
0.525200 0.689662 0.583673
0.580011 0.702205 0.605982
0.652613 0.721645 0.639643
0.723507 0.747951 0.679255
0.789212 0.772305 0.722133
0.833341 0.796078 0.753231
0.885313 0.833677 0.789425
0.622980 0.769955 0.657374
0.625605 0.771267 0.658747
0.657496 0.778500 0.672572
0.703334 0.791836 0.694514
0.758419 0.810910 0.724910
0.829404 0.835935 0.779080
0.865537 0.849119 0.799619
0.899718 0.871946 0.832425
0.333349 0.274174 0.621210
0.360327 0.281407 0.624933
0.439979 0.305028 0.636439
0.545403 0.344305 0.654597
0.682826 0.414374 0.666773
0.791775 0.535912 0.678096
0.863432 0.633143 0.700557
0.922911 0.683162 0.728084
0.364721 0.319677 0.624506
0.387152 0.325444 0.627771
0.455604 0.344945 0.638392
0.551629 0.377966 0.655390
0.682460 0.437598 0.668177
0.790524 0.547570 0.679530
0.862547 0.637964 0.701869
0.922454 0.685695 0.728450
0.437995 0.432837 0.633082
0.452277 0.436408 0.635737
0.499886 0.449195 0.644984
0.574731 0.470130 0.660456
0.683436 0.506004 0.674922
0.787869 0.584741 0.686397
0.860410 0.654292 0.706966
0.921355 0.694789 0.729915
0.526299 0.548486 0.633936
0.541405 0.555657 0.639094
0.571069 0.564874 0.652430
0.614405 0.573571 0.668269
0.687037 0.589807 0.686336
0.785214 0.635035 0.698085
0.857786 0.678126 0.713832
0.920134 0.708217 0.729915
0.529137 0.595392 0.625727
0.545251 0.601343 0.630243
0.594995 0.620783 0.645136
0.661158 0.649500 0.667964
0.705287 0.664363 0.694240
0.781704 0.684138 0.710597
0.853269 0.703151 0.716365
0.914977 0.728695 0.727260
0.521386 0.641321 0.625116
0.537377 0.645838 0.629816
0.585870 0.659632 0.644465
0.651301 0.680720 0.666773
0.716091 0.706264 0.693843
0.778622 0.737667 0.726619
0.837308 0.734432 0.709468
0.903502 0.749111 0.710018
0.535607 0.689784 0.633082
0.551507 0.693568 0.638300
0.599390 0.705318 0.654780
0.663355 0.723995 0.680018
0.727687 0.749477 0.711421
0.792233 0.781888 0.748592
0.844236 0.808255 0.783230
0.894499 0.827298 0.780392
0.628901 0.770138 0.693874
0.637781 0.772152 0.697169
0.666285 0.779355 0.708248
0.707729 0.792050 0.725460
0.756832 0.810025 0.748043
0.813565 0.834043 0.779782
0.870726 0.857298 0.820798
0.905241 0.878752 0.849363
0.505577 0.446113 0.732113
0.519524 0.453040 0.734493
0.558129 0.468482 0.738888
0.617823 0.492500 0.747005
0.695308 0.524529 0.757198
0.792020 0.573632 0.762539
0.863432 0.651057 0.769375
0.920409 0.735134 0.796353
0.514031 0.465888 0.728878
0.526390 0.471290 0.731075
0.562188 0.484138 0.735744
0.618677 0.504509 0.743679
0.691615 0.531640 0.753994
0.787411 0.576349 0.758846
0.859434 0.650141 0.765621
0.917845 0.732113 0.792721
0.557641 0.537774 0.733547
0.565576 0.539727 0.734676
0.592370 0.546563 0.738277
0.638788 0.559838 0.745998
0.698634 0.576226 0.756374
0.786923 0.608637 0.762631
0.859770 0.670100 0.771420
0.918975 0.744411 0.798703
0.622278 0.622156 0.737545
0.623743 0.620417 0.738399
0.635340 0.619043 0.742000
0.669429 0.627375 0.750362
0.715938 0.636835 0.761227
0.788205 0.655360 0.771389
0.860655 0.700435 0.780850
0.919463 0.759884 0.804837
0.653620 0.668513 0.726528
0.659358 0.670680 0.728206
0.680323 0.679713 0.736202
0.707362 0.689570 0.750240
0.729946 0.688136 0.761929
0.781674 0.696651 0.775998
0.856291 0.729244 0.785946
0.918151 0.775326 0.808103
0.645136 0.696193 0.722774
0.653010 0.698817 0.724910
0.678248 0.707668 0.732326
0.715633 0.722530 0.745388
0.759426 0.741787 0.762966
0.794003 0.754208 0.786191
0.857237 0.773495 0.800931
0.917296 0.795621 0.810819
0.640436 0.730251 0.724758
0.648829 0.732815 0.727474
0.673152 0.739895 0.734798
0.709377 0.752041 0.747311
0.752224 0.768215 0.763668
0.801846 0.790585 0.785916
0.854856 0.820340 0.815244
0.905608 0.816403 0.798398
0.640070 0.769741 0.732448
0.646784 0.770779 0.733791
0.675013 0.779324 0.744259
0.713863 0.792599 0.759457
0.760769 0.810300 0.779263
0.814145 0.834043 0.805722
0.869139 0.862974 0.837980
0.912261 0.887480 0.870268
0.636927 0.589532 0.815763
0.643732 0.592401 0.816831
0.662654 0.597711 0.818235
0.697078 0.609705 0.822904
0.741390 0.624567 0.829435
0.803098 0.647639 0.835050
0.871672 0.679500 0.840879
0.920348 0.744900 0.845365
0.640528 0.597925 0.814023
0.646967 0.600488 0.815122
0.665431 0.605554 0.816983
0.697902 0.615625 0.821225
0.741176 0.629328 0.827939
0.801297 0.650660 0.833921
0.869688 0.681025 0.839536
0.919371 0.745693 0.844785
0.657252 0.628412 0.813230
0.662165 0.629786 0.814023
0.676905 0.632197 0.815305
0.708156 0.642390 0.821592
0.746487 0.652033 0.827939
0.799405 0.666712 0.834409
0.867552 0.694087 0.840421
0.918944 0.754971 0.847105
0.681178 0.669642 0.813931
0.685451 0.670924 0.815000
0.697505 0.672663 0.816861
0.721401 0.678065 0.821927
0.754818 0.685176 0.829007
0.797848 0.694270 0.838102
0.865721 0.718044 0.844419
0.919463 0.772396 0.852750
0.729915 0.728267 0.812650
0.734035 0.730159 0.814511
0.735866 0.726650 0.817075
0.734829 0.715419 0.821592
0.761837 0.720058 0.828458
0.799710 0.727321 0.838346
0.861204 0.746090 0.848478
0.919036 0.793606 0.858915
0.732662 0.750912 0.804288
0.735805 0.751736 0.804776
0.747799 0.755489 0.807492
0.766537 0.762966 0.815183
0.789853 0.771908 0.828458
0.809079 0.770535 0.841215
0.859129 0.786679 0.858122
0.919158 0.821897 0.868070
0.725704 0.775845 0.804257
0.728878 0.776638 0.804868
0.740658 0.779995 0.807706
0.762600 0.787625 0.814420
0.793423 0.799802 0.825010
0.832456 0.818204 0.840970
0.866239 0.834165 0.865019
0.917754 0.853544 0.877470
0.719234 0.804746 0.806241
0.722377 0.805447 0.806912
0.735225 0.809384 0.810758
0.759548 0.818173 0.819364
0.793149 0.831388 0.832242
0.832883 0.848478 0.848508
0.874540 0.868315 0.867063
0.917906 0.894652 0.892027
