data/fiter_cube/51215349/1023015/file.cube
# Created by Adobe Lightroom plugin Export LUT (1.17.0)
# www.johnrellis.com/lightroom/exportlut.htm
# Preset: 日系旅行街拍胶片_02 云集后期
# Color profile: C:\Program Files (x86)\Common Files\Adobe\Color\Profiles\Recommended\AdobeRGB1998.icc
LUT_3D_SIZE 32
DOMAIN_MIN 0.0 0.0 0.0
DOMAIN_MAX 1.0 1.0 1.0
0.157473 0.153933 0.146395
0.157473 0.153933 0.146395
0.157473 0.153933 0.146395
0.157656 0.153902 0.146395
0.160586 0.153567 0.146487
0.163638 0.153170 0.146426
0.167422 0.152651 0.146517
0.172305 0.152865 0.146334
0.179080 0.153109 0.146273
0.188418 0.153231 0.146700
0.201724 0.152987 0.147005
0.220218 0.151949 0.147097
0.245426 0.149630 0.146914
0.277623 0.145357 0.146822
0.316289 0.137667 0.145968
0.360601 0.125612 0.144900
0.409247 0.106172 0.143252
0.460700 0.072145 0.141299
0.514733 0.000000 0.138735
0.569726 0.000000 0.135805
0.623255 0.000000 0.132601
0.672969 0.000000 0.129397
0.718257 0.000000 0.126589
0.759670 0.000000 0.124422
0.797482 0.000000 0.122835
0.832364 0.000000 0.122194
0.864836 0.000000 0.122988
0.895323 0.000000 0.125734
0.924376 0.000000 0.131044
0.952056 0.000000 0.140230
0.978363 0.000000 0.154818
1.000000 0.000000 0.176791
0.157473 0.153933 0.146395
0.157473 0.153933 0.146395
0.157473 0.153933 0.146395
0.157809 0.154025 0.146365
0.160800 0.153536 0.146334
0.163821 0.153140 0.146426
0.167544 0.153109 0.146487
0.172396 0.153292 0.146304
0.179110 0.153719 0.146365
0.188510 0.153689 0.146670
0.201785 0.153597 0.146944
0.220279 0.152590 0.147189
0.245335 0.150454 0.147158
0.277470 0.146242 0.146761
0.315984 0.138857 0.146059
0.360204 0.127230 0.144991
0.408545 0.108644 0.143343
0.459846 0.076783 0.141360
0.513451 0.000000 0.138857
0.568048 0.000000 0.135775
0.621149 0.000000 0.132631
0.670924 0.000000 0.129458
0.716243 0.000000 0.126680
0.757839 0.000000 0.124483
0.795804 0.000000 0.122866
0.830900 0.000000 0.122011
0.863523 0.000000 0.122805
0.894194 0.000000 0.125521
0.923369 0.000000 0.130831
0.951141 0.000000 0.140017
0.977539 0.000000 0.154360
1.000000 0.000000 0.176181
0.157473 0.153933 0.146395
0.157473 0.153933 0.146395
0.157473 0.153933 0.146395
0.157992 0.153994 0.146365
0.160922 0.153506 0.146487
0.163912 0.153597 0.146395
0.167605 0.153719 0.146426
0.172457 0.153933 0.146395
0.179202 0.154330 0.146304
0.188663 0.154604 0.146731
0.202060 0.154482 0.147005
0.220523 0.153628 0.147250
0.245548 0.151522 0.147219
0.277806 0.147433 0.146792
0.316258 0.140505 0.146059
0.360449 0.129061 0.144839
0.408789 0.111513 0.143282
0.459937 0.081514 0.141329
0.513542 0.000000 0.138796
0.567559 0.000000 0.135927
0.620600 0.000000 0.132570
0.670222 0.000000 0.129427
0.715663 0.000000 0.126619
0.757107 0.000000 0.124392
0.795163 0.000000 0.122774
0.830289 0.000000 0.122133
0.862974 0.000000 0.122683
0.893675 0.000000 0.125429
0.922881 0.000000 0.130709
0.950713 0.000000 0.139864
0.977111 0.000000 0.154360
1.000000 0.000000 0.176028
0.157443 0.154269 0.146365
0.157412 0.154421 0.146365
0.157565 0.154543 0.146334
0.158328 0.155032 0.146426
0.161044 0.155062 0.146517
0.164187 0.155123 0.146395
0.167880 0.155245 0.146426
0.172885 0.155398 0.146273
0.179721 0.155795 0.146456
0.189303 0.156161 0.146883
0.202762 0.156161 0.147127
0.221561 0.155703 0.147341
0.246769 0.153872 0.147097
0.279271 0.150210 0.146792
0.317662 0.143557 0.146059
0.361852 0.133425 0.144717
0.410101 0.116609 0.143343
0.461158 0.089845 0.141146
0.514244 0.008789 0.138582
0.567559 0.000000 0.135714
0.620020 0.000000 0.132570
0.669276 0.000000 0.129397
0.714778 0.000000 0.126589
0.756466 0.000000 0.124086
0.794827 0.000000 0.122347
0.830228 0.000000 0.121828
0.863127 0.000000 0.122683
0.893889 0.000000 0.125643
0.923064 0.000000 0.130861
0.950805 0.000000 0.140230
0.977020 0.000000 0.154757
1.000000 0.000000 0.176699
0.157382 0.156893 0.146456
0.157351 0.157076 0.146426
0.157321 0.157229 0.146426
0.158480 0.157656 0.146334
0.161318 0.157778 0.146395
0.164126 0.157595 0.146639
0.167666 0.157412 0.146853
0.172946 0.157839 0.146822
0.180209 0.158297 0.146853
0.190158 0.158877 0.147219
0.204044 0.159091 0.147433
0.223148 0.158968 0.147433
0.248722 0.157626 0.147311
0.281193 0.154482 0.146761
0.320165 0.148684 0.145937
0.364294 0.139376 0.144686
0.412818 0.124758 0.143008
0.463935 0.101564 0.140902
0.516899 0.058015 0.138399
0.569604 0.000000 0.135286
0.621363 0.000000 0.132143
0.670314 0.000000 0.128878
0.715389 0.000000 0.125978
0.756924 0.000000 0.123842
0.795163 0.000000 0.122316
0.830472 0.000000 0.121645
0.863218 0.000000 0.122591
0.893889 0.000000 0.125521
0.922942 0.000000 0.131167
0.950591 0.000000 0.140749
0.976776 0.000000 0.155520
1.000000 0.000000 0.177646
0.157290 0.159640 0.146517
0.157259 0.159792 0.146487
0.157229 0.160128 0.146456
0.158724 0.160464 0.146395
0.161379 0.160769 0.146273
0.164767 0.160952 0.146639
0.168429 0.160922 0.146975
0.173129 0.161257 0.147402
0.180026 0.161746 0.147921
0.190555 0.162509 0.147921
0.205386 0.163241 0.147768
0.225803 0.163363 0.147677
0.252018 0.162692 0.147280
0.285008 0.160403 0.146792
0.324163 0.155673 0.145815
0.368658 0.147616 0.144472
0.417182 0.134768 0.142824
0.468635 0.115297 0.140505
0.520958 0.084596 0.137911
0.573388 0.000000 0.134859
0.624811 0.000000 0.131533
0.673274 0.000000 0.128603
0.731502 0.000000 0.124910
0.771298 0.000000 0.123018
0.807706 0.000000 0.121828
0.841276 0.000000 0.121920
0.872435 0.000000 0.123629
0.901762 0.000000 0.127504
0.929625 0.000000 0.134035
0.956207 0.000000 0.145144
0.981323 0.000000 0.161501
1.000000 0.081636 0.185031
0.157015 0.163394 0.146639
0.157321 0.163638 0.146609
0.157839 0.163699 0.146578
0.159152 0.164248 0.146334
0.161624 0.164858 0.146059
0.165286 0.165255 0.146517
0.169528 0.165835 0.147250
0.174929 0.166171 0.147982
0.182010 0.166873 0.148440
0.191714 0.167453 0.148806
0.206882 0.168643 0.148745
0.228519 0.169711 0.148348
0.257115 0.169863 0.147738
0.292454 0.168154 0.146853
0.332311 0.164462 0.145693
0.377050 0.157992 0.144137
0.425635 0.147066 0.142306
0.477943 0.131014 0.139681
0.530236 0.107454 0.136965
0.582788 0.067842 0.133791
0.634424 0.000000 0.130465
0.683192 0.000000 0.127352
0.728054 0.000000 0.124544
0.769223 0.000000 0.122438
0.806760 0.000000 0.121492
0.840818 0.000000 0.121553
0.872160 0.000000 0.123598
0.901457 0.000000 0.127687
0.929259 0.000000 0.134890
0.955657 0.000000 0.145998
0.980682 0.000000 0.162753
1.000000 0.142672 0.186862
0.157443 0.168368 0.146456
0.157931 0.168582 0.146426
0.158389 0.168795 0.146548
0.160006 0.169375 0.146426
0.162387 0.170138 0.146456
0.165957 0.170932 0.146883
0.170840 0.171664 0.147433
0.176516 0.172610 0.148226
0.184451 0.173678 0.148745
0.195010 0.174716 0.149050
0.209232 0.175814 0.149447
0.228885 0.176791 0.149599
0.258030 0.178134 0.148836
0.293950 0.178164 0.147463
0.336400 0.176028 0.145815
0.383276 0.171145 0.143740
0.432654 0.163088 0.141756
0.484047 0.150576 0.139132
0.535363 0.133608 0.136294
0.586908 0.109194 0.132967
0.637629 0.071199 0.129519
0.685420 0.000000 0.126467
0.729610 0.000000 0.123659
0.770230 0.000000 0.121920
0.807309 0.000000 0.120821
0.841123 0.000000 0.121523
0.872190 0.000000 0.123690
0.901305 0.000000 0.127901
0.928985 0.000000 0.135561
0.955230 0.000000 0.147311
0.980102 0.101320 0.164736
1.000000 0.192050 0.189425
0.157992 0.175540 0.147097
0.158480 0.175753 0.147066
0.159060 0.176211 0.147158
0.160647 0.176761 0.147219
0.163333 0.177829 0.147036
0.166995 0.179263 0.147066
0.172427 0.180240 0.147433
0.179080 0.181491 0.147982
0.187503 0.182895 0.148623
0.199405 0.184726 0.149050
0.215122 0.186526 0.149325
0.235386 0.188052 0.149477
0.260990 0.188937 0.149660
0.295842 0.190005 0.148684
0.338323 0.189914 0.146975
0.386419 0.187350 0.144594
0.438575 0.181796 0.141634
0.491798 0.172610 0.138369
0.542229 0.160159 0.135317
0.592859 0.144411 0.131899
0.642481 0.123171 0.128511
0.689174 0.096132 0.125460
0.732509 0.056092 0.122774
0.772305 0.000000 0.120851
0.808774 0.000000 0.120485
0.842100 0.000000 0.121248
0.872892 0.000000 0.123751
0.901671 0.000000 0.128664
0.929046 0.000000 0.136812
0.955016 0.106447 0.149325
0.979614 0.170993 0.167361
1.000000 0.237552 0.192996
0.158267 0.186130 0.147372
0.158877 0.186404 0.147463
0.159670 0.186679 0.147433
0.161227 0.187594 0.147280
0.164157 0.188785 0.147219
0.168521 0.190494 0.147189
0.174441 0.192294 0.147127
0.182284 0.193881 0.147433
0.191989 0.195651 0.147982
0.204379 0.197787 0.148653
0.222080 0.200839 0.149081
0.244450 0.203372 0.148836
0.271702 0.205234 0.149050
0.303624 0.206027 0.148928
0.341009 0.205661 0.148470
0.389868 0.205844 0.145846
0.442054 0.203372 0.142702
0.495338 0.197757 0.138979
0.548180 0.189487 0.134951
0.600336 0.178317 0.130495
0.648829 0.164981 0.127199
0.693874 0.149935 0.124086
0.735744 0.134005 0.121736
0.774441 0.118135 0.119997
0.809995 0.104585 0.119478
0.842863 0.096345 0.120729
0.873259 0.099489 0.123751
0.901884 0.115236 0.129274
0.929107 0.142397 0.138369
0.954955 0.179690 0.151736
0.979339 0.226535 0.170962
1.000000 0.283024 0.198184
0.157961 0.200870 0.147402
0.158755 0.201205 0.147341
0.159518 0.201694 0.147250
0.161715 0.202670 0.147066
0.165225 0.204135 0.146944
0.170138 0.206180 0.146700
0.176730 0.208927 0.146304
0.186007 0.211337 0.146456
0.197635 0.213565 0.146822
0.212436 0.216403 0.147250
0.230320 0.219394 0.147799
0.255283 0.223728 0.148013
0.284794 0.226932 0.147189
0.318517 0.228946 0.147127
0.356146 0.229587 0.146822
0.396948 0.228122 0.146487
0.444953 0.226810 0.144198
0.497963 0.224674 0.140261
0.550378 0.219974 0.136141
0.602350 0.213382 0.131502
0.652125 0.204990 0.127108
0.698299 0.195560 0.122683
0.739742 0.186221 0.120058
0.777523 0.178042 0.118990
0.812375 0.172610 0.118898
0.844541 0.170993 0.120516
0.874357 0.175204 0.124361
0.902525 0.187045 0.130770
0.929290 0.207279 0.140658
0.954711 0.236973 0.155093
0.978820 0.276402 0.175387
1.000000 0.326696 0.203922
0.157198 0.221805 0.146456
0.157778 0.222263 0.146365
0.159030 0.222721 0.146426
0.161501 0.223850 0.146212
0.165713 0.225772 0.145968
0.171542 0.228367 0.145571
0.179568 0.231693 0.144991
0.190097 0.235538 0.144381
0.204318 0.238621 0.144503
0.221744 0.242100 0.144808
0.242741 0.245792 0.144991
0.267369 0.249912 0.145266
0.306981 0.260227 0.144686
0.344915 0.263981 0.143282
0.385016 0.265660 0.142794
0.426978 0.265171 0.142367
0.470222 0.262455 0.142000
0.513085 0.257664 0.141695
0.565026 0.256077 0.137026
0.615991 0.252995 0.132448
0.663783 0.248508 0.127840
0.708156 0.243290 0.123995
0.748867 0.237522 0.120974
0.786343 0.232883 0.118593
0.820005 0.230625 0.118624
0.850736 0.231693 0.121340
0.879301 0.237491 0.126375
0.906371 0.249058 0.134066
0.932189 0.267735 0.145418
0.956756 0.294377 0.161440
0.980011 0.329992 0.183810
1.000000 0.375402 0.214511
0.154482 0.252506 0.144350
0.155428 0.253056 0.144228
0.157229 0.253483 0.144106
0.160311 0.254826 0.143954
0.165469 0.256901 0.143465
0.172580 0.259770 0.142916
0.182406 0.263340 0.142153
0.194919 0.267765 0.141390
0.211551 0.272404 0.140383
0.232242 0.276829 0.140261
0.257145 0.282139 0.140261
0.286564 0.288273 0.139986
0.320623 0.294957 0.139651
0.361822 0.301884 0.139162
0.403845 0.304997 0.137270
0.446662 0.305486 0.136294
0.488960 0.303624 0.136385
0.530694 0.299596 0.136446
0.571679 0.294011 0.136934
0.616846 0.290257 0.135134
0.664332 0.288914 0.130861
0.708217 0.286625 0.126955
0.748562 0.284154 0.124361
0.785672 0.282383 0.122499
0.819791 0.281773 0.122133
0.851164 0.283696 0.123232
0.879850 0.289433 0.127718
0.906462 0.300938 0.136477
0.931853 0.318547 0.149020
0.956085 0.343053 0.166476
0.979004 0.375738 0.190341
1.000000 0.417456 0.223484
0.149844 0.290440 0.140475
0.151369 0.290837 0.140352
0.152987 0.291508 0.140169
0.157107 0.292943 0.139925
0.163455 0.294987 0.139498
0.172213 0.298131 0.138552
0.183932 0.302190 0.137636
0.199039 0.307012 0.136172
0.217716 0.312993 0.134371
0.241459 0.318883 0.133394
0.269596 0.325231 0.132692
0.301854 0.332006 0.132052
0.338201 0.339361 0.131106
0.378424 0.346654 0.130282
0.422919 0.352453 0.130098
0.466773 0.354009 0.127657
0.508843 0.352209 0.126833
0.549096 0.348211 0.128145
0.588464 0.342809 0.129763
0.627558 0.337072 0.131655
0.665614 0.330907 0.134310
0.708431 0.330419 0.131594
0.748379 0.330571 0.129183
0.785214 0.331029 0.128237
0.819028 0.332769 0.128847
0.850126 0.336461 0.131167
0.878996 0.342840 0.135744
0.906188 0.352911 0.142702
0.931792 0.368231 0.154147
0.955627 0.391241 0.173526
0.978180 0.421302 0.199313
0.999207 0.459510 0.235233
0.141390 0.337194 0.133883
0.143130 0.337774 0.133700
0.145388 0.338323 0.133669
0.150790 0.339879 0.133120
0.158785 0.342107 0.132479
0.169772 0.345556 0.131380
0.184146 0.350072 0.129824
0.201816 0.355413 0.128145
0.223087 0.361761 0.125673
0.248814 0.369024 0.122805
0.279728 0.375738 0.121553
0.315007 0.383215 0.119722
0.353857 0.391272 0.118044
0.396094 0.399390 0.116182
0.440955 0.407385 0.114687
0.485298 0.410071 0.115969
0.528740 0.409552 0.114137
0.568322 0.404639 0.113985
0.606012 0.398566 0.117647
0.642878 0.392218 0.121859
0.678645 0.386084 0.126619
0.713008 0.380438 0.132448
0.748013 0.377661 0.136324
0.784482 0.379980 0.136355
0.818021 0.383093 0.138033
0.848905 0.388159 0.141787
0.877653 0.395789 0.147707
0.904814 0.406775 0.157137
0.930541 0.421851 0.169619
0.954955 0.441779 0.187198
0.977905 0.467506 0.212467
0.998566 0.502342 0.251926
0.126558 0.394049 0.123049
0.128786 0.394873 0.122713
0.132174 0.395483 0.122408
0.138888 0.397253 0.121828
0.149660 0.399695 0.120638
0.163729 0.403418 0.119020
0.181186 0.407904 0.117098
0.201968 0.413642 0.114565
0.226627 0.420111 0.111055
0.254673 0.427344 0.106813
0.287724 0.434699 0.102907
0.325444 0.442176 0.100221
0.366064 0.449958 0.097475
0.409583 0.457832 0.094392
0.455055 0.465583 0.091859
0.502434 0.473243 0.089723
0.544457 0.471473 0.095827
0.586084 0.468055 0.096010
0.623224 0.460487 0.098360
0.658289 0.452949 0.106813
0.692134 0.445869 0.115480
0.724727 0.439429 0.124880
0.755856 0.434455 0.134829
0.785550 0.431006 0.146120
0.817624 0.434150 0.150973
0.848203 0.439918 0.156466
0.876677 0.448127 0.164187
0.903471 0.459541 0.175631
0.928862 0.474342 0.190860
0.952850 0.493294 0.211460
0.975463 0.516655 0.239475
0.996490 0.545068 0.277134
0.100954 0.458015 0.105196
0.104189 0.458625 0.104799
0.109255 0.459205 0.104372
0.118959 0.460914 0.103273
0.133791 0.463264 0.102083
0.152102 0.466621 0.099641
0.173861 0.470863 0.096834
0.198337 0.476204 0.092927
0.226169 0.482246 0.088045
0.257145 0.489174 0.081209
0.291203 0.496742 0.072694
0.330999 0.504082 0.066407
0.373632 0.511254 0.061524
0.418616 0.518395 0.054810
0.465309 0.525170 0.047242
0.512688 0.531640 0.040620
0.560967 0.537743 0.039338
0.599512 0.531029 0.069856
0.638605 0.524956 0.077089
0.672602 0.515221 0.085481
0.704738 0.506432 0.099092
0.735378 0.498695 0.114595
0.764767 0.492561 0.129274
0.792874 0.488350 0.144167
0.819760 0.486488 0.159762
0.846433 0.488899 0.174624
0.874693 0.497322 0.184482
0.901305 0.508446 0.198184
0.926452 0.522728 0.216281
0.950195 0.540429 0.240269
0.972442 0.562280 0.272374
0.993011 0.588800 0.315007
0.030610 0.526574 0.074647
0.048249 0.527276 0.073854
0.048920 0.538354 0.066529
0.077394 0.539635 0.064637
0.103426 0.541802 0.061616
0.131228 0.544305 0.056916
0.160525 0.547509 0.046967
0.191135 0.551598 0.030671
0.223880 0.556573 0.010651
0.259129 0.561913 0.000000
0.296452 0.567559 0.000000
0.336431 0.573510 0.000000
0.382086 0.578729 0.000000
0.429175 0.583978 0.000000
0.476753 0.588769 0.000000
0.525048 0.592981 0.000000
0.573510 0.596765 0.000000
0.621210 0.600092 0.000000
0.654383 0.588403 0.033173
0.689570 0.579889 0.067231
0.719997 0.568658 0.083528
0.748836 0.558831 0.103182
0.776089 0.551171 0.124544
0.802243 0.545464 0.144686
0.827146 0.542199 0.164218
0.851011 0.541802 0.184909
0.874144 0.544884 0.207675
0.899107 0.554131 0.226261
0.923857 0.567010 0.246708
0.947173 0.583490 0.274052
0.969024 0.603845 0.309850
0.988983 0.628534 0.357244
0.000000 0.596002 0.000000
0.000000 0.597803 0.000000
0.000000 0.599573 0.000000
0.000000 0.601770 0.000000
0.058412 0.604303 0.000000
0.106172 0.606744 0.000000
0.145083 0.609430 0.000000
0.181735 0.612421 0.000000
0.219150 0.616022 0.000000
0.257084 0.619776 0.000000
0.296696 0.623835 0.000000
0.337682 0.627832 0.000000
0.382971 0.631495 0.000000
0.430854 0.634638 0.000000
0.479469 0.637537 0.000000
0.528069 0.639796 0.000000
0.576410 0.641810 0.000000
0.623926 0.643427 0.000000
0.670222 0.645106 0.000000
0.699062 0.631556 0.039185
0.731075 0.622309 0.080751
0.758724 0.611536 0.100252
0.785031 0.602289 0.120760
0.809659 0.595666 0.146700
0.833219 0.591150 0.170382
0.855955 0.589532 0.194186
0.878019 0.591333 0.219913
0.899565 0.597223 0.249485
0.920989 0.607691 0.282322
0.943938 0.623072 0.312749
0.965270 0.642084 0.352514
0.984619 0.665064 0.403479
0.000000 0.653742 0.000000
0.000000 0.654963 0.000000
0.000000 0.656489 0.000000
0.000000 0.658015 0.000000
0.000000 0.659815 0.000000
0.079866 0.661433 0.000000
0.131838 0.663142 0.000000
0.174746 0.665003 0.000000
0.216220 0.667201 0.000000
0.256931 0.669612 0.000000
0.297856 0.672236 0.000000
0.340276 0.674647 0.000000
0.383215 0.676722 0.000000
0.432013 0.678523 0.000000
0.480995 0.679866 0.000000
0.529778 0.680903 0.000000
0.578119 0.681514 0.000000
0.625422 0.682002 0.000000
0.671351 0.682399 0.000000
0.715206 0.682948 0.000000
0.739834 0.668635 0.081056
0.768551 0.659693 0.112703
0.793576 0.649531 0.131960
0.817411 0.641169 0.151461
0.839536 0.635828 0.179965
0.860990 0.633051 0.207095
0.881895 0.633539 0.235996
0.902403 0.637720 0.267765
0.922240 0.645960 0.305333
0.941375 0.658900 0.350469
0.960998 0.676600 0.398199
0.979828 0.698085 0.451057
0.000000 0.701534 0.000000
0.000000 0.702541 0.000000
0.000000 0.703548 0.000000
0.000000 0.704707 0.000000
0.000000 0.705989 0.000000
0.063386 0.706996 0.000000
0.126558 0.708034 0.000000
0.173434 0.709224 0.000000
0.216739 0.710414 0.000000
0.258824 0.711788 0.000000
0.300847 0.713222 0.000000
0.343603 0.714504 0.000000
0.386511 0.715541 0.000000
0.431830 0.716274 0.000000
0.481605 0.716762 0.000000
0.530694 0.717006 0.000000
0.579278 0.716945 0.000000
0.626703 0.716884 0.000000
0.672694 0.716732 0.000000
0.716365 0.716670 0.000000
0.757321 0.716976 0.069184
0.778561 0.702998 0.126833
0.803922 0.694453 0.157168
0.826444 0.685756 0.176974
0.848051 0.678950 0.197513
0.868284 0.675441 0.227726
0.887877 0.674861 0.259892
0.907042 0.677760 0.295262
0.925689 0.684443 0.335698
0.943481 0.695399 0.384009
0.960235 0.710994 0.440772
0.975830 0.731106 0.505150
0.000000 0.744564 0.000000
0.000000 0.745022 0.000000
0.000000 0.745388 0.000000
0.000000 0.745815 0.000000
0.000000 0.746365 0.000000
0.074098 0.746822 0.000000
0.134310 0.747372 0.000000
0.180850 0.748013 0.000000
0.223636 0.748836 0.000000
0.266178 0.749569 0.000000
0.308232 0.750362 0.000000
0.350622 0.750942 0.000000
0.393225 0.751339 0.000000
0.436255 0.751278 0.000000
0.483803 0.751034 0.000000
0.533135 0.750423 0.000000
0.581262 0.749722 0.000000
0.628473 0.748714 0.000000
0.673640 0.747860 0.000000
0.716640 0.747005 0.016846
0.756863 0.746456 0.092958
0.793820 0.746212 0.131014
0.811307 0.732570 0.176028
0.833158 0.724453 0.206241
0.853391 0.717067 0.226780
0.873167 0.712001 0.249393
0.891844 0.710109 0.281407
0.909880 0.711757 0.319860
0.927337 0.717006 0.363104
0.944121 0.726192 0.412696
0.960021 0.739467 0.469337
0.974670 0.756558 0.531365
0.000000 0.778561 0.000000
0.000000 0.778958 0.000000
0.000000 0.779263 0.000000
0.000000 0.779599 0.000000
0.000000 0.779843 0.000000
0.103487 0.780117 0.000000
0.152377 0.780301 0.000000
0.194919 0.780545 0.000000
0.236515 0.780819 0.000000
0.277165 0.781094 0.000000
0.318029 0.781338 0.000000
0.359167 0.781460 0.000000
0.400610 0.781338 0.000000
0.442664 0.780911 0.000000
0.485176 0.780301 0.000000
0.534081 0.779294 0.000000
0.582177 0.778134 0.000000
0.628931 0.776852 0.000000
0.673732 0.775540 0.000000
0.716304 0.774411 0.078157
0.756100 0.773465 0.121279
0.792691 0.772885 0.156435
0.825589 0.772854 0.189883
0.840299 0.760067 0.230961
0.858122 0.751675 0.260044
0.876707 0.746059 0.282902
0.894926 0.742763 0.309331
0.912291 0.742733 0.344640
0.928679 0.746670 0.390112
0.944488 0.754208 0.440833
0.959625 0.765591 0.496803
0.973419 0.779629 0.554864
0.000000 0.810239 0.000000
0.000000 0.810575 0.000000
0.000000 0.810758 0.000000
0.059083 0.810880 0.000000
0.106050 0.810910 0.000000
0.145937 0.810819 0.000000
0.183078 0.810697 0.000000
0.220249 0.810513 0.000000
0.257694 0.810330 0.000000
0.295293 0.810086 0.000000
0.333349 0.809842 0.000000
0.372473 0.809415 0.000000
0.411994 0.808835 0.000000
0.452186 0.807980 0.000000
0.492378 0.806912 0.000000
0.535973 0.805509 0.000000
0.583337 0.803830 0.000000
0.629358 0.802090 0.000000
0.673762 0.800473 0.066224
0.715724 0.799069 0.112703
0.754971 0.797940 0.149660
0.790982 0.797116 0.183444
0.823453 0.796719 0.216587
0.852476 0.796719 0.249393
0.864591 0.784756 0.288853
0.880705 0.778225 0.323095
0.897673 0.774350 0.349248
0.914275 0.773037 0.380621
0.930266 0.774777 0.419257
0.945068 0.780819 0.470253
0.959380 0.790219 0.524376
0.972320 0.801541 0.578241
0.100618 0.836545 0.011292
0.109712 0.836790 0.010132
0.120027 0.836881 0.011444
0.138155 0.836942 0.009491
0.162264 0.836881 0.008331
0.189334 0.836759 0.003815
0.219364 0.836545 0.000000
0.250736 0.836332 0.000000
0.283726 0.836027 0.000000
0.318425 0.835660 0.000000
0.353765 0.835264 0.000000
0.390478 0.834775 0.000000
0.428046 0.834073 0.000000
0.465919 0.833188 0.000000
0.504448 0.832029 0.000000
0.543145 0.830716 0.000000
0.587945 0.828946 0.000000
0.633539 0.826993 0.073304
0.677089 0.825223 0.116701
0.718349 0.823606 0.151888
0.756771 0.822202 0.185245
0.791958 0.821164 0.217716
0.823606 0.820523 0.250492
0.851865 0.820310 0.284215
0.877165 0.820493 0.318608
0.887053 0.809598 0.358190
0.900542 0.803952 0.394659
0.916075 0.801968 0.424689
0.931334 0.802701 0.460334
0.946197 0.806546 0.501610
0.959380 0.813596 0.552087
0.971618 0.823026 0.603204
0.179751 0.860899 0.117250
0.184482 0.861021 0.117739
0.190280 0.861051 0.118013
0.201572 0.860990 0.117159
0.217807 0.860777 0.116274
0.238102 0.860563 0.115877
0.261753 0.860227 0.113588
0.288182 0.859831 0.112154
0.316991 0.859464 0.110872
0.347692 0.859007 0.108248
0.380102 0.858488 0.106233
0.413764 0.857877 0.103883
0.448493 0.857145 0.101686
0.484199 0.856199 0.097993
0.520104 0.855070 0.092958
0.556603 0.853666 0.087556
0.594324 0.852110 0.088106
0.639033 0.850034 0.126406
0.681636 0.848051 0.159335
0.721859 0.846281 0.191104
0.759365 0.844724 0.223117
0.793515 0.843534 0.255497
0.824277 0.842771 0.288457
0.851743 0.842374 0.322484
0.876280 0.842405 0.357549
0.898131 0.842863 0.392523
0.906126 0.833097 0.431861
0.917601 0.828489 0.468818
0.931640 0.827970 0.500359
0.945800 0.830533 0.537957
0.958953 0.834867 0.577111
0.970642 0.842405 0.624537
0.246494 0.882628 0.176913
0.249729 0.882689 0.177005
0.254002 0.882689 0.177188
0.262150 0.882628 0.177005
0.274754 0.882506 0.176425
0.291356 0.882353 0.176577
0.311131 0.882200 0.176577
0.333989 0.882017 0.176638
0.359411 0.881834 0.176364
0.387213 0.881590 0.176944
0.416541 0.881285 0.176883
0.447395 0.880888 0.176730
0.479469 0.880247 0.176638
0.512322 0.879454 0.175845
0.545647 0.878416 0.175021
0.579431 0.877165 0.173129
0.613397 0.875761 0.170504
0.651667 0.873930 0.183688
0.693019 0.871824 0.213474
0.731716 0.869902 0.243839
0.767453 0.868254 0.275181
0.799863 0.867002 0.307591
0.829007 0.866087 0.341283
0.855070 0.865629 0.375830
0.878325 0.865568 0.410590
0.899168 0.865904 0.445075
0.917815 0.866697 0.478828
0.924315 0.858091 0.514427
0.933959 0.854490 0.549859
0.946166 0.854398 0.578424
0.958587 0.857511 0.613519
0.970153 0.862882 0.652430
0.319310 0.903990 0.243046
0.321996 0.903990 0.243778
0.325017 0.903929 0.243687
0.331060 0.903838 0.243168
0.340856 0.903593 0.242893
0.353460 0.903319 0.242405
0.369238 0.903014 0.241947
0.387854 0.902678 0.242161
0.408728 0.902281 0.241581
0.432349 0.901793 0.242100
0.457557 0.901274 0.242191
0.484352 0.900633 0.241917
0.512535 0.899901 0.241611
0.541772 0.899016 0.241306
