data/fiter_cube/51215349/1023015/file.cube
# Created by Adobe Lightroom plugin Export LUT (1.17.0)
# www.johnrellis.com/lightroom/exportlut.htm
# Preset: 日系旅行街拍胶片_02 云集后期
# Color profile: C:\Program Files (x86)\Common Files\Adobe\Color\Profiles\Recommended\AdobeRGB1998.icc
LUT_3D_SIZE 8
DOMAIN_MIN 0.000000 0.000000 0.000000
DOMAIN_MAX 0.903226 0.903226 0.903226
0.157473 0.153933 0.146395
0.160586 0.153567 0.146487
0.179080 0.153109 0.146273
0.245426 0.149630 0.146914
0.409247 0.106172 0.143252
0.623255 0.000000 0.132601
0.797482 0.000000 0.122835
0.924376 0.000000 0.131044
0.157382 0.156893 0.146456
0.161318 0.157778 0.146395
0.180209 0.158297 0.146853
0.248722 0.157626 0.147311
0.412818 0.124758 0.143008
0.621363 0.000000 0.132143
0.795163 0.000000 0.122316
0.922942 0.000000 0.131167
0.157992 0.175540 0.147097
0.163333 0.177829 0.147036
0.187503 0.182895 0.148623
0.260990 0.188937 0.149660
0.438575 0.181796 0.141634
0.642481 0.123171 0.128511
0.808774 0.000000 0.120485
0.929046 0.000000 0.136812
0.154482 0.252506 0.144350
0.165469 0.256901 0.143465
0.211551 0.272404 0.140383
0.320623 0.294957 0.139651
0.488960 0.303624 0.136385
0.664332 0.288914 0.130861
0.819791 0.281773 0.122133
0.931853 0.318547 0.149020
0.100954 0.458015 0.105196
0.133791 0.463264 0.102083
0.226169 0.482246 0.088045
0.373632 0.511254 0.061524
0.560967 0.537743 0.039338
0.704738 0.506432 0.099092
0.819760 0.486488 0.159762
0.926452 0.522728 0.216281
0.000000 0.701534 0.000000
0.000000 0.705989 0.000000
0.216739 0.710414 0.000000
0.386511 0.715541 0.000000
0.579278 0.716945 0.000000
0.757321 0.716976 0.069184
0.848051 0.678950 0.197513
0.925689 0.684443 0.335698
0.100618 0.836545 0.011292
0.162264 0.836881 0.008331
0.283726 0.836027 0.000000
0.428046 0.834073 0.000000
0.587945 0.828946 0.000000
0.756771 0.822202 0.185245
0.877165 0.820493 0.318608
0.931334 0.802701 0.460334
0.386236 0.921721 0.308263
0.403418 0.921294 0.308019
0.460792 0.920073 0.308995
0.551354 0.917998 0.312352
0.653956 0.912749 0.303899
0.780697 0.907378 0.375952
0.881010 0.905150 0.507744
0.946532 0.906828 0.617365
0.157443 0.154330 0.149111
0.160403 0.154116 0.149783
0.180148 0.154421 0.152285
0.250401 0.146242 0.152651
0.414557 0.090700 0.150027
0.619745 0.000000 0.141817
0.792935 0.000000 0.134890
0.920958 0.000000 0.145449
0.157168 0.157443 0.149905
0.161654 0.158785 0.151125
0.181888 0.159579 0.152682
0.254673 0.155062 0.153201
0.419867 0.112764 0.149905
0.621820 0.000000 0.141421
0.792020 0.000000 0.134463
0.919493 0.000000 0.145571
0.158511 0.176913 0.153079
0.163180 0.180179 0.152926
0.189395 0.185428 0.154635
0.266789 0.189670 0.156741
0.443702 0.176974 0.149660
0.639979 0.110109 0.139925
0.802518 0.000000 0.134829
0.924681 0.000000 0.152407
0.150668 0.256046 0.153414
0.160037 0.261906 0.150637
0.209049 0.277897 0.147219
0.320378 0.295293 0.149020
0.479927 0.296544 0.150179
0.657618 0.282719 0.144991
0.813931 0.273777 0.138613
0.927581 0.313817 0.166476
0.069490 0.465156 0.118929
0.114351 0.469520 0.116182
0.216678 0.486305 0.105409
0.367895 0.510613 0.088197
0.556725 0.533806 0.090120
0.700313 0.501854 0.128939
0.815915 0.484718 0.182376
0.924224 0.522423 0.231998
0.000000 0.702205 0.000000
0.000000 0.703853 0.000000
0.205570 0.708522 0.000000
0.380529 0.714260 0.000000
0.576379 0.716304 0.000000
0.756527 0.716976 0.125551
0.846311 0.679194 0.224369
0.923033 0.685115 0.354925
0.109499 0.834623 0.115297
0.164675 0.834226 0.112367
0.284337 0.833768 0.106905
0.428138 0.832578 0.096681
0.586328 0.828153 0.097047
0.755123 0.821195 0.216831
0.874296 0.819059 0.340520
0.928710 0.801633 0.472175
0.397467 0.919951 0.338109
0.414649 0.919738 0.339025
0.469703 0.918639 0.339696
0.557488 0.916747 0.342870
0.661982 0.913359 0.344030
0.782162 0.907744 0.403449
0.879942 0.904997 0.523491
0.945037 0.906340 0.626093
0.157870 0.156344 0.164645
0.161990 0.156954 0.166232
0.180575 0.158846 0.171817
0.262943 0.149538 0.190341
0.448585 0.000000 0.194675
0.640375 0.000000 0.174990
0.803006 0.000000 0.176242
0.925078 0.000000 0.196719
0.158846 0.161624 0.168307
0.163516 0.162417 0.170199
0.183474 0.164401 0.174716
0.271580 0.153933 0.190066
0.449012 0.027161 0.187289
0.641627 0.000000 0.174899
0.802823 0.000000 0.177279
0.924651 0.000000 0.198672
0.159365 0.182773 0.174594
0.164706 0.185336 0.176974
0.192111 0.191745 0.182803
0.290593 0.186831 0.184207
0.468635 0.151614 0.183322
0.657710 0.000000 0.180819
0.810147 0.000000 0.184451
0.926696 0.000000 0.209476
0.148409 0.269169 0.195499
0.156069 0.276066 0.195163
0.197574 0.295506 0.185733
0.337591 0.313359 0.190066
0.495521 0.300023 0.202853
0.679988 0.286229 0.196353
0.821408 0.279820 0.201663
0.929107 0.332921 0.234043
0.021607 0.484871 0.201785
0.080354 0.492500 0.195285
0.186038 0.513054 0.172061
0.361273 0.536461 0.158236
0.572686 0.554437 0.181460
0.706569 0.512352 0.217685
0.819699 0.502861 0.256626
0.925139 0.539300 0.298711
0.000000 0.712337 0.187625
0.000000 0.714687 0.182254
0.198764 0.719265 0.168215
0.379889 0.722591 0.155398
0.576989 0.721950 0.173922
0.757046 0.720729 0.247288
0.843534 0.686030 0.317815
0.918486 0.696437 0.433997
0.188693 0.838010 0.260807
0.228763 0.837613 0.262669
0.325383 0.836423 0.261295
0.450752 0.834379 0.254093
0.592798 0.829862 0.241367
0.757198 0.822904 0.324071
0.870909 0.822049 0.434485
0.925719 0.808072 0.537865
0.448615 0.917754 0.445624
0.465187 0.916930 0.448432
0.509728 0.915892 0.446967
0.586297 0.914672 0.449500
0.677577 0.911894 0.446937
0.783597 0.908019 0.479164
0.877592 0.905882 0.577478
0.941924 0.907713 0.663233
0.154726 0.161044 0.226230
0.163149 0.161563 0.229496
0.197269 0.161501 0.238163
0.278080 0.155703 0.255802
0.464149 0.120577 0.302251
0.678187 0.000000 0.312932
0.819791 0.000000 0.298650
0.926970 0.000000 0.296574
0.150393 0.168704 0.238193
0.161440 0.169741 0.240604
0.199985 0.169680 0.246586
0.286015 0.164706 0.261997
0.473640 0.136141 0.305028
0.681300 0.000000 0.309300
0.818387 0.000000 0.294194
0.926085 0.000000 0.290776
0.148013 0.208957 0.255650
0.157046 0.209354 0.260410
0.203403 0.208713 0.269657
0.309636 0.209171 0.279545
0.504723 0.191592 0.309667
0.688045 0.010956 0.297704
0.820371 0.000000 0.280095
0.928252 0.002258 0.300969
0.135164 0.300145 0.280552
0.149203 0.304875 0.284245
0.213016 0.318853 0.294957
0.345342 0.332860 0.305303
0.529747 0.316686 0.300694
0.694270 0.299107 0.298955
0.824155 0.302617 0.305608
0.927367 0.364691 0.337194
0.000000 0.521874 0.331121
0.092012 0.527184 0.331334
0.214725 0.544305 0.331487
0.370336 0.564508 0.321019
0.584680 0.578088 0.336248
0.706172 0.539757 0.364569
0.825864 0.537896 0.372198
0.923766 0.565148 0.406165
0.000000 0.728878 0.361608
0.114168 0.731930 0.364233
0.266148 0.734005 0.365393
0.420966 0.734646 0.363775
0.585321 0.732906 0.353216
0.756619 0.729519 0.418433
0.836454 0.701320 0.464881
0.910399 0.711116 0.538842
0.280369 0.841184 0.433906
0.312688 0.840909 0.438117
0.404059 0.839170 0.450843
0.512505 0.836118 0.457099
0.623651 0.832700 0.441810
0.759548 0.826749 0.477455
0.864073 0.826078 0.554742
0.920531 0.814694 0.617090
0.505028 0.916533 0.575402
0.520348 0.915984 0.578546
0.564935 0.914092 0.585016
0.624964 0.912261 0.584985
0.698146 0.910552 0.579065
0.782284 0.909026 0.576287
0.873198 0.907347 0.647822
0.937407 0.909606 0.712398
0.113405 0.171664 0.395575
0.139651 0.171481 0.398932
0.216251 0.168460 0.406958
0.328099 0.155734 0.415167
0.492744 0.120455 0.446845
0.681209 0.173587 0.495064
0.823239 0.214389 0.517540
0.928466 0.232242 0.518212
0.097475 0.185794 0.412268
0.130098 0.185672 0.415198
0.215854 0.182803 0.420294
0.333165 0.171939 0.425147
0.498939 0.149081 0.453162
0.684230 0.214908 0.499611
0.824247 0.241642 0.517876
0.928405 0.255192 0.516320
0.060883 0.246677 0.448951
0.104036 0.245335 0.452247
0.213962 0.243687 0.455207
0.350225 0.239719 0.454688
0.518242 0.240543 0.472053
0.690639 0.331304 0.514061
0.826200 0.317693 0.516014
0.924773 0.331640 0.509667
0.000000 0.368994 0.479316
0.096773 0.371344 0.483406
0.229862 0.379767 0.495979
0.389776 0.393530 0.500389
0.547906 0.402960 0.503166
0.705074 0.455360 0.527703
0.827237 0.420111 0.503258
0.921691 0.414130 0.483772
0.000000 0.561242 0.513481
0.072511 0.565576 0.516472
0.250126 0.577325 0.524620
0.422278 0.590784 0.533654
0.574578 0.593805 0.534051
0.711452 0.574456 0.517601
0.821530 0.564050 0.508141
0.916106 0.581048 0.524407
0.195041 0.740475 0.558190
0.241855 0.741115 0.560906
0.354467 0.741238 0.567224
0.488167 0.740047 0.575952
0.603723 0.736355 0.567041
0.745693 0.735897 0.585077
0.822324 0.714382 0.601465
0.909880 0.720333 0.618708
0.388800 0.842588 0.615290
0.412451 0.841855 0.618128
0.482704 0.839628 0.626246
0.571374 0.836667 0.633875
0.654170 0.833341 0.624475
0.752987 0.829892 0.613336
0.854826 0.829679 0.662104
0.913298 0.820035 0.696101
0.565393 0.913390 0.698390
0.576532 0.912932 0.699702
0.611536 0.911620 0.703182
0.662654 0.910948 0.706325
0.715938 0.909880 0.697230
0.783627 0.909667 0.687770
0.865934 0.908995 0.715694
0.932006 0.911101 0.761318
0.000000 0.205509 0.643702
0.000000 0.206058 0.644648
0.215885 0.206058 0.645777
0.369207 0.202884 0.646296
0.517937 0.193881 0.642023
0.687678 0.235477 0.664546
0.809903 0.440833 0.693172
0.895476 0.584070 0.740597
0.000000 0.228244 0.650050
0.000000 0.228916 0.650416
0.222477 0.229404 0.650629
0.373724 0.227970 0.649592
0.521538 0.223087 0.644709
0.688838 0.268681 0.665919
0.809232 0.464332 0.694911
0.895628 0.589258 0.740139
0.000000 0.304906 0.673213
0.062287 0.304265 0.672969
0.257145 0.318242 0.671412
0.400885 0.322881 0.668025
0.541466 0.325872 0.660578
0.696223 0.377874 0.674739
0.809049 0.538231 0.704189
0.897429 0.608209 0.739742
0.114321 0.445075 0.693721
0.179416 0.449836 0.694820
0.316564 0.469398 0.697749
0.462684 0.498970 0.693507
0.579889 0.500999 0.684718
0.707546 0.532341 0.689479
0.811612 0.626246 0.720516
0.902220 0.632502 0.734157
0.194736 0.614588 0.704646
0.243046 0.618280 0.705837
0.366583 0.630518 0.709316
0.509636 0.647791 0.713558
0.623468 0.654627 0.708400
0.718044 0.651423 0.702876
0.817075 0.678401 0.722988
0.907988 0.652003 0.707088
0.304356 0.750179 0.720027
0.340459 0.751156 0.721553
0.437018 0.752316 0.724453
0.551568 0.752895 0.727993
0.652430 0.751766 0.729793
0.736202 0.745571 0.724361
0.821897 0.727291 0.705989
0.907378 0.721889 0.701930
0.499123 0.844877 0.754513
0.518364 0.844602 0.756283
0.573510 0.843290 0.760830
0.641871 0.841947 0.766201
0.703944 0.840543 0.766781
0.761471 0.836881 0.753201
0.847623 0.836240 0.760708
0.906523 0.826017 0.770962
0.636988 0.911864 0.796658
0.644892 0.911589 0.797269
0.670100 0.911009 0.799100
0.707393 0.910887 0.801144
0.749783 0.911070 0.800015
0.794644 0.911528 0.790280
0.857755 0.912108 0.784298
0.926635 0.913970 0.814817
0.193851 0.315984 0.804715
0.237888 0.323033 0.806607
0.336187 0.334661 0.805661
0.458381 0.353979 0.803586
0.581781 0.379431 0.799283
0.695613 0.412665 0.793515
0.805783 0.505211 0.801297
0.886351 0.649653 0.825895
0.208499 0.336675 0.800137
0.247745 0.342535 0.801602
0.340154 0.353063 0.800961
0.456825 0.369451 0.798398
0.576196 0.389715 0.793027
0.686915 0.413550 0.785519
0.798306 0.499550 0.792996
0.880827 0.641901 0.818173
0.277379 0.428382 0.812192
0.320134 0.442420 0.811215
0.402502 0.460548 0.808011
0.497932 0.473640 0.804440
0.598657 0.484230 0.797299
0.695949 0.495094 0.788693
0.802945 0.565789 0.798947
0.885283 0.677974 0.827054
0.370611 0.569451 0.822995
0.392218 0.572900 0.821592
0.461128 0.586419 0.818051
0.563531 0.613672 0.814298
0.640467 0.612757 0.808103
0.719539 0.610956 0.800809
0.811429 0.645075 0.809171
0.889433 0.719966 0.835447
0.419379 0.675837 0.821866
0.438453 0.676905 0.820798
0.502953 0.683894 0.820035
0.592248 0.696254 0.821805
0.670741 0.701472 0.815488
0.733242 0.691127 0.806668
0.811490 0.701686 0.809689
0.890867 0.759792 0.839567
0.486519 0.767300 0.825742
0.504051 0.768246 0.826078
0.557855 0.771115 0.827268
0.630976 0.775906 0.830228
0.704585 0.779934 0.833066
0.769619 0.780789 0.830930
0.826291 0.775418 0.826078
0.899046 0.796475 0.843565
0.569268 0.845304 0.837430
0.583825 0.845975 0.838590
0.622248 0.846128 0.840055
0.676509 0.847013 0.842832
0.732937 0.846799 0.844297
0.789425 0.846525 0.845274
0.839078 0.840787 0.839780
0.905028 0.825925 0.826322
0.675898 0.909361 0.857603
0.683070 0.909270 0.858061
0.712734 0.911345 0.862791
0.748959 0.912383 0.866575
0.789914 0.913664 0.870420
0.826932 0.915648 0.871824
0.861601 0.915984 0.863279
0.921080 0.917205 0.867796
0.460700 0.525750 0.885374
0.477638 0.532280 0.885618
0.519585 0.540551 0.883665
0.589899 0.561273 0.882383
0.666896 0.582025 0.880095
0.740444 0.599390 0.877012
0.812467 0.626642 0.876890
0.880827 0.671656 0.882536
0.467872 0.541711 0.883330
0.483864 0.547417 0.883604
0.525170 0.555627 0.882139
0.590784 0.571221 0.880339
0.666011 0.589136 0.878141
0.738613 0.604273 0.875090
0.809354 0.627192 0.874266
0.878599 0.671565 0.880278
0.499367 0.598230 0.883055
0.519677 0.606989 0.882628
0.550927 0.608087 0.880491
0.614832 0.623621 0.881193
0.679103 0.631342 0.878569
0.743252 0.636469 0.874693
0.809689 0.650446 0.873625
0.878904 0.690089 0.880797
0.510887 0.649500 0.886625
0.528801 0.655146 0.886748
0.575738 0.666865 0.884977
0.645472 0.686030 0.883268
0.700160 0.688594 0.881498
0.756405 0.689021 0.878538
0.814664 0.691646 0.876555
0.882628 0.723751 0.884764
0.557000 0.722011 0.888518
0.570581 0.724605 0.889158
0.604181 0.727779 0.888945
0.646967 0.728878 0.887968
0.717769 0.742672 0.884977
0.766690 0.739254 0.881956
0.819699 0.736873 0.879881
0.887663 0.764767 0.890105
0.599847 0.787747 0.890074
0.606806 0.787442 0.889677
0.632319 0.787564 0.889128
0.674922 0.789181 0.889769
0.729519 0.793301 0.892027
0.789548 0.802029 0.892302
0.838529 0.801907 0.892790
0.896941 0.816190 0.899565
0.655695 0.851225 0.896208
0.661341 0.851072 0.896056
0.681178 0.850950 0.896117
0.716548 0.852537 0.897581
0.761715 0.855589 0.900175
0.813199 0.861540 0.904540
0.862577 0.868101 0.907561
0.901793 0.862303 0.904448
0.717983 0.910185 0.906920
0.722591 0.910185 0.907073
0.737942 0.910430 0.907652
0.765225 0.911620 0.909270
0.799832 0.913420 0.911467
0.838529 0.915953 0.914122
0.878416 0.919249 0.917082
0.911894 0.916655 0.914458
