data/fiter_cube/51215349/1023015/file.cube
# Created by Adobe Lightroom plugin Export LUT (1.17.0)
# www.johnrellis.com/lightroom/exportlut.htm
# Preset: 日系旅行街拍胶片_02 云集后期
# Color profile: C:\Program Files (x86)\Common Files\Adobe\Color\Profiles\Recommended\AdobeRGB1998.icc
LUT_3D_SIZE 5
DOMAIN_MIN 0.000000 0.000000 0.000000
DOMAIN_MAX 0.903226 0.903226 0.903226
0.157473 0.153933 0.146395
0.172305 0.152865 0.146334
0.316289 0.137667 0.145968
0.672969 0.000000 0.129397
0.924376 0.000000 0.131044
0.157443 0.168368 0.146456
0.176516 0.172610 0.148226
0.336400 0.176028 0.145815
0.685420 0.000000 0.126467
0.928985 0.000000 0.135561
0.141390 0.337194 0.133883
0.201816 0.355413 0.128145
0.440955 0.407385 0.114687
0.713008 0.380438 0.132448
0.930541 0.421851 0.169619
0.000000 0.744564 0.000000
0.180850 0.748013 0.000000
0.483803 0.751034 0.000000
0.793820 0.746212 0.131014
0.927337 0.717006 0.363104
0.386236 0.921721 0.308263
0.442634 0.920470 0.308354
0.597833 0.914580 0.302647
0.809964 0.906279 0.409400
0.946532 0.906828 0.617365
0.157504 0.155550 0.158572
0.172122 0.157748 0.163088
0.341894 0.115938 0.178531
0.678004 0.000000 0.161807
0.922698 0.000000 0.179690
0.159457 0.172213 0.164523
0.178927 0.178103 0.169924
0.358526 0.160861 0.171267
0.690822 0.000000 0.164858
0.925505 0.000000 0.188602
0.125704 0.355200 0.184939
0.175479 0.377539 0.165805
0.448096 0.417548 0.166476
0.715297 0.383307 0.196231
0.929992 0.433204 0.233738
0.000000 0.752163 0.155459
0.176455 0.755734 0.144686
0.481147 0.756527 0.117678
0.793393 0.749172 0.253910
0.922240 0.725185 0.438148
0.440467 0.919036 0.420813
0.486549 0.917937 0.419776
0.624659 0.914244 0.418708
0.811490 0.907225 0.485817
0.943389 0.908110 0.655177
0.144289 0.165164 0.295445
0.192752 0.164492 0.305455
0.377874 0.140261 0.338262
0.723171 0.000000 0.405493
0.930205 0.000000 0.399054
0.128145 0.209751 0.331914
0.187350 0.205417 0.339361
0.403723 0.197452 0.359716
0.732113 0.148074 0.402960
0.928435 0.138796 0.389258
0.071168 0.418799 0.384771
0.191714 0.434485 0.395941
0.464942 0.462959 0.413275
0.737942 0.440467 0.398474
0.922576 0.485573 0.428321
0.172274 0.767758 0.474006
0.302770 0.767575 0.480415
0.537774 0.764126 0.489479
0.783383 0.759091 0.530999
0.907347 0.742794 0.604608
0.532403 0.914672 0.637507
0.574823 0.913268 0.644373
0.672358 0.910552 0.643519
0.804166 0.908659 0.636469
0.934478 0.909880 0.735378
0.000000 0.222477 0.691646
0.188235 0.225711 0.692958
0.455970 0.229221 0.691005
0.722988 0.297246 0.705623
0.888792 0.630701 0.773037
0.000000 0.295964 0.709499
0.234073 0.313359 0.708278
0.478523 0.325383 0.702541
0.726619 0.397528 0.710292
0.889952 0.644831 0.772854
0.211551 0.547906 0.734615
0.338842 0.565362 0.736446
0.561089 0.602197 0.729976
0.731350 0.602472 0.718044
0.897490 0.676783 0.763851
0.389654 0.780087 0.757809
0.468879 0.779904 0.759274
0.630823 0.779873 0.764248
0.765957 0.772030 0.758755
0.905760 0.749111 0.736751
0.654383 0.911589 0.815976
0.678248 0.911254 0.817960
0.740017 0.911681 0.821500
0.813443 0.912932 0.811398
0.925231 0.914733 0.828092
0.460700 0.525750 0.885374
0.506065 0.537438 0.884154
0.628656 0.572351 0.881498
0.758175 0.604059 0.876432
0.880827 0.671656 0.882536
0.500023 0.590112 0.883604
0.536889 0.596002 0.882567
0.642206 0.615198 0.880156
0.758846 0.630060 0.874357
0.879759 0.686610 0.881621
0.534447 0.686549 0.887846
0.566857 0.689235 0.886595
0.679744 0.712734 0.882536
0.770535 0.707912 0.876707
0.884245 0.742000 0.886534
0.620172 0.806882 0.893095
0.643214 0.806790 0.892576
0.714351 0.809567 0.894072
0.807614 0.817746 0.895201
0.897673 0.826658 0.900328
0.717983 0.910185 0.906920
0.732906 0.910307 0.907408
0.781918 0.912474 0.910369
0.848600 0.916777 0.914916
0.911894 0.916655 0.914458
