data/fiter_cube/96143635/1022810/file.cube
# Created by Adobe Lightroom plugin Export LUT (1.17.0)
# www.johnrellis.com/lightroom/exportlut.htm
# Preset: 高雅通透灰色调人像_03 云集
# Color profile: C:\Program Files (x86)\Common Files\Adobe\Color\Profiles\Recommended\AdobeRGB1998.icc
LUT_3D_SIZE 8
DOMAIN_MIN 0.000000 0.000000 0.000000
DOMAIN_MAX 0.903226 0.903226 0.903226
0.096620 0.099214 0.091127
0.144656 0.093904 0.095155
0.269902 0.095766 0.100649
0.413611 0.112337 0.102693
0.561395 0.132845 0.116823
0.687770 0.163272 0.141573
0.802426 0.204227 0.182010
0.912352 0.264836 0.243442
0.107912 0.152804 0.112093
0.142885 0.157900 0.115663
0.283116 0.170687 0.098329
0.426581 0.180758 0.103609
0.572168 0.196109 0.119051
0.695674 0.214878 0.145663
0.808011 0.244846 0.187106
0.915465 0.294987 0.248753
0.123659 0.269718 0.154788
0.138491 0.263096 0.143648
0.254215 0.293828 0.171023
0.446052 0.341436 0.122377
0.572137 0.323095 0.117983
0.690883 0.326940 0.147616
0.798856 0.337072 0.187961
0.908995 0.368231 0.250797
0.157504 0.389776 0.213016
0.168002 0.382452 0.203586
0.204929 0.350195 0.188846
0.370123 0.431922 0.249516
0.596796 0.526146 0.217899
0.684504 0.460365 0.154696
0.793942 0.452552 0.188937
0.907622 0.471748 0.260105
0.192203 0.497871 0.269322
0.198062 0.489631 0.260349
0.212375 0.457649 0.229892
0.275273 0.432288 0.232303
0.482338 0.563775 0.331365
0.704402 0.673335 0.388251
0.810910 0.628077 0.284672
0.907256 0.585046 0.266270
0.222293 0.599878 0.322301
0.224033 0.589715 0.312291
0.233005 0.563775 0.284459
0.250095 0.512627 0.247196
0.365454 0.546349 0.288090
0.586450 0.677974 0.425269
0.791348 0.787076 0.567620
0.913481 0.777432 0.464118
0.271214 0.715236 0.390997
0.271397 0.710323 0.383551
0.275303 0.696681 0.360388
0.277714 0.668086 0.316258
0.310307 0.619562 0.285618
0.502098 0.706477 0.393652
0.709834 0.798398 0.561730
0.873899 0.879454 0.719783
0.402869 0.858549 0.518364
0.404639 0.857877 0.515038
0.409552 0.854673 0.502190
0.416876 0.848112 0.477882
0.448554 0.849882 0.463447
0.527977 0.845121 0.486397
0.717128 0.886900 0.620111
0.850401 0.916258 0.731716
0.099489 0.108644 0.129091
0.125124 0.128878 0.118441
0.289830 0.115267 0.156466
0.439155 0.117861 0.157473
0.584161 0.142428 0.170016
0.704585 0.176913 0.190036
0.813931 0.219333 0.222477
0.919341 0.280369 0.276829
0.099184 0.166812 0.148196
0.163363 0.173587 0.154421
0.299168 0.179080 0.152438
0.444068 0.187350 0.157473
0.587976 0.203861 0.170748
0.707088 0.224979 0.191928
0.817380 0.256840 0.226261
0.922362 0.309361 0.282109
0.133364 0.297337 0.190005
0.180423 0.295750 0.195132
0.273808 0.311315 0.210575
0.456245 0.343511 0.168093
0.587671 0.331548 0.166476
0.703304 0.334905 0.191379
0.811917 0.347814 0.226688
0.917479 0.380407 0.284154
0.180148 0.418463 0.247715
0.203159 0.412726 0.244755
0.228519 0.377966 0.218448
0.389075 0.450874 0.280461
0.615900 0.540581 0.253147
0.697749 0.464546 0.186343
0.807553 0.462562 0.226261
0.915923 0.481514 0.291630
0.217929 0.519646 0.299138
0.223758 0.511467 0.289891
0.235325 0.479683 0.257633
0.283970 0.441993 0.248020
0.495674 0.576623 0.354162
0.713069 0.680964 0.409705
0.815793 0.631006 0.307836
0.912627 0.590723 0.293309
0.245029 0.617182 0.346685
0.247196 0.610132 0.338262
0.252964 0.584100 0.308263
0.262882 0.531579 0.264042
0.370825 0.552605 0.299199
0.592798 0.682673 0.439887
0.795254 0.790311 0.577447
0.915587 0.779782 0.480385
0.292790 0.728603 0.412482
0.294194 0.725643 0.406470
0.295506 0.711391 0.381994
0.294347 0.681758 0.335760
0.319707 0.632319 0.298405
0.507012 0.711177 0.403449
0.716518 0.803494 0.573938
0.878813 0.883726 0.730312
0.420478 0.864805 0.535088
0.421088 0.863554 0.530968
0.425055 0.860166 0.517845
0.430640 0.853391 0.492836
0.447089 0.847684 0.464729
0.523003 0.842893 0.484901
0.718929 0.888121 0.624537
0.853086 0.917876 0.737087
0.135927 0.142672 0.227237
0.176303 0.165621 0.208286
0.220737 0.228214 0.210147
0.386816 0.269780 0.300694
0.595087 0.204257 0.308659
0.713252 0.204562 0.299229
0.816617 0.246860 0.315709
0.918151 0.306676 0.353826
0.138338 0.197421 0.278264
0.204074 0.213993 0.262242
0.254917 0.264225 0.243473
0.426307 0.277928 0.311620
0.603418 0.233005 0.302281
0.715480 0.247288 0.301274
0.818753 0.279698 0.318395
0.919402 0.331304 0.356725
0.132387 0.346258 0.303380
0.194308 0.349462 0.304601
0.315587 0.343359 0.302617
0.469764 0.338811 0.284489
0.601617 0.339635 0.286351
0.711269 0.346532 0.296208
0.815915 0.362615 0.317357
0.918090 0.398566 0.359960
0.176333 0.473396 0.322454
0.221012 0.469642 0.324010
0.310643 0.452583 0.324346
0.418982 0.474708 0.349889
0.612177 0.525170 0.325902
0.703792 0.465980 0.280186
0.809964 0.468818 0.310674
0.915129 0.491005 0.361822
0.225467 0.567315 0.356664
0.253971 0.563653 0.358251
0.310948 0.543542 0.351171
0.319432 0.479591 0.303136
0.514763 0.589929 0.406104
0.719112 0.681056 0.446784
0.812589 0.619593 0.353460
0.913329 0.596002 0.360021
0.268315 0.652399 0.397253
0.287327 0.648554 0.397681
0.318791 0.630579 0.384710
0.312779 0.582177 0.328130
0.380591 0.560906 0.329656
0.608057 0.692195 0.481514
0.802182 0.794217 0.598627
0.913878 0.775448 0.510918
0.323186 0.749081 0.455421
0.335729 0.746609 0.455573
0.349554 0.734737 0.439887
0.342412 0.707485 0.392462
0.346441 0.660761 0.338048
0.508263 0.710719 0.421149
0.721248 0.804471 0.593011
0.882353 0.885832 0.745022
0.446571 0.873442 0.567803
0.455329 0.872831 0.568963
0.463661 0.869749 0.559258
0.463935 0.861723 0.531609
0.473579 0.856199 0.499763
0.524285 0.845518 0.497169
0.718318 0.887663 0.631647
0.854948 0.917754 0.745296
0.210636 0.217502 0.388434
0.251347 0.240452 0.372290
0.310430 0.303899 0.320134
0.344823 0.359869 0.332769
0.472877 0.456764 0.442847
0.678492 0.404730 0.480323
0.820829 0.369787 0.474525
0.918425 0.405127 0.491615
0.227970 0.271244 0.427893
0.272190 0.286137 0.411505
0.337407 0.331853 0.355261
0.365179 0.381598 0.353155
0.500145 0.458656 0.455818
0.691432 0.410376 0.481056
0.822263 0.388067 0.475349
0.919982 0.409979 0.486122
0.208194 0.409369 0.503532
0.264958 0.413916 0.504509
0.391119 0.418860 0.464149
0.428107 0.448951 0.417029
0.578393 0.461769 0.478065
0.718868 0.425605 0.464668
0.819181 0.415808 0.453773
0.916960 0.444068 0.475105
0.197726 0.550652 0.488106
0.246128 0.551324 0.487617
0.360906 0.549004 0.482643
0.474525 0.519066 0.463416
0.618891 0.511192 0.440101
0.718990 0.501457 0.438025
0.817563 0.501610 0.445533
0.915618 0.521080 0.473793
0.236057 0.643214 0.467842
0.271641 0.640528 0.468605
0.363134 0.627527 0.469581
0.444251 0.592584 0.457099
0.551446 0.615381 0.492409
0.725826 0.673671 0.504204
0.810330 0.597223 0.417853
0.913695 0.611078 0.465492
0.294957 0.704097 0.478676
0.314336 0.699031 0.477516
0.375433 0.688380 0.479988
0.426337 0.658747 0.463172
0.405859 0.582696 0.387488
0.628962 0.703304 0.540124
0.811460 0.794980 0.622034
0.912657 0.761501 0.545525
0.355993 0.783780 0.520531
0.368444 0.780880 0.520317
0.406561 0.770718 0.518914
0.432990 0.747494 0.495979
0.404120 0.703761 0.417700
0.502342 0.703792 0.442847
0.731167 0.808042 0.625299
0.892607 0.890654 0.755550
0.468330 0.887236 0.610132
0.475624 0.886015 0.610254
0.499947 0.882383 0.610773
0.520317 0.875639 0.598108
0.522118 0.869291 0.562310
0.546471 0.857847 0.535668
0.715785 0.887205 0.642725
0.859190 0.918578 0.760220
0.314122 0.330510 0.565972
0.345892 0.346990 0.553246
0.414649 0.395758 0.509178
0.429541 0.447089 0.421027
0.469459 0.493111 0.459327
0.574243 0.603418 0.567163
0.743252 0.601831 0.635676
0.881254 0.589349 0.657435
0.335058 0.375952 0.592187
0.364355 0.386236 0.578363
0.432105 0.422736 0.534661
0.450813 0.465400 0.446418
0.484047 0.508629 0.474281
0.583307 0.612909 0.576562
0.751431 0.602136 0.637079
0.886046 0.588342 0.654871
0.351965 0.483864 0.663172
0.391669 0.491218 0.651972
0.476143 0.508354 0.611414
0.515068 0.525292 0.527581
0.530144 0.557397 0.521752
0.625666 0.631769 0.607263
0.779812 0.604456 0.639612
0.903777 0.584527 0.643366
0.349981 0.607507 0.674464
0.387518 0.611444 0.674342
0.486976 0.622339 0.671931
0.578210 0.617853 0.635798
0.589654 0.619379 0.583032
0.698299 0.628840 0.626764
0.819394 0.601221 0.620783
0.914763 0.591638 0.616480
0.326360 0.712917 0.644892
0.357153 0.711421 0.643427
0.442969 0.706081 0.638209
0.540276 0.694392 0.627039
0.608209 0.656916 0.601129
0.727932 0.653101 0.584955
0.820798 0.640223 0.580865
0.916075 0.644770 0.594903
0.352880 0.774777 0.605249
0.376074 0.772213 0.605829
0.444099 0.763455 0.608209
0.523613 0.744930 0.607355
0.566461 0.703944 0.578729
0.664515 0.726528 0.616846
0.827146 0.788144 0.646387
0.915923 0.725246 0.569818
0.413367 0.828916 0.615473
0.427466 0.827207 0.616449
0.468299 0.820249 0.617823
0.518608 0.804776 0.613489
0.540948 0.771817 0.578515
0.496834 0.702388 0.477577
0.749233 0.817288 0.671382
0.906096 0.893431 0.767147
0.510460 0.910765 0.676997
0.518425 0.910124 0.677821
0.543023 0.907500 0.679438
0.573205 0.899657 0.674708
0.598535 0.890867 0.657282
0.588190 0.879545 0.601404
0.709407 0.888426 0.657588
0.868223 0.921996 0.784451
0.431708 0.458320 0.700069
0.454017 0.470863 0.692836
0.513481 0.509545 0.667903
0.558129 0.551049 0.612696
0.552453 0.580774 0.544671
0.589685 0.619440 0.583093
0.682704 0.713710 0.678920
0.806821 0.756435 0.760739
0.458900 0.499611 0.719081
0.479500 0.509667 0.712245
0.533288 0.539239 0.686397
0.574334 0.570916 0.631189
0.564904 0.593774 0.557549
0.599634 0.629664 0.593347
0.688930 0.719844 0.685298
0.813046 0.756588 0.763119
0.503166 0.584009 0.757046
0.521141 0.589471 0.751156
0.568750 0.603845 0.727138
0.610163 0.618799 0.677058
0.595666 0.625605 0.589258
0.625818 0.656489 0.620356
0.705653 0.736294 0.702480
0.831937 0.753384 0.766964
0.517693 0.674922 0.802121
0.541802 0.682063 0.802670
0.602441 0.693599 0.790127
0.651667 0.689174 0.743191
0.655543 0.677028 0.663172
0.661860 0.692897 0.657465
0.732326 0.756649 0.726833
0.862028 0.743862 0.765255
0.515465 0.751797 0.788785
0.534569 0.753597 0.788571
0.590814 0.759121 0.787930
0.662074 0.765408 0.786221
0.716274 0.754604 0.760037
0.709743 0.740291 0.706630
0.798184 0.749447 0.744594
0.906676 0.729274 0.746090
0.485817 0.823972 0.763424
0.500725 0.822477 0.762081
0.548882 0.818631 0.759091
0.611719 0.811887 0.753414
0.673579 0.801083 0.743099
0.713039 0.759457 0.709102
0.825772 0.759213 0.701411
0.916564 0.755062 0.707576
0.484688 0.873777 0.725948
0.496925 0.872007 0.726009
0.536400 0.867185 0.727413
0.588922 0.858061 0.726955
0.641260 0.841703 0.719539
0.663874 0.801816 0.679377
0.772763 0.828672 0.729793
0.921416 0.884092 0.772763
0.558465 0.932647 0.752407
0.566339 0.932189 0.753353
0.591089 0.930358 0.755795
0.625513 0.926238 0.756558
0.664912 0.919066 0.753079
0.689540 0.905211 0.728298
0.684627 0.885832 0.668971
0.879362 0.925475 0.816434
0.572503 0.606226 0.810727
0.588708 0.616846 0.808469
0.626001 0.638941 0.792630
0.665888 0.666011 0.761105
0.681514 0.689296 0.707485
0.675349 0.706355 0.671321
0.700740 0.731472 0.697414
0.781918 0.809537 0.780484
0.576196 0.616510 0.811460
0.590997 0.625360 0.808927
0.626520 0.644434 0.793576
0.665217 0.668025 0.762264
0.679286 0.686793 0.707149
0.668818 0.699825 0.664607
0.692805 0.723690 0.689296
0.773220 0.801297 0.771603
0.616846 0.677821 0.839170
0.626642 0.681025 0.835080
0.654994 0.690242 0.819486
0.689723 0.703731 0.790188
0.702998 0.711788 0.737057
0.687282 0.718196 0.683589
0.712917 0.743404 0.709865
0.790524 0.817563 0.789242
0.647303 0.744594 0.875914
0.658167 0.747036 0.872190
0.689479 0.753536 0.858274
0.724727 0.758999 0.833982
0.742702 0.757107 0.788266
0.720912 0.751186 0.718074
0.744137 0.773617 0.741878
0.810971 0.836515 0.810025
0.645808 0.795834 0.881559
0.655634 0.797208 0.880674
0.691279 0.804532 0.880125
0.743008 0.815702 0.878630
0.771633 0.804227 0.840391
0.761471 0.783261 0.768215
0.765011 0.793545 0.763210
0.829435 0.853452 0.828763
0.632685 0.845151 0.868223
0.643091 0.846036 0.868345
0.676173 0.848905 0.868956
0.725673 0.854063 0.871305
0.781308 0.859892 0.874266
0.824430 0.853910 0.858183
0.810666 0.836271 0.809720
0.885771 0.851560 0.849027
0.610407 0.902983 0.854490
0.620600 0.903380 0.855344
0.647730 0.902281 0.855131
0.688991 0.899901 0.854246
0.734432 0.894316 0.850004
0.783047 0.885649 0.842252
0.814481 0.852323 0.812772
0.918578 0.859739 0.820493
0.613519 0.949523 0.831632
0.619806 0.949340 0.831846
0.647059 0.950042 0.836118
0.682856 0.947326 0.838987
0.723751 0.942046 0.839628
0.768307 0.934173 0.837644
0.797421 0.917906 0.814603
0.893584 0.928771 0.859129
0.651667 0.686061 0.868406
0.661402 0.692073 0.866545
0.686061 0.705562 0.856229
0.721706 0.728359 0.839231
0.749783 0.751064 0.810422
0.753017 0.769741 0.763455
0.757748 0.786648 0.755795
0.777890 0.805722 0.776364
0.653834 0.692103 0.869718
0.663264 0.697627 0.867918
0.687770 0.710475 0.858183
0.721614 0.730434 0.840513
0.749477 0.751583 0.811704
0.752773 0.768704 0.764370
0.754910 0.783932 0.752895
0.775143 0.803098 0.773556
0.668971 0.720211 0.881224
0.676753 0.723751 0.879118
0.697536 0.731441 0.868956
0.733822 0.750820 0.855039
0.760006 0.765713 0.826658
0.763149 0.776669 0.779110
0.761074 0.789822 0.759182
0.781979 0.809567 0.780545
0.687617 0.761898 0.902068
0.698573 0.767056 0.900511
0.719020 0.772366 0.892302
0.750027 0.782132 0.878080
0.777951 0.791470 0.853239
0.786465 0.797452 0.810513
0.778073 0.805875 0.776516
0.799191 0.825650 0.798032
0.697536 0.809049 0.924620
0.706783 0.811704 0.923613
0.729305 0.815366 0.918059
0.760800 0.819272 0.906859
0.794034 0.823636 0.885344
0.810086 0.822568 0.847868
0.796628 0.823270 0.795438
0.822568 0.847227 0.821805
0.700740 0.851377 0.919646
0.706569 0.851926 0.919341
0.727901 0.854795 0.919127
0.764920 0.861448 0.920287
0.813535 0.872465 0.922179
0.844327 0.869596 0.899229
0.846342 0.863432 0.852476
0.859861 0.880919 0.859556
0.708675 0.900481 0.917601
0.713832 0.900572 0.917510
0.732296 0.901244 0.917662
0.765988 0.903777 0.919188
0.811063 0.908354 0.921996
0.864775 0.917021 0.926909
0.899596 0.918090 0.920226
0.888701 0.906401 0.888670
0.707607 0.953185 0.917449
0.711330 0.952850 0.917266
0.726253 0.952117 0.917235
0.753811 0.951415 0.918059
0.789548 0.950011 0.918761
0.831022 0.946685 0.918090
0.874113 0.942321 0.916564
0.906798 0.928496 0.906218
