data/fiter_cube/96143635/1022810/file.cube
# Created by Adobe Lightroom plugin Export LUT (1.17.0)
# www.johnrellis.com/lightroom/exportlut.htm
# Preset: 高雅通透灰色调人像_03 云集
# Color profile: C:\Program Files (x86)\Common Files\Adobe\Color\Profiles\Recommended\AdobeRGB1998.icc
LUT_3D_SIZE 5
DOMAIN_MIN 0.000000 0.000000 0.000000
DOMAIN_MAX 0.903226 0.903226 0.903226
0.096620 0.099214 0.091127
0.235508 0.093690 0.099672
0.487892 0.121706 0.108522
0.716335 0.172061 0.150027
0.912352 0.264836 0.243442
0.117830 0.237491 0.141238
0.223209 0.256382 0.152560
0.500969 0.283970 0.108156
0.717556 0.297795 0.155398
0.908232 0.344427 0.247776
0.175998 0.446418 0.242771
0.197665 0.416999 0.212192
0.426795 0.499123 0.289860
0.729946 0.562799 0.227268
0.907836 0.528252 0.264500
0.230289 0.624750 0.335790
0.237339 0.601831 0.308690
0.270573 0.511467 0.249088
0.614313 0.706538 0.454383
0.910369 0.818418 0.530785
0.402869 0.858549 0.518364
0.408209 0.855863 0.506584
0.434668 0.852750 0.473915
0.581231 0.856840 0.521660
0.850401 0.916258 0.731716
0.124819 0.133486 0.199741
0.193149 0.199252 0.183291
0.523857 0.177890 0.270146
0.739925 0.205447 0.272709
0.920317 0.300053 0.332433
0.121736 0.297246 0.260380
0.275669 0.298802 0.263066
0.533196 0.299199 0.250919
0.737270 0.316503 0.271366
0.918364 0.371466 0.335760
0.203098 0.506401 0.317632
0.282231 0.490639 0.316747
0.462135 0.530968 0.359747
0.736019 0.558434 0.298009
0.912627 0.538445 0.338872
0.271824 0.660395 0.391943
0.298589 0.642908 0.377417
0.304814 0.555993 0.294957
0.627405 0.714107 0.491554
0.914794 0.817624 0.550866
0.437812 0.867552 0.555901
0.445655 0.864591 0.546136
0.455848 0.854826 0.502312
0.571496 0.853025 0.522148
0.852171 0.916167 0.739742
0.260197 0.271275 0.478737
0.351141 0.331762 0.431006
0.408331 0.427832 0.396887
0.668971 0.515068 0.554467
0.912627 0.473548 0.567651
0.277501 0.407507 0.581415
0.401373 0.428321 0.531548
0.462196 0.485420 0.451911
0.707698 0.522789 0.561334
0.914122 0.499855 0.562341
0.253910 0.643183 0.575738
0.367926 0.639704 0.570733
0.548241 0.596399 0.539330
0.746670 0.579065 0.514611
0.915099 0.585382 0.536034
0.332586 0.752071 0.539422
0.393866 0.743618 0.542199
0.488655 0.695430 0.518212
0.664668 0.735256 0.588769
0.915831 0.800046 0.612207
0.489784 0.899687 0.643061
0.512963 0.895811 0.643305
0.557916 0.883024 0.626184
0.577722 0.864958 0.563958
0.864317 0.920897 0.772732
0.473426 0.502831 0.735927
0.531426 0.537713 0.713375
0.593225 0.597223 0.618769
0.619989 0.650568 0.614343
0.786557 0.790951 0.772610
0.528496 0.592554 0.773037
0.574060 0.608820 0.752163
0.630915 0.637964 0.664698
0.644984 0.675898 0.640070
0.807889 0.790127 0.781888
0.562371 0.733608 0.826841
0.618677 0.746029 0.826505
0.707607 0.744259 0.778897
0.698024 0.728786 0.694606
0.865049 0.775021 0.788479
0.519463 0.846189 0.788327
0.563348 0.844083 0.787228
0.660639 0.833524 0.778653
0.738918 0.783810 0.735653
0.918791 0.785245 0.739742
0.572900 0.938201 0.772946
0.596826 0.936248 0.775082
0.658350 0.928954 0.776486
0.713924 0.907927 0.747433
0.883268 0.926818 0.826841
0.651667 0.686061 0.868406
0.678401 0.701167 0.859464
0.737911 0.740291 0.826810
0.747707 0.774075 0.747921
0.777890 0.805722 0.776364
0.666346 0.713375 0.878508
0.690303 0.724300 0.870054
0.745937 0.753933 0.838590
0.755337 0.777676 0.759274
0.781796 0.809384 0.780331
0.690486 0.782528 0.913420
0.713954 0.788052 0.906828
0.769955 0.801114 0.879911
0.791135 0.804501 0.809537
0.808530 0.834318 0.807553
0.707546 0.865629 0.920256
0.727291 0.867613 0.919982
0.791806 0.877958 0.922271
0.858335 0.882078 0.903990
0.865934 0.886351 0.865721
0.707607 0.953185 0.917449
0.721248 0.952300 0.917174
0.770932 0.950896 0.918547
0.841886 0.945769 0.917906
0.906798 0.928496 0.906218
