data/fiter_cube/96143635/1022810/file.cube
# Created by Adobe Lightroom plugin Export LUT (1.17.0)
# www.johnrellis.com/lightroom/exportlut.htm
# Preset: 高雅通透灰色调人像_03 云集
# Color profile: C:\Program Files (x86)\Common Files\Adobe\Color\Profiles\Recommended\AdobeRGB1998.icc
LUT_3D_SIZE 32
DOMAIN_MIN 0.0 0.0 0.0
DOMAIN_MAX 1.0 1.0 1.0
0.096620 0.099214 0.091127
0.096620 0.099214 0.091127
0.096620 0.099214 0.091127
0.118105 0.097353 0.092775
0.144656 0.093904 0.095155
0.172396 0.089448 0.096223
0.203037 0.090883 0.098360
0.235508 0.093690 0.099672
0.269902 0.095766 0.100649
0.304753 0.099702 0.101015
0.340581 0.104219 0.100465
0.376898 0.108309 0.100801
0.413611 0.112337 0.102693
0.450660 0.116670 0.105318
0.487892 0.121706 0.108522
0.524926 0.126375 0.112459
0.561395 0.132845 0.116823
0.596612 0.139925 0.121645
0.628656 0.147341 0.127596
0.658778 0.154513 0.134432
0.687770 0.163272 0.141573
0.716335 0.172061 0.150027
0.745022 0.181704 0.159426
0.773709 0.192630 0.170108
0.802426 0.204227 0.182010
0.830869 0.217166 0.195254
0.858762 0.231632 0.209812
0.885954 0.247410 0.225834
0.912352 0.264836 0.243442
0.937835 0.284062 0.263127
0.962188 0.305486 0.284703
0.985199 0.329320 0.308415
0.096620 0.099214 0.091127
0.096620 0.099214 0.091127
0.096620 0.099214 0.091127
0.119295 0.097383 0.092988
0.146090 0.097169 0.095094
0.174044 0.099306 0.096895
0.205051 0.100862 0.098451
0.237736 0.103090 0.100221
0.272129 0.105776 0.100618
0.307164 0.109255 0.100435
0.343145 0.113985 0.100008
0.379706 0.117067 0.100832
0.416724 0.120516 0.102907
0.454017 0.124880 0.105623
0.491249 0.129885 0.108736
0.528374 0.135378 0.112673
0.564904 0.141054 0.117220
0.600061 0.147494 0.122377
0.631861 0.154360 0.128664
0.661769 0.161807 0.135042
0.690608 0.169802 0.142489
0.719081 0.178164 0.151064
0.747738 0.187625 0.160464
0.776303 0.198032 0.171603
0.804776 0.209598 0.183291
0.833066 0.222507 0.196597
0.860746 0.236393 0.211368
0.887755 0.251957 0.227451
0.913970 0.269200 0.245182
0.939300 0.288273 0.265019
0.963531 0.309575 0.286534
0.986328 0.333257 0.310582
0.096834 0.101015 0.091768
0.097261 0.101961 0.091920
0.098054 0.103609 0.092836
0.122133 0.108034 0.093507
0.148470 0.109957 0.095644
0.176577 0.111604 0.097658
0.207248 0.113191 0.099184
0.240116 0.115358 0.100130
0.274510 0.117983 0.100252
0.309453 0.121370 0.100252
0.345434 0.125399 0.099550
0.381933 0.128603 0.100801
0.419043 0.131472 0.103090
0.456245 0.135500 0.105989
0.493416 0.140322 0.109041
0.530541 0.145174 0.112978
0.567102 0.151095 0.117372
0.602136 0.157168 0.122713
0.633722 0.163302 0.129030
0.663416 0.170413 0.135561
0.692256 0.177340 0.143496
0.720516 0.185672 0.151675
0.748989 0.194644 0.161471
0.777554 0.204379 0.172305
0.805997 0.215824 0.184482
0.834195 0.227939 0.197635
0.861784 0.241764 0.212406
0.888701 0.257023 0.228580
0.914855 0.273777 0.246464
0.940063 0.292668 0.266117
0.964202 0.313542 0.287663
0.986938 0.337102 0.311864
0.101442 0.125917 0.100618
0.101991 0.127016 0.101228
0.103914 0.127779 0.100832
0.119173 0.129458 0.104005
0.152529 0.137758 0.098939
0.180209 0.135225 0.098878
0.210819 0.136507 0.099641
0.243442 0.138338 0.100069
0.277440 0.140810 0.099886
0.312383 0.143740 0.099306
0.348363 0.146517 0.099641
0.385016 0.149111 0.101076
0.421912 0.152743 0.103182
0.459052 0.156771 0.105959
0.496254 0.160616 0.109438
0.533410 0.165072 0.113680
0.569757 0.170413 0.118013
0.604730 0.175601 0.123690
0.636103 0.181308 0.129763
0.665797 0.187228 0.136751
0.694606 0.193606 0.144594
0.722957 0.200534 0.153475
0.751186 0.208774 0.163027
0.779232 0.217655 0.173709
0.807156 0.227756 0.185641
0.834897 0.239017 0.198795
0.862089 0.251682 0.213169
0.888823 0.266117 0.229404
0.914885 0.282170 0.247135
0.940154 0.300145 0.266972
0.964416 0.320653 0.288762
0.987304 0.343816 0.313176
0.107912 0.152804 0.112093
0.108064 0.153445 0.112032
0.110994 0.153292 0.110903
0.119600 0.152255 0.111421
0.142885 0.157900 0.115663
0.181552 0.172244 0.111238
0.218784 0.172641 0.101411
0.249393 0.168917 0.099062
0.283116 0.170687 0.098329
0.317784 0.172976 0.098726
0.353643 0.175143 0.099519
0.389960 0.177646 0.101076
0.426581 0.180758 0.103609
0.463325 0.184421 0.106538
0.500053 0.187778 0.109987
0.536370 0.191897 0.114199
0.572168 0.196109 0.119051
0.606226 0.200504 0.124392
0.637232 0.205051 0.130678
0.666835 0.209751 0.137697
0.695674 0.214878 0.145663
0.724025 0.220951 0.154604
0.752163 0.228153 0.164401
0.780179 0.235904 0.174990
0.808011 0.244846 0.187106
0.835569 0.254978 0.200290
0.862730 0.266514 0.214664
0.889403 0.279850 0.230808
0.915465 0.294987 0.248753
0.940734 0.312200 0.268894
0.964996 0.331670 0.290806
0.987793 0.354070 0.315526
0.111147 0.181064 0.121981
0.112612 0.180941 0.121401
0.114931 0.180362 0.119478
0.120241 0.179110 0.116518
0.138674 0.179965 0.120607
0.168215 0.189334 0.125734
0.210208 0.206363 0.126925
0.260563 0.217533 0.103670
0.290288 0.209781 0.099794
0.322454 0.205844 0.097536
0.357824 0.207675 0.098787
0.393683 0.209842 0.100618
0.429786 0.212772 0.103090
0.466255 0.215671 0.106508
0.502434 0.218906 0.109926
0.538445 0.222202 0.114199
0.573754 0.225895 0.119448
0.606897 0.229282 0.125185
0.637568 0.232151 0.131807
0.666865 0.235843 0.138552
0.695308 0.240360 0.146365
0.723507 0.244694 0.155428
0.735714 0.243381 0.158541
0.764553 0.250004 0.168887
0.793332 0.257725 0.180331
0.822019 0.266361 0.193301
0.850431 0.276646 0.207736
0.878386 0.288640 0.223697
0.905638 0.302281 0.241520
0.932128 0.318181 0.261540
0.957641 0.336614 0.283726
0.981872 0.357977 0.308598
0.113191 0.206149 0.129397
0.115053 0.205783 0.128328
0.117189 0.205081 0.126375
0.122103 0.203616 0.123323
0.134127 0.200504 0.124575
0.158846 0.206973 0.129641
0.192844 0.219486 0.136416
0.235050 0.236332 0.144747
0.294347 0.257450 0.113954
0.327092 0.251377 0.105592
0.356329 0.242008 0.099336
0.389502 0.240391 0.098665
0.425055 0.242893 0.102052
0.461067 0.245701 0.105348
0.497444 0.248844 0.109224
0.533684 0.252079 0.113893
0.568902 0.255283 0.119051
0.602106 0.258000 0.124697
0.632685 0.260349 0.130922
0.661585 0.262730 0.137972
0.689235 0.265446 0.145418
0.716121 0.268345 0.153811
0.742763 0.272129 0.162631
0.769467 0.276860 0.172610
0.796597 0.282658 0.183444
0.824277 0.289982 0.195926
0.852140 0.299077 0.210330
0.879850 0.309697 0.226596
0.906981 0.322210 0.244450
0.933440 0.337102 0.264683
0.958923 0.354376 0.287358
0.983032 0.374701 0.312566
0.117830 0.237491 0.141238
0.119417 0.237095 0.140139
0.121828 0.236210 0.138277
0.126375 0.234409 0.134920
0.134035 0.231571 0.131380
0.151919 0.227848 0.136263
0.184268 0.240757 0.143343
0.223209 0.256382 0.152560
0.268376 0.274846 0.164126
0.330236 0.301457 0.137942
0.372656 0.301396 0.115755
0.401190 0.290532 0.107820
0.429694 0.279149 0.099825
0.465126 0.281102 0.103822
0.500969 0.283970 0.108156
0.536706 0.286442 0.113619
0.571191 0.288884 0.118929
0.604028 0.290776 0.125093
0.634241 0.292424 0.131441
0.663020 0.293919 0.139071
0.690639 0.295720 0.147036
0.717556 0.297795 0.155398
0.744289 0.300694 0.164675
0.771023 0.304356 0.174716
0.798184 0.309148 0.185794
0.825834 0.315587 0.198764
0.853605 0.323369 0.213291
0.881224 0.333043 0.229496
0.908232 0.344427 0.247776
0.934630 0.358129 0.268193
0.959991 0.374334 0.291203
0.983978 0.393469 0.316808
0.123659 0.269718 0.154788
0.125216 0.269017 0.153445
0.127474 0.268162 0.151919
0.132174 0.266361 0.148684
0.138491 0.263096 0.143648
0.152041 0.258305 0.143954
0.174990 0.259556 0.149966
0.211429 0.275242 0.158938
0.254215 0.293828 0.171023
0.300999 0.313329 0.185367
0.365545 0.345495 0.169162
0.418189 0.353246 0.131807
0.446052 0.341436 0.122377
0.473884 0.328832 0.112215
0.503014 0.319463 0.106050
0.537896 0.321447 0.111604
0.572137 0.323095 0.117983
0.604547 0.324559 0.124331
0.634607 0.325261 0.131777
0.663233 0.325933 0.139406
0.690883 0.326940 0.147616
0.717922 0.328161 0.156191
0.744686 0.330114 0.165927
0.771603 0.333135 0.176150
0.798856 0.337072 0.187961
0.826535 0.342290 0.201053
0.854337 0.349340 0.215610
0.881926 0.357763 0.232456
0.908995 0.368231 0.250797
0.935424 0.380774 0.271855
0.960784 0.395880 0.295171
0.984741 0.413947 0.321294
0.131136 0.301854 0.169100
0.132631 0.301335 0.168246
0.134707 0.300328 0.166690
0.138888 0.298131 0.163088
0.145083 0.294865 0.158419
0.152316 0.290135 0.152743
0.170657 0.283085 0.157198
0.199832 0.291539 0.165194
0.239933 0.310216 0.176883
0.285832 0.331762 0.191714
0.336309 0.354894 0.209201
0.402411 0.390509 0.204623
0.458991 0.402991 0.159762
0.491493 0.393408 0.141360
0.517388 0.379065 0.129488
0.542687 0.364202 0.117617
0.571771 0.357519 0.114748
0.603632 0.357916 0.122255
0.633417 0.357824 0.130617
0.662074 0.357855 0.138796
0.690089 0.358343 0.147402
0.717647 0.359106 0.156832
0.745113 0.360632 0.166995
0.772549 0.362921 0.177981
0.800137 0.366308 0.190219
0.827909 0.370947 0.203677
0.855650 0.376867 0.218631
0.882963 0.384405 0.235386
0.909880 0.393591 0.254276
0.936034 0.404822 0.275364
0.961242 0.418555 0.298741
0.985046 0.435248 0.325078
0.139895 0.334447 0.185000
0.141421 0.333745 0.184054
0.143160 0.332616 0.182315
0.147189 0.330358 0.179141
0.152712 0.326360 0.174075
0.159457 0.321355 0.168399
0.171786 0.314275 0.166445
0.188632 0.305272 0.170230
0.225681 0.323064 0.181338
0.268650 0.344518 0.195529
0.317113 0.368963 0.212833
0.370428 0.395361 0.232700
0.438209 0.434272 0.241947
0.494331 0.448707 0.195621
0.535271 0.444862 0.163516
0.559747 0.429114 0.150881
0.583276 0.412848 0.137270
0.605493 0.395941 0.124056
0.633051 0.391577 0.127962
0.661830 0.390967 0.137148
0.689815 0.390570 0.147036
0.717403 0.390723 0.156771
0.744869 0.391547 0.167575
0.772427 0.393133 0.178988
0.800137 0.395911 0.191409
0.828061 0.399756 0.205509
0.855894 0.404944 0.221042
0.883452 0.411597 0.238193
0.910460 0.419928 0.257786
0.936736 0.430243 0.279179
0.961944 0.443030 0.303380
0.985718 0.458595 0.330358
0.149599 0.365484 0.200687
0.150820 0.364660 0.199619
0.152621 0.363500 0.198184
0.156008 0.360876 0.194888
0.160952 0.356847 0.189944
0.166964 0.351293 0.183871
0.173495 0.344213 0.176852
0.189914 0.334783 0.178927
0.211368 0.332464 0.184268
0.251011 0.353399 0.197665
0.296239 0.377264 0.214023
0.346532 0.404028 0.233097
0.390723 0.420600 0.247715
0.455879 0.458839 0.270634
0.513756 0.478767 0.225315
0.562676 0.481910 0.181827
0.585748 0.466102 0.169223
0.607660 0.449714 0.156069
0.628717 0.432563 0.142824
0.650141 0.416907 0.130556
0.679011 0.416541 0.141238
0.707485 0.416693 0.152102
0.735988 0.417517 0.163058
0.764462 0.419074 0.175174
0.793057 0.421546 0.188083
0.821714 0.424994 0.202426
0.850309 0.429572 0.218387
0.878569 0.435706 0.236240
0.906401 0.443397 0.256352
0.933440 0.452918 0.278599
0.959380 0.464851 0.303380
0.983795 0.479469 0.330999
0.157504 0.389776 0.213016
0.158450 0.389014 0.212161
0.160067 0.388128 0.210788
0.163485 0.386084 0.208255
0.168002 0.382452 0.203586
0.173404 0.377630 0.198215
0.179294 0.370611 0.191012
0.189334 0.361730 0.187015
0.204929 0.350195 0.188846
0.232425 0.357031 0.197147
0.273625 0.379614 0.212009
0.319371 0.404486 0.229221
0.370123 0.431922 0.249516
0.425574 0.461769 0.272557
0.489906 0.498878 0.297765
0.549950 0.523644 0.264042
0.596796 0.526146 0.217899
0.624140 0.512810 0.195132
0.643885 0.494820 0.181888
0.664027 0.477363 0.168429
0.684504 0.460365 0.154696
0.707942 0.449256 0.149722
0.736538 0.449622 0.162173
0.765225 0.450568 0.175235
0.793942 0.452552 0.188937
0.822751 0.455390 0.204227
0.851438 0.459480 0.220951
0.879759 0.464912 0.239414
0.907622 0.471748 0.260105
0.934630 0.480507 0.282994
0.960510 0.491524 0.308385
0.984771 0.505058 0.336919
0.167239 0.419318 0.228641
0.168032 0.418158 0.227207
0.169436 0.417365 0.226200
0.172000 0.414893 0.223178
0.176211 0.411261 0.218936
0.180880 0.405707 0.212955
0.186374 0.398779 0.205936
0.191836 0.390082 0.198093
0.205417 0.378485 0.197269
0.218936 0.365270 0.198306
0.254765 0.383642 0.211093
0.298100 0.408698 0.228000
0.345983 0.436042 0.247227
0.398749 0.466011 0.269688
0.456367 0.498207 0.295506
0.520806 0.535393 0.323308
0.582879 0.564874 0.304295
0.626734 0.566796 0.258061
0.659174 0.556542 0.223911
0.678187 0.538415 0.210361
0.697719 0.520653 0.196628
0.717830 0.503593 0.182773
0.739040 0.487373 0.169772
0.765316 0.482063 0.173831
0.794125 0.483497 0.188785
0.822995 0.485817 0.204654
0.851804 0.489235 0.222171
0.880278 0.494026 0.241550
0.908232 0.500267 0.263035
0.935271 0.508232 0.286870
0.961212 0.518334 0.313024
0.985412 0.530938 0.342443
0.175998 0.446418 0.242771
0.176699 0.445380 0.241489
0.177859 0.444495 0.240452
0.180240 0.442084 0.237491
0.183871 0.438331 0.233341
0.188052 0.432990 0.227512
0.192782 0.425940 0.220432
0.197665 0.416999 0.212192
0.204807 0.405982 0.205509
0.219150 0.392432 0.205936
0.235843 0.384771 0.208713
0.276738 0.409705 0.224918
0.322057 0.437018 0.243412
0.372045 0.466987 0.264988
0.426795 0.499123 0.289860
0.486122 0.533288 0.318273
0.549157 0.569024 0.348913
0.612238 0.602045 0.345342
0.653803 0.604181 0.299748
0.690944 0.597498 0.255985
0.710536 0.580102 0.240787
0.729946 0.562799 0.227268
0.750393 0.546349 0.214084
0.771878 0.530571 0.201480
0.794522 0.515373 0.189090
0.823026 0.516228 0.204379
0.851713 0.518944 0.222599
0.880034 0.522911 0.242710
0.907836 0.528252 0.264500
0.934783 0.535210 0.288792
0.960601 0.544213 0.315770
0.984833 0.555688 0.345739
0.184085 0.472541 0.256291
0.184909 0.471443 0.255222
0.185702 0.470314 0.253819
0.187869 0.467842 0.251225
0.190921 0.463813 0.246738
0.194553 0.458106 0.240818
0.198672 0.451087 0.233860
0.202976 0.442176 0.225711
0.207218 0.431556 0.216587
0.218112 0.418463 0.213291
0.230594 0.403540 0.212772
0.255375 0.407935 0.220218
0.298222 0.435370 0.238346
0.345922 0.465522 0.259190
0.398413 0.497902 0.283238
0.454994 0.532189 0.310582
0.514946 0.567071 0.341466
0.574609 0.599542 0.374487
0.639521 0.636408 0.388037
0.679438 0.639490 0.343023
0.715938 0.633753 0.297459
0.740810 0.619654 0.273167
0.760220 0.603113 0.260075
0.780728 0.587213 0.247318
0.802396 0.572107 0.235142
0.825315 0.557794 0.224094
0.850492 0.548028 0.221073
0.879026 0.551446 0.242161
0.907073 0.556237 0.265232
0.934386 0.562615 0.290532
0.960632 0.571008 0.318883
0.985168 0.582025 0.350652
0.192203 0.497871 0.269322
0.192874 0.497230 0.268528
0.193637 0.496132 0.267277
0.195438 0.493599 0.264683
0.198062 0.489631 0.260349
0.201358 0.483986 0.254551
0.204990 0.476997 0.247654
0.208591 0.468116 0.239139
0.212375 0.457649 0.229892
0.217136 0.445350 0.221164
0.230442 0.430610 0.220432
0.241001 0.414130 0.218814
0.275273 0.432288 0.232303
0.320500 0.462104 0.252384
0.370245 0.494392 0.275425
0.424384 0.528527 0.301732
0.482338 0.563775 0.331365
0.541497 0.597589 0.364874
0.598291 0.627649 0.400305
0.663478 0.666865 0.432410
0.704402 0.673335 0.388251
0.740475 0.669306 0.343786
0.770657 0.658625 0.308934
0.790188 0.643061 0.296696
0.810910 0.628077 0.284672
0.832822 0.613977 0.273442
0.855955 0.600519 0.263493
0.880400 0.587915 0.255467
0.907256 0.585046 0.266270
0.934722 0.590814 0.292882
0.961028 0.598474 0.322240
0.985687 0.608667 0.355383
0.199619 0.522362 0.282078
0.200137 0.521355 0.281071
0.198367 0.512993 0.276036
0.199924 0.510552 0.273411
0.202518 0.507164 0.269749
0.205417 0.502129 0.264378
0.208743 0.495674 0.257755
0.212009 0.487495 0.249699
0.215518 0.477790 0.240879
0.218631 0.466560 0.231083
0.227756 0.452949 0.226108
0.239384 0.437507 0.224613
0.251408 0.424567 0.224369
0.293858 0.453956 0.243290
0.340703 0.485725 0.264958
0.391821 0.519432 0.289616
0.447333 0.555047 0.317967
0.505119 0.589776 0.349798
0.563134 0.622492 0.385504
0.619013 0.652125 0.423560
0.681666 0.690425 0.467475
0.725277 0.702510 0.431464
0.761257 0.700679 0.388952
0.795102 0.693111 0.347875
0.816800 0.679713 0.333623
0.838193 0.666529 0.323735
0.860838 0.654139 0.314672
0.884703 0.642420 0.307164
0.909606 0.631495 0.301579
0.935363 0.621302 0.298650
0.961822 0.626459 0.325902
0.986664 0.636042 0.360998
0.206332 0.545403 0.294041
0.206485 0.543633 0.292729
0.206851 0.541527 0.290806
0.207858 0.538384 0.287907
0.209720 0.534142 0.283726
0.212070 0.528923 0.278325
0.214786 0.522423 0.271611
0.218051 0.514611 0.263920
0.221164 0.504997 0.254856
0.224186 0.494057 0.244999
0.226688 0.481147 0.234104
0.239261 0.466102 0.232578
0.249516 0.449317 0.230167
0.270726 0.450111 0.235843
0.316014 0.482033 0.256962
0.365362 0.516106 0.280980
0.418982 0.551995 0.308354
0.475532 0.587366 0.339391
0.532921 0.620752 0.374151
0.589624 0.651759 0.412116
0.644068 0.680446 0.452827
0.703426 0.716030 0.498421
0.749020 0.733639 0.480262
0.784360 0.733883 0.440314
0.818265 0.728145 0.399207
0.844358 0.717433 0.376654
0.865904 0.705684 0.368322
0.888609 0.694636 0.361334
0.912444 0.684413 0.356176
0.937163 0.675105 0.353674
0.962524 0.667018 0.354589
0.987793 0.663691 0.366552
0.213962 0.572229 0.307713
0.213993 0.570581 0.306432
0.214298 0.568566 0.304784
0.215213 0.565423 0.301793
0.216770 0.561456 0.297765
0.218875 0.556481 0.292546
0.221500 0.550225 0.285985
0.224186 0.542657 0.278264
0.226810 0.533532 0.269352
0.229435 0.522759 0.259159
0.231540 0.510399 0.248020
0.238560 0.495979 0.240757
0.249790 0.479561 0.238132
0.258793 0.461738 0.235050
0.291691 0.478309 0.248325
0.339605 0.512688 0.271611
0.391638 0.548821 0.298253
0.447089 0.584955 0.328496
0.503960 0.619013 0.362432
0.560662 0.650690 0.399817
0.615717 0.679988 0.440101
0.668238 0.707301 0.482643
0.724575 0.740414 0.528344
0.771878 0.762692 0.527459
0.806302 0.765286 0.492622
0.840055 0.761776 0.454322
0.870451 0.753780 0.423194
0.892088 0.743893 0.417243
0.914794 0.734676 0.412970
0.938384 0.726436 0.411383
0.962646 0.719478 0.413275
0.986572 0.713680 0.419257
0.222293 0.599878 0.322301
0.222202 0.598230 0.320836
0.222263 0.596429 0.319219
0.222965 0.593683 0.316533
0.224033 0.589715 0.312291
0.225925 0.585138 0.307225
0.228092 0.579400 0.300908
0.230564 0.572503 0.293400
0.233005 0.563775 0.284459
0.235111 0.553399 0.274174
0.237278 0.541741 0.263035
0.238743 0.528283 0.250828
0.250095 0.512627 0.247196
0.260441 0.495155 0.243839
0.268254 0.476295 0.239841
0.314580 0.510185 0.262242
0.365454 0.546349 0.288090
0.419501 0.582757 0.317266
0.475349 0.616907 0.350072
0.531426 0.648646 0.386328
0.586450 0.677974 0.425269
0.639277 0.705043 0.466651
0.689601 0.730617 0.509270
0.742763 0.761196 0.553979
0.791348 0.787076 0.567620
0.824765 0.791653 0.537743
0.857786 0.790707 0.505364
0.890196 0.785367 0.471901
0.913481 0.777432 0.464118
0.936126 0.770535 0.463569
0.959442 0.764950 0.466743
0.981445 0.759457 0.471565
0.230289 0.624750 0.335790
0.230320 0.623651 0.334661
0.230472 0.622431 0.333318
0.231235 0.620447 0.330877
0.232181 0.617334 0.327153
0.233585 0.613275 0.322210
0.235569 0.608270 0.316258
0.237339 0.601831 0.308690
0.239322 0.593957 0.299840
0.241062 0.584527 0.289677
0.242893 0.573388 0.278294
0.244205 0.560693 0.265873
0.249638 0.546197 0.256443
0.261173 0.529686 0.253178
0.270573 0.511467 0.249088
0.289525 0.508019 0.252476
0.339452 0.544488 0.277653
0.392798 0.581415 0.306065
0.448219 0.616327 0.338293
0.504509 0.648829 0.374029
0.560327 0.678889 0.412970
0.614313 0.706538 0.454383
0.665675 0.732052 0.497353
0.713741 0.756222 0.539269
0.764187 0.784665 0.583703
0.812955 0.812680 0.610925
0.846159 0.819730 0.585687
0.878416 0.821195 0.559106
0.910369 0.818418 0.530785
0.936797 0.813077 0.518151
0.958556 0.808560 0.522210
0.978332 0.803311 0.525902
0.241306 0.654108 0.352392
0.241306 0.653223 0.351507
0.241367 0.652094 0.350195
0.241886 0.650111 0.347753
0.242771 0.647517 0.344366
0.243931 0.644038 0.339666
0.245274 0.639551 0.333562
0.246769 0.633936 0.326360
0.248173 0.627131 0.317754
0.249607 0.618891 0.307805
0.250858 0.609186 0.296452
0.251865 0.598016 0.284062
0.252781 0.585473 0.270634
0.263066 0.570214 0.264836
0.274052 0.553185 0.260777
0.282933 0.534508 0.256138
0.315801 0.548302 0.269017
0.369055 0.585504 0.297032
0.424598 0.620478 0.328923
0.480934 0.653010 0.364385
0.536980 0.682948 0.402777
0.591730 0.710536 0.444007
0.643824 0.735744 0.486976
0.692409 0.758968 0.528679
0.739681 0.782864 0.571588
0.787015 0.808804 0.615106
0.833585 0.836576 0.653803
0.867979 0.846983 0.633234
0.899321 0.850706 0.612512
0.930358 0.850645 0.590692
0.957458 0.846311 0.571710
0.975494 0.841917 0.575891
0.253422 0.681910 0.369146
0.253391 0.680995 0.368231
0.253452 0.680018 0.367071
0.253696 0.678462 0.364721
0.254520 0.676387 0.361608
0.255253 0.673487 0.357092
0.256565 0.669947 0.351629
0.257877 0.665461 0.344884
0.259220 0.659998 0.337011
0.260533 0.653376 0.327672
0.261692 0.645533 0.316869
0.262364 0.636286 0.304692
0.262943 0.625788 0.291356
0.266484 0.613733 0.279515
0.279118 0.599603 0.275700
0.290043 0.583734 0.271275
0.299138 0.566064 0.266331
0.348516 0.597040 0.291051
0.404883 0.631800 0.323125
0.462013 0.663813 0.358648
0.518639 0.693141 0.397314
0.574029 0.720089 0.438453
0.627283 0.744869 0.481788
0.677119 0.767727 0.524407
0.722866 0.788724 0.564782
0.765042 0.808347 0.603388
0.809476 0.832029 0.646235
0.853849 0.858579 0.689082
0.888884 0.872313 0.678981
0.918425 0.877623 0.663569
0.945556 0.878019 0.645441
0.970275 0.875212 0.627802
0.271214 0.715236 0.390997
0.270787 0.714351 0.389990
0.270573 0.713436 0.388647
0.270848 0.712123 0.386633
0.271397 0.710323 0.383551
0.272251 0.708034 0.379583
0.273259 0.704982 0.374395
0.274357 0.701320 0.368048
0.275303 0.696681 0.360388
0.276249 0.691066 0.351476
0.276951 0.684504 0.341070
0.277470 0.676783 0.329351
0.277714 0.668086 0.316258
0.277653 0.658289 0.301884
0.286931 0.646906 0.294652
0.299260 0.633967 0.290379
0.310307 0.619562 0.285618
0.328832 0.613428 0.287053
0.386603 0.647150 0.319310
0.444587 0.678096 0.354986
0.502098 0.706477 0.393652
0.558434 0.732540 0.435065
0.612634 0.756374 0.478492
0.663142 0.778256 0.521080
0.709834 0.798398 0.561730
0.752377 0.816861 0.600122
0.791012 0.833677 0.636408
0.832303 0.854978 0.677943
0.873899 0.879454 0.719783
0.906523 0.893736 0.719661
0.932647 0.899107 0.707210
0.956481 0.901061 0.695247
0.293065 0.749325 0.415503
0.292729 0.748623 0.414466
0.292638 0.748013 0.413519
0.293065 0.747158 0.411780
0.293675 0.745937 0.409155
0.294499 0.744228 0.405493
0.295384 0.742031 0.400885
0.296330 0.739162 0.395087
0.297398 0.735653 0.388220
0.298100 0.731289 0.379858
0.298772 0.726070 0.370275
0.299016 0.720058 0.359228
0.299443 0.713283 0.347234
0.299504 0.705715 0.333562
0.301366 0.697505 0.320562
0.314855 0.687617 0.316838
0.327550 0.676875 0.312932
0.339147 0.664942 0.308568
0.374243 0.673610 0.322728
0.434180 0.702571 0.358953
0.493019 0.729091 0.398260
0.550317 0.753323 0.440101
0.605249 0.775418 0.483589
0.656214 0.795651 0.525841
0.703120 0.814267 0.566033
0.746120 0.831327 0.604273
0.785214 0.846921 0.640345
0.820340 0.861143 0.674189
0.855955 0.878019 0.711055
0.891905 0.897948 0.748013
0.922118 0.912657 0.757778
0.945006 0.918608 0.750210
0.322606 0.786374 0.445411
0.322576 0.785916 0.444709
0.322393 0.785458 0.443793
0.322789 0.784787 0.442267
0.323064 0.783688 0.439673
0.323705 0.782223 0.436347
0.324163 0.780026 0.431678
0.324407 0.777279 0.425971
0.324529 0.773800 0.418982
0.324620 0.769711 0.410834
0.324498 0.764920 0.401404
0.324468 0.759670 0.390875
0.324407 0.753964 0.379370
0.324498 0.747921 0.366857
0.324743 0.741573 0.353399
0.333013 0.734524 0.345861
0.346838 0.726680 0.343053
0.360021 0.718318 0.340093
0.372503 0.709010 0.336645
0.424201 0.728054 0.365270
0.484443 0.752438 0.404761
0.542809 0.774746 0.446662
0.598505 0.795132 0.489937
0.649989 0.813809 0.531670
0.697383 0.830991 0.571527
0.740444 0.846342 0.608789
0.778622 0.859464 0.642786
0.812802 0.871305 0.674434
0.842924 0.881834 0.703517
0.874632 0.895933 0.737148
0.906249 0.912749 0.771298
0.932860 0.926665 0.789700
0.354772 0.819638 0.475868
0.354681 0.819333 0.475257
0.354894 0.819150 0.474708
0.355383 0.818814 0.473487
0.356146 0.818265 0.471565
0.357183 0.817502 0.468971
0.358038 0.816312 0.465309
0.358984 0.814755 0.460761
0.359960 0.812802 0.455360
0.360937 0.810422 0.448920
0.361883 0.807706 0.441474
0.362860 0.804623 0.432990
0.364141 0.801328 0.423804
0.365576 0.797910 0.413886
