data/fiter_cube/27130762/1023400/file.cube
# Created by Adobe Lightroom plugin Export LUT (1.17.0)
# www.johnrellis.com/lightroom/exportlut.htm
# Preset: 森系文艺人像美食静物_04 云集
# Color profile: C:\Program Files (x86)\Common Files\Adobe\Color\Profiles\Recommended\AdobeRGB1998.icc
LUT_3D_SIZE 8
DOMAIN_MIN 0.000000 0.000000 0.000000
DOMAIN_MAX 0.903226 0.903226 0.903226
0.108125 0.108125 0.108125
0.146334 0.109560 0.108339
0.227085 0.119570 0.115084
0.357763 0.132448 0.118776
0.520745 0.149935 0.120455
0.682887 0.174838 0.127047
0.822293 0.207431 0.148043
0.949371 0.254612 0.193423
0.116182 0.136660 0.116152
0.137423 0.137270 0.121401
0.229313 0.149630 0.110872
0.360998 0.165530 0.112123
0.525414 0.184573 0.107759
0.680293 0.205203 0.111238
0.818173 0.230350 0.130343
0.947356 0.268681 0.174502
0.135683 0.199191 0.135531
0.156985 0.194308 0.143862
0.203067 0.202884 0.150790
0.367193 0.258427 0.107088
0.534142 0.285222 0.088563
0.689052 0.302647 0.084932
0.833616 0.318669 0.099062
0.960845 0.337224 0.136110
0.164126 0.304448 0.163699
0.187900 0.299596 0.171298
0.240269 0.286961 0.198367
0.324590 0.324071 0.200687
0.542504 0.415717 0.118746
0.701167 0.428565 0.000000
0.835538 0.434546 0.009155
0.959930 0.443244 0.105928
0.203372 0.447150 0.202579
0.229435 0.443519 0.210452
0.296605 0.433021 0.239384
0.371313 0.435492 0.272190
0.469886 0.469093 0.271519
0.653773 0.537682 0.210178
0.829282 0.560845 0.000000
0.958221 0.559777 0.000000
0.265446 0.594598 0.264439
0.292271 0.596582 0.275242
0.359686 0.587915 0.303319
0.441871 0.574212 0.352880
0.517601 0.585412 0.373632
0.614252 0.613367 0.378088
0.769680 0.669856 0.361578
0.956725 0.697475 0.164126
0.367803 0.734066 0.366796
0.387579 0.733211 0.375402
0.443366 0.725643 0.400275
0.521141 0.714839 0.445808
0.595880 0.701534 0.502708
0.664271 0.724086 0.509209
0.750393 0.749416 0.518669
0.874907 0.797543 0.543145
0.507897 0.864500 0.507042
0.520775 0.863035 0.512871
0.563195 0.858976 0.534142
0.627955 0.853758 0.572198
0.689509 0.839078 0.611658
0.752132 0.842435 0.652338
0.815427 0.865049 0.665614
0.887358 0.886412 0.678340
0.125948 0.125948 0.125948
0.130190 0.130190 0.130190
0.204105 0.142458 0.156863
0.337743 0.143618 0.165103
0.502556 0.150668 0.169039
0.662745 0.172549 0.176883
0.805112 0.208682 0.196384
0.936584 0.262638 0.238346
0.119753 0.138125 0.138643
0.145693 0.145693 0.145693
0.224704 0.152590 0.150027
0.352605 0.163516 0.154513
0.512413 0.178592 0.157351
0.665980 0.199649 0.164126
0.803861 0.228397 0.181399
0.934630 0.272923 0.220829
0.131930 0.208133 0.153017
0.163149 0.207645 0.163119
0.211063 0.210971 0.173831
0.365118 0.251072 0.135378
0.527489 0.274174 0.131624
0.678584 0.290745 0.135134
0.818357 0.306859 0.146883
0.949432 0.329686 0.176516
0.159915 0.311528 0.180270
0.188846 0.309789 0.188479
0.248661 0.297673 0.214786
0.323644 0.323247 0.219120
0.531395 0.403632 0.145388
0.683162 0.411566 0.082124
0.819486 0.421149 0.109194
0.949004 0.434668 0.151308
0.199405 0.455207 0.220066
0.227970 0.450782 0.227237
0.298955 0.438544 0.254154
0.371588 0.433234 0.287572
0.464515 0.463783 0.285740
0.649042 0.532433 0.226688
0.821500 0.552453 0.100618
0.951812 0.553002 0.085420
0.261784 0.595331 0.278172
0.286717 0.593103 0.285863
0.355962 0.584802 0.312413
0.440497 0.572564 0.360571
0.517052 0.583093 0.385962
0.613794 0.612879 0.392401
0.769070 0.669123 0.373236
0.952148 0.693324 0.198062
0.362097 0.730007 0.372961
0.379889 0.727077 0.378943
0.437568 0.720638 0.403784
0.517998 0.711879 0.449744
0.595239 0.699702 0.508141
0.662074 0.720943 0.515343
0.745724 0.744808 0.522545
0.870726 0.792996 0.542382
0.502770 0.862211 0.509270
0.516655 0.861418 0.515801
0.560021 0.857725 0.537041
0.625696 0.852873 0.574731
0.695766 0.844938 0.622217
0.755734 0.844694 0.660883
0.815244 0.864500 0.670100
0.885466 0.884550 0.680568
0.161593 0.161593 0.161593
0.166201 0.166201 0.166201
0.181888 0.181888 0.181888
0.275547 0.225223 0.246494
0.462989 0.221256 0.288945
0.643366 0.231968 0.312352
0.792050 0.273442 0.339117
0.925658 0.338598 0.383185
0.176761 0.176761 0.176761
0.183291 0.183291 0.183291
0.195041 0.195041 0.195041
0.295995 0.228031 0.253117
0.478614 0.224063 0.283207
0.647669 0.238285 0.300664
0.793393 0.277928 0.325719
0.926940 0.339788 0.369451
0.149477 0.209201 0.210483
0.170932 0.215335 0.216464
0.233799 0.233799 0.233799
0.367102 0.245304 0.241093
0.530694 0.263798 0.251743
0.676570 0.286137 0.265751
0.811978 0.316899 0.288914
0.939666 0.361944 0.328862
0.120882 0.340612 0.243992
0.160220 0.341558 0.245182
0.264408 0.340826 0.264286
0.349401 0.349096 0.285466
0.547326 0.398566 0.225589
0.691066 0.400610 0.219333
0.825071 0.415686 0.246433
0.951385 0.437415 0.281346
0.164096 0.477089 0.274815
0.202945 0.477699 0.279393
0.306432 0.474952 0.305943
0.399359 0.457374 0.352209
0.487251 0.486641 0.352575
0.670497 0.544335 0.292271
0.825498 0.544091 0.213748
0.953246 0.549432 0.238834
0.240024 0.611414 0.323461
0.273594 0.611322 0.331945
0.362158 0.605921 0.361547
0.455207 0.591791 0.403876
0.531487 0.591974 0.438727
0.620691 0.619959 0.444678
0.777981 0.676387 0.419135
0.952514 0.692714 0.297612
0.356115 0.742977 0.410315
0.381476 0.741329 0.420356
0.446845 0.734279 0.446082
0.527703 0.723568 0.484352
0.605585 0.710628 0.535088
0.671107 0.726589 0.551629
0.753353 0.752499 0.560540
0.882475 0.803952 0.573449
0.499031 0.869413 0.532372
0.514488 0.867765 0.539178
0.558343 0.863279 0.557641
0.627802 0.859525 0.594446
0.699153 0.851041 0.638239
0.762264 0.847471 0.682460
0.820096 0.867796 0.691493
0.889464 0.888640 0.701930
0.220432 0.220432 0.220432
0.226291 0.226291 0.226291
0.242191 0.242191 0.242191
0.265934 0.265934 0.265934
0.359350 0.359350 0.359350
0.567620 0.373480 0.444068
0.739467 0.412726 0.497993
0.887449 0.475929 0.552361
0.241367 0.241367 0.241367
0.245212 0.245212 0.245212
0.257481 0.257481 0.257481
0.278630 0.278630 0.278630
0.375860 0.365576 0.370733
0.578119 0.376043 0.445258
0.744900 0.413886 0.494118
0.891142 0.472114 0.543877
0.252567 0.258244 0.266361
0.270268 0.270970 0.272251
0.298039 0.298039 0.298039
0.317388 0.317388 0.317388
0.441413 0.376715 0.403082
0.622675 0.393530 0.450843
0.777554 0.432013 0.488624
0.911498 0.475685 0.523278
0.183322 0.327794 0.330694
0.205417 0.333440 0.336126
0.275700 0.352056 0.353918
0.382940 0.382940 0.382940
0.539239 0.398108 0.393561
0.677790 0.417945 0.408331
0.810666 0.446174 0.431159
0.936889 0.486091 0.466621
0.000000 0.517174 0.389685
0.099031 0.516228 0.388251
0.260410 0.514549 0.389807
0.423865 0.510155 0.423743
0.515801 0.515465 0.447913
0.691279 0.546746 0.389227
0.827695 0.539361 0.370581
0.950774 0.560388 0.411566
0.174716 0.639307 0.407843
0.222782 0.641901 0.413397
0.337499 0.637751 0.428717
0.474586 0.629603 0.474311
0.563622 0.614069 0.520775
0.639429 0.638849 0.523552
0.799039 0.690394 0.486610
0.953307 0.688533 0.407752
0.313909 0.759731 0.461585
0.344335 0.759304 0.468849
0.432624 0.756313 0.495491
0.538262 0.749325 0.537804
0.624445 0.735897 0.580743
0.689052 0.739742 0.607935
0.763668 0.762997 0.613001
0.897215 0.814603 0.610040
0.472023 0.883268 0.562402
0.490761 0.882597 0.569116
0.547051 0.879240 0.590387
0.624170 0.873014 0.623651
0.701717 0.863554 0.663233
0.771054 0.854612 0.711299
0.826780 0.872587 0.723171
0.894652 0.893889 0.732601
0.310369 0.310369 0.310369
0.315435 0.315435 0.315435
0.329625 0.329625 0.329625
0.352117 0.352117 0.352117
0.383734 0.383734 0.383734
0.489754 0.489754 0.489754
0.660517 0.552361 0.597742
0.832853 0.601160 0.673915
0.328740 0.328740 0.328740
0.333165 0.333165 0.333165
0.344793 0.344793 0.344793
0.363958 0.363958 0.363958
0.393835 0.393835 0.393835
0.498085 0.498085 0.498085
0.669154 0.554101 0.601129
0.837949 0.601434 0.673243
0.362432 0.362432 0.362432
0.372381 0.372381 0.372381
0.383612 0.383612 0.383612
0.401709 0.401709 0.401709
0.425849 0.425849 0.425849
0.521538 0.521538 0.521538
0.695613 0.556847 0.607477
0.854215 0.599329 0.666529
0.341894 0.376165 0.404883
0.358007 0.384619 0.409461
0.411200 0.416846 0.425299
0.459785 0.459785 0.459785
0.480110 0.480110 0.480110
0.586816 0.541833 0.560784
0.744869 0.563745 0.610163
0.889158 0.597894 0.648096
0.242191 0.475380 0.479805
0.264683 0.479561 0.483803
0.333623 0.492622 0.496040
0.434485 0.514336 0.516258
0.541222 0.541222 0.541222
0.675257 0.553948 0.550317
0.805783 0.572625 0.564843
0.931579 0.599390 0.587366
0.000000 0.662867 0.530724
0.000000 0.663905 0.530785
0.243778 0.660090 0.529625
0.421118 0.653956 0.537896
0.571099 0.644648 0.570977
0.653864 0.653559 0.595789
0.818753 0.688258 0.551995
0.950958 0.679469 0.528618
0.217990 0.780148 0.545922
0.258915 0.778775 0.547875
0.368353 0.774960 0.558129
0.498543 0.769619 0.581445
0.620905 0.761166 0.620630
0.703456 0.748867 0.663508
0.772091 0.771603 0.666712
0.915679 0.820096 0.643030
0.407691 0.895293 0.605921
0.429114 0.894194 0.609705
0.494392 0.890806 0.623011
0.590143 0.888975 0.651301
0.688533 0.880644 0.688136
0.772274 0.869169 0.732662
0.831846 0.876127 0.758267
0.897856 0.897215 0.765286
0.432563 0.432563 0.432563
0.436255 0.436255 0.436255
0.446571 0.446571 0.446571
0.466773 0.466773 0.466773
0.491768 0.491768 0.491768
0.519463 0.519463 0.519463
0.623102 0.623102 0.623102
0.762234 0.720516 0.740169
0.443427 0.443427 0.443427
0.446143 0.446143 0.446143
0.455879 0.455879 0.455879
0.474037 0.474037 0.474037
0.497230 0.497230 0.497230
0.524346 0.524346 0.524346
0.626520 0.626520 0.626520
0.766903 0.719600 0.741573
0.482338 0.482338 0.482338
0.484413 0.484413 0.484413
0.492378 0.492378 0.492378
0.506523 0.506523 0.506523
0.525078 0.525078 0.525078
0.548058 0.548058 0.548058
0.643641 0.643641 0.643641
0.787259 0.720363 0.749752
0.503777 0.503777 0.503777
0.509819 0.509819 0.509819
0.532097 0.532097 0.532097
0.553887 0.553887 0.553887
0.569940 0.569940 0.569940
0.588373 0.588373 0.588373
0.674037 0.674037 0.674037
0.823789 0.721798 0.760830
0.451392 0.519341 0.559655
0.464637 0.524651 0.562432
0.506706 0.542840 0.571466
0.568414 0.575769 0.585962
0.611444 0.611444 0.611444
0.627070 0.627070 0.627070
0.722255 0.687282 0.702388
0.870176 0.713680 0.754971
0.345861 0.613764 0.619104
0.365057 0.617060 0.622187
0.421759 0.624872 0.629297
0.500114 0.637812 0.641016
0.584985 0.654932 0.656672
0.680751 0.680751 0.680751
0.809537 0.695125 0.691768
0.933745 0.714534 0.707576
0.145388 0.792721 0.672053
0.190585 0.794705 0.673579
0.291752 0.798978 0.676051
0.425544 0.801389 0.679042
0.576806 0.794064 0.685389
0.714595 0.783871 0.714473
0.789425 0.789151 0.734920
0.942138 0.820279 0.694667
0.292119 0.916411 0.687434
0.323247 0.915312 0.688777
0.411048 0.912047 0.693996
0.524102 0.908293 0.705104
0.644221 0.902129 0.724300
0.761929 0.892851 0.761685
0.842100 0.883513 0.804807
0.905272 0.904784 0.809751
0.571191 0.571191 0.571191
0.574456 0.574456 0.574456
0.581476 0.581476 0.581476
0.593744 0.593744 0.593744
0.609216 0.609216 0.609216
0.627741 0.627741 0.627741
0.648920 0.648920 0.648920
0.751644 0.751644 0.751644
0.575372 0.575372 0.575372
0.578210 0.578210 0.578210
0.584741 0.584741 0.584741
0.595605 0.595605 0.595605
0.610163 0.610163 0.610163
0.627588 0.627588 0.627588
0.647761 0.647761 0.647761
0.749081 0.749081 0.749081
0.601099 0.601099 0.601099
0.602502 0.602502 0.602502
0.607019 0.607019 0.607019
0.616083 0.616083 0.616083
0.628077 0.628077 0.628077
0.644099 0.644099 0.644099
0.664271 0.664271 0.664271
0.763027 0.763027 0.763027
0.626612 0.626612 0.626612
0.629816 0.629816 0.629816
0.639277 0.639277 0.639277
0.647395 0.647395 0.647395
0.657862 0.657862 0.657862
0.672541 0.672541 0.672541
0.690791 0.690791 0.690791
0.782376 0.782376 0.782376
0.618830 0.630396 0.647089
0.625025 0.634028 0.647730
0.647547 0.648920 0.651514
0.670985 0.670985 0.670985
0.688106 0.688106 0.688106
0.700649 0.700649 0.700649
0.716915 0.716915 0.716915
0.804349 0.804349 0.804349
0.564599 0.655940 0.698665
0.572961 0.658473 0.699947
0.600763 0.667445 0.704311
0.645289 0.683803 0.711849
0.701747 0.710231 0.721340
0.744350 0.744350 0.744350
0.760006 0.760006 0.760006
0.851408 0.822843 0.835416
0.472877 0.746242 0.751949
0.484321 0.748043 0.753628
0.519371 0.752499 0.757595
0.573327 0.760494 0.764767
0.640589 0.771084 0.774197
0.720089 0.786709 0.788388
0.810117 0.810117 0.810117
0.933074 0.823636 0.820523
0.322911 0.907836 0.801144
0.339696 0.908721 0.801694
0.395056 0.914122 0.805661
0.468360 0.921141 0.808499
0.564141 0.928435 0.809934
0.711940 0.921202 0.816739
0.844938 0.910948 0.844816
0.916533 0.916258 0.865446
0.713680 0.713680 0.713680
0.715419 0.715419 0.715419
0.718624 0.718624 0.718624
0.726253 0.726253 0.726253
0.736385 0.736385 0.736385
0.748745 0.748745 0.748745
0.764034 0.764034 0.764034
0.780240 0.780240 0.780240
0.715724 0.715724 0.715724
0.717433 0.717433 0.717433
0.720851 0.720851 0.720851
0.727657 0.727657 0.727657
0.737514 0.737514 0.737514
0.749569 0.749569 0.749569
0.764096 0.764096 0.764096
0.780148 0.780148 0.780148
0.727352 0.727352 0.727352
0.728511 0.728511 0.728511
0.730709 0.730709 0.730709
0.739010 0.739010 0.739010
0.747372 0.747372 0.747372
0.757687 0.757687 0.757687
0.771481 0.771481 0.771481
0.787381 0.787381 0.787381
0.746761 0.746761 0.746761
0.748013 0.748013 0.748013
0.750271 0.750271 0.750271
0.756161 0.756161 0.756161
0.764157 0.764157 0.764157
0.773953 0.773953 0.773953
0.786709 0.786709 0.786709
0.802060 0.802060 0.802060
0.755245 0.755245 0.755245
0.757900 0.757900 0.757900
0.764553 0.764553 0.764553
0.776761 0.776761 0.776761
0.783261 0.783261 0.783261
0.792355 0.792355 0.792355
0.805264 0.805264 0.805264
0.822324 0.822324 0.822324
0.733425 0.759854 0.788724
0.737240 0.761349 0.788571
0.751308 0.767758 0.788754
0.776699 0.781643 0.789914
0.801907 0.801907 0.801907
0.820218 0.820218 0.820218
0.835630 0.835630 0.835630
0.853758 0.853758 0.853758
0.683772 0.792782 0.835386
0.688411 0.793545 0.835538
0.704829 0.796658 0.836454
0.734676 0.803983 0.839414
0.776852 0.816648 0.844114
0.830625 0.839750 0.851164
0.872648 0.872648 0.872648
0.886534 0.886534 0.886534
0.601740 0.876646 0.882628
0.607691 0.877195 0.883085
0.628351 0.879362 0.884947
0.664668 0.883909 0.888914
0.714412 0.890593 0.894743
0.775937 0.899870 0.902922
0.849271 0.913237 0.914916
0.933196 0.933196 0.933196
