data/fiter_cube/27130762/1023400/file.cube
# Created by Adobe Lightroom plugin Export LUT (1.17.0)
# www.johnrellis.com/lightroom/exportlut.htm
# Preset: 森系文艺人像美食静物_04 云集
# Color profile: C:\Program Files (x86)\Common Files\Adobe\Color\Profiles\Recommended\AdobeRGB1998.icc
LUT_3D_SIZE 32
DOMAIN_MIN 0.0 0.0 0.0
DOMAIN_MAX 1.0 1.0 1.0
0.108125 0.108125 0.108125
0.109712 0.108095 0.108309
0.115480 0.108034 0.109041
0.130129 0.108339 0.108553
0.146334 0.109560 0.108339
0.163302 0.111604 0.109926
0.181979 0.113954 0.111666
0.203067 0.116762 0.113558
0.227085 0.119570 0.115084
0.254307 0.122499 0.116396
0.285588 0.125399 0.117525
0.320287 0.128725 0.118410
0.357763 0.132448 0.118776
0.397223 0.136172 0.119448
0.437903 0.140719 0.119936
0.479255 0.145174 0.120119
0.520745 0.149935 0.120455
0.561181 0.155215 0.120882
0.602930 0.161227 0.122133
0.644099 0.167910 0.124056
0.682887 0.174838 0.127047
0.720089 0.182376 0.130739
0.755489 0.190066 0.135531
0.789456 0.198581 0.141329
0.822293 0.207431 0.148043
0.854368 0.217014 0.156405
0.886168 0.227909 0.166232
0.917784 0.240360 0.178500
0.949371 0.254612 0.193423
0.980896 0.271397 0.211551
1.000000 0.291203 0.233494
1.000000 0.314672 0.259739
0.108156 0.109560 0.108217
0.109865 0.109957 0.108797
0.117281 0.111055 0.107637
0.131411 0.112123 0.107118
0.147555 0.113252 0.107332
0.164858 0.114443 0.108278
0.183993 0.116335 0.109651
0.204837 0.119081 0.111574
0.228367 0.122133 0.113558
0.255497 0.125124 0.115053
0.286351 0.128298 0.116213
0.320745 0.131624 0.117098
0.357794 0.135409 0.117708
0.396979 0.139590 0.118349
0.437354 0.144015 0.118685
0.478370 0.148653 0.119112
0.519585 0.153536 0.119081
0.559869 0.158541 0.119570
0.601282 0.164462 0.120668
0.641718 0.170871 0.122621
0.680140 0.177615 0.125246
0.717067 0.184604 0.128756
0.752377 0.192294 0.133333
0.786404 0.200351 0.138979
0.819364 0.208896 0.145541
0.851591 0.218296 0.153628
0.883604 0.228855 0.163394
0.915465 0.240879 0.175570
0.947265 0.254856 0.190219
0.978973 0.271275 0.208194
1.000000 0.290562 0.229709
1.000000 0.313512 0.255772
0.108766 0.114687 0.109102
0.111543 0.114229 0.110170
0.114992 0.115023 0.110231
0.131441 0.118776 0.106722
0.147433 0.118990 0.107485
0.164767 0.119905 0.108461
0.184024 0.121248 0.109438
0.205447 0.123323 0.110719
0.230014 0.125673 0.111849
0.257298 0.128634 0.113375
0.288090 0.132204 0.114473
0.322210 0.135988 0.115328
0.359014 0.139864 0.116121
0.397955 0.144259 0.116762
0.437995 0.148867 0.117067
0.478889 0.153506 0.117311
0.519860 0.158328 0.117494
0.559899 0.163455 0.117769
0.601221 0.168978 0.118990
0.641108 0.175326 0.120455
0.679286 0.181857 0.123171
0.716060 0.188724 0.126619
0.751308 0.195956 0.130983
0.785275 0.203616 0.136477
0.818204 0.211978 0.143038
0.850462 0.220951 0.151034
0.882567 0.231144 0.160739
0.914458 0.242924 0.172763
0.946410 0.256352 0.187350
0.978210 0.272343 0.205142
1.000000 0.291173 0.226596
1.000000 0.313634 0.252445
0.111299 0.125277 0.111330
0.115206 0.124453 0.113008
0.119112 0.123781 0.115023
0.125765 0.125734 0.115084
0.145663 0.130587 0.109743
0.164706 0.130983 0.108278
0.183871 0.131624 0.109285
0.205447 0.133486 0.110597
0.229801 0.135714 0.111727
0.257633 0.138613 0.112551
0.289311 0.141878 0.112978
0.324559 0.145663 0.113069
0.362280 0.149813 0.113069
0.401312 0.154299 0.113191
0.440925 0.159030 0.113283
0.481300 0.163729 0.113497
0.521874 0.168643 0.113649
0.561425 0.173770 0.113741
0.602289 0.179263 0.114595
0.641016 0.184878 0.116213
0.678370 0.191012 0.118410
0.714656 0.197269 0.121798
0.749874 0.204013 0.126040
0.784115 0.211246 0.131563
0.817624 0.218936 0.138003
0.850492 0.227634 0.146059
0.882933 0.237308 0.155947
0.915129 0.248417 0.167941
0.947051 0.261357 0.182559
0.978729 0.276463 0.200290
1.000000 0.294285 0.221408
1.000000 0.315465 0.246799
0.116182 0.136660 0.116152
0.119448 0.135988 0.117525
0.123262 0.135012 0.119326
0.128756 0.134646 0.121523
0.137423 0.137270 0.121401
0.157321 0.143557 0.116976
0.183444 0.146609 0.110109
0.205020 0.147463 0.109957
0.229313 0.149630 0.110872
0.256870 0.152804 0.111849
0.288426 0.156558 0.112184
0.323369 0.160861 0.112215
0.360998 0.165530 0.112123
0.400671 0.170413 0.111421
0.441718 0.175051 0.110414
0.483436 0.179965 0.109224
0.525414 0.184573 0.107759
0.566278 0.189456 0.106844
0.606043 0.194675 0.107637
0.643793 0.199771 0.109071
0.680293 0.205203 0.111238
0.715969 0.210758 0.114412
0.750759 0.216770 0.118502
0.784817 0.223209 0.123751
0.818173 0.230350 0.130343
0.851011 0.237980 0.138338
0.883391 0.246860 0.148135
0.915496 0.256809 0.160128
0.947356 0.268681 0.174502
0.978943 0.282567 0.191897
1.000000 0.298985 0.212833
1.000000 0.318853 0.238071
0.120638 0.149172 0.120516
0.123598 0.148409 0.121675
0.127108 0.147585 0.123171
0.133120 0.145785 0.126192
0.139834 0.146914 0.127535
0.150210 0.149996 0.127291
0.169924 0.156924 0.124208
0.204929 0.165591 0.112428
0.229435 0.167208 0.111025
0.257176 0.169955 0.110506
0.288640 0.174380 0.110689
0.323522 0.179232 0.110780
0.360937 0.184573 0.110506
0.400549 0.190005 0.109651
0.441535 0.195315 0.108400
0.483314 0.200656 0.107027
0.525231 0.205631 0.105348
0.567956 0.210788 0.103670
0.608240 0.215671 0.102632
0.646754 0.219913 0.101900
0.683955 0.224216 0.101991
0.720089 0.228702 0.103609
0.776089 0.240452 0.110506
0.808957 0.246220 0.117189
0.840757 0.252354 0.124910
0.871763 0.259281 0.134188
0.902312 0.267094 0.144900
0.932555 0.276066 0.157992
0.962676 0.286839 0.173312
0.992645 0.299657 0.191501
1.000000 0.314916 0.212894
1.000000 0.333288 0.238285
0.125154 0.164462 0.125185
0.128054 0.163638 0.126101
0.131655 0.162875 0.127382
0.138064 0.161227 0.130251
0.145296 0.158846 0.134646
0.153964 0.162020 0.134401
0.166018 0.165927 0.134279
0.185611 0.172671 0.132845
0.227085 0.186831 0.118776
0.260929 0.192721 0.112245
0.293523 0.196780 0.108583
0.328862 0.202365 0.107881
0.366644 0.208316 0.107485
0.406348 0.214267 0.106477
0.447028 0.219974 0.105135
0.488258 0.225528 0.103304
0.530724 0.231174 0.101320
0.574304 0.236790 0.099489
0.614527 0.241489 0.098451
0.653468 0.245884 0.097810
0.691890 0.250431 0.098268
0.730068 0.254978 0.099550
0.767422 0.259892 0.101930
0.803616 0.264744 0.105592
0.838315 0.269932 0.110658
0.871153 0.275181 0.117678
0.902190 0.281956 0.128939
0.932555 0.289525 0.142031
0.962737 0.298558 0.157290
0.992584 0.309575 0.175448
1.000000 0.322728 0.196475
1.000000 0.338781 0.221561
0.130007 0.180514 0.129885
0.132753 0.179934 0.130770
0.136019 0.179110 0.132021
0.142641 0.177462 0.134615
0.150759 0.175204 0.138643
0.158877 0.174624 0.142031
0.169375 0.178500 0.141909
0.183108 0.182925 0.141939
0.201846 0.189059 0.142763
0.247776 0.207828 0.126711
0.293187 0.220340 0.113313
0.328771 0.225864 0.108186
0.366674 0.231540 0.103120
0.406104 0.238163 0.102022
0.446632 0.244388 0.100649
0.487678 0.250309 0.098665
0.532219 0.257267 0.096193
0.574273 0.262791 0.094118
0.613550 0.267216 0.092958
0.651911 0.271336 0.092348
0.689906 0.275578 0.092927
0.727626 0.279850 0.094148
0.764706 0.284245 0.096590
0.800778 0.288731 0.100313
0.835416 0.293156 0.105531
0.868437 0.297887 0.112093
0.900359 0.302678 0.119875
0.931579 0.308049 0.129458
0.962524 0.314549 0.140841
0.993042 0.322087 0.154726
1.000000 0.333196 0.176150
1.000000 0.346868 0.201053
0.135683 0.199191 0.135531
0.138277 0.198672 0.136385
0.141573 0.198062 0.137545
0.148104 0.196567 0.140017
0.156985 0.194308 0.143862
0.165988 0.191409 0.148989
0.175326 0.193271 0.150912
0.187503 0.197818 0.150729
0.203067 0.202884 0.150790
0.223453 0.209751 0.151705
0.271580 0.231357 0.136110
0.327947 0.251164 0.115084
0.367193 0.258427 0.107088
0.406867 0.264500 0.099306
0.447333 0.270665 0.093599
0.490669 0.278294 0.091096
0.534142 0.285222 0.088563
0.575128 0.290623 0.086305
0.613672 0.294774 0.085084
0.651484 0.298680 0.084810
0.689052 0.302647 0.084932
0.726497 0.306523 0.086366
0.763272 0.310582 0.089174
0.799069 0.314733 0.093324
0.833616 0.318669 0.099062
0.866636 0.322576 0.106050
0.898589 0.326818 0.114351
0.929870 0.331609 0.124300
0.960845 0.337224 0.136110
0.991424 0.343938 0.150301
1.000000 0.352087 0.167208
1.000000 0.362036 0.187137
0.141939 0.220432 0.141726
0.144411 0.219974 0.142519
0.147738 0.219303 0.143618
0.154543 0.217807 0.145968
0.163516 0.215640 0.149660
0.173648 0.213016 0.154696
0.183505 0.210147 0.160769
0.194461 0.214664 0.160739
0.208621 0.219791 0.160616
0.225925 0.225711 0.160494
0.248081 0.233371 0.161349
0.297337 0.256718 0.146792
0.357519 0.280034 0.122927
0.406928 0.292943 0.105531
0.450324 0.301061 0.094911
0.493965 0.308019 0.082521
0.536919 0.314794 0.076478
0.577325 0.320165 0.074311
0.615442 0.324224 0.073457
0.652674 0.327703 0.073274
0.689509 0.331151 0.074098
0.725917 0.334600 0.075929
0.761746 0.337957 0.079011
0.796719 0.341344 0.083680
0.830777 0.344762 0.089967
0.863737 0.348211 0.097566
0.895903 0.351904 0.106447
0.927581 0.356237 0.117342
0.958984 0.361212 0.130037
0.989990 0.367346 0.144991
1.000000 0.374792 0.162661
1.000000 0.383917 0.183505
0.148531 0.244053 0.148287
0.151003 0.243626 0.149172
0.154574 0.242985 0.150088
0.161166 0.241642 0.152468
0.170687 0.239658 0.156069
0.181521 0.237095 0.161013
0.192660 0.234134 0.167330
0.203494 0.233799 0.171817
0.216678 0.239139 0.171756
0.232853 0.245274 0.171695
0.252323 0.251987 0.171450
0.276127 0.260258 0.171725
0.326024 0.284703 0.159457
0.391211 0.312383 0.132265
0.452674 0.332708 0.102571
0.495583 0.340032 0.089479
0.538018 0.345983 0.073426
0.577935 0.349920 0.054170
0.615534 0.353613 0.052491
0.652369 0.356878 0.053071
0.688899 0.360113 0.055940
0.725124 0.363256 0.059541
0.760830 0.366430 0.064057
0.795682 0.369512 0.070436
0.829587 0.372534 0.078065
0.862486 0.375433 0.087129
0.894499 0.378607 0.097353
0.926085 0.382300 0.109010
0.957397 0.386633 0.122499
0.988434 0.391974 0.138369
1.000000 0.398596 0.156863
1.000000 0.406806 0.178439
0.155795 0.271153 0.155398
0.158389 0.270665 0.156130
0.161868 0.270115 0.157259
0.168612 0.268894 0.159518
0.178561 0.266941 0.163088
0.190005 0.264500 0.167880
0.202396 0.261601 0.174166
0.214603 0.258213 0.181765
0.227115 0.261143 0.184176
0.242435 0.267430 0.184024
0.260746 0.274296 0.183810
0.283513 0.283146 0.184024
0.319890 0.301793 0.187686
0.371832 0.327611 0.177890
0.442023 0.358648 0.145571
0.510399 0.382696 0.104616
0.556847 0.390814 0.080293
0.595575 0.393561 0.060304
0.632227 0.394751 0.013947
0.668086 0.396033 0.000000
0.703304 0.398047 0.000000
0.738064 0.400031 0.007721
0.772152 0.402014 0.023011
0.805570 0.403998 0.045380
0.838254 0.405951 0.063264
0.870054 0.408057 0.076204
0.901213 0.410376 0.089326
0.931914 0.413092 0.103304
0.962341 0.416571 0.118563
0.992584 0.421027 0.135805
1.000000 0.426764 0.155367
1.000000 0.433875 0.177859
0.164126 0.304448 0.163699
0.166873 0.303990 0.164492
0.170382 0.303197 0.165621
0.177584 0.301793 0.167758
0.187900 0.299596 0.171298
0.200107 0.296818 0.176150
0.213474 0.293675 0.182254
0.227176 0.290135 0.189700
0.240269 0.286961 0.198367
0.255894 0.294408 0.198672
0.275334 0.303441 0.199527
0.298222 0.313420 0.200198
0.324590 0.324071 0.200687
0.354070 0.334905 0.200900
0.403296 0.358953 0.195438
0.474922 0.391730 0.161135
0.542504 0.415717 0.118746
0.593805 0.426307 0.078035
0.630091 0.427558 0.054627
0.665797 0.428168 0.000000
0.701167 0.428565 0.000000
0.735836 0.429786 0.000000
0.769680 0.431373 0.000000
0.802976 0.432898 0.000000
0.835538 0.434546 0.009155
0.867338 0.436103 0.046265
0.898558 0.438025 0.070375
0.929320 0.440314 0.088167
0.959930 0.443244 0.105928
0.990387 0.447120 0.125338
1.000000 0.452125 0.146151
1.000000 0.458473 0.170138
0.172213 0.336187 0.171725
0.174990 0.335729 0.172488
0.178592 0.335058 0.173526
0.185946 0.333684 0.175814
0.196475 0.331487 0.179324
0.209354 0.328832 0.183993
0.223819 0.326055 0.190188
0.239048 0.323522 0.198093
0.254520 0.320836 0.207553
0.269902 0.322210 0.214389
0.288029 0.330632 0.215030
0.309392 0.340246 0.215793
0.333867 0.350317 0.216312
0.361242 0.360693 0.216587
0.391089 0.371008 0.216587
0.434974 0.390875 0.215702
0.506706 0.424140 0.178927
0.571252 0.446662 0.136477
0.627863 0.460182 0.079347
0.663416 0.461006 0.053132
0.698726 0.461402 0.000000
0.733608 0.461616 0.000000
0.767880 0.461402 0.000000
0.801144 0.462684 0.000000
0.833738 0.463966 0.000000
0.865568 0.465187 0.000000
0.896818 0.466621 0.021851
0.927703 0.468482 0.066407
0.958404 0.470985 0.089906
0.988983 0.474342 0.112551
1.000000 0.478737 0.136294
1.000000 0.484382 0.161929
0.181460 0.371221 0.180880
0.184237 0.371008 0.181704
0.187900 0.370459 0.182650
0.195590 0.369360 0.185000
0.206760 0.367590 0.188663
0.220340 0.365332 0.193484
0.235630 0.362768 0.199832
0.251713 0.359869 0.207645
0.268376 0.356909 0.217014
0.284977 0.353887 0.228244
0.302007 0.359045 0.232120
0.322026 0.368170 0.232853
0.344945 0.377813 0.233524
0.370520 0.387823 0.233921
0.398383 0.397742 0.233982
0.428046 0.407202 0.233524
0.466163 0.422553 0.238224
0.536614 0.455543 0.199985
0.598932 0.476905 0.157565
0.654994 0.490608 0.103853
0.696407 0.494423 0.060212
0.731197 0.494606 0.000000
0.765347 0.494453 0.000000
0.799069 0.493935 0.000000
0.831998 0.493751 0.000000
0.864042 0.494789 0.000000
0.895689 0.496040 0.000000
0.927092 0.497810 0.004242
0.958312 0.500114 0.067567
0.989349 0.503258 0.097688
1.000000 0.507347 0.126009
1.000000 0.512505 0.155123
0.191897 0.409735 0.191318
0.194888 0.409552 0.192172
0.198703 0.409033 0.193271
0.206485 0.408057 0.195560
0.218082 0.406287 0.199222
0.232212 0.404181 0.204349
0.248234 0.401709 0.210788
0.265446 0.399023 0.218753
0.283360 0.396002 0.228305
0.301274 0.392798 0.239506
0.318517 0.389990 0.251560
0.336919 0.398138 0.252079
0.357763 0.406714 0.252384
0.381109 0.415595 0.252598
0.406653 0.424567 0.252445
0.434180 0.433448 0.251987
0.463691 0.442298 0.251377
0.500084 0.456123 0.256870
0.565148 0.485969 0.224155
0.626703 0.507439 0.182223
0.682551 0.521416 0.131563
0.730159 0.528527 0.069825
0.764523 0.528557 0.020203
0.798337 0.528222 0.000000
0.831571 0.527520 0.000000
0.864256 0.526696 0.000000
0.896178 0.526879 0.000000
0.927611 0.528252 0.000000
0.958831 0.530114 0.000366
0.989685 0.532647 0.075624
1.000000 0.535943 0.111391
1.000000 0.540307 0.144289
0.203372 0.447150 0.202579
0.206119 0.446845 0.203281
0.209934 0.446326 0.204440
0.217868 0.445197 0.206821
0.229435 0.443519 0.210452
0.243809 0.441413 0.215549
0.260197 0.438941 0.221958
0.277989 0.436103 0.229862
0.296605 0.433021 0.239384
0.315404 0.429755 0.250401
0.333959 0.426307 0.263157
0.351781 0.427253 0.271733
0.371313 0.435492 0.272190
0.393042 0.443915 0.272465
0.416815 0.452399 0.272404
0.442329 0.460761 0.272099
0.469886 0.469093 0.271519
0.499275 0.477516 0.270756
0.534264 0.490120 0.276585
0.593194 0.516289 0.251164
0.653773 0.537682 0.210178
0.709133 0.551812 0.161959
0.760159 0.560662 0.093599
0.795926 0.561334 0.057130
0.829282 0.560845 0.000000
0.862119 0.560082 0.000000
0.894591 0.559228 0.000000
0.926787 0.558465 0.000000
0.958221 0.559777 0.000000
0.989258 0.561975 0.010956
1.000000 0.564843 0.089723
1.000000 0.568597 0.130312
0.216037 0.485054 0.215244
0.219028 0.484993 0.216129
0.227420 0.496559 0.221775
0.235752 0.495399 0.224216
0.247745 0.493568 0.228092
0.262425 0.491188 0.233158
0.279271 0.488319 0.239780
0.297734 0.485054 0.247654
0.317205 0.481605 0.257237
0.337072 0.477974 0.268406
0.356725 0.474128 0.281010
0.375647 0.469917 0.295048
0.393896 0.474128 0.299077
0.414038 0.481605 0.299138
0.436011 0.489143 0.298924
0.459632 0.496498 0.298528
0.485054 0.503868 0.297978
0.511833 0.511070 0.297307
0.540368 0.518303 0.296605
0.573632 0.529198 0.302556
0.626246 0.551598 0.284886
0.685664 0.572595 0.244511
0.740139 0.586297 0.197910
0.790188 0.594507 0.138369
0.830045 0.596460 0.083772
0.862181 0.595178 0.059419
0.893919 0.593805 0.000000
0.925597 0.592615 0.000000
0.957275 0.591730 0.000000
0.988769 0.591638 0.000000
1.000000 0.593957 0.046174
1.000000 0.597040 0.110201
0.231754 0.525689 0.230869
0.235203 0.527001 0.232364
0.239780 0.528130 0.234195
0.248264 0.528588 0.237247
0.260441 0.528099 0.241550
0.275273 0.526452 0.246860
0.292241 0.524010 0.253391
0.310704 0.521050 0.261295
0.330480 0.517906 0.270634
0.350652 0.514458 0.281407
0.370977 0.510735 0.293797
0.390875 0.506798 0.307530
0.409613 0.503197 0.321447
0.428016 0.509941 0.321447
0.448127 0.516686 0.321447
0.469856 0.523369 0.321172
0.493202 0.530053 0.320745
0.517998 0.536767 0.320378
0.544549 0.543694 0.320134
0.572686 0.550774 0.320012
0.604913 0.560998 0.326268
0.652857 0.581262 0.317296
0.711788 0.602838 0.278386
0.765805 0.616907 0.234318
0.815427 0.625147 0.180240
0.860105 0.628717 0.108919
0.892119 0.627588 0.092256
0.923949 0.626581 0.074678
0.955749 0.625788 0.053620
0.987427 0.625208 0.023041
1.000000 0.624872 0.008728
1.000000 0.626093 0.080568
0.247501 0.560510 0.246555
0.250980 0.561669 0.248173
0.255344 0.562737 0.250034
0.263615 0.563134 0.253025
0.275334 0.562707 0.257389
0.289860 0.561212 0.262608
0.306493 0.559014 0.269078
0.324865 0.556329 0.276768
0.344427 0.553429 0.285954
0.364904 0.550195 0.296574
0.385657 0.546838 0.308751
0.406287 0.543114 0.322179
0.425940 0.538933 0.336797
0.444129 0.538842 0.346105
0.462623 0.544976 0.346166
0.482551 0.551080 0.346075
0.503929 0.557244 0.345861
0.526909 0.563500 0.345739
0.551507 0.569940 0.345739
0.577661 0.576745 0.345953
0.605249 0.583703 0.346441
0.636622 0.593561 0.352941
0.680079 0.611780 0.352972
0.738277 0.633783 0.315923
0.791562 0.648035 0.273838
0.840818 0.656428 0.223575
0.886595 0.660334 0.156832
0.921813 0.660212 0.123873
0.953674 0.659541 0.113802
0.985351 0.659083 0.106783
1.000000 0.658778 0.104189
1.000000 0.658534 0.108492
0.265446 0.594598 0.264439
0.268711 0.595666 0.266056
0.272984 0.596643 0.268009
0.280919 0.597040 0.271031
0.292271 0.596582 0.275242
0.306218 0.595270 0.280491
0.322393 0.593225 0.286748
0.340276 0.590753 0.294255
0.359686 0.587915 0.303319
0.379980 0.584894 0.313725
0.400824 0.581659 0.325475
0.421607 0.578119 0.338659
0.441871 0.574212 0.352880
0.461280 0.569970 0.368292
0.478828 0.573205 0.372686
0.497353 0.579156 0.373053
0.517601 0.585412 0.373632
0.539422 0.591913 0.374273
0.562799 0.598718 0.375219
0.587823 0.605921 0.376471
0.614252 0.613367 0.378088
0.642115 0.620966 0.379858
0.672816 0.630701 0.386755
0.712123 0.647303 0.396429
0.769680 0.669856 0.361578
0.822446 0.684504 0.322148
0.871336 0.693080 0.275700
0.917113 0.697078 0.217594
0.956725 0.697475 0.164126
0.988159 0.696986 0.159731
1.000000 0.696559 0.159426
1.000000 0.696132 0.163760
0.289250 0.633204 0.288212
0.292088 0.633600 0.289433
0.295659 0.633722 0.290867
0.302708 0.633387 0.293431
0.313237 0.632471 0.297307
0.326390 0.630976 0.302190
0.341955 0.629084 0.308415
0.359472 0.626825 0.315953
0.378607 0.624414 0.324956
0.398871 0.621790 0.335454
0.419898 0.619043 0.347295
0.441077 0.615900 0.360388
0.461769 0.612299 0.374578
0.481758 0.608362 0.389776
0.500450 0.604944 0.404608
0.517388 0.610346 0.405066
0.535760 0.616052 0.405676
0.555627 0.622034 0.406500
0.576989 0.628290 0.407477
0.599756 0.634791 0.408667
0.623926 0.641505 0.410071
0.649287 0.648341 0.411688
0.675776 0.655238 0.413519
0.704585 0.663783 0.419348
0.739132 0.678309 0.437842
0.795590 0.701259 0.405310
0.847745 0.716579 0.368627
0.896452 0.725917 0.326024
0.942290 0.730434 0.273869
0.985473 0.730770 0.203128
1.000000 0.730465 0.199649
1.000000 0.730098 0.203799
0.311894 0.666072 0.310857
0.314611 0.666438 0.312139
0.318029 0.666651 0.313603
0.324865 0.666377 0.316228
0.334661 0.665553 0.320012
0.347082 0.664088 0.324804
0.361913 0.662196 0.330755
0.378576 0.660029 0.337987
0.397162 0.657679 0.346746
0.416968 0.655146 0.356970
0.437598 0.652430 0.368505
0.458564 0.649500 0.381323
0.479286 0.646174 0.395209
0.499672 0.642573 0.410224
0.519188 0.638758 0.426184
0.536736 0.638697 0.436164
0.553643 0.644251 0.437140
0.572015 0.650080 0.438270
0.591791 0.656153 0.439704
0.612970 0.662531 0.441382
0.635401 0.669184 0.443244
0.659144 0.676020 0.445441
0.683955 0.682979 0.447761
0.709682 0.689937 0.450172
0.734096 0.694728 0.451453
0.767300 0.709255 0.472511
0.820249 0.731685 0.449378
0.871855 0.748074 0.416938
0.920317 0.758480 0.378607
0.966003 0.763729 0.331884
1.000000 0.764309 0.271000
1.000000 0.763088 0.240940
0.340856 0.702754 0.339818
0.343542 0.703182 0.341192
0.346807 0.703273 0.342565
0.352850 0.702815 0.345006
0.361883 0.701747 0.348455
0.373327 0.700191 0.352850
0.387060 0.698146 0.358526
0.402838 0.695735 0.365362
0.420325 0.693050 0.373480
0.439033 0.690272 0.383001
0.458686 0.687190 0.393805
0.478920 0.684047 0.405921
0.499306 0.680598 0.419196
0.519280 0.676875 0.433448
0.538506 0.672816 0.448402
0.556725 0.668605 0.463966
0.572320 0.671199 0.468147
0.588678 0.676326 0.469001
0.606683 0.682094 0.470314
0.626154 0.688289 0.472114
0.647059 0.694881 0.474281
0.669062 0.701595 0.476692
0.691981 0.708217 0.479011
0.715633 0.714656 0.481147
0.739956 0.720912 0.483192
0.765408 0.727535 0.486305
0.798154 0.742367 0.508019
0.846616 0.763729 0.495216
0.897246 0.781125 0.467933
0.944945 0.792752 0.435859
0.989899 0.798917 0.396002
1.000000 0.799588 0.343359
0.367803 0.734066 0.366796
0.370336 0.734524 0.368170
0.373388 0.734646 0.369604
0.379156 0.734188 0.372015
0.387579 0.733211 0.375402
0.398413 0.731807 0.379767
0.411505 0.730037 0.385412
0.426490 0.727962 0.392157
0.443366 0.725643 0.400275
0.461677 0.723201 0.409796
0.480842 0.720577 0.420569
0.500938 0.717830 0.432715
0.521141 0.714839 0.445808
0.541009 0.711604 0.459541
0.560296 0.708064 0.473915
0.578668 0.704402 0.488716
0.595880 0.701534 0.502708
0.610834 0.706508 0.503716
0.627222 0.712001 0.505150
0.645167 0.717891 0.507042
0.664271 0.724086 0.509209
0.684535 0.730495 0.511650
0.705715 0.736873 0.514000
0.727687 0.743191 0.516381
0.750393 0.749416 0.518669
0.773709 0.755428 0.520897
0.797848 0.761440 0.523247
0.830228 0.776761 0.545830
0.874907 0.797543 0.543145
0.924620 0.816251 0.521477
0.971099 0.829068 0.496345
1.000000 0.836362 0.465644
0.399023 0.766598 0.398016
0.401343 0.766873 0.399268
0.403967 0.766781 0.400458
0.409033 0.766232 0.402594
0.416602 0.765133 0.405615
0.426581 0.763668 0.409766
0.438636 0.761868 0.415015
0.452857 0.759854 0.421546
0.468818 0.757687 0.429511
0.486244 0.755459 0.438636
0.504662 0.753079 0.448951
0.523980 0.750668 0.460548
0.543511 0.748074 0.472908
0.562951 0.745235 0.486000
0.581842 0.742061 0.499519
0.600122 0.738735 0.513542
0.617578 0.735348 0.528069
0.633204 0.735561 0.537072
0.648219 0.740688 0.538476
0.664546 0.746273 0.540398
0.682094 0.752193 0.542626
0.700771 0.758328 0.545098
0.720302 0.764462 0.547570
0.740658 0.770565 0.550134
0.761776 0.776608 0.552575
0.783505 0.782528 0.555016
0.806058 0.788479 0.557610
0.829191 0.794369 0.560266
0.860655 0.809567 0.582727
0.901671 0.829831 0.589380
0.950134 0.849485 0.572747
0.994965 0.863462 0.554253
0.431434 0.797543 0.430518
0.433417 0.797635 0.431525
0.435859 0.797543 0.432715
0.440558 0.797086 0.434699
0.447822 0.796323 0.437934
0.457435 0.795346 0.442359
0.469490 0.794369 0.448188
0.483497 0.793362 0.455329
0.499519 0.792294 0.463905
0.516869 0.791226 0.473610
0.535332 0.790005 0.484474
0.554498 0.788602 0.496223
0.573907 0.786984 0.508629
0.593225 0.785000 0.521599
0.612116 0.782589 0.534844
0.630243 0.779812 0.548272
0.647761 0.776944 0.562188
0.664576 0.774075 0.576654
0.678950 0.777249 0.581323
0.693751 0.782467 0.583215
0.709712 0.787991 0.585534
0.726741 0.793698 0.588006
0.744533 0.799435 0.590478
0.763119 0.805203 0.593072
0.782467 0.810910 0.595727
0.802518 0.816587 0.598322
0.823270 0.822293 0.601068
0.844724 0.828031 0.603998
0.866789 0.833799 0.607080
0.896727 0.848417 0.629297
0.933745 0.867979 0.644953
0.979767 0.888029 0.634211
0.472755 0.833738 0.471839
0.474403 0.833768 0.472694
0.476356 0.833555 0.473548
0.480476 0.833005 0.475288
0.486793 0.832120 0.478004
0.495186 0.831022 0.481758
0.505669 0.829801 0.486702
0.518029 0.828489 0.492775
0.532189 0.827085 0.500053
0.547784 0.825589 0.508537
0.564446 0.823972 0.517937
0.581933 0.822232 0.528283
0.599908 0.820310 0.539361
0.618006 0.818204 0.551141
