data/fiter_cube/27130762/1023400/file.cube
# Created by Adobe Lightroom plugin Export LUT (1.17.0)
# www.johnrellis.com/lightroom/exportlut.htm
# Preset: 森系文艺人像美食静物_04 云集
# Color profile: C:\Program Files (x86)\Common Files\Adobe\Color\Profiles\Recommended\AdobeRGB1998.icc
LUT_3D_SIZE 5
DOMAIN_MIN 0.000000 0.000000 0.000000
DOMAIN_MAX 0.903226 0.903226 0.903226
0.108125 0.108125 0.108125
0.203067 0.116762 0.113558
0.437903 0.140719 0.119936
0.720089 0.182376 0.130739
0.949371 0.254612 0.193423
0.130007 0.180514 0.129885
0.183108 0.182925 0.141939
0.446632 0.244388 0.100649
0.727626 0.279850 0.094148
0.962524 0.314549 0.140841
0.181460 0.371221 0.180880
0.251713 0.359869 0.207645
0.398383 0.397742 0.233982
0.731197 0.494606 0.000000
0.958312 0.500114 0.067567
0.289250 0.633204 0.288212
0.359472 0.626825 0.315953
0.500450 0.604944 0.404608
0.649287 0.648341 0.411688
0.942290 0.730434 0.273869
0.507897 0.864500 0.507042
0.549920 0.860136 0.527153
0.654292 0.842893 0.585779
0.766964 0.848051 0.655634
0.887358 0.886412 0.678340
0.150515 0.150515 0.150515
0.165957 0.165957 0.165957
0.385260 0.194522 0.246616
0.685115 0.209964 0.274754
0.927123 0.307897 0.337591
0.141695 0.187564 0.188602
0.206546 0.206546 0.206546
0.441505 0.227115 0.217655
0.708125 0.265049 0.238956
0.939971 0.335943 0.298466
0.154055 0.397681 0.236667
0.258946 0.395789 0.258518
0.407843 0.407294 0.294865
0.722774 0.473945 0.174777
0.954101 0.492805 0.228580
0.279515 0.647395 0.334295
0.365820 0.643244 0.365148
0.516686 0.619867 0.445563
0.655207 0.654383 0.461707
0.946441 0.730037 0.327550
0.507713 0.870603 0.531853
0.550683 0.866148 0.549920
0.664576 0.854582 0.611383
0.775448 0.853147 0.680018
0.891203 0.890349 0.699519
0.262119 0.262119 0.262119
0.277989 0.277989 0.277989
0.321080 0.321080 0.321080
0.565942 0.457282 0.503380
0.862181 0.538964 0.618830
0.305791 0.305791 0.305791
0.323308 0.323308 0.323308
0.359167 0.359167 0.359167
0.602228 0.465400 0.516014
0.880278 0.541711 0.610040
0.207828 0.400427 0.404120
0.279637 0.415778 0.418708
0.464668 0.464668 0.464668
0.709010 0.494148 0.486854
0.934020 0.545647 0.530419
0.145327 0.682460 0.470008
0.289982 0.678157 0.476387
0.538506 0.667109 0.538201
0.677424 0.676967 0.579187
0.947601 0.721187 0.484932
0.442237 0.887327 0.578943
0.505760 0.885313 0.597620
0.655116 0.876036 0.654658
0.786984 0.857969 0.732723
0.894652 0.893950 0.746059
0.463661 0.463661 0.463661
0.474708 0.474708 0.474708
0.507378 0.507378 0.507378
0.550896 0.550896 0.550896
0.742397 0.742397 0.742397
0.499306 0.499306 0.499306
0.506767 0.506767 0.506767
0.531640 0.531640 0.531640
0.568688 0.568688 0.568688
0.756405 0.743832 0.750057
0.520012 0.531426 0.547906
0.552331 0.553613 0.556146
0.596368 0.596368 0.596368
0.621485 0.621485 0.621485
0.821225 0.741817 0.773495
0.380835 0.649561 0.654932
0.430640 0.654627 0.659419
0.555962 0.675288 0.678157
0.713527 0.713527 0.713527
0.932067 0.739803 0.733852
0.239048 0.921935 0.713497
0.351659 0.919432 0.717464
0.566583 0.912657 0.733181
0.783352 0.898009 0.783108
0.907134 0.906706 0.821897
0.713680 0.713680 0.713680
0.717433 0.717433 0.717433
0.731136 0.731136 0.731136
0.752438 0.752438 0.752438
0.780240 0.780240 0.780240
0.724605 0.724605 0.724605
0.727840 0.727840 0.727840
0.740017 0.740017 0.740017
0.758724 0.758724 0.758724
0.786007 0.786007 0.786007
0.751125 0.751125 0.751125
0.757809 0.757809 0.757809
0.767941 0.767941 0.767941
0.783139 0.783139 0.783139
0.810758 0.810758 0.810758
0.725216 0.766323 0.802152
0.739193 0.771389 0.802426
0.787442 0.794491 0.805234
0.831418 0.831418 0.831418
0.860838 0.860838 0.860838
0.601740 0.876646 0.882628
0.621668 0.878660 0.884306
0.688045 0.887022 0.891630
0.793179 0.902800 0.905516
0.933196 0.933196 0.933196
