data/fiter_cube/26597975/1022845/file.cube
# Created by Adobe Lightroom plugin Export LUT (1.17.0)
# www.johnrellis.com/lightroom/exportlut.htm
# Preset:  城市电影胶片_01 云集
# Color profile: C:\Program Files (x86)\Common Files\Adobe\Color\Profiles\Recommended\AdobeRGB1998.icc
LUT_3D_SIZE 32
DOMAIN_MIN 0.0 0.0 0.0
DOMAIN_MAX 1.0 1.0 1.0
0.018555 0.018555 0.018555
0.020874 0.019318 0.019501
0.024781 0.019837 0.019379
0.033570 0.021881 0.020050
0.046265 0.024445 0.020600
0.060243 0.028107 0.021942
0.072145 0.033326 0.021729
0.088472 0.039338 0.021942
0.113893 0.041566 0.020935
0.152651 0.031922 0.017517
0.210117 0.000000 0.010498
0.290776 0.000000 0.000000
0.392950 0.000000 0.000000
0.507683 0.000000 0.000000
0.624598 0.000000 0.000000
0.768002 0.000000 0.000000
0.900511 0.000000 0.000000
0.979400 0.000000 0.000000
1.000000 0.000000 0.000000
1.000000 0.158877 0.000000
1.000000 0.270268 0.000000
1.000000 0.346349 0.000000
1.000000 0.405524 0.000000
1.000000 0.455512 0.000000
1.000000 0.498787 0.000000
1.000000 0.539025 0.000000
1.000000 0.578882 0.000000
1.000000 0.619440 0.066194
1.000000 0.661158 0.223484
1.000000 0.705074 0.342748
1.000000 0.750454 0.459602
1.000000 0.796628 0.574548
0.019379 0.020722 0.019440
0.020508 0.020508 0.020508
0.024628 0.021057 0.019287
0.032074 0.023316 0.019989
0.044526 0.025879 0.021607
0.059632 0.029511 0.021851
0.071138 0.034974 0.022766
0.086671 0.040467 0.022034
0.110689 0.044251 0.021149
0.147433 0.036988 0.018097
0.201541 0.001862 0.011933
0.278111 0.000000 0.000000
0.376104 0.000000 0.000000
0.487678 0.000000 0.000000
0.602777 0.000000 0.000000
0.746487 0.000000 0.000000
0.877256 0.000000 0.000000
0.960601 0.000000 0.000000
1.000000 0.000000 0.000000
1.000000 0.109499 0.000000
1.000000 0.241917 0.000000
1.000000 0.324254 0.000000
1.000000 0.386816 0.000000
1.000000 0.438758 0.000000
1.000000 0.483955 0.000000
1.000000 0.525566 0.000000
1.000000 0.566613 0.000000
1.000000 0.608240 0.000000
1.000000 0.650843 0.190005
1.000000 0.695155 0.314092
1.000000 0.741146 0.434272
1.000000 0.788022 0.552056
0.019959 0.022919 0.021393
0.021485 0.021485 0.021485
0.022461 0.022461 0.022461
0.031678 0.024506 0.020966
0.044160 0.027070 0.022583
0.058930 0.030945 0.022858
0.070161 0.036622 0.022705
0.085115 0.042573 0.023102
0.107881 0.047486 0.022309
0.142916 0.042115 0.019593
0.194949 0.012787 0.013855
0.268620 0.000000 0.000153
0.364202 0.000000 0.000000
0.474372 0.000000 0.000000
0.588739 0.000000 0.000000
0.734615 0.000000 0.000000
0.863096 0.000000 0.000000
0.948425 0.000000 0.000000
1.000000 0.000000 0.000000
1.000000 0.084108 0.000000
1.000000 0.231205 0.000000
1.000000 0.316075 0.000000
1.000000 0.380072 0.000000
1.000000 0.432746 0.000000
1.000000 0.478676 0.000000
1.000000 0.520623 0.000000
1.000000 0.562066 0.000000
1.000000 0.603937 0.000000
1.000000 0.647028 0.174807
1.000000 0.691585 0.302678
1.000000 0.737636 0.423560
1.000000 0.784237 0.541405
0.019593 0.027497 0.026459
0.022339 0.028229 0.025238
0.025238 0.026581 0.025299
0.027497 0.026154 0.027436
0.040314 0.031128 0.025605
0.057374 0.035981 0.024689
0.068849 0.040681 0.024628
0.083406 0.047028 0.023987
0.105470 0.051545 0.023255
0.138949 0.049195 0.020722
0.188418 0.027893 0.015381
0.259037 0.000000 0.002564
0.350835 0.000000 0.000000
0.458137 0.000000 0.000000
0.571740 0.000000 0.000000
0.721798 0.000000 0.000000
0.845762 0.000000 0.000000
0.932311 0.000000 0.000000
0.990600 0.000000 0.000000
1.000000 0.042359 0.000000
1.000000 0.217044 0.000000
1.000000 0.303807 0.000000
1.000000 0.370977 0.000000
1.000000 0.427527 0.000000
1.000000 0.477058 0.000000
1.000000 0.522301 0.000000
1.000000 0.565759 0.000000
1.000000 0.608698 0.000000
1.000000 0.651606 0.182650
1.000000 0.695125 0.307164
1.000000 0.739620 0.424659
1.000000 0.784512 0.539208
0.020020 0.034241 0.032380
0.022950 0.033783 0.031250
0.027222 0.033112 0.030121
0.030274 0.030274 0.030274
0.032227 0.032227 0.032227
0.048432 0.037751 0.030243
0.066987 0.046143 0.026490
0.080751 0.052552 0.025788
0.100832 0.057649 0.025299
0.131563 0.058534 0.023102
0.177371 0.048646 0.017365
0.243046 0.001068 0.006989
0.330571 0.000000 0.000000
0.435462 0.000000 0.000000
0.556085 0.000000 0.000000
0.706691 0.000000 0.000000
0.830137 0.000000 0.000000
0.920195 0.000000 0.000000
0.982055 0.000000 0.000000
1.000000 0.105745 0.000000
1.000000 0.230320 0.000000
1.000000 0.312139 0.000000
1.000000 0.377325 0.000000
1.000000 0.433173 0.000000
1.000000 0.482429 0.000000
1.000000 0.527642 0.000000
1.000000 0.570825 0.000000
1.000000 0.612909 0.000000
1.000000 0.654963 0.182712
1.000000 0.697780 0.306828
1.000000 0.741421 0.423529
1.000000 0.785580 0.537530
0.021241 0.043183 0.039185
0.022827 0.042939 0.038087
0.025971 0.042512 0.035889
0.032166 0.039216 0.033814
0.036347 0.036133 0.035035
0.038087 0.038087 0.038087
0.056641 0.045106 0.035859
0.077424 0.057313 0.029877
0.097902 0.062684 0.027955
0.127382 0.064912 0.025727
0.171389 0.062776 0.021088
0.234165 0.040589 0.009918
0.318791 0.000000 0.000000
0.421942 0.000000 0.000000
0.557610 0.000000 0.000000
0.699641 0.000000 0.000000
0.820768 0.000000 0.000000
0.912413 0.000000 0.000000
0.976623 0.000000 0.000000
1.000000 0.168795 0.000000
1.000000 0.266209 0.000000
1.000000 0.340948 0.000000
1.000000 0.527703 0.000000
1.000000 0.566766 0.000000
1.000000 0.602014 0.000000
1.000000 0.635401 0.092042
1.000000 0.667933 0.212924
1.000000 0.700954 0.307622
1.000000 0.734768 0.399084
1.000000 0.769833 0.491615
1.000000 0.804715 0.581170
1.000000 0.839109 0.669001
0.020050 0.057130 0.050629
0.022004 0.056062 0.049042
0.025147 0.055726 0.047395
0.034485 0.052918 0.043305
0.041230 0.048646 0.040345
0.045136 0.044923 0.043824
0.048493 0.048341 0.047517
0.065705 0.056794 0.047028
0.094240 0.067079 0.037171
0.137362 0.075441 0.028077
0.187533 0.076143 0.020691
0.258762 0.067262 0.005463
0.350896 0.000000 0.000000
0.471138 0.000000 0.000000
0.625757 0.000000 0.000000
0.759670 0.000000 0.000000
0.866606 0.000000 0.000000
0.944427 0.072511 0.000000
0.999573 0.197543 0.000000
1.000000 0.286687 0.000000
1.000000 0.365515 0.000000
1.000000 0.436500 0.000000
1.000000 0.498665 0.000000
1.000000 0.552209 0.000000
1.000000 0.598077 0.000000
1.000000 0.636744 0.042481
1.000000 0.671473 0.205753
1.000000 0.704494 0.303349
1.000000 0.737728 0.395605
1.000000 0.771237 0.485725
1.000000 0.805081 0.574975
1.000000 0.838376 0.661646
0.018311 0.065644 0.059815
0.020020 0.065126 0.059388
0.023560 0.064515 0.057679
0.031739 0.063111 0.053651
0.043214 0.060548 0.048951
0.050538 0.054170 0.047822
0.053071 0.052766 0.051118
0.057649 0.057160 0.054688
0.072724 0.064118 0.056214
0.108827 0.074037 0.047608
0.176059 0.089235 0.026123
0.244663 0.090578 0.010529
0.336584 0.079225 0.000000
0.474922 0.017792 0.000000
0.613733 0.000000 0.000000
0.738491 0.000000 0.000000
0.844388 0.075166 0.000000
0.925658 0.162203 0.000000
0.985107 0.239261 0.000000
1.000000 0.314336 0.000000
1.000000 0.386450 0.000000
1.000000 0.453254 0.000000
1.000000 0.512657 0.000000
1.000000 0.563836 0.000000
1.000000 0.607935 0.000000
1.000000 0.645411 0.058808
1.000000 0.678889 0.206210
1.000000 0.710750 0.303136
1.000000 0.743038 0.395300
1.000000 0.775357 0.485054
1.000000 0.808133 0.573693
1.000000 0.840604 0.660670
0.015076 0.075593 0.067659
0.017243 0.075135 0.066529
0.022278 0.074128 0.065400
0.029511 0.072663 0.062928
0.044099 0.070436 0.059541
0.053437 0.065644 0.054414
0.059236 0.059968 0.055940
0.061372 0.060487 0.059266
0.064973 0.064027 0.062348
0.081209 0.071901 0.064576
0.128817 0.084596 0.057923
0.219150 0.104494 0.028901
0.350500 0.120821 0.000000
0.478157 0.122042 0.000000
0.606714 0.127047 0.000000
0.725582 0.145571 0.000000
0.830381 0.183017 0.000000
0.913115 0.233188 0.000000
0.975036 0.291997 0.000000
1.000000 0.355596 0.000000
1.000000 0.420233 0.000000
1.000000 0.481666 0.000000
1.000000 0.536889 0.000000
1.000000 0.585077 0.000000
1.000000 0.626520 0.000000
1.000000 0.661524 0.104005
1.000000 0.693202 0.225742
1.000000 0.723293 0.318853
1.000000 0.753658 0.408698
1.000000 0.784054 0.495369
1.000000 0.814725 0.581018
1.000000 0.845243 0.665003
0.009552 0.088289 0.076600
0.013062 0.087861 0.075624
0.017365 0.086793 0.073945
0.026703 0.084901 0.071229
0.041077 0.082033 0.067170
0.057618 0.077699 0.063386
0.062104 0.071260 0.060029
0.064973 0.064027 0.062348
0.068635 0.067628 0.065339
0.073152 0.071626 0.069154
0.094942 0.083284 0.073610
0.164736 0.103243 0.066346
0.290929 0.132052 0.025605
0.468482 0.176883 0.000000
0.595575 0.197024 0.000000
0.717220 0.224033 0.000000
0.825254 0.261479 0.000000
0.910338 0.305882 0.000000
0.972564 0.356420 0.000000
1.000000 0.410437 0.000000
1.000000 0.464912 0.000000
1.000000 0.516655 0.000000
1.000000 0.563561 0.000000
1.000000 0.605158 0.000000
1.000000 0.642145 0.000000
1.000000 0.675013 0.121553
1.000000 0.705409 0.237186
1.000000 0.735134 0.331090
1.000000 0.765133 0.422400
1.000000 0.795102 0.510765
1.000000 0.825162 0.597864
1.000000 0.854795 0.681758
0.000000 0.105104 0.087648
0.003052 0.104250 0.086275
0.007721 0.103151 0.084596
0.018250 0.101045 0.081086
0.035676 0.097322 0.076478
0.055756 0.092927 0.071534
0.065095 0.085512 0.067231
0.070771 0.076661 0.066041
0.072450 0.071382 0.068421
0.079042 0.076905 0.073274
0.087770 0.085054 0.079713
0.116030 0.101900 0.088014
0.207767 0.128817 0.077852
0.360418 0.167514 0.022187
0.553185 0.233005 0.000000
0.700313 0.285069 0.000000
0.809201 0.321508 0.000000
0.896300 0.361913 0.000000
0.961212 0.406043 0.000000
1.000000 0.454078 0.000000
1.000000 0.503716 0.000000
1.000000 0.551446 0.000000
1.000000 0.595270 0.000000
1.000000 0.634119 0.000000
1.000000 0.668208 0.000000
1.000000 0.697871 0.171450
1.000000 0.725368 0.270024
1.000000 0.752255 0.357641
1.000000 0.779355 0.443214
1.000000 0.806790 0.527520
1.000000 0.834684 0.611627
1.000000 0.862394 0.692988
0.000000 0.129122 0.104677
0.000000 0.128481 0.103120
0.000000 0.126986 0.100618
0.000793 0.124086 0.095857
0.021363 0.119905 0.089540
0.049897 0.114137 0.082734
0.067323 0.107332 0.077241
0.074861 0.096864 0.072450
0.082124 0.085817 0.074128
0.085817 0.083131 0.078309
0.095399 0.091798 0.085054
0.108034 0.103700 0.094636
0.190768 0.169192 0.148959
0.369818 0.230594 0.129183
0.590906 0.317296 0.039155
0.794705 0.423377 0.000000
0.923339 0.512932 0.000000
0.976959 0.543694 0.000000
1.000000 0.573480 0.000000
1.000000 0.604822 0.000000
1.000000 0.635828 0.000000
1.000000 0.665339 0.000000
1.000000 0.691768 0.000000
1.000000 0.716732 0.177127
1.000000 0.739681 0.264408
1.000000 0.760952 0.340734
1.000000 0.781033 0.411261
1.000000 0.800931 0.479744
1.000000 0.821225 0.547082
1.000000 0.842679 0.616510
1.000000 0.864561 0.685054
1.000000 0.886839 0.752377
0.000000 0.178714 0.145876
0.000000 0.177035 0.142550
0.000000 0.173953 0.137484
0.000000 0.170535 0.129671
0.000000 0.165988 0.119783
0.016266 0.159457 0.108339
0.064210 0.151064 0.097841
0.082979 0.137118 0.088563
0.092866 0.118959 0.083375
0.101045 0.101747 0.087678
0.109316 0.104921 0.095521
0.127718 0.122072 0.110719
0.153292 0.146456 0.134737
0.210056 0.194766 0.181888
0.407294 0.270207 0.169253
0.633173 0.366491 0.117617
0.827543 0.472847 0.000000
0.950134 0.570520 0.000000
0.999908 0.611109 0.000000
1.000000 0.638605 0.000000
1.000000 0.666590 0.000000
1.000000 0.693050 0.000000
1.000000 0.716823 0.112490
1.000000 0.738918 0.213382
1.000000 0.759060 0.291142
1.000000 0.777829 0.362188
1.000000 0.795865 0.430030
1.000000 0.813870 0.495613
1.000000 0.832425 0.561364
1.000000 0.852232 0.628717
1.000000 0.872740 0.696315
1.000000 0.893645 0.762203
0.000000 0.247807 0.214420
0.000000 0.246189 0.209598
0.000000 0.242710 0.202304
0.000000 0.236637 0.188754
0.000000 0.227024 0.169558
0.000000 0.214481 0.147707
0.022675 0.200687 0.127993
0.083345 0.185428 0.113344
0.100099 0.160220 0.098268
0.112642 0.135653 0.096223
0.116884 0.113649 0.100710
0.131991 0.125887 0.114443
0.155825 0.149081 0.137270
0.187167 0.180301 0.171817
0.242771 0.237705 0.241093
0.454658 0.321965 0.229892
0.675593 0.419318 0.190127
0.855161 0.520714 0.104097
0.964782 0.613092 0.000000
1.000000 0.673243 0.000000
1.000000 0.698848 0.000000
1.000000 0.723079 0.047700
1.000000 0.744503 0.177554
1.000000 0.764340 0.258885
1.000000 0.782193 0.330724
1.000000 0.798703 0.397559
1.000000 0.814511 0.461219
1.000000 0.830503 0.523857
1.000000 0.847166 0.586725
1.000000 0.865141 0.651820
1.000000 0.883879 0.716915
1.000000 0.902800 0.779232
0.000000 0.333898 0.310033
0.000000 0.332189 0.304295
0.000000 0.327062 0.293767
0.000000 0.317418 0.273167
0.000000 0.303349 0.244327
0.000000 0.284977 0.209598
0.000000 0.265782 0.177523
0.056367 0.244511 0.150210
0.103243 0.217624 0.127535
0.120821 0.185061 0.111696
0.135409 0.153597 0.113558
0.136629 0.130434 0.118746
0.159731 0.152773 0.141390
0.189487 0.182773 0.174685
0.226169 0.221378 0.221622
0.284428 0.285832 0.304540
0.500969 0.376928 0.302464
0.717098 0.474739 0.271855
0.882597 0.572778 0.223636
0.978943 0.659968 0.158907
1.000000 0.729702 0.006439
1.000000 0.752804 0.152865
1.000000 0.771664 0.232090
1.000000 0.788998 0.303716
1.000000 0.804868 0.371618
1.000000 0.819944 0.436774
1.000000 0.834897 0.500938
1.000000 0.850278 0.564508
1.000000 0.866484 0.629419
1.000000 0.883604 0.694850
1.000000 0.901030 0.758175
1.000000 0.918090 0.815763
0.000000 0.428779 0.416999
0.000000 0.427100 0.411231
0.000000 0.423468 0.402502
0.000000 0.413916 0.381109
0.000000 0.399908 0.350011
0.000000 0.381292 0.309606
0.000000 0.360327 0.266819
0.000000 0.335851 0.223819
0.088746 0.308293 0.189609
0.131106 0.265110 0.153201
0.149477 0.219608 0.134890
0.162997 0.176394 0.138796
0.164858 0.157931 0.146761
0.191806 0.185092 0.177371
0.224765 0.219821 0.219699
0.263890 0.262852 0.274815
0.324743 0.331792 0.363806
0.539544 0.428931 0.376715
0.756161 0.531212 0.359167
0.908568 0.629450 0.335058
0.991760 0.712612 0.309819
1.000000 0.774777 0.283757
1.000000 0.804929 0.306249
1.000000 0.819821 0.372168
1.000000 0.833371 0.435370
1.000000 0.846372 0.497444
1.000000 0.859159 0.557305
1.000000 0.872374 0.617395
1.000000 0.886198 0.677241
1.000000 0.900389 0.735378
1.000000 0.914549 0.789609
1.000000 0.928466 0.838499
0.000000 0.518578 0.514000
0.000000 0.516381 0.508934
0.000000 0.511376 0.498909
0.000000 0.501762 0.478767
0.000000 0.487678 0.448280
0.000000 0.468666 0.407446
0.000000 0.447211 0.361395
0.000000 0.422034 0.311864
0.000000 0.391974 0.263828
0.123445 0.352331 0.218265
0.159335 0.298436 0.175875
0.180880 0.244724 0.163546
0.186587 0.193942 0.164706
0.194247 0.187686 0.180362
0.225925 0.221103 0.221256
0.262943 0.261814 0.273381
0.305821 0.310216 0.336095
0.370245 0.383215 0.428840
0.581994 0.485512 0.456367
0.792111 0.588586 0.449317
0.927031 0.682338 0.439734
0.997650 0.757443 0.430304
1.000000 0.809873 0.419562
1.000000 0.842405 0.417487
1.000000 0.854337 0.478553
1.000000 0.865660 0.537377
1.000000 0.877195 0.596490
1.000000 0.888914 0.654322
1.000000 0.901152 0.711818
1.000000 0.913634 0.766354
1.000000 0.925994 0.815915
1.000000 0.938079 0.859953
0.000000 0.616083 0.611261
0.000000 0.616144 0.608301
0.000000 0.718868 0.698543
0.000000 0.709163 0.681727
0.000000 0.693355 0.654383
0.000000 0.671901 0.617090
0.000000 0.645014 0.569543
0.000000 0.612940 0.513329
0.000000 0.575402 0.451270
0.080537 0.532738 0.392248
0.188174 0.468605 0.316808
0.222904 0.394415 0.257755
0.244724 0.314824 0.240146
0.235721 0.240513 0.228580
0.254459 0.252384 0.261173
0.294285 0.297093 0.319127
0.339788 0.348760 0.385565
0.390631 0.406043 0.456947
0.462776 0.484565 0.548394
0.670680 0.590509 0.585016
0.853941 0.686213 0.584222
0.954192 0.765072 0.583551
1.000000 0.821225 0.582788
1.000000 0.857481 0.580224
1.000000 0.880064 0.572015
1.000000 0.889830 0.602655
1.000000 0.897185 0.648798
1.000000 0.905516 0.696284
1.000000 0.915038 0.745571
1.000000 0.925292 0.793820
1.000000 0.935760 0.838376
1.000000 0.945983 0.876921
0.000000 0.734218 0.718502
0.000000 0.745235 0.725734
0.000000 0.754849 0.730556
0.000000 0.759060 0.727687
0.000000 0.755276 0.713588
0.000000 0.741482 0.686275
0.000000 0.720150 0.648157
0.000000 0.692683 0.600763
0.000000 0.659602 0.545739
0.000000 0.620172 0.487068
0.177371 0.570733 0.425879
0.232425 0.497261 0.344396
0.256779 0.417090 0.288792
0.273991 0.331334 0.276493
0.252842 0.251652 0.257694
0.287572 0.289433 0.309178
0.330358 0.338048 0.371893
0.378759 0.392737 0.440711
0.433967 0.453651 0.513451
0.509850 0.533684 0.601495
0.705776 0.641047 0.648096
0.874174 0.734340 0.656367
0.960021 0.805661 0.664302
1.000000 0.853025 0.670680
1.000000 0.882536 0.673640
1.000000 0.901396 0.673793
1.000000 0.912505 0.687556
1.000000 0.919585 0.732509
1.000000 0.927520 0.777554
1.000000 0.936065 0.820493
1.000000 0.944762 0.859464
1.000000 0.953338 0.893217
0.000000 0.804105 0.778195
0.000000 0.812589 0.783200
0.000000 0.820676 0.787442
0.000000 0.824033 0.784848
0.000000 0.820798 0.773129
0.000000 0.810239 0.751980
0.000000 0.792599 0.720729
0.000000 0.770077 0.681849
0.000000 0.742000 0.635004
0.000000 0.707668 0.582422
0.135134 0.666682 0.528954
0.240818 0.605463 0.455329
0.277806 0.527764 0.378973
0.300389 0.441444 0.335943
0.303349 0.349950 0.316930
0.285466 0.287175 0.306188
0.326513 0.333776 0.366339
0.373480 0.386908 0.433417
0.427008 0.446113 0.504692
0.488136 0.511223 0.577600
0.567102 0.591882 0.660853
0.746975 0.698299 0.714717
0.893980 0.784604 0.728695
0.964599 0.844480 0.740932
0.998322 0.882017 0.749966
1.000000 0.905455 0.756466
1.000000 0.920684 0.760952
1.000000 0.931304 0.765438
1.000000 0.937896 0.803616
1.000000 0.944854 0.841794
1.000000 0.952117 0.876219
1.000000 0.959289 0.906004
0.000000 0.865354 0.828489
0.000000 0.872313 0.832700
0.000000 0.878721 0.835874
0.000000 0.881346 0.833860
0.000000 0.878904 0.824735
0.000000 0.870817 0.808499
0.000000 0.857084 0.784176
0.000000 0.838773 0.752407
0.000000 0.815793 0.713985
0.000000 0.787320 0.668879
0.000000 0.752285 0.619837
0.255039 0.706844 0.567620
0.298619 0.636957 0.486397
0.322332 0.555993 0.415747
0.341863 0.464668 0.383642
0.333043 0.370642 0.360540
0.328679 0.336156 0.369421
0.378576 0.392523 0.440375
0.436805 0.456764 0.516991
0.503563 0.527245 0.594720
0.577050 0.601831 0.670619
0.663600 0.686976 0.750668
0.813382 0.784451 0.804898
0.923125 0.853178 0.821775
0.972381 0.895323 0.835569
0.994842 0.920562 0.846403
1.000000 0.936217 0.855192
1.000000 0.946654 0.863035
1.000000 0.954131 0.870817
1.000000 0.959533 0.889342
1.000000 0.964599 0.913603
1.000000 0.969726 0.934569
0.000000 0.942412 0.891142
0.000000 0.943908 0.891264
0.000000 0.944701 0.890532
0.000000 0.943145 0.886229
0.000000 0.938933 0.877897
0.000000 0.931548 0.864744
0.000000 0.921569 0.847105
0.000000 0.908598 0.824155
0.000000 0.892851 0.796353
0.000000 0.873045 0.763363
0.063386 0.847807 0.725216
0.287083 0.814603 0.683040
0.357153 0.764767 0.623346
0.379492 0.695766 0.550103
0.389563 0.611872 0.485542
0.403571 0.514214 0.460700
0.380865 0.413581 0.431403
0.393957 0.409735 0.461463
0.451728 0.472786 0.535210
0.516747 0.540826 0.608972
0.586664 0.611414 0.679988
0.658656 0.682216 0.746334
0.733730 0.754665 0.809903
0.848386 0.833005 0.854612
0.935241 0.885954 0.867857
0.974182 0.918212 0.879515
0.992126 0.937835 0.889677
1.000000 0.950378 0.898833
1.000000 0.958862 0.907256
1.000000 0.964996 0.915282
1.000000 0.969696 0.925444
1.000000 0.973938 0.943420
0.000000 0.976684 0.919371
0.000000 0.977966 0.919738
0.000000 0.978790 0.919524
0.000000 0.977539 0.916289
0.000000 0.974426 0.910399
0.000000 0.968658 0.900572
0.000000 0.960723 0.887236
0.000000 0.950408 0.869749
0.000000 0.937896 0.848325
0.000000 0.922362 0.822324
0.117769 0.903197 0.792172
0.305913 0.878202 0.757321
0.407904 0.845518 0.719539
0.428504 0.793942 0.653895
0.439033 0.727199 0.588373
0.448737 0.643397 0.540734
0.451148 0.546319 0.516960
0.418341 0.444739 0.487129
0.456672 0.478035 0.541100
0.522423 0.546624 0.615015
0.593652 0.618341 0.686641
0.666621 0.689906 0.753292
0.735042 0.755917 0.810971
0.799039 0.817288 0.861662
0.870817 0.864347 0.886229
0.943175 0.907683 0.898039
0.975433 0.934051 0.908995
0.990356 0.950072 0.918700
0.997864 0.960418 0.927489
1.000000 0.967559 0.935607
1.000000 0.972869 0.943542
1.000000 0.977111 0.951415
0.000000 1.000000 0.949889
0.000000 1.000000 0.950317
0.000000 1.000000 0.949859
0.000000 1.000000 0.947265
0.000000 1.000000 0.942748
0.000000 1.000000 0.935821
0.000000 0.997345 0.926055
0.000000 0.988830 0.913390
0.000000 0.978363 0.897429
0.000000 0.965545 0.877775
0.242588 0.949798 0.854124
0.366369 0.930480 0.826444
0.453773 0.906065 0.795010
0.499001 0.872221 0.751919
0.498787 0.821927 0.688411
0.495369 0.754513 0.625544
0.500969 0.667689 0.587823
0.489265 0.568475 0.560449
0.449165 0.470069 0.532158
0.513909 0.537896 0.605921
0.585046 0.609796 0.678431
0.658045 0.681575 0.745785
0.726101 0.747341 0.803677
0.784054 0.802914 0.850034
0.833707 0.850492 0.888365
0.897368 0.897795 0.918120
0.953185 0.930571 0.927733
0.977783 0.949889 0.936278
0.989532 0.961883 0.944121
0.995727 0.969818 0.951354
0.999237 0.975494 0.958190
1.000000 0.979858 0.964782
0.000000 1.000000 0.963378
0.000000 1.000000 0.963592
0.000000 1.000000 0.963287
0.000000 1.000000 0.961517
0.000000 1.000000 0.958038
0.000000 1.000000 0.953033
0.000000 1.000000 0.946288
0.000000 1.000000 0.937407
0.000000 1.000000 0.926299
0.197910 0.990356 0.912871
0.339513 0.978698 0.896666
0.439185 0.964752 0.877867
0.517144 0.947784 0.856077
0.578637 0.926207 0.831083
0.586267 0.896330 0.787228
0.579431 0.853849 0.733974
0.570123 0.795132 0.682033
0.575830 0.715938 0.657557
0.555901 0.621820 0.633387
0.535607 0.560082 0.628870
0.606531 0.631098 0.698878
0.678187 0.701137 0.763363
0.743771 0.764309 0.818082
0.799161 0.817380 0.861753
0.842954 0.859312 0.895415
0.878660 0.893248 0.922332
0.922545 0.927062 0.944579
0.963012 0.950530 0.952209
0.980957 0.964294 0.959106
0.989837 0.972869 0.965240
0.994812 0.978668 0.970703
0.997864 0.982879 0.975677
0.000000 1.000000 0.975006
0.000000 1.000000 0.975036
0.000000 1.000000 0.974548
0.000000 1.000000 0.973114
0.000000 1.000000 0.970489
0.000000 1.000000 0.966735
0.000000 1.000000 0.961761
0.000000 1.000000 0.955261
0.181430 1.000000 0.947326
0.325689 1.000000 0.937926
0.426703 0.996826 0.926726
0.510948 0.986023 0.914031
0.580468 0.973449 0.899138
0.636103 0.958373 0.881865
0.670008 0.939635 0.859098
0.661341 0.914031 0.818967
0.650568 0.877745 0.774563
0.643336 0.826474 0.736751
0.642969 0.755947 0.717494
0.617517 0.669490 0.696468
0.620539 0.644923 0.711940
0.690761 0.713283 0.774136
0.754269 0.774350 0.826474
0.807675 0.825528 0.868345
0.849699 0.865751 0.900542
0.882261 0.896635 0.925017
0.908690 0.921447 0.944427
0.939452 0.945861 0.960937
0.969574 0.962921 0.966735
0.983429 0.973144 0.972137
0.990631 0.979614 0.976806
0.994873 0.984100 0.980957
0.000000 1.000000 0.982330
0.000000 1.000000 0.982238
0.000000 1.000000 0.981811
0.000000 1.000000 0.980804
0.000000 1.000000 0.979065
0.000000 1.000000 0.976715
0.068147 1.000000 0.973846
0.280552 1.000000 0.970336
0.399237 1.000000 0.966217
0.497322 1.000000 0.961608
0.581659 1.000000 0.956390
0.652308 1.000000 0.950469
0.709651 0.992523 0.943694
0.754116 0.983734 0.935851
0.787320 0.973907 0.926482
0.793942 0.962371 0.909361
0.786404 0.946624 0.884825
0.777401 0.924163 0.858061
0.775601 0.891112 0.839597
0.770596 0.844388 0.827390
0.746548 0.780514 0.813596
0.769223 0.788663 0.838346
0.819608 0.836973 0.877531
0.859403 0.875029 0.907897
0.890196 0.904143 0.930907
0.913878 0.926268 0.948180
0.932036 0.942992 0.961028
0.946349 0.955993 0.970825
0.962371 0.968627 0.979248
0.979339 0.977661 0.982208
0.987976 0.983398 0.985107
0.993011 0.987243 0.987640
0.048829 1.000000 0.990326
0.121828 1.000000 0.990204
0.163577 1.000000 0.989837
0.217319 1.000000 0.989136
0.280980 1.000000 0.987884
0.347875 1.000000 0.986206
0.416938 1.000000 0.984161
0.486793 1.000000 0.981659
0.555322 1.000000 0.978668
0.619745 1.000000 0.975280
0.677272 1.000000 0.971435
0.727443 1.000000 0.967163
0.768978 0.998810 0.962341
0.802335 0.992248 0.956909
