data/fiter_cube/26597975/1022845/file.cube
# Created by Adobe Lightroom plugin Export LUT (1.17.0)
# www.johnrellis.com/lightroom/exportlut.htm
# Preset:  城市电影胶片_01 云集
# Color profile: C:\Program Files (x86)\Common Files\Adobe\Color\Profiles\Recommended\AdobeRGB1998.icc
LUT_3D_SIZE 5
DOMAIN_MIN 0.000000 0.000000 0.000000
DOMAIN_MAX 0.903226 0.903226 0.903226
0.018555 0.018555 0.018555
0.088472 0.039338 0.021942
0.624598 0.000000 0.000000
1.000000 0.346349 0.000000
1.000000 0.661158 0.223484
0.018311 0.065644 0.059815
0.057649 0.057160 0.054688
0.613733 0.000000 0.000000
1.000000 0.453254 0.000000
1.000000 0.743038 0.395300
0.000000 0.333898 0.310033
0.056367 0.244511 0.150210
0.226169 0.221378 0.221622
1.000000 0.752804 0.152865
1.000000 0.866484 0.629419
0.000000 0.942412 0.891142
0.000000 0.908598 0.824155
0.389563 0.611872 0.485542
0.658656 0.682216 0.746334
1.000000 0.958862 0.907256
0.333165 1.000000 0.993439
0.587304 1.000000 0.987091
0.827329 0.990417 0.957855
0.860227 0.897887 0.901274
0.962676 0.970459 0.981384
0.030945 0.032197 0.038758
0.059693 0.052308 0.053407
0.536645 0.000000 0.000000
1.000000 0.256321 0.000000
1.000000 0.658991 0.335790
0.024079 0.055543 0.070253
0.070527 0.068940 0.066743
0.524163 0.000000 0.000000
1.000000 0.395605 0.000000
1.000000 0.721584 0.427741
0.000000 0.323369 0.390845
0.000000 0.293614 0.235630
0.215244 0.209567 0.206882
1.000000 0.701930 0.246433
1.000000 0.869902 0.684504
0.000000 0.945830 0.918547
0.000000 0.930602 0.874968
0.432502 0.679866 0.567407
0.670192 0.693416 0.756466
1.000000 0.960174 0.913024
0.284123 1.000000 0.995880
0.566644 1.000000 0.991302
0.861418 0.994049 0.972076
0.886473 0.924437 0.922148
0.966125 0.973388 0.983490
0.069612 0.073152 0.093172
0.089418 0.084565 0.086091
0.216464 0.164218 0.178408
1.000000 0.000000 0.363104
1.000000 0.760983 0.703120
0.070527 0.101534 0.147707
0.125277 0.125795 0.142855
0.311254 0.186069 0.237827
1.000000 0.393896 0.424475
1.000000 0.801633 0.738338
0.000000 0.208804 0.591150
0.000000 0.265782 0.591485
0.329931 0.337591 0.371283
0.989380 0.723262 0.598352
1.000000 0.894713 0.834379
0.000000 0.852079 0.967834
0.000000 0.894804 0.947295
0.527642 0.860685 0.816464
0.737240 0.758053 0.812772
1.000000 0.964508 0.931518
0.000000 1.000000 0.999603
0.495674 1.000000 0.997284
0.837400 1.000000 0.987884
0.903532 0.957061 0.940978
0.964660 0.972168 0.982605
0.114229 0.223880 0.476173
0.226688 0.253422 0.443488
0.308965 0.313787 0.340673
0.637720 0.575891 0.686030
1.000000 0.832425 0.912261
0.116152 0.327764 0.619104
0.273808 0.351293 0.585901
0.366003 0.378454 0.422919
0.690761 0.588647 0.714015
1.000000 0.836271 0.907591
0.000000 0.422705 0.816983
0.140963 0.483406 0.805356
0.556085 0.602472 0.729274
0.840574 0.670893 0.789761
1.000000 0.909026 0.931762
0.000000 0.671382 0.992859
0.000000 0.721492 0.987579
0.660670 0.848600 0.974548
0.820951 0.838285 0.878569
0.996368 0.966644 0.963806
0.000000 0.940551 1.000000
0.482918 0.966400 1.000000
0.843809 0.990845 0.997650
0.944579 0.989044 0.986816
0.969421 0.976226 0.985473
0.659724 0.720577 0.938048
0.695247 0.729458 0.925048
0.754025 0.757412 0.868589
0.748165 0.768521 0.821622
0.933532 0.936645 0.959319
0.687129 0.765347 0.951293
0.729488 0.776394 0.942657
0.783536 0.789029 0.896117
0.766873 0.786435 0.836515
0.940032 0.939635 0.962768
0.637598 0.801846 0.980224
0.715724 0.832303 0.975463
0.855344 0.881193 0.958007
0.845975 0.862211 0.897704
0.957427 0.950561 0.972564
0.582391 0.839963 1.000000
0.674708 0.864805 0.999054
0.855467 0.922789 0.990814
0.949096 0.960357 0.980987
0.977874 0.969360 0.984619
0.527916 0.890227 1.000000
0.650141 0.910796 1.000000
0.872862 0.956237 1.000000
0.963745 0.982879 0.997711
0.978210 0.983551 0.990417
