data/fiter_cube/26597975/1022845/file.cube
# Created by Adobe Lightroom plugin Export LUT (1.17.0)
# www.johnrellis.com/lightroom/exportlut.htm
# Preset:  城市电影胶片_01 云集
# Color profile: C:\Program Files (x86)\Common Files\Adobe\Color\Profiles\Recommended\AdobeRGB1998.icc
LUT_3D_SIZE 8
DOMAIN_MIN 0.000000 0.000000 0.000000
DOMAIN_MAX 0.903226 0.903226 0.903226
0.018555 0.018555 0.018555
0.046265 0.024445 0.020600
0.113893 0.041566 0.020935
0.392950 0.000000 0.000000
0.900511 0.000000 0.000000
1.000000 0.270268 0.000000
1.000000 0.498787 0.000000
1.000000 0.661158 0.223484
0.020020 0.034241 0.032380
0.032227 0.032227 0.032227
0.100832 0.057649 0.025299
0.330571 0.000000 0.000000
0.830137 0.000000 0.000000
1.000000 0.230320 0.000000
1.000000 0.482429 0.000000
1.000000 0.654963 0.182712
0.015076 0.075593 0.067659
0.044099 0.070436 0.059541
0.064973 0.064027 0.062348
0.350500 0.120821 0.000000
0.830381 0.183017 0.000000
1.000000 0.420233 0.000000
1.000000 0.626520 0.000000
1.000000 0.753658 0.408698
0.000000 0.178714 0.145876
0.000000 0.165988 0.119783
0.092866 0.118959 0.083375
0.153292 0.146456 0.134737
0.827543 0.472847 0.000000
1.000000 0.666590 0.000000
1.000000 0.759060 0.291142
1.000000 0.832425 0.561364
0.000000 0.518578 0.514000
0.000000 0.487678 0.448280
0.000000 0.391974 0.263828
0.186587 0.193942 0.164706
0.305821 0.310216 0.336095
0.927031 0.682338 0.439734
1.000000 0.854337 0.478553
1.000000 0.901152 0.711818
0.000000 0.865354 0.828489
0.000000 0.878904 0.824735
0.000000 0.815793 0.713985
0.298619 0.636957 0.486397
0.328679 0.336156 0.369421
0.577050 0.601831 0.670619
0.972381 0.895323 0.835569
1.000000 0.954131 0.870817
0.000000 1.000000 0.963378
0.000000 1.000000 0.958038
0.000000 1.000000 0.926299
0.517144 0.947784 0.856077
0.570123 0.795132 0.682033
0.606531 0.631098 0.698878
0.842954 0.859312 0.895415
0.980957 0.964294 0.959106
0.333165 1.000000 0.993439
0.428748 1.000000 0.991547
0.643885 1.000000 0.985046
0.821469 1.000000 0.975067
0.861234 0.977691 0.944793
0.863035 0.925017 0.904387
0.909606 0.922301 0.945098
0.962676 0.970459 0.981384
0.023987 0.024414 0.026581
0.031617 0.030060 0.030243
0.095705 0.041169 0.032929
0.306035 0.000000 0.009491
0.793271 0.000000 0.000000
1.000000 0.096986 0.000000
1.000000 0.443641 0.000000
1.000000 0.628565 0.174441
0.021546 0.027985 0.036103
0.037110 0.037110 0.037110
0.092531 0.057313 0.038178
0.289647 0.000000 0.014191
0.756924 0.000000 0.000000
1.000000 0.132174 0.000000
1.000000 0.435767 0.000000
1.000000 0.619287 0.115572
0.016724 0.073884 0.070863
0.045014 0.073671 0.065217
0.068635 0.067628 0.065339
0.298436 0.113527 0.015869
0.729763 0.111360 0.000000
1.000000 0.341650 0.000000
1.000000 0.556634 0.000000
1.000000 0.710811 0.319829
0.000000 0.170626 0.149844
0.000000 0.165438 0.128511
0.094026 0.123140 0.086366
0.132937 0.126894 0.115358
0.665217 0.343542 0.000000
1.000000 0.550744 0.000000
1.000000 0.689723 0.128878
1.000000 0.795804 0.470222
0.000000 0.512108 0.527794
0.000000 0.476387 0.457893
0.000000 0.376471 0.264958
0.176394 0.186343 0.153231
0.266361 0.265507 0.278202
0.884581 0.620264 0.368750
1.000000 0.829099 0.422827
1.000000 0.886259 0.668879
0.000000 0.838285 0.817258
0.000000 0.824399 0.790066
0.000000 0.760525 0.674159
0.268132 0.600305 0.457496
0.310887 0.316014 0.343511
0.560479 0.585199 0.654231
0.969390 0.885771 0.820737
1.000000 0.949126 0.851957
0.000000 1.000000 0.956359
0.000000 1.000000 0.946166
0.000000 0.985199 0.911040
0.441108 0.934234 0.836728
0.545617 0.780117 0.664698
0.572290 0.597070 0.665949
0.812741 0.830411 0.872251
0.978241 0.956146 0.947295
0.165133 1.000000 0.993378
0.335546 1.000000 0.991638
0.595697 1.000000 0.984863
0.800778 1.000000 0.974060
0.885435 0.981506 0.956725
0.874235 0.933593 0.913878
0.904692 0.917723 0.941527
0.959228 0.967437 0.979217
0.035401 0.037079 0.045808
0.042908 0.041749 0.044160
0.068635 0.061463 0.062440
0.276036 0.000000 0.061830
0.819150 0.000000 0.000000
1.000000 0.218601 0.000000
1.000000 0.520562 0.172763
1.000000 0.695583 0.441566
0.039033 0.046540 0.056825
0.053407 0.054200 0.058320
0.078492 0.063539 0.066163
0.290166 0.000000 0.061372
0.766964 0.000000 0.000000
1.000000 0.229557 0.000000
1.000000 0.517357 0.142367
1.000000 0.696284 0.429755
0.023102 0.064393 0.083742
0.041596 0.069978 0.085939
0.083528 0.081270 0.076570
0.311742 0.122316 0.072602
0.770169 0.171511 0.000000
1.000000 0.401160 0.000000
1.000000 0.605921 0.241581
1.000000 0.750118 0.501213
0.000000 0.179171 0.254093
0.000000 0.202731 0.239414
0.110780 0.190799 0.140108
0.172122 0.165164 0.154665
0.750118 0.434333 0.097749
1.000000 0.601373 0.189029
1.000000 0.738582 0.411200
1.000000 0.832364 0.630915
0.000000 0.515953 0.623743
0.000000 0.530877 0.599054
0.000000 0.483284 0.436500
0.230014 0.280797 0.224277
0.329595 0.337224 0.370794
0.913268 0.684413 0.481147
1.000000 0.847807 0.571160
1.000000 0.901793 0.757900
0.000000 0.847868 0.864836
0.000000 0.856840 0.855436
0.000000 0.817044 0.770382
0.301244 0.676783 0.573480
0.335943 0.347509 0.377356
0.573999 0.598779 0.667659
0.968933 0.890959 0.832761
1.000000 0.954711 0.881651
0.000000 1.000000 0.970703
0.000000 1.000000 0.967407
0.000000 1.000000 0.942962
0.456916 0.951934 0.876677
0.587640 0.824521 0.723171
0.589654 0.614374 0.682856
0.838926 0.855467 0.892332
0.981445 0.965148 0.960204
0.108919 1.000000 0.995575
0.268040 1.000000 0.994690
0.557061 1.000000 0.989441
0.798215 1.000000 0.979767
0.888975 0.984558 0.963775
0.885100 0.946258 0.924834
0.909667 0.922362 0.945159
0.963134 0.970825 0.981659
0.058625 0.060456 0.072175
0.065431 0.064027 0.072145
0.074495 0.072908 0.070161
0.137697 0.107942 0.108553
0.623926 0.000000 0.151095
1.000000 0.000000 0.205295
1.000000 0.522606 0.393133
1.000000 0.721736 0.596796
0.065370 0.071839 0.085267
0.074128 0.075105 0.084565
0.084688 0.082368 0.077424
0.164004 0.115938 0.122530
0.652125 0.000000 0.144198
1.000000 0.151553 0.212924
1.000000 0.533867 0.392096
1.000000 0.727138 0.595666
0.053223 0.081514 0.113466
0.068330 0.088380 0.114168
0.116548 0.114199 0.113222
0.249943 0.128817 0.146914
0.743984 0.151766 0.193912
1.000000 0.436683 0.331212
1.000000 0.682734 0.545586
1.000000 0.803433 0.693812
0.000000 0.136355 0.350683
0.000000 0.147707 0.353155
0.000000 0.208804 0.339574
0.223850 0.218692 0.218296
0.711666 0.429114 0.287266
0.988647 0.603296 0.419776
1.000000 0.762020 0.596429
1.000000 0.860441 0.760342
0.000000 0.458656 0.794125
0.000000 0.486488 0.765530
0.000000 0.569665 0.677394
0.311284 0.479408 0.438453
0.413123 0.430915 0.486885
0.940642 0.762448 0.613519
1.000000 0.872801 0.732357
1.000000 0.918822 0.845579
0.000000 0.837644 0.931975
0.000000 0.871366 0.933776
0.000000 0.896025 0.901823
0.343999 0.829709 0.778470
0.476051 0.543999 0.553338
0.656397 0.679988 0.744350
0.974243 0.915007 0.873899
1.000000 0.960296 0.918334
0.000000 1.000000 0.983062
0.000000 1.000000 0.981598
0.000000 1.000000 0.975189
0.553399 0.985687 0.945373
0.722835 0.912474 0.857816
0.645960 0.669825 0.735073
0.865446 0.880705 0.912413
0.983917 0.970275 0.966857
0.257298 1.000000 0.998444
0.378546 1.000000 0.997772
0.594537 1.000000 0.995422
0.790311 1.000000 0.988983
0.893034 0.990478 0.975463
0.903685 0.963958 0.944152
0.913359 0.925780 0.947784
0.966796 0.973999 0.983886
0.084718 0.092866 0.133791
0.096712 0.097536 0.131411
0.119631 0.110628 0.115084
0.140841 0.134279 0.122530
0.322087 0.252079 0.305150
0.883238 0.131930 0.503014
1.000000 0.462409 0.607233
1.000000 0.772946 0.781338
0.092287 0.111147 0.165438
0.108370 0.117128 0.166201
0.137484 0.127810 0.139376
0.155032 0.148257 0.136538
0.348699 0.258732 0.325689
0.898283 0.174594 0.507042
1.000000 0.511711 0.625208
1.000000 0.789670 0.789670
0.033539 0.144381 0.263615
0.088502 0.161257 0.273564
0.181003 0.192538 0.253941
0.206363 0.200320 0.195499
0.437873 0.280797 0.383459
0.927092 0.255680 0.481910
1.000000 0.631067 0.659205
1.000000 0.824399 0.800351
0.000000 0.183963 0.452247
0.000000 0.196872 0.446571
0.094148 0.248997 0.433234
0.306950 0.326452 0.384985
0.631739 0.388342 0.462593
0.955901 0.589776 0.595819
1.000000 0.773129 0.734371
1.000000 0.868803 0.833921
0.000000 0.329290 0.796323
0.000000 0.352697 0.798611
0.000000 0.426276 0.795865
0.253300 0.584100 0.716915
0.466163 0.488136 0.552361
0.926848 0.758145 0.677516
1.000000 0.862303 0.795956
1.000000 0.918364 0.881743
0.000000 0.632715 0.969879
0.000000 0.670314 0.963867
0.000000 0.764309 0.937438
0.220218 0.847623 0.884825
0.549035 0.715389 0.691951
0.683467 0.706264 0.767910
0.979797 0.928344 0.892973
1.000000 0.961181 0.938079
0.000000 0.943297 0.995911
0.000000 0.952361 0.993683
0.000000 0.975250 0.986694
0.536767 0.988922 0.975158
0.740200 0.956725 0.930785
0.732540 0.784695 0.801053
0.873198 0.888090 0.918273
0.986175 0.971954 0.967712
0.000000 1.000000 1.000000
0.235813 1.000000 1.000000
0.518669 1.000000 0.998077
0.768154 1.000000 0.994873
0.877989 0.998077 0.987213
0.924132 0.977905 0.966979
0.903136 0.916258 0.940398
0.966369 0.973602 0.983642
0.107027 0.197208 0.415595
0.147066 0.204196 0.402502
0.226444 0.229831 0.359258
0.270207 0.269932 0.283879
0.324559 0.331518 0.363500
0.586145 0.518730 0.631556
0.974853 0.645228 0.825620
1.000000 0.820829 0.896391
0.114076 0.219547 0.442298
0.149599 0.223911 0.433448
0.232303 0.243412 0.384314
0.273899 0.273411 0.291417
0.324010 0.330816 0.362646
0.593896 0.511620 0.630854
0.975891 0.644160 0.821408
1.000000 0.820279 0.893370
0.030182 0.331914 0.622004
0.154604 0.344762 0.612146
0.296056 0.361212 0.566094
0.362280 0.368872 0.452949
0.385534 0.400397 0.450019
0.680507 0.553216 0.689021
0.984833 0.694972 0.836240
1.000000 0.850523 0.903380
0.000000 0.386328 0.755093
0.000000 0.401465 0.745418
0.279820 0.468635 0.731167
0.504631 0.555352 0.701564
0.519493 0.543603 0.611872
0.823392 0.663416 0.787839
0.995819 0.790982 0.866972
1.000000 0.906065 0.929076
0.000000 0.438178 0.857603
0.000000 0.459205 0.856016
0.070863 0.524407 0.846555
0.446174 0.611322 0.822019
0.625727 0.662226 0.748592
0.895659 0.755673 0.805631
0.991424 0.879057 0.889036
1.000000 0.934508 0.937133
0.000000 0.594446 0.973754
0.000000 0.623011 0.975036
0.000000 0.688808 0.971649
0.480842 0.774472 0.963897
0.679622 0.867185 0.921202
0.768612 0.788113 0.837919
0.980438 0.938537 0.925017
0.998566 0.963073 0.958404
0.000000 0.784939 1.000000
0.000000 0.807767 1.000000
0.362127 0.887419 1.000000
0.661280 0.949157 0.993378
0.809934 0.973816 0.981262
0.864286 0.934203 0.927611
0.902953 0.916075 0.940246
0.990631 0.979339 0.976684
0.000000 0.967407 1.000000
0.262821 0.973236 1.000000
0.535119 0.986358 1.000000
0.761563 0.994049 0.998535
0.878874 0.996612 0.994751
0.932097 0.990082 0.986236
0.927550 0.948699 0.955505
0.969146 0.975982 0.985290
0.298283 0.420417 0.755795
0.338781 0.435584 0.753841
0.415076 0.455665 0.714748
0.480323 0.488746 0.639277
0.483314 0.506126 0.572107
0.586664 0.611414 0.679988
0.807248 0.776394 0.848692
0.983703 0.883513 0.949035
0.307988 0.438575 0.760616
0.335271 0.444160 0.757382
0.411780 0.460670 0.719417
0.472175 0.482002 0.637842
0.473304 0.495674 0.560662
0.565209 0.589960 0.658930
0.792844 0.752193 0.832944
0.983276 0.870054 0.942382
0.366308 0.547997 0.846738
0.405585 0.556207 0.841306
0.493324 0.570031 0.814084
0.554192 0.572961 0.743374
0.543206 0.567773 0.636683
0.613703 0.638209 0.705623
0.838926 0.786679 0.864622
0.986084 0.894224 0.951904
0.371984 0.624720 0.915404
0.411841 0.635889 0.910246
0.542321 0.685451 0.898466
0.673243 0.720089 0.868711
0.677272 0.694270 0.774838
0.703609 0.725704 0.785031
0.894621 0.837339 0.904448
0.989319 0.917327 0.960052
0.244999 0.640803 0.952667
0.304112 0.651667 0.949157
0.464698 0.696681 0.940124
0.649104 0.765743 0.926299
0.773251 0.804898 0.891478
0.755642 0.775662 0.827573
0.927764 0.863767 0.922179
0.992645 0.935576 0.964508
0.000000 0.690974 0.985901
0.203464 0.706569 0.984588
0.433692 0.755398 0.979614
0.648066 0.820920 0.971405
0.794827 0.869780 0.958373
0.871824 0.891539 0.929198
0.965270 0.926909 0.950134
0.993744 0.966644 0.976013
0.177554 0.799619 1.000000
0.301305 0.815457 1.000000
0.516808 0.855894 1.000000
0.723995 0.902708 0.998169
0.854490 0.937316 0.993164
0.915251 0.964782 0.984466
0.925780 0.937255 0.956634
0.991485 0.980896 0.982605
0.268681 0.871977 1.000000
0.359106 0.881743 1.000000
0.585901 0.912993 1.000000
0.782406 0.947204 1.000000
0.899046 0.978271 0.998779
0.947295 0.990051 0.995514
0.962554 0.984527 0.985809
0.973236 0.979431 0.987671
0.659724 0.720577 0.938048
0.677058 0.728084 0.935912
0.703883 0.731380 0.920012
0.743587 0.748898 0.891997
0.749660 0.763088 0.833280
0.746242 0.766690 0.820066
0.847593 0.863737 0.898924
0.933532 0.936645 0.959319
0.665583 0.731472 0.939727
0.677852 0.734829 0.937896
0.707485 0.739193 0.923522
0.742947 0.750210 0.894469
0.750546 0.762478 0.837095
0.744869 0.765347 0.818967
0.842313 0.858732 0.894926
0.933349 0.935058 0.958679
0.679774 0.768551 0.953765
0.702663 0.777615 0.952087
0.736355 0.781674 0.941070
0.784237 0.798825 0.923522
0.791012 0.798917 0.876463
0.773922 0.793179 0.842069
0.852811 0.868742 0.902922
0.941650 0.940276 0.963561
0.662898 0.801633 0.972381
0.697322 0.817441 0.971588
0.766995 0.842313 0.966003
0.830900 0.860746 0.955505
0.846921 0.856077 0.927306
0.831388 0.848264 0.886564
0.878874 0.893431 0.922484
0.952422 0.947356 0.969818
0.612879 0.805814 0.987671
0.648371 0.819516 0.986786
0.726406 0.847898 0.982483
0.820462 0.886198 0.976226
0.886839 0.907897 0.964446
0.883177 0.895232 0.929259
0.903990 0.917021 0.941009
0.963348 0.955230 0.976013
0.564721 0.823209 1.000000
0.593042 0.830747 0.998901
0.681392 0.856260 0.995117
0.793210 0.892790 0.989807
0.883635 0.928130 0.984222
0.938048 0.951141 0.977447
0.934356 0.945129 0.962646
0.975616 0.967254 0.983490
0.560540 0.861234 1.000000
0.596216 0.869230 1.000000
0.699947 0.893523 1.000000
0.822568 0.926635 0.998871
0.903716 0.952514 0.995087
0.947021 0.968383 0.991852
0.964599 0.973114 0.985382
0.984863 0.977569 0.988037
0.527916 0.890227 1.000000
0.566796 0.896544 1.000000
0.684688 0.916960 1.000000
0.820737 0.943969 1.000000
0.911376 0.966430 0.999817
0.956970 0.980468 0.997955
0.976806 0.988495 0.996704
0.978210 0.983551 0.990417
