data/fiter_cube/93231427/1022689/file.cube
# Created by Adobe Lightroom plugin Export LUT (1.17.0)
# www.johnrellis.com/lightroom/exportlut.htm
# Preset: 工业风黑金_01 云集后期
# Color profile: C:\Program Files (x86)\Common Files\Adobe\Color\Profiles\Recommended\AdobeRGB1998.icc
LUT_3D_SIZE 5
DOMAIN_MIN 0.000000 0.000000 0.000000
DOMAIN_MAX 0.903226 0.903226 0.903226
0.021851 0.087190 0.108156
0.091859 0.089448 0.108553
0.425666 0.000000 0.090425
0.832334 0.000000 0.000000
1.000000 0.212497 0.089387
0.040192 0.092988 0.108766
0.091646 0.099855 0.109377
0.392401 0.102541 0.096010
0.813535 0.083375 0.000000
1.000000 0.297765 0.146609
0.127901 0.144381 0.106630
0.163851 0.141817 0.102754
0.454597 0.202487 0.080262
0.804257 0.322667 0.125490
0.995148 0.430365 0.242741
0.297398 0.270146 0.073945
0.339849 0.276646 0.056977
0.501732 0.262943 0.000000
0.816892 0.396368 0.055146
0.973968 0.604517 0.432441
0.535851 0.481971 0.000000
0.573053 0.488838 0.000000
0.669825 0.467048 0.000000
0.897398 0.463722 0.000000
0.992828 0.671870 0.456947
0.028473 0.096742 0.122683
0.063508 0.117556 0.151675
0.402594 0.088441 0.129976
0.754269 0.142672 0.055268
0.986236 0.261051 0.104463
0.050294 0.109590 0.134554
0.107576 0.146670 0.171572
0.394659 0.159152 0.147189
0.747494 0.203922 0.077882
0.985229 0.311894 0.139406
0.117556 0.209354 0.175784
0.219669 0.218387 0.148989
0.436683 0.222110 0.126864
0.739498 0.339178 0.150515
0.981048 0.450782 0.255741
0.330388 0.362493 0.140627
0.386053 0.353277 0.108431
0.521416 0.307866 0.000000
0.802487 0.382635 0.000000
0.965362 0.615869 0.444984
0.546624 0.514061 0.000000
0.576654 0.508629 0.000000
0.703151 0.505699 0.000000
0.902220 0.471443 0.000000
0.997559 0.671046 0.441535
0.093263 0.174533 0.224949
0.143679 0.208286 0.261295
0.336767 0.382025 0.453895
0.801968 0.335180 0.423224
0.971191 0.430793 0.374517
0.141054 0.212253 0.258671
0.193576 0.251682 0.299260
0.384161 0.422614 0.478523
0.792172 0.394232 0.437598
0.970703 0.460090 0.385077
0.239811 0.299046 0.329290
0.297765 0.349157 0.377234
0.529534 0.543450 0.558343
0.774075 0.526970 0.493690
0.962615 0.546105 0.429938
0.495399 0.514000 0.530327
0.492348 0.550134 0.546685
0.598108 0.574273 0.436255
0.799924 0.535576 0.409094
0.944640 0.663233 0.531426
0.548394 0.709163 0.551446
0.589197 0.708736 0.526207
0.696681 0.618494 0.194614
0.856504 0.503227 0.000000
0.999054 0.629725 0.314794
0.257755 0.365698 0.447059
0.289586 0.389166 0.469215
0.400244 0.467384 0.539391
0.630488 0.646601 0.695491
0.925353 0.812802 0.834897
0.285252 0.388891 0.463142
0.311162 0.406989 0.479500
0.418860 0.483467 0.547448
0.643793 0.655360 0.697627
0.924681 0.787045 0.812253
0.345281 0.442756 0.498268
0.374853 0.463569 0.516197
0.486824 0.541619 0.583185
0.697383 0.694148 0.716457
0.932830 0.715053 0.729519
0.494606 0.565087 0.589014
0.522026 0.581476 0.602594
0.631617 0.653803 0.664637
0.811368 0.788235 0.785336
0.930785 0.766110 0.731533
0.730556 0.730159 0.728481
0.754299 0.746426 0.744076
0.819516 0.799405 0.794888
0.819577 0.767330 0.629175
0.958618 0.755184 0.645258
0.599268 0.669276 0.722194
0.608942 0.672908 0.724514
0.649409 0.691218 0.737575
0.724453 0.731441 0.768063
0.836728 0.823575 0.847410
0.598505 0.668452 0.719265
0.608453 0.672450 0.721950
0.649348 0.691341 0.735744
0.718563 0.726192 0.762570
0.839017 0.825254 0.847654
0.620203 0.684474 0.725948
0.625269 0.685878 0.727108
0.661128 0.701930 0.738979
0.734096 0.740505 0.769436
0.853422 0.837705 0.854704
0.690211 0.732540 0.755093
0.693568 0.733242 0.755550
0.717189 0.745113 0.765621
0.779049 0.781460 0.796963
0.885008 0.867033 0.874571
0.778927 0.793301 0.797513
0.782986 0.795346 0.799100
0.806607 0.810452 0.812406
0.849393 0.840360 0.839170
0.936889 0.920867 0.917174
