data/fiter_cube/93231427/1022689/file.cube
# Created by Adobe Lightroom plugin Export LUT (1.17.0)
# www.johnrellis.com/lightroom/exportlut.htm
# Preset: 工业风黑金_01 云集后期
# Color profile: C:\Program Files (x86)\Common Files\Adobe\Color\Profiles\Recommended\AdobeRGB1998.icc
LUT_3D_SIZE 8
DOMAIN_MIN 0.000000 0.000000 0.000000
DOMAIN_MAX 0.903226 0.903226 0.903226
0.021851 0.087190 0.108156
0.037049 0.087739 0.108461
0.123232 0.089021 0.108217
0.315343 0.034852 0.100313
0.535698 0.000000 0.073762
0.784543 0.000000 0.000000
0.928466 0.000000 0.000000
1.000000 0.212497 0.089387
0.026001 0.088533 0.108492
0.035554 0.089326 0.109041
0.108858 0.094179 0.108919
0.283818 0.078737 0.102754
0.500389 0.000000 0.080293
0.742397 0.000000 0.000000
0.903014 0.000000 0.000000
1.000000 0.207004 0.077485
0.048615 0.095430 0.108766
0.059144 0.095705 0.108461
0.120851 0.106050 0.109041
0.281559 0.121004 0.106355
0.498360 0.114046 0.084596
0.752743 0.112795 0.000000
0.926268 0.202487 0.013458
1.000000 0.308324 0.151492
0.096407 0.123690 0.108125
0.105684 0.123537 0.107271
0.152407 0.120119 0.104677
0.317754 0.153048 0.098482
0.566949 0.235660 0.108400
0.783505 0.268498 0.090089
0.922393 0.318425 0.125185
1.000000 0.390661 0.210636
0.164767 0.169253 0.103273
0.175265 0.169528 0.101778
0.216159 0.167025 0.097078
0.359533 0.179294 0.079927
0.564050 0.249363 0.052735
0.742794 0.356756 0.158694
0.896208 0.404639 0.192447
0.989105 0.477455 0.287053
0.262150 0.241306 0.086000
0.283116 0.250248 0.080140
0.325566 0.252689 0.068330
0.411017 0.247776 0.036988
0.594659 0.275792 0.000000
0.773342 0.363989 0.000000
0.893523 0.510185 0.298161
0.978973 0.584771 0.408820
0.379889 0.340856 0.000000
0.393988 0.345403 0.000000
0.430030 0.349187 0.000000
0.505028 0.350958 0.000000
0.617578 0.321050 0.000000
0.803494 0.385290 0.000000
0.912902 0.495583 0.177310
0.961425 0.655268 0.492988
0.535851 0.481971 0.000000
0.545861 0.483619 0.000000
0.587427 0.491829 0.000000
0.667353 0.501976 0.000000
0.720485 0.454810 0.000000
0.862455 0.441688 0.000000
0.963989 0.540795 0.022797
0.992828 0.671870 0.456947
0.023682 0.089693 0.111452
0.027680 0.091493 0.114290
0.106600 0.093904 0.112245
0.264683 0.094026 0.106355
0.473518 0.063172 0.085359
0.714290 0.000000 0.000000
0.885496 0.000000 0.000000
0.990295 0.199191 0.064149
0.026398 0.090455 0.112245
0.033967 0.093751 0.115755
0.104982 0.099886 0.114595
0.256321 0.103731 0.107607
0.460731 0.088716 0.087831
0.694240 0.000000 0.008179
0.864561 0.049378 0.000000
0.977844 0.191531 0.042237
0.036133 0.101717 0.117433
0.067536 0.108003 0.116335
0.127199 0.111116 0.113588
0.254246 0.131319 0.113313
0.457740 0.142611 0.093690
0.695186 0.148013 0.040223
0.875486 0.185458 0.000000
0.986725 0.278843 0.116854
0.096193 0.137606 0.116915
0.117678 0.139528 0.114382
0.161898 0.130800 0.108400
0.295323 0.148959 0.100832
0.476600 0.212253 0.110628
0.696010 0.245609 0.090242
0.869291 0.283543 0.094850
0.979492 0.356939 0.170871
0.180728 0.191440 0.110384
0.190249 0.188510 0.107729
0.232364 0.184543 0.100252
0.338994 0.174380 0.085756
0.511620 0.227481 0.060334
0.696651 0.324987 0.130129
0.867063 0.387518 0.175784
0.974914 0.457404 0.260014
0.268132 0.255222 0.094026
0.279301 0.256565 0.090394
0.317998 0.256413 0.078370
0.393805 0.245151 0.055238
0.565698 0.264561 0.000000
0.756497 0.352056 0.000000
0.883360 0.490150 0.264714
0.970062 0.570550 0.387976
0.365667 0.336767 0.022370
0.371862 0.334691 0.012390
0.406134 0.336004 0.000000
0.479622 0.337591 0.000000
0.592340 0.315190 0.000000
0.780148 0.371038 0.000000
0.894102 0.469947 0.135409
0.952392 0.623407 0.444007
0.512535 0.464546 0.000000
0.526207 0.469520 0.000000
0.569085 0.480110 0.000000
0.651087 0.493874 0.000000
0.743648 0.476112 0.000000
0.865141 0.445594 0.000000
0.960082 0.533776 0.000000
0.990173 0.657588 0.429450
0.029603 0.102602 0.131807
0.040925 0.109407 0.140719
0.088746 0.139895 0.179568
0.335729 0.085023 0.165774
0.543328 0.105043 0.147402
0.740475 0.159030 0.123079
0.889097 0.230594 0.059968
0.992676 0.300725 0.135378
0.040253 0.109316 0.138308
0.058534 0.117250 0.147555
0.102998 0.148592 0.184176
0.324071 0.120760 0.170199
0.523644 0.136324 0.152560
0.720424 0.171603 0.123964
0.874327 0.231754 0.058320
0.986389 0.301671 0.132540
0.066651 0.124483 0.150942
0.083650 0.136477 0.162997
0.154086 0.184146 0.208286
0.319860 0.192630 0.193606
0.530999 0.212741 0.175418
0.720760 0.235447 0.142153
0.872038 0.280369 0.092683
0.982940 0.343816 0.162295
0.133089 0.167575 0.192050
0.142458 0.190585 0.207523
0.224002 0.230991 0.191684
0.362615 0.225956 0.180728
0.534569 0.298375 0.213474
0.720577 0.319341 0.179690
0.873075 0.356237 0.149752
0.980102 0.416052 0.221866
0.167971 0.273808 0.212558
0.207523 0.291417 0.218235
0.301823 0.288701 0.172122
0.392370 0.247959 0.139956
0.562799 0.287114 0.139712
0.716854 0.360754 0.176638
0.861234 0.431983 0.217227
0.971344 0.495430 0.299107
0.283207 0.357153 0.191196
0.307164 0.356237 0.178744
0.367803 0.341039 0.140902
0.439368 0.319280 0.105623
0.577203 0.287968 0.024506
0.744015 0.357183 0.034821
0.877592 0.468421 0.206546
0.965454 0.596277 0.419471
0.398444 0.434058 0.136080
0.411749 0.425177 0.120668
0.445197 0.404028 0.080842
0.509972 0.393133 0.000000
0.600946 0.349767 0.000000
0.773159 0.371221 0.000000
0.900267 0.470680 0.084871
0.962676 0.633387 0.443397
0.529900 0.522515 0.000000
0.536431 0.510277 0.000000
0.567956 0.502403 0.000000
0.654444 0.515496 0.000000
0.740963 0.493477 0.000000
0.851926 0.446021 0.000000
0.961120 0.531365 0.000000
0.995056 0.657038 0.413184
0.064179 0.141939 0.185000
0.080140 0.153109 0.197696
0.139467 0.192203 0.240208
0.244816 0.283909 0.346838
0.587976 0.368719 0.464302
0.759701 0.243839 0.299992
0.880888 0.302861 0.272709
0.976440 0.364965 0.241245
0.085817 0.159091 0.201846
0.100252 0.168643 0.212192
0.156680 0.206363 0.252110
0.265965 0.302770 0.361669
0.592126 0.345861 0.440589
0.750607 0.264866 0.303563
0.873777 0.310491 0.272679
0.973602 0.368292 0.238560
0.114351 0.180819 0.218723
0.132143 0.193057 0.230930
0.196292 0.240146 0.277806
0.315862 0.346288 0.389105
0.603357 0.328985 0.380468
0.760983 0.356939 0.349645
0.892058 0.395697 0.327489
0.980468 0.426062 0.280125
0.175753 0.230442 0.259434
0.195773 0.245823 0.274022
0.267887 0.306615 0.332158
0.411414 0.433845 0.454017
0.586450 0.434913 0.421759
0.741329 0.429511 0.380133
0.873442 0.442298 0.343725
0.972839 0.477852 0.314214
0.282506 0.316655 0.336309
0.305028 0.336248 0.355840
0.387427 0.413489 0.432959
0.474861 0.482094 0.411475
0.616815 0.448951 0.381964
0.741787 0.508629 0.429511
0.868772 0.524559 0.404578
0.965301 0.548882 0.375860
0.367895 0.464332 0.444282
0.385534 0.493385 0.460304
0.407721 0.532097 0.446479
0.525383 0.503136 0.334997
0.629816 0.428748 0.268650
0.769375 0.465888 0.301457
0.876768 0.548852 0.385657
0.957946 0.630091 0.462867
0.409400 0.584222 0.434119
0.434424 0.591302 0.437018
0.486854 0.580194 0.376013
0.574762 0.527428 0.236332
0.666316 0.481727 0.168673
0.796048 0.430762 0.098116
0.901671 0.508232 0.209262
0.969390 0.623865 0.403418
0.545190 0.670802 0.389258
0.556268 0.664820 0.361212
0.596399 0.633204 0.248325
0.665095 0.587366 0.079316
0.749569 0.560143 0.000000
0.838865 0.486702 0.000000
0.959197 0.525444 0.000000
1.000000 0.649287 0.370642
0.130282 0.214939 0.273442
0.146242 0.226902 0.286412
0.195102 0.262364 0.324285
0.293645 0.343694 0.409247
0.428260 0.473548 0.544152
0.753933 0.696742 0.716884
0.879362 0.458686 0.525414
0.962310 0.511223 0.506676
0.151522 0.232609 0.290288
0.168429 0.246189 0.305272
0.214359 0.280980 0.341955
0.301946 0.350500 0.413642
0.439033 0.481758 0.547845
0.756039 0.686183 0.711452
0.879606 0.470924 0.528832
0.961364 0.516899 0.507347
0.191135 0.267308 0.320745
0.206729 0.280034 0.333776
0.248112 0.312291 0.366094
0.334112 0.383001 0.436316
0.473610 0.507774 0.559838
0.750546 0.631617 0.673426
0.870573 0.499153 0.530724
0.956023 0.523552 0.497505
0.233494 0.306462 0.351171
0.246830 0.317296 0.361486
0.299168 0.362036 0.404730
0.399542 0.447181 0.484688
0.553552 0.570672 0.599329
0.759396 0.557031 0.591821
0.865995 0.555596 0.550072
0.956756 0.555138 0.499580
0.306462 0.374914 0.406409
0.322698 0.389075 0.419928
0.378332 0.436347 0.463783
0.487312 0.523613 0.543114
0.634974 0.634089 0.642176
0.745480 0.620325 0.608301
0.856046 0.605066 0.564355
0.950317 0.608392 0.525017
0.400275 0.451087 0.469459
0.416754 0.464393 0.482124
0.476417 0.511315 0.526390
0.589105 0.595727 0.606653
0.632074 0.625971 0.566430
0.755581 0.602136 0.548882
0.855833 0.664912 0.600671
0.944915 0.685542 0.589685
0.611627 0.615290 0.624506
0.608850 0.621546 0.627375
0.604120 0.645045 0.635279
0.598749 0.680079 0.619287
0.672480 0.632563 0.465675
0.774441 0.547234 0.382788
0.879606 0.596704 0.446967
0.949279 0.677852 0.538201
0.627863 0.724941 0.661402
0.624048 0.727169 0.655756
0.610773 0.735042 0.627893
0.659449 0.735409 0.578790
0.731930 0.655848 0.308598
0.829129 0.595758 0.204013
0.940276 0.553735 0.143984
0.995941 0.643854 0.356756
0.251316 0.357824 0.438392
0.261601 0.365270 0.445624
0.287266 0.380102 0.458320
0.348547 0.423926 0.498390
0.477852 0.524346 0.585565
0.602289 0.623377 0.675685
0.857145 0.829709 0.827451
0.936767 0.740536 0.773800
0.245121 0.346166 0.422400
0.252903 0.351324 0.427314
0.282475 0.372045 0.446845
0.343603 0.417365 0.489265
0.470497 0.516960 0.577142
0.601221 0.621759 0.672419
0.856321 0.829679 0.826871
0.936706 0.727993 0.762234
0.286076 0.385687 0.455879
0.291386 0.388342 0.458045
0.318791 0.407141 0.474861
0.379858 0.451728 0.515038
0.490944 0.532097 0.585199
0.630732 0.643549 0.684565
0.864500 0.837217 0.834470
0.941253 0.697200 0.729366
0.323400 0.420386 0.480049
0.330022 0.424170 0.483131
0.365454 0.450324 0.505882
0.443427 0.508965 0.557763
0.554711 0.585016 0.622339
0.691615 0.690303 0.715633
0.873167 0.812192 0.822141
0.944152 0.702632 0.714687
0.367163 0.457710 0.502800
0.378393 0.466133 0.510155
0.417792 0.495186 0.535424
0.491768 0.547967 0.580865
0.593957 0.617578 0.640284
0.727382 0.716609 0.728481
0.866636 0.720699 0.736446
0.938445 0.709285 0.695918
0.443275 0.519097 0.546471
0.459846 0.531701 0.557702
0.501274 0.560327 0.582483
0.572229 0.608179 0.623804
0.665003 0.672267 0.679622
0.786404 0.764950 0.763210
0.859770 0.756283 0.738888
0.937102 0.747219 0.706294
0.583398 0.621881 0.630762
0.596948 0.631220 0.639185
0.630426 0.652888 0.658595
0.689326 0.692561 0.694667
0.771572 0.752651 0.751339
0.784146 0.757137 0.702113
0.864988 0.732357 0.681575
0.931304 0.781033 0.723079
0.745083 0.735775 0.734279
0.750729 0.739528 0.737911
0.772030 0.754696 0.752834
0.788602 0.779965 0.772488
0.762814 0.796750 0.750729
0.798337 0.740078 0.564263
0.899809 0.656489 0.472755
0.967193 0.734096 0.598230
0.376043 0.493172 0.573571
0.387884 0.501549 0.580743
0.410224 0.513390 0.589685
0.454383 0.537896 0.608637
0.515557 0.570520 0.633509
0.647303 0.663844 0.705196
0.724819 0.724300 0.761654
0.908476 0.881743 0.882322
0.367071 0.482948 0.562432
0.377447 0.490547 0.568872
0.400122 0.503349 0.579065
0.440589 0.525475 0.596307
0.502464 0.559594 0.622827
0.633051 0.651942 0.694392
0.714076 0.715053 0.753048
0.904204 0.877226 0.877409
0.402075 0.512291 0.583795
0.407385 0.514977 0.585809
0.425177 0.523461 0.592004
0.464240 0.544335 0.608087
0.522454 0.575830 0.632288
0.641749 0.657954 0.696925
0.734524 0.730953 0.763149
0.913268 0.889281 0.887785
0.444495 0.546105 0.606226
0.445686 0.545251 0.605219
0.461097 0.551751 0.609705
0.502983 0.575128 0.627710
0.562036 0.607813 0.653071
0.661158 0.672023 0.704982
0.766110 0.756039 0.779721
0.924254 0.904723 0.901305
0.470497 0.563958 0.612238
0.472511 0.563867 0.611841
0.488258 0.571252 0.617273
0.525017 0.591974 0.633753
0.583764 0.626062 0.661219
0.671595 0.680598 0.706233
0.786130 0.771450 0.787076
0.927276 0.890318 0.893462
0.526543 0.603052 0.635370
0.532586 0.606439 0.638056
0.553552 0.618402 0.647639
0.592157 0.641321 0.666377
0.644770 0.673243 0.692988
0.725154 0.725887 0.737942
0.831510 0.810758 0.815152
0.931212 0.827756 0.834379
0.611933 0.661585 0.676722
0.620081 0.666712 0.681117
0.639948 0.678523 0.690944
0.675074 0.700130 0.709316
0.721798 0.729763 0.734707
0.788663 0.777218 0.776852
0.874449 0.850950 0.846433
0.926116 0.839933 0.821683
0.713619 0.731502 0.732815
0.717922 0.734127 0.735134
0.742306 0.750942 0.750423
0.770321 0.769467 0.767269
0.807645 0.795438 0.791440
0.864714 0.842161 0.837369
0.869017 0.835813 0.779263
0.938445 0.826627 0.777920
0.599268 0.669276 0.722194
0.605371 0.672663 0.724758
0.611933 0.673915 0.725124
0.634760 0.684443 0.732662
0.665034 0.698299 0.742763
0.704433 0.717403 0.757443
0.795987 0.787716 0.811765
0.836728 0.823575 0.847410
0.591577 0.663600 0.716884
0.597864 0.667109 0.719539
0.606867 0.670130 0.721401
0.627619 0.679164 0.727718
0.659297 0.693904 0.738613
0.700282 0.714229 0.754269
0.793423 0.785214 0.809171
0.835172 0.821988 0.845701
0.595605 0.666377 0.716945
0.599725 0.668360 0.718410
0.605035 0.668818 0.718196
0.636469 0.685878 0.731167
0.665553 0.699031 0.740841
0.704402 0.717952 0.755489
0.797452 0.788205 0.810239
0.839078 0.825162 0.847166
0.611017 0.678065 0.723232
0.616419 0.681056 0.725551
0.624414 0.683558 0.727077
0.647791 0.694972 0.735561
0.679835 0.710750 0.747494
0.720974 0.732174 0.764370
0.803159 0.792813 0.812802
0.848631 0.833555 0.852415
0.632898 0.693111 0.730190
0.637812 0.696071 0.732601
0.643458 0.697932 0.734157
0.657282 0.704219 0.739590
0.688655 0.719509 0.751217
0.733455 0.743954 0.770657
0.802365 0.791623 0.809842
0.860533 0.844083 0.858793
0.669703 0.718196 0.744564
0.669673 0.717617 0.743984
0.673457 0.718502 0.744594
0.686122 0.724514 0.749722
0.709987 0.737362 0.760891
0.758602 0.766751 0.785702
0.814084 0.802518 0.816037
0.880888 0.863218 0.872221
0.725795 0.756619 0.770809
0.726925 0.757046 0.771145
0.732570 0.759792 0.773373
0.747555 0.768460 0.780758
0.769406 0.781521 0.792111
0.793362 0.795529 0.804318
0.833097 0.821958 0.827848
0.902403 0.884001 0.886473
0.778927 0.793301 0.797513
0.779629 0.793515 0.797635
0.785031 0.796567 0.800198
0.798001 0.804837 0.807462
0.816312 0.816892 0.818051
0.841489 0.834440 0.833799
0.879118 0.864256 0.861479
0.936889 0.920867 0.917174
