data/fiter_cube/93231427/1022689/file.cube
# Created by Adobe Lightroom plugin Export LUT (1.17.0)
# www.johnrellis.com/lightroom/exportlut.htm
# Preset: 工业风黑金_01 云集后期
# Color profile: C:\Program Files (x86)\Common Files\Adobe\Color\Profiles\Recommended\AdobeRGB1998.icc
LUT_3D_SIZE 32
DOMAIN_MIN 0.0 0.0 0.0
DOMAIN_MAX 1.0 1.0 1.0
0.021851 0.087190 0.108156
0.021851 0.087190 0.108156
0.024567 0.087068 0.108156
0.028077 0.087526 0.108309
0.037049 0.087739 0.108461
0.053101 0.088197 0.108583
0.069154 0.089143 0.108766
0.091859 0.089448 0.108553
0.123232 0.089021 0.108217
0.162600 0.086641 0.107149
0.209598 0.079805 0.105837
0.261387 0.067445 0.103609
0.315343 0.034852 0.100313
0.370489 0.000000 0.095949
0.425666 0.000000 0.090425
0.480751 0.000000 0.083345
0.535698 0.000000 0.073762
0.589715 0.000000 0.061860
0.656458 0.000000 0.023011
0.726741 0.000000 0.000000
0.784543 0.000000 0.000000
0.832334 0.000000 0.000000
0.870695 0.000000 0.000000
0.902190 0.000000 0.000000
0.928466 0.000000 0.000000
0.951568 0.052918 0.000000
0.972869 0.122133 0.000000
0.992676 0.169284 0.030732
1.000000 0.212497 0.089387
1.000000 0.255680 0.129793
1.000000 0.300237 0.172976
1.000000 0.346838 0.221347
0.021851 0.087190 0.108156
0.021668 0.087495 0.108125
0.024170 0.087373 0.108339
0.028077 0.087526 0.108309
0.036866 0.088075 0.108461
0.051789 0.088563 0.108766
0.068177 0.089235 0.108766
0.089784 0.090089 0.108553
0.119600 0.089876 0.108248
0.157931 0.087587 0.107515
0.203220 0.082307 0.106050
0.254093 0.071229 0.103975
0.306889 0.049805 0.100862
0.360967 0.000000 0.096834
0.415198 0.000000 0.091646
0.469490 0.000000 0.084779
0.523949 0.000000 0.076204
0.577844 0.000000 0.064881
0.644282 0.000000 0.032654
0.712795 0.000000 0.000000
0.770413 0.000000 0.000000
0.818814 0.000000 0.000000
0.858579 0.000000 0.000000
0.891447 0.000000 0.000000
0.919127 0.000000 0.000000
0.943542 0.000000 0.000000
0.966094 0.104463 0.000000
0.987060 0.156039 0.004150
1.000000 0.201236 0.078584
1.000000 0.245548 0.120485
1.000000 0.290684 0.163485
1.000000 0.337652 0.211612
0.021668 0.087495 0.108125
0.023041 0.087434 0.108125
0.024170 0.087373 0.108339
0.027710 0.087831 0.108522
0.036500 0.088380 0.108644
0.050660 0.088960 0.108766
0.066651 0.089723 0.108766
0.087221 0.090486 0.108797
0.116609 0.090547 0.108309
0.153628 0.089021 0.107576
0.198489 0.084260 0.106203
0.248539 0.074861 0.104189
0.300969 0.059113 0.101442
0.354711 0.011719 0.097536
0.408576 0.000000 0.092256
0.462928 0.000000 0.085878
0.516716 0.000000 0.077394
0.570825 0.000000 0.066499
0.637537 0.000000 0.036652
0.704891 0.000000 0.000000
0.762600 0.000000 0.000000
0.811551 0.000000 0.000000
0.851957 0.000000 0.000000
0.885618 0.000000 0.000000
0.914000 0.000000 0.000000
0.939025 0.000000 0.000000
0.962249 0.098939 0.000000
0.983856 0.151553 0.000000
1.000000 0.197116 0.074098
1.000000 0.241886 0.116396
1.000000 0.287083 0.159579
1.000000 0.333745 0.206912
0.023835 0.088014 0.108309
0.023835 0.088014 0.108309
0.025360 0.087648 0.108309
0.028687 0.088106 0.108705
0.035737 0.089021 0.109071
0.050080 0.089540 0.109163
0.065919 0.090364 0.109163
0.085603 0.091615 0.108980
0.113863 0.092317 0.108492
0.149996 0.091310 0.107790
0.193729 0.087892 0.106691
0.242771 0.080446 0.104524
0.294224 0.068360 0.101900
0.347234 0.039887 0.098146
0.400885 0.000000 0.093324
0.454444 0.000000 0.086946
0.508324 0.000000 0.078798
0.561852 0.000000 0.068482
0.628382 0.000000 0.044221
0.692775 0.000000 0.000000
0.749294 0.000000 0.000000
0.798398 0.000000 0.000000
0.840604 0.000000 0.000000
0.876890 0.000000 0.000000
0.908110 0.000000 0.000000
0.935546 0.000000 0.000000
0.960357 0.107057 0.000000
0.982818 0.158389 0.001678
1.000000 0.202884 0.076753
1.000000 0.245823 0.118288
1.000000 0.289464 0.160250
1.000000 0.334264 0.206241
0.026001 0.088533 0.108492
0.026215 0.088533 0.108248
0.027588 0.088472 0.108248
0.030091 0.088350 0.108461
0.035554 0.089326 0.109041
0.047456 0.090272 0.109590
0.063478 0.091524 0.109560
0.082307 0.092958 0.109377
0.108858 0.094179 0.108919
0.143069 0.094697 0.108278
0.185245 0.092500 0.107271
0.232975 0.087343 0.105257
0.283818 0.078737 0.102754
0.336522 0.065522 0.099123
0.390509 0.030121 0.094453
0.445350 0.000000 0.088106
0.500389 0.000000 0.080293
0.554986 0.000000 0.070039
0.624140 0.000000 0.047456
0.687160 0.000000 0.003082
0.742397 0.000000 0.000000
0.791073 0.000000 0.000000
0.833555 0.000000 0.000000
0.870695 0.000000 0.000000
0.903014 0.000000 0.000000
0.931426 0.050233 0.000000
0.956878 0.118807 0.000000
0.979858 0.164675 0.005097
1.000000 0.207004 0.077485
1.000000 0.248936 0.118074
1.000000 0.291356 0.159609
1.000000 0.335637 0.205325
0.027863 0.089662 0.108614
0.029419 0.089601 0.108400
0.030793 0.089540 0.108400
0.032288 0.089174 0.108400
0.039734 0.089754 0.108553
0.050324 0.091005 0.109285
0.062348 0.093080 0.110140
0.080323 0.094911 0.109957
0.105928 0.096956 0.109468
0.139528 0.098085 0.108827
0.180362 0.097597 0.107820
0.227512 0.094484 0.106020
0.277745 0.088869 0.103334
0.330541 0.079744 0.100008
0.384527 0.065705 0.095338
0.439612 0.030243 0.089296
0.495186 0.000000 0.081483
0.552941 0.000000 0.070985
0.622827 0.000000 0.048951
0.685451 0.000000 0.006104
0.741268 0.000000 0.000000
0.790768 0.000000 0.000000
0.903075 0.087465 0.000000
0.931182 0.131289 0.000000
0.954559 0.165835 0.000000
0.974792 0.196567 0.045808
0.992737 0.226749 0.084901
1.000000 0.257145 0.115602
1.000000 0.288884 0.147616
1.000000 0.322850 0.183108
1.000000 0.358587 0.222446
1.000000 0.395666 0.265751
0.033417 0.091188 0.108705
0.034791 0.091127 0.108705
0.036133 0.091096 0.108705
0.039063 0.090974 0.108461
0.045869 0.090700 0.108461
0.058869 0.092317 0.108705
0.070375 0.095033 0.109682
0.086397 0.098695 0.110658
0.113588 0.101595 0.110475
0.150271 0.103914 0.109529
0.194797 0.104036 0.108156
0.244266 0.102449 0.105867
0.295720 0.098573 0.102907
0.348913 0.092439 0.098970
0.402075 0.083467 0.094057
0.455390 0.071382 0.087831
0.509819 0.046754 0.079744
0.574212 0.000000 0.067384
0.645838 0.000000 0.037324
0.710964 0.000000 0.000000
0.770596 0.000000 0.000000
0.824826 0.000000 0.000000
0.871672 0.078462 0.000000
0.910338 0.126436 0.000000
0.941344 0.166690 0.000000
0.965881 0.200504 0.042115
0.986145 0.231571 0.084199
1.000000 0.261204 0.114748
1.000000 0.292027 0.146395
1.000000 0.324559 0.180697
1.000000 0.359258 0.219364
1.000000 0.395605 0.262211
0.040192 0.092988 0.108766
0.040192 0.092988 0.108766
0.041566 0.092927 0.108766
0.045686 0.093050 0.108522
0.051087 0.092775 0.108492
0.061952 0.093172 0.108370
0.073487 0.095827 0.108919
0.091646 0.099855 0.109377
0.114199 0.104280 0.110689
0.143984 0.108583 0.110903
0.187198 0.110628 0.109316
0.235996 0.111116 0.107332
0.287053 0.109957 0.104616
0.339483 0.107179 0.100801
0.392401 0.102541 0.096010
0.445624 0.096162 0.089967
0.499825 0.087068 0.082460
0.569451 0.075410 0.069703
0.637354 0.061128 0.048737
0.700496 0.049958 0.007172
0.759457 0.060334 0.000000
0.813535 0.083375 0.000000
0.860838 0.115084 0.000000
0.900450 0.148470 0.000000
0.932616 0.181247 0.000000
0.958221 0.211612 0.050263
0.979553 0.239658 0.086366
0.998138 0.267979 0.115633
1.000000 0.297765 0.146609
1.000000 0.329168 0.180697
1.000000 0.363012 0.218997
1.000000 0.398810 0.261814
0.048615 0.095430 0.108766
0.049500 0.095674 0.108766
0.050538 0.095613 0.108766
0.053620 0.095735 0.108492
0.059144 0.095705 0.108461
0.064057 0.095521 0.108186
0.079561 0.097566 0.108003
0.096742 0.101198 0.108492
0.120851 0.106050 0.109041
0.150484 0.111788 0.109987
0.182467 0.117372 0.111147
0.230777 0.119722 0.109102
0.281559 0.121004 0.106355
0.333745 0.121340 0.102724
0.386206 0.120058 0.098207
0.439368 0.117342 0.092500
0.498360 0.114046 0.084596
0.567742 0.110536 0.072847
0.632959 0.107088 0.056672
0.694697 0.106813 0.021912
0.752743 0.112795 0.000000
0.806424 0.126619 0.000000
0.853819 0.148440 0.000000
0.893706 0.174441 0.000000
0.926268 0.202487 0.013458
0.952544 0.228733 0.065492
0.974548 0.254307 0.093751
0.993713 0.280369 0.121675
1.000000 0.308324 0.151492
1.000000 0.338262 0.184421
1.000000 0.370581 0.222202
1.000000 0.405097 0.264134
0.058961 0.099489 0.109071
0.059602 0.099458 0.108858
0.060609 0.099611 0.108827
0.062806 0.099702 0.108553
0.066407 0.099886 0.108278
0.072053 0.099825 0.107973
0.081880 0.099702 0.107820
0.103426 0.103517 0.107515
0.126345 0.107942 0.107851
0.156588 0.113588 0.108034
0.191958 0.120089 0.108919
0.226810 0.126986 0.110658
0.274479 0.131685 0.108980
0.326879 0.134432 0.105531
0.380743 0.136263 0.101045
0.435370 0.136965 0.095308
0.503807 0.139284 0.086824
0.571649 0.140414 0.076143
0.635645 0.141787 0.062867
0.695338 0.144839 0.038605
0.750729 0.151400 0.010071
0.801114 0.162142 0.000000
0.845884 0.178134 0.000000
0.884398 0.197177 0.002960
0.916808 0.219516 0.040040
0.943908 0.242466 0.073701
0.967224 0.266484 0.099367
0.987823 0.291936 0.126406
1.000000 0.319738 0.156680
1.000000 0.349859 0.190829
1.000000 0.382574 0.229709
1.000000 0.417487 0.273075
0.066835 0.104677 0.109010
0.067323 0.104646 0.109010
0.068788 0.104738 0.108766
0.071138 0.105013 0.108492
0.075471 0.105318 0.108156
0.081483 0.105379 0.107820
0.090211 0.105013 0.107485
0.108217 0.105470 0.106996
0.134798 0.110750 0.106661
0.163455 0.115999 0.106416
0.198917 0.122316 0.106569
0.239017 0.130190 0.107118
0.275944 0.139010 0.109194
0.321477 0.147250 0.109316
0.375097 0.151553 0.104799
0.436469 0.156954 0.099245
0.503563 0.162509 0.091676
0.568536 0.166751 0.082521
0.630396 0.170535 0.071412
0.689052 0.175174 0.059419
0.743771 0.182162 0.038453
0.794369 0.192386 0.023194
0.839597 0.206699 0.022797
0.878630 0.223728 0.042634
0.911376 0.243381 0.067659
0.938781 0.263890 0.088197
0.962371 0.284947 0.110384
0.983185 0.308141 0.135805
1.000000 0.333959 0.164492
1.000000 0.362249 0.197513
1.000000 0.393744 0.236027
1.000000 0.427710 0.279362
0.077455 0.111543 0.108949
0.078706 0.111635 0.108705
0.079896 0.111727 0.108675
0.082521 0.112154 0.108370
0.086915 0.112337 0.108034
0.093751 0.112398 0.107454
0.102693 0.112062 0.107057
0.113252 0.110872 0.106661
0.143526 0.114199 0.105562
0.173587 0.119509 0.104952
0.207919 0.125795 0.104311
0.247593 0.133577 0.103853
0.328038 0.154818 0.102022
0.369726 0.168551 0.105684
0.423590 0.187045 0.110628
0.501244 0.201389 0.104128
0.574212 0.212314 0.096437
0.639551 0.220676 0.088380
0.696773 0.227909 0.081147
0.748684 0.235752 0.075593
0.795682 0.244938 0.073304
0.837583 0.256474 0.076905
0.873777 0.269657 0.085023
0.905089 0.285008 0.098024
0.931884 0.301518 0.114260
0.954955 0.318853 0.132906
0.974975 0.337133 0.153719
0.992737 0.356970 0.177218
1.000000 0.378943 0.204593
1.000000 0.403784 0.236484
1.000000 0.431708 0.273289
1.000000 0.462440 0.315007
0.096407 0.123690 0.108125
0.097322 0.123781 0.108095
0.098573 0.123629 0.108095
0.101289 0.123690 0.107790
0.105684 0.123537 0.107271
0.112032 0.123262 0.106661
0.120912 0.122530 0.106020
0.133364 0.121645 0.105470
0.152407 0.120119 0.104677
0.191806 0.125673 0.102693
0.228031 0.132265 0.101381
0.270207 0.141329 0.099947
0.317754 0.153048 0.098482
0.374945 0.170535 0.098329
0.437476 0.194583 0.102480
0.498482 0.222538 0.113710
0.566949 0.235660 0.108400
0.629847 0.244633 0.101656
0.685786 0.252262 0.095674
0.736751 0.259739 0.091890
0.783505 0.268498 0.090089
0.825742 0.278843 0.093080
0.862516 0.290471 0.100008
0.894682 0.303838 0.110842
0.922393 0.318425 0.125185
0.946258 0.334234 0.141970
0.967163 0.351019 0.161501
0.985779 0.369726 0.183993
1.000000 0.390661 0.210636
1.000000 0.415076 0.242710
1.000000 0.442420 0.279698
1.000000 0.473030 0.322179
0.111086 0.133364 0.107454
0.112123 0.133394 0.107424
0.113466 0.133425 0.107179
0.116060 0.133242 0.106905
0.120485 0.133181 0.106538
0.127138 0.132753 0.105684
0.135866 0.132296 0.104982
0.147463 0.130983 0.104250
0.162844 0.129213 0.103548
0.191989 0.128389 0.102144
0.235294 0.136477 0.099428
0.275120 0.144961 0.097322
0.319890 0.155886 0.094820
0.383734 0.175265 0.091096
0.450843 0.199771 0.090974
0.507652 0.224460 0.098634
0.560815 0.251255 0.113985
0.618158 0.266423 0.115694
0.673579 0.274693 0.110658
0.724636 0.282322 0.107301
0.772000 0.291142 0.106783
0.814939 0.301274 0.109468
0.852781 0.312108 0.115450
0.885985 0.324651 0.125612
0.914580 0.338384 0.138949
0.939330 0.353124 0.155154
0.960937 0.369055 0.173800
0.980255 0.386786 0.195926
0.997803 0.407050 0.222416
1.000000 0.430793 0.254520
1.000000 0.457740 0.291691
1.000000 0.487953 0.334417
0.127901 0.144381 0.106630
0.129000 0.144564 0.106355
0.130129 0.144411 0.106325
0.132998 0.144350 0.105776
0.137453 0.144015 0.105440
0.143740 0.143709 0.104555
0.152621 0.143038 0.103822
0.163851 0.141817 0.102754
0.179019 0.140414 0.101961
0.197116 0.137026 0.101137
0.238407 0.139651 0.098299
0.282292 0.149599 0.094728
0.334508 0.163333 0.090028
0.393164 0.181155 0.084260
0.454597 0.202487 0.080262
0.515496 0.227237 0.083223
0.567041 0.251560 0.095674
0.613916 0.277409 0.115236
0.663050 0.296239 0.126436
0.713863 0.304601 0.123507
0.760983 0.313237 0.122957
0.804257 0.322667 0.125490
0.842710 0.333043 0.131563
0.876799 0.345006 0.140841
0.906584 0.358160 0.153536
0.932677 0.372869 0.169741
0.955779 0.389532 0.189425
0.976501 0.408453 0.213535
0.995148 0.430365 0.242741
1.000000 0.455573 0.277501
1.000000 0.484077 0.318059
1.000000 0.515526 0.363622
0.146334 0.156710 0.105104
0.147463 0.156863 0.104829
0.148775 0.156802 0.104768
0.151888 0.156924 0.104402
0.156741 0.156924 0.103731
0.163607 0.156710 0.102998
0.172671 0.156313 0.101900
0.184573 0.155581 0.100923
0.199252 0.154025 0.099580
0.218021 0.151766 0.098421
0.244327 0.148745 0.096925
0.298894 0.158114 0.090944
0.348852 0.171786 0.084901
0.400977 0.187228 0.077760
0.455909 0.205386 0.071015
0.511925 0.226383 0.068879
0.567407 0.250523 0.076387
0.615442 0.275120 0.093812
0.659968 0.302251 0.118959
0.705348 0.327062 0.141024
0.754330 0.337194 0.141756
0.798856 0.347753 0.145296
0.838499 0.358862 0.152102
0.873350 0.371130 0.162173
0.903746 0.384436 0.175204
0.930327 0.399603 0.192325
0.953857 0.416144 0.212741
0.974670 0.435065 0.237644
0.993164 0.456397 0.267369
1.000000 0.480354 0.301762
1.000000 0.507073 0.341070
1.000000 0.536492 0.384771
0.164767 0.169253 0.103273
0.165896 0.169375 0.103212
0.167208 0.169436 0.102907
0.170260 0.169375 0.102541
0.175265 0.169528 0.101778
0.182010 0.169467 0.100984
0.190860 0.169100 0.099825
0.202274 0.168429 0.098482
0.216159 0.167025 0.097078
0.236271 0.166537 0.095430
0.260502 0.164248 0.093507
0.301884 0.164645 0.089540
0.359533 0.179294 0.079927
0.408179 0.193881 0.071565
0.459541 0.210178 0.062135
0.511650 0.228367 0.051392
0.564050 0.249363 0.052735
0.615198 0.273472 0.069734
0.659998 0.298894 0.094484
0.701808 0.327245 0.125612
0.742794 0.356756 0.158694
0.787961 0.367590 0.162448
0.828489 0.378820 0.169131
0.864652 0.391180 0.178988
0.896208 0.404639 0.192447
0.923857 0.419684 0.209537
0.948363 0.436683 0.230838
0.970001 0.455879 0.256504
0.989105 0.477455 0.287053
1.000000 0.501640 0.322515
1.000000 0.528618 0.363104
1.000000 0.558038 0.407233
0.185122 0.183474 0.100984
0.186648 0.183719 0.100618
0.201266 0.193088 0.098604
0.204349 0.193149 0.098146
0.209262 0.192996 0.097353
0.216007 0.192721 0.096193
0.224796 0.192142 0.094911
0.239292 0.193240 0.092805
0.257816 0.194522 0.090089
0.279911 0.195377 0.086885
0.306371 0.195010 0.083619
0.335058 0.190890 0.081056
0.386023 0.194308 0.071626
0.445014 0.213199 0.049805
0.495338 0.229282 0.017609
0.546563 0.246830 0.000000
0.596948 0.266239 0.000000
0.644312 0.287907 0.004883
0.688075 0.312444 0.065553
0.727138 0.338933 0.104372
0.762905 0.368841 0.146029
0.796750 0.402930 0.192721
0.835050 0.414008 0.200717
0.868650 0.425086 0.210452
0.897581 0.436378 0.222568
0.923003 0.448768 0.237644
0.945647 0.462593 0.256138
0.966247 0.479133 0.279515
0.984985 0.499001 0.308690
1.000000 0.522362 0.343786
1.000000 0.548730 0.383886
1.000000 0.577264 0.427314
0.210483 0.201663 0.097139
0.213779 0.203342 0.096590
0.217350 0.205081 0.095979
0.223239 0.207156 0.094881
0.231235 0.209293 0.093568
0.240848 0.211185 0.091585
0.252079 0.212619 0.089448
0.265721 0.213748 0.087037
0.282170 0.214359 0.084291
0.301518 0.214420 0.080751
0.325475 0.214450 0.077119
0.351904 0.211337 0.073457
0.386419 0.207309 0.068116
0.441321 0.216251 0.046204
0.494392 0.233280 0.002472
0.542657 0.249058 0.000000
0.590753 0.266056 0.000000
0.637140 0.285405 0.000000
0.680903 0.307439 0.000000
0.721859 0.332494 0.068208
0.759243 0.360754 0.113954
0.794156 0.392950 0.160922
0.825834 0.429419 0.214145
0.860166 0.444495 0.229984
0.890501 0.456580 0.243015
0.916991 0.469581 0.258640
0.940551 0.483864 0.277928
0.961669 0.500633 0.301823
0.980774 0.520592 0.331456
0.997772 0.543633 0.366491
1.000000 0.569635 0.406317
1.000000 0.597620 0.449195
0.237400 0.221836 0.092134
0.241001 0.223911 0.091310
0.245060 0.225986 0.090486
0.250828 0.228183 0.089174
0.258305 0.230228 0.087343
0.266941 0.231754 0.085512
0.277379 0.232792 0.083223
0.289677 0.233402 0.080415
0.304479 0.233799 0.077058
0.322271 0.233738 0.073121
0.344549 0.234043 0.068910
0.369482 0.232181 0.063935
0.392798 0.224796 0.061402
0.436591 0.222873 0.043275
0.496498 0.238865 0.000000
0.543359 0.253819 0.000000
0.589960 0.269444 0.000000
0.635309 0.286595 0.000000
0.678676 0.306615 0.000000
0.719692 0.329595 0.000000
0.757839 0.355932 0.077363
0.793393 0.386145 0.128939
0.826017 0.420966 0.182803
0.854215 0.458991 0.241459
0.883787 0.477089 0.264988
0.910948 0.490089 0.280766
0.934874 0.504204 0.299657
0.956359 0.520745 0.323522
0.975769 0.540154 0.352575
0.992950 0.562799 0.387274
1.000000 0.588098 0.426337
1.000000 0.615473 0.468269
0.262150 0.241306 0.086000
0.265873 0.243565 0.084993
0.270146 0.245823 0.083864
0.275944 0.248234 0.082185
0.283116 0.250248 0.080140
0.291081 0.251621 0.077699
0.300542 0.252354 0.075227
0.311803 0.252567 0.072084
0.325566 0.252689 0.068330
0.342107 0.252811 0.063661
0.362493 0.253208 0.058747
0.385657 0.251987 0.048432
0.411017 0.247776 0.036988
0.438514 0.239963 0.027131
0.486183 0.239292 0.000000
0.546685 0.259892 0.000000
0.594659 0.275792 0.000000
0.642603 0.293431 0.000000
0.688838 0.313603 0.000000
0.732601 0.336980 0.000000
0.773342 0.363989 0.000000
0.810056 0.394690 0.102510
0.842283 0.429084 0.163302
0.870695 0.468269 0.227970
0.893523 0.510185 0.298161
0.917815 0.532341 0.331334
0.940764 0.547875 0.353002
0.960998 0.565148 0.378637
0.978973 0.584771 0.408820
0.994690 0.606714 0.442878
1.000000 0.630732 0.480140
1.000000 0.655909 0.518975
0.297398 0.270146 0.073945
0.299962 0.271489 0.073030
0.302525 0.272709 0.071839
0.306798 0.273869 0.070375
0.312627 0.274815 0.068269
0.319829 0.275700 0.065492
0.328710 0.276219 0.061891
0.339849 0.276646 0.056977
0.353460 0.277073 0.048035
0.370977 0.278691 0.034699
0.391577 0.280095 0.018860
0.414710 0.279759 0.002838
0.439734 0.276799 0.000000
0.464729 0.269200 0.000000
0.501732 0.262943 0.000000
0.556603 0.269780 0.000000
0.612207 0.288884 0.000000
0.658534 0.305364 0.000000
0.702754 0.323766 0.000000
0.744289 0.344793 0.000000
0.782589 0.369024 0.000000
0.816892 0.396368 0.055146
0.846708 0.426825 0.130709
0.872221 0.460700 0.194217
0.895262 0.500359 0.264042
0.913848 0.543206 0.338994
0.934936 0.567529 0.377050
0.955688 0.584985 0.402655
0.973968 0.604517 0.432441
0.989929 0.625940 0.465461
1.000000 0.649134 0.501335
1.000000 0.673426 0.538903
0.321111 0.290105 0.061952
0.323857 0.291630 0.060609
0.326604 0.293034 0.059358
0.330907 0.294316 0.055512
0.336431 0.295384 0.050782
0.343084 0.295750 0.044984
0.351324 0.295964 0.036072
0.361425 0.296147 0.026154
0.374792 0.297154 0.014099
0.391333 0.299138 0.000763
0.410712 0.300481 0.000000
0.432654 0.300725 0.000000
0.456733 0.298680 0.000000
0.483131 0.293706 0.000000
0.506554 0.282536 0.000000
0.553826 0.279484 0.000000
0.615137 0.295323 0.000000
0.664607 0.312993 0.000000
0.709316 0.330632 0.000000
0.751369 0.350683 0.000000
0.790219 0.373907 0.000000
0.825223 0.400366 0.000000
0.855650 0.430182 0.095979
0.881193 0.463172 0.168185
0.893309 0.486793 0.223239
0.913146 0.527886 0.298009
0.929137 0.572534 0.377539
0.948119 0.598688 0.419318
0.967102 0.618067 0.448188
0.983703 0.639399 0.480751
0.998108 0.662745 0.516625
1.000000 0.686915 0.553948
0.357244 0.321263 0.014740
0.360235 0.323186 0.010315
0.362921 0.324346 0.006012
0.366552 0.325139 0.001740
0.371221 0.325414 0.000000
0.377203 0.325353 0.000000
0.384436 0.324865 0.000000
0.393774 0.324834 0.000000
0.405859 0.325689 0.000000
0.420539 0.326390 0.000000
0.437385 0.326574 0.000000
0.457252 0.326116 0.000000
0.479377 0.323796 0.000000
0.503227 0.319036 0.000000
0.527947 0.310338 0.000000
0.556481 0.299168 0.000000
0.602838 0.295018 0.000000
0.662409 0.316655 0.000000
0.706477 0.333196 0.000000
0.749264 0.352026 0.000000
0.789181 0.373968 0.000000
0.825071 0.398962 0.000000
0.855741 0.426612 0.000000
0.881010 0.456397 0.128054
0.901183 0.488167 0.197971
0.917205 0.521691 0.266392
0.933135 0.564416 0.346685
0.945373 0.609857 0.428962
0.961761 0.635981 0.470771
0.978515 0.656367 0.501518
0.993164 0.678828 0.536004
1.000000 0.702174 0.571801
0.379889 0.340856 0.000000
0.383124 0.342931 0.000000
0.385870 0.344274 0.000000
0.389410 0.345098 0.000000
0.393988 0.345403 0.000000
0.400000 0.345861 0.000000
0.407965 0.346868 0.000000
0.417731 0.347784 0.000000
0.430030 0.349187 0.000000
0.444984 0.350500 0.000000
0.462318 0.351507 0.000000
0.482582 0.351965 0.000000
0.505028 0.350958 0.000000
0.529137 0.347387 0.000000
0.554559 0.340826 0.000000
0.577783 0.328557 0.000000
0.617578 0.321050 0.000000
0.669703 0.326207 0.000000
0.722286 0.346410 0.000000
0.764431 0.364538 0.000000
0.803494 0.385290 0.000000
0.838468 0.408881 0.000000
0.868345 0.435309 0.000000
0.893034 0.464363 0.094881
0.912902 0.495583 0.177310
0.928283 0.528588 0.250828
0.940124 0.563043 0.323033
0.952300 0.608179 0.409277
0.961425 0.655268 0.492988
0.975738 0.681636 0.534783
0.990295 0.702815 0.566949
1.000000 0.724605 0.600458
0.409705 0.367346 0.000000
0.412451 0.369085 0.000000
0.414527 0.369970 0.000000
0.417517 0.370611 0.000000
0.421607 0.371008 0.000000
0.427161 0.371344 0.000000
0.434302 0.371801 0.000000
0.443580 0.372686 0.000000
0.455482 0.373724 0.000000
0.470008 0.375250 0.000000
0.487221 0.376562 0.000000
0.507530 0.377600 0.000000
0.529839 0.377386 0.000000
0.553857 0.374914 0.000000
0.578698 0.369512 0.000000
0.604669 0.360662 0.000000
0.628870 0.346441 0.000000
0.673548 0.340246 0.000000
0.728695 0.355322 0.000000
0.773861 0.374365 0.000000
0.812558 0.393896 0.000000
0.847074 0.416083 0.000000
0.876616 0.441108 0.000000
0.901152 0.469001 0.000610
0.920928 0.499123 0.147799
0.936400 0.531365 0.227787
0.948119 0.565270 0.304021
0.956481 0.600275 0.378454
0.965545 0.646143 0.465187
0.972442 0.693568 0.547997
0.985687 0.717769 0.585870
0.998657 0.738277 0.617334
0.437659 0.393561 0.000000
0.439918 0.394965 0.000000
0.441962 0.395850 0.000000
0.445136 0.396735 0.000000
0.450172 0.397833 0.000000
0.457191 0.399512 0.000000
0.467353 0.402625 0.000000
0.480323 0.406378 0.000000
0.496712 0.411139 0.000000
0.516045 0.416144 0.000000
0.538201 0.421210 0.000000
0.562829 0.425391 0.000000
0.589105 0.427955 0.000000
0.615595 0.427558 0.000000
0.642084 0.423651 0.000000
0.667628 0.415442 0.000000
0.692012 0.402258 0.000000
0.723934 0.389929 0.000000
0.767819 0.384283 0.000000
0.819059 0.407691 0.000000
0.854459 0.426947 0.000000
0.885191 0.448768 0.000000
0.910765 0.473243 0.000000
0.931762 0.500572 0.000000
0.948302 0.530541 0.151949
0.960723 0.562921 0.243259
0.969543 0.597162 0.328008
0.975280 0.632013 0.407630
0.978882 0.666468 0.479561
0.983337 0.709926 0.559808
0.987304 0.751308 0.631281
0.998627 0.769802 0.660426
0.496895 0.446845 0.000000
0.498787 0.447791 0.000000
0.500328 0.448127 0.000000
0.502831 0.448280 0.000000
0.506950 0.448524 0.000000
0.512932 0.449042 0.000000
0.521416 0.450446 0.000000
0.532586 0.452491 0.000000
0.546441 0.455055 0.000000
0.563165 0.457893 0.000000
0.582055 0.460548 0.000000
0.603113 0.462501 0.000000
0.625544 0.462867 0.000000
0.648737 0.461128 0.000000
