data/fiter_cube/12544332/1022699/file.cube
# Created by Adobe Lightroom plugin Export LUT (1.24.0)
# www.johnrellis.com/lightroom/exportlut.htm
# Preset: 城市青橙纪实夜景 _03 云集
# Color profile: C:\Program Files (x86)\Common Files\Adobe\Color\Profiles\Recommended\AdobeRGB1998.icc
LUT_3D_SIZE 32
0.048341 0.048341 0.048341
0.070893 0.049683 0.047333
0.092988 0.054261 0.044953
0.131563 0.060700 0.038880
0.178470 0.070222 0.028687
0.223728 0.080842 0.016999
0.267094 0.092012 0.003082
0.308843 0.104280 0.000000
0.350683 0.117128 0.000000
0.392584 0.130007 0.000000
0.434699 0.143404 0.000000
0.476753 0.157382 0.000000
0.518120 0.171542 0.000000
0.558679 0.186099 0.000000
0.598077 0.200198 0.000000
0.638788 0.214450 0.000000
0.674372 0.227207 0.000000
0.706111 0.238529 0.000000
0.735103 0.248875 0.000000
0.762966 0.258518 0.000000
0.789853 0.267399 0.000000
0.815854 0.275761 0.000000
0.840757 0.283146 0.000000
0.864714 0.290166 0.000000
0.887755 0.296452 0.000000
0.910277 0.302281 0.000000
0.932403 0.307774 0.000000
0.954314 0.312932 0.000000
0.976043 0.317662 0.000000
0.997650 0.322271 0.000000
1.000000 0.326848 0.000000
1.000000 0.331212 0.000000
0.046815 0.054658 0.051118
0.070222 0.059663 0.046357
0.092409 0.063050 0.043641
0.130892 0.068544 0.037324
0.177371 0.077180 0.027161
0.222446 0.087037 0.015534
0.265873 0.097780 0.000519
0.307744 0.108858 0.000000
0.349401 0.121096 0.000000
0.391241 0.133486 0.000000
0.433234 0.146670 0.000000
0.475227 0.160006 0.000000
0.516472 0.174350 0.000000
0.557000 0.188357 0.000000
0.596643 0.201968 0.000000
0.636805 0.216373 0.000000
0.672023 0.228824 0.000000
0.703761 0.239597 0.000000
0.732723 0.249851 0.000000
0.760616 0.259434 0.000000
0.787625 0.268254 0.000000
0.813748 0.276249 0.000000
0.838804 0.283726 0.000000
0.862852 0.290837 0.000000
0.886107 0.296941 0.000000
0.908751 0.302800 0.000000
0.930999 0.308141 0.000000
0.953033 0.313268 0.000000
0.974914 0.318120 0.000000
0.996643 0.322728 0.000000
1.000000 0.327184 0.000000
1.000000 0.331456 0.000000
0.041016 0.066865 0.057740
0.068421 0.068818 0.051606
0.091279 0.070954 0.048890
0.130037 0.076967 0.037537
0.176120 0.085817 0.026093
0.221225 0.095003 0.014405
0.264530 0.104707 0.000000
0.306157 0.115267 0.000000
0.347906 0.126253 0.000000
0.389807 0.138338 0.000000
0.431891 0.150912 0.000000
0.473793 0.163973 0.000000
0.515190 0.177646 0.000000
0.555779 0.191653 0.000000
0.595392 0.205203 0.000000
0.635431 0.218845 0.000000
0.670558 0.231144 0.000000
0.702205 0.241794 0.000000
0.731258 0.251621 0.000000
0.759182 0.260899 0.000000
0.786313 0.269505 0.000000
0.812558 0.277592 0.000000
0.837675 0.285069 0.000000
0.861875 0.291783 0.000000
0.885161 0.297887 0.000000
0.907866 0.303777 0.000000
0.930205 0.309178 0.000000
0.952331 0.314305 0.000000
0.974273 0.318975 0.000000
0.996063 0.323552 0.000000
1.000000 0.327977 0.000000
1.000000 0.332250 0.000000
0.026764 0.085908 0.067689
0.063142 0.087678 0.064271
0.088869 0.088808 0.061952
0.127382 0.093172 0.056031
0.173953 0.100832 0.034546
0.219028 0.109804 0.010620
0.262181 0.117891 0.000000
0.304112 0.127199 0.000000
0.345953 0.137331 0.000000
0.387762 0.148379 0.000000
0.429969 0.160098 0.000000
0.471870 0.172549 0.000000
0.513085 0.185824 0.000000
0.553643 0.198917 0.000000
0.593866 0.211551 0.000000
0.633417 0.224796 0.000000
0.668452 0.236484 0.000000
0.700038 0.246586 0.000000
0.729030 0.255772 0.000000
0.756893 0.264714 0.000000
0.784024 0.273045 0.000000
0.810361 0.280888 0.000000
0.835782 0.287999 0.000000
0.860288 0.294713 0.000000
0.884001 0.300786 0.000000
0.907103 0.306523 0.000000
0.929747 0.311772 0.000000
0.951995 0.316838 0.000000
0.974060 0.321416 0.000000
0.995819 0.325841 0.000000
1.000000 0.329992 0.000000
1.000000 0.334051 0.000000
0.008698 0.104524 0.077852
0.051301 0.105776 0.075715
0.081605 0.107088 0.073854
0.118929 0.109957 0.069459
0.166873 0.118379 0.060792
0.214969 0.126528 0.037934
0.258640 0.134005 0.006928
0.300633 0.143038 0.000000
0.342504 0.152163 0.000000
0.384375 0.162478 0.000000
0.426551 0.173007 0.000000
0.468574 0.184817 0.000000
0.509911 0.196750 0.000000
0.550774 0.208927 0.000000
0.591455 0.221256 0.000000
0.630915 0.233433 0.000000
0.666224 0.244205 0.000000
0.698024 0.253971 0.000000
0.727291 0.262913 0.000000
0.755337 0.270970 0.000000
0.782467 0.278782 0.000000
0.808835 0.286168 0.000000
0.834348 0.292973 0.000000
0.859037 0.299535 0.000000
0.882933 0.305211 0.000000
0.906157 0.310643 0.000000
0.928923 0.315679 0.000000
0.951293 0.320439 0.000000
0.973358 0.324956 0.000000
0.995209 0.329229 0.000000
1.000000 0.333165 0.000000
1.000000 0.337224 0.000000
0.000000 0.122530 0.088899
0.031556 0.123812 0.087312
0.071138 0.125093 0.084688
0.110445 0.127565 0.081056
0.154116 0.132784 0.075502
0.205936 0.143038 0.065003
0.254307 0.151583 0.043030
0.296849 0.158938 0.007752
0.338811 0.167544 0.000000
0.381140 0.177249 0.000000
0.423285 0.188388 0.000000
0.465339 0.199771 0.000000
0.506889 0.210941 0.000000
0.547936 0.222141 0.000000
0.589349 0.233799 0.000000
0.628717 0.244968 0.000000
0.664118 0.255009 0.000000
0.696162 0.264012 0.000000
0.725643 0.272099 0.000000
0.754025 0.279515 0.000000
0.781430 0.287083 0.000000
0.808164 0.293706 0.000000
0.844724 0.303929 0.000000
0.868711 0.309728 0.000000
0.891875 0.314702 0.000000
0.914336 0.319646 0.000000
0.936278 0.323949 0.000000
0.957916 0.328099 0.000000
0.979278 0.332097 0.000000
1.000000 0.335943 0.000000
1.000000 0.339574 0.000000
1.000000 0.343084 0.000000
0.000000 0.142092 0.101808
0.010010 0.143435 0.100252
0.059419 0.144900 0.097993
0.100343 0.147585 0.092103
0.145357 0.150759 0.088289
0.192996 0.158053 0.080629
0.245792 0.169192 0.069123
0.294438 0.177981 0.049989
0.337438 0.185092 0.012879
0.380407 0.193606 0.000000
0.423041 0.203555 0.000000
0.465644 0.214298 0.000000
0.507378 0.225254 0.000000
0.548455 0.236667 0.000000
0.591028 0.249180 0.000000
0.630335 0.260258 0.000000
0.665675 0.269108 0.000000
0.697688 0.277012 0.000000
0.727382 0.284184 0.000000
0.756161 0.291295 0.000000
0.784451 0.298253 0.000000
0.812070 0.304631 0.000000
0.838743 0.310796 0.000000
0.864378 0.316381 0.000000
0.888823 0.321630 0.000000
0.912078 0.326116 0.000000
0.934508 0.330419 0.000000
0.956390 0.334264 0.000000
0.977996 0.337987 0.000000
0.999298 0.341375 0.000000
1.000000 0.344793 0.000000
1.000000 0.348089 0.000000
0.000000 0.161898 0.115145
0.000000 0.163180 0.113985
0.036774 0.164858 0.111635
0.087037 0.167758 0.104891
0.136446 0.170596 0.099977
0.181308 0.174105 0.095033
0.231174 0.183230 0.086275
0.282811 0.193698 0.075410
0.331914 0.202853 0.060121
0.375341 0.210208 0.019562
0.418494 0.218784 0.000000
0.461341 0.228183 0.000000
0.503349 0.238102 0.000000
0.544762 0.248661 0.000000
0.588006 0.260349 0.000000
0.627039 0.270970 0.000000
0.662318 0.280400 0.000000
0.694423 0.288975 0.000000
0.724269 0.296483 0.000000
0.753262 0.302647 0.000000
0.781643 0.308873 0.000000
0.809415 0.314824 0.000000
0.836301 0.320348 0.000000
0.862058 0.325475 0.000000
0.886656 0.330053 0.000000
0.910124 0.334264 0.000000
0.932738 0.338140 0.000000
0.954803 0.341497 0.000000
0.976593 0.344915 0.000000
0.998047 0.347997 0.000000
1.000000 0.351141 0.000000
1.000000 0.354192 0.000000
0.000000 0.183627 0.130251
0.000000 0.184787 0.128725
0.010437 0.186099 0.126741
0.075532 0.188968 0.121004
0.124422 0.192203 0.112612
0.173709 0.195041 0.109041
0.219486 0.199619 0.102541
0.269444 0.208774 0.092805
0.320684 0.218692 0.081758
0.370001 0.228336 0.066072
0.413733 0.235782 0.027253
0.456947 0.243870 0.000000
0.499550 0.252750 0.000000
0.542168 0.262699 0.000000
0.585107 0.273411 0.000000
0.624079 0.282963 0.000000
0.659449 0.291508 0.000000
0.691737 0.299229 0.000000
0.721706 0.306493 0.000000
0.750881 0.313970 0.000000
0.779385 0.321202 0.000000
0.807279 0.326390 0.000000
0.834287 0.331243 0.000000
0.860197 0.335943 0.000000
0.884916 0.340093 0.000000
0.908507 0.343633 0.000000
0.931304 0.346929 0.000000
0.953521 0.350103 0.000000
0.975402 0.353002 0.000000
0.996979 0.355840 0.000000
1.000000 0.358587 0.000000
1.000000 0.361242 0.000000
0.000000 0.206058 0.145449
0.000000 0.207126 0.144289
0.000000 0.208469 0.142397
0.060548 0.211093 0.136965
0.109346 0.214603 0.126040
0.164431 0.217136 0.122347
0.211795 0.220279 0.117525
0.258824 0.225803 0.109621
0.308263 0.234470 0.099855
0.358618 0.244266 0.088533
0.408057 0.253910 0.072267
0.451911 0.261112 0.037934
0.494728 0.268925 0.000000
0.538811 0.278233 0.000000
0.581842 0.287846 0.000000
0.621271 0.296483 0.000000
0.657038 0.304326 0.000000
0.689723 0.311315 0.000000
0.719936 0.317967 0.000000
0.749203 0.324437 0.000000
0.777676 0.331060 0.000000
0.805325 0.337743 0.000000
0.832120 0.343481 0.000000
0.857816 0.347356 0.000000
0.882567 0.350774 0.000000
0.906340 0.354040 0.000000
0.929351 0.356847 0.000000
0.951904 0.359594 0.000000
0.974090 0.362097 0.000000
0.995941 0.364599 0.000000
1.000000 0.367071 0.000000
1.000000 0.369482 0.000000
0.000000 0.228946 0.160800
0.000000 0.229831 0.159945
0.000000 0.231144 0.157961
0.021546 0.233555 0.152773
0.095827 0.236881 0.143343
0.150912 0.239689 0.134951
0.203708 0.242344 0.131716
0.250217 0.245792 0.125826
0.298283 0.252110 0.116213
0.347387 0.260624 0.106966
0.397253 0.269963 0.095430
0.446571 0.279698 0.079164
0.490364 0.286900 0.051087
0.535088 0.295323 0.000000
0.578119 0.303655 0.000000
0.617578 0.311315 0.000000
0.653712 0.317998 0.000000
0.686458 0.324163 0.000000
0.716945 0.330053 0.000000
0.746517 0.335790 0.000000
0.775204 0.341833 0.000000
0.803159 0.347753 0.000000
0.830076 0.353826 0.000000
0.856016 0.359594 0.000000
0.880888 0.362982 0.000000
0.904753 0.365637 0.000000
0.927916 0.367895 0.000000
0.950561 0.370245 0.000000
0.972839 0.372351 0.000000
0.994812 0.374426 0.000000
1.000000 0.376379 0.000000
1.000000 0.378485 0.000000
0.000000 0.252171 0.176364
0.000000 0.253056 0.175448
0.000000 0.254246 0.173587
0.000000 0.256474 0.169223
0.078279 0.259495 0.160861
0.133150 0.262943 0.147677
0.193088 0.265141 0.145388
0.242863 0.267948 0.140536
0.289189 0.271519 0.134035
0.338201 0.278721 0.122499
0.386877 0.286931 0.114107
0.436103 0.296178 0.102632
0.493935 0.310857 0.085908
0.540185 0.318944 0.060700
0.584009 0.326421 0.000000
0.623835 0.332891 0.000000
0.659846 0.338354 0.000000
0.692470 0.343145 0.000000
0.722744 0.347723 0.000000
0.751980 0.352453 0.000000
0.780270 0.357214 0.000000
0.807645 0.362219 0.000000
0.833951 0.367132 0.000000
0.859373 0.372137 0.000000
0.883757 0.376837 0.000000
0.907347 0.379858 0.000000
0.930175 0.381567 0.000000
0.952544 0.383124 0.000000
0.974548 0.384588 0.000000
0.996277 0.386114 0.000000
1.000000 0.387579 0.000000
1.000000 0.389136 0.000000
0.000000 0.277226 0.193088
0.000000 0.278050 0.191928
0.000000 0.278904 0.189822
0.000000 0.281071 0.185672
0.046357 0.283818 0.178225
0.117464 0.286870 0.166659
0.178805 0.289189 0.158175
0.234287 0.291508 0.155489
0.282963 0.294652 0.149294
0.330022 0.299107 0.141390
0.379522 0.306340 0.129824
0.428321 0.314702 0.122286
0.480903 0.326207 0.110445
0.533165 0.337133 0.093629
0.577630 0.344213 0.068727
0.618250 0.349798 0.004822
0.654749 0.354467 0.000000
0.687831 0.358434 0.000000
0.718502 0.361975 0.000000
0.748074 0.365850 0.000000
0.776699 0.370001 0.000000
0.804288 0.374304 0.000000
0.830869 0.378668 0.000000
0.856504 0.382818 0.000000
0.881132 0.387060 0.000000
0.904906 0.391119 0.000000
0.927977 0.394049 0.000000
0.950561 0.395117 0.000000
0.972808 0.396307 0.000000
0.994751 0.397406 0.000000
1.000000 0.398444 0.000000
1.000000 0.399664 0.000000
0.000000 0.300450 0.208255
0.000000 0.301122 0.207004
0.000000 0.301976 0.205264
0.000000 0.303929 0.201511
0.000000 0.306645 0.194583
0.098146 0.309606 0.184024
0.158328 0.312566 0.169833
0.221958 0.314305 0.168399
0.274083 0.317021 0.164248
0.322087 0.320195 0.157321
0.369818 0.325383 0.148287
0.420050 0.333623 0.138216
0.470619 0.343420 0.130587
0.521294 0.353246 0.118044
0.571130 0.362799 0.101045
0.612421 0.367956 0.077790
0.649317 0.371649 0.027802
0.682795 0.374609 0.000000
0.713985 0.377386 0.000000
0.743954 0.380560 0.000000
0.772976 0.383948 0.000000
0.800961 0.387518 0.000000
0.827909 0.391211 0.000000
0.853849 0.394903 0.000000
0.878782 0.398413 0.000000
0.902800 0.402014 0.000000
0.926116 0.405676 0.000000
0.948974 0.408087 0.000000
0.971405 0.408789 0.000000
0.993561 0.409552 0.000000
1.000000 0.410315 0.000000
1.000000 0.411078 0.000000
0.000000 0.323674 0.223239
0.000000 0.324437 0.222446
0.000000 0.325200 0.220706
0.000000 0.326970 0.217166
0.000000 0.329564 0.210758
0.071321 0.332403 0.201450
0.140444 0.335607 0.188266
0.205722 0.337499 0.180514
0.263584 0.339635 0.178805
0.313756 0.342504 0.172793
0.361273 0.346014 0.165805
0.411414 0.353429 0.156252
0.461646 0.361822 0.146700
0.511070 0.370489 0.138216
0.559960 0.379217 0.125368
0.606012 0.386572 0.108553
0.643915 0.390021 0.088350
0.677852 0.392035 0.057862
0.709407 0.393988 0.000000
0.739895 0.396368 0.000000
0.769192 0.398901 0.000000
0.797543 0.401862 0.000000
0.824765 0.404791 0.000000
0.851011 0.407752 0.000000
0.876219 0.410864 0.000000
0.900664 0.413977 0.000000
0.924437 0.416968 0.000000
0.947692 0.420264 0.000000
0.970581 0.422309 0.000000
0.993133 0.422644 0.000000
1.000000 0.423163 0.000000
1.000000 0.423621 0.000000
0.000000 0.347082 0.238712
0.000000 0.347875 0.237949
0.000000 0.348638 0.236179
0.000000 0.350256 0.233005
0.000000 0.352850 0.227207
0.000000 0.355688 0.218326
0.120668 0.358862 0.206455
0.184878 0.361639 0.192691
0.250431 0.363256 0.191958
0.304448 0.365545 0.187869
0.354803 0.369696 0.182010
0.403388 0.374548 0.174746
0.452888 0.381415 0.164187
0.501640 0.388647 0.155398
0.549126 0.396094 0.145693
0.595026 0.402930 0.133089
0.637018 0.408026 0.117494
0.672389 0.410254 0.099092
0.704799 0.411536 0.072267
0.735866 0.413184 0.005402
0.765805 0.415198 0.000000
0.794614 0.417426 0.000000
0.822354 0.419898 0.000000
0.848936 0.422187 0.000000
0.874540 0.424659 0.000000
0.899260 0.427131 0.000000
0.923308 0.429694 0.000000
0.946838 0.432380 0.000000
0.969970 0.435157 0.000000
0.992645 0.436469 0.000000
1.000000 0.436439 0.000000
1.000000 0.436530 0.000000
0.000000 0.370336 0.253971
0.000000 0.370825 0.252903
0.000000 0.371618 0.251560
0.000000 0.373297 0.248539
0.000000 0.375586 0.243168
0.000000 0.378393 0.235477
0.095308 0.381415 0.224826
0.165652 0.384314 0.210330
0.233371 0.386236 0.203922
0.293675 0.388952 0.203159
0.346197 0.392859 0.197940
0.395575 0.396704 0.191226
0.443763 0.401373 0.182956
0.492439 0.407507 0.171908
0.539605 0.413977 0.163394
0.584924 0.420081 0.153597
0.627008 0.424750 0.141360
0.665827 0.428199 0.126864
0.699611 0.429908 0.109621
0.731197 0.430762 0.086305
0.761593 0.432074 0.044709
0.790799 0.433600 0.000000
0.818875 0.435248 0.000000
0.845884 0.437140 0.000000
0.871855 0.439094 0.000000
0.896971 0.441016 0.000000
0.921355 0.443030 0.000000
0.945220 0.445167 0.000000
0.968688 0.447425 0.000000
0.991730 0.449805 0.000000
1.000000 0.450324 0.000000
1.000000 0.450080 0.000000
0.000000 0.393530 0.269352
0.000000 0.394202 0.268254
0.000000 0.397742 0.268956
0.000000 0.399176 0.265965
0.000000 0.401404 0.261112
0.000000 0.403967 0.253971
0.057984 0.406897 0.243778
0.146944 0.409674 0.230838
0.214328 0.413703 0.218479
0.282200 0.416541 0.218296
0.338964 0.419806 0.215518
0.390631 0.423224 0.209354
0.439399 0.426703 0.202121
0.487556 0.431312 0.192172
0.535363 0.436713 0.180423
0.580591 0.441749 0.172641
0.622583 0.445624 0.163424
0.661250 0.448402 0.151675
0.697078 0.450202 0.137789
0.729549 0.450996 0.121889
0.759976 0.451453 0.099672
0.789364 0.452125 0.070405
0.817655 0.452979 0.000000
0.844724 0.454108 0.000000
0.870603 0.455085 0.000000
0.895628 0.456275 0.000000
0.919921 0.457527 0.000000
0.943786 0.459083 0.000000
0.967346 0.460670 0.000000
0.990570 0.462531 0.000000
1.000000 0.464302 0.000000
1.000000 0.463966 0.000000
0.000000 0.417975 0.285222
0.000000 0.418921 0.284581
0.000000 0.419989 0.283574
0.000000 0.421729 0.281254
0.000000 0.424018 0.276768
0.000000 0.426734 0.270420
0.000000 0.430488 0.261631
0.123384 0.434577 0.250492
0.194308 0.438422 0.236118
0.264866 0.441047 0.231205
0.327031 0.443397 0.230014
0.380835 0.446418 0.224796
0.431098 0.449439 0.217929
0.478798 0.452430 0.210056
0.526543 0.456825 0.198947
0.572930 0.461280 0.186801
0.614862 0.464454 0.180240
0.653712 0.466590 0.171237
0.689906 0.468177 0.160281
0.723812 0.469093 0.147066
0.755154 0.469520 0.131868
0.785061 0.469764 0.112001
0.813840 0.470130 0.085542
0.841398 0.470619 0.027283
0.867735 0.471199 0.000000
0.893187 0.471901 0.000000
0.917906 0.472694 0.000000
0.942077 0.473671 0.000000
0.965881 0.474830 0.000000
0.989410 0.476143 0.000000
1.000000 0.477424 0.000000
1.000000 0.478462 0.000000
0.000000 0.442329 0.301152
0.000000 0.443336 0.300664
0.000000 0.444556 0.299870
0.000000 0.446571 0.297887
0.000000 0.449378 0.294072
0.000000 0.452766 0.288334
0.000000 0.456306 0.280583
0.090517 0.459876 0.269780
0.173892 0.463478 0.256199
0.243961 0.466285 0.244114
0.312383 0.468238 0.243259
0.370459 0.470527 0.240360
0.422492 0.473152 0.233982
0.471809 0.475929 0.226200
0.519066 0.478859 0.217502
0.565759 0.482704 0.206180
0.609064 0.485084 0.194736
0.648035 0.486610 0.188663
0.684474 0.487526 0.179538
0.718685 0.488014 0.168643
0.750698 0.488075 0.156588
0.780789 0.488075 0.142428
0.810056 0.488136 0.123812
0.838041 0.488075 0.099367
0.864836 0.488167 0.064240
0.890593 0.488289 0.000000
0.915618 0.488533 0.000000
0.940093 0.488991 0.000000
0.964172 0.489754 0.000000
0.987884 0.490517 0.000000
1.000000 0.491432 0.000000
1.000000 0.492287 0.000000
0.000000 0.469520 0.318700
0.000000 0.470527 0.318303
0.000000 0.471687 0.317815
0.000000 0.473640 0.315557
0.000000 0.476204 0.311986
0.000000 0.479194 0.306523
0.000000 0.482490 0.298955
0.000000 0.485786 0.288945
0.149752 0.489021 0.276249
0.221164 0.492134 0.260838
0.294835 0.493843 0.256291
0.358068 0.495583 0.254704
0.413062 0.497902 0.249790
0.464210 0.500206 0.242283
0.512840 0.502922 0.234531
0.559747 0.505882 0.224521
0.604059 0.507744 0.213504
0.644587 0.508721 0.203799
0.681514 0.509148 0.198062
0.716396 0.509361 0.189487
0.749020 0.509209 0.179568
0.779599 0.508629 0.167605
0.808469 0.507988 0.154757
0.837034 0.507774 0.137484
0.864317 0.507408 0.115785
0.890501 0.507103 0.086427
0.915862 0.506889 0.013123
0.940581 0.506950 0.000000
0.964935 0.506981 0.000000
0.988769 0.507378 0.000000
1.000000 0.507652 0.000000
1.000000 0.507958 0.000000
0.000000 0.499367 0.338048
0.000000 0.500084 0.337469
0.000000 0.500877 0.336706
0.000000 0.502495 0.334569
0.000000 0.504662 0.330907
0.000000 0.507286 0.325505
0.000000 0.510277 0.318090
0.000000 0.513451 0.308721
0.117891 0.516808 0.296513
0.201266 0.520012 0.281682
0.274357 0.522332 0.270634
0.344732 0.523919 0.269261
0.404547 0.525750 0.266911
0.457923 0.527855 0.259800
0.508110 0.529961 0.252384
0.556268 0.532158 0.243565
0.601160 0.533501 0.233280
0.642481 0.533379 0.222354
0.680110 0.532647 0.214542
0.714961 0.531884 0.208011
0.747677 0.530846 0.199680
0.778195 0.529564 0.189700
0.806577 0.527977 0.178988
0.833524 0.526360 0.165805
0.860990 0.525658 0.149813
0.887572 0.524895 0.129000
0.913329 0.524254 0.102449
0.938415 0.523888 0.061433
0.963012 0.523674 0.000000
0.987182 0.523522 0.000000
1.000000 0.523491 0.000000
1.000000 0.523400 0.000000
0.000000 0.527794 0.356390
0.000000 0.528557 0.355840
0.000000 0.529473 0.355169
0.000000 0.530938 0.353002
0.000000 0.532891 0.349493
0.000000 0.535363 0.344091
0.000000 0.538109 0.336889
0.000000 0.541009 0.327855
0.062470 0.544244 0.316381
0.175845 0.547356 0.302495
0.250309 0.550042 0.286656
0.327062 0.551293 0.283207
0.391821 0.552544 0.281498
0.448707 0.554040 0.276799
0.500816 0.555779 0.269535
0.550225 0.557519 0.261357
0.597436 0.559503 0.252445
0.639582 0.558770 0.242161
0.678431 0.557183 0.231510
0.713954 0.555352 0.224979
0.746914 0.553765 0.218875
0.777859 0.551843 0.210727
0.806668 0.549767 0.201358
0.833402 0.547265 0.190677
0.857084 0.543694 0.177127
0.883879 0.542840 0.161685
0.910033 0.541802 0.142031
0.935515 0.541100 0.116945
0.960449 0.540459 0.081910
0.984894 0.540032 0.000000
1.000000 0.539788 0.000000
1.000000 0.539422 0.000000
0.000000 0.559655 0.376776
0.000000 0.560388 0.376257
0.000000 0.561181 0.375586
0.000000 0.562402 0.373449
0.000000 0.564050 0.369726
0.000000 0.566155 0.364446
0.000000 0.568536 0.357549
0.000000 0.570977 0.348425
0.000000 0.573663 0.337346
0.144503 0.576257 0.323735
0.229679 0.578424 0.308659
0.306310 0.579736 0.298405
0.377569 0.580194 0.296513
0.438544 0.580926 0.294285
0.492409 0.581994 0.287358
0.543053 0.583001 0.279332
0.591089 0.584253 0.270665
0.636347 0.584710 0.261479
0.675776 0.582269 0.251286
0.712490 0.579522 0.241093
0.746059 0.577020 0.235660
0.777279 0.574487 0.229343
0.806302 0.571679 0.221592
0.833158 0.568566 0.212192
0.857939 0.565118 0.201389
0.881163 0.561639 0.189639
0.907408 0.560510 0.174960
0.933104 0.559289 0.155612
0.958251 0.558251 0.132143
0.982940 0.557519 0.101564
1.000000 0.557000 0.038514
1.000000 0.556451 0.000000
0.000000 0.588861 0.395361
0.000000 0.589532 0.394873
0.000000 0.590265 0.394232
0.000000 0.591424 0.391882
0.000000 0.592981 0.388281
0.000000 0.594842 0.383093
0.000000 0.596979 0.376471
0.000000 0.599298 0.367895
0.000000 0.601740 0.357244
0.097963 0.604273 0.344610
0.205112 0.606409 0.330297
0.282902 0.608179 0.314794
0.361120 0.608453 0.312627
0.426612 0.608789 0.310857
0.483986 0.609430 0.306584
0.536461 0.610193 0.298863
0.585962 0.611109 0.290898
0.633356 0.612268 0.281926
0.676020 0.611048 0.272465
0.713405 0.607355 0.262669
0.748074 0.603479 0.252903
0.779477 0.600061 0.248295
0.808713 0.596460 0.242222
0.835782 0.592584 0.234287
0.860807 0.588556 0.225010
0.884001 0.584222 0.214755
0.905577 0.579950 0.202976
0.931334 0.578790 0.189151
0.956847 0.577447 0.171023
0.981842 0.576379 0.149172
1.000000 0.575555 0.122133
1.000000 0.574792 0.081147
0.000000 0.618982 0.414557
0.000000 0.619593 0.414008
0.000000 0.620081 0.413031
0.000000 0.621027 0.410773
0.000000 0.622278 0.407263
0.000000 0.623896 0.402167
0.000000 0.625727 0.395331
0.000000 0.627802 0.387152
0.000000 0.629999 0.376867
0.000000 0.632288 0.365026
0.175784 0.634272 0.351537
0.262852 0.635981 0.337346
0.341924 0.636622 0.329717
0.413062 0.636652 0.327855
0.474342 0.636744 0.325536
0.528679 0.637293 0.319127
0.579644 0.637903 0.311284
0.628168 0.638636 0.303044
0.674861 0.639796 0.293919
0.714260 0.636316 0.284489
0.749599 0.631464 0.274907
0.782101 0.626642 0.265629
0.811460 0.622126 0.261662
0.838712 0.617517 0.255589
0.863951 0.612787 0.247501
0.887358 0.607874 0.238407
0.909148 0.602930 0.228183
0.929442 0.597986 0.216617
0.954437 0.596429 0.203738
0.979736 0.595239 0.186404
1.000000 0.594202 0.166445
1.000000 0.593225 0.142031
0.000000 0.648463 0.433173
0.000000 0.648951 0.432410
0.000000 0.649409 0.431678
0.000000 0.650294 0.429358
0.000000 0.651545 0.425818
0.000000 0.653254 0.420966
0.000000 0.655390 0.414801
0.000000 0.657740 0.407050
0.000000 0.660395 0.397803
0.000000 0.663050 0.386786
0.138827 0.665492 0.374701
0.242710 0.667506 0.362066
0.323735 0.668879 0.350896
0.401221 0.668940 0.349584
0.466743 0.669062 0.347875
0.524498 0.669215 0.344152
0.577111 0.669703 0.336736
0.627070 0.670222 0.328649
0.674922 0.671015 0.320134
0.720546 0.671565 0.310796
0.756374 0.665400 0.301518
0.789364 0.659266 0.292058
0.819364 0.653132 0.284428
0.846525 0.647425 0.280034
0.871763 0.641688 0.273503
0.895109 0.635981 0.265782
0.916960 0.630213 0.256687
0.937285 0.624506 0.246616
0.956329 0.618860 0.235325
0.980316 0.616876 0.223331
1.000000 0.615686 0.208072
1.000000 0.614466 0.190219
0.000000 0.682002 0.454231
0.000000 0.682429 0.453651
0.000000 0.682795 0.452644
0.000000 0.683467 0.450416
0.000000 0.684565 0.446784
0.000000 0.685969 0.441871
0.000000 0.687678 0.435706
0.000000 0.689631 0.428107
0.000000 0.691737 0.418952
0.000000 0.693812 0.408301
0.072358 0.695735 0.396765
0.217105 0.697292 0.384833
0.306310 0.698299 0.374273
0.386114 0.698238 0.369940
0.455482 0.697963 0.368322
