data/fiter_cube/12544332/1022699/file.cube
# Created by Adobe Lightroom plugin Export LUT (1.24.0)
# www.johnrellis.com/lightroom/exportlut.htm
# Preset: 城市青橙纪实夜景 _03 云集
# Color profile: C:\Program Files (x86)\Common Files\Adobe\Color\Profiles\Recommended\AdobeRGB1998.icc
LUT_3D_SIZE 5
DOMAIN_MIN 0.000000 0.000000 0.000000
DOMAIN_MAX 0.903226 0.903226 0.903226
0.048341 0.048341 0.048341
0.308843 0.104280 0.000000
0.598077 0.200198 0.000000
0.815854 0.275761 0.000000
0.976043 0.317662 0.000000
0.000000 0.161898 0.115145
0.282811 0.193698 0.075410
0.588006 0.260349 0.000000
0.809415 0.314824 0.000000
0.976593 0.344915 0.000000
0.000000 0.323674 0.223239
0.205722 0.337499 0.180514
0.559960 0.379217 0.125368
0.797543 0.401862 0.000000
0.970581 0.422309 0.000000
0.000000 0.499367 0.338048
0.000000 0.513451 0.308721
0.508110 0.529961 0.252384
0.778195 0.529564 0.189700
0.963012 0.523674 0.000000
0.000000 0.712825 0.473457
0.000000 0.720211 0.447883
0.440558 0.723812 0.386694
0.796841 0.722072 0.341894
0.968658 0.669917 0.290837
0.000000 0.156741 0.226535
0.254459 0.163027 0.213993
0.569390 0.221042 0.142489
0.795987 0.295659 0.000000
0.969299 0.344884 0.000000
0.000000 0.230198 0.250553
0.235691 0.235691 0.235691
0.558709 0.272770 0.176852
0.792355 0.323491 0.042695
0.968627 0.364660 0.000000
0.000000 0.353216 0.302861
0.152193 0.371191 0.289372
0.531945 0.393072 0.248325
0.781033 0.411170 0.165164
0.965820 0.428229 0.000000
0.000000 0.519188 0.396704
0.000000 0.533379 0.380835
0.489204 0.547601 0.328893
0.766873 0.542473 0.279667
0.958373 0.534447 0.181704
0.000000 0.719509 0.514061
0.000000 0.727047 0.493141
0.407904 0.735409 0.438544
0.788113 0.734829 0.399481
0.964538 0.682033 0.350683
0.000000 0.311803 0.448219
0.000000 0.303197 0.446571
0.498634 0.316991 0.418128
0.767117 0.344213 0.338994
0.957794 0.383490 0.260319
0.000000 0.358190 0.459052
0.000000 0.347234 0.456947
0.488380 0.357824 0.427985
0.760281 0.378302 0.356329
0.957946 0.400702 0.265721
0.000000 0.449531 0.491371
0.000000 0.451179 0.488838
0.458961 0.458961 0.458961
0.746029 0.468666 0.402533
0.954955 0.464668 0.299992
0.000000 0.570459 0.538293
0.000000 0.579736 0.536034
0.373419 0.595880 0.501671
0.730159 0.590326 0.467720
0.944640 0.576074 0.384802
0.000000 0.742916 0.627710
0.000000 0.749905 0.618433
0.130312 0.759945 0.563928
0.729366 0.755734 0.539513
0.945830 0.717922 0.493904
0.000000 0.456336 0.657221
0.000000 0.460609 0.656031
0.233982 0.425849 0.648280
0.700343 0.488411 0.603754
0.917693 0.546868 0.576074
0.000000 0.487129 0.660609
0.000000 0.482246 0.659480
0.232639 0.455573 0.650935
0.694453 0.509422 0.608820
0.916228 0.557275 0.578851
0.000000 0.548852 0.673182
0.000000 0.545006 0.672114
0.189090 0.535119 0.663386
0.680903 0.570214 0.627588
0.918181 0.590661 0.585595
0.000000 0.637263 0.698116
0.000000 0.637446 0.696223
0.000000 0.642298 0.688655
0.658595 0.658595 0.658595
0.921935 0.652064 0.595026
0.000000 0.769467 0.763912
0.000000 0.777035 0.761746
0.000000 0.797940 0.752956
0.562371 0.794980 0.692500
0.914000 0.777554 0.666682
0.000000 0.577234 0.848600
0.000000 0.588464 0.847105
0.000000 0.580102 0.843168
0.611933 0.634363 0.826322
0.877012 0.694026 0.790280
0.000000 0.590967 0.850401
0.000000 0.601160 0.848936
0.000000 0.593927 0.845151
0.605676 0.644709 0.828580
0.876249 0.702571 0.793606
0.000000 0.626856 0.857481
0.000000 0.631983 0.856413
0.000000 0.634485 0.852720
0.556481 0.667475 0.837949
0.874388 0.729427 0.804593
0.000000 0.695949 0.869444
0.000000 0.700649 0.868650
0.000000 0.708064 0.866117
0.394324 0.713832 0.855863
0.870481 0.776791 0.824399
0.000000 0.782803 0.887022
0.000000 0.787625 0.886534
0.000000 0.805661 0.884550
0.000000 0.821500 0.879118
0.857206 0.857176 0.857176
