data/fiter_cube/12544332/1022699/file.cube
# Created by Adobe Lightroom plugin Export LUT (1.24.0)
# www.johnrellis.com/lightroom/exportlut.htm
# Preset: 城市青橙纪实夜景 _03 云集
# Color profile: C:\Program Files (x86)\Common Files\Adobe\Color\Profiles\Recommended\AdobeRGB1998.icc
LUT_3D_SIZE 8
DOMAIN_MIN 0.000000 0.000000 0.000000
DOMAIN_MAX 0.903226 0.903226 0.903226
0.048341 0.048341 0.048341
0.178470 0.070222 0.028687
0.350683 0.117128 0.000000
0.518120 0.171542 0.000000
0.674372 0.227207 0.000000
0.789853 0.267399 0.000000
0.887755 0.296452 0.000000
0.976043 0.317662 0.000000
0.008698 0.104524 0.077852
0.166873 0.118379 0.060792
0.342504 0.152163 0.000000
0.509911 0.196750 0.000000
0.666224 0.244205 0.000000
0.782467 0.278782 0.000000
0.882933 0.305211 0.000000
0.973358 0.324956 0.000000
0.000000 0.183627 0.130251
0.124422 0.192203 0.112612
0.320684 0.218692 0.081758
0.499550 0.252750 0.000000
0.659449 0.291508 0.000000
0.779385 0.321202 0.000000
0.884916 0.340093 0.000000
0.975402 0.353002 0.000000
0.000000 0.277226 0.193088
0.046357 0.283818 0.178225
0.282963 0.294652 0.149294
0.480903 0.326207 0.110445
0.654749 0.354467 0.000000
0.776699 0.370001 0.000000
0.881132 0.387060 0.000000
0.972808 0.396307 0.000000
0.000000 0.370336 0.253971
0.000000 0.375586 0.243168
0.233371 0.386236 0.203922
0.443763 0.401373 0.182956
0.627008 0.424750 0.141360
0.761593 0.432074 0.044709
0.871855 0.439094 0.000000
0.968688 0.447425 0.000000
0.000000 0.469520 0.318700
0.000000 0.476204 0.311986
0.149752 0.489021 0.276249
0.413062 0.497902 0.249790
0.604059 0.507744 0.213504
0.749020 0.509209 0.179568
0.864317 0.507408 0.115785
0.964935 0.506981 0.000000
0.000000 0.588861 0.395361
0.000000 0.592981 0.388281
0.000000 0.601740 0.357244
0.361120 0.608453 0.312627
0.585962 0.611109 0.290898
0.748074 0.603479 0.252903
0.860807 0.588556 0.225010
0.956847 0.577447 0.171023
0.000000 0.712825 0.473457
0.000000 0.715236 0.466011
0.000000 0.722225 0.439094
0.287449 0.728603 0.398413
0.561913 0.723781 0.382330
0.758419 0.726558 0.350500
0.882933 0.698207 0.319219
0.968658 0.669917 0.290837
0.000000 0.097688 0.136324
0.151492 0.102998 0.129763
0.329168 0.134890 0.094270
0.497719 0.190097 0.023285
0.657832 0.243198 0.000000
0.776181 0.284276 0.000000
0.879057 0.310704 0.000000
0.970764 0.326604 0.000000
0.000000 0.135927 0.149416
0.142031 0.142031 0.142031
0.321050 0.163882 0.114992
0.494026 0.205509 0.057588
0.653864 0.253544 0.000000
0.772641 0.291325 0.000000
0.875547 0.318822 0.000000
0.968078 0.333135 0.000000
0.000000 0.202182 0.175235
0.112947 0.214389 0.173587
0.306279 0.229343 0.151888
0.485237 0.256077 0.104616
0.646937 0.290776 0.000000
0.769284 0.319615 0.000000
0.875303 0.346624 0.000000
0.969360 0.359289 0.000000
0.000000 0.289158 0.225132
0.000702 0.297032 0.218448
0.275975 0.307103 0.192477
0.467842 0.329198 0.163943
0.637690 0.352422 0.104402
0.762966 0.367803 0.000000
0.871183 0.384985 0.000000
0.966949 0.400519 0.000000
0.000000 0.380224 0.279698
0.000000 0.384894 0.271366
0.216770 0.395697 0.233738
0.436133 0.406256 0.215915
0.615869 0.425299 0.181796
0.752621 0.432776 0.123964
0.865782 0.439826 0.000000
0.964599 0.447730 0.000000
0.000000 0.475441 0.338079
0.000000 0.480079 0.331426
0.134951 0.491707 0.300969
0.403723 0.500603 0.272923
0.597498 0.510369 0.239933
0.743984 0.511864 0.211032
0.860258 0.509972 0.158206
0.961639 0.508721 0.000000
0.000000 0.589014 0.408484
0.000000 0.591760 0.401343
0.000000 0.600946 0.374090
0.346197 0.609277 0.328923
0.578515 0.612543 0.310521
0.742702 0.605035 0.273472
0.855558 0.589685 0.247410
0.952605 0.578576 0.196445
0.000000 0.712062 0.484138
0.000000 0.714931 0.477394
0.000000 0.722286 0.452461
0.269963 0.729213 0.412970
0.558068 0.728573 0.400824
0.754788 0.729641 0.368841
0.880217 0.700679 0.335515
0.965972 0.671962 0.307103
0.000000 0.178439 0.258335
0.000000 0.178042 0.257053
0.288823 0.185000 0.242832
0.477180 0.200015 0.196506
0.644526 0.249912 0.160067
0.766964 0.292119 0.115358
0.875303 0.322759 0.000000
0.970459 0.347234 0.000000
0.000000 0.208042 0.264591
0.000000 0.204532 0.263554
0.282048 0.209903 0.248508
0.469978 0.222629 0.208042
0.637995 0.264195 0.171817
0.763363 0.300389 0.123476
0.872587 0.328954 0.000000
0.968902 0.352300 0.000000
0.000000 0.261234 0.284520
0.000000 0.262364 0.282994
0.267094 0.267094 0.267094
0.458869 0.281865 0.238560
0.631189 0.307988 0.199680
0.759945 0.331762 0.149630
0.870390 0.353704 0.011078
0.967559 0.372107 0.000000
0.000000 0.323674 0.306157
0.000000 0.330205 0.306493
0.224369 0.343847 0.292454
0.445167 0.355169 0.274571
0.620844 0.371740 0.237644
0.753567 0.383581 0.190463
0.866941 0.396521 0.118563
0.965820 0.407538 0.000000
0.000000 0.403235 0.344976
0.000000 0.409766 0.344152
0.169711 0.425849 0.330755
0.418402 0.433967 0.306279
0.601526 0.445045 0.282841
0.741909 0.449439 0.242588
0.859648 0.453437 0.185641
0.961975 0.457282 0.071778
0.000000 0.495186 0.395636
0.000000 0.500816 0.393347
0.000000 0.513390 0.377630
0.371954 0.521386 0.343359
0.582940 0.527672 0.319310
0.730892 0.525780 0.297154
0.851682 0.523583 0.256352
0.958282 0.520806 0.187625
0.000000 0.604303 0.458930
0.000000 0.607416 0.454475
0.000000 0.615686 0.434791
0.302739 0.623346 0.394537
0.558251 0.624689 0.375372
0.732631 0.618647 0.341680
0.849119 0.603876 0.321172
0.950439 0.593225 0.278264
0.000000 0.719600 0.525261
0.000000 0.721401 0.519097
0.000000 0.728634 0.498268
0.196719 0.737331 0.463661
0.532097 0.736110 0.449561
0.737881 0.737179 0.424018
0.873320 0.712184 0.389929
0.961730 0.684504 0.365942
0.000000 0.266331 0.384222
0.000000 0.271153 0.383917
0.120729 0.244694 0.380591
0.429084 0.272313 0.359747
0.615137 0.274907 0.307439
0.748714 0.312688 0.271641
0.862028 0.343359 0.231083
0.963348 0.360449 0.151095
0.000000 0.291966 0.389319
0.000000 0.287694 0.389593
0.127291 0.266728 0.384894
0.426184 0.288609 0.363897
0.611292 0.291447 0.314214
0.745602 0.323949 0.278599
0.860075 0.351263 0.236454
0.962707 0.365576 0.153567
0.000000 0.329839 0.401770
0.000000 0.328038 0.401373
0.122225 0.320378 0.395880
0.414313 0.333532 0.375830
0.600855 0.340673 0.336034
0.741085 0.363500 0.303075
0.860960 0.381415 0.257725
0.963897 0.387884 0.172549
0.000000 0.387732 0.423499
0.000000 0.388067 0.422614
0.027710 0.390478 0.417548
0.397253 0.397253 0.397253
0.585168 0.406531 0.368048
0.730922 0.416052 0.331975
0.854368 0.423346 0.283055
0.960815 0.425940 0.206973
0.000000 0.450324 0.444312
0.000000 0.453468 0.444282
0.000000 0.464057 0.441505
0.354864 0.475013 0.421241
0.570886 0.479103 0.402930
0.721462 0.482094 0.369818
0.848386 0.482246 0.322423
0.956909 0.478767 0.254429
0.000000 0.527276 0.478828
0.000000 0.533959 0.480812
0.000000 0.546319 0.476417
0.299535 0.557275 0.452918
0.553491 0.559716 0.429511
0.711360 0.555047 0.409308
0.839414 0.551843 0.372534
0.952087 0.544335 0.313085
0.000000 0.625879 0.531762
0.000000 0.629541 0.530175
0.000000 0.638911 0.520226
0.201724 0.647364 0.492073
0.517845 0.647181 0.468727
0.713802 0.644587 0.440497
0.835935 0.628595 0.420935
0.943633 0.617517 0.379858
0.000000 0.735988 0.591638
0.000000 0.738277 0.588617
0.000000 0.744045 0.572229
0.000000 0.750759 0.539239
0.470893 0.749783 0.517754
0.705104 0.749172 0.505150
0.859190 0.731777 0.469978
0.953094 0.706081 0.450202
0.000000 0.355688 0.510460
0.000000 0.362585 0.509209
0.000000 0.344579 0.508110
0.299626 0.323583 0.500175
0.563439 0.361425 0.473701
0.719173 0.365454 0.421393
0.842466 0.398840 0.393561
0.949798 0.419226 0.356573
0.000000 0.374029 0.512932
0.000000 0.373785 0.513207
0.000000 0.357610 0.511406
0.294011 0.335363 0.502922
0.560357 0.372534 0.475959
0.717067 0.376593 0.425940
0.841489 0.406775 0.397436
0.949584 0.424079 0.358129
0.000000 0.406378 0.521599
0.000000 0.404059 0.521691
0.000000 0.394873 0.520256
0.278508 0.376562 0.510613
0.550561 0.406195 0.483558
0.708583 0.410132 0.439216
0.837186 0.431556 0.409064
0.948394 0.438697 0.360876
0.000000 0.450904 0.536065
0.000000 0.450080 0.536034
0.000000 0.447089 0.533898
0.266087 0.442298 0.524224
0.537469 0.458320 0.499092
0.699550 0.462593 0.462898
0.833982 0.470344 0.425788
0.950530 0.461311 0.359319
0.000000 0.508751 0.556298
0.000000 0.509117 0.556023
0.000000 0.510063 0.552575
0.229709 0.512963 0.542809
0.518822 0.518822 0.518822
0.689082 0.521569 0.488289
0.829282 0.519677 0.445899
0.947845 0.509117 0.382727
0.000000 0.570214 0.576135
0.000000 0.571801 0.575860
0.000000 0.576654 0.572992
0.148959 0.586847 0.565270
0.470985 0.590082 0.535515
0.677119 0.589899 0.521111
0.820371 0.588952 0.487892
0.942504 0.576898 0.430579
0.000000 0.652796 0.615412
0.000000 0.655055 0.614710
0.000000 0.663355 0.612024
0.000000 0.672114 0.597467
0.407385 0.673243 0.561791
0.671260 0.671443 0.546227
0.813840 0.659998 0.525628
0.932311 0.649683 0.485389
0.000000 0.753048 0.668147
0.000000 0.754757 0.666346
0.000000 0.760464 0.657740
0.000000 0.768917 0.636347
0.288334 0.769589 0.593896
0.648615 0.763241 0.589685
0.833707 0.756649 0.560357
0.938781 0.733089 0.541772
0.000000 0.438972 0.631281
0.000000 0.445014 0.630518
0.000000 0.436774 0.629755
0.000000 0.414527 0.625757
0.464942 0.422034 0.610773
0.675349 0.461921 0.578637
0.812039 0.485389 0.548821
0.925750 0.522454 0.538384
0.000000 0.450141 0.630671
0.000000 0.455085 0.629664
0.000000 0.443427 0.629267
0.000000 0.422827 0.624903
0.461067 0.428626 0.610620
0.672541 0.468574 0.579644
0.810361 0.490700 0.550408
0.925078 0.525750 0.539208
0.000000 0.481483 0.636927
0.000000 0.479286 0.636439
0.000000 0.469612 0.635187
0.000000 0.454566 0.630304
0.450568 0.455146 0.616175
0.667353 0.494301 0.586908
0.807401 0.511528 0.558984
0.924804 0.538903 0.543694
0.000000 0.516350 0.645502
0.000000 0.514397 0.644984
0.000000 0.508904 0.643519
0.000000 0.502037 0.639948
0.427375 0.498482 0.627863
0.661067 0.535088 0.601007
0.805051 0.545617 0.573358
0.926482 0.559350 0.548516
0.000000 0.559899 0.655726
0.000000 0.559197 0.655482
0.000000 0.557061 0.653986
0.000000 0.554803 0.649470
0.390753 0.554437 0.637995
0.647730 0.577539 0.613275
0.799924 0.582025 0.584192
0.928405 0.580133 0.544549
0.000000 0.611872 0.669612
0.000000 0.612482 0.669856
0.000000 0.613336 0.668238
0.000000 0.615778 0.663661
0.345708 0.621637 0.653315
0.631647 0.631586 0.631617
0.795377 0.633783 0.603021
0.929137 0.623987 0.556268
0.000000 0.680415 0.699245
0.000000 0.682551 0.699123
0.000000 0.686213 0.697871
0.000000 0.693446 0.693843
0.246555 0.704891 0.683009
0.588128 0.703456 0.649958
0.785153 0.699550 0.634058
0.919493 0.693904 0.599664
0.000000 0.768093 0.746609
0.000000 0.770108 0.745785
0.000000 0.777707 0.742519
0.000000 0.789639 0.737270
0.000000 0.796445 0.713252
0.512932 0.788754 0.670436
0.789181 0.785489 0.660334
0.920012 0.768093 0.641291
0.000000 0.510063 0.739864
0.000000 0.514366 0.739193
0.000000 0.516930 0.737514
0.000000 0.500816 0.735286
0.302251 0.491920 0.727687
0.615442 0.536584 0.711238
0.776455 0.570886 0.681178
0.896513 0.611566 0.673823
0.000000 0.517967 0.740505
0.000000 0.521904 0.739834
0.000000 0.522332 0.738369
0.000000 0.506950 0.735805
0.300237 0.498451 0.728420
0.614130 0.541772 0.712215
0.775692 0.575525 0.682704
0.896300 0.614954 0.675166
0.000000 0.539330 0.743221
0.000000 0.542748 0.742550
0.000000 0.540307 0.741329
0.000000 0.527764 0.738735
0.293889 0.521263 0.731441
0.608301 0.558587 0.715663
0.773098 0.590906 0.687678
0.895811 0.626307 0.679774
0.000000 0.568597 0.748684
0.000000 0.571496 0.747829
0.000000 0.569757 0.746731
0.000000 0.560204 0.744137
0.268376 0.556146 0.737118
0.594232 0.584161 0.722011
0.768917 0.615412 0.696010
0.895781 0.644404 0.686488
0.000000 0.606195 0.756283
0.000000 0.608881 0.755703
0.000000 0.609339 0.754543
0.000000 0.602197 0.752346
0.177188 0.598138 0.746120
0.560204 0.614191 0.731930
0.763516 0.647333 0.707240
0.896971 0.667933 0.693843
0.000000 0.651667 0.766506
0.000000 0.654017 0.765988
0.000000 0.656947 0.764767
0.000000 0.654322 0.762753
0.000000 0.653193 0.757748
0.508049 0.662348 0.745571
0.755215 0.688502 0.722225
0.899321 0.698207 0.701289
0.000000 0.702693 0.778836
0.000000 0.704829 0.778378
0.000000 0.710170 0.777127
0.000000 0.711940 0.775509
0.000000 0.716976 0.771359
0.459113 0.728634 0.761501
0.740993 0.740963 0.740993
0.900145 0.741421 0.712184
0.000000 0.771756 0.812100
0.000000 0.773800 0.811887
0.000000 0.781003 0.811063
0.000000 0.791196 0.809567
0.000000 0.802029 0.805905
0.315038 0.817685 0.795102
0.696956 0.814206 0.759304
0.894163 0.809934 0.746792
0.000000 0.577234 0.848600
0.000000 0.580560 0.848173
0.000000 0.592248 0.846586
0.000000 0.583124 0.844968
0.000000 0.583062 0.840269
0.548150 0.621881 0.829618
0.758450 0.666468 0.816526
0.877012 0.694026 0.790280
0.000000 0.581872 0.849058
0.000000 0.584985 0.848661
0.000000 0.596216 0.847135
0.000000 0.587274 0.845518
0.000000 0.587121 0.840848
0.545006 0.624537 0.830320
0.757351 0.669276 0.817197
0.876768 0.696620 0.791257
0.000000 0.594781 0.851072
0.000000 0.597803 0.850645
0.000000 0.608209 0.849119
0.000000 0.601251 0.847532
0.000000 0.600610 0.843015
0.532189 0.633387 0.832944
0.753506 0.678431 0.819608
0.876036 0.705318 0.794675
0.000000 0.612268 0.855009
0.000000 0.615015 0.854612
0.000000 0.624750 0.853178
0.000000 0.624079 0.851377
0.000000 0.621759 0.847257
0.502861 0.648341 0.837736
0.744930 0.693050 0.824155
0.874998 0.719936 0.800595
0.000000 0.644312 0.860349
0.000000 0.645838 0.860044
0.000000 0.650813 0.859037
0.000000 0.655573 0.857298
0.000000 0.648768 0.854093
0.443122 0.669429 0.845151
0.728115 0.712245 0.831022
0.873564 0.740627 0.809232
0.000000 0.684840 0.867430
0.000000 0.686244 0.867185
0.000000 0.691066 0.866270
0.000000 0.698878 0.864622
0.000000 0.690028 0.862791
0.293370 0.696651 0.855772
0.693141 0.735744 0.841306
0.871275 0.768490 0.820920
0.000000 0.731502 0.876280
0.000000 0.732815 0.876097
0.000000 0.737575 0.875395
0.000000 0.746151 0.874022
0.000000 0.747311 0.872343
0.000000 0.749630 0.867765
0.621729 0.771908 0.855802
0.866941 0.805631 0.836393
0.000000 0.782803 0.887022
0.000000 0.784237 0.886870
0.000000 0.789273 0.886351
0.000000 0.798856 0.885313
0.000000 0.808988 0.883909
0.000000 0.817563 0.880644
0.560662 0.837491 0.872221
0.857206 0.857176 0.857176
