data/fiter_cube/23985691/1023000/file.cube
# Created by Adobe Lightroom plugin Export LUT (1.17.0)
# www.johnrellis.com/lightroom/exportlut.htm
# Preset: 日系风光建筑_01 云集
# Color profile: C:\Program Files (x86)\Common Files\Adobe\Color\Profiles\Recommended\AdobeRGB1998.icc
LUT_3D_SIZE 32
DOMAIN_MIN 0.0 0.0 0.0
DOMAIN_MAX 1.0 1.0 1.0
0.017914 0.042176 0.049348
0.017914 0.042176 0.049348
0.028779 0.040375 0.049256
0.059113 0.036957 0.048768
0.075654 0.039979 0.048493
0.095979 0.040467 0.047822
0.122621 0.036378 0.045014
0.155947 0.021149 0.041566
0.196689 0.000000 0.035615
0.245274 0.000000 0.026123
0.302251 0.000000 0.012451
0.366613 0.000000 0.000000
0.435340 0.000000 0.000000
0.505333 0.000000 0.000000
0.572229 0.000000 0.000000
0.635096 0.000000 0.000000
0.690883 0.000000 0.000000
0.743343 0.000000 0.000000
0.790005 0.000000 0.000000
0.832822 0.000000 0.000000
0.872313 0.000000 0.000000
0.908324 0.000000 0.000000
0.940246 0.000000 0.000000
0.968444 0.110842 0.000000
0.993256 0.156771 0.000000
1.000000 0.190311 0.000000
1.000000 0.217777 0.000000
1.000000 0.240970 0.000000
1.000000 0.260594 0.000000
1.000000 0.277470 0.000000
1.000000 0.291630 0.000000
1.000000 0.303197 0.000000
0.017914 0.042176 0.049348
0.017914 0.042176 0.049348
0.028443 0.042786 0.049104
0.058503 0.045380 0.049104
0.075196 0.048005 0.048829
0.095369 0.048554 0.047333
0.121920 0.044038 0.045563
0.155032 0.030488 0.042054
0.195621 0.002747 0.035065
0.244022 0.000000 0.025574
0.300542 0.000000 0.011841
0.364263 0.000000 0.000000
0.432654 0.000000 0.000000
0.502007 0.000000 0.000000
0.568719 0.000000 0.000000
0.631647 0.000000 0.000000
0.687526 0.000000 0.000000
0.739986 0.000000 0.000000
0.786007 0.000000 0.000000
0.828458 0.000000 0.000000
0.867948 0.000000 0.000000
0.904112 0.000000 0.000000
0.936431 0.000000 0.000000
0.965057 0.112215 0.000000
0.990356 0.158053 0.000000
1.000000 0.191531 0.000000
1.000000 0.218875 0.000000
1.000000 0.242191 0.000000
1.000000 0.261692 0.000000
1.000000 0.278660 0.000000
1.000000 0.292851 0.000000
1.000000 0.304601 0.000000
0.017975 0.046754 0.051514
0.018982 0.048402 0.051362
0.026734 0.051942 0.049287
0.057099 0.054810 0.049226
0.074281 0.056306 0.048219
0.094972 0.056703 0.047517
0.121401 0.053040 0.044739
0.154482 0.041749 0.041260
0.194888 0.015686 0.035279
0.243107 0.000000 0.025544
0.299474 0.000000 0.010620
0.363134 0.000000 0.000000
0.431159 0.000000 0.000000
0.500237 0.000000 0.000000
0.566827 0.000000 0.000000
0.629877 0.000000 0.000000
0.685878 0.000000 0.000000
0.738338 0.000000 0.000000
0.783932 0.000000 0.000000
0.826169 0.000000 0.000000
0.865721 0.000000 0.000000
0.902037 0.000000 0.000000
0.934508 0.026978 0.000000
0.963378 0.121157 0.000000
0.988861 0.164096 0.000000
1.000000 0.196323 0.000000
1.000000 0.223056 0.000000
1.000000 0.245731 0.000000
1.000000 0.265019 0.000000
1.000000 0.281712 0.000000
1.000000 0.295689 0.000000
1.000000 0.307256 0.000000
0.019989 0.060029 0.057618
0.020813 0.060914 0.058289
0.028107 0.060365 0.060151
0.053010 0.067018 0.049317
0.073518 0.067170 0.047517
0.094453 0.066896 0.046906
0.121248 0.065522 0.043824
0.154482 0.061128 0.040131
0.195224 0.046815 0.033722
0.243442 0.007904 0.023621
0.299596 0.000000 0.009216
0.362768 0.000000 0.000000
0.430030 0.000000 0.000000
0.498665 0.000000 0.000000
0.565423 0.000000 0.000000
0.628321 0.000000 0.000000
0.684382 0.000000 0.000000
0.736843 0.000000 0.000000
0.781430 0.000000 0.000000
0.822904 0.000000 0.000000
0.862089 0.000000 0.000000
0.898405 0.000000 0.000000
0.931395 0.085573 0.000000
0.960998 0.140932 0.000000
0.987274 0.178958 0.000000
1.000000 0.209354 0.000000
1.000000 0.234409 0.000000
1.000000 0.256229 0.000000
1.000000 0.274571 0.000000
1.000000 0.290166 0.000000
1.000000 0.303349 0.000000
1.000000 0.314122 0.000000
0.023194 0.068605 0.063386
0.025299 0.068879 0.064210
0.034333 0.069093 0.066896
0.044190 0.069306 0.067933
0.067353 0.078065 0.056428
0.090944 0.080201 0.052003
0.119265 0.079927 0.051057
0.153109 0.078309 0.047089
0.193820 0.073457 0.040345
0.241917 0.063294 0.031678
0.297917 0.022583 0.016632
0.360815 0.000000 0.000000
0.428046 0.000000 0.000000
0.496895 0.000000 0.000000
0.563806 0.000000 0.000000
0.627192 0.000000 0.000000
0.683986 0.000000 0.000000
0.736721 0.000000 0.000000
0.780941 0.000000 0.000000
0.822080 0.000000 0.000000
0.860807 0.000000 0.000000
0.896941 0.070588 0.000000
0.929870 0.130007 0.000000
0.959625 0.170108 0.000000
0.986084 0.201938 0.000000
1.000000 0.228611 0.000000
1.000000 0.251469 0.000000
1.000000 0.271000 0.000000
1.000000 0.287938 0.000000
1.000000 0.302464 0.000000
1.000000 0.314763 0.000000
1.000000 0.324712 0.000000
0.026490 0.075349 0.068757
0.029938 0.075502 0.069490
0.037934 0.076509 0.070832
0.048920 0.076173 0.073579
0.059022 0.079072 0.072145
0.081422 0.092287 0.062226
0.113924 0.097749 0.058686
0.149874 0.098726 0.056550
0.193210 0.098268 0.051881
0.241978 0.093751 0.041749
0.298314 0.083772 0.026581
0.361578 0.063539 0.004120
0.428809 0.000000 0.000000
0.497780 0.000000 0.000000
0.564843 0.000000 0.000000
0.628199 0.000000 0.000000
0.686366 0.000000 0.000000
0.737972 0.000000 0.000000
0.781827 0.000000 0.000000
0.822904 0.000000 0.000000
0.861662 0.095583 0.000000
0.897856 0.139284 0.000000
0.953155 0.206546 0.000000
0.979736 0.232517 0.000000
1.000000 0.254612 0.000000
1.000000 0.273442 0.000000
1.000000 0.290227 0.000000
1.000000 0.304784 0.000000
1.000000 0.317662 0.000000
1.000000 0.328832 0.000000
1.000000 0.338231 0.000000
1.000000 0.345678 0.000000
0.028626 0.083742 0.073426
0.033051 0.084169 0.074434
0.039673 0.085115 0.075685
0.053254 0.086519 0.078706
0.061402 0.084565 0.081025
0.070436 0.093080 0.076783
0.102205 0.111818 0.065705
0.145907 0.121889 0.060090
0.191806 0.124605 0.056153
0.248508 0.125948 0.047761
0.308598 0.122072 0.028168
0.373693 0.113405 0.002258
0.441932 0.099825 0.000000
0.510765 0.081025 0.000000
0.576715 0.062318 0.000000
0.638239 0.050843 0.000000
0.697292 0.069093 0.000000
0.747433 0.092073 0.000000
0.790860 0.117189 0.000000
0.832395 0.145205 0.000000
0.872129 0.175540 0.000000
0.909545 0.205386 0.000000
0.943420 0.233768 0.000000
0.973266 0.258793 0.000000
0.998962 0.280339 0.000000
1.000000 0.297887 0.000000
1.000000 0.313146 0.000000
1.000000 0.326146 0.000000
1.000000 0.337530 0.000000
1.000000 0.347387 0.000000
1.000000 0.355657 0.000000
1.000000 0.362188 0.000000
0.031830 0.092958 0.078614
0.036103 0.093599 0.079500
0.041749 0.094209 0.080354
0.052827 0.095857 0.082856
0.063447 0.095796 0.086580
0.069245 0.093141 0.089021
0.084871 0.109865 0.081331
0.126131 0.133913 0.067842
0.180514 0.148989 0.059754
0.235447 0.153719 0.051118
0.301854 0.157198 0.033753
0.374578 0.156771 0.005097
0.443275 0.151919 0.000000
0.512016 0.146609 0.000000
0.577813 0.143832 0.000000
0.641077 0.147616 0.000000
0.698909 0.157656 0.000000
0.747433 0.170138 0.000000
0.790036 0.184939 0.000000
0.830991 0.203494 0.000000
0.870329 0.225742 0.000000
0.907378 0.249210 0.000000
0.941070 0.272251 0.000000
0.970855 0.293217 0.000000
0.996612 0.311131 0.000000
1.000000 0.326513 0.000000
1.000000 0.339422 0.000000
1.000000 0.350622 0.000000
1.000000 0.360479 0.000000
1.000000 0.368963 0.000000
1.000000 0.376226 0.000000
1.000000 0.381750 0.000000
0.033509 0.103975 0.084627
0.037781 0.104555 0.085420
0.044617 0.105287 0.086152
0.053681 0.107057 0.088777
0.065675 0.109682 0.093751
0.073213 0.106722 0.095735
0.080446 0.108797 0.095888
0.103670 0.130465 0.086305
0.155642 0.161013 0.069276
0.221653 0.181399 0.054932
0.286259 0.189029 0.038544
0.361486 0.195163 0.009735
0.443519 0.200412 0.000000
0.515526 0.201968 0.000000
0.581170 0.204562 0.000000
0.646296 0.212894 0.000000
0.701869 0.222202 0.000000
0.749081 0.232090 0.000000
0.790860 0.243198 0.000000
0.831327 0.257816 0.000000
0.870176 0.275517 0.000000
0.906798 0.294438 0.000000
0.940093 0.313329 0.000000
0.969574 0.330724 0.000000
0.995209 0.345678 0.000000
1.000000 0.358160 0.000000
1.000000 0.368933 0.000000
1.000000 0.378241 0.000000
1.000000 0.386450 0.000000
1.000000 0.393500 0.000000
1.000000 0.399420 0.000000
1.000000 0.403967 0.000000
0.035981 0.116396 0.091493
0.038911 0.116945 0.092226
0.044221 0.117830 0.092897
0.054414 0.119539 0.094972
0.065461 0.122530 0.099306
0.076326 0.122103 0.103731
0.084382 0.118013 0.106233
0.095216 0.128359 0.103365
0.126864 0.155367 0.092226
0.189914 0.192142 0.070527
0.268437 0.218418 0.044312
0.341924 0.228977 0.015686
0.423163 0.239017 0.000000
0.507225 0.250187 0.000000
0.588647 0.264317 0.000000
0.652186 0.273869 0.000000
0.706661 0.282841 0.000000
0.752895 0.290929 0.000000
0.794247 0.300145 0.000000
0.833890 0.311711 0.000000
0.871672 0.325536 0.000000
0.906889 0.340459 0.000000
0.939055 0.355077 0.000000
0.967681 0.368536 0.000000
0.992889 0.380468 0.000000
1.000000 0.390753 0.000000
1.000000 0.399603 0.000000
1.000000 0.407446 0.000000
1.000000 0.414313 0.000000
1.000000 0.420264 0.000000
1.000000 0.425177 0.000000
1.000000 0.428809 0.000000
0.034028 0.129824 0.098787
0.038361 0.130465 0.099184
0.043275 0.131441 0.100038
0.053315 0.133333 0.102144
0.065370 0.136294 0.105837
0.078828 0.139406 0.112520
0.088930 0.134981 0.114870
0.095888 0.130220 0.117433
0.113924 0.151186 0.111513
0.154940 0.184360 0.098390
0.230106 0.227909 0.070954
0.321172 0.260655 0.021393
0.401373 0.274693 0.000000
0.489052 0.291508 0.000000
0.574395 0.310216 0.000000
0.652461 0.330419 0.000000
0.709529 0.340826 0.000000
0.754543 0.347051 0.000000
0.795407 0.353796 0.000000
0.834623 0.362951 0.000000
0.871916 0.374060 0.000000
0.906798 0.385931 0.000000
0.938659 0.397894 0.000000
0.967010 0.408759 0.000000
0.991943 0.418219 0.000000
1.000000 0.426123 0.000000
1.000000 0.432990 0.000000
1.000000 0.438972 0.000000
1.000000 0.444221 0.000000
1.000000 0.448707 0.000000
1.000000 0.452461 0.000000
1.000000 0.455207 0.000000
0.032044 0.144625 0.106508
0.036164 0.145205 0.107118
0.042451 0.146029 0.107851
0.052552 0.147860 0.109773
0.065248 0.150973 0.113344
0.078431 0.155001 0.118990
0.092622 0.153872 0.124269
0.101991 0.148226 0.126680
0.109865 0.146304 0.127993
0.136477 0.177493 0.120027
0.187747 0.217044 0.104616
0.276097 0.268406 0.069612
0.401709 0.325933 0.000000
0.493874 0.349035 0.000000
0.582483 0.372747 0.000000
0.661738 0.395239 0.000000
0.727169 0.412512 0.000000
0.779599 0.424201 0.000000
0.818296 0.427832 0.000000
0.855100 0.433356 0.000000
0.889647 0.440131 0.000000
0.921447 0.447456 0.000000
0.950164 0.454383 0.000000
0.975799 0.460792 0.000000
0.998627 0.466163 0.000000
1.000000 0.470863 0.000000
1.000000 0.474678 0.000000
1.000000 0.477913 0.000000
1.000000 0.480720 0.000000
1.000000 0.483162 0.000000
1.000000 0.485084 0.000000
1.000000 0.486213 0.000000
0.027893 0.162173 0.115785
0.032013 0.162661 0.116304
0.038148 0.163546 0.116976
0.051362 0.165103 0.118715
0.064576 0.167941 0.121981
0.078279 0.171633 0.127138
0.096071 0.175174 0.135409
0.107271 0.168917 0.137057
0.115999 0.162051 0.139040
0.128420 0.170809 0.138369
0.164523 0.209018 0.130037
0.230930 0.259373 0.112642
0.340337 0.324590 0.066438
0.461738 0.378454 0.000000
0.552911 0.404852 0.000000
0.636286 0.429999 0.000000
0.705898 0.448829 0.000000
0.763058 0.462348 0.000000
0.813962 0.475227 0.000000
0.854154 0.482033 0.000000
0.888243 0.486427 0.000000
0.919738 0.491341 0.000000
0.948119 0.496132 0.000000
0.973510 0.500328 0.000000
0.996185 0.503838 0.000000
1.000000 0.506584 0.000000
1.000000 0.508873 0.000000
1.000000 0.510796 0.000000
1.000000 0.512291 0.000000
1.000000 0.513603 0.000000
1.000000 0.514611 0.000000
1.000000 0.515068 0.000000
0.023804 0.177829 0.124025
0.027527 0.178408 0.124697
0.033814 0.179049 0.125338
0.047700 0.180697 0.127077
0.063355 0.183261 0.129702
0.077241 0.186954 0.134310
0.094270 0.191714 0.141451
0.110811 0.189395 0.147372
0.121584 0.181949 0.148867
0.129213 0.174350 0.150820
0.150118 0.197971 0.149020
0.197330 0.244450 0.140352
0.276310 0.302434 0.119966
0.397162 0.374426 0.062135
0.520500 0.432776 0.000000
0.607630 0.460121 0.000000
0.681514 0.480934 0.000000
0.742214 0.495491 0.000000
0.795468 0.508019 0.000000
0.844297 0.521080 0.000000
0.887205 0.532647 0.000000
0.918456 0.535668 0.000000
0.946563 0.538476 0.000000
0.971771 0.540826 0.000000
0.994293 0.542565 0.000000
1.000000 0.543694 0.000000
1.000000 0.544366 0.000000
1.000000 0.544915 0.000000
1.000000 0.545251 0.000000
1.000000 0.545525 0.000000
1.000000 0.545647 0.000000
1.000000 0.545342 0.000000
0.017121 0.193912 0.132479
0.022034 0.194522 0.133059
0.028168 0.195254 0.133639
0.043671 0.196719 0.135256
0.061372 0.199130 0.138033
0.075837 0.202609 0.141970
0.092897 0.207065 0.148348
0.113985 0.211093 0.158175
0.126497 0.203494 0.159640
0.136294 0.195346 0.161257
0.142672 0.186831 0.162509
0.175570 0.228061 0.160128
0.233433 0.281865 0.150759
0.324285 0.346868 0.127230
0.453071 0.424170 0.057832
0.574640 0.484932 0.000000
0.654810 0.509728 0.000000
0.719997 0.526177 0.000000
0.775692 0.538842 0.000000
0.826932 0.551934 0.000000
0.873228 0.564569 0.000000
0.914000 0.576013 0.000000
0.944976 0.580652 0.000000
0.969909 0.581140 0.000000
0.992248 0.581323 0.000000
1.000000 0.581109 0.000000
1.000000 0.580682 0.000000
1.000000 0.580316 0.000000
1.000000 0.579797 0.000000
1.000000 0.579370 0.000000
1.000000 0.578790 0.000000
1.000000 0.577966 0.000000
0.010559 0.210269 0.141054
0.015503 0.210819 0.141604
0.021241 0.211582 0.142275
0.036255 0.213230 0.143740
0.058930 0.216037 0.146548
0.073884 0.219730 0.150484
0.091737 0.224460 0.156497
0.112215 0.230228 0.165225
0.131044 0.227268 0.171481
0.142702 0.218082 0.172396
0.150698 0.208194 0.173159
0.162142 0.211704 0.173648
0.203983 0.260624 0.171084
0.272404 0.321050 0.160464
0.372808 0.390814 0.134096
0.504173 0.470558 0.057069
0.621790 0.531548 0.000000
0.694362 0.552819 0.000000
0.754238 0.567132 0.000000
0.808591 0.581201 0.000000
0.857939 0.594629 0.000000
0.901427 0.606653 0.000000
0.938567 0.616358 0.073213
0.969451 0.623102 0.109987
0.991455 0.621698 0.107271
1.000000 0.620111 0.104524
1.000000 0.618311 0.101137
1.000000 0.616663 0.098482
1.000000 0.615015 0.095369
1.000000 0.613397 0.090883
1.000000 0.611749 0.086213
1.000000 0.610101 0.080140
0.001251 0.227878 0.150362
0.005280 0.228428 0.150576
0.013336 0.229160 0.151339
0.028351 0.230686 0.152712
0.053376 0.233158 0.155306
0.071870 0.236484 0.158846
0.089601 0.240848 0.164218
0.109987 0.246250 0.171725
0.133822 0.250156 0.182376
0.146731 0.240238 0.182803
0.156802 0.229587 0.183078
0.163119 0.218296 0.183047
0.183597 0.238621 0.183902
0.234531 0.294347 0.181430
0.313420 0.360662 0.169802
0.420966 0.434272 0.141421
0.552544 0.515373 0.062409
0.663874 0.574060 0.000000
0.730159 0.592309 0.000000
0.787350 0.606867 0.000000
0.839567 0.621057 0.000000
0.885863 0.633661 0.031678
0.925719 0.643946 0.093965
0.959167 0.651514 0.130220
0.987121 0.656825 0.161746
1.000000 0.657221 0.175723
1.000000 0.654444 0.174929
1.000000 0.651789 0.174655
1.000000 0.649195 0.174197
1.000000 0.646815 0.173709
1.000000 0.644526 0.173098
1.000000 0.642420 0.173342
0.000000 0.245548 0.159365
0.000000 0.246220 0.159823
0.000458 0.252598 0.163577
0.017639 0.254063 0.164920
0.047120 0.256413 0.167300
0.069459 0.259464 0.170504
0.088777 0.263432 0.175448
0.109743 0.268254 0.182040
0.133181 0.274144 0.191409
0.153628 0.269017 0.197147
0.164920 0.256992 0.196689
0.173007 0.244114 0.195865
0.177218 0.230686 0.194430
0.211826 0.272740 0.197147
0.274510 0.336675 0.194919
0.364874 0.409888 0.182467
0.480018 0.487831 0.152590
0.609705 0.569146 0.076417
0.710811 0.621485 0.000000
0.771725 0.637568 0.000000
0.826047 0.651820 0.000000
0.874479 0.664637 0.080110
0.916228 0.674952 0.119326
0.951141 0.682185 0.152926
0.979980 0.686732 0.183627
1.000000 0.689509 0.212131
1.000000 0.691157 0.238376
1.000000 0.686976 0.237400
1.000000 0.683162 0.236942
1.000000 0.679927 0.237369
1.000000 0.676967 0.238437
1.000000 0.674281 0.240360
0.000000 0.265049 0.169314
0.000000 0.266361 0.170138
0.000000 0.267704 0.171084
0.005890 0.269902 0.172885
0.034241 0.272557 0.175174
0.064942 0.275639 0.178439
0.085206 0.279423 0.182773
0.106172 0.283818 0.188510
0.129458 0.289097 0.196567
0.155245 0.292393 0.207553
0.168307 0.279759 0.206668
0.178012 0.266300 0.205447
0.184115 0.251865 0.203677
0.190372 0.244907 0.202487
0.238468 0.303746 0.207004
0.310613 0.373571 0.204593
0.409064 0.450690 0.191562
0.526360 0.529778 0.161257
0.650599 0.608087 0.092622
0.744289 0.656214 0.000000
0.803159 0.672633 0.004120
0.855344 0.687068 0.088106
0.900664 0.698848 0.127901
0.938659 0.707301 0.163394
0.969909 0.712490 0.195956
0.995972 0.715572 0.226291
1.000000 0.717281 0.254765
1.000000 0.718257 0.281895
1.000000 0.716640 0.296300
1.000000 0.712642 0.297398
1.000000 0.709102 0.299474
1.000000 0.706081 0.303105
0.000000 0.282597 0.177920
0.000000 0.283970 0.178805
0.000000 0.285374 0.179812
0.000000 0.287327 0.181399
0.019806 0.289860 0.183413
0.059327 0.292638 0.186404
0.080781 0.296025 0.190188
0.102113 0.300053 0.195407
0.125246 0.304875 0.202426
0.150210 0.310613 0.211826
0.171176 0.303777 0.216983
0.182345 0.289586 0.215457
0.190036 0.274571 0.213291
0.194034 0.258946 0.210636
0.211582 0.272313 0.212131
0.268833 0.338018 0.217227
0.350744 0.413397 0.214969
0.456062 0.493660 0.201694
0.573480 0.573053 0.172580
0.690120 0.646021 0.113924
0.778561 0.691554 0.000855
0.834684 0.707668 0.090761
0.883787 0.721187 0.133425
0.925170 0.731044 0.170871
0.959045 0.737087 0.205722
0.987060 0.740536 0.238193
1.000000 0.742245 0.268711
1.000000 0.743130 0.298100
1.000000 0.743618 0.326390
1.000000 0.744015 0.353704
1.000000 0.740322 0.358221
1.000000 0.736995 0.363226
0.000000 0.301274 0.187015
0.000000 0.302403 0.187869
0.000000 0.303929 0.188754
0.000000 0.305852 0.190249
0.002136 0.308080 0.192172
0.045686 0.310674 0.194797
0.075074 0.313725 0.197971
0.097322 0.317235 0.202548
0.120699 0.321538 0.208652
0.145296 0.326665 0.216739
0.172824 0.328710 0.227481
0.185611 0.314183 0.225559
0.195132 0.298405 0.223178
0.200961 0.281956 0.220218
0.202976 0.265171 0.216709
0.236332 0.302861 0.222538
0.304082 0.376043 0.228550
0.396338 0.457496 0.226963
0.508080 0.541375 0.214908
0.622736 0.618891 0.190188
0.731746 0.686488 0.144930
0.817838 0.731807 0.097139
0.870146 0.746487 0.143801
0.915068 0.758022 0.184878
0.951568 0.765103 0.223392
0.981231 0.768917 0.259373
1.000000 0.770657 0.293217
1.000000 0.771359 0.325414
1.000000 0.771572 0.356237
1.000000 0.771603 0.385962
1.000000 0.771878 0.415412
1.000000 0.770687 0.435431
0.000000 0.325231 0.198734
0.000000 0.326055 0.199222
0.000000 0.326879 0.199741
0.000000 0.328191 0.200870
0.000000 0.329931 0.202426
0.023713 0.332006 0.204593
0.067536 0.334508 0.207553
0.092226 0.337774 0.211398
0.116365 0.341680 0.216617
0.141512 0.346288 0.223850
0.168246 0.351568 0.233066
0.190005 0.342657 0.237736
0.201175 0.326329 0.234928
0.208774 0.309056 0.231693
0.212650 0.291112 0.227726
0.212833 0.272740 0.223239
0.267582 0.340093 0.235325
0.346960 0.421088 0.242435
0.448615 0.507164 0.241794
0.561639 0.591058 0.231754
0.668513 0.661860 0.212375
0.771084 0.724758 0.175906
0.852079 0.766995 0.141024
0.898680 0.778134 0.184756
0.938628 0.786587 0.226017
0.970916 0.791257 0.265202
0.997406 0.793484 0.302281
1.000000 0.794339 0.337591
1.000000 0.794553 0.371496
1.000000 0.794461 0.404120
1.000000 0.794614 0.436469
1.000000 0.794736 0.467231
0.000000 0.347662 0.209110
0.000000 0.348425 0.209812
0.000000 0.349310 0.210361
0.000000 0.350530 0.211307
0.000000 0.351995 0.212802
0.000000 0.353735 0.214389
0.056062 0.355901 0.216831
0.085237 0.358404 0.220249
0.110750 0.361852 0.224735
0.136294 0.365698 0.230655
0.163058 0.370092 0.238621
0.191958 0.370794 0.249119
0.205264 0.354162 0.246098
0.214817 0.336400 0.242588
0.220829 0.317815 0.238529
0.222965 0.298619 0.233951
0.235782 0.302159 0.234562
0.303075 0.380682 0.248569
0.393500 0.468299 0.256870
0.502007 0.557458 0.257939
0.611048 0.636927 0.251957
0.711086 0.701930 0.238590
0.809506 0.762203 0.209873
0.885039 0.800656 0.183841
0.923003 0.805203 0.221866
0.958618 0.811215 0.264469
0.987640 0.814267 0.305333
1.000000 0.815457 0.344091
1.000000 0.815702 0.381231
1.000000 0.815671 0.417365
1.000000 0.815915 0.453162
1.000000 0.815732 0.486244
0.000000 0.377356 0.223606
0.000000 0.378332 0.224186
0.000000 0.379004 0.224704
0.000000 0.379889 0.225437
0.000000 0.380926 0.226322
0.000000 0.381994 0.227604
0.025452 0.383429 0.229587
0.076570 0.385199 0.231968
0.105104 0.387396 0.235538
0.131930 0.390112 0.240269
0.158877 0.393225 0.246616
0.186954 0.396765 0.255009
0.209689 0.385412 0.258793
0.221164 0.366949 0.254795
0.228916 0.347417 0.250492
0.232883 0.327276 0.245579
0.233463 0.306706 0.240330
0.265263 0.338872 0.247715
0.343633 0.425330 0.263035
0.443580 0.517540 0.272679
0.553307 0.605585 0.276280
0.655512 0.678248 0.275120
0.750790 0.739406 0.265568
0.843412 0.795071 0.242161
0.911833 0.828000 0.220157
0.946777 0.831601 0.264286
0.978271 0.835264 0.308629
1.000000 0.836698 0.350683
1.000000 0.836973 0.391058
1.000000 0.836820 0.430457
1.000000 0.836698 0.468757
1.000000 0.836301 0.504570
0.000000 0.406439 0.237430
0.000000 0.407416 0.238041
0.000000 0.408179 0.238682
0.000000 0.408942 0.239200
0.000000 0.409705 0.239963
0.000000 0.410559 0.241001
0.000000 0.411719 0.242527
0.064179 0.413092 0.244572
0.097597 0.414832 0.247379
0.126680 0.417121 0.251377
0.154849 0.419623 0.256596
0.183597 0.422461 0.263554
0.214542 0.420874 0.273320
0.228611 0.402289 0.269383
0.238865 0.382544 0.265049
0.245335 0.361975 0.260105
0.248142 0.340764 0.254948
0.247562 0.319585 0.249332
0.305577 0.386877 0.265995
0.396735 0.481727 0.283543
0.504143 0.576562 0.295750
0.608698 0.657771 0.304021
0.704189 0.723781 0.307317
0.794339 0.780697 0.301640
0.879362 0.829892 0.284092
0.939818 0.856382 0.266056
0.969238 0.856596 0.311284
0.996857 0.858488 0.358129
1.000000 0.858915 0.403052
1.000000 0.858762 0.446632
1.000000 0.858091 0.487343
1.000000 0.857481 0.526207
0.000000 0.443305 0.255924
0.000000 0.444129 0.256474
0.000000 0.444617 0.256779
0.000000 0.444953 0.257084
0.000000 0.445197 0.257420
0.000000 0.445502 0.257969
0.000000 0.445930 0.258885
0.035798 0.446693 0.260349
0.089204 0.447791 0.262486
0.121889 0.449409 0.265446
0.151705 0.451118 0.269627
0.181430 0.453254 0.275242
0.211704 0.455268 0.282719
0.236851 0.442237 0.286290
0.249973 0.422614 0.281987
0.259190 0.401984 0.277226
0.264744 0.380407 0.272129
0.266911 0.358648 0.266819
0.273594 0.348882 0.264744
0.356207 0.444739 0.288884
0.458503 0.544701 0.308782
0.564691 0.634913 0.324895
0.661128 0.706935 0.337591
0.751858 0.768460 0.343877
0.834958 0.819089 0.341314
0.911131 0.860655 0.327977
0.963958 0.881102 0.311803
0.988800 0.878752 0.357855
1.000000 0.879026 0.406897
1.000000 0.878721 0.454383
1.000000 0.877623 0.497871
1.000000 0.876646 0.539696
0.000000 0.486000 0.278264
0.000000 0.486641 0.278721
0.000000 0.487007 0.278996
0.000000 0.487343 0.279179
0.000000 0.487709 0.279545
0.000000 0.488441 0.280156
0.000000 0.489631 0.281254
0.000000 0.491402 0.283024
0.082521 0.493599 0.285374
0.121004 0.496162 0.288518
0.154665 0.498878 0.292485
0.187137 0.501396 0.297704
0.219394 0.503502 0.304051
0.254520 0.500359 0.313725
0.271855 0.482002 0.310094
0.285222 0.461982 0.305943
0.294743 0.440833 0.301366
0.300694 0.419226 0.296880
0.303655 0.397559 0.292302
0.337407 0.424872 0.301762
0.436316 0.530785 0.330022
0.541955 0.628229 0.355047
0.637873 0.705104 0.377264
0.727535 0.769924 0.393927
0.809567 0.822843 0.403296
0.881315 0.863218 0.403998
0.946105 0.895079 0.394293
0.990448 0.908812 0.378759
1.000000 0.903960 0.425696
1.000000 0.901884 0.474464
1.000000 0.900237 0.521782
1.000000 0.898497 0.565576
0.000000 0.551263 0.316472
0.000000 0.551690 0.316686
0.000000 0.551751 0.316777
0.000000 0.551568 0.316564
0.000000 0.551324 0.316411
0.000000 0.551141 0.316320
0.000000 0.551293 0.316594
0.000000 0.551781 0.317235
0.083467 0.552605 0.318364
0.126802 0.553552 0.320165
0.162966 0.554559 0.322637
0.197208 0.555413 0.325872
0.230411 0.555871 0.330358
0.264561 0.555566 0.336675
