data/fiter_cube/23985691/1023000/file.cube
# Created by Adobe Lightroom plugin Export LUT (1.17.0)
# www.johnrellis.com/lightroom/exportlut.htm
# Preset: 日系风光建筑_01 云集
# Color profile: C:\Program Files (x86)\Common Files\Adobe\Color\Profiles\Recommended\AdobeRGB1998.icc
LUT_3D_SIZE 5
DOMAIN_MIN 0.000000 0.000000 0.000000
DOMAIN_MAX 0.903226 0.903226 0.903226
0.017914 0.042176 0.049348
0.155947 0.021149 0.041566
0.572229 0.000000 0.000000
0.908324 0.000000 0.000000
1.000000 0.260594 0.000000
0.031830 0.092958 0.078614
0.126131 0.133913 0.067842
0.577813 0.143832 0.000000
0.907378 0.249210 0.000000
1.000000 0.360479 0.000000
0.017121 0.193912 0.132479
0.113985 0.211093 0.158175
0.453071 0.424170 0.057832
0.914000 0.576013 0.000000
1.000000 0.579797 0.000000
0.000000 0.325231 0.198734
0.092226 0.337774 0.211398
0.212650 0.291112 0.227726
0.771084 0.724758 0.175906
1.000000 0.794553 0.371496
0.000000 0.616663 0.359655
0.015137 0.617273 0.359625
0.314611 0.598230 0.371160
0.508507 0.610468 0.408667
0.991943 0.941741 0.507774
0.000000 0.068116 0.135317
0.154055 0.058167 0.157351
0.525231 0.000000 0.127962
0.876493 0.000000 0.088075
1.000000 0.277409 0.000000
0.000000 0.122835 0.147311
0.131289 0.152987 0.170596
0.540002 0.151675 0.164584
0.880064 0.251713 0.125246
1.000000 0.374426 0.000000
0.000000 0.227024 0.179355
0.120516 0.254978 0.207401
0.448615 0.425757 0.210971
0.891051 0.573968 0.277562
1.000000 0.596704 0.269291
0.000000 0.357519 0.237705
0.087251 0.373846 0.252506
0.259098 0.353277 0.282292
0.768734 0.728176 0.306615
1.000000 0.806607 0.505577
0.000000 0.635859 0.391760
0.000000 0.636805 0.391089
0.322667 0.638239 0.406561
0.498329 0.595300 0.428138
0.988220 0.943847 0.576165
0.000000 0.118105 0.408850
0.022553 0.118959 0.426795
0.590478 0.000000 0.523827
0.856229 0.051698 0.442054
1.000000 0.367651 0.443977
0.000000 0.206088 0.422797
0.097719 0.219791 0.444251
0.566186 0.223423 0.524468
0.834134 0.248814 0.443763
1.000000 0.441413 0.467567
0.000000 0.343114 0.407691
0.010254 0.373938 0.429419
0.476020 0.485023 0.516564
0.836545 0.573663 0.558038
1.000000 0.638697 0.571618
0.000000 0.460151 0.391302
0.000000 0.476753 0.401190
0.356756 0.532189 0.457160
0.762539 0.746334 0.576959
1.000000 0.842039 0.743313
0.000000 0.697200 0.513603
0.000000 0.700679 0.511559
0.282353 0.700008 0.500008
0.516747 0.628351 0.500877
0.973785 0.943755 0.704799
0.000000 0.241886 0.742153
0.000000 0.248905 0.748775
0.492409 0.198703 0.767361
0.877440 0.431403 0.828794
1.000000 0.607904 0.802731
0.000000 0.331579 0.744930
0.122652 0.340856 0.751614
0.493172 0.321538 0.768002
0.865049 0.506706 0.828885
1.000000 0.632197 0.803708
0.000000 0.491768 0.729702
0.150912 0.509697 0.739376
0.515770 0.566735 0.770016
0.825742 0.642756 0.822721
0.992401 0.692348 0.799435
0.000000 0.631891 0.702815
0.000000 0.641291 0.708064
0.431373 0.680781 0.735378
0.765072 0.783017 0.815549
0.986206 0.842832 0.851438
0.000000 0.801297 0.737331
0.000000 0.804227 0.736263
0.237858 0.811490 0.727657
0.592523 0.801785 0.711391
0.958495 0.948455 0.853086
0.311162 0.478523 0.941588
0.406104 0.491981 0.941741
0.579126 0.482033 0.946136
0.799527 0.458015 0.952911
0.994476 0.738643 0.950927
0.306828 0.515221 0.938293
0.413611 0.536675 0.938445
0.585138 0.539330 0.942412
0.789059 0.504204 0.948394
0.991089 0.757992 0.951720
0.298253 0.623255 0.933013
0.390753 0.631769 0.934112
0.593622 0.665187 0.936492
0.770871 0.644038 0.943084
0.985260 0.823636 0.958801
0.230838 0.752377 0.926635
0.320714 0.753109 0.926085
0.530724 0.766690 0.930724
0.779141 0.816953 0.945647
0.978698 0.900816 0.969329
0.215518 0.886198 0.931456
0.299962 0.887755 0.932067
0.501549 0.899138 0.938567
0.713344 0.911254 0.942199
0.949859 0.956786 0.966247
