data/fiter_cube/23985691/1023000/file.cube
# Created by Adobe Lightroom plugin Export LUT (1.17.0)
# www.johnrellis.com/lightroom/exportlut.htm
# Preset: 日系风光建筑_01 云集
# Color profile: C:\Program Files (x86)\Common Files\Adobe\Color\Profiles\Recommended\AdobeRGB1998.icc
LUT_3D_SIZE 8
DOMAIN_MIN 0.000000 0.000000 0.000000
DOMAIN_MAX 0.903226 0.903226 0.903226
0.017914 0.042176 0.049348
0.075654 0.039979 0.048493
0.196689 0.000000 0.035615
0.435340 0.000000 0.000000
0.690883 0.000000 0.000000
0.872313 0.000000 0.000000
0.993256 0.156771 0.000000
1.000000 0.260594 0.000000
0.023194 0.068605 0.063386
0.067353 0.078065 0.056428
0.193820 0.073457 0.040345
0.428046 0.000000 0.000000
0.683986 0.000000 0.000000
0.860807 0.000000 0.000000
0.986084 0.201938 0.000000
1.000000 0.287938 0.000000
0.033509 0.103975 0.084627
0.065675 0.109682 0.093751
0.155642 0.161013 0.069276
0.443519 0.200412 0.000000
0.701869 0.222202 0.000000
0.870176 0.275517 0.000000
0.995209 0.345678 0.000000
1.000000 0.386450 0.000000
0.027893 0.162173 0.115785
0.064576 0.167941 0.121981
0.115999 0.162051 0.139040
0.340337 0.324590 0.066438
0.705898 0.448829 0.000000
0.888243 0.486427 0.000000
0.996185 0.503838 0.000000
1.000000 0.512291 0.000000
0.001251 0.227878 0.150362
0.053376 0.233158 0.155306
0.133822 0.250156 0.182376
0.183597 0.238621 0.183902
0.552544 0.515373 0.062409
0.839567 0.621057 0.000000
0.987121 0.656825 0.161746
1.000000 0.649195 0.174197
0.000000 0.301274 0.187015
0.002136 0.308080 0.192172
0.120699 0.321538 0.208652
0.195132 0.298405 0.223178
0.304082 0.376043 0.228550
0.731746 0.686488 0.144930
0.951568 0.765103 0.223392
1.000000 0.771572 0.356237
0.000000 0.406439 0.237430
0.000000 0.409705 0.239963
0.097597 0.414832 0.247379
0.214542 0.420874 0.273320
0.248142 0.340764 0.254948
0.504143 0.576562 0.295750
0.879362 0.829892 0.284092
1.000000 0.858915 0.403052
0.000000 0.616663 0.359655
0.000000 0.616510 0.359228
0.103670 0.618067 0.360540
0.255955 0.621820 0.370886
0.356939 0.567651 0.368231
0.410620 0.505180 0.370642
0.768276 0.827512 0.502983
0.991943 0.941741 0.507774
0.010834 0.051789 0.081941
0.072206 0.054627 0.085145
0.182284 0.032441 0.078950
0.406287 0.000000 0.065614
0.668421 0.000000 0.000000
0.848508 0.000000 0.000000
0.979614 0.146761 0.000000
1.000000 0.259068 0.000000
0.013611 0.075044 0.084932
0.065766 0.083040 0.090425
0.181613 0.085267 0.088258
0.408118 0.000000 0.070649
0.668879 0.000000 0.000000
0.844663 0.000000 0.000000
0.974548 0.196689 0.000000
1.000000 0.286076 0.000000
0.028321 0.113497 0.100282
0.068330 0.123384 0.111086
0.158999 0.166751 0.104829
0.425788 0.200259 0.091646
0.680354 0.216281 0.000000
0.851530 0.266850 0.000000
0.979614 0.336553 0.000000
1.000000 0.384375 0.000000
0.019806 0.172091 0.130556
0.065827 0.180087 0.138613
0.130983 0.183413 0.160891
0.332189 0.318853 0.116732
0.676814 0.427131 0.070222
0.861357 0.466316 0.002716
0.980438 0.493172 0.000000
1.000000 0.509941 0.000000
0.000000 0.239750 0.165164
0.051423 0.244541 0.169741
0.136446 0.263096 0.194675
0.188296 0.239475 0.199954
0.538994 0.504051 0.128145
0.826658 0.611658 0.133181
0.979431 0.655055 0.227573
1.000000 0.649378 0.227817
0.000000 0.308507 0.197757
0.000000 0.312505 0.201419
0.120577 0.326390 0.217227
0.204868 0.313512 0.237308
0.303655 0.373175 0.242283
0.728115 0.684413 0.192386
0.946990 0.764004 0.273930
1.000000 0.772793 0.394293
0.000000 0.406134 0.243137
0.000000 0.406928 0.244114
0.093324 0.414099 0.252232
0.213504 0.428138 0.279240
0.256046 0.351659 0.264744
0.496071 0.568139 0.305364
0.871641 0.823911 0.306523
1.000000 0.856199 0.423713
0.000000 0.611292 0.360601
0.000000 0.613123 0.361608
0.085603 0.615961 0.363622
0.249516 0.621241 0.374212
0.371649 0.589380 0.386328
0.421790 0.519097 0.381933
0.763699 0.823850 0.509545
0.988769 0.940002 0.520897
0.000000 0.072389 0.164065
0.023438 0.072786 0.170809
0.198428 0.045716 0.194949
0.407904 0.000000 0.171786
0.652949 0.000000 0.157107
0.838865 0.000000 0.157107
0.976287 0.190951 0.130739
1.000000 0.291936 0.059358
0.000000 0.096437 0.169467
0.045350 0.101167 0.177737
0.188754 0.097353 0.197024
0.390356 0.000000 0.174258
0.649378 0.000000 0.169223
0.834928 0.047700 0.163790
0.972656 0.232975 0.137758
1.000000 0.318791 0.079194
0.000000 0.145876 0.176608
0.030671 0.155764 0.184360
0.165438 0.187442 0.209049
0.399786 0.200656 0.211948
0.665095 0.222660 0.208286
0.841825 0.285039 0.198611
0.973480 0.359319 0.180911
1.000000 0.409033 0.148104
0.000000 0.206516 0.187320
0.000000 0.217227 0.195438
0.157351 0.247654 0.227024
0.353002 0.345037 0.237064
0.684840 0.449775 0.277531
0.851438 0.479469 0.272709
0.974578 0.514397 0.266423
1.000000 0.534173 0.250278
0.000000 0.272007 0.209873
0.000000 0.280644 0.217350
0.143832 0.307591 0.244724
0.242924 0.298772 0.271916
0.557824 0.527977 0.265232
0.828122 0.628412 0.328283
0.969757 0.670344 0.394446
1.000000 0.668696 0.388373
0.000000 0.340581 0.237858
0.000000 0.347143 0.243290
0.121401 0.365270 0.261234
0.250492 0.387213 0.302068
0.316106 0.377264 0.294530
0.726131 0.688594 0.316411
0.939818 0.771206 0.421393
1.000000 0.790768 0.534813
0.000000 0.439582 0.282078
0.000000 0.441688 0.283879
0.075715 0.448402 0.290440
0.218143 0.461769 0.311803
0.295598 0.406653 0.311131
0.492317 0.563287 0.350378
0.871641 0.830076 0.412116
1.000000 0.866026 0.544549
0.000000 0.634058 0.396460
0.000000 0.632563 0.394049
0.000000 0.633936 0.393896
0.242496 0.643427 0.405554
0.387793 0.625849 0.422675
0.445716 0.552789 0.411048
0.757595 0.820340 0.544945
0.985168 0.942199 0.587610
0.000000 0.097292 0.313695
0.000000 0.101076 0.321935
0.149935 0.088228 0.341253
0.451209 0.000000 0.398840
0.682704 0.000000 0.376013
0.803616 0.000000 0.308415
0.953429 0.191592 0.329442
1.000000 0.328099 0.328252
0.000000 0.130068 0.324529
0.000000 0.133059 0.332097
0.154910 0.125948 0.348394
0.444068 0.066651 0.401038
0.672480 0.000000 0.376013
0.802609 0.000000 0.319890
0.951507 0.241428 0.338354
1.000000 0.351202 0.333257
0.000000 0.192599 0.326177
0.000000 0.201755 0.334752
0.165866 0.224216 0.361334
0.416083 0.231815 0.404303
0.638758 0.211826 0.374334
0.812070 0.279820 0.371344
0.958312 0.386755 0.390356
1.000000 0.443885 0.376440
0.000000 0.268009 0.324376
0.000000 0.277897 0.331701
0.148745 0.313603 0.358434
0.367315 0.379248 0.409979
0.632837 0.423804 0.426825
0.816068 0.476417 0.441962
0.953582 0.530419 0.452735
1.000000 0.563378 0.447578
0.000000 0.336431 0.317815
0.000000 0.344640 0.323461
0.115602 0.375128 0.345312
0.325017 0.426917 0.398749
0.573266 0.558587 0.442084
0.823850 0.660334 0.543938
0.950591 0.689204 0.563409
1.000000 0.695979 0.557641
0.000000 0.402258 0.323461
0.000000 0.412177 0.330785
0.085145 0.432319 0.346960
0.274022 0.466102 0.383703
0.381598 0.433021 0.399908
0.729915 0.706203 0.483864
0.930968 0.791440 0.606012
1.000000 0.815640 0.681788
0.000000 0.493843 0.356298
0.000000 0.497780 0.358740
0.000000 0.508873 0.366003
0.217502 0.523980 0.380987
0.378485 0.525170 0.416693
0.485206 0.551690 0.418921
0.867643 0.837827 0.550866
1.000000 0.877409 0.673365
0.000000 0.680812 0.473304
0.000000 0.681849 0.472694
0.000000 0.681392 0.467079
0.212497 0.681270 0.463325
0.394415 0.678309 0.478523
0.486732 0.614984 0.470192
0.741268 0.808530 0.590661
0.979156 0.944671 0.669795
0.000000 0.144259 0.508049
0.000000 0.149966 0.514092
0.100954 0.142763 0.527947
0.374914 0.050324 0.553338
0.697902 0.082521 0.632258
0.852476 0.235447 0.605676
0.943297 0.295598 0.551507
1.000000 0.410803 0.548760
0.000000 0.176455 0.514763
0.000000 0.181521 0.522271
0.120851 0.179080 0.535027
0.374121 0.126223 0.556603
0.691432 0.172732 0.631861
0.846677 0.278264 0.606928
0.939574 0.323644 0.553765
1.000000 0.432044 0.555169
0.000000 0.258610 0.521141
0.000000 0.267155 0.529351
0.153933 0.276829 0.546288
0.371893 0.260288 0.565301
0.668269 0.318883 0.629328
0.822171 0.375219 0.603845
0.924163 0.391760 0.553582
1.000000 0.491554 0.571344
0.000000 0.341802 0.509758
0.000000 0.350347 0.516075
0.158297 0.381506 0.540642
0.384588 0.424903 0.580713
0.633112 0.468025 0.629816
0.785183 0.484047 0.600031
0.919707 0.525475 0.593317
1.000000 0.580652 0.600305
0.000000 0.423621 0.492531
0.000000 0.432013 0.498360
0.093812 0.460273 0.518273
0.348699 0.511101 0.557549
0.574151 0.585199 0.618494
0.775509 0.632502 0.644526
0.922576 0.676600 0.663844
1.000000 0.701747 0.667567
0.000000 0.482979 0.466712
0.000000 0.489479 0.471168
0.000000 0.509483 0.484627
0.268284 0.543786 0.509819
0.485420 0.585901 0.557214
0.722133 0.718135 0.638483
0.922881 0.812253 0.748104
1.000000 0.822416 0.762387
0.000000 0.569177 0.480446
0.000000 0.571588 0.480995
0.000000 0.581048 0.484108
0.185245 0.596612 0.492561
0.391669 0.610925 0.509758
0.493904 0.548608 0.503258
0.858213 0.842710 0.673030
0.990112 0.889220 0.781888
0.000000 0.722957 0.567864
0.000000 0.722988 0.566278
0.000000 0.723262 0.561028
0.146792 0.729488 0.557549
0.359625 0.722652 0.545983
0.539239 0.699916 0.571008
0.698787 0.770687 0.623072
0.969818 0.945098 0.747951
0.000000 0.220645 0.706844
0.000000 0.228977 0.709438
0.114626 0.223117 0.715816
0.382574 0.194003 0.728145
0.619623 0.161959 0.751522
0.850065 0.373663 0.798581
0.955627 0.525505 0.793118
1.000000 0.572778 0.763546
0.000000 0.246159 0.704768
0.000000 0.252567 0.707240
0.137514 0.254795 0.713924
0.381109 0.230564 0.724849
0.611963 0.206607 0.747280
0.844144 0.400397 0.796719
0.952087 0.538811 0.793088
1.000000 0.580285 0.763455
0.000000 0.341894 0.712825
0.000000 0.342901 0.714534
0.189517 0.351141 0.721889
0.396124 0.345190 0.731563
0.598962 0.324285 0.747036
0.832334 0.490883 0.799802
0.943236 0.586816 0.797238
1.000000 0.610040 0.766323
0.000000 0.435035 0.705379
0.000000 0.440681 0.708248
0.229923 0.464485 0.721889
0.430243 0.495521 0.741665
0.593591 0.487495 0.755581
0.817288 0.599512 0.807431
0.930388 0.648615 0.801205
1.000000 0.650538 0.766476
0.000000 0.517937 0.684413
0.000000 0.523644 0.688045
0.162753 0.543297 0.700710
0.404273 0.579492 0.724208
0.594842 0.627619 0.755428
0.783566 0.676204 0.799313
0.903593 0.686366 0.780606
0.994629 0.706661 0.768521
0.000000 0.589502 0.660639
0.000000 0.595331 0.664912
0.000000 0.610407 0.675105
0.331670 0.636408 0.693782
0.538964 0.676173 0.723201
0.730312 0.747585 0.781582
0.897826 0.795071 0.811978
0.992004 0.819730 0.824491
0.000000 0.666712 0.654994
0.000000 0.671870 0.658747
0.000000 0.680476 0.663203
0.210697 0.692836 0.668940
0.422980 0.705409 0.673579
0.625727 0.724178 0.702205
0.855802 0.856657 0.795621
0.984619 0.913024 0.882872
0.000000 0.785672 0.702602
0.000000 0.785794 0.701442
0.000000 0.787076 0.697597
0.000000 0.790921 0.691096
0.340887 0.789883 0.678614
0.541070 0.780484 0.671351
0.649470 0.714504 0.658930
0.960876 0.947906 0.833585
0.000000 0.332036 0.850340
0.000000 0.347662 0.853788
0.262852 0.344152 0.856657
0.435584 0.333349 0.862455
0.605859 0.307805 0.869291
0.801175 0.382635 0.888670
0.943297 0.588220 0.898466
1.000000 0.713954 0.895293
0.000000 0.341711 0.842313
0.000000 0.354833 0.845609
0.263096 0.363226 0.848966
0.427893 0.351324 0.854063
0.594232 0.325689 0.860380
0.787228 0.385168 0.878904
0.935149 0.582116 0.892027
1.000000 0.703822 0.889342
0.000000 0.429419 0.849790
0.115572 0.431464 0.850645
0.300237 0.444709 0.852537
0.450172 0.445533 0.856687
0.596674 0.424445 0.861234
0.778286 0.462287 0.877867
0.932525 0.635279 0.897459
0.999451 0.740902 0.897765
0.121492 0.527031 0.851926
0.193820 0.530083 0.852232
0.332158 0.541405 0.854887
0.487068 0.566583 0.861265
0.611719 0.559960 0.866484
0.766445 0.564172 0.879789
0.928344 0.709010 0.906004
0.995239 0.780941 0.904967
0.000000 0.595514 0.833188
0.058961 0.596704 0.832914
0.278294 0.606653 0.836545
0.460273 0.634241 0.848844
0.610346 0.662104 0.861662
0.734859 0.650233 0.870634
0.911559 0.760098 0.904356
0.987243 0.810452 0.904906
0.000000 0.668360 0.817502
0.000000 0.670832 0.818875
0.208408 0.679835 0.823911
0.405310 0.699275 0.835172
0.579522 0.730068 0.852903
0.742275 0.774777 0.880003
0.899687 0.831113 0.911467
0.977752 0.840482 0.900786
0.000000 0.743893 0.810330
0.000000 0.747219 0.812741
0.091188 0.753140 0.816129
0.335882 0.764736 0.823209
0.512169 0.780270 0.831815
0.678645 0.810636 0.851621
0.858091 0.873625 0.897459
0.973999 0.905699 0.917388
0.000000 0.835294 0.825803
0.000000 0.836057 0.825864
0.000000 0.847562 0.834104
0.206332 0.856443 0.838010
0.415045 0.860349 0.836179
0.575463 0.865080 0.831174
0.744381 0.860960 0.826719
0.953765 0.951843 0.907958
0.311162 0.478523 0.941588
0.362280 0.494392 0.942107
0.425086 0.490517 0.941894
0.523033 0.486183 0.944518
0.637812 0.474983 0.947570
0.764065 0.454719 0.951293
0.916106 0.582971 0.961028
0.994476 0.738643 0.950927
0.289525 0.479622 0.938933
0.342962 0.494820 0.939544
0.428534 0.505516 0.939422
0.521019 0.498726 0.941466
0.633997 0.487404 0.944701
0.759274 0.467018 0.948608
0.911040 0.584283 0.958434
0.992493 0.739467 0.949889
0.304204 0.525780 0.936492
0.336156 0.530419 0.936980
0.431525 0.547509 0.935760
0.539818 0.561822 0.940215
0.638911 0.548608 0.942809
0.754421 0.526360 0.945892
0.903014 0.613642 0.956298
0.989776 0.762631 0.951659
0.311131 0.590600 0.935698
0.344091 0.595575 0.936522
0.428351 0.605982 0.936370
0.551263 0.633082 0.938354
0.648005 0.632410 0.941558
0.752499 0.615442 0.945678
0.892729 0.665309 0.955688
0.987152 0.802792 0.956390
0.274510 0.656519 0.929778
0.311070 0.660395 0.931060
0.399847 0.667414 0.932158
0.517021 0.681453 0.936004
0.643610 0.705104 0.938293
0.742458 0.698207 0.942657
0.872587 0.714870 0.952605
0.984131 0.847990 0.962371
0.219059 0.727810 0.924010
0.249119 0.727474 0.923461
0.339422 0.729061 0.923278
0.462989 0.736995 0.925902
0.601099 0.754726 0.932982
0.750362 0.792966 0.943389
0.860075 0.799313 0.954711
0.980591 0.892210 0.968658
0.184268 0.805966 0.923857
0.216800 0.805753 0.923522
0.307530 0.806332 0.923278
0.432013 0.811948 0.925719
0.565820 0.822538 0.930755
0.716609 0.845762 0.940581
0.866423 0.889342 0.956603
0.972625 0.927672 0.971588
0.215518 0.886198 0.931456
0.241337 0.886229 0.931304
0.325872 0.888853 0.932708
0.445258 0.896300 0.937255
0.556909 0.901610 0.939391
0.680049 0.908721 0.941436
0.815427 0.921996 0.945830
0.949859 0.956786 0.966247
