data/fiter_cube/27130762/1023402/file.cube
# Created by Adobe Lightroom plugin Export LUT (1.17.0)
# www.johnrellis.com/lightroom/exportlut.htm
# Preset: 森系文艺人像美食静物_06 云集
# Color profile: C:\Program Files (x86)\Common Files\Adobe\Color\Profiles\Recommended\AdobeRGB1998.icc
LUT_3D_SIZE 32
DOMAIN_MIN 0.0 0.0 0.0
DOMAIN_MAX 1.0 1.0 1.0
0.104646 0.104646 0.104646
0.104646 0.104646 0.104646
0.118959 0.105104 0.104219
0.144930 0.106203 0.103212
0.182254 0.107912 0.101350
0.227115 0.113222 0.101015
0.280156 0.120943 0.100893
0.339666 0.129122 0.098817
0.403082 0.138735 0.094392
0.467567 0.149935 0.088075
0.531334 0.160647 0.080842
0.591791 0.172305 0.072908
0.647120 0.185061 0.063874
0.696010 0.195987 0.060182
0.737484 0.207462 0.060487
0.772183 0.217807 0.067659
0.801694 0.227939 0.078126
0.827695 0.238529 0.090822
0.852995 0.249607 0.105776
0.879332 0.262791 0.124422
0.902678 0.276005 0.143404
0.923552 0.289586 0.162844
0.942138 0.303227 0.181949
0.958862 0.317357 0.200717
0.974090 0.330968 0.219791
0.988251 0.345342 0.238987
1.000000 0.360357 0.258915
1.000000 0.376379 0.279698
1.000000 0.393317 0.301701
1.000000 0.412024 0.325719
1.000000 0.432136 0.350805
1.000000 0.454108 0.378302
0.104646 0.104646 0.104646
0.105623 0.105745 0.104555
0.119875 0.111421 0.103670
0.145785 0.114687 0.102419
0.183230 0.117922 0.100374
0.227634 0.124392 0.101320
0.280369 0.132204 0.100618
0.339361 0.141054 0.098177
0.402197 0.150271 0.093751
0.466468 0.161471 0.086976
0.529686 0.172213 0.079622
0.589868 0.183719 0.071168
0.644862 0.194247 0.063691
0.693690 0.205112 0.059510
0.735256 0.215244 0.059724
0.770108 0.225132 0.066957
0.799802 0.234562 0.076631
0.825803 0.244053 0.089815
0.851286 0.254582 0.105165
0.877104 0.266819 0.123079
0.900206 0.279271 0.141634
0.921111 0.292027 0.160220
0.939788 0.305058 0.179263
0.956664 0.318456 0.197940
0.972076 0.331823 0.216861
0.986450 0.345800 0.236271
1.000000 0.360388 0.256138
1.000000 0.376257 0.277104
1.000000 0.393194 0.299321
1.000000 0.411475 0.322759
1.000000 0.431312 0.347997
1.000000 0.452918 0.375128
0.102846 0.115724 0.104677
0.107790 0.117464 0.103456
0.119081 0.119142 0.102968
0.146914 0.125307 0.101320
0.184024 0.130709 0.100191
0.228519 0.137972 0.101656
0.280858 0.146029 0.100374
0.339544 0.155459 0.097230
0.401892 0.165255 0.092561
0.465766 0.175570 0.086275
0.528954 0.186648 0.077913
0.588922 0.197574 0.069184
0.643824 0.207309 0.061952
0.692744 0.217288 0.057069
0.734249 0.226444 0.059052
0.769192 0.234897 0.065888
0.798795 0.243961 0.076417
0.824826 0.251987 0.089906
0.850492 0.261875 0.105287
0.876005 0.273381 0.122377
0.899046 0.285008 0.140536
0.919890 0.296971 0.159518
0.938598 0.309331 0.178439
0.955566 0.321874 0.197086
0.971069 0.334936 0.215824
0.985504 0.348394 0.235019
0.999207 0.362768 0.254765
1.000000 0.378149 0.275883
1.000000 0.394781 0.298283
1.000000 0.412970 0.321996
1.000000 0.432288 0.346807
1.000000 0.453712 0.373968
0.102480 0.136995 0.107088
0.107149 0.138827 0.105623
0.117800 0.140810 0.105776
0.144259 0.144259 0.105592
0.186740 0.155703 0.102937
0.232181 0.164309 0.100557
0.284398 0.173312 0.098543
0.342901 0.183474 0.094850
0.404761 0.193973 0.088960
0.467872 0.204257 0.082307
0.530297 0.214572 0.073945
0.589624 0.224155 0.065126
0.643915 0.233738 0.055879
0.692378 0.241764 0.049836
0.733639 0.248875 0.053254
0.768460 0.255436 0.064118
0.798032 0.262547 0.075380
0.823972 0.269200 0.089326
0.849851 0.277531 0.104738
0.874479 0.287022 0.122255
0.897063 0.296941 0.140444
0.917784 0.307530 0.158633
0.936645 0.318761 0.177676
0.953918 0.330419 0.196963
0.969909 0.342809 0.215854
0.984771 0.355901 0.235447
0.998779 0.369696 0.255711
1.000000 0.384924 0.277195
1.000000 0.400885 0.299443
1.000000 0.418341 0.323095
1.000000 0.437079 0.347631
1.000000 0.457404 0.374029
0.106508 0.164858 0.115267
0.108858 0.167269 0.111330
0.117983 0.169589 0.111421
0.141451 0.173709 0.111177
0.179751 0.179568 0.109865
0.236118 0.198245 0.102602
0.288945 0.209293 0.096284
0.346807 0.220706 0.089784
0.407874 0.231083 0.083558
0.470039 0.241917 0.075715
0.531548 0.251682 0.066743
0.590265 0.260533 0.056275
0.643946 0.268254 0.043671
0.692103 0.274540 0.037751
0.733303 0.280186 0.044099
0.768185 0.284916 0.059663
0.797848 0.289281 0.073579
0.823880 0.294133 0.088808
0.850278 0.300572 0.106050
0.874418 0.308141 0.123384
0.896544 0.316075 0.141451
0.916960 0.324895 0.159640
0.935668 0.334325 0.178866
0.952972 0.344762 0.197910
0.968963 0.355810 0.217288
0.983948 0.367651 0.237003
0.997955 0.380621 0.257481
1.000000 0.394446 0.278264
1.000000 0.409644 0.300450
1.000000 0.426062 0.323674
1.000000 0.443915 0.348425
1.000000 0.463569 0.374853
0.107546 0.199741 0.122713
0.108339 0.202396 0.117800
0.116091 0.205264 0.115969
0.136995 0.210697 0.115663
0.176333 0.216861 0.114137
0.225010 0.225010 0.110933
0.296971 0.252415 0.097627
0.354528 0.264622 0.087098
0.415045 0.276493 0.072450
0.476478 0.286687 0.063325
0.536858 0.296025 0.048127
0.594446 0.303471 0.029297
0.647120 0.309545 0.016938
0.694514 0.314488 0.012177
0.735012 0.317693 0.023713
0.769375 0.319921 0.051789
0.798703 0.322210 0.071321
0.825437 0.324926 0.089052
0.851499 0.329381 0.107820
0.875303 0.334783 0.125887
0.897185 0.340703 0.144869
0.917540 0.347723 0.163638
0.950042 0.368170 0.202823
0.965942 0.377905 0.222843
0.980407 0.387854 0.242496
0.993805 0.398413 0.262303
1.000000 0.410010 0.281987
1.000000 0.422614 0.302617
1.000000 0.436561 0.323980
1.000000 0.451820 0.346807
1.000000 0.468513 0.370642
1.000000 0.486580 0.395697
0.104555 0.247440 0.131868
0.105562 0.249943 0.125826
0.110506 0.253239 0.119570
0.135348 0.259281 0.119631
0.173404 0.268193 0.118563
0.227024 0.276310 0.115267
0.286442 0.286381 0.110323
0.372503 0.320989 0.087709
0.432990 0.332097 0.069947
0.494514 0.342901 0.033539
0.554345 0.351537 0.000000
0.610407 0.357366 0.000000
0.661067 0.360662 0.000000
0.705898 0.362432 0.000000
0.743801 0.362432 0.001343
0.775967 0.361608 0.041321
0.803861 0.360967 0.070741
0.831815 0.362463 0.092287
0.857359 0.364660 0.113466
0.881132 0.368170 0.133852
0.903502 0.373236 0.154055
0.924529 0.379553 0.176120
0.943938 0.387213 0.197787
0.961578 0.395972 0.219974
0.977447 0.405402 0.241825
0.991669 0.415198 0.262852
1.000000 0.425696 0.283360
1.000000 0.437140 0.304265
1.000000 0.449622 0.325414
1.000000 0.463569 0.347845
1.000000 0.478798 0.371008
1.000000 0.495735 0.396002
0.098970 0.297734 0.141939
0.099977 0.300206 0.135836
0.101717 0.303593 0.126619
0.128664 0.309758 0.123384
0.167147 0.319005 0.122835
0.220859 0.327947 0.120516
0.282567 0.337041 0.116152
0.347692 0.347478 0.110262
0.441688 0.385718 0.078645
0.501762 0.394995 0.048096
0.560571 0.402869 0.000000
0.615961 0.408423 0.000000
0.665309 0.410040 0.000000
0.708827 0.409400 0.000000
0.745724 0.407019 0.000000
0.777279 0.403815 0.016876
0.805966 0.401251 0.066865
0.833371 0.400305 0.092683
0.857877 0.400031 0.114870
0.880888 0.401160 0.135805
0.902708 0.403937 0.157290
0.923278 0.407904 0.179385
0.942382 0.413428 0.201297
0.959869 0.419989 0.222995
0.975647 0.427375 0.244511
0.989868 0.435645 0.265660
1.000000 0.444434 0.285588
1.000000 0.454200 0.306523
1.000000 0.465370 0.327825
1.000000 0.477790 0.349645
1.000000 0.491798 0.373083
1.000000 0.507347 0.397620
0.091310 0.353826 0.154971
0.092744 0.356054 0.148989
0.095064 0.359594 0.139651
0.117464 0.365362 0.130007
0.162631 0.374090 0.129061
0.210605 0.384924 0.128542
0.276860 0.392859 0.124636
0.343145 0.402106 0.119661
0.412665 0.412055 0.113008
0.511559 0.452522 0.074250
0.569177 0.458564 0.023682
0.622858 0.461677 0.000000
0.671412 0.462196 0.000000
0.713802 0.459876 0.000000
0.749264 0.454780 0.000000
0.780240 0.448951 0.000000
0.809720 0.445014 0.063264
0.835782 0.441321 0.093080
0.859251 0.438453 0.117525
0.881559 0.437140 0.139895
0.902831 0.437659 0.161532
0.922972 0.439490 0.183841
0.941711 0.442756 0.206027
0.958892 0.447395 0.227756
0.974517 0.452979 0.249119
0.988647 0.458991 0.269749
1.000000 0.466285 0.290257
1.000000 0.474372 0.310796
1.000000 0.483925 0.331731
1.000000 0.494759 0.353368
1.000000 0.507317 0.376501
1.000000 0.521477 0.400793
0.082124 0.412604 0.170169
0.084840 0.414618 0.164523
0.086854 0.417487 0.155184
0.101564 0.423377 0.138033
0.154665 0.430701 0.138247
0.206760 0.440925 0.138003
0.267247 0.450599 0.136690
0.336278 0.458289 0.132662
0.405890 0.467109 0.127199
0.476875 0.476600 0.121035
0.576135 0.515099 0.084474
0.629480 0.516991 0.042145
0.676722 0.515190 0.000000
0.717708 0.510582 0.000000
0.753536 0.504112 0.000000
0.786191 0.497871 0.000000
0.814267 0.491005 0.056367
0.839384 0.484565 0.094331
0.862119 0.479377 0.121523
0.883574 0.475685 0.145296
0.903929 0.473732 0.168002
0.923095 0.473243 0.189792
0.941009 0.474037 0.211337
0.957549 0.476265 0.232273
0.972778 0.479500 0.253361
0.986786 0.483803 0.274052
0.999878 0.489265 0.294133
1.000000 0.495979 0.314733
1.000000 0.504143 0.336156
1.000000 0.513848 0.358190
1.000000 0.525200 0.381292
1.000000 0.538170 0.405646
0.077363 0.469856 0.188785
0.080293 0.471717 0.183444
0.083833 0.474372 0.174960
0.090761 0.479988 0.154665
0.145815 0.486885 0.151095
0.202060 0.496010 0.151766
0.257511 0.507164 0.153201
0.326848 0.515160 0.150393
0.397406 0.522454 0.147189
0.467872 0.530358 0.143099
0.538720 0.538384 0.138430
0.634272 0.572534 0.112825
0.682704 0.570703 0.082582
0.723537 0.564233 0.065095
0.759548 0.556329 0.052216
0.790249 0.546929 0.050660
0.817655 0.537591 0.051423
0.841733 0.528679 0.093538
0.863706 0.520897 0.123720
0.884550 0.514885 0.148928
0.904295 0.510735 0.173312
0.923125 0.508141 0.195315
0.940703 0.507073 0.217838
0.956970 0.507378 0.239078
0.971984 0.508873 0.259953
0.985809 0.511254 0.280369
0.998688 0.514916 0.300145
1.000000 0.519921 0.320775
1.000000 0.526390 0.341741
1.000000 0.534417 0.363409
1.000000 0.544213 0.386450
1.000000 0.555840 0.410651
0.081209 0.526879 0.209842
0.084016 0.528618 0.204837
0.088106 0.530785 0.197818
0.096681 0.535515 0.180758
0.138430 0.542229 0.168368
0.198428 0.550134 0.170230
0.255344 0.559930 0.172396
0.314824 0.570214 0.174533
0.386969 0.576043 0.172549
0.457160 0.582605 0.170169
0.526482 0.589014 0.167788
0.595789 0.595331 0.164920
0.704128 0.641535 0.167422
0.747250 0.635035 0.146670
0.779904 0.622461 0.140688
0.808652 0.609461 0.137179
0.834318 0.596857 0.135317
0.857237 0.584710 0.136080
0.877897 0.573632 0.145113
0.896941 0.564874 0.171939
0.914946 0.557824 0.195895
0.931914 0.552697 0.218845
0.947784 0.549035 0.239994
0.962585 0.546990 0.260746
0.976349 0.546197 0.280888
0.989258 0.546715 0.300114
1.000000 0.548425 0.319188
1.000000 0.551507 0.338781
1.000000 0.556054 0.358434
1.000000 0.562341 0.379492
1.000000 0.570336 0.401465
1.000000 0.580133 0.424720
0.102266 0.588128 0.237644
0.104646 0.589502 0.233188
0.108431 0.591028 0.226963
0.116274 0.594690 0.212131
0.139406 0.600061 0.192660
0.200198 0.605737 0.195071
0.256870 0.613245 0.198367
0.312505 0.622217 0.202853
0.377752 0.629389 0.204746
0.447730 0.634638 0.203769
0.517327 0.641413 0.204959
0.588769 0.650690 0.208743
0.659205 0.658869 0.213474
0.743954 0.683650 0.218509
0.781216 0.673671 0.196475
0.809445 0.659083 0.190188
0.834440 0.644343 0.185916
0.856718 0.630091 0.182895
0.877165 0.617029 0.182315
0.896513 0.605585 0.184207
0.914427 0.596185 0.200656
0.930999 0.588830 0.224033
0.946502 0.583185 0.245975
0.961120 0.579187 0.266423
0.974701 0.576501 0.286687
0.987427 0.575158 0.306065
0.999420 0.575189 0.324926
1.000000 0.576715 0.344213
1.000000 0.579706 0.363836
1.000000 0.584527 0.384985
1.000000 0.590997 0.406500
1.000000 0.599512 0.430121
0.131380 0.634882 0.264012
0.134035 0.635950 0.260410
0.136324 0.637415 0.254643
0.143923 0.640314 0.243473
0.153231 0.645045 0.222263
0.205142 0.649775 0.221958
0.259861 0.655909 0.225498
0.313146 0.663203 0.230503
0.367193 0.671901 0.237552
0.436072 0.678126 0.240726
0.504051 0.684230 0.244388
0.571130 0.690181 0.248386
0.636316 0.695430 0.254002
0.700008 0.699550 0.258885
0.775967 0.718746 0.269017
0.809537 0.707424 0.244358
0.833799 0.691035 0.237003
0.855589 0.675257 0.231205
0.875700 0.660517 0.227451
0.894865 0.647395 0.225895
0.913085 0.636011 0.227268
0.930449 0.625818 0.229831
0.945678 0.618189 0.252506
0.960052 0.612390 0.273869
0.973480 0.608026 0.294224
0.986084 0.605127 0.313573
0.997955 0.603510 0.332799
1.000000 0.603479 0.351812
1.000000 0.605066 0.371618
1.000000 0.608453 0.392370
1.000000 0.613611 0.414099
1.000000 0.620752 0.437415
0.166629 0.676722 0.292638
0.168795 0.677607 0.289708
0.171023 0.678614 0.285344
0.176516 0.681025 0.275212
0.184634 0.684810 0.258518
0.218631 0.689265 0.251682
0.269657 0.694911 0.257359
0.320317 0.701656 0.263615
0.371618 0.709194 0.272251
0.427710 0.716030 0.280461
0.491524 0.719875 0.283879
0.553979 0.723598 0.288670
0.615045 0.726986 0.294072
0.674434 0.729732 0.299199
0.732296 0.731685 0.303990
0.802579 0.748470 0.313054
0.833188 0.736629 0.289677
0.854490 0.719722 0.281041
0.874266 0.703822 0.274388
0.893095 0.689418 0.270512
0.911070 0.676448 0.269017
0.928161 0.664912 0.269200
0.944274 0.654627 0.270451
0.959014 0.646113 0.281132
0.972320 0.640070 0.301976
0.984833 0.635706 0.322026
0.996765 0.632868 0.341466
1.000000 0.631800 0.361944
1.000000 0.632288 0.381964
1.000000 0.634730 0.403571
1.000000 0.638972 0.426154
1.000000 0.645167 0.449805
0.208621 0.714961 0.324712
0.211429 0.715846 0.323247
0.213138 0.716945 0.319493
0.218296 0.719295 0.312108
0.226200 0.722896 0.299870
0.245487 0.727230 0.289128
0.289433 0.731319 0.294621
0.334905 0.736263 0.301762
0.381628 0.741848 0.310033
0.428870 0.747890 0.320134
0.484260 0.751247 0.325963
0.541588 0.753414 0.329686
0.597528 0.755123 0.333898
0.652552 0.756588 0.337743
0.706111 0.757565 0.341222
0.758389 0.757870 0.344976
0.821775 0.771389 0.353582
0.852811 0.761959 0.332097
0.872526 0.745632 0.323766
0.891386 0.730770 0.317815
0.909331 0.717220 0.314275
0.926421 0.704738 0.312657
0.942443 0.693477 0.312474
0.957610 0.683314 0.313787
0.971893 0.674250 0.316411
0.984527 0.667964 0.333349
0.996246 0.663783 0.353246
1.000000 0.661311 0.373693
1.000000 0.660456 0.394354
1.000000 0.661341 0.415076
1.000000 0.663996 0.437110
1.000000 0.668605 0.460121
0.252476 0.746487 0.358190
0.253971 0.747097 0.356359
0.255802 0.747829 0.353552
0.260105 0.749569 0.347906
0.267063 0.752193 0.338567
0.275975 0.755856 0.325536
0.311650 0.758846 0.329717
0.351232 0.762478 0.336004
0.392706 0.766781 0.343908
0.435340 0.771633 0.353491
0.479652 0.776730 0.363561
0.532280 0.778256 0.367468
0.584131 0.779660 0.370977
0.635035 0.780575 0.374914
0.684932 0.781155 0.378424
0.733608 0.781155 0.381384
0.781308 0.780819 0.384466
0.838651 0.791897 0.393194
0.870420 0.785122 0.373053
0.888914 0.769924 0.365423
0.906645 0.755764 0.359289
0.923522 0.742702 0.355413
0.939422 0.730617 0.353155
0.954528 0.719722 0.352880
0.968811 0.709773 0.354070
0.982361 0.701015 0.356329
0.995026 0.693721 0.362982
1.000000 0.689937 0.383673
1.000000 0.687892 0.404486
1.000000 0.687556 0.425757
1.000000 0.689052 0.447852
1.000000 0.692348 0.470954
0.295384 0.772793 0.391394
0.297276 0.773556 0.390509
0.315831 0.783413 0.401923
0.319249 0.784726 0.397406
0.324956 0.786801 0.390723
0.331701 0.789578 0.380713
0.354131 0.792081 0.379614
0.386328 0.794705 0.385016
0.421729 0.797818 0.392554
0.458778 0.801480 0.401007
0.496986 0.805570 0.410925
0.539239 0.808164 0.418006
0.585199 0.808621 0.420600
0.630854 0.808865 0.423377
0.675929 0.808804 0.426093
0.720241 0.808438 0.428168
0.764126 0.807675 0.430854
0.807126 0.806760 0.433295
0.858549 0.815396 0.440650
0.889952 0.810666 0.422889
0.906920 0.796078 0.413977
0.923095 0.782437 0.407721
0.938567 0.769650 0.403235
0.953124 0.757900 0.400244
0.966888 0.746822 0.398199
0.979919 0.736904 0.397955
0.992370 0.727932 0.399054
1.000000 0.720302 0.402380
1.000000 0.715480 0.415381
1.000000 0.713832 0.436713
1.000000 0.713893 0.458412
1.000000 0.715877 0.481392
0.340673 0.798459 0.427680
0.344030 0.800046 0.428382
0.347417 0.801816 0.428199
0.352972 0.803952 0.426795
0.359319 0.806516 0.422827
0.366339 0.809232 0.415991
0.379950 0.811948 0.411139
0.407782 0.814054 0.416388
0.438636 0.816678 0.423072
0.471229 0.819608 0.431067
0.505425 0.823056 0.439796
0.540459 0.826688 0.449836
0.581048 0.827451 0.453681
0.622400 0.827543 0.455970
0.663569 0.827329 0.458076
0.704372 0.826841 0.460212
0.744991 0.826139 0.461891
0.785061 0.825315 0.464332
0.824949 0.824430 0.466896
0.871855 0.831907 0.474647
0.902770 0.829068 0.462074
0.919677 0.816220 0.451881
0.935058 0.803616 0.445777
0.949615 0.791775 0.441657
0.963317 0.780514 0.438636
0.976410 0.770108 0.436744
0.988891 0.760769 0.436408
1.000000 0.752651 0.438605
1.000000 0.745754 0.442390
1.000000 0.740352 0.448981
1.000000 0.738979 0.469825
1.000000 0.739651 0.492470
0.376837 0.818601 0.457191
0.380316 0.819883 0.458503
0.383612 0.821439 0.458839
0.388067 0.823331 0.457588
0.393988 0.825498 0.454841
0.400153 0.827817 0.449531
0.407416 0.830472 0.442145
0.431403 0.832181 0.447211
0.458045 0.834409 0.453285
0.486824 0.836912 0.460273
0.517357 0.839750 0.468666
0.548974 0.842802 0.477852
0.582116 0.845182 0.485878
0.619409 0.845182 0.488258
0.656703 0.844968 0.490181
0.693904 0.844480 0.491920
0.731167 0.843870 0.493568
0.768215 0.843076 0.495674
0.805234 0.842344 0.497841
0.842130 0.841672 0.500786
0.884886 0.848020 0.508690
0.915068 0.846830 0.500786
0.931762 0.835447 0.488777
0.946105 0.823850 0.483680
0.959747 0.812558 0.479316
0.972717 0.802060 0.476081
0.985107 0.792233 0.474128
0.996918 0.783658 0.474678
1.000000 0.776272 0.477150
1.000000 0.770169 0.482033
1.000000 0.765438 0.489387
1.000000 0.762966 0.502861
0.412207 0.837186 0.486732
0.415167 0.838376 0.487770
0.418219 0.839719 0.488411
0.422461 0.841367 0.487739
0.427680 0.843229 0.485695
0.433295 0.845151 0.481727
0.439368 0.847440 0.475746
0.455909 0.849271 0.476905
0.479164 0.850950 0.482521
0.504509 0.852995 0.489113
0.531395 0.855314 0.496559
0.559442 0.857877 0.504601
0.588403 0.860472 0.513634
0.620294 0.861448 0.518517
0.654017 0.861326 0.520623
0.688106 0.861082 0.522454
0.722530 0.860807 0.525017
0.757107 0.860563 0.527642
0.791745 0.860349 0.531212
0.826291 0.860227 0.535119
0.860533 0.860136 0.539727
0.899687 0.865873 0.548272
0.928649 0.865934 0.544549
0.944884 0.856107 0.532128
0.958312 0.845487 0.527306
0.970947 0.835355 0.524010
0.983093 0.825742 0.521355
0.994690 0.817014 0.520684
1.000000 0.809323 0.521965
1.000000 0.802853 0.525597
1.000000 0.797543 0.531395
1.000000 0.793515 0.539269
0.454597 0.857877 0.522454
0.456214 0.858518 0.522606
0.457923 0.859159 0.522454
0.460853 0.860075 0.521599
0.464454 0.861387 0.519097
0.468940 0.862882 0.515740
0.474372 0.864744 0.511223
0.485389 0.866606 0.509728
0.505577 0.868162 0.514977
0.527886 0.869963 0.521172
0.551781 0.872068 0.528222
0.576989 0.874266 0.536034
0.602747 0.876463 0.544244
0.629023 0.878721 0.552850
0.658869 0.878569 0.554711
0.689265 0.878264 0.556359
0.720150 0.877928 0.558495
0.751339 0.877592 0.560510
0.782712 0.877287 0.563470
0.814206 0.876951 0.566705
0.845609 0.876677 0.570031
0.876738 0.876371 0.574090
0.911955 0.880827 0.580926
0.939239 0.881346 0.579309
0.954833 0.872435 0.565362
0.967315 0.862547 0.560754
0.979248 0.853208 0.557519
0.990723 0.844541 0.556085
1.000000 0.836759 0.556237
1.000000 0.829923 0.558373
1.000000 0.824094 0.562646
1.000000 0.819516 0.569299
0.487160 0.873716 0.550378
0.488716 0.874266 0.550683
0.490425 0.874907 0.550835
0.492897 0.875731 0.549981
0.496193 0.876799 0.548241
0.500008 0.878050 0.545342
0.504662 0.879576 0.541619
0.510674 0.881437 0.537469
0.528344 0.882628 0.542260
0.547662 0.884092 0.547601
0.568841 0.885740 0.554192
0.591180 0.887602 0.561181
0.614191 0.889525 0.568383
0.638087 0.891478 0.576287
0.663233 0.892668 0.582269
0.690547 0.892454 0.583948
0.718593 0.892271 0.585840
0.747005 0.892027 0.588190
0.775845 0.891844 0.590997
0.804837 0.891691 0.593896
0.833890 0.891539 0.597223
0.862943 0.891386 0.600946
0.891630 0.891264 0.605158
0.923644 0.894987 0.611505
0.948363 0.894560 0.607782
0.963561 0.886656 0.593378
0.975311 0.877653 0.589715
0.986633 0.869169 0.587152
0.997436 0.861387 0.586572
1.000000 0.854398 0.587671
1.000000 0.848325 0.590814
1.000000 0.843412 0.596490
0.524681 0.890776 0.582635
0.526329 0.891295 0.583246
0.527367 0.891783 0.582971
0.529381 0.892363 0.582269
0.531823 0.893095 0.580591
0.534691 0.894072 0.577813
0.538293 0.895201 0.574426
0.542901 0.896574 0.570642
0.555077 0.897581 0.572198
0.571191 0.898528 0.576318
0.588983 0.899596 0.581323
0.607935 0.900938 0.586786
0.628046 0.902373 0.592920
0.648798 0.903838 0.599298
0.669886 0.905333 0.605829
0.693324 0.905364 0.608148
0.718105 0.904906 0.609369
0.743679 0.904509 0.610956
0.769955 0.904295 0.613062
0.796719 0.904204 0.615778
0.823758 0.904173 0.619196
0.850736 0.904143 0.622522
0.877562 0.903929 0.626032
0.904021 0.903624 0.629236
0.933165 0.906432 0.634119
0.957671 0.907683 0.635950
0.972320 0.900694 0.621332
0.983307 0.892363 0.618036
0.993835 0.884581 0.616236
1.000000 0.877470 0.616419
1.000000 0.871183 0.618311
1.000000 0.865904 0.622919
0.552514 0.903929 0.607019
0.553857 0.904417 0.607446
0.555047 0.904845 0.607446
0.556786 0.905333 0.606897
0.558740 0.906004 0.605280
0.561639 0.906798 0.603357
0.564965 0.907836 0.600671
0.569055 0.909087 0.597467
0.577203 0.910307 0.596643
0.591638 0.911192 0.600763
0.607324 0.912200 0.605310
0.624445 0.913420 0.610407
0.642481 0.914733 0.616022
0.661097 0.916075 0.621881
0.680232 0.917418 0.627832
0.700069 0.918608 0.633509
0.722469 0.918212 0.634668
0.745510 0.917937 0.635981
0.769345 0.917723 0.638025
0.793729 0.917632 0.640436
0.818448 0.917571 0.643214
0.843290 0.917479 0.646296
0.868040 0.917327 0.649256
0.892668 0.917082 0.652216
0.917082 0.916686 0.655299
0.943633 0.918853 0.659480
0.966827 0.920287 0.662531
0.980926 0.914153 0.648310
0.991119 0.906645 0.646265
1.000000 0.899657 0.645686
1.000000 0.893309 0.647120
1.000000 0.887816 0.650690
0.580224 0.917174 0.631434
0.581415 0.917479 0.631800
0.582177 0.917754 0.631647
0.583307 0.918120 0.630823
0.584894 0.918578 0.629389
0.586908 0.919219 0.627283
0.589624 0.920043 0.624781
0.593133 0.921080 0.622004
0.598016 0.922362 0.619348
0.610498 0.923095 0.622736
0.624506 0.923980 0.626764
0.639796 0.925017 0.631586
0.655909 0.926177 0.636561
0.672786 0.927337 0.641901
0.690028 0.928496 0.647242
0.707637 0.929717 0.652766
0.726833 0.930114 0.656214
0.747646 0.929808 0.657343
0.769345 0.929595 0.658930
0.791592 0.929473 0.661097
0.814298 0.929381 0.663539
0.837247 0.929259 0.666285
0.860136 0.929137 0.668971
0.883085 0.928893 0.671717
0.905852 0.928527 0.674403
0.928435 0.928099 0.677058
0.952880 0.929747 0.680842
0.974914 0.931426 0.685298
0.988373 0.925811 0.671015
0.997864 0.918914 0.669978
1.000000 0.912566 0.670680
1.000000 0.906859 0.673335
0.604089 0.929046 0.652674
0.604822 0.929290 0.652796
0.605524 0.929503 0.652644
0.606561 0.929839 0.652033
0.608148 0.930358 0.650904
0.610559 0.931060 0.649683
0.613764 0.932097 0.648219
0.617731 0.933379 0.646601
0.622705 0.934936 0.645075
0.633539 0.936126 0.648005
0.646845 0.937255 0.652705
0.661067 0.938476 0.657588
0.676020 0.939666 0.662776
0.691371 0.940887 0.668025
0.706996 0.941985 0.673091
0.722866 0.943023 0.678157
0.739101 0.944060 0.683436
0.757534 0.943938 0.685176
0.776883 0.943694 0.686702
0.796780 0.943511 0.688594
0.817166 0.943359 0.690700
0.837858 0.943175 0.693019
0.858640 0.942931 0.695552
0.879515 0.942657 0.697963
0.900328 0.942260 0.700496
0.921050 0.941802 0.702998
0.941650 0.941314 0.705623
0.963592 0.942412 0.709133
0.984100 0.944121 0.713741
0.996185 0.938811 0.701228
1.000000 0.932555 0.700740
1.000000 0.926757 0.702571
0.633417 0.942840 0.678828
0.633875 0.942992 0.678737
0.634363 0.943084 0.678584
0.635065 0.943328 0.677821
0.636194 0.943694 0.676631
0.637903 0.944182 0.675227
0.640192 0.944884 0.673610
0.643153 0.945800 0.671778
0.646815 0.946960 0.669764
0.653834 0.947936 0.670130
0.664881 0.948638 0.673548
0.676814 0.949462 0.677180
0.689662 0.950256 0.681270
0.703151 0.951080 0.685573
