data/fiter_cube/27130762/1023402/file.cube
# Created by Adobe Lightroom plugin Export LUT (1.17.0)
# www.johnrellis.com/lightroom/exportlut.htm
# Preset: 森系文艺人像美食静物_06 云集
# Color profile: C:\Program Files (x86)\Common Files\Adobe\Color\Profiles\Recommended\AdobeRGB1998.icc
LUT_3D_SIZE 8
DOMAIN_MIN 0.000000 0.000000 0.000000
DOMAIN_MAX 0.903226 0.903226 0.903226
0.104646 0.104646 0.104646
0.182254 0.107912 0.101350
0.403082 0.138735 0.094392
0.647120 0.185061 0.063874
0.801694 0.227939 0.078126
0.902678 0.276005 0.143404
0.974090 0.330968 0.219791
1.000000 0.393317 0.301701
0.106508 0.164858 0.115267
0.179751 0.179568 0.109865
0.407874 0.231083 0.083558
0.643946 0.268254 0.043671
0.797848 0.289281 0.073579
0.896544 0.316075 0.141451
0.968963 0.355810 0.217288
1.000000 0.409644 0.300450
0.091310 0.353826 0.154971
0.162631 0.374090 0.129061
0.412665 0.412055 0.113008
0.671412 0.462196 0.000000
0.809720 0.445014 0.063264
0.902831 0.437659 0.161532
0.974517 0.452979 0.249119
1.000000 0.483925 0.331731
0.102266 0.588128 0.237644
0.139406 0.600061 0.192660
0.377752 0.629389 0.204746
0.659205 0.658869 0.213474
0.834440 0.644343 0.185916
0.914427 0.596185 0.200656
0.974701 0.576501 0.286687
1.000000 0.579706 0.363836
0.252476 0.746487 0.358190
0.267063 0.752193 0.338567
0.392706 0.766781 0.343908
0.584131 0.779660 0.370977
0.781308 0.780819 0.384466
0.906645 0.755764 0.359289
0.968811 0.709773 0.354070
1.000000 0.687892 0.404486
0.412207 0.837186 0.486732
0.427680 0.843229 0.485695
0.479164 0.850950 0.482521
0.588403 0.860472 0.513634
0.722530 0.860807 0.525017
0.860533 0.860136 0.539727
0.958312 0.845487 0.527306
1.000000 0.809323 0.521965
0.552514 0.903929 0.607019
0.558740 0.906004 0.605280
0.577203 0.910307 0.596643
0.642481 0.914733 0.616022
0.722469 0.918212 0.634668
0.818448 0.917571 0.643214
0.917082 0.916686 0.655299
0.991119 0.906645 0.646265
0.653529 0.953521 0.697047
0.656123 0.954253 0.695277
0.666072 0.957244 0.689693
0.703792 0.960388 0.699397
0.749416 0.960723 0.709163
0.815000 0.961608 0.721889
0.887510 0.960876 0.732387
0.959289 0.958984 0.742977
0.133455 0.135042 0.146548
0.148196 0.148196 0.148196
0.364446 0.119081 0.187106
0.616602 0.140688 0.187106
0.783322 0.215061 0.198001
0.884703 0.282811 0.234745
0.960174 0.345769 0.286595
1.000000 0.410163 0.350317
0.127138 0.164309 0.165652
0.182528 0.182528 0.182528
0.386145 0.200809 0.181521
0.622461 0.237980 0.181979
0.783963 0.278325 0.196536
0.882872 0.321477 0.234531
0.956817 0.368627 0.284184
1.000000 0.423590 0.347143
0.132235 0.340551 0.224765
0.202029 0.360601 0.227665
0.401801 0.401678 0.217990
0.651331 0.439094 0.157443
0.794919 0.433722 0.195895
0.887816 0.436683 0.246342
0.959869 0.456703 0.304112
1.000000 0.491859 0.370733
0.188693 0.567926 0.312413
0.237247 0.579583 0.303410
0.382269 0.617090 0.294285
0.640772 0.640375 0.298314
0.810575 0.626764 0.259586
0.895476 0.585534 0.263645
0.960693 0.573602 0.329442
1.000000 0.582788 0.396582
0.326085 0.735012 0.424872
0.336461 0.740047 0.410346
0.417365 0.755215 0.398413
0.584741 0.767453 0.420600
0.769436 0.768978 0.428382
0.894408 0.749569 0.402930
0.960418 0.708217 0.390539
1.000000 0.690486 0.436866
0.449775 0.826444 0.524224
0.457527 0.829709 0.518639
0.494148 0.839292 0.507988
0.597681 0.850736 0.539086
0.724117 0.854551 0.553918
0.857115 0.856657 0.569909
0.952514 0.844724 0.556756
1.000000 0.810178 0.544152
0.567529 0.895598 0.623865
0.570642 0.896605 0.620020
0.586328 0.902220 0.610529
0.648463 0.908659 0.628840
0.726467 0.914275 0.649805
0.818357 0.914122 0.656886
0.913695 0.913329 0.665644
0.987182 0.904265 0.655177
0.661677 0.949432 0.706966
0.664912 0.950500 0.705898
0.675013 0.953765 0.700984
0.709071 0.957733 0.708186
0.759915 0.960815 0.724971
0.820157 0.961303 0.735073
0.888548 0.959991 0.741848
0.958282 0.957977 0.749996
0.215396 0.222416 0.271977
0.237827 0.233555 0.265537
0.275273 0.275273 0.275273
0.504967 0.342931 0.399939
0.745327 0.291386 0.407660
0.861082 0.359930 0.429816
0.941405 0.432776 0.462654
1.000000 0.494301 0.500359
0.238804 0.261906 0.307561
0.274876 0.279149 0.311376
0.305180 0.305180 0.305180
0.534813 0.344121 0.403693
0.754696 0.299718 0.397925
0.859678 0.385046 0.428412
0.939605 0.447150 0.459876
1.000000 0.504570 0.499153
0.206088 0.343908 0.347539
0.260136 0.355871 0.358892
0.390661 0.390661 0.390661
0.611505 0.408209 0.391974
0.769772 0.442939 0.412604
0.866209 0.476478 0.438666
0.941161 0.512688 0.470985
0.999207 0.552453 0.509422
0.210666 0.547692 0.416602
0.280552 0.557519 0.427985
0.437720 0.589319 0.458869
0.630579 0.630304 0.472999
0.790341 0.619532 0.432197
0.876555 0.603937 0.454231
0.944579 0.611261 0.491371
0.998413 0.628626 0.529747
0.340734 0.719509 0.499184
0.393164 0.721950 0.511864
0.506584 0.732784 0.539178
0.615229 0.757321 0.557488
0.764950 0.764706 0.565423
0.877775 0.753964 0.538354
0.947295 0.722133 0.512902
0.996796 0.717708 0.554253
0.482918 0.814389 0.583154
0.516503 0.814725 0.596033
0.578729 0.820371 0.613184
0.640253 0.835843 0.621576
0.738491 0.845365 0.637751
0.851102 0.850858 0.648005
0.940032 0.846555 0.636713
0.991547 0.821469 0.622095
0.605524 0.887449 0.672847
0.623163 0.887053 0.680232
0.647181 0.890898 0.681361
0.681086 0.899962 0.680842
0.745968 0.908751 0.701198
0.826627 0.910857 0.707332
0.913451 0.913146 0.716945
0.982177 0.908202 0.708766
0.691859 0.943175 0.743099
0.700954 0.942901 0.746639
0.709163 0.946166 0.741817
0.731777 0.952728 0.741329
0.777676 0.956573 0.756313
0.831907 0.959014 0.768643
0.894102 0.958892 0.774655
0.958465 0.958160 0.782040
0.356664 0.368841 0.453254
0.376287 0.378119 0.448676
0.405402 0.395666 0.423377
0.438575 0.438575 0.438575
0.596307 0.569085 0.579919
0.785306 0.544457 0.611994
0.896727 0.547326 0.619135
0.973205 0.576745 0.633143
0.391852 0.412177 0.488258
0.410742 0.419562 0.483925
0.433356 0.425238 0.453620
0.458198 0.458198 0.458198
0.617426 0.569512 0.587976
0.790951 0.546075 0.610834
0.899138 0.547448 0.615076
0.973297 0.583459 0.632258
0.395422 0.461280 0.525231
0.429664 0.475319 0.531426
0.497566 0.501457 0.531701
0.515038 0.515038 0.515038
0.677302 0.573419 0.606073
0.816800 0.563043 0.612696
0.910582 0.589014 0.626459
0.976349 0.622766 0.643458
0.348028 0.548394 0.554040
0.384894 0.554131 0.559045
0.484627 0.572045 0.574914
0.599268 0.599268 0.599268
0.738674 0.613123 0.604578
0.835782 0.632136 0.617121
0.914916 0.654200 0.633967
0.977264 0.676875 0.653040
0.353368 0.695369 0.583795
0.395727 0.697139 0.590051
0.513848 0.706203 0.614649
0.644038 0.726680 0.654475
0.751431 0.751278 0.669276
0.854948 0.750607 0.646754
0.924712 0.743587 0.651057
0.979339 0.747585 0.668360
0.492348 0.800565 0.640833
0.525933 0.803372 0.652155
0.604028 0.805112 0.675868
0.684993 0.816556 0.702052
0.753933 0.838163 0.717433
0.846525 0.846311 0.723995
0.927428 0.847379 0.712642
0.981109 0.829496 0.695399
0.606439 0.877928 0.705715
0.623743 0.878416 0.712093
0.672877 0.880369 0.730434
0.725368 0.888060 0.746700
0.771847 0.901427 0.756741
0.837797 0.908293 0.767239
0.912200 0.911955 0.773373
0.974762 0.910216 0.764431
0.694881 0.939300 0.767117
0.705257 0.939452 0.771267
0.736599 0.939757 0.783627
0.768154 0.943877 0.791287
0.798062 0.950835 0.794583
0.845731 0.956146 0.809842
0.900511 0.957427 0.814847
0.958434 0.958190 0.821195
0.513512 0.525780 0.614282
0.523217 0.529442 0.610010
0.542260 0.535088 0.590448
0.546105 0.538933 0.553643
0.583368 0.583368 0.583368
0.688502 0.688502 0.688502
0.822843 0.700343 0.739651
0.925200 0.704219 0.757809
0.538109 0.553826 0.632776
0.546380 0.556207 0.628992
0.561059 0.556695 0.608911
0.562676 0.555413 0.571038
0.593225 0.593225 0.593225
0.694179 0.694179 0.694179
0.827756 0.700801 0.740475
0.927855 0.703700 0.756344
0.564874 0.596796 0.663630
0.578393 0.602441 0.663111
0.605859 0.611566 0.654902
0.608484 0.602411 0.620203
0.623072 0.623072 0.623072
0.710262 0.708492 0.709224
0.842802 0.699123 0.739284
0.936553 0.698939 0.747921
0.548211 0.627405 0.680629
0.567315 0.633509 0.682521
0.622126 0.654108 0.689845
0.667933 0.670039 0.687221
0.669184 0.669184 0.669184
0.761929 0.707668 0.725093
0.871305 0.698512 0.733120
0.953887 0.699397 0.733547
0.508873 0.687312 0.692836
0.529686 0.689631 0.694636
0.588190 0.696101 0.699672
0.657740 0.706416 0.708125
0.717952 0.717952 0.717952
0.814420 0.728145 0.722530
0.895628 0.741970 0.731380
0.960784 0.756497 0.741848
0.495186 0.773342 0.694667
0.515099 0.773465 0.696498
0.576471 0.774594 0.704555
0.664393 0.784543 0.727230
0.745449 0.805447 0.752834
0.830777 0.830686 0.770748
0.912383 0.836484 0.761410
0.967987 0.830930 0.760616
0.599847 0.861753 0.740841
0.614160 0.861845 0.744137
0.657984 0.863615 0.755642
0.719448 0.869688 0.774533
0.782071 0.882780 0.794736
0.839139 0.900725 0.810819
0.907286 0.907164 0.816739
0.966674 0.907591 0.807156
0.687129 0.929656 0.790311
0.696040 0.929656 0.792813
0.724941 0.930266 0.801602
0.772671 0.934356 0.819211
0.816007 0.940826 0.831876
0.854673 0.950622 0.842039
0.904021 0.954955 0.850553
0.957244 0.957061 0.855833
0.647517 0.656519 0.723690
0.651118 0.657343 0.721035
0.660456 0.658991 0.711147
0.667750 0.659571 0.692378
0.654963 0.652583 0.656703
0.687282 0.687282 0.687282
0.768399 0.768399 0.768399
0.866148 0.810758 0.830655
0.655787 0.666285 0.728908
0.658778 0.666682 0.726314
0.666957 0.667079 0.716609
0.672297 0.665064 0.696986
0.660090 0.657252 0.662196
0.690181 0.690181 0.690181
0.770321 0.770321 0.770321
0.868772 0.809445 0.830472
0.678370 0.695674 0.750881
0.682948 0.697261 0.749599
0.693996 0.699580 0.742458
0.697688 0.693965 0.722866
0.685939 0.682246 0.689418
0.706233 0.706233 0.706233
0.781277 0.781277 0.781277
0.880278 0.807889 0.832120
0.685054 0.719692 0.769375
0.693019 0.723232 0.770108
0.715816 0.733394 0.771633
0.734005 0.737362 0.763638
0.727138 0.723568 0.733455
0.734646 0.734646 0.734646
0.801419 0.801419 0.801419
0.901091 0.805356 0.833310
0.662715 0.735958 0.774228
0.671931 0.738735 0.775448
0.699886 0.747585 0.779263
0.739467 0.762020 0.785763
0.766445 0.768032 0.780392
0.761837 0.761837 0.761837
0.837217 0.798215 0.811032
0.927276 0.793637 0.821103
0.631952 0.775235 0.779873
0.642664 0.777127 0.781491
0.671839 0.780850 0.784482
0.712154 0.786557 0.789120
0.755367 0.793210 0.794522
0.802457 0.802457 0.802457
0.885069 0.815671 0.811185
0.950713 0.828244 0.820066
0.625696 0.848264 0.793698
0.635492 0.848997 0.795041
0.662684 0.849882 0.797269
0.701534 0.852171 0.800198
0.765164 0.862455 0.816587
0.834653 0.881529 0.840330
0.900664 0.900603 0.855314
0.959686 0.903441 0.847745
0.681239 0.919463 0.820768
0.688930 0.919493 0.822263
0.714900 0.920317 0.827756
0.756802 0.923552 0.838407
0.808286 0.929168 0.853483
0.861570 0.939696 0.871214
0.907225 0.952300 0.885649
0.956542 0.956420 0.891173
0.738369 0.745815 0.802518
0.740902 0.746792 0.801511
0.745937 0.747127 0.795560
0.751492 0.746792 0.784115
0.750362 0.743008 0.764157
0.736660 0.736660 0.736660
0.765835 0.765835 0.765835
0.837522 0.837522 0.837522
0.741665 0.750149 0.804990
0.743832 0.750729 0.803830
0.748440 0.750576 0.797818
0.752987 0.748989 0.785794
0.751553 0.744442 0.765713
0.736324 0.736324 0.736324
0.765164 0.765164 0.765164
0.836393 0.836393 0.836393
0.754513 0.767025 0.818051
0.757687 0.768490 0.817472
0.763485 0.769070 0.812345
0.767086 0.765805 0.800381
0.764920 0.758999 0.780148
0.748318 0.747677 0.748714
0.775326 0.775326 0.775326
0.844450 0.844450 0.844450
0.765866 0.787198 0.833982
0.768521 0.787808 0.833127
0.777859 0.790738 0.830991
0.788968 0.793027 0.824521
0.787686 0.784421 0.805386
0.773373 0.771084 0.775296
0.791775 0.791775 0.791775
0.855955 0.855955 0.855955
0.756893 0.797024 0.840391
0.761440 0.798703 0.840696
0.777584 0.805447 0.842679
0.802243 0.816953 0.846342
0.812741 0.815366 0.836088
0.802029 0.799039 0.806912
0.808804 0.808804 0.808804
0.869780 0.869780 0.869780
0.739559 0.814176 0.845914
0.744778 0.815518 0.846525
0.761868 0.820127 0.848661
0.788174 0.828000 0.852628
0.820127 0.839017 0.858061
0.842741 0.843992 0.854124
0.837186 0.837186 0.837186
0.902098 0.873014 0.882719
0.718166 0.848722 0.853056
0.723751 0.849668 0.853819
0.740810 0.851865 0.855589
0.767056 0.855711 0.858732
0.799161 0.860380 0.862547
0.835477 0.866545 0.867674
0.873259 0.873259 0.873259
0.942504 0.886503 0.882963
0.710170 0.908629 0.866606
0.715084 0.908873 0.866972
0.733150 0.910857 0.869535
0.758877 0.913115 0.871946
0.791135 0.916197 0.874266
0.844175 0.924681 0.887083
0.904234 0.940764 0.908659
0.954467 0.954406 0.922118
0.816434 0.822416 0.868742
0.817777 0.822873 0.868132
0.820584 0.822843 0.864683
0.825284 0.823423 0.858946
0.828580 0.823056 0.849271
0.826596 0.820981 0.834257
0.822660 0.822660 0.822660
0.842924 0.842924 0.842924
0.818051 0.824643 0.870176
0.819303 0.825040 0.869566
0.822141 0.825010 0.866239
0.826413 0.825040 0.860227
0.829557 0.824338 0.850492
0.827512 0.821897 0.835416
0.822538 0.822538 0.822538
0.843015 0.843015 0.843015
0.823667 0.832761 0.876493
0.826352 0.834379 0.876432
0.828550 0.833585 0.872862
0.833494 0.833951 0.867735
0.836057 0.832059 0.857786
0.833616 0.828214 0.842283
0.826383 0.826383 0.826383
0.847227 0.847227 0.847227
0.825711 0.840604 0.884031
0.828367 0.842008 0.884184
0.835935 0.845579 0.883635
0.844358 0.848447 0.880369
0.847288 0.845792 0.870909
0.845640 0.840940 0.855955
0.834409 0.834409 0.834409
0.855772 0.855772 0.855772
0.828031 0.852537 0.893187
0.831235 0.854246 0.893797
0.839872 0.858091 0.894560
0.848905 0.860319 0.892912
0.860838 0.863981 0.888579
0.860533 0.857694 0.873991
0.850462 0.848905 0.851682
0.867765 0.867765 0.867765
0.818326 0.861265 0.898497
0.820981 0.862058 0.898650
0.830381 0.865232 0.899565
0.846525 0.871397 0.901762
0.868986 0.881712 0.905760
0.881956 0.884062 0.900725
0.877012 0.874540 0.880797
0.885222 0.885222 0.885222
0.807156 0.879576 0.905791
0.809842 0.880125 0.906004
0.819303 0.882109 0.906950
0.836027 0.886290 0.909178
0.859068 0.892943 0.912871
0.887572 0.903258 0.918700
0.909178 0.910216 0.918395
0.905882 0.905882 0.905882
0.794095 0.911070 0.914977
0.796719 0.911315 0.915160
0.806332 0.912535 0.916136
0.823392 0.915129 0.918273
0.846494 0.918975 0.921477
0.874388 0.924163 0.925902
0.905852 0.930968 0.931853
0.937987 0.937987 0.937987
