data/fiter_cube/27130762/1023402/file.cube
# Created by Adobe Lightroom plugin Export LUT (1.17.0)
# www.johnrellis.com/lightroom/exportlut.htm
# Preset: 森系文艺人像美食静物_06 云集
# Color profile: C:\Program Files (x86)\Common Files\Adobe\Color\Profiles\Recommended\AdobeRGB1998.icc
LUT_3D_SIZE 5
DOMAIN_MIN 0.000000 0.000000 0.000000
DOMAIN_MAX 0.903226 0.903226 0.903226
0.104646 0.104646 0.104646
0.339666 0.129122 0.098817
0.737484 0.207462 0.060487
0.923552 0.289586 0.162844
1.000000 0.393317 0.301701
0.098970 0.297734 0.141939
0.347692 0.347478 0.110262
0.745724 0.407019 0.000000
0.923278 0.407904 0.179385
1.000000 0.465370 0.327825
0.166629 0.676722 0.292638
0.320317 0.701656 0.263615
0.732296 0.731685 0.303990
0.928161 0.664912 0.269200
1.000000 0.632288 0.381964
0.454597 0.857877 0.522454
0.485389 0.866606 0.509728
0.658869 0.878569 0.554711
0.876738 0.876371 0.574090
1.000000 0.836759 0.556237
0.653529 0.953521 0.697047
0.662531 0.956237 0.691096
0.721401 0.959136 0.699550
0.833005 0.961517 0.724483
0.959289 0.958984 0.742977
0.188083 0.193240 0.230259
0.235691 0.235691 0.235691
0.676539 0.221164 0.347356
0.888609 0.348394 0.383795
1.000000 0.465003 0.455421
0.180606 0.291752 0.294804
0.333684 0.333684 0.333684
0.704921 0.375067 0.342290
0.891997 0.441291 0.392828
1.000000 0.518303 0.468238
0.262364 0.650141 0.432746
0.420294 0.670161 0.458350
0.708614 0.708309 0.477058
0.904051 0.663844 0.422675
1.000000 0.663539 0.510918
0.525841 0.841703 0.604578
0.580499 0.847501 0.619196
0.691981 0.868559 0.641993
0.872160 0.871824 0.652705
0.991608 0.844663 0.629664
0.692775 0.945953 0.740108
0.700801 0.948913 0.735317
0.749325 0.956451 0.740505
0.845304 0.960174 0.762081
0.959380 0.959106 0.776181
0.437659 0.450477 0.540826
0.470985 0.463661 0.519585
0.515557 0.515557 0.515557
0.769009 0.635859 0.679072
0.951751 0.639063 0.700191
0.489448 0.524773 0.597040
0.533654 0.540032 0.587945
0.561120 0.561120 0.561120
0.790677 0.638148 0.681270
0.961089 0.638697 0.691371
0.429450 0.628321 0.634180
0.512749 0.638483 0.642512
0.667292 0.667292 0.667292
0.844999 0.690303 0.679530
0.968322 0.720455 0.701900
0.522179 0.811368 0.680964
0.592401 0.812314 0.698207
0.728573 0.832303 0.741695
0.860746 0.860624 0.763424
0.973693 0.850156 0.737575
0.689662 0.934173 0.776791
0.721828 0.935119 0.788571
0.792233 0.941985 0.811612
0.862242 0.954437 0.828458
0.957366 0.957153 0.837186
0.669734 0.678187 0.742153
0.679591 0.680903 0.734890
0.687556 0.679500 0.702632
0.706477 0.706477 0.706477
0.847745 0.830900 0.837552
0.691432 0.705318 0.761379
0.701839 0.707973 0.755428
0.706081 0.699794 0.722194
0.717739 0.717739 0.717739
0.857908 0.827420 0.838956
0.695277 0.739315 0.786343
0.719600 0.749752 0.789700
0.758267 0.760952 0.782376
0.753841 0.753841 0.753841
0.895506 0.819638 0.842710
0.657740 0.796567 0.801083
0.681575 0.798520 0.802426
0.745052 0.807584 0.809751
0.820890 0.820890 0.820890
0.947509 0.841978 0.835080
0.678309 0.916167 0.828183
0.704189 0.917266 0.833371
0.778256 0.923613 0.851286
0.873655 0.940398 0.881834
0.956023 0.955932 0.899077
0.816434 0.822416 0.868742
0.819669 0.822812 0.865782
0.827359 0.823453 0.854704
0.824765 0.820188 0.829526
0.842924 0.842924 0.842924
0.823606 0.831754 0.875303
0.826383 0.831632 0.872313
0.833158 0.830747 0.861143
0.829892 0.825223 0.835386
0.846372 0.846372 0.846372
0.828214 0.847166 0.889128
0.834104 0.849058 0.888334
0.851774 0.855406 0.883726
0.849821 0.845579 0.858274
0.860960 0.860960 0.860960
0.816800 0.865721 0.900877
0.825956 0.868406 0.901701
0.855558 0.878996 0.905821
0.888121 0.889952 0.904540
0.889555 0.889555 0.889555
0.794095 0.911070 0.914977
0.803159 0.912108 0.915770
0.834318 0.916930 0.919768
0.882017 0.925719 0.927276
0.937987 0.937987 0.937987
