data/fiter_cube/89350833/1022878/file.cube
# Created by Adobe Lightroom plugin Export LUT (1.24.0)
# www.johnrellis.com/lightroom/exportlut.htm
# Preset: 婚礼接亲预设[余晖]-8 闯门
# Color profile: C:\Windows\System32\Spool\Drivers\Color\AppleRGB.icc
LUT_3D_SIZE 8
DOMAIN_MIN 0.000000 0.000000 0.000000
DOMAIN_MAX 0.903226 0.903226 0.903226
0.000000 0.064271 0.153811
0.000000 0.057618 0.144167
0.243961 0.000000 0.124636
0.659052 0.000000 0.128481
0.874662 0.000000 0.141848
0.965789 0.116335 0.154482
1.000000 0.320989 0.235691
1.000000 0.457313 0.374426
0.000000 0.050568 0.128267
0.000000 0.073182 0.131319
0.275395 0.039796 0.136873
0.650813 0.000000 0.143923
0.855772 0.094545 0.147036
0.948547 0.230594 0.170382
0.998779 0.370703 0.265415
1.000000 0.481361 0.394415
0.101350 0.131411 0.192569
0.102266 0.194003 0.170382
0.446815 0.391333 0.000000
0.738613 0.344884 0.081514
0.849088 0.375525 0.226352
0.923369 0.448341 0.316503
0.962676 0.532982 0.442237
0.987243 0.591760 0.533410
0.377539 0.356085 0.331365
0.378027 0.386023 0.314488
0.480812 0.538445 0.173556
0.762722 0.649836 0.000000
0.895628 0.598566 0.041566
0.912444 0.601923 0.422309
0.919188 0.644953 0.594568
0.953429 0.669856 0.630793
0.583520 0.541100 0.557763
0.579461 0.537133 0.552667
0.593256 0.613306 0.476539
0.687678 0.688228 0.336065
0.844968 0.736263 0.000000
0.933165 0.703700 0.144717
0.941527 0.694942 0.480995
0.945708 0.718746 0.645502
0.679835 0.643336 0.680812
0.683894 0.647974 0.685847
0.682216 0.678035 0.659907
0.706233 0.725063 0.602228
0.774990 0.766415 0.497017
0.891264 0.801053 0.293858
0.966369 0.789364 0.296300
0.973144 0.776211 0.551995
0.741970 0.716548 0.755642
0.742214 0.716793 0.755886
0.738979 0.727718 0.745083
0.744625 0.760616 0.716609
0.771450 0.792874 0.670588
0.829618 0.824002 0.597925
0.921813 0.851530 0.459785
0.995666 0.847929 0.379309
0.788235 0.772854 0.807462
0.787869 0.772427 0.807065
0.787167 0.776333 0.804562
0.789364 0.803342 0.789364
0.795590 0.823850 0.756710
0.827451 0.852628 0.722805
0.881163 0.879820 0.672023
0.957061 0.901884 0.574823
0.000000 0.050996 0.128969
0.000000 0.052491 0.137026
0.333165 0.000000 0.126131
0.671717 0.000000 0.161593
0.852293 0.000000 0.183597
0.941192 0.195621 0.213046
0.990753 0.350347 0.303777
1.000000 0.462226 0.413886
0.000000 0.062867 0.152102
0.000000 0.082246 0.171054
0.335973 0.072847 0.181949
0.661555 0.088167 0.184390
0.842527 0.184024 0.198215
0.928405 0.294896 0.249058
0.973938 0.397833 0.333593
1.000000 0.489082 0.435309
0.211917 0.216770 0.224552
0.210697 0.215793 0.224002
0.471077 0.394537 0.095613
0.702510 0.360418 0.223148
0.825467 0.412573 0.313298
0.897215 0.467536 0.383062
0.940093 0.528862 0.467201
0.970794 0.585657 0.545983
0.436866 0.407050 0.387549
0.434424 0.404974 0.385138
0.479896 0.517937 0.281529
0.740719 0.624079 0.000000
0.857023 0.569665 0.227176
0.871305 0.595636 0.502892
0.902007 0.631342 0.592432
0.940215 0.659480 0.629877
0.604730 0.562249 0.584924
0.599115 0.556573 0.577661
0.597162 0.596765 0.530358
0.672694 0.672755 0.404761
0.829862 0.722377 0.169711
0.911345 0.690181 0.280217
0.918456 0.692836 0.549889
0.929168 0.718868 0.674464
0.684871 0.649073 0.687037
0.683742 0.647822 0.685664
0.680964 0.662226 0.672175
0.700557 0.714351 0.623499
0.765621 0.758968 0.536919
0.880247 0.796323 0.377478
0.949645 0.783993 0.401373
0.959380 0.773190 0.596277
0.740078 0.714229 0.753414
0.738216 0.711940 0.751217
0.735225 0.712581 0.746120
0.739345 0.749355 0.720546
0.765713 0.785489 0.680507
0.821988 0.817594 0.614343
0.912047 0.844297 0.486610
0.982177 0.838712 0.427558
0.787625 0.772152 0.806821
0.787625 0.772152 0.806851
0.787320 0.771786 0.806516
0.788357 0.797238 0.793423
0.799161 0.825589 0.770108
0.827024 0.852415 0.735439
0.877836 0.878019 0.685176
0.952392 0.899962 0.596338
0.113954 0.139803 0.195315
0.138766 0.158053 0.201328
0.157595 0.176547 0.225956
0.683192 0.000000 0.347723
0.936187 0.000000 0.171450
0.989258 0.000000 0.221744
0.997772 0.359411 0.379339
0.994354 0.515282 0.534630
0.201602 0.208225 0.220493
0.232059 0.233677 0.233249
0.245884 0.248997 0.259525
0.747585 0.000000 0.289525
0.906218 0.000000 0.213199
0.942596 0.299443 0.333288
0.953063 0.465492 0.480323
0.968109 0.562127 0.583154
0.322148 0.309270 0.287022
0.364935 0.345403 0.320562
0.439063 0.408972 0.389837
0.698177 0.421973 0.427527
0.796628 0.497566 0.507012
0.861601 0.545373 0.556176
0.908873 0.587610 0.599298
0.947723 0.625910 0.637201
0.558129 0.516533 0.525811
0.576318 0.533959 0.548547
0.583795 0.541314 0.558068
0.739193 0.634546 0.427405
0.785702 0.629603 0.616663
0.836667 0.651972 0.656184
0.885893 0.671901 0.675959
0.928008 0.691615 0.694362
0.667292 0.629236 0.665156
0.665339 0.626978 0.662623
0.658320 0.619196 0.653773
0.682368 0.677089 0.600580
0.812802 0.729641 0.482033
0.866392 0.706569 0.582635
0.883543 0.722896 0.695491
0.912840 0.743679 0.739712
0.716609 0.686061 0.725704
0.715267 0.684474 0.724086
0.710719 0.679103 0.718624
0.711696 0.709041 0.693080
0.758267 0.756100 0.636988
0.860838 0.795041 0.545953
0.919310 0.784939 0.591760
0.938659 0.785183 0.698695
0.760189 0.738643 0.776425
0.758633 0.736782 0.774716
0.754818 0.732082 0.770352
0.751797 0.746365 0.757076
0.768124 0.784024 0.724636
0.817624 0.818540 0.677974
0.901976 0.848539 0.601190
0.962951 0.844602 0.596307
0.797910 0.784604 0.817868
0.796994 0.783474 0.816861
0.796109 0.782406 0.815946
0.797024 0.792325 0.813413
0.802701 0.822965 0.792660
0.827543 0.852811 0.764157
0.875792 0.880156 0.723568
0.947417 0.903105 0.657954
0.396765 0.372442 0.348638
0.415778 0.388769 0.366583
0.439521 0.409339 0.390265
0.433509 0.414038 0.450568
0.751858 0.000000 0.664881
1.000000 0.000000 0.369085
1.000000 0.000000 0.231724
1.000000 0.304051 0.376501
0.470222 0.436316 0.422858
0.478370 0.443549 0.431739
0.492409 0.456062 0.447517
0.486213 0.458869 0.493446
0.784665 0.156588 0.670130
1.000000 0.000000 0.322423
1.000000 0.189090 0.322423
1.000000 0.423163 0.473487
0.516594 0.477974 0.475532
0.540368 0.499855 0.504021
0.575525 0.533257 0.547601
0.584314 0.545678 0.578668
0.815305 0.393347 0.635554
0.937804 0.405890 0.479896
0.943572 0.535668 0.589258
0.959777 0.607782 0.653712
0.608972 0.566613 0.590417
0.619867 0.577905 0.604547
0.642786 0.602228 0.633997
0.666194 0.627985 0.663752
0.774777 0.617090 0.662440
0.819730 0.656245 0.697475
0.870970 0.681209 0.716823
0.916960 0.702998 0.732631
0.699153 0.665583 0.704616
0.702083 0.669001 0.708186
0.709010 0.677119 0.716579
0.711727 0.680293 0.719814
0.786191 0.725795 0.679622
0.821744 0.732540 0.748257
0.864652 0.746914 0.764218
0.908110 0.757687 0.770718
0.748775 0.724788 0.763455
0.752895 0.729793 0.768185
0.752651 0.729488 0.767880
0.745815 0.721187 0.760037
0.760616 0.759091 0.730983
0.846250 0.798276 0.680964
0.893217 0.788998 0.723842
0.918608 0.799527 0.780240
0.786007 0.770169 0.805051
0.784543 0.768429 0.803494
0.780819 0.763851 0.799405
0.777066 0.759274 0.795285
0.778286 0.783963 0.776699
0.815396 0.821286 0.742580
0.893065 0.851835 0.692287
0.945953 0.846128 0.706477
0.817807 0.808408 0.838682
0.816800 0.807218 0.837644
0.814939 0.805020 0.835721
0.813321 0.803067 0.834012
0.811978 0.818753 0.823117
0.828946 0.852079 0.799069
0.873259 0.882322 0.767361
0.943359 0.907500 0.721492
0.592401 0.549859 0.569055
0.598657 0.556176 0.577142
0.606012 0.563561 0.586542
0.617273 0.575219 0.601160
0.612543 0.578882 0.643793
0.721645 0.415137 0.746700
0.965484 0.180728 0.712886
1.000000 0.000000 0.357458
0.616968 0.574853 0.600763
0.620966 0.579065 0.605982
0.626276 0.584649 0.612818
0.638087 0.597192 0.628016
0.632776 0.598840 0.660212
0.742733 0.452216 0.753628
0.963989 0.267826 0.699214
1.000000 0.000000 0.334539
0.646448 0.606195 0.638666
0.657130 0.617914 0.652277
0.663020 0.624414 0.659754
0.669612 0.631769 0.668025
0.664973 0.631312 0.684962
0.787594 0.508324 0.765286
0.962432 0.394842 0.650721
1.000000 0.402289 0.505180
0.673274 0.635920 0.672633
0.679438 0.642878 0.680293
0.694026 0.659602 0.698329
0.707179 0.674922 0.714351
0.707820 0.677638 0.722591
0.825071 0.597406 0.758145
0.936461 0.565026 0.645808
0.956878 0.627832 0.689876
0.708614 0.676631 0.716091
0.712978 0.681788 0.721370
0.721920 0.692378 0.732021
0.733150 0.705837 0.745296
0.742794 0.717556 0.756588
0.817288 0.705776 0.751858
0.854459 0.733791 0.773312
0.900999 0.752407 0.785763
0.752071 0.728756 0.767239
0.755489 0.732906 0.771115
0.760708 0.739345 0.777066
0.764920 0.744442 0.781765
0.764004 0.743343 0.780758
0.825895 0.785519 0.761288
0.862760 0.796628 0.810300
0.902464 0.810300 0.824430
0.797513 0.784146 0.817472
0.797574 0.784237 0.817533
0.798825 0.785702 0.818845
0.801968 0.789487 0.822141
0.795804 0.782071 0.815640
0.808927 0.814755 0.793027
0.881773 0.848814 0.757961
0.926726 0.840513 0.780545
0.833921 0.827268 0.854978
0.834714 0.828275 0.855833
0.834226 0.827665 0.855314
0.831327 0.824308 0.852384
0.828336 0.820829 0.849393
0.831571 0.845640 0.834653
0.867185 0.879973 0.808560
0.935973 0.907042 0.772976
0.695674 0.661494 0.700343
0.697353 0.663508 0.702449
0.700526 0.667140 0.706294
0.706722 0.674434 0.713832
0.711879 0.680476 0.719997
0.702022 0.675288 0.739071
0.744167 0.592065 0.798489
0.936034 0.456092 0.835721
0.701015 0.667750 0.706874
0.702571 0.669581 0.708766
0.705501 0.672999 0.712337
0.709773 0.677974 0.717464
0.714534 0.683680 0.723262
0.706325 0.679774 0.741238
0.751919 0.600793 0.799863
0.936767 0.476570 0.828855
0.724269 0.695216 0.734859
0.724819 0.695888 0.735500
0.725154 0.696284 0.735897
0.727108 0.698634 0.738186
0.730373 0.702510 0.742031
0.725032 0.700587 0.755917
0.777127 0.629419 0.809445
0.942809 0.528618 0.814237
0.733364 0.706142 0.745571
0.736385 0.709773 0.749081
0.745296 0.720546 0.759487
0.751736 0.728420 0.766903
0.755734 0.733272 0.771450
0.752956 0.732692 0.780117
0.819913 0.664942 0.826505
0.958587 0.591791 0.785214
0.745937 0.721370 0.760220
0.748501 0.724453 0.763149
0.753964 0.731106 0.769436
0.762966 0.742092 0.779629
0.770932 0.751827 0.788540
0.771359 0.753658 0.793820
0.858701 0.697383 0.822232
0.958923 0.665705 0.741573
0.765194 0.744808 0.782101
0.768643 0.748959 0.785946
0.773434 0.754849 0.791287
0.780240 0.763119 0.798764
0.787442 0.771969 0.806668
0.797482 0.784054 0.817411
0.861234 0.779110 0.817502
0.897612 0.803250 0.834958
0.806241 0.794614 0.826658
0.809506 0.798550 0.830106
0.815610 0.805844 0.836423
0.824369 0.816129 0.845365
0.827359 0.819699 0.848417
0.823758 0.815457 0.844755
0.874571 0.849027 0.825742
0.909911 0.855985 0.861875
0.845853 0.841062 0.866850
0.846494 0.841794 0.867491
0.848600 0.844205 0.869566
0.853178 0.849424 0.874052
0.856229 0.852842 0.877012
0.849790 0.845579 0.870726
0.865507 0.878660 0.854551
0.932219 0.910613 0.830045
0.749538 0.725704 0.764340
0.751156 0.727687 0.766201
0.752377 0.729152 0.767575
0.754482 0.731746 0.770016
0.756619 0.734371 0.772457
0.759213 0.737484 0.775357
0.749355 0.730892 0.789212
0.769894 0.675959 0.832120
0.751644 0.728298 0.766751
0.752895 0.729793 0.768154
0.753902 0.731075 0.769375
0.755703 0.733242 0.771420
0.757626 0.735561 0.773556
0.759579 0.737942 0.775753
0.749996 0.731380 0.788571
0.771908 0.676020 0.831174
0.763790 0.743099 0.780545
0.764096 0.743465 0.780880
0.764492 0.743984 0.781369
0.765682 0.745418 0.782650
0.767086 0.747066 0.784207
0.769284 0.749783 0.786648
0.762722 0.746151 0.798856
0.790280 0.695277 0.841062
0.772457 0.753689 0.790188
0.774350 0.755978 0.792294
0.778408 0.760952 0.796780
0.779873 0.762722 0.798398
0.781430 0.764584 0.800076
0.784024 0.767788 0.802914
0.779690 0.765866 0.812802
0.815549 0.715511 0.853025
0.777615 0.759945 0.795865
0.778439 0.760983 0.796811
0.782406 0.765835 0.801144
0.790768 0.775967 0.810208
0.794430 0.780392 0.814145
0.796994 0.783444 0.816861
0.795682 0.784176 0.825040
0.852110 0.734585 0.866300
0.791928 0.777340 0.811429
0.793393 0.779171 0.813077
0.797086 0.783566 0.816953
0.802548 0.790219 0.822812
0.810269 0.799466 0.830869
0.819242 0.810117 0.840146
0.821286 0.813565 0.846250
0.900389 0.767361 0.871916
0.812497 0.802060 0.833158
0.814359 0.804318 0.835111
0.818326 0.809049 0.839200
0.824491 0.816312 0.845518
0.831693 0.824765 0.852811
0.839933 0.834226 0.860960
0.848539 0.844144 0.869505
0.905821 0.843107 0.871763
0.846525 0.841855 0.867552
0.849119 0.844785 0.870085
0.856168 0.852750 0.876951
0.865507 0.863249 0.885954
0.876799 0.875700 0.896635
0.882048 0.881376 0.901518
0.880308 0.879545 0.899901
0.929076 0.914366 0.887266
0.793454 0.779263 0.813138
0.794186 0.780087 0.813901
0.794156 0.780056 0.813840
0.795346 0.781460 0.815122
0.796445 0.782834 0.816312
0.798001 0.784695 0.817960
0.800473 0.787686 0.820584
0.790402 0.780240 0.832822
0.794827 0.780880 0.814572
0.795346 0.781491 0.815152
0.795621 0.781827 0.815427
0.796567 0.782956 0.816434
0.797848 0.784543 0.817807
0.799283 0.786252 0.819303
0.801236 0.788602 0.821378
0.791470 0.781399 0.833280
0.800809 0.788113 0.820951
0.801083 0.788388 0.821195
0.801083 0.788388 0.821225
0.802640 0.790341 0.822904
0.803403 0.791226 0.823697
0.804349 0.792355 0.824674
0.806394 0.794797 0.826810
0.797726 0.788602 0.838041
0.807156 0.795743 0.827604
0.809171 0.798123 0.829709
0.810513 0.799771 0.831144
0.811673 0.801144 0.832334
0.812924 0.802579 0.833616
0.814206 0.804166 0.834958
0.816587 0.806943 0.837400
0.809812 0.802457 0.847959
0.810880 0.800198 0.831510
0.812619 0.802304 0.833341
0.816220 0.806516 0.837034
0.822232 0.813626 0.843198
0.823362 0.815000 0.844358
0.825223 0.817197 0.846250
0.828519 0.821042 0.849577
0.825315 0.820066 0.860624
0.819760 0.810727 0.840665
0.820401 0.811490 0.841337
0.822324 0.813779 0.843320
0.826658 0.818845 0.847715
0.835782 0.829435 0.856840
0.842741 0.837522 0.863798
0.848936 0.844572 0.869902
0.849149 0.846738 0.880278
0.838193 0.832242 0.859281
0.839445 0.833677 0.860502
0.842435 0.837156 0.863523
0.847715 0.843198 0.868711
0.854459 0.850797 0.875242
0.862272 0.859586 0.882841
0.872618 0.871122 0.892699
0.876127 0.875975 0.901122
0.860410 0.857542 0.881041
0.861784 0.859068 0.882353
0.865507 0.863249 0.885954
0.871763 0.870176 0.891905
0.880003 0.879179 0.899596
0.890166 0.890196 0.909026
0.901823 0.902647 0.919646
0.913909 0.915343 0.930388
