data/fiter_cube/89350833/1022878/file.cube
# Created by Adobe Lightroom plugin Export LUT (1.24.0)
# www.johnrellis.com/lightroom/exportlut.htm
# Preset: 婚礼接亲预设[余晖]-8 闯门
# Color profile: C:\Windows\System32\Spool\Drivers\Color\AppleRGB.icc
LUT_3D_SIZE 32
DOMAIN_MIN 0.0 0.0 0.0
DOMAIN_MAX 1.0 1.0 1.0
0.000000 0.064271 0.153811
0.000000 0.063447 0.152987
0.000000 0.061707 0.150942
0.000000 0.059571 0.148043
0.000000 0.057618 0.144167
0.000000 0.055512 0.139345
0.062165 0.050752 0.134035
0.145174 0.033845 0.129030
0.243961 0.000000 0.124636
0.354620 0.000000 0.122347
0.464942 0.000000 0.122438
0.568200 0.000000 0.124605
0.659052 0.000000 0.128481
0.734554 0.000000 0.132418
0.793179 0.000000 0.136110
0.838590 0.000000 0.139254
0.874662 0.000000 0.141848
0.904234 0.000000 0.143954
0.928252 0.000000 0.146304
0.948486 0.044800 0.149355
0.965789 0.116335 0.154482
0.980743 0.166506 0.162325
0.997101 0.225498 0.179751
1.000000 0.277165 0.205386
1.000000 0.320989 0.235691
1.000000 0.359106 0.267826
1.000000 0.393896 0.302007
1.000000 0.426184 0.337285
1.000000 0.457313 0.374426
1.000000 0.487098 0.412207
1.000000 0.516533 0.451606
1.000000 0.544823 0.490517
0.000000 0.062104 0.150912
0.000000 0.060151 0.152346
0.000000 0.059327 0.148836
0.000000 0.057343 0.145754
0.000000 0.056062 0.141573
0.000000 0.054810 0.136904
0.063264 0.050996 0.132052
0.143984 0.035554 0.127596
0.240726 0.000000 0.124086
0.349340 0.000000 0.122469
0.458320 0.000000 0.123384
0.560540 0.000000 0.126101
0.650996 0.000000 0.129641
0.726741 0.000000 0.133394
0.786069 0.000000 0.136843
0.832395 0.000000 0.139925
0.869169 0.000000 0.142153
0.899199 0.000000 0.144198
0.923735 0.000000 0.146426
0.944274 0.056153 0.149447
0.961975 0.120485 0.154269
0.977020 0.168856 0.161990
0.993774 0.225803 0.178744
1.000000 0.274113 0.202396
1.000000 0.315373 0.230106
1.000000 0.351934 0.260136
1.000000 0.385901 0.292424
1.000000 0.417853 0.326665
1.000000 0.448524 0.362310
1.000000 0.478737 0.400244
1.000000 0.508354 0.439490
1.000000 0.537072 0.478767
0.000000 0.056550 0.141573
0.000000 0.054444 0.143282
0.000000 0.050538 0.148653
0.000000 0.053895 0.144289
0.000000 0.053468 0.134707
0.000000 0.053803 0.131136
0.072663 0.051209 0.127749
0.151583 0.037812 0.125002
0.246921 0.000000 0.123720
0.353552 0.000000 0.124361
0.460853 0.000000 0.126711
0.560815 0.000000 0.130098
0.649439 0.000000 0.133486
0.723812 0.000000 0.136477
0.782345 0.000000 0.139162
0.828122 0.000000 0.141512
0.864469 0.000000 0.143282
0.894469 0.000000 0.145052
0.919066 0.020508 0.147341
0.939879 0.097658 0.150759
0.957824 0.147463 0.156497
0.974487 0.194797 0.166506
0.990539 0.245335 0.184726
1.000000 0.288762 0.208621
1.000000 0.326513 0.235935
1.000000 0.360510 0.265141
1.000000 0.392432 0.296452
1.000000 0.422675 0.329625
1.000000 0.452491 0.364843
1.000000 0.482002 0.402380
1.000000 0.510918 0.440894
1.000000 0.539178 0.479957
0.000000 0.051209 0.129488
0.000000 0.050721 0.129732
0.000000 0.049836 0.134096
0.000000 0.053834 0.141726
0.000000 0.061463 0.137667
0.033753 0.059174 0.127932
0.088899 0.053986 0.125551
0.168002 0.043030 0.125948
0.263767 0.000000 0.127657
0.367468 0.000000 0.130129
0.470619 0.000000 0.133303
0.566796 0.000000 0.136172
0.651850 0.000000 0.138735
0.723415 0.000000 0.140597
0.779721 0.000000 0.142061
0.824063 0.000000 0.143526
0.859648 0.000000 0.144930
0.889097 0.045228 0.146639
0.913359 0.099825 0.149233
0.934020 0.142702 0.153536
0.951873 0.181430 0.160250
0.970214 0.227726 0.173800
0.985077 0.270726 0.193851
0.996612 0.309606 0.218906
1.000000 0.344976 0.247135
1.000000 0.377569 0.277623
1.000000 0.408545 0.310094
1.000000 0.438148 0.344152
1.000000 0.466590 0.379339
1.000000 0.494148 0.415473
1.000000 0.520836 0.451911
1.000000 0.546197 0.487190
0.000000 0.050568 0.128267
0.000000 0.050568 0.128389
0.000000 0.053223 0.126894
0.000000 0.059937 0.127016
0.000000 0.073182 0.131319
0.086549 0.085573 0.127779
0.138918 0.076265 0.121798
0.198611 0.061616 0.127047
0.275395 0.039796 0.136873
0.376410 0.000000 0.139437
0.476143 0.000000 0.141512
0.568872 0.000000 0.143160
0.650813 0.000000 0.143923
0.720668 0.000000 0.144533
0.776089 0.000000 0.145022
0.820188 0.054505 0.145754
0.855772 0.094545 0.147036
0.884825 0.129488 0.149508
0.908782 0.161929 0.153231
0.929076 0.193423 0.159304
0.948547 0.230594 0.170382
0.965820 0.269780 0.188052
0.979370 0.305882 0.210544
0.990173 0.339422 0.236606
0.998779 0.370703 0.265415
1.000000 0.400000 0.295598
1.000000 0.428229 0.327550
1.000000 0.455116 0.360449
1.000000 0.481361 0.394415
1.000000 0.506645 0.428748
1.000000 0.531334 0.462989
1.000000 0.554955 0.496437
0.000000 0.056062 0.140536
0.000000 0.056001 0.140841
0.000000 0.060212 0.137240
0.000000 0.070039 0.130526
0.000000 0.087343 0.123659
0.097078 0.116579 0.118379
0.204837 0.142916 0.110140
0.268986 0.122744 0.111879
0.338476 0.102602 0.124819
0.411536 0.083772 0.140841
0.492775 0.075898 0.149966
0.581170 0.080293 0.149477
0.659174 0.090425 0.148684
0.724788 0.106630 0.148013
0.777310 0.126040 0.148104
0.819059 0.148409 0.149020
0.853178 0.171786 0.151461
0.881224 0.196475 0.155550
0.904387 0.220981 0.161501
0.925902 0.251133 0.172213
0.945281 0.285008 0.189425
0.960845 0.317906 0.212009
0.983948 0.411749 0.300328
0.991424 0.440772 0.335668
0.997375 0.466438 0.368750
1.000000 0.489631 0.400183
1.000000 0.510765 0.429999
1.000000 0.530816 0.458686
1.000000 0.549767 0.486091
1.000000 0.567895 0.512169
1.000000 0.585229 0.537041
1.000000 0.601892 0.560601
0.000000 0.072450 0.163180
0.000000 0.072328 0.163119
0.000000 0.077241 0.160678
0.000000 0.094148 0.152071
0.029419 0.121828 0.138796
0.109957 0.164157 0.119295
0.227604 0.218387 0.090425
0.370245 0.256474 0.061830
0.440528 0.225162 0.082399
0.509789 0.200381 0.108949
0.575921 0.185519 0.129610
0.636805 0.182742 0.145815
0.696529 0.193240 0.153719
0.751614 0.207126 0.154055
0.795560 0.221714 0.155978
0.830961 0.237705 0.159640
0.860533 0.255100 0.165347
0.885069 0.273320 0.173617
0.908690 0.300298 0.188815
0.929320 0.331853 0.211978
0.946258 0.363928 0.240513
0.959991 0.396185 0.274235
0.970855 0.427802 0.311315
0.979461 0.457343 0.349126
0.986267 0.483894 0.385290
0.991882 0.506615 0.417670
0.996704 0.526574 0.446998
1.000000 0.544732 0.473671
1.000000 0.561975 0.499092
1.000000 0.578210 0.522881
1.000000 0.594049 0.545739
1.000000 0.609461 0.567651
0.033234 0.095247 0.178714
0.032990 0.095125 0.178653
0.031800 0.097810 0.177646
0.031678 0.120302 0.169375
0.056001 0.154177 0.156497
0.111269 0.199863 0.136538
0.205142 0.253819 0.105501
0.339117 0.308385 0.052247
0.488045 0.347417 0.000000
0.554314 0.313115 0.033082
0.614954 0.286046 0.080262
0.669978 0.269535 0.108705
0.716213 0.264042 0.130465
0.753567 0.270024 0.154269
0.789181 0.282841 0.169497
0.822995 0.295537 0.175631
0.852079 0.310399 0.184726
0.879362 0.333288 0.201358
0.901183 0.355962 0.221347
0.919554 0.379919 0.245426
0.934997 0.405280 0.273899
0.947967 0.431464 0.305974
0.958648 0.457649 0.340490
0.967315 0.482673 0.375494
0.974517 0.505516 0.408759
0.980774 0.525231 0.438148
0.986236 0.543053 0.465126
0.991394 0.559289 0.489754
0.996460 0.574823 0.513054
1.000000 0.589746 0.535241
1.000000 0.604273 0.556359
1.000000 0.618555 0.576715
0.101350 0.131411 0.192569
0.100984 0.131136 0.192447
0.100984 0.131136 0.192447
0.096101 0.156405 0.183993
0.102266 0.194003 0.170382
0.135348 0.240208 0.151003
0.204623 0.291081 0.123079
0.312078 0.342840 0.079347
0.446815 0.391333 0.000000
0.589349 0.429969 0.000000
0.647120 0.394263 0.000000
0.697139 0.364202 0.029725
0.738613 0.344884 0.081514
0.772580 0.336522 0.114534
0.799588 0.338689 0.148653
0.824552 0.356420 0.195163
0.849088 0.375525 0.226352
0.872404 0.391699 0.244205
0.891997 0.408698 0.264591
0.908812 0.427649 0.288701
0.923369 0.448341 0.316503
0.935760 0.470466 0.347814
0.946197 0.492653 0.380377
0.955077 0.513634 0.412177
0.962676 0.532982 0.442237
0.969299 0.549889 0.468727
0.975555 0.564691 0.491890
0.981506 0.578393 0.512993
0.987243 0.591760 0.533410
0.992950 0.604517 0.552422
0.998657 0.617487 0.571374
1.000000 0.630152 0.589319
0.166781 0.179904 0.208927
0.166354 0.179568 0.208835
0.165316 0.178836 0.208560
0.160281 0.198764 0.200504
0.160067 0.236515 0.184573
0.178347 0.280735 0.163882
0.226261 0.328130 0.137148
0.306157 0.375982 0.100160
0.414252 0.421912 0.033997
0.540032 0.463783 0.000000
0.665980 0.497871 0.000000
0.713161 0.461524 0.000000
0.754177 0.430915 0.000000
0.791257 0.415564 0.045930
0.820706 0.409949 0.102602
0.842710 0.414221 0.157870
0.858183 0.426734 0.220249
0.867979 0.445624 0.286351
0.882139 0.462287 0.322026
0.897765 0.477180 0.344793
0.911345 0.492897 0.369238
0.923095 0.509270 0.395300
0.933257 0.525750 0.421790
0.942290 0.541405 0.447150
0.950225 0.556420 0.471656
0.957702 0.569787 0.493202
0.964660 0.582391 0.513207
0.971252 0.594720 0.532586
0.977752 0.606775 0.551080
0.984192 0.618860 0.569146
0.990509 0.630945 0.586664
0.996887 0.642939 0.603510
0.229160 0.231296 0.231968
0.228489 0.230686 0.231632
0.227756 0.230137 0.231357
0.224369 0.242008 0.224949
0.222477 0.278813 0.206363
0.233433 0.320439 0.182803
0.265965 0.364813 0.154818
0.324224 0.409949 0.118807
0.406928 0.453071 0.068086
0.508751 0.492287 0.000000
0.623438 0.529229 0.000000
0.725856 0.555291 0.000000
0.771084 0.526970 0.000000
0.805081 0.498848 0.000000
0.832364 0.479835 0.000000
0.853208 0.471229 0.099428
0.868315 0.471687 0.171908
0.878447 0.479713 0.242649
0.884611 0.494514 0.313787
0.887785 0.514183 0.383490
0.897826 0.529503 0.417700
0.909606 0.542840 0.440162
0.920073 0.556298 0.462959
0.929534 0.569268 0.484840
0.938262 0.581353 0.504845
0.946441 0.592401 0.522850
0.954040 0.602960 0.539818
0.961395 0.613306 0.555962
0.968536 0.623804 0.572015
0.975525 0.634485 0.587732
0.982544 0.645228 0.603143
0.989471 0.656062 0.618158
0.294224 0.285893 0.267887
0.293736 0.285435 0.267582
0.293065 0.284886 0.267124
0.291508 0.287633 0.264530
0.288457 0.322026 0.243473
0.295048 0.360479 0.217502
0.316594 0.401617 0.185763
0.360510 0.445350 0.148928
0.427588 0.489204 0.102480
0.510674 0.528801 0.019532
0.603082 0.561761 0.000000
0.695277 0.588861 0.000000
0.804044 0.634882 0.000000
0.840146 0.610895 0.000000
0.864317 0.583795 0.000000
0.882658 0.565240 0.036866
0.894102 0.557000 0.161227
0.900725 0.556756 0.251682
0.903807 0.563287 0.333379
0.904601 0.574517 0.407294
0.903807 0.589014 0.473518
0.903197 0.604273 0.528252
0.911131 0.613397 0.548791
0.920806 0.621088 0.561425
0.929900 0.628504 0.573266
0.938476 0.635645 0.584436
0.946593 0.642573 0.595026
0.954437 0.649561 0.605310
0.962066 0.656794 0.615808
0.969543 0.664515 0.626520
0.976989 0.672480 0.637293
0.984253 0.680995 0.648554
0.377539 0.356085 0.331365
0.377722 0.356268 0.331548
0.378088 0.356573 0.331853
0.378820 0.357183 0.332494
0.378027 0.386023 0.314488
0.383917 0.422980 0.288426
0.401160 0.461769 0.256962
0.433417 0.501091 0.218692
0.480812 0.538445 0.173556
0.542168 0.572198 0.118166
0.612909 0.601801 0.028199
0.688411 0.627558 0.000000
0.762722 0.649836 0.000000
0.824002 0.660304 0.000000
0.858579 0.642115 0.000000
0.879637 0.617243 0.000000
0.895628 0.598566 0.041566
0.905058 0.589807 0.172122
0.910369 0.588464 0.265141
0.912383 0.592920 0.348608
0.912444 0.601923 0.422309
0.911711 0.613428 0.485756
0.911192 0.625483 0.537499
0.911376 0.637659 0.579736
0.919188 0.644953 0.594568
0.928283 0.651026 0.603754
0.936919 0.657130 0.612757
0.945342 0.663203 0.621454
0.953429 0.669856 0.630793
0.961395 0.676936 0.640406
0.969299 0.684230 0.650172
0.977142 0.691981 0.660212
0.448859 0.417578 0.399969
0.448524 0.417182 0.399573
0.447242 0.416114 0.398291
0.445747 0.414771 0.396704
0.442878 0.430549 0.382666
0.443641 0.461280 0.356359
0.453071 0.493874 0.325414
0.473701 0.527092 0.289464
0.505913 0.558587 0.248814
0.550225 0.588037 0.202701
0.604669 0.614710 0.147280
0.665095 0.638514 0.072236
0.728145 0.659388 0.000000
0.790219 0.676753 0.000000
0.842252 0.683986 0.000000
0.873777 0.668788 0.000000
0.891630 0.645136 0.000000
0.905699 0.627497 0.060456
0.914549 0.618219 0.181460
0.918853 0.616083 0.277775
0.920317 0.619471 0.361669
0.920073 0.626703 0.434974
0.919219 0.635798 0.496376
0.918944 0.645686 0.546441
0.919310 0.655695 0.586633
0.920256 0.665766 0.619776
0.927947 0.671839 0.630854
0.936706 0.677272 0.638331
0.945281 0.683009 0.646082
0.953674 0.689387 0.654505
0.962097 0.696071 0.663111
0.970367 0.703334 0.672297
0.503288 0.465858 0.459968
0.502831 0.465492 0.459480
0.501549 0.464271 0.457984
0.499092 0.462043 0.455116
0.495674 0.468055 0.445869
0.493996 0.493721 0.421576
0.498482 0.521294 0.393133
0.510979 0.549126 0.361364
0.532921 0.576440 0.325444
0.564843 0.602502 0.286198
0.606043 0.627070 0.241062
0.654261 0.649622 0.188998
0.706203 0.669459 0.123598
0.759670 0.686244 0.000000
0.813199 0.700343 0.000000
0.858152 0.705287 0.000000
0.887846 0.693172 0.000000
0.903441 0.671504 0.000000
0.915618 0.655177 0.087800
0.923705 0.645136 0.196139
0.926970 0.642420 0.293278
0.927794 0.644465 0.376349
0.927062 0.649775 0.448341
0.926482 0.656825 0.507225
0.926452 0.664820 0.554803
0.927062 0.673335 0.593866
0.928313 0.682399 0.626368
0.930175 0.691737 0.653895
0.938262 0.698116 0.664057
0.947295 0.704402 0.671962
0.956207 0.711086 0.680262
0.965118 0.718074 0.688716
0.548821 0.507774 0.514305
0.549096 0.508019 0.514672
0.548455 0.507439 0.513878
0.547234 0.506310 0.512383
0.545098 0.506065 0.508812
0.543542 0.528130 0.489845
0.546136 0.551446 0.467659
0.554040 0.575586 0.441382
0.568933 0.599298 0.411688
0.590936 0.622126 0.378180
0.619898 0.643519 0.339574
0.655268 0.663172 0.294377
0.695216 0.680629 0.242100
0.738552 0.695644 0.178042
0.784085 0.708553 0.091005
0.830594 0.719539 0.000000
0.871153 0.723445 0.000000
0.899870 0.714839 0.000000
0.914061 0.695308 0.000000
0.924926 0.680934 0.117586
0.932586 0.671473 0.217594
0.935119 0.668849 0.314855
0.935241 0.670192 0.398169
0.934447 0.674372 0.468177
0.934142 0.679957 0.523980
0.934447 0.686549 0.569329
0.935515 0.693843 0.606256
0.937224 0.701686 0.637201
0.939513 0.710048 0.663691
0.942596 0.718441 0.686336
0.950774 0.724636 0.695338
0.959838 0.730465 0.702174
0.583520 0.541100 0.557763
0.583490 0.540948 0.557641
0.582544 0.540124 0.556512
0.581170 0.538750 0.554742
0.579461 0.537133 0.552667
0.577630 0.551965 0.539330
0.578515 0.571832 0.521447
0.583337 0.592493 0.500450
0.593256 0.613306 0.476539
0.608515 0.633906 0.448157
0.629633 0.653376 0.416266
0.656184 0.671656 0.379095
0.687678 0.688228 0.336065
0.723171 0.702785 0.284794
0.761807 0.715572 0.223392
0.802792 0.726619 0.145418
0.844968 0.736263 0.000000
0.882353 0.739956 0.000000
0.910887 0.734310 0.000000
0.923522 0.716854 0.000000
0.933165 0.703700 0.144717
0.939666 0.694850 0.241245
0.942290 0.691157 0.331151
0.942168 0.691859 0.413367
0.941527 0.694942 0.480995
0.941436 0.699519 0.535271
0.942138 0.705165 0.579187
0.943633 0.711574 0.615045
0.945708 0.718746 0.645502
0.948547 0.726253 0.671138
0.951995 0.734005 0.693324
0.955901 0.741939 0.712795
0.614160 0.571923 0.597101
0.614527 0.572381 0.597650
0.637324 0.596338 0.627039
0.636378 0.595331 0.625788
0.634943 0.593774 0.623926
0.632898 0.600855 0.616419
0.632013 0.615930 0.602625
0.633722 0.631861 0.586908
0.638788 0.648249 0.568536
0.647913 0.664729 0.547356
0.661097 0.680568 0.523461
0.678645 0.695644 0.494453
0.700465 0.709499 0.459968
0.726375 0.722225 0.417975
0.756313 0.733639 0.367254
0.789761 0.743893 0.307225
0.825986 0.752865 0.235630
0.863920 0.760891 0.145144
0.898497 0.763943 0.000000
0.926665 0.760281 0.000000
0.936492 0.744076 0.083162
0.943755 0.731685 0.199954
0.948486 0.723232 0.287755
0.950683 0.718379 0.366796
0.949920 0.717647 0.443336
0.949340 0.718868 0.504814
0.949645 0.721553 0.553277
0.950652 0.725582 0.593347
0.952422 0.730892 0.627283
0.955016 0.737087 0.656001
0.958221 0.743862 0.680751
0.962066 0.750851 0.702052
0.646723 0.606500 0.639033
0.648493 0.608423 0.641321
0.650019 0.610101 0.643244
0.650874 0.611048 0.644343
0.651148 0.611322 0.644678
0.650019 0.614527 0.641230
0.649012 0.628290 0.630152
0.649622 0.642451 0.617243
0.652766 0.657160 0.602411
0.659113 0.671992 0.585534
0.668879 0.686580 0.566461
0.682246 0.700710 0.543694
0.699001 0.713802 0.516381
0.719509 0.725978 0.483894
0.743862 0.737270 0.443702
0.771603 0.747494 0.396033
0.803067 0.756802 0.337926
0.836881 0.765255 0.270939
0.872831 0.773007 0.189425
0.905913 0.776577 0.090333
0.934234 0.774838 0.000000
0.944121 0.760922 0.113863
0.950561 0.749783 0.222599
0.954711 0.741756 0.307713
0.957153 0.736568 0.381109
0.956634 0.735286 0.454627
0.956451 0.735927 0.513848
0.957031 0.738155 0.561486
0.958526 0.741787 0.600763
0.960662 0.746639 0.633936
0.963592 0.752224 0.662074
0.967102 0.758267 0.686152
0.663478 0.624933 0.660304
0.665003 0.626642 0.662257
0.666438 0.628229 0.664027
0.667292 0.629236 0.665156
0.667628 0.629572 0.665522
0.667018 0.629358 0.664637
0.665797 0.641566 0.655695
0.665736 0.654200 0.645106
0.667628 0.667414 0.633021
0.671839 0.680720 0.619379
0.678828 0.694057 0.603662
0.688746 0.707057 0.585473
0.701564 0.719356 0.563928
0.717647 0.730953 0.538201
0.736995 0.741756 0.507225
0.759731 0.751766 0.469734
0.785733 0.761013 0.424720
0.815061 0.769589 0.370764
0.847044 0.777523 0.307164
0.881193 0.785000 0.231937
0.913024 0.788937 0.147646
0.940429 0.788083 0.016480
0.951629 0.776913 0.142519
0.957397 0.766598 0.244327
0.960998 0.758968 0.327001
0.963104 0.753964 0.398230
0.963653 0.751797 0.464179
0.963714 0.752163 0.522057
0.964691 0.754116 0.568963
0.966552 0.757412 0.607660
0.969055 0.761837 0.640406
0.972320 0.766934 0.667964
0.679835 0.643336 0.680812
0.681270 0.644984 0.682582
0.682582 0.646509 0.684230
0.683558 0.647547 0.685420
0.683894 0.647974 0.685847
0.683406 0.647395 0.685237
0.682185 0.655451 0.679133
0.681422 0.666499 0.670130
0.682216 0.678035 0.659907
0.684657 0.689845 0.648127
0.689387 0.701778 0.634791
0.696559 0.713619 0.619684
0.706233 0.725063 0.602228
0.718868 0.736141 0.581720
0.734371 0.746670 0.558068
0.753048 0.756710 0.529870
0.774990 0.766415 0.497017
0.799954 0.775631 0.458228
0.827848 0.784512 0.412634
0.858457 0.792996 0.358129
0.891264 0.801053 0.293858
0.922454 0.806119 0.224826
0.949462 0.806455 0.148867
0.961883 0.798245 0.202426
0.966369 0.789364 0.296300
0.969085 0.782681 0.374853
0.970916 0.778225 0.441535
0.972473 0.775875 0.498299
0.973144 0.776211 0.551995
0.974762 0.777920 0.595239
0.977142 0.780880 0.630762
0.980255 0.784512 0.660365
0.702663 0.669673 0.708888
0.703120 0.670222 0.709468
0.703304 0.670436 0.709651
0.703243 0.670314 0.709529
0.702815 0.669825 0.709041
0.702022 0.668940 0.708095
0.700801 0.673182 0.704158
0.699916 0.682856 0.696864
0.700191 0.693202 0.688838
0.701961 0.704097 0.679652
0.705470 0.715084 0.669642
0.710750 0.726070 0.657740
0.718013 0.736629 0.644068
0.727413 0.746822 0.628199
0.739376 0.756649 0.609277
0.753964 0.766079 0.587823
0.771389 0.775174 0.562646
0.791592 0.783871 0.533288
0.814725 0.792294 0.498634
0.840482 0.800381 0.457496
0.868925 0.808072 0.407538
0.899687 0.815305 0.346777
0.929503 0.819974 0.280247
0.955657 0.820005 0.208286
0.969482 0.813230 0.229343
0.973297 0.804532 0.317205
0.975769 0.798123 0.392309
0.977600 0.793912 0.456916
0.979614 0.791653 0.511162
0.981048 0.791653 0.561242
0.983032 0.793088 0.603174
0.985718 0.795590 0.637568
0.715450 0.684749 0.724331
0.715877 0.685237 0.724849
0.716030 0.685420 0.725002
0.715938 0.685328 0.724910
0.715541 0.684840 0.724453
0.714900 0.684108 0.723659
0.713924 0.685512 0.721462
0.712795 0.694209 0.715114
0.712642 0.703517 0.708156
0.713710 0.713375 0.700404
0.716152 0.723476 0.691829
0.720119 0.733608 0.682094
0.725765 0.743557 0.670802
0.733211 0.753262 0.657832
0.742733 0.762692 0.642908
0.754543 0.771817 0.625666
0.768826 0.780758 0.605951
0.785489 0.789395 0.583490
0.804929 0.797726 0.557000
0.826780 0.805783 0.526268
0.851255 0.813626 0.489662
0.878080 0.821134 0.445624
0.907347 0.828275 0.391608
0.936339 0.833280 0.330602
0.961151 0.832334 0.257115
0.977081 0.827329 0.252995
0.980468 0.819333 0.338750
0.982788 0.813565 0.411994
0.984863 0.809720 0.473793
0.987091 0.807614 0.526238
0.989410 0.807248 0.571862
0.991699 0.808530 0.612421
0.732540 0.705196 0.744656
0.732967 0.705623 0.745052
0.732967 0.705623 0.745113
0.732631 0.705257 0.744717
0.731991 0.704463 0.743954
0.731075 0.703365 0.742855
0.730007 0.702144 0.741634
0.728328 0.709316 0.735653
0.727321 0.717067 0.729061
0.727321 0.725338 0.721828
0.728298 0.733761 0.713619
0.730709 0.742580 0.704616
0.734493 0.751369 0.694453
0.739925 0.760037 0.682918
0.747066 0.768490 0.669795
0.756222 0.776791 0.654810
0.767575 0.785000 0.637964
0.781308 0.793118 0.619043
0.797574 0.801328 0.597986
0.816312 0.809506 0.574273
0.837430 0.817502 0.546624
0.860746 0.825132 0.513725
0.886229 0.832242 0.473121
0.913939 0.838804 0.422034
0.941924 0.843351 0.361181
0.966400 0.843626 0.296880
0.984405 0.839963 0.269322
0.987549 0.832212 0.351415
0.989776 0.826688 0.422675
0.991913 0.823056 0.483284
0.994476 0.821134 0.534203
0.997467 0.820584 0.577111
0.741970 0.716548 0.755642
0.742489 0.717128 0.756222
0.742641 0.717342 0.756405
0.742550 0.717250 0.756283
0.742214 0.716793 0.755886
0.741665 0.716121 0.755215
0.740963 0.715297 0.754452
0.739773 0.720333 0.750484
0.738979 0.727718 0.745083
0.738888 0.735622 0.739071
0.739620 0.743801 0.732357
0.741573 0.752224 0.724849
0.744625 0.760616 0.716609
0.749020 0.768917 0.707088
0.754757 0.777035 0.696315
0.762203 0.784970 0.684291
0.771450 0.792874 0.670588
0.782712 0.800656 0.655390
0.796201 0.808469 0.638483
0.811765 0.816312 0.619654
0.829618 0.824002 0.597925
0.849485 0.831479 0.572839
0.871427 0.838590 0.542626
0.895537 0.845304 0.505791
0.921813 0.851530 0.459785
0.948760 0.856260 0.404883
0.972534 0.856962 0.346471
0.992981 0.854765 0.298497
0.995666 0.847929 0.379309
0.997925 0.842954 0.447730
1.000000 0.839719 0.505211
1.000000 0.838041 0.553582
0.753475 0.730526 0.768856
0.753750 0.730831 0.769162
0.753750 0.730831 0.769162
0.753445 0.730495 0.768826
0.752987 0.729885 0.768307
0.752346 0.729122 0.767575
0.751614 0.728237 0.766720
0.750546 0.730861 0.764004
0.749538 0.737575 0.759121
0.749172 0.744869 0.753750
0.749538 0.752499 0.747799
0.750973 0.760464 0.741329
0.753414 0.768490 0.734157
0.756954 0.776394 0.726223
0.761593 0.784176 0.716976
0.767636 0.791806 0.706569
0.775235 0.799283 0.695003
0.784604 0.806790 0.682338
0.795865 0.814298 0.668421
0.809140 0.821897 0.653010
0.824369 0.829404 0.635706
0.841489 0.836790 0.615747
0.860533 0.843900 0.592462
0.881559 0.850675 0.564599
0.904448 0.857115 0.531090
0.929442 0.863127 0.489021
0.955352 0.867887 0.439063
0.978332 0.868650 0.384100
1.000000 0.867735 0.318090
1.000000 0.861265 0.395697
1.000000 0.856718 0.462287
1.000000 0.853696 0.517723
0.763058 0.742184 0.779690
0.763088 0.742275 0.779782
0.763088 0.742275 0.779782
0.762997 0.742123 0.779629
0.762814 0.741878 0.779446
0.762722 0.741756 0.779324
0.762875 0.741970 0.779477
0.762936 0.743893 0.778927
0.762875 0.751278 0.775723
0.763455 0.759152 0.772305
0.764614 0.767361 0.768429
0.766567 0.775753 0.764034
0.769131 0.784085 0.758907
0.772519 0.792172 0.752956
0.776669 0.799985 0.745968
0.781735 0.807340 0.737819
0.787991 0.814511 0.728511
0.795651 0.821683 0.718379
0.805020 0.828916 0.707454
0.816129 0.836179 0.695460
0.828916 0.843442 0.682307
0.843320 0.850553 0.667659
0.859403 0.857328 0.650324
0.877073 0.863828 0.630243
0.896483 0.869963 0.606073
0.917632 0.875731 0.576837
0.940734 0.881193 0.541253
0.965057 0.885771 0.498421
0.986572 0.886503 0.452247
1.000000 0.885801 0.396704
1.000000 0.880766 0.446082
1.000000 0.876616 0.505028
0.778805 0.761440 0.797269
0.778927 0.761563 0.797360
0.778836 0.761410 0.797238
0.778592 0.761135 0.796963
0.778256 0.760769 0.796597
0.777920 0.760342 0.796231
0.777646 0.760006 0.795956
0.777493 0.759823 0.795773
0.776822 0.765835 0.792447
0.776547 0.772457 0.788693
0.776883 0.779385 0.784543
0.777737 0.786557 0.779934
0.779324 0.793790 0.774777
0.781613 0.800961 0.768978
0.784726 0.807980 0.762295
