data/fiter_cube/89350833/1022878/file.cube
# Created by Adobe Lightroom plugin Export LUT (1.24.0)
# www.johnrellis.com/lightroom/exportlut.htm
# Preset: 婚礼接亲预设[余晖]-8 闯门
# Color profile: C:\Windows\System32\Spool\Drivers\Color\AppleRGB.icc
LUT_3D_SIZE 5
DOMAIN_MIN 0.000000 0.000000 0.000000
DOMAIN_MAX 0.903226 0.903226 0.903226
0.000000 0.064271 0.153811
0.145174 0.033845 0.129030
0.793179 0.000000 0.136110
0.980743 0.166506 0.162325
1.000000 0.457313 0.374426
0.033234 0.095247 0.178714
0.339117 0.308385 0.052247
0.789181 0.282841 0.169497
0.947967 0.431464 0.305974
0.996460 0.574823 0.513054
0.503288 0.465858 0.459968
0.510979 0.549126 0.361364
0.813199 0.700343 0.000000
0.927794 0.644465 0.376349
0.938262 0.698116 0.664057
0.702663 0.669673 0.708888
0.699916 0.682856 0.696864
0.739376 0.756649 0.609277
0.899687 0.815305 0.346777
0.979614 0.791653 0.511162
0.788235 0.772854 0.807462
0.787564 0.772091 0.806760
0.787106 0.809628 0.770077
0.838895 0.859800 0.712398
0.957061 0.901884 0.574823
0.025727 0.092836 0.177371
0.075349 0.117464 0.197818
0.856352 0.000000 0.159091
0.972168 0.214725 0.268040
0.986969 0.515251 0.524010
0.221439 0.224826 0.228519
0.339422 0.323766 0.299931
0.758907 0.397925 0.388800
0.891142 0.508202 0.500084
0.959167 0.599847 0.600916
0.607233 0.564813 0.588159
0.596063 0.553521 0.573754
0.785611 0.682643 0.350439
0.857542 0.672663 0.636133
0.923033 0.716976 0.710811
0.729244 0.701198 0.740749
0.726192 0.697536 0.737148
0.741146 0.752010 0.687861
0.877562 0.813199 0.539269
0.951904 0.796780 0.652308
0.798947 0.785824 0.818967
0.797543 0.784176 0.817502
0.798093 0.811276 0.800320
0.839414 0.861967 0.750088
0.950988 0.905882 0.652308
0.511254 0.473121 0.469276
0.532189 0.492317 0.494148
0.535698 0.505272 0.561028
0.941100 0.000000 0.654994
1.000000 0.000000 0.291142
0.585412 0.542962 0.560174
0.607141 0.564782 0.588067
0.617273 0.580682 0.629664
0.941436 0.316808 0.596307
1.000000 0.481086 0.549737
0.665614 0.627283 0.662989
0.681941 0.645716 0.683406
0.708522 0.676509 0.715969
0.826688 0.689631 0.732448
0.908202 0.729732 0.761990
0.765988 0.745724 0.782956
0.768185 0.748440 0.785458
0.764889 0.744411 0.781796
0.851347 0.810361 0.723934
0.913207 0.809262 0.795956
0.826566 0.818723 0.847623
0.822690 0.814206 0.843687
0.818906 0.809720 0.839811
0.835142 0.856168 0.808133
0.938323 0.905455 0.743709
0.707362 0.675196 0.714626
0.711757 0.680354 0.719905
0.719051 0.688991 0.728603
0.712642 0.687526 0.750484
0.896330 0.512596 0.853635
0.725582 0.696773 0.736416
0.726955 0.698421 0.738003
0.732082 0.704585 0.744076
0.726467 0.702693 0.759640
0.904967 0.551659 0.844633
0.740108 0.714290 0.753445
0.747097 0.722744 0.761563
0.759579 0.737942 0.775753
0.758785 0.739345 0.784848
0.934417 0.632441 0.807462
0.779568 0.762356 0.798062
0.783658 0.767300 0.802518
0.795468 0.781674 0.815274
0.809689 0.798734 0.830259
0.896757 0.809171 0.840665
0.848631 0.844236 0.869596
0.852842 0.848997 0.873716
0.861357 0.858610 0.881956
0.857359 0.854093 0.878080
0.930114 0.910063 0.842222
0.793454 0.779263 0.813138
0.794034 0.779965 0.813748
0.795926 0.782223 0.815763
0.798581 0.785458 0.818601
0.790402 0.780240 0.832822
0.799588 0.786618 0.819608
0.799924 0.787076 0.820005
0.801877 0.789364 0.822080
0.804013 0.791958 0.824338
0.797055 0.787869 0.837766
0.808591 0.797452 0.829129
0.812253 0.801846 0.832944
0.815579 0.805753 0.836362
0.817807 0.808408 0.838682
0.816129 0.809628 0.852995
0.825193 0.817136 0.846220
0.827604 0.819944 0.848661
0.835294 0.828916 0.856382
0.849638 0.845365 0.870573
0.854734 0.852842 0.884642
0.860410 0.857542 0.881041
0.864378 0.861936 0.884825
0.875700 0.874479 0.895567
0.893034 0.893248 0.911650
0.913909 0.915343 0.930388
