data/fiter_cube/10491141/1023202/file.cube
# Created by Adobe Lightroom plugin Export LUT (1.17.0)
# www.johnrellis.com/lightroom/exportlut.htm
# Preset: 莫兰迪丛林_01 云集
# Color profile: C:\Program Files (x86)\Common Files\Adobe\Color\Profiles\Recommended\AdobeRGB1998.icc
LUT_3D_SIZE 5
DOMAIN_MIN 0.000000 0.000000 0.000000
DOMAIN_MAX 0.903226 0.903226 0.903226
0.069123 0.076112 0.088075
0.597040 0.000000 0.009125
0.839780 0.203067 0.000000
0.919219 0.426581 0.216129
0.958984 0.533471 0.351965
0.251591 0.456794 0.222477
0.459205 0.402380 0.222629
0.844144 0.431525 0.153750
0.914427 0.504112 0.282689
0.954376 0.573449 0.398566
0.652033 0.738369 0.598901
0.723354 0.774899 0.682795
0.711238 0.670192 0.529534
0.890715 0.678370 0.492988
0.938933 0.675685 0.527794
0.741268 0.825071 0.715724
0.773434 0.837308 0.758816
0.831235 0.866911 0.817350
0.794217 0.773404 0.671138
0.900511 0.783932 0.677546
0.790951 0.869291 0.781430
0.811063 0.874144 0.807736
0.855283 0.888334 0.860777
0.874327 0.896208 0.872953
0.864378 0.857420 0.801602
0.000000 0.137179 0.352972
0.613397 0.151247 0.393530
0.799313 0.433265 0.392767
0.888548 0.542962 0.449042
0.940002 0.599359 0.494911
0.240726 0.438727 0.354620
0.551049 0.523430 0.481849
0.802243 0.554131 0.468055
0.886381 0.588861 0.483406
0.936522 0.626825 0.521386
0.641657 0.725704 0.606012
0.716976 0.763394 0.695186
0.710018 0.682765 0.592035
0.880797 0.708461 0.592309
0.926238 0.705043 0.604578
0.739895 0.821714 0.721492
0.771786 0.834226 0.762966
0.832975 0.866026 0.827451
0.794400 0.778744 0.694606
0.898070 0.793973 0.708217
0.788205 0.868040 0.780819
0.808347 0.872923 0.806577
0.856931 0.888518 0.864775
0.877134 0.898192 0.879576
0.865110 0.860197 0.810666
0.310094 0.386023 0.651270
0.566430 0.398749 0.697169
0.788937 0.578088 0.664240
0.837797 0.641505 0.639307
0.905272 0.692348 0.669764
0.485206 0.567559 0.621149
0.593988 0.597314 0.677607
0.771603 0.640833 0.677119
0.839292 0.671138 0.658839
0.905211 0.704555 0.677577
0.595056 0.695613 0.631891
0.659480 0.717067 0.670283
0.737423 0.734493 0.710536
0.848722 0.750118 0.717098
0.903563 0.750393 0.713069
0.718807 0.804074 0.713649
0.749844 0.816678 0.750698
0.824369 0.854215 0.833738
0.797848 0.794766 0.750546
0.895415 0.819669 0.776883
0.781247 0.863554 0.782010
0.798550 0.868193 0.802365
0.845212 0.883268 0.854795
0.881285 0.900999 0.890410
0.866361 0.866270 0.831144
0.555230 0.586236 0.767086
0.614679 0.591272 0.783017
0.781094 0.619318 0.818540
0.851072 0.707759 0.771572
0.885374 0.748135 0.768673
0.613519 0.660334 0.752255
0.636225 0.655207 0.771664
0.775570 0.673762 0.817685
0.844785 0.730556 0.778347
0.881956 0.760372 0.775814
0.640284 0.733822 0.743252
0.669825 0.737575 0.750637
0.751247 0.764767 0.798825
0.828519 0.775540 0.791226
0.877501 0.794461 0.797391
0.694972 0.792569 0.745205
0.718990 0.797818 0.758602
0.779629 0.821256 0.800961
0.817136 0.826596 0.817563
0.886992 0.839048 0.828916
0.767483 0.854704 0.780331
0.783261 0.859281 0.797208
0.826230 0.873930 0.841337
0.874815 0.895628 0.889067
0.870665 0.876890 0.859586
0.662501 0.696223 0.844297
0.683192 0.696986 0.849363
0.760128 0.705196 0.866789
0.862150 0.743465 0.872221
0.887816 0.805295 0.847807
0.682826 0.727474 0.837278
0.692042 0.722347 0.843442
0.759182 0.730648 0.862364
0.859495 0.759396 0.873472
0.886503 0.812802 0.850919
0.691798 0.763210 0.814267
0.705745 0.765652 0.819455
0.755581 0.780148 0.848447
0.848264 0.800992 0.874968
0.883604 0.834226 0.860533
0.713008 0.827878 0.828031
0.726040 0.827695 0.830198
0.764218 0.828611 0.838529
0.828428 0.846342 0.869902
0.881376 0.863462 0.875151
0.756710 0.861234 0.823148
0.768338 0.862791 0.828641
0.804685 0.869566 0.847440
0.851072 0.883085 0.874968
0.882170 0.894804 0.894713
