data/fiter_cube/10491141/1023202/file.cube
# Created by Adobe Lightroom plugin Export LUT (1.17.0)
# www.johnrellis.com/lightroom/exportlut.htm
# Preset: 莫兰迪丛林_01 云集
# Color profile: C:\Program Files (x86)\Common Files\Adobe\Color\Profiles\Recommended\AdobeRGB1998.icc
LUT_3D_SIZE 8
DOMAIN_MIN 0.000000 0.000000 0.000000
DOMAIN_MAX 0.903226 0.903226 0.903226
0.069123 0.076112 0.088075
0.246494 0.062928 0.085603
0.662470 0.000000 0.000000
0.799863 0.044892 0.000000
0.870848 0.290043 0.091951
0.911345 0.404547 0.192691
0.938933 0.480537 0.280125
0.958984 0.533471 0.351965
0.097292 0.164858 0.113619
0.181369 0.179019 0.123018
0.682460 0.140902 0.000000
0.801999 0.221683 0.000000
0.869078 0.341772 0.118379
0.908629 0.429175 0.209171
0.936706 0.495003 0.292332
0.957275 0.543725 0.362524
0.347143 0.534508 0.292576
0.509239 0.588922 0.420356
0.528038 0.465064 0.273960
0.797940 0.486244 0.192477
0.868956 0.489845 0.223484
0.905180 0.517296 0.287114
0.932799 0.553063 0.353796
0.952697 0.584802 0.411872
0.596002 0.694820 0.529992
0.640742 0.709438 0.583948
0.720790 0.759609 0.658076
0.678798 0.628199 0.465736
0.819791 0.639277 0.429511
0.899535 0.629847 0.415320
0.924773 0.630823 0.446113
0.944182 0.643061 0.485023
0.686580 0.771420 0.642267
0.704250 0.779324 0.664881
0.753292 0.805234 0.724575
0.788907 0.820584 0.739284
0.736599 0.703304 0.578088
0.831296 0.709377 0.551110
0.905760 0.712764 0.557336
0.933532 0.709102 0.573022
0.731563 0.815885 0.702388
0.743252 0.820798 0.718257
0.778103 0.835050 0.764553
0.812589 0.854246 0.797513
0.820829 0.844694 0.776394
0.783230 0.760342 0.653407
0.850614 0.762081 0.637720
0.909453 0.771939 0.660334
0.764920 0.846769 0.747738
0.772763 0.849241 0.758267
0.797604 0.857328 0.790646
0.828733 0.869963 0.826963
0.850278 0.881621 0.844572
0.846647 0.865415 0.811948
0.825742 0.811215 0.726894
0.872099 0.809659 0.717708
0.790951 0.869291 0.781430
0.797147 0.870726 0.789609
0.817319 0.875792 0.815702
0.846189 0.884672 0.851377
0.862425 0.892027 0.866819
0.876005 0.898863 0.878630
0.870512 0.885801 0.850095
0.864378 0.857420 0.801602
0.058839 0.091829 0.163729
0.280552 0.000000 0.187381
0.640497 0.020020 0.175631
0.783413 0.264622 0.207919
0.855711 0.381994 0.249210
0.898405 0.458595 0.301152
0.929351 0.514733 0.355474
0.952056 0.556664 0.405066
0.080995 0.176242 0.159609
0.252232 0.257664 0.243137
0.659968 0.276127 0.224338
0.786160 0.341314 0.232181
0.855070 0.419715 0.267887
0.896910 0.479225 0.314885
0.927642 0.526970 0.365118
0.950530 0.565209 0.412970
0.353552 0.524956 0.330571
0.520348 0.581689 0.468208
0.547051 0.497597 0.370123
0.791806 0.531243 0.337163
0.854765 0.530449 0.342443
0.894011 0.548638 0.371893
0.923949 0.574640 0.411383
0.946380 0.600977 0.452949
0.597345 0.689937 0.543206
0.641688 0.705257 0.595331
0.719844 0.755581 0.671138
0.676387 0.632227 0.497566
0.814450 0.648280 0.472816
0.889525 0.643000 0.466987
0.917296 0.642847 0.484840
0.938903 0.653590 0.514244
0.687434 0.769497 0.648798
0.704097 0.777005 0.669612
0.753048 0.802609 0.730251
0.790066 0.821500 0.749599
0.734615 0.704189 0.590478
0.829252 0.713527 0.569604
0.902647 0.718685 0.578973
0.929747 0.715450 0.592126
0.731441 0.814237 0.705196
0.742000 0.818418 0.719295
0.776059 0.832700 0.763882
0.812253 0.852934 0.800046
0.821592 0.845548 0.782773
0.782712 0.761501 0.660639
0.850187 0.764462 0.646784
0.908141 0.774624 0.669825
0.763943 0.845396 0.748043
0.771298 0.847623 0.757839
0.795987 0.855863 0.789700
0.828489 0.869108 0.828092
0.850431 0.881346 0.846250
0.846983 0.865934 0.815518
0.824765 0.811154 0.729976
0.871427 0.810208 0.721157
0.789700 0.868559 0.780667
0.795926 0.870054 0.788876
0.816159 0.875212 0.814908
0.845182 0.884154 0.850553
0.863279 0.892332 0.868498
0.876585 0.899168 0.880003
0.870848 0.886259 0.852171
0.864103 0.857633 0.803311
0.000000 0.162814 0.417517
0.253178 0.126009 0.484138
0.664088 0.260746 0.455695
0.742153 0.411322 0.426215
0.824247 0.497810 0.453193
0.871702 0.556725 0.486152
0.908232 0.590845 0.507591
0.935363 0.616052 0.527245
0.192020 0.327611 0.408667
0.326574 0.352605 0.482734
0.643061 0.406531 0.479927
0.744228 0.468330 0.455787
0.822782 0.526329 0.471748
0.870695 0.569726 0.494423
0.907134 0.599115 0.513237
0.934325 0.622553 0.532677
0.322240 0.505516 0.415778
0.453498 0.544060 0.472633
0.602045 0.576532 0.535637
0.756771 0.597742 0.535302
0.824765 0.603449 0.525109
0.869841 0.616022 0.528588
0.904570 0.631861 0.540490
0.930999 0.647944 0.556634
0.571130 0.672328 0.540398
0.618982 0.687648 0.589868
0.710445 0.739925 0.689570
0.682429 0.656214 0.581994
0.814298 0.687984 0.588739
0.869505 0.683894 0.585657
0.900999 0.682704 0.586877
0.925902 0.688380 0.597131
0.675502 0.758968 0.646754
0.694423 0.767636 0.669581
0.747311 0.794675 0.735378
0.800229 0.830991 0.785214
0.737453 0.716457 0.634089
0.830289 0.733059 0.628992
0.897398 0.739620 0.641749
0.920317 0.735988 0.646937
0.726772 0.809506 0.707088
0.738491 0.814115 0.722408
0.772641 0.828672 0.765927
0.812833 0.850401 0.809445
0.826505 0.850706 0.804746
0.783078 0.767391 0.685817
0.850736 0.774746 0.679347
0.905058 0.787045 0.705623
0.762295 0.843381 0.751034
0.769986 0.845792 0.760952
0.794064 0.853941 0.791165
0.829099 0.867674 0.833097
0.851743 0.881041 0.852323
0.850065 0.869474 0.829557
0.825772 0.815885 0.747341
0.872587 0.817899 0.742611
0.786862 0.867277 0.780056
0.792386 0.868559 0.787106
0.812741 0.873716 0.812711
0.842496 0.882902 0.848631
0.864073 0.892180 0.871427
0.877592 0.899474 0.883085
0.872526 0.888334 0.859678
0.864897 0.860441 0.812345
0.179690 0.305241 0.597162
0.332341 0.309941 0.622675
0.652186 0.331670 0.670100
0.760067 0.512230 0.613672
0.798367 0.547997 0.571374
0.841245 0.611597 0.595483
0.883696 0.646509 0.614527
0.915648 0.667781 0.626825
0.368139 0.454170 0.592248
0.415198 0.443458 0.618128
0.649012 0.455756 0.670832
0.751705 0.554101 0.623133
0.789700 0.578637 0.587457
0.840940 0.623713 0.603601
0.883116 0.653437 0.619318
0.915404 0.671565 0.628992
0.443000 0.581506 0.586633
0.502739 0.590295 0.599695
0.628016 0.621912 0.656641
0.728206 0.630610 0.639796
0.788754 0.643549 0.627161
0.842466 0.663233 0.632074
0.883177 0.679530 0.639460
0.914427 0.689540 0.643153
0.538476 0.657710 0.582666
0.578882 0.666133 0.602106
0.662409 0.696864 0.655848
0.706050 0.696925 0.667994
0.804288 0.718044 0.678492
0.846799 0.713588 0.668391
0.882841 0.714961 0.665644
0.911742 0.719539 0.668269
0.651575 0.737545 0.636866
0.669398 0.745754 0.656214
0.722469 0.773648 0.717189
0.789151 0.817105 0.791104
0.744228 0.734615 0.686030
0.835416 0.760800 0.701381
0.883482 0.763241 0.707698
0.908324 0.760311 0.706752
0.715084 0.799588 0.704005
0.726955 0.804685 0.718654
0.761135 0.819547 0.760281
0.807706 0.842710 0.813962
0.835966 0.859922 0.833921
0.785977 0.778531 0.723079
0.853727 0.792630 0.727840
0.901915 0.804746 0.751705
0.755825 0.838407 0.750607
0.763455 0.840970 0.760067
0.787594 0.849516 0.789151
0.822171 0.863432 0.828916
0.851957 0.879545 0.858427
0.855924 0.875700 0.849302
0.827390 0.822782 0.770779
0.874571 0.828611 0.771389
0.784268 0.865476 0.782254
0.789670 0.866850 0.788876
0.807065 0.871458 0.809598
0.835294 0.880034 0.842466
0.863951 0.891234 0.874235
0.878325 0.899504 0.886503
0.875395 0.891691 0.870512
0.866056 0.864500 0.825101
0.406592 0.456489 0.689693
0.460639 0.461341 0.700069
0.614282 0.472908 0.734646
0.753048 0.539147 0.737636
0.811154 0.622736 0.701045
0.835966 0.637751 0.668421
0.858885 0.685237 0.686213
0.894743 0.715846 0.707973
0.480842 0.532647 0.684016
0.503166 0.527398 0.695216
0.620447 0.536584 0.729824
0.750912 0.577874 0.740749
0.807034 0.637812 0.704128
0.832609 0.648188 0.672572
0.859159 0.691157 0.690242
0.894774 0.719112 0.710109
0.540124 0.610010 0.657588
0.569696 0.619898 0.667872
0.632593 0.638697 0.713161
0.745083 0.655207 0.749264
0.794003 0.678340 0.712764
0.819852 0.682856 0.688991
0.860044 0.709926 0.702907
0.895048 0.729213 0.716152
0.579217 0.691463 0.678004
0.600214 0.693843 0.683009
0.654505 0.704402 0.701472
0.728206 0.731044 0.749111
0.774472 0.725521 0.725246
0.821622 0.731533 0.721828
0.863279 0.739803 0.724147
0.896910 0.745632 0.725429
0.632349 0.727535 0.670130
0.646693 0.731624 0.678096
0.690486 0.748989 0.707118
0.751003 0.780148 0.760006
0.762539 0.764645 0.745632
0.835660 0.783871 0.761288
0.868467 0.777981 0.752560
0.896971 0.777646 0.750729
0.691279 0.782193 0.692287
0.702937 0.784787 0.702998
0.736782 0.799557 0.741115
0.784176 0.824399 0.794369
0.831785 0.855772 0.841764
0.789731 0.790249 0.758236
0.860105 0.813321 0.777340
0.896666 0.819089 0.788815
0.744442 0.829496 0.746456
0.751522 0.831907 0.754726
0.774624 0.840421 0.781369
0.808377 0.854551 0.818540
0.844205 0.872282 0.856077
0.863584 0.883574 0.869291
0.829374 0.830137 0.794400
0.878019 0.840848 0.801877
0.778134 0.861540 0.782071
0.783261 0.862852 0.787991
0.800046 0.867521 0.807034
0.825620 0.875792 0.835203
0.854551 0.886687 0.866026
0.877104 0.898192 0.888060
0.879332 0.896086 0.882628
0.867277 0.868894 0.838682
0.533471 0.565576 0.753902
0.555413 0.567803 0.759487
0.627588 0.574334 0.778531
0.742214 0.586084 0.809873
0.807858 0.641596 0.782650
0.844450 0.692470 0.759060
0.864652 0.709590 0.744228
0.884428 0.744717 0.759518
0.560937 0.599786 0.748684
0.573907 0.598260 0.754574
0.633845 0.603174 0.774075
0.738491 0.612512 0.806149
0.805600 0.656367 0.783719
0.841917 0.700679 0.761074
0.862882 0.714931 0.746426
0.883116 0.749081 0.762295
0.607202 0.659419 0.730709
0.620020 0.663966 0.738705
0.648402 0.663783 0.762966
0.729000 0.674800 0.797147
0.800412 0.701137 0.789822
0.834989 0.726406 0.768887
0.857694 0.732662 0.754574
0.879149 0.764034 0.772091
0.623987 0.703731 0.725612
0.634424 0.704982 0.727901
0.668116 0.710842 0.737209
0.722347 0.734920 0.782040
0.794614 0.753292 0.800046
0.825559 0.758236 0.779385
0.849638 0.759579 0.768429
0.879789 0.781064 0.783413
0.644678 0.760037 0.742947
0.654627 0.761196 0.745785
0.686610 0.765927 0.756100
0.731624 0.775753 0.773983
0.785245 0.794827 0.807950
0.812192 0.786923 0.788357
0.851133 0.791348 0.789151
0.883757 0.798886 0.794247
0.683253 0.780423 0.730861
0.691981 0.782498 0.735775
0.719661 0.790799 0.752956
0.757931 0.805966 0.780240
0.801572 0.828763 0.818021
0.806699 0.815152 0.804440
0.863462 0.831418 0.819608
0.888365 0.828336 0.815885
0.729488 0.822385 0.748684
0.735866 0.824155 0.754086
0.756435 0.829709 0.771695
0.789578 0.841703 0.804440
0.826596 0.860288 0.842008
0.862638 0.882902 0.876005
0.834470 0.840879 0.821469
0.883848 0.857298 0.837430
0.770138 0.856413 0.781155
0.774929 0.857725 0.786374
0.790921 0.862364 0.803586
0.815244 0.870359 0.829007
0.843290 0.881041 0.857420
0.871031 0.893736 0.884916
0.885344 0.901946 0.895964
0.869841 0.875151 0.855253
0.609827 0.640681 0.804929
0.621118 0.642054 0.808347
0.658167 0.643946 0.818357
0.724453 0.648798 0.835782
0.807370 0.668055 0.847776
0.846921 0.714168 0.820951
0.869017 0.751339 0.806760
0.885588 0.771969 0.805295
0.616571 0.653468 0.800229
0.626001 0.654139 0.803769
0.659724 0.655848 0.814328
0.722469 0.660517 0.832181
0.804501 0.677241 0.845975
0.844358 0.718563 0.820249
0.866941 0.752468 0.805814
0.884306 0.771908 0.804227
0.650538 0.699763 0.790677
0.658503 0.701686 0.794919
0.671351 0.694667 0.806790
0.723049 0.701778 0.825772
0.800687 0.714321 0.845640
0.841123 0.744045 0.825193
0.864103 0.769039 0.812406
0.882780 0.784604 0.811460
0.659602 0.725246 0.772335
0.665827 0.725307 0.772885
0.690883 0.736202 0.788754
0.726223 0.746273 0.815091
0.791257 0.759609 0.842161
0.837613 0.778012 0.833799
0.860380 0.791531 0.821897
0.880400 0.800870 0.820310
0.671443 0.768002 0.780880
0.677424 0.768032 0.781704
0.697902 0.769314 0.785611
0.728603 0.772732 0.793484
0.773953 0.791165 0.827115
0.831266 0.806638 0.841062
0.854429 0.810727 0.828489
0.877165 0.817777 0.828794
0.690730 0.807248 0.789578
0.696834 0.808042 0.791562
0.716548 0.811002 0.798428
0.745510 0.816648 0.810025
0.780056 0.822293 0.822873
0.824857 0.838102 0.849760
0.849424 0.835355 0.839811
0.877470 0.842344 0.844785
0.724178 0.823941 0.781704
0.729915 0.825193 0.784878
0.747311 0.828763 0.794369
0.773617 0.835966 0.810147
0.804654 0.847257 0.830716
0.839322 0.863798 0.857816
0.847623 0.859129 0.854520
0.885832 0.869505 0.864805
0.760494 0.854856 0.792782
0.764828 0.855802 0.796017
0.780026 0.859770 0.807706
0.801358 0.865385 0.824094
0.829160 0.873350 0.847410
0.858793 0.886625 0.875456
0.883879 0.900908 0.898466
0.874022 0.883207 0.873777
0.662501 0.696223 0.844297
0.668910 0.696834 0.846006
0.690272 0.697261 0.851041
0.731716 0.701350 0.860655
0.793606 0.710323 0.873564
0.852079 0.735256 0.874907
0.874510 0.773739 0.853361
0.887816 0.805295 0.847807
0.665736 0.703609 0.841825
0.671748 0.704250 0.843595
0.692195 0.705043 0.848966
0.731655 0.708736 0.858671
0.791836 0.717311 0.871977
0.850492 0.740017 0.874357
0.873564 0.776303 0.853635
0.887297 0.807004 0.848386
0.689357 0.736355 0.834714
0.690639 0.734249 0.836728
0.699214 0.728664 0.842954
0.734524 0.734340 0.854276
0.788388 0.742000 0.868345
0.846677 0.758511 0.874205
0.871824 0.788876 0.856840
0.886046 0.814847 0.851713
0.689540 0.753109 0.821012
0.695888 0.755550 0.823697
0.716640 0.763058 0.832395
0.737850 0.764096 0.846433
0.782803 0.772519 0.862547
0.841642 0.785550 0.875334
0.869902 0.808530 0.862943
0.884550 0.827329 0.857389
0.696071 0.780758 0.816953
0.700740 0.781094 0.817746
0.714137 0.780758 0.819242
0.736934 0.784726 0.828489
0.774868 0.797726 0.852476
0.831052 0.811460 0.874113
0.867643 0.829770 0.870329
0.882811 0.842100 0.864286
0.707698 0.817563 0.824552
0.711574 0.817380 0.825010
0.724636 0.817105 0.827054
0.745571 0.817197 0.831113
0.772732 0.818265 0.837583
0.816892 0.835904 0.865232
0.865660 0.852934 0.879454
0.881773 0.859495 0.873198
0.728450 0.848173 0.830167
0.732265 0.848539 0.831357
0.745113 0.849973 0.835691
0.766567 0.853300 0.843656
0.794369 0.858640 0.854795
0.823850 0.862089 0.864469
0.858274 0.872984 0.883055
0.880674 0.876280 0.881987
0.756710 0.861234 0.823148
0.760159 0.861662 0.824735
0.772213 0.863401 0.830564
0.792477 0.867063 0.840940
0.817624 0.872496 0.854551
0.844480 0.880644 0.870726
0.869596 0.891051 0.887877
0.882170 0.894804 0.894713
