data/fiter_cube/10491141/1023202/file.cube
# Created by Adobe Lightroom plugin Export LUT (1.17.0)
# www.johnrellis.com/lightroom/exportlut.htm
# Preset: 莫兰迪丛林_01 云集
# Color profile: C:\Program Files (x86)\Common Files\Adobe\Color\Profiles\Recommended\AdobeRGB1998.icc
LUT_3D_SIZE 32
DOMAIN_MIN 0.0 0.0 0.0
DOMAIN_MAX 1.0 1.0 1.0
0.069123 0.076112 0.088075
0.076692 0.077089 0.088411
0.087648 0.078340 0.088930
0.137148 0.080201 0.089021
0.246494 0.062928 0.085603
0.386450 0.000000 0.074769
0.507713 0.000000 0.054353
0.597040 0.000000 0.009125
0.662470 0.000000 0.000000
0.710811 0.000000 0.000000
0.746639 0.000000 0.000000
0.774899 0.000000 0.000000
0.799863 0.044892 0.000000
0.821408 0.146487 0.000000
0.839780 0.203067 0.000000
0.856596 0.250340 0.060365
0.870848 0.290043 0.091951
0.882963 0.323949 0.119020
0.893309 0.353643 0.144137
0.902739 0.380377 0.168643
0.911345 0.404547 0.192691
0.919219 0.426581 0.216129
0.926329 0.446509 0.238712
0.932891 0.464546 0.260288
0.938933 0.480537 0.280125
0.944518 0.495399 0.299413
0.949676 0.509087 0.317723
0.954498 0.521782 0.335241
0.958984 0.533471 0.351965
0.963104 0.544366 0.367803
0.966918 0.554314 0.382605
0.970397 0.563256 0.396063
0.071015 0.080385 0.090242
0.074311 0.081514 0.091737
0.088136 0.082979 0.090211
0.142031 0.087465 0.089631
0.254307 0.076173 0.084932
0.393957 0.000000 0.073152
0.512963 0.000000 0.050690
0.600000 0.000000 0.004456
0.664118 0.000000 0.000000
0.711696 0.000000 0.000000
0.746975 0.000000 0.000000
0.774960 0.000000 0.000000
0.799680 0.084657 0.000000
0.821134 0.159609 0.000000
0.839475 0.211246 0.000000
0.856046 0.256596 0.063996
0.870176 0.294530 0.093935
0.882200 0.327153 0.120333
0.892576 0.356085 0.145144
0.902007 0.382147 0.169314
0.910674 0.405829 0.192874
0.918578 0.427497 0.216159
0.925780 0.447303 0.238743
0.932372 0.465126 0.260105
0.938445 0.481117 0.280095
0.944091 0.495918 0.299382
0.949340 0.509422 0.317479
0.954131 0.522271 0.335424
0.958679 0.533959 0.351965
0.962860 0.544762 0.367926
0.966705 0.554681 0.382666
0.970184 0.563622 0.396216
0.073945 0.085725 0.093568
0.077668 0.088838 0.096132
0.082399 0.089082 0.095735
0.141207 0.100160 0.091615
0.265293 0.094759 0.084047
0.404761 0.000000 0.070954
0.519951 0.000000 0.044862
0.604211 0.000000 0.000000
0.666835 0.000000 0.000000
0.713100 0.000000 0.000000
0.747738 0.000000 0.000000
0.775418 0.000000 0.000000
0.799893 0.115724 0.000000
0.821164 0.176486 0.000000
0.839322 0.223697 0.009888
0.855863 0.265599 0.068238
0.869780 0.301823 0.097658
0.881743 0.332891 0.123110
0.892088 0.360693 0.147677
0.901518 0.385962 0.171389
0.910216 0.409064 0.194858
0.918151 0.430274 0.218021
0.925353 0.449653 0.240421
0.932006 0.467079 0.261448
0.938079 0.482948 0.281621
0.943725 0.497475 0.300603
0.949004 0.510979 0.318914
0.953857 0.523583 0.336584
0.958434 0.535119 0.353063
0.962615 0.545953 0.369055
0.966461 0.555718 0.383764
0.969970 0.564691 0.397375
0.081331 0.108064 0.100679
0.090822 0.118471 0.109194
0.101198 0.128237 0.110872
0.115785 0.119814 0.105989
0.239170 0.141817 0.092012
0.428595 0.110170 0.063539
0.536339 0.010620 0.025635
0.614771 0.000000 0.000000
0.673365 0.000000 0.000000
0.717037 0.000000 0.000000
0.750027 0.028626 0.000000
0.776913 0.113832 0.000000
0.800748 0.165286 0.000000
0.821561 0.209812 0.000000
0.839567 0.248447 0.032990
0.855741 0.285527 0.078340
0.869383 0.317662 0.105745
0.881163 0.345922 0.130251
0.891417 0.371344 0.153658
0.900725 0.394781 0.176761
0.909392 0.416480 0.199771
0.917296 0.436652 0.222721
0.924590 0.455146 0.244541
0.931273 0.472053 0.265660
0.937530 0.487465 0.285435
0.943236 0.501732 0.304540
0.948547 0.514824 0.322667
0.953429 0.527245 0.340398
0.957977 0.538567 0.356970
0.962188 0.549065 0.372595
0.966003 0.558679 0.387182
0.969543 0.567315 0.400519
0.097292 0.164858 0.113619
0.111971 0.180636 0.125795
0.133974 0.200870 0.139834
0.172580 0.226535 0.142672
0.181369 0.179019 0.123018
0.341100 0.198947 0.096529
0.538018 0.177340 0.021942
0.629114 0.149844 0.000000
0.682460 0.140902 0.000000
0.722408 0.148074 0.000000
0.753109 0.165072 0.000000
0.778927 0.190768 0.000000
0.801999 0.221683 0.000000
0.822293 0.253513 0.009613
0.840055 0.284672 0.065309
0.855711 0.314580 0.093172
0.869078 0.341772 0.118379
0.880674 0.366369 0.141726
0.890837 0.388739 0.164492
0.900084 0.409583 0.186831
0.908629 0.429175 0.209171
0.916533 0.447700 0.231174
0.923766 0.464729 0.252415
0.930510 0.480476 0.272923
0.936706 0.495003 0.292332
0.942473 0.508476 0.311009
0.947784 0.521080 0.329046
0.952728 0.532769 0.346136
0.957275 0.543725 0.362524
0.961456 0.553887 0.377996
0.965332 0.563134 0.392401
0.968811 0.571618 0.405768
0.125368 0.251041 0.135592
0.145327 0.268803 0.150668
0.176791 0.293065 0.173281
0.232822 0.334844 0.193088
0.289464 0.340642 0.183230
0.269780 0.251896 0.146517
0.427710 0.262730 0.113222
0.595575 0.264591 0.053712
0.693629 0.253696 0.000000
0.729305 0.248783 0.000000
0.757443 0.252781 0.000000
0.781979 0.265019 0.000000
0.804044 0.283665 0.009705
0.823575 0.305150 0.062898
0.840909 0.328344 0.088777
0.855955 0.351141 0.113436
0.868925 0.372747 0.136263
0.880278 0.392706 0.158145
0.890288 0.411414 0.179782
0.899474 0.429267 0.201328
0.907927 0.446601 0.223026
0.915740 0.462928 0.244144
0.925505 0.486061 0.275181
0.931823 0.499794 0.294438
0.937713 0.512352 0.312627
0.943114 0.524102 0.330083
0.948150 0.535210 0.346685
0.952789 0.545647 0.362951
0.957122 0.555413 0.378149
0.961120 0.564599 0.392676
0.964782 0.573053 0.406348
0.968078 0.580804 0.418952
0.176089 0.360021 0.170748
0.200107 0.375189 0.187808
0.235904 0.395026 0.212619
0.310094 0.431800 0.258213
0.390326 0.475807 0.282963
0.417304 0.441260 0.239658
0.372717 0.331304 0.179873
0.499214 0.331060 0.144442
0.639765 0.349737 0.104158
0.723262 0.349798 0.041993
0.764187 0.342412 0.000000
0.787320 0.344182 0.045838
0.808072 0.352789 0.077058
0.826871 0.365545 0.098665
0.843534 0.380652 0.120180
0.857694 0.396094 0.141299
0.870085 0.411292 0.161837
0.880980 0.426001 0.181857
0.890654 0.440772 0.202548
0.899626 0.455512 0.223331
0.908049 0.470283 0.244236
0.915984 0.484565 0.264836
0.923278 0.498329 0.284977
0.930022 0.511192 0.304387
0.936126 0.523247 0.322850
0.941711 0.534386 0.340307
0.946807 0.544732 0.356756
0.951507 0.554528 0.372442
0.955871 0.563622 0.387366
0.959869 0.572320 0.401617
0.963531 0.580285 0.414893
0.966857 0.587732 0.427436
0.251591 0.456794 0.222477
0.276707 0.467018 0.240360
0.311284 0.480201 0.265599
0.383703 0.506126 0.320165
0.451759 0.537926 0.353277
0.519951 0.570672 0.381445
0.511772 0.511833 0.302800
0.459205 0.402380 0.222629
0.550652 0.393011 0.186221
0.668879 0.420172 0.160555
0.738705 0.424567 0.137301
0.788174 0.420172 0.107851
0.810361 0.419440 0.118441
0.828611 0.424323 0.135836
0.844144 0.431525 0.153750
0.857633 0.439673 0.171023
0.869505 0.449165 0.189273
0.880034 0.459083 0.207401
0.889464 0.469734 0.225925
0.898314 0.480903 0.244785
0.906615 0.492531 0.263890
0.914427 0.504112 0.282689
0.921721 0.515587 0.301305
0.928405 0.526635 0.319493
0.934539 0.537011 0.336767
0.940124 0.546929 0.353460
0.945251 0.556176 0.369024
0.950011 0.564965 0.383917
0.954376 0.573449 0.398566
0.958404 0.581384 0.412299
0.962097 0.589044 0.425544
0.965393 0.596155 0.438025
0.347143 0.534508 0.292576
0.368048 0.540734 0.308568
0.395514 0.549035 0.330358
0.449683 0.565637 0.374975
0.509239 0.588922 0.420356
0.558251 0.614679 0.447150
0.589593 0.618952 0.444831
0.578790 0.566430 0.364874
0.528038 0.465064 0.273960
0.590143 0.448066 0.233860
0.690059 0.477394 0.220554
0.750668 0.484260 0.208103
0.797940 0.486244 0.192477
0.830289 0.483894 0.181491
0.844846 0.483833 0.194949
0.857633 0.486000 0.208896
0.868956 0.489845 0.223484
0.879179 0.495094 0.238560
0.888334 0.501427 0.254307
0.896971 0.508965 0.270573
0.905180 0.517296 0.287114
0.912902 0.526085 0.303960
0.920073 0.535210 0.321019
0.926726 0.544244 0.337621
0.932799 0.553063 0.353796
0.938384 0.561425 0.369177
0.943542 0.569543 0.383917
0.948302 0.577264 0.398108
0.952697 0.584802 0.411872
0.956756 0.592126 0.425299
0.960388 0.599176 0.438178
0.963714 0.605921 0.450507
0.435920 0.592767 0.363836
0.450752 0.596826 0.376684
0.469764 0.602167 0.393439
0.507439 0.613367 0.428870
0.555962 0.629297 0.478340
0.590692 0.647578 0.500664
0.626490 0.666773 0.526146
0.635187 0.652918 0.496376
0.625849 0.608087 0.419318
0.580255 0.517296 0.326177
0.621668 0.494575 0.282933
0.706661 0.523095 0.279362
0.761318 0.533623 0.275608
0.804929 0.537621 0.265629
0.840116 0.535729 0.250370
0.857603 0.532219 0.252171
0.868620 0.531304 0.262638
0.878447 0.532250 0.274266
0.887327 0.534813 0.287022
0.895750 0.538781 0.300359
0.903716 0.543908 0.314336
0.911223 0.549920 0.328801
0.918273 0.556329 0.343206
0.924773 0.563134 0.357885
0.930816 0.570062 0.372290
0.936431 0.576989 0.386419
0.941588 0.583795 0.400122
0.946380 0.590661 0.413703
0.950805 0.597436 0.427070
0.954864 0.604120 0.439979
0.958556 0.610651 0.452583
0.961822 0.617060 0.465003
0.503624 0.635828 0.426825
0.513695 0.638453 0.436774
0.526879 0.642054 0.450294
0.552880 0.649378 0.477638
0.587793 0.660212 0.516442
0.618616 0.673548 0.546197
0.645899 0.689326 0.567193
0.673854 0.706996 0.588769
0.667475 0.679133 0.538903
0.659236 0.639948 0.466529
0.621698 0.561334 0.376043
0.647883 0.533654 0.329442
0.719387 0.559380 0.331853
0.769619 0.571740 0.332128
0.809964 0.577111 0.326268
0.842557 0.576745 0.316625
0.867887 0.571832 0.305180
0.877317 0.568994 0.313085
0.885954 0.567987 0.322057
0.894194 0.568719 0.332067
0.902007 0.571038 0.343542
0.909361 0.574426 0.355505
0.916320 0.578790 0.368231
0.922759 0.583642 0.380987
0.928771 0.588861 0.393927
0.934356 0.594202 0.406561
0.939513 0.599756 0.419013
0.944274 0.605463 0.431525
0.948699 0.611231 0.443915
0.952789 0.617121 0.456214
0.956451 0.623072 0.468421
0.959686 0.629084 0.480690
0.554711 0.667994 0.481575
0.561669 0.669764 0.489265
0.571130 0.672175 0.499794
0.589502 0.677211 0.520897
0.615534 0.685359 0.551720
0.643214 0.696681 0.584375
0.664332 0.710414 0.600580
0.686915 0.725887 0.617609
0.702815 0.732113 0.621454
0.694026 0.702724 0.574731
0.684382 0.665766 0.507866
0.652979 0.596826 0.421302
0.673182 0.571801 0.379644
0.734035 0.595239 0.386389
0.780117 0.608759 0.389929
0.817197 0.614801 0.387640
0.847257 0.614954 0.381079
0.872129 0.610986 0.371313
0.886595 0.606012 0.368597
0.894316 0.603662 0.375219
0.901701 0.602991 0.383001
0.908690 0.603754 0.392096
0.915282 0.605432 0.401617
0.921447 0.608118 0.412024
0.927245 0.611292 0.422522
0.932647 0.614984 0.433265
0.937652 0.619043 0.444129
0.942351 0.623346 0.454963
0.946685 0.627985 0.466041
0.950652 0.632868 0.477241
0.954223 0.638056 0.488808
0.957366 0.643427 0.500572
0.596002 0.694820 0.529992
0.601038 0.696254 0.535912
0.607782 0.698177 0.543938
0.621485 0.702480 0.560479
0.640742 0.709438 0.583948
0.663050 0.719051 0.611444
0.682094 0.731228 0.629084
0.700679 0.744930 0.642969
0.720790 0.759609 0.658076
0.726406 0.753506 0.646479
0.717494 0.725277 0.605249
0.706661 0.689876 0.545800
0.678798 0.628199 0.465736
0.686702 0.595178 0.414496
0.741970 0.618372 0.423835
0.785122 0.632532 0.429175
0.819791 0.639277 0.429511
0.848081 0.640253 0.425635
0.871672 0.637659 0.419196
0.891752 0.632807 0.410864
0.899535 0.629847 0.415320
0.906401 0.628443 0.421668
0.912871 0.628351 0.429236
0.919005 0.629206 0.437476
0.924773 0.630823 0.446113
0.930175 0.633143 0.455299
0.935180 0.635981 0.464881
0.939849 0.639338 0.474800
0.944182 0.643061 0.485023
0.948180 0.647303 0.495735
0.951720 0.651881 0.506767
0.954803 0.656825 0.518425
0.626764 0.717281 0.567559
0.630762 0.718624 0.572412
0.635767 0.720394 0.578485
0.646174 0.724269 0.591333
0.660975 0.730434 0.609613
0.678889 0.738918 0.631617
0.697078 0.749538 0.651972
0.712551 0.760983 0.663935
0.729488 0.773281 0.677241
0.747402 0.786038 0.691615
0.744411 0.769589 0.665675
0.735439 0.742580 0.626612
0.723812 0.708705 0.573693
0.696162 0.650507 0.499794
0.698268 0.615686 0.446876
0.749447 0.638788 0.457343
0.789792 0.652827 0.463111
0.822141 0.659815 0.465248
0.849027 0.661738 0.463752
0.871672 0.660517 0.460029
0.890990 0.657160 0.454963
0.904143 0.653223 0.452735
0.910521 0.651423 0.458076
0.916594 0.650721 0.464302
0.922271 0.650965 0.471351
0.927642 0.652003 0.479042
0.932616 0.653681 0.487282
0.937285 0.656031 0.496101
0.941619 0.658991 0.505608
0.945556 0.662470 0.515618
0.949065 0.666590 0.526482
0.952148 0.671015 0.537652
0.652033 0.738369 0.598901
0.654963 0.739498 0.602502
0.658686 0.740932 0.607080
0.666621 0.744259 0.616938
0.678187 0.749416 0.631220
0.692470 0.756497 0.648859
0.709438 0.765286 0.670253
0.723354 0.774899 0.682795
0.737697 0.785245 0.694484
0.753170 0.796078 0.707240
0.766110 0.803098 0.714595
0.759152 0.782650 0.682124
0.750393 0.757076 0.643946
0.737758 0.724208 0.596460
0.711238 0.670192 0.529534
0.708553 0.633814 0.475715
0.756374 0.656764 0.486915
0.794186 0.670497 0.492958
0.824796 0.677852 0.496498
0.850462 0.680751 0.497261
0.872190 0.680629 0.495888
0.890715 0.678370 0.492988
0.906493 0.674647 0.488869
0.914122 0.672175 0.491707
0.919738 0.671168 0.497230
0.925048 0.671077 0.503563
0.930022 0.671839 0.510796
0.934661 0.673426 0.518975
0.938933 0.675685 0.527794
0.942840 0.678645 0.537499
0.946288 0.682277 0.548089
0.949310 0.686152 0.558740
0.671321 0.756283 0.623041
0.673671 0.757321 0.626032
0.676570 0.758572 0.629572
0.682887 0.761379 0.637415
0.692348 0.765774 0.649226
0.704677 0.771756 0.664851
0.719265 0.779110 0.683772
0.733730 0.787472 0.700465
0.746090 0.796262 0.710842
0.759396 0.805447 0.721981
0.773404 0.814847 0.733577
0.778775 0.812985 0.728298
0.771603 0.793484 0.696559
0.762936 0.769162 0.658991
0.749813 0.737423 0.615015
0.724453 0.687526 0.555291
0.717830 0.650050 0.501335
0.762692 0.672633 0.513024
0.798611 0.686366 0.519799
0.827878 0.694362 0.525109
0.852506 0.698054 0.527611
0.873259 0.698878 0.528252
0.890898 0.697627 0.527428
0.906004 0.694881 0.525383
0.917327 0.691768 0.524529
0.922515 0.690669 0.529686
0.927428 0.690486 0.535729
0.931975 0.691188 0.542901
0.936217 0.692683 0.550927
0.940093 0.694881 0.559655
0.943511 0.697749 0.569360
0.946471 0.700862 0.578973
0.686580 0.771420 0.642267
0.688350 0.772213 0.644495
0.690822 0.773281 0.647639
0.696132 0.775662 0.654444
0.704250 0.779324 0.664881
0.714870 0.784237 0.678676
0.727657 0.790402 0.695460
0.742336 0.797757 0.714931
0.753292 0.805234 0.724575
0.764889 0.813138 0.734371
0.777249 0.821286 0.744656
0.789975 0.829435 0.755123
0.788907 0.820584 0.739284
0.781888 0.802182 0.708644
0.773587 0.779385 0.672358
0.760586 0.749233 0.630976
0.736599 0.703304 0.578088
0.726711 0.665187 0.525078
0.769131 0.687465 0.537255
0.803281 0.701137 0.544762
0.831296 0.709377 0.551110
0.854765 0.713619 0.554864
0.874601 0.715053 0.556847
0.891417 0.714595 0.557580
0.905760 0.712764 0.557336
0.917998 0.710109 0.556725
0.924773 0.708522 0.559930
0.929320 0.708400 0.566003
0.933532 0.709102 0.573022
0.937316 0.710658 0.581079
0.940734 0.712917 0.589990
0.943664 0.715389 0.598932
0.699580 0.784512 0.659174
0.701289 0.785275 0.661372
0.705928 0.788602 0.667506
0.710536 0.790555 0.673548
0.717586 0.793606 0.682887
0.726711 0.797604 0.694972
0.737850 0.802701 0.709865
0.750698 0.808774 0.726986
0.762478 0.815366 0.740261
0.772549 0.822049 0.748745
0.783261 0.828977 0.757595
0.794369 0.835966 0.766690
0.805356 0.842527 0.775326
0.799130 0.828489 0.751186
0.792325 0.811246 0.721950
0.784512 0.790097 0.687190
0.771908 0.761624 0.647456
0.749569 0.719783 0.600793
0.736812 0.681514 0.550195
0.776791 0.703090 0.562432
0.809140 0.716304 0.570062
0.835813 0.724422 0.576562
0.858122 0.728817 0.581048
0.876860 0.730617 0.583978
0.892668 0.730587 0.585657
0.906126 0.729366 0.586725
0.917601 0.727382 0.587366
0.926787 0.725307 0.588739
0.930938 0.725185 0.594598
0.934691 0.726070 0.601831
0.938079 0.727565 0.609766
0.940948 0.729549 0.618067
0.711910 0.796628 0.675593
0.713527 0.797482 0.677790
0.715785 0.798550 0.680751
0.720089 0.800504 0.686519
0.726467 0.803250 0.695064
0.734707 0.806851 0.706172
0.744686 0.811246 0.719539
0.756252 0.816434 0.734951
0.769009 0.822477 0.751492
0.777829 0.828214 0.758938
0.787320 0.834287 0.766781
0.797238 0.840452 0.774868
0.807340 0.846555 0.783047
0.812680 0.847257 0.782589
0.806760 0.834073 0.759670
0.800320 0.817960 0.731899
0.793118 0.798337 0.698848
0.781125 0.771572 0.661128
0.760616 0.733333 0.618677
0.746975 0.696956 0.572564
0.783566 0.716182 0.583001
0.814481 0.729122 0.591028
0.840055 0.737118 0.597650
0.861295 0.741756 0.602869
0.879088 0.743923 0.606622
0.894133 0.744411 0.609369
0.906828 0.743832 0.611688
0.917632 0.742672 0.614008
0.926757 0.741360 0.616724
0.932250 0.741115 0.622034
0.935515 0.741939 0.628962
0.938354 0.743435 0.636744
0.722133 0.806699 0.689418
0.723659 0.807431 0.691493
0.725582 0.808347 0.694148
0.729397 0.809964 0.699275
0.735073 0.812375 0.707027
0.742489 0.815427 0.716945
0.751461 0.819211 0.729030
0.761868 0.823697 0.742885
0.773587 0.828916 0.758236
0.783444 0.834257 0.768795
0.791867 0.839567 0.775784
0.800687 0.844999 0.783017
0.809751 0.850431 0.790372
0.818875 0.855772 0.797726
0.819486 0.851713 0.789700
0.813931 0.839445 0.768002
0.808011 0.824491 0.741848
0.801480 0.806455 0.710780
0.790127 0.781399 0.675135
0.771633 0.746578 0.635584
0.759060 0.713924 0.595544
0.790829 0.729030 0.602594
0.820340 0.741512 0.610742
0.844724 0.749325 0.617395
0.864927 0.753994 0.623041
0.881804 0.756405 0.627466
0.895995 0.757290 0.631159
0.907958 0.757351 0.634730
0.917998 0.756985 0.638636
0.926360 0.756497 0.643030
0.933043 0.756008 0.647761
0.935698 0.757290 0.655634
0.731563 0.815885 0.702388
0.732906 0.816495 0.704189
0.734676 0.817319 0.706630
0.738094 0.818723 0.711299
0.743252 0.820798 0.718257
0.749905 0.823423 0.727291
0.757992 0.826658 0.738125
0.767453 0.830533 0.750637
0.778103 0.835050 0.764553
0.789151 0.840024 0.778317
0.796628 0.844663 0.784482
0.804471 0.849424 0.790951
0.812589 0.854246 0.797513
0.820829 0.859037 0.804196
0.829038 0.863706 0.810788
0.825895 0.856016 0.796689
0.820829 0.844694 0.776394
0.815549 0.831052 0.752163
0.809903 0.814725 0.723384
0.799466 0.791653 0.690364
0.783230 0.760342 0.653407
0.772030 0.731289 0.618463
0.799435 0.742641 0.622705
0.827481 0.754574 0.631006
0.850614 0.762081 0.637720
0.869566 0.766812 0.644129
0.885344 0.769558 0.649683
0.898497 0.771115 0.654963
0.909453 0.771939 0.660334
0.918425 0.772274 0.665797
0.925719 0.772519 0.671626
0.931426 0.773281 0.678645
0.741268 0.825071 0.715724
0.742397 0.825528 0.717220
0.743801 0.826078 0.719173
0.746792 0.827207 0.723232
0.751369 0.828916 0.729488
0.757412 0.831144 0.737606
0.764797 0.833951 0.747433
0.773434 0.837308 0.758816
0.783169 0.841245 0.771511
0.793881 0.845701 0.785153
0.802152 0.850034 0.793729
0.809201 0.854246 0.799496
0.816464 0.858488 0.805417
0.823819 0.862730 0.811368
0.831235 0.866911 0.817350
0.836820 0.869169 0.820249
0.832364 0.860563 0.804379
0.827817 0.850187 0.785458
0.823117 0.837827 0.763088
0.818204 0.823056 0.736416
0.808591 0.801785 0.705776
0.794217 0.773404 0.671138
0.784421 0.747127 0.638819
0.807675 0.755032 0.640589
0.834165 0.766354 0.649104
0.855894 0.773648 0.656367
0.873686 0.778592 0.663813
0.888396 0.781827 0.670741
0.900511 0.783932 0.677546
0.910369 0.785214 0.683925
0.918242 0.786374 0.690944
0.924346 0.787991 0.699092
0.749477 0.832731 0.726894
0.750454 0.833127 0.728267
0.751766 0.833646 0.730037
0.754543 0.834592 0.733822
0.758724 0.836088 0.739467
0.764248 0.838041 0.746853
0.770993 0.840421 0.755825
0.778866 0.843320 0.766110
0.787839 0.846769 0.777768
0.797665 0.850645 0.790280
0.807370 0.854795 0.801999
0.813626 0.858518 0.807156
0.820127 0.862272 0.812436
0.826780 0.866056 0.817899
0.833463 0.869810 0.823331
0.840177 0.873472 0.828733
0.842252 0.872557 0.826261
0.838285 0.864683 0.811521
0.834226 0.855283 0.794095
0.830198 0.844144 0.773526
0.826078 0.830991 0.749264
0.817380 0.811612 0.721248
0.805020 0.786282 0.689418
0.796811 0.762722 0.659297
0.815854 0.766995 0.658167
0.840726 0.777890 0.667384
0.861204 0.785214 0.675471
0.877775 0.790433 0.684077
0.891264 0.793912 0.692012
0.902129 0.796353 0.699672
0.910796 0.798520 0.707790
0.917418 0.800961 0.716915
0.757839 0.840360 0.738277
0.758755 0.840726 0.739528
0.759976 0.841123 0.741176
0.762478 0.841947 0.744564
0.766293 0.843198 0.749660
0.771298 0.844846 0.756344
0.777462 0.846891 0.764462
0.784695 0.849393 0.773922
0.792966 0.852354 0.784543
0.801968 0.855680 0.795956
0.811551 0.859403 0.807980
0.818509 0.862852 0.814969
0.824247 0.866117 0.819699
0.830167 0.869444 0.824491
0.836149 0.872740 0.829313
0.842130 0.875975 0.834165
0.848081 0.879149 0.839017
0.847349 0.875731 0.832120
0.843778 0.868559 0.818479
0.840269 0.860136 0.802457
0.836881 0.850217 0.783719
0.833585 0.838560 0.761746
0.825742 0.821012 0.736416
0.815122 0.798398 0.707271
0.808286 0.777218 0.679347
0.824552 0.779721 0.677424
0.847776 0.790249 0.687465
0.866697 0.797391 0.696315
0.881773 0.802396 0.705104
0.893828 0.806119 0.713893
0.903410 0.809262 0.722927
0.910704 0.812467 0.732845
0.764920 0.846769 0.747738
0.765774 0.847074 0.748898
0.766903 0.847471 0.750423
0.769223 0.848173 0.753536
0.772763 0.849241 0.758267
0.777462 0.850675 0.764431
0.783200 0.852537 0.772000
0.789944 0.854734 0.780789
0.797604 0.857328 0.790646
0.806058 0.860288 0.801328
0.815030 0.863615 0.812558
0.823545 0.867063 0.822721
0.828733 0.869963 0.826963
0.834043 0.872923 0.831296
0.839445 0.875853 0.835721
0.844846 0.878752 0.840146
0.850278 0.881621 0.844572
0.855589 0.884459 0.848966
0.852659 0.879240 0.838804
0.849607 0.872862 0.826413
0.846647 0.865415 0.811948
0.843931 0.856687 0.795071
0.841398 0.846555 0.775357
0.834531 0.830930 0.752865
0.825742 0.811215 0.726894
0.820371 0.792569 0.701564
0.833738 0.793118 0.698268
0.854948 0.802884 0.708431
0.872099 0.809659 0.717708
0.885649 0.814725 0.727169
0.896208 0.818967 0.737148
0.904234 0.822965 0.747738
0.771878 0.852934 0.756893
0.772671 0.853178 0.757961
0.773678 0.853513 0.759365
0.775845 0.854093 0.762203
0.779080 0.855009 0.766537
0.783413 0.856260 0.772244
0.788754 0.857847 0.779232
0.795071 0.859800 0.787442
0.802274 0.862089 0.796658
0.810147 0.864714 0.806638
0.818601 0.867674 0.817197
0.827359 0.870878 0.828031
0.833341 0.873686 0.834012
0.838102 0.876310 0.837949
0.842954 0.878935 0.841917
0.847837 0.881529 0.845914
0.852720 0.884092 0.849943
0.857542 0.886625 0.853941
0.860502 0.887449 0.854948
0.857725 0.882628 0.845365
0.855161 0.877012 0.834195
0.852750 0.870512 0.821225
0.850645 0.863005 0.806180
0.848936 0.854307 0.788724
0.843076 0.840604 0.769039
0.835966 0.823545 0.746151
0.831785 0.807126 0.723323
0.842527 0.805936 0.718593
0.861662 0.814908 0.728786
0.877043 0.821530 0.738674
0.889006 0.826749 0.748745
0.897978 0.831571 0.759915
0.778256 0.858518 0.765225
0.778988 0.858732 0.766201
0.779934 0.859007 0.767483
0.781949 0.859556 0.770138
0.785061 0.860410 0.774289
0.789242 0.861540 0.779751
0.794369 0.863005 0.786465
0.800473 0.864805 0.794339
0.807401 0.866941 0.803220
0.815000 0.869352 0.812833
0.823087 0.872068 0.822934
0.831418 0.874998 0.833188
0.838956 0.877928 0.842069
0.843259 0.880247 0.845640
0.847623 0.882597 0.849271
0.851987 0.884886 0.852873
0.856321 0.887144 0.856504
0.860655 0.889403 0.860136
0.864897 0.891569 0.863767
0.865782 0.890776 0.861784
0.863493 0.886656 0.853361
0.861418 0.881895 0.843626
0.859556 0.876402 0.832303
0.858061 0.870115 0.819181
0.857053 0.862852 0.803922
0.852232 0.850950 0.786709
0.846708 0.836545 0.767025
0.843839 0.822629 0.747341
0.852415 0.820401 0.742092
0.869017 0.828305 0.751919
0.882292 0.834714 0.762295
0.892302 0.840055 0.772946
0.785245 0.864378 0.774166
0.785916 0.864561 0.775082
0.786770 0.864775 0.776242
0.788663 0.865232 0.778775
0.791623 0.865934 0.782681
0.795529 0.866941 0.787778
0.800351 0.868223 0.794095
0.806058 0.869780 0.801450
0.812558 0.871611 0.809751
0.819699 0.873716 0.818784
0.827298 0.876066 0.828244
0.835050 0.878660 0.837797
0.842771 0.881376 0.847105
0.847837 0.883635 0.852262
