data/fiter_cube/51215349/1023020/file.cube
# Created by Adobe Lightroom plugin Export LUT (1.17.0)
# www.johnrellis.com/lightroom/exportlut.htm
# Preset: 日系旅行街拍胶片_07 云集后期
# Color profile: C:\Program Files (x86)\Common Files\Adobe\Color\Profiles\Recommended\AdobeRGB1998.icc
LUT_3D_SIZE 5
DOMAIN_MIN 0.000000 0.000000 0.000000
DOMAIN_MAX 0.903226 0.903226 0.903226
0.141939 0.122652 0.106661
0.262821 0.093599 0.101167
0.723812 0.000000 0.000000
0.954253 0.000000 0.000000
1.000000 0.320745 0.248600
0.140169 0.132448 0.107088
0.232486 0.152071 0.099092
0.713893 0.000000 0.000000
0.947662 0.132174 0.000000
1.000000 0.389105 0.280339
0.083040 0.295628 0.116579
0.096529 0.352361 0.084047
0.691371 0.453468 0.000000
0.936767 0.460883 0.152804
1.000000 0.534051 0.355779
0.000000 0.581353 0.141726
0.000000 0.618555 0.119966
0.423011 0.692012 0.113832
0.913390 0.696956 0.283177
1.000000 0.712734 0.516381
0.000000 0.852689 0.239597
0.000000 0.858701 0.241276
0.286320 0.880827 0.308293
0.831937 0.886137 0.440040
0.980041 0.850065 0.671595
0.138308 0.127260 0.123415
0.178897 0.139315 0.135836
0.678798 0.000000 0.132662
0.931029 0.000000 0.168612
1.000000 0.353338 0.318944
0.130800 0.157198 0.136202
0.198520 0.172183 0.156191
0.671778 0.000000 0.153902
0.927764 0.175906 0.185367
1.000000 0.408881 0.341009
0.045899 0.314946 0.147799
0.059022 0.381231 0.150515
0.650050 0.455573 0.192355
0.917693 0.474037 0.265476
1.000000 0.557336 0.423713
0.000000 0.590539 0.192172
0.000000 0.629114 0.187961
0.386969 0.702907 0.241337
0.901671 0.709621 0.382696
0.992065 0.729335 0.573877
0.000000 0.853849 0.281224
0.000000 0.859709 0.282567
0.287541 0.887175 0.375158
0.814755 0.889708 0.506767
0.974548 0.858976 0.709590
0.000000 0.193606 0.293492
0.000000 0.186740 0.329992
0.502770 0.390753 0.421393
0.885557 0.328222 0.481147
1.000000 0.484474 0.531731
0.000000 0.262211 0.315190
0.000000 0.262455 0.355535
0.516899 0.431281 0.443122
0.885283 0.366705 0.471992
1.000000 0.519371 0.544396
0.000000 0.424598 0.360876
0.000000 0.465400 0.393561
0.556420 0.537835 0.506371
0.876982 0.550835 0.520348
0.992065 0.628199 0.596887
0.000000 0.608301 0.346014
0.000000 0.633356 0.345434
0.345342 0.728298 0.442206
0.863371 0.753597 0.612970
0.970916 0.770626 0.701259
0.000000 0.856870 0.401129
0.000000 0.863676 0.399939
0.000000 0.890959 0.408179
0.732998 0.891295 0.633570
0.959594 0.875944 0.779934
0.000000 0.329992 0.546075
0.000000 0.352575 0.553582
0.341436 0.369940 0.651453
0.759548 0.690517 0.734859
0.937224 0.742092 0.812100
0.000000 0.393317 0.558251
0.000000 0.403784 0.568231
0.309972 0.407721 0.665339
0.760952 0.701747 0.739437
0.937926 0.742641 0.808438
0.000000 0.525231 0.586786
0.000000 0.538567 0.593103
0.000000 0.541802 0.670497
0.764492 0.731563 0.751858
0.945220 0.750149 0.797421
0.000000 0.708705 0.644465
0.000000 0.716670 0.644465
0.000000 0.767178 0.700282
0.795621 0.800992 0.800870
0.948760 0.809171 0.810880
0.000000 0.866606 0.643519
0.000000 0.872038 0.638819
0.000000 0.893248 0.614801
0.605463 0.902586 0.703761
0.940520 0.901427 0.860227
0.000000 0.499245 0.801907
0.000000 0.514855 0.802487
0.000000 0.470680 0.823301
0.755581 0.733761 0.848997
0.886046 0.867765 0.894682
0.000000 0.527092 0.799435
0.000000 0.540307 0.800076
0.000000 0.507591 0.819577
0.738247 0.720485 0.847684
0.885954 0.869108 0.894987
0.000000 0.609583 0.806516
0.000000 0.611963 0.805570
0.000000 0.614466 0.813901
0.650935 0.679316 0.852781
0.888426 0.877073 0.899199
0.000000 0.754055 0.829282
0.000000 0.753902 0.826535
0.000000 0.760067 0.825803
0.186984 0.718776 0.856626
0.896025 0.894804 0.910216
0.000000 0.902861 0.858061
0.000000 0.905058 0.857359
0.000000 0.923308 0.864500
0.000000 0.948333 0.885832
0.906859 0.920714 0.925963
