data/fiter_cube/51215349/1023020/file.cube
# Created by Adobe Lightroom plugin Export LUT (1.17.0)
# www.johnrellis.com/lightroom/exportlut.htm
# Preset: 日系旅行街拍胶片_07 云集后期
# Color profile: C:\Program Files (x86)\Common Files\Adobe\Color\Profiles\Recommended\AdobeRGB1998.icc
LUT_3D_SIZE 32
DOMAIN_MIN 0.0 0.0 0.0
DOMAIN_MAX 1.0 1.0 1.0
0.141939 0.122652 0.106661
0.141756 0.122713 0.106661
0.141146 0.122805 0.106691
0.142000 0.122438 0.106447
0.150484 0.121340 0.106020
0.172305 0.118135 0.105135
0.210391 0.110567 0.103792
0.262821 0.093599 0.101167
0.326421 0.050446 0.097566
0.396399 0.000000 0.091890
0.468696 0.000000 0.084443
0.538506 0.000000 0.074617
0.603449 0.000000 0.061799
0.663386 0.000000 0.034089
0.723812 0.000000 0.000000
0.778378 0.000000 0.000000
0.821714 0.000000 0.000000
0.857053 0.000000 0.000000
0.886412 0.000000 0.000000
0.912139 0.000000 0.000000
0.934630 0.000000 0.000000
0.954253 0.000000 0.000000
0.971099 0.000000 0.018250
0.985840 0.000000 0.075380
0.998779 0.073854 0.107424
1.000000 0.160342 0.139193
1.000000 0.218997 0.171878
1.000000 0.270787 0.207675
1.000000 0.320745 0.248600
1.000000 0.371557 0.294926
1.000000 0.424750 0.348852
1.000000 0.481910 0.411627
0.141939 0.122652 0.106661
0.141939 0.122652 0.106661
0.141176 0.122621 0.106691
0.142000 0.122438 0.106447
0.150088 0.121645 0.105989
0.171450 0.118990 0.105104
0.208835 0.111788 0.103761
0.260533 0.096254 0.101167
0.323522 0.060548 0.097597
0.393347 0.000000 0.092195
0.465003 0.000000 0.084596
0.534722 0.000000 0.074861
0.599725 0.000000 0.062745
0.659480 0.000000 0.035523
0.719539 0.000000 0.000000
0.773312 0.000000 0.000000
0.816556 0.000000 0.000000
0.852171 0.000000 0.000000
0.881956 0.000000 0.000000
0.908202 0.000000 0.000000
0.931212 0.000000 0.000000
0.951232 0.000000 0.000000
0.968536 0.000000 0.007843
0.983642 0.000000 0.070649
0.996918 0.062623 0.103212
1.000000 0.155398 0.134768
1.000000 0.214633 0.167208
1.000000 0.266789 0.203708
1.000000 0.316991 0.244022
1.000000 0.367956 0.290471
1.000000 0.421027 0.344030
1.000000 0.477974 0.406439
0.141970 0.122438 0.106691
0.142000 0.122225 0.106722
0.141207 0.122408 0.106722
0.142000 0.122438 0.106447
0.149477 0.121981 0.105989
0.170443 0.119905 0.105043
0.206973 0.113588 0.103731
0.258122 0.099428 0.101106
0.320684 0.067445 0.097566
0.390082 0.000000 0.092256
0.462013 0.000000 0.084901
0.531792 0.000000 0.075196
0.596979 0.000000 0.062654
0.656947 0.000000 0.036378
0.716762 0.000000 0.000000
0.770260 0.000000 0.000000
0.813352 0.000000 0.000000
0.849149 0.000000 0.000000
0.879301 0.000000 0.000000
0.905821 0.000000 0.000000
0.929229 0.000000 0.000000
0.949584 0.000000 0.000000
0.967132 0.000000 0.002747
0.982422 0.000000 0.068910
0.995850 0.068208 0.101472
1.000000 0.156710 0.132692
1.000000 0.215000 0.165774
1.000000 0.266728 0.201877
1.000000 0.316594 0.242496
1.000000 0.367376 0.288914
1.000000 0.420081 0.342168
1.000000 0.476844 0.404334
0.142092 0.121828 0.106508
0.142092 0.121828 0.106508
0.141665 0.121889 0.106538
0.141878 0.122286 0.106264
0.148867 0.122927 0.105684
0.169009 0.121736 0.104952
0.204868 0.117189 0.103273
0.255558 0.104829 0.100862
0.317906 0.078248 0.097261
0.387366 0.000000 0.091798
0.458839 0.000000 0.084352
0.528618 0.000000 0.074830
0.593744 0.000000 0.062013
0.653651 0.000000 0.035584
0.713771 0.000000 0.000000
0.766476 0.000000 0.000000
0.809537 0.000000 0.000000
0.845335 0.000000 0.000000
0.875578 0.000000 0.000000
0.902281 0.000000 0.000000
0.925872 0.000000 0.000000
0.946563 0.000000 0.000000
0.964660 0.000000 0.000000
0.980560 0.000000 0.066987
0.994568 0.089265 0.100710
1.000000 0.166812 0.133089
1.000000 0.222446 0.166903
1.000000 0.273014 0.203311
1.000000 0.321843 0.244053
1.000000 0.371344 0.289952
1.000000 0.422889 0.342840
1.000000 0.478309 0.404089
0.141878 0.121859 0.106508
0.141848 0.122072 0.106508
0.141695 0.122103 0.106264
0.141878 0.122499 0.105989
0.147280 0.123873 0.105653
0.166140 0.125093 0.104524
0.200778 0.122286 0.102998
0.250523 0.113527 0.100710
0.312352 0.093141 0.097047
0.381476 0.031342 0.091463
0.453254 0.000000 0.084199
0.522972 0.000000 0.074464
0.588708 0.000000 0.061738
0.649165 0.000000 0.033845
0.709560 0.000000 0.000000
0.762325 0.000000 0.000000
0.805997 0.000000 0.000000
0.842496 0.000000 0.000000
0.873259 0.000000 0.000000
0.900175 0.000000 0.000000
0.923888 0.000000 0.000000
0.944762 0.000000 0.000000
0.962982 0.000000 0.001038
0.979095 0.000000 0.067872
0.993317 0.119936 0.101472
1.000000 0.182376 0.134218
1.000000 0.233829 0.168002
1.000000 0.281254 0.204227
1.000000 0.328222 0.244663
1.000000 0.376287 0.290776
1.000000 0.426612 0.343114
1.000000 0.481056 0.404303
0.141726 0.123110 0.106416
0.141695 0.123323 0.106386
0.141512 0.123598 0.106142
0.141512 0.124208 0.105623
0.145083 0.125154 0.105379
0.161349 0.128328 0.104402
0.197055 0.129549 0.102693
0.246372 0.124422 0.100191
0.308049 0.110323 0.096284
0.377295 0.080720 0.090669
0.449256 0.000000 0.083253
0.519615 0.000000 0.073365
0.585443 0.000000 0.060304
0.646876 0.000000 0.029938
0.707240 0.000000 0.000000
0.759792 0.000000 0.000000
0.803769 0.000000 0.000000
0.840635 0.000000 0.000000
0.871824 0.000000 0.000000
0.899107 0.000000 0.000000
0.923125 0.000000 0.000000
0.944274 0.000000 0.000000
0.976776 0.098909 0.074739
0.990723 0.159762 0.106233
1.000000 0.205997 0.136690
1.000000 0.247440 0.167727
1.000000 0.287724 0.201236
1.000000 0.328099 0.237156
1.000000 0.369818 0.278050
1.000000 0.413642 0.323857
1.000000 0.460639 0.376349
1.000000 0.511803 0.436591
0.141085 0.126467 0.106538
0.141024 0.126894 0.106508
0.140963 0.127291 0.106477
0.140536 0.128786 0.105409
0.143313 0.130007 0.105196
0.155947 0.132174 0.104463
0.191440 0.138064 0.102296
0.247990 0.139193 0.099092
0.311803 0.129976 0.094759
0.383490 0.110689 0.088502
0.456855 0.074159 0.079835
0.527886 0.000000 0.068879
0.593622 0.000000 0.052369
0.657282 0.000000 0.014832
0.718105 0.000000 0.000000
0.769009 0.000000 0.000000
0.811276 0.000000 0.000000
0.846921 0.000000 0.000000
0.877470 0.000000 0.000000
0.904692 0.000000 0.000000
0.929076 0.000000 0.000000
0.950713 0.021607 0.000000
0.969574 0.127565 0.064088
0.985809 0.179416 0.101289
0.999664 0.222995 0.134737
1.000000 0.262425 0.167544
1.000000 0.300389 0.201419
1.000000 0.338506 0.237949
1.000000 0.378180 0.278660
1.000000 0.419959 0.323888
1.000000 0.465187 0.375860
1.000000 0.515099 0.435920
0.140169 0.132448 0.107088
0.140108 0.132815 0.107057
0.140078 0.133211 0.107027
0.139498 0.135561 0.105867
0.140902 0.137881 0.104646
0.150912 0.140932 0.104128
0.178805 0.144259 0.102693
0.232486 0.152071 0.099092
0.304265 0.153628 0.093996
0.376410 0.143496 0.087373
0.450629 0.125124 0.078523
0.522423 0.095949 0.066957
0.588891 0.036286 0.047333
0.654688 0.000000 0.007202
0.713893 0.000000 0.000000
0.764340 0.000000 0.000000
0.806760 0.000000 0.000000
0.842588 0.000000 0.000000
0.873533 0.000000 0.000000
0.901061 0.000000 0.000000
0.925780 0.082033 0.000000
0.947662 0.132174 0.000000
0.966705 0.174563 0.068727
0.983154 0.212284 0.104952
0.997223 0.248295 0.137301
1.000000 0.282658 0.170291
1.000000 0.316655 0.203861
1.000000 0.351629 0.240208
1.000000 0.389105 0.280339
1.000000 0.428901 0.325628
1.000000 0.472480 0.377325
1.000000 0.520745 0.437049
0.138460 0.141909 0.107668
0.138369 0.142428 0.107851
0.138247 0.143130 0.107759
0.137758 0.146120 0.106538
0.138491 0.150484 0.104616
0.143465 0.153292 0.103822
0.168490 0.159213 0.102174
0.216129 0.163821 0.099062
0.286564 0.172885 0.093568
0.369543 0.176608 0.085939
0.445533 0.168856 0.076234
0.518120 0.154665 0.063935
0.586450 0.138308 0.037507
0.653223 0.123659 0.000000
0.711269 0.111116 0.000000
0.761349 0.103670 0.000000
0.803799 0.101076 0.000000
0.839841 0.106355 0.000000
0.870878 0.119783 0.000000
0.898619 0.138399 0.000000
0.923430 0.163363 0.000000
0.945373 0.190158 0.014832
0.964508 0.218509 0.077028
0.981018 0.247837 0.111391
0.995209 0.277226 0.143374
1.000000 0.306706 0.175662
1.000000 0.336919 0.208743
1.000000 0.368933 0.244999
1.000000 0.403449 0.284642
1.000000 0.440833 0.329564
1.000000 0.482216 0.380743
1.000000 0.528435 0.439673
0.135683 0.156008 0.108949
0.135592 0.156497 0.108888
0.135439 0.157290 0.109010
0.134951 0.161013 0.107668
0.135378 0.166964 0.105470
0.139071 0.171847 0.102541
0.154299 0.177127 0.101808
0.200656 0.185733 0.098451
0.267430 0.191104 0.093141
0.349310 0.201755 0.085054
0.437140 0.208743 0.074006
0.512352 0.204868 0.061036
0.584131 0.198856 0.027741
0.649897 0.193668 0.000000
0.708431 0.190066 0.000000
0.759396 0.187808 0.000000
0.802487 0.188540 0.000000
0.839017 0.191287 0.000000
0.870146 0.197482 0.000000
0.897612 0.207370 0.000000
0.921996 0.222324 0.000000
0.943389 0.239780 0.041230
0.962066 0.259739 0.086519
0.978363 0.281926 0.117708
0.992462 0.305760 0.149081
1.000000 0.330632 0.180331
1.000000 0.357641 0.213291
1.000000 0.386969 0.249577
1.000000 0.419562 0.290105
1.000000 0.455055 0.334997
1.000000 0.494972 0.386877
1.000000 0.539757 0.446235
0.131868 0.174228 0.110353
0.131746 0.174929 0.110262
0.131594 0.175753 0.110140
0.130800 0.180240 0.108858
0.130861 0.187381 0.106172
0.133333 0.195529 0.102174
0.143252 0.200656 0.100130
0.179232 0.210025 0.097841
0.248722 0.220981 0.091371
0.329961 0.226871 0.082612
0.417487 0.239322 0.070832
0.506065 0.250553 0.053040
0.581262 0.254185 0.019013
0.646723 0.252873 0.000000
0.705043 0.251987 0.000000
0.756008 0.250950 0.000000
0.799344 0.250919 0.000000
0.835935 0.251957 0.000000
0.867247 0.255192 0.000000
0.894957 0.261723 0.000000
0.919432 0.271519 0.000000
0.941009 0.284398 0.064454
0.959869 0.300237 0.097475
0.976196 0.317845 0.128420
0.990417 0.337346 0.158572
1.000000 0.358740 0.189029
1.000000 0.382055 0.221927
1.000000 0.408240 0.257298
1.000000 0.437629 0.297093
1.000000 0.470680 0.341833
1.000000 0.508263 0.393133
1.000000 0.550561 0.451423
0.126131 0.197513 0.111727
0.125917 0.198215 0.111818
0.125643 0.199405 0.111635
0.124575 0.204288 0.110231
0.123964 0.212284 0.107057
0.126070 0.222538 0.103151
0.133242 0.230716 0.096956
0.152010 0.237064 0.096956
0.219913 0.251621 0.090181
0.311620 0.265263 0.078157
0.399176 0.270603 0.064332
0.489998 0.286992 0.036439
0.603815 0.323888 0.000000
0.673884 0.332921 0.000000
0.731746 0.333227 0.000000
0.780026 0.332006 0.000000
0.820035 0.330144 0.000000
0.853422 0.329015 0.000000
0.881743 0.328801 0.000000
0.906706 0.331853 0.032227
0.928740 0.337530 0.075166
0.948058 0.345708 0.103456
0.964935 0.355932 0.130678
0.979797 0.368841 0.157687
0.992828 0.383703 0.186221
1.000000 0.401099 0.215640
1.000000 0.420874 0.247166
1.000000 0.443366 0.281926
1.000000 0.469215 0.320806
1.000000 0.499031 0.364569
1.000000 0.533379 0.414649
1.000000 0.572747 0.471748
0.116030 0.229709 0.113710
0.115816 0.230411 0.113588
0.115450 0.231388 0.113619
0.113954 0.236667 0.111574
0.113008 0.245029 0.108095
0.113924 0.255894 0.103059
0.120821 0.267918 0.095796
0.139132 0.275059 0.091402
0.184756 0.286473 0.088380
0.278630 0.304234 0.075563
0.382330 0.315038 0.052338
0.483711 0.331518 0.000000
0.574853 0.351965 0.000000
0.658167 0.372625 0.000000
0.722866 0.383429 0.000000
0.773007 0.382666 0.000000
0.814115 0.380102 0.000000
0.848112 0.376989 0.000000
0.877043 0.375341 0.020874
0.902342 0.376074 0.066651
0.924681 0.378820 0.092927
0.944274 0.384100 0.117494
0.961334 0.391485 0.143160
0.976379 0.401373 0.169223
0.989593 0.413428 0.196384
1.000000 0.427771 0.224887
1.000000 0.444770 0.256291
1.000000 0.464729 0.290532
1.000000 0.488075 0.328557
1.000000 0.515618 0.372045
1.000000 0.548028 0.421912
1.000000 0.585046 0.478218
0.103212 0.260838 0.115145
0.102846 0.261631 0.115175
0.102388 0.262547 0.115175
0.100587 0.267918 0.113008
0.098543 0.276463 0.109285
0.098024 0.288090 0.103517
0.105226 0.302220 0.096925
0.118868 0.312627 0.084596
0.152377 0.321050 0.084138
0.233707 0.337957 0.074495
0.347601 0.360632 0.039704
0.461219 0.370794 0.000000
0.554559 0.386114 0.000000
0.636591 0.404395 0.000000
0.710384 0.422248 0.000000
0.766384 0.431769 0.000000
0.808042 0.427741 0.008209
0.842618 0.423468 0.040070
0.872129 0.420050 0.068574
0.897948 0.418677 0.089723
0.920623 0.419562 0.111452
0.940551 0.422858 0.134371
0.957916 0.427863 0.158480
0.973175 0.435157 0.183169
0.986542 0.444678 0.209598
0.998291 0.456489 0.237919
1.000000 0.470924 0.268467
1.000000 0.488441 0.302007
1.000000 0.509422 0.339544
1.000000 0.534844 0.382940
1.000000 0.565301 0.432715
1.000000 0.600000 0.488350
0.083040 0.295628 0.116579
0.082521 0.296361 0.116609
0.081941 0.297185 0.116609
0.079011 0.302525 0.114473
0.075380 0.311345 0.110018
0.072969 0.323033 0.103853
0.078676 0.337469 0.096376
0.096529 0.352361 0.084047
0.129824 0.360967 0.074952
0.180117 0.373297 0.074281
0.299077 0.397131 0.042664
0.424720 0.419196 0.000000
0.534203 0.422797 0.000000
0.617823 0.437873 0.000000
0.691371 0.453468 0.000000
0.754849 0.467048 0.000000
0.802243 0.473671 0.067262
0.837736 0.469123 0.082185
0.867552 0.464271 0.096254
0.893706 0.461219 0.113130
0.916655 0.459846 0.132021
0.936767 0.460883 0.152804
0.954314 0.463600 0.175051
0.969757 0.468635 0.198734
0.983337 0.475959 0.224552
0.995331 0.485786 0.252201
1.000000 0.498451 0.283177
1.000000 0.514366 0.317266
1.000000 0.534051 0.355779
1.000000 0.558160 0.400031
1.000000 0.587366 0.450721
1.000000 0.620325 0.506218
0.032898 0.332891 0.117983
0.030365 0.333776 0.117952
0.027832 0.334661 0.117922
0.017762 0.339757 0.115877
0.000824 0.348730 0.111299
0.000000 0.360723 0.104860
0.000000 0.375372 0.095979
0.060090 0.392340 0.087526
0.093050 0.405676 0.062379
0.152529 0.417243 0.063081
0.242893 0.433967 0.050782
0.373877 0.455360 0.000000
0.500847 0.474525 0.000000
0.597925 0.472999 0.000000
0.672786 0.484077 0.000000
0.736934 0.496132 0.000000
0.790585 0.505669 0.058076
0.831388 0.510521 0.104402
0.863035 0.507530 0.123903
0.889921 0.503258 0.138979
0.913359 0.500755 0.155886
0.933776 0.500084 0.175753
0.951537 0.501183 0.196902
0.967102 0.504356 0.220310
0.980804 0.509697 0.245121
0.992828 0.517693 0.272740
1.000000 0.528313 0.302861
1.000000 0.542321 0.336645
1.000000 0.559838 0.374792
1.000000 0.581720 0.417975
1.000000 0.608606 0.468147
1.000000 0.638453 0.521355
0.000000 0.370886 0.119600
0.000000 0.371466 0.119631
0.000000 0.372290 0.119570
0.000000 0.376745 0.117769
0.000000 0.385260 0.113100
0.000000 0.396887 0.105989
0.000000 0.411139 0.097261
0.000000 0.429389 0.087526
0.041138 0.446754 0.069886
0.118990 0.457160 0.043915
0.186831 0.467628 0.052552
0.313970 0.486732 0.006806
0.446937 0.505730 0.000000
0.569787 0.523308 0.000000
0.653620 0.517906 0.000000
0.720668 0.526482 0.000000
0.775662 0.534356 0.017792
0.821347 0.540917 0.101564
0.857023 0.545068 0.142092
0.885252 0.543633 0.165042
0.908965 0.539513 0.180697
0.929625 0.537011 0.197940
0.947631 0.536248 0.218021
0.963439 0.537743 0.240146
0.977325 0.541375 0.264439
0.989532 0.547478 0.291417
1.000000 0.556329 0.321019
1.000000 0.568444 0.354650
1.000000 0.584253 0.392279
1.000000 0.604364 0.435645
1.000000 0.629419 0.485389
1.000000 0.657191 0.537865
0.000000 0.409796 0.121614
0.000000 0.410681 0.121492
0.000000 0.420722 0.122133
0.000000 0.424079 0.120760
0.000000 0.433753 0.115785
0.000000 0.446509 0.108644
0.000000 0.462074 0.099153
0.000000 0.479225 0.089509
0.000000 0.498177 0.083497
0.052064 0.510826 0.012879
0.163119 0.520104 0.032013
0.251804 0.531121 0.043915
0.399451 0.549340 0.000000
0.530480 0.565789 0.000000
0.641779 0.576898 0.000000
0.715969 0.571069 0.000000
0.772549 0.574701 0.000000
0.817716 0.578546 0.103517
0.854948 0.581933 0.151339
0.884642 0.584527 0.189792
0.908537 0.583642 0.216220
0.928618 0.579095 0.231907
0.946166 0.576287 0.250034
0.961547 0.575402 0.270176
0.975006 0.576532 0.292271
0.986816 0.580011 0.316899
0.997375 0.586023 0.343938
1.000000 0.595575 0.375341
1.000000 0.608942 0.411688
1.000000 0.627070 0.454108
1.000000 0.649744 0.502525
1.000000 0.675349 0.553826
0.000000 0.454505 0.124910
0.000000 0.456703 0.124849
0.000000 0.458930 0.124941
0.000000 0.463203 0.124666
0.000000 0.472755 0.119722
0.000000 0.484535 0.112795
0.000000 0.498421 0.103700
0.000000 0.514000 0.093690
0.000000 0.531060 0.087098
0.000000 0.546532 0.068177
0.121035 0.555261 0.017975
0.210269 0.563470 0.050080
0.330144 0.576440 0.039643
0.471687 0.592279 0.000000
0.594476 0.606989 0.000000
0.691554 0.610071 0.000000
0.757382 0.605798 0.000000
0.805905 0.606561 0.073701
0.844663 0.608515 0.143496
0.876555 0.610773 0.188266
0.902525 0.613031 0.227420
0.923919 0.614221 0.258518
0.941833 0.610010 0.275181
0.957488 0.607874 0.294743
0.971191 0.607446 0.315465
0.983246 0.609461 0.339178
0.993896 0.614008 0.366064
1.000000 0.621973 0.396826
1.000000 0.633783 0.432776
1.000000 0.650172 0.474708
1.000000 0.670436 0.521263
1.000000 0.694087 0.571618
0.000000 0.495155 0.128725
0.000000 0.497414 0.129091
0.000000 0.499733 0.129091
0.000000 0.502861 0.129274
0.000000 0.510857 0.125429
0.000000 0.521416 0.118379
0.000000 0.533867 0.109773
0.000000 0.547814 0.100374
0.000000 0.563592 0.092958
0.000000 0.580224 0.094850
0.007538 0.590784 0.010864
0.178683 0.598016 0.048310
0.259861 0.604913 0.072663
0.408026 0.619593 0.058564
0.541100 0.633631 0.004730
0.655543 0.647211 0.000000
0.740200 0.643580 0.000000
0.794827 0.638331 0.071839
0.836332 0.637201 0.126375
0.869261 0.637873 0.184421
0.896361 0.638941 0.228275
0.918700 0.640864 0.267674
0.937530 0.643458 0.303502
0.953368 0.639887 0.321538
0.967193 0.638178 0.341314
0.979370 0.638575 0.363836
0.990112 0.641627 0.389441
0.999542 0.647883 0.419226
1.000000 0.657954 0.454047
1.000000 0.672480 0.495033
1.000000 0.690486 0.539910
1.000000 0.712062 0.588739
0.000000 0.534783 0.133577
0.000000 0.537102 0.133852
0.000000 0.539452 0.134249
0.000000 0.542412 0.134554
0.000000 0.548058 0.132509
0.000000 0.557671 0.125795
0.000000 0.568597 0.117739
0.000000 0.581445 0.108614
0.000000 0.595758 0.101839
0.000000 0.611109 0.102113
0.000000 0.624628 0.087343
0.135134 0.631922 0.051942
0.233890 0.638087 0.076356
0.334905 0.646448 0.088808
0.483192 0.660365 0.077272
0.606104 0.673152 0.065766
0.712062 0.685298 0.054383
0.784665 0.675685 0.092226
0.830442 0.671229 0.131258
0.865904 0.669368 0.179355
0.893797 0.669459 0.234104
0.916503 0.670192 0.278904
0.935241 0.671870 0.319677
0.951232 0.675776 0.359380
0.964996 0.673701 0.380560
0.976989 0.673274 0.402625
0.987518 0.675196 0.427893
0.996704 0.680385 0.457160
1.000000 0.689174 0.491585
1.000000 0.702388 0.531853
1.000000 0.718227 0.574609
1.000000 0.737545 0.620874
0.000000 0.581353 0.141726
0.000000 0.582696 0.141970
0.000000 0.584009 0.142214
0.000000 0.585779 0.142428
0.000000 0.588403 0.142092
0.000000 0.596551 0.136110
0.000000 0.606683 0.128115
0.000000 0.618555 0.119966
0.000000 0.632013 0.113558
0.000000 0.646754 0.112856
0.000000 0.661921 0.124300
0.055421 0.671351 0.066835
0.207218 0.676936 0.088441
0.293767 0.682307 0.108064
0.423011 0.692012 0.113832
0.558160 0.703304 0.112398
0.670588 0.713649 0.112581
0.767086 0.723781 0.117556
0.825376 0.707271 0.151217
0.861997 0.702419 0.186526
0.890867 0.698604 0.231724
0.913390 0.696956 0.283177
0.931792 0.696284 0.326146
0.947051 0.697017 0.365576
0.960601 0.700832 0.405585
0.972564 0.700710 0.430732
0.983215 0.701534 0.454719
0.992493 0.705318 0.483192
1.000000 0.712734 0.516381
1.000000 0.724025 0.554894
1.000000 0.737819 0.595483
1.000000 0.754910 0.639094
0.000000 0.620417 0.149905
0.000000 0.621729 0.150118
0.000000 0.623163 0.150393
0.000000 0.624842 0.150729
0.000000 0.626856 0.151186
0.000000 0.632410 0.147189
0.000000 0.641413 0.139864
0.000000 0.651881 0.131899
0.000000 0.664210 0.125734
0.000000 0.677729 0.124575
0.000000 0.691768 0.133272
0.000000 0.703334 0.124086
0.167330 0.709346 0.099733
0.270054 0.713924 0.119844
0.348669 0.718288 0.139376
0.500542 0.728542 0.142672
0.622644 0.737911 0.147005
0.725368 0.746853 0.155001
0.812680 0.755550 0.167330
0.856779 0.735012 0.203220
0.887388 0.728847 0.237308
0.911223 0.724300 0.283238
0.929747 0.722194 0.333410
0.944915 0.721309 0.376287
0.956298 0.718990 0.408515
0.967987 0.723354 0.449439
0.978424 0.725704 0.479927
0.987854 0.728267 0.507012
0.995911 0.734279 0.538842
1.000000 0.743587 0.575280
1.000000 0.755612 0.613825
1.000000 0.770840 0.655329
0.000000 0.666133 0.162203
0.000000 0.667567 0.162692
0.000000 0.668666 0.162753
0.000000 0.669886 0.162936
0.000000 0.671290 0.163027
0.000000 0.673701 0.162387
0.000000 0.681331 0.155489
0.000000 0.690486 0.147951
0.000000 0.700740 0.141726
0.000000 0.712093 0.139742
0.000000 0.723751 0.145968
0.000000 0.735103 0.165560
0.112093 0.741970 0.116304
0.243442 0.745144 0.134798
0.330388 0.747982 0.154238
0.433906 0.752651 0.168338
0.569268 0.760159 0.174166
0.679377 0.767269 0.183505
0.772183 0.774502 0.195529
0.843198 0.774838 0.216220
0.881773 0.758022 0.250706
0.907408 0.750851 0.284947
0.927001 0.745846 0.331426
0.942199 0.743069 0.379034
0.954498 0.741756 0.420447
0.964721 0.741970 0.457862
0.974548 0.747219 0.500053
0.983276 0.752041 0.535424
0.991363 0.756680 0.565698
0.997955 0.763729 0.598566
1.000000 0.773861 0.634363
1.000000 0.787167 0.673274
0.000000 0.703792 0.173495
0.000000 0.705165 0.173922
0.000000 0.706233 0.174350
0.000000 0.707362 0.174624
0.000000 0.708614 0.174868
0.000000 0.710201 0.174807
0.000000 0.715175 0.170840
0.000000 0.723323 0.163699
0.000000 0.732631 0.157321
0.000000 0.742885 0.155337
0.000000 0.753414 0.160311
0.000000 0.763851 0.177005
0.118257 0.771969 0.174441
0.214633 0.776242 0.154665
0.312993 0.778561 0.173709
0.390448 0.780789 0.193515
0.515343 0.785916 0.205356
0.635187 0.791806 0.216342
0.734463 0.797452 0.230594
0.817258 0.803342 0.248112
0.874540 0.797604 0.273381
0.905303 0.781643 0.308263
0.926116 0.773709 0.342290
0.941741 0.768490 0.388403
0.953857 0.765805 0.434852
0.963684 0.764828 0.475380
0.971801 0.765438 0.512169
0.979858 0.772274 0.556909
0.986786 0.780148 0.597742
0.993500 0.785519 0.627375
0.998871 0.793881 0.660182
1.000000 0.805417 0.696223
0.000000 0.742702 0.187503
0.000000 0.743618 0.187564
0.000000 0.744289 0.187991
0.000000 0.744991 0.188052
0.000000 0.745785 0.187839
0.000000 0.746944 0.188052
0.000000 0.748714 0.187655
0.000000 0.755550 0.180636
0.000000 0.763638 0.174472
0.000000 0.772519 0.171572
0.000000 0.781765 0.175509
0.000000 0.791012 0.190249
0.113283 0.799252 0.218570
0.180575 0.804746 0.176211
0.293156 0.806516 0.194614
0.376745 0.808042 0.214145
0.452827 0.809720 0.233860
0.586481 0.814298 0.246372
0.693263 0.818631 0.261692
0.781582 0.822965 0.279698
0.854551 0.827604 0.299870
0.899718 0.816190 0.329351
0.923857 0.801633 0.364172
0.940856 0.793576 0.398108
0.953277 0.788693 0.444282
0.962890 0.786496 0.489204
0.970764 0.786252 0.529351
0.977173 0.787778 0.566217
0.983490 0.795438 0.610773
0.988952 0.804105 0.650782
0.994598 0.810910 0.680751
0.998840 0.820676 0.713771
0.000000 0.778073 0.201358
0.000000 0.778714 0.201511
0.000000 0.779232 0.201846
0.000000 0.779995 0.202060
0.000000 0.781003 0.202182
0.000000 0.782681 0.202579
0.000000 0.785000 0.203220
0.000000 0.790036 0.200931
0.000000 0.798184 0.195804
0.000000 0.807095 0.193942
0.000000 0.816190 0.198550
0.000000 0.824826 0.213046
0.000000 0.832181 0.240970
0.215335 0.837705 0.247196
0.288670 0.840848 0.232853
0.377356 0.841703 0.253147
0.449928 0.842405 0.273838
0.545342 0.844053 0.293065
0.660243 0.846586 0.310369
0.752987 0.849058 0.330053
0.828702 0.851865 0.351781
0.890990 0.855070 0.375952
0.924163 0.838437 0.407935
0.942107 0.825650 0.442237
0.955230 0.817929 0.476020
0.964294 0.814054 0.522026
0.971283 0.813046 0.565820
0.976989 0.813626 0.603540
0.981598 0.815274 0.635737
0.986419 0.822629 0.674617
0.990326 0.832853 0.713985
0.994720 0.840818 0.742641
0.000000 0.820493 0.222354
0.000000 0.820920 0.222568
0.000000 0.821225 0.222629
0.000000 0.821561 0.222690
0.000000 0.822232 0.222538
0.000000 0.823178 0.222843
0.000000 0.824735 0.223178
0.000000 0.826810 0.223697
0.000000 0.832364 0.218936
0.000000 0.839109 0.216403
0.000000 0.845853 0.219821
0.000000 0.852354 0.232181
0.000000 0.857725 0.256962
0.231052 0.861479 0.296300
