data/fiter_cube/51215349/1023020/file.cube
# Created by Adobe Lightroom plugin Export LUT (1.17.0)
# www.johnrellis.com/lightroom/exportlut.htm
# Preset: 日系旅行街拍胶片_07 云集后期
# Color profile: C:\Program Files (x86)\Common Files\Adobe\Color\Profiles\Recommended\AdobeRGB1998.icc
LUT_3D_SIZE 8
DOMAIN_MIN 0.000000 0.000000 0.000000
DOMAIN_MAX 0.903226 0.903226 0.903226
0.141939 0.122652 0.106661
0.150484 0.121340 0.106020
0.326421 0.050446 0.097566
0.603449 0.000000 0.061799
0.821714 0.000000 0.000000
0.934630 0.000000 0.000000
0.998779 0.073854 0.107424
1.000000 0.320745 0.248600
0.141878 0.121859 0.106508
0.147280 0.123873 0.105653
0.312352 0.093141 0.097047
0.588708 0.000000 0.061738
0.805997 0.000000 0.000000
0.923888 0.000000 0.000000
0.993317 0.119936 0.101472
1.000000 0.328222 0.244663
0.138460 0.141909 0.107668
0.138491 0.150484 0.104616
0.286564 0.172885 0.093568
0.586450 0.138308 0.037507
0.803799 0.101076 0.000000
0.923430 0.163363 0.000000
0.995209 0.277226 0.143374
1.000000 0.403449 0.284642
0.116030 0.229709 0.113710
0.113008 0.245029 0.108095
0.184756 0.286473 0.088380
0.574853 0.351965 0.000000
0.814115 0.380102 0.000000
0.924681 0.378820 0.092927
0.989593 0.413428 0.196384
1.000000 0.488075 0.328557
0.000000 0.370886 0.119600
0.000000 0.385260 0.113100
0.041138 0.446754 0.069886
0.446937 0.505730 0.000000
0.775662 0.534356 0.017792
0.908965 0.539513 0.180697
0.977325 0.541375 0.264439
1.000000 0.584253 0.392279
0.000000 0.534783 0.133577
0.000000 0.548058 0.132509
0.000000 0.595758 0.101839
0.233890 0.638087 0.076356
0.712062 0.685298 0.054383
0.893797 0.669459 0.234104
0.964996 0.673701 0.380560
1.000000 0.689174 0.491585
0.000000 0.703792 0.173495
0.000000 0.708614 0.174868
0.000000 0.732631 0.157321
0.118257 0.771969 0.174441
0.515343 0.785916 0.205356
0.874540 0.797604 0.273381
0.953857 0.765805 0.434852
0.986786 0.780148 0.597742
0.000000 0.852689 0.239597
0.000000 0.854276 0.239902
0.000000 0.861753 0.241154
0.000000 0.883055 0.276158
0.428504 0.882963 0.319829
0.761898 0.884825 0.413825
0.952087 0.867033 0.533837
0.980041 0.850065 0.671595
0.141970 0.122438 0.106691
0.142855 0.122469 0.107332
0.293187 0.061738 0.104402
0.569360 0.000000 0.086946
0.793027 0.000000 0.050935
0.916167 0.000000 0.061402
0.989288 0.065980 0.136995
1.000000 0.317571 0.259770
0.141482 0.123751 0.107698
0.144625 0.124727 0.109041
0.284855 0.096101 0.106813
0.564935 0.000000 0.087373
0.786587 0.000000 0.051514
0.911162 0.000000 0.061128
0.985168 0.121492 0.134737
1.000000 0.324010 0.255192
0.137118 0.146426 0.111788
0.137270 0.159396 0.111940
0.272648 0.176242 0.109102
0.563439 0.140200 0.089876
0.781765 0.091859 0.059266
0.909422 0.157778 0.081331
0.984649 0.266606 0.162325
1.000000 0.394751 0.288243
0.113222 0.232944 0.121798
0.108339 0.253483 0.117983
0.170687 0.296941 0.106966
0.545769 0.341009 0.084138
0.781186 0.359777 0.093294
0.905425 0.363500 0.127199
0.979034 0.401373 0.205478
1.000000 0.479438 0.329076
0.000000 0.376745 0.133059
0.000000 0.393072 0.126528
0.060029 0.451484 0.109621
0.421637 0.500114 0.076112
0.755734 0.524102 0.113771
0.897307 0.533959 0.208438
0.970916 0.539269 0.281346
1.000000 0.582116 0.399329
0.000000 0.531945 0.149355
0.000000 0.540673 0.146273
0.000000 0.586358 0.125673
0.232090 0.633509 0.118593
0.695827 0.680781 0.128206
0.887968 0.670344 0.265385
0.960571 0.675593 0.400519
1.000000 0.689326 0.499825
0.000000 0.693385 0.185183
0.000000 0.694820 0.184970
0.000000 0.721065 0.171267
0.151980 0.765774 0.217136
0.495521 0.782284 0.230228
0.866972 0.796902 0.293217
0.949065 0.763912 0.442878
0.983978 0.777523 0.597467
0.000000 0.847166 0.248264
0.000000 0.849729 0.249119
0.000000 0.857450 0.251408
0.000000 0.880369 0.280888
0.439246 0.887297 0.349371
0.756832 0.886503 0.436866
0.949340 0.868345 0.546471
0.978119 0.850187 0.675929
0.135073 0.131594 0.137484
0.133486 0.130861 0.143557
0.209140 0.155367 0.159365
0.537407 0.000000 0.190494
0.781186 0.000000 0.166934
0.908843 0.000000 0.197330
0.984314 0.200900 0.252567
1.000000 0.378119 0.352544
0.132021 0.143893 0.142733
0.130465 0.143832 0.151522
0.215640 0.167147 0.166171
0.536126 0.000000 0.182315
0.771084 0.000000 0.172580
0.903929 0.000000 0.198062
0.981262 0.223453 0.251621
1.000000 0.387182 0.352483
0.120363 0.181613 0.156527
0.115785 0.193545 0.165621
0.238010 0.208042 0.189853
0.534966 0.178744 0.194308
0.769802 0.159884 0.197940
0.901946 0.222721 0.218967
0.978180 0.320745 0.272404
1.000000 0.437934 0.372808
0.093385 0.254368 0.159060
0.081422 0.276280 0.160616
0.161593 0.340063 0.178256
0.527092 0.377478 0.217288
0.766629 0.392523 0.242527
0.897398 0.402380 0.263096
0.972778 0.444038 0.317113
1.000000 0.518517 0.414893
0.000000 0.394354 0.167758
0.000000 0.413519 0.168826
0.000000 0.476967 0.179416
0.365637 0.529534 0.218631
0.746578 0.553216 0.268132
0.886534 0.561425 0.333104
0.962371 0.568170 0.381079
1.000000 0.610620 0.474830
0.000000 0.544121 0.192935
0.000000 0.554070 0.193851
0.000000 0.599908 0.194034
0.263859 0.654536 0.242863
0.659236 0.689448 0.267277
0.874357 0.683467 0.369818
0.949645 0.692805 0.480629
0.993439 0.710964 0.565911
0.000000 0.703578 0.235080
0.000000 0.705928 0.235782
0.000000 0.728695 0.229862
0.000000 0.769528 0.268406
0.467597 0.787930 0.320043
0.854429 0.810727 0.386084
0.940948 0.778653 0.522759
0.976989 0.795773 0.657679
0.000000 0.849760 0.290867
0.000000 0.850492 0.289433
0.000000 0.856840 0.290745
0.000000 0.881407 0.311986
0.441352 0.889189 0.408118
0.732082 0.888365 0.495521
0.940673 0.877958 0.601129
0.972656 0.859190 0.713649
0.095583 0.165316 0.229801
0.090425 0.174197 0.233799
0.158206 0.155489 0.268528
0.398993 0.290867 0.318730
0.713283 0.216922 0.394995
0.883085 0.124147 0.354406
0.967620 0.275669 0.377203
1.000000 0.435431 0.459144
0.079103 0.191226 0.240818
0.070924 0.193790 0.249332
0.150942 0.173922 0.288670
0.407538 0.308598 0.328832
0.714290 0.236942 0.393927
0.881010 0.157687 0.350622
0.965393 0.298863 0.380804
1.000000 0.443915 0.460182
0.000000 0.242069 0.256382
0.000000 0.249821 0.267918
0.092103 0.252262 0.313420
0.426123 0.356542 0.353216
0.722896 0.297307 0.386603
0.881102 0.299596 0.372747
0.964874 0.399451 0.418952
1.000000 0.499092 0.488777
0.000000 0.335882 0.284886
0.000000 0.347021 0.291508
0.000000 0.399420 0.336522
0.458747 0.432624 0.397101
0.720516 0.434607 0.404334
0.871244 0.451423 0.415808
0.956237 0.494270 0.449470
1.000000 0.566522 0.521996
0.000000 0.420172 0.268894
0.000000 0.430396 0.271305
0.000000 0.494972 0.289036
0.350866 0.568688 0.367590
0.714260 0.595453 0.449134
0.863737 0.602899 0.486946
0.946532 0.612787 0.513481
0.994079 0.652033 0.577478
0.000000 0.566491 0.274113
0.000000 0.576013 0.277531
0.000000 0.620752 0.277928
0.200870 0.678553 0.347601
0.590265 0.712428 0.439734
0.854765 0.715358 0.522667
0.933013 0.725429 0.597620
0.981018 0.741421 0.652125
0.000000 0.714809 0.304662
0.000000 0.718807 0.306340
0.000000 0.739834 0.309117
0.000000 0.780880 0.340551
0.491585 0.806699 0.452796
0.813657 0.820890 0.521447
0.926116 0.800626 0.628901
0.966735 0.815885 0.722377
0.000000 0.858610 0.364477
0.000000 0.860624 0.364202
0.000000 0.865843 0.359991
0.000000 0.882658 0.359289
0.419318 0.891508 0.485725
0.681086 0.890776 0.576318
0.925536 0.892546 0.671504
0.964538 0.871580 0.761440
0.000000 0.226596 0.360693
0.000000 0.235966 0.363684
0.000000 0.216190 0.405341
0.372839 0.303288 0.434211
0.591760 0.485267 0.521874
0.813687 0.471687 0.599969
0.930205 0.475380 0.589166
0.990570 0.548394 0.613581
0.000000 0.253513 0.368658
0.000000 0.261936 0.372107
0.000000 0.240543 0.415442
0.370550 0.311223 0.448035
0.593927 0.494118 0.526207
0.814511 0.479957 0.600885
0.930449 0.482124 0.588159
0.990509 0.552453 0.613062
0.000000 0.314366 0.385199
0.000000 0.321508 0.391760
0.000000 0.315770 0.432471
0.330755 0.332708 0.487800
0.601221 0.522484 0.540612
0.814481 0.500908 0.597681
0.930480 0.498909 0.579004
0.988983 0.570001 0.613581
0.000000 0.397436 0.406653
0.000000 0.404639 0.409003
0.000000 0.428656 0.452796
0.233005 0.445594 0.517784
0.620722 0.574273 0.573266
0.822934 0.544488 0.596002
0.930663 0.549645 0.583642
0.987182 0.613306 0.627497
0.000000 0.509758 0.439551
0.000000 0.515404 0.440955
0.000000 0.553246 0.476478
0.000000 0.604974 0.537438
0.641169 0.631189 0.609613
0.824216 0.631342 0.612177
0.923064 0.645563 0.624048
0.979400 0.683253 0.663874
0.000000 0.570733 0.405524
0.000000 0.575067 0.405798
0.000000 0.609705 0.421454
0.000000 0.672694 0.456825
0.527459 0.720363 0.553033
0.817990 0.742672 0.654963
0.912139 0.752529 0.694148
0.967987 0.766537 0.724666
0.000000 0.721492 0.429023
0.000000 0.723690 0.427863
0.000000 0.736080 0.423865
0.000000 0.779385 0.414618
0.376928 0.810086 0.508659
0.736416 0.824063 0.638758
0.906279 0.821012 0.719631
0.955718 0.832212 0.775082
0.000000 0.859709 0.444190
0.000000 0.860899 0.443244
0.000000 0.865660 0.439918
0.000000 0.881498 0.436194
0.000000 0.897887 0.473365
0.669917 0.892424 0.654932
0.892393 0.899382 0.734524
0.954681 0.883085 0.803861
0.000000 0.309850 0.511986
0.000000 0.318334 0.513756
0.000000 0.318364 0.533288
0.000000 0.308995 0.602808
0.595178 0.539483 0.614588
0.734401 0.656703 0.701686
0.871183 0.681544 0.767300
0.947936 0.713283 0.786038
0.000000 0.330663 0.512322
0.000000 0.337469 0.513298
0.000000 0.334752 0.535821
0.000000 0.316716 0.599634
0.591699 0.536248 0.617395
0.733272 0.658625 0.701228
0.870848 0.682216 0.766171
0.948058 0.712886 0.784115
0.000000 0.393591 0.528405
0.000000 0.398932 0.528862
0.000000 0.396307 0.554009
0.000000 0.361028 0.608423
0.589715 0.542687 0.645106
0.738888 0.677516 0.712062
0.872831 0.693233 0.768734
0.949645 0.717952 0.782101
0.000000 0.471229 0.548608
0.000000 0.476326 0.548425
0.000000 0.486122 0.573266
0.000000 0.487892 0.627863
0.556451 0.556542 0.688472
0.752407 0.711788 0.734920
0.878569 0.713436 0.774166
0.954101 0.726680 0.777462
0.000000 0.562402 0.569482
0.000000 0.567224 0.570642
0.000000 0.584100 0.588922
0.000000 0.607538 0.636378
0.420600 0.615869 0.694392
0.758358 0.737972 0.748501
0.884520 0.722438 0.762051
0.958740 0.733425 0.762997
0.000000 0.666407 0.599054
0.000000 0.671656 0.601648
0.000000 0.687770 0.611994
0.000000 0.724514 0.652796
0.295811 0.753994 0.703273
0.771695 0.774868 0.772152
0.888670 0.775601 0.774350
0.954955 0.790585 0.790188
0.000000 0.738766 0.586419
0.000000 0.740749 0.585412
0.000000 0.747372 0.581537
0.000000 0.781186 0.596918
0.000000 0.818692 0.620783
0.683558 0.833860 0.723781
0.884733 0.846677 0.806210
0.945403 0.853269 0.830014
0.000000 0.865660 0.605127
0.000000 0.866819 0.603021
0.000000 0.871519 0.595300
0.000000 0.882170 0.580041
0.000000 0.903380 0.540826
0.519707 0.902251 0.650050
0.838224 0.900816 0.795987
0.943664 0.897856 0.849638
0.000000 0.408209 0.669581
0.000000 0.417884 0.674556
0.000000 0.440406 0.677150
0.000000 0.384741 0.713100
0.441047 0.473030 0.759335
0.744442 0.710994 0.766140
0.824491 0.781216 0.819089
0.908415 0.816342 0.868101
0.000000 0.416480 0.659174
0.000000 0.424842 0.663508
0.000000 0.444099 0.667475
0.000000 0.393469 0.702541
0.412970 0.460487 0.750118
0.734401 0.700893 0.755428
0.816678 0.771237 0.809476
0.905516 0.808286 0.861784
0.000000 0.472816 0.678157
0.000000 0.477211 0.678279
0.000000 0.489693 0.679316
0.000000 0.452308 0.710994
0.387243 0.489754 0.757748
0.743343 0.719356 0.766781
0.822568 0.784573 0.818448
0.909545 0.818112 0.867735
0.000000 0.545068 0.697841
0.000000 0.547021 0.695918
0.000000 0.557153 0.694026
0.000000 0.540124 0.723629
0.209323 0.512139 0.762051
0.747127 0.727230 0.790707
0.831815 0.804807 0.832242
0.914366 0.826841 0.872038
0.000000 0.616541 0.702846
0.000000 0.617090 0.700465
0.000000 0.624018 0.698360
0.000000 0.623346 0.718807
0.000000 0.606439 0.754635
0.694850 0.698756 0.798917
0.831357 0.813138 0.834348
0.919249 0.830777 0.870817
0.000000 0.705348 0.720699
0.000000 0.707790 0.721126
0.000000 0.716365 0.722652
0.000000 0.728817 0.737057
0.000000 0.732937 0.766598
0.557092 0.731044 0.808377
0.844266 0.840330 0.853178
0.927733 0.836637 0.866117
0.000000 0.807126 0.752773
0.000000 0.810880 0.754940
0.000000 0.818296 0.756802
0.000000 0.832242 0.762753
0.000000 0.849149 0.783902
0.440131 0.852293 0.814542
0.852903 0.863096 0.867063
0.932311 0.863615 0.868833
0.000000 0.872679 0.746975
0.000000 0.873014 0.745449
0.000000 0.882353 0.748257
0.000000 0.886961 0.738613
0.000000 0.901335 0.730343
0.000000 0.915740 0.735348
0.785794 0.903349 0.829435
0.930541 0.912688 0.891966
0.000000 0.499245 0.801907
0.000000 0.505547 0.803952
0.000000 0.519921 0.802457
0.000000 0.507012 0.813169
0.000000 0.491768 0.837491
0.692073 0.678431 0.848081
0.833310 0.815793 0.856687
0.886046 0.867765 0.894682
0.000000 0.504936 0.796872
0.000000 0.510857 0.798947
0.000000 0.525078 0.798764
0.000000 0.512779 0.807950
0.000000 0.488136 0.832639
0.680903 0.669917 0.845579
0.830442 0.813016 0.853941
0.885130 0.866911 0.893675
0.000000 0.533501 0.797238
0.000000 0.537896 0.798093
0.000000 0.548180 0.795590
0.000000 0.549523 0.809659
0.000000 0.496345 0.829679
0.653864 0.657954 0.846555
0.831266 0.817350 0.855711
0.885496 0.868986 0.894560
0.000000 0.578058 0.804105
0.000000 0.582605 0.805661
0.000000 0.592493 0.804593
0.000000 0.605554 0.810056
0.000000 0.554925 0.829770
0.594720 0.643793 0.853330
0.836942 0.829862 0.863340
0.887724 0.874510 0.897887
0.000000 0.645808 0.809873
0.000000 0.648615 0.811643
0.000000 0.650629 0.810758
0.000000 0.654505 0.812009
0.000000 0.634485 0.825071
0.392340 0.613489 0.848753
0.834012 0.829862 0.869963
0.890013 0.881071 0.901610
0.000000 0.726223 0.819913
0.000000 0.725551 0.818357
0.000000 0.725460 0.815549
0.000000 0.728176 0.814847
0.000000 0.725643 0.821530
0.000000 0.696498 0.849363
0.806271 0.815396 0.883330
0.895506 0.892821 0.909239
0.000000 0.815732 0.837675
0.000000 0.815579 0.836759
0.000000 0.816251 0.834745
0.000000 0.821530 0.835233
0.000000 0.829862 0.836484
0.000000 0.822538 0.854795
0.655421 0.812253 0.884642
0.899199 0.903471 0.915160
0.000000 0.902861 0.858061
0.000000 0.902983 0.857359
0.000000 0.906584 0.857816
0.000000 0.916594 0.861967
0.000000 0.930694 0.866850
0.000000 0.947570 0.880827
0.537682 0.926268 0.893889
0.906859 0.920714 0.925963
