data/fiter_cube/52608991/1023029/file.cube
# Created by Adobe Lightroom plugin Export LUT (1.17.0)
# www.johnrellis.com/lightroom/exportlut.htm
# Preset: 大神蓝橙街拍_09 云集
# Color profile: C:\Program Files (x86)\Common Files\Adobe\Color\Profiles\Recommended\AdobeRGB1998.icc
LUT_3D_SIZE 32
DOMAIN_MIN 0.0 0.0 0.0
DOMAIN_MAX 1.0 1.0 1.0
0.121706 0.121706 0.121706
0.121706 0.121706 0.121706
0.122164 0.121614 0.121675
0.138766 0.119417 0.122164
0.162142 0.117922 0.122652
0.186465 0.121187 0.122927
0.211460 0.125338 0.122957
0.237003 0.130220 0.122499
0.263493 0.135348 0.121523
0.290837 0.141787 0.120150
0.319829 0.148836 0.118257
0.350408 0.157168 0.116121
0.382361 0.166690 0.113619
0.415534 0.177462 0.110506
0.450019 0.188724 0.106691
0.485634 0.200656 0.101534
0.534112 0.217105 0.093477
0.583886 0.234592 0.083375
0.628840 0.250767 0.071595
0.671839 0.266270 0.054627
0.711391 0.280613 0.019989
0.747463 0.293858 0.000000
0.779690 0.305516 0.000000
0.808927 0.316258 0.000000
0.835782 0.325628 0.000000
0.861051 0.334539 0.000000
0.885649 0.343114 0.000000
0.909667 0.351629 0.000000
0.933196 0.360052 0.000000
0.956146 0.368811 0.000000
0.978210 0.377722 0.038025
0.998901 0.387091 0.083162
0.121706 0.121706 0.121706
0.121706 0.121706 0.121706
0.122652 0.121523 0.121675
0.139193 0.119356 0.122164
0.162142 0.120912 0.122774
0.186191 0.123934 0.122896
0.210758 0.127932 0.122774
0.235904 0.132326 0.122560
0.262028 0.137514 0.121614
0.289128 0.143618 0.120272
0.317754 0.150515 0.118257
0.347814 0.158602 0.116182
0.379248 0.167788 0.113832
0.412024 0.178256 0.110842
0.445808 0.189212 0.107027
0.480995 0.201144 0.101991
0.528008 0.216800 0.094545
0.575860 0.233371 0.084962
0.619562 0.248905 0.074006
0.662257 0.264317 0.059571
0.702022 0.278569 0.027466
0.738491 0.291691 0.000000
0.771359 0.303563 0.000000
0.801328 0.314244 0.000000
0.828855 0.323888 0.000000
0.854887 0.332952 0.000000
0.880186 0.341650 0.000000
0.904845 0.350439 0.000000
0.928954 0.359045 0.000000
0.952483 0.367681 0.000000
0.975006 0.376715 0.027161
0.996155 0.386084 0.078889
0.121706 0.121706 0.121706
0.121706 0.121706 0.121706
0.123079 0.121462 0.121859
0.139651 0.121767 0.122316
0.162203 0.124605 0.122866
0.185977 0.127779 0.122988
0.210239 0.131167 0.122896
0.235019 0.135561 0.122316
0.260807 0.140444 0.121431
0.287633 0.146212 0.120119
0.316167 0.152895 0.118318
0.346044 0.160983 0.116274
0.377203 0.170230 0.113527
0.409796 0.180301 0.110628
0.443427 0.191012 0.107057
0.478309 0.202487 0.102174
0.524773 0.218143 0.094667
0.571344 0.234043 0.085664
0.614466 0.249302 0.074891
0.656825 0.264286 0.061158
0.697017 0.278508 0.031373
0.733852 0.291752 0.000000
0.767086 0.303624 0.000000
0.797360 0.314183 0.000000
0.825254 0.323827 0.000000
0.851591 0.332769 0.000000
0.877226 0.341833 0.000000
0.902220 0.350439 0.000000
0.926757 0.359106 0.000000
0.950530 0.367864 0.000000
0.973297 0.376806 0.020325
0.994659 0.386145 0.076387
0.122683 0.123354 0.122499
0.123140 0.124300 0.122957
0.125551 0.125063 0.123964
0.141329 0.129458 0.122591
0.163729 0.132815 0.122866
0.187015 0.135500 0.123018
0.210666 0.138613 0.122957
0.235233 0.142428 0.122225
0.260594 0.147005 0.121340
0.287144 0.152438 0.119905
0.315190 0.158846 0.118105
0.344732 0.166629 0.115908
0.375372 0.175357 0.113466
0.407660 0.185061 0.110384
0.440955 0.195254 0.106722
0.475593 0.206424 0.102144
0.521538 0.221897 0.094728
0.566339 0.236973 0.085817
0.607843 0.251438 0.075959
0.648981 0.265721 0.062654
0.688685 0.279576 0.036652
0.725673 0.292424 0.001221
0.759915 0.304326 0.000000
0.791684 0.315373 0.000000
0.821286 0.325536 0.000000
0.849241 0.334844 0.000000
0.875944 0.344060 0.000000
0.901640 0.352911 0.000000
0.926329 0.361334 0.000000
0.950072 0.369940 0.000000
0.972564 0.378668 0.017182
0.993622 0.387610 0.074434
0.126406 0.130770 0.125521
0.127077 0.131594 0.125978
0.130159 0.130434 0.129091
0.140230 0.135592 0.125093
0.163851 0.142153 0.123110
0.187503 0.146365 0.123079
0.210605 0.148836 0.123079
0.234592 0.152224 0.122194
0.259525 0.155978 0.121035
0.285496 0.161166 0.119814
0.313054 0.167117 0.117891
0.342321 0.174350 0.115541
0.372656 0.182742 0.113130
0.404669 0.191867 0.110140
0.437995 0.201938 0.106416
0.472969 0.212924 0.101564
0.519554 0.228153 0.094209
0.563622 0.242863 0.085451
0.604974 0.256901 0.075288
0.645655 0.270848 0.062104
0.684779 0.284184 0.035431
0.721675 0.296696 0.000580
0.755917 0.308354 0.000000
0.788083 0.319127 0.000000
0.818173 0.329046 0.000000
0.846616 0.338628 0.000000
0.873686 0.347478 0.000000
0.899535 0.356085 0.000000
0.924407 0.364599 0.000000
0.948211 0.372900 0.000000
0.970916 0.381292 0.010010
0.992187 0.390021 0.071687
0.131014 0.138216 0.129305
0.133150 0.137850 0.130709
0.135958 0.136599 0.133333
0.141756 0.139742 0.132906
0.161166 0.149325 0.124758
0.187411 0.156161 0.123384
0.212467 0.161318 0.122774
0.235874 0.164645 0.121889
0.260258 0.168032 0.120943
0.286046 0.172671 0.119173
0.313146 0.178317 0.117250
0.342168 0.185000 0.114900
0.372320 0.192905 0.112459
0.404059 0.201694 0.109255
0.437324 0.211185 0.105531
0.474647 0.222782 0.100465
0.519890 0.237430 0.092958
0.563165 0.251804 0.084108
0.604395 0.265507 0.073671
0.645380 0.278965 0.060395
0.684962 0.292271 0.028016
0.722347 0.304631 0.000000
0.804959 0.335973 0.000000
0.832792 0.344976 0.000000
0.858305 0.352880 0.000000
0.882139 0.360418 0.000000
0.904692 0.367468 0.000000
0.926452 0.374395 0.000000
0.947509 0.381353 0.000000
0.967956 0.388495 0.000000
0.987304 0.395727 0.062806
1.000000 0.403357 0.094575
0.138888 0.147005 0.134768
0.141512 0.145876 0.136477
0.143374 0.144472 0.139040
0.146426 0.145418 0.141299
0.162600 0.155154 0.133944
0.188876 0.167575 0.123537
0.216953 0.174350 0.122316
0.243687 0.180301 0.121035
0.268254 0.185092 0.119966
0.294560 0.189731 0.117952
0.322576 0.195224 0.115602
0.352178 0.201785 0.112978
0.382757 0.209476 0.110262
0.414649 0.217777 0.106966
0.447700 0.226902 0.102693
0.488930 0.239811 0.096559
0.534813 0.254612 0.088045
0.578027 0.268559 0.078248
0.620081 0.282078 0.066041
0.662684 0.296178 0.040772
0.704616 0.310185 0.000763
0.745205 0.323552 0.000000
0.783139 0.336004 0.000000
0.817685 0.347082 0.000000
0.848478 0.356970 0.000000
0.875364 0.365148 0.000000
0.899626 0.372625 0.000000
0.922179 0.379431 0.000000
0.943847 0.386145 0.000000
0.964477 0.392920 0.000000
0.984161 0.399756 0.055207
1.000000 0.407019 0.089815
0.147372 0.154513 0.140627
0.149142 0.153079 0.142306
0.150515 0.151675 0.144778
0.150240 0.150088 0.149355
0.164523 0.159457 0.142550
0.183719 0.169833 0.132876
0.213260 0.183261 0.122316
0.241794 0.190524 0.120333
0.269688 0.197024 0.118746
0.295171 0.202731 0.116945
0.322667 0.209567 0.114534
0.351690 0.215579 0.111940
0.382086 0.222660 0.108980
0.413581 0.230686 0.105653
0.446357 0.239322 0.101595
0.489601 0.252873 0.094636
0.533013 0.266606 0.086549
0.574456 0.279606 0.076509
0.615351 0.292302 0.064149
0.657282 0.305730 0.037049
0.698817 0.319158 0.000000
0.739132 0.331914 0.000000
0.777005 0.343908 0.000000
0.811673 0.354803 0.000000
0.842741 0.364080 0.000000
0.870085 0.372137 0.000000
0.894835 0.379126 0.000000
0.917937 0.385626 0.000000
0.940093 0.392157 0.000000
0.961181 0.398566 0.000000
0.981262 0.405188 0.044007
0.999939 0.412146 0.085542
0.156497 0.164736 0.148196
0.158145 0.163424 0.149783
0.159548 0.161807 0.151827
0.158999 0.158907 0.156283
0.167880 0.164797 0.152346
0.185336 0.174899 0.142702
0.207126 0.186038 0.130892
0.239384 0.200381 0.120180
0.268406 0.207980 0.117311
0.297795 0.215610 0.115023
0.324865 0.222202 0.112734
0.353399 0.229953 0.110353
0.383307 0.237919 0.107515
0.414649 0.245457 0.103883
0.450965 0.255589 0.098878
0.492500 0.268345 0.092134
0.533989 0.280919 0.083619
0.574243 0.293156 0.073426
0.614099 0.305211 0.060700
0.655421 0.317937 0.028260
0.696437 0.330724 0.000000
0.736263 0.343053 0.000000
0.773770 0.354467 0.000000
0.808225 0.364721 0.000000
0.839231 0.373510 0.000000
0.866758 0.381018 0.000000
0.891752 0.387701 0.000000
0.915068 0.393805 0.000000
0.937407 0.399786 0.000000
0.958618 0.405890 0.000000
0.978820 0.411994 0.032807
0.997681 0.418494 0.081910
0.166018 0.175570 0.155886
0.167575 0.174472 0.157229
0.168765 0.172732 0.159182
0.169314 0.169467 0.163149
0.171572 0.170291 0.164645
0.187961 0.180575 0.155184
0.207919 0.191501 0.142702
0.232090 0.203281 0.127535
0.266331 0.218326 0.116732
0.296025 0.226444 0.113222
0.326787 0.235050 0.110475
0.354955 0.242344 0.108034
0.384558 0.250767 0.105440
0.415625 0.260258 0.101839
0.455909 0.273045 0.096101
0.496712 0.285466 0.088685
0.538048 0.297826 0.079744
0.578271 0.309697 0.068513
0.617823 0.321416 0.051179
0.657984 0.333318 0.014313
0.697200 0.344976 0.000000
0.734859 0.355810 0.000000
0.770352 0.365972 0.000000
0.803311 0.374975 0.000000
0.833646 0.383093 0.000000
0.861265 0.390143 0.000000
0.886900 0.396399 0.000000
0.911131 0.402472 0.000000
0.934295 0.408301 0.000000
0.956390 0.414160 0.000000
0.977234 0.420264 0.023377
0.996612 0.426581 0.080568
0.175113 0.186252 0.163241
0.176425 0.185122 0.164523
0.178012 0.183566 0.166201
0.179141 0.180423 0.169986
0.176455 0.176333 0.175692
0.190585 0.185977 0.167971
0.209873 0.197421 0.156680
0.232242 0.209354 0.142306
0.261906 0.224399 0.122469
0.295140 0.237583 0.111940
0.326024 0.246403 0.107729
0.357977 0.256168 0.104799
0.387182 0.264164 0.102296
0.422339 0.275761 0.098177
0.460578 0.289158 0.092500
0.499733 0.302770 0.085389
0.539635 0.314397 0.075593
0.578729 0.325536 0.063874
0.617395 0.336492 0.039887
0.656855 0.347906 0.000000
0.695552 0.358892 0.000000
0.732906 0.369390 0.000000
0.768338 0.379004 0.000000
0.801266 0.387640 0.000000
0.831510 0.395087 0.000000
0.859007 0.401587 0.000000
0.884489 0.407355 0.000000
0.908598 0.412726 0.000000
0.931731 0.418189 0.000000
0.953887 0.423529 0.000000
0.974914 0.429084 0.012573
0.994537 0.434974 0.076387
0.184787 0.197574 0.170809
0.185977 0.196750 0.172000
0.187503 0.195071 0.173617
0.189029 0.191958 0.177096
0.187961 0.187686 0.182559
0.193973 0.191379 0.181003
0.212131 0.203067 0.170565
0.233860 0.215518 0.157076
0.258732 0.228458 0.139773
0.294377 0.247623 0.115389
0.326299 0.258854 0.105959
0.358373 0.268528 0.101167
0.415351 0.294530 0.093080
0.458228 0.310491 0.086030
0.501457 0.326146 0.077150
0.543847 0.341192 0.065309
0.584039 0.354742 0.044953
0.622370 0.366247 0.007599
0.659388 0.375586 0.000000
0.695308 0.384283 0.000000
0.729702 0.392462 0.000000
0.762509 0.400092 0.000000
0.793240 0.406806 0.000000
0.822110 0.412818 0.000000
0.848936 0.418036 0.000000
0.873838 0.422919 0.000000
0.897093 0.427039 0.000000
0.919127 0.430976 0.000000
0.940337 0.435004 0.000000
0.960815 0.439155 0.000000
0.980285 0.443671 0.033631
0.998657 0.448585 0.085145
0.196994 0.212467 0.180270
0.198306 0.211185 0.181430
0.199619 0.209537 0.182956
0.201266 0.205997 0.186160
0.200870 0.201175 0.191043
0.198703 0.198154 0.195346
0.216373 0.210086 0.185458
0.237278 0.222965 0.172763
0.261784 0.236637 0.156680
0.289891 0.251194 0.135958
0.333135 0.275944 0.105776
0.366369 0.286748 0.097780
0.410925 0.304814 0.088899
0.458808 0.324346 0.080293
0.501640 0.340063 0.070924
0.543389 0.354803 0.056550
0.582818 0.367803 0.026154
0.619989 0.379644 0.000000
0.656062 0.390967 0.000000
0.691218 0.399390 0.000000
0.725154 0.406989 0.000000
0.757687 0.413977 0.000000
0.788235 0.420233 0.000000
0.816983 0.425757 0.000000
0.843870 0.430549 0.000000
0.868894 0.434791 0.000000
0.892393 0.438544 0.000000
0.914763 0.442115 0.000000
0.936370 0.445716 0.000000
0.957305 0.449561 0.000000
0.977264 0.453712 0.019104
0.996124 0.458320 0.080964
0.206394 0.223697 0.187411
0.207614 0.222568 0.188510
0.208865 0.220920 0.189883
0.210819 0.217533 0.193057
0.211093 0.212711 0.197635
0.207523 0.207034 0.203708
0.218357 0.214542 0.198550
0.238376 0.227451 0.187045
0.261753 0.241489 0.172519
0.288792 0.256443 0.154177
0.319585 0.272801 0.130404
0.371252 0.303044 0.098390
0.412207 0.319097 0.086732
0.456703 0.336675 0.073243
0.503441 0.355169 0.061311
0.543938 0.369024 0.036164
0.581720 0.381109 0.005798
0.617823 0.392309 0.000000
0.653437 0.402991 0.000000
0.687892 0.413397 0.000000
0.721523 0.422339 0.000000
0.754055 0.429053 0.000000
0.784573 0.434943 0.000000
0.813535 0.440040 0.000000
0.840513 0.444495 0.000000
0.865721 0.448280 0.000000
0.889433 0.451575 0.000000
0.912016 0.454749 0.000000
0.933898 0.457954 0.000000
0.955108 0.461463 0.000000
0.975372 0.465278 0.008209
0.994537 0.469429 0.078431
0.216068 0.235355 0.194766
0.217227 0.234226 0.195834
0.218448 0.232670 0.197147
0.220340 0.229191 0.200107
0.221317 0.224460 0.204501
0.219089 0.218631 0.210239
0.220554 0.218875 0.211582
0.239719 0.231968 0.201236
0.262303 0.246159 0.188022
0.288273 0.261479 0.171756
0.321172 0.280705 0.151553
0.361975 0.304570 0.123293
0.415167 0.334661 0.088624
0.456977 0.350652 0.072267
0.501091 0.367742 0.043214
0.545190 0.384161 0.008057
0.582666 0.395911 0.000000
0.617762 0.406287 0.000000
0.652430 0.416358 0.000000
0.686305 0.426123 0.000000
0.719203 0.435462 0.000000
0.750912 0.444373 0.000000
0.781216 0.450050 0.000000
0.810117 0.454810 0.000000
0.837339 0.458930 0.000000
0.863066 0.462501 0.000000
0.887602 0.465797 0.000000
0.911101 0.469093 0.000000
0.933898 0.472267 0.000000
0.955810 0.475746 0.000000
0.976654 0.479500 0.013703
0.996124 0.483528 0.083314
0.225986 0.247318 0.202426
0.227237 0.246036 0.203586
0.228367 0.244572 0.204837
0.230472 0.241459 0.207614
0.231937 0.237003 0.211917
0.230930 0.231296 0.217502
0.225498 0.225315 0.224277
0.242466 0.237308 0.215854
0.265171 0.252445 0.204349
0.292515 0.270054 0.190951
0.324163 0.289372 0.172732
0.360235 0.310460 0.148714
0.407477 0.338781 0.112428
0.458259 0.365423 0.074464
0.498939 0.380285 0.042267
0.540429 0.395331 0.000000
0.581323 0.409552 0.000000
0.617487 0.420386 0.000000
0.652399 0.430518 0.000000
0.686580 0.440284 0.000000
0.719844 0.449683 0.000000
0.751827 0.458412 0.000000
0.782101 0.466407 0.000000
0.810941 0.472297 0.000000
0.838254 0.476143 0.000000
0.864134 0.479316 0.000000
0.888731 0.482216 0.000000
0.912261 0.485145 0.000000
0.934844 0.487831 0.000000
0.956451 0.490608 0.000000
0.976806 0.493599 0.012818
0.995819 0.496956 0.083955
0.235996 0.258854 0.210422
0.237003 0.257755 0.211185
0.238163 0.256443 0.212497
0.240177 0.253330 0.215183
0.241947 0.248905 0.219211
0.241764 0.243320 0.224491
0.238468 0.237736 0.231327
0.245762 0.242985 0.230838
0.268132 0.258732 0.221134
0.294377 0.276097 0.208591
0.324529 0.295079 0.192569
0.358740 0.315831 0.171481
0.397436 0.338476 0.143099
0.451820 0.372045 0.096376
0.499519 0.394873 0.049653
0.538781 0.408545 0.000000
0.577966 0.421637 0.000000
0.616663 0.434272 0.000000
0.652033 0.444648 0.000000
0.685481 0.453742 0.000000
0.718257 0.462654 0.000000
0.749783 0.470893 0.000000
0.779965 0.478492 0.000000
0.808713 0.485664 0.000000
0.836027 0.491798 0.000000
0.862119 0.494911 0.000000
0.887144 0.497566 0.000000
0.911070 0.500145 0.000000
0.933959 0.502678 0.000000
0.955840 0.505211 0.000000
0.976471 0.507958 0.011994
0.995666 0.510918 0.085634
0.246921 0.271824 0.219120
0.248173 0.270878 0.220218
0.254520 0.275700 0.225589
0.257053 0.272953 0.228611
0.259709 0.269322 0.233158
0.260960 0.264378 0.238987
0.258946 0.258579 0.246128
0.255680 0.255009 0.252110
0.278508 0.271611 0.242771
0.304997 0.289830 0.231083
0.335546 0.309819 0.216037
0.370123 0.331579 0.196597
0.408667 0.354864 0.171115
0.451484 0.380011 0.135134
0.515435 0.420630 0.062623
0.558068 0.437446 0.000000
0.595514 0.449012 0.000000
0.632349 0.459968 0.000000
0.667659 0.469856 0.000000
0.699763 0.477729 0.000000
0.730007 0.484504 0.000000
0.759792 0.491279 0.000000
0.788357 0.497536 0.000000
0.815518 0.503258 0.000000
0.840787 0.508141 0.000000
0.864836 0.512718 0.000000
0.888151 0.514916 0.000000
0.910948 0.516411 0.000000
0.933318 0.518151 0.000000
0.955047 0.520195 0.000000
0.975708 0.522423 0.009308
0.994842 0.524956 0.085481
0.262455 0.290043 0.231418
0.264347 0.289952 0.232944
0.266545 0.289708 0.234928
0.269596 0.288121 0.238285
0.272557 0.284489 0.242832
0.274113 0.279576 0.248447
0.272862 0.273350 0.254948
0.267185 0.266606 0.262364
0.280522 0.276280 0.258000
0.305669 0.294011 0.247288
0.334752 0.313573 0.233463
0.367590 0.334874 0.216342
0.404334 0.357671 0.194156
0.444923 0.382177 0.164706
0.490486 0.409064 0.121920
0.556970 0.451637 0.000000
0.593194 0.462226 0.000000
0.628962 0.472541 0.000000
0.663996 0.482185 0.000000
0.697108 0.490639 0.000000
0.728054 0.497749 0.000000
0.757931 0.504417 0.000000
0.786770 0.510582 0.000000
0.814145 0.516167 0.000000
0.839811 0.521050 0.000000
0.864195 0.525475 0.000000
0.887572 0.529625 0.000000
0.910369 0.532555 0.000000
0.932830 0.534051 0.000000
0.954559 0.535729 0.000000
0.975219 0.537530 0.006470
0.994354 0.539605 0.087007
0.275425 0.305272 0.241428
0.277317 0.305364 0.243046
0.279515 0.305394 0.244968
0.282383 0.303563 0.248112
0.285466 0.300023 0.252445
0.287022 0.294713 0.257511
0.286229 0.288090 0.263615
0.281682 0.280858 0.270451
0.282597 0.280766 0.272862
0.306737 0.298222 0.262821
0.334691 0.317601 0.250401
0.366339 0.338598 0.234958
0.401617 0.361181 0.215488
0.440650 0.385473 0.190280
0.483558 0.411231 0.156130
0.535058 0.442542 0.101472
0.594934 0.478553 0.000000
0.630060 0.488136 0.000000
0.663966 0.497169 0.000000
0.696864 0.505180 0.000000
0.727840 0.512200 0.000000
0.757626 0.518639 0.000000
0.786465 0.524620 0.000000
0.813809 0.529961 0.000000
0.839445 0.534478 0.000000
0.863767 0.538476 0.000000
0.886992 0.542321 0.000000
0.909606 0.546166 0.000000
0.931762 0.549859 0.000000
0.953429 0.551110 0.000000
0.974090 0.552544 0.003479
0.993317 0.554223 0.087587
0.288182 0.320470 0.251255
0.290166 0.320775 0.252842
0.292332 0.320745 0.254765
0.295201 0.318975 0.257847
0.298192 0.315312 0.261875
0.299962 0.310002 0.266728
0.299443 0.303105 0.272313
0.295811 0.295354 0.278660
0.287724 0.287449 0.285985
0.308110 0.302312 0.278050
0.334936 0.321386 0.266514
0.365332 0.342107 0.252476
0.399390 0.364508 0.234958
0.437232 0.388647 0.212924
0.479072 0.414588 0.184268
0.524346 0.441962 0.144442
0.581445 0.477546 0.069673
0.637049 0.508629 0.000000
0.672084 0.518090 0.000000
0.705715 0.526696 0.000000
0.738033 0.534112 0.000000
0.768063 0.540459 0.000000
0.796323 0.545800 0.000000
0.823941 0.550958 0.000000
0.849760 0.555230 0.000000
0.873869 0.558892 0.000000
0.896849 0.562158 0.000000
0.918914 0.565393 0.000000
0.940307 0.568811 0.000000
0.960815 0.572412 0.000000
0.980407 0.573388 0.050843
0.998657 0.574426 0.105104
0.306218 0.342107 0.264927
0.307561 0.341650 0.266056
0.308995 0.340978 0.267460
0.311254 0.338384 0.269902
0.313725 0.334051 0.273411
0.315251 0.327977 0.277806
0.315099 0.320775 0.283177
0.312261 0.312902 0.289433
0.305638 0.304570 0.296513
0.312566 0.309545 0.295903
0.339574 0.329137 0.285435
0.370062 0.350500 0.272496
0.404211 0.373632 0.256352
0.442023 0.398413 0.236301
0.483680 0.424964 0.210758
0.528588 0.452888 0.177005
0.574823 0.480568 0.129244
0.636194 0.519249 0.000000
0.683223 0.542046 0.000000
0.714961 0.548730 0.000000
0.745144 0.554498 0.000000
0.773587 0.559136 0.000000
0.799771 0.562799 0.000000
0.824399 0.565759 0.000000
0.849638 0.569390 0.000000
0.873655 0.572656 0.000000
0.896635 0.575647 0.000000
0.918761 0.578637 0.000000
0.940185 0.581689 0.000000
0.960540 0.584863 0.000000
0.979706 0.588251 0.050752
0.997925 0.589960 0.107820
0.320226 0.358740 0.275273
0.321569 0.358587 0.276524
0.323095 0.357824 0.277867
0.325322 0.355230 0.280278
0.327611 0.350896 0.283696
0.329229 0.344762 0.287785
0.329290 0.337346 0.292790
0.326970 0.329137 0.298680
0.321172 0.320165 0.305394
0.314580 0.313939 0.311192
0.340734 0.333440 0.301640
0.370581 0.354711 0.289830
0.404059 0.377905 0.275059
0.441260 0.402991 0.257023
0.482490 0.430030 0.234165
0.526970 0.458381 0.205173
0.572930 0.486763 0.166751
0.620111 0.514824 0.107271
0.682948 0.554620 0.000000
0.722316 0.569909 0.000000
0.752102 0.575067 0.000000
0.780484 0.579278 0.000000
0.806882 0.582452 0.000000
0.830991 0.584771 0.000000
0.847257 0.582086 0.000000
0.871183 0.585046 0.000000
0.894316 0.587823 0.000000
0.916564 0.590570 0.000000
0.938018 0.593378 0.000000
0.958587 0.596307 0.000000
0.978058 0.599512 0.029023
0.996460 0.603357 0.106752
0.340063 0.382727 0.290043
0.341558 0.382635 0.291356
0.343023 0.381872 0.292760
0.344884 0.378882 0.294835
0.346868 0.373785 0.297887
0.348119 0.367193 0.301610
0.348150 0.359014 0.306218
0.345800 0.349828 0.311589
0.340398 0.339940 0.317754
0.330602 0.329778 0.324529
0.344945 0.340337 0.319951
0.373968 0.361425 0.308598
0.406683 0.384436 0.294713
0.442725 0.409094 0.277653
0.482429 0.435523 0.256657
0.524865 0.462959 0.230503
0.568872 0.490578 0.197543
0.614343 0.518090 0.152926
0.663386 0.547356 0.072419
0.721859 0.583856 0.000000
0.755001 0.592645 0.000000
0.783078 0.596551 0.000000
0.808896 0.598993 0.000000
0.832395 0.600183 0.000000
0.853361 0.600549 0.000000
0.872770 0.600275 0.000000
0.895262 0.602380 0.000000
0.916869 0.604395 0.000000
0.937835 0.606561 0.000000
0.958099 0.608972 0.000000
0.977508 0.611810 0.012848
0.995941 0.615320 0.105104
0.355016 0.401007 0.300938
0.356664 0.401190 0.302281
0.358099 0.400214 0.303655
0.359960 0.397375 0.305760
0.361852 0.392157 0.308690
0.363348 0.385565 0.312413
0.363592 0.377417 0.316930
0.361975 0.368261 0.322210
0.357580 0.358282 0.328435
0.349279 0.347875 0.335393
0.348486 0.346563 0.337865
0.377752 0.368292 0.327703
0.410651 0.392096 0.315190
0.447272 0.417823 0.299626
0.487648 0.445350 0.280278
0.530327 0.473732 0.256565
0.574578 0.502068 0.227085
0.620233 0.530480 0.189303
0.665339 0.557366 0.136721
0.714992 0.586816 0.000000
0.767086 0.617884 0.000000
0.794064 0.620508 0.000000
0.819150 0.621942 0.000000
0.842039 0.622217 0.000000
0.862821 0.621607 0.000000
0.881590 0.620508 0.000000
0.898924 0.619043 0.000000
0.920256 0.620600 0.000000
0.940948 0.622309 0.000000
0.960815 0.624231 0.000000
0.979980 0.626673 0.022004
0.997986 0.629755 0.111330
0.373724 0.423804 0.314427
0.375097 0.423529 0.315587
0.376165 0.422278 0.316686
0.377722 0.419043 0.318517
0.379309 0.413703 0.321111
0.380591 0.406470 0.324559
0.380835 0.397864 0.328862
0.379431 0.388342 0.334020
0.375586 0.378058 0.340032
0.368536 0.367346 0.346868
0.356939 0.356451 0.354376
0.381720 0.375250 0.346990
0.414832 0.399664 0.335485
0.451759 0.426184 0.321263
0.492195 0.454383 0.303410
0.534783 0.483253 0.281621
0.578668 0.511955 0.255039
0.623835 0.540673 0.222080
0.668269 0.567559 0.179355
0.710658 0.591882 0.116213
0.759487 0.620508 0.000000
0.802792 0.643122 0.000000
0.827176 0.643641 0.000000
0.849607 0.643183 0.000000
0.870054 0.641718 0.000000
0.888640 0.639734 0.000000
0.905608 0.637598 0.000000
0.921263 0.635218 0.000000
0.941161 0.636164 0.000000
0.960815 0.637568 0.000000
0.979889 0.639673 0.004883
0.997620 0.642267 0.109590
0.392096 0.446357 0.327459
0.393194 0.445747 0.328435
0.394324 0.444556 0.329534
0.395941 0.441474 0.331395
0.397925 0.436316 0.334356
0.399908 0.429877 0.338231
0.401617 0.422583 0.343481
0.402075 0.414191 0.349798
0.400488 0.405097 0.357336
0.395941 0.395544 0.365881
0.386969 0.385504 0.375219
0.396399 0.392706 0.376532
0.432685 0.420325 0.367041
0.473426 0.450477 0.354253
0.516686 0.481544 0.337957
0.560967 0.512230 0.317418
0.606348 0.542535 0.292302
0.651240 0.571313 0.261631
0.694209 0.597436 0.224125
0.734768 0.620539 0.175082
0.772732 0.640528 0.095949
0.817807 0.665766 0.000000
0.851682 0.678981 0.000000
0.872374 0.676448 0.000000
0.891325 0.673243 0.000000
0.908629 0.669551 0.000000
0.924498 0.665705 0.000000
0.938964 0.661982 0.000000
0.952361 0.658350 0.000000
0.969787 0.658167 0.000000
0.987427 0.659266 0.064271
1.000000 0.660822 0.130282
0.424659 0.485725 0.351049
0.425635 0.485054 0.351904
0.426459 0.483619 0.352789
0.427802 0.479774 0.354498
0.429603 0.474220 0.357183
0.431220 0.466773 0.360815
0.432441 0.458198 0.365606
0.432349 0.448310 0.371466
0.430365 0.437690 0.378424
0.425513 0.426490 0.386450
0.416388 0.414618 0.395087
0.406500 0.405859 0.402930
0.442817 0.433692 0.393500
0.483284 0.463905 0.381201
