data/fiter_cube/52608991/1023029/file.cube
# Created by Adobe Lightroom plugin Export LUT (1.17.0)
# www.johnrellis.com/lightroom/exportlut.htm
# Preset: 大神蓝橙街拍_09 云集
# Color profile: C:\Program Files (x86)\Common Files\Adobe\Color\Profiles\Recommended\AdobeRGB1998.icc
LUT_3D_SIZE 5
DOMAIN_MIN 0.000000 0.000000 0.000000
DOMAIN_MAX 0.903226 0.903226 0.903226
0.121706 0.121706 0.121706
0.237003 0.130220 0.122499
0.450019 0.188724 0.106691
0.747463 0.293858 0.000000
0.933196 0.360052 0.000000
0.147372 0.154513 0.140627
0.241794 0.190524 0.120333
0.446357 0.239322 0.101595
0.739132 0.331914 0.000000
0.940093 0.392157 0.000000
0.216068 0.235355 0.194766
0.239719 0.231968 0.201236
0.501091 0.367742 0.043214
0.750912 0.444373 0.000000
0.933898 0.472267 0.000000
0.306218 0.342107 0.264927
0.312261 0.312902 0.289433
0.483680 0.424964 0.210758
0.773587 0.559136 0.000000
0.940185 0.581689 0.000000
0.449317 0.515557 0.369116
0.459663 0.479805 0.390723
0.519921 0.493812 0.383429
0.811826 0.679408 0.156374
0.964782 0.694911 0.000000
0.088045 0.132052 0.216983
0.209537 0.153323 0.214176
0.430671 0.207645 0.154482
0.703456 0.318273 0.038148
0.915587 0.374884 0.000000
0.091371 0.186709 0.228305
0.216037 0.216037 0.216037
0.440650 0.255222 0.164889
0.705531 0.347662 0.036988
0.917662 0.400824 0.000000
0.130434 0.303288 0.243961
0.257359 0.274174 0.239109
0.475380 0.359655 0.143099
0.722133 0.439002 0.040711
0.925597 0.480903 0.000000
0.254520 0.412757 0.258274
0.342168 0.377813 0.301640
0.471870 0.427405 0.267826
0.767971 0.561364 0.000000
0.936614 0.585748 0.000000
0.429969 0.580499 0.371649
0.473182 0.538537 0.395178
0.509239 0.495644 0.436408
0.812192 0.687861 0.228428
0.966674 0.700984 0.000000
0.000000 0.194919 0.403601
0.000000 0.185306 0.413550
0.399756 0.196933 0.413733
0.699886 0.281010 0.316930
0.913390 0.380194 0.216983
0.000000 0.236210 0.418494
0.000000 0.231357 0.422309
0.403143 0.246006 0.415137
0.697627 0.328222 0.322789
0.916442 0.404364 0.213169
0.000000 0.336156 0.447364
0.000000 0.346227 0.447608
0.410163 0.410163 0.410163
0.709621 0.449317 0.338720
0.921660 0.482124 0.208408
0.000000 0.527733 0.524254
0.000000 0.558099 0.533501
0.453803 0.482155 0.423224
0.753750 0.579492 0.276738
0.928710 0.594049 0.219425
0.000000 0.727810 0.546014
0.203647 0.715572 0.495491
0.553246 0.609888 0.488624
0.763485 0.683558 0.414527
0.957031 0.708858 0.166232
0.000000 0.294072 0.654719
0.000000 0.284459 0.664118
0.110140 0.253239 0.674006
0.632502 0.280949 0.656001
0.878355 0.506279 0.595239
0.000000 0.321416 0.661891
0.000000 0.312749 0.666163
0.000000 0.270268 0.672084
0.629603 0.318425 0.651362
0.874388 0.524712 0.594720
0.000000 0.394659 0.672572
0.000000 0.392950 0.674525
0.000000 0.384924 0.674830
0.632349 0.441138 0.647883
0.881651 0.573877 0.589075
0.000000 0.517174 0.702296
0.000000 0.520378 0.699733
0.000000 0.545434 0.695735
0.653132 0.652979 0.653071
0.901244 0.649195 0.558068
0.000000 0.700526 0.762600
0.000000 0.713771 0.761990
0.000000 0.785977 0.776669
0.685145 0.713741 0.654963
0.931182 0.754452 0.494911
0.000000 0.370062 0.858396
0.000000 0.367681 0.859037
0.000000 0.343542 0.862913
0.460945 0.431037 0.857939
0.824369 0.556085 0.845701
0.000000 0.388861 0.858183
0.000000 0.384436 0.859159
0.000000 0.365179 0.862669
0.460792 0.452277 0.857023
0.825376 0.575799 0.845609
0.000000 0.439155 0.862089
0.000000 0.435920 0.862303
0.000000 0.422766 0.864805
0.439887 0.506432 0.859220
0.830533 0.637171 0.846952
0.000000 0.529320 0.871153
0.000000 0.527428 0.871061
0.000000 0.521538 0.872465
0.318334 0.560815 0.871092
0.840848 0.734035 0.850614
0.000000 0.643519 0.883207
0.000000 0.646387 0.883360
0.000000 0.662623 0.885679
0.391821 0.728023 0.880827
0.853239 0.853239 0.853239
