data/fiter_cube/52608991/1023029/file.cube
# Created by Adobe Lightroom plugin Export LUT (1.17.0)
# www.johnrellis.com/lightroom/exportlut.htm
# Preset: 大神蓝橙街拍_09 云集
# Color profile: C:\Program Files (x86)\Common Files\Adobe\Color\Profiles\Recommended\AdobeRGB1998.icc
LUT_3D_SIZE 8
DOMAIN_MIN 0.000000 0.000000 0.000000
DOMAIN_MAX 0.903226 0.903226 0.903226
0.121706 0.121706 0.121706
0.162142 0.117922 0.122652
0.263493 0.135348 0.121523
0.382361 0.166690 0.113619
0.534112 0.217105 0.093477
0.711391 0.280613 0.019989
0.835782 0.325628 0.000000
0.933196 0.360052 0.000000
0.126406 0.130770 0.125521
0.163851 0.142153 0.123110
0.259525 0.155978 0.121035
0.372656 0.182742 0.113130
0.519554 0.228153 0.094209
0.684779 0.284184 0.035431
0.818173 0.329046 0.000000
0.924407 0.364599 0.000000
0.156497 0.164736 0.148196
0.167880 0.164797 0.152346
0.268406 0.207980 0.117311
0.383307 0.237919 0.107515
0.533989 0.280919 0.083619
0.696437 0.330724 0.000000
0.839231 0.373510 0.000000
0.937407 0.399786 0.000000
0.196994 0.212467 0.180270
0.200870 0.201175 0.191043
0.261784 0.236637 0.156680
0.410925 0.304814 0.088899
0.582818 0.367803 0.026154
0.725154 0.406989 0.000000
0.843870 0.430549 0.000000
0.936370 0.445716 0.000000
0.235996 0.258854 0.210422
0.241947 0.248905 0.219211
0.268132 0.258732 0.221134
0.397436 0.338476 0.143099
0.577966 0.421637 0.000000
0.718257 0.462654 0.000000
0.836027 0.491798 0.000000
0.933959 0.502678 0.000000
0.288182 0.320470 0.251255
0.298192 0.315312 0.261875
0.287724 0.287449 0.285985
0.399390 0.364508 0.234958
0.581445 0.477546 0.069673
0.738033 0.534112 0.000000
0.849760 0.555230 0.000000
0.940307 0.568811 0.000000
0.355016 0.401007 0.300938
0.361852 0.392157 0.308690
0.357580 0.358282 0.328435
0.410651 0.392096 0.315190
0.574578 0.502068 0.227085
0.767086 0.617884 0.000000
0.862821 0.621607 0.000000
0.940948 0.622309 0.000000
0.449317 0.515557 0.369116
0.454658 0.504295 0.375402
0.458808 0.469459 0.398230
0.456886 0.450965 0.424628
0.610254 0.557946 0.346777
0.776730 0.661219 0.214176
0.906493 0.716732 0.000000
0.964782 0.694911 0.000000
0.117128 0.121065 0.154665
0.149508 0.129335 0.151217
0.249729 0.149783 0.131807
0.363226 0.188144 0.114382
0.507622 0.232914 0.095186
0.668849 0.284977 0.045197
0.807065 0.327947 0.000000
0.915984 0.360510 0.000000
0.112947 0.139376 0.157961
0.153689 0.153689 0.153689
0.251133 0.169528 0.137911
0.362768 0.199954 0.115084
0.503380 0.243046 0.094301
0.658473 0.291630 0.047089
0.794369 0.332128 0.000000
0.906462 0.364111 0.000000
0.131655 0.191928 0.167849
0.179812 0.186069 0.173404
0.264408 0.213199 0.137514
0.372869 0.241398 0.117281
0.509697 0.283574 0.087098
0.665309 0.329870 0.011383
0.805478 0.368444 0.000000
0.916838 0.396063 0.000000
0.175540 0.235904 0.177005
0.210483 0.224643 0.195254
0.258427 0.239963 0.180453
0.395270 0.297673 0.111238
0.534661 0.345098 0.070954
0.677180 0.389624 0.000000
0.808713 0.419562 0.000000
0.916503 0.439918 0.000000
0.230655 0.281682 0.212833
0.246952 0.269169 0.222141
0.262730 0.258030 0.238651
0.385046 0.332372 0.163577
0.551324 0.405249 0.042817
0.692317 0.450782 0.000000
0.818082 0.485359 0.000000
0.921874 0.499153 0.000000
0.283146 0.336492 0.250889
0.294682 0.325963 0.258701
0.296178 0.295445 0.283146
0.385260 0.355810 0.246036
0.564172 0.466377 0.110903
0.729335 0.530266 0.000000
0.841550 0.552789 0.000000
0.932372 0.565606 0.000000
0.344854 0.408331 0.295293
0.351904 0.395636 0.300755
0.357549 0.362097 0.321752
0.394720 0.380468 0.320836
0.560388 0.492836 0.239384
0.753841 0.609308 0.000000
0.849973 0.614405 0.000000
0.930053 0.616083 0.000000
0.438239 0.522026 0.362097
0.447639 0.512169 0.369726
0.459327 0.477028 0.393286
0.440711 0.438636 0.429053
0.618189 0.568475 0.367956
0.778714 0.665522 0.234348
0.903471 0.716152 0.000000
0.960632 0.692836 0.000000
0.068544 0.138979 0.242313
0.088441 0.142672 0.243870
0.233066 0.160220 0.239017
0.365240 0.184756 0.198215
0.523217 0.238346 0.164523
0.680720 0.304814 0.117342
0.815366 0.362707 0.000000
0.922606 0.383948 0.000000
0.070100 0.161257 0.244388
0.103670 0.163546 0.246006
0.233829 0.179873 0.238285
0.361639 0.203403 0.201175
0.513939 0.249485 0.167727
0.670527 0.310521 0.117830
0.806638 0.366430 0.000000
0.917906 0.388983 0.000000
0.073152 0.203952 0.254704
0.114321 0.210452 0.254368
0.238834 0.238834 0.238834
0.370062 0.255741 0.212558
0.526207 0.295506 0.175723
0.677852 0.345586 0.119875
0.809445 0.393683 0.000000
0.918120 0.413825 0.000000
0.064698 0.278691 0.277104
0.097597 0.294499 0.283909
0.258885 0.269718 0.247257
0.400580 0.316899 0.185611
0.546319 0.361486 0.179324
0.690455 0.403357 0.124788
0.817624 0.440894 0.000000
0.921782 0.456825 0.000000
0.127138 0.347448 0.275059
0.171908 0.345190 0.260075
0.292729 0.313909 0.269841
0.383215 0.348699 0.240085
0.565454 0.423987 0.145266
0.700618 0.461860 0.118227
0.821073 0.496101 0.000000
0.923674 0.511376 0.000000
0.206271 0.403082 0.265690
0.234745 0.398993 0.258213
0.331304 0.362066 0.296574
0.369268 0.355749 0.302434
0.548577 0.465370 0.195865
0.722988 0.531670 0.066957
0.836515 0.555871 0.000000
0.933501 0.573083 0.000000
0.280888 0.484413 0.286107
0.320714 0.474281 0.301793
0.385138 0.429206 0.334051
0.372747 0.371832 0.367498
0.545800 0.491676 0.291875
0.745693 0.610101 0.093385
0.854185 0.623072 0.000000
0.937316 0.626978 0.000000
0.397925 0.590845 0.358526
0.424872 0.578912 0.371435
0.471382 0.534905 0.395727
0.478676 0.478004 0.442847
0.593103 0.557519 0.412634
0.769924 0.667750 0.293736
0.903227 0.723262 0.000000
0.962676 0.699153 0.000000
0.000000 0.171817 0.342626
0.000000 0.174502 0.347295
0.126101 0.167208 0.353826
0.334661 0.179019 0.345647
0.505241 0.222904 0.299382
0.667994 0.275212 0.249149
0.804349 0.337530 0.196963
0.914122 0.386847 0.111757
0.000000 0.192691 0.351598
0.000000 0.190585 0.354986
0.112459 0.177432 0.357336
0.338506 0.196323 0.349248
0.504875 0.239994 0.299992
0.664118 0.288212 0.250767
0.800473 0.345464 0.197116
0.912444 0.392340 0.108339
0.000000 0.227085 0.358862
0.000000 0.228153 0.360815
0.122316 0.228580 0.359960
0.342473 0.249363 0.350347
0.511040 0.296941 0.308324
0.678828 0.340063 0.264958
0.820066 0.387610 0.209567
0.922576 0.421363 0.112642
0.000000 0.285374 0.374762
0.000000 0.288212 0.374456
0.134188 0.304570 0.375280
0.350622 0.350622 0.350622
0.520317 0.373419 0.320287
0.679652 0.402655 0.272068
0.814969 0.434272 0.209995
0.922606 0.461738 0.115846
0.000000 0.364019 0.392523
0.000000 0.370550 0.392645
0.121004 0.412818 0.408453
0.373510 0.388281 0.358007
0.558190 0.445777 0.274052
0.699977 0.480415 0.275761
0.824887 0.503746 0.220066
0.926299 0.517571 0.124666
0.000000 0.514824 0.481086
0.000000 0.521630 0.472511
0.186191 0.500572 0.400488
0.405066 0.433570 0.374182
0.536950 0.484993 0.325322
0.726314 0.549584 0.218906
0.837736 0.567102 0.211002
0.934203 0.580438 0.137118
0.000000 0.586664 0.444465
0.109010 0.583612 0.428748
0.270512 0.565057 0.374090
0.450690 0.494392 0.401190
0.520073 0.494667 0.396735
0.731533 0.617548 0.258030
0.855283 0.634363 0.158267
0.938384 0.634913 0.125368
0.218845 0.690974 0.439155
0.256840 0.686549 0.425971
0.360113 0.663203 0.386725
0.528344 0.589227 0.458045
0.534722 0.527092 0.493538
0.745815 0.667933 0.393042
0.897398 0.734157 0.161349
0.962829 0.707485 0.071687
0.000000 0.221195 0.469764
0.000000 0.220706 0.474556
0.000000 0.204990 0.482582
0.228794 0.206485 0.491890
0.467567 0.213657 0.484688
0.647883 0.274510 0.424964
0.794949 0.333440 0.371740
0.910063 0.386267 0.319188
0.000000 0.235416 0.476478
0.000000 0.234012 0.482460
0.000000 0.220676 0.488228
0.225589 0.219089 0.494057
0.467201 0.227970 0.483680
0.648493 0.290074 0.425513
0.795438 0.345800 0.373632
0.910124 0.393042 0.318151
0.000000 0.268376 0.487648
0.000000 0.268467 0.491127
0.000000 0.263310 0.498146
0.201572 0.254826 0.496101
0.465492 0.273869 0.479866
0.641749 0.335210 0.422065
0.792294 0.379828 0.373663
0.907744 0.412055 0.308324
0.000000 0.320073 0.504417
0.000000 0.320867 0.505547
0.000000 0.324041 0.508934
0.191775 0.327764 0.505119
0.473152 0.357183 0.482918
0.650111 0.414038 0.433448
0.798978 0.437415 0.377813
0.914397 0.449317 0.292302
0.000000 0.390753 0.524468
0.000000 0.393652 0.525597
0.000000 0.402136 0.524559
0.208072 0.422492 0.515770
0.476844 0.476844 0.476844
0.660151 0.495491 0.438453
0.805203 0.504692 0.374975
0.918212 0.508812 0.289189
0.000000 0.468269 0.534844
0.000000 0.472419 0.534722
0.000000 0.485420 0.529900
0.184878 0.534722 0.536584
0.482856 0.500481 0.464424
0.693416 0.562799 0.371832
0.821195 0.586725 0.382147
0.926574 0.587945 0.309331
0.000000 0.623041 0.618708
0.000000 0.629786 0.620356
0.000000 0.657984 0.628290
0.209232 0.654597 0.547021
0.522698 0.557488 0.484993
0.681300 0.616114 0.422766
0.841062 0.645747 0.304601
0.929320 0.643183 0.288518
0.000000 0.772396 0.678401
0.000000 0.768856 0.663539
0.000000 0.755245 0.608484
0.339178 0.731258 0.516106
0.584039 0.635126 0.527001
0.678309 0.644373 0.518303
0.865843 0.735256 0.351354
0.954192 0.716182 0.249088
0.000000 0.283696 0.628504
0.000000 0.282139 0.633875
0.000000 0.269017 0.640925
0.000000 0.225986 0.648280
0.352361 0.252811 0.641535
0.605310 0.264530 0.627832
0.773861 0.380163 0.566888
0.887175 0.496925 0.560449
0.000000 0.290684 0.625116
0.000000 0.288060 0.627497
0.000000 0.276249 0.633875
0.000000 0.239200 0.639948
0.346380 0.260655 0.634821
0.601099 0.274632 0.622858
0.770962 0.388739 0.564569
0.886076 0.497871 0.556878
0.000000 0.323522 0.642145
0.000000 0.320836 0.642176
0.000000 0.311559 0.644556
0.000000 0.289372 0.647395
0.339818 0.299565 0.639643
0.605127 0.320134 0.625360
0.772030 0.432197 0.569818
0.887938 0.515099 0.556054
0.000000 0.367651 0.651881
0.000000 0.366094 0.651148
0.000000 0.363073 0.653620
0.000000 0.358556 0.661128
0.330022 0.371679 0.655390
0.620966 0.406165 0.637598
0.779019 0.507866 0.587304
0.895171 0.545617 0.554620
0.000000 0.421820 0.655695
0.000000 0.422583 0.656641
0.000000 0.424689 0.658503
0.000000 0.428931 0.659419
0.289403 0.439246 0.651240
0.615747 0.494850 0.626123
0.774441 0.565850 0.585412
0.899504 0.562707 0.520623
0.000000 0.490730 0.665187
0.000000 0.494209 0.667933
0.000000 0.500938 0.668482
0.000000 0.514488 0.666163
0.303777 0.543633 0.654658
0.620935 0.620783 0.620874
0.788388 0.636530 0.587640
0.910552 0.619898 0.507530
0.000000 0.590173 0.700130
0.000000 0.594537 0.701686
0.000000 0.605127 0.700252
0.000000 0.628504 0.695613
0.300664 0.685451 0.692744
0.633722 0.650752 0.615991
0.815915 0.689265 0.520348
0.915435 0.690028 0.509636
0.000000 0.720150 0.752041
0.000000 0.724941 0.752651
0.000000 0.743893 0.755917
0.000000 0.784176 0.764187
0.315953 0.799130 0.694331
0.659632 0.693538 0.623560
0.811460 0.746639 0.568627
0.938659 0.743923 0.439948
0.000000 0.332158 0.751095
0.000000 0.330236 0.753231
0.000000 0.319432 0.756680
0.000000 0.295933 0.761898
0.151247 0.296056 0.761563
0.476997 0.324254 0.754788
0.719265 0.366003 0.743923
0.860746 0.529290 0.699489
0.000000 0.337987 0.749050
0.000000 0.335790 0.751003
0.000000 0.325658 0.754330
0.000000 0.304082 0.758053
0.128237 0.297765 0.758083
0.472786 0.329351 0.751095
0.715358 0.369940 0.739681
0.857969 0.529747 0.695827
0.000000 0.361395 0.755581
0.000000 0.359258 0.756344
0.000000 0.350835 0.758328
0.000000 0.334417 0.761135
0.000000 0.312963 0.760891
0.472328 0.362921 0.753231
0.719814 0.410559 0.742580
0.860197 0.561120 0.702510
0.000000 0.398444 0.763424
0.000000 0.396490 0.762875
0.000000 0.390631 0.763943
0.000000 0.380926 0.766629
0.000000 0.368200 0.766293
0.473762 0.422095 0.758572
0.727199 0.475746 0.746914
0.862425 0.604395 0.709804
0.000000 0.445136 0.766751
0.000000 0.444282 0.766506
0.000000 0.441444 0.767117
0.000000 0.436469 0.768887
0.000000 0.433417 0.768704
0.465095 0.492134 0.758907
0.729732 0.548363 0.744930
0.863584 0.653101 0.715694
0.000000 0.504814 0.774411
0.000000 0.505150 0.774807
0.000000 0.506523 0.775784
0.000000 0.509392 0.777340
0.000000 0.517144 0.776791
0.432654 0.561395 0.769436
0.740017 0.646540 0.748531
0.868528 0.707515 0.723476
0.000000 0.576562 0.786130
0.000000 0.578149 0.786893
0.000000 0.583032 0.787472
0.000000 0.593378 0.787961
0.000000 0.614740 0.785122
0.463478 0.667964 0.774838
0.745754 0.745693 0.745693
0.881041 0.752132 0.712734
0.000000 0.668849 0.814206
0.000000 0.670924 0.814237
0.000000 0.680964 0.816587
0.000000 0.698360 0.816312
0.000000 0.730739 0.811582
0.471962 0.795407 0.805753
0.753628 0.767849 0.739040
0.903593 0.800473 0.674617
0.000000 0.370062 0.858396
0.000000 0.373022 0.858549
0.000000 0.364996 0.859403
0.000000 0.351812 0.861814
0.000000 0.335515 0.863462
0.397742 0.418036 0.859037
0.626947 0.478523 0.853696
0.824369 0.556085 0.845701
0.000000 0.375860 0.857298
0.000000 0.377600 0.857633
0.000000 0.369940 0.858762
0.000000 0.357061 0.860777
0.000000 0.342107 0.862455
0.395911 0.423011 0.858091
0.625727 0.482490 0.852598
0.823911 0.560143 0.844968
0.000000 0.393988 0.857877
0.000000 0.394110 0.858122
0.000000 0.387030 0.858640
0.000000 0.376959 0.862028
0.000000 0.367254 0.863066
0.396307 0.446509 0.858091
0.628229 0.505577 0.852567
0.825559 0.581628 0.845426
0.000000 0.419257 0.860838
0.000000 0.421637 0.860960
0.000000 0.416327 0.861723
0.000000 0.408179 0.863859
0.000000 0.404486 0.865171
0.360357 0.461707 0.861570
0.634760 0.547356 0.854337
0.828855 0.616571 0.846647
0.000000 0.462562 0.863615
0.000000 0.462257 0.864103
0.000000 0.457160 0.864683
0.000000 0.446662 0.866239
0.000000 0.443885 0.867308
0.286473 0.480354 0.865019
0.639551 0.597864 0.855955
0.832883 0.661524 0.847776
0.000000 0.514183 0.868223
0.000000 0.513329 0.868070
0.000000 0.510613 0.868040
0.000000 0.505791 0.868925
0.000000 0.499641 0.870512
0.191897 0.525078 0.870939
0.651881 0.666072 0.860624
0.839689 0.719509 0.850523
0.000000 0.574853 0.875303
0.000000 0.574792 0.875212
0.000000 0.574853 0.875212
0.000000 0.576226 0.876066
0.000000 0.581506 0.876921
0.169680 0.606134 0.876432
0.608789 0.699794 0.867704
0.845518 0.782254 0.851530
0.000000 0.643519 0.883207
0.000000 0.644221 0.883146
0.000000 0.647608 0.883574
0.000000 0.655695 0.884977
0.000000 0.672816 0.885954
0.287419 0.711879 0.882597
0.639185 0.786679 0.872679
0.853239 0.853239 0.853239
