data/fiter_cube/48671653/1023255/file.cube
# Created by Adobe Lightroom plugin Export LUT (1.17.0)
# www.johnrellis.com/lightroom/exportlut.htm
# Preset: 青橙风光风景_04 云集
# Color profile: C:\Program Files (x86)\Common Files\Adobe\Color\Profiles\Recommended\AdobeRGB1998.icc
LUT_3D_SIZE 5
DOMAIN_MIN 0.000000 0.000000 0.000000
DOMAIN_MAX 0.903226 0.903226 0.903226
0.170352 0.199191 0.205844
0.208408 0.197177 0.202823
0.550988 0.153933 0.187381
0.863096 0.144594 0.160220
1.000000 0.345769 0.189578
0.157931 0.236942 0.212192
0.202365 0.231296 0.199863
0.550774 0.266056 0.177615
0.862730 0.292485 0.145144
1.000000 0.431556 0.182681
0.000000 0.535210 0.280949
0.075685 0.474159 0.196841
0.508934 0.519646 0.129824
0.864073 0.564904 0.000000
1.000000 0.635126 0.165164
0.000000 0.833158 0.403174
0.000000 0.806699 0.338384
0.291966 0.665278 0.198764
0.808377 0.813382 0.000000
1.000000 0.847776 0.000000
0.000000 1.000000 0.582238
0.000000 1.000000 0.551354
0.302068 0.989990 0.420813
0.695155 0.937621 0.376318
0.998596 0.973754 0.000000
0.164462 0.196567 0.230472
0.182986 0.198337 0.213657
0.552850 0.147280 0.201755
0.861631 0.216556 0.154696
1.000000 0.361273 0.189639
0.138674 0.244053 0.262425
0.209110 0.236790 0.243259
0.555932 0.254459 0.209537
0.861723 0.324559 0.139864
1.000000 0.441138 0.183200
0.000000 0.567651 0.384802
0.000000 0.543023 0.316564
0.521386 0.526452 0.215213
0.864347 0.563073 0.121920
1.000000 0.637537 0.167514
0.000000 0.850980 0.489662
0.000000 0.836210 0.435950
0.317967 0.706294 0.273564
0.812161 0.815457 0.176364
1.000000 0.847288 0.000000
0.000000 1.000000 0.636988
0.000000 1.000000 0.605219
0.395239 0.992126 0.534630
0.689418 0.933806 0.430793
0.996094 0.973663 0.257816
0.094606 0.194278 0.428534
0.212009 0.193454 0.375555
0.294224 0.215915 0.290654
0.790158 0.000000 0.345312
1.000000 0.357244 0.279545
0.000000 0.264714 0.500847
0.165957 0.236332 0.460883
0.349004 0.258915 0.336889
0.834257 0.247410 0.388281
1.000000 0.431006 0.285191
0.000000 0.546838 0.607843
0.000000 0.542077 0.593835
0.553826 0.540856 0.543114
0.851804 0.582605 0.497749
1.000000 0.633875 0.343053
0.000000 0.906859 0.736873
0.000000 0.896178 0.707820
0.454658 0.830930 0.607111
0.816251 0.820584 0.546441
1.000000 0.846738 0.482063
0.000000 1.000000 0.788968
0.000000 1.000000 0.770657
0.312596 1.000000 0.711818
0.685084 0.944091 0.568444
0.984680 0.973297 0.572808
0.000000 0.197971 0.689509
0.178103 0.191226 0.660548
0.420172 0.190280 0.542962
0.507256 0.240940 0.437873
0.933928 0.422675 0.627771
0.000000 0.247745 0.728206
0.000000 0.243473 0.701259
0.443977 0.240421 0.589715
0.539818 0.291356 0.470954
0.948913 0.468849 0.644923
0.000000 0.521080 0.803677
0.000000 0.512139 0.794553
0.484199 0.485054 0.734493
0.637507 0.493660 0.586725
0.992096 0.626551 0.697047
0.000000 0.837064 0.865080
0.000000 0.836393 0.861021
0.410407 0.831785 0.845548
0.823087 0.830045 0.814878
0.996277 0.851011 0.778073
0.000000 1.000000 0.932525
0.000000 1.000000 0.928405
0.271000 1.000000 0.911070
0.751125 0.990204 0.845914
0.970214 0.972900 0.824552
0.189944 0.261814 0.950103
0.367773 0.263951 0.941772
0.627039 0.298650 0.905303
0.753506 0.388098 0.796658
0.826871 0.481514 0.736263
0.000000 0.329168 0.957733
0.321324 0.332708 0.949950
0.619684 0.360021 0.915953
0.762966 0.425483 0.814176
0.831785 0.507195 0.745174
0.000000 0.554070 0.976379
0.000000 0.538201 0.972320
0.548638 0.529168 0.948547
0.783932 0.540673 0.870085
0.848234 0.590509 0.775509
0.000000 0.815854 0.988037
0.000000 0.812131 0.986603
0.277958 0.803098 0.978546
0.759182 0.762295 0.946838
0.880461 0.748867 0.835813
0.000000 0.995544 0.993805
0.000000 0.995636 0.993286
0.000000 0.989502 0.989868
0.735439 0.974090 0.981750
0.970092 0.974029 0.968750
