data/fiter_cube/48671653/1023255/file.cube
# Created by Adobe Lightroom plugin Export LUT (1.17.0)
# www.johnrellis.com/lightroom/exportlut.htm
# Preset: 青橙风光风景_04 云集
# Color profile: C:\Program Files (x86)\Common Files\Adobe\Color\Profiles\Recommended\AdobeRGB1998.icc
LUT_3D_SIZE 32
DOMAIN_MIN 0.0 0.0 0.0
DOMAIN_MAX 1.0 1.0 1.0
0.170352 0.199191 0.205844
0.169162 0.199130 0.205661
0.167941 0.198947 0.205600
0.167605 0.198642 0.205234
0.170962 0.198215 0.204776
0.178622 0.197848 0.204135
0.190860 0.197513 0.203555
0.208408 0.197177 0.202823
0.232517 0.196719 0.202060
0.264927 0.195651 0.201053
0.308324 0.192966 0.199527
0.362188 0.187778 0.197482
0.423682 0.179263 0.194766
0.488319 0.167422 0.191318
0.550988 0.153933 0.187381
0.607568 0.140658 0.183352
0.658198 0.129244 0.179385
0.704585 0.121370 0.175418
0.747311 0.118318 0.171389
0.787503 0.120821 0.167666
0.825986 0.129915 0.163851
0.863096 0.144594 0.160220
0.898436 0.165194 0.157259
0.931121 0.191043 0.155215
0.960937 0.219181 0.154940
0.987732 0.249271 0.157198
1.000000 0.280766 0.162936
1.000000 0.312779 0.173342
1.000000 0.345769 0.189578
1.000000 0.380438 0.213321
1.000000 0.417487 0.245609
1.000000 0.457649 0.287510
0.170657 0.198001 0.205509
0.169314 0.198184 0.205753
0.168032 0.198245 0.205661
0.167666 0.198306 0.205264
0.170962 0.198215 0.204685
0.178408 0.198215 0.204105
0.190616 0.198245 0.203494
0.208164 0.198154 0.202762
0.232395 0.197940 0.201968
0.264866 0.197086 0.200931
0.308171 0.194797 0.199374
0.362127 0.189914 0.197330
0.423590 0.182040 0.194553
0.488411 0.170871 0.191073
0.551110 0.157900 0.187137
0.607599 0.145754 0.183139
0.658167 0.135714 0.179141
0.704585 0.128267 0.175051
0.747311 0.125612 0.171115
0.787503 0.128359 0.167239
0.825986 0.136660 0.163424
0.863096 0.151186 0.159854
0.898375 0.171328 0.156863
0.931090 0.195987 0.154818
0.960906 0.223789 0.154513
0.987671 0.253544 0.156741
1.000000 0.284184 0.162661
1.000000 0.316106 0.172946
1.000000 0.348608 0.189456
1.000000 0.383032 0.213199
1.000000 0.419776 0.245670
1.000000 0.459693 0.287633
0.170779 0.196933 0.205203
0.169589 0.197208 0.205295
0.168399 0.197147 0.205753
0.167758 0.197818 0.205173
0.170962 0.198337 0.204654
0.178317 0.198825 0.204044
0.190372 0.199222 0.203342
0.208011 0.199466 0.202640
0.232090 0.199496 0.201846
0.264591 0.199008 0.200809
0.307988 0.197208 0.199191
0.361913 0.193149 0.197086
0.423560 0.185855 0.194278
0.488350 0.175692 0.190829
0.550988 0.163943 0.186831
0.607568 0.152499 0.182712
0.658167 0.143496 0.178683
0.704555 0.137331 0.174655
0.747311 0.135012 0.170687
0.787503 0.137942 0.166751
0.825986 0.145724 0.162936
0.863096 0.159640 0.159335
0.898375 0.178988 0.156283
0.931090 0.202701 0.154238
0.960876 0.229831 0.153872
0.987640 0.258762 0.156252
1.000000 0.289097 0.162173
1.000000 0.320378 0.172610
1.000000 0.352514 0.189151
1.000000 0.386481 0.213046
1.000000 0.422766 0.245731
1.000000 0.462348 0.287755
0.170443 0.196994 0.205203
0.169131 0.197177 0.204593
0.168887 0.196994 0.204501
0.168460 0.197269 0.205325
0.171023 0.198917 0.204623
0.178012 0.200015 0.203769
0.190127 0.201114 0.203067
0.207523 0.202182 0.202457
0.231693 0.202884 0.201572
0.264256 0.203311 0.200443
0.307622 0.202487 0.198764
0.361730 0.199557 0.196567
0.423346 0.194034 0.193637
0.488167 0.185550 0.190097
0.550958 0.175723 0.186099
0.607568 0.166537 0.181857
0.658167 0.159396 0.177737
0.704555 0.154452 0.173648
0.747280 0.153780 0.169558
0.787411 0.156619 0.165591
0.825986 0.163882 0.161807
0.863035 0.176669 0.158145
0.898344 0.194675 0.154971
0.930999 0.216800 0.153017
0.960784 0.242374 0.152621
0.987518 0.270146 0.155093
1.000000 0.299138 0.161227
1.000000 0.329503 0.171817
1.000000 0.360693 0.188540
1.000000 0.393835 0.212802
1.000000 0.429328 0.245640
1.000000 0.468086 0.287968
0.169345 0.200595 0.205661
0.168246 0.200443 0.204440
0.167910 0.199924 0.203677
0.168856 0.199130 0.203708
0.171267 0.200137 0.204623
0.178653 0.203128 0.203799
0.189761 0.204440 0.202823
0.206851 0.206332 0.202029
0.231083 0.208133 0.201175
0.263584 0.209781 0.199924
0.307103 0.210483 0.198123
0.361456 0.209415 0.195743
0.423163 0.205844 0.192752
0.488167 0.199985 0.188998
0.550896 0.193027 0.184817
0.607446 0.186404 0.180545
0.658137 0.181186 0.176272
0.704433 0.178378 0.172030
0.747280 0.178103 0.167880
0.787442 0.181643 0.163882
0.825925 0.188846 0.159976
0.863035 0.200504 0.156130
0.898253 0.216861 0.153017
0.930938 0.237217 0.150912
0.960601 0.261021 0.150607
0.987304 0.286992 0.153079
1.000000 0.314611 0.159335
1.000000 0.343145 0.170535
1.000000 0.373236 0.187564
1.000000 0.405158 0.212284
1.000000 0.439429 0.245640
1.000000 0.477028 0.288365
0.167086 0.208103 0.206912
0.166232 0.207706 0.205539
0.166110 0.207004 0.204074
0.167910 0.204929 0.203067
0.171023 0.204196 0.203067
0.177432 0.206302 0.203372
0.191379 0.211337 0.202518
0.207584 0.213382 0.201511
0.229984 0.215091 0.200595
0.262669 0.218357 0.199191
0.306462 0.221042 0.197299
0.360937 0.222263 0.194705
0.422766 0.221408 0.191440
0.488014 0.218479 0.187411
0.550896 0.214206 0.182986
0.607416 0.210147 0.178470
0.658076 0.207431 0.174105
0.704372 0.205936 0.169833
0.747066 0.206912 0.165499
0.787350 0.210452 0.161349
0.825864 0.217563 0.157229
0.862974 0.228367 0.153353
0.898161 0.243381 0.150179
0.930755 0.262211 0.148074
0.960388 0.284184 0.147799
0.986999 0.308171 0.150576
1.000000 0.334051 0.157076
1.000000 0.361059 0.168643
1.000000 0.389502 0.186282
1.000000 0.419837 0.211673
1.000000 0.452674 0.245640
1.000000 0.488808 0.288945
0.163394 0.220127 0.209018
0.162966 0.219516 0.207462
0.163272 0.218479 0.205814
0.164828 0.215824 0.202701
0.169589 0.211398 0.202579
0.175937 0.212436 0.202243
0.187503 0.216373 0.201755
0.210178 0.224918 0.200595
0.233005 0.227817 0.199313
0.263523 0.230503 0.198032
0.305425 0.233921 0.196201
0.360143 0.237949 0.193393
0.422339 0.239994 0.189670
0.487800 0.240146 0.185397
0.550927 0.238773 0.180606
0.607355 0.237247 0.175937
0.657954 0.236240 0.171298
0.704341 0.236362 0.166781
0.747066 0.238010 0.162356
0.787228 0.242191 0.157992
0.825772 0.248997 0.153780
0.862852 0.259403 0.149783
0.897978 0.273442 0.146517
0.930541 0.290532 0.144228
0.960113 0.310796 0.144167
0.986633 0.333043 0.147097
1.000000 0.357122 0.154116
1.000000 0.382452 0.166171
1.000000 0.409003 0.184726
1.000000 0.437720 0.210849
1.000000 0.468818 0.245609
1.000000 0.503197 0.289799
0.157931 0.236942 0.212192
0.158022 0.236240 0.210666
0.158694 0.234989 0.208652
0.161318 0.231876 0.204929
0.165988 0.226383 0.201846
0.173037 0.220096 0.202365
0.184329 0.224857 0.201144
0.202365 0.231296 0.199863
0.237003 0.245243 0.197543
0.268742 0.249760 0.195834
0.310155 0.254032 0.193729
0.360632 0.256809 0.191287
0.422095 0.261051 0.187503
0.487617 0.264347 0.182742
0.550774 0.266056 0.177615
0.607233 0.266850 0.172549
0.657801 0.267491 0.167758
0.704158 0.268803 0.162936
0.746883 0.271519 0.158328
0.787137 0.275883 0.153780
0.825650 0.282658 0.149447
0.862730 0.292485 0.145144
0.897826 0.305516 0.141573
0.930266 0.321569 0.139528
0.959747 0.340215 0.139498
0.986206 0.360906 0.142733
1.000000 0.383124 0.150301
1.000000 0.406622 0.163241
1.000000 0.431556 0.182681
1.000000 0.458320 0.210025
1.000000 0.487678 0.245762
1.000000 0.520104 0.290684
0.149783 0.260044 0.216709
0.150393 0.259037 0.215061
0.151644 0.257542 0.212924
0.155123 0.254002 0.208652
0.159579 0.247837 0.202243
0.169833 0.239078 0.201785
0.179965 0.235019 0.201846
0.196902 0.242527 0.199741
0.223636 0.252384 0.197208
0.275120 0.274479 0.192691
0.317937 0.281498 0.189883
0.369360 0.286717 0.186648
0.426886 0.289921 0.183261
0.487648 0.291020 0.179477
0.550500 0.295567 0.173892
0.607050 0.298619 0.168460
0.657588 0.300664 0.163119
0.704036 0.303197 0.158022
0.746670 0.306401 0.153231
0.786984 0.311009 0.148348
0.825437 0.317845 0.143771
0.862577 0.327123 0.139406
0.897581 0.339574 0.135805
0.929931 0.354772 0.133394
0.959319 0.372045 0.133761
0.985657 0.391028 0.137453
1.000000 0.411658 0.145724
1.000000 0.433387 0.159823
1.000000 0.456397 0.180514
1.000000 0.481422 0.209110
1.000000 0.508690 0.246036
1.000000 0.539178 0.292027
0.137392 0.290471 0.222904
0.138613 0.289311 0.221134
0.140566 0.287388 0.218692
0.145327 0.283360 0.213779
0.152590 0.276524 0.206760
0.161746 0.266178 0.200717
0.175998 0.253849 0.201999
0.190677 0.255253 0.200992
0.215335 0.266758 0.197635
0.252964 0.281376 0.193423
0.326818 0.314641 0.184848
0.379095 0.322820 0.180392
0.436896 0.328283 0.175998
0.496223 0.330846 0.171603
0.553063 0.330846 0.167666
0.606897 0.331853 0.163119
0.657404 0.335302 0.157534
0.703822 0.338689 0.152102
0.746426 0.342504 0.146883
0.786679 0.347326 0.141726
0.825284 0.354162 0.136812
0.862303 0.363317 0.132113
0.897276 0.375097 0.128206
0.929503 0.389349 0.126009
0.958770 0.405432 0.126619
0.984985 0.423102 0.130953
1.000000 0.442023 0.140383
1.000000 0.462043 0.155795
1.000000 0.483436 0.178164
1.000000 0.506401 0.208072
1.000000 0.531792 0.246433
1.000000 0.560082 0.293614
0.116793 0.329686 0.231266
0.118807 0.328496 0.229221
0.121828 0.326299 0.226383
0.128573 0.321569 0.220798
0.140047 0.314153 0.213230
0.149386 0.302159 0.201877
0.168154 0.287083 0.200809
0.184207 0.270970 0.202609
0.206332 0.282170 0.199344
0.241123 0.298985 0.194369
0.292546 0.319615 0.187564
0.390204 0.364660 0.172671
0.448005 0.371954 0.166537
0.506493 0.376654 0.160678
0.561822 0.377600 0.155917
0.611872 0.375860 0.152438
0.657618 0.372229 0.150027
0.703334 0.375402 0.144656
0.746120 0.379461 0.139040
0.786404 0.384619 0.133577
0.824979 0.391485 0.128237
0.861997 0.400305 0.123110
0.896910 0.411658 0.118990
0.929015 0.425055 0.116762
0.958160 0.440192 0.117647
0.984253 0.456550 0.123079
1.000000 0.473945 0.134035
1.000000 0.492439 0.151156
1.000000 0.511986 0.175357
1.000000 0.533135 0.207309
1.000000 0.556481 0.247105
1.000000 0.582605 0.295567
0.078737 0.376593 0.241428
0.082277 0.375372 0.239292
0.088045 0.372930 0.236149
0.099611 0.367864 0.229892
0.116518 0.359716 0.220981
0.133852 0.347356 0.208652
0.151064 0.330480 0.198459
0.177218 0.310552 0.200900
0.196933 0.298100 0.201907
0.228367 0.316869 0.196628
0.275486 0.339544 0.189212
0.341558 0.365545 0.178775
0.456062 0.418494 0.155917
0.517296 0.426123 0.146975
0.570733 0.428229 0.139925
0.619318 0.426337 0.135653
0.664027 0.422919 0.132906
0.705867 0.419104 0.131167
0.745693 0.417304 0.129427
0.786069 0.422553 0.123415
0.824674 0.429267 0.117464
0.861662 0.438087 0.112032
0.896422 0.448981 0.107332
0.928435 0.461677 0.105287
0.957458 0.475837 0.106813
0.983398 0.491005 0.113863
1.000000 0.507073 0.126558
1.000000 0.523949 0.146090
1.000000 0.541924 0.172519
1.000000 0.561212 0.206485
1.000000 0.582483 0.248112
1.000000 0.606348 0.298009
0.000000 0.428534 0.253300
0.000000 0.427466 0.251011
0.000000 0.424903 0.247623
0.000244 0.419776 0.240726
0.071168 0.411475 0.230655
0.106600 0.399908 0.218814
0.126192 0.381842 0.200046
0.160311 0.359838 0.197787
0.189151 0.335515 0.201144
0.215183 0.334173 0.199680
0.257633 0.358465 0.192203
0.317998 0.386358 0.181582
0.396948 0.416663 0.166415
0.519371 0.473182 0.133608
0.579858 0.480476 0.120455
0.627070 0.479500 0.111971
0.670710 0.475471 0.108431
0.711696 0.471138 0.106355
0.749905 0.466835 0.106264
0.786709 0.463722 0.107607
0.824277 0.467689 0.104036
0.861234 0.476295 0.097810
0.895903 0.486793 0.092470
0.927825 0.498756 0.090608
0.956634 0.512047 0.093355
0.982452 0.526116 0.102480
1.000000 0.540887 0.118166
1.000000 0.556390 0.140505
1.000000 0.572564 0.169772
1.000000 0.590051 0.206119
1.000000 0.609308 0.249668
1.000000 0.630976 0.301091
0.000000 0.482734 0.266880
0.000000 0.481422 0.264134
0.000000 0.479255 0.260716
0.000000 0.474281 0.253361
0.000000 0.466041 0.242405
0.015167 0.454841 0.229160
0.091463 0.437995 0.209781
0.126894 0.415839 0.193210
0.173373 0.389410 0.197360
0.203372 0.361120 0.201358
0.239475 0.376226 0.196078
0.294133 0.405249 0.185763
0.366552 0.436744 0.171084
0.454383 0.469276 0.149935
0.572076 0.522118 0.106447
0.634882 0.532769 0.081697
0.677699 0.529534 0.067964
0.717678 0.524681 0.063874
0.755154 0.519554 0.064057
0.791318 0.515740 0.066468
0.826474 0.513634 0.071626
0.860777 0.514672 0.078462
0.895354 0.524804 0.072023
0.927092 0.536278 0.070314
0.955779 0.548577 0.075685
0.981415 0.561608 0.088289
1.000000 0.575097 0.108461
1.000000 0.589075 0.134768
1.000000 0.603784 0.167269
1.000000 0.619532 0.206149
1.000000 0.636774 0.251713
1.000000 0.656245 0.304692
0.000000 0.535210 0.280949
0.000000 0.534325 0.278538
0.000000 0.532128 0.274937
0.000000 0.527520 0.267277
0.000000 0.520134 0.255772
0.000000 0.509758 0.241398
0.000000 0.495430 0.223514
0.075685 0.474159 0.196841
0.142489 0.448127 0.192203
0.189883 0.418372 0.196994
0.221561 0.392340 0.200473
0.270451 0.422156 0.190982
0.336461 0.454414 0.177340
0.417914 0.487495 0.157778
0.508934 0.519646 0.129824
0.618952 0.567987 0.065949
0.684718 0.583307 0.000000
0.723812 0.578424 0.000000
0.760464 0.572869 0.000000
0.796048 0.568353 0.000000
0.830625 0.565606 0.000000
0.864073 0.564904 0.000000
0.895689 0.566186 0.000000
0.926329 0.573663 0.019745
0.954803 0.585138 0.041688
0.980285 0.597192 0.070558
1.000000 0.609400 0.097383
1.000000 0.622065 0.128878
1.000000 0.635126 0.165164
1.000000 0.649134 0.206821
1.000000 0.664424 0.254612
1.000000 0.681636 0.309148
0.000000 0.584131 0.295811
0.000000 0.583337 0.293278
0.000000 0.581476 0.289860
0.000000 0.577325 0.282170
0.000000 0.570642 0.270481
0.000000 0.561456 0.255741
0.000000 0.549340 0.238926
0.000000 0.530968 0.210788
0.077760 0.507378 0.186069
0.162600 0.478431 0.191592
0.209140 0.445991 0.196933
0.247654 0.437140 0.196445
0.307225 0.469642 0.184237
0.382361 0.503136 0.166934
0.468177 0.535302 0.142397
0.557946 0.566247 0.105104
0.661158 0.610986 0.000000
0.729824 0.631617 0.000000
0.765988 0.625757 0.000000
0.800931 0.621057 0.000000
0.834958 0.617578 0.000000
0.867735 0.616022 0.000000
0.898619 0.616236 0.000000
0.927337 0.617853 0.000000
0.953796 0.621546 0.000000
0.979095 0.632502 0.032441
1.000000 0.643519 0.085145
1.000000 0.654688 0.123415
1.000000 0.666316 0.164065
1.000000 0.678584 0.208499
1.000000 0.691920 0.258274
1.000000 0.707027 0.314458
0.000000 0.629297 0.311070
0.000000 0.628687 0.308446
0.000000 0.627008 0.305119
0.000000 0.623316 0.297581
0.000000 0.617365 0.286198
0.000000 0.609094 0.271489
0.000000 0.598291 0.254276
0.000000 0.583062 0.229831
0.000000 0.562432 0.194858
0.113100 0.536645 0.185855
0.186801 0.506218 0.191440
0.230655 0.472084 0.197208
0.279454 0.483040 0.191379
0.348119 0.516320 0.176486
0.428626 0.548638 0.155612
0.514977 0.579614 0.125063
0.602564 0.609857 0.071107
0.700099 0.651850 0.000000
0.771542 0.677821 0.000000
0.805966 0.672633 0.000000
0.839414 0.669062 0.000000
0.871427 0.666529 0.000000
0.901579 0.665461 0.000000
0.929595 0.665827 0.000000
0.955230 0.667170 0.000000
0.978454 0.669673 0.000000
1.000000 0.676967 0.071504
1.000000 0.686885 0.118715
1.000000 0.696956 0.163821
1.000000 0.707515 0.211215
1.000000 0.718990 0.263035
1.000000 0.731960 0.320623
0.000000 0.672145 0.326848
0.000000 0.671504 0.324437
0.000000 0.670069 0.321111
0.000000 0.666529 0.313787
0.000000 0.661036 0.302617
0.000000 0.653407 0.288151
0.000000 0.643580 0.271092
0.000000 0.631067 0.252445
0.000000 0.612512 0.215244
0.000000 0.590478 0.181308
0.148653 0.563073 0.186679
0.212863 0.531853 0.192172
0.253880 0.496834 0.197910
0.316472 0.528252 0.185824
0.391485 0.560723 0.168276
0.474342 0.592004 0.143343
0.560388 0.622736 0.103944
0.646021 0.653101 0.000000
0.737118 0.691432 0.000000
0.811124 0.722744 0.000000
0.843992 0.718593 0.000000
0.875303 0.715663 0.000000
0.904662 0.713436 0.000000
0.931884 0.712367 0.000000
0.956817 0.712154 0.000000
0.979461 0.712825 0.000000
0.999786 0.714382 0.000000
1.000000 0.718074 0.115724
1.000000 0.726680 0.165133
1.000000 0.735622 0.215274
1.000000 0.745266 0.269017
1.000000 0.756130 0.327794
0.000000 0.713680 0.343633
0.000000 0.713191 0.341497
0.000000 0.711879 0.338109
0.000000 0.708827 0.331182
0.000000 0.703944 0.320531
0.000000 0.697139 0.306523
0.000000 0.688136 0.289555
0.000000 0.676692 0.271061
0.000000 0.660822 0.240208
0.000000 0.640894 0.198123
0.073793 0.616815 0.183017
0.183474 0.588464 0.188205
0.240879 0.556695 0.193515
0.286870 0.539849 0.194491
0.357214 0.572503 0.180087
0.436561 0.604181 0.159640
0.520623 0.635340 0.129213
0.605249 0.665797 0.074678
0.687984 0.695094 0.000000
0.773190 0.730220 0.000000
0.848814 0.765774 0.000000
0.879362 0.762142 0.000000
0.907927 0.759213 0.000000
0.934325 0.756771 0.000000
0.958556 0.755032 0.000000
0.980621 0.753933 0.000000
1.000000 0.753597 0.000000
1.000000 0.754208 0.040742
1.000000 0.756313 0.160861
1.000000 0.762539 0.220981
1.000000 0.770443 0.276371
1.000000 0.779416 0.336187
0.000000 0.754299 0.361852
0.000000 0.753780 0.359625
0.000000 0.752743 0.356634
0.000000 0.749996 0.349950
0.000000 0.745602 0.339574
0.000000 0.739498 0.326055
0.000000 0.731411 0.309758
0.000000 0.721218 0.291539
0.000000 0.708125 0.269352
0.000000 0.690120 0.225376
0.000000 0.669032 0.181430
0.136965 0.642664 0.186007
0.218814 0.613489 0.190707
0.270329 0.581292 0.195468
0.325719 0.584253 0.190799
0.401404 0.616205 0.174441
0.483375 0.647883 0.150301
0.566827 0.678523 0.113039
0.649256 0.707881 0.000000
0.728908 0.736080 0.000000
0.808560 0.768002 0.000000
0.883604 0.805295 0.000000
0.911406 0.801633 0.000000
0.937011 0.798184 0.000000
0.960510 0.795102 0.000000
0.981903 0.792447 0.000000
1.000000 0.790341 0.000000
1.000000 0.788998 0.000000
1.000000 0.788785 0.116335
1.000000 0.790158 0.210697
1.000000 0.794369 0.285039
1.000000 0.801572 0.345617
0.000000 0.794156 0.381659
0.000000 0.793668 0.379522
0.000000 0.792752 0.376501
0.000000 0.790311 0.370092
0.000000 0.786343 0.360235
0.000000 0.780819 0.347143
0.000000 0.773617 0.331518
0.000000 0.764492 0.313909
0.000000 0.752987 0.295689
0.000000 0.737453 0.257847
0.000000 0.718898 0.208164
0.000000 0.696040 0.185977
0.186252 0.669032 0.189914
0.254673 0.638849 0.194156
0.300877 0.606226 0.198306
0.368994 0.628595 0.187839
0.448859 0.660639 0.169009
0.531029 0.691524 0.141421
0.612757 0.720974 0.095308
0.692775 0.749111 0.000000
0.769131 0.775875 0.000000
0.842649 0.803769 0.000000
0.915099 0.839902 0.000000
0.940032 0.835874 0.000000
0.962768 0.831693 0.000000
0.983490 0.827878 0.000000
1.000000 0.824338 0.000000
1.000000 0.821378 0.000000
1.000000 0.819272 0.000000
1.000000 0.818448 0.176913
1.000000 0.819394 0.268498
1.000000 0.822721 0.355047
0.000000 0.833158 0.403174
0.000000 0.832761 0.401160
0.000000 0.832029 0.398352
0.000000 0.829831 0.392248
0.000000 0.826322 0.382849
0.000000 0.821378 0.370336
0.000000 0.814969 0.355322
0.000000 0.806699 0.338384
0.000000 0.796323 0.320653
0.000000 0.783047 0.294316
0.000000 0.766506 0.244724
0.000000 0.747341 0.190280
0.137057 0.722988 0.192660
0.232822 0.695705 0.195346
0.291966 0.665278 0.198764
0.338964 0.641688 0.200168
0.416754 0.674067 0.185977
0.497932 0.705043 0.165255
0.578943 0.734646 0.134127
0.658930 0.762753 0.076387
0.736172 0.789242 0.000000
0.808377 0.813382 0.000000
0.874754 0.836301 0.000000
0.942229 0.868864 0.000000
0.965301 0.865080 0.000000
0.985321 0.860258 0.000000
1.000000 0.855680 0.000000
1.000000 0.851438 0.000000
1.000000 0.847776 0.000000
1.000000 0.845121 0.132143
1.000000 0.843931 0.240757
1.000000 0.844816 0.333959
0.000000 0.870634 0.426612
0.000000 0.870298 0.424750
0.000000 0.869749 0.422126
0.000000 0.867796 0.416175
0.000000 0.864775 0.407324
0.000000 0.860502 0.395514
0.000000 0.854917 0.381231
0.000000 0.847684 0.364996
0.000000 0.838529 0.348089
0.000000 0.827054 0.332250
0.000000 0.812467 0.286046
0.000000 0.795682 0.230442
0.000000 0.775021 0.200381
0.203372 0.750332 0.201663
0.278904 0.722988 0.203067
0.330999 0.692927 0.205173
0.387518 0.688685 0.201785
0.467872 0.719661 0.186923
0.548394 0.749233 0.165011
0.628046 0.777371 0.130495
0.705501 0.803494 0.059480
0.778775 0.826841 0.000000
0.845487 0.847196 0.000000
0.904234 0.865263 0.000000
0.965423 0.892851 0.000000
0.987396 0.889769 0.000000
1.000000 0.884337 0.000000
1.000000 0.879149 0.000000
1.000000 0.874327 0.000000
1.000000 0.870176 0.034150
1.000000 0.867216 0.207584
1.000000 0.865995 0.309972
0.000000 0.905455 0.451698
0.000000 0.905150 0.449958
0.000000 0.904631 0.447364
0.000000 0.903105 0.442054
0.000000 0.900572 0.433539
0.000000 0.897032 0.422492
0.000000 0.892332 0.409125
0.000000 0.886259 0.393896
0.000000 0.878416 0.377752
0.000000 0.868559 0.362951
0.000000 0.856291 0.331640
0.000000 0.841947 0.277714
0.000000 0.825284 0.215183
0.164797 0.803311 0.213596
0.262730 0.778714 0.213535
0.326390 0.751675 0.213748
0.372595 0.722194 0.214755
0.441352 0.736080 0.207584
0.521508 0.765591 0.192538
0.600885 0.793423 0.169741
0.678187 0.818875 0.133852
0.751644 0.841337 0.058015
0.819425 0.860533 0.000000
0.879484 0.876982 0.000000
0.931456 0.891020 0.000000
0.986053 0.913512 0.000000
1.000000 0.910582 0.000000
1.000000 0.904631 0.000000
1.000000 0.898924 0.000000
1.000000 0.893645 0.000000
1.000000 0.889250 0.165164
1.000000 0.886229 0.282200
0.000000 0.936980 0.477974
0.000000 0.936706 0.476265
0.000000 0.936370 0.473915
0.000000 0.935119 0.468910
0.000000 0.933043 0.461036
0.000000 0.930175 0.450813
0.000000 0.926299 0.438422
0.000000 0.921263 0.424445
0.000000 0.914763 0.409857
0.000000 0.906462 0.396185
0.000000 0.896178 0.381048
0.000000 0.884642 0.329503
0.000000 0.871153 0.269932
0.109071 0.854002 0.232944
0.245090 0.832578 0.230869
0.321386 0.808621 0.229435
0.376410 0.782345 0.228580
0.418708 0.755184 0.228367
0.499062 0.784237 0.219242
0.578241 0.811490 0.204868
0.655116 0.835935 0.182712
0.728359 0.857115 0.147982
0.796139 0.875029 0.080873
0.856931 0.890074 0.000000
0.910063 0.902770 0.000000
0.955993 0.913481 0.000000
1.000000 0.931365 0.000000
1.000000 0.928161 0.000000
1.000000 0.921752 0.000000
1.000000 0.915618 0.000000
1.000000 0.910033 0.101442
1.000000 0.905577 0.249516
0.000000 0.965179 0.504723
0.000000 0.964965 0.503136
0.000000 0.964691 0.500969
0.000000 0.963745 0.496376
0.000000 0.962066 0.489326
0.000000 0.959808 0.479988
0.000000 0.956664 0.468788
0.000000 0.952544 0.456245
0.000000 0.947204 0.443336
0.000000 0.940337 0.431312
0.000000 0.931579 0.421027
0.000000 0.922240 0.384894
0.000000 0.911894 0.329229
0.000000 0.899870 0.264195
0.228428 0.882475 0.256718
0.318242 0.862608 0.253513
0.382086 0.840269 0.250950
0.430518 0.815763 0.249149
0.482216 0.806302 0.246921
0.561120 0.832303 0.239261
0.637476 0.855161 0.226352
0.709834 0.874571 0.206058
0.776913 0.890837 0.173648
0.837369 0.904326 0.116945
0.890562 0.915557 0.000000
0.937041 0.924956 0.000000
0.977630 0.932708 0.000000
1.000000 0.946014 0.000000
1.000000 0.943053 0.000000
1.000000 0.936217 0.000000
1.000000 0.929747 0.000000
1.000000 0.924102 0.209293
0.000000 0.990112 0.531456
0.000000 0.989929 0.530053
0.000000 0.989715 0.528038
0.000000 0.988983 0.523857
0.000000 0.987701 0.517418
0.000000 0.985840 0.509209
0.000000 0.983337 0.499306
0.000000 0.980041 0.488502
0.000000 0.975616 0.477577
0.000000 0.969909 0.467720
0.000000 0.962615 0.459449
0.033570 0.954284 0.442206
0.101411 0.946777 0.391669
0.134615 0.937987 0.332616
0.217380 0.926085 0.291936
0.319707 0.910216 0.287388
0.391516 0.892485 0.283574
0.446357 0.872892 0.280613
0.489509 0.851347 0.278386
0.551202 0.856321 0.276310
0.626398 0.876768 0.270695
0.697261 0.893950 0.259525
0.762722 0.908110 0.240604
0.821836 0.919768 0.210269
0.874144 0.929351 0.159640
0.920104 0.937285 0.000000
0.960693 0.943816 0.000000
0.996643 0.949187 0.000000
1.000000 0.958770 0.000000
1.000000 0.955718 0.000000
1.000000 0.948516 0.000000
1.000000 0.941863 0.155489
0.000000 1.000000 0.557427
0.000000 1.000000 0.556176
0.000000 1.000000 0.554437
0.000000 1.000000 0.550713
0.000000 1.000000 0.545098
0.000000 1.000000 0.537835
0.000000 1.000000 0.529412
0.000000 1.000000 0.520439
0.000000 1.000000 0.511772
0.000000 0.995361 0.504387
0.000000 0.989105 0.498634
0.153262 0.981353 0.494667
0.198093 0.975586 0.455207
0.214725 0.969482 0.402930
