data/fiter_cube/48671653/1023255/file.cube
# Created by Adobe Lightroom plugin Export LUT (1.17.0)
# www.johnrellis.com/lightroom/exportlut.htm
# Preset: 青橙风光风景_04 云集
# Color profile: C:\Program Files (x86)\Common Files\Adobe\Color\Profiles\Recommended\AdobeRGB1998.icc
LUT_3D_SIZE 8
DOMAIN_MIN 0.000000 0.000000 0.000000
DOMAIN_MAX 0.903226 0.903226 0.903226
0.170352 0.199191 0.205844
0.170962 0.198215 0.204776
0.232517 0.196719 0.202060
0.423682 0.179263 0.194766
0.658198 0.129244 0.179385
0.825986 0.129915 0.163851
0.960937 0.219181 0.154940
1.000000 0.345769 0.189578
0.169345 0.200595 0.205661
0.171267 0.200137 0.204623
0.231083 0.208133 0.201175
0.423163 0.205844 0.192752
0.658137 0.181186 0.176272
0.825925 0.188846 0.159976
0.960601 0.261021 0.150607
1.000000 0.373236 0.187564
0.149783 0.260044 0.216709
0.159579 0.247837 0.202243
0.223636 0.252384 0.197208
0.426886 0.289921 0.183261
0.657588 0.300664 0.163119
0.825437 0.317845 0.143771
0.959319 0.372045 0.133761
1.000000 0.456397 0.180514
0.000000 0.428534 0.253300
0.071168 0.411475 0.230655
0.189151 0.335515 0.201144
0.396948 0.416663 0.166415
0.670710 0.475471 0.108431
0.824277 0.467689 0.104036
0.956634 0.512047 0.093355
1.000000 0.572564 0.169772
0.000000 0.629297 0.311070
0.000000 0.617365 0.286198
0.000000 0.562432 0.194858
0.279454 0.483040 0.191379
0.602564 0.609857 0.071107
0.839414 0.669062 0.000000
0.955230 0.667170 0.000000
1.000000 0.696956 0.163821
0.000000 0.794156 0.381659
0.000000 0.786343 0.360235
0.000000 0.752987 0.295689
0.186252 0.669032 0.189914
0.448859 0.660639 0.169009
0.769131 0.775875 0.000000
0.962768 0.831693 0.000000
1.000000 0.819272 0.000000
0.000000 0.936980 0.477974
0.000000 0.933043 0.461036
0.000000 0.914763 0.409857
0.000000 0.871153 0.269932
0.376410 0.782345 0.228580
0.655116 0.835935 0.182712
0.910063 0.902770 0.000000
1.000000 0.921752 0.000000
0.000000 1.000000 0.582238
0.000000 1.000000 0.571313
0.000000 1.000000 0.545220
0.278904 0.998688 0.518486
0.426001 0.972351 0.379339
0.630518 0.926757 0.376074
0.853635 0.959411 0.340978
0.998596 0.973754 0.000000
0.168948 0.197848 0.206180
0.169131 0.196841 0.204196
0.232731 0.195956 0.202640
0.417823 0.198764 0.193606
0.655177 0.168551 0.177401
0.824643 0.170108 0.161532
0.960510 0.240604 0.152804
1.000000 0.353491 0.189303
0.166476 0.202945 0.210788
0.172091 0.200961 0.207614
0.232090 0.206973 0.203738
0.418555 0.219120 0.192172
0.655360 0.207004 0.174350
0.824643 0.215610 0.157565
0.960235 0.277867 0.148653
1.000000 0.379828 0.187381
0.143069 0.264439 0.232853
0.156893 0.260868 0.221164
0.226719 0.255009 0.205234
0.426734 0.287175 0.189059
0.655818 0.310948 0.161837
0.824613 0.329808 0.141665
0.959045 0.381109 0.131930
1.000000 0.460578 0.180545
0.000000 0.438544 0.280919
0.000000 0.431189 0.260075
0.188479 0.359442 0.211673
0.401953 0.419959 0.180850
0.670497 0.471717 0.124331
0.823972 0.471992 0.102174
0.956603 0.516106 0.091554
1.000000 0.574517 0.170077
0.000000 0.637385 0.341466
0.000000 0.631128 0.318700
0.000000 0.581537 0.237034
0.279973 0.485145 0.208255
0.605463 0.611627 0.114626
0.839475 0.666957 0.000000
0.955535 0.669001 0.000000
1.000000 0.697688 0.164645
0.000000 0.799954 0.409155
0.000000 0.795285 0.389471
0.000000 0.763485 0.326360
0.186374 0.682826 0.211734
0.449378 0.660487 0.195193
0.770779 0.776791 0.000000
0.963012 0.831662 0.000000
1.000000 0.819333 0.000000
0.000000 0.939940 0.501030
0.000000 0.937438 0.485115
0.000000 0.920226 0.435370
0.000000 0.877287 0.319524
0.383764 0.790097 0.251591
0.655207 0.835019 0.219059
0.910307 0.903014 0.000000
1.000000 0.921630 0.000000
0.000000 1.000000 0.598993
0.000000 1.000000 0.588037
0.000000 1.000000 0.561273
0.315557 0.999054 0.550347
0.429206 0.974426 0.400214
0.628565 0.925261 0.391791
0.853086 0.958984 0.367803
0.998016 0.973724 0.082673
0.161898 0.196139 0.245335
0.174655 0.195438 0.234531
0.191836 0.200107 0.219944
0.372290 0.166751 0.226505
0.659907 0.117556 0.203311
0.824796 0.199954 0.168307
0.960845 0.272221 0.149447
1.000000 0.362341 0.189944
0.149813 0.207614 0.261326
0.168429 0.202365 0.251621
0.200595 0.208896 0.228550
0.410498 0.172488 0.228885
0.660182 0.170138 0.207370
0.825101 0.234318 0.168612
0.960632 0.303990 0.145235
1.000000 0.387427 0.188235
0.113130 0.271305 0.296391
0.134279 0.266514 0.288579
0.235142 0.260777 0.267338
0.437903 0.271092 0.248936
0.661463 0.288334 0.217227
0.825956 0.331823 0.170626
0.959686 0.397162 0.128634
1.000000 0.465248 0.181765
0.000000 0.475319 0.389715
0.000000 0.468055 0.371069
0.174838 0.440162 0.306889
0.417884 0.428260 0.259251
0.667536 0.451362 0.230014
0.826261 0.468818 0.183902
0.957580 0.524254 0.088746
1.000000 0.576562 0.172457
0.000000 0.666651 0.445014
0.000000 0.660609 0.426734
0.000000 0.636378 0.363409
0.301030 0.527153 0.275853
0.615076 0.616388 0.241886
0.837217 0.657099 0.183780
0.955901 0.668513 0.092805
1.000000 0.698024 0.168032
0.000000 0.820768 0.499397
0.000000 0.816312 0.483955
0.000000 0.798428 0.430579
0.224216 0.729030 0.319036
0.454688 0.658289 0.283085
0.775418 0.779263 0.233860
0.961120 0.828214 0.099794
1.000000 0.818570 0.049104
0.000000 0.950378 0.576471
0.000000 0.948058 0.563836
0.000000 0.938048 0.519585
0.270756 0.896788 0.472663
0.412116 0.817624 0.334539
0.655146 0.830961 0.321416
0.910185 0.903655 0.253483
1.000000 0.920745 0.000000
0.000000 1.000000 0.654414
0.000000 1.000000 0.644678
0.000000 1.000000 0.614954
0.262119 1.000000 0.598932
0.435920 0.982116 0.467323
0.635431 0.932189 0.443610
0.850248 0.957458 0.444617
0.995026 0.973602 0.308690
0.133761 0.194705 0.352117
0.164889 0.194095 0.336095
0.219394 0.198306 0.287327
0.250217 0.210483 0.260929
0.485939 0.168429 0.295964
0.816587 0.000000 0.284031
0.963775 0.236240 0.244266
1.000000 0.354498 0.193973
0.087495 0.204410 0.381048
0.143771 0.203647 0.363958
0.227268 0.206790 0.309178
0.263767 0.220645 0.272557
0.516442 0.176883 0.306340
0.829129 0.142184 0.303471
0.963134 0.276555 0.250584
1.000000 0.377569 0.192538
0.000000 0.291447 0.441810
0.000000 0.283909 0.434455
0.215824 0.257786 0.394842
0.319310 0.273198 0.322423
0.613458 0.246830 0.345037
0.826688 0.314061 0.334325
0.960967 0.384710 0.271885
1.000000 0.454414 0.187137
0.000000 0.453193 0.509575
0.000000 0.449805 0.503655
0.049653 0.442969 0.483223
0.442817 0.438666 0.444587
0.658259 0.455604 0.419593
0.822782 0.481483 0.381109
0.956542 0.524620 0.310857
1.000000 0.568139 0.178805
0.000000 0.688228 0.594049
0.000000 0.690120 0.588586
0.000000 0.690822 0.561303
0.386114 0.635035 0.484352
0.628473 0.622522 0.446723
0.823026 0.652399 0.432990
0.948638 0.674281 0.379919
1.000000 0.695888 0.245945
0.000000 0.856443 0.645319
0.000000 0.852720 0.634028
0.000000 0.837064 0.594293
0.311040 0.796536 0.533013
0.490944 0.674739 0.427436
0.779995 0.782773 0.452735
0.949981 0.826047 0.426001
1.000000 0.818051 0.339635
0.000000 0.967742 0.693599
0.000000 0.965820 0.684535
0.000000 0.957122 0.652949
0.183413 0.933043 0.600519
0.462074 0.866636 0.479438
0.651362 0.820951 0.448280
0.907164 0.904509 0.466438
1.000000 0.919524 0.396551
0.000000 1.000000 0.741085
0.000000 1.000000 0.734096
0.000000 1.000000 0.709773
0.000000 1.000000 0.675349
0.538262 0.988067 0.639399
0.646021 0.947784 0.527703
0.842466 0.954589 0.539117
0.988617 0.973388 0.492714
0.000000 0.194278 0.506249
0.110140 0.193149 0.492683
0.234684 0.191562 0.442420
0.299474 0.205844 0.353735
0.346380 0.220951 0.325536
0.566064 0.213138 0.374701
0.895354 0.162539 0.421912
1.000000 0.404791 0.446174
0.000000 0.206027 0.528618
0.020356 0.204837 0.515343
0.230808 0.202243 0.465949
0.314885 0.214176 0.374426
0.362036 0.231846 0.338262
0.585962 0.229557 0.387823
0.904021 0.210361 0.431037
1.000000 0.426429 0.449348
0.000000 0.290867 0.581750
0.000000 0.279240 0.574670
0.177798 0.256535 0.539635
0.363104 0.260410 0.450172
0.419287 0.285801 0.388373
0.650813 0.303807 0.437751
0.930327 0.359136 0.474586
1.000000 0.491676 0.456764
0.000000 0.439582 0.638972
0.000000 0.434699 0.634852
0.000000 0.423651 0.619532
0.405035 0.412787 0.575830
0.519768 0.428168 0.489387
0.754940 0.461341 0.529595
0.944396 0.547936 0.540276
1.000000 0.578027 0.453803
0.000000 0.632929 0.692073
0.000000 0.631800 0.689052
0.000000 0.630060 0.678065
0.362646 0.630060 0.657465
0.642023 0.630854 0.627802
0.807279 0.653620 0.609491
0.938659 0.684138 0.572930
1.000000 0.703731 0.494759
0.000000 0.851377 0.763699
0.000000 0.852598 0.761593
0.000000 0.855314 0.753140
0.257298 0.854154 0.736324
0.590448 0.791806 0.654871
0.783871 0.787747 0.628443
0.933898 0.820188 0.624231
1.000000 0.820218 0.570855
0.000000 0.989410 0.823636
0.000000 0.987915 0.818662
0.000000 0.980591 0.800320
0.125307 0.960479 0.764584
0.529351 0.923278 0.697353
0.645686 0.815122 0.567071
0.902708 0.905913 0.634424
1.000000 0.917266 0.614954
0.000000 1.000000 0.836301
0.000000 1.000000 0.832181
0.000000 1.000000 0.817777
0.000000 1.000000 0.791409
0.470283 1.000000 0.748287
0.656428 0.971283 0.647395
0.825406 0.948974 0.631037
0.980285 0.973205 0.649958
0.000000 0.196597 0.651881
0.000000 0.194919 0.642695
0.226993 0.188785 0.608667
0.362158 0.186191 0.541711
0.421088 0.205661 0.452979
0.471870 0.234379 0.411872
0.648280 0.294469 0.466773
0.967376 0.400580 0.603510
0.000000 0.210056 0.665553
0.000000 0.208469 0.656550
0.214633 0.202701 0.623011
0.366735 0.198856 0.557214
0.432898 0.218021 0.465583
0.483436 0.247837 0.422553
0.660426 0.309545 0.477455
0.971130 0.417029 0.608240
0.000000 0.279881 0.705379
0.000000 0.269932 0.699855
0.136782 0.260044 0.670558
0.376532 0.256229 0.608118
0.471839 0.273075 0.508019
0.522942 0.303166 0.461494
0.702998 0.366674 0.516594
0.983917 0.473030 0.623957
0.000000 0.437873 0.753567
0.000000 0.433875 0.750454
0.000000 0.413825 0.735073
0.375982 0.395880 0.692378
0.540337 0.397589 0.597284
0.585534 0.421607 0.532250
0.776242 0.473945 0.587030
1.000000 0.568780 0.649226
0.000000 0.611872 0.799252
0.000000 0.609155 0.796872
0.000000 0.603204 0.787747
0.314702 0.601465 0.768978
0.592523 0.585870 0.723720
0.670069 0.584924 0.633845
0.877348 0.632166 0.682979
1.000000 0.728054 0.708339
0.000000 0.799161 0.835782
0.000000 0.798795 0.834318
0.000000 0.798184 0.828855
0.247501 0.796292 0.818418
0.571069 0.793118 0.803220
0.790890 0.794827 0.781064
0.918303 0.815061 0.767117
1.000000 0.824094 0.729458
0.000000 0.964935 0.884855
0.000000 0.967132 0.885618
0.000000 0.972869 0.887724
0.000000 0.967193 0.880003
0.534752 0.958862 0.866758
0.743740 0.913207 0.798642
0.899138 0.907958 0.784207
0.993408 0.915465 0.782956
0.000000 1.000000 0.917754
0.000000 1.000000 0.916350
0.000000 1.000000 0.911376
0.000000 1.000000 0.897917
0.464179 1.000000 0.871153
0.702327 0.994476 0.825650
0.795407 0.939605 0.717708
0.971740 0.972930 0.793668
0.000000 0.205905 0.807095
0.000000 0.203677 0.801144
0.248508 0.195254 0.778653
0.419135 0.186923 0.732998
0.526970 0.203189 0.654322
0.576471 0.225467 0.579095
0.622004 0.286137 0.531334
0.784634 0.466499 0.625177
0.000000 0.222263 0.814603
0.000000 0.220310 0.808774
0.233707 0.212955 0.786740
0.418036 0.205692 0.741756
0.531945 0.220371 0.664118
0.582391 0.242161 0.586145
0.626825 0.300267 0.537438
0.790982 0.474586 0.631098
0.000000 0.281865 0.839597
0.000000 0.280247 0.834287
0.155886 0.277317 0.814084
0.410712 0.273289 0.771908
0.547570 0.282689 0.697658
0.602228 0.301762 0.610559
0.643824 0.350011 0.559777
0.813657 0.503319 0.652461
0.000000 0.441962 0.869993
0.000000 0.434180 0.866941
0.000000 0.413214 0.854734
0.380346 0.399939 0.822019
0.568353 0.398596 0.755123
0.635370 0.405829 0.652796
0.673976 0.435981 0.600427
0.854368 0.557397 0.690974
0.000000 0.618433 0.897246
0.000000 0.615717 0.895750
0.000000 0.609003 0.889616
0.262211 0.593164 0.874601
0.562097 0.557458 0.833036
0.687221 0.541283 0.732418
0.719112 0.552026 0.661494
0.909239 0.649317 0.747677
0.000000 0.788327 0.919951
0.000000 0.786893 0.918975
0.000000 0.783047 0.915099
0.000000 0.777127 0.906676
0.506950 0.764706 0.891691
0.732052 0.734646 0.852354
0.792203 0.717952 0.759487
0.963745 0.796353 0.823148
0.000000 0.926848 0.934661
0.000000 0.926787 0.934142
0.000000 0.926146 0.932067
0.000000 0.922728 0.927825
0.493019 0.916167 0.921050
0.736233 0.910063 0.911009
0.902007 0.911192 0.897581
0.980224 0.918730 0.888426
0.000000 1.000000 0.960082
0.000000 1.000000 0.959899
0.000000 1.000000 0.959380
0.000000 1.000000 0.961059
0.448676 1.000000 0.955413
0.734218 1.000000 0.942779
0.870085 0.979004 0.904753
0.968139 0.972930 0.900725
0.189944 0.261814 0.950103
0.258488 0.262119 0.947753
0.407202 0.265660 0.938781
0.560449 0.282078 0.920043
0.682460 0.320989 0.885344
0.748684 0.374426 0.820645
0.781033 0.380835 0.766445
0.826871 0.481514 0.736263
0.157015 0.282933 0.952392
0.237797 0.283330 0.950072
0.397772 0.286931 0.941283
0.556847 0.302556 0.922911
0.682338 0.337896 0.888975
0.751034 0.386908 0.825498
0.783108 0.393378 0.769863
0.828336 0.489235 0.738918
0.000000 0.350042 0.960204
0.102937 0.351263 0.958038
0.353613 0.355596 0.949798
0.539452 0.367864 0.932799
0.679561 0.393378 0.901366
0.758297 0.428351 0.842222
0.790341 0.434913 0.781704
0.833371 0.515465 0.748135
0.000000 0.469795 0.971252
0.000000 0.468208 0.969726
0.216403 0.467506 0.963500
0.487160 0.468727 0.948974
0.663966 0.479377 0.921904
0.766262 0.495949 0.870512
0.802182 0.500114 0.802121
0.842252 0.560479 0.764401
0.000000 0.643946 0.980713
0.000000 0.642267 0.980011
0.000000 0.626337 0.976532
0.316472 0.598047 0.968383
0.606653 0.589807 0.948241
0.763363 0.589685 0.907317
0.817350 0.587091 0.830838
0.855406 0.626337 0.788876
0.000000 0.782406 0.986725
0.000000 0.781003 0.986267
0.000000 0.777401 0.984375
0.000000 0.772366 0.979797
0.478218 0.757748 0.971160
0.727382 0.725551 0.947143
0.840421 0.705379 0.881743
0.874449 0.719722 0.824399
0.000000 0.906218 0.991333
0.000000 0.905486 0.991150
0.000000 0.903166 0.990326
0.000000 0.899779 0.987640
0.386969 0.892668 0.982055
0.676844 0.883696 0.972686
0.855680 0.868070 0.947478
0.904936 0.848234 0.879973
0.000000 0.995544 0.993805
0.000000 0.995575 0.993683
0.000000 0.995575 0.993072
0.000000 0.993103 0.991394
0.349645 0.985016 0.988067
0.676997 0.975769 0.983246
0.867857 0.972259 0.976684
0.970092 0.974029 0.968750
