data/fiter_cube/28334299/1023162/file.cube
# Created by Adobe Lightroom plugin Export LUT (1.17.0)
# www.johnrellis.com/lightroom/exportlut.htm
# Preset: 梦幻人像_01 云集
# Color profile: C:\Program Files (x86)\Common Files\Adobe\Color\Profiles\Recommended\AdobeRGB1998.icc
LUT_3D_SIZE 5
DOMAIN_MIN 0.000000 0.000000 0.000000
DOMAIN_MAX 0.903226 0.903226 0.903226
0.096223 0.069368 0.078096
0.290013 0.000000 0.068513
0.631220 0.000000 0.000000
0.861540 0.000000 0.059907
1.000000 0.000000 0.159884
0.100221 0.213352 0.130770
0.233127 0.238712 0.094728
0.616266 0.269139 0.000000
0.852903 0.196567 0.070008
1.000000 0.166354 0.180056
0.121981 0.480415 0.266606
0.212467 0.479683 0.246098
0.490425 0.526146 0.178775
0.830747 0.523003 0.133577
1.000000 0.469581 0.228214
0.255741 0.694087 0.415015
0.337163 0.696345 0.427497
0.442725 0.680964 0.417212
0.674556 0.716518 0.324346
0.963195 0.718349 0.312505
0.480232 0.869993 0.598352
0.527428 0.868528 0.612390
0.584894 0.859831 0.605982
0.695430 0.856748 0.641810
0.863798 0.899474 0.560082
0.088228 0.072145 0.197147
0.276188 0.000000 0.254368
0.614740 0.000000 0.266300
0.842191 0.000000 0.250614
1.000000 0.000000 0.285039
0.095247 0.223789 0.217807
0.263035 0.255558 0.252201
0.607019 0.223148 0.249058
0.836362 0.186465 0.258366
1.000000 0.197024 0.296086
0.088624 0.490425 0.319524
0.262669 0.501823 0.335851
0.497322 0.525780 0.281834
0.819455 0.519371 0.291875
0.992432 0.481941 0.336461
0.250156 0.697627 0.442359
0.343023 0.700649 0.458076
0.464820 0.689967 0.454597
0.680964 0.717800 0.383948
0.961822 0.721675 0.388251
0.467445 0.871275 0.605554
0.516289 0.869780 0.618616
0.607782 0.867216 0.634852
0.706111 0.859068 0.662257
0.868070 0.901274 0.585534
0.000000 0.097871 0.459022
0.250309 0.000000 0.498085
0.596307 0.000000 0.557061
0.828794 0.000000 0.511254
0.995361 0.000000 0.487953
0.146761 0.292027 0.455909
0.214572 0.238804 0.496986
0.597955 0.061402 0.561944
0.821683 0.174166 0.513451
0.991272 0.258183 0.505058
0.029328 0.498268 0.478950
0.247105 0.515099 0.497169
0.560113 0.557763 0.547662
0.798062 0.546044 0.549462
0.976776 0.532952 0.550713
0.171176 0.711299 0.528801
0.294682 0.711727 0.535943
0.541283 0.715328 0.580102
0.708583 0.727962 0.544335
0.959655 0.741360 0.578058
0.421607 0.874479 0.637171
0.473030 0.874876 0.646357
0.611933 0.873716 0.677821
0.715023 0.865507 0.690913
0.871061 0.897642 0.640009
0.000000 0.167514 0.676600
0.209262 0.126741 0.691585
0.498177 0.000000 0.738949
0.807797 0.000000 0.754879
0.983581 0.000000 0.696101
0.060517 0.299168 0.674067
0.209903 0.274846 0.688258
0.481514 0.129091 0.734829
0.803403 0.000000 0.753292
0.978912 0.054932 0.696773
0.303471 0.524895 0.645624
0.376745 0.535119 0.652827
0.496284 0.512657 0.708095
0.785977 0.458808 0.747890
0.967651 0.484321 0.711971
0.229038 0.699245 0.674922
0.318059 0.703182 0.680018
0.525750 0.719539 0.700832
0.760189 0.753628 0.743404
0.950927 0.744930 0.744228
0.325139 0.888670 0.719814
0.388251 0.888487 0.723476
0.550042 0.888396 0.737606
0.742824 0.885588 0.768643
0.884062 0.898528 0.739620
0.183871 0.303655 0.856138
0.254246 0.275731 0.861997
0.435920 0.123690 0.882658
0.699306 0.000000 0.911192
0.965545 0.000000 0.908629
0.234867 0.383703 0.850797
0.284001 0.363470 0.856809
0.437263 0.268681 0.878233
0.689967 0.000000 0.909880
0.962707 0.000000 0.907561
0.441505 0.601434 0.826658
0.458289 0.592370 0.834745
0.480262 0.516258 0.861173
0.672084 0.372290 0.900175
0.956054 0.327764 0.908507
0.464332 0.726314 0.823606
0.495827 0.726986 0.824125
0.593744 0.732174 0.829099
0.692927 0.702174 0.874266
0.946014 0.671107 0.914641
0.407538 0.875029 0.851225
0.443793 0.876188 0.853147
0.552972 0.880461 0.860136
0.715480 0.888731 0.873869
0.923125 0.917784 0.912291
