data/fiter_cube/28334299/1023162/file.cube
# Created by Adobe Lightroom plugin Export LUT (1.17.0)
# www.johnrellis.com/lightroom/exportlut.htm
# Preset: 梦幻人像_01 云集
# Color profile: C:\Program Files (x86)\Common Files\Adobe\Color\Profiles\Recommended\AdobeRGB1998.icc
LUT_3D_SIZE 32
DOMAIN_MIN 0.0 0.0 0.0
DOMAIN_MAX 1.0 1.0 1.0
0.096223 0.069368 0.078096
0.097749 0.069398 0.078035
0.102510 0.068971 0.078218
0.123293 0.066438 0.077546
0.158389 0.060487 0.076387
0.197726 0.047059 0.074708
0.241855 0.016785 0.072267
0.290013 0.000000 0.068513
0.340703 0.000000 0.063325
0.392218 0.000000 0.053590
0.443885 0.000000 0.037629
0.494331 0.000000 0.020600
0.542657 0.000000 0.003906
0.588495 0.000000 0.000000
0.631220 0.000000 0.000000
0.671199 0.000000 0.000000
0.707057 0.000000 0.000000
0.739345 0.000000 0.000000
0.773098 0.000000 0.000000
0.804623 0.000000 0.009766
0.834043 0.000000 0.034119
0.861540 0.000000 0.059907
0.887053 0.000000 0.073640
0.910918 0.000000 0.086580
0.933349 0.000000 0.100221
0.954742 0.000000 0.113313
0.975494 0.000000 0.127474
0.995911 0.000000 0.143069
1.000000 0.000000 0.159884
1.000000 0.000000 0.178134
1.000000 0.000000 0.199008
1.000000 0.000000 0.222599
0.096376 0.070558 0.078340
0.097261 0.070741 0.078279
0.102205 0.072267 0.078004
0.123293 0.073335 0.077058
0.157809 0.071626 0.076020
0.196780 0.067384 0.074128
0.240604 0.059236 0.071473
0.288396 0.031434 0.067689
0.338354 0.000000 0.062318
0.389960 0.000000 0.052399
0.441077 0.000000 0.036530
0.491493 0.000000 0.018067
0.539788 0.000000 0.004150
0.585473 0.000000 0.000000
0.628138 0.000000 0.000000
0.668025 0.000000 0.000000
0.704005 0.000000 0.000000
0.736538 0.000000 0.000000
0.770169 0.000000 0.000000
0.801205 0.000000 0.005768
0.830350 0.000000 0.028840
0.857847 0.000000 0.056794
0.883452 0.000000 0.071901
0.907469 0.000000 0.085115
0.930144 0.000000 0.097627
0.951781 0.000000 0.111086
0.972869 0.000000 0.125582
0.993561 0.000000 0.140749
1.000000 0.000000 0.157290
1.000000 0.000000 0.175998
1.000000 0.000000 0.196628
1.000000 0.000000 0.219974
0.096468 0.074372 0.079011
0.097688 0.074464 0.078981
0.101198 0.075929 0.078401
0.122713 0.082429 0.076997
0.157382 0.084291 0.075319
0.196048 0.083680 0.073518
0.239200 0.079469 0.070802
0.286503 0.073243 0.066682
0.336614 0.060761 0.061036
0.387793 0.021363 0.049928
0.438911 0.000000 0.032685
0.489143 0.000000 0.015747
0.537438 0.000000 0.001404
0.583215 0.000000 0.000000
0.626001 0.000000 0.000000
0.666041 0.000000 0.000000
0.702174 0.000000 0.000000
0.734676 0.000000 0.000000
0.768490 0.000000 0.000000
0.799191 0.000000 0.006378
0.828275 0.000000 0.027680
0.855802 0.000000 0.055360
0.881498 0.000000 0.070558
0.905608 0.000000 0.084047
0.928374 0.000000 0.096895
0.950134 0.000000 0.110445
0.971374 0.000000 0.124819
0.992187 0.000000 0.140139
1.000000 0.000000 0.156619
1.000000 0.000000 0.175418
1.000000 0.000000 0.195926
1.000000 0.000000 0.219364
0.096681 0.089570 0.083070
0.098756 0.090394 0.082643
0.102083 0.090089 0.082551
0.117281 0.096864 0.079774
0.154055 0.106691 0.075471
0.195132 0.110994 0.071870
0.238071 0.111757 0.068910
0.285039 0.110414 0.063966
0.334569 0.106813 0.057771
0.385473 0.099550 0.043091
0.436561 0.088228 0.025360
0.486732 0.068696 0.009277
0.534661 0.018341 0.000000
0.580407 0.000000 0.000000
0.623194 0.000000 0.000000
0.663294 0.000000 0.000000
0.699641 0.000000 0.000000
0.732906 0.000000 0.000000
0.766110 0.000000 0.000000
0.796139 0.000000 0.002686
0.824735 0.000000 0.027039
0.852079 0.000000 0.053559
0.878050 0.000000 0.069520
0.902739 0.000000 0.083436
0.926207 0.000000 0.096468
0.948730 0.000000 0.110445
0.970459 0.000000 0.124758
0.991577 0.000000 0.140810
1.000000 0.000000 0.157778
1.000000 0.000000 0.176333
1.000000 0.000000 0.196597
1.000000 0.000000 0.219394
0.096803 0.116091 0.091066
0.100526 0.117342 0.090822
0.102815 0.116854 0.088014
0.113558 0.115633 0.089754
0.140780 0.126558 0.081392
0.185611 0.137728 0.073121
0.233616 0.145602 0.066926
0.281529 0.149264 0.060670
0.330938 0.149294 0.050019
0.381476 0.147494 0.034852
0.432410 0.142733 0.016480
0.482216 0.135683 0.002808
0.530388 0.125185 0.000000
0.576165 0.110262 0.000000
0.619440 0.091127 0.000000
0.659968 0.062654 0.000000
0.697017 0.000000 0.000000
0.731868 0.000000 0.000000
0.764584 0.000000 0.000000
0.794247 0.000000 0.000549
0.822568 0.000000 0.027008
0.849699 0.000000 0.052796
0.875669 0.000000 0.070008
0.900511 0.000000 0.083619
0.924254 0.000000 0.097749
0.946990 0.000000 0.111147
0.968841 0.000000 0.125795
0.990143 0.000000 0.141482
1.000000 0.000000 0.158877
1.000000 0.000000 0.177096
1.000000 0.000000 0.197299
1.000000 0.000000 0.219852
0.097322 0.144869 0.101656
0.102846 0.146120 0.102296
0.106600 0.145907 0.100557
0.113832 0.144625 0.096803
0.131533 0.146090 0.097749
0.167239 0.159457 0.085420
0.219669 0.173190 0.070710
0.272892 0.184787 0.060273
0.328283 0.191928 0.040192
0.378698 0.192630 0.023804
0.429419 0.191775 0.005982
0.479255 0.187930 0.000000
0.527337 0.181247 0.000000
0.573205 0.172213 0.000000
0.616632 0.162173 0.000000
0.657465 0.147890 0.000000
0.694667 0.132692 0.000000
0.731197 0.114839 0.000000
0.763485 0.092622 0.000000
0.793179 0.064668 0.001648
0.821592 0.000000 0.026703
0.848966 0.000000 0.057282
0.895598 0.000000 0.088136
0.919158 0.000000 0.101961
0.941314 0.000000 0.116487
0.962310 0.000000 0.130373
0.982513 0.000000 0.144717
1.000000 0.000000 0.160433
1.000000 0.000000 0.177096
1.000000 0.000000 0.195529
1.000000 0.069459 0.215335
1.000000 0.118044 0.237522
0.099397 0.179202 0.115999
0.104463 0.180331 0.116335
0.110353 0.181125 0.115877
0.116213 0.179934 0.109804
0.131899 0.177310 0.110140
0.155886 0.183841 0.106020
0.200626 0.199435 0.090089
0.260716 0.215946 0.068574
0.319371 0.230167 0.049531
0.379828 0.239719 0.015656
0.434333 0.241825 0.000000
0.484443 0.239536 0.000000
0.532372 0.234775 0.000000
0.577844 0.227817 0.000000
0.620691 0.218997 0.000000
0.660517 0.208560 0.000000
0.699397 0.196963 0.000000
0.735805 0.184726 0.000000
0.767971 0.171695 0.000000
0.798154 0.157778 0.011139
0.827848 0.144533 0.042420
0.856931 0.130312 0.067506
0.884916 0.118196 0.084138
0.911254 0.105165 0.100130
0.935729 0.095521 0.115755
0.958160 0.088594 0.130770
0.979126 0.086427 0.145968
0.999176 0.090181 0.161837
1.000000 0.099855 0.178073
1.000000 0.116091 0.196048
1.000000 0.137118 0.215885
1.000000 0.162966 0.237980
0.100221 0.213352 0.130770
0.105257 0.214389 0.130861
0.111971 0.215793 0.131044
0.119203 0.215000 0.125582
0.127840 0.213046 0.117189
0.151797 0.208896 0.123720
0.182773 0.221775 0.113619
0.233127 0.238712 0.094728
0.298497 0.255772 0.067262
0.359564 0.271244 0.032776
0.420691 0.281132 0.000458
0.479744 0.285618 0.000000
0.527672 0.282170 0.000000
0.573297 0.276585 0.000000
0.616266 0.269139 0.000000
0.657252 0.260227 0.000000
0.697566 0.251194 0.000000
0.732937 0.240543 0.000000
0.764523 0.229099 0.000000
0.794400 0.217990 0.011902
0.823941 0.207004 0.046723
0.852903 0.196567 0.070008
0.880735 0.187381 0.085725
0.907164 0.178988 0.101869
0.931762 0.171756 0.117525
0.954437 0.166537 0.132479
0.975677 0.163699 0.147768
0.996033 0.162814 0.163699
1.000000 0.166354 0.180056
1.000000 0.174075 0.197665
1.000000 0.186465 0.217411
1.000000 0.203830 0.239475
0.100160 0.250584 0.147402
0.104829 0.251652 0.147463
0.111879 0.252964 0.147280
0.121828 0.253574 0.144045
0.130617 0.251621 0.134859
0.149050 0.248325 0.131991
0.175174 0.245884 0.137667
0.213138 0.262760 0.121767
0.268376 0.279881 0.100069
0.337285 0.297093 0.065827
0.399878 0.312291 0.015167
0.460578 0.321721 0.000000
0.519310 0.326452 0.000000
0.569604 0.323705 0.000000
0.613367 0.317449 0.000000
0.656916 0.310582 0.000000
0.695888 0.301549 0.000000
0.730434 0.291630 0.000000
0.761685 0.280735 0.000000
0.791440 0.269963 0.017182
0.820829 0.260319 0.052094
0.849668 0.250828 0.073121
0.877501 0.242344 0.090120
0.903899 0.234836 0.105379
0.928557 0.228336 0.121340
0.951415 0.222690 0.136049
0.972869 0.218906 0.151400
0.993408 0.217136 0.166629
1.000000 0.218021 0.183200
1.000000 0.222385 0.201205
1.000000 0.230259 0.220493
1.000000 0.242832 0.242252
0.099489 0.289372 0.165225
0.104585 0.290166 0.165164
0.111391 0.291295 0.165011
0.124697 0.292912 0.163577
0.133608 0.291112 0.154482
0.144594 0.288945 0.143465
0.173220 0.284215 0.148592
0.202335 0.287266 0.148836
0.245762 0.304143 0.130587
0.303929 0.321050 0.106325
0.375219 0.338476 0.067231
0.437568 0.351049 0.009277
0.497536 0.360021 0.000000
0.556207 0.364996 0.000000
0.613031 0.366247 0.000000
0.655940 0.359411 0.000000
0.694697 0.350591 0.000000
0.729183 0.340307 0.000000
0.760281 0.329870 0.000000
0.789731 0.319127 0.032197
0.818631 0.309331 0.061707
0.846708 0.300114 0.078981
0.873869 0.291447 0.095094
0.899718 0.283757 0.110018
0.924163 0.276982 0.124971
0.947143 0.271000 0.139498
0.969024 0.266636 0.154299
0.990051 0.263920 0.170108
1.000000 0.263737 0.187137
1.000000 0.265934 0.204898
1.000000 0.271885 0.224735
1.000000 0.281804 0.247013
0.098909 0.327123 0.183474
0.104067 0.327855 0.183291
0.111452 0.328893 0.183017
0.126558 0.330999 0.182773
0.137301 0.329900 0.175265
0.148684 0.328099 0.164950
0.168521 0.325109 0.159121
0.199680 0.320317 0.167849
0.232334 0.328862 0.161074
0.279698 0.345495 0.141085
0.339849 0.361578 0.114321
0.413642 0.379828 0.072541
0.476570 0.390814 0.011109
0.537713 0.400153 0.000000
0.594598 0.404150 0.000000
0.647547 0.403937 0.000000
0.691249 0.397772 0.000000
0.725490 0.387488 0.000000
0.756649 0.376165 0.005035
0.786130 0.365423 0.043610
0.815000 0.355413 0.069215
0.843198 0.346197 0.085054
0.870451 0.337835 0.100893
0.896483 0.329839 0.116182
0.921050 0.322911 0.130953
0.944152 0.316564 0.145083
0.966033 0.311376 0.159854
0.987152 0.307958 0.175479
1.000000 0.306310 0.191501
1.000000 0.307195 0.209567
1.000000 0.311192 0.229282
1.000000 0.318944 0.251225
0.100526 0.365026 0.202518
0.105745 0.365789 0.202457
0.113161 0.366644 0.202426
0.128267 0.368444 0.202335
0.143465 0.368750 0.197879
0.154726 0.367010 0.188357
0.167880 0.365026 0.176761
0.197482 0.360937 0.180026
0.228824 0.355993 0.189944
0.264622 0.369970 0.175235
0.315587 0.387671 0.154269
0.378851 0.404944 0.126497
0.469154 0.437232 0.085847
0.534112 0.445502 0.024781
0.594202 0.452644 0.000000
0.648646 0.454322 0.000000
0.696864 0.451057 0.003082
0.738918 0.444068 0.022644
0.769375 0.431830 0.058808
0.797879 0.419928 0.077119
0.825711 0.408789 0.091920
0.852598 0.398718 0.106416
0.878386 0.389136 0.119997
0.903044 0.380591 0.134401
0.926452 0.372717 0.147616
0.948638 0.365820 0.161929
0.969818 0.360021 0.175662
0.990204 0.355505 0.190188
1.000000 0.353094 0.206455
1.000000 0.352728 0.223514
1.000000 0.355291 0.242741
1.000000 0.361242 0.264286
0.104646 0.407630 0.225040
0.109987 0.408148 0.225071
0.117769 0.408637 0.224979
0.133394 0.409735 0.224887
0.152773 0.410590 0.223239
0.163851 0.408423 0.214084
0.176608 0.405921 0.203220
0.194766 0.402991 0.195010
0.230259 0.399725 0.205020
0.262882 0.400275 0.212924
0.304143 0.418891 0.195407
0.358679 0.437476 0.173556
0.424384 0.454932 0.144472
0.498787 0.470314 0.102266
0.565301 0.478614 0.055756
0.623560 0.484962 0.000000
0.674769 0.485389 0.029511
0.718959 0.480995 0.057404
0.758206 0.473701 0.073396
0.792050 0.463966 0.086030
0.819944 0.452430 0.100893
0.847013 0.441871 0.114351
0.872953 0.431861 0.127871
0.897795 0.422736 0.141146
0.921477 0.414313 0.154086
0.943877 0.406775 0.167391
0.965301 0.400366 0.181399
0.985992 0.395270 0.195804
1.000000 0.391760 0.211643
1.000000 0.390509 0.228458
1.000000 0.391760 0.247593
1.000000 0.396246 0.269474
0.110567 0.442481 0.244602
0.116579 0.442908 0.244633
0.123934 0.443275 0.244572
0.139223 0.444251 0.244694
0.161440 0.446235 0.245640
0.174228 0.445533 0.238895
0.187106 0.444251 0.229587
0.201236 0.442847 0.219181
0.229618 0.440284 0.220737
0.264134 0.436866 0.231693
0.296727 0.442329 0.232151
0.339879 0.459968 0.213962
0.394415 0.476814 0.190768
0.458656 0.492073 0.161105
0.530388 0.505089 0.120150
0.594629 0.510033 0.076081
0.649683 0.514672 0.050263
0.697017 0.513481 0.066041
0.738735 0.508629 0.083894
0.776699 0.501854 0.098207
0.812650 0.494545 0.110536
0.841581 0.484382 0.123201
0.867826 0.473976 0.135836
0.893004 0.464363 0.149050
0.916960 0.455421 0.161868
0.939666 0.447364 0.175174
0.961395 0.440314 0.188510
0.982330 0.434516 0.202762
1.000000 0.430426 0.218540
1.000000 0.428229 0.235874
1.000000 0.428656 0.254887
1.000000 0.431983 0.276677
0.121981 0.480415 0.266606
0.127474 0.481056 0.266941
0.134432 0.481392 0.267124
0.149386 0.482338 0.267613
0.170871 0.483650 0.268589
0.187533 0.483345 0.264897
0.199374 0.481544 0.255894
0.212467 0.479683 0.246098
0.228214 0.477913 0.236759
0.264164 0.474556 0.246799
0.297307 0.471077 0.258213
0.330266 0.481361 0.251194
0.373938 0.497658 0.232181
0.427955 0.512840 0.208408
0.490425 0.526146 0.178775
0.559167 0.536828 0.138735
0.621576 0.539055 0.094759
0.673060 0.542138 0.081178
0.718044 0.540032 0.087678
0.757961 0.535424 0.106691
0.795346 0.529473 0.121218
0.830747 0.523003 0.133577
0.862486 0.515251 0.145418
0.887938 0.505119 0.157839
0.912230 0.495796 0.170871
0.935424 0.487404 0.183627
0.957702 0.480049 0.197757
0.979309 0.474006 0.212222
1.000000 0.469581 0.228214
1.000000 0.467231 0.246036
1.000000 0.467323 0.266178
1.000000 0.470130 0.288640
0.135897 0.516167 0.288518
0.141207 0.516686 0.288762
0.147738 0.516991 0.288975
0.161654 0.517906 0.289616
0.181857 0.519127 0.290959
0.202945 0.519860 0.290715
0.214176 0.518364 0.283146
0.226627 0.516625 0.274022
0.240726 0.515099 0.264927
0.265476 0.512505 0.264256
0.299321 0.508507 0.274388
0.330571 0.504356 0.285679
0.363317 0.518029 0.270390
0.406531 0.532128 0.250156
0.458747 0.544915 0.225650
0.518578 0.555932 0.195743
0.584527 0.565118 0.157351
0.645472 0.565515 0.112795
0.694728 0.567895 0.104799
0.738613 0.565972 0.107546
0.777951 0.562127 0.127626
0.815091 0.557397 0.143709
0.849973 0.551843 0.157565
0.882444 0.545586 0.170291
0.909087 0.536950 0.182406
0.932647 0.528038 0.195438
0.955230 0.520256 0.209262
0.977020 0.513787 0.223423
0.998199 0.508812 0.239902
1.000000 0.505669 0.257572
1.000000 0.504540 0.276860
1.000000 0.506218 0.298863
0.151522 0.548119 0.308782
0.155734 0.548333 0.308904
0.162051 0.548547 0.309300
0.174685 0.549187 0.310033
0.193515 0.550103 0.311376
0.217380 0.551354 0.313634
0.228336 0.550072 0.307408
0.239933 0.548363 0.299168
0.252964 0.546563 0.290440
0.267033 0.544854 0.281712
0.299535 0.541405 0.289555
0.331518 0.537377 0.299779
0.360784 0.536797 0.305364
0.394141 0.550469 0.288029
0.436652 0.563073 0.267277
0.487282 0.574273 0.242863
0.544976 0.584009 0.213352
0.608759 0.592157 0.176944
0.668849 0.592676 0.133761
0.715541 0.592767 0.126802
0.758206 0.590753 0.126680
0.796933 0.587701 0.147189
0.833463 0.583673 0.163912
0.867613 0.578973 0.179324
0.899413 0.573419 0.192905
0.928252 0.566979 0.205905
0.951232 0.558831 0.219730
0.973480 0.551934 0.234012
0.994995 0.546471 0.249973
1.000000 0.542748 0.267979
1.000000 0.541161 0.287938
1.000000 0.542138 0.310185
0.168612 0.578729 0.329229
0.172885 0.579309 0.329747
0.187137 0.592370 0.339025
0.199008 0.592767 0.339879
0.216220 0.593317 0.341314
0.238346 0.593957 0.343542
0.253391 0.592981 0.340459
0.263676 0.590936 0.333013
0.275669 0.588739 0.324956
0.288548 0.586572 0.316442
0.309026 0.583673 0.313725
0.340948 0.579309 0.323064
0.370611 0.574395 0.333013
0.398016 0.577417 0.330632
0.431098 0.589227 0.312322
0.472602 0.600153 0.290867
0.521721 0.609644 0.265904
0.577173 0.617548 0.237034
0.637842 0.623865 0.201816
0.697688 0.625025 0.161807
0.741024 0.621485 0.153902
0.782345 0.619471 0.155398
0.820432 0.616602 0.171450
0.855711 0.612970 0.189334
0.888334 0.608179 0.205173
0.918395 0.602747 0.219333
0.946227 0.596857 0.232547
0.970184 0.590112 0.245823
0.991669 0.583734 0.261540
1.000000 0.579248 0.278782
1.000000 0.577020 0.298924
1.000000 0.577173 0.321416
0.189364 0.611383 0.351751
0.194400 0.613245 0.353277
0.200717 0.615198 0.354925
0.212314 0.617029 0.356970
0.228946 0.618708 0.359411
0.249973 0.619776 0.362036
0.269047 0.619928 0.362463
0.278660 0.618097 0.355993
0.289708 0.616144 0.348577
0.301793 0.614191 0.340978
0.314702 0.611994 0.332921
0.342046 0.608331 0.337865
0.371984 0.603784 0.347112
0.399786 0.598596 0.356512
0.425849 0.605524 0.347295
0.458717 0.616114 0.328527
0.499153 0.625635 0.307195
0.546441 0.633936 0.282994
0.599908 0.641077 0.254795
0.658442 0.646876 0.221530
0.718532 0.649714 0.183658
0.760067 0.644343 0.174685
0.801144 0.643488 0.178103
0.839017 0.641199 0.191196
0.873564 0.638178 0.210056
0.905486 0.634241 0.227268
0.934936 0.629694 0.242527
0.962432 0.625025 0.258000
0.988251 0.620569 0.273655
1.000000 0.615595 0.291142
1.000000 0.612634 0.310552
1.000000 0.612116 0.333165
0.207645 0.638270 0.371008
0.212497 0.639887 0.372381
0.218326 0.641505 0.373907
0.229191 0.643153 0.375982
0.244755 0.644495 0.378363
0.263951 0.645350 0.381018
0.286748 0.646052 0.384741
0.295476 0.644434 0.378790
0.305516 0.642817 0.372351
0.316747 0.641016 0.365484
0.328954 0.639185 0.358404
0.345220 0.636683 0.354223
0.374792 0.632441 0.362585
0.402777 0.627863 0.371618
0.428992 0.622736 0.380804
0.453986 0.632776 0.364782
0.486397 0.642176 0.346044
0.525750 0.650690 0.325170
0.571618 0.658167 0.301305
0.623163 0.664759 0.274601
0.679408 0.670100 0.243229
0.739590 0.674891 0.207340
0.780117 0.667903 0.195865
0.820676 0.667872 0.201450
0.858000 0.665980 0.211612
0.891722 0.663508 0.232029
0.922789 0.660243 0.250523
0.951690 0.656611 0.268070
0.978759 0.653162 0.285496
1.000000 0.650202 0.303319
1.000000 0.647456 0.322484
1.000000 0.646174 0.345159
0.228122 0.664027 0.390509
0.232456 0.665461 0.391913
0.237919 0.666926 0.393500
0.248051 0.668330 0.395453
0.262425 0.669398 0.397894
0.280125 0.670130 0.400732
0.301122 0.670588 0.404181
0.314153 0.669734 0.401953
0.323186 0.668147 0.395972
0.333501 0.666438 0.389776
0.344549 0.664698 0.383215
0.356573 0.662776 0.376684
0.379156 0.659449 0.379187
0.406928 0.655299 0.387610
0.433173 0.650782 0.396460
0.457099 0.649744 0.399420
0.482765 0.659449 0.383673
0.515160 0.668605 0.366186
0.554192 0.677058 0.346563
0.599298 0.684749 0.324468
0.649409 0.691402 0.299413
0.704311 0.697017 0.270390
0.765621 0.704158 0.236515
0.805417 0.696071 0.223545
0.845518 0.696895 0.231540
0.882292 0.695460 0.240360
0.915068 0.693721 0.263249
0.945251 0.691432 0.284459
0.973388 0.689082 0.304601
0.999573 0.687037 0.324895
1.000000 0.685573 0.345800
1.000000 0.684871 0.367346
0.255741 0.694087 0.415015
0.259373 0.694728 0.415930
0.263493 0.695277 0.416846
0.271977 0.695766 0.418250
0.284672 0.696162 0.420294
0.300664 0.696407 0.422827
0.320043 0.696620 0.426368
0.337163 0.696345 0.427497
0.345586 0.695094 0.422400
0.355261 0.693843 0.417121
0.366003 0.692531 0.411749
0.377417 0.691005 0.406134
0.390234 0.688930 0.401129
0.416968 0.685176 0.409064
0.442725 0.680964 0.417212
0.467445 0.676539 0.425910
0.489509 0.679072 0.422950
0.514672 0.687861 0.407233
0.546105 0.696101 0.390021
0.583520 0.703670 0.370764
0.626490 0.710475 0.348974
0.674556 0.716518 0.324346
0.726986 0.721523 0.296056
0.787289 0.729335 0.262577
0.826261 0.720150 0.246738
0.865385 0.721431 0.256687
0.901274 0.720699 0.267643
0.933562 0.719539 0.289128
0.963195 0.718349 0.312505
0.990661 0.717281 0.335576
1.000000 0.716670 0.358984
1.000000 0.716701 0.382818
0.279850 0.717830 0.435737
0.283116 0.718502 0.436744
0.287358 0.719051 0.437720
0.295171 0.719478 0.439185
0.306645 0.719692 0.441199
0.321294 0.719753 0.443671
0.339208 0.719692 0.447028
0.359258 0.719600 0.451087
0.367163 0.718441 0.446754
0.376074 0.717250 0.442084
0.385718 0.716030 0.437079
0.396338 0.714656 0.432136
0.407294 0.712947 0.426978
0.426001 0.710323 0.428290
0.451118 0.706691 0.436164
0.475532 0.702815 0.444556
0.499031 0.698909 0.453529
0.519554 0.704768 0.444739
0.544579 0.713130 0.429847
0.575341 0.721187 0.413458
0.611810 0.728786 0.394934
0.653559 0.735683 0.374151
0.700069 0.741848 0.350988
0.750820 0.746975 0.323766
0.804532 0.750301 0.288487
0.845914 0.743099 0.269291
0.884367 0.745052 0.281346
0.919524 0.745144 0.294804
0.951415 0.744717 0.315618
0.980468 0.744717 0.341924
1.000000 0.745113 0.368078
1.000000 0.746212 0.394903
0.311376 0.745266 0.461524
0.314275 0.745937 0.462623
0.317937 0.746304 0.463539
0.324865 0.746426 0.464881
0.334997 0.746365 0.466590
0.348180 0.746059 0.468910
0.364233 0.745632 0.472023
0.383093 0.745113 0.475990
0.393713 0.743893 0.474250
0.401190 0.742336 0.469612
0.409522 0.740719 0.464881
0.418891 0.739132 0.460151
0.428870 0.737331 0.455390
0.439246 0.735225 0.450355
0.461830 0.731533 0.456458
0.484901 0.727565 0.463935
0.507347 0.723445 0.471748
0.529076 0.719997 0.479408
0.548150 0.728389 0.466102
0.572900 0.736751 0.451759
0.603204 0.744900 0.436042
0.638697 0.752468 0.418463
0.678798 0.759121 0.398291
0.723232 0.764767 0.375433
0.771481 0.769192 0.348638
0.824277 0.773556 0.317784
0.868009 0.768307 0.296025
0.905150 0.770474 0.310277
0.939300 0.771267 0.326604
0.970581 0.771603 0.347692
0.998749 0.772824 0.376745
1.000000 0.774746 0.406561
0.337804 0.768093 0.483589
0.340642 0.768734 0.484657
0.344121 0.769070 0.485664
0.350408 0.769223 0.486976
0.359899 0.769039 0.488716
0.371862 0.768795 0.491218
0.386908 0.768399 0.494301
0.404517 0.767910 0.498421
0.418830 0.767178 0.499855
0.426001 0.765988 0.496132
0.433997 0.764736 0.492256
0.443061 0.763485 0.488411
0.452613 0.762081 0.484321
0.462623 0.760464 0.480323
0.477424 0.758083 0.480354
0.499794 0.754665 0.487617
0.521813 0.751034 0.495369
0.543359 0.747524 0.503685
0.563073 0.747860 0.506462
0.582238 0.756313 0.493782
0.606500 0.764584 0.480262
0.635737 0.772427 0.465034
0.669673 0.779568 0.447730
0.707881 0.785885 0.428138
0.750301 0.791196 0.405890
0.796445 0.795438 0.380285
0.846098 0.798672 0.350805
0.892058 0.797208 0.331701
0.928008 0.798154 0.345251
0.961181 0.800015 0.365484
0.991638 0.801358 0.387640
1.000000 0.804196 0.421149
0.368414 0.792752 0.508721
0.371038 0.793179 0.509606
0.373846 0.793332 0.510338
0.379309 0.793179 0.511498
0.387610 0.792844 0.513146
0.398444 0.792325 0.515282
0.412116 0.791745 0.518212
0.428260 0.791165 0.522148
0.445838 0.790585 0.526513
0.452430 0.789548 0.523186
0.460121 0.788479 0.520012
0.468605 0.787503 0.516777
0.477760 0.786435 0.513603
0.487404 0.785092 0.510338
0.497261 0.783536 0.507073
0.516228 0.780728 0.511925
0.537469 0.777493 0.519310
0.558373 0.774319 0.527214
0.579126 0.771389 0.536095
0.596735 0.774960 0.533745
0.615717 0.783322 0.521813
0.639338 0.791348 0.508782
0.667414 0.798764 0.494026
0.699672 0.805570 0.477516
0.736049 0.811521 0.458595
0.776394 0.816526 0.437232
0.820432 0.820645 0.412726
0.867887 0.823758 0.384802
0.914549 0.824857 0.367987
0.949401 0.824796 0.380865
0.981598 0.827787 0.404852
1.000000 0.830594 0.431586
0.399298 0.816373 0.533959
0.401495 0.816587 0.534691
0.404150 0.816678 0.535424
0.409216 0.816678 0.536614
0.417182 0.816495 0.538476
0.427771 0.816373 0.541131
0.441444 0.816434 0.544945
0.457649 0.816648 0.549889
0.476570 0.816953 0.556054
0.487098 0.817136 0.556603
0.495644 0.817166 0.555108
0.504967 0.817166 0.553735
0.514733 0.816983 0.552300
0.524651 0.816495 0.550500
0.534661 0.815640 0.548608
0.546990 0.814115 0.548638
0.567132 0.811460 0.555871
0.587030 0.808774 0.563500
0.606806 0.806332 0.571832
0.626368 0.804166 0.580774
0.641962 0.810513 0.574182
0.660426 0.818387 0.563287
0.682673 0.825803 0.551049
0.708827 0.832700 0.537163
0.738888 0.838895 0.521172
0.772793 0.844327 0.503136
0.810483 0.849027 0.482918
0.851835 0.852873 0.459876
0.896605 0.855924 0.433722
0.943175 0.859220 0.419867
0.976532 0.858518 0.433509
1.000000 0.862516 0.462470
0.442817 0.846006 0.568627
0.444648 0.846159 0.569207
0.446784 0.846098 0.569787
0.451270 0.845823 0.570825
0.458167 0.845457 0.572381
0.467536 0.844968 0.574762
0.479286 0.844602 0.578027
0.493690 0.844236 0.582330
0.510369 0.843961 0.587732
0.523308 0.843656 0.590387
0.530358 0.843229 0.588678
0.538231 0.842802 0.587091
0.546502 0.842283 0.585290
0.555108 0.841642 0.583398
