data/fiter_cube/28334299/1023162/file.cube
# Created by Adobe Lightroom plugin Export LUT (1.17.0)
# www.johnrellis.com/lightroom/exportlut.htm
# Preset: 梦幻人像_01 云集
# Color profile: C:\Program Files (x86)\Common Files\Adobe\Color\Profiles\Recommended\AdobeRGB1998.icc
LUT_3D_SIZE 8
DOMAIN_MIN 0.000000 0.000000 0.000000
DOMAIN_MAX 0.903226 0.903226 0.903226
0.096223 0.069368 0.078096
0.158389 0.060487 0.076387
0.340703 0.000000 0.063325
0.542657 0.000000 0.003906
0.707057 0.000000 0.000000
0.834043 0.000000 0.034119
0.933349 0.000000 0.100221
1.000000 0.000000 0.159884
0.096803 0.116091 0.091066
0.140780 0.126558 0.081392
0.330938 0.149294 0.050019
0.530388 0.125185 0.000000
0.697017 0.000000 0.000000
0.822568 0.000000 0.027008
0.924254 0.000000 0.097749
1.000000 0.000000 0.158877
0.100160 0.250584 0.147402
0.130617 0.251621 0.134859
0.268376 0.279881 0.100069
0.519310 0.326452 0.000000
0.695888 0.301549 0.000000
0.820829 0.260319 0.052094
0.928557 0.228336 0.121340
1.000000 0.218021 0.183200
0.104646 0.407630 0.225040
0.152773 0.410590 0.223239
0.230259 0.399725 0.205020
0.424384 0.454932 0.144472
0.674769 0.485389 0.029511
0.819944 0.452430 0.100893
0.921477 0.414313 0.154086
1.000000 0.391760 0.211643
0.151522 0.548119 0.308782
0.193515 0.550103 0.311376
0.252964 0.546563 0.290440
0.360784 0.536797 0.305364
0.544976 0.584009 0.213352
0.758206 0.590753 0.126680
0.899413 0.573419 0.192905
0.994995 0.546471 0.249973
0.228122 0.664027 0.390509
0.262425 0.669398 0.397894
0.323186 0.668147 0.395972
0.379156 0.659449 0.379187
0.482765 0.659449 0.383673
0.649409 0.691402 0.299413
0.845518 0.696895 0.231540
0.973388 0.689082 0.304601
0.337804 0.768093 0.483589
0.359899 0.769039 0.488716
0.418830 0.767178 0.499855
0.452613 0.762081 0.484321
0.521813 0.751034 0.495369
0.606500 0.764584 0.480262
0.750301 0.791196 0.405890
0.928008 0.798154 0.345251
0.480232 0.869993 0.598352
0.494392 0.869413 0.602197
0.542748 0.868315 0.617609
0.580346 0.868040 0.619562
0.604517 0.859007 0.604944
0.678950 0.854398 0.638178
0.749813 0.878569 0.616449
0.863798 0.899474 0.560082
0.093935 0.070436 0.115297
0.153811 0.033936 0.134157
0.328069 0.000000 0.150332
0.529686 0.000000 0.127840
0.695918 0.000000 0.124117
0.818540 0.000000 0.134707
0.920378 0.000000 0.159091
1.000000 0.000000 0.199222
0.093111 0.118227 0.120882
0.151247 0.131533 0.135531
0.324895 0.116609 0.134920
0.524315 0.036561 0.127016
0.690852 0.000000 0.123323
0.812833 0.000000 0.134890
0.913664 0.000000 0.157473
1.000000 0.000000 0.197116
0.095766 0.255222 0.173831
0.154147 0.266026 0.181186
0.277104 0.286656 0.151064
0.515953 0.314611 0.127962
0.685267 0.286503 0.126680
0.808377 0.249119 0.143191
0.913146 0.220523 0.172061
1.000000 0.214817 0.215518
0.102602 0.407111 0.243687
0.159030 0.412787 0.246860
0.242069 0.409461 0.231174
0.419776 0.447517 0.182956
0.657588 0.469612 0.135012
0.799802 0.439094 0.163760
0.905180 0.405402 0.194003
0.995850 0.387121 0.238285
0.153902 0.548638 0.323247
0.194736 0.549737 0.324895
0.270512 0.548028 0.314824
0.364446 0.530907 0.322393
0.538842 0.575586 0.236728
0.751095 0.583551 0.170382
0.892424 0.569085 0.229984
0.988251 0.543786 0.276432
0.224826 0.660060 0.396307
0.254887 0.661219 0.399756
0.329717 0.662226 0.406317
0.379553 0.655512 0.385168
0.483589 0.654932 0.395758
0.649195 0.689479 0.317601
0.843137 0.694301 0.255650
0.969451 0.686641 0.324620
0.326696 0.761318 0.481575
0.345983 0.760281 0.484199
0.412787 0.760067 0.499336
0.453376 0.757198 0.488533
0.520897 0.748348 0.497780
0.604425 0.759884 0.485237
0.745418 0.785397 0.410803
0.922148 0.792020 0.351080
0.468818 0.866056 0.594476
0.484443 0.866239 0.599207
0.534386 0.865568 0.614954
0.580133 0.865660 0.621851
0.614343 0.863859 0.616449
0.682856 0.856809 0.643824
0.749325 0.876982 0.619989
0.861479 0.896727 0.561791
0.084260 0.072389 0.234134
0.152224 0.020691 0.257145
0.325689 0.000000 0.302312
0.526329 0.000000 0.321508
0.694331 0.000000 0.303105
0.817777 0.000000 0.296574
0.920073 0.000000 0.304814
1.000000 0.000000 0.323705
0.112825 0.154696 0.236637
0.138552 0.130587 0.261143
0.325505 0.018952 0.303532
0.521660 0.000000 0.309392
0.690242 0.000000 0.295689
0.812222 0.000000 0.293339
0.915068 0.000000 0.302892
1.000000 0.021546 0.322820
0.086183 0.264897 0.256229
0.144167 0.276921 0.268193
0.306615 0.302098 0.296880
0.511650 0.290196 0.297032
0.686397 0.272343 0.298589
0.807462 0.256840 0.302342
0.910796 0.247990 0.311925
0.999390 0.256168 0.332097
0.000000 0.427131 0.310063
0.123842 0.433600 0.314336
0.297246 0.448157 0.335454
0.447639 0.467567 0.304234
0.674037 0.478737 0.312352
0.798764 0.446540 0.320073
0.904356 0.422766 0.331029
0.993988 0.412146 0.351629
0.116854 0.558526 0.366400
0.177676 0.561975 0.370825
0.311711 0.569940 0.389502
0.402991 0.560571 0.385748
0.561334 0.591547 0.333257
0.761776 0.591302 0.306767
0.891783 0.579675 0.354650
0.984771 0.558190 0.378119
0.211856 0.666651 0.427039
0.248081 0.668269 0.431800
0.345159 0.670893 0.447272
0.419806 0.666835 0.442084
0.505180 0.656947 0.450660
0.656733 0.691402 0.381750
0.846036 0.695735 0.337072
0.969787 0.695369 0.410224
0.321508 0.766995 0.503502
0.343053 0.766506 0.506737
0.410437 0.765194 0.519371
0.484413 0.762478 0.528710
0.535973 0.753933 0.523674
0.616999 0.760525 0.523247
0.753780 0.789364 0.458228
0.928313 0.798306 0.413642
0.457008 0.868467 0.603693
0.469734 0.867521 0.605921
0.520623 0.866117 0.619684
0.594812 0.867582 0.643915
0.626581 0.865293 0.635645
0.688411 0.859739 0.655604
0.754788 0.877409 0.640497
0.865934 0.898619 0.587457
0.035035 0.085786 0.384680
0.141085 0.060121 0.402014
0.313573 0.000000 0.451453
0.514000 0.000000 0.480690
0.683375 0.000000 0.473091
0.806271 0.000000 0.443488
0.908843 0.000000 0.431159
0.997559 0.000000 0.434363
0.000000 0.154147 0.395697
0.116915 0.139162 0.409216
0.300847 0.000000 0.453773
0.515831 0.000000 0.483284
0.682918 0.000000 0.470069
0.803006 0.000000 0.442725
0.905364 0.000000 0.433539
0.995239 0.129061 0.439094
0.143771 0.299443 0.379828
0.189578 0.305486 0.388525
0.269169 0.279271 0.440040
0.510857 0.223362 0.483497
0.677852 0.243198 0.466804
0.799496 0.271122 0.456306
0.905303 0.304295 0.462135
0.992523 0.334020 0.472206
0.000000 0.426520 0.409705
0.126009 0.434028 0.417609
0.287114 0.456062 0.441474
0.485451 0.484138 0.475013
0.658442 0.476753 0.476814
0.783505 0.466529 0.476204
0.892668 0.457313 0.477241
0.985931 0.453803 0.482979
0.000000 0.580713 0.450111
0.095857 0.582605 0.452003
0.283207 0.589807 0.463355
0.470161 0.599298 0.497047
0.593652 0.609857 0.469856
0.770535 0.613611 0.486000
0.884306 0.598352 0.495827
0.978119 0.583062 0.501854
0.172091 0.682124 0.484199
0.220951 0.686366 0.490120
0.333501 0.687678 0.501335
0.475441 0.689723 0.529778
0.553674 0.678340 0.531884
0.678218 0.702358 0.485298
0.854429 0.706325 0.466499
0.969421 0.713252 0.529290
0.297337 0.774197 0.538384
0.322911 0.774868 0.541955
0.399054 0.775784 0.554314
0.507561 0.775937 0.579278
0.574975 0.770474 0.580468
0.644282 0.765438 0.587396
0.765652 0.793973 0.528252
0.932952 0.802457 0.496162
0.443397 0.875303 0.627497
0.458534 0.875395 0.630579
0.505577 0.874327 0.639582
0.583398 0.872831 0.659724
0.647730 0.870207 0.670375
0.696437 0.865599 0.675074
0.762295 0.877165 0.672572
0.871458 0.900175 0.624262
0.000000 0.113008 0.526604
0.114595 0.096498 0.536706
0.279759 0.000000 0.566735
0.474403 0.000000 0.610224
0.670497 0.000000 0.625879
0.795285 0.000000 0.591302
0.901122 0.000000 0.561730
0.992889 0.000000 0.544518
0.000000 0.170809 0.531090
0.090730 0.160220 0.540978
0.268101 0.095735 0.569299
0.469429 0.000000 0.613031
0.670253 0.000000 0.626398
0.794308 0.000000 0.590967
0.899992 0.000000 0.563043
0.991547 0.000000 0.547448
0.176791 0.337102 0.518822
0.202243 0.334020 0.531518
0.251469 0.281651 0.561913
0.445960 0.203677 0.610285
0.665309 0.140169 0.625238
0.785855 0.200137 0.589776
0.892760 0.241520 0.568444
0.985260 0.272526 0.557061
0.189090 0.439673 0.516289
0.227604 0.444068 0.521355
0.337652 0.460914 0.538231
0.444251 0.454902 0.589532
0.653559 0.423407 0.623560
0.774624 0.445136 0.598047
0.883055 0.452949 0.588769
0.977996 0.456031 0.582971
0.102083 0.562249 0.541009
0.165408 0.566705 0.545830
0.298619 0.579889 0.560357
0.460975 0.600336 0.584161
0.625513 0.621759 0.611139
0.755856 0.615961 0.611810
0.869780 0.607446 0.610559
0.967834 0.598688 0.609064
0.000000 0.691066 0.561364
0.117281 0.692958 0.563439
0.278935 0.694606 0.569238
0.440589 0.697078 0.583703
0.599176 0.698146 0.613550
0.698939 0.709071 0.594903
0.858640 0.724636 0.614923
0.961730 0.718593 0.627771
0.246769 0.782071 0.590387
0.275608 0.781796 0.592004
0.360449 0.781765 0.598932
0.476387 0.782315 0.614405
0.603143 0.782040 0.641901
0.670558 0.771847 0.645624
0.776699 0.795804 0.604242
0.936248 0.804227 0.589410
0.401404 0.877134 0.654414
0.416876 0.876738 0.656031
0.467597 0.875700 0.662318
0.550652 0.877958 0.678798
0.643671 0.875944 0.698909
0.704158 0.872343 0.701534
0.769100 0.873106 0.711177
0.874388 0.898192 0.663813
0.000000 0.155947 0.653223
0.088533 0.145571 0.658412
0.252995 0.082826 0.674098
0.419501 0.000000 0.701839
0.605615 0.000000 0.726864
0.784146 0.000000 0.732479
0.892699 0.000000 0.695216
0.987335 0.000000 0.666499
0.000000 0.202609 0.650477
0.080110 0.193576 0.655177
0.245182 0.152926 0.671595
0.411810 0.000000 0.699977
0.600885 0.000000 0.725429
0.781552 0.000000 0.730800
0.890593 0.000000 0.694331
0.985595 0.000000 0.666651
0.177157 0.351629 0.646723
0.171847 0.332952 0.651789
0.250156 0.300420 0.669490
0.401312 0.246738 0.698451
0.594202 0.100374 0.729000
0.779416 0.000000 0.731807
0.887358 0.160647 0.696864
0.982269 0.211826 0.671839
0.296971 0.481666 0.621912
0.318029 0.484169 0.625635
0.370062 0.486702 0.650477
0.427588 0.450446 0.688350
0.588403 0.396765 0.728969
0.775875 0.385473 0.735378
0.882353 0.412421 0.706569
0.977173 0.420508 0.685084
0.261845 0.565545 0.633478
0.289555 0.568322 0.636255
0.373266 0.578027 0.645167
0.493111 0.596857 0.659754
0.590692 0.596033 0.699336
0.757290 0.574395 0.727565
0.867308 0.584009 0.710780
0.965393 0.581018 0.698970
0.200381 0.672206 0.648341
0.236942 0.675319 0.651728
0.333013 0.682063 0.659724
0.459785 0.692561 0.672694
0.597467 0.706203 0.690517
0.735164 0.729030 0.718563
0.854887 0.726528 0.721706
0.955962 0.720211 0.721065
0.198276 0.791257 0.670008
0.232822 0.793027 0.672206
0.321324 0.796323 0.676875
0.441352 0.799893 0.685176
0.579400 0.799313 0.697871
0.712856 0.799863 0.722042
0.799374 0.806699 0.700771
0.943877 0.821897 0.720455
0.346044 0.886381 0.704585
0.363836 0.885954 0.705409
0.421607 0.884977 0.708949
0.509545 0.884916 0.717678
0.608911 0.884001 0.729458
0.718929 0.882109 0.751095
0.785916 0.875029 0.759823
0.882078 0.898711 0.722591
0.000000 0.215854 0.755917
0.117098 0.209018 0.760006
0.243961 0.173800 0.770443
0.383795 0.000000 0.788876
0.546868 0.000000 0.813321
0.717250 0.000000 0.823026
0.879576 0.000000 0.823911
0.975647 0.000000 0.784360
0.046174 0.250614 0.751766
0.125612 0.244266 0.755703
0.242832 0.214298 0.766262
0.378637 0.128450 0.784268
0.539940 0.000000 0.808774
0.712032 0.000000 0.819333
0.874693 0.000000 0.819760
0.971221 0.000000 0.780636
0.168063 0.358801 0.750210
0.186984 0.350835 0.753231
0.264652 0.330053 0.763058
0.379980 0.284092 0.781338
0.530877 0.168307 0.805997
0.708064 0.000000 0.821164
0.874632 0.000000 0.822080
0.971771 0.000000 0.785214
0.347906 0.515007 0.734157
0.358007 0.512840 0.737636
0.378973 0.495491 0.750942
0.413825 0.449226 0.772488
0.533227 0.396796 0.799344
0.704952 0.318914 0.824491
0.872557 0.321386 0.825406
0.968933 0.345922 0.791287
0.375372 0.594171 0.719387
0.390936 0.595361 0.719844
0.444038 0.601862 0.723201
0.509575 0.607935 0.742031
0.555444 0.571496 0.778378
0.693263 0.519951 0.816678
0.860655 0.515953 0.821622
0.960143 0.531853 0.797513
0.342107 0.672145 0.730098
0.359960 0.673426 0.731380
0.417456 0.678065 0.735714
0.505394 0.686915 0.743740
0.610224 0.700587 0.755001
0.698329 0.700557 0.794888
0.851621 0.684962 0.823239
0.951781 0.689448 0.806851
0.296422 0.771298 0.746365
0.317601 0.772793 0.748104
0.380591 0.775998 0.752346
0.473121 0.781735 0.760037
0.583032 0.789181 0.770535
0.702632 0.802182 0.787778
0.833036 0.825925 0.816983
0.940520 0.823636 0.819577
0.307805 0.883452 0.770962
0.325292 0.884031 0.771817
0.384955 0.888121 0.777005
0.467536 0.892088 0.782620
0.566857 0.896330 0.789548
0.687892 0.895323 0.799374
0.813993 0.893523 0.821836
0.895079 0.901610 0.803250
0.183871 0.303655 0.856138
0.206973 0.294987 0.858518
0.274693 0.265812 0.863859
0.375555 0.198550 0.875242
0.503075 0.000000 0.890806
0.659266 0.000000 0.909758
0.817075 0.000000 0.912078
0.965545 0.000000 0.908629
0.196719 0.326574 0.853483
0.217929 0.320714 0.855741
0.280247 0.294255 0.861570
0.375891 0.234409 0.872679
0.500267 0.000000 0.888518
0.654841 0.000000 0.907836
0.814176 0.000000 0.910338
0.963378 0.000000 0.906981
0.250340 0.406439 0.848356
0.263859 0.401465 0.850340
0.307256 0.379767 0.855802
0.388251 0.338933 0.869230
0.498848 0.247501 0.885283
0.645106 0.000000 0.904875
0.809628 0.000000 0.909819
0.961303 0.000000 0.906828
0.400153 0.548638 0.837095
0.397345 0.540459 0.839811
0.382483 0.504875 0.847532
0.424353 0.470314 0.860807
0.510552 0.415015 0.878599
0.638666 0.301274 0.900450
0.804318 0.195407 0.910826
0.958923 0.190677 0.908446
0.478706 0.647120 0.814450
0.484230 0.646754 0.817441
0.499306 0.641047 0.825742
0.526146 0.625238 0.842466
0.540002 0.567041 0.863951
0.638911 0.504875 0.888731
0.795560 0.428138 0.909453
0.953216 0.439460 0.909483
0.467079 0.707179 0.818723
0.476143 0.707240 0.818662
0.508293 0.708278 0.819272
0.561852 0.711421 0.821805
0.620996 0.712154 0.834867
0.661616 0.673976 0.871458
0.792050 0.627436 0.908446
0.948119 0.630152 0.914122
0.439216 0.781643 0.832090
0.449012 0.781643 0.832181
0.482399 0.782010 0.833219
0.539147 0.784115 0.836515
0.614405 0.787900 0.842008
0.707912 0.796170 0.850980
0.795438 0.796231 0.887663
0.936828 0.784939 0.913909
0.407538 0.875029 0.851225
0.418219 0.875242 0.851591
0.455360 0.876585 0.853727
0.515679 0.878874 0.857511
0.593591 0.882261 0.863127
0.688594 0.887083 0.871183
0.801907 0.895720 0.884459
0.923125 0.917784 0.912291
