data/fiter_cube/48671653/1023252/file.cube
# Created by Adobe Lightroom plugin Export LUT (1.17.0)
# www.johnrellis.com/lightroom/exportlut.htm
# Preset: 青橙风光风景_01 云集
# Color profile: C:\Program Files (x86)\Common Files\Adobe\Color\Profiles\Recommended\AdobeRGB1998.icc
LUT_3D_SIZE 32
DOMAIN_MIN 0.0 0.0 0.0
DOMAIN_MAX 1.0 1.0 1.0
0.118379 0.144503 0.150973
0.124483 0.145174 0.151400
0.132967 0.145968 0.152041
0.146731 0.147921 0.153750
0.163363 0.150820 0.156100
0.182406 0.153597 0.158724
0.204562 0.156191 0.161105
0.231144 0.157900 0.163119
0.263645 0.158572 0.164492
0.304204 0.157351 0.165499
0.354620 0.153140 0.165988
0.413886 0.145052 0.165774
0.480201 0.131411 0.164950
0.550164 0.113039 0.163088
0.619959 0.092348 0.160464
0.687495 0.073396 0.157137
0.751339 0.069642 0.153048
0.810391 0.089082 0.148501
0.861143 0.122408 0.144411
0.904570 0.160159 0.140932
0.941344 0.198032 0.139101
0.972381 0.235264 0.139620
0.998688 0.270268 0.142733
1.000000 0.303899 0.149142
1.000000 0.335058 0.159182
1.000000 0.365118 0.172976
1.000000 0.394018 0.191165
1.000000 0.422461 0.213840
1.000000 0.450996 0.241550
1.000000 0.480812 0.274968
1.000000 0.512322 0.314824
1.000000 0.547021 0.362097
0.119051 0.149355 0.152041
0.125673 0.148196 0.150668
0.132174 0.150362 0.152132
0.145754 0.152407 0.154147
0.162600 0.154574 0.156558
0.181888 0.157107 0.159152
0.204257 0.159457 0.161563
0.230930 0.160983 0.163302
0.263767 0.161532 0.164523
0.304509 0.160708 0.165621
0.355047 0.156985 0.166079
0.414496 0.149172 0.165835
0.480934 0.136995 0.164920
0.551080 0.120394 0.162844
0.620813 0.102449 0.160311
0.688319 0.088624 0.156863
0.752010 0.087037 0.152743
0.810941 0.104372 0.148104
0.861601 0.134340 0.143771
0.904936 0.169375 0.140414
0.941588 0.205722 0.138705
0.972564 0.241337 0.139132
0.998779 0.275883 0.142489
1.000000 0.308598 0.148836
1.000000 0.339391 0.158999
1.000000 0.368994 0.173098
1.000000 0.397406 0.191196
1.000000 0.425666 0.213931
1.000000 0.453895 0.241825
1.000000 0.483345 0.275303
1.000000 0.514611 0.315282
1.000000 0.548974 0.362646
0.119692 0.156191 0.153384
0.130282 0.156069 0.153750
0.135653 0.153109 0.150210
0.145724 0.156497 0.153811
0.161746 0.159457 0.157290
0.181155 0.161715 0.159762
0.203830 0.163699 0.161898
0.230716 0.165133 0.163516
0.263737 0.165774 0.164858
0.304784 0.165164 0.165652
0.355596 0.161868 0.166049
0.415351 0.155062 0.165743
0.481941 0.144137 0.164767
0.552178 0.129610 0.162875
0.621820 0.115175 0.160067
0.689418 0.104585 0.156527
0.753017 0.106264 0.152377
0.811765 0.121828 0.147646
0.862272 0.148714 0.143252
0.905425 0.181613 0.139803
0.941924 0.215854 0.138064
0.972808 0.250034 0.138460
0.998932 0.283391 0.141878
1.000000 0.314885 0.148623
1.000000 0.345251 0.158785
1.000000 0.374090 0.173068
1.000000 0.401984 0.191409
1.000000 0.429725 0.214359
1.000000 0.457557 0.242374
1.000000 0.486702 0.275883
1.000000 0.517510 0.315862
1.000000 0.551629 0.363317
0.122774 0.167697 0.157229
0.132235 0.167453 0.160250
0.141726 0.166567 0.157900
0.151400 0.160922 0.149447
0.164828 0.164096 0.153658
0.179568 0.170718 0.160983
0.202670 0.172396 0.162692
0.230259 0.173770 0.164126
0.263737 0.174655 0.165164
0.305547 0.174533 0.165866
0.356817 0.172335 0.166171
0.417243 0.167056 0.165713
0.484077 0.158907 0.164523
0.554437 0.148440 0.162417
0.624262 0.138643 0.159396
0.691768 0.133852 0.155703
0.755154 0.138003 0.151308
0.813626 0.152804 0.146334
0.863676 0.176455 0.141878
0.906401 0.205112 0.138369
0.942657 0.236301 0.136660
0.973297 0.267826 0.137240
0.999237 0.299046 0.140810
1.000000 0.328832 0.147829
1.000000 0.357427 0.158419
1.000000 0.385107 0.172915
1.000000 0.411810 0.191684
1.000000 0.438697 0.214939
1.000000 0.465705 0.243259
1.000000 0.493843 0.277195
1.000000 0.524071 0.317296
1.000000 0.557427 0.364904
0.126833 0.179965 0.162264
0.134829 0.180026 0.165347
0.142885 0.179568 0.165469
0.156405 0.177615 0.161410
0.170291 0.170748 0.148592
0.188937 0.172793 0.151522
0.203403 0.182864 0.162264
0.229465 0.186526 0.164889
0.263951 0.188022 0.165682
0.306432 0.188907 0.166232
0.358770 0.188113 0.166354
0.419867 0.185458 0.165591
0.487526 0.180148 0.164126
0.558129 0.174136 0.161685
0.627924 0.169619 0.158419
0.695155 0.169589 0.154330
0.758480 0.176120 0.149508
0.816281 0.190890 0.144289
0.865873 0.211887 0.139681
0.908080 0.237308 0.135927
0.943786 0.264958 0.134340
0.974060 0.293584 0.135195
0.999695 0.321874 0.139284
1.000000 0.349584 0.146517
1.000000 0.376104 0.157717
1.000000 0.401770 0.172824
1.000000 0.427070 0.192111
1.000000 0.452247 0.215946
1.000000 0.478004 0.244785
1.000000 0.504997 0.278965
1.000000 0.533989 0.319646
1.000000 0.566217 0.367559
0.129488 0.193881 0.166110
0.136294 0.193942 0.168338
0.145418 0.194034 0.171115
0.158816 0.192081 0.168276
0.174319 0.189700 0.162783
0.192538 0.182528 0.148318
0.218997 0.183413 0.147677
0.237522 0.194705 0.159640
0.263706 0.205051 0.166506
0.307591 0.207279 0.166720
0.361181 0.208713 0.166476
0.423499 0.208499 0.165377
0.491859 0.206882 0.163485
0.562829 0.204990 0.160525
0.632715 0.204990 0.156741
0.699794 0.208988 0.152224
0.762661 0.218326 0.146914
0.819883 0.233310 0.141299
0.868559 0.252659 0.136294
0.910094 0.275212 0.132601
0.945220 0.299870 0.131014
0.975036 0.325170 0.132326
1.000000 0.350469 0.136934
1.000000 0.375402 0.145083
1.000000 0.399756 0.156954
1.000000 0.423163 0.172824
1.000000 0.446601 0.192905
1.000000 0.469947 0.217441
1.000000 0.494118 0.246921
1.000000 0.519585 0.281773
1.000000 0.547143 0.322698
1.000000 0.577966 0.371099
0.131624 0.209598 0.169589
0.137972 0.209567 0.171511
0.146456 0.209720 0.173953
0.160952 0.208469 0.174533
0.179294 0.205081 0.170840
0.195987 0.203464 0.163699
0.219059 0.196780 0.149081
0.257145 0.196658 0.142184
0.282170 0.209689 0.155154
0.315923 0.223209 0.162966
0.364080 0.233402 0.166506
0.427741 0.236118 0.165011
0.497047 0.238071 0.162509
0.568688 0.240482 0.158968
0.638697 0.244511 0.154604
0.705318 0.251713 0.149203
0.767880 0.263096 0.143404
0.824186 0.278325 0.137118
0.871977 0.296605 0.131746
0.912566 0.316869 0.128145
0.946960 0.338872 0.126802
0.976165 0.361181 0.128786
1.000000 0.383734 0.134005
1.000000 0.405798 0.143221
1.000000 0.427558 0.156222
1.000000 0.448676 0.173220
1.000000 0.470008 0.194217
1.000000 0.491463 0.219577
1.000000 0.513603 0.249851
1.000000 0.537346 0.285374
1.000000 0.563134 0.326879
1.000000 0.592279 0.375647
0.134005 0.227634 0.173404
0.139895 0.227665 0.175051
0.147707 0.227848 0.177340
0.164126 0.227481 0.181125
0.181765 0.223880 0.177554
0.202243 0.218601 0.173068
0.222660 0.219883 0.164553
0.251957 0.214755 0.150973
0.305089 0.213504 0.136080
0.341588 0.228702 0.147860
0.384894 0.244877 0.155673
0.435920 0.264042 0.162142
0.503288 0.273472 0.161105
0.575341 0.279515 0.156588
0.645441 0.287205 0.151369
0.711818 0.297246 0.145449
0.773892 0.310369 0.138643
0.829068 0.326055 0.131655
0.875792 0.343053 0.126101
0.915343 0.361639 0.122499
0.948882 0.381048 0.121553
0.977386 0.400855 0.124331
1.000000 0.420600 0.130709
1.000000 0.440009 0.141115
1.000000 0.458900 0.155550
1.000000 0.477943 0.173709
1.000000 0.496742 0.196017
1.000000 0.515984 0.222416
1.000000 0.536126 0.253666
1.000000 0.557824 0.289830
1.000000 0.581781 0.332097
1.000000 0.609003 0.381323
0.136477 0.249088 0.177768
0.142061 0.249119 0.179232
0.149783 0.249180 0.181369
0.166567 0.249149 0.185702
0.186160 0.246220 0.185092
0.207370 0.240909 0.180606
0.229160 0.237278 0.174685
0.256291 0.240055 0.165011
0.294469 0.236667 0.151308
0.364141 0.236790 0.133394
0.416175 0.253330 0.135805
0.466896 0.273136 0.143374
0.523003 0.296391 0.148867
0.582849 0.322515 0.153597
0.652857 0.333349 0.147341
0.718990 0.345892 0.140108
0.780545 0.360449 0.132174
0.834562 0.376257 0.124514
0.879911 0.391974 0.118807
0.918364 0.408759 0.115297
0.950958 0.425849 0.115297
0.978759 0.442939 0.118990
1.000000 0.460029 0.127016
1.000000 0.476936 0.139101
1.000000 0.493446 0.155215
1.000000 0.509758 0.174838
1.000000 0.526329 0.198581
1.000000 0.543297 0.226352
1.000000 0.561303 0.258518
1.000000 0.580804 0.295598
1.000000 0.602686 0.338445
1.000000 0.627771 0.388159
0.138796 0.274418 0.182284
0.144472 0.274418 0.183719
0.152102 0.274571 0.185519
0.168917 0.274510 0.189761
0.191775 0.272770 0.192996
0.213443 0.266972 0.188479
0.237583 0.259495 0.183200
0.263005 0.259831 0.175631
0.299351 0.264652 0.164218
0.349218 0.263401 0.148318
0.435981 0.265843 0.127352
0.501671 0.285161 0.116030
0.555810 0.309545 0.123445
0.611658 0.337713 0.127962
0.667506 0.370550 0.133639
0.726833 0.396796 0.133333
0.787778 0.412360 0.124147
0.840330 0.427832 0.115724
0.884276 0.442664 0.109712
0.921477 0.457374 0.106844
0.953155 0.472389 0.107790
0.980072 0.487312 0.113252
1.000000 0.501762 0.123384
1.000000 0.515923 0.137636
1.000000 0.529900 0.155612
1.000000 0.543908 0.177188
1.000000 0.557977 0.202274
1.000000 0.572686 0.231357
1.000000 0.588464 0.264439
1.000000 0.605768 0.302586
1.000000 0.625452 0.346136
1.000000 0.648341 0.396307
0.140017 0.304631 0.186679
0.145998 0.304692 0.187930
0.154055 0.304784 0.189792
0.171176 0.304631 0.193912
0.197238 0.303929 0.200168
0.221073 0.298039 0.196780
0.246250 0.289616 0.191257
0.272709 0.279606 0.185092
0.305821 0.286900 0.175326
0.353521 0.294499 0.161318
0.415503 0.295872 0.141787
0.517082 0.301823 0.114778
0.589685 0.327642 0.089387
0.644129 0.355779 0.089082
0.696925 0.387915 0.092409
0.748226 0.423774 0.098878
0.796628 0.462440 0.110231
0.846189 0.481147 0.104646
0.888731 0.494484 0.098451
0.924712 0.507530 0.096529
0.955352 0.520317 0.099519
0.981384 0.532738 0.107607
1.000000 0.544823 0.120241
1.000000 0.556542 0.136873
1.000000 0.568048 0.157290
1.000000 0.579492 0.180758
1.000000 0.591302 0.207584
1.000000 0.603693 0.237919
1.000000 0.617151 0.272068
1.000000 0.632227 0.310948
1.000000 0.649714 0.355322
1.000000 0.670314 0.406043
0.140261 0.340215 0.190799
0.146456 0.340185 0.192142
0.155215 0.340154 0.193942
0.173220 0.339818 0.197757
0.200412 0.339147 0.203952
0.230014 0.334722 0.205631
0.256809 0.325292 0.199680
0.284764 0.314061 0.193118
0.312840 0.305394 0.185763
0.358587 0.319188 0.173098
0.417609 0.329992 0.155367
0.490150 0.334691 0.130037
0.597406 0.346258 0.090517
0.675746 0.378943 0.000000
0.727474 0.409735 0.000000
0.775723 0.444282 0.000000
0.819974 0.480629 0.000000
0.858549 0.516960 0.051942
0.893187 0.547021 0.085420
0.927886 0.558251 0.085145
0.957458 0.568811 0.090791
0.982635 0.578943 0.102693
1.000000 0.588495 0.118593
1.000000 0.597894 0.138277
1.000000 0.606928 0.160708
1.000000 0.616175 0.186191
1.000000 0.625544 0.214511
1.000000 0.635676 0.246098
1.000000 0.646906 0.281407
1.000000 0.659785 0.321141
1.000000 0.674983 0.366033
1.000000 0.693202 0.417060
0.138796 0.380621 0.194461
0.145632 0.380621 0.195743
0.155215 0.380438 0.197543
0.174472 0.379950 0.201480
0.203464 0.379065 0.207553
0.239963 0.376715 0.214969
0.268833 0.366369 0.208560
0.298619 0.353796 0.201389
0.328283 0.339178 0.193790
0.363439 0.338781 0.184268
0.419837 0.356420 0.168276
0.488838 0.370977 0.145235
0.567742 0.380194 0.110323
0.673854 0.397742 0.016388
0.756008 0.436591 0.000000
0.803189 0.468696 0.000000
0.843015 0.501946 0.000000
0.877470 0.534905 0.000000
0.907103 0.567437 0.000000
0.933196 0.600397 0.029755
0.959442 0.617334 0.084169
0.983795 0.625086 0.099947
1.000000 0.632410 0.119600
1.000000 0.639307 0.142061
1.000000 0.646113 0.166781
1.000000 0.652979 0.193881
1.000000 0.660182 0.223728
1.000000 0.668086 0.256443
1.000000 0.677119 0.292638
1.000000 0.687831 0.333104
1.000000 0.700740 0.378546
1.000000 0.716548 0.429786
0.135164 0.425452 0.197635
0.143618 0.425238 0.199039
0.153750 0.425025 0.200809
0.175235 0.424445 0.204746
0.206363 0.423163 0.210941
0.245731 0.420752 0.219211
0.281987 0.412116 0.218235
0.314000 0.398444 0.210422
0.345403 0.382574 0.201968
0.375036 0.364752 0.193301
0.421790 0.376684 0.180575
0.487465 0.398383 0.160098
0.562524 0.417365 0.129305
0.643763 0.431250 0.075288
0.744259 0.452888 0.000000
0.826169 0.496315 0.000000
0.865080 0.526207 0.000000
0.895750 0.555383 0.000000
0.922210 0.584436 0.000000
0.945830 0.613947 0.000000
0.966522 0.643519 0.000000
0.984833 0.670558 0.101778
1.000000 0.675502 0.124727
1.000000 0.680262 0.149508
1.000000 0.684871 0.176211
1.000000 0.689479 0.204715
1.000000 0.694514 0.235508
1.000000 0.700313 0.269169
1.000000 0.707301 0.306035
1.000000 0.715877 0.347051
1.000000 0.726589 0.392737
1.000000 0.740047 0.444160
0.130465 0.473640 0.200565
0.139528 0.473365 0.201968
0.151339 0.472969 0.203830
0.175418 0.472206 0.207797
0.209201 0.470619 0.214298
0.251164 0.467964 0.222629
0.296117 0.461891 0.228855
0.330175 0.447303 0.220249
0.363653 0.430426 0.211002
0.395239 0.411200 0.201328
0.423041 0.392157 0.192020
0.485695 0.418860 0.174289
0.557214 0.444678 0.147646
0.634882 0.467964 0.104555
0.715694 0.485908 0.000000
0.808194 0.510185 0.000000
0.880217 0.550774 0.000000
0.912627 0.578119 0.000000
0.936706 0.603418 0.000000
0.958007 0.629389 0.000000
0.976928 0.655421 0.000000
0.993469 0.681483 0.000000
1.000000 0.707179 0.101534
1.000000 0.719814 0.161624
1.000000 0.722286 0.189303
1.000000 0.725002 0.218723
1.000000 0.728023 0.250217
1.000000 0.731960 0.284428
1.000000 0.736873 0.321874
1.000000 0.743465 0.363165
1.000000 0.752010 0.409033
1.000000 0.763241 0.460273
0.124117 0.524132 0.203433
0.134920 0.523919 0.204868
0.148196 0.523430 0.206699
0.175204 0.522362 0.210971
0.212039 0.520439 0.217502
0.256870 0.517388 0.226291
0.307683 0.512627 0.237003
0.347082 0.499245 0.231388
0.382605 0.481636 0.221134
0.415869 0.461677 0.210422
0.446143 0.439429 0.199496
0.483406 0.433936 0.187411
0.551659 0.464637 0.164950
0.626184 0.494453 0.129671
0.703731 0.520867 0.059998
0.781918 0.542473 0.000000
0.860807 0.564019 0.000000
0.922148 0.599298 0.000000
0.949859 0.624170 0.000000
0.969635 0.646387 0.000000
0.986877 0.668971 0.000000
1.000000 0.691646 0.000000
1.000000 0.714229 0.000000
1.000000 0.736751 0.102846
1.000000 0.758022 0.206577
1.000000 0.758877 0.236362
1.000000 0.760128 0.268193
1.000000 0.762234 0.302617
1.000000 0.765408 0.340124
1.000000 0.770047 0.381506
1.000000 0.776638 0.427192
1.000000 0.785763 0.478096
0.117586 0.575738 0.206607
0.130282 0.575402 0.207950
0.145510 0.574914 0.210056
0.175753 0.573693 0.214450
0.215824 0.571496 0.221256
0.263157 0.568139 0.230381
0.315923 0.563195 0.241428
0.365118 0.552728 0.244663
0.401953 0.534966 0.233158
0.436896 0.514549 0.220981
0.468849 0.491768 0.208743
0.496590 0.466865 0.196780
0.545861 0.478859 0.180484
0.617273 0.513268 0.152041
0.692195 0.545953 0.103792
0.767819 0.575097 0.000000
0.838224 0.596307 0.000000
0.902770 0.612665 0.000000
0.955779 0.642420 0.000000
0.980011 0.665003 0.000000
0.996338 0.683925 0.000000
1.000000 0.703304 0.000000
1.000000 0.722713 0.000000
1.000000 0.742153 0.000000
1.000000 0.761837 0.113008
1.000000 0.781796 0.229313
1.000000 0.790311 0.289372
1.000000 0.790829 0.323827
1.000000 0.792386 0.361151
1.000000 0.795407 0.402197
1.000000 0.800229 0.447425
1.000000 0.807492 0.497719
0.112520 0.627558 0.210422
0.127749 0.626978 0.212070
0.144869 0.626520 0.214206
0.178225 0.625116 0.218723
0.221439 0.622797 0.225864
0.270665 0.619135 0.235264
0.325383 0.613916 0.246921
0.383825 0.606683 0.260197
0.421973 0.589105 0.247837
0.458137 0.568933 0.234104
0.491371 0.546288 0.220157
0.520714 0.521294 0.206363
0.542504 0.491707 0.194034
0.609400 0.527123 0.171145
0.681910 0.564477 0.134279
0.755734 0.599573 0.055909
0.825528 0.628504 0.000000
0.885527 0.646479 0.000000
0.937377 0.657038 0.000000
0.983429 0.680537 0.000000
1.000000 0.700221 0.000000
1.000000 0.716091 0.000000
1.000000 0.732387 0.000000
1.000000 0.748898 0.000000
1.000000 0.765560 0.000000
1.000000 0.782895 0.129946
1.000000 0.800992 0.252323
1.000000 0.817594 0.347753
1.000000 0.817807 0.384558
1.000000 0.819364 0.425086
1.000000 0.822660 0.469459
1.000000 0.828183 0.518944
0.112612 0.679927 0.215793
0.128145 0.679500 0.217472
0.148257 0.678737 0.219699
0.183322 0.677363 0.224521
0.228733 0.674891 0.231907
0.280552 0.671168 0.241764
0.336614 0.665858 0.253758
0.395911 0.658625 0.267704
0.443580 0.644892 0.265904
0.480446 0.625360 0.250584
0.514763 0.603021 0.234348
0.545525 0.578515 0.218357
0.572320 0.551812 0.202731
0.602930 0.538079 0.187411
0.673671 0.579187 0.158267
0.745937 0.618830 0.108492
0.814908 0.653468 0.000000
0.874815 0.678279 0.000000
0.924498 0.691829 0.000000
0.966430 0.696834 0.000000
1.000000 0.713649 0.000000
1.000000 0.729976 0.000000
1.000000 0.743221 0.000000
1.000000 0.756863 0.000000
1.000000 0.770687 0.000000
1.000000 0.785183 0.000000
1.000000 0.800748 0.152132
1.000000 0.817533 0.279088
1.000000 0.835599 0.389258
1.000000 0.841855 0.450080
1.000000 0.843809 0.493568
1.000000 0.847868 0.541741
0.119142 0.733425 0.223239
0.136019 0.732998 0.225010
0.156435 0.732326 0.227390
0.192966 0.730800 0.232395
0.240360 0.728176 0.240269
0.293523 0.724392 0.250370
0.351049 0.718929 0.262821
0.410590 0.711879 0.277195
0.467506 0.701595 0.287968
0.504265 0.682673 0.270970
0.539178 0.661555 0.252934
0.571191 0.637873 0.234379
0.599512 0.611872 0.215763
0.623621 0.583734 0.198062
0.667414 0.591241 0.178073
0.738277 0.634516 0.141024
0.806424 0.673671 0.067567
0.866117 0.703670 0.000000
0.915801 0.722988 0.000000
0.956847 0.731716 0.000000
0.990845 0.731624 0.000000
1.000000 0.741817 0.000000
1.000000 0.754421 0.000000
1.000000 0.765774 0.000000
1.000000 0.777066 0.000000
1.000000 0.788907 0.000000
1.000000 0.801694 0.000000
1.000000 0.816007 0.177340
1.000000 0.831937 0.309239
1.000000 0.849577 0.426001
1.000000 0.863615 0.519219
1.000000 0.866361 0.566003
0.136263 0.785641 0.234409
0.152499 0.785122 0.235996
0.172793 0.784390 0.238590
0.209873 0.782895 0.243687
0.257267 0.780209 0.251835
0.310918 0.776364 0.262272
0.368353 0.771206 0.275029
0.427741 0.764370 0.289647
0.487709 0.755673 0.306157
0.530144 0.740230 0.296422
0.565209 0.720729 0.276341
0.597986 0.698482 0.255283
0.627344 0.673640 0.233829
0.653132 0.646571 0.212650
0.674861 0.617456 0.192264
0.732601 0.648035 0.166110
0.800046 0.690608 0.119478
0.859312 0.724575 0.000000
0.908812 0.748196 0.000000
0.949737 0.761715 0.000000
0.983703 0.765896 0.000000
1.000000 0.761563 0.000000
1.000000 0.765408 0.000000
1.000000 0.774502 0.000000
1.000000 0.784482 0.000000
1.000000 0.793912 0.000000
1.000000 0.804135 0.000000
1.000000 0.815671 0.000000
1.000000 0.829160 0.206088
1.000000 0.844724 0.342870
1.000000 0.862333 0.466590
1.000000 0.881804 0.584405
0.166567 0.833249 0.250584
0.181033 0.832731 0.252445
0.199130 0.831998 0.254826
0.233799 0.830472 0.260075
0.280003 0.827878 0.268376
0.332677 0.824186 0.279057
0.389136 0.819181 0.291966
0.447395 0.812772 0.306798
0.505974 0.804776 0.323430
0.556451 0.793301 0.328099
0.591577 0.776516 0.306310
0.625086 0.757076 0.282841
0.656001 0.735103 0.258335
0.683497 0.710506 0.233524
0.707088 0.683284 0.208927
0.729397 0.660456 0.187015
0.795865 0.705806 0.153445
0.854582 0.742672 0.098024
0.903655 0.769375 0.000000
0.944305 0.786313 0.000000
0.978088 0.794461 0.000000
1.000000 0.794461 0.000000
1.000000 0.786770 0.000000
1.000000 0.785550 0.000000
1.000000 0.791562 0.000000
1.000000 0.799985 0.000000
1.000000 0.807919 0.000000
1.000000 0.816922 0.000000
1.000000 0.827604 0.000000
1.000000 0.840635 0.237217
1.000000 0.856229 0.380194
1.000000 0.874296 0.511406
0.206699 0.874540 0.273198
0.219333 0.874052 0.274937
0.235080 0.873411 0.277409
0.267002 0.871855 0.282689
0.310033 0.869322 0.290867
0.359869 0.865812 0.301427
0.413947 0.861173 0.314458
0.469551 0.855283 0.329351
0.526360 0.847959 0.346014
0.582116 0.839200 0.363653
0.617853 0.825650 0.343725
0.651148 0.809628 0.318364
0.682826 0.791287 0.291447
0.712093 0.770443 0.263249
0.738094 0.747158 0.234470
0.760494 0.721218 0.205386
0.794583 0.720577 0.179965
0.852323 0.759304 0.144717
0.900664 0.787991 0.084199
0.940673 0.807187 0.000000
0.974029 0.818021 0.000000
1.000000 0.821530 0.000000
1.000000 0.818265 0.000000
1.000000 0.807858 0.000000
1.000000 0.802884 0.000000
1.000000 0.805966 0.000000
1.000000 0.812863 0.000000
1.000000 0.819638 0.000000
1.000000 0.827695 0.000000
1.000000 0.837888 0.000000
1.000000 0.850858 0.271580
1.000000 0.866117 0.422248
0.254429 0.909361 0.302281
0.264622 0.908904 0.303990
0.278935 0.908171 0.306523
0.306676 0.906706 0.311681
0.345953 0.904295 0.319768
0.391974 0.900969 0.330236
0.442481 0.896635 0.342992
0.495155 0.891234 0.357855
0.549157 0.884611 0.374365
0.602380 0.876799 0.392035
0.644434 0.866697 0.388525
0.676509 0.853910 0.362219
0.707973 0.839292 0.333715
0.737942 0.822690 0.303136
0.765713 0.803952 0.271092
0.790646 0.782864 0.237919
0.812131 0.759365 0.204044
0.853086 0.775937 0.179751
0.900145 0.805509 0.146670
0.939178 0.825895 0.087648
0.971710 0.838468 0.000000
0.999054 0.844266 0.000000
1.000000 0.843992 0.000000
1.000000 0.837888 0.000000
1.000000 0.825834 0.000000
1.000000 0.817472 0.000000
1.000000 0.818082 0.000000
1.000000 0.823545 0.000000
1.000000 0.829374 0.000000
1.000000 0.836820 0.000000
1.000000 0.846738 0.092622
1.000000 0.858030 0.310826
0.306859 0.938293 0.337407
0.315709 0.937835 0.339147
0.327703 0.937163 0.341558
0.352026 0.935760 0.346715
0.386969 0.933440 0.354589
0.428656 0.930297 0.364965
0.475105 0.926268 0.377722
0.524132 0.921263 0.392309
0.574578 0.915282 0.408606
0.624933 0.908324 0.426001
0.671992 0.900328 0.440009
0.702022 0.890196 0.413550
0.732082 0.878752 0.384497
0.761654 0.865751 0.353033
0.789944 0.851194 0.319493
0.816281 0.834989 0.283696
0.840146 0.816922 0.246464
0.857542 0.793820 0.210269
0.902617 0.823087 0.191470
0.940124 0.843717 0.162570
0.971374 0.857115 0.110384
0.997803 0.864286 0.000000
1.000000 0.865995 0.000000
1.000000 0.862547 0.000000
1.000000 0.854246 0.000000
1.000000 0.840848 0.000000
1.000000 0.829343 0.000000
1.000000 0.828275 0.000000
1.000000 0.832425 0.000000
1.000000 0.837522 0.000000
1.000000 0.844480 0.000000
1.000000 0.851011 0.148501
0.363012 0.962158 0.378515
0.370581 0.961700 0.380407
0.380743 0.961089 0.382696
0.401678 0.959716 0.387793
0.432197 0.957519 0.395453
0.469490 0.954589 0.405737
0.511498 0.950835 0.418097
0.556573 0.946258 0.432593
0.603265 0.940826 0.448646
0.649775 0.934630 0.465827
0.695430 0.927611 0.483742
0.727901 0.919799 0.471717
0.755673 0.910887 0.443122
0.783780 0.900847 0.411841
0.811460 0.889708 0.378027
0.838132 0.877379 0.341711
0.863066 0.863798 0.303075
0.886046 0.848966 0.262242
0.908873 0.841855 0.231632
0.943999 0.861692 0.216800
0.973480 0.874998 0.190433
0.998444 0.882780 0.143008
1.000000 0.885618 0.000000
1.000000 0.883940 0.000000
1.000000 0.877897 0.000000
1.000000 0.867735 0.000000
1.000000 0.853300 0.000000
1.000000 0.840146 0.000000
1.000000 0.836820 0.000000
1.000000 0.839658 0.000000
1.000000 0.842679 0.000000
1.000000 0.845914 0.000000
0.421973 0.981628 0.425666
0.428351 0.981170 0.427283
0.437110 0.980591 0.429633
0.454902 0.979278 0.434516
0.481666 0.977203 0.442206
0.514519 0.974456 0.452277
0.552026 0.970947 0.464485
0.592645 0.966766 0.478798
0.635126 0.961822 0.494759
0.677668 0.956298 0.511742
0.719326 0.950164 0.529534
0.755093 0.943664 0.535790
0.779477 0.936919 0.508537
0.805051 0.929320 0.478492
0.830991 0.920897 0.445594
0.856779 0.911620 0.410040
0.881865 0.901518 0.371893
0.905730 0.890593 0.331273
0.928008 0.878874 0.288121
0.951263 0.880674 0.268009
0.978119 0.893004 0.254643
1.000000 0.900572 0.228580
1.000000 0.903838 0.181430
1.000000 0.903166 0.073732
1.000000 0.898711 0.000000
1.000000 0.890623 0.000000
1.000000 0.878874 0.000000
1.000000 0.863371 0.000000
1.000000 0.849699 0.000000
1.000000 0.843961 0.000000
1.000000 0.842100 0.000000
1.000000 0.843229 0.000000
0.483619 0.997162 0.478492
0.488991 0.996765 0.480140
0.496315 0.996185 0.482551
0.511711 0.994965 0.487343
0.534752 0.992981 0.494911
0.563378 0.990417 0.504784
0.596490 0.987182 0.516991
0.632471 0.983337 0.530938
0.670253 0.978912 0.546685
0.708370 0.973999 0.563653
0.745693 0.968627 0.581201
0.781552 0.962921 0.599084
0.803922 0.957824 0.579858
0.825956 0.952209 0.551934
