data/fiter_cube/48671653/1023252/file.cube
# Created by Adobe Lightroom plugin Export LUT (1.17.0)
# www.johnrellis.com/lightroom/exportlut.htm
# Preset: 青橙风光风景_01 云集
# Color profile: C:\Program Files (x86)\Common Files\Adobe\Color\Profiles\Recommended\AdobeRGB1998.icc
LUT_3D_SIZE 8
DOMAIN_MIN 0.000000 0.000000 0.000000
DOMAIN_MAX 0.903226 0.903226 0.903226
0.118379 0.144503 0.150973
0.163363 0.150820 0.156100
0.263645 0.158572 0.164492
0.480201 0.131411 0.164950
0.751339 0.069642 0.153048
0.941344 0.198032 0.139101
1.000000 0.335058 0.159182
1.000000 0.450996 0.241550
0.126833 0.179965 0.162264
0.170291 0.170748 0.148592
0.263951 0.188022 0.165682
0.487526 0.180148 0.164126
0.758480 0.176120 0.149508
0.943786 0.264958 0.134340
1.000000 0.376104 0.157717
1.000000 0.478004 0.244785
0.136477 0.249088 0.177768
0.186160 0.246220 0.185092
0.294469 0.236667 0.151308
0.523003 0.296391 0.148867
0.780545 0.360449 0.132174
0.950958 0.425849 0.115297
1.000000 0.493446 0.155215
1.000000 0.561303 0.258518
0.138796 0.380621 0.194461
0.203464 0.379065 0.207553
0.328283 0.339178 0.193790
0.567742 0.380194 0.110323
0.843015 0.501946 0.000000
0.959442 0.617334 0.084169
1.000000 0.646113 0.166781
1.000000 0.677119 0.292638
0.117586 0.575738 0.206607
0.215824 0.571496 0.221256
0.401953 0.534966 0.233158
0.545861 0.478859 0.180484
0.838224 0.596307 0.000000
0.996338 0.683925 0.000000
1.000000 0.761837 0.113008
1.000000 0.792386 0.361151
0.136263 0.785641 0.234409
0.257267 0.780209 0.251835
0.487709 0.755673 0.306157
0.627344 0.673640 0.233829
0.800046 0.690608 0.119478
0.983703 0.765896 0.000000
1.000000 0.784482 0.000000
1.000000 0.829160 0.206088
0.306859 0.938293 0.337407
0.386969 0.933440 0.354589
0.574578 0.915282 0.408606
0.732082 0.878752 0.384497
0.840146 0.816922 0.246464
0.971374 0.857115 0.110384
1.000000 0.854246 0.000000
1.000000 0.832425 0.000000
0.548211 1.000000 0.537560
0.591638 1.000000 0.553704
0.708766 0.992493 0.604578
0.829557 0.974365 0.656123
0.909850 0.955840 0.539849
0.994965 0.931029 0.390997
1.000000 0.935210 0.270207
1.000000 0.895262 0.000000
0.126864 0.165591 0.181857
0.146365 0.160281 0.176181
0.259800 0.166659 0.175387
0.477272 0.166110 0.164584
0.751247 0.150179 0.151095
0.941283 0.240024 0.136263
1.000000 0.354223 0.158328
1.000000 0.457710 0.242435
0.126772 0.184848 0.188968
0.156497 0.185336 0.191958
0.259007 0.195224 0.185183
0.483955 0.202487 0.165377
0.757931 0.214633 0.147524
0.943633 0.294926 0.131502
1.000000 0.391699 0.157046
1.000000 0.483742 0.245670
0.134707 0.251957 0.210330
0.165927 0.256352 0.204959
0.284001 0.246250 0.187228
0.512810 0.303685 0.175021
0.779385 0.373602 0.130648
0.950713 0.439551 0.112978
1.000000 0.502525 0.154849
1.000000 0.564691 0.259464
0.131380 0.388891 0.229343
0.170596 0.390631 0.220066
0.327337 0.358343 0.219699
0.559747 0.385412 0.153414
0.836820 0.504265 0.000000
0.959197 0.621912 0.083162
1.000000 0.649836 0.167514
1.000000 0.678584 0.293645
0.087892 0.586542 0.245151
0.165591 0.584436 0.234592
0.395941 0.555779 0.265812
0.540337 0.481178 0.206851
0.834257 0.598993 0.000000
0.994263 0.686061 0.000000
1.000000 0.761959 0.109377
1.000000 0.792691 0.361975
0.057954 0.794217 0.270085
0.199161 0.790280 0.267552
0.463600 0.766903 0.321508
0.627283 0.689540 0.265782
0.794797 0.691035 0.165866
0.981994 0.768093 0.000000
1.000000 0.785031 0.000000
1.000000 0.829435 0.209018
0.263340 0.942687 0.357610
0.348455 0.938323 0.368963
0.553918 0.920348 0.422278
0.727291 0.884855 0.419623
0.838132 0.823789 0.278630
0.968444 0.857877 0.173587
1.000000 0.855894 0.000000
1.000000 0.832486 0.000000
0.525811 1.000000 0.544640
0.572168 1.000000 0.560632
0.696315 0.994598 0.611810
0.827665 0.975616 0.680110
0.905455 0.957519 0.564813
0.991913 0.930694 0.409400
1.000000 0.936309 0.310979
1.000000 0.896300 0.000000
0.131441 0.194491 0.232364
0.143069 0.177310 0.228183
0.194858 0.184054 0.216709
0.405371 0.150393 0.227085
0.739254 0.097200 0.204807
0.940307 0.274601 0.156069
1.000000 0.382208 0.157351
1.000000 0.463691 0.244511
0.143893 0.225986 0.243412
0.160922 0.213443 0.245212
0.207309 0.203250 0.231113
0.443519 0.166354 0.234012
0.744411 0.182071 0.213962
0.942077 0.317845 0.160678
1.000000 0.415686 0.156313
1.000000 0.488685 0.247745
0.136416 0.271275 0.269108
0.164767 0.272892 0.272313
0.251774 0.275792 0.282322
0.486030 0.297673 0.271946
0.763027 0.347204 0.240269
0.947478 0.442908 0.180362
1.000000 0.517296 0.155398
1.000000 0.567346 0.261631
0.091249 0.411963 0.354406
0.147768 0.415351 0.345373
0.271427 0.419684 0.302831
0.532860 0.407568 0.269810
0.803067 0.526696 0.269200
0.953185 0.617304 0.243656
1.000000 0.656519 0.169497
1.000000 0.678889 0.295689
0.000000 0.616236 0.393774
0.124941 0.616327 0.380102
0.296422 0.610101 0.328588
0.538689 0.525139 0.299138
0.818082 0.612024 0.227390
0.980926 0.703853 0.196078
1.000000 0.772244 0.239963
1.000000 0.791867 0.363684
0.004486 0.816373 0.437964
0.165011 0.814664 0.422370
0.348516 0.804105 0.372015
0.620478 0.744900 0.385901
0.773281 0.691188 0.280735
0.973816 0.778225 0.175204
1.000000 0.798276 0.000000
1.000000 0.830564 0.224063
0.287816 0.949126 0.509239
0.329931 0.947204 0.496468
0.465064 0.937743 0.465980
0.711482 0.905119 0.537346
0.828550 0.847562 0.388434
0.956664 0.860136 0.309056
1.000000 0.863249 0.103822
1.000000 0.836179 0.000000
0.528222 1.000000 0.631861
0.550164 1.000000 0.626429
0.645106 1.000000 0.633143
0.800839 0.982269 0.702632
0.890867 0.963287 0.649714
0.982086 0.938537 0.487800
1.000000 0.940093 0.426978
1.000000 0.900908 0.000000
0.124514 0.234806 0.313756
0.134646 0.217716 0.309880
0.210330 0.196841 0.293278
0.268376 0.207614 0.271824
0.516960 0.172976 0.311559
0.910094 0.000000 0.299779
1.000000 0.337224 0.277134
1.000000 0.451087 0.246677
0.149264 0.276982 0.336431
0.157168 0.257053 0.331456
0.216739 0.217777 0.312108
0.283330 0.223056 0.285740
0.549187 0.185397 0.324010
0.922118 0.141512 0.319982
1.000000 0.377966 0.288121
1.000000 0.474189 0.249668
0.139376 0.354772 0.367926
0.171420 0.357183 0.371649
0.253025 0.321447 0.378515
0.341100 0.288090 0.340063
0.663386 0.255253 0.365515
0.926848 0.371649 0.366278
1.000000 0.495094 0.327398
1.000000 0.552453 0.263005
0.082368 0.447333 0.429297
0.141207 0.449866 0.432898
0.276677 0.456458 0.445167
0.468238 0.461036 0.466407
0.746670 0.518303 0.466377
0.931029 0.593469 0.450202
1.000000 0.650813 0.405127
1.000000 0.667567 0.296422
0.000000 0.630579 0.546075
0.088350 0.640375 0.555474
0.311864 0.665797 0.575158
0.494911 0.646937 0.491707
0.777890 0.646632 0.465949
0.942901 0.755001 0.526024
1.000000 0.803738 0.540917
1.000000 0.790249 0.424292
0.000000 0.850156 0.655085
0.180362 0.848753 0.646204
0.364782 0.841886 0.610346
0.535180 0.821805 0.530449
0.743709 0.717525 0.445502
0.950744 0.802823 0.464698
1.000000 0.837339 0.493568
1.000000 0.860410 0.508415
0.328954 0.958831 0.694820
0.369970 0.957000 0.687770
0.477668 0.950286 0.659419
0.613977 0.935454 0.604974
0.805997 0.887602 0.580621
0.930541 0.861357 0.462989
1.000000 0.880827 0.454994
1.000000 0.861234 0.328191
0.558801 1.000000 0.757900
0.579828 1.000000 0.754818
0.641596 1.000000 0.741970
0.739162 0.995087 0.730159
0.873716 0.972869 0.772305
0.955383 0.949432 0.625788
1.000000 0.946136 0.574701
1.000000 0.913146 0.362127
0.083955 0.299687 0.436347
0.103975 0.280888 0.431220
0.177615 0.232761 0.410895
0.314488 0.204929 0.370001
0.367285 0.226810 0.340459
0.602838 0.223087 0.397406
0.977752 0.117006 0.451667
1.000000 0.457832 0.478767
0.118990 0.341527 0.458778
0.132662 0.320836 0.453010
0.175631 0.254063 0.431525
0.324895 0.221927 0.387549
0.382696 0.240604 0.353796
0.626917 0.238102 0.412116
0.984283 0.187411 0.458442
1.000000 0.484810 0.486519
0.141390 0.454871 0.501518
0.183932 0.445228 0.504540
0.249546 0.383764 0.498177
0.357488 0.295140 0.452186
0.440192 0.299809 0.405188
0.710597 0.306279 0.466682
1.000000 0.375708 0.499947
1.000000 0.565576 0.510887
0.099947 0.556634 0.557183
0.166018 0.558068 0.559808
0.306889 0.561364 0.568475
0.453132 0.505974 0.575280
0.549432 0.445258 0.513390
0.843015 0.476936 0.565179
1.000000 0.625605 0.600183
1.000000 0.669276 0.539849
0.000000 0.680995 0.637842
0.138857 0.682277 0.640467
0.324071 0.685695 0.649439
0.516503 0.690059 0.665583
0.703334 0.697230 0.689754
0.895415 0.761776 0.706661
0.991363 0.801266 0.701839
1.000000 0.801755 0.639734
0.134707 0.832731 0.735683
0.226444 0.837034 0.741543
0.407385 0.849851 0.760891
0.606317 0.866728 0.791867
0.718105 0.840391 0.708217
0.909911 0.838499 0.706386
0.990692 0.891508 0.777035
1.000000 0.904875 0.777584
0.426429 0.968414 0.853758
0.461555 0.966613 0.850431
0.558282 0.960296 0.837766
0.666835 0.949737 0.809934
0.755856 0.932860 0.748074
0.886046 0.865141 0.617609
1.000000 0.907958 0.715602
1.000000 0.910918 0.725032
0.615686 1.000000 0.868772
0.634760 1.000000 0.867094
0.689479 1.000000 0.860319
0.753750 0.998230 0.843809
0.821653 0.989258 0.816129
0.920775 0.965667 0.791104
1.000000 0.952148 0.708736
1.000000 0.935607 0.675471
0.000000 0.398108 0.596765
0.000000 0.377508 0.591485
0.101045 0.302800 0.571191
0.311528 0.252689 0.526726
0.439277 0.211002 0.469215
0.492866 0.244877 0.428504
0.706722 0.295201 0.500969
1.000000 0.434577 0.651026
0.027527 0.437934 0.613794
0.080293 0.416724 0.608301
0.140108 0.339239 0.587732
0.315496 0.272129 0.543236
0.451911 0.224857 0.482551
0.505150 0.258579 0.439857
0.722744 0.309148 0.513207
1.000000 0.456245 0.656428
0.183536 0.558190 0.657984
0.220554 0.546105 0.658167
0.254002 0.472877 0.641566
0.325414 0.349126 0.600458
0.495094 0.281041 0.529839
0.548669 0.313146 0.481849
0.778561 0.365057 0.558068
1.000000 0.530816 0.676478
0.190738 0.695155 0.703304
0.238407 0.694606 0.704067
0.356451 0.670283 0.707027
0.448981 0.572412 0.696590
0.554528 0.430213 0.628717
0.626429 0.431708 0.563836
0.862425 0.491188 0.639124
1.000000 0.657069 0.717861
0.214328 0.787259 0.761807
0.264256 0.786679 0.762692
0.390051 0.784360 0.765591
0.540826 0.779202 0.769924
0.664881 0.715206 0.767575
0.735988 0.632044 0.694362
0.937316 0.711696 0.754665
1.000000 0.819974 0.801083
0.278904 0.880064 0.819699
0.324132 0.879301 0.820584
0.445380 0.876432 0.823697
0.596338 0.871275 0.829313
0.741939 0.866209 0.837980
0.859068 0.868040 0.852598
0.962707 0.900694 0.868223
1.000000 0.908232 0.858854
0.415503 0.948302 0.865476
0.453193 0.948302 0.867765
0.563653 0.947997 0.875761
0.701503 0.947753 0.889342
0.819059 0.951415 0.908049
0.864439 0.936004 0.859739
0.971496 0.934417 0.867247
1.000000 0.954620 0.899504
0.665217 1.000000 0.933989
0.684810 1.000000 0.935241
0.742123 1.000000 0.939544
0.801968 0.998688 0.935668
0.850095 0.993530 0.919341
0.890288 0.986114 0.887083
0.971466 0.954986 0.802762
1.000000 0.961944 0.863767
0.078676 0.562402 0.795346
0.100038 0.540826 0.792050
0.150546 0.461280 0.779416
0.313756 0.349889 0.748226
0.522301 0.271336 0.684901
0.615137 0.218601 0.616388
0.669093 0.282902 0.568292
0.870268 0.485328 0.689876
0.168368 0.595087 0.802548
0.176455 0.574884 0.799496
0.200900 0.497292 0.787472
0.311254 0.371771 0.758236
0.525841 0.292149 0.696284
0.623011 0.234867 0.625788
0.675624 0.296635 0.575708
0.875944 0.496132 0.696407
0.326696 0.700954 0.824491
0.327459 0.683436 0.821927
0.330571 0.615747 0.812131
0.334752 0.467506 0.789883
0.535607 0.367926 0.734432
0.649561 0.293339 0.658320
0.698451 0.346410 0.602594
0.894865 0.536004 0.719509
0.372137 0.816190 0.844053
0.395056 0.808042 0.843778
0.464271 0.776669 0.842496
0.497292 0.682826 0.831174
0.547082 0.511681 0.794491
0.692958 0.401190 0.715236
0.738918 0.438483 0.652522
0.924285 0.613703 0.759701
0.424964 0.889067 0.869688
0.447883 0.887541 0.869413
0.518059 0.881865 0.868315
0.611261 0.862089 0.865599
0.667384 0.770443 0.854704
0.734371 0.595911 0.798947
0.793454 0.585229 0.727962
0.957214 0.735805 0.816220
0.487007 0.934783 0.897520
0.508446 0.933379 0.897490
0.575830 0.928557 0.897368
0.667140 0.920378 0.896788
0.759274 0.909789 0.895171
0.824125 0.865568 0.887297
0.859312 0.796658 0.831235
0.988647 0.870054 0.884459
0.559442 0.973297 0.923308
0.579156 0.971954 0.923461
0.639826 0.967529 0.924071
0.721096 0.961028 0.925261
0.804593 0.954223 0.927520
0.879576 0.949279 0.931609
0.942657 0.949523 0.940093
1.000000 0.964630 0.949432
0.652399 1.000000 0.943908
0.667811 0.999481 0.944213
0.715846 0.995941 0.945556
0.788540 0.992920 0.951080
0.860838 0.991363 0.959380
0.922484 0.992737 0.970642
0.945769 0.986419 0.944121
1.000000 0.982238 0.948821
0.536919 0.801053 0.935882
0.533227 0.787167 0.935393
0.521111 0.730709 0.933806
0.503441 0.597498 0.930632
0.659266 0.521386 0.914122
0.797116 0.408820 0.882750
0.858000 0.359503 0.844114
0.901183 0.500389 0.809079
0.539696 0.800961 0.936461
0.536187 0.787381 0.936034
0.531182 0.739620 0.934539
0.523674 0.627924 0.931487
0.658778 0.541039 0.916289
0.796323 0.429053 0.885679
0.859709 0.375525 0.847166
0.902098 0.510887 0.811398
0.613336 0.853178 0.939513
0.611292 0.844602 0.939025
0.603662 0.809232 0.937346
0.589868 0.722255 0.934356
0.657923 0.607263 0.923430
0.793118 0.498146 0.895628
0.865080 0.429389 0.857389
0.904936 0.546838 0.819577
0.660639 0.909880 0.944732
0.670832 0.905852 0.944488
0.703334 0.890929 0.943542
0.691646 0.841428 0.940002
0.666255 0.715511 0.934508
0.786740 0.613794 0.911284
0.872435 0.517723 0.873869
0.909575 0.608515 0.833707
0.699916 0.959350 0.951843
0.707912 0.958343 0.951537
0.729732 0.947784 0.950958
0.760098 0.925780 0.949432
0.774899 0.875822 0.944457
0.785763 0.760525 0.930419
0.879698 0.638087 0.894652
0.915557 0.696345 0.854398
0.729274 0.977050 0.962707
0.736660 0.976226 0.962524
0.760006 0.973388 0.961913
0.793942 0.968536 0.960571
0.831998 0.958892 0.957946
0.851347 0.911650 0.951446
0.881926 0.804227 0.923674
0.924651 0.800870 0.883421
0.757778 0.994507 0.973571
0.764462 0.993805 0.973510
0.785824 0.991485 0.973327
0.818418 0.987671 0.972961
0.856992 0.982635 0.972198
0.896208 0.976257 0.970397
0.922454 0.949187 0.963165
0.944121 0.904448 0.925902
0.782284 1.000000 0.983612
0.788327 1.000000 0.983642
0.808347 1.000000 0.983764
0.839689 1.000000 0.984039
0.877409 1.000000 0.984558
0.916808 0.997131 0.985443
0.955230 0.993622 0.987030
0.991699 0.992828 0.991333
