data/fiter_cube/48671653/1023252/file.cube
# Created by Adobe Lightroom plugin Export LUT (1.17.0)
# www.johnrellis.com/lightroom/exportlut.htm
# Preset: 青橙风光风景_01 云集
# Color profile: C:\Program Files (x86)\Common Files\Adobe\Color\Profiles\Recommended\AdobeRGB1998.icc
LUT_3D_SIZE 5
DOMAIN_MIN 0.000000 0.000000 0.000000
DOMAIN_MAX 0.903226 0.903226 0.903226
0.118379 0.144503 0.150973
0.231144 0.157900 0.163119
0.619959 0.092348 0.160464
0.972381 0.235264 0.139620
1.000000 0.450996 0.241550
0.134005 0.227634 0.173404
0.251957 0.214755 0.150973
0.645441 0.287205 0.151369
0.977386 0.400855 0.124331
1.000000 0.536126 0.253666
0.130465 0.473640 0.200565
0.330175 0.447303 0.220249
0.715694 0.485908 0.000000
0.993469 0.681483 0.000000
1.000000 0.736873 0.321874
0.166567 0.833249 0.250584
0.447395 0.812772 0.306798
0.707088 0.683284 0.208927
1.000000 0.794461 0.000000
1.000000 0.827604 0.000000
0.548211 1.000000 0.537560
0.675898 0.996429 0.589044
0.866758 0.966064 0.603418
1.000000 0.936217 0.383001
1.000000 0.895262 0.000000
0.131075 0.186404 0.217563
0.180606 0.177707 0.205142
0.609003 0.121614 0.197787
0.972564 0.305852 0.133669
1.000000 0.463447 0.244022
0.136019 0.243351 0.243320
0.219150 0.246098 0.252689
0.629877 0.283299 0.222202
0.977203 0.435706 0.119570
1.000000 0.543603 0.256168
0.079377 0.502861 0.331640
0.245609 0.503655 0.285832
0.695216 0.499855 0.208957
0.987976 0.693446 0.180270
1.000000 0.737758 0.324254
0.113802 0.852750 0.404486
0.329625 0.843107 0.357244
0.709468 0.730098 0.312566
1.000000 0.802579 0.000000
1.000000 0.828428 0.000000
0.524743 1.000000 0.603876
0.623011 1.000000 0.610956
0.856046 0.971008 0.684901
1.000000 0.936522 0.451057
1.000000 0.899260 0.000000
0.111360 0.264256 0.370764
0.168399 0.217044 0.353796
0.315129 0.217716 0.304601
0.881315 0.000000 0.371466
1.000000 0.446967 0.331121
0.144625 0.381628 0.422095
0.217258 0.329412 0.421546
0.370245 0.271702 0.353613
0.926360 0.232120 0.406989
1.000000 0.524224 0.351080
0.000000 0.563470 0.533104
0.248539 0.569574 0.543786
0.592950 0.579889 0.580041
0.944244 0.696620 0.585748
1.000000 0.733303 0.472175
0.197971 0.898558 0.765957
0.383520 0.892668 0.744167
0.640955 0.862119 0.631342
0.959533 0.844175 0.596155
1.000000 0.887572 0.656031
0.584070 1.000000 0.816892
0.646174 1.000000 0.808774
0.782406 0.991882 0.775265
0.962158 0.949523 0.662409
1.000000 0.922972 0.525719
0.000000 0.431983 0.644465
0.053346 0.358984 0.626184
0.397803 0.241337 0.544152
0.530602 0.250492 0.456458
0.994507 0.453712 0.681514
0.192081 0.559655 0.692653
0.216434 0.486122 0.674647
0.417548 0.308843 0.595056
0.567651 0.299626 0.492805
1.000000 0.516564 0.700069
0.240543 0.773098 0.765988
0.361852 0.769528 0.767178
0.555230 0.655940 0.758633
0.693874 0.512078 0.632715
1.000000 0.722194 0.770840
0.350988 0.911803 0.851682
0.460273 0.908141 0.853758
0.692897 0.896941 0.861112
0.884794 0.894224 0.879576
1.000000 0.925811 0.888670
0.660761 1.000000 0.936004
0.720150 1.000000 0.939849
0.838651 0.996582 0.947478
0.905303 0.985809 0.902556
1.000000 0.967712 0.891081
0.536919 0.801053 0.935882
0.524987 0.750271 0.934356
0.579156 0.560479 0.923827
0.825437 0.370611 0.870878
0.901183 0.500389 0.809079
0.590082 0.837308 0.938476
0.583490 0.802365 0.936919
0.582422 0.624384 0.929992
0.823484 0.439124 0.881621
0.904051 0.535363 0.816953
0.678950 0.936492 0.947936
0.702419 0.924041 0.947234
0.734768 0.858671 0.941955
0.812284 0.652461 0.912444
0.912352 0.649500 0.843137
0.736599 0.981476 0.965423
0.759701 0.978851 0.964965
0.819455 0.970489 0.962829
0.869596 0.920836 0.953735
0.928069 0.827329 0.892454
0.782284 1.000000 0.983612
0.802029 1.000000 0.983734
0.858061 1.000000 0.984253
0.926574 0.996155 0.985718
0.991699 0.992828 0.991333
