data/fiter_cube/11206988/1023412/file.cube
# Created by Adobe Lightroom plugin Export LUT (1.17.0)
# www.johnrellis.com/lightroom/exportlut.htm
# Preset: 焦糖暖色调人像产品_01 云集
# Color profile: C:\Program Files (x86)\Common Files\Adobe\Color\Profiles\Recommended\AdobeRGB1998.icc
LUT_3D_SIZE 5
DOMAIN_MIN 0.000000 0.000000 0.000000
DOMAIN_MAX 0.903226 0.903226 0.903226
0.086030 0.080690 0.081086
0.225498 0.074495 0.074769
0.554681 0.090394 0.020752
0.765469 0.251347 0.160952
0.868132 0.425238 0.339544
0.074556 0.141176 0.079774
0.157107 0.143465 0.086488
0.530419 0.231418 0.073976
0.748898 0.314824 0.181949
0.865690 0.470771 0.369268
0.000000 0.395270 0.094728
0.115724 0.373480 0.000000
0.499336 0.452399 0.251072
0.722316 0.487556 0.295903
0.844602 0.558038 0.417182
0.000000 0.645594 0.206973
0.102388 0.637568 0.181033
0.352239 0.563226 0.000000
0.690517 0.649470 0.466835
0.815030 0.686152 0.534874
0.267491 0.794949 0.353155
0.268193 0.796445 0.346746
0.354467 0.771511 0.179110
0.642237 0.764645 0.276188
0.795651 0.768093 0.630335
0.069001 0.098909 0.150118
0.189303 0.017578 0.159762
0.509209 0.102846 0.129549
0.727504 0.247532 0.166903
0.859403 0.402197 0.313359
0.063539 0.148135 0.145876
0.161013 0.163272 0.149111
0.491554 0.233829 0.164797
0.718990 0.309331 0.192416
0.855283 0.439887 0.334020
0.000000 0.410224 0.236393
0.156619 0.401190 0.207248
0.459815 0.428443 0.301305
0.696834 0.470588 0.298405
0.840665 0.547234 0.403723
0.000000 0.654505 0.318486
0.184054 0.646906 0.310246
0.345190 0.564935 0.080446
0.684810 0.648371 0.486061
0.813382 0.682338 0.529686
0.290654 0.795041 0.406043
0.291081 0.796506 0.400580
0.404181 0.782681 0.320562
0.640284 0.767941 0.273381
0.796445 0.769100 0.631769
0.000000 0.241367 0.431464
0.000000 0.143130 0.433661
0.482826 0.000000 0.408301
0.712947 0.183413 0.325139
0.850401 0.428992 0.407843
0.150057 0.333684 0.413428
0.220493 0.316991 0.420508
0.467445 0.143099 0.403967
0.694789 0.308354 0.354437
0.847959 0.461219 0.420050
0.000000 0.441016 0.438636
0.235172 0.446998 0.437537
0.417243 0.417823 0.393652
0.674434 0.484138 0.425879
0.834775 0.555810 0.463294
0.201816 0.672724 0.531701
0.299809 0.666987 0.525414
0.461463 0.629389 0.470008
0.677943 0.659083 0.565026
0.809201 0.679835 0.552361
0.370855 0.793057 0.547509
0.371618 0.795773 0.541650
0.490730 0.788632 0.530144
0.569390 0.751034 0.308110
0.793057 0.768643 0.641871
0.237156 0.420081 0.624353
0.186221 0.373236 0.626764
0.331792 0.181674 0.628138
0.687221 0.000000 0.586938
0.845548 0.360266 0.532067
0.298375 0.473152 0.616175
0.337194 0.469947 0.618402
0.362158 0.309239 0.622034
0.675380 0.165682 0.582025
0.838529 0.403479 0.534905
0.364263 0.558129 0.610712
0.412787 0.566278 0.609491
0.520165 0.563165 0.607050
0.645258 0.405402 0.573297
0.825406 0.525811 0.553429
0.353948 0.653040 0.632502
0.356237 0.654231 0.629541
0.548272 0.662776 0.630976
0.615930 0.614649 0.577691
0.808988 0.670802 0.604181
0.485298 0.788632 0.684077
0.490639 0.791226 0.683711
0.545708 0.797665 0.683070
0.657221 0.782345 0.641657
0.793301 0.782650 0.705562
0.484688 0.594293 0.735500
0.483101 0.593103 0.734920
0.374212 0.431830 0.748226
0.548852 0.108888 0.753750
0.825528 0.137087 0.716274
0.481605 0.592004 0.734371
0.480110 0.590967 0.733822
0.428748 0.495369 0.743191
0.551873 0.256260 0.748898
0.821042 0.238743 0.715511
0.538231 0.650446 0.725856
0.537713 0.650324 0.725032
0.578698 0.652857 0.729458
0.578851 0.496712 0.738888
0.811704 0.427436 0.718898
0.574121 0.707149 0.724575
0.571618 0.706142 0.723445
0.571893 0.705715 0.722255
0.686671 0.719387 0.732937
0.798459 0.611749 0.725582
0.570886 0.761166 0.734218
0.569268 0.761959 0.733852
0.569696 0.767941 0.735103
0.693019 0.782864 0.743771
0.769100 0.770047 0.724819
