data/fiter_cube/11206988/1023412/file.cube
# Created by Adobe Lightroom plugin Export LUT (1.17.0)
# www.johnrellis.com/lightroom/exportlut.htm
# Preset: 焦糖暖色调人像产品_01 云集
# Color profile: C:\Program Files (x86)\Common Files\Adobe\Color\Profiles\Recommended\AdobeRGB1998.icc
LUT_3D_SIZE 32
DOMAIN_MIN 0.0 0.0 0.0
DOMAIN_MAX 1.0 1.0 1.0
0.086030 0.080690 0.081086
0.085725 0.080415 0.081117
0.086488 0.080293 0.080812
0.091646 0.080354 0.080659
0.108309 0.080568 0.080049
0.139834 0.080415 0.078950
0.180545 0.078370 0.077272
0.225498 0.074495 0.074769
0.272984 0.068727 0.070893
0.321416 0.062776 0.066255
0.370397 0.058045 0.060151
0.418341 0.056092 0.049683
0.464363 0.062135 0.035157
0.507439 0.072145 0.025483
0.554681 0.090394 0.020752
0.604425 0.114534 0.033356
0.642420 0.138277 0.059846
0.672480 0.161044 0.078279
0.697383 0.183047 0.097566
0.721096 0.205325 0.117769
0.743954 0.228153 0.139162
0.765469 0.251347 0.160952
0.785031 0.273899 0.182834
0.802792 0.296605 0.205051
0.818784 0.319310 0.228000
0.833280 0.342870 0.252110
0.846403 0.368200 0.278508
0.858061 0.395453 0.307530
0.868132 0.425238 0.339544
0.876555 0.457679 0.374762
0.883146 0.492805 0.412940
0.888060 0.530358 0.453681
0.086091 0.080354 0.081117
0.085786 0.080415 0.080812
0.086152 0.080354 0.080812
0.090578 0.080903 0.080629
0.105959 0.082094 0.080018
0.135958 0.082918 0.079286
0.176303 0.081910 0.077577
0.220768 0.079133 0.074861
0.267735 0.074952 0.071412
0.316106 0.071077 0.066499
0.364660 0.067872 0.060609
0.412451 0.067445 0.050904
0.458289 0.071870 0.037385
0.501366 0.080720 0.027070
0.548638 0.096529 0.022004
0.596582 0.117647 0.031159
0.634302 0.139193 0.056550
0.664698 0.159823 0.074556
0.690059 0.180514 0.092897
0.713893 0.202152 0.112795
0.736995 0.224094 0.133425
0.758938 0.246677 0.155123
0.778988 0.268742 0.176608
0.797391 0.291264 0.198825
0.814023 0.313756 0.221653
0.829252 0.337377 0.245792
0.843137 0.362585 0.272129
0.855467 0.389960 0.301213
0.866178 0.419867 0.333288
0.875090 0.452399 0.368597
0.882139 0.487526 0.406928
0.887358 0.525109 0.447791
0.086152 0.080354 0.080812
0.086152 0.080354 0.080812
0.085786 0.080415 0.080812
0.089509 0.081422 0.080629
0.103273 0.083345 0.080323
0.131746 0.085420 0.079255
0.171145 0.085908 0.077577
0.215244 0.084779 0.075227
0.262394 0.082246 0.071778
0.310643 0.080079 0.066926
0.359472 0.078309 0.061128
0.407507 0.079225 0.051850
0.453590 0.083345 0.038758
0.496956 0.091127 0.028534
0.544762 0.104982 0.023407
0.591608 0.123842 0.033265
0.629175 0.143221 0.055695
0.659693 0.162722 0.073304
0.685573 0.182132 0.091188
0.709560 0.202914 0.110719
0.732967 0.224399 0.131441
0.755276 0.246159 0.152804
0.775662 0.268162 0.174350
0.794369 0.289982 0.196292
0.811368 0.312383 0.218936
0.826932 0.335729 0.242924
0.841215 0.360815 0.269291
0.853941 0.388159 0.298344
0.864988 0.417884 0.330480
0.874174 0.450416 0.365820
0.881468 0.485420 0.404089
0.886870 0.522820 0.444831
0.085603 0.081788 0.080690
0.085908 0.082063 0.080659
0.086915 0.082551 0.080598
0.088045 0.081666 0.080964
0.098482 0.085603 0.080934
0.124636 0.090028 0.079805
0.163210 0.093477 0.078035
0.207767 0.095064 0.075532
0.255100 0.095399 0.071992
0.303777 0.095613 0.067475
0.352544 0.096834 0.061616
0.400977 0.098604 0.052735
0.447150 0.102968 0.041077
0.490730 0.110079 0.031922
0.539971 0.122133 0.027955
0.585229 0.137819 0.037842
0.622461 0.154360 0.057740
0.653071 0.171359 0.073457
0.679072 0.188418 0.089998
0.702876 0.206821 0.108614
0.726131 0.226505 0.128420
0.748623 0.247044 0.149416
0.769833 0.268376 0.170840
0.789700 0.290471 0.193393
0.808072 0.313390 0.217044
0.824796 0.337530 0.242191
0.839963 0.363256 0.269505
0.853086 0.390936 0.299229
0.864347 0.420569 0.331456
0.873594 0.452430 0.366400
0.880858 0.486549 0.403967
0.886259 0.522820 0.443763
0.084932 0.086427 0.080629
0.084901 0.087068 0.080262
0.086610 0.087434 0.080201
0.090028 0.087800 0.080049
0.093294 0.086213 0.081636
0.114382 0.094331 0.081392
0.150668 0.101472 0.079255
0.194369 0.106905 0.076295
0.242283 0.110842 0.072938
0.291356 0.114199 0.068360
0.341039 0.117433 0.062898
0.389807 0.121248 0.055756
0.436988 0.125978 0.045838
0.481605 0.132448 0.037415
0.532738 0.143618 0.035187
0.577539 0.157259 0.045899
0.615747 0.171542 0.062074
0.647578 0.186465 0.076387
0.674525 0.201541 0.092714
0.698634 0.218051 0.110689
0.721828 0.235630 0.129976
0.744320 0.254643 0.150240
0.765743 0.274693 0.171206
0.786069 0.295781 0.193637
0.804929 0.317998 0.217136
0.822202 0.341619 0.242405
0.837736 0.366796 0.269535
0.851255 0.393713 0.298955
0.862730 0.422705 0.330968
0.872221 0.453925 0.365576
0.879728 0.487465 0.402869
0.885374 0.523217 0.442481
0.083742 0.095766 0.080415
0.083619 0.096620 0.080354
0.085115 0.097261 0.079591
0.090272 0.097871 0.079042
0.098207 0.097688 0.079438
0.104494 0.095399 0.082582
0.138552 0.110201 0.082338
0.182650 0.120760 0.078676
0.229404 0.126833 0.074128
0.279698 0.133486 0.069947
0.330358 0.139559 0.064576
0.380255 0.145144 0.059205
0.428290 0.150851 0.051057
0.476173 0.157900 0.044373
0.527367 0.168856 0.045747
0.571801 0.180697 0.056916
0.610590 0.193088 0.068177
0.643183 0.205966 0.082368
0.670985 0.219455 0.098116
0.695857 0.234287 0.116030
0.719692 0.250828 0.135286
0.742824 0.268528 0.155642
0.797604 0.328954 0.218021
0.814450 0.349310 0.240696
0.829252 0.370062 0.264073
0.842222 0.391638 0.288609
0.853422 0.414435 0.314611
0.863096 0.438697 0.342382
0.871305 0.465064 0.372534
0.878050 0.493599 0.405127
0.883330 0.524041 0.439582
0.887297 0.556268 0.475685
0.080323 0.116335 0.080049
0.080171 0.117220 0.079622
0.080537 0.118532 0.078126
0.088991 0.118685 0.077211
0.100771 0.118715 0.076478
0.116091 0.119417 0.077760
0.129091 0.117250 0.084382
0.177859 0.140505 0.085451
0.230014 0.153750 0.078889
0.281041 0.161715 0.072602
0.332219 0.168002 0.066987
0.384649 0.175662 0.062470
0.433967 0.182559 0.058839
0.489052 0.193332 0.058381
0.540520 0.204807 0.063569
0.583612 0.215518 0.072267
0.620478 0.226230 0.083925
0.651575 0.237217 0.098360
0.678889 0.249332 0.114534
0.704494 0.263920 0.133669
0.730434 0.281346 0.155093
0.756191 0.301579 0.178866
0.780545 0.323827 0.204440
0.802548 0.347356 0.231296
0.821378 0.371160 0.258549
0.836790 0.394202 0.285252
0.849363 0.417487 0.312383
0.859831 0.441444 0.340337
0.868681 0.467140 0.370459
0.875822 0.494606 0.402411
0.881529 0.524071 0.436408
0.885801 0.555474 0.472175
0.074556 0.141176 0.079774
0.074281 0.142245 0.079286
0.074647 0.143435 0.077760
0.083070 0.143496 0.074830
0.097749 0.141939 0.073579
0.115938 0.141909 0.072816
0.138491 0.144778 0.075410
0.157107 0.143465 0.086488
0.212924 0.171328 0.092164
0.268437 0.186557 0.084138
0.321416 0.195560 0.077058
0.370947 0.200198 0.070375
0.422583 0.208072 0.067170
0.480812 0.220981 0.069123
0.530419 0.231418 0.073976
0.572961 0.240330 0.081910
0.610346 0.249363 0.092317
0.642481 0.258549 0.105257
0.670680 0.268986 0.120546
0.696834 0.281315 0.138552
0.722957 0.296727 0.159091
0.748898 0.314824 0.181949
0.773587 0.335210 0.206577
0.796048 0.356725 0.232364
0.815518 0.378973 0.258762
0.831693 0.400855 0.284977
0.845060 0.422919 0.311681
0.856260 0.445930 0.339391
0.865690 0.470771 0.369268
0.873381 0.497383 0.400916
0.879484 0.526085 0.434699
0.884092 0.556664 0.470222
0.063844 0.172122 0.079438
0.063447 0.172976 0.079255
0.064485 0.173892 0.077394
0.071321 0.174289 0.071260
0.090913 0.171633 0.069429
0.111269 0.167636 0.067994
0.137514 0.170932 0.067689
0.167880 0.175845 0.071992
0.191897 0.176059 0.091402
0.252995 0.207675 0.106142
0.311101 0.224094 0.097414
0.364569 0.232975 0.089845
0.421637 0.243107 0.085481
0.472602 0.249180 0.082460
0.521569 0.258946 0.087770
0.564172 0.267063 0.094942
0.602197 0.274907 0.104097
0.635187 0.283024 0.116060
0.664210 0.291783 0.130098
0.690883 0.302556 0.147066
0.717159 0.316075 0.166629
0.743282 0.332250 0.188540
0.768093 0.350713 0.212284
0.790768 0.370520 0.237186
0.810666 0.391058 0.262791
0.827329 0.411414 0.288212
0.841276 0.432197 0.314366
0.852964 0.454047 0.341527
0.862791 0.477516 0.370703
0.870848 0.502831 0.401740
0.877317 0.530205 0.434791
0.882261 0.559594 0.469642
0.033356 0.206455 0.079164
0.032746 0.207004 0.078706
0.036072 0.207431 0.076600
0.051209 0.207797 0.067659
0.078523 0.204715 0.064057
0.104341 0.199435 0.061707
0.130251 0.194949 0.060426
0.165103 0.202945 0.060365
0.202518 0.210086 0.068971
0.230747 0.211795 0.100404
0.294926 0.245396 0.126802
0.359503 0.266361 0.119722
0.418769 0.279728 0.114565
0.470192 0.286748 0.110506
0.514733 0.290196 0.107973
0.555932 0.294377 0.110140
0.596124 0.302708 0.119295
0.630610 0.310246 0.130587
0.660456 0.318273 0.143923
0.687221 0.327276 0.159884
0.712978 0.338598 0.177829
0.738033 0.352178 0.197696
0.761959 0.367498 0.218997
0.784054 0.384436 0.241764
0.803952 0.402472 0.265507
0.821256 0.421210 0.289982
0.836149 0.441016 0.315709
0.848814 0.462135 0.343023
0.859464 0.485206 0.372503
0.868193 0.510155 0.403906
0.875120 0.537133 0.437324
0.880400 0.566064 0.472511
0.000000 0.240238 0.079316
0.000000 0.240696 0.078859
0.000000 0.241032 0.076081
0.007813 0.241032 0.067140
0.058534 0.238437 0.057343
0.092775 0.233249 0.051026
0.122652 0.225925 0.046082
0.155795 0.226841 0.042725
0.198398 0.237491 0.047059
0.242222 0.247044 0.069917
0.277104 0.253391 0.116762
0.350561 0.294713 0.159548
0.412329 0.313329 0.151553
0.465949 0.323400 0.145266
0.511894 0.328161 0.140688
0.551812 0.329686 0.137758
0.587274 0.329961 0.136751
0.621851 0.335485 0.144808
0.652766 0.342443 0.156893
0.680385 0.350408 0.171542
0.706416 0.360296 0.188510
0.731899 0.372473 0.207523
0.756252 0.386572 0.228214
0.778775 0.402167 0.250187
0.799008 0.418677 0.273136
0.816648 0.435828 0.296605
0.831907 0.453864 0.321202
0.844938 0.473335 0.347509
0.856016 0.494759 0.375921
0.865141 0.518273 0.406500
0.872496 0.543847 0.439216
0.878141 0.571466 0.473732
0.000000 0.276280 0.080201
0.000000 0.276829 0.079683
0.000000 0.276921 0.076967
0.000000 0.276402 0.067597
0.000000 0.274205 0.046113
0.075471 0.268772 0.033509
0.112673 0.261357 0.024079
0.144533 0.251560 0.019257
0.187778 0.261387 0.013001
0.238773 0.276310 0.029236
0.293675 0.293767 0.079622
0.333471 0.303288 0.143008
0.450172 0.382635 0.228061
0.507683 0.397650 0.218387
0.554406 0.403296 0.210086
0.592981 0.403723 0.203922
0.624384 0.401007 0.199893
0.650660 0.397040 0.198184
0.674128 0.394537 0.200198
0.699214 0.400488 0.213352
0.723445 0.408362 0.228458
0.746639 0.418036 0.245212
0.768276 0.429145 0.263310
0.788266 0.441840 0.282963
0.806271 0.455482 0.303593
0.822019 0.470161 0.325322
0.835538 0.485664 0.348089
0.847105 0.502464 0.372351
0.856901 0.521111 0.398474
0.865141 0.541833 0.426764
0.871794 0.564691 0.457099
0.877012 0.589746 0.489418
0.000000 0.324254 0.083284
0.000000 0.324590 0.082826
0.000000 0.324010 0.079591
0.000000 0.322210 0.069398
0.000000 0.319036 0.045228
0.033936 0.311864 0.013825
0.099794 0.303014 0.000000
0.137881 0.292332 0.000000
0.175448 0.287541 0.000000
0.233860 0.310460 0.000000
0.299016 0.333806 0.025055
0.363897 0.356756 0.106264
0.410407 0.371283 0.187778
0.484382 0.416266 0.259037
0.539117 0.431403 0.250095
0.582422 0.436774 0.242222
0.616541 0.436072 0.235813
0.644190 0.432380 0.231174
0.667994 0.428077 0.229282
0.690028 0.424994 0.230289
0.713405 0.428382 0.239597
0.737209 0.436805 0.255131
0.759335 0.446662 0.272007
0.779934 0.457771 0.290288
0.798611 0.470008 0.309758
0.815091 0.483162 0.330358
0.829465 0.497383 0.352148
0.841825 0.512871 0.375555
0.852384 0.530236 0.401007
0.861295 0.549920 0.428840
0.868528 0.571679 0.458747
0.874235 0.595789 0.490822
0.000000 0.359380 0.088045
0.000000 0.359686 0.087343
0.000000 0.359167 0.084321
0.000000 0.357244 0.075410
0.000000 0.353796 0.058808
0.000000 0.347509 0.010285
0.080507 0.339178 0.000000
0.127840 0.332189 0.000000
0.166629 0.322423 0.000000
0.214694 0.329656 0.000000
0.280369 0.354009 0.000000
0.349401 0.378210 0.058961
0.414191 0.400855 0.133486
0.457404 0.413611 0.219425
0.522820 0.454566 0.295415
0.570428 0.465980 0.284184
0.607050 0.468116 0.274510
0.636408 0.465675 0.267063
0.661402 0.461646 0.262394
0.684138 0.458167 0.261021
0.706294 0.456428 0.262730
0.727871 0.456489 0.267216
0.750851 0.465339 0.282994
0.772152 0.475593 0.300359
0.791531 0.486702 0.318853
0.808804 0.498695 0.338476
0.823880 0.511711 0.359472
0.836912 0.526055 0.382025
0.848081 0.542260 0.406744
0.857572 0.560723 0.433906
0.865293 0.581323 0.463264
0.871489 0.604211 0.494820
0.000000 0.395270 0.094728
0.000000 0.395697 0.094270
0.000000 0.395361 0.092287
0.000000 0.394018 0.083558
0.000000 0.392645 0.069703
0.000000 0.389075 0.015808
0.050538 0.382483 0.000000
0.115724 0.373480 0.000000
0.158816 0.362676 0.000000
0.195621 0.349401 0.000000
0.257267 0.370397 0.000000
0.327825 0.396033 0.000000
0.397955 0.420111 0.086519
0.460700 0.441901 0.164157
0.499336 0.452399 0.251072
0.556359 0.489326 0.329839
0.597131 0.497292 0.317418
0.628443 0.497230 0.306645
0.654688 0.494270 0.299290
0.678126 0.490791 0.294957
0.700618 0.488502 0.294072
0.722316 0.487556 0.295903
0.743008 0.487953 0.300237
0.763882 0.493355 0.311345
0.784085 0.503624 0.328923
0.802335 0.515038 0.348119
0.818540 0.527764 0.368963
0.832578 0.542016 0.391974
0.844602 0.558038 0.417182
0.854643 0.576257 0.444739
0.862821 0.596551 0.474617
0.869322 0.618585 0.505882
0.000000 0.439429 0.106355
0.000000 0.440314 0.106172
0.000000 0.440955 0.105226
0.000000 0.440009 0.098207
0.000000 0.437812 0.086183
0.000000 0.434211 0.062684
0.000000 0.427314 0.000000
0.102327 0.418402 0.000000
0.151614 0.407141 0.000000
0.191501 0.393408 0.000000
0.233982 0.386938 0.000000
0.303990 0.412970 0.000000
0.375463 0.437018 0.000000
0.442664 0.458442 0.117037
0.500267 0.477333 0.194339
0.533074 0.484565 0.279118
0.582727 0.518090 0.360204
0.618402 0.524102 0.347997
0.647089 0.524102 0.338293
0.672267 0.522423 0.332372
0.695949 0.520989 0.329564
0.718379 0.520348 0.329778
0.739590 0.520439 0.332219
0.759762 0.521843 0.337194
0.778836 0.524651 0.344762
0.797696 0.535332 0.363043
0.814481 0.547204 0.383246
0.828916 0.560510 0.405463
0.841215 0.575280 0.429633
0.851469 0.591821 0.455970
0.859770 0.610193 0.484169
0.866545 0.629877 0.513298
0.000000 0.478767 0.120333
0.000000 0.479133 0.119600
0.000000 0.479347 0.118715
0.000000 0.478279 0.113436
0.000000 0.475593 0.103151
0.000000 0.471565 0.087251
0.000000 0.464942 0.034028
0.086030 0.455634 0.000000
0.141146 0.444373 0.000000
0.183474 0.430915 0.000000
0.220249 0.415015 0.000000
0.274998 0.423255 0.000000
0.347234 0.449042 0.000000
0.418006 0.472114 0.055940
0.482124 0.492042 0.146426
0.535119 0.509117 0.224094
0.563806 0.514611 0.306676
0.605921 0.544427 0.389899
0.637751 0.549279 0.378393
0.664179 0.549615 0.369696
0.688746 0.549126 0.364324
0.711727 0.548669 0.361975
0.733364 0.548669 0.362249
0.753841 0.549645 0.365209
0.773129 0.551751 0.370855
0.791287 0.555291 0.379156
0.808469 0.563561 0.394507
0.823789 0.576165 0.416114
0.836790 0.590173 0.439765
0.847593 0.605798 0.465431
0.856413 0.623133 0.492988
0.863645 0.641505 0.521233
0.000000 0.515923 0.135561
0.000000 0.516960 0.135470
0.000000 0.543511 0.147646
0.000000 0.542718 0.144228
0.000000 0.539483 0.135958
0.000000 0.534508 0.123720
0.000000 0.527459 0.090578
0.084321 0.517052 0.043244
0.143069 0.504723 0.000000
0.187503 0.490578 0.000000
0.225956 0.473854 0.000000
0.259800 0.454139 0.000000
0.331701 0.477638 0.000000
0.406134 0.501762 0.000000
0.475013 0.522362 0.108766
0.534844 0.539574 0.188785
0.582300 0.553887 0.269139
0.604822 0.556207 0.350011
0.636927 0.580438 0.432837
0.664485 0.583764 0.421088
0.688930 0.584161 0.411933
0.711818 0.583825 0.406134
0.733120 0.583490 0.403357
0.752926 0.583337 0.403143
0.771176 0.583612 0.405097
0.788235 0.584955 0.409674
0.804135 0.587732 0.417243
0.818875 0.592920 0.428840
0.832151 0.605280 0.450599
0.843412 0.619593 0.475074
0.852750 0.635431 0.501366
0.860410 0.652186 0.528161
0.000000 0.557061 0.155367
0.000000 0.560754 0.156405
0.000000 0.564508 0.157565
0.000000 0.567590 0.156893
0.000000 0.566918 0.151919
0.000000 0.563500 0.142367
0.000000 0.557641 0.124361
0.069856 0.548333 0.084749
0.133425 0.537102 0.004974
0.178897 0.523827 0.000000
0.218296 0.508415 0.000000
0.253483 0.490364 0.000000
0.297185 0.482918 0.000000
0.371740 0.508232 0.000000
0.443366 0.530144 0.000000
0.508080 0.548363 0.138308
0.562524 0.562982 0.216831
0.605219 0.575525 0.296086
0.624445 0.576928 0.374426
0.652766 0.599908 0.457252
0.679347 0.604242 0.446815
0.703548 0.606226 0.439338
0.725826 0.607233 0.434821
0.746334 0.607721 0.432807
0.765164 0.608179 0.433021
0.782589 0.609277 0.435950
0.798734 0.611597 0.441810
0.813657 0.615656 0.451179
0.827237 0.622034 0.464576
0.839109 0.633509 0.485542
0.848997 0.647944 0.510338
0.857145 0.663264 0.535851
0.000000 0.585534 0.169100
0.000000 0.588708 0.170535
0.000000 0.592004 0.171908
0.000000 0.594903 0.171633
0.000000 0.594781 0.167941
0.000000 0.591760 0.160678
0.000000 0.586542 0.148867
0.058717 0.578851 0.113313
0.125582 0.568780 0.074159
0.171572 0.556786 0.000000
0.211460 0.542931 0.000000
0.247654 0.526482 0.000000
0.280034 0.507073 0.000000
0.338109 0.515435 0.000000
0.411536 0.538689 0.000000
0.479805 0.558068 0.076204
0.539513 0.573388 0.167910
0.589105 0.585992 0.248447
0.627619 0.597192 0.325414
0.643915 0.598047 0.401068
0.669764 0.620661 0.482826
0.695277 0.625788 0.473640
0.718624 0.628717 0.467323
0.739803 0.630304 0.463447
0.759060 0.631189 0.461799
0.776730 0.632136 0.462654
0.793027 0.633783 0.466377
0.808011 0.636896 0.473579
0.821744 0.642054 0.484657
0.834104 0.649287 0.499336
0.844877 0.659480 0.518425
0.853574 0.673396 0.542596
0.000000 0.611688 0.183719
0.000000 0.614466 0.185061
0.000000 0.617334 0.186374
0.000000 0.619928 0.186404
0.000000 0.620691 0.184085
0.000000 0.618067 0.178500
0.000000 0.613519 0.169162
0.056336 0.607294 0.140719
0.121401 0.598383 0.108339
0.166140 0.587915 0.059327
0.205417 0.575555 0.000000
0.241672 0.560876 0.000000
0.275090 0.543481 0.000000
0.305638 0.523339 0.000000
0.378973 0.546929 0.000000
0.450233 0.567956 0.000000
0.515068 0.585107 0.117250
0.571160 0.599207 0.204074
0.617456 0.611383 0.286168
0.653437 0.623072 0.362768
0.668879 0.625452 0.436133
0.693111 0.648188 0.515465
0.717159 0.653864 0.507805
0.739132 0.657679 0.503075
0.758816 0.659876 0.500481
0.776516 0.661433 0.500145
0.792538 0.663081 0.502373
0.807126 0.665583 0.507683
0.820371 0.669551 0.516411
0.832242 0.675135 0.528313
0.842741 0.682490 0.543328
0.851865 0.691859 0.561212
0.000000 0.645594 0.206973
0.000000 0.646784 0.207584
0.000000 0.647761 0.207584
0.000000 0.648585 0.206485
0.000000 0.649287 0.204532
0.000000 0.646632 0.199893
0.000000 0.642603 0.193301
0.102388 0.637568 0.181033
0.129519 0.630854 0.144747
0.169711 0.622553 0.108522
0.206577 0.612665 0.035615
0.242008 0.600641 0.000000
0.275914 0.586206 0.000000
0.307774 0.568872 0.000000
0.352239 0.563226 0.000000
0.425544 0.584405 0.000000
0.493080 0.601404 0.027649
0.552972 0.615076 0.161257
0.603876 0.626551 0.248600
0.645777 0.637415 0.327123
0.677852 0.647974 0.399145
0.690517 0.649470 0.466835
0.711330 0.668879 0.537469
0.732357 0.673487 0.531151
0.752285 0.676753 0.526665
0.770321 0.678920 0.524529
0.786709 0.680751 0.524956
0.801541 0.683009 0.528374
0.815030 0.686152 0.534874
0.827115 0.690578 0.544427
0.837858 0.696559 0.556970
0.847166 0.704616 0.572839
0.000000 0.666743 0.222599
0.000000 0.667872 0.223056
0.000000 0.668910 0.223575
0.000000 0.669734 0.222660
0.000000 0.670283 0.220706
0.000000 0.669123 0.217319
0.000000 0.665461 0.212680
0.115602 0.660761 0.205417
0.138247 0.655207 0.174014
0.172000 0.648127 0.142824
0.205509 0.639796 0.100465
0.238712 0.629847 0.000000
0.271733 0.617792 0.000000
0.304143 0.603510 0.000000
0.334997 0.586847 0.000000
0.394537 0.595026 0.000000
0.464851 0.612726 0.000000
0.528435 0.626856 0.105013
0.584131 0.638758 0.206058
0.631861 0.649866 0.288731
0.670619 0.660456 0.364355
0.699855 0.670649 0.432593
0.710719 0.672023 0.495705
0.729213 0.688655 0.557458
0.744259 0.688808 0.549310
0.762783 0.692073 0.545525
0.779660 0.694545 0.544396
0.794919 0.696803 0.545953
0.808774 0.699580 0.550439
0.821256 0.703334 0.557977
0.832395 0.708614 0.568872
0.841947 0.715877 0.583459
0.000000 0.694789 0.246555
0.000000 0.696071 0.247715
0.000000 0.696864 0.248142
0.000000 0.697261 0.247288
0.000000 0.697261 0.244480
0.000000 0.697017 0.240879
0.053223 0.693446 0.237613
0.136751 0.688533 0.232486
0.160616 0.682979 0.208316
0.185122 0.675990 0.179568
0.211856 0.667811 0.142885
0.240726 0.658686 0.092927
0.270970 0.648280 0.000000
0.301579 0.635950 0.000000
0.332067 0.621271 0.000000
0.362524 0.605097 0.000000
0.433448 0.621881 0.000000
0.499153 0.635584 0.000000
0.558282 0.647608 0.154635
0.611048 0.658930 0.245060
0.655665 0.669612 0.324315
0.691127 0.679622 0.396155
0.717220 0.688685 0.459907
0.725856 0.688777 0.516716
0.741299 0.702083 0.570916
0.757412 0.705348 0.568627
0.774289 0.708339 0.565637
0.789517 0.710597 0.565179
0.803372 0.713069 0.567651
0.815915 0.716274 0.573327
0.827085 0.720882 0.582544
0.836851 0.727291 0.595544
0.000000 0.713527 0.261875
0.000000 0.714687 0.262730
0.000000 0.715511 0.263340
0.000000 0.715938 0.262760
0.000000 0.716030 0.260990
0.000000 0.715846 0.257572
0.071168 0.714473 0.254185
0.145785 0.710353 0.251591
0.190677 0.705470 0.244511
0.198001 0.700099 0.210361
0.220523 0.693416 0.178866
0.246098 0.685847 0.139651
0.273381 0.677119 0.081666
0.302312 0.666987 0.000000
0.332036 0.655238 0.000000
0.362310 0.641932 0.000000
0.407691 0.638392 0.000000
0.476020 0.652186 0.000000
0.538384 0.664149 0.103822
0.594934 0.675227 0.209903
0.643946 0.685328 0.293339
0.684169 0.694514 0.368139
0.715175 0.702724 0.434546
0.737423 0.710048 0.492287
0.743984 0.708827 0.541344
0.756222 0.718990 0.589380
0.770077 0.721614 0.588800
0.785397 0.724544 0.586938
0.799222 0.727260 0.588067
0.811704 0.730343 0.592340
0.822812 0.734463 0.600031
0.832456 0.740108 0.611414
0.110506 0.734524 0.281071
0.113436 0.735348 0.281956
0.114382 0.735744 0.281987
0.113863 0.735805 0.280980
0.112581 0.735683 0.279545
0.110079 0.735256 0.276036
0.106355 0.734859 0.271580
0.155245 0.731838 0.269871
0.204349 0.727413 0.267521
0.213596 0.723079 0.239933
0.231724 0.717525 0.211215
0.253696 0.711360 0.177340
0.278019 0.704189 0.134157
0.304631 0.695735 0.064271
0.332647 0.685847 0.000000
0.361730 0.674495 0.000000
0.391638 0.661891 0.000000
0.450202 0.667720 0.000000
0.515221 0.679438 0.000000
0.575036 0.690089 0.169009
0.627985 0.699611 0.259556
0.672572 0.708003 0.337743
0.708125 0.715389 0.407080
0.734920 0.721889 0.467842
0.753902 0.727504 0.518639
0.758602 0.724971 0.561425
0.767941 0.732662 0.605768
0.779843 0.734768 0.606500
0.793637 0.737667 0.605615
0.806241 0.740810 0.608270
0.817441 0.744594 0.614221
0.827207 0.749538 0.623651
0.159915 0.752651 0.298497
0.160952 0.753170 0.298894
0.161746 0.753506 0.298985
0.161990 0.753689 0.298344
0.161990 0.753902 0.297429
0.162325 0.754330 0.295995
0.163027 0.755154 0.293584
0.172732 0.755825 0.291630
0.224674 0.753628 0.294743
0.245640 0.751797 0.279698
0.261631 0.749111 0.256260
0.280552 0.745907 0.228702
0.302159 0.741787 0.195010
0.325872 0.736507 0.151553
0.351781 0.729824 0.086213
0.379339 0.721553 0.000000
0.408545 0.712123 0.000000
0.440528 0.702876 0.000000
0.508904 0.712978 0.000000
0.571527 0.721706 0.152834
0.626825 0.729000 0.250675
0.673548 0.735134 0.331365
0.711116 0.740139 0.401556
0.739956 0.744350 0.462654
0.761074 0.747951 0.513725
0.775967 0.751034 0.554528
0.777859 0.746761 0.591638
0.782986 0.751095 0.631006
0.792508 0.752499 0.632380
0.804105 0.755032 0.632441
0.814786 0.758328 0.636469
0.824063 0.762417 0.643641
0.226139 0.778988 0.331823
0.226841 0.779294 0.332128
0.226902 0.779324 0.331853
0.226261 0.779263 0.330816
0.225681 0.779202 0.329625
0.225162 0.779202 0.328008
0.224704 0.779446 0.325719
0.224277 0.779873 0.322179
0.247837 0.778805 0.322423
0.287388 0.775998 0.323857
0.287968 0.773922 0.294255
0.301305 0.770901 0.267674
0.317937 0.767269 0.236637
0.337560 0.762814 0.198795
