data/fiter_cube/11206988/1023412/file.cube
# Created by Adobe Lightroom plugin Export LUT (1.17.0)
# www.johnrellis.com/lightroom/exportlut.htm
# Preset: 焦糖暖色调人像产品_01 云集
# Color profile: C:\Program Files (x86)\Common Files\Adobe\Color\Profiles\Recommended\AdobeRGB1998.icc
LUT_3D_SIZE 8
DOMAIN_MIN 0.000000 0.000000 0.000000
DOMAIN_MAX 0.903226 0.903226 0.903226
0.086030 0.080690 0.081086
0.108309 0.080568 0.080049
0.272984 0.068727 0.070893
0.464363 0.062135 0.035157
0.642420 0.138277 0.059846
0.743954 0.228153 0.139162
0.818784 0.319310 0.228000
0.868132 0.425238 0.339544
0.084932 0.086427 0.080629
0.093294 0.086213 0.081636
0.242283 0.110842 0.072938
0.436988 0.125978 0.045838
0.615747 0.171542 0.062074
0.721828 0.235630 0.129976
0.804929 0.317998 0.217136
0.862730 0.422705 0.330968
0.063844 0.172122 0.079438
0.090913 0.171633 0.069429
0.191897 0.176059 0.091402
0.421637 0.243107 0.085481
0.602197 0.274907 0.104097
0.717159 0.316075 0.166629
0.810666 0.391058 0.262791
0.862791 0.477516 0.370703
0.000000 0.324254 0.083284
0.000000 0.319036 0.045228
0.175448 0.287541 0.000000
0.410407 0.371283 0.187778
0.616541 0.436072 0.235813
0.713405 0.428382 0.239597
0.798611 0.470008 0.309758
0.852384 0.530236 0.401007
0.000000 0.478767 0.120333
0.000000 0.475593 0.103151
0.141146 0.444373 0.000000
0.347234 0.449042 0.000000
0.563806 0.514611 0.306676
0.688746 0.549126 0.364324
0.773129 0.551751 0.370855
0.836790 0.590173 0.439765
0.000000 0.611688 0.183719
0.000000 0.620691 0.184085
0.121401 0.598383 0.108339
0.275090 0.543481 0.000000
0.515068 0.585107 0.117250
0.668879 0.625452 0.436133
0.758816 0.659876 0.500481
0.820371 0.669551 0.516411
0.000000 0.713527 0.261875
0.000000 0.716030 0.260990
0.190677 0.705470 0.244511
0.273381 0.677119 0.081666
0.407691 0.638392 0.000000
0.643946 0.685328 0.293339
0.743984 0.708827 0.541344
0.799222 0.727260 0.588067
0.267491 0.794949 0.353155
0.267247 0.795193 0.351171
0.268803 0.797269 0.343694
0.339147 0.790799 0.278874
0.409491 0.762661 0.071778
0.587549 0.760220 0.180240
0.752316 0.771481 0.481514
0.795651 0.768093 0.630335
0.084810 0.081971 0.088441
0.101259 0.076783 0.091920
0.239231 0.063691 0.081727
0.423529 0.094453 0.066590
0.601434 0.149081 0.047791
0.711269 0.214481 0.115908
0.798276 0.297826 0.202609
0.859983 0.401770 0.313787
0.084718 0.086549 0.087221
0.095521 0.090181 0.089204
0.221958 0.107179 0.087343
0.411658 0.136690 0.071595
0.588434 0.179904 0.059358
0.700862 0.231571 0.117433
0.787411 0.302220 0.197574
0.853696 0.399176 0.305028
0.062257 0.165103 0.108156
0.087129 0.174899 0.098543
0.189639 0.178897 0.116396
0.394537 0.234836 0.106813
0.570092 0.264225 0.093874
0.693782 0.302373 0.148287
0.787137 0.362341 0.230045
0.853391 0.449378 0.338659
0.000000 0.316442 0.132052
0.000000 0.315007 0.117159
0.166171 0.287694 0.046509
0.372595 0.342229 0.196750
0.568017 0.397467 0.207431
0.679622 0.396307 0.203464
0.774563 0.437781 0.272709
0.843198 0.504295 0.369940
0.000000 0.480507 0.176516
0.000000 0.473823 0.161624
0.145663 0.442969 0.079042
0.324010 0.426001 0.000000
0.535363 0.489601 0.299107
0.671321 0.529778 0.341741
0.761044 0.535912 0.351904
0.831022 0.575555 0.421027
0.000000 0.604913 0.220096
0.000000 0.604211 0.214420
0.132784 0.584405 0.161288
0.268223 0.532921 0.000000
0.499886 0.571374 0.144289
0.661921 0.617853 0.425910
0.753658 0.653468 0.492714
0.816739 0.661799 0.505821
0.000000 0.702205 0.276524
0.000000 0.700862 0.271092
0.182345 0.692226 0.259098
0.271427 0.667506 0.137606
0.391608 0.625177 0.000000
0.633661 0.675868 0.278569
0.735470 0.699489 0.529686
0.794247 0.719753 0.577630
0.257328 0.789059 0.358679
0.259892 0.790311 0.358495
0.262974 0.792966 0.352209
0.345159 0.786435 0.304021
0.421485 0.771206 0.137911
0.588464 0.762692 0.182132
0.749905 0.769650 0.476478
0.793790 0.765774 0.626123
0.039979 0.111269 0.190311
0.045533 0.083711 0.196139
0.231083 0.000000 0.194125
0.424903 0.000000 0.144503
0.597833 0.151919 0.168673
0.708827 0.246067 0.198489
0.800748 0.318456 0.229892
0.862730 0.411933 0.323705
0.075776 0.138155 0.172641
0.096376 0.133883 0.182559
0.218479 0.065583 0.185977
0.405982 0.099886 0.155734
0.581170 0.188052 0.174289
0.698878 0.260136 0.199008
0.792660 0.324804 0.228000
0.859007 0.415595 0.321691
0.015991 0.185336 0.181582
0.093568 0.190433 0.183078
0.194003 0.198978 0.180453
0.388617 0.240513 0.194675
0.572168 0.285985 0.210056
0.692744 0.327276 0.227237
0.786679 0.374823 0.252811
0.853758 0.450874 0.340093
0.000000 0.337835 0.251255
0.019104 0.341558 0.249058
0.201175 0.335515 0.216342
0.378607 0.360693 0.277409
0.562188 0.408667 0.286015
0.680415 0.419867 0.279393
0.777584 0.452461 0.300420
0.845609 0.510277 0.377173
0.000000 0.499031 0.295720
0.000000 0.498085 0.293095
0.207950 0.481392 0.263340
0.298283 0.419409 0.144686
0.544610 0.510613 0.377295
0.669123 0.543755 0.396124
0.759792 0.541314 0.369848
0.831937 0.576562 0.422705
0.000000 0.619532 0.326207
0.000000 0.619165 0.325811
0.212375 0.603265 0.307164
0.293736 0.556176 0.200412
0.478614 0.557885 0.217960
0.655482 0.620508 0.469917
0.748989 0.652125 0.500023
0.817288 0.661555 0.505760
0.112734 0.713619 0.364813
0.110109 0.713375 0.362127
0.231235 0.703761 0.353887
0.319554 0.678065 0.288609
0.389563 0.629541 0.094697
0.626276 0.672816 0.328130
0.737575 0.703609 0.540856
0.797543 0.724147 0.583612
0.286107 0.790799 0.414832
0.283238 0.790372 0.410529
0.283085 0.791958 0.403601
0.402167 0.787137 0.406348
0.438270 0.772427 0.272770
0.575097 0.760525 0.194308
0.748348 0.770047 0.472999
0.794644 0.766873 0.627680
0.000000 0.189151 0.350561
0.000000 0.161410 0.354955
0.146883 0.063630 0.356512
0.398749 0.000000 0.335912
0.585016 0.000000 0.283391
0.689082 0.220157 0.283574
0.782742 0.327550 0.319127
0.855161 0.410803 0.357641
0.000000 0.235630 0.344610
0.077943 0.226352 0.350805
0.150271 0.127474 0.353704
0.393469 0.000000 0.334325
0.577508 0.016510 0.284092
0.683375 0.246067 0.288975
0.777859 0.339178 0.321263
0.853147 0.416968 0.357855
0.076661 0.286717 0.337438
0.146365 0.291142 0.336095
0.232181 0.283391 0.335027
0.375128 0.194705 0.328954
0.557610 0.239322 0.292363
0.681849 0.337499 0.326452
0.783780 0.410040 0.361364
0.853056 0.465034 0.386969
0.000000 0.358434 0.356298
0.073610 0.359594 0.354589
0.243992 0.364263 0.352605
0.349767 0.353033 0.329931
0.531365 0.392676 0.348791
0.664332 0.430121 0.364935
0.767239 0.472328 0.386297
0.843503 0.518303 0.414069
0.000000 0.510460 0.423041
0.000000 0.514611 0.426642
0.286778 0.524102 0.435798
0.373480 0.490242 0.376623
0.538262 0.519066 0.442969
0.658839 0.549584 0.451850
0.754604 0.558129 0.440162
0.831266 0.586053 0.456703
0.072450 0.645441 0.467231
0.131136 0.651759 0.471839
0.301946 0.639307 0.463233
0.396246 0.610895 0.421302
0.439368 0.544518 0.286259
0.657954 0.635218 0.531060
0.748104 0.664637 0.545190
0.816892 0.663874 0.523064
0.213657 0.725063 0.476844
0.215915 0.726802 0.476661
0.298589 0.724208 0.475624
0.416724 0.706966 0.460090
0.436866 0.663447 0.334142
0.614008 0.671748 0.390967
0.741176 0.715602 0.585626
0.798520 0.728054 0.597040
0.349157 0.796323 0.507134
0.349676 0.797116 0.505425
0.345953 0.798489 0.495155
0.429450 0.793271 0.493660
0.489876 0.778134 0.434882
0.539117 0.755489 0.247074
0.742947 0.770657 0.501122
0.794980 0.767361 0.627832
0.000000 0.292760 0.500267
0.000000 0.284276 0.500969
0.000000 0.181125 0.502373
0.311192 0.000000 0.492561
0.557214 0.000000 0.472541
0.689662 0.000000 0.407111
0.776913 0.272862 0.390753
0.845548 0.442878 0.453620
0.071839 0.323857 0.496010
0.117006 0.324254 0.499672
0.069398 0.232486 0.502403
0.308751 0.080446 0.490578
0.551751 0.000000 0.470253
0.685908 0.127291 0.408881
0.774350 0.297276 0.395636
0.844419 0.451575 0.456153
0.205875 0.396429 0.482582
0.244144 0.400641 0.482887
0.281498 0.378546 0.488472
0.315465 0.258824 0.486580
0.532616 0.186954 0.461860
0.667597 0.255314 0.409216
0.758755 0.381720 0.420020
0.839139 0.474037 0.459022
0.168246 0.440345 0.490822
0.214817 0.443122 0.489540
0.330694 0.454932 0.489174
0.408667 0.443397 0.480720
0.512322 0.349401 0.458961
0.648920 0.386877 0.422919
0.752499 0.466072 0.450904
0.836149 0.522057 0.474311
0.119326 0.518853 0.512169
0.155917 0.521324 0.512139
0.310704 0.525048 0.510552
0.428382 0.519097 0.499611
0.480690 0.479591 0.452766
0.629450 0.516594 0.471717
0.741299 0.551934 0.487190
0.825803 0.588128 0.504540
0.102174 0.618677 0.535424
0.109377 0.621668 0.536065
0.317082 0.625818 0.543175
0.472511 0.631739 0.554314
0.493233 0.589288 0.483558
0.637690 0.623987 0.554314
0.738430 0.656733 0.564874
0.813901 0.661769 0.551995
0.323003 0.732052 0.587823
0.320775 0.732113 0.585748
0.357031 0.731319 0.581292
0.476356 0.722042 0.575586
0.528252 0.696986 0.531456
0.549096 0.642237 0.397650
0.737819 0.719997 0.619104
0.796658 0.731868 0.622034
0.408240 0.792996 0.593866
0.406531 0.793179 0.591577
0.401526 0.794247 0.583398
0.440986 0.797452 0.576959
0.543877 0.785672 0.563897
0.559686 0.762814 0.446448
0.723964 0.766079 0.523461
0.793179 0.772885 0.661433
0.208133 0.401984 0.610040
0.206912 0.401312 0.609491
0.128359 0.321660 0.610742
0.242954 0.217075 0.609033
0.468421 0.000000 0.601373
0.667842 0.000000 0.569604
0.778744 0.181704 0.518273
0.847532 0.387182 0.515282
0.211765 0.407111 0.603357
0.219059 0.413336 0.601556
0.208286 0.361212 0.604456
0.257816 0.254856 0.604334
0.461921 0.000000 0.595789
0.661494 0.000000 0.565728
0.774166 0.214267 0.517205
0.845121 0.398383 0.515831
0.304540 0.480659 0.595209
0.314153 0.480171 0.595087
0.353552 0.467536 0.598840
0.330755 0.373480 0.604364
0.460883 0.224399 0.594476
0.653712 0.208743 0.565362
0.766903 0.310857 0.523339
0.840238 0.447181 0.525994
0.338659 0.527214 0.593133
0.350622 0.530022 0.592981
0.433814 0.546288 0.594049
0.483955 0.539422 0.602502
0.484627 0.419776 0.597986
0.647211 0.368750 0.571344
0.759121 0.428626 0.537682
0.834470 0.519341 0.544152
0.327855 0.570916 0.601099
0.326146 0.572198 0.600824
0.414008 0.582208 0.601129
0.510094 0.592554 0.598993
0.554406 0.576013 0.586755
0.620447 0.482490 0.561608
0.735134 0.517815 0.536339
0.822751 0.586847 0.560906
0.305516 0.626337 0.608789
0.306645 0.629572 0.610040
0.379461 0.634455 0.610559
0.495460 0.638788 0.610437
0.569726 0.632685 0.601404
0.593683 0.592187 0.557092
0.724361 0.630945 0.578393
0.814633 0.659541 0.589990
0.326513 0.713313 0.635462
0.331975 0.716274 0.636896
0.340978 0.721889 0.637446
0.507195 0.727596 0.649042
0.618769 0.739162 0.663844
0.619074 0.698512 0.595880
0.735531 0.725917 0.652827
0.798764 0.736629 0.649653
0.490120 0.792569 0.677058
0.490761 0.792935 0.676478
0.490791 0.794491 0.673396
0.485267 0.797757 0.663905
0.580346 0.792996 0.657862
0.632532 0.781460 0.623743
0.673884 0.754726 0.520226
0.793454 0.781033 0.697902
0.353155 0.499397 0.681117
0.355261 0.500847 0.682094
0.311498 0.456672 0.684718
0.273320 0.353491 0.690364
0.394537 0.233951 0.689174
0.587396 0.000000 0.678157
0.752895 0.000000 0.646540
0.842191 0.273564 0.604974
0.344427 0.493141 0.676997
0.346105 0.494270 0.677790
0.331334 0.469306 0.679561
0.292180 0.375525 0.684352
0.395575 0.263310 0.682673
0.579065 0.000000 0.670985
0.744198 0.001282 0.639643
0.837247 0.278050 0.599847
0.392889 0.538323 0.675502
0.395789 0.541283 0.674525
0.423865 0.541802 0.675532
0.398749 0.475929 0.680629
0.428199 0.367895 0.679866
0.576379 0.164797 0.669673
0.741970 0.228946 0.642786
0.835630 0.359747 0.609033
0.466621 0.600153 0.669062
0.467445 0.600763 0.667353
0.484321 0.602441 0.667811
0.523430 0.595850 0.675715
0.493507 0.504295 0.678340
0.577386 0.350469 0.670802
0.737728 0.367285 0.647944
0.830442 0.454475 0.618677
0.471565 0.627436 0.667262
0.469001 0.626642 0.666163
0.477394 0.628351 0.664576
0.553124 0.642664 0.665583
0.588037 0.631983 0.670283
0.582025 0.518730 0.663935
0.720119 0.475502 0.642664
0.821164 0.538598 0.622736
0.463905 0.661402 0.673060
0.463172 0.661982 0.672938
0.460487 0.663844 0.672450
0.537163 0.674800 0.675044
0.611200 0.684169 0.676783
0.653498 0.674098 0.671595
0.709621 0.589471 0.646967
0.811582 0.623621 0.628229
0.461616 0.709377 0.684077
0.462135 0.710811 0.684627
0.459632 0.713497 0.684443
0.506920 0.719631 0.686336
0.601373 0.726650 0.690089
0.672572 0.728939 0.689509
0.684535 0.684871 0.641382
0.796567 0.720027 0.662898
0.474800 0.772183 0.703731
0.474006 0.773098 0.703639
0.477485 0.778378 0.705531
0.488350 0.784146 0.705684
0.574121 0.788968 0.710201
0.701595 0.793973 0.725277
0.714504 0.779538 0.683528
0.794308 0.788693 0.728115
0.484688 0.594293 0.735500
0.485512 0.594873 0.735775
0.482368 0.592584 0.734676
0.401129 0.496010 0.743709
0.402747 0.387640 0.750332
0.509056 0.216190 0.753384
0.691737 0.000000 0.749874
0.825528 0.137087 0.716274
0.480781 0.591424 0.734066
0.481605 0.592004 0.734371
0.479408 0.590417 0.733577
0.397559 0.494179 0.742061
0.412299 0.406867 0.747738
0.510033 0.247837 0.750851
0.687831 0.000000 0.746944
0.822782 0.165072 0.714443
0.479683 0.590661 0.733669
0.480262 0.591272 0.733639
0.484352 0.597223 0.731044
0.478309 0.565362 0.737423
0.455756 0.476509 0.743954
0.522576 0.344945 0.746975
0.682856 0.126192 0.744442
0.819211 0.260746 0.714809
0.514458 0.626947 0.729915
0.516747 0.629145 0.729824
0.520653 0.633783 0.727810
0.551537 0.638025 0.730922
0.527733 0.575250 0.738643
0.552148 0.473426 0.743313
0.677424 0.295201 0.743465
0.815152 0.372564 0.717830
0.564141 0.673732 0.721096
0.565179 0.674556 0.721401
0.564752 0.674311 0.720607
0.563500 0.673274 0.720485
0.608576 0.670649 0.730190
0.588708 0.590692 0.736873
0.665858 0.434150 0.739620
0.808682 0.485481 0.721279
0.571344 0.698726 0.721767
0.570245 0.698146 0.721248
0.567834 0.697017 0.720089
0.566125 0.696284 0.719295
0.616022 0.705745 0.721218
0.670466 0.708919 0.732052
0.674922 0.614801 0.739040
0.801755 0.589380 0.725887
0.570336 0.726711 0.727260
0.569421 0.726467 0.726894
0.567163 0.726070 0.726009
0.565606 0.726741 0.725582
0.586816 0.730495 0.726192
0.678859 0.745510 0.731380
0.736995 0.753201 0.738308
0.787503 0.683467 0.725551
0.570886 0.761166 0.734218
0.570062 0.761227 0.733974
0.569146 0.762417 0.733913
0.569635 0.765713 0.734676
0.569177 0.770504 0.735439
0.667353 0.780575 0.742092
0.752071 0.789425 0.748775
0.769100 0.770047 0.724819
