data/fiter_cube/55192441/1023191/file.cube
# Created by Adobe Lightroom plugin Export LUT (1.17.0)
# www.johnrellis.com/lightroom/exportlut.htm
# Preset: 清新轻盈通透人像_09 云集
# Color profile: C:\Program Files (x86)\Common Files\Adobe\Color\Profiles\Recommended\AdobeRGB1998.icc
LUT_3D_SIZE 32
DOMAIN_MIN 0.0 0.0 0.0
DOMAIN_MAX 1.0 1.0 1.0
0.000000 0.000000 0.000000
0.004059 0.000000 0.000000
0.023072 0.000000 0.000000
0.064363 0.000000 0.000000
0.093385 0.000000 0.000000
0.138643 0.000000 0.000000
0.200046 0.000000 0.000000
0.269322 0.000000 0.000000
0.339483 0.000000 0.000000
0.404883 0.000000 0.000000
0.463600 0.000000 0.000000
0.515923 0.000000 0.000000
0.562219 0.000000 0.000000
0.603326 0.000000 0.000000
0.639582 0.000000 0.000000
0.672206 0.000000 0.000000
0.701808 0.000000 0.000000
0.728206 0.000000 0.000000
0.751980 0.000000 0.000000
0.782345 0.000000 0.000000
0.810849 0.000000 0.000000
0.837613 0.000000 0.000000
0.862669 0.000000 0.000000
0.886229 0.000000 0.000000
0.908751 0.000000 0.000000
0.930724 0.000000 0.000000
0.952819 0.000000 0.000000
0.975311 0.000000 0.037903
0.998260 0.000000 0.081270
1.000000 0.064515 0.107637
1.000000 0.103914 0.131777
1.000000 0.135775 0.155520
0.000000 0.004822 0.000000
0.003082 0.006561 0.000000
0.022950 0.006806 0.000000
0.063508 0.006500 0.000000
0.092744 0.007050 0.000000
0.137270 0.009583 0.000000
0.197543 0.010956 0.000000
0.265782 0.003174 0.000000
0.335332 0.000000 0.000000
0.400549 0.000000 0.000000
0.459205 0.000000 0.000000
0.511559 0.000000 0.000000
0.557916 0.000000 0.000000
0.599054 0.000000 0.000000
0.635401 0.000000 0.000000
0.668177 0.000000 0.000000
0.697932 0.000000 0.000000
0.724636 0.000000 0.000000
0.748836 0.000000 0.000000
0.778531 0.000000 0.000000
0.806180 0.000000 0.000000
0.832486 0.000000 0.000000
0.857298 0.000000 0.000000
0.880888 0.000000 0.000000
0.903532 0.000000 0.000000
0.925719 0.000000 0.000000
0.948180 0.000000 0.000000
0.971008 0.000000 0.010407
0.994354 0.000000 0.069947
1.000000 0.066224 0.098665
1.000000 0.102998 0.123598
1.000000 0.133639 0.147860
0.000000 0.025269 0.000000
0.001465 0.027985 0.000000
0.022675 0.028016 0.000000
0.062745 0.030335 0.000000
0.091829 0.033509 0.000000
0.135805 0.046326 0.000000
0.195102 0.057313 0.000000
0.262486 0.062409 0.000000
0.331640 0.062318 0.000000
0.397009 0.053864 0.000000
0.455756 0.029603 0.000000
0.508293 0.000000 0.000000
0.554925 0.000000 0.000000
0.596307 0.000000 0.000000
0.632807 0.000000 0.000000
0.665644 0.000000 0.000000
0.695552 0.000000 0.000000
0.722347 0.000000 0.000000
0.747463 0.000000 0.000000
0.776455 0.000000 0.000000
0.803708 0.000000 0.000000
0.829801 0.000000 0.000000
0.854490 0.000000 0.000000
0.878050 0.000000 0.000000
0.900725 0.000000 0.000000
0.923003 0.000000 0.000000
0.945617 0.000000 0.000000
0.968627 0.000000 0.000000
0.992187 0.019501 0.064546
1.000000 0.080537 0.094362
1.000000 0.110567 0.119631
1.000000 0.138155 0.144106
0.000000 0.065766 0.000000
0.000000 0.066438 0.000000
0.020325 0.066865 0.000000
0.062470 0.066773 0.000000
0.091493 0.069184 0.000000
0.135531 0.080079 0.000000
0.194125 0.093355 0.000000
0.260960 0.104372 0.000000
0.329259 0.111147 0.000000
0.394263 0.113344 0.000000
0.452644 0.111360 0.000000
0.505089 0.105348 0.000000
0.551568 0.097169 0.000000
0.592950 0.085298 0.000000
0.629603 0.070436 0.000000
0.662562 0.045838 0.000000
0.692622 0.000000 0.000000
0.719478 0.000000 0.000000
0.745724 0.000000 0.000000
0.773312 0.000000 0.000000
0.799527 0.000000 0.000000
0.825010 0.000000 0.000000
0.849729 0.000000 0.000000
0.873869 0.000000 0.000000
0.897520 0.000000 0.000000
0.920867 0.000000 0.000000
0.944274 0.012787 0.000000
0.967803 0.066194 0.000000
0.991516 0.090578 0.067018
1.000000 0.112459 0.095399
1.000000 0.133608 0.119600
1.000000 0.154757 0.142580
0.000000 0.097658 0.000000
0.000000 0.098421 0.000000
0.017182 0.099031 0.000000
0.063996 0.100313 0.000000
0.095644 0.101564 0.000000
0.133394 0.108858 0.000000
0.190829 0.127260 0.000000
0.256199 0.143587 0.000000
0.323796 0.155459 0.000000
0.388373 0.162325 0.000000
0.446876 0.164004 0.000000
0.499458 0.161990 0.000000
0.546258 0.157137 0.000000
0.588067 0.150484 0.000000
0.625360 0.142061 0.000000
0.658961 0.133028 0.000000
0.689845 0.122957 0.000000
0.717250 0.113069 0.000000
0.745266 0.103059 0.000000
0.771939 0.095064 0.000000
0.797421 0.088289 0.000000
0.822354 0.085023 0.000000
0.846769 0.084504 0.000000
0.870939 0.086244 0.000000
0.894713 0.091341 0.000000
0.918303 0.098543 0.000000
0.941894 0.108125 0.000000
0.965545 0.119295 0.000000
0.989349 0.132113 0.065766
1.000000 0.146212 0.094667
1.000000 0.161013 0.118410
1.000000 0.177615 0.141024
0.000000 0.149874 0.000000
0.000000 0.151034 0.000000
0.001770 0.151583 0.000000
0.068727 0.153140 0.000000
0.108675 0.155093 0.000000
0.147799 0.157259 0.000000
0.190799 0.163333 0.000000
0.255497 0.184207 0.000000
0.322118 0.199893 0.000000
0.386084 0.209415 0.000000
0.444282 0.213596 0.000000
0.496742 0.213199 0.000000
0.543420 0.209842 0.000000
0.585382 0.204349 0.000000
0.622827 0.197604 0.000000
0.656794 0.189761 0.000000
0.687892 0.181735 0.000000
0.716213 0.173465 0.000000
0.745418 0.166690 0.000000
0.771664 0.160403 0.000000
0.797086 0.155581 0.000000
0.822171 0.152010 0.000000
0.878264 0.170504 0.000000
0.901823 0.173648 0.000000
0.924193 0.177646 0.000000
0.945861 0.182650 0.062745
0.967163 0.188693 0.090364
0.988403 0.195895 0.112276
1.000000 0.204562 0.131472
1.000000 0.214450 0.150118
1.000000 0.225284 0.168124
1.000000 0.237064 0.185611
0.000000 0.230289 0.000000
0.000000 0.230930 0.000000
0.000000 0.231479 0.000000
0.067628 0.232792 0.000000
0.124453 0.234806 0.000000
0.174624 0.236057 0.000000
0.222751 0.237247 0.000000
0.269566 0.238346 0.000000
0.336461 0.255802 0.000000
0.399603 0.266270 0.000000
0.456825 0.270451 0.000000
0.508171 0.269993 0.000000
0.553643 0.266087 0.000000
0.594232 0.259983 0.000000
0.630213 0.252506 0.000000
0.662654 0.244175 0.000000
0.692592 0.235874 0.000000
0.723903 0.228855 0.000000
0.752590 0.222416 0.000000
0.779568 0.216709 0.000000
0.806943 0.213291 0.000000
0.834867 0.211398 0.000000
0.862821 0.211887 0.000000
0.889952 0.213931 0.000000
0.915648 0.217380 0.000000
0.939422 0.220981 0.055207
0.961913 0.225345 0.087861
0.983734 0.230320 0.110384
1.000000 0.236057 0.129519
1.000000 0.243168 0.147890
1.000000 0.251011 0.164614
1.000000 0.260227 0.182010
0.000000 0.301976 0.000000
0.000000 0.302525 0.000000
0.000000 0.302586 0.000000
0.009491 0.303136 0.000000
0.121157 0.303899 0.000000
0.178683 0.304936 0.000000
0.233768 0.304784 0.000000
0.285954 0.305089 0.000000
0.333837 0.302373 0.000000
0.395850 0.313451 0.000000
0.452827 0.318547 0.000000
0.503777 0.318700 0.000000
0.549248 0.314977 0.000000
0.589837 0.308904 0.000000
0.626032 0.301213 0.000000
0.658656 0.292790 0.000000
0.691707 0.285435 0.000000
0.722744 0.278355 0.000000
0.750088 0.271305 0.000000
0.776181 0.264927 0.000000
0.802853 0.260288 0.000000
0.830198 0.257511 0.000000
0.857633 0.256687 0.000000
0.884459 0.256962 0.000000
0.910094 0.258335 0.000000
0.933989 0.260227 0.056641
0.956725 0.262425 0.087587
0.978943 0.265171 0.109560
1.000000 0.269139 0.128939
1.000000 0.273930 0.146334
1.000000 0.279911 0.163424
1.000000 0.286809 0.180209
0.000000 0.370428 0.000000
0.000000 0.370977 0.000000
0.000000 0.371160 0.000000
0.000000 0.371008 0.000000
0.101686 0.371130 0.000000
0.173770 0.371008 0.000000
0.233249 0.370916 0.000000
0.290654 0.369818 0.000000
0.345251 0.368811 0.000000
0.394690 0.364721 0.000000
0.450690 0.368475 0.000000
0.501518 0.368414 0.000000
0.546715 0.364508 0.000000
0.587152 0.357977 0.000000
0.623133 0.349798 0.000000
0.658717 0.342443 0.000000
0.692592 0.335088 0.000000
0.722011 0.326818 0.000000
0.748379 0.318486 0.000000
0.773922 0.311406 0.000000
0.800076 0.306035 0.000000
0.826932 0.302312 0.000000
0.854002 0.300237 0.000000
0.880552 0.299504 0.000000
0.906004 0.299565 0.000000
0.929900 0.299748 0.064820
0.952789 0.300450 0.092348
0.975158 0.301671 0.113100
0.997467 0.303807 0.131258
1.000000 0.306889 0.148043
1.000000 0.310948 0.164340
1.000000 0.315770 0.179995
0.000000 0.431403 0.000000
0.000000 0.431769 0.000000
0.000000 0.431708 0.000000
0.000000 0.431220 0.000000
0.040925 0.430671 0.000000
0.157198 0.430030 0.000000
0.223636 0.429206 0.000000
0.283787 0.427985 0.000000
0.341741 0.426276 0.000000
0.397040 0.424628 0.000000
0.448402 0.420783 0.000000
0.497658 0.417365 0.000000
0.543206 0.413123 0.000000
0.583795 0.406165 0.000000
0.624414 0.400366 0.000000
0.660975 0.393072 0.000000
0.693690 0.384558 0.000000
0.722469 0.375128 0.000000
0.748379 0.366003 0.000000
0.773312 0.357702 0.000000
0.798611 0.351263 0.000000
0.824186 0.346258 0.000000
0.849943 0.342504 0.000000
0.875303 0.340032 0.000000
0.900084 0.338293 0.000000
0.923919 0.337224 0.067811
0.947265 0.336736 0.094148
0.970306 0.337072 0.115175
0.993317 0.338354 0.134005
1.000000 0.340581 0.151278
1.000000 0.343816 0.167910
1.000000 0.347692 0.184115
0.000000 0.482765 0.000000
0.000000 0.483131 0.000000
0.000000 0.483467 0.000000
0.000000 0.483070 0.000000
0.000000 0.482490 0.000000
0.127443 0.482033 0.000000
0.206882 0.481483 0.000000
0.270054 0.480873 0.000000
0.330816 0.479072 0.000000
0.388708 0.476936 0.000000
0.443519 0.474525 0.000000
0.495369 0.470588 0.000000
0.543236 0.465278 0.000000
0.586938 0.459602 0.000000
0.625635 0.451514 0.000000
0.660670 0.442267 0.000000
0.692164 0.432105 0.000000
0.720058 0.421668 0.000000
0.745541 0.411231 0.000000
0.770199 0.401953 0.000000
0.795224 0.394537 0.000000
0.820706 0.388617 0.000000
0.846403 0.384283 0.000000
0.871733 0.380957 0.000000
0.896422 0.378363 0.033295
0.920226 0.376074 0.080018
0.943420 0.374395 0.102876
0.966400 0.373510 0.121614
0.989441 0.373480 0.138613
1.000000 0.374273 0.154543
1.000000 0.376196 0.170352
1.000000 0.378820 0.185946
0.000000 0.530205 0.000000
0.000000 0.530541 0.000000
0.000000 0.530846 0.000000
0.000000 0.530571 0.000000
0.000000 0.530144 0.000000
0.075776 0.529503 0.000000
0.183078 0.528893 0.000000
0.253025 0.528161 0.000000
0.314000 0.527398 0.000000
0.374762 0.525139 0.000000
0.433448 0.524773 0.000000
0.491066 0.525322 0.000000
0.571496 0.548638 0.000000
0.616693 0.538109 0.000000
0.654200 0.525811 0.000000
0.687098 0.512322 0.000000
0.715694 0.498360 0.000000
0.740993 0.484535 0.000000
0.764553 0.471931 0.000000
0.788327 0.461341 0.000000
0.812375 0.452338 0.000000
0.836484 0.445075 0.000000
0.860410 0.438880 0.044556
0.884062 0.433967 0.085847
0.907225 0.429725 0.109316
0.929778 0.426154 0.127810
0.951812 0.423011 0.143038
0.973632 0.420569 0.156252
0.995392 0.418982 0.169100
1.000000 0.418219 0.181765
1.000000 0.418433 0.194736
1.000000 0.419348 0.207614
0.000000 0.582757 0.000000
0.000000 0.582940 0.000000
0.000000 0.582696 0.000000
0.000000 0.581872 0.000000
0.000000 0.580285 0.000000
0.000000 0.578393 0.000000
0.152285 0.576806 0.000000
0.233066 0.575402 0.000000
0.299962 0.577356 0.000000
0.363043 0.579858 0.000000
0.426429 0.581689 0.000000
0.487526 0.583307 0.000000
0.546502 0.584466 0.000000
0.603265 0.584192 0.000000
0.648127 0.574670 0.000000
0.681514 0.559747 0.000000
0.710536 0.544305 0.000000
0.735714 0.528954 0.000000
0.759213 0.514855 0.000000
0.782620 0.502983 0.000000
0.806241 0.493294 0.000000
0.830198 0.484993 0.000000
0.853971 0.477852 0.068299
0.877562 0.471778 0.096376
0.900725 0.466529 0.116487
0.923369 0.461891 0.132784
0.945617 0.457862 0.147036
0.967742 0.454566 0.160006
0.989868 0.452033 0.171847
1.000000 0.450538 0.184176
1.000000 0.449836 0.196231
1.000000 0.450050 0.209140
0.000000 0.618219 0.000000
0.000000 0.618341 0.000000
0.000000 0.618555 0.000000
0.000000 0.618952 0.000000
0.000000 0.618524 0.000000
0.000000 0.618128 0.000000
0.107454 0.618036 0.000000
0.208377 0.618158 0.000000
0.280156 0.618738 0.000000
0.343359 0.620081 0.000000
0.405402 0.621149 0.000000
0.466529 0.621698 0.000000
0.524865 0.621637 0.000000
0.580560 0.620417 0.000000
0.633173 0.617792 0.000000
0.675837 0.607630 0.000000
0.704250 0.589166 0.000000
0.729824 0.572351 0.000000
0.753445 0.556847 0.000000
0.776883 0.543786 0.000000
0.800565 0.532952 0.000000
0.824460 0.524041 0.017792
0.848173 0.516564 0.086519
0.871946 0.509819 0.109773
0.895293 0.503777 0.127565
0.918151 0.498390 0.142641
0.940673 0.493538 0.155184
0.963043 0.489509 0.166903
0.985534 0.486275 0.178164
1.000000 0.484138 0.189822
1.000000 0.482856 0.202090
1.000000 0.482277 0.214206
0.000000 0.659571 0.000000
0.000000 0.659907 0.000000
0.000000 0.659815 0.000000
0.000000 0.659632 0.000000
0.000000 0.658350 0.000000
0.000000 0.656886 0.000000
0.000000 0.655695 0.000000
0.178531 0.654810 0.000000
0.256962 0.654536 0.000000
0.322637 0.654902 0.000000
0.382483 0.655756 0.000000
0.443214 0.655634 0.000000
0.501335 0.654841 0.000000
0.556542 0.653101 0.000000
0.608637 0.649989 0.000000
0.657374 0.645380 0.000000
0.699184 0.636133 0.000000
0.723995 0.615717 0.000000
0.747921 0.598840 0.000000
0.771542 0.584314 0.000000
0.795102 0.572229 0.000000
0.818906 0.562158 0.012390
0.842588 0.553704 0.087221
0.866239 0.546563 0.117922
0.889738 0.540276 0.138979
0.913115 0.534539 0.152804
0.936431 0.529595 0.165652
0.959747 0.525628 0.178286
0.983185 0.522545 0.190341
1.000000 0.520531 0.202884
1.000000 0.519280 0.215824
1.000000 0.518700 0.229282
0.000000 0.692897 0.000000
0.000000 0.693324 0.000000
0.000000 0.693416 0.000000
0.000000 0.693568 0.000000
0.000000 0.692561 0.000000
0.000000 0.691493 0.000000
0.000000 0.690486 0.000000
0.143984 0.689723 0.000000
0.234012 0.689052 0.000000
0.302373 0.688563 0.000000
0.362951 0.688045 0.000000
0.419623 0.687343 0.000000
0.477119 0.684901 0.000000
0.531304 0.681788 0.000000
0.582391 0.677852 0.000000
0.630701 0.673030 0.000000
0.676417 0.667628 0.000000
0.718563 0.660700 0.000000
0.742214 0.640314 0.000000
0.766720 0.625147 0.000000
0.791165 0.612268 0.000000
0.815396 0.601587 0.024537
0.839506 0.592462 0.095766
0.863523 0.584741 0.125887
0.887266 0.578149 0.148806
0.910857 0.572503 0.167880
0.934417 0.567346 0.181643
0.958007 0.562951 0.193362
0.981506 0.559350 0.205051
1.000000 0.556420 0.215854
1.000000 0.554131 0.227298
1.000000 0.552392 0.238682
0.000000 0.719478 0.000000
0.000000 0.719570 0.000000
0.000000 0.719478 0.000000
0.000000 0.719570 0.000000
0.000000 0.718776 0.000000
0.000000 0.717647 0.000000
0.000000 0.716548 0.000000
0.099214 0.715511 0.000000
0.207309 0.714565 0.000000
0.279271 0.713741 0.000000
0.340826 0.713008 0.000000
0.397009 0.712245 0.000000
0.451698 0.710658 0.000000
0.505974 0.707637 0.000000
0.557061 0.703822 0.000000
0.605066 0.699092 0.000000
0.650599 0.693782 0.000000
0.694087 0.688258 0.000000
0.734371 0.681483 0.000000
0.760586 0.664515 0.000000
0.785153 0.650599 0.000000
0.809781 0.638697 0.000000
0.834073 0.628656 0.091554
0.858305 0.620294 0.125795
0.882383 0.613092 0.150515
0.906310 0.606989 0.170687
0.930205 0.601862 0.188083
0.954131 0.597711 0.203403
0.978088 0.593896 0.215122
1.000000 0.590723 0.226322
1.000000 0.588098 0.237156
1.000000 0.585962 0.248722
0.000000 0.743984 0.000000
0.000000 0.744472 0.000000
0.000000 0.761318 0.000000
0.000000 0.761318 0.000000
0.000000 0.760464 0.000000
0.000000 0.758938 0.000000
0.000000 0.757198 0.000000
0.064057 0.755459 0.000000
0.193301 0.753841 0.000000
0.268101 0.752407 0.000000
0.330419 0.750973 0.000000
0.386511 0.749386 0.000000
0.438697 0.747341 0.000000
0.491463 0.744015 0.000000
0.542443 0.739620 0.000000
0.590417 0.734585 0.000000
0.635920 0.729030 0.000000
0.679072 0.723110 0.000000
0.720302 0.717159 0.000000
0.759365 0.710719 0.000000
0.786923 0.696101 0.000000
0.811063 0.682368 0.080476
0.835325 0.670985 0.113558
0.859129 0.661036 0.140261
0.882292 0.652186 0.162997
0.905211 0.644434 0.181064
0.928099 0.637629 0.195987
0.951293 0.632044 0.209689
0.974853 0.627710 0.222721
0.998627 0.624353 0.235782
1.000000 0.621210 0.246036
1.000000 0.618433 0.256809
0.000000 0.771542 0.000000
0.000000 0.773800 0.000000
0.000000 0.776089 0.000000
0.000000 0.778103 0.000000
0.000000 0.779171 0.000000
0.000000 0.778622 0.000000
0.000000 0.777401 0.000000
0.000000 0.775875 0.000000
0.169070 0.774441 0.000000
0.247593 0.773007 0.000000
0.310918 0.771664 0.000000
0.366949 0.770199 0.000000
0.418738 0.768276 0.000000
0.467445 0.765896 0.000000
0.518181 0.761807 0.000000
0.566217 0.757046 0.000000
0.611627 0.751827 0.000000
0.654871 0.746395 0.000000
0.696437 0.740932 0.000000
0.736507 0.735714 0.000000
0.775021 0.730495 0.000000
0.805051 0.719448 0.082063
0.829404 0.706569 0.118441
0.853849 0.696162 0.142702
0.877714 0.686702 0.162509
0.901122 0.678523 0.182467
0.924437 0.671382 0.198642
0.947967 0.665492 0.213596
0.971801 0.660761 0.227329
0.995758 0.657008 0.240848
1.000000 0.653925 0.253788
1.000000 0.650996 0.265537
0.000000 0.792203 0.000000
0.000000 0.794278 0.000000
0.000000 0.796384 0.000000
0.000000 0.798245 0.000000
0.000000 0.799374 0.000000
0.000000 0.798947 0.000000
0.000000 0.797848 0.000000
0.000000 0.796506 0.000000
0.146548 0.795224 0.000000
0.230076 0.793942 0.000000
0.294163 0.792752 0.000000
0.350164 0.791409 0.000000
0.401465 0.789609 0.000000
0.449592 0.787472 0.000000
0.496498 0.784512 0.000000
0.544579 0.780087 0.000000
0.590082 0.775265 0.000000
0.633417 0.770199 0.000000
0.675074 0.765164 0.000000
0.715450 0.760403 0.000000
0.754421 0.755825 0.000000
0.792599 0.751888 0.085634
0.824735 0.743801 0.122286
0.848905 0.731380 0.149477
0.873136 0.721401 0.168399
0.897032 0.712428 0.183108
0.920531 0.704677 0.199832
0.944182 0.698207 0.215183
0.968170 0.692958 0.229587
0.992218 0.688716 0.243320
1.000000 0.685115 0.256168
1.000000 0.681849 0.268833
0.000000 0.813046 0.000000
0.000000 0.815000 0.000000
0.000000 0.816983 0.000000
0.000000 0.818753 0.000000
0.000000 0.819944 0.000000
0.000000 0.819547 0.000000
0.000000 0.818570 0.000000
0.000000 0.817288 0.000000
0.126070 0.816007 0.000000
0.214572 0.814725 0.000000
0.279118 0.813474 0.000000
0.335058 0.812131 0.000000
0.385809 0.810452 0.000000
0.433478 0.808499 0.000000
0.478767 0.806302 0.000000
0.524804 0.803250 0.000000
0.571160 0.799496 0.000000
0.615534 0.795804 0.000000
0.658350 0.792264 0.000000
0.699916 0.788876 0.000000
0.740230 0.785763 0.083040
0.779416 0.782773 0.120394
0.817685 0.780117 0.148501
0.852079 0.775204 0.172274
0.876341 0.763394 0.193851
0.900786 0.754391 0.209293
0.924926 0.746242 0.222446
0.948821 0.739254 0.236820
0.972747 0.733486 0.251469
0.996460 0.728573 0.265141
1.000000 0.724239 0.278447
1.000000 0.720150 0.290837
0.000000 0.841642 0.000000
0.000000 0.842527 0.000000
0.000000 0.843290 0.000000
0.000000 0.843931 0.000000
0.000000 0.844327 0.000000
0.000000 0.843595 0.000000
0.000000 0.842618 0.000000
0.000000 0.841581 0.000000
0.117983 0.840696 0.000000
0.207858 0.839811 0.000000
0.272099 0.839017 0.000000
0.327459 0.837949 0.000000
0.377539 0.836515 0.000000
0.424262 0.834714 0.000000
0.468727 0.832609 0.000000
0.511559 0.830289 0.000000
0.556786 0.826871 0.000000
0.601068 0.823178 0.000000
0.643641 0.819577 0.000000
0.684810 0.816007 0.070161
0.724666 0.812528 0.107424
0.763272 0.809140 0.135164
0.800595 0.805692 0.159182
0.837095 0.802640 0.179568
0.872526 0.799557 0.196201
0.896269 0.787686 0.214450
0.920745 0.779263 0.227909
0.945129 0.771878 0.240360
0.969421 0.765499 0.252750
0.993317 0.760098 0.266911
1.000000 0.755184 0.280278
1.000000 0.750576 0.292729
0.000000 0.862394 0.071229
0.000000 0.863310 0.061463
0.000000 0.864134 0.026154
0.000000 0.864775 0.000000
0.000000 0.865232 0.000000
0.000000 0.864469 0.000000
0.000000 0.863432 0.000000
0.000000 0.862333 0.000000
0.106416 0.861265 0.000000
0.198245 0.860319 0.000000
0.262272 0.859464 0.000000
0.316808 0.858457 0.000000
0.366003 0.857176 0.000000
0.412390 0.855619 0.000000
0.456275 0.853849 0.000000
0.498482 0.851987 0.000000
0.540063 0.849882 0.000000
0.584558 0.846738 0.000000
0.627405 0.843626 0.046876
0.668849 0.840635 0.095064
0.709041 0.837736 0.124758
0.748104 0.834928 0.150118
0.785946 0.832212 0.172183
0.822690 0.829435 0.192172
0.853880 0.822232 0.198215
0.890929 0.821561 0.211124
0.914733 0.810147 0.228244
0.939422 0.802335 0.240482
0.964019 0.795621 0.252262
0.988464 0.789639 0.263767
1.000000 0.784512 0.277409
1.000000 0.779721 0.290929
0.000000 0.889067 0.125826
0.000000 0.890043 0.122805
0.000000 0.890623 0.114839
0.000000 0.890929 0.091402
0.000000 0.890929 0.000000
0.000000 0.889952 0.000000
0.000000 0.888609 0.000000
0.000000 0.887053 0.000000
0.113466 0.885435 0.000000
0.197665 0.883879 0.000000
0.258213 0.882231 0.000000
0.310460 0.880705 0.000000
0.358129 0.879057 0.000000
0.402869 0.877073 0.000000
0.445136 0.874754 0.000000
0.485878 0.872221 0.000000
0.525536 0.869718 0.000000
0.566339 0.866972 0.000000
0.608972 0.863981 0.059785
0.650599 0.861418 0.098573
0.691066 0.859068 0.128054
0.730251 0.856687 0.151949
0.768124 0.854063 0.172885
0.804562 0.851102 0.191104
0.839567 0.847807 0.207218
0.873564 0.844480 0.221012
0.911559 0.845396 0.231052
0.935912 0.835111 0.244785
0.960235 0.827176 0.256046
0.984680 0.820645 0.266819
1.000000 0.814908 0.277806
1.000000 0.809537 0.290349
0.000000 0.908385 0.145357
0.000000 0.909300 0.143313
0.000000 0.909880 0.137453
0.000000 0.910185 0.120790
0.000000 0.910216 0.083040
0.000000 0.909392 0.074800
0.000000 0.908324 0.072114
0.000000 0.907042 0.069703
0.113344 0.905791 0.067872
0.194949 0.904601 0.068177
0.254032 0.903380 0.068177
0.305547 0.902251 0.070253
0.352453 0.900969 0.073426
0.396277 0.899443 0.073854
0.437964 0.897612 0.074128
0.478096 0.895567 0.072999
0.517174 0.893431 0.073762
0.555535 0.891478 0.075868
0.596674 0.889097 0.098238
0.638178 0.886717 0.124208
0.678492 0.884489 0.147250
0.717678 0.882292 0.167941
0.755550 0.879911 0.186252
0.792142 0.877287 0.202914
0.827481 0.874357 0.218204
0.861662 0.871244 0.231937
0.894896 0.868101 0.244968
0.932769 0.869749 0.253880
0.959625 0.862333 0.265995
0.983856 0.854551 0.277623
1.000000 0.848325 0.288670
1.000000 0.842344 0.299840
0.000000 0.929625 0.168399
0.000000 0.930266 0.165957
0.000000 0.930541 0.160739
0.000000 0.930571 0.147036
0.000000 0.930358 0.120119
0.000000 0.929412 0.113619
0.000000 0.928222 0.111025
0.000000 0.926970 0.108431
0.115389 0.925750 0.107057
0.192752 0.924681 0.106874
0.250553 0.923613 0.107515
0.300694 0.922728 0.109102
0.346624 0.921691 0.110994
0.389746 0.920409 0.112520
0.430549 0.918761 0.112520
0.469764 0.916899 0.111940
0.508049 0.914916 0.111513
0.545647 0.913054 0.112184
0.582971 0.911528 0.114778
0.624201 0.909270 0.136324
0.664424 0.907195 0.156252
0.703517 0.905150 0.175418
0.741360 0.902953 0.192599
0.778042 0.900633 0.208347
0.813535 0.898039 0.222416
0.847959 0.895201 0.235782
0.881498 0.892363 0.248508
0.914122 0.889464 0.260533
0.951873 0.891783 0.268589
0.980743 0.886625 0.279393
1.000000 0.878691 0.290745
1.000000 0.872221 0.301335
0.000000 0.948882 0.182528
0.000000 0.949279 0.179995
0.000000 0.949523 0.175631
0.000000 0.949645 0.163760
0.000000 0.949737 0.142916
0.000000 0.949432 0.140932
0.000000 0.949248 0.142306
0.000000 0.949218 0.145113
0.137240 0.949371 0.149203
0.206973 0.949676 0.153964
0.262181 0.949950 0.159365
0.310643 0.950195 0.164340
0.355291 0.950164 0.169192
0.397253 0.949737 0.172763
0.437049 0.948821 0.175113
0.475105 0.947417 0.175845
0.512169 0.945769 0.176242
0.548608 0.944121 0.176852
0.584833 0.942687 0.179171
0.622217 0.941161 0.185550
0.661830 0.939117 0.200320
0.700496 0.937102 0.214755
0.737942 0.934905 0.228519
0.774289 0.932555 0.241520
0.809567 0.930053 0.253819
0.843839 0.927398 0.265476
0.877317 0.924681 0.276555
0.910002 0.921996 0.287327
0.942077 0.919371 0.298375
0.979217 0.921965 0.305882
1.000000 0.918364 0.315404
1.000000 0.909117 0.326146
0.000000 0.975402 0.217014
0.000000 0.975616 0.214939
0.000000 0.975647 0.211368
0.000000 0.975555 0.201602
0.000000 0.975402 0.185519
0.000000 0.974731 0.183871
0.000000 0.974090 0.183352
0.073487 0.973510 0.183047
0.161013 0.972992 0.183902
0.218967 0.972534 0.185763
0.267674 0.972015 0.187076
0.312291 0.971496 0.189059
0.354040 0.970825 0.191043
0.393774 0.969940 0.192355
