data/fiter_cube/55192441/1023191/file.cube
# Created by Adobe Lightroom plugin Export LUT (1.17.0)
# www.johnrellis.com/lightroom/exportlut.htm
# Preset: 清新轻盈通透人像_09 云集
# Color profile: C:\Program Files (x86)\Common Files\Adobe\Color\Profiles\Recommended\AdobeRGB1998.icc
LUT_3D_SIZE 8
DOMAIN_MIN 0.000000 0.000000 0.000000
DOMAIN_MAX 0.903226 0.903226 0.903226
0.000000 0.000000 0.000000
0.093385 0.000000 0.000000
0.339483 0.000000 0.000000
0.562219 0.000000 0.000000
0.701808 0.000000 0.000000
0.810849 0.000000 0.000000
0.908751 0.000000 0.000000
0.998260 0.000000 0.081270
0.000000 0.097658 0.000000
0.095644 0.101564 0.000000
0.323796 0.155459 0.000000
0.546258 0.157137 0.000000
0.689845 0.122957 0.000000
0.797421 0.088289 0.000000
0.894713 0.091341 0.000000
0.989349 0.132113 0.065766
0.000000 0.370428 0.000000
0.101686 0.371130 0.000000
0.345251 0.368811 0.000000
0.546715 0.364508 0.000000
0.692592 0.335088 0.000000
0.800076 0.306035 0.000000
0.906004 0.299565 0.000000
0.997467 0.303807 0.131258
0.000000 0.582757 0.000000
0.000000 0.580285 0.000000
0.299962 0.577356 0.000000
0.546502 0.584466 0.000000
0.710536 0.544305 0.000000
0.806241 0.493294 0.000000
0.900725 0.466529 0.116487
0.989868 0.452033 0.171847
0.000000 0.719478 0.000000
0.000000 0.718776 0.000000
0.207309 0.714565 0.000000
0.451698 0.710658 0.000000
0.650599 0.693782 0.000000
0.785153 0.650599 0.000000
0.882383 0.613092 0.150515
0.978088 0.593896 0.215122
0.000000 0.813046 0.000000
0.000000 0.819944 0.000000
0.126070 0.816007 0.000000
0.385809 0.810452 0.000000
0.571160 0.799496 0.000000
0.740230 0.785763 0.083040
0.876341 0.763394 0.193851
0.972747 0.733486 0.251469
0.000000 0.908385 0.145357
0.000000 0.910216 0.083040
0.113344 0.905791 0.067872
0.352453 0.900969 0.073426
0.517174 0.893431 0.073762
0.678492 0.884489 0.147250
0.827481 0.874357 0.218204
0.959625 0.862333 0.265995
0.000000 0.993927 0.227359
0.000000 0.994018 0.200198
0.169955 0.992340 0.201663
0.354253 0.991241 0.211124
0.488319 0.978943 0.180758
0.630884 0.976104 0.195438
0.779934 0.970092 0.251804
0.912627 0.960540 0.292576
0.000000 0.000000 0.109407
0.099458 0.000000 0.110140
0.321630 0.000000 0.151186
0.548547 0.000000 0.107271
0.689418 0.000000 0.104860
0.791562 0.000000 0.131868
0.886564 0.000000 0.168002
0.980255 0.114717 0.202487
0.000000 0.104402 0.112337
0.083314 0.097108 0.113802
0.324254 0.045319 0.111299
0.542931 0.000000 0.100282
0.683925 0.000000 0.100313
0.785122 0.052064 0.128145
0.876707 0.116976 0.158877
0.971252 0.164920 0.191440
0.000000 0.355077 0.169162
0.000000 0.362249 0.118959
0.330571 0.362554 0.010376
0.538659 0.344060 0.083619
0.680842 0.317998 0.104829
0.782559 0.300633 0.144503
0.879240 0.301183 0.183749
0.976287 0.313268 0.220401
0.000000 0.568536 0.156649
0.000000 0.569970 0.074769
0.260319 0.571160 0.000000
0.522759 0.562554 0.000000
0.680812 0.519371 0.097932
0.776547 0.477882 0.176486
0.872374 0.457649 0.211032
0.969360 0.451331 0.241581
0.000000 0.713466 0.139010
0.000000 0.711330 0.084871
0.175021 0.706508 0.000000
0.434516 0.697688 0.000000
0.635126 0.678157 0.066377
0.768490 0.638331 0.175235
0.866514 0.607477 0.240757
0.964477 0.592767 0.278447
0.000000 0.803311 0.158267
0.000000 0.802670 0.154726
0.122896 0.800931 0.085542
0.381231 0.797574 0.096590
0.565362 0.790127 0.133211
0.735317 0.779812 0.212070
0.867887 0.758358 0.270512
0.963043 0.730037 0.305150
0.000000 0.895720 0.217746
0.000000 0.892943 0.225620
0.132418 0.891783 0.179751
0.356023 0.890135 0.186893
0.517967 0.885618 0.191379
0.674464 0.876616 0.222843
0.818906 0.864805 0.268009
0.947906 0.852232 0.301213
0.000000 0.986023 0.291478
0.000000 0.986603 0.282444
0.200381 0.986603 0.260075
0.366369 0.986175 0.268254
0.507134 0.982635 0.270603
0.639399 0.976867 0.269688
0.780667 0.967742 0.300267
0.909758 0.956847 0.328283
0.000000 0.000000 0.406104
0.158572 0.000000 0.404273
0.353491 0.000000 0.397955
0.547539 0.000000 0.387671
0.685420 0.000000 0.367712
0.784817 0.207462 0.396368
0.878325 0.299199 0.424079
0.972869 0.325933 0.429755
0.000000 0.117189 0.411444
0.000000 0.059693 0.407721
0.339849 0.000000 0.396765
0.540734 0.000000 0.381964
0.679652 0.136965 0.375433
0.776791 0.265873 0.400519
0.871580 0.316350 0.416846
0.968292 0.340826 0.424567
0.000000 0.376226 0.410803
0.000000 0.369604 0.410620
0.301366 0.346777 0.403021
0.530816 0.356909 0.394965
0.675349 0.375860 0.407538
0.773007 0.389502 0.415351
0.868742 0.400855 0.422248
0.965240 0.411231 0.428168
0.000000 0.572869 0.387640
0.000000 0.576257 0.383215
0.257084 0.573877 0.375921
0.523827 0.565179 0.378241
0.672969 0.538689 0.416266
0.768521 0.521477 0.427832
0.865904 0.515679 0.434455
0.962493 0.513451 0.438514
0.000000 0.710780 0.358190
0.000000 0.709834 0.357336
0.246250 0.703395 0.368383
0.454566 0.697414 0.359899
0.641138 0.681422 0.384955
0.762203 0.648493 0.412146
0.857237 0.632776 0.440223
0.956115 0.624781 0.448188
0.000000 0.801114 0.344610
0.000000 0.799924 0.352209
0.260166 0.793698 0.375891
0.419623 0.789273 0.367376
0.573907 0.783139 0.366674
0.731960 0.772763 0.403479
0.856443 0.757351 0.433204
0.955749 0.743221 0.455940
0.000000 0.896178 0.362280
0.000000 0.893797 0.370581
0.288334 0.887083 0.396185
0.409339 0.884031 0.383612
0.543267 0.879301 0.380194
0.684565 0.873411 0.392370
0.823758 0.866239 0.423804
0.948272 0.858305 0.446448
0.000000 0.984985 0.378576
0.129854 0.982971 0.385748
0.330327 0.977935 0.426062
0.422675 0.981079 0.414130
0.539208 0.977691 0.411872
0.658930 0.973632 0.410040
0.789853 0.966430 0.427008
0.913542 0.957427 0.446693
0.000000 0.000000 0.599054
0.123201 0.000000 0.600122
0.331456 0.000000 0.593561
0.522332 0.000000 0.586328
0.675410 0.000000 0.556878
0.772030 0.192233 0.531792
0.862974 0.307530 0.536065
0.956542 0.373846 0.549096
0.000000 0.011292 0.608240
0.000000 0.000000 0.606531
0.312139 0.000000 0.597620
0.519829 0.000000 0.587335
0.673152 0.132601 0.559503
0.766812 0.267308 0.536339
0.857725 0.346715 0.540459
0.953246 0.400092 0.553063
0.000000 0.332280 0.611048
0.000000 0.322240 0.610010
0.282750 0.321141 0.598108
0.515343 0.346990 0.585229
0.665827 0.384619 0.570703
0.762936 0.432288 0.565240
0.861570 0.472450 0.577325
0.953704 0.500481 0.586816
0.000000 0.559533 0.607233
0.000000 0.557458 0.606226
0.269291 0.552911 0.602472
0.511315 0.546838 0.594629
0.652888 0.552422 0.583337
0.747982 0.562005 0.586389
0.848203 0.567071 0.588098
0.949279 0.570489 0.587610
0.000000 0.711086 0.562310
0.000000 0.707424 0.561273
0.279118 0.698604 0.564141
0.495247 0.688746 0.574365
0.643488 0.678157 0.574243
0.749264 0.664027 0.590784
0.847196 0.662196 0.594354
0.946441 0.658808 0.590814
0.000000 0.802792 0.521782
0.000000 0.805356 0.530816
0.309453 0.796811 0.542535
0.485023 0.787503 0.560510
0.607507 0.782223 0.557366
0.737667 0.772946 0.568933
0.849149 0.762539 0.581231
0.946410 0.758145 0.593164
0.000000 0.893309 0.507591
0.122164 0.892638 0.513725
0.323430 0.889067 0.531334
0.480385 0.883513 0.554192
0.588525 0.879606 0.550652
0.702846 0.874968 0.547051
0.828061 0.865721 0.563745
0.942596 0.858824 0.573663
0.125734 0.985473 0.508171
0.203342 0.984771 0.513664
0.339452 0.981170 0.527459
0.488594 0.975402 0.557488
0.579339 0.972747 0.549767
0.683192 0.969512 0.545342
0.800137 0.964202 0.551598
0.917296 0.956817 0.565332
0.000000 0.000000 0.718563
0.027192 0.000000 0.718502
0.285130 0.000000 0.713893
0.461097 0.000000 0.705898
0.634180 0.000000 0.704005
0.761135 0.186465 0.678187
0.855467 0.302281 0.657038
0.951415 0.369177 0.653681
0.000000 0.000000 0.721492
0.000000 0.000000 0.722103
0.272068 0.000000 0.716884
0.461677 0.000000 0.707362
0.632990 0.159731 0.702541
0.758938 0.264408 0.679286
0.853666 0.345861 0.660426
0.949737 0.397711 0.656764
0.000000 0.299535 0.724605
0.000000 0.310033 0.722713
0.294316 0.325048 0.717281
0.478157 0.347204 0.707729
0.629847 0.373999 0.696407
0.747555 0.409277 0.678096
0.844511 0.447852 0.666590
0.942138 0.471046 0.661952
0.000000 0.496010 0.726070
0.000000 0.498878 0.724758
0.318151 0.512261 0.721920
0.505638 0.531334 0.709712
0.633143 0.540185 0.693629
0.740810 0.552026 0.684718
0.838895 0.564050 0.679500
0.939483 0.567834 0.673426
0.000000 0.667903 0.716670
0.000000 0.667964 0.716243
0.318975 0.666804 0.713069
0.499123 0.665339 0.708034
0.632136 0.659785 0.698268
0.732876 0.658534 0.685542
0.832151 0.662440 0.685664
0.934539 0.664027 0.683070
0.000000 0.789029 0.678401
0.063813 0.787045 0.678553
0.315740 0.778866 0.677302
0.479408 0.769253 0.676967
0.607874 0.761227 0.674189
0.727108 0.759274 0.673915
0.836637 0.757931 0.686763
0.936767 0.758999 0.688014
0.089967 0.885100 0.649134
0.185946 0.883116 0.650355
0.337133 0.878325 0.655512
0.477180 0.873747 0.662409
0.599115 0.869444 0.663844
0.705989 0.866026 0.657618
0.823850 0.857847 0.662715
0.933165 0.849973 0.665095
0.169711 0.975799 0.629847
0.224277 0.974548 0.631617
0.342351 0.971191 0.637049
0.475013 0.971801 0.648829
0.595300 0.966705 0.654902
0.693751 0.963348 0.649592
0.800626 0.959350 0.646723
0.915923 0.951598 0.655451
0.000000 0.000000 0.817899
0.000000 0.000000 0.817258
0.250736 0.000000 0.812314
0.423316 0.000000 0.809567
0.579980 0.089052 0.799771
0.723079 0.216159 0.793271
0.848783 0.299901 0.785946
0.946990 0.367559 0.769619
0.000000 0.000000 0.814237
0.000000 0.000000 0.813107
0.247562 0.000000 0.810208
0.425055 0.116487 0.805234
0.580255 0.201724 0.795285
0.720150 0.274235 0.789334
0.845212 0.337438 0.783932
0.944305 0.392370 0.769070
0.003204 0.324071 0.820371
0.156802 0.326635 0.818662
0.312840 0.337865 0.814267
0.462257 0.359167 0.807370
0.597498 0.384955 0.795651
0.721828 0.413519 0.787381
0.841703 0.443000 0.784878
0.941283 0.470466 0.772549
0.156435 0.488502 0.825711
0.233036 0.494057 0.823056
0.384070 0.515862 0.817227
0.515587 0.536553 0.812772
0.627436 0.545739 0.802976
0.730739 0.553155 0.790707
0.841917 0.561395 0.789792
0.940642 0.566674 0.777920
0.160250 0.625269 0.816373
0.234134 0.628290 0.815976
0.377966 0.637690 0.814420
0.516899 0.650385 0.812436
0.630884 0.653071 0.800381
0.726070 0.649592 0.782437
0.832395 0.649531 0.779904
0.933806 0.649073 0.769802
0.174350 0.757504 0.805203
0.243259 0.759304 0.806332
0.374914 0.760037 0.805051
0.505882 0.760372 0.802396
0.616388 0.757809 0.797238
0.725948 0.752865 0.790646
0.830381 0.751705 0.778256
0.931243 0.758267 0.778439
0.215183 0.884489 0.795346
0.266667 0.884306 0.796170
0.377752 0.880186 0.794736
0.496803 0.874784 0.791623
0.603082 0.868864 0.783566
0.710506 0.862760 0.772305
0.824491 0.854582 0.767605
0.930022 0.849790 0.772335
0.240482 0.971283 0.760067
0.275914 0.970092 0.760159
0.368139 0.967071 0.760525
0.478950 0.965026 0.761563
0.583917 0.962493 0.756649
0.696651 0.958618 0.750881
0.806149 0.954925 0.751095
0.917144 0.947662 0.754421
0.000000 0.000000 0.899657
0.000000 0.000000 0.900481
0.228763 0.000000 0.898619
0.393469 0.000000 0.895506
0.543175 0.134249 0.888609
0.678126 0.231357 0.878569
0.803830 0.301152 0.874388
0.933074 0.345159 0.880980
0.000000 0.000000 0.895995
0.000000 0.000305 0.896544
0.234531 0.078157 0.894682
0.398199 0.142702 0.890410
0.544640 0.212009 0.883207
0.675441 0.273716 0.872618
0.798001 0.326726 0.867796
0.926146 0.359747 0.874296
0.134096 0.318639 0.898955
0.191623 0.321874 0.898192
0.310948 0.332555 0.895018
0.441901 0.352178 0.890288
0.568200 0.375555 0.882261
0.686671 0.401862 0.872313
0.802152 0.430213 0.868803
0.928435 0.447761 0.877775
0.285985 0.493538 0.901732
0.321477 0.498878 0.899779
0.405829 0.510552 0.895689
0.499977 0.517662 0.891752
0.601770 0.524590 0.884428
0.704982 0.533379 0.875700
0.808957 0.543877 0.871031
0.929137 0.545556 0.878386
0.281895 0.606134 0.900175
0.316167 0.608820 0.899016
0.409369 0.618585 0.896330
0.519432 0.631403 0.891386
0.617182 0.635309 0.883970
0.711208 0.633906 0.874022
0.806638 0.632685 0.865141
0.926116 0.632624 0.872099
0.285832 0.723201 0.893584
0.319524 0.724880 0.893370
0.409033 0.730068 0.892760
0.515618 0.737453 0.892668
0.616510 0.741146 0.892546
0.721157 0.740993 0.884642
0.814267 0.734432 0.868772
0.926207 0.733394 0.867155
0.297673 0.843107 0.889830
0.329198 0.844083 0.890288
0.410803 0.845365 0.889982
0.510124 0.847532 0.889677
0.606806 0.847898 0.887724
0.712154 0.847990 0.884520
0.823056 0.845487 0.877409
0.922515 0.841367 0.862699
0.279088 0.964538 0.886137
0.307958 0.964019 0.885710
0.392828 0.964202 0.886259
0.490028 0.962280 0.883421
0.587915 0.959350 0.876921
0.694911 0.955108 0.867216
0.810941 0.949371 0.857939
0.918486 0.942107 0.857847
0.000000 0.000000 0.971740
0.000000 0.000000 0.971984
0.209049 0.000000 0.970123
0.366064 0.000000 0.968475
0.509392 0.136263 0.965148
0.642390 0.223148 0.960266
0.765164 0.289647 0.954833
0.881895 0.340337 0.953216
0.000000 0.000610 0.969879
0.000000 0.036408 0.970092
0.221622 0.088685 0.968505
0.374823 0.146456 0.966247
0.514946 0.209873 0.962860
0.644617 0.268132 0.957946
0.764431 0.318334 0.952056
0.879850 0.360082 0.950500
0.137667 0.299413 0.967742
0.187472 0.303105 0.967529
0.293004 0.311772 0.965179
0.419348 0.335668 0.964691
0.540673 0.359380 0.960845
0.657221 0.383581 0.955322
0.769406 0.408820 0.949737
0.880644 0.432471 0.948760
0.306432 0.477272 0.966003
0.327733 0.479316 0.966064
0.386908 0.482002 0.964294
0.475471 0.489815 0.962493
0.574762 0.498939 0.959472
0.676661 0.507317 0.954864
0.779141 0.515892 0.949737
0.884764 0.525689 0.948852
0.333989 0.588434 0.965820
0.359808 0.592462 0.965820
0.427375 0.601068 0.963897
0.512108 0.609491 0.961608
0.596185 0.610193 0.958129
0.688502 0.610803 0.953613
0.785794 0.612238 0.949065
0.889220 0.616846 0.949096
0.333562 0.693538 0.964538
0.354894 0.694636 0.963958
0.419165 0.698878 0.962707
0.506950 0.705409 0.962036
0.599451 0.709010 0.959930
0.698817 0.713436 0.957549
0.798672 0.717037 0.954894
0.899016 0.720394 0.952850
0.341741 0.805386 0.963500
0.361883 0.805966 0.963195
0.423011 0.808164 0.962463
0.507988 0.812222 0.962402
0.601343 0.816373 0.962921
0.709560 0.824582 0.964080
0.817899 0.831876 0.959655
0.903777 0.823026 0.949248
0.345647 0.921843 0.962280
0.364233 0.921904 0.962005
0.422309 0.922789 0.961578
0.504051 0.924926 0.961608
0.596063 0.927520 0.961456
0.701381 0.930907 0.960693
0.816068 0.934905 0.959045
0.922087 0.935882 0.953552
