data/fiter_cube/55192441/1023191/file.cube
# Created by Adobe Lightroom plugin Export LUT (1.17.0)
# www.johnrellis.com/lightroom/exportlut.htm
# Preset: 清新轻盈通透人像_09 云集
# Color profile: C:\Program Files (x86)\Common Files\Adobe\Color\Profiles\Recommended\AdobeRGB1998.icc
LUT_3D_SIZE 5
DOMAIN_MIN 0.000000 0.000000 0.000000
DOMAIN_MAX 0.903226 0.903226 0.903226
0.000000 0.000000 0.000000
0.269322 0.000000 0.000000
0.639582 0.000000 0.000000
0.837613 0.000000 0.000000
0.998260 0.000000 0.081270
0.000000 0.301976 0.000000
0.285954 0.305089 0.000000
0.626032 0.301213 0.000000
0.830198 0.257511 0.000000
1.000000 0.269139 0.128939
0.000000 0.659571 0.000000
0.178531 0.654810 0.000000
0.608637 0.649989 0.000000
0.818906 0.562158 0.012390
0.983185 0.522545 0.190341
0.000000 0.841642 0.000000
0.000000 0.841581 0.000000
0.468727 0.832609 0.000000
0.763272 0.809140 0.135164
0.969421 0.765499 0.252750
0.000000 0.993927 0.227359
0.096254 0.992676 0.200015
0.413855 0.980591 0.177005
0.669673 0.974853 0.210636
0.912627 0.960540 0.292576
0.000000 0.000000 0.328985
0.291814 0.000000 0.327672
0.622065 0.000000 0.317113
0.804654 0.191501 0.349157
0.971252 0.270512 0.370092
0.000000 0.314336 0.342840
0.237827 0.283299 0.337560
0.611810 0.296178 0.333440
0.800076 0.328740 0.355047
0.969635 0.360510 0.377874
0.000000 0.650507 0.318761
0.123995 0.645533 0.297215
0.585412 0.627192 0.306188
0.789120 0.570428 0.376715
0.965057 0.559472 0.404273
0.000000 0.835386 0.318364
0.221073 0.831662 0.350103
0.495247 0.824216 0.337133
0.760678 0.802914 0.373816
0.958434 0.770901 0.418433
0.000000 0.989837 0.361791
0.296666 0.984955 0.401434
0.471412 0.982605 0.380316
0.688289 0.975128 0.381079
0.916320 0.960967 0.425299
0.000000 0.000000 0.667018
0.261387 0.000000 0.662623
0.583215 0.000000 0.651514
0.790188 0.227115 0.600397
0.954040 0.371618 0.599725
0.000000 0.246128 0.674800
0.211551 0.252049 0.667140
0.582086 0.302770 0.651026
0.779660 0.392615 0.611872
0.950439 0.459968 0.615686
0.000000 0.618555 0.667567
0.208713 0.615320 0.663691
0.577447 0.608698 0.651514
0.762631 0.617487 0.641596
0.941375 0.623194 0.641138
0.000000 0.821836 0.596002
0.268833 0.813626 0.601831
0.552728 0.802304 0.621851
0.758846 0.792447 0.625788
0.937499 0.779232 0.635859
0.134371 0.978943 0.565637
0.306737 0.977203 0.578119
0.544366 0.970397 0.607630
0.714321 0.964294 0.596338
0.914824 0.952514 0.608057
0.000000 0.000000 0.834775
0.195682 0.000000 0.833066
0.492317 0.000000 0.826047
0.741604 0.238895 0.811948
0.942107 0.358831 0.795438
0.000000 0.255436 0.836393
0.241581 0.270146 0.833280
0.514153 0.319982 0.822232
0.739071 0.381292 0.805966
0.935393 0.436011 0.793637
0.177066 0.546624 0.837888
0.343359 0.561761 0.834989
0.566308 0.586908 0.819425
0.736934 0.588098 0.795346
0.929931 0.596216 0.793362
0.227543 0.782864 0.830198
0.354070 0.781552 0.827085
0.561578 0.782315 0.823026
0.749203 0.775387 0.812284
0.926299 0.776272 0.796780
0.253330 0.969482 0.791257
0.352087 0.967376 0.792111
0.536828 0.964141 0.791226
0.727352 0.958068 0.779599
0.916716 0.945769 0.778927
0.000000 0.000000 0.971740
0.163516 0.000000 0.970611
0.439033 0.071290 0.967132
0.674250 0.241764 0.959075
0.881895 0.340337 0.953216
0.047517 0.248417 0.969177
0.240635 0.262119 0.967803
0.470558 0.307134 0.963836
0.683162 0.361730 0.955047
0.881346 0.414038 0.950195
0.334295 0.538476 0.965484
0.407202 0.550225 0.963409
0.538354 0.552453 0.959045
0.705135 0.557794 0.950774
0.886259 0.570703 0.948241
0.341161 0.723201 0.965545
0.406134 0.726833 0.964324
0.556512 0.736172 0.963378
0.726833 0.741482 0.957885
0.899718 0.744625 0.951812
0.345647 0.921843 0.962280
0.404578 0.922454 0.961639
0.548394 0.926177 0.961639
0.729274 0.931914 0.960418
0.922087 0.935882 0.953552
