data/fiter_cube/59424107/1023396/file.cube
# Created by Adobe Lightroom plugin Export LUT (1.17.0)
# www.johnrellis.com/lightroom/exportlut.htm
# Preset: 晴间多云(适合多云天气)_02 云集
# Color profile: C:\Program Files (x86)\Common Files\Adobe\Color\Profiles\Recommended\AdobeRGB1998.icc
LUT_3D_SIZE 32
DOMAIN_MIN 0.0 0.0 0.0
DOMAIN_MAX 1.0 1.0 1.0
0.061738 0.074342 0.073579
0.063844 0.074434 0.073518
0.066194 0.074861 0.073793
0.072450 0.075776 0.073915
0.085328 0.077211 0.073762
0.107240 0.078218 0.073579
0.138369 0.078981 0.072358
0.177951 0.077272 0.070588
0.226383 0.070344 0.066926
0.283879 0.048890 0.061219
0.349920 0.000000 0.046662
0.419379 0.000000 0.016236
0.488075 0.000000 0.000000
0.552392 0.000000 0.000000
0.609094 0.000000 0.000000
0.659510 0.000000 0.000000
0.703670 0.000000 0.000000
0.742916 0.000000 0.000000
0.776577 0.102876 0.000000
0.806912 0.148440 0.000000
0.834440 0.184512 0.000000
0.859739 0.216251 0.000000
0.883085 0.244388 0.000000
0.904845 0.270909 0.000000
0.925353 0.295109 0.000000
0.944854 0.318090 0.000000
0.963622 0.340337 0.000000
0.981720 0.361761 0.000000
0.999390 0.383185 0.000000
1.000000 0.404791 0.000000
1.000000 0.426825 0.000000
1.000000 0.450080 0.000000
0.061463 0.075532 0.073823
0.062959 0.076051 0.073762
0.065919 0.076753 0.073640
0.072694 0.077546 0.073396
0.085420 0.079316 0.073579
0.107210 0.081361 0.073304
0.138521 0.082368 0.072023
0.177890 0.081483 0.070192
0.226291 0.076143 0.066407
0.284123 0.061677 0.060517
0.349737 0.001740 0.044526
0.419287 0.000000 0.013672
0.487984 0.000000 0.000000
0.551843 0.000000 0.000000
0.608820 0.000000 0.000000
0.659236 0.000000 0.000000
0.703212 0.000000 0.000000
0.742153 0.056001 0.000000
0.775631 0.116335 0.000000
0.805966 0.156588 0.000000
0.833555 0.191226 0.000000
0.858854 0.221134 0.000000
0.882261 0.248875 0.000000
0.904112 0.274510 0.000000
0.924620 0.298161 0.000000
0.944182 0.321111 0.000000
0.963012 0.342382 0.000000
0.981201 0.364233 0.000000
0.998871 0.385229 0.000000
1.000000 0.406348 0.000000
1.000000 0.428321 0.000000
1.000000 0.451301 0.000000
0.060792 0.077699 0.074708
0.061860 0.078309 0.074281
0.065095 0.078279 0.073854
0.072267 0.080110 0.073518
0.085420 0.082399 0.072938
0.107454 0.084962 0.072602
0.138582 0.086854 0.071595
0.178195 0.087221 0.069184
0.226780 0.083497 0.065614
0.284306 0.072602 0.059480
0.350225 0.036591 0.041413
0.419654 0.000000 0.010010
0.488258 0.000000 0.000000
0.552239 0.000000 0.000000
0.608881 0.000000 0.000000
0.659266 0.000000 0.000000
0.703273 0.000000 0.000000
0.741909 0.087068 0.000000
0.775296 0.131777 0.000000
0.805509 0.168917 0.000000
0.833127 0.200381 0.000000
0.858457 0.229068 0.000000
0.881834 0.255894 0.000000
0.903716 0.280095 0.000000
0.924254 0.303471 0.000000
0.943847 0.325536 0.000000
0.962676 0.346899 0.000000
0.980865 0.367742 0.000000
0.998596 0.388190 0.000000
1.000000 0.409033 0.000000
1.000000 0.430671 0.000000
1.000000 0.453285 0.000000
0.059968 0.082246 0.076387
0.061372 0.082734 0.076631
0.062593 0.083284 0.075593
0.069459 0.084443 0.074617
0.084382 0.088289 0.073793
0.107607 0.093141 0.072084
0.139345 0.097200 0.070039
0.179355 0.099428 0.067628
0.228000 0.098573 0.063600
0.286198 0.092836 0.055268
0.352087 0.079469 0.033448
0.421454 0.052155 0.000305
0.489906 0.000000 0.000000
0.553460 0.000000 0.000000
0.609766 0.000000 0.000000
0.659754 0.038727 0.000000
0.703731 0.093416 0.000000
0.742000 0.130556 0.000000
0.774990 0.162997 0.000000
0.805020 0.192630 0.000000
0.832425 0.220249 0.000000
0.857725 0.246189 0.000000
0.881193 0.270756 0.000000
0.903136 0.293034 0.000000
0.923827 0.314672 0.000000
0.943542 0.335637 0.000000
0.962463 0.355718 0.000000
0.980713 0.375891 0.000000
0.998413 0.395544 0.000000
1.000000 0.415595 0.000000
1.000000 0.436316 0.000000
1.000000 0.458198 0.000000
0.057282 0.090242 0.079286
0.058869 0.090761 0.079225
0.061219 0.091676 0.079408
0.063233 0.093324 0.076265
0.077882 0.095583 0.074983
0.103243 0.103578 0.072816
0.136904 0.110597 0.069917
0.179782 0.116640 0.066285
0.229343 0.119265 0.060517
0.288121 0.119326 0.046906
0.354437 0.115511 0.018402
0.423896 0.108614 0.000000
0.492103 0.100679 0.000000
0.555230 0.099458 0.000000
0.611200 0.108980 0.000000
0.660853 0.128420 0.000000
0.704677 0.152621 0.000000
0.742458 0.177035 0.000000
0.775235 0.201694 0.000000
0.805051 0.225437 0.000000
0.832303 0.248783 0.000000
0.857481 0.270970 0.000000
0.880827 0.292210 0.000000
0.902770 0.312902 0.000000
0.923430 0.332036 0.000000
0.943145 0.351202 0.000000
0.962066 0.369696 0.000000
0.980316 0.388128 0.000000
0.998047 0.406531 0.000000
1.000000 0.425330 0.000000
1.000000 0.444923 0.000000
1.000000 0.465827 0.000000
0.048615 0.102937 0.084016
0.050294 0.103639 0.083925
0.053742 0.104707 0.083772
0.060212 0.106874 0.081636
0.066346 0.110079 0.076295
0.091096 0.113863 0.074403
0.130159 0.126497 0.070100
0.173404 0.135409 0.065522
0.228061 0.143618 0.058137
0.289677 0.147951 0.038025
0.356603 0.148562 0.005859
0.426123 0.147799 0.000000
0.494057 0.148806 0.000000
0.557031 0.153750 0.000000
0.612726 0.165866 0.000000
0.662226 0.182773 0.000000
0.705898 0.203525 0.000000
0.743343 0.225132 0.000000
0.775998 0.245365 0.000000
0.805570 0.264927 0.000000
0.832639 0.283848 0.000000
0.857725 0.302373 0.000000
0.885771 0.326085 0.000000
0.907164 0.343206 0.000000
0.927337 0.359899 0.000000
0.946593 0.376013 0.000000
0.965026 0.392218 0.000000
0.982879 0.408423 0.000000
1.000000 0.424811 0.000000
1.000000 0.441871 0.000000
1.000000 0.459754 0.000000
1.000000 0.479011 0.000000
0.029725 0.122316 0.091402
0.031800 0.123293 0.091005
0.036469 0.124422 0.090547
0.047181 0.127169 0.088777
0.054108 0.130770 0.080507
0.073518 0.135256 0.075502
0.110872 0.140810 0.072175
0.164553 0.157961 0.064210
0.218479 0.169039 0.054139
0.285100 0.179538 0.026734
0.361578 0.189212 0.000000
0.431586 0.192538 0.000000
0.499184 0.196872 0.000000
0.561212 0.204593 0.000000
0.616327 0.216495 0.000000
0.665431 0.231479 0.000000
0.708614 0.249332 0.000000
0.745480 0.266789 0.000000
0.777798 0.284215 0.000000
0.807431 0.303075 0.000000
0.834775 0.322210 0.000000
0.860136 0.340368 0.000000
0.883543 0.355596 0.000000
0.905516 0.370245 0.000000
0.926116 0.384741 0.000000
0.945647 0.398871 0.000000
0.964233 0.412909 0.000000
0.982147 0.427222 0.000000
0.999542 0.441657 0.000000
1.000000 0.457191 0.000000
1.000000 0.473487 0.000000
1.000000 0.491188 0.000000
0.000000 0.148226 0.101137
0.000763 0.149142 0.100771
0.003998 0.150546 0.099855
0.013214 0.153445 0.097658
0.032044 0.157778 0.092775
0.037507 0.162264 0.075837
0.085420 0.168124 0.072602
0.135744 0.174716 0.067262
0.205020 0.196750 0.049531
0.269566 0.210117 0.017853
0.345373 0.223301 0.000000
0.425971 0.237064 0.000000
0.501213 0.249607 0.000000
0.563012 0.257664 0.000000
0.617334 0.268315 0.000000
0.666621 0.281773 0.000000
0.708797 0.295811 0.000000
0.745235 0.309941 0.000000
0.777340 0.324407 0.000000
0.806760 0.339086 0.000000
0.833890 0.354833 0.000000
0.859220 0.370855 0.000000
0.882780 0.387121 0.000000
0.904814 0.401617 0.000000
0.925353 0.413306 0.000000
0.944854 0.424964 0.000000
0.963409 0.436652 0.000000
0.981353 0.448768 0.000000
0.998779 0.461463 0.000000
1.000000 0.474830 0.000000
1.000000 0.489601 0.000000
1.000000 0.505699 0.000000
0.000000 0.181399 0.113832
0.000000 0.182650 0.113039
0.000000 0.184146 0.112154
0.000000 0.187076 0.109529
0.000000 0.191501 0.104433
0.000824 0.196475 0.091127
0.023011 0.201419 0.072816
0.102663 0.209262 0.066865
0.166445 0.216983 0.057252
0.252598 0.244663 0.004517
0.327214 0.260746 0.000000
0.407660 0.276768 0.000000
0.487831 0.293645 0.000000
0.561334 0.311864 0.000000
0.619501 0.324926 0.000000
0.667933 0.336004 0.000000
0.709438 0.346136 0.000000
0.745541 0.356847 0.000000
0.777188 0.367376 0.000000
0.806363 0.378820 0.000000
0.833371 0.391424 0.000000
0.858549 0.404181 0.000000
0.882048 0.417212 0.000000
0.904051 0.430365 0.000000
0.924773 0.443641 0.000000
0.944213 0.453498 0.000000
0.962768 0.462898 0.000000
0.980652 0.472908 0.000000
0.998077 0.483467 0.000000
1.000000 0.495033 0.000000
1.000000 0.507744 0.000000
1.000000 0.522179 0.000000
0.000000 0.222416 0.128664
0.000000 0.223484 0.128145
0.000000 0.224796 0.126650
0.000000 0.227817 0.123690
0.000000 0.232517 0.118318
0.000000 0.238437 0.110994
0.000000 0.243259 0.084565
0.014862 0.248936 0.066377
0.125795 0.258671 0.053407
0.203189 0.267399 0.020386
0.306371 0.300206 0.000000
0.386786 0.318059 0.000000
0.468055 0.335912 0.000000
0.544244 0.354681 0.000000
0.611475 0.374151 0.000000
0.669337 0.393011 0.000000
0.710506 0.400092 0.000000
0.746059 0.406531 0.000000
0.777523 0.413489 0.000000
0.806394 0.421546 0.000000
0.833097 0.430426 0.000000
0.857939 0.439765 0.000000
0.881163 0.449622 0.000000
0.902983 0.460212 0.000000
0.923644 0.470710 0.000000
0.943236 0.481575 0.000000
0.961913 0.490883 0.000000
0.979858 0.498665 0.000000
0.997284 0.507408 0.000000
1.000000 0.517021 0.000000
1.000000 0.527977 0.000000
1.000000 0.540490 0.000000
0.000000 0.270756 0.146090
0.000000 0.271550 0.145174
0.000000 0.273136 0.143801
0.000000 0.276097 0.140352
0.000000 0.280644 0.134798
0.000000 0.286717 0.127230
0.000000 0.293004 0.110079
0.000000 0.298497 0.069001
0.031830 0.305608 0.047395
0.155367 0.316045 0.008820
0.245731 0.325170 0.000000
0.363653 0.361151 0.000000
0.446662 0.379950 0.000000
0.525414 0.398596 0.000000
0.594629 0.416632 0.000000
0.654749 0.433814 0.000000
0.705470 0.448341 0.000000
0.746120 0.458106 0.000000
0.777310 0.460914 0.000000
0.806058 0.465248 0.000000
0.832578 0.470985 0.000000
0.857298 0.477150 0.000000
0.880461 0.484199 0.000000
0.902190 0.491981 0.000000
0.922759 0.500175 0.000000
0.942351 0.508721 0.000000
0.961089 0.517784 0.000000
0.979126 0.526085 0.000000
0.996521 0.532738 0.000000
1.000000 0.540459 0.000000
1.000000 0.549523 0.000000
1.000000 0.560235 0.000000
0.000000 0.326116 0.165927
0.000000 0.327276 0.164889
0.000000 0.328740 0.163272
0.000000 0.331701 0.159823
0.000000 0.335790 0.153964
0.000000 0.341985 0.146242
0.000000 0.348669 0.136843
0.000000 0.354070 0.102052
0.000000 0.359289 0.034394
0.070008 0.367834 0.000000
0.192142 0.378088 0.000000
0.294774 0.387152 0.000000
0.427863 0.429358 0.000000
0.510704 0.448646 0.000000
0.582391 0.465034 0.000000
0.644617 0.479988 0.000000
0.697169 0.492317 0.000000
0.741390 0.502190 0.000000
0.779538 0.510918 0.000000
0.809720 0.514397 0.000000
0.835630 0.515953 0.000000
0.859709 0.518975 0.000000
0.882292 0.522759 0.000000
0.903593 0.527764 0.000000
0.923796 0.533165 0.000000
0.943053 0.539483 0.000000
0.961578 0.546136 0.000000
0.979522 0.553552 0.000000
0.996948 0.560601 0.000000
1.000000 0.566217 0.000000
1.000000 0.573419 0.000000
1.000000 0.582055 0.000000
0.000000 0.388830 0.188724
0.000000 0.389715 0.187747
0.000000 0.390906 0.185916
0.000000 0.393286 0.182132
0.000000 0.397131 0.176303
0.000000 0.402106 0.168399
0.000000 0.408362 0.159121
0.000000 0.414313 0.141299
0.000000 0.418921 0.084718
0.000000 0.423621 0.000000
0.107149 0.434089 0.000000
0.238102 0.444800 0.000000
0.350561 0.453132 0.000000
0.478431 0.485267 0.000000
0.560021 0.504936 0.000000
0.625330 0.518364 0.000000
0.680873 0.528985 0.000000
0.727413 0.537163 0.000000
0.767514 0.544182 0.000000
0.803128 0.551049 0.000000
0.834684 0.557702 0.000000
0.858762 0.557794 0.000000
0.881224 0.559319 0.000000
0.902403 0.561486 0.000000
0.922545 0.564965 0.000000
0.941772 0.568963 0.000000
0.960296 0.573754 0.000000
0.978210 0.579309 0.000000
0.995727 0.585443 0.000000
1.000000 0.591485 0.000000
1.000000 0.596887 0.000000
1.000000 0.603754 0.000000
0.000000 0.450141 0.213626
0.000000 0.450782 0.212314
0.000000 0.451789 0.210636
0.000000 0.453986 0.206821
0.000000 0.457252 0.200809
0.000000 0.461494 0.192935
0.000000 0.466835 0.183749
0.000000 0.472755 0.173709
0.000000 0.477211 0.135012
0.000000 0.482246 0.045563
0.000000 0.486976 0.000000
0.153536 0.497597 0.000000
0.288640 0.505486 0.000000
0.403510 0.510979 0.000000
0.524071 0.535668 0.000000
0.603967 0.555047 0.000000
0.662776 0.564446 0.000000
0.711971 0.571313 0.000000
0.754391 0.576898 0.000000
0.791836 0.582452 0.000000
0.825071 0.587793 0.000000
0.854704 0.592981 0.000000
0.880247 0.596277 0.000000
0.901427 0.596277 0.000000
0.921477 0.597436 0.000000
0.940673 0.599481 0.000000
0.959167 0.602594 0.000000
0.977050 0.606348 0.000000
0.994568 0.610864 0.000000
1.000000 0.615961 0.000000
1.000000 0.621149 0.000000
1.000000 0.626429 0.000000
0.000000 0.509728 0.240757
0.000000 0.510338 0.239445
0.000000 0.511101 0.237919
0.000000 0.512932 0.234043
0.000000 0.515496 0.228275
0.000000 0.519158 0.220462
0.000000 0.523552 0.211917
0.000000 0.529015 0.202548
0.000000 0.534478 0.188022
0.000000 0.538079 0.126253
0.000000 0.542199 0.000000
0.000000 0.546868 0.000000
0.206516 0.554406 0.000000
0.341253 0.559319 0.000000
0.454322 0.561944 0.000000
0.565454 0.580163 0.000000
0.643091 0.598535 0.000000
0.695277 0.604395 0.000000
0.740047 0.608850 0.000000
0.779599 0.613275 0.000000
0.814542 0.617365 0.000000
0.845701 0.621454 0.000000
0.873655 0.625391 0.000000
0.899138 0.629480 0.000000
0.920439 0.630518 0.000000
0.939605 0.630793 0.000000
0.958068 0.632074 0.000000
0.976013 0.634211 0.000000
0.993591 0.637232 0.000000
1.000000 0.641047 0.000000
1.000000 0.645472 0.000000
1.000000 0.649989 0.000000
0.000000 0.564904 0.270451
0.000000 0.565515 0.269291
0.000000 0.566155 0.267674
0.000000 0.567895 0.264225
0.000000 0.570214 0.258610
0.000000 0.573480 0.251743
0.000000 0.577325 0.243290
0.000000 0.581842 0.234714
0.000000 0.586267 0.225528
0.000000 0.589776 0.189761
0.000000 0.592584 0.114199
0.000000 0.595087 0.000000
0.010590 0.598871 0.000000
0.263218 0.603357 0.000000
0.393317 0.605127 0.000000
0.500481 0.605524 0.000000
0.602136 0.619013 0.000000
0.676631 0.635920 0.000000
0.724544 0.639643 0.000000
0.766537 0.643305 0.000000
0.803494 0.646571 0.000000
0.836271 0.649714 0.000000
0.865568 0.652766 0.000000
0.892119 0.655940 0.000000
0.916411 0.659113 0.000000
0.938811 0.662531 0.000000
0.957275 0.662165 0.000000
0.975189 0.662806 0.000000
0.992645 0.664363 0.000000
1.000000 0.666712 0.000000
1.000000 0.669703 0.000000
1.000000 0.673487 0.000000
0.000000 0.615045 0.302525
0.000000 0.615595 0.301366
0.000000 0.616022 0.299779
0.000000 0.617304 0.296239
0.000000 0.619074 0.291081
0.000000 0.621668 0.284672
0.000000 0.624537 0.276738
0.000000 0.627985 0.268589
0.000000 0.631342 0.259770
0.000000 0.634730 0.251225
0.000000 0.636744 0.190158
0.000000 0.638911 0.097322
0.000000 0.640162 0.000000
0.149325 0.643122 0.000000
0.319585 0.644953 0.000000
0.442237 0.644739 0.000000
0.542077 0.643732 0.000000
0.634577 0.652949 0.000000
0.707271 0.669184 0.000000
0.751858 0.672023 0.000000
0.791073 0.674617 0.000000
0.825589 0.676967 0.000000
0.856413 0.679164 0.000000
0.884184 0.681483 0.000000
0.909545 0.683925 0.000000
0.932799 0.686519 0.000000
0.954437 0.689418 0.000000
0.974029 0.691341 0.000000
0.991485 0.691463 0.000000
1.000000 0.692500 0.000000
1.000000 0.694362 0.000000
1.000000 0.696925 0.000000
0.000000 0.659541 0.334783
0.000000 0.660029 0.333654
0.000000 0.664271 0.335485
0.000000 0.665309 0.332219
0.000000 0.666712 0.327367
0.000000 0.668452 0.321202
0.000000 0.670588 0.313848
0.000000 0.673091 0.306188
0.000000 0.675563 0.298222
0.000000 0.678004 0.290318
0.000000 0.679805 0.261875
0.000000 0.681239 0.191501
0.000000 0.682765 0.080385
0.000000 0.682399 0.000000
0.226078 0.684047 0.000000
0.375830 0.683406 0.000000
0.490486 0.681544 0.000000
0.582055 0.679683 0.000000
0.666407 0.685420 0.000000
0.737575 0.701228 0.000000
0.779019 0.703090 0.000000
0.815366 0.704555 0.000000
0.847593 0.705989 0.000000
0.876555 0.707362 0.000000
0.902770 0.708980 0.000000
0.926848 0.710780 0.000000
0.949096 0.712795 0.000000
0.969940 0.715114 0.000000
0.989624 0.717586 0.000000
1.000000 0.718532 0.000000
1.000000 0.719173 0.000000
1.000000 0.720607 0.000000
0.000000 0.700099 0.367468
0.000000 0.700832 0.366827
0.000000 0.701625 0.366003
0.000000 0.702876 0.363439
0.000000 0.704250 0.359289
0.000000 0.705928 0.353826
0.000000 0.707546 0.347204
0.000000 0.709468 0.340185
0.000000 0.711482 0.332891
0.000000 0.713283 0.325689
0.000000 0.714656 0.319493
0.000000 0.715816 0.267216
0.000000 0.717006 0.191745
0.000000 0.717891 0.084138
0.000000 0.717037 0.031586
0.291295 0.716762 0.000000
0.426856 0.714748 0.000000
0.531212 0.712154 0.000000
0.616571 0.709773 0.000000
0.694179 0.713283 0.000000
0.764157 0.728908 0.000000
0.802823 0.730068 0.000000
0.836942 0.730953 0.000000
0.867430 0.731868 0.000000
0.894896 0.732876 0.000000
0.920043 0.734157 0.000000
0.943236 0.735622 0.000000
0.964843 0.737331 0.000000
0.985168 0.739406 0.000000
1.000000 0.741634 0.000000
1.000000 0.744045 0.000000
1.000000 0.744533 0.000000
0.000000 0.735256 0.398077
0.000000 0.735927 0.397833
0.000000 0.736660 0.396857
0.000000 0.737606 0.394385
0.000000 0.738674 0.390723
0.000000 0.740017 0.385748
0.000000 0.741360 0.379858
0.000000 0.742885 0.373449
0.000000 0.744350 0.367071
0.000000 0.745785 0.360998
0.000000 0.746761 0.355657
0.000000 0.747280 0.337377
0.000000 0.748226 0.273472
0.000000 0.749325 0.191958
0.000000 0.749294 0.115602
0.172305 0.748013 0.085420
0.351690 0.746304 0.000000
0.474128 0.743313 0.000000
0.569818 0.740352 0.000000
0.649104 0.737819 0.000000
0.720912 0.739528 0.000000
0.789242 0.754665 0.000000
0.825498 0.755276 0.000000
0.857633 0.755734 0.000000
0.886473 0.756283 0.000000
0.912779 0.757015 0.000000
0.936889 0.757992 0.000000
0.959319 0.759304 0.000000
0.980316 0.760830 0.000000
1.000000 0.762661 0.000000
1.000000 0.764736 0.000000
1.000000 0.766842 0.000000
0.000000 0.767422 0.427863
0.000000 0.767971 0.427436
0.000000 0.768582 0.426734
0.000000 0.769406 0.424537
0.000000 0.770291 0.421332
0.000000 0.771298 0.416693
0.000000 0.772427 0.411444
0.000000 0.773587 0.405951
0.000000 0.774746 0.400214
0.000000 0.775784 0.394873
0.000000 0.776394 0.390509
0.000000 0.776333 0.387457
0.000000 0.776730 0.347387
0.000000 0.777737 0.280705
0.000000 0.778775 0.193668
0.000000 0.777707 0.147097
0.258213 0.776028 0.120821
0.408331 0.773373 0.079011
0.518639 0.770138 0.000000
0.606806 0.767147 0.000000
0.680781 0.764614 0.000000
0.747341 0.765011 0.000000
0.814145 0.779660 0.000000
0.848173 0.779812 0.000000
0.878599 0.779995 0.000000
0.906035 0.780362 0.000000
0.931182 0.780941 0.000000
0.954437 0.781827 0.000000
0.976165 0.782925 0.000000
0.996551 0.784360 0.000000
1.000000 0.786007 0.000000
1.000000 0.787839 0.000000
0.000000 0.798459 0.457954
0.000000 0.798795 0.457496
0.000000 0.799039 0.456336
0.000000 0.799557 0.454353
0.000000 0.800198 0.451148
0.000000 0.800961 0.447303
0.000000 0.801816 0.442542
0.000000 0.802731 0.437720
0.000000 0.803708 0.432807
0.000000 0.804471 0.428382
0.000000 0.804898 0.424994
0.000000 0.804623 0.423255
0.000000 0.803647 0.415167
0.000000 0.804562 0.359930
0.000000 0.805600 0.290410
0.000000 0.806699 0.199924
0.122255 0.804471 0.181827
0.330877 0.801907 0.157046
0.461036 0.798459 0.126131
0.560021 0.794949 0.080354
0.641230 0.791745 0.000000
0.709987 0.788968 0.000000
0.771389 0.788144 0.000000
0.836759 0.802182 0.000000
0.868772 0.802029 0.000000
0.897704 0.802060 0.000000
0.924041 0.802213 0.000000
0.948241 0.802823 0.000000
0.970733 0.803647 0.000000
0.991821 0.804776 0.000000
1.000000 0.806180 0.000000
1.000000 0.807675 0.000000
0.000000 0.825620 0.484779
0.000000 0.825864 0.484382
0.000000 0.826139 0.483589
0.000000 0.826566 0.481666
0.000000 0.827085 0.479011
0.000000 0.827665 0.475074
0.000000 0.828367 0.471138
0.000000 0.829068 0.466743
0.000000 0.829801 0.462837
0.000000 0.830320 0.459052
0.000000 0.830533 0.456458
0.000000 0.830014 0.455482
0.000000 0.828489 0.456275
0.000000 0.828092 0.428870
0.000000 0.829160 0.371801
0.000000 0.830320 0.301549
0.000000 0.830564 0.233463
0.229770 0.828122 0.215305
0.394293 0.824826 0.193271
0.508324 0.821103 0.167361
0.598199 0.817563 0.135714
0.673182 0.814359 0.090761
0.737545 0.811673 0.000000
0.794614 0.810056 0.000000
0.856809 0.822110 0.000000
0.888457 0.822812 0.000000
0.916075 0.822812 0.000000
0.941405 0.823117 0.000000
0.964782 0.823636 0.000000
0.986633 0.824552 0.000000
1.000000 0.825711 0.000000
1.000000 0.827054 0.024781
0.000000 0.851743 0.511131
0.000000 0.851987 0.510704
0.000000 0.852201 0.509972
0.000000 0.852537 0.508293
0.000000 0.852873 0.505486
0.000000 0.853300 0.502373
0.000000 0.853788 0.498817
0.000000 0.854307 0.495033
0.000000 0.854704 0.491524
0.000000 0.854948 0.488441
0.000000 0.854856 0.486427
0.000000 0.854093 0.485908
0.000000 0.852354 0.487343
0.020142 0.849638 0.490028
0.027070 0.850614 0.443336
0.041352 0.851713 0.385870
0.060517 0.852903 0.314763
0.176638 0.852110 0.268559
0.314824 0.849271 0.250645
0.450416 0.845548 0.229831
0.551232 0.841825 0.207706
0.633173 0.838376 0.181125
0.702663 0.835233 0.148653
0.762966 0.832486 0.105684
0.816098 0.830167 0.000000
0.875547 0.840970 0.000000
0.907927 0.843076 0.000000
0.934386 0.843107 0.000000
0.958740 0.843412 0.000000
0.981292 0.844053 0.060914
1.000000 0.844968 0.110231
1.000000 0.846159 0.147005
0.000000 0.874968 0.534691
0.000000 0.875181 0.534203
0.000000 0.875425 0.533562
0.000000 0.875669 0.532219
0.000000 0.875944 0.529808
0.000000 0.876341 0.526848
0.000000 0.876768 0.523674
0.000000 0.877165 0.520531
0.000000 0.877562 0.517723
0.000000 0.877745 0.515435
0.000000 0.877531 0.514275
0.000000 0.876677 0.514488
0.000000 0.874907 0.516808
0.000000 0.872007 0.521477
0.174807 0.870512 0.506493
0.170901 0.871733 0.459846
0.170748 0.873014 0.403082
0.170474 0.874479 0.332250
0.261723 0.872709 0.306584
0.387823 0.869474 0.289494
0.502342 0.865690 0.271000
0.592309 0.862028 0.250431
0.667292 0.858640 0.227115
0.731563 0.855650 0.201053
0.788083 0.852964 0.169680
0.838254 0.850767 0.128939
0.893889 0.859648 0.000000
0.927214 0.862913 0.038025
0.952605 0.863035 0.103243
0.976074 0.863432 0.139925
0.997772 0.864134 0.174502
1.000000 0.865171 0.207156
0.000000 0.897276 0.557366
0.000000 0.897429 0.557061
0.000000 0.897551 0.556329
0.000000 0.897734 0.554986
0.000000 0.897978 0.552880
0.000000 0.898253 0.550317
0.000000 0.898558 0.547478
0.000000 0.898894 0.544671
0.000000 0.899138 0.542412
0.000000 0.899260 0.540612
0.000000 0.898985 0.540154
0.000000 0.898039 0.541161
0.000000 0.896178 0.544060
0.000000 0.893187 0.549584
0.236484 0.889189 0.557183
0.248417 0.889891 0.524041
0.244144 0.891264 0.478523
0.241306 0.892821 0.422827
0.252323 0.894041 0.361913
0.331029 0.891783 0.346593
0.450996 0.888243 0.330785
0.550011 0.884489 0.313725
0.630610 0.881010 0.294713
0.699184 0.877806 0.273594
0.758999 0.874937 0.249912
0.811948 0.872496 0.223484
0.859556 0.870390 0.193027
0.911864 0.877867 0.143313
0.945769 0.881865 0.155032
0.970123 0.882109 0.187594
0.992645 0.882628 0.218631
1.000000 0.883482 0.252262
0.000000 0.918181 0.578912
0.000000 0.918303 0.578546
0.000000 0.918395 0.577966
0.000000 0.918578 0.576715
0.000000 0.918853 0.574701
0.000000 0.919188 0.572534
0.000000 0.919585 0.570245
0.000000 0.920043 0.568170
0.000000 0.920439 0.566491
0.000000 0.920684 0.565667
0.000000 0.920470 0.566064
0.000000 0.919585 0.568109
0.000000 0.917693 0.572107
0.000000 0.914641 0.578332
0.225254 0.910521 0.586908
0.321447 0.907866 0.582788
0.316442 0.909361 0.546319
0.312291 0.910979 0.502861
0.308507 0.912840 0.449744
0.336187 0.913146 0.407691
0.402991 0.911009 0.393591
0.510948 0.907317 0.379034
0.596796 0.903807 0.363012
0.669062 0.900481 0.345830
0.731655 0.897520 0.326574
0.786923 0.894926 0.306096
0.836545 0.892638 0.282963
0.881682 0.890715 0.257633
0.930755 0.896910 0.221683
0.964996 0.901427 0.230564
0.988190 0.901701 0.263340
1.000000 0.902373 0.297551
0.000000 0.939269 0.599420
0.000000 0.939391 0.599420
0.000000 0.939544 0.599298
0.000000 0.939727 0.598688
0.000000 0.939910 0.596918
0.000000 0.940185 0.594934
0.000000 0.940490 0.592767
0.000000 0.940795 0.590814
0.000000 0.941009 0.589471
0.000000 0.941039 0.589014
0.000000 0.940642 0.589837
0.000000 0.939574 0.592401
0.000000 0.937469 0.596948
0.000000 0.934173 0.603784
