data/fiter_cube/59424107/1023396/file.cube
# Created by Adobe Lightroom plugin Export LUT (1.17.0)
# www.johnrellis.com/lightroom/exportlut.htm
# Preset: 晴间多云(适合多云天气)_02 云集
# Color profile: C:\Program Files (x86)\Common Files\Adobe\Color\Profiles\Recommended\AdobeRGB1998.icc
LUT_3D_SIZE 8
DOMAIN_MIN 0.000000 0.000000 0.000000
DOMAIN_MAX 0.903226 0.903226 0.903226
0.061738 0.074342 0.073579
0.085328 0.077211 0.073762
0.226383 0.070344 0.066926
0.488075 0.000000 0.000000
0.703670 0.000000 0.000000
0.834440 0.184512 0.000000
0.925353 0.295109 0.000000
0.999390 0.383185 0.000000
0.057282 0.090242 0.079286
0.077882 0.095583 0.074983
0.229343 0.119265 0.060517
0.492103 0.100679 0.000000
0.704677 0.152621 0.000000
0.832303 0.248783 0.000000
0.923430 0.332036 0.000000
0.998047 0.406531 0.000000
0.000000 0.181399 0.113832
0.000000 0.191501 0.104433
0.166445 0.216983 0.057252
0.487831 0.293645 0.000000
0.709438 0.346136 0.000000
0.833371 0.391424 0.000000
0.924773 0.443641 0.000000
0.998077 0.483467 0.000000
0.000000 0.388830 0.188724
0.000000 0.397131 0.176303
0.000000 0.418921 0.084718
0.350561 0.453132 0.000000
0.680873 0.528985 0.000000
0.834684 0.557702 0.000000
0.922545 0.564965 0.000000
0.995727 0.585443 0.000000
0.000000 0.615045 0.302525
0.000000 0.619074 0.291081
0.000000 0.631342 0.259770
0.000000 0.640162 0.000000
0.542077 0.643732 0.000000
0.791073 0.674617 0.000000
0.909545 0.683925 0.000000
0.991485 0.691463 0.000000
0.000000 0.767422 0.427863
0.000000 0.770291 0.421332
0.000000 0.774746 0.400214
0.000000 0.776730 0.347387
0.258213 0.776028 0.120821
0.680781 0.764614 0.000000
0.878599 0.779995 0.000000
0.976165 0.782925 0.000000
0.000000 0.874968 0.534691
0.000000 0.875944 0.529808
0.000000 0.877562 0.517723
0.000000 0.874907 0.516808
0.170748 0.873014 0.403082
0.502342 0.865690 0.271000
0.788083 0.852964 0.169680
0.952605 0.863035 0.103243
0.000000 0.958495 0.617456
0.000000 0.959289 0.616968
0.000000 0.960418 0.610834
0.000000 0.956695 0.620844
0.434546 0.939055 0.652461
0.420081 0.947356 0.506828
0.678523 0.937957 0.460792
0.880522 0.929107 0.397467
0.059602 0.075807 0.091585
0.088930 0.075410 0.093172
0.218997 0.056703 0.083864
0.475746 0.000000 0.040558
0.696834 0.000000 0.000000
0.828824 0.189029 0.000000
0.922698 0.312383 0.000000
0.997864 0.390295 0.000000
0.050233 0.094331 0.098604
0.081453 0.097719 0.097871
0.220340 0.105562 0.089082
0.479377 0.060090 0.029755
0.697475 0.119692 0.000000
0.827756 0.239658 0.000000
0.921050 0.341039 0.000000
0.996582 0.412360 0.000000
0.000000 0.187350 0.135561
0.000000 0.198734 0.134768
0.176303 0.222049 0.096193
0.488502 0.284947 0.000000
0.701534 0.327184 0.000000
0.827970 0.376898 0.000000
0.920439 0.432837 0.000000
0.996307 0.486244 0.000000
0.000000 0.393957 0.214878
0.000000 0.403357 0.208286
0.000000 0.426215 0.161349
0.358099 0.453071 0.000000
0.676570 0.521386 0.000000
0.827939 0.548089 0.000000
0.918059 0.558221 0.000000
0.993256 0.581262 0.000000
0.000000 0.618891 0.328435
0.000000 0.622339 0.319707
0.000000 0.633173 0.295506
0.000000 0.641047 0.114961
0.544793 0.642206 0.000000
0.789395 0.672053 0.000000
0.907897 0.682643 0.000000
0.989502 0.689723 0.000000
0.000000 0.767758 0.445624
0.000000 0.769314 0.438941
0.000000 0.773648 0.422034
0.000000 0.774899 0.393378
0.270237 0.775113 0.187961
0.682887 0.764370 0.000000
0.877684 0.779263 0.000000
0.974792 0.782650 0.000000
0.000000 0.874052 0.545098
0.000000 0.874540 0.540246
0.000000 0.876280 0.529931
0.000000 0.873838 0.530571
0.233921 0.870787 0.441108
0.506859 0.864439 0.310002
0.787503 0.851865 0.221195
0.950622 0.861875 0.177188
0.000000 0.958038 0.624781
0.000000 0.958923 0.624201
0.000000 0.960113 0.618433
0.000000 0.956329 0.628290
0.459724 0.938293 0.669306
0.445411 0.946044 0.533806
0.680659 0.937346 0.482734
0.879881 0.928557 0.421271
0.000000 0.078462 0.197421
0.060395 0.075471 0.202060
0.256199 0.000000 0.207614
0.464240 0.000000 0.177005
0.682948 0.000000 0.131716
0.820279 0.118807 0.087495
0.918883 0.284184 0.000000
0.997864 0.390234 0.000000
0.000000 0.108766 0.203128
0.011475 0.102174 0.210880
0.243656 0.085420 0.212741
0.458076 0.000000 0.179141
0.682673 0.000000 0.141299
0.819272 0.193484 0.090425
0.917571 0.317418 0.000000
0.996765 0.410925 0.000000
0.000000 0.206607 0.241520
0.000000 0.212100 0.241459
0.205966 0.234592 0.238224
0.472999 0.249027 0.207034
0.688289 0.290013 0.162814
0.819913 0.353399 0.101411
0.915953 0.418860 0.000000
0.994598 0.479164 0.000000
0.000000 0.405341 0.307012
0.000000 0.420508 0.306706
0.000000 0.448035 0.306798
0.395392 0.468727 0.230838
0.684352 0.522271 0.193210
0.819699 0.536248 0.145663
0.913390 0.552697 0.041291
0.991028 0.578485 0.000000
0.000000 0.630121 0.407843
0.000000 0.634577 0.406012
0.000000 0.645594 0.401709
0.203311 0.652186 0.335576
0.566857 0.649897 0.232975
0.791592 0.673640 0.192203
0.906523 0.686702 0.184848
0.985504 0.689601 0.125216
0.000000 0.773281 0.503655
0.000000 0.775082 0.501213
0.000000 0.778805 0.495399
0.137789 0.776913 0.491890
0.319921 0.776059 0.347021
0.690944 0.765560 0.276005
0.875517 0.779416 0.241123
0.971496 0.785611 0.263340
0.000000 0.877226 0.585046
0.000000 0.877775 0.582483
0.000000 0.878904 0.576349
0.000000 0.874846 0.578454
0.381323 0.865782 0.550805
0.527123 0.863249 0.427100
0.790463 0.852384 0.360906
0.947753 0.862913 0.340124
0.000000 0.959411 0.652064
0.000000 0.959991 0.650446
0.000000 0.960998 0.645472
0.000000 0.957305 0.654658
0.461341 0.939055 0.690547
0.516716 0.941039 0.609827
0.689570 0.936004 0.550866
0.880003 0.928374 0.499214
0.000000 0.080781 0.407141
0.000000 0.076936 0.414130
0.222568 0.000000 0.435798
0.537835 0.000000 0.421790
0.690883 0.000000 0.353979
0.799893 0.000000 0.292515
0.905303 0.256931 0.272282
0.989960 0.383734 0.236271
0.000000 0.119265 0.413703
0.000000 0.109133 0.419867
0.207950 0.084291 0.439551
0.529595 0.000000 0.426734
0.683467 0.000000 0.361944
0.799100 0.106905 0.303166
0.904021 0.297887 0.279820
0.989288 0.403906 0.238346
0.000000 0.229557 0.425086
0.000000 0.231846 0.425788
0.137819 0.235508 0.446174
0.500664 0.244877 0.445991
0.656947 0.281071 0.391302
0.798398 0.331914 0.343114
0.902739 0.413947 0.310277
0.987610 0.475654 0.259861
0.000000 0.421485 0.480720
0.000000 0.427283 0.480751
0.000000 0.451820 0.481178
0.443214 0.488350 0.481056
0.658930 0.502190 0.441169
0.795560 0.523095 0.400977
0.897795 0.548821 0.357092
0.982208 0.578180 0.307866
0.000000 0.625177 0.533440
0.000000 0.632380 0.534112
0.000000 0.654627 0.535332
0.354681 0.663294 0.539117
0.593683 0.660395 0.474159
0.786587 0.682124 0.463966
0.892424 0.688167 0.438239
0.974548 0.691127 0.389227
0.000000 0.781918 0.592737
0.000000 0.786160 0.592096
0.000000 0.788449 0.591363
0.228519 0.783963 0.594354
0.475135 0.777005 0.551751
0.702968 0.769650 0.485023
0.868772 0.782956 0.471748
0.962829 0.792844 0.480842
0.000000 0.882017 0.647120
0.000000 0.882750 0.646143
0.000000 0.883726 0.643824
0.000000 0.878599 0.645716
0.501640 0.862547 0.664485
0.562066 0.862058 0.568353
0.794034 0.853056 0.519249
0.941009 0.864103 0.508446
0.000000 0.962585 0.699153
0.000000 0.963104 0.697047
0.000000 0.964019 0.691493
0.000000 0.960571 0.692805
0.446693 0.942016 0.721187
0.605798 0.934203 0.703578
0.702327 0.934142 0.636774
0.880552 0.928008 0.596857
0.000000 0.086946 0.612818
0.000000 0.083680 0.616602
0.100496 0.000000 0.629297
0.501762 0.000000 0.639857
0.724361 0.000000 0.607813
0.815122 0.165866 0.539300
0.878386 0.351202 0.519982
0.966094 0.441810 0.501244
0.000000 0.118990 0.613947
0.000000 0.119814 0.617945
0.065461 0.099886 0.630030
0.496590 0.000000 0.643610
0.719020 0.000000 0.610956
0.810208 0.235538 0.544884
0.874601 0.380621 0.526146
0.965545 0.458564 0.504448
0.000000 0.254429 0.605158
0.000000 0.256870 0.611231
0.000000 0.243076 0.629053
0.468727 0.257877 0.649439
0.699641 0.307347 0.621210
0.792172 0.383368 0.562402
0.869505 0.442603 0.531670
0.963989 0.509087 0.512291
0.000000 0.427466 0.627466
0.000000 0.431098 0.627314
0.000000 0.446723 0.626856
0.403418 0.477058 0.643214
0.666377 0.519890 0.639857
0.762509 0.534813 0.592218
0.869841 0.550072 0.554040
0.964385 0.580896 0.517998
0.000000 0.620203 0.661830
0.000000 0.623774 0.661799
0.000000 0.635615 0.661158
0.348974 0.651881 0.660822
0.624903 0.673152 0.662837
0.762783 0.672877 0.632105
0.868986 0.677180 0.597894
0.958953 0.686519 0.560235
0.000000 0.765896 0.692164
0.000000 0.768978 0.692409
0.000000 0.777340 0.692195
0.264408 0.783597 0.691585
0.568963 0.778927 0.692866
0.718044 0.774197 0.650629
0.861418 0.790311 0.648249
0.951171 0.795926 0.633204
0.000000 0.880400 0.726772
0.000000 0.881682 0.725795
0.000000 0.885130 0.722866
0.000000 0.881895 0.721462
0.496712 0.868223 0.724788
0.640620 0.859495 0.697505
0.799832 0.853635 0.652857
0.933928 0.865721 0.649500
0.000000 0.965423 0.756008
0.000000 0.965759 0.754849
0.000000 0.966155 0.751766
0.000000 0.963561 0.749264
0.368017 0.949065 0.755062
0.678737 0.929046 0.785214
0.714931 0.932067 0.718502
0.882048 0.927153 0.687068
0.000000 0.103883 0.752102
0.000000 0.101564 0.753750
0.000000 0.061769 0.759060
0.452674 0.000000 0.769772
0.694667 0.000000 0.767147
0.830350 0.231937 0.725063
0.896391 0.406439 0.681544
0.949554 0.542962 0.684016
0.000000 0.137789 0.750484
0.000000 0.138216 0.752102
0.000000 0.125765 0.757931
0.444984 0.009735 0.768246
0.689876 0.103273 0.767269
0.826230 0.288792 0.726833
0.893065 0.433051 0.684565
0.947448 0.555322 0.686610
0.000000 0.281987 0.745205
0.000000 0.280797 0.748043
0.000000 0.259770 0.755520
0.420630 0.279942 0.765530
0.675013 0.338170 0.769924
0.813870 0.429328 0.734279
0.882597 0.511315 0.695766
0.940764 0.595209 0.695857
0.000000 0.440162 0.739925
0.000000 0.442481 0.739071
0.000000 0.456703 0.741939
0.377935 0.476204 0.758419
0.649104 0.532525 0.773129
0.795010 0.576318 0.747829
0.866392 0.605890 0.712612
0.930419 0.648859 0.707881
0.000000 0.608759 0.756619
0.000000 0.610986 0.756252
0.000000 0.618952 0.754726
0.325292 0.632441 0.751888
0.595850 0.659693 0.762264
0.771572 0.690394 0.761837
0.843778 0.687160 0.726009
0.936095 0.694789 0.703029
0.000000 0.749599 0.776699
0.000000 0.751522 0.776761
0.000000 0.756527 0.775875
0.252628 0.761837 0.774472
0.559350 0.769558 0.773739
0.745113 0.786252 0.778531
0.846769 0.782712 0.754696
0.937652 0.784482 0.730220
0.000000 0.871092 0.808255
0.000000 0.872770 0.808438
0.000000 0.876219 0.807980
0.000000 0.873136 0.802487
0.512261 0.869413 0.799313
0.706081 0.863188 0.799435
0.813016 0.857572 0.766964
0.930755 0.871550 0.768765
0.000000 0.961028 0.828977
0.000000 0.961700 0.828061
0.000000 0.963317 0.824765
0.000000 0.962158 0.819577
0.381170 0.952209 0.816464
0.647974 0.936767 0.820859
0.759609 0.929656 0.803372
0.886931 0.926970 0.773678
0.000000 0.137118 0.851255
0.000000 0.135866 0.852171
0.000000 0.120729 0.854215
0.422309 0.073274 0.858152
0.663050 0.152529 0.863706
0.821927 0.305180 0.853635
0.903716 0.455970 0.810636
0.958556 0.581964 0.790646
0.000000 0.170169 0.849485
0.000000 0.171054 0.850401
0.000000 0.166476 0.852537
0.416480 0.157229 0.856352
0.657465 0.221378 0.861814
0.817350 0.345220 0.852476
0.900511 0.477028 0.810971
0.956298 0.591089 0.791104
0.000000 0.317144 0.845792
0.000000 0.299565 0.847044
0.000000 0.289708 0.849668
0.400977 0.313939 0.853208
0.642512 0.377111 0.858183
0.805936 0.461219 0.852323
0.893400 0.550530 0.816739
0.951720 0.631312 0.798245
0.000000 0.463111 0.836332
0.000000 0.465156 0.837095
0.000000 0.476967 0.840269
0.368078 0.483070 0.846555
0.616358 0.533013 0.852293
0.788571 0.590478 0.853391
0.883055 0.639155 0.825925
0.944335 0.683711 0.807523
0.000000 0.608972 0.838743
0.000000 0.609888 0.837919
0.000000 0.613428 0.835325
0.296483 0.621393 0.831907
0.571221 0.648432 0.843015
0.764675 0.694545 0.855070
0.869596 0.719600 0.835599
0.933837 0.738277 0.816434
0.000000 0.738216 0.849332
0.000000 0.738979 0.848905
0.000000 0.741421 0.847318
0.209537 0.744137 0.844297
0.519738 0.749844 0.839597
0.719142 0.771786 0.847105
0.855497 0.797421 0.848997
0.919463 0.792844 0.824643
0.000000 0.845670 0.862974
0.000000 0.846525 0.862882
0.000000 0.848173 0.862058
0.000000 0.848722 0.860472
0.486488 0.848966 0.858030
0.692409 0.853696 0.856901
0.837003 0.867826 0.862547
0.922820 0.863706 0.843168
0.000000 0.947845 0.890562
0.000000 0.948760 0.890593
0.000000 0.951934 0.891112
0.000000 0.953491 0.890776
0.377844 0.945129 0.884794
0.653223 0.937774 0.880339
0.805447 0.931853 0.879393
0.896757 0.928130 0.854124
0.000000 0.203433 0.930632
0.000000 0.204593 0.930785
0.106783 0.207126 0.930755
0.438300 0.225681 0.931029
0.643580 0.297520 0.931304
0.802976 0.417945 0.930083
0.915129 0.523156 0.920104
0.963867 0.621088 0.880400
0.000000 0.235508 0.929595
0.000000 0.237644 0.929747
0.099489 0.244114 0.929808
0.435401 0.266636 0.929931
0.640436 0.334661 0.930144
0.800443 0.444709 0.929381
0.912352 0.539788 0.919493
0.962524 0.630549 0.881041
0.000000 0.351537 0.926421
0.000000 0.338170 0.927001
0.009979 0.350835 0.926818
0.425238 0.381048 0.927153
0.630488 0.439155 0.927184
0.792874 0.523827 0.927977
0.904356 0.592554 0.918944
0.958862 0.663813 0.884398
0.000000 0.495094 0.920562
0.000000 0.500267 0.920623
0.152316 0.522637 0.920226
0.396887 0.515099 0.922210
0.610285 0.556664 0.922759
0.775326 0.615167 0.924559
0.891997 0.662226 0.919249
0.953796 0.711360 0.890318
0.000000 0.622675 0.915435
0.000000 0.623072 0.914977
0.000000 0.623651 0.913909
0.310338 0.628840 0.915343
0.567834 0.653529 0.917235
0.745571 0.693019 0.920317
0.875456 0.731930 0.920409
0.947539 0.765103 0.898344
0.000000 0.738949 0.920409
0.000000 0.738918 0.919890
0.000000 0.738521 0.918120
0.149142 0.737362 0.914794
0.481880 0.738643 0.909148
0.700496 0.763119 0.915190
0.856565 0.802243 0.924163
0.940215 0.821439 0.908446
0.000000 0.839841 0.927733
0.000000 0.839933 0.927428
0.000000 0.839811 0.926268
0.000000 0.838743 0.924132
0.435035 0.838102 0.920348
0.650599 0.840024 0.915190
0.813901 0.854704 0.918822
0.930632 0.877501 0.919677
0.000000 0.926024 0.937011
0.000000 0.926360 0.936858
0.000000 0.927276 0.936431
0.000000 0.926909 0.935607
0.365942 0.924102 0.933715
0.628260 0.922454 0.930968
0.791623 0.924804 0.928771
0.918059 0.935821 0.932860
