data/fiter_cube/59424107/1023396/file.cube
# Created by Adobe Lightroom plugin Export LUT (1.17.0)
# www.johnrellis.com/lightroom/exportlut.htm
# Preset: 晴间多云(适合多云天气)_02 云集
# Color profile: C:\Program Files (x86)\Common Files\Adobe\Color\Profiles\Recommended\AdobeRGB1998.icc
LUT_3D_SIZE 5
DOMAIN_MIN 0.000000 0.000000 0.000000
DOMAIN_MAX 0.903226 0.903226 0.903226
0.061738 0.074342 0.073579
0.177951 0.077272 0.070588
0.609094 0.000000 0.000000
0.859739 0.216251 0.000000
0.999390 0.383185 0.000000
0.000000 0.148226 0.101137
0.135744 0.174716 0.067262
0.617334 0.268315 0.000000
0.859220 0.370855 0.000000
0.998779 0.461463 0.000000
0.000000 0.509728 0.240757
0.000000 0.529015 0.202548
0.454322 0.561944 0.000000
0.845701 0.621454 0.000000
0.993591 0.637232 0.000000
0.000000 0.798459 0.457954
0.000000 0.802731 0.437720
0.000000 0.805600 0.290410
0.709987 0.788968 0.000000
0.970733 0.803647 0.000000
0.000000 0.958495 0.617456
0.000000 0.960204 0.611658
0.190433 0.947723 0.635645
0.465583 0.946136 0.496101
0.880522 0.929107 0.397467
0.003510 0.077821 0.159518
0.198001 0.030488 0.167941
0.586450 0.000000 0.111055
0.849271 0.183810 0.000000
0.997833 0.393194 0.000000
0.000000 0.168093 0.193454
0.161715 0.186679 0.190402
0.595941 0.210941 0.131838
0.848783 0.335821 0.000000
0.996002 0.460700 0.000000
0.000000 0.525475 0.327001
0.000000 0.545434 0.320256
0.478645 0.566735 0.169223
0.843717 0.619837 0.061555
0.990021 0.634119 0.000000
0.000000 0.802731 0.511406
0.000000 0.806668 0.502617
0.242222 0.803494 0.451331
0.716579 0.789700 0.245640
0.967468 0.805081 0.231144
0.000000 0.959625 0.644038
0.000000 0.961181 0.638697
0.207553 0.949065 0.662318
0.513512 0.943359 0.563500
0.880522 0.928954 0.478798
0.000000 0.082399 0.520012
0.000000 0.029114 0.536584
0.646509 0.000000 0.527092
0.817197 0.194583 0.426276
0.980133 0.405798 0.376562
0.000000 0.208927 0.517205
0.000000 0.195377 0.541070
0.624811 0.195621 0.540642
0.808469 0.321172 0.438819
0.978790 0.466224 0.386358
0.000000 0.531456 0.583215
0.000000 0.548363 0.582696
0.545464 0.594232 0.583978
0.806699 0.606256 0.521599
0.970977 0.633661 0.447944
0.000000 0.806516 0.655177
0.000000 0.814023 0.652430
0.416785 0.806027 0.656184
0.732448 0.793668 0.576776
0.952605 0.814359 0.574243
0.000000 0.963592 0.726009
0.000000 0.964843 0.721736
0.000000 0.955688 0.722469
0.644099 0.932708 0.723964
0.880735 0.927337 0.641566
0.000000 0.110353 0.778958
0.000000 0.091463 0.783444
0.580407 0.000000 0.799008
0.850462 0.296300 0.748379
0.951659 0.551873 0.711879
0.000000 0.250431 0.775174
0.000000 0.224643 0.780636
0.560266 0.259098 0.795438
0.839078 0.426490 0.754330
0.945129 0.591150 0.719570
0.000000 0.526726 0.769833
0.000000 0.534752 0.767697
0.491279 0.573175 0.780789
0.807736 0.643122 0.773281
0.926848 0.683070 0.737514
0.000000 0.776455 0.800656
0.000000 0.780148 0.799527
0.410285 0.787045 0.796841
0.769802 0.808591 0.801541
0.933013 0.805234 0.761715
0.000000 0.959411 0.846616
0.000000 0.961334 0.844053
0.000000 0.956725 0.835813
0.694728 0.934966 0.836545
0.888701 0.926970 0.794064
0.000000 0.203433 0.930632
0.000000 0.206119 0.930724
0.547234 0.253361 0.931212
0.833341 0.445930 0.927672
0.963867 0.621088 0.880400
0.000000 0.304753 0.928008
0.000000 0.316411 0.928038
0.538048 0.374517 0.928130
0.825498 0.521233 0.926238
0.960082 0.654200 0.883482
0.000000 0.559289 0.916899
0.000000 0.561303 0.917540
0.489296 0.588739 0.919249
0.798032 0.667994 0.923217
0.950713 0.737484 0.893950
0.000000 0.766262 0.922423
0.000000 0.766079 0.920928
0.337499 0.764645 0.915038
0.730007 0.787259 0.915343
0.937957 0.835264 0.911009
0.000000 0.926024 0.937011
0.000000 0.927031 0.936553
0.000000 0.925628 0.934844
0.674800 0.922606 0.930327
0.918059 0.935821 0.932860
