data/fiter_cube/96471014/1022814/file.cube
# Created by Adobe Lightroom plugin Export LUT (1.17.0)
# www.johnrellis.com/lightroom/exportlut.htm
# Preset: 复古预设1
# Color profile: C:\Program Files (x86)\Common Files\Adobe\Color\Profiles\Recommended\AdobeRGB1998.icc
LUT_3D_SIZE 32
DOMAIN_MIN 0.0 0.0 0.0
DOMAIN_MAX 1.0 1.0 1.0
0.049531 0.090639 0.111910
0.055787 0.091157 0.112459
0.060945 0.091920 0.113008
0.071138 0.093904 0.114595
0.088472 0.097078 0.116976
0.113893 0.100435 0.118593
0.149599 0.102907 0.119936
0.196658 0.104402 0.120638
0.257664 0.101259 0.120760
0.331212 0.089815 0.119356
0.413367 0.063996 0.116274
0.496590 0.000000 0.111513
0.573663 0.000000 0.104952
0.652338 0.000000 0.096620
0.720790 0.065766 0.087495
0.771817 0.120119 0.081300
0.811215 0.161563 0.078523
0.843259 0.196506 0.080476
0.870359 0.227146 0.086580
0.895079 0.256474 0.097200
0.917449 0.284123 0.112276
0.937530 0.310124 0.130343
0.955230 0.334508 0.150637
0.971038 0.357733 0.173861
0.985260 0.380133 0.198703
0.998322 0.402686 0.225925
1.000000 0.426246 0.256291
1.000000 0.451026 0.290684
1.000000 0.477516 0.329015
1.000000 0.505882 0.371954
1.000000 0.536278 0.419501
1.000000 0.567773 0.469795
0.049409 0.092653 0.113466
0.051850 0.092775 0.114076
0.061585 0.094179 0.112642
0.071748 0.096101 0.114046
0.089723 0.099336 0.115999
0.114473 0.102937 0.117800
0.149508 0.106447 0.119295
0.195773 0.108156 0.120027
0.255680 0.106050 0.119783
0.328222 0.097230 0.118563
0.408942 0.077974 0.115541
0.491524 0.029603 0.110658
0.568231 0.000000 0.104250
0.647150 0.000000 0.095277
0.713771 0.080690 0.085939
0.764340 0.126131 0.079286
0.803861 0.163577 0.075715
0.836423 0.196689 0.076326
0.864134 0.226444 0.081666
0.889372 0.254673 0.091554
0.912352 0.281804 0.105806
0.932982 0.307317 0.123903
0.951171 0.331670 0.144137
0.967468 0.354559 0.167178
0.982177 0.376867 0.191806
0.995636 0.399420 0.219059
1.000000 0.422736 0.249454
1.000000 0.447517 0.283543
1.000000 0.474037 0.322118
1.000000 0.502525 0.365332
1.000000 0.532769 0.412512
1.000000 0.564446 0.463355
0.049439 0.095369 0.115572
0.052186 0.095216 0.115969
0.055024 0.095583 0.117128
0.071809 0.099886 0.113985
0.090608 0.103151 0.115084
0.115663 0.106996 0.116701
0.149966 0.110689 0.118166
0.195499 0.113436 0.118868
0.254612 0.112978 0.118746
0.326177 0.106142 0.117342
0.406287 0.091798 0.114260
0.488594 0.069978 0.108980
0.565179 0.046326 0.102144
0.645014 0.063844 0.092744
0.709895 0.102266 0.083223
0.760006 0.138582 0.075807
0.799680 0.172396 0.070741
0.832425 0.202579 0.071015
0.860502 0.230411 0.076387
0.886107 0.257877 0.085786
0.909545 0.284123 0.100557
0.930541 0.308934 0.119234
0.949096 0.332555 0.139528
0.965637 0.355016 0.161990
0.980529 0.377050 0.186862
0.994202 0.399084 0.214542
1.000000 0.422248 0.244785
1.000000 0.446876 0.279332
1.000000 0.473182 0.318029
1.000000 0.501518 0.361212
1.000000 0.531548 0.408484
1.000000 0.562951 0.459052
0.048219 0.101656 0.120546
0.051698 0.101991 0.120882
0.054566 0.101564 0.121279
0.060548 0.102388 0.123476
0.085451 0.111696 0.117800
0.118837 0.116884 0.114382
0.153475 0.121218 0.115785
0.198825 0.125277 0.116518
0.257053 0.126497 0.116274
0.328008 0.123476 0.114534
0.406775 0.115511 0.110964
0.487770 0.104921 0.105074
0.563470 0.100038 0.097688
0.644251 0.112551 0.086244
0.706600 0.136782 0.075990
0.755581 0.164553 0.066651
0.795010 0.192142 0.060792
0.827665 0.217685 0.059693
0.855711 0.242191 0.064851
0.881315 0.266606 0.074586
0.904845 0.290501 0.089845
0.926268 0.313756 0.108705
0.945495 0.336492 0.130007
0.962921 0.358648 0.153658
0.978698 0.380499 0.179965
0.993133 0.402686 0.208835
1.000000 0.425818 0.240421
1.000000 0.450172 0.275669
1.000000 0.476020 0.314549
1.000000 0.503532 0.357885
1.000000 0.532677 0.404761
1.000000 0.563256 0.455024
0.044648 0.110384 0.126558
0.050019 0.111086 0.127413
0.053132 0.110506 0.126528
0.059907 0.110109 0.127962
0.066346 0.111971 0.131685
0.101289 0.128023 0.122988
0.153719 0.138766 0.113497
0.201846 0.143984 0.112459
0.259495 0.147097 0.111910
0.328618 0.148165 0.109834
0.406012 0.146120 0.105470
0.485756 0.143191 0.098848
0.565301 0.145327 0.089265
0.641993 0.158633 0.075929
0.702205 0.177371 0.062074
0.751217 0.199405 0.041169
0.791379 0.221439 0.023743
0.824826 0.243290 0.019104
0.853391 0.264225 0.030152
0.879118 0.285191 0.053376
0.902556 0.305974 0.074861
0.924010 0.326696 0.095369
0.943389 0.347204 0.118929
0.961120 0.367590 0.144289
0.977203 0.388159 0.171389
0.991943 0.409125 0.200961
1.000000 0.431159 0.233097
1.000000 0.454414 0.268772
1.000000 0.479072 0.307652
1.000000 0.505608 0.351019
1.000000 0.533959 0.398291
1.000000 0.563775 0.448493
0.039185 0.121553 0.133425
0.045197 0.122377 0.134371
0.050202 0.122194 0.133852
0.056733 0.120943 0.133059
0.065949 0.121248 0.136019
0.075380 0.125154 0.141543
0.122683 0.150423 0.129976
0.188144 0.167880 0.116091
0.267124 0.176516 0.104799
0.335760 0.180056 0.101961
0.411902 0.182467 0.096468
0.489845 0.184604 0.088014
0.573327 0.192996 0.074006
0.644587 0.206546 0.053346
0.702235 0.222202 0.015229
0.750332 0.240269 0.000000
0.790249 0.258274 0.000000
0.823758 0.275822 0.000000
0.852628 0.293065 0.000000
0.878630 0.310735 0.000000
0.902403 0.328954 0.040467
0.924132 0.347143 0.078157
0.966796 0.396246 0.138125
0.981659 0.413184 0.166873
0.995026 0.430335 0.196170
1.000000 0.448127 0.227329
1.000000 0.467048 0.260655
1.000000 0.487282 0.296544
1.000000 0.509300 0.335576
1.000000 0.533257 0.378576
1.000000 0.558801 0.424628
1.000000 0.585351 0.472358
0.028229 0.137697 0.142489
0.033875 0.138613 0.143526
0.042512 0.139620 0.144198
0.052461 0.138155 0.141421
0.063569 0.136507 0.143038
0.075959 0.139376 0.147677
0.091402 0.147127 0.156435
0.157565 0.184787 0.140139
0.243870 0.209964 0.118624
0.349554 0.225925 0.094362
0.440711 0.232364 0.076844
0.528099 0.242557 0.057832
0.609064 0.257420 0.000000
0.673823 0.271244 0.000000
0.725612 0.284550 0.000000
0.768032 0.297246 0.000000
0.803922 0.309972 0.000000
0.834836 0.322606 0.000000
0.862364 0.335760 0.000000
0.888182 0.350469 0.000000
0.912627 0.366735 0.000000
0.935454 0.383948 0.065064
0.956146 0.401953 0.104860
0.974548 0.420020 0.140749
0.990539 0.438056 0.175753
1.000000 0.455695 0.210758
1.000000 0.473671 0.245579
1.000000 0.492744 0.282841
1.000000 0.513420 0.323033
1.000000 0.535790 0.365728
1.000000 0.560082 0.412207
1.000000 0.585595 0.460548
0.013245 0.155245 0.151980
0.019959 0.156435 0.152743
0.029023 0.158206 0.154177
0.042390 0.156924 0.151461
0.057740 0.154574 0.149355
0.072847 0.155398 0.154147
0.089357 0.160067 0.160769
0.111330 0.172671 0.173373
0.194186 0.220401 0.152529
0.297765 0.252171 0.123476
0.420172 0.278569 0.085542
0.541009 0.298924 0.000000
0.614527 0.311589 0.000000
0.674311 0.322332 0.000000
0.723476 0.332311 0.000000
0.764858 0.341100 0.000000
0.800259 0.349920 0.000000
0.831052 0.358770 0.000000
0.858640 0.368627 0.000000
0.884581 0.379797 0.000000
0.909117 0.392554 0.000000
0.932036 0.406500 0.000000
0.952911 0.421393 0.070649
0.971496 0.436591 0.116732
0.987823 0.451820 0.155276
1.000000 0.467231 0.192355
1.000000 0.483162 0.228977
1.000000 0.500267 0.267277
1.000000 0.519249 0.307866
1.000000 0.540032 0.351659
1.000000 0.563012 0.398718
1.000000 0.587396 0.447913
0.000000 0.176913 0.163149
0.000000 0.178378 0.164065
0.008606 0.180240 0.165347
0.025574 0.180240 0.163821
0.046723 0.178012 0.159854
0.066468 0.174594 0.161837
0.086885 0.180179 0.168582
0.108797 0.187686 0.177829
0.139895 0.206455 0.195499
0.250645 0.270726 0.171786
0.377691 0.313573 0.130800
0.502312 0.343755 0.072724
0.605493 0.366033 0.000000
0.678523 0.377661 0.000000
0.725124 0.383612 0.000000
0.764950 0.389044 0.000000
0.799496 0.394141 0.000000
0.829862 0.399756 0.000000
0.857145 0.405859 0.000000
0.882933 0.413550 0.000000
0.907286 0.423072 0.000000
0.930144 0.433753 0.000000
0.950958 0.445106 0.000000
0.969574 0.457404 0.084688
0.986023 0.469886 0.131777
1.000000 0.482643 0.173129
1.000000 0.496315 0.211887
1.000000 0.511223 0.251530
1.000000 0.528099 0.293370
1.000000 0.547051 0.337743
1.000000 0.568078 0.385107
1.000000 0.590784 0.434607
0.000000 0.202579 0.175937
0.000000 0.203891 0.176791
0.000000 0.205814 0.178042
0.002319 0.207279 0.177829
0.027039 0.205020 0.173281
0.056947 0.202121 0.170413
0.080079 0.202029 0.177127
0.107424 0.211765 0.187015
0.138796 0.226200 0.201938
0.185885 0.255558 0.227939
0.316777 0.327764 0.197299
0.448249 0.373053 0.144991
0.563500 0.403967 0.071901
0.652979 0.423743 0.000000
0.722255 0.435279 0.000000
0.767025 0.439002 0.000000
0.801602 0.441596 0.000000
0.831754 0.444068 0.000000
0.858701 0.447181 0.000000
0.883726 0.451301 0.000000
0.907164 0.456947 0.000000
0.928923 0.463569 0.000000
0.948882 0.471138 0.000000
0.966949 0.479591 0.000000
0.983215 0.488869 0.097017
0.997711 0.498970 0.145968
1.000000 0.510399 0.189731
1.000000 0.523430 0.232059
1.000000 0.538506 0.275792
1.000000 0.555810 0.322026
1.000000 0.575402 0.371344
1.000000 0.596948 0.422644
0.000000 0.230259 0.189792
0.000000 0.231693 0.190524
0.000000 0.233707 0.191836
0.000000 0.236912 0.193545
0.000092 0.234867 0.188540
0.035554 0.233005 0.184146
0.071809 0.231876 0.188022
0.103334 0.241062 0.198886
0.139925 0.256046 0.213291
0.180331 0.273198 0.231540
0.241581 0.308659 0.263523
0.383978 0.385840 0.227970
0.512200 0.432136 0.167910
0.614679 0.461402 0.090089
0.693111 0.477272 0.000000
0.754360 0.485634 0.000000
0.801602 0.487465 0.000000
0.831144 0.487037 0.000000
0.857664 0.487037 0.000000
0.882475 0.488258 0.000000
0.905669 0.490852 0.000000
0.927428 0.494728 0.000000
0.947448 0.499672 0.000000
0.965576 0.505364 0.000000
0.981903 0.511955 0.019013
0.996460 0.519341 0.115633
1.000000 0.528069 0.165713
1.000000 0.538506 0.211307
1.000000 0.551141 0.257023
1.000000 0.566003 0.304143
1.000000 0.583429 0.354406
1.000000 0.603113 0.406836
0.000000 0.263951 0.206271
0.000000 0.265873 0.207248
0.000000 0.268437 0.208957
0.000000 0.273899 0.212772
0.000000 0.273960 0.208682
0.002716 0.272892 0.203922
0.055573 0.271397 0.200931
0.093904 0.270451 0.210575
0.136416 0.286687 0.225010
0.182162 0.304997 0.243137
0.232700 0.325475 0.265660
0.306981 0.367163 0.303899
0.510307 0.496101 0.293553
0.622431 0.537713 0.220737
0.704524 0.556573 0.138643
0.766781 0.562829 0.000000
0.814908 0.561517 0.000000
0.853452 0.556359 0.000000
0.880858 0.549676 0.000000
0.902312 0.545769 0.000000
0.922515 0.543511 0.000000
0.941375 0.542657 0.000000
0.958740 0.542901 0.000000
0.974792 0.544488 0.000000
0.989441 0.547265 0.000000
1.000000 0.551415 0.097322
1.000000 0.557031 0.155795
1.000000 0.564385 0.204440
1.000000 0.573846 0.251743
1.000000 0.585962 0.300298
1.000000 0.600519 0.350744
1.000000 0.617334 0.403021
0.000000 0.316930 0.232364
0.000000 0.318853 0.233524
0.000000 0.320775 0.234928
0.000000 0.325597 0.238437
0.000000 0.325963 0.235874
0.000000 0.323308 0.229343
0.026246 0.320470 0.223636
0.086061 0.316991 0.226902
0.131868 0.324743 0.240604
0.186587 0.346410 0.260410
0.247349 0.371618 0.285435
0.313115 0.399847 0.316258
0.404974 0.452949 0.367559
0.549889 0.536858 0.330236
0.653956 0.577630 0.261021
0.729885 0.595514 0.185641
0.787106 0.599786 0.080720
0.831479 0.596521 0.000000
0.867765 0.590143 0.000000
0.899229 0.581781 0.000000
0.919371 0.577111 0.000000
0.938293 0.573663 0.000000
0.955718 0.571710 0.000000
0.971862 0.570825 0.000000
0.986725 0.571160 0.000000
1.000000 0.572839 0.000000
1.000000 0.576013 0.113802
1.000000 0.581018 0.173220
1.000000 0.588251 0.224949
1.000000 0.598077 0.276646
1.000000 0.610407 0.328466
1.000000 0.625330 0.383093
0.000000 0.356725 0.252689
0.000000 0.358434 0.253727
0.000000 0.360143 0.254826
0.000000 0.364172 0.258030
0.000000 0.366430 0.258244
0.000000 0.363287 0.251133
0.000000 0.360327 0.244480
0.067506 0.357336 0.239445
0.117922 0.353735 0.250614
0.175479 0.372778 0.269261
0.239170 0.397925 0.293339
0.307073 0.425879 0.322820
0.376440 0.455543 0.357366
0.467475 0.508904 0.413245
0.594232 0.583703 0.377386
0.685756 0.618097 0.307713
0.753323 0.631708 0.234714
0.804898 0.633387 0.150973
0.846525 0.629206 0.000000
0.881621 0.622339 0.000000
0.912047 0.614313 0.000000
0.935729 0.605982 0.000000
0.953338 0.601831 0.000000
0.969696 0.598810 0.000000
0.984710 0.597131 0.000000
0.998474 0.596490 0.000000
1.000000 0.597498 0.018128
1.000000 0.600305 0.136324
1.000000 0.605219 0.196384
1.000000 0.612696 0.251652
1.000000 0.622889 0.307012
1.000000 0.635676 0.363378
0.000000 0.396735 0.273381
0.000000 0.398505 0.274632
0.000000 0.399786 0.275517
0.000000 0.403510 0.278477
0.000000 0.407630 0.281682
0.000000 0.404334 0.274327
0.000000 0.401251 0.267155
0.058045 0.398383 0.260716
0.109071 0.395636 0.263798
0.161715 0.399420 0.278904
0.228397 0.424445 0.302190
0.298650 0.452064 0.330541
0.370184 0.480903 0.363714
0.438849 0.509789 0.401282
0.522911 0.561120 0.460517
0.631891 0.625299 0.426062
0.713344 0.654627 0.356878
0.773892 0.664790 0.285649
0.821714 0.665248 0.210666
0.861448 0.660639 0.115877
0.895323 0.653285 0.000000
0.924651 0.644556 0.000000
0.950652 0.632837 0.000000
0.967468 0.627497 0.000000
0.982727 0.623804 0.000000
0.996857 0.621485 0.000000
1.000000 0.620691 0.000000
1.000000 0.621790 0.083009
1.000000 0.624994 0.165469
1.000000 0.630823 0.228916
1.000000 0.639124 0.288457
1.000000 0.650141 0.348577
0.000000 0.436896 0.294896
0.000000 0.438788 0.296208
0.000000 0.440497 0.297398
0.000000 0.444312 0.300450
0.000000 0.450385 0.306035
0.000000 0.449531 0.300938
0.000000 0.447517 0.293736
0.052338 0.445716 0.287266
0.101350 0.443915 0.282414
0.156710 0.440955 0.294285
0.219272 0.455116 0.314397
0.291112 0.480690 0.341253
0.362646 0.506676 0.371984
0.431464 0.532494 0.406683
0.492683 0.557824 0.444373
0.566583 0.604120 0.504814
0.661311 0.659785 0.473060
0.735470 0.685908 0.406195
0.791897 0.695064 0.338537
0.837949 0.695796 0.269535
0.876524 0.691585 0.192905
0.909545 0.684108 0.078920
0.937896 0.674708 0.000000
0.963104 0.662745 0.000000
0.982574 0.652918 0.000000
0.996887 0.648829 0.000000
1.000000 0.646174 0.000000
1.000000 0.645258 0.000000
1.000000 0.646387 0.126986
1.000000 0.649744 0.201480
1.000000 0.655482 0.265507
1.000000 0.663783 0.327184
0.000000 0.474891 0.316136
0.000000 0.476173 0.316991
0.000000 0.477638 0.318151
0.000000 0.481086 0.321263
0.000000 0.486732 0.326452
0.000000 0.488655 0.325475
0.000000 0.486915 0.318425
0.052125 0.485451 0.311589
0.105043 0.483894 0.305882
0.151308 0.481910 0.308415
0.203098 0.478950 0.323125
0.277226 0.503777 0.349096
0.350896 0.529229 0.379187
0.421454 0.554131 0.412757
0.484688 0.578088 0.449287
0.538628 0.600488 0.487709
0.603937 0.642512 0.548852
0.687831 0.691707 0.520775
0.755276 0.714931 0.457557
0.808286 0.723354 0.393530
0.852049 0.723903 0.328405
0.889097 0.719448 0.259159
0.920867 0.711666 0.177554
0.948608 0.701808 0.000000
0.973266 0.689570 0.000000
0.995392 0.675227 0.000000
1.000000 0.670832 0.000000
1.000000 0.668208 0.000000
1.000000 0.667445 0.037049
1.000000 0.668757 0.164309
1.000000 0.672450 0.237522
1.000000 0.678614 0.303685
0.000000 0.514519 0.339391
0.000000 0.516350 0.340734
0.000000 0.545922 0.359899
0.000000 0.548974 0.362860
0.000000 0.553399 0.367987
0.000000 0.556878 0.371099
0.004059 0.554345 0.363134
0.095277 0.551812 0.355169
0.135927 0.549554 0.348150
0.170260 0.547448 0.342840
0.223484 0.543847 0.354437
0.283818 0.549523 0.374548
0.360266 0.572412 0.404517
0.431525 0.594598 0.437842
0.494209 0.615625 0.473884
0.548425 0.635584 0.511620
0.594476 0.654627 0.550652
0.650294 0.691615 0.609949
0.720912 0.732021 0.585748
0.780911 0.751125 0.526390
0.829252 0.757382 0.464698
0.870054 0.756588 0.401984
0.904906 0.750973 0.335363
0.935058 0.742153 0.262394
0.961303 0.730892 0.172061
0.984680 0.717525 0.000000
1.000000 0.702052 0.000000
1.000000 0.692195 0.000000
1.000000 0.689235 0.000000
1.000000 0.688472 0.113252
1.000000 0.690059 0.203799
1.000000 0.693874 0.275761
0.000000 0.560449 0.368383
0.000000 0.565026 0.371710
0.000000 0.570031 0.375494
0.000000 0.576013 0.380621
0.000000 0.582574 0.387213
0.000000 0.589227 0.395605
0.060578 0.588006 0.389014
0.111391 0.585901 0.381201
0.148898 0.584192 0.374151
0.182254 0.582483 0.368353
0.221653 0.580133 0.369421
0.273930 0.576257 0.384955
0.343175 0.590539 0.410864
0.415778 0.611292 0.442969
0.480018 0.630945 0.477424
0.536034 0.649744 0.513909
0.584314 0.667781 0.551537
0.625422 0.685176 0.589380
0.676204 0.719417 0.645838
0.739315 0.755489 0.627375
0.794675 0.773373 0.575463
0.840757 0.779995 0.520012
0.880064 0.779629 0.461677
0.913817 0.774563 0.400031
0.943328 0.765896 0.331640
0.969421 0.754910 0.253819
0.992798 0.741756 0.166873
1.000000 0.726589 0.000000
1.000000 0.711635 0.000000
1.000000 0.709071 0.000000
1.000000 0.708553 0.161868
1.000000 0.710262 0.244633
0.000000 0.595239 0.391943
0.000000 0.599359 0.395209
0.000000 0.603723 0.398718
0.000000 0.608850 0.403540
0.000000 0.614557 0.409949
0.000000 0.620203 0.417792
0.095521 0.621302 0.416541
0.133944 0.619837 0.409400
0.167636 0.618647 0.402594
0.199191 0.617182 0.396460
0.230014 0.615747 0.392035
0.277501 0.612818 0.402380
0.327672 0.610254 0.419501
0.402197 0.629847 0.451026
0.468208 0.648310 0.484627
0.525719 0.665949 0.519921
0.575769 0.683009 0.556634
0.618769 0.699489 0.593286
0.655909 0.715663 0.629389
0.701656 0.746792 0.682643
0.757717 0.778561 0.669123
0.808652 0.795224 0.624475
0.851896 0.801907 0.576532
0.889128 0.801816 0.523827
0.921752 0.796872 0.465278
0.950591 0.788632 0.401312
0.976532 0.777890 0.329351
0.999908 0.765225 0.259068
1.000000 0.750546 0.179751
1.000000 0.734066 0.000000
1.000000 0.727352 0.097078
1.000000 0.727047 0.206119
0.000000 0.629694 0.417090
0.000000 0.633326 0.420264
0.000000 0.637232 0.423774
0.000000 0.641779 0.428473
0.000000 0.646571 0.434638
0.000000 0.651270 0.441932
0.130922 0.654200 0.446296
0.161624 0.652918 0.439521
0.191409 0.651698 0.432715
0.220279 0.650263 0.426368
0.249363 0.649104 0.421729
0.282048 0.647272 0.421241
0.331609 0.643214 0.437018
0.388952 0.648402 0.460212
0.456947 0.666133 0.493385
0.516655 0.683406 0.528710
0.569299 0.700465 0.565820
0.615106 0.717189 0.603204
0.654871 0.733547 0.640040
0.689082 0.749325 0.675715
0.730770 0.777920 0.726345
0.780484 0.805997 0.718929
0.826627 0.820920 0.681666
0.866423 0.827420 0.642329
0.901122 0.827726 0.598169
0.932036 0.823484 0.547753
0.960204 0.815793 0.489357
0.985992 0.805539 0.423285
1.000000 0.793210 0.362890
1.000000 0.778622 0.298192
1.000000 0.761685 0.219028
1.000000 0.748348 0.176761
0.000000 0.675074 0.453925
0.000000 0.676875 0.455818
0.000000 0.678614 0.457832
0.000000 0.680964 0.461250
0.000000 0.683803 0.466041
0.081422 0.686946 0.472541
0.173098 0.690730 0.481666
0.200961 0.690028 0.476509
0.227390 0.689357 0.470558
0.254582 0.688716 0.465156
0.282322 0.688136 0.460945
0.310338 0.687160 0.458015
0.350378 0.684413 0.466499
0.394537 0.680415 0.483406
0.455818 0.691798 0.512963
0.516289 0.707607 0.547723
0.569116 0.722988 0.583490
0.614954 0.737911 0.619104
0.654810 0.752316 0.653834
0.689326 0.766171 0.687282
0.718990 0.779416 0.719020
0.755489 0.803586 0.762722
0.798489 0.826932 0.757229
0.839384 0.839506 0.724422
0.875853 0.845365 0.689998
0.908232 0.845975 0.652003
0.937621 0.842649 0.609033
0.964782 0.836179 0.559350
0.990265 0.826932 0.500237
1.000000 0.815610 0.449683
1.000000 0.802090 0.394049
1.000000 0.786740 0.332280
0.000000 0.707912 0.482948
0.000000 0.709590 0.485023
0.000000 0.711299 0.487221
0.000000 0.713344 0.490547
0.000000 0.715541 0.495094
0.122774 0.717800 0.501030
0.196353 0.720455 0.509422
0.236576 0.721157 0.510399
0.259739 0.720272 0.504784
0.284489 0.719570 0.499733
0.310094 0.718898 0.495369
0.336248 0.718105 0.492561
0.362127 0.716793 0.491066
0.406592 0.713222 0.507439
0.448859 0.711482 0.526848
0.510338 0.726314 0.561151
0.564141 0.740566 0.596124
0.611017 0.754452 0.630732
0.651942 0.767910 0.664668
0.687556 0.780850 0.697322
0.718502 0.793271 0.728206
0.745266 0.805112 0.756710
0.778286 0.826200 0.794247
0.816251 0.846494 0.791623
0.850004 0.854490 0.758083
0.883818 0.860472 0.729732
0.914305 0.861692 0.698024
0.942260 0.859403 0.662287
0.968231 0.854215 0.621088
0.992432 0.846586 0.575189
1.000000 0.837400 0.536339
1.000000 0.826658 0.495277
0.000000 0.749020 0.523583
0.000000 0.750668 0.525811
0.000000 0.751827 0.527855
0.000000 0.752865 0.530510
0.114687 0.753902 0.534295
0.179080 0.754879 0.539544
0.236759 0.756008 0.546715
0.285801 0.756771 0.553552
0.304509 0.755123 0.547326
0.324987 0.753536 0.541650
0.346563 0.751919 0.536614
0.369238 0.750423 0.532738
0.392493 0.748745 0.530510
0.422644 0.745815 0.536034
0.459968 0.741390 0.551629
0.504845 0.744106 0.574914
0.557733 0.756161 0.607050
0.604395 0.768124 0.639368
0.645808 0.780209 0.671687
0.682521 0.792325 0.703426
0.714687 0.804013 0.733700
0.742641 0.815091 0.761318
0.766629 0.825284 0.785763
0.796323 0.843381 0.817472
0.829526 0.860594 0.815702
0.862211 0.870207 0.791348
0.893309 0.876097 0.768490
0.921386 0.877806 0.743130
0.947387 0.876371 0.714626
0.971527 0.872496 0.682246
0.993500 0.867033 0.651209
1.000000 0.860807 0.627527
0.000000 0.778225 0.555261
0.000000 0.779599 0.557488
0.068879 0.780636 0.559442
0.120882 0.781399 0.562127
0.170321 0.781979 0.565667
0.219059 0.782467 0.570611
0.268315 0.783108 0.577508
0.319432 0.783841 0.586908
0.343877 0.783200 0.585565
0.362676 0.782162 0.581109
0.382727 0.781064 0.577203
0.404120 0.780117 0.574426
0.426001 0.778958 0.572930
0.447669 0.777432 0.572747
0.481117 0.774166 0.585412
0.513695 0.770352 0.601251
0.560693 0.777646 0.628870
0.607141 0.788327 0.659754
0.648432 0.799008 0.690425
0.684993 0.809598 0.720211
0.717220 0.819913 0.748409
0.745357 0.829709 0.774044
0.769833 0.838865 0.796780
0.790982 0.847318 0.816770
0.817227 0.862455 0.842405
0.846281 0.877165 0.841886
0.875303 0.885679 0.821805
0.903777 0.891691 0.804532
0.929564 0.894194 0.786130
0.953185 0.894102 0.766354
0.974762 0.891997 0.744808
0.993469 0.889189 0.729152
0.140414 0.808774 0.592401
0.154757 0.809689 0.594202
0.168978 0.810086 0.595666
0.193942 0.810208 0.597620
0.226535 0.810056 0.600580
0.264378 0.809873 0.604852
0.305638 0.809628 0.610864
0.350103 0.809659 0.619348
0.385290 0.809445 0.624903
0.401862 0.808530 0.621210
0.420081 0.807614 0.618006
0.439551 0.806912 0.616022
0.459510 0.806119 0.614984
0.479561 0.804959 0.614923
0.501701 0.803128 0.618372
0.533165 0.799710 0.633143
0.563439 0.797421 0.649775
0.609339 0.806485 0.678737
0.650141 0.815732 0.707485
0.686580 0.824979 0.735378
0.718685 0.834043 0.761501
0.746975 0.842802 0.785275
0.771695 0.850950 0.806424
0.793301 0.858579 0.825040
0.812009 0.865537 0.841215
0.835477 0.878386 0.862211
0.861051 0.891081 0.862791
0.887022 0.898802 0.846159
0.912963 0.904875 0.833066
0.936614 0.908171 0.820340
0.957794 0.909361 0.807675
0.976410 0.909209 0.795529
0.217380 0.835172 0.627771
0.225834 0.835630 0.629236
0.235691 0.835935 0.630640
0.254246 0.835996 0.632685
0.280735 0.835935 0.636042
0.313237 0.836057 0.641138
0.351110 0.836545 0.648585
0.392676 0.837339 0.658625
0.436591 0.838437 0.671382
0.456031 0.839139 0.672084
0.474678 0.839780 0.672328
0.494057 0.840391 0.673152
0.513542 0.840726 0.674617
0.532616 0.840604 0.676417
0.551110 0.839994 0.678859
0.575006 0.837980 0.688045
0.601526 0.835264 0.702266
0.632929 0.836545 0.721309
0.671199 0.843748 0.746578
0.705196 0.851041 0.770382
0.735348 0.858274 0.792386
0.762112 0.865232 0.812284
0.785702 0.871763 0.829953
0.806363 0.877928 0.845487
0.824521 0.883635 0.859129
0.840421 0.888975 0.871153
0.860319 0.899077 0.886900
0.881743 0.909331 0.887846
0.904021 0.916045 0.875029
0.926574 0.921691 0.865751
0.947021 0.925322 0.857908
0.964599 0.927337 0.851133
0.316411 0.868711 0.680354
0.322057 0.868894 0.681483
0.328313 0.868772 0.682368
0.341100 0.868406 0.684016
0.360296 0.867765 0.686702
0.384680 0.867094 0.690761
0.413703 0.866514 0.696559
0.446143 0.866087 0.704189
0.481514 0.865782 0.713954
0.507225 0.865660 0.719478
0.521477 0.865354 0.718532
0.536980 0.865110 0.718288
0.552819 0.864714 0.718532
0.568902 0.864134 0.719417
