data/fiter_cube/96471014/1022814/file.cube
# Created by Adobe Lightroom plugin Export LUT (1.17.0)
# www.johnrellis.com/lightroom/exportlut.htm
# Preset: 复古预设1
# Color profile: C:\Program Files (x86)\Common Files\Adobe\Color\Profiles\Recommended\AdobeRGB1998.icc
LUT_3D_SIZE 8
DOMAIN_MIN 0.000000 0.000000 0.000000
DOMAIN_MAX 0.903226 0.903226 0.903226
0.049531 0.090639 0.111910
0.088472 0.097078 0.116976
0.257664 0.101259 0.120760
0.573663 0.000000 0.104952
0.811215 0.161563 0.078523
0.917449 0.284123 0.112276
0.985260 0.380133 0.198703
1.000000 0.477516 0.329015
0.044648 0.110384 0.126558
0.066346 0.111971 0.131685
0.259495 0.147097 0.111910
0.565301 0.145327 0.089265
0.791379 0.221439 0.023743
0.902556 0.305974 0.074861
0.977203 0.388159 0.171389
1.000000 0.479072 0.307652
0.000000 0.176913 0.163149
0.046723 0.178012 0.159854
0.139895 0.206455 0.195499
0.605493 0.366033 0.000000
0.799496 0.394141 0.000000
0.907286 0.423072 0.000000
0.986023 0.469886 0.131777
1.000000 0.528099 0.293370
0.000000 0.316930 0.232364
0.000000 0.325963 0.235874
0.131868 0.324743 0.240604
0.404974 0.452949 0.367559
0.787106 0.599786 0.080720
0.919371 0.577111 0.000000
0.986725 0.571160 0.000000
1.000000 0.588251 0.224949
0.000000 0.474891 0.316136
0.000000 0.486732 0.326452
0.105043 0.483894 0.305882
0.350896 0.529229 0.379187
0.603937 0.642512 0.548852
0.852049 0.723903 0.328405
0.973266 0.689570 0.000000
1.000000 0.667445 0.037049
0.000000 0.629694 0.417090
0.000000 0.646571 0.434638
0.191409 0.651698 0.432715
0.331609 0.643214 0.437018
0.569299 0.700465 0.565820
0.730770 0.777920 0.726345
0.901122 0.827726 0.598169
1.000000 0.793210 0.362890
0.000000 0.778225 0.555261
0.170321 0.781979 0.565667
0.343877 0.783200 0.585565
0.426001 0.778958 0.572930
0.560693 0.777646 0.628870
0.717220 0.819913 0.748409
0.817227 0.862455 0.842405
0.929564 0.894194 0.786130
0.380133 0.891020 0.718624
0.415503 0.889952 0.724453
0.520165 0.887724 0.749538
0.595117 0.887358 0.762112
0.636103 0.875608 0.754757
0.743923 0.884306 0.819486
0.833738 0.904906 0.876402
0.891508 0.923552 0.913817
0.031983 0.091005 0.131746
0.086000 0.090639 0.133181
0.224125 0.107637 0.131106
0.535729 0.094820 0.107332
0.777829 0.184176 0.060182
0.893828 0.278386 0.082826
0.972351 0.367193 0.171450
1.000000 0.461830 0.304509
0.027131 0.108949 0.135378
0.075166 0.119448 0.139834
0.233249 0.143771 0.131685
0.543328 0.162295 0.100618
0.771511 0.238376 0.000000
0.887724 0.308171 0.031678
0.966369 0.379675 0.148836
1.000000 0.463783 0.283482
0.000000 0.175479 0.170535
0.061158 0.184817 0.176761
0.152529 0.218631 0.209842
0.579767 0.333532 0.033234
0.774868 0.379278 0.000000
0.890471 0.415595 0.000000
0.970733 0.454170 0.093019
1.000000 0.511528 0.263951
0.000000 0.303532 0.234501
0.000000 0.321263 0.248203
0.136904 0.319341 0.249882
0.375982 0.426490 0.360418
0.751644 0.559716 0.106447
0.894072 0.552972 0.000000
0.970703 0.555261 0.000000
1.000000 0.574945 0.195682
0.000000 0.469276 0.321263
0.000000 0.479316 0.330205
0.121614 0.478309 0.315526
0.338598 0.511589 0.376593
0.585840 0.623560 0.536156
0.840208 0.708644 0.321477
0.965423 0.679652 0.000000
1.000000 0.660792 0.000000
0.000000 0.617121 0.413977
0.000000 0.625055 0.423285
0.185733 0.634546 0.428412
0.322087 0.629755 0.431617
0.560906 0.690608 0.560845
0.728145 0.775174 0.727077
0.898436 0.823606 0.595300
1.000000 0.788022 0.343938
0.000000 0.762081 0.540490
0.094728 0.762264 0.545403
0.323583 0.768215 0.572900
0.413031 0.767910 0.563592
0.551019 0.769467 0.620783
0.710353 0.813474 0.741543
0.811124 0.856931 0.836851
0.925872 0.888853 0.775448
0.345342 0.884764 0.706691
0.387640 0.884703 0.714321
0.500542 0.883299 0.740261
0.587610 0.883635 0.757839
0.647791 0.881285 0.767727
0.746853 0.886015 0.823636
0.832334 0.903807 0.875792
0.889464 0.921965 0.912596
0.000000 0.091890 0.185214
0.054810 0.093416 0.191165
0.273320 0.000000 0.222171
0.510918 0.000000 0.198795
0.772000 0.145663 0.180270
0.893767 0.296788 0.161807
0.976318 0.385260 0.170535
1.000000 0.469398 0.314549
0.000000 0.108400 0.191196
0.054963 0.116396 0.200076
0.238590 0.112428 0.209140
0.516655 0.107057 0.198917
0.761563 0.206455 0.175967
0.887633 0.320836 0.153475
0.972168 0.398474 0.151003
1.000000 0.475227 0.299809
0.000000 0.178042 0.207614
0.000000 0.196506 0.217075
0.212009 0.249332 0.233829
0.557519 0.295140 0.195438
0.771511 0.358892 0.165225
0.889586 0.415686 0.138949
0.971984 0.462562 0.119356
1.000000 0.512261 0.268162
0.000000 0.310369 0.265629
0.000000 0.332006 0.278630
0.172457 0.354833 0.301427
0.442329 0.473640 0.394537
0.769253 0.549401 0.196323
0.892821 0.546960 0.105867
0.972259 0.559838 0.095003
1.000000 0.577111 0.207187
0.000000 0.465248 0.340978
0.000000 0.481270 0.352667
0.189273 0.509911 0.376471
0.377539 0.535760 0.427497
0.619806 0.655818 0.586023
0.847440 0.708888 0.376471
0.969146 0.669154 0.000000
1.000000 0.659571 0.000000
0.000000 0.615503 0.431098
0.000000 0.624994 0.441413
0.242710 0.646845 0.475898
0.349767 0.640009 0.464393
0.569055 0.692103 0.586908
0.732296 0.779721 0.747555
0.898222 0.820859 0.613275
1.000000 0.784237 0.380652
0.000000 0.764431 0.556176
0.000000 0.765713 0.561852
0.318761 0.770840 0.590234
0.435340 0.770382 0.592920
0.550713 0.766659 0.631586
0.714321 0.815091 0.754940
0.818540 0.863371 0.850523
0.930785 0.893156 0.792813
0.295689 0.885344 0.708522
0.336034 0.883787 0.711788
0.462928 0.881376 0.733852
0.591882 0.883635 0.769558
0.649287 0.881346 0.774472
0.745937 0.885679 0.827024
0.834989 0.905333 0.880613
0.893431 0.924865 0.917571
0.000000 0.091493 0.285924
0.000000 0.088472 0.308415
0.215457 0.043305 0.350439
0.621424 0.000000 0.392828
0.748989 0.000000 0.334081
0.869200 0.272465 0.338109
0.958343 0.389014 0.337743
1.000000 0.457710 0.335454
0.000000 0.104158 0.300298
0.000000 0.108095 0.317296
0.225467 0.102846 0.358953
0.606714 0.000000 0.384314
0.729122 0.174929 0.353582
0.866636 0.304295 0.336400
0.956115 0.404486 0.333898
1.000000 0.466163 0.329473
0.000000 0.168002 0.289494
0.000000 0.174166 0.301854
0.222721 0.244450 0.367193
0.518364 0.257633 0.364508
0.738369 0.331426 0.356420
0.872709 0.415869 0.349218
0.962737 0.481971 0.352148
1.000000 0.515221 0.335882
0.000000 0.304021 0.327489
0.000000 0.326543 0.340948
0.178897 0.393256 0.381323
0.505669 0.488716 0.420142
0.750668 0.509697 0.352697
0.871702 0.536614 0.342870
0.958526 0.561944 0.336950
1.000000 0.580407 0.328466
0.000000 0.466682 0.388647
0.000000 0.480201 0.395941
0.180362 0.529992 0.438117
0.419928 0.560449 0.495460
0.658930 0.683925 0.614862
0.856901 0.698268 0.443915
0.959777 0.670893 0.337835
1.000000 0.665126 0.326146
0.000000 0.619165 0.468971
0.000000 0.635096 0.482521
0.205783 0.659297 0.515831
0.417945 0.673152 0.544701
0.596490 0.711055 0.643915
0.753628 0.797513 0.770321
0.903655 0.819638 0.648157
1.000000 0.771267 0.414954
0.000000 0.761379 0.576440
0.000000 0.765438 0.583093
0.257481 0.775601 0.609522
0.480110 0.785702 0.655604
0.569787 0.780026 0.669062
0.725612 0.822843 0.781430
0.827939 0.871336 0.867521
0.935790 0.893858 0.804776
0.211246 0.889708 0.723476
0.272953 0.889708 0.728054
0.411170 0.887846 0.743130
0.577020 0.885893 0.780972
0.656123 0.883696 0.791958
0.740566 0.884672 0.830289
0.837369 0.906920 0.886625
0.898314 0.928344 0.923980
0.000000 0.087953 0.430396
0.000000 0.079957 0.458839
0.216587 0.000000 0.531975
0.551476 0.000000 0.579248
0.823850 0.000000 0.569299
0.874693 0.234134 0.506554
0.927520 0.469642 0.558984
0.996063 0.549340 0.578241
0.000000 0.096681 0.440558
0.000000 0.095674 0.464332
0.216251 0.067933 0.535424
0.558099 0.000000 0.585290
0.812222 0.000000 0.563836
0.865690 0.299474 0.514733
0.927550 0.483070 0.559472
0.996277 0.555291 0.575738
0.000000 0.150942 0.403418
0.000000 0.152834 0.435187
0.165743 0.202152 0.519707
0.553429 0.211002 0.586267
0.765927 0.283604 0.549950
0.826352 0.446265 0.545068
0.926238 0.519310 0.552972
0.996490 0.570336 0.559533
0.000000 0.269017 0.409735
0.000000 0.279576 0.421210
0.000000 0.327550 0.468360
0.522972 0.461677 0.578088
0.692836 0.506371 0.557458
0.833677 0.548333 0.550744
0.929412 0.586603 0.550774
1.000000 0.606073 0.537469
0.000000 0.438056 0.450385
0.000000 0.461799 0.466407
0.000000 0.519127 0.500786
0.471687 0.597314 0.587152
0.680751 0.673457 0.620600
0.841978 0.663539 0.545037
0.933165 0.669703 0.537560
1.000000 0.672786 0.523919
0.000000 0.595789 0.507683
0.000000 0.605432 0.513573
0.000000 0.633906 0.535698
0.429999 0.677241 0.605097
0.585534 0.699275 0.662593
0.764401 0.799557 0.771389
0.911192 0.802609 0.660548
1.000000 0.762875 0.538354
0.000000 0.749355 0.605188
0.000000 0.752041 0.607446
0.000000 0.762600 0.622065
0.423468 0.779263 0.668482
0.575006 0.787900 0.700130
0.721096 0.819638 0.792325
0.835447 0.875364 0.870298
0.941711 0.887541 0.804868
0.000000 0.882444 0.729030
0.000000 0.882048 0.730617
0.258640 0.881041 0.739284
0.489021 0.885191 0.772122
0.652461 0.884886 0.811795
0.723049 0.881651 0.827207
0.833646 0.905272 0.889036
0.900816 0.929961 0.928893
0.000000 0.077546 0.606867
0.000000 0.059815 0.632380
0.177005 0.000000 0.697719
0.561730 0.000000 0.772305
0.795102 0.000000 0.774899
0.917967 0.000000 0.695949
0.946960 0.433265 0.673274
0.972198 0.629145 0.740993
0.000000 0.079896 0.609369
0.000000 0.070710 0.627863
0.149142 0.000000 0.687709
0.556939 0.000000 0.767422
0.788144 0.000000 0.768795
0.909178 0.100069 0.694911
0.940612 0.462654 0.678492
0.968200 0.641260 0.745907
0.000000 0.128420 0.579644
0.000000 0.133944 0.600092
0.000000 0.153658 0.673060
0.558007 0.287846 0.770535
0.779019 0.235691 0.769650
0.884825 0.396338 0.707210
0.922545 0.555871 0.704860
0.959380 0.683558 0.766751
0.000000 0.237003 0.513664
0.000000 0.236454 0.521782
0.000000 0.261967 0.596704
0.495125 0.447028 0.740322
0.759030 0.528069 0.777676
0.845304 0.590478 0.732662
0.893950 0.665095 0.747189
0.964202 0.706233 0.763668
0.000000 0.392706 0.535790
0.000000 0.402502 0.544762
0.000000 0.442084 0.578973
0.283452 0.524926 0.647944
0.697078 0.664179 0.752987
0.794736 0.682673 0.730892
0.895445 0.707485 0.736049
0.970153 0.723964 0.737087
0.000000 0.566247 0.574426
0.000000 0.583978 0.587854
0.000000 0.628962 0.619867
0.297063 0.681239 0.660792
0.623041 0.732509 0.739467
0.784085 0.797452 0.782956
0.906035 0.782315 0.732021
0.978119 0.777523 0.722866
0.000000 0.742763 0.661219
0.000000 0.748775 0.665309
0.000000 0.761898 0.674708
0.281193 0.779873 0.699214
0.588037 0.801724 0.759548
0.713344 0.817716 0.807218
0.850156 0.883207 0.878599
0.955474 0.877806 0.811643
0.000000 0.880980 0.760800
0.000000 0.880949 0.760861
0.000000 0.881315 0.763638
0.337469 0.883024 0.778164
0.579614 0.883848 0.809842
0.716915 0.887022 0.840940
0.827970 0.903868 0.892760
0.907927 0.934539 0.934447
0.000000 0.063691 0.760006
0.000000 0.015076 0.777249
0.000000 0.000000 0.821378
0.523369 0.000000 0.871672
0.759060 0.000000 0.893309
0.908721 0.000000 0.859342
0.974548 0.244144 0.785153
0.991913 0.553368 0.783902
0.000000 0.053559 0.762142
0.000000 0.000000 0.778103
0.000000 0.000000 0.817563
0.510063 0.000000 0.864469
0.751247 0.000000 0.888273
0.902098 0.000000 0.855619
0.967590 0.298497 0.784146
0.987640 0.564080 0.783993
0.000000 0.104616 0.748501
0.000000 0.102846 0.761379
0.000000 0.078309 0.801389
0.478889 0.117678 0.855741
0.742336 0.298009 0.885832
0.891875 0.302831 0.859159
0.952728 0.476631 0.802884
0.978027 0.635828 0.807401
0.000000 0.207004 0.663661
0.000000 0.201785 0.681880
0.000000 0.201266 0.749020
0.371099 0.310094 0.828611
0.726192 0.554101 0.881315
0.873014 0.555535 0.868101
0.930053 0.633661 0.828275
0.963684 0.713008 0.833280
0.000000 0.352087 0.643122
0.000000 0.349889 0.645472
0.000000 0.344762 0.659297
0.000000 0.360784 0.718502
0.642512 0.622370 0.850156
0.839841 0.695277 0.869841
0.898558 0.729366 0.840574
0.944823 0.776272 0.853361
0.000000 0.525231 0.668788
0.000000 0.529320 0.672419
0.000000 0.545739 0.686366
0.000000 0.581079 0.716670
0.410498 0.644434 0.770077
0.793301 0.790890 0.866850
0.864775 0.800504 0.851041
0.943786 0.816861 0.859007
0.000000 0.690700 0.706355
0.000000 0.699275 0.712581
0.000000 0.725734 0.730831
0.000000 0.764462 0.759121
0.434943 0.792905 0.785794
0.731533 0.832700 0.849180
0.862119 0.879026 0.881712
0.954528 0.861448 0.850919
0.000000 0.868315 0.802976
0.000000 0.869932 0.803250
0.000000 0.877501 0.807004
0.000000 0.883604 0.811551
0.430945 0.884855 0.825010
0.688014 0.889372 0.859861
0.804990 0.896513 0.890654
0.918212 0.940246 0.940124
0.000000 0.057008 0.883391
0.000000 0.001526 0.890074
0.000000 0.000000 0.907134
0.451575 0.000000 0.931670
0.727596 0.000000 0.953033
0.890501 0.000000 0.957000
0.981292 0.000000 0.906706
1.000000 0.355108 0.845060
0.000000 0.052277 0.882597
0.000000 0.000000 0.889189
0.000000 0.000000 0.906554
0.448890 0.000000 0.930541
0.721706 0.000000 0.950835
0.885710 0.000000 0.955291
0.977752 0.000000 0.906554
1.000000 0.397589 0.848112
0.000000 0.051423 0.884886
0.000000 0.011688 0.889677
0.000000 0.000000 0.903044
0.406958 0.000000 0.926726
0.703883 0.247684 0.946197
0.872221 0.292699 0.951568
0.968017 0.340154 0.910277
1.000000 0.522728 0.862028
0.000000 0.163882 0.848173
0.000000 0.146212 0.856443
0.000000 0.135042 0.879149
0.210056 0.154269 0.910521
0.656703 0.398505 0.936645
0.849882 0.548089 0.946258
0.952483 0.560754 0.918608
0.989166 0.655207 0.882231
0.000000 0.333867 0.791043
0.000000 0.325109 0.792325
0.000000 0.289006 0.798184
0.000000 0.240391 0.859831
0.500114 0.434730 0.913970
0.820279 0.709895 0.939544
0.932769 0.710842 0.927977
0.972381 0.756588 0.900481
0.000000 0.517906 0.805264
0.000000 0.513024 0.804318
0.000000 0.496529 0.803403
0.000000 0.464515 0.806516
0.000000 0.410834 0.823789
0.727413 0.726650 0.921080
0.912261 0.818296 0.938293
0.955230 0.833188 0.916808
0.000000 0.694270 0.831266
0.000000 0.693782 0.831174
0.000000 0.692988 0.831846
0.000000 0.695521 0.836576
0.000000 0.703700 0.847135
0.428626 0.724636 0.865141
0.868437 0.877256 0.936004
0.930358 0.883207 0.925597
0.000000 0.843595 0.859129
0.000000 0.844358 0.858915
0.000000 0.848905 0.859525
0.000000 0.859373 0.862669
0.000000 0.880278 0.875181
0.512322 0.888701 0.884947
0.796902 0.903624 0.912688
0.929076 0.940856 0.946105
