data/fiter_cube/96471014/1022814/file.cube
# Created by Adobe Lightroom plugin Export LUT (1.17.0)
# www.johnrellis.com/lightroom/exportlut.htm
# Preset: 复古预设1
# Color profile: C:\Program Files (x86)\Common Files\Adobe\Color\Profiles\Recommended\AdobeRGB1998.icc
LUT_3D_SIZE 5
DOMAIN_MIN 0.000000 0.000000 0.000000
DOMAIN_MAX 0.903226 0.903226 0.903226
0.049531 0.090639 0.111910
0.196658 0.104402 0.120638
0.720790 0.065766 0.087495
0.937530 0.310124 0.130343
1.000000 0.477516 0.329015
0.013245 0.155245 0.151980
0.111330 0.172671 0.173373
0.723476 0.332311 0.000000
0.932036 0.406500 0.000000
1.000000 0.519249 0.307866
0.000000 0.396735 0.273381
0.058045 0.398383 0.260716
0.522911 0.561120 0.460517
0.924651 0.644556 0.000000
1.000000 0.624994 0.165469
0.000000 0.675074 0.453925
0.200961 0.690028 0.476509
0.455818 0.691798 0.512963
0.755489 0.803586 0.762722
0.990265 0.826932 0.500237
0.380133 0.891020 0.718624
0.489174 0.888151 0.740749
0.601801 0.876890 0.744900
0.770474 0.889891 0.836332
0.891508 0.923552 0.913817
0.000000 0.091676 0.166232
0.200229 0.068208 0.191104
0.668269 0.044862 0.155978
0.913725 0.316381 0.095857
1.000000 0.462684 0.304326
0.000000 0.154940 0.184512
0.158846 0.203799 0.201358
0.678798 0.286809 0.143709
0.912596 0.402289 0.063600
1.000000 0.500694 0.276982
0.000000 0.385138 0.292149
0.127230 0.418677 0.315007
0.521477 0.555322 0.473640
0.913268 0.615320 0.000000
1.000000 0.619165 0.155093
0.000000 0.669795 0.467720
0.230564 0.691585 0.506615
0.464698 0.690303 0.535302
0.759182 0.807340 0.779355
0.989410 0.823178 0.521447
0.333623 0.890318 0.717494
0.457130 0.887449 0.737636
0.623133 0.884215 0.770474
0.775326 0.892760 0.844511
0.895323 0.926329 0.918608
0.000000 0.090211 0.355047
0.141512 0.062989 0.427039
0.745815 0.000000 0.489326
0.879301 0.336675 0.443061
1.000000 0.494636 0.455207
0.000000 0.139162 0.346532
0.107027 0.173190 0.424659
0.691279 0.172580 0.465095
0.877440 0.413153 0.442237
1.000000 0.524895 0.447822
0.000000 0.369055 0.387213
0.000000 0.436133 0.425910
0.606744 0.589410 0.520653
0.882292 0.604700 0.443091
1.000000 0.626856 0.428870
0.000000 0.650172 0.512352
0.000000 0.670527 0.531945
0.495613 0.706264 0.604334
0.779995 0.822446 0.803128
0.995453 0.800168 0.545159
0.000000 0.884001 0.720912
0.302861 0.884825 0.735103
0.621088 0.884611 0.799130
0.760769 0.887022 0.843931
0.897948 0.927947 0.925078
0.000000 0.074922 0.639521
0.000000 0.000000 0.710811
0.674128 0.000000 0.811826
0.933013 0.000000 0.719234
0.976501 0.611475 0.747616
0.000000 0.109651 0.629664
0.000000 0.104585 0.690150
0.664515 0.175509 0.806882
0.909972 0.356695 0.727535
0.964752 0.652674 0.762783
0.000000 0.295476 0.539818
0.000000 0.305394 0.567742
0.597253 0.568780 0.773068
0.837247 0.636072 0.747341
0.955505 0.725368 0.781979
0.000000 0.602625 0.611841
0.000000 0.642664 0.640223
0.437263 0.723110 0.708614
0.804288 0.820035 0.812009
0.970794 0.796902 0.755917
0.000000 0.879271 0.770138
0.000000 0.881651 0.772824
0.435615 0.885191 0.797482
0.738094 0.890074 0.852659
0.909667 0.935454 0.935271
0.000000 0.057008 0.883391
0.000000 0.000000 0.901823
0.602655 0.000000 0.943450
0.917540 0.000000 0.948180
1.000000 0.355108 0.845060
0.000000 0.048463 0.885557
0.000000 0.000000 0.902922
0.580926 0.000000 0.939483
0.908019 0.166445 0.947570
1.000000 0.490761 0.858274
0.000000 0.251591 0.809659
0.000000 0.209812 0.837888
0.368200 0.284276 0.911406
0.868406 0.617884 0.943053
0.980804 0.708766 0.891325
0.000000 0.567224 0.814450
0.000000 0.555901 0.813413
0.000000 0.515312 0.820218
0.775204 0.783505 0.925719
0.950134 0.847288 0.919615
0.000000 0.843595 0.859129
0.000000 0.847227 0.859220
0.000000 0.869963 0.868498
0.598810 0.890196 0.888365
0.929076 0.940856 0.946105
