data/fiter_cube/35558087/1023148/file.cube
# Created by Adobe Lightroom plugin Export LUT (1.17.0)
# www.johnrellis.com/lightroom/exportlut.htm
# Preset: 明亮通透美食摄影_01 云集
# Color profile: C:\Program Files (x86)\Common Files\Adobe\Color\Profiles\Recommended\AdobeRGB1998.icc
LUT_3D_SIZE 8
DOMAIN_MIN 0.000000 0.000000 0.000000
DOMAIN_MAX 0.903226 0.903226 0.903226
0.000000 0.000000 0.000000
0.180148 0.000000 0.000000
0.367254 0.000000 0.000000
0.538323 0.000000 0.000000
0.690944 0.000000 0.013947
0.813962 0.000000 0.081239
0.920226 0.029511 0.112367
1.000000 0.086030 0.132387
0.000000 0.181277 0.060060
0.164157 0.181949 0.000000
0.374975 0.187137 0.000000
0.543114 0.174685 0.000000
0.693141 0.163973 0.029480
0.812894 0.159030 0.086580
0.917906 0.161654 0.115877
1.000000 0.168215 0.135134
0.000000 0.355993 0.121553
0.000000 0.358556 0.000000
0.313420 0.348882 0.000000
0.544823 0.370397 0.000000
0.715480 0.364141 0.081575
0.828031 0.340734 0.115755
0.929992 0.325750 0.141573
1.000000 0.314031 0.156435
0.000000 0.508080 0.184909
0.000000 0.509087 0.136904
0.177615 0.509239 0.000000
0.450568 0.501976 0.000000
0.673579 0.518761 0.064698
0.851926 0.531212 0.166018
0.942382 0.494942 0.182559
1.000000 0.466102 0.189334
0.000000 0.646174 0.238926
0.000000 0.646693 0.209842
0.000000 0.649195 0.003449
0.319371 0.645411 0.021973
0.565728 0.629541 0.018708
0.759640 0.625910 0.084718
0.923949 0.639979 0.187320
1.000000 0.622217 0.239719
0.000000 0.759457 0.282444
0.000000 0.762509 0.263401
0.000000 0.764675 0.168521
0.189181 0.763912 0.063111
0.447791 0.756008 0.064820
0.668055 0.742275 0.058259
0.852201 0.731991 0.076814
0.999695 0.740597 0.195560
0.000000 0.869413 0.318944
0.000000 0.870512 0.303716
0.000000 0.871794 0.238163
0.000000 0.874113 0.064637
0.319371 0.870909 0.066102
0.562554 0.862974 0.061128
0.768429 0.851926 0.044648
0.951659 0.842313 0.000000
0.000000 0.976715 0.348211
0.000000 0.977203 0.335393
0.000000 0.979400 0.284306
0.000000 0.984436 0.137758
0.191409 0.981262 0.000000
0.431403 0.981659 0.012329
0.675868 0.974304 0.000000
0.871824 0.964172 0.000000
0.000000 0.000000 0.199527
0.179843 0.000000 0.199191
0.346288 0.000000 0.192630
0.502495 0.000000 0.188113
0.663172 0.000000 0.189334
0.792233 0.000000 0.194400
0.905058 0.040711 0.200046
1.000000 0.091585 0.203159
0.000000 0.181918 0.197360
0.164462 0.175051 0.196323
0.341070 0.167819 0.193545
0.510887 0.160128 0.193179
0.668879 0.153658 0.193606
0.794369 0.155581 0.197971
0.904326 0.161990 0.202243
1.000000 0.169772 0.204532
0.000000 0.349859 0.209415
0.123629 0.349187 0.212039
0.311131 0.345708 0.179385
0.539483 0.368505 0.212192
0.692164 0.353246 0.211856
0.809567 0.334905 0.215061
0.914672 0.322667 0.218662
1.000000 0.313664 0.220127
0.000000 0.500938 0.246159
0.000000 0.500755 0.242771
0.194675 0.504356 0.170871
0.444007 0.493996 0.168093
0.663874 0.510918 0.192325
0.833555 0.522118 0.248966
0.928008 0.489876 0.249027
1.000000 0.465095 0.246311
0.000000 0.641596 0.285801
0.000000 0.640864 0.279240
0.000000 0.643122 0.188235
0.312871 0.639399 0.163333
0.560143 0.622797 0.159731
0.755581 0.622248 0.180117
0.919921 0.639643 0.257420
1.000000 0.622248 0.292058
0.000000 0.754482 0.317205
0.000000 0.754482 0.313329
0.000000 0.756771 0.247318
0.201205 0.758297 0.161959
0.444526 0.752285 0.161746
0.666499 0.739895 0.158938
0.851072 0.730831 0.167941
0.997406 0.740383 0.253025
0.000000 0.863828 0.348486
0.000000 0.863188 0.343877
0.000000 0.865202 0.289921
0.000000 0.869718 0.155459
0.325780 0.867674 0.156008
0.560540 0.859983 0.153017
0.765652 0.848264 0.147555
0.947662 0.837675 0.129549
0.000000 0.972961 0.380133
0.000000 0.973785 0.368872
0.000000 0.976257 0.324346
0.000000 0.981506 0.215000
0.208438 0.982910 0.144472
0.433204 0.982238 0.145144
0.675776 0.973419 0.138399
0.871061 0.962615 0.128969
0.000000 0.000000 0.391638
0.165438 0.000000 0.389960
0.342077 0.000000 0.383642
0.494362 0.000000 0.369512
0.639246 0.000000 0.361822
0.761685 0.000000 0.353674
0.878233 0.000702 0.340215
0.992493 0.108675 0.338109
0.000000 0.160098 0.387762
0.140047 0.156924 0.385748
0.333135 0.149111 0.380102
0.488472 0.152132 0.367407
0.634394 0.145602 0.360357
0.757504 0.145632 0.349615
0.879026 0.156649 0.342931
0.992248 0.180484 0.340337
0.000000 0.344244 0.376623
0.109987 0.341131 0.375860
0.309514 0.329778 0.370275
0.474800 0.322942 0.362158
0.633173 0.316960 0.360143
0.769162 0.318486 0.361212
0.889616 0.320714 0.359625
0.996094 0.321233 0.353826
0.000000 0.495857 0.366308
0.012696 0.495827 0.367956
0.276188 0.493172 0.369604
0.444038 0.489418 0.343847
0.668788 0.519799 0.392676
0.800046 0.509056 0.400610
0.907195 0.491493 0.393072
1.000000 0.474739 0.381415
0.000000 0.636164 0.383764
0.000000 0.635645 0.384161
0.230747 0.633295 0.382879
0.343145 0.635279 0.327977
0.562188 0.622034 0.323735
0.762570 0.628626 0.349889
0.919738 0.657038 0.431891
1.000000 0.631800 0.425849
0.000000 0.750881 0.399756
0.000000 0.750484 0.400244
0.183200 0.748745 0.398505
0.262364 0.752255 0.324254
0.442054 0.748898 0.313176
0.665949 0.736294 0.309758
0.853330 0.733120 0.323156
0.996429 0.749599 0.404181
0.000000 0.862516 0.418708
0.000000 0.861845 0.418433
0.116884 0.860014 0.416968
0.203220 0.863340 0.349157
0.355322 0.864164 0.300328
0.561822 0.858701 0.298161
0.768765 0.848447 0.295109
0.951080 0.839322 0.289250
0.000000 0.972107 0.434455
0.000000 0.971618 0.433661
0.000000 0.970397 0.438300
0.098421 0.976440 0.371557
0.256229 0.980529 0.288060
0.455695 0.980377 0.287663
0.678889 0.973022 0.284245
0.874327 0.962707 0.279118
0.000000 0.000000 0.561059
0.145327 0.000000 0.559808
0.322667 0.000000 0.553399
0.485786 0.000000 0.544549
0.627253 0.000000 0.524926
0.749691 0.000000 0.504570
0.864622 0.000000 0.486732
0.976104 0.000000 0.466407
0.000000 0.145296 0.558404
0.118044 0.142885 0.556878
0.313878 0.133486 0.551171
0.481392 0.114107 0.543053
0.624567 0.116396 0.523735
0.746487 0.134218 0.503410
0.861936 0.144564 0.486000
0.974548 0.140169 0.465980
0.000000 0.323888 0.547448
0.000000 0.319432 0.546380
0.282841 0.306401 0.542382
0.465888 0.297765 0.536095
0.615869 0.298741 0.520043
0.740993 0.303563 0.504814
0.860655 0.305364 0.491615
0.972320 0.309636 0.477577
0.000000 0.489326 0.534722
0.000000 0.487465 0.533928
0.258732 0.480842 0.531182
0.440406 0.468299 0.524559
0.598444 0.463081 0.513725
0.725673 0.459785 0.506065
0.860288 0.471931 0.512322
0.978424 0.477394 0.510094
0.000000 0.629786 0.512413
0.000000 0.628595 0.511559
0.233951 0.625635 0.511284
0.413977 0.620386 0.515435
0.563958 0.614038 0.498665
0.766049 0.650568 0.560021
0.890745 0.656641 0.574853
0.989044 0.640528 0.559442
0.000000 0.747646 0.509636
0.000000 0.748898 0.511437
0.195560 0.746120 0.512535
0.381598 0.742061 0.515953
0.485756 0.743008 0.479469
0.671077 0.733242 0.474372
0.859556 0.743801 0.504143
0.992340 0.775204 0.589197
0.000000 0.859251 0.514549
0.000000 0.859251 0.514916
0.129763 0.858579 0.515679
0.348180 0.856535 0.519493
0.422217 0.860258 0.462287
0.572107 0.857755 0.455360
0.774472 0.846891 0.450629
0.953887 0.843320 0.457832
0.000000 0.971618 0.522423
0.000000 0.971679 0.522087
0.000000 0.971160 0.520226
0.319982 0.969085 0.529564
0.375158 0.974212 0.465675
0.500114 0.976349 0.437415
0.687373 0.971405 0.434180
0.880095 0.961669 0.429633
0.000000 0.000000 0.697169
0.120729 0.000000 0.696010
0.297520 0.000000 0.691127
0.454353 0.000000 0.684382
0.605554 0.000000 0.677089
0.736782 0.000000 0.656184
0.854337 0.000000 0.632380
0.968353 0.000000 0.609216
0.000000 0.132143 0.694362
0.096498 0.130648 0.693782
0.290135 0.123476 0.689570
0.449989 0.108980 0.682856
0.602350 0.082307 0.675441
0.735164 0.091371 0.655512
0.853208 0.111757 0.631891
0.967590 0.105409 0.608637
0.000000 0.296330 0.687037
0.000000 0.293187 0.686244
0.264836 0.290196 0.682612
0.435340 0.283970 0.676905
0.591608 0.275425 0.669490
0.727657 0.276646 0.651209
0.847715 0.280644 0.629267
0.963806 0.272129 0.605951
0.000000 0.457771 0.675257
0.000000 0.455848 0.674403
0.238895 0.449958 0.672023
0.416327 0.443580 0.667689
0.577356 0.438727 0.661555
0.718227 0.439124 0.647120
0.840696 0.438117 0.628138
0.960143 0.425788 0.604852
0.000000 0.606989 0.661707
0.000000 0.606073 0.661433
0.216983 0.602472 0.659602
0.401801 0.597070 0.656184
0.562707 0.590997 0.649195
0.703639 0.587884 0.638209
0.828397 0.587396 0.629755
0.957946 0.603388 0.636469
0.000000 0.736721 0.638636
0.000000 0.736233 0.638331
0.188785 0.733730 0.636408
0.378210 0.729885 0.633234
0.537591 0.724239 0.632959
0.673823 0.721492 0.623529
0.866484 0.768276 0.689662
0.977661 0.780423 0.708003
0.000000 0.853208 0.625147
0.000000 0.852659 0.625116
0.132357 0.851377 0.625391
0.343389 0.849760 0.626307
0.509483 0.846769 0.628840
0.610681 0.848447 0.601465
0.780606 0.840940 0.596155
0.956115 0.849851 0.623529
0.000000 0.966430 0.624475
0.000000 0.966217 0.624079
0.000000 0.965698 0.622644
0.296391 0.966918 0.622126
0.485573 0.964019 0.629511
0.557275 0.969055 0.580438
0.699092 0.967285 0.576623
0.886992 0.957763 0.571344
0.000000 0.000000 0.807828
0.098238 0.000000 0.806912
0.272831 0.000000 0.803220
0.422736 0.000000 0.798856
0.565942 0.000000 0.792599
0.705318 0.000000 0.785611
0.843229 0.000000 0.778073
0.959960 0.000000 0.752743
0.000000 0.122408 0.804196
0.077882 0.121279 0.803281
0.267033 0.117464 0.800443
0.418494 0.109224 0.795895
0.562585 0.095644 0.790036
0.702632 0.075349 0.783627
0.841581 0.000000 0.776730
0.958862 0.000000 0.751583
0.000000 0.280125 0.800290
0.000000 0.279301 0.799344
0.251530 0.277134 0.796628
0.409430 0.273503 0.792630
0.556085 0.268650 0.787076
0.697780 0.263249 0.781003
0.838895 0.253452 0.774746
0.957214 0.249241 0.749172
0.000000 0.429114 0.792538
0.000000 0.428016 0.791592
0.234043 0.426612 0.789700
0.401068 0.426398 0.787869
0.550591 0.424170 0.783902
0.693202 0.421149 0.778408
0.835599 0.415167 0.771664
0.955230 0.407660 0.745663
0.000000 0.571344 0.780728
0.000000 0.570794 0.780423
0.214206 0.569329 0.779263
0.390387 0.569177 0.777218
0.543786 0.569207 0.773678
0.685054 0.564843 0.768917
0.826658 0.559442 0.759823
0.949401 0.551812 0.736355
0.000000 0.708553 0.769314
0.000000 0.708675 0.769650
0.187411 0.707546 0.768887
0.373816 0.706233 0.767147
0.529320 0.705135 0.763790
0.678431 0.704463 0.759060
0.816770 0.704646 0.749752
0.940673 0.710933 0.744778
0.000000 0.848631 0.762509
0.000000 0.848783 0.762478
0.128145 0.847684 0.760708
0.345556 0.845670 0.756680
0.507713 0.842618 0.748806
0.659937 0.837949 0.745815
0.791012 0.834775 0.737881
0.962554 0.876432 0.802914
0.000000 0.963287 0.738705
0.000000 0.963043 0.738430
0.000000 0.962463 0.737606
0.300542 0.962310 0.736751
0.472633 0.961303 0.735256
0.636683 0.957946 0.738705
0.735500 0.960327 0.717708
0.897795 0.953582 0.713008
0.000000 0.000000 0.903105
0.072297 0.000000 0.903777
0.251102 0.000000 0.901762
0.394751 0.000000 0.898894
0.532097 0.000000 0.894774
0.666163 0.000000 0.889769
0.798245 0.000000 0.884428
0.946136 0.000000 0.891295
0.000000 0.106477 0.897887
0.037385 0.106172 0.898436
0.245304 0.102754 0.896849
0.389960 0.095399 0.893767
0.527123 0.082002 0.889342
0.660517 0.052857 0.883757
0.791836 0.000000 0.877958
0.939330 0.000000 0.884398
0.000000 0.261570 0.897917
0.000000 0.260990 0.897368
0.234257 0.259037 0.895018
0.383734 0.255985 0.892058
0.522637 0.250767 0.887266
0.657832 0.244724 0.882536
0.792264 0.239445 0.878996
0.942840 0.201358 0.886564
0.000000 0.405554 0.895262
0.000000 0.405005 0.894255
0.224308 0.403174 0.891905
0.379126 0.401831 0.890013
0.520134 0.398566 0.886198
0.657893 0.396124 0.882994
0.794217 0.394812 0.880369
0.944030 0.373602 0.884642
0.000000 0.539208 0.884367
0.000000 0.538201 0.883207
0.201236 0.536797 0.881315
0.370306 0.538201 0.880278
0.514702 0.536828 0.878141
0.652186 0.533410 0.874784
0.788724 0.530816 0.871916
0.939666 0.521172 0.874479
0.000000 0.671809 0.875517
0.000000 0.671717 0.875364
0.174136 0.671473 0.874937
0.356207 0.672847 0.874846
0.509422 0.674861 0.873991
0.658106 0.679713 0.873198
0.794156 0.678737 0.871000
0.937682 0.672694 0.864714
0.000000 0.806729 0.871031
0.000000 0.807401 0.871641
0.143648 0.807767 0.871458
0.342596 0.809323 0.871336
0.498512 0.810361 0.869261
0.648341 0.812833 0.866667
0.795743 0.817411 0.863615
0.930846 0.820615 0.855406
0.000000 0.955688 0.876707
0.000000 0.955657 0.876249
0.000000 0.957946 0.876738
0.299290 0.958099 0.873411
0.472908 0.956298 0.866087
0.630915 0.953674 0.855589
0.783841 0.949493 0.853452
0.910002 0.946990 0.848295
0.000000 0.000000 0.984771
0.000000 0.000000 0.985016
0.225040 0.000000 0.983246
0.364446 0.000000 0.982177
0.496559 0.000000 0.980255
0.625940 0.000000 0.977844
0.755184 0.000000 0.976043
0.883696 0.000000 0.973480
0.000000 0.070954 0.982422
0.000000 0.069551 0.982696
0.219547 0.059174 0.981384
0.360937 0.021118 0.979858
0.493812 0.000000 0.978027
0.623529 0.000000 0.975647
0.752529 0.000000 0.973388
0.881254 0.000000 0.970916
0.000000 0.230381 0.980011
0.000000 0.229984 0.979950
0.202518 0.226596 0.977996
0.353429 0.224857 0.978637
0.488746 0.218021 0.976379
0.619501 0.207187 0.973297
0.749935 0.194827 0.971344
0.880491 0.178042 0.969635
0.000000 0.365606 0.978210
0.000000 0.365759 0.978424
0.178683 0.363439 0.977050
0.341650 0.361456 0.976257
0.482216 0.357916 0.974792
0.616297 0.351995 0.972564
0.749325 0.345953 0.971008
0.882689 0.339971 0.970031
0.000000 0.502281 0.972686
0.000000 0.502525 0.973205
0.163790 0.500877 0.972656
0.326970 0.495003 0.972900
0.473091 0.491554 0.970947
0.611414 0.487892 0.968933
0.748867 0.486885 0.968261
0.886595 0.490852 0.969574
0.000000 0.632471 0.967651
0.000000 0.631617 0.967102
0.100099 0.629511 0.965972
0.309667 0.628077 0.965515
0.468177 0.629694 0.965881
0.616297 0.633692 0.967651
0.759487 0.640131 0.970001
0.897581 0.648127 0.972198
0.000000 0.767178 0.966888
0.000000 0.766903 0.966583
0.000000 0.766323 0.966003
0.302312 0.767636 0.966155
0.466255 0.770993 0.966644
0.622522 0.778531 0.967803
0.774044 0.789792 0.968322
0.902983 0.790921 0.966217
0.000000 0.908568 0.967620
0.000000 0.908537 0.967285
0.000000 0.909239 0.966918
0.294499 0.911650 0.967041
0.462837 0.915129 0.966766
0.617578 0.919768 0.965820
0.771359 0.925719 0.964050
0.917449 0.932647 0.960601
