data/fiter_cube/35558087/1023148/file.cube
# Created by Adobe Lightroom plugin Export LUT (1.17.0)
# www.johnrellis.com/lightroom/exportlut.htm
# Preset: 明亮通透美食摄影_01 云集
# Color profile: C:\Program Files (x86)\Common Files\Adobe\Color\Profiles\Recommended\AdobeRGB1998.icc
LUT_3D_SIZE 32
DOMAIN_MIN 0.0 0.0 0.0
DOMAIN_MAX 1.0 1.0 1.0
0.000000 0.000000 0.000000
0.058900 0.000092 0.000488
0.085176 0.000000 0.001709
0.127352 0.000580 0.000702
0.180148 0.000000 0.000000
0.230991 0.000000 0.000000
0.278599 0.000000 0.000000
0.323461 0.000000 0.000000
0.367254 0.000000 0.000000
0.410315 0.000000 0.000000
0.453346 0.000000 0.000000
0.496010 0.000000 0.000000
0.538323 0.000000 0.000000
0.580163 0.000000 0.000000
0.619776 0.000000 0.000000
0.656611 0.000000 0.000000
0.690944 0.000000 0.013947
0.722957 0.000000 0.035187
0.752773 0.000000 0.058503
0.784024 0.000000 0.070497
0.813962 0.000000 0.081239
0.842496 0.000000 0.090211
0.869535 0.000000 0.098512
0.895354 0.005280 0.105898
0.920226 0.029511 0.112367
0.944335 0.054231 0.118166
0.968078 0.067384 0.123323
0.991485 0.077760 0.128084
1.000000 0.086030 0.132387
1.000000 0.094087 0.136202
1.000000 0.101900 0.139834
1.000000 0.109499 0.143496
0.000000 0.059632 0.005615
0.051514 0.060121 0.000763
0.084413 0.058625 0.000977
0.128054 0.060792 0.000488
0.180941 0.063691 0.000000
0.231724 0.063325 0.000000
0.279393 0.060517 0.000000
0.323980 0.056916 0.000000
0.367498 0.048402 0.000000
0.410681 0.037446 0.000000
0.453376 0.021515 0.000000
0.495918 0.004578 0.000000
0.537987 0.000000 0.000000
0.579675 0.000000 0.000000
0.619226 0.000000 0.000000
0.655940 0.000000 0.000000
0.690211 0.000000 0.015412
0.722194 0.000000 0.036103
0.751949 0.000000 0.058961
0.782956 0.000000 0.070710
0.812589 0.000000 0.080934
0.840970 0.011475 0.089845
0.867948 0.032990 0.098299
0.893797 0.053071 0.105562
0.918700 0.065827 0.112032
0.942901 0.074983 0.117861
0.966766 0.082216 0.122499
0.990234 0.090517 0.127840
1.000000 0.097322 0.131777
1.000000 0.103914 0.135622
1.000000 0.110353 0.139132
1.000000 0.116945 0.142489
0.000000 0.085664 0.016602
0.020294 0.087312 0.001251
0.077882 0.086488 0.002228
0.127230 0.089906 0.000641
0.182132 0.095674 0.000000
0.233127 0.096590 0.000000
0.280339 0.095033 0.000000
0.324804 0.092470 0.000000
0.368414 0.089448 0.000000
0.411231 0.085115 0.000000
0.454017 0.080781 0.000000
0.496468 0.075685 0.000000
0.538415 0.069612 0.000000
0.579980 0.064759 0.000000
0.619318 0.060365 0.000000
0.656123 0.053010 0.000000
0.690211 0.050477 0.017182
0.722103 0.050538 0.038025
0.751980 0.052216 0.059907
0.782742 0.059876 0.071595
0.812222 0.065156 0.081575
0.840482 0.070314 0.090242
0.867399 0.076814 0.098726
0.893217 0.082460 0.105806
0.918090 0.088899 0.112306
0.942290 0.094179 0.117769
0.966125 0.100160 0.122988
0.989685 0.105715 0.127840
1.000000 0.110903 0.131807
1.000000 0.116609 0.135836
1.000000 0.121645 0.139193
1.000000 0.127382 0.142580
0.000000 0.130159 0.033997
0.000000 0.132143 0.000000
0.050568 0.132937 0.000000
0.119692 0.132387 0.000000
0.177615 0.136568 0.000000
0.235752 0.143618 0.000000
0.283482 0.142428 0.000000
0.327855 0.139803 0.000000
0.371130 0.136690 0.000000
0.413886 0.133211 0.000000
0.456397 0.129946 0.000000
0.498604 0.126528 0.000000
0.540337 0.123537 0.000000
0.581537 0.120546 0.000000
0.620783 0.117220 0.000000
0.657191 0.114687 0.003357
0.691096 0.112703 0.021607
0.722774 0.111360 0.044312
0.752804 0.110780 0.062501
0.782834 0.111757 0.073487
0.811826 0.113130 0.083253
0.839750 0.114870 0.091951
0.866667 0.117647 0.100160
0.892576 0.120363 0.107393
0.917723 0.123232 0.113405
0.942199 0.126223 0.119203
0.966217 0.129580 0.124147
0.989837 0.133608 0.129122
1.000000 0.136873 0.133272
1.000000 0.140536 0.137026
1.000000 0.144015 0.140108
1.000000 0.147860 0.143282
0.000000 0.181277 0.060060
0.000000 0.182559 0.022675
0.000000 0.183597 0.000000
0.092988 0.183902 0.000000
0.164157 0.181949 0.000000
0.222019 0.181979 0.000000
0.278874 0.188663 0.000000
0.331945 0.191012 0.000000
0.374975 0.187137 0.000000
0.417426 0.183810 0.000000
0.459632 0.180514 0.000000
0.501610 0.177493 0.000000
0.543114 0.174685 0.000000
0.584253 0.172213 0.000000
0.623072 0.169528 0.000000
0.659358 0.166903 0.008026
0.693141 0.163973 0.029480
0.724666 0.162020 0.052277
0.754879 0.160281 0.066804
0.784421 0.159548 0.077180
0.812894 0.159030 0.086580
0.840482 0.159365 0.095155
0.867094 0.159915 0.102846
0.892912 0.160616 0.109834
0.917906 0.161654 0.115877
0.942321 0.163027 0.121645
0.966247 0.164767 0.126589
0.989776 0.166232 0.131106
1.000000 0.168215 0.135134
1.000000 0.170413 0.138735
1.000000 0.172366 0.141756
1.000000 0.174838 0.144656
0.000000 0.229282 0.075593
0.000000 0.230167 0.059602
0.000000 0.231235 0.001892
0.047272 0.231785 0.000000
0.136019 0.230686 0.000000
0.205295 0.227726 0.000000
0.261845 0.223972 0.000000
0.317815 0.231205 0.000000
0.374426 0.236515 0.000000
0.423011 0.236149 0.000000
0.465126 0.232547 0.000000
0.506859 0.229038 0.000000
0.548058 0.226108 0.000000
0.588891 0.223117 0.000000
0.627314 0.220066 0.000000
0.663081 0.216831 0.019348
0.696529 0.213413 0.043214
0.727718 0.210483 0.061372
0.758022 0.208042 0.072724
0.787137 0.206088 0.082704
0.815305 0.204532 0.091737
0.842649 0.203128 0.099916
0.880186 0.207034 0.113130
0.905180 0.206638 0.120241
0.929259 0.206394 0.126162
0.952636 0.206241 0.131746
0.975494 0.206485 0.136294
0.997955 0.206729 0.140780
1.000000 0.207279 0.144350
1.000000 0.207980 0.147707
1.000000 0.208713 0.150546
1.000000 0.209903 0.153140
0.000000 0.275853 0.090486
0.000000 0.276402 0.077302
0.000000 0.277195 0.051545
0.000000 0.278294 0.000000
0.094087 0.277958 0.000000
0.177249 0.275517 0.000000
0.244755 0.271855 0.000000
0.300725 0.265660 0.000000
0.357061 0.273289 0.000000
0.415015 0.280858 0.000000
0.474189 0.287694 0.000000
0.517632 0.284489 0.000000
0.558740 0.280583 0.000000
0.598871 0.276829 0.000000
0.636133 0.272465 0.014649
0.670832 0.267948 0.037964
0.703365 0.263676 0.058900
0.734890 0.259739 0.070039
0.764889 0.256229 0.080812
0.793820 0.253239 0.090913
0.822293 0.250919 0.099886
0.850187 0.248875 0.108186
0.877226 0.247532 0.116182
0.903288 0.246189 0.123201
0.928283 0.245212 0.129580
0.952117 0.244083 0.135042
0.975097 0.243381 0.139925
0.997498 0.242527 0.144106
1.000000 0.241794 0.147494
1.000000 0.241459 0.150668
1.000000 0.241062 0.152865
1.000000 0.241062 0.155459
0.000000 0.316655 0.105257
0.000000 0.317113 0.095369
0.000000 0.317632 0.079652
0.000000 0.318761 0.000000
0.016632 0.318791 0.000000
0.130800 0.318120 0.000000
0.214603 0.314672 0.000000
0.279423 0.310887 0.000000
0.336675 0.306310 0.000000
0.391241 0.311284 0.000000
0.450111 0.320897 0.000000
0.510063 0.329656 0.000000
0.566003 0.334691 0.000000
0.605310 0.329747 0.015045
0.641932 0.324163 0.037140
0.676020 0.318456 0.057099
0.708644 0.313146 0.068788
0.739681 0.308080 0.079530
0.768643 0.303319 0.089082
0.796811 0.298955 0.098482
0.824552 0.295384 0.107149
0.851865 0.292332 0.114900
0.878447 0.289647 0.122286
0.904051 0.287266 0.128939
0.928710 0.284947 0.134707
0.952239 0.282994 0.140200
0.975036 0.281010 0.144533
0.997314 0.279118 0.148074
1.000000 0.277531 0.151522
1.000000 0.276005 0.154116
1.000000 0.274937 0.156588
1.000000 0.273808 0.158602
0.000000 0.355993 0.121553
0.000000 0.356298 0.113619
0.000000 0.356786 0.102022
0.000000 0.357641 0.068116
0.000000 0.358556 0.000000
0.094270 0.357794 0.000000
0.173800 0.356359 0.000000
0.250034 0.352911 0.000000
0.313420 0.348882 0.000000
0.369299 0.343816 0.000000
0.424231 0.348211 0.000000
0.484169 0.359716 0.000000
0.544823 0.370397 0.000000
0.604883 0.379065 0.035370
0.649134 0.377630 0.061799
0.683192 0.370794 0.071565
0.715480 0.364141 0.081575
0.745418 0.357610 0.090394
0.773434 0.351141 0.099641
0.800900 0.345495 0.108095
0.828031 0.340734 0.115755
0.854734 0.336309 0.122927
0.880705 0.332525 0.129580
0.905821 0.329015 0.135744
0.929992 0.325750 0.141573
0.953216 0.322423 0.146273
0.975677 0.319463 0.150271
0.997650 0.316625 0.153658
1.000000 0.314031 0.156435
1.000000 0.311681 0.158785
1.000000 0.309453 0.160891
1.000000 0.307561 0.162661
0.000000 0.394354 0.137392
0.000000 0.394598 0.131289
0.000000 0.394903 0.121798
0.000000 0.395605 0.097169
0.000000 0.396796 0.001587
0.000000 0.396490 0.000000
0.135164 0.395575 0.000000
0.213413 0.393408 0.000000
0.284916 0.389929 0.000000
0.346502 0.386023 0.000000
0.401099 0.380316 0.000000
0.455726 0.383215 0.000000
0.516564 0.396643 0.000000
0.577722 0.408698 0.019226
0.636316 0.417914 0.061738
0.690181 0.423682 0.085389
0.723415 0.416541 0.094270
0.752438 0.408179 0.102968
0.779721 0.400244 0.111574
0.806332 0.393011 0.119051
0.832578 0.386725 0.126009
0.858244 0.380987 0.132448
0.883299 0.375677 0.138338
0.907561 0.370855 0.143771
0.931090 0.366339 0.148714
0.953857 0.362097 0.153109
0.976135 0.358099 0.156558
0.997925 0.354406 0.159670
1.000000 0.350988 0.162448
1.000000 0.347753 0.164553
1.000000 0.344884 0.166293
1.000000 0.342138 0.167849
0.000000 0.431464 0.153719
0.000000 0.431678 0.148287
0.000000 0.431983 0.140139
0.000000 0.432563 0.121309
0.000000 0.433570 0.080507
0.000000 0.434363 0.000000
0.094179 0.433661 0.000000
0.170901 0.432898 0.000000
0.250950 0.430030 0.000000
0.319310 0.426520 0.000000
0.379309 0.422644 0.000000
0.433875 0.417578 0.000000
0.486732 0.417517 0.000000
0.549462 0.433387 0.000000
0.610071 0.446204 0.034974
0.665797 0.454597 0.074495
0.716823 0.459571 0.097993
0.758968 0.459449 0.117037
0.785458 0.449592 0.124300
0.811429 0.440803 0.130648
0.836973 0.433021 0.137301
0.862058 0.425879 0.142763
0.886534 0.419532 0.148287
0.910277 0.413519 0.153445
0.933318 0.407904 0.157839
0.955596 0.402533 0.161624
0.977356 0.397467 0.164675
0.998718 0.392828 0.167239
1.000000 0.388464 0.169345
1.000000 0.384314 0.171084
1.000000 0.380529 0.172427
1.000000 0.377020 0.173831
0.000000 0.468513 0.169100
0.000000 0.468696 0.164645
0.000000 0.468910 0.157992
0.000000 0.469490 0.142306
0.000000 0.470375 0.112306
0.000000 0.471565 0.022248
0.000000 0.471412 0.000000
0.139223 0.470649 0.000000
0.207675 0.469734 0.000000
0.287480 0.466529 0.000000
0.353491 0.463264 0.000000
0.413062 0.460212 0.000000
0.475196 0.463081 0.000000
0.526757 0.459297 0.000000
0.590387 0.476448 0.003174
0.648951 0.488136 0.059083
0.702144 0.495460 0.089265
0.750149 0.499367 0.114351
0.793515 0.500847 0.136843
0.825498 0.495308 0.149569
0.849638 0.485267 0.154788
0.873228 0.476204 0.159945
0.896239 0.467811 0.164218
0.918669 0.460151 0.168490
0.940520 0.452918 0.171939
0.961791 0.446235 0.175143
0.982605 0.439857 0.177554
1.000000 0.433875 0.179294
1.000000 0.428382 0.180819
1.000000 0.423133 0.181857
1.000000 0.418372 0.182864
1.000000 0.413794 0.183597
0.000000 0.508080 0.184909
0.000000 0.508263 0.180941
0.000000 0.508354 0.175051
0.000000 0.508598 0.161593
0.000000 0.509087 0.136904
0.000000 0.509819 0.091829
0.000000 0.510338 0.000000
0.091188 0.509453 0.000000
0.177615 0.509239 0.000000
0.249546 0.508629 0.000000
0.325322 0.506676 0.000000
0.390875 0.504417 0.000000
0.450568 0.501976 0.000000
0.506706 0.498970 0.000000
0.557610 0.493935 0.000000
0.617121 0.507683 0.015229
0.673579 0.518761 0.064698
0.724269 0.525444 0.096895
0.770382 0.529107 0.122866
0.812894 0.530816 0.145449
0.851926 0.531212 0.166018
0.876890 0.522087 0.172335
0.899199 0.512413 0.176364
0.921080 0.503319 0.179812
0.942382 0.494942 0.182559
0.963195 0.487007 0.185092
0.983581 0.479652 0.187045
1.000000 0.472694 0.188571
1.000000 0.466102 0.189334
1.000000 0.460090 0.190127
1.000000 0.454414 0.190463
1.000000 0.449042 0.190951
0.000000 0.544091 0.199435
0.000000 0.544182 0.195499
0.000000 0.544305 0.190341
0.000000 0.544579 0.178531
0.000000 0.545220 0.157717
0.000000 0.546197 0.123323
0.000000 0.547601 0.028412
0.000000 0.547478 0.000000
0.141878 0.547173 0.000000
0.212375 0.547173 0.000000
0.288670 0.545769 0.000000
0.360906 0.543572 0.000000
0.424506 0.541009 0.000000
0.482948 0.537957 0.000000
0.537774 0.534234 0.000000
0.588678 0.529564 0.000000
0.641657 0.536492 0.026947
0.695735 0.546899 0.070802
0.744869 0.553338 0.103212
0.790127 0.557366 0.129458
0.831907 0.559380 0.152682
0.870085 0.559899 0.173404
0.902739 0.557519 0.189853
0.924102 0.547234 0.192691
0.944915 0.537560 0.194980
0.965209 0.528435 0.196841
0.985107 0.519921 0.198245
1.000000 0.511955 0.199008
1.000000 0.504448 0.199649
1.000000 0.497536 0.199771
1.000000 0.491005 0.199954
1.000000 0.484840 0.199832
0.000000 0.580987 0.213382
0.000000 0.581170 0.210269
0.000000 0.581201 0.205478
0.000000 0.581445 0.194766
0.000000 0.581720 0.176730
0.000000 0.582269 0.147768
0.000000 0.583154 0.097841
0.000000 0.583673 0.000000
0.085817 0.583093 0.000000
0.182132 0.582849 0.000000
0.244816 0.582696 0.000000
0.325261 0.580560 0.000000
0.394293 0.577966 0.000000
0.456062 0.574914 0.000000
0.513054 0.571221 0.000000
0.566308 0.566857 0.000000
0.617517 0.562921 0.000000
0.664302 0.563439 0.036622
0.716976 0.573693 0.077455
0.765408 0.580529 0.107546
0.809964 0.584771 0.134646
0.850736 0.586938 0.157839
0.887816 0.587304 0.178775
0.921508 0.586419 0.198276
0.947570 0.580438 0.208652
0.967468 0.570245 0.209934
0.987030 0.560693 0.210758
1.000000 0.551873 0.211612
1.000000 0.543542 0.211734
1.000000 0.535790 0.211551
1.000000 0.528435 0.211429
1.000000 0.521538 0.211398
0.000000 0.615106 0.226749
0.000000 0.615290 0.223819
0.000000 0.615412 0.219669
0.000000 0.615625 0.210117
0.000000 0.615900 0.194125
0.000000 0.616510 0.169436
0.000000 0.617304 0.130953
0.000000 0.618555 0.027893
0.000000 0.618097 0.000000
0.142550 0.617548 0.000000
0.217807 0.616999 0.002197
0.282963 0.615991 0.006439
0.359594 0.612970 0.005921
0.425605 0.609552 0.005402
0.485023 0.605676 0.002167
0.540246 0.601312 0.000519
0.592157 0.596582 0.000427
0.644221 0.594171 0.000000
0.686213 0.589227 0.045228
0.738399 0.600122 0.082521
0.786465 0.607385 0.109987
0.830289 0.611933 0.138460
0.870146 0.614069 0.162570
0.906340 0.614374 0.184024
0.939055 0.613306 0.203586
0.968627 0.611109 0.221592
0.989685 0.602319 0.225650
1.000000 0.592401 0.225589
1.000000 0.583062 0.225498
1.000000 0.574182 0.224613
1.000000 0.565820 0.223972
1.000000 0.557946 0.223117
0.000000 0.646174 0.238926
0.000000 0.646265 0.236149
0.000000 0.646265 0.232517
0.000000 0.646448 0.223819
0.000000 0.646693 0.209842
0.000000 0.647150 0.188571
0.000000 0.647852 0.157076
0.000000 0.648798 0.102876
0.000000 0.649195 0.003449
0.080323 0.648524 0.007904
0.184970 0.647883 0.013428
0.249821 0.647242 0.019165
0.319371 0.645411 0.021973
0.391363 0.642145 0.021759
0.454597 0.638392 0.021088
0.512047 0.634150 0.019196
0.565728 0.629541 0.018708
0.616571 0.624811 0.016999
0.665370 0.620111 0.013153
0.708095 0.614740 0.046387
0.759640 0.625910 0.084718
0.807004 0.633295 0.110994
0.849821 0.637751 0.140230
0.888731 0.639826 0.165194
0.923949 0.639979 0.187320
0.955749 0.638697 0.207401
0.984497 0.636286 0.225284
1.000000 0.632593 0.240543
1.000000 0.622217 0.239719
1.000000 0.612421 0.238651
1.000000 0.603143 0.237156
1.000000 0.594324 0.236027
0.000000 0.675654 0.250797
0.000000 0.675868 0.248264
0.000000 0.682521 0.247868
0.000000 0.682612 0.239933
0.000000 0.682734 0.227146
0.000000 0.682948 0.208438
0.000000 0.683284 0.181491
0.000000 0.683864 0.139834
0.000000 0.684718 0.041016
0.000000 0.683864 0.031708
0.145510 0.682979 0.036500
0.223056 0.681971 0.041810
0.281865 0.680842 0.047639
0.356146 0.677882 0.047486
0.424414 0.674098 0.046601
0.485267 0.669917 0.042847
0.541375 0.665400 0.041627
0.593927 0.660700 0.038392
0.643885 0.655756 0.034180
0.691035 0.650050 0.036164
0.733211 0.642756 0.044007
0.783810 0.653803 0.087068
0.830045 0.660883 0.114595
0.871611 0.664881 0.142947
0.908995 0.666316 0.168765
0.942779 0.665919 0.191257
0.973266 0.664027 0.210910
1.000000 0.661067 0.228641
1.000000 0.657191 0.244480
1.000000 0.650660 0.253605
1.000000 0.640375 0.251682
1.000000 0.630579 0.249973
0.000000 0.705653 0.262638
0.000000 0.706569 0.260838
0.000000 0.707485 0.258000
0.000000 0.708400 0.251377
0.000000 0.709133 0.240085
0.000000 0.709651 0.223697
0.000000 0.710201 0.199832
0.000000 0.710719 0.165774
0.000000 0.711574 0.109285
0.000000 0.711604 0.045716
0.079103 0.710780 0.048310
0.188632 0.709834 0.051942
0.255070 0.708766 0.056977
0.312047 0.707393 0.059236
0.387640 0.703853 0.058045
0.452705 0.699947 0.055207
0.511559 0.695796 0.052461
0.566155 0.691402 0.049836
0.617762 0.686915 0.047730
0.667079 0.682399 0.043610
0.714443 0.677607 0.039643
0.757870 0.671626 0.037140
0.805112 0.678798 0.084413
0.850370 0.685878 0.114656
0.891051 0.689570 0.142519
0.927550 0.690913 0.169100
0.960540 0.690272 0.191958
0.990234 0.688197 0.212436
1.000000 0.684932 0.230472
1.000000 0.680690 0.246799
1.000000 0.675593 0.261265
1.000000 0.666865 0.265110
0.000000 0.732662 0.272740
0.000000 0.733455 0.271122
0.000000 0.734340 0.268589
0.000000 0.735164 0.262425
0.000000 0.735897 0.252140
0.000000 0.736416 0.237064
0.000000 0.736873 0.216190
0.000000 0.737453 0.186831
0.000000 0.738247 0.142977
0.000000 0.739132 0.054108
0.000000 0.738369 0.057588
0.144900 0.737606 0.059663
0.224857 0.736599 0.060822
0.284520 0.735470 0.063203
0.347173 0.733364 0.063996
0.418067 0.729793 0.062287
0.480568 0.725948 0.059754
0.537652 0.721920 0.058595
0.591180 0.717739 0.054627
0.642023 0.713588 0.050874
0.690761 0.709377 0.048341
0.738186 0.705501 0.042054
0.783749 0.701747 0.026032
0.826932 0.704067 0.079957
0.871153 0.710811 0.113252
0.910918 0.714229 0.140322
0.946502 0.715236 0.168246
0.978576 0.714382 0.192111
1.000000 0.711971 0.213077
1.000000 0.708278 0.231479
1.000000 0.703517 0.247929
1.000000 0.697780 0.263066
0.000000 0.759457 0.282444
0.000000 0.760250 0.280888
0.000000 0.761044 0.278477
0.000000 0.761837 0.272831
0.000000 0.762509 0.263401
0.000000 0.762997 0.249821
0.000000 0.763455 0.230869
0.000000 0.764004 0.205112
0.000000 0.764675 0.168521
0.000000 0.765591 0.107973
0.000000 0.765591 0.060792
0.073121 0.764797 0.061799
0.189181 0.763912 0.063111
0.257023 0.762875 0.065187
0.312169 0.761807 0.066499
0.380194 0.759304 0.065766
0.447791 0.756008 0.064820
0.508385 0.752621 0.062776
0.564508 0.749233 0.060853
0.617517 0.745724 0.060060
0.668055 0.742275 0.058259
0.716854 0.738766 0.055512
0.764614 0.735561 0.049104
0.812619 0.734279 0.021027
0.852201 0.731991 0.076814
0.895354 0.738369 0.113680
0.934112 0.741360 0.142855
0.968688 0.741970 0.170687
0.999695 0.740597 0.195560
1.000000 0.737606 0.216953
1.000000 0.733211 0.236362
1.000000 0.727626 0.253788
0.000000 0.788937 0.293095
0.000000 0.789334 0.291417
0.000000 0.789670 0.289097
0.000000 0.790036 0.283574
0.000000 0.790372 0.274754
0.000000 0.790707 0.262089
0.000000 0.791135 0.244785
0.000000 0.791653 0.221744
0.000000 0.792477 0.189914
0.000000 0.793454 0.142489
0.000000 0.794400 0.064881
0.000000 0.793759 0.066102
0.145083 0.792996 0.066896
0.227207 0.792081 0.068086
0.287907 0.791043 0.069581
0.339696 0.789944 0.070527
0.413031 0.786893 0.069184
0.477821 0.783688 0.067231
0.536706 0.780423 0.065126
0.591669 0.777005 0.063111
0.643671 0.773617 0.061250
0.693477 0.770077 0.059724
0.741512 0.766506 0.056641
0.788632 0.763302 0.049500
0.838804 0.764309 0.004334
0.875029 0.757595 0.065400
0.917205 0.763577 0.109163
0.955047 0.766323 0.140322
0.988800 0.766476 0.168460
1.000000 0.764614 0.194430
1.000000 0.760983 0.217197
1.000000 0.755673 0.236942
0.000000 0.815305 0.301823
0.000000 0.815671 0.300237
0.000000 0.816037 0.298161
0.000000 0.816403 0.293004
0.000000 0.816739 0.284733
0.000000 0.817044 0.272923
0.000000 0.817411 0.257053
0.000000 0.817868 0.235935
0.000000 0.818570 0.207797
0.000000 0.819486 0.168002
0.000000 0.820584 0.100557
0.000000 0.820493 0.065980
0.066407 0.819821 0.066865
0.190860 0.819028 0.068055
0.260044 0.818204 0.068727
0.316106 0.817288 0.070008
0.373541 0.815885 0.070253
0.443915 0.813046 0.068269
0.506462 0.810056 0.066987
0.564019 0.807095 0.065461
0.617975 0.804013 0.063630
0.669429 0.800900 0.061952
0.718807 0.797757 0.060060
0.766506 0.794491 0.056825
0.811521 0.789822 0.041810
0.864347 0.793545 0.000000
0.897978 0.783047 0.032349
0.939269 0.788693 0.100496
0.976165 0.791043 0.135531
1.000000 0.790677 0.164553
1.000000 0.788296 0.192264
1.000000 0.783474 0.215274
0.000000 0.843778 0.311345
0.000000 0.844205 0.309972
0.000000 0.844450 0.307927
0.000000 0.844694 0.303136
0.000000 0.844877 0.295171
0.000000 0.845029 0.284123
0.000000 0.845243 0.269352
0.000000 0.845518 0.249790
0.000000 0.845914 0.224063
0.000000 0.846525 0.189395
0.000000 0.847318 0.137087
0.000000 0.847776 0.065522
0.000000 0.846983 0.066041
0.143343 0.846098 0.066499
0.228428 0.845060 0.066957
0.290257 0.843992 0.067659
0.342626 0.842893 0.068147
0.406348 0.840848 0.067170
0.473365 0.838132 0.065309
0.533928 0.835416 0.062898
0.590234 0.832761 0.061341
0.643336 0.830014 0.059236
0.694026 0.827054 0.056733
0.742733 0.823880 0.051606
0.789670 0.820523 0.046754
0.835599 0.817319 0.035523
0.889830 0.822568 0.000000
0.922881 0.810086 0.000000
0.963043 0.815091 0.089937
0.998810 0.816800 0.130465
1.000000 0.815457 0.161196
1.000000 0.811460 0.188785
0.000000 0.869413 0.318944
0.000000 0.869780 0.317723
0.000000 0.870085 0.315679
0.000000 0.870298 0.311223
0.000000 0.870512 0.303716
0.000000 0.870695 0.293370
0.000000 0.870939 0.279576
0.000000 0.871336 0.261509
0.000000 0.871794 0.238163
0.000000 0.872526 0.207248
0.000000 0.873411 0.163394
0.000000 0.874479 0.083009
0.000000 0.874113 0.064637
0.056031 0.873442 0.064973
0.191379 0.872648 0.065614
0.262394 0.871794 0.065370
0.319371 0.870909 0.066102
0.369146 0.870176 0.066773
0.438972 0.867887 0.065339
0.503532 0.865446 0.062928
0.562554 0.862974 0.061128
0.617823 0.860410 0.059144
0.670161 0.857755 0.055726
0.720180 0.854948 0.049561
0.768429 0.851926 0.044648
0.815122 0.848783 0.036835
0.860594 0.845579 0.028656
0.913878 0.850217 0.000000
0.951659 0.842313 0.000000
0.989014 0.843229 0.079103
1.000000 0.843381 0.125582
1.000000 0.840421 0.158633
0.000000 0.895811 0.326757
0.000000 0.896086 0.325444
0.000000 0.896269 0.323491
0.000000 0.896391 0.319158
0.000000 0.896483 0.312108
0.000000 0.896605 0.302342
0.000000 0.896818 0.289220
0.000000 0.897124 0.272374
0.000000 0.897642 0.250736
0.000000 0.898344 0.222690
0.000000 0.899229 0.184146
0.000000 0.900389 0.124453
0.000000 0.900816 0.059022
0.000000 0.900298 0.060090
0.141573 0.899626 0.060365
0.230137 0.898924 0.060487
0.293523 0.898161 0.060853
0.346807 0.897520 0.061280
0.400610 0.896635 0.061250
0.470344 0.894408 0.058930
0.532799 0.892180 0.054231
0.590509 0.889891 0.051392
0.644739 0.887480 0.046754
0.696345 0.884947 0.040497
0.745846 0.882292 0.033326
0.793698 0.879454 0.026184
0.840177 0.876616 0.018524
0.885557 0.873686 0.010498
0.937652 0.877623 0.000000
0.979522 0.873564 0.000000
1.000000 0.870054 0.049928
1.000000 0.868772 0.114809
0.000000 0.921599 0.333562
0.000000 0.921782 0.332341
0.000000 0.921935 0.330449
0.000000 0.922118 0.326329
0.000000 0.922332 0.319677
0.000000 0.922698 0.310491
0.000000 0.923278 0.298405
0.000000 0.924102 0.282902
0.000000 0.925109 0.263096
0.000000 0.926360 0.237644
0.000000 0.927794 0.203861
0.000000 0.929351 0.154910
0.000000 0.930907 0.060731
0.000000 0.930785 0.061952
0.051362 0.930480 0.062898
0.194583 0.929992 0.063111
0.267491 0.929473 0.063600
0.325444 0.928985 0.063783
0.376226 0.928588 0.065583
0.437171 0.927428 0.064546
0.504082 0.925353 0.062806
0.564935 0.923217 0.061219
0.621515 0.921019 0.058747
0.674952 0.918700 0.053193
0.726040 0.916258 0.049958
0.775174 0.913725 0.045380
0.822873 0.911162 0.038056
0.869261 0.908446 0.030884
0.914366 0.905486 0.021210
0.965667 0.908965 0.000000
1.000000 0.907378 0.000000
1.000000 0.899687 0.018433
0.000000 0.950622 0.342077
0.000000 0.950774 0.340795
0.000000 0.950805 0.339147
0.000000 0.950927 0.335088
0.000000 0.951049 0.328740
0.000000 0.951263 0.319890
0.000000 0.951659 0.308232
0.000000 0.952239 0.293431
0.000000 0.952972 0.274632
0.000000 0.953887 0.250858
0.000000 0.954955 0.219821
0.000000 0.956207 0.176883
0.000000 0.957549 0.105653
0.000000 0.957885 0.048707
