data/fiter_cube/35558087/1023148/file.cube
# Created by Adobe Lightroom plugin Export LUT (1.17.0)
# www.johnrellis.com/lightroom/exportlut.htm
# Preset: 明亮通透美食摄影_01 云集
# Color profile: C:\Program Files (x86)\Common Files\Adobe\Color\Profiles\Recommended\AdobeRGB1998.icc
LUT_3D_SIZE 5
DOMAIN_MIN 0.000000 0.000000 0.000000
DOMAIN_MAX 0.903226 0.903226 0.903226
0.000000 0.000000 0.000000
0.323461 0.000000 0.000000
0.619776 0.000000 0.000000
0.842496 0.000000 0.090211
1.000000 0.086030 0.132387
0.000000 0.316655 0.105257
0.279423 0.310887 0.000000
0.641932 0.324163 0.037140
0.851865 0.292332 0.114900
1.000000 0.277531 0.151522
0.000000 0.580987 0.213382
0.000000 0.583673 0.000000
0.513054 0.571221 0.000000
0.850736 0.586938 0.157839
1.000000 0.543542 0.211734
0.000000 0.788937 0.293095
0.000000 0.791653 0.221744
0.287907 0.791043 0.069581
0.693477 0.770077 0.059724
0.988800 0.766476 0.168460
0.000000 0.976715 0.348211
0.000000 0.978607 0.301884
0.000000 0.981384 0.000000
0.500938 0.980072 0.010986
0.871824 0.964172 0.000000
0.000000 0.000000 0.345647
0.304417 0.000000 0.340887
0.570794 0.000000 0.323674
0.792416 0.000000 0.304326
0.995392 0.102663 0.302647
0.000000 0.306798 0.335546
0.275731 0.293919 0.330297
0.564294 0.280369 0.320256
0.807401 0.279362 0.320653
0.999420 0.282811 0.315251
0.000000 0.571283 0.344823
0.203037 0.568505 0.342840
0.505211 0.560021 0.287907
0.844572 0.594446 0.376654
1.000000 0.551019 0.366583
0.000000 0.783780 0.384283
0.088289 0.783169 0.382055
0.319585 0.786191 0.275731
0.693263 0.767208 0.269596
0.987854 0.770077 0.336522
0.000000 0.974334 0.418952
0.000000 0.973449 0.419104
0.000000 0.981872 0.263462
0.504784 0.980682 0.252079
0.874784 0.964294 0.245121
0.000000 0.000000 0.634577
0.269017 0.000000 0.628901
0.549523 0.000000 0.615351
0.773220 0.000000 0.575189
0.972412 0.000000 0.537682
0.000000 0.266239 0.625452
0.234287 0.258640 0.621271
0.537774 0.242191 0.610254
0.766140 0.251225 0.572747
0.970062 0.247166 0.537621
0.000000 0.551812 0.602289
0.179568 0.546777 0.600092
0.503441 0.532250 0.590692
0.744717 0.527520 0.573907
0.967895 0.545525 0.578302
0.000000 0.772457 0.568658
0.112947 0.769894 0.569177
0.457099 0.764370 0.575952
0.699672 0.758053 0.546441
0.982544 0.802090 0.645808
0.000000 0.968322 0.571221
0.000000 0.968597 0.570306
0.406531 0.966400 0.578393
0.560784 0.972381 0.508080
0.882414 0.959136 0.499489
0.000000 0.000000 0.831296
0.227878 0.000000 0.828824
0.486122 0.000000 0.821256
0.728328 0.000000 0.810300
0.956329 0.000000 0.787320
0.000000 0.237766 0.825742
0.209140 0.235538 0.823453
0.477882 0.228946 0.816770
0.722896 0.218112 0.806638
0.953521 0.193210 0.783627
0.000000 0.491890 0.811460
0.169589 0.490089 0.809689
0.464210 0.489021 0.804379
0.708705 0.479530 0.793576
0.948028 0.469062 0.773129
0.000000 0.734768 0.796658
0.108705 0.733181 0.795315
0.445563 0.732265 0.792508
0.707362 0.732479 0.785428
0.937133 0.736690 0.770901
0.000000 0.962188 0.769497
0.000000 0.962005 0.767788
0.392920 0.961547 0.766842
0.675044 0.956817 0.768063
0.900572 0.952056 0.747311
0.000000 0.000000 0.984771
0.187259 0.000000 0.983673
0.431037 0.000000 0.981415
0.658350 0.000000 0.977417
0.883696 0.000000 0.973480
0.000000 0.196292 0.981476
0.167056 0.193851 0.980529
0.424140 0.185519 0.978424
0.653529 0.164858 0.973785
0.881651 0.131685 0.970947
0.000000 0.436927 0.975555
0.120607 0.434333 0.974975
0.404974 0.424231 0.972503
0.644373 0.413886 0.968292
0.883665 0.414496 0.969207
0.000000 0.667567 0.968902
0.000000 0.665858 0.967803
0.392706 0.665309 0.967010
0.654170 0.671260 0.967346
0.898375 0.682887 0.970642
0.000000 0.908568 0.967620
0.000000 0.908934 0.966949
0.381994 0.913298 0.967041
0.655726 0.921172 0.965484
0.917449 0.932647 0.960601
