data/fiter_cube/48671653/1023256/file.cube
# Created by Adobe Lightroom plugin Export LUT (1.17.0)
# www.johnrellis.com/lightroom/exportlut.htm
# Preset: 青橙风光风景_05 云集
# Color profile: C:\Program Files (x86)\Common Files\Adobe\Color\Profiles\Recommended\AdobeRGB1998.icc
LUT_3D_SIZE 5
DOMAIN_MIN 0.000000 0.000000 0.000000
DOMAIN_MAX 0.903226 0.903226 0.903226
0.004120 0.007294 0.006867
0.181949 0.079591 0.039490
0.454078 0.057893 0.046632
0.758480 0.146670 0.000000
0.968475 0.332860 0.094759
0.008606 0.190494 0.031098
0.178805 0.197848 0.004273
0.475837 0.209964 0.036683
0.768551 0.273014 0.000000
0.969818 0.401495 0.094759
0.000000 0.391547 0.000244
0.156344 0.366003 0.053834
0.412238 0.386755 0.000000
0.780911 0.505425 0.000000
0.973297 0.577417 0.105379
0.000000 0.650233 0.000000
0.194736 0.625086 0.000000
0.379583 0.561700 0.000000
0.680964 0.633722 0.000000
0.959991 0.743099 0.000000
0.216831 0.921996 0.000000
0.321874 0.914244 0.000000
0.517998 0.888243 0.000000
0.734066 0.887877 0.000000
0.959319 0.914824 0.000000
0.000000 0.110201 0.173129
0.153719 0.100069 0.182406
0.451545 0.047395 0.179629
0.751217 0.128634 0.186618
0.965026 0.318791 0.215549
0.000000 0.211215 0.189700
0.171939 0.210666 0.203128
0.465614 0.217777 0.197848
0.761898 0.261448 0.187778
0.966461 0.391028 0.218509
0.000000 0.429908 0.139132
0.171237 0.418128 0.181888
0.434272 0.409644 0.145266
0.791287 0.517998 0.191012
0.969970 0.573510 0.235080
0.000000 0.688624 0.000000
0.178012 0.668666 0.117403
0.383215 0.576684 0.128542
0.689693 0.645014 0.000000
0.960632 0.745632 0.121950
0.128298 0.932341 0.000000
0.280491 0.924285 0.000000
0.505058 0.896818 0.000000
0.725032 0.887999 0.000000
0.958129 0.914885 0.000000
0.000000 0.211978 0.401343
0.000000 0.151278 0.430060
0.467262 0.167422 0.472816
0.783505 0.196841 0.494148
0.959625 0.237736 0.434241
0.000000 0.287419 0.396918
0.000000 0.280003 0.432990
0.481025 0.273991 0.486244
0.778042 0.278996 0.482643
0.951568 0.346685 0.443915
0.000000 0.490333 0.450263
0.000000 0.497444 0.462562
0.499763 0.504234 0.507622
0.769497 0.498116 0.463142
0.955444 0.559228 0.468971
0.000000 0.773770 0.413428
0.000000 0.767849 0.404120
0.440131 0.722866 0.410895
0.719600 0.690883 0.327764
0.954101 0.772244 0.500938
0.000000 0.963409 0.318791
0.000000 0.959197 0.300877
0.444556 0.930480 0.346197
0.685115 0.888823 0.280308
0.952911 0.915557 0.114412
0.000000 0.389654 0.709651
0.000000 0.304173 0.731746
0.423926 0.257298 0.780453
0.782803 0.356817 0.799680
0.932799 0.647181 0.811948
0.000000 0.438727 0.707515
0.000000 0.409522 0.727718
0.418067 0.348852 0.779599
0.783047 0.459968 0.801846
0.930816 0.672724 0.813199
0.000000 0.595850 0.699367
0.000000 0.591852 0.703456
0.436683 0.583215 0.756954
0.781552 0.666102 0.805692
0.927520 0.717250 0.800717
0.000000 0.819364 0.744839
0.000000 0.820096 0.748806
0.348547 0.814298 0.763424
0.772366 0.810056 0.801053
0.925933 0.788113 0.754177
0.000000 0.996460 0.681483
0.000000 0.994446 0.676478
0.255863 0.980407 0.665522
0.689418 0.932616 0.683589
0.928557 0.918578 0.569268
0.000000 0.612665 0.928618
0.000000 0.585443 0.932097
0.228061 0.417670 0.948852
0.762295 0.594110 0.953002
0.921935 0.698390 0.950225
0.000000 0.614405 0.929686
0.000000 0.582116 0.933745
0.246983 0.461677 0.948058
0.767239 0.648371 0.951415
0.920439 0.734585 0.950011
0.000000 0.726314 0.919097
0.000000 0.718379 0.921569
0.448920 0.701534 0.934081
0.767819 0.751553 0.947723
0.917845 0.817868 0.950713
0.000000 0.881041 0.924743
0.000000 0.875395 0.924834
0.119203 0.852873 0.923919
0.743404 0.850828 0.935729
0.917601 0.902281 0.954650
0.000000 1.000000 0.932006
0.000000 1.000000 0.932525
0.000000 1.000000 0.934081
0.670497 0.977935 0.937774
0.914519 0.962951 0.954284
