data/fiter_cube/48671653/1023256/file.cube
# Created by Adobe Lightroom plugin Export LUT (1.17.0)
# www.johnrellis.com/lightroom/exportlut.htm
# Preset: 青橙风光风景_05 云集
# Color profile: C:\Program Files (x86)\Common Files\Adobe\Color\Profiles\Recommended\AdobeRGB1998.icc
LUT_3D_SIZE 8
DOMAIN_MIN 0.000000 0.000000 0.000000
DOMAIN_MAX 0.903226 0.903226 0.903226
0.004120 0.007294 0.006867
0.097200 0.061128 0.019715
0.214786 0.081331 0.044404
0.364874 0.072297 0.049287
0.548089 0.043214 0.033143
0.720394 0.121126 0.000000
0.859037 0.224399 0.000000
0.968475 0.332860 0.094759
0.014893 0.113588 0.017762
0.097505 0.120027 0.005982
0.219303 0.126314 0.044312
0.370825 0.123568 0.050172
0.554131 0.124575 0.029328
0.724117 0.172915 0.000000
0.860685 0.256870 0.000000
0.968902 0.354437 0.094606
0.000000 0.217227 0.033417
0.082307 0.211154 0.049653
0.209415 0.223667 0.000000
0.382727 0.233219 0.028199
0.574426 0.253880 0.005310
0.736538 0.292210 0.000000
0.866209 0.349187 0.000000
0.970245 0.422034 0.095186
0.000000 0.329625 0.025483
0.077272 0.322789 0.041291
0.178683 0.306340 0.061433
0.341070 0.329656 0.000000
0.554894 0.369116 0.000000
0.756008 0.440345 0.000000
0.875151 0.473396 0.000000
0.972259 0.521202 0.099336
0.000000 0.458839 0.000000
0.076631 0.450660 0.000000
0.187381 0.422004 0.029236
0.304997 0.416144 0.000000
0.485023 0.447730 0.000000
0.701198 0.517235 0.000000
0.873289 0.593317 0.000000
0.974304 0.635676 0.116396
0.000000 0.608515 0.000000
0.090883 0.600763 0.000000
0.213107 0.573053 0.000000
0.306493 0.523522 0.000000
0.462470 0.550286 0.000000
0.640223 0.592370 0.000000
0.826627 0.660639 0.000000
0.964599 0.724392 0.000000
0.077150 0.773190 0.000000
0.146609 0.768154 0.000000
0.263767 0.749996 0.000000
0.375616 0.715785 0.000000
0.487251 0.689815 0.000000
0.649073 0.725887 0.000000
0.802243 0.759976 0.000000
0.943359 0.797482 0.000000
0.216831 0.921996 0.000000
0.253269 0.919738 0.000000
0.348882 0.911620 0.000000
0.462501 0.897398 0.000000
0.570672 0.878050 0.000000
0.698878 0.883238 0.000000
0.837369 0.901061 0.000000
0.959319 0.914824 0.000000
0.000000 0.073640 0.099916
0.080171 0.065187 0.100252
0.209659 0.081209 0.104128
0.360571 0.097261 0.115694
0.544915 0.079805 0.113344
0.717769 0.126314 0.105989
0.857176 0.222354 0.107301
0.967346 0.330327 0.143954
0.000000 0.121584 0.106508
0.085542 0.120699 0.111666
0.212406 0.134554 0.114961
0.366552 0.137697 0.117006
0.550805 0.136263 0.113405
0.721523 0.175235 0.105013
0.858885 0.254673 0.106600
0.967803 0.352026 0.144198
0.000000 0.226749 0.087129
0.084443 0.225193 0.111269
0.211460 0.228794 0.100099
0.386633 0.243046 0.118898
0.571191 0.256779 0.111543
0.734157 0.291600 0.100069
0.864561 0.347051 0.102785
0.969207 0.420020 0.145296
0.000000 0.342626 0.081331
0.080659 0.337804 0.105592
0.184878 0.313207 0.113069
0.347448 0.336248 0.066896
0.561395 0.375921 0.065827
0.753994 0.439094 0.086732
0.873716 0.471656 0.096864
0.971283 0.519860 0.150332
0.000000 0.475532 0.076814
0.072847 0.467109 0.081819
0.194980 0.437324 0.095155
0.310185 0.422858 0.082612
0.491524 0.454261 0.000000
0.705531 0.521752 0.000000
0.874754 0.595544 0.000000
0.973297 0.635065 0.165713
0.000000 0.622705 0.000000
0.076448 0.614923 0.000000
0.215244 0.586664 0.000000
0.314061 0.536065 0.059113
0.465400 0.555138 0.000000
0.643732 0.596551 0.000000
0.828428 0.662440 0.000000
0.964721 0.725277 0.000000
0.000000 0.780880 0.000000
0.128847 0.775937 0.000000
0.258824 0.757656 0.000000
0.376043 0.723293 0.000000
0.485481 0.691554 0.000000
0.648493 0.727138 0.000000
0.802670 0.760891 0.000000
0.943786 0.797940 0.000000
0.197024 0.924956 0.000000
0.237491 0.922667 0.000000
0.339452 0.914488 0.000000
0.457496 0.900023 0.000000
0.568353 0.880278 0.000000
0.695949 0.883238 0.000000
0.835874 0.901091 0.000000
0.958984 0.914824 0.000000
0.000000 0.122408 0.200626
0.000000 0.086091 0.205234
0.186679 0.112367 0.214542
0.364385 0.124880 0.228061
0.546654 0.000000 0.205203
0.710292 0.087343 0.214878
0.851652 0.192599 0.217380
0.963928 0.312200 0.242283
0.000000 0.156680 0.202884
0.010742 0.151583 0.211856
0.193362 0.154726 0.221286
0.366674 0.156191 0.229435
0.542199 0.124361 0.216983
0.714137 0.150698 0.216251
0.853452 0.229709 0.218051
0.964385 0.335607 0.243290
0.000000 0.243992 0.220462
0.000000 0.245365 0.224613
0.208438 0.243259 0.237369
0.376776 0.246799 0.232639
0.562615 0.250858 0.225895
0.727291 0.276799 0.219150
0.859464 0.330266 0.220523
0.965820 0.408301 0.247379
0.000000 0.372473 0.191531
0.000000 0.371771 0.196506
0.206516 0.361944 0.223697
0.365423 0.357855 0.203952
0.585351 0.398810 0.224186
0.747829 0.429938 0.224338
0.869017 0.461707 0.226566
0.967834 0.513085 0.256992
0.000000 0.512108 0.157382
0.000000 0.510369 0.161471
0.203830 0.494057 0.202762
0.324224 0.446235 0.196323
0.513146 0.477516 0.154391
0.721248 0.537804 0.164828
0.879667 0.604822 0.238590
0.969604 0.632837 0.276799
0.000000 0.660670 0.072572
0.000000 0.657862 0.098299
0.206760 0.636774 0.168765
0.336339 0.582544 0.168643
0.474128 0.572778 0.139773
0.656123 0.611963 0.000000
0.835080 0.669368 0.000000
0.964599 0.729580 0.227634
0.000000 0.805966 0.000000
0.000000 0.802426 0.039063
0.228550 0.785397 0.109163
0.373022 0.750576 0.105715
0.477546 0.698024 0.102235
0.645899 0.732235 0.000000
0.804318 0.764401 0.000000
0.945281 0.799619 0.000000
0.000000 0.936248 0.000000
0.157290 0.933562 0.067323
0.299168 0.925017 0.063020
0.436927 0.909728 0.055146
0.558587 0.888731 0.046662
0.684657 0.883360 0.000000
0.830228 0.901274 0.000000
0.957733 0.914916 0.000000
0.000000 0.178195 0.325628
0.000000 0.144625 0.333532
0.137789 0.145357 0.356268
0.356542 0.155398 0.370672
0.581872 0.170871 0.408728
0.738216 0.056062 0.381109
0.855619 0.000000 0.329473
0.956725 0.270359 0.363897
0.000000 0.203342 0.328923
0.000000 0.195315 0.337407
0.145998 0.180301 0.359991
0.361944 0.191226 0.375647
0.582269 0.201144 0.408545
0.736324 0.120333 0.375433
0.851713 0.115328 0.335302
0.957366 0.297246 0.364446
0.000000 0.277104 0.333349
0.000000 0.279576 0.336767
0.174197 0.278264 0.363745
0.376501 0.281712 0.389349
0.580713 0.275517 0.399847
0.728084 0.216037 0.347631
0.849302 0.286992 0.348547
0.958953 0.381292 0.370428
0.000000 0.396063 0.363165
0.000000 0.398199 0.366888
0.132021 0.403235 0.380285
0.392218 0.402869 0.405035
0.581537 0.399023 0.385718
0.735744 0.410193 0.370123
0.859129 0.440742 0.364569
0.960540 0.500084 0.386816
0.000000 0.568170 0.353521
0.000000 0.568322 0.353613
0.012604 0.566674 0.351843
0.370947 0.540856 0.366522
0.550713 0.524651 0.332311
0.746548 0.572381 0.372290
0.870298 0.599573 0.392706
0.961517 0.630213 0.414771
0.000000 0.712734 0.310918
0.000000 0.710842 0.308629
0.000000 0.702846 0.299290
0.354772 0.672755 0.324559
0.486336 0.608331 0.292729
0.678370 0.642451 0.249546
0.846403 0.684901 0.293675
0.960479 0.746059 0.429633
0.000000 0.838865 0.253758
0.000000 0.836973 0.248508
0.000000 0.829191 0.228611
0.351324 0.800870 0.280339
0.488533 0.745998 0.250126
0.639124 0.743038 0.205997
0.807645 0.772274 0.119600
0.947204 0.803738 0.215000
0.000000 0.954711 0.181399
0.000000 0.953460 0.171756
0.000000 0.946502 0.199466
0.389960 0.928649 0.263127
0.536706 0.905455 0.241703
0.660761 0.883726 0.213779
0.818357 0.901762 0.130129
0.955077 0.915221 0.000000
0.000000 0.252110 0.486366
0.000000 0.224582 0.496315
0.000000 0.174075 0.525566
0.367559 0.194339 0.570581
0.577478 0.184939 0.580865
0.756985 0.283665 0.605585
0.869230 0.323339 0.588678
0.955047 0.369207 0.569451
0.000000 0.271061 0.490883
0.000000 0.258518 0.498817
0.000000 0.204044 0.527245
0.367620 0.227115 0.572229
0.580499 0.224704 0.584283
0.757443 0.319097 0.608118
0.867887 0.342351 0.587213
0.954406 0.379889 0.565820
0.000000 0.342992 0.475837
0.000000 0.344823 0.486915
0.000000 0.332189 0.523949
0.357000 0.312840 0.573632
0.588922 0.332738 0.593988
0.757626 0.418982 0.616510
0.862913 0.394690 0.578393
0.952544 0.407568 0.547601
0.000000 0.442481 0.500664
0.000000 0.443763 0.503807
0.000000 0.445869 0.514427
0.354803 0.446296 0.561273
0.596246 0.474006 0.604242
0.747494 0.495125 0.602411
0.853239 0.445228 0.541344
0.946532 0.483955 0.529686
0.000000 0.589685 0.540398
0.000000 0.591760 0.543481
0.000000 0.597955 0.554498
0.318425 0.604334 0.575280
0.596216 0.607385 0.607996
0.737484 0.591119 0.573388
0.851896 0.590539 0.548028
0.948486 0.623987 0.553887
0.000000 0.758022 0.534234
0.000000 0.760800 0.535821
0.000000 0.765164 0.536919
0.285649 0.754910 0.529808
0.547570 0.716182 0.539574
0.705074 0.692683 0.484138
0.854948 0.727138 0.551934
0.947326 0.761257 0.599908
0.000000 0.878660 0.484779
0.000000 0.877440 0.482094
0.000000 0.871641 0.472023
0.231968 0.856962 0.456458
0.505608 0.819028 0.470008
0.625940 0.762173 0.397131
0.811673 0.787381 0.350103
0.944640 0.816464 0.458412
0.000000 0.973022 0.431769
0.000000 0.972015 0.428260
0.000000 0.967803 0.415595
0.201755 0.957702 0.395605
0.506554 0.931914 0.435340
0.638788 0.899992 0.381231
0.796597 0.902739 0.331060
0.949462 0.915984 0.253819
0.000000 0.358618 0.667536
0.000000 0.334630 0.675441
0.000000 0.247990 0.699641
0.245487 0.230686 0.730831
0.597955 0.286107 0.768063
0.750576 0.308171 0.764981
0.864195 0.479896 0.764279
0.937316 0.599573 0.775479
0.000000 0.358373 0.671809
0.000000 0.345373 0.677913
0.000000 0.290013 0.699062
0.241978 0.258793 0.731014
0.597894 0.320195 0.768307
0.751125 0.344457 0.766049
0.863340 0.504906 0.766476
0.936614 0.608545 0.775814
0.000000 0.434882 0.659907
0.000000 0.432227 0.667720
0.000000 0.406561 0.693141
0.212741 0.338476 0.729213
0.595361 0.416175 0.767422
0.752132 0.449348 0.769070
0.860563 0.578851 0.773861
0.934539 0.634272 0.775021
0.000000 0.521172 0.649134
0.000000 0.520623 0.650782
0.000000 0.518425 0.665309
0.301457 0.504967 0.714168
0.583612 0.529656 0.760800
0.751858 0.581201 0.772183
0.857267 0.668879 0.784115
0.932372 0.661219 0.765225
0.000000 0.641199 0.681300
0.000000 0.640894 0.682795
0.000000 0.638636 0.688167
0.234806 0.631769 0.697322
0.563195 0.641352 0.737362
0.750393 0.692988 0.774197
0.850217 0.709743 0.770504
0.931395 0.670283 0.726406
0.000000 0.779507 0.709468
0.000000 0.780117 0.710964
0.000000 0.781613 0.716274
0.167788 0.780697 0.726192
0.526482 0.774990 0.742123
0.743069 0.777218 0.769558
0.839719 0.754208 0.733608
0.930266 0.757748 0.718349
0.000000 0.894987 0.677729
0.000000 0.895995 0.678431
0.000000 0.898741 0.680964
0.133913 0.900389 0.688136
0.497200 0.882475 0.689509
0.687221 0.841886 0.696071
0.813077 0.819242 0.631434
0.930510 0.854704 0.720027
0.000000 0.992309 0.634302
0.000000 0.991760 0.632471
0.000000 0.989258 0.625666
0.000000 0.981689 0.615991
0.439673 0.963897 0.616663
0.652766 0.932464 0.635676
0.764187 0.903471 0.549401
0.934600 0.917754 0.501946
0.000000 0.484779 0.818296
0.000000 0.468147 0.821897
0.000000 0.390936 0.835813
0.000000 0.286625 0.854948
0.519921 0.340551 0.871702
0.755550 0.487800 0.886809
0.858946 0.517021 0.880858
0.925719 0.671839 0.875822
0.000000 0.477760 0.820401
0.000000 0.458778 0.824338
0.000000 0.392065 0.836973
0.000000 0.310338 0.854582
0.521080 0.368933 0.871305
0.757992 0.517205 0.886900
0.858427 0.541253 0.880858
0.925048 0.684291 0.876829
0.000000 0.526635 0.815702
0.000000 0.522148 0.819455
0.000000 0.490394 0.831418
0.000000 0.410834 0.850919
0.523705 0.452125 0.869200
0.762905 0.596460 0.886229
0.856962 0.611872 0.881132
0.923033 0.722347 0.880217
0.000000 0.609613 0.798581
0.000000 0.606622 0.802304
0.000000 0.595605 0.815640
0.263523 0.572839 0.838437
0.518273 0.554742 0.863340
0.761868 0.678218 0.883330
0.855467 0.697230 0.882078
0.920867 0.773129 0.885161
0.000000 0.702785 0.805936
0.000000 0.700954 0.806271
0.000000 0.693843 0.807431
0.014710 0.680049 0.810575
0.540673 0.685542 0.845518
0.748745 0.741054 0.877226
0.854826 0.775204 0.883909
0.919341 0.826413 0.891142
0.000000 0.812985 0.824430
0.000000 0.811826 0.824796
0.000000 0.807034 0.826108
0.000000 0.796323 0.828031
0.450324 0.781643 0.830076
0.717983 0.797024 0.856626
0.854093 0.841733 0.885405
0.917845 0.851560 0.883482
0.000000 0.921691 0.836576
0.000000 0.921416 0.837064
0.000000 0.919860 0.838834
0.000000 0.914488 0.842100
0.436469 0.901976 0.847745
0.686976 0.888823 0.858000
0.846189 0.889433 0.878996
0.915068 0.870237 0.849546
0.000000 0.994995 0.791379
0.000000 0.995392 0.791562
0.000000 0.995758 0.792081
0.000000 0.993439 0.794705
0.421881 0.983825 0.808682
0.661311 0.966155 0.819608
0.794766 0.935668 0.813718
0.909026 0.924010 0.756558
0.000000 0.612665 0.928618
0.000000 0.612818 0.928679
0.000000 0.568872 0.933989
0.000000 0.466194 0.944060
0.459571 0.429816 0.951171
0.716060 0.556054 0.952789
0.856046 0.675135 0.953033
0.921935 0.698390 0.950225
0.000000 0.613184 0.928923
0.000000 0.613275 0.928985
0.000000 0.567224 0.934569
0.000000 0.465309 0.944488
0.463905 0.452064 0.950622
0.718410 0.575921 0.952209
0.856992 0.690028 0.952850
0.921447 0.709926 0.950134
0.000000 0.614984 0.930083
0.000000 0.616022 0.930114
0.000000 0.584588 0.934630
0.081971 0.527459 0.942229
0.475746 0.520684 0.948577
0.724697 0.633082 0.950408
0.860105 0.734249 0.952422
0.920012 0.745113 0.949981
0.000000 0.679713 0.924254
0.000000 0.681727 0.924102
0.000000 0.675044 0.927550
0.309392 0.656367 0.934478
0.492683 0.615808 0.944274
0.727749 0.700282 0.947875
0.864775 0.790951 0.952544
0.918486 0.792538 0.950286
0.000000 0.773465 0.915831
0.000000 0.773373 0.915923
0.000000 0.763729 0.917021
0.000000 0.741268 0.924651
0.553002 0.747036 0.933837
0.715145 0.756222 0.944640
0.863218 0.835203 0.952148
0.917418 0.843320 0.951446
0.000000 0.858915 0.922881
0.000000 0.857176 0.922911
0.000000 0.850523 0.922942
0.000000 0.837522 0.922484
0.392432 0.822080 0.920470
0.710628 0.831754 0.934936
0.854246 0.870817 0.950378
0.917418 0.891264 0.953826
0.000000 0.948028 0.930602
0.000000 0.946960 0.930632
0.000000 0.942535 0.930816
0.000000 0.932677 0.930816
0.336339 0.916350 0.930022
0.628870 0.899748 0.928191
0.828733 0.902495 0.939910
0.918364 0.932647 0.957153
0.000000 1.000000 0.932006
0.000000 1.000000 0.932189
0.000000 1.000000 0.932677
0.000000 1.000000 0.933532
0.248753 1.000000 0.934783
0.615106 0.982696 0.936980
0.801205 0.965789 0.941222
0.914519 0.962951 0.954284
