data/fiter_cube/48671653/1023256/file.cube
# Created by Adobe Lightroom plugin Export LUT (1.17.0)
# www.johnrellis.com/lightroom/exportlut.htm
# Preset: 青橙风光风景_05 云集
# Color profile: C:\Program Files (x86)\Common Files\Adobe\Color\Profiles\Recommended\AdobeRGB1998.icc
LUT_3D_SIZE 32
DOMAIN_MIN 0.0 0.0 0.0
DOMAIN_MAX 1.0 1.0 1.0
0.004120 0.007294 0.006867
0.022736 0.013550 0.008026
0.050568 0.019226 0.010071
0.075410 0.039002 0.013428
0.097200 0.061128 0.019715
0.122713 0.069459 0.026459
0.151125 0.075990 0.033021
0.181949 0.079591 0.039490
0.214786 0.081331 0.044404
0.249058 0.081971 0.048035
0.285496 0.080232 0.049439
0.324041 0.076722 0.049531
0.364874 0.072297 0.049287
0.408179 0.066011 0.049104
0.454078 0.057893 0.046632
0.501183 0.045960 0.040284
0.548089 0.043214 0.033143
0.593622 0.058045 0.023468
0.637263 0.075624 0.013672
0.679866 0.097078 0.001801
0.720394 0.121126 0.000000
0.758480 0.146670 0.000000
0.794034 0.172366 0.000000
0.827420 0.198459 0.000000
0.859037 0.224399 0.000000
0.889036 0.250645 0.009339
0.917296 0.277409 0.043610
0.943816 0.304784 0.071962
0.968475 0.332860 0.094759
0.991058 0.362005 0.120150
1.000000 0.392554 0.148440
1.000000 0.425147 0.181338
0.005158 0.035248 0.006714
0.024353 0.040314 0.005798
0.050874 0.043824 0.009125
0.075044 0.059144 0.013611
0.097383 0.069459 0.018952
0.122805 0.076722 0.026825
0.151431 0.081788 0.033539
0.182345 0.085420 0.039887
0.215213 0.086641 0.044862
0.249546 0.087190 0.047547
0.285985 0.085786 0.048890
0.324590 0.082795 0.049683
0.365393 0.078737 0.050263
0.408942 0.073121 0.049134
0.454688 0.067231 0.046479
0.501793 0.062043 0.041016
0.548791 0.061555 0.032532
0.594141 0.069642 0.023804
0.637720 0.084993 0.012726
0.680354 0.104646 0.000610
0.720790 0.127504 0.000000
0.758785 0.151858 0.000000
0.794278 0.176852 0.000000
0.827634 0.202182 0.000000
0.859190 0.227909 0.000000
0.889128 0.253880 0.007782
0.917388 0.280095 0.042237
0.943908 0.307195 0.071870
0.968505 0.335058 0.094972
0.991089 0.364019 0.120119
1.000000 0.394354 0.148440
1.000000 0.426825 0.181552
0.005219 0.063630 0.008881
0.023316 0.063844 0.010529
0.052766 0.066773 0.005829
0.075227 0.071412 0.011994
0.097108 0.079286 0.020813
0.123140 0.085145 0.027649
0.151888 0.089570 0.034333
0.182895 0.092500 0.039704
0.215793 0.093538 0.044648
0.250126 0.093965 0.048188
0.286839 0.092500 0.048646
0.325353 0.090303 0.050141
0.366278 0.086488 0.049836
0.409766 0.082765 0.049226
0.455573 0.078279 0.046357
0.502739 0.074128 0.039643
0.549615 0.074922 0.033051
0.594965 0.082338 0.022919
0.638422 0.095949 0.011658
0.680903 0.114015 0.000519
0.721340 0.135378 0.000000
0.759213 0.158541 0.000000
0.794644 0.182803 0.000000
0.827909 0.207279 0.000000
0.859403 0.232609 0.000000
0.889342 0.257847 0.007355
0.917540 0.283879 0.041566
0.943999 0.310552 0.071687
0.968566 0.338048 0.094850
0.991119 0.366735 0.120241
1.000000 0.396796 0.148562
1.000000 0.429053 0.181765
0.009674 0.088289 0.012055
0.029236 0.087709 0.014954
0.052186 0.087861 0.016449
0.076143 0.092744 0.005798
0.098207 0.096101 0.014374
0.123873 0.101534 0.028534
0.152895 0.104585 0.034302
0.184146 0.106355 0.040864
0.217075 0.107179 0.044709
0.251743 0.107088 0.047425
0.288334 0.106203 0.049348
0.327062 0.104616 0.049775
0.368078 0.102449 0.049866
0.411566 0.099794 0.049073
0.457527 0.096956 0.045655
0.504631 0.095827 0.040284
0.551354 0.097475 0.032197
0.596612 0.104433 0.021454
0.639887 0.116030 0.009857
0.682216 0.131716 0.000000
0.722469 0.151034 0.000000
0.760098 0.172457 0.000000
0.795377 0.195010 0.000000
0.828519 0.218296 0.000000
0.859922 0.242191 0.000000
0.889708 0.266789 0.006165
0.917815 0.291783 0.040620
0.944182 0.317784 0.071382
0.968688 0.344549 0.094911
0.991180 0.372473 0.120180
1.000000 0.402106 0.148959
1.000000 0.433783 0.182101
0.014893 0.113588 0.017762
0.034607 0.112947 0.020752
0.054353 0.112184 0.024811
0.072236 0.114260 0.022858
0.097505 0.120027 0.005982
0.124727 0.121401 0.012604
0.154055 0.124300 0.031067
0.186099 0.126040 0.040467
0.219303 0.126314 0.044312
0.254093 0.126040 0.047089
0.290837 0.125307 0.048859
0.329686 0.124575 0.049744
0.370825 0.123568 0.050172
0.414557 0.122286 0.048798
0.460517 0.121462 0.045472
0.507591 0.121828 0.038239
0.554131 0.124575 0.029328
0.599084 0.131441 0.018952
0.642267 0.141543 0.007691
0.684260 0.155947 0.000000
0.724117 0.172915 0.000000
0.761563 0.192172 0.000000
0.796567 0.212741 0.000000
0.829496 0.234562 0.000000
0.860685 0.256870 0.000000
0.890318 0.280034 0.002075
0.918273 0.303838 0.038849
0.944488 0.328588 0.071260
0.968902 0.354437 0.094606
0.991272 0.381506 0.120546
1.000000 0.410224 0.149294
1.000000 0.441169 0.182773
0.018372 0.139132 0.023774
0.034180 0.138521 0.026917
0.052552 0.137667 0.029023
0.069154 0.135988 0.037629
0.091249 0.140749 0.025544
0.122316 0.146487 0.006500
0.153811 0.146273 0.010956
0.186221 0.147463 0.028046
0.221805 0.149447 0.042023
0.257053 0.149264 0.046693
0.294163 0.148867 0.048157
0.333227 0.148440 0.049531
0.374548 0.148318 0.050233
0.418585 0.148013 0.048157
0.464546 0.148501 0.043580
0.511498 0.150179 0.036316
0.557916 0.154055 0.027253
0.602472 0.160830 0.014923
0.645258 0.170535 0.002686
0.686976 0.183474 0.000000
0.726375 0.199069 0.000000
0.763424 0.216220 0.000000
0.798093 0.234867 0.000000
0.830747 0.254765 0.000000
0.861723 0.275517 0.000000
0.891112 0.297002 0.000000
0.918883 0.319432 0.035096
0.944915 0.342779 0.070558
0.969146 0.367376 0.094697
0.991394 0.393378 0.121035
1.000000 0.420966 0.150057
1.000000 0.450965 0.183536
0.015351 0.164553 0.028046
0.030152 0.163943 0.030243
0.047456 0.163149 0.033570
0.066987 0.161471 0.040192
0.086183 0.161044 0.043153
0.113771 0.166903 0.026368
0.149569 0.172152 0.006165
0.183963 0.170779 0.007294
0.219028 0.171420 0.023377
0.257511 0.173648 0.038331
0.298100 0.175814 0.048371
0.337621 0.175662 0.049256
0.379309 0.175845 0.049378
0.423529 0.176669 0.047150
0.469734 0.178134 0.040925
0.516442 0.180850 0.032380
0.562493 0.185397 0.022095
0.606775 0.192477 0.009430
0.649134 0.201846 0.000000
0.690303 0.213687 0.000000
0.729213 0.227634 0.000000
0.765805 0.243320 0.000000
0.800015 0.260441 0.000000
0.832334 0.278325 0.000000
0.862974 0.297337 0.000000
0.892088 0.317144 0.000000
0.919585 0.338140 0.032624
0.945434 0.359960 0.070192
0.969451 0.383124 0.094850
0.991516 0.407782 0.121492
1.000000 0.434180 0.150759
1.000000 0.463020 0.184848
0.008606 0.190494 0.031098
0.020722 0.190036 0.033326
0.038605 0.189212 0.035645
0.064607 0.187289 0.040467
0.084016 0.184451 0.048188
0.107698 0.187076 0.042908
0.139651 0.192905 0.025971
0.178805 0.197848 0.004273
0.215091 0.195590 0.002014
0.252934 0.196628 0.015991
0.294621 0.199527 0.029816
0.340459 0.203952 0.043732
0.384955 0.206302 0.047517
0.429511 0.207706 0.043488
0.475837 0.209964 0.036683
0.522393 0.213443 0.026581
0.568048 0.218784 0.014679
0.611810 0.225742 0.001007
0.653803 0.234836 0.000000
0.694362 0.245884 0.000000
0.732631 0.258854 0.000000
0.768551 0.273014 0.000000
0.802304 0.288518 0.000000
0.834165 0.304784 0.000000
0.864469 0.321996 0.000000
0.893248 0.340337 0.000000
0.920439 0.359472 0.027832
0.946044 0.379797 0.069062
0.969818 0.401495 0.094759
0.991669 0.424659 0.121950
1.000000 0.449744 0.151949
1.000000 0.477211 0.186343
0.000000 0.217227 0.033417
0.011048 0.216617 0.034730
0.029084 0.215824 0.037140
0.061372 0.213931 0.043214
0.082307 0.211154 0.049653
0.103395 0.207767 0.055909
0.132509 0.213199 0.042390
0.168093 0.218967 0.020600
0.209415 0.223667 0.000000
0.246983 0.220706 0.000000
0.287938 0.222873 0.003174
0.332952 0.226841 0.015778
0.382727 0.233219 0.028199
0.436713 0.241367 0.036622
0.482887 0.244266 0.029328
0.529259 0.248478 0.017365
0.574426 0.253880 0.005310
0.617823 0.261204 0.000000
0.659144 0.269963 0.000000
0.698939 0.280247 0.000000
0.736538 0.292210 0.000000
0.771786 0.304845 0.000000
0.804929 0.318791 0.000000
0.836362 0.333623 0.000000
0.866209 0.349187 0.000000
0.894621 0.365515 0.000000
0.921508 0.383185 0.023499
0.946746 0.401923 0.068177
0.970245 0.422034 0.095186
0.991821 0.443763 0.122957
1.000000 0.467384 0.153323
1.000000 0.493416 0.188083
0.000000 0.244236 0.033967
0.001526 0.243687 0.036347
0.019928 0.242924 0.037781
0.057313 0.241093 0.042939
0.080842 0.238285 0.049714
0.102907 0.234348 0.056672
0.127596 0.233951 0.056031
0.160006 0.239506 0.038911
0.198215 0.245090 0.014313
0.241001 0.249546 0.000000
0.279667 0.246189 0.000000
0.323827 0.249790 0.000000
0.372656 0.255863 0.000000
0.426337 0.264530 0.002808
0.484108 0.276036 0.008240
0.537133 0.285527 0.005737
0.581750 0.291386 0.000000
0.624445 0.298344 0.000000
0.665187 0.306798 0.000000
0.704005 0.316381 0.000000
0.740810 0.327184 0.000000
0.775357 0.338659 0.000000
0.807950 0.350958 0.000000
0.838804 0.364050 0.000000
0.868193 0.378088 0.000000
0.896147 0.392950 0.000000
0.922637 0.408881 0.019471
0.947509 0.426093 0.067445
0.970703 0.444617 0.095491
0.992004 0.464729 0.123995
1.000000 0.486854 0.154971
1.000000 0.511406 0.190280
0.000000 0.272007 0.033051
0.000000 0.271458 0.035554
0.010498 0.270573 0.037140
0.051606 0.268742 0.042573
0.079347 0.265751 0.049012
0.102632 0.261753 0.056367
0.125765 0.256687 0.061952
0.154452 0.259922 0.054261
0.189456 0.265629 0.032563
0.229618 0.271397 0.002441
0.273594 0.275700 0.000000
0.313085 0.272068 0.000000
0.360754 0.277836 0.000000
0.413458 0.286442 0.000000
0.470527 0.297978 0.000000
0.529534 0.312291 0.000000
0.587610 0.328954 0.000000
0.631739 0.337591 0.000000
0.671717 0.345281 0.000000
0.709651 0.353918 0.000000
0.745541 0.363561 0.000000
0.779294 0.373693 0.000000
0.811185 0.384649 0.000000
0.841428 0.396246 0.000000
0.870329 0.408698 0.000000
0.897826 0.421973 0.000000
0.923857 0.436316 0.014282
0.948363 0.451850 0.067323
0.971191 0.468818 0.096529
0.992187 0.487404 0.125521
1.000000 0.507927 0.157198
1.000000 0.531029 0.192966
0.000000 0.300420 0.031525
0.000000 0.299779 0.033082
0.001282 0.298863 0.035950
0.044831 0.296910 0.040681
0.077943 0.293889 0.047089
0.103090 0.289708 0.054963
0.126864 0.284489 0.061524
0.150729 0.280430 0.064088
0.183230 0.286046 0.050141
0.220157 0.291905 0.020691
0.261967 0.297856 0.000000
0.306920 0.302342 0.000000
0.347204 0.298466 0.000000
0.398596 0.307042 0.000000
0.454749 0.318639 0.000000
0.513756 0.333013 0.000000
0.572412 0.349828 0.000000
0.628748 0.368658 0.000000
0.678767 0.385473 0.000000
0.715694 0.393194 0.000000
0.750637 0.401373 0.000000
0.783505 0.410224 0.000000
0.814664 0.419654 0.000000
0.844327 0.429725 0.000000
0.872679 0.440497 0.000000
0.899657 0.452277 0.000000
0.925200 0.465064 0.010071
0.949279 0.479011 0.067262
0.971710 0.494484 0.097597
0.992370 0.511437 0.127565
1.000000 0.530480 0.159792
1.000000 0.551995 0.196292
0.000000 0.329625 0.025483
0.000000 0.328985 0.027131
0.000000 0.328038 0.029084
0.038483 0.325994 0.035248
0.077272 0.322789 0.041291
0.103273 0.318456 0.050355
0.127993 0.313085 0.058961
0.151278 0.306493 0.064546
0.178683 0.306340 0.061433
0.213077 0.312230 0.039277
0.252018 0.318547 0.004730
0.295415 0.324743 0.000000
0.341070 0.329656 0.000000
0.381689 0.325750 0.000000
0.437049 0.337346 0.000000
0.495613 0.351904 0.000000
0.554894 0.369116 0.000000
0.612299 0.388006 0.000000
0.667018 0.408270 0.000000
0.717372 0.428626 0.000000
0.756008 0.440345 0.000000
0.788022 0.447669 0.000000
0.818418 0.455665 0.000000
0.847440 0.464149 0.000000
0.875151 0.473396 0.000000
0.901579 0.483650 0.000000
0.926665 0.494911 0.006775
0.950256 0.507408 0.067933
0.972259 0.521202 0.099336
0.992493 0.536767 0.130037
1.000000 0.554223 0.162783
1.000000 0.574151 0.199985
0.000000 0.360021 0.015991
0.000000 0.359258 0.016815
0.000000 0.358282 0.018952
0.031525 0.356207 0.024384
0.076387 0.352758 0.032319
0.104219 0.348211 0.042298
0.129580 0.342535 0.052522
0.153475 0.335698 0.061006
0.175967 0.327672 0.067231
0.208011 0.332769 0.054383
0.244572 0.339055 0.021668
0.285100 0.345647 0.000000
0.329656 0.352300 0.000000
0.376135 0.357702 0.000000
0.416632 0.353735 0.000000
0.475166 0.368536 0.000000
0.534874 0.385992 0.000000
0.593439 0.405493 0.000000
0.650019 0.426490 0.000000
0.702815 0.447761 0.000000
0.750362 0.467628 0.000000
0.792691 0.485969 0.000000
0.822354 0.492409 0.000000
0.850675 0.499397 0.000000
0.877775 0.507195 0.000000
0.903624 0.515862 0.000000
0.928130 0.525597 0.005524
0.951232 0.536522 0.069245
0.972778 0.548974 0.102083
0.992645 0.562951 0.133303
1.000000 0.578943 0.166934
1.000000 0.597314 0.204410
0.000000 0.391547 0.000244
0.000000 0.390845 0.002167
0.000000 0.389807 0.004578
0.026459 0.387518 0.009522
0.076051 0.383978 0.018189
0.104982 0.379248 0.028077
0.131441 0.373297 0.041413
0.156344 0.366003 0.053834
0.179232 0.357702 0.062318
0.204379 0.353368 0.063111
0.238773 0.359747 0.038575
0.277134 0.366430 0.000000
0.319249 0.373541 0.000000
0.365118 0.380865 0.000000
0.412238 0.386755 0.000000
0.452766 0.383520 0.000000
0.512413 0.400275 0.000000
0.572045 0.420386 0.000000
0.630274 0.442267 0.000000
0.686000 0.465095 0.000000
0.736202 0.486213 0.000000
0.780911 0.505425 0.000000
0.820951 0.522942 0.000000
0.854093 0.535241 0.000000
0.880491 0.541497 0.000000
0.905730 0.548730 0.000000
0.929625 0.557000 0.007324
0.952239 0.566552 0.072602
0.973297 0.577417 0.105379
0.992737 0.589929 0.137331
1.000000 0.604364 0.171237
1.000000 0.621210 0.209689
0.000000 0.424598 0.000000
0.000000 0.423774 0.000000
0.000000 0.422705 0.000000
0.020996 0.420356 0.000000
0.075746 0.416663 0.000000
0.106691 0.411658 0.007721
0.133700 0.405371 0.020447
0.159060 0.397894 0.036683
0.183047 0.389075 0.052583
0.204868 0.379156 0.062989
0.234684 0.380529 0.051789
0.271153 0.387427 0.011658
0.311162 0.394781 0.000000
0.354742 0.402380 0.000000
0.401465 0.410346 0.000000
0.448707 0.416876 0.000000
0.488655 0.414069 0.000000
0.547967 0.432471 0.000000
0.608240 0.455451 0.000000
0.666621 0.479927 0.000000
0.719936 0.502953 0.000000
0.767483 0.523522 0.000000
0.809812 0.541924 0.000000
0.847745 0.558679 0.000000
0.881804 0.574121 0.000000
0.907897 0.582086 0.000000
0.931212 0.588861 0.012421
0.953246 0.596948 0.076448
0.973816 0.606378 0.110292
0.992798 0.617426 0.142397
1.000000 0.630335 0.177005
1.000000 0.645686 0.215976
0.000000 0.458839 0.000000
0.000000 0.457923 0.000000
0.000000 0.456886 0.000000
0.018219 0.454475 0.000000
0.076631 0.450660 0.000000
0.108309 0.445533 0.000000
0.136416 0.439094 0.000000
0.162631 0.431159 0.011597
0.187381 0.422004 0.029236
0.209873 0.411597 0.048951
0.231785 0.401709 0.059876
0.266697 0.408698 0.023682
0.304997 0.416144 0.000000
0.346502 0.423987 0.000000
0.391150 0.432166 0.000000
0.438270 0.440681 0.000000
0.485023 0.447730 0.000000
0.524010 0.445441 0.000000
0.583154 0.465492 0.000000
0.644221 0.491798 0.000000
0.701198 0.517235 0.000000
0.751949 0.539910 0.000000
0.796994 0.559747 0.000000
0.837247 0.577417 0.000000
0.873289 0.593317 0.000000
0.905272 0.608118 0.000000
0.932799 0.621027 0.025330
0.954253 0.627649 0.082765
0.974304 0.635676 0.116396
0.992828 0.645289 0.148836
1.000000 0.656733 0.183505
1.000000 0.670527 0.223026
0.000000 0.493782 0.000000
0.000000 0.492897 0.000000
0.000000 0.491829 0.000000
0.015198 0.489296 0.000000
0.077729 0.485542 0.000000
0.110567 0.480293 0.000000
0.139712 0.473762 0.000000
0.166720 0.465736 0.000000
0.192020 0.456489 0.000000
0.215549 0.445838 0.019989
0.237003 0.433997 0.042023
0.263706 0.430518 0.033478
0.300542 0.438056 0.000000
0.340642 0.446143 0.000000
0.383551 0.454505 0.000000
0.428809 0.463325 0.000000
0.476234 0.472572 0.000000
0.522271 0.480354 0.000000
0.560021 0.478645 0.000000
0.618585 0.500084 0.000000
0.679469 0.528496 0.000000
0.734127 0.553979 0.000000
0.782467 0.575891 0.000000
0.825406 0.595056 0.000000
0.863737 0.611810 0.000000
0.897734 0.627039 0.000000
0.927642 0.641260 0.000000
0.953643 0.654994 0.067140
0.974731 0.665034 0.123659
0.992767 0.673243 0.156161
1.000000 0.683253 0.191348
1.000000 0.695583 0.231296
0.000000 0.530114 0.000000
0.000000 0.529290 0.000000
0.000000 0.528161 0.000000
0.017151 0.525811 0.000000
0.080018 0.521996 0.000000
0.113863 0.516899 0.000000
0.143832 0.510246 0.000000
0.171633 0.502373 0.000000
0.197757 0.493080 0.000000
0.222080 0.482399 0.000000
0.244480 0.470436 0.001862
0.264775 0.457221 0.028138
0.298192 0.461555 0.000000
0.337133 0.469703 0.000000
0.378576 0.478340 0.000000
0.422553 0.487251 0.000000
0.468513 0.496773 0.000000
0.515373 0.506615 0.000000
0.560388 0.515190 0.000000
0.597131 0.514061 0.000000
0.654505 0.536126 0.000000
0.713619 0.565148 0.000000
0.765774 0.589990 0.000000
0.811887 0.611231 0.000000
0.852842 0.629450 0.000000
0.889220 0.645533 0.000000
0.921141 0.660121 0.000000
0.948852 0.673793 0.000000
0.972564 0.687068 0.087831
0.992584 0.700679 0.162875
1.000000 0.709804 0.200412
1.000000 0.720699 0.240726
0.000000 0.568353 0.000000
0.000000 0.567620 0.000000
0.000000 0.566552 0.000000
0.023835 0.564141 0.000000
0.084199 0.560418 0.000000
0.118471 0.555352 0.000000
0.149233 0.548974 0.000000
0.177584 0.541131 0.000000
0.204654 0.531914 0.000000
0.229953 0.521355 0.000000
0.253361 0.509361 0.000000
0.274693 0.496132 0.000000
0.297795 0.486824 0.000000
0.335882 0.495155 0.000000
0.376349 0.503777 0.000000
0.419318 0.512963 0.000000
0.463935 0.522545 0.000000
0.509667 0.532586 0.000000
0.555718 0.543267 0.000000
0.599725 0.552392 0.000000
0.635431 0.551873 0.000000
0.689693 0.572747 0.000000
0.746548 0.601495 0.000000
0.796445 0.625513 0.000000
0.840574 0.645838 0.000000
0.879637 0.663294 0.000000
0.913817 0.678614 0.000000
0.943481 0.692531 0.000000
0.968811 0.705715 0.000000
0.990082 0.718654 0.113802
1.000000 0.732265 0.190158
1.000000 0.745632 0.251591
0.000000 0.608515 0.000000
0.000000 0.607752 0.000000
0.000000 0.606714 0.000000
0.039033 0.604456 0.000000
0.090883 0.600763 0.000000
0.124971 0.595850 0.000000
0.155856 0.589654 0.000000
0.185092 0.582086 0.000000
0.213107 0.573053 0.000000
0.239200 0.562737 0.000000
0.263584 0.551049 0.000000
0.286046 0.537957 0.000000
0.306493 0.523522 0.000000
0.336736 0.522667 0.000000
0.376684 0.531365 0.000000
0.418616 0.540642 0.000000
0.462470 0.550286 0.000000
0.507225 0.560540 0.000000
0.552300 0.571344 0.000000
0.597498 0.582696 0.000000
0.640223 0.592370 0.000000
0.674037 0.591333 0.000000
0.724422 0.609613 0.000000
0.778836 0.637537 0.000000
0.826627 0.660639 0.000000
0.868803 0.679988 0.000000
0.905669 0.696559 0.000000
0.937499 0.711147 0.000000
0.964599 0.724392 0.000000
0.987366 0.737057 0.000000
1.000000 0.749844 0.144778
1.000000 0.763607 0.225223
0.000000 0.650233 0.000000
0.000000 0.649561 0.000000
0.000000 0.648554 0.000000
0.060121 0.646418 0.000000
0.099397 0.643000 0.000000
0.133364 0.638331 0.000000
0.164706 0.632441 0.000000
0.194736 0.625086 0.000000
0.223239 0.616480 0.000000
0.250217 0.606439 0.000000
0.275761 0.595209 0.000000
0.299474 0.582483 0.000000
0.321172 0.568505 0.000000
0.340490 0.553216 0.000000
0.379583 0.561700 0.000000
0.421057 0.570977 0.000000
0.464027 0.580774 0.000000
0.507958 0.591028 0.000000
0.552087 0.601892 0.000000
0.596246 0.613001 0.000000
0.640009 0.624537 0.000000
0.680964 0.633722 0.000000
0.712490 0.631556 0.000000
0.758633 0.646632 0.000000
0.810788 0.673457 0.000000
0.856565 0.695430 0.000000
0.896483 0.713771 0.000000
0.930877 0.729397 0.000000
0.959991 0.743099 0.000000
0.984375 0.755673 0.000000
1.000000 0.767849 0.065949
1.000000 0.780606 0.182742
0.000000 0.691981 0.000000
0.000000 0.691341 0.000000
0.024018 0.690486 0.000000
0.077974 0.688472 0.000000
0.112184 0.685389 0.000000
0.144686 0.681209 0.000000
0.175692 0.675929 0.000000
0.205600 0.669398 0.000000
0.235111 0.661463 0.000000
0.263096 0.652277 0.000000
0.289891 0.641749 0.000000
0.314702 0.629847 0.000000
0.337896 0.616480 0.000000
0.358770 0.601801 0.000000
0.385565 0.595148 0.000000
0.426642 0.604547 0.000000
0.469032 0.614252 0.000000
0.511925 0.624445 0.000000
0.554986 0.634821 0.000000
0.597864 0.645441 0.000000
0.640406 0.656306 0.000000
0.682460 0.667201 0.000000
0.721492 0.675715 0.000000
0.750576 0.672145 0.000000
0.792660 0.683772 0.000000
0.842679 0.709285 0.000000
0.886198 0.729946 0.000000
0.923491 0.747097 0.000000
0.954955 0.761563 0.000000
0.981109 0.774350 0.000000
1.000000 0.786191 0.000000
1.000000 0.798123 0.122652
0.016724 0.733089 0.000000
0.048005 0.732540 0.000000
0.070405 0.731716 0.000000
0.097688 0.730007 0.000000
0.127779 0.727291 0.000000
0.158236 0.723629 0.000000
0.188724 0.718929 0.000000
0.218936 0.713130 0.000000
0.248692 0.706172 0.000000
0.277470 0.698024 0.000000
0.305211 0.688777 0.000000
0.331609 0.678126 0.000000
0.356420 0.666255 0.000000
0.379156 0.653132 0.000000
0.399878 0.638575 0.000000
0.435279 0.641413 0.000000
0.476875 0.650721 0.000000
0.518639 0.660243 0.000000
0.560479 0.670069 0.000000
0.602167 0.679988 0.000000
0.643458 0.690059 0.000000
0.684230 0.700160 0.000000
0.724483 0.710292 0.000000
0.761776 0.717769 0.000000
0.788663 0.712978 0.000000
0.826963 0.721126 0.000000
0.874662 0.744900 0.000000
0.915312 0.764096 0.000000
0.949432 0.779751 0.000000
0.977600 0.792996 0.000000
1.000000 0.804776 0.000000
1.000000 0.816068 0.000000
0.077150 0.773190 0.000000
0.086854 0.772671 0.000000
0.098848 0.771969 0.000000
0.120424 0.770504 0.000000
0.146609 0.768154 0.000000
0.174716 0.765042 0.000000
0.204257 0.760922 0.000000
0.234043 0.755947 0.000000
0.263767 0.749996 0.000000
0.293217 0.743008 0.000000
0.321874 0.735042 0.000000
0.349340 0.725917 0.000000
0.375616 0.715785 0.000000
0.400336 0.704402 0.000000
0.423133 0.691981 0.000000
0.446601 0.681209 0.000000
0.487251 0.689815 0.000000
0.527947 0.698604 0.000000
0.568627 0.707607 0.000000
0.609064 0.716701 0.000000
0.649073 0.725887 0.000000
0.688808 0.735073 0.000000
0.727932 0.744289 0.000000
0.766567 0.753414 0.000000
0.802243 0.759976 0.000000
0.827115 0.753933 0.000000
0.861784 0.758602 0.000000
0.906218 0.780240 0.000000
0.943359 0.797482 0.000000
0.973785 0.811521 0.000000
0.998383 0.823484 0.000000
1.000000 0.834318 0.000000
0.111421 0.812253 0.000000
0.119112 0.811795 0.000000
0.128145 0.811246 0.000000
0.145357 0.809995 0.000000
0.168276 0.808011 0.000000
0.194522 0.805356 0.000000
0.222416 0.801938 0.000000
0.251499 0.797696 0.000000
0.281102 0.792660 0.000000
0.310491 0.786801 0.000000
0.339727 0.780087 0.000000
0.368109 0.772549 0.000000
0.395666 0.764034 0.000000
0.421851 0.754635 0.000000
0.446509 0.744350 0.000000
0.469490 0.733150 0.000000
0.500206 0.731228 0.000000
0.539849 0.739101 0.000000
0.579339 0.747219 0.000000
0.618585 0.755398 0.000000
0.657618 0.763638 0.000000
0.696193 0.771878 0.000000
0.734279 0.780148 0.000000
0.771878 0.788296 0.000000
0.809049 0.796292 0.000000
0.843168 0.801663 0.000000
0.865873 0.794491 0.000000
0.896971 0.796323 0.000000
0.936706 0.814694 0.000000
0.969757 0.829770 0.000000
0.996216 0.842069 0.000000
1.000000 0.852689 0.000000
0.145418 0.850248 0.000000
0.151003 0.849912 0.000000
0.158389 0.849424 0.000000
0.172885 0.848417 0.000000
0.193179 0.846769 0.000000
0.217441 0.844541 0.000000
0.243870 0.841703 0.000000
0.272038 0.838224 0.000000
0.300786 0.834073 0.000000
0.330236 0.829282 0.000000
0.359472 0.823789 0.000000
0.388464 0.817655 0.000000
0.416663 0.810758 0.000000
0.443824 0.803189 0.000000
0.469795 0.795010 0.000000
0.494392 0.786099 0.000000
0.517693 0.776608 0.000000
0.554345 0.781643 0.000000
0.592767 0.788693 0.000000
0.630976 0.795865 0.000000
0.668788 0.803006 0.000000
0.706294 0.810239 0.000000
0.743343 0.817380 0.000000
0.779965 0.824399 0.000000
0.816159 0.831266 0.000000
0.851713 0.837949 0.000000
0.883818 0.842130 0.000000
0.904021 0.833860 0.000000
0.931456 0.833463 0.000000
0.965423 0.847654 0.000000
0.993957 0.860533 0.000000
1.000000 0.871092 0.000000
0.179995 0.886992 0.000000
0.184573 0.886717 0.000000
0.190616 0.886351 0.000000
0.203311 0.885496 0.000000
0.221469 0.884154 0.000000
0.243442 0.882383 0.000000
0.268376 0.880064 0.000000
0.295201 0.877256 0.000000
0.323278 0.873930 0.000000
0.352209 0.870085 0.000000
0.381384 0.865690 0.000000
0.410376 0.860838 0.000000
0.438849 0.855436 0.000000
0.466682 0.849577 0.000000
