data/fiter_cube/27130762/1023401/file.cube
# Created by Adobe Lightroom plugin Export LUT (1.17.0)
# www.johnrellis.com/lightroom/exportlut.htm
# Preset: 森系文艺人像美食静物_05 云集
# Color profile: C:\Program Files (x86)\Common Files\Adobe\Color\Profiles\Recommended\AdobeRGB1998.icc
LUT_3D_SIZE 5
DOMAIN_MIN 0.000000 0.000000 0.000000
DOMAIN_MAX 0.903226 0.903226 0.903226
0.000000 0.000000 0.000000
0.315496 0.000000 0.000000
0.619867 0.000000 0.000000
0.868956 0.000000 0.114717
1.000000 0.126223 0.211032
0.055207 0.286076 0.058350
0.300237 0.300847 0.000000
0.658015 0.318090 0.008942
0.885313 0.297429 0.157198
1.000000 0.303166 0.241672
0.224949 0.549737 0.226017
0.332555 0.547509 0.234073
0.591272 0.592279 0.211154
0.911254 0.625483 0.260410
1.000000 0.569421 0.326818
0.357702 0.778958 0.358709
0.419928 0.777981 0.363714
0.577783 0.773129 0.379553
0.802579 0.803952 0.343877
1.000000 0.798978 0.392737
0.522881 0.947936 0.523766
0.554589 0.946654 0.527123
0.647547 0.940276 0.535241
0.785428 0.943542 0.549340
0.954833 0.956237 0.518120
0.000000 0.000000 0.308202
0.298405 0.000000 0.298344
0.575525 0.000000 0.296452
0.823880 0.128939 0.318090
1.000000 0.213077 0.351598
0.093385 0.299931 0.297276
0.300053 0.300053 0.300053
0.593378 0.304784 0.314061
0.844968 0.318425 0.340124
1.000000 0.339391 0.370428
0.244694 0.548333 0.338903
0.356146 0.551293 0.356390
0.577966 0.578820 0.351080
0.898497 0.633631 0.420539
1.000000 0.589044 0.442878
0.375616 0.777646 0.430304
0.441505 0.777523 0.442115
0.587945 0.772946 0.453864
0.800076 0.801328 0.435248
1.000000 0.808865 0.502983
0.546258 0.946044 0.573053
0.575128 0.944854 0.575738
0.666651 0.942382 0.588342
0.794461 0.943236 0.601373
0.955352 0.956664 0.577173
0.121126 0.111147 0.626123
0.316289 0.102205 0.604578
0.566857 0.011231 0.566491
0.807370 0.152682 0.554406
0.990570 0.236973 0.543664
0.258671 0.382361 0.635645
0.359716 0.357946 0.612024
0.569940 0.298222 0.569757
0.803281 0.315526 0.557122
0.987640 0.355871 0.554833
0.286809 0.593835 0.589319
0.387030 0.590051 0.586664
0.571618 0.571618 0.571618
0.815183 0.592248 0.597925
0.991180 0.609796 0.620752
0.380621 0.772793 0.577600
0.451057 0.771328 0.585748
0.616785 0.773892 0.616999
0.795987 0.796658 0.624201
1.000000 0.840757 0.715663
0.549554 0.942046 0.657740
0.591852 0.941558 0.669551
0.694087 0.940398 0.694484
0.807004 0.937438 0.706905
0.953094 0.954070 0.697719
0.262119 0.255253 0.849027
0.364355 0.251774 0.840970
0.560815 0.196658 0.811460
0.789822 0.161349 0.789364
0.978820 0.234440 0.752590
0.367926 0.437415 0.851072
0.427405 0.424231 0.844205
0.576074 0.362219 0.813474
0.786587 0.313298 0.786160
0.974701 0.346227 0.753536
0.510155 0.681605 0.858579
0.582238 0.696468 0.859251
0.656214 0.655329 0.827512
0.784207 0.563775 0.783963
0.967224 0.568902 0.764492
0.482124 0.814084 0.808774
0.536980 0.811826 0.807248
0.662715 0.806607 0.803983
0.783047 0.782986 0.783017
0.966979 0.805997 0.809781
0.557244 0.940063 0.784451
0.594263 0.939452 0.788632
0.695277 0.939574 0.801816
0.822904 0.941009 0.823026
0.952758 0.953246 0.830289
0.392401 0.386908 0.988067
0.442969 0.384344 0.986450
0.575463 0.358526 0.980255
0.744442 0.248081 0.967376
0.963287 0.255344 0.962768
0.485939 0.520806 0.985718
0.517205 0.513848 0.984375
0.611536 0.479591 0.978973
0.753231 0.376654 0.967468
0.962768 0.366979 0.962280
0.664973 0.748318 0.981567
0.690547 0.752377 0.980072
0.724453 0.723079 0.975982
0.791196 0.635431 0.966522
0.959777 0.583276 0.959411
0.708125 0.864378 0.974517
0.739101 0.870634 0.975097
0.821469 0.888853 0.977447
0.868070 0.867552 0.970855
0.955718 0.790951 0.955505
0.689113 0.963317 0.958587
0.713527 0.963500 0.959106
0.783322 0.963348 0.960052
0.876402 0.964141 0.962432
0.957610 0.957580 0.957610
