data/fiter_cube/27130762/1023401/file.cube
# Created by Adobe Lightroom plugin Export LUT (1.17.0)
# www.johnrellis.com/lightroom/exportlut.htm
# Preset: 森系文艺人像美食静物_05 云集
# Color profile: C:\Program Files (x86)\Common Files\Adobe\Color\Profiles\Recommended\AdobeRGB1998.icc
LUT_3D_SIZE 8
DOMAIN_MIN 0.000000 0.000000 0.000000
DOMAIN_MAX 0.903226 0.903226 0.903226
0.000000 0.000000 0.000000
0.153170 0.000000 0.000000
0.362585 0.000000 0.000000
0.535515 0.000000 0.000000
0.697841 0.000000 0.000000
0.836942 0.000000 0.096681
0.948302 0.000000 0.160647
1.000000 0.126223 0.211032
0.000000 0.141146 0.000000
0.152926 0.153201 0.000000
0.375830 0.171542 0.000000
0.543572 0.149935 0.000000
0.702510 0.135012 0.000000
0.837217 0.138064 0.106508
0.945525 0.161288 0.165957
1.000000 0.192996 0.215549
0.081758 0.326909 0.082673
0.175418 0.325078 0.089601
0.341772 0.342443 0.040131
0.574090 0.377447 0.000000
0.742275 0.365576 0.095521
0.862730 0.348150 0.155917
0.962280 0.340887 0.207675
1.000000 0.339117 0.249149
0.181369 0.475837 0.182010
0.228367 0.473915 0.184756
0.340307 0.470863 0.196231
0.511620 0.512657 0.167819
0.744228 0.562463 0.163485
0.900664 0.556970 0.234653
0.977844 0.518517 0.267124
1.000000 0.492256 0.296788
0.264714 0.622461 0.265599
0.295018 0.621363 0.267124
0.381048 0.619654 0.273991
0.499092 0.628717 0.277501
0.656886 0.658137 0.247593
0.841489 0.683040 0.243412
0.973938 0.677058 0.316381
1.000000 0.647272 0.363470
0.336492 0.747250 0.337530
0.360449 0.750332 0.341436
0.425452 0.748104 0.346044
0.519066 0.745235 0.354589
0.632685 0.756161 0.347753
0.775784 0.777188 0.323674
0.927337 0.787778 0.325109
1.000000 0.772824 0.394476
0.419257 0.857511 0.420203
0.434546 0.857786 0.422004
0.481239 0.855161 0.424994
0.555047 0.852323 0.432441
0.643854 0.848173 0.443091
0.749050 0.861784 0.429633
0.873808 0.875242 0.408484
0.994934 0.872587 0.404456
0.522881 0.947936 0.523766
0.532311 0.947448 0.524590
0.565179 0.946410 0.528710
0.620874 0.945525 0.538231
0.684504 0.939330 0.541955
0.764340 0.940948 0.551690
0.853727 0.950500 0.539727
0.954833 0.956237 0.518120
0.000000 0.000000 0.149447
0.152255 0.000000 0.152132
0.343328 0.000000 0.158511
0.506828 0.000000 0.165042
0.672114 0.000000 0.180911
0.815579 0.000000 0.205417
0.931731 0.107729 0.234745
1.000000 0.161868 0.264652
0.000000 0.149111 0.147921
0.155642 0.155642 0.155642
0.350042 0.154391 0.161776
0.518761 0.154543 0.172946
0.680812 0.155184 0.188052
0.819608 0.168185 0.211673
0.930907 0.188113 0.238468
1.000000 0.213809 0.266758
0.098573 0.325109 0.179416
0.194736 0.327642 0.195224
0.339574 0.340215 0.187778
0.564630 0.375891 0.202670
0.720485 0.363775 0.218173
0.843473 0.352209 0.240635
0.945129 0.346563 0.266117
1.000000 0.347082 0.293034
0.197879 0.471778 0.238346
0.246281 0.471778 0.246647
0.348211 0.471046 0.254948
0.500786 0.501640 0.237919
0.724910 0.550439 0.245823
0.877928 0.547509 0.291264
0.961944 0.515862 0.311589
1.000000 0.494789 0.333196
0.277562 0.620722 0.305058
0.305180 0.619104 0.305791
0.385565 0.616144 0.310430
0.495460 0.619745 0.313298
0.646967 0.648005 0.288670
0.832975 0.677638 0.292821
0.967498 0.677546 0.360510
1.000000 0.649470 0.396704
0.342809 0.742824 0.362615
0.363134 0.742458 0.363989
0.425910 0.740688 0.367864
0.517845 0.739162 0.376318
0.629938 0.750759 0.373297
0.772885 0.774166 0.354528
0.924102 0.786587 0.360601
1.000000 0.774411 0.427466
0.421485 0.851652 0.435401
0.434638 0.850370 0.435554
0.481025 0.848722 0.439063
0.554986 0.847501 0.447578
0.643763 0.844907 0.459052
0.747036 0.857877 0.447852
0.869688 0.871061 0.427558
0.990661 0.869718 0.425391
0.525383 0.944854 0.534539
0.535363 0.944793 0.536065
0.568048 0.944030 0.540459
0.623133 0.943450 0.549950
0.691798 0.941375 0.561181
0.768093 0.941192 0.568872
0.854032 0.949462 0.554467
0.953460 0.954833 0.532586
0.000000 0.000000 0.358099
0.170016 0.000000 0.352178
0.341100 0.000000 0.341039
0.500114 0.000000 0.335241
0.649928 0.062501 0.338811
0.787869 0.137942 0.351995
0.910857 0.183536 0.366125
1.000000 0.231724 0.384161
0.083101 0.191745 0.359930
0.184756 0.183383 0.352728
0.340002 0.155886 0.339818
0.496681 0.166476 0.336126
0.646723 0.179080 0.340429
0.785611 0.201938 0.351232
0.911711 0.235447 0.369177
1.000000 0.269810 0.387152
0.130556 0.343542 0.340490
0.212253 0.343267 0.341131
0.341253 0.341253 0.341253
0.507042 0.345190 0.349523
0.676326 0.352819 0.363378
0.813077 0.360235 0.376623
0.924926 0.368902 0.390997
1.000000 0.379522 0.406104
0.207248 0.474250 0.345556
0.257694 0.476051 0.351873
0.370214 0.483589 0.370489
0.503166 0.503685 0.370306
0.728389 0.558953 0.406592
0.853147 0.547051 0.424109
0.945556 0.531060 0.433875
1.000000 0.519799 0.444160
0.281926 0.620417 0.385992
0.316197 0.621393 0.391485
0.404547 0.623590 0.404944
0.507012 0.621973 0.411933
0.649836 0.650721 0.401068
0.833585 0.685512 0.428687
0.962921 0.698329 0.496284
1.000000 0.668940 0.503441
0.351537 0.742977 0.429053
0.377264 0.743343 0.434546
0.445228 0.742580 0.445716
0.530114 0.740047 0.451423
0.633448 0.746578 0.453742
0.769772 0.770871 0.443549
0.920623 0.790311 0.467323
1.000000 0.790219 0.538842
0.439002 0.852628 0.493263
0.458106 0.851774 0.498695
0.504875 0.849454 0.505425
0.571435 0.847074 0.510796
0.653834 0.844297 0.519341
0.751614 0.855985 0.516594
0.870848 0.872099 0.505791
0.989563 0.875425 0.516869
0.544610 0.943786 0.579980
0.556695 0.942931 0.583764
0.585962 0.941863 0.586542
0.638880 0.942229 0.596368
0.702815 0.940276 0.605249
0.776181 0.939330 0.615564
0.858335 0.948699 0.605676
0.954040 0.955322 0.589868
0.075990 0.064118 0.538048
0.189242 0.062013 0.532280
0.339788 0.000000 0.506676
0.493172 0.000000 0.492775
0.644953 0.068421 0.489265
0.779965 0.137392 0.486549
0.894652 0.190219 0.484779
0.993133 0.237186 0.486824
0.161563 0.228916 0.541527
0.224796 0.221958 0.535058
0.348394 0.189883 0.509697
0.493233 0.168032 0.493111
0.645563 0.181704 0.491249
0.777768 0.208530 0.487373
0.892180 0.240269 0.485969
0.991363 0.276219 0.489631
0.235599 0.402045 0.546929
0.289525 0.404517 0.546441
0.375982 0.375097 0.517906
0.493294 0.337835 0.493080
0.646998 0.341253 0.496010
0.778836 0.352056 0.496132
0.894530 0.371557 0.502098
0.992432 0.399847 0.515099
0.242893 0.511345 0.507439
0.285679 0.510826 0.507256
0.387793 0.508110 0.506004
0.499489 0.499489 0.499489
0.660395 0.509300 0.513024
0.795224 0.519310 0.527031
0.908934 0.530266 0.541558
1.000000 0.539635 0.554131
0.287602 0.623163 0.496712
0.319371 0.623133 0.498665
0.408362 0.625727 0.507073
0.525841 0.632258 0.526085
0.648920 0.649470 0.528679
0.833341 0.701991 0.587304
0.937682 0.704829 0.614038
1.000000 0.687922 0.613367
0.358770 0.745724 0.521141
0.385870 0.748440 0.526848
0.459602 0.747494 0.538201
0.557397 0.747860 0.557763
0.647456 0.745815 0.564019
0.770657 0.771481 0.562036
0.918914 0.802579 0.605676
1.000000 0.815793 0.669886
0.444739 0.851987 0.562676
0.464210 0.852049 0.567468
0.523400 0.851682 0.582544
0.600305 0.851011 0.600702
0.674525 0.848814 0.606836
0.761410 0.855467 0.609857
0.871427 0.872404 0.604730
0.985718 0.882048 0.628382
0.551965 0.944610 0.631373
0.565362 0.944366 0.635706
0.606409 0.943084 0.648280
0.660060 0.941802 0.660487
0.718257 0.940063 0.666804
0.786526 0.938476 0.676081
0.863645 0.947326 0.673243
0.954437 0.955474 0.664179
0.164126 0.155673 0.702266
0.231296 0.157015 0.697810
0.362249 0.144930 0.678706
0.486458 0.070649 0.642298
0.640223 0.084382 0.639918
0.773373 0.141573 0.626459
0.888243 0.190738 0.613001
0.987762 0.236637 0.602472
0.223148 0.268742 0.703426
0.268925 0.264714 0.699825
0.376165 0.243656 0.681270
0.490455 0.190402 0.644221
0.640009 0.185855 0.639673
0.772641 0.210880 0.626856
0.887419 0.242222 0.614160
0.986755 0.276616 0.604395
0.309331 0.438239 0.712184
0.340978 0.434882 0.705776
0.412177 0.410437 0.686854
0.507256 0.363012 0.654810
0.638056 0.338811 0.637842
0.767575 0.346197 0.625757
0.882750 0.361517 0.617121
0.981903 0.380682 0.610925
0.343755 0.573968 0.705684
0.379065 0.575799 0.705409
0.477699 0.583124 0.705043
0.547356 0.546685 0.672755
0.638148 0.494301 0.638025
0.764767 0.497200 0.631250
0.878233 0.503471 0.628473
0.977295 0.510430 0.626703
0.334783 0.666407 0.661463
0.364263 0.665766 0.661189
0.447089 0.662074 0.658412
0.548638 0.654322 0.652308
0.637446 0.637446 0.637446
0.774685 0.650080 0.652949
0.890471 0.661707 0.667536
0.982971 0.669703 0.678065
0.359014 0.739681 0.620966
0.382635 0.739773 0.622644
0.454078 0.739223 0.627649
0.552239 0.740597 0.638758
0.653712 0.744320 0.653834
0.763363 0.763790 0.662562
0.918120 0.817014 0.729519
0.996246 0.820768 0.752529
0.448981 0.849210 0.646235
0.466407 0.848569 0.648310
0.521752 0.847593 0.656458
0.601801 0.847715 0.671046
0.685969 0.848936 0.686152
0.764645 0.848539 0.692439
0.868711 0.869383 0.693782
0.982116 0.888884 0.731136
0.550988 0.941131 0.690425
0.563104 0.940642 0.692805
0.602289 0.939483 0.700984
0.664637 0.940612 0.717281
0.729397 0.939818 0.729702
0.793759 0.938354 0.736294
0.866361 0.943999 0.739773
0.953185 0.954009 0.735836
0.245853 0.238865 0.826352
0.286137 0.239048 0.823606
0.385443 0.231296 0.812131
0.502342 0.201846 0.793454
0.618738 0.127108 0.765133
0.763882 0.150759 0.763394
0.881712 0.194400 0.743923
0.981964 0.238499 0.723690
0.286961 0.315221 0.824247
0.316991 0.312291 0.821378
0.400610 0.298650 0.810971
0.508293 0.267399 0.793210
0.617700 0.202152 0.762509
0.761685 0.213687 0.761288
0.879881 0.242374 0.743099
0.980468 0.276402 0.723964
0.384344 0.473945 0.829862
0.401190 0.469581 0.827420
0.455116 0.452613 0.818418
0.534722 0.416754 0.799741
0.624170 0.350713 0.765011
0.760739 0.347753 0.760342
0.877684 0.362585 0.744259
0.977569 0.382971 0.728176
0.483925 0.631159 0.845396
0.501762 0.630823 0.841886
0.551446 0.626612 0.830076
0.597223 0.595941 0.811246
0.650416 0.527642 0.777798
0.762295 0.499733 0.762051
0.875731 0.505730 0.749599
0.973907 0.512444 0.737179
0.473976 0.712612 0.818936
0.497688 0.714839 0.818967
0.567620 0.722133 0.819303
0.656092 0.732479 0.820340
0.693629 0.693080 0.792020
0.756710 0.632136 0.756527
0.868315 0.632532 0.750301
0.966339 0.634913 0.744930
0.449134 0.786007 0.780728
0.470588 0.786435 0.781430
0.531029 0.784878 0.780575
0.609979 0.781308 0.778225
0.686244 0.773617 0.771939
0.756252 0.756222 0.756252
0.878080 0.773129 0.775509
0.970916 0.783261 0.787747
0.466438 0.853574 0.747311
0.482490 0.853147 0.748135
0.529320 0.849546 0.748318
0.604150 0.849424 0.754604
0.687892 0.850645 0.763088
0.775540 0.853544 0.775631
0.867979 0.868315 0.782834
0.981415 0.905303 0.839628
0.556573 0.940459 0.764920
0.567742 0.940002 0.766201
0.604395 0.939025 0.770596
0.661189 0.938964 0.778866
0.729610 0.939086 0.789670
0.802792 0.939788 0.802976
0.870603 0.940368 0.810117
0.953033 0.953582 0.812009
0.315862 0.309361 0.916411
0.340826 0.309056 0.914977
0.414130 0.305058 0.910552
0.511498 0.286870 0.901579
0.616022 0.238468 0.885161
0.731411 0.174777 0.868070
0.867033 0.195529 0.866484
0.972930 0.234043 0.843595
0.352087 0.369390 0.917967
0.372137 0.367315 0.916503
0.434394 0.359106 0.911955
0.522362 0.337530 0.902708
0.621576 0.291142 0.886839
0.733639 0.231876 0.869627
0.868681 0.247227 0.868254
0.974060 0.279088 0.845609
0.445624 0.509087 0.918029
0.457374 0.505791 0.916869
0.496803 0.493904 0.912566
0.558984 0.467628 0.903624
0.638178 0.419593 0.888304
0.735378 0.354589 0.868132
0.866758 0.362463 0.866331
0.970581 0.380926 0.845182
0.556176 0.657527 0.921080
0.569360 0.659022 0.919524
0.601556 0.656580 0.914702
0.630732 0.629084 0.905913
0.675685 0.580468 0.890959
0.738705 0.494942 0.864927
0.863554 0.497292 0.863218
0.966125 0.504601 0.846006
0.606958 0.757168 0.921538
0.623896 0.761440 0.921965
0.674586 0.774472 0.923400
0.716243 0.771878 0.917082
0.735897 0.735012 0.901030
0.765377 0.660792 0.874174
0.863310 0.631464 0.863096
0.962036 0.633875 0.849851
0.596612 0.821683 0.904479
0.610956 0.823209 0.904662
0.655756 0.828305 0.905669
0.717952 0.835782 0.907622
0.787381 0.845518 0.911406
0.812985 0.812589 0.891478
0.860716 0.752041 0.860624
0.956939 0.753719 0.854856
0.571344 0.885008 0.879820
0.583398 0.884764 0.879728
0.622370 0.884398 0.879881
0.678004 0.883665 0.879973
0.742947 0.882658 0.880064
0.807736 0.878752 0.877379
0.861936 0.861875 0.861906
0.960906 0.877531 0.879393
0.582605 0.946075 0.855467
0.592157 0.945647 0.855741
0.620508 0.943389 0.855344
0.666255 0.940887 0.855619
0.729885 0.940063 0.859525
0.804685 0.941497 0.868101
0.879881 0.943999 0.879942
0.954009 0.954284 0.887388
0.392401 0.386908 0.988067
0.407843 0.386053 0.987488
0.458228 0.382971 0.985931
0.532586 0.370672 0.982574
0.621118 0.340948 0.977447
0.718776 0.275242 0.969848
0.836057 0.230655 0.964141
0.963287 0.255344 0.962768
0.422705 0.432624 0.987610
0.435767 0.431220 0.987060
0.479438 0.425818 0.985534
0.546532 0.411566 0.982422
0.628931 0.380743 0.977478
0.722286 0.317693 0.970123
0.837308 0.273777 0.964477
0.963684 0.295140 0.963165
0.513756 0.556634 0.985046
0.521691 0.554498 0.984649
0.549737 0.546746 0.983459
0.594812 0.527703 0.980407
0.657252 0.494118 0.976135
0.734829 0.433539 0.969635
0.839658 0.382208 0.963561
0.962799 0.397131 0.962280
0.631403 0.699672 0.981628
0.634730 0.697078 0.981262
0.648005 0.688380 0.980224
0.671473 0.669673 0.977905
0.707607 0.636683 0.974090
0.759945 0.579858 0.968139
0.843534 0.512718 0.961151
0.960662 0.519188 0.960266
0.696956 0.793973 0.981781
0.703944 0.794980 0.981323
0.726375 0.797818 0.980072
0.754086 0.795438 0.977569
0.769497 0.768399 0.974121
0.797421 0.722011 0.968414
0.849882 0.642542 0.959014
0.958587 0.645686 0.958251
0.710597 0.852201 0.976745
0.720638 0.854551 0.976898
0.752193 0.862058 0.977478
0.798856 0.873655 0.978668
0.838102 0.877562 0.977874
0.850065 0.849454 0.971374
0.870634 0.785611 0.959747
0.955718 0.762356 0.955505
0.703151 0.905028 0.968353
0.711879 0.906004 0.968566
0.740017 0.909087 0.969268
0.783169 0.914092 0.970397
0.836851 0.921691 0.972412
0.894469 0.932738 0.975830
0.916289 0.916014 0.969512
0.955779 0.870115 0.955688
0.689113 0.963317 0.958587
0.696712 0.963439 0.958801
0.721126 0.963500 0.959197
0.759792 0.963378 0.959655
0.808896 0.963500 0.960601
0.862852 0.963989 0.962036
0.915465 0.964233 0.963287
0.957610 0.957580 0.957610
