data/fiter_cube/27130762/1023401/file.cube
# Created by Adobe Lightroom plugin Export LUT (1.17.0)
# www.johnrellis.com/lightroom/exportlut.htm
# Preset: 森系文艺人像美食静物_05 云集
# Color profile: C:\Program Files (x86)\Common Files\Adobe\Color\Profiles\Recommended\AdobeRGB1998.icc
LUT_3D_SIZE 32
DOMAIN_MIN 0.0 0.0 0.0
DOMAIN_MAX 1.0 1.0 1.0
0.000000 0.000000 0.000000
0.000000 0.000000 0.000000
0.006622 0.000092 0.000000
0.093904 0.000000 0.000000
0.153170 0.000000 0.000000
0.210880 0.000000 0.000000
0.265171 0.000000 0.000000
0.315496 0.000000 0.000000
0.362585 0.000000 0.000000
0.407416 0.000000 0.000000
0.450843 0.000000 0.000000
0.493355 0.000000 0.000000
0.535515 0.000000 0.000000
0.577966 0.000000 0.000000
0.619867 0.000000 0.000000
0.659907 0.000000 0.000000
0.697841 0.000000 0.000000
0.733608 0.000000 0.000000
0.766690 0.000000 0.045533
0.801633 0.000000 0.074495
0.836942 0.000000 0.096681
0.868956 0.000000 0.114717
0.897765 0.000000 0.131777
0.924071 0.000000 0.146761
0.948302 0.000000 0.160647
0.971008 0.054658 0.173831
0.992584 0.085145 0.186191
1.000000 0.107301 0.198459
1.000000 0.126223 0.211032
1.000000 0.143954 0.223484
1.000000 0.160952 0.235904
1.000000 0.177707 0.248539
0.000000 0.000000 0.000000
0.000000 0.000000 0.000000
0.015137 0.005737 0.000000
0.095949 0.026001 0.000000
0.155215 0.028809 0.000000
0.212863 0.017395 0.000000
0.266880 0.000000 0.000000
0.316472 0.000000 0.000000
0.363165 0.000000 0.000000
0.407935 0.000000 0.000000
0.450843 0.000000 0.000000
0.493141 0.000000 0.000000
0.535058 0.000000 0.000000
0.577264 0.000000 0.000000
0.619135 0.000000 0.000000
0.658808 0.000000 0.000000
0.696742 0.000000 0.000000
0.732540 0.000000 0.000000
0.765560 0.000000 0.045624
0.800443 0.000000 0.075685
0.835233 0.000000 0.096040
0.866850 0.000000 0.114199
0.895659 0.000000 0.130678
0.921965 0.000000 0.145724
0.946288 0.030579 0.159457
0.969146 0.074647 0.172488
0.990875 0.096071 0.185214
1.000000 0.115541 0.197787
1.000000 0.132418 0.209873
1.000000 0.149050 0.222232
1.000000 0.164981 0.234714
1.000000 0.181125 0.247745
0.000366 0.006989 0.000000
0.004791 0.013306 0.000000
0.030152 0.031495 0.000000
0.098024 0.064607 0.000000
0.158541 0.074037 0.000000
0.215946 0.074830 0.000000
0.269169 0.068910 0.000000
0.318395 0.055207 0.000000
0.364782 0.017792 0.000000
0.408820 0.000000 0.000000
0.451850 0.000000 0.000000
0.494087 0.000000 0.000000
0.535882 0.000000 0.000000
0.577996 0.000000 0.000000
0.619623 0.000000 0.000000
0.659236 0.000000 0.000000
0.697047 0.000000 0.000000
0.732662 0.000000 0.002289
0.765499 0.000000 0.049226
0.800626 0.000000 0.076875
0.835019 0.000000 0.096620
0.866423 0.000000 0.114534
0.894957 0.000000 0.131472
0.921202 0.040162 0.146090
0.945464 0.075319 0.160220
0.968353 0.094453 0.172976
0.990143 0.111971 0.185275
1.000000 0.128206 0.198184
1.000000 0.142580 0.210086
1.000000 0.157748 0.222721
1.000000 0.172091 0.234867
1.000000 0.187289 0.247807
0.000000 0.089784 0.000000
0.018891 0.090242 0.000000
0.058503 0.090822 0.000000
0.098482 0.098787 0.000000
0.159731 0.115602 0.000000
0.223148 0.124697 0.000000
0.275486 0.122713 0.000000
0.324041 0.117647 0.000000
0.369421 0.111818 0.000000
0.412848 0.104921 0.000000
0.455512 0.098360 0.000000
0.497475 0.091615 0.000000
0.538933 0.082948 0.000000
0.580743 0.073762 0.000000
0.622095 0.064332 0.000000
0.661463 0.055238 0.000000
0.698726 0.040772 0.000000
0.733852 0.034455 0.016052
0.766445 0.039826 0.058778
0.801633 0.055360 0.081727
0.834897 0.067994 0.100343
0.865721 0.080842 0.117433
0.894194 0.093599 0.133181
0.920439 0.105074 0.148562
0.945159 0.117311 0.161593
0.968292 0.129244 0.175082
0.990295 0.140627 0.187594
1.000000 0.153201 0.200198
1.000000 0.164706 0.212711
1.000000 0.176638 0.224491
1.000000 0.188846 0.236667
1.000000 0.201389 0.248631
0.000000 0.141146 0.000000
0.025879 0.141085 0.000000
0.068605 0.141268 0.000000
0.105440 0.143954 0.000000
0.152926 0.153201 0.000000
0.215854 0.168093 0.000000
0.278202 0.176211 0.000000
0.331334 0.176547 0.000000
0.375830 0.171542 0.000000
0.418738 0.166415 0.000000
0.460670 0.160678 0.000000
0.502251 0.155550 0.000000
0.543572 0.149935 0.000000
0.585168 0.145632 0.000000
0.626215 0.141634 0.000000
0.665309 0.138247 0.000000
0.702510 0.135012 0.000000
0.737362 0.132937 0.032136
0.770199 0.132082 0.067628
0.805081 0.134768 0.088075
0.837217 0.138064 0.106508
0.867247 0.143069 0.122652
0.895109 0.148257 0.137972
0.921111 0.154726 0.152743
0.945525 0.161288 0.165957
0.968566 0.168093 0.178592
0.990417 0.176089 0.190982
1.000000 0.184054 0.203098
1.000000 0.192996 0.215549
1.000000 0.202152 0.227237
1.000000 0.211765 0.238987
1.000000 0.222049 0.251041
0.003632 0.191165 0.004761
0.051942 0.191135 0.005615
0.079438 0.191073 0.007141
0.114687 0.190768 0.010986
0.155184 0.195682 0.000000
0.204776 0.205112 0.000000
0.265202 0.217655 0.000000
0.326421 0.226352 0.000000
0.383886 0.229526 0.000000
0.427893 0.224308 0.000000
0.469459 0.218875 0.000000
0.510460 0.213321 0.000000
0.551476 0.209140 0.000000
0.593011 0.205142 0.000000
0.633356 0.201785 0.000000
0.671870 0.198245 0.000000
0.708583 0.195499 0.013764
0.742641 0.192966 0.058137
0.776944 0.192081 0.079469
0.810513 0.192874 0.097780
0.841642 0.194064 0.115572
0.870939 0.195651 0.131167
0.913787 0.208347 0.157961
0.938201 0.212528 0.172427
0.960876 0.216159 0.184909
0.982086 0.220432 0.197055
1.000000 0.225223 0.208499
1.000000 0.230533 0.220066
1.000000 0.236301 0.231296
1.000000 0.242802 0.242344
1.000000 0.249699 0.253361
1.000000 0.257267 0.264378
0.022583 0.242374 0.023133
0.065370 0.242191 0.023987
0.088838 0.242130 0.025330
0.123842 0.241489 0.030243
0.161685 0.240879 0.038178
0.205966 0.248325 0.003357
0.256626 0.257115 0.000000
0.313817 0.266636 0.000000
0.375311 0.275731 0.000000
0.432685 0.280095 0.000000
0.486213 0.280858 0.000000
0.527306 0.274907 0.000000
0.568170 0.270024 0.000000
0.609033 0.265476 0.000000
0.647974 0.261112 0.000000
0.684901 0.256779 0.010803
0.720241 0.253208 0.050935
0.753994 0.249912 0.075868
0.788998 0.249088 0.095247
0.821622 0.248478 0.113283
0.852659 0.248600 0.130739
0.882292 0.249668 0.146578
0.910124 0.251591 0.161990
0.935943 0.253635 0.176364
0.959716 0.256321 0.189944
0.981537 0.258854 0.201846
1.000000 0.261875 0.213962
1.000000 0.265202 0.225010
1.000000 0.268681 0.235874
1.000000 0.273259 0.246799
1.000000 0.278080 0.257328
1.000000 0.283665 0.268101
0.055207 0.286076 0.058350
0.076875 0.285924 0.058839
0.097993 0.285466 0.059541
0.130922 0.284825 0.061097
0.167697 0.284031 0.065583
0.206119 0.285252 0.064271
0.250553 0.292729 0.035706
0.300237 0.300847 0.000000
0.354101 0.308232 0.000000
0.416327 0.319310 0.000000
0.473854 0.325139 0.000000
0.532067 0.330388 0.000000
0.580072 0.328893 0.000000
0.620050 0.323613 0.000000
0.658015 0.318090 0.008942
0.694179 0.312932 0.047944
0.728206 0.307805 0.074128
0.764034 0.304967 0.093080
0.796475 0.302098 0.110811
0.827359 0.299931 0.126436
0.856901 0.298436 0.142306
0.885313 0.297429 0.157198
0.912169 0.297459 0.171359
0.937224 0.297612 0.185000
0.960449 0.297978 0.197452
0.981811 0.298955 0.209445
1.000000 0.299901 0.220676
1.000000 0.301152 0.231022
1.000000 0.303166 0.241672
1.000000 0.305608 0.252171
1.000000 0.308934 0.262638
1.000000 0.312749 0.273075
0.081758 0.326909 0.082673
0.096101 0.326787 0.083223
0.112978 0.326513 0.084291
0.141054 0.325841 0.086580
0.175418 0.325078 0.089601
0.211124 0.323949 0.092927
0.249454 0.327337 0.088563
0.293004 0.334630 0.073213
0.341772 0.342443 0.040131
0.394079 0.349615 0.000000
0.455421 0.361608 0.000000
0.514305 0.369696 0.000000
0.574090 0.377447 0.000000
0.633478 0.383673 0.016907
0.670466 0.376715 0.060273
0.705562 0.370092 0.078279
0.742275 0.365576 0.095521
0.775265 0.360632 0.111513
0.805417 0.355535 0.127657
0.834562 0.351415 0.141634
0.862730 0.348150 0.155917
0.889860 0.345434 0.169589
0.915618 0.343481 0.182895
0.939788 0.342138 0.195865
0.962280 0.340887 0.207675
0.983032 0.339879 0.219089
1.000000 0.339208 0.229526
1.000000 0.338842 0.239506
1.000000 0.339117 0.249149
1.000000 0.340002 0.259312
1.000000 0.341558 0.269322
1.000000 0.343664 0.279332
0.107362 0.365454 0.108125
0.118196 0.365240 0.108583
0.131014 0.364996 0.109163
0.155428 0.364355 0.110475
0.185397 0.363561 0.113466
0.218601 0.362493 0.116609
0.252781 0.361273 0.120912
0.290898 0.367224 0.112612
0.333898 0.374517 0.099489
0.381201 0.382055 0.082307
0.432380 0.389471 0.056214
0.492378 0.401740 0.022614
0.553704 0.412940 0.029877
0.614008 0.422248 0.061524
0.673152 0.429877 0.082490
0.723232 0.431617 0.103304
0.757168 0.424445 0.117678
0.787778 0.417029 0.133028
0.816129 0.409949 0.146700
0.843473 0.403845 0.159243
0.869932 0.398535 0.171878
0.895262 0.393744 0.184329
0.919463 0.389776 0.195926
0.942229 0.386236 0.207523
0.963745 0.383337 0.218357
0.983917 0.380713 0.228672
1.000000 0.378515 0.238651
1.000000 0.376806 0.248234
1.000000 0.375799 0.258152
1.000000 0.375402 0.267765
1.000000 0.375616 0.277440
1.000000 0.376379 0.287205
0.131533 0.401648 0.132815
0.139834 0.401343 0.133181
0.150729 0.401160 0.133272
0.170779 0.400702 0.135164
0.197604 0.399969 0.137057
0.227695 0.399329 0.140200
0.259892 0.398352 0.143648
0.293248 0.399084 0.144686
0.331334 0.405859 0.136080
0.373663 0.413275 0.125673
0.420050 0.421057 0.110628
0.470375 0.428656 0.091707
0.529808 0.441871 0.081910
0.596612 0.458320 0.082307
0.657801 0.469337 0.098543
0.714870 0.476844 0.118593
0.766110 0.480415 0.138796
0.799222 0.473640 0.154147
0.825834 0.464088 0.165530
0.851591 0.455695 0.176913
0.876646 0.448432 0.188388
0.900877 0.441962 0.199527
0.924010 0.436316 0.210697
0.945953 0.431434 0.221164
0.966613 0.426795 0.231632
0.986053 0.422675 0.240970
1.000000 0.418769 0.250004
1.000000 0.415656 0.259007
1.000000 0.413214 0.268223
1.000000 0.411353 0.277317
1.000000 0.410101 0.286442
1.000000 0.409674 0.296086
0.156100 0.437079 0.156741
0.162539 0.436927 0.157046
0.171359 0.436744 0.157687
0.188205 0.436286 0.158999
0.211612 0.435798 0.160952
0.238865 0.435126 0.163210
0.268589 0.434455 0.166476
0.299748 0.433539 0.169894
0.333165 0.436957 0.167697
0.371160 0.444129 0.159762
0.413397 0.452155 0.149569
0.461555 0.462409 0.138155
0.525017 0.483314 0.129122
0.587488 0.499031 0.121279
0.654780 0.515953 0.122133
0.713069 0.525231 0.138857
0.764920 0.529870 0.158511
0.810483 0.530968 0.178073
0.849058 0.528588 0.196994
0.872221 0.517113 0.206638
0.894682 0.506920 0.216190
0.916320 0.497932 0.226169
0.937011 0.489693 0.235355
0.956786 0.482277 0.244450
0.975677 0.475624 0.252842
0.993530 0.469520 0.261418
1.000000 0.463996 0.269566
1.000000 0.459052 0.277073
1.000000 0.454810 0.285252
1.000000 0.451301 0.293217
1.000000 0.448676 0.301701
1.000000 0.446723 0.310491
0.181369 0.475837 0.182010
0.186618 0.475776 0.182376
0.193729 0.475410 0.182742
0.208255 0.474739 0.183536
0.228367 0.473915 0.184756
0.252873 0.472877 0.186679
0.280064 0.471901 0.188907
0.309300 0.470985 0.192233
0.340307 0.470863 0.196231
0.376318 0.479500 0.192447
0.416907 0.489815 0.186343
0.462135 0.500938 0.178408
0.511620 0.512657 0.167819
0.565209 0.524315 0.153841
0.624140 0.537957 0.147189
0.689143 0.554528 0.149081
0.744228 0.562463 0.163485
0.791867 0.565393 0.181582
0.834134 0.565362 0.201022
0.872282 0.563867 0.220371
0.900664 0.556970 0.234653
0.921202 0.545892 0.242924
0.940887 0.535973 0.251438
0.959747 0.526909 0.259617
0.977844 0.518517 0.267124
0.994995 0.510979 0.274968
1.000000 0.503960 0.282048
1.000000 0.497810 0.289647
1.000000 0.492256 0.296788
1.000000 0.487678 0.304845
1.000000 0.483680 0.312566
1.000000 0.480537 0.320897
0.202518 0.509972 0.203006
0.207187 0.509819 0.203342
0.212924 0.509545 0.203861
0.225528 0.509087 0.204349
0.244022 0.508873 0.205875
0.266697 0.508843 0.208072
0.292515 0.509056 0.210880
0.320684 0.509300 0.214023
0.350530 0.509819 0.217685
0.382391 0.512413 0.220401
0.419104 0.521935 0.215061
0.460060 0.532586 0.208621
0.504875 0.543420 0.200565
0.553185 0.554131 0.190188
0.604120 0.564172 0.177859
0.657984 0.574121 0.169741
0.719020 0.588739 0.173556
0.770901 0.595483 0.185031
0.815610 0.597375 0.203647
0.855924 0.597253 0.221958
0.892363 0.595636 0.241306
0.924895 0.592981 0.259983
0.945251 0.582605 0.269017
0.963287 0.571893 0.276707
0.980621 0.562127 0.283574
0.997040 0.553033 0.290745
1.000000 0.544640 0.297063
1.000000 0.537133 0.303593
1.000000 0.530419 0.310704
1.000000 0.524559 0.317784
1.000000 0.519524 0.325505
1.000000 0.515282 0.333471
0.224949 0.549737 0.226017
0.229282 0.549767 0.225986
0.234440 0.549523 0.226169
0.245670 0.549248 0.227207
0.262181 0.548730 0.228183
0.282750 0.548211 0.229648
0.306432 0.547784 0.231754
0.332555 0.547509 0.234073
0.360693 0.547723 0.237308
0.390570 0.548211 0.241337
0.423133 0.553460 0.240513
0.460182 0.563043 0.235447
0.500816 0.573022 0.228916
0.544671 0.582910 0.221073
0.591272 0.592279 0.211154
0.640101 0.600885 0.198398
0.688685 0.607233 0.190066
0.745632 0.619928 0.195193
0.795651 0.626123 0.204227
0.838376 0.627771 0.223178
0.876829 0.627375 0.241917
0.911254 0.625483 0.260410
0.941833 0.622431 0.279271
0.966918 0.616846 0.294408
0.983429 0.605524 0.301183
0.999329 0.595148 0.307286
1.000000 0.585657 0.313634
1.000000 0.577111 0.320104
1.000000 0.569421 0.326818
1.000000 0.562676 0.333959
1.000000 0.556786 0.341436
1.000000 0.551629 0.349584
0.245823 0.587854 0.246555
0.249668 0.587945 0.247074
0.254185 0.587854 0.247227
0.264347 0.587671 0.247898
0.279423 0.587121 0.248875
0.298497 0.586633 0.250095
0.320531 0.586297 0.251865
0.345159 0.586053 0.254215
0.372045 0.585992 0.256809
0.400305 0.586084 0.260044
0.429847 0.586145 0.263828
0.462898 0.593378 0.260166
0.499336 0.601770 0.254368
0.538811 0.610285 0.247471
0.580896 0.618524 0.239506
0.625422 0.626490 0.229435
0.672114 0.633997 0.217838
0.716884 0.637903 0.208988
0.770474 0.648920 0.215152
0.819608 0.655512 0.223758
0.860746 0.657221 0.241825
0.897490 0.656611 0.261540
0.930022 0.654353 0.280369
0.958831 0.650965 0.298528
0.984222 0.646937 0.316533
1.000000 0.638300 0.327459
1.000000 0.627405 0.332860
1.000000 0.617731 0.338811
1.000000 0.608820 0.345129
1.000000 0.600732 0.351324
1.000000 0.593530 0.358282
1.000000 0.587121 0.365240
0.264714 0.622461 0.265599
0.267826 0.622370 0.265476
0.272190 0.622217 0.266056
0.281193 0.621881 0.266331
0.295018 0.621363 0.267124
0.312352 0.620844 0.268406
0.332738 0.620386 0.269871
0.355810 0.619989 0.271733
0.381048 0.619654 0.273991
0.407843 0.619501 0.276768
0.436194 0.619471 0.280186
0.465736 0.621027 0.282292
0.499092 0.628717 0.277501
0.535119 0.636591 0.271702
0.573693 0.644129 0.264866
0.614160 0.651301 0.256870
0.656886 0.658137 0.247593
0.701717 0.664698 0.236881
0.744869 0.668086 0.228763
0.794430 0.676814 0.234134
0.841489 0.683040 0.243412
0.881437 0.684504 0.259464
0.916075 0.683406 0.278965
0.946838 0.680781 0.297795
0.973938 0.677058 0.316381
0.997711 0.672786 0.334600
1.000000 0.668147 0.352148
1.000000 0.657313 0.357946
1.000000 0.647272 0.363470
1.000000 0.638209 0.369574
1.000000 0.629999 0.375799
1.000000 0.622614 0.382727
0.282963 0.655634 0.283787
0.286046 0.655848 0.284092
0.296178 0.666194 0.290654
0.304387 0.665766 0.290929
0.317021 0.665095 0.291539
0.332799 0.664332 0.292424
0.351873 0.663325 0.293584
0.373236 0.662440 0.294804
0.397009 0.661677 0.296757
0.422522 0.661036 0.299321
0.449378 0.660487 0.301915
0.477333 0.659846 0.304967
0.507073 0.662806 0.304234
0.539818 0.669368 0.299046
0.574945 0.675776 0.293187
0.612085 0.682002 0.286137
0.651301 0.687953 0.278050
0.692378 0.693629 0.269047
0.735317 0.699184 0.258946
0.776883 0.701869 0.251133
0.821988 0.707637 0.255833
0.866270 0.712703 0.265751
0.904326 0.713344 0.280125
0.936461 0.711360 0.299626
0.964660 0.707729 0.318395
0.989410 0.703151 0.336431
1.000000 0.698054 0.353918
1.000000 0.692805 0.370733
1.000000 0.685573 0.383246
1.000000 0.675380 0.388678
1.000000 0.666041 0.394476
1.000000 0.657588 0.400702
0.302403 0.689906 0.303319
0.305821 0.691157 0.304387
0.310216 0.692439 0.305272
0.318517 0.693294 0.306432
0.330571 0.693751 0.307652
0.345617 0.693416 0.308721
0.363226 0.692775 0.309789
0.383398 0.691981 0.311345
0.405798 0.691279 0.312840
0.429664 0.690578 0.315129
0.455268 0.689937 0.317571
0.481941 0.689296 0.320287
0.509331 0.688441 0.323217
0.539117 0.693202 0.319921
0.571374 0.699001 0.314458
0.605585 0.704616 0.308568
0.641688 0.710201 0.301762
0.679713 0.715541 0.294285
0.719600 0.720912 0.285893
0.761349 0.726192 0.276280
0.801938 0.728939 0.269017
0.843717 0.732815 0.273106
0.885985 0.737331 0.283879
0.922698 0.737758 0.296147
0.952941 0.735195 0.315801
0.979522 0.731197 0.334661
1.000000 0.726375 0.353185
1.000000 0.721157 0.371099
1.000000 0.715846 0.388739
1.000000 0.710628 0.406287
1.000000 0.701869 0.414923
1.000000 0.692531 0.420783
0.319310 0.718959 0.320256
0.322545 0.720119 0.321202
0.326635 0.721248 0.322301
0.334234 0.722011 0.323217
0.345251 0.722347 0.324346
0.359045 0.722133 0.325292
0.375433 0.721523 0.326574
0.394141 0.720851 0.327703
0.415106 0.720150 0.329259
0.437873 0.719448 0.331273
0.462226 0.718898 0.333623
0.487678 0.718196 0.336065
0.513909 0.717372 0.338750
0.541009 0.717433 0.340398
0.570642 0.722652 0.336095
0.602197 0.727840 0.330755
0.635584 0.732937 0.324743
0.670832 0.737972 0.318181
0.707851 0.743008 0.310796
0.746731 0.748013 0.303075
0.787198 0.752987 0.294377
0.826871 0.755917 0.287510
0.865293 0.757748 0.290227
0.905303 0.761410 0.302403
0.940276 0.761227 0.313542
0.968872 0.758145 0.332616
0.993713 0.753719 0.351659
1.000000 0.748592 0.370520
1.000000 0.743191 0.389044
1.000000 0.737667 0.407263
1.000000 0.732326 0.425147
1.000000 0.726741 0.441657
0.336492 0.747250 0.337530
0.339544 0.748318 0.338445
0.343420 0.749294 0.339330
0.350378 0.750057 0.340398
0.360449 0.750332 0.341436
0.373236 0.750149 0.342626
0.388373 0.749569 0.343511
0.405798 0.748867 0.344610
0.425452 0.748104 0.346044
0.446876 0.747463 0.347814
0.469825 0.746822 0.349767
0.493996 0.746059 0.352331
0.519066 0.745235 0.354589
0.544884 0.744228 0.357641
0.571984 0.746090 0.356939
0.601343 0.751095 0.352483
0.632685 0.756161 0.347753
0.665858 0.761349 0.342290
0.700801 0.766629 0.336614
0.737484 0.771939 0.330327
0.775784 0.777188 0.323674
0.815549 0.782254 0.316228
0.854490 0.785306 0.310002
0.889769 0.785061 0.312078
0.927337 0.787778 0.325109
0.959930 0.786831 0.337377
0.986999 0.783169 0.354559
1.000000 0.778286 0.374487
1.000000 0.772824 0.394476
1.000000 0.767025 0.413428
1.000000 0.761257 0.432746
1.000000 0.755673 0.451453
0.357702 0.778958 0.358709
0.360143 0.779324 0.359167
0.363073 0.779599 0.359594
0.369085 0.779751 0.360204
0.378058 0.779599 0.360876
0.389624 0.779141 0.361822
0.403632 0.778622 0.362615
0.419928 0.777981 0.363714
0.438331 0.777493 0.365179
0.458717 0.776974 0.367010
0.480568 0.776547 0.369085
0.503777 0.775937 0.371649
0.527794 0.775143 0.374090
0.552544 0.774258 0.376684
0.577783 0.773129 0.379553
0.604822 0.776547 0.376745
0.633661 0.781033 0.372442
0.664302 0.785641 0.367468
0.696620 0.790280 0.362493
0.730556 0.794949 0.356817
0.765896 0.799527 0.350622
0.802579 0.803952 0.343877
0.840482 0.808164 0.336584
0.877867 0.810727 0.330053
0.909850 0.808286 0.330327
0.945037 0.809934 0.343755
0.975647 0.808286 0.356451
1.000000 0.804227 0.371862
1.000000 0.798978 0.392737
1.000000 0.793118 0.413092
1.000000 0.787015 0.433021
1.000000 0.780972 0.452705
0.376318 0.805264 0.377264
0.378454 0.805661 0.377813
0.381262 0.805997 0.378210
0.386816 0.806119 0.378790
0.395056 0.805966 0.379583
0.405676 0.805509 0.380194
0.418402 0.804959 0.381018
0.433509 0.804257 0.381903
0.450629 0.803647 0.383337
0.469673 0.803098 0.385138
0.490272 0.802609 0.387091
0.512139 0.802029 0.389441
0.534905 0.801297 0.391638
0.558709 0.800443 0.394507
0.583001 0.799496 0.397192
0.608087 0.799222 0.399145
0.634913 0.803433 0.395392
0.663355 0.807736 0.391302
0.693446 0.812131 0.386908
0.725032 0.816587 0.382086
0.758022 0.820951 0.376928
0.792416 0.825254 0.371374
0.827970 0.829404 0.365087
0.864683 0.833280 0.358129
0.898924 0.833707 0.348730
0.928527 0.829984 0.347570
0.961425 0.830625 0.361578
0.990112 0.828428 0.374914
1.000000 0.823850 0.388067
1.000000 0.818082 0.409857
1.000000 0.811917 0.430945
1.000000 0.805600 0.452216
0.399115 0.833799 0.399908
0.401099 0.834257 0.400641
0.403662 0.834440 0.401129
0.408545 0.834409 0.401465
0.415808 0.834073 0.401892
0.425269 0.833463 0.402197
0.436835 0.832700 0.402838
0.450446 0.831815 0.403571
0.466133 0.830869 0.404578
0.483467 0.829984 0.405676
0.502403 0.829068 0.407355
0.522698 0.828214 0.409277
0.544121 0.827268 0.411322
0.566430 0.826139 0.413489
0.589288 0.824887 0.415900
0.612848 0.823514 0.418463
0.637201 0.824399 0.418158
0.663203 0.828061 0.414069
0.690974 0.832029 0.409918
0.720302 0.836179 0.405890
0.751156 0.840391 0.401343
0.783200 0.844511 0.396551
0.816312 0.848325 0.391211
0.850370 0.851774 0.384863
0.885161 0.854826 0.377661
0.920378 0.857115 0.370153
0.948363 0.852811 0.369238
0.978119 0.851530 0.381537
1.000000 0.848508 0.395300
1.000000 0.843198 0.408270
1.000000 0.836881 0.429084
1.000000 0.830289 0.451575
0.419257 0.857511 0.420203
0.421180 0.857908 0.420813
0.423499 0.858152 0.421210
0.427924 0.858061 0.421607
0.434546 0.857786 0.422004
0.443214 0.857267 0.422492
0.453956 0.856626 0.423102
0.466621 0.855924 0.423987
0.481239 0.855161 0.424994
0.497597 0.854490 0.426459
0.515404 0.853788 0.428138
0.534691 0.853086 0.430243
0.555047 0.852323 0.432441
0.576257 0.851469 0.434852
0.598199 0.850431 0.437385
0.620752 0.849332 0.440040
0.643854 0.848173 0.443091
0.667872 0.850645 0.440833
0.693446 0.854215 0.437263
0.720607 0.858000 0.433417
0.749050 0.861784 0.429633
0.778775 0.865537 0.425299
0.809537 0.869047 0.420356
0.841215 0.872313 0.414862
0.873808 0.875242 0.408484
0.907134 0.877806 0.401434
0.941405 0.880064 0.393744
0.968017 0.875517 0.393469
0.994934 0.872587 0.404456
1.000000 0.868711 0.419409
1.000000 0.862791 0.433539
1.000000 0.855741 0.452796
0.442115 0.881346 0.442969
0.443885 0.881621 0.443610
0.445869 0.881651 0.443793
0.449744 0.881498 0.444099
0.455512 0.881071 0.444343
0.463355 0.880522 0.444678
0.472938 0.879881 0.445167
0.484474 0.879118 0.445838
0.497993 0.878447 0.446845
0.513054 0.877775 0.448341
0.529717 0.877134 0.450019
0.547814 0.876616 0.452216
0.567010 0.875975 0.454505
0.587182 0.875212 0.457038
0.607904 0.874296 0.459785
0.629358 0.873259 0.462409
0.651392 0.872221 0.465461
0.673976 0.871672 0.468025
0.697383 0.874907 0.464698
0.722255 0.878264 0.461097
0.748501 0.881743 0.457527
0.775937 0.885130 0.453742
0.804410 0.888396 0.449317
0.833799 0.891447 0.444282
0.864073 0.894194 0.438727
0.895171 0.896605 0.432319
0.927062 0.898802 0.425483
0.959808 0.900664 0.417731
0.985534 0.896269 0.417426
1.000000 0.891936 0.427131
1.000000 0.887205 0.443061
1.000000 0.880461 0.457557
0.465736 0.903349 0.466560
0.467201 0.903471 0.466957
0.468940 0.903502 0.467292
0.472450 0.903380 0.467506
0.477974 0.903136 0.467964
0.485359 0.902892 0.468666
0.494728 0.902770 0.469886
0.506096 0.902647 0.471534
0.519310 0.902647 0.473396
0.534051 0.902708 0.475898
0.550286 0.902739 0.478645
0.567742 0.902739 0.481605
0.586175 0.902617 0.484718
0.605432 0.902281 0.487739
0.625238 0.901732 0.490913
0.645502 0.900908 0.493782
0.666316 0.900053 0.496956
0.687739 0.899168 0.500328
0.709499 0.899992 0.501213
0.732021 0.902922 0.497993
0.755825 0.905913 0.494789
0.780789 0.908904 0.491371
0.806699 0.911681 0.487343
0.833555 0.914305 0.482856
0.861326 0.916686 0.477852
0.889860 0.918822 0.472206
0.919280 0.920745 0.465949
0.949493 0.922362 0.459083
0.980468 0.923796 0.451606
1.000000 0.919280 0.451453
1.000000 0.913298 0.459724
1.000000 0.907073 0.475959
0.496651 0.927977 0.497444
0.497902 0.928038 0.497810
0.499306 0.927947 0.497841
0.502281 0.927764 0.497963
0.506981 0.927459 0.498177
0.513390 0.927031 0.498726
0.521538 0.926665 0.499550
0.531334 0.926329 0.500511
0.542809 0.925994 0.501915
0.555871 0.925658 0.503777
0.570214 0.925322 0.505791
0.585840 0.924956 0.508049
0.602594 0.924529 0.510613
0.620111 0.924010 0.513237
