data/fiter_cube/39179523/1023429/file.cube
# Created by Adobe Lightroom plugin Export LUT (1.17.0)
# www.johnrellis.com/lightroom/exportlut.htm
# Preset: 日系大师人物肖像_03 云集
# Color profile: C:\Program Files (x86)\Common Files\Adobe\Color\Profiles\Recommended\AdobeRGB1998.icc
LUT_3D_SIZE 8
DOMAIN_MIN 0.000000 0.000000 0.000000
DOMAIN_MAX 0.903226 0.903226 0.903226
0.000000 0.000000 0.000000
0.021485 0.000000 0.000824
0.148226 0.000000 0.005829
0.309392 0.000000 0.000000
0.513817 0.000000 0.000000
0.735439 0.000000 0.000000
0.921691 0.000000 0.000000
1.000000 0.000000 0.000000
0.004089 0.020294 0.003632
0.024109 0.030915 0.007660
0.148928 0.000000 0.000000
0.310979 0.000000 0.000000
0.515770 0.000000 0.000000
0.735225 0.000000 0.000000
0.920378 0.000000 0.000000
1.000000 0.000000 0.000000
0.054475 0.133089 0.045411
0.074464 0.132845 0.056275
0.155734 0.153262 0.005371
0.327153 0.197635 0.000000
0.535760 0.214328 0.000000
0.753262 0.192905 0.000000
0.931823 0.109377 0.000000
1.000000 0.000000 0.000000
0.103243 0.295811 0.050538
0.144656 0.294285 0.071992
0.233219 0.288090 0.132631
0.367926 0.356359 0.000000
0.584833 0.410895 0.000000
0.784695 0.411872 0.000000
0.943633 0.381415 0.000000
1.000000 0.332799 0.000000
0.190951 0.517693 0.114229
0.234897 0.518029 0.133669
0.346532 0.519738 0.197757
0.471565 0.540063 0.246311
0.633204 0.606317 0.000000
0.820645 0.620386 0.000000
0.954589 0.579736 0.000000
1.000000 0.528618 0.000000
0.310521 0.748470 0.227390
0.350774 0.751400 0.246250
0.460243 0.752834 0.304936
0.601740 0.754452 0.408850
0.714626 0.779599 0.392523
0.853056 0.812070 0.183017
0.970214 0.772610 0.000000
1.000000 0.703578 0.173861
0.466529 0.908202 0.408698
0.494606 0.907713 0.423957
0.579583 0.904387 0.475166
0.698116 0.898802 0.565637
0.810452 0.892546 0.678004
0.866941 0.909789 0.597711
0.963684 0.920531 0.418738
1.000000 0.864897 0.281071
0.649195 0.979767 0.621881
0.665553 0.978424 0.632288
0.718257 0.973968 0.668147
0.793851 0.967163 0.726284
0.866087 0.959014 0.789975
0.916075 0.957427 0.831785
0.946075 0.968444 0.769528
1.000000 0.974090 0.643030
0.000000 0.000000 0.036988
0.034821 0.000000 0.042969
0.149203 0.000000 0.054963
0.307073 0.000000 0.058503
0.507713 0.000000 0.005493
0.726345 0.000000 0.000000
0.915343 0.000000 0.000000
1.000000 0.000000 0.000000
0.000000 0.032349 0.045319
0.040192 0.045594 0.047913
0.149508 0.026093 0.054902
0.310246 0.000000 0.047303
0.511528 0.000000 0.000000
0.728786 0.000000 0.000000
0.915129 0.000000 0.000000
1.000000 0.000000 0.000000
0.000000 0.139345 0.050324
0.078584 0.139132 0.077058
0.157626 0.155978 0.069490
0.323827 0.189609 0.024689
0.529870 0.195773 0.000000
0.745296 0.161410 0.000000
0.924559 0.000000 0.000000
1.000000 0.000000 0.000000
0.019654 0.300420 0.066682
0.130770 0.300206 0.106966
0.235203 0.296239 0.160403
0.360723 0.350805 0.069245
0.570031 0.395850 0.000000
0.772457 0.397650 0.000000
0.936339 0.369574 0.000000
1.000000 0.325292 0.000000
0.155459 0.519524 0.135439
0.218631 0.519585 0.167971
0.340002 0.521233 0.224521
0.468055 0.535607 0.284794
0.623560 0.598657 0.099031
0.812955 0.612604 0.000000
0.950286 0.575128 0.000000
1.000000 0.526970 0.139162
0.288975 0.746822 0.246738
0.335485 0.747433 0.269810
0.450813 0.749569 0.325017
0.597223 0.752865 0.425574
0.712703 0.777096 0.427008
0.849607 0.810361 0.244236
0.967346 0.771023 0.124453
1.000000 0.704250 0.233951
0.459693 0.906249 0.424537
0.487556 0.905241 0.438056
0.575158 0.902434 0.488472
0.696437 0.897734 0.577539
0.810239 0.892515 0.687617
0.866636 0.908690 0.621302
0.960571 0.919402 0.453132
1.000000 0.864866 0.328161
0.649195 0.979126 0.631250
0.665949 0.977905 0.641810
0.718959 0.973571 0.676967
0.794614 0.966979 0.733669
0.868498 0.959838 0.798367
0.918181 0.957580 0.841306
0.946410 0.968200 0.782254
1.000000 0.973877 0.663478
0.000000 0.000000 0.158785
0.000000 0.000000 0.160006
0.153811 0.000000 0.163272
0.311925 0.000000 0.202731
0.506889 0.000000 0.224826
0.720150 0.000000 0.226474
0.911589 0.000000 0.186740
1.000000 0.000000 0.197391
0.000000 0.058289 0.160281
0.017029 0.052338 0.161227
0.153780 0.024048 0.164096
0.312840 0.000000 0.195224
0.507744 0.000000 0.210788
0.719661 0.000000 0.204959
0.912596 0.000000 0.178225
1.000000 0.000000 0.199680
0.000000 0.160220 0.163363
0.000000 0.160952 0.164462
0.153109 0.161257 0.166903
0.320928 0.151583 0.172396
0.523705 0.108614 0.176883
0.738705 0.000000 0.179019
0.920470 0.000000 0.187686
1.000000 0.000000 0.213748
0.000000 0.314549 0.190890
0.000000 0.316686 0.186221
0.213413 0.318791 0.217990
0.351965 0.349187 0.214664
0.558343 0.373968 0.198825
0.766476 0.369482 0.199130
0.932921 0.343359 0.212863
1.000000 0.313115 0.245518
0.000000 0.525780 0.207645
0.000000 0.528374 0.207523
0.302007 0.531518 0.288396
0.471504 0.540887 0.382940
0.614466 0.595941 0.276097
0.804044 0.601709 0.232212
0.944457 0.569390 0.264042
1.000000 0.530266 0.302068
0.000000 0.752407 0.237949
0.194522 0.753048 0.271214
0.418555 0.752529 0.387640
0.586969 0.757443 0.480140
0.714504 0.775418 0.533135
0.840024 0.807370 0.388891
0.959106 0.769711 0.330663
1.000000 0.713039 0.384009
0.366003 0.912230 0.407416
0.424231 0.910063 0.443580
0.568658 0.903624 0.541375
0.695460 0.899229 0.621088
0.811826 0.895354 0.720058
0.869932 0.908232 0.696834
0.953765 0.919921 0.566339
1.000000 0.870939 0.474403
0.603388 0.983978 0.615534
0.635950 0.981170 0.640436
0.721401 0.973632 0.705989
0.797910 0.967590 0.758480
0.870939 0.961151 0.816800
0.923827 0.957641 0.867399
0.948119 0.968109 0.820951
1.000000 0.974243 0.727901
0.000000 0.000000 0.326177
0.000000 0.000000 0.327581
0.190188 0.000000 0.330510
0.319402 0.000000 0.335332
0.513268 0.000000 0.378729
0.721675 0.000000 0.405798
0.904082 0.000000 0.408453
1.000000 0.000000 0.397436
0.000000 0.057191 0.329015
0.000000 0.036744 0.329870
0.182437 0.000000 0.332372
0.320592 0.000000 0.336767
0.514611 0.000000 0.375402
0.721828 0.000000 0.399634
0.903777 0.000000 0.401953
1.000000 0.000000 0.394202
0.000000 0.199466 0.331609
0.000000 0.191073 0.332708
0.141085 0.165408 0.335912
0.321721 0.151186 0.339788
0.518791 0.079225 0.365301
0.727535 0.000000 0.382208
0.908385 0.000000 0.386786
1.000000 0.000000 0.388922
0.000000 0.332158 0.336767
0.000000 0.332738 0.337469
0.105531 0.333989 0.339879
0.319677 0.333806 0.343450
0.527733 0.328313 0.353613
0.742092 0.312230 0.364813
0.918303 0.297704 0.381384
1.000000 0.305821 0.407355
0.000000 0.524163 0.373083
0.000000 0.526085 0.370581
0.126192 0.533257 0.367651
0.415381 0.541650 0.426825
0.584833 0.579767 0.431952
0.780362 0.582757 0.422431
0.931243 0.564172 0.440467
1.000000 0.544945 0.466163
0.000000 0.749325 0.402991
0.000000 0.752773 0.405005
0.252293 0.757076 0.419471
0.538293 0.758450 0.534112
0.721401 0.772610 0.657038
0.823301 0.802823 0.551476
0.942992 0.772732 0.522423
1.000000 0.734798 0.554223
0.199771 0.915099 0.454475
0.270726 0.914794 0.466743
0.441810 0.912200 0.521477
0.675257 0.901518 0.666377
0.807523 0.899626 0.756222
0.875944 0.908232 0.783871
0.943084 0.920073 0.692287
1.000000 0.882017 0.637232
0.508049 0.992462 0.595514
0.541894 0.990448 0.613611
0.653529 0.982025 0.683803
0.792020 0.969482 0.784848
0.869535 0.963622 0.837705
0.925902 0.960510 0.885893
0.950530 0.968261 0.866392
0.994720 0.974792 0.801755
0.000000 0.000000 0.523857
0.000000 0.000000 0.524865
0.207248 0.000000 0.527031
0.364385 0.000000 0.530938
0.521691 0.000000 0.537285
0.726223 0.000000 0.571679
0.902647 0.000000 0.575616
1.000000 0.000000 0.556786
0.000000 0.006653 0.525811
0.000000 0.000000 0.527062
0.189944 0.000000 0.528985
0.359716 0.000000 0.532097
0.521996 0.000000 0.537865
0.727016 0.000000 0.569879
0.902983 0.000000 0.573205
1.000000 0.000000 0.555505
0.000000 0.210819 0.528985
0.000000 0.195804 0.530083
0.100801 0.167086 0.532067
0.342901 0.141329 0.535149
0.522087 0.082246 0.539055
0.727260 0.000000 0.562493
0.902617 0.000000 0.565637
1.000000 0.000000 0.552758
0.000000 0.375769 0.532036
0.000000 0.371862 0.532586
0.000000 0.358465 0.535180
0.312688 0.339086 0.538994
0.522210 0.329503 0.542199
0.729549 0.305547 0.555932
0.902098 0.288273 0.559289
1.000000 0.306950 0.558648
0.000000 0.533898 0.535943
0.000000 0.534417 0.536584
0.000000 0.534997 0.538109
0.293645 0.535210 0.540764
0.517266 0.532555 0.543297
0.735683 0.533410 0.558648
0.905272 0.538048 0.578119
1.000000 0.553338 0.602289
0.000000 0.727718 0.561975
0.000000 0.729641 0.560998
0.000000 0.735317 0.558831
0.348730 0.744228 0.567803
0.642420 0.751919 0.653010
0.790585 0.784604 0.670771
0.918853 0.771237 0.668360
1.000000 0.753353 0.684596
0.000000 0.910430 0.576257
0.000000 0.910369 0.578363
0.270237 0.909606 0.592859
0.530266 0.905791 0.645655
0.764431 0.898253 0.765469
0.880644 0.905760 0.850401
0.930907 0.918181 0.787472
0.995270 0.892271 0.760159
0.377630 0.997864 0.626825
0.421393 0.996033 0.637995
0.545006 0.989563 0.678492
0.700649 0.979492 0.750729
0.851164 0.966888 0.848936
0.921447 0.964080 0.897246
0.953124 0.968597 0.906096
0.988617 0.975341 0.861814
0.000000 0.000000 0.729671
0.000000 0.000000 0.730129
0.201938 0.000000 0.730861
0.389410 0.000000 0.733700
0.560571 0.000000 0.736751
0.732784 0.000000 0.740017
0.900298 0.000000 0.736751
1.000000 0.000000 0.704524
0.000000 0.000000 0.729122
0.000000 0.000000 0.729366
0.175265 0.000000 0.730587
0.380285 0.000000 0.732937
0.556695 0.000000 0.735836
0.731868 0.000000 0.739376
0.899809 0.000000 0.735409
1.000000 0.000000 0.703883
0.000000 0.190280 0.733181
0.000000 0.182956 0.733333
0.000000 0.167575 0.734066
0.352300 0.132998 0.735836
0.548119 0.003632 0.737972
0.732479 0.000000 0.740749
0.899779 0.000000 0.732876
1.000000 0.000000 0.703731
0.000000 0.396674 0.734676
0.000000 0.390204 0.734798
0.000000 0.368994 0.736477
0.304784 0.348150 0.739864
0.535698 0.335943 0.742031
0.733822 0.317510 0.743984
0.899016 0.309850 0.731228
1.000000 0.336980 0.708919
0.000000 0.569879 0.734279
0.000000 0.567895 0.734768
0.000000 0.561028 0.736141
0.268650 0.550439 0.738369
0.517113 0.540520 0.740169
0.727749 0.534569 0.741756
0.891386 0.537163 0.732692
0.996521 0.557183 0.726986
0.000000 0.739040 0.734463
0.000000 0.739651 0.735256
0.000000 0.739773 0.736110
0.236362 0.739010 0.737331
0.505638 0.736172 0.738338
0.721248 0.732601 0.740780
0.886229 0.740780 0.758267
0.984314 0.752743 0.776120
0.000000 0.900511 0.728542
0.000000 0.900816 0.728023
0.000000 0.900359 0.725643
0.282139 0.900359 0.728115
0.603204 0.896727 0.756466
0.834989 0.895903 0.841337
0.916106 0.912474 0.855070
0.981079 0.899474 0.847349
0.000000 1.000000 0.706630
0.000000 1.000000 0.709590
0.343633 0.997681 0.724147
0.566094 0.988098 0.760983
0.758267 0.975525 0.822843
0.900206 0.967071 0.900755
0.957763 0.969696 0.941314
0.983917 0.976379 0.910552
0.000000 0.000000 0.887205
0.000000 0.000000 0.887877
0.169039 0.000000 0.888212
0.380133 0.000000 0.888945
0.554986 0.000000 0.889647
0.724514 0.000000 0.890135
0.893675 0.000000 0.890532
1.000000 0.000000 0.846891
0.000000 0.000000 0.885618
0.000000 0.000000 0.886229
0.134676 0.000000 0.886656
0.369818 0.000000 0.887144
0.549340 0.000000 0.887602
0.720851 0.000000 0.887816
0.890684 0.000000 0.887938
1.000000 0.000000 0.844846
0.000000 0.193820 0.887968
0.000000 0.190097 0.887999
0.000000 0.176699 0.887846
0.340429 0.148867 0.888060
0.537224 0.090394 0.887877
0.716457 0.000000 0.888060
0.890806 0.000000 0.888731
1.000000 0.000000 0.845487
0.000000 0.387152 0.888487
0.000000 0.381445 0.888334
0.000000 0.365759 0.888365
0.302037 0.359228 0.888640
0.523461 0.350011 0.888426
0.712001 0.339300 0.888670
0.889555 0.328588 0.889128
0.996887 0.363348 0.847074
0.000000 0.562188 0.884977
0.000000 0.559472 0.884733
0.000000 0.551720 0.884672
0.267826 0.544335 0.885069
0.517449 0.547601 0.884550
0.707424 0.545892 0.884306
0.881682 0.545922 0.884367
0.987152 0.572351 0.852171
0.000000 0.728023 0.881956
0.000000 0.727047 0.882017
0.000000 0.724208 0.882292
0.248722 0.721340 0.882719
0.518822 0.724117 0.882200
0.722255 0.737514 0.881407
0.875181 0.738582 0.881956
0.974548 0.750149 0.867094
0.000000 0.890867 0.879545
0.000000 0.890959 0.879850
0.000000 0.890227 0.879973
0.229221 0.888518 0.880095
0.516716 0.884337 0.879393
0.722652 0.879026 0.878813
0.869139 0.875303 0.879728
0.966247 0.882170 0.891569
0.000000 1.000000 0.840085
0.000000 1.000000 0.839780
0.000000 1.000000 0.839872
0.266758 0.996857 0.840879
0.568048 0.985534 0.852049
0.802457 0.971313 0.887083
0.938537 0.968963 0.940459
0.979583 0.976715 0.947204
0.000000 0.000000 0.980926
0.000000 0.000000 0.981079
0.127413 0.000000 0.980804
0.350958 0.000000 0.980835
0.519554 0.000000 0.980652
0.678889 0.000000 0.980163
0.835264 0.000000 0.979583
0.988922 0.000000 0.978424
0.000000 0.000000 0.980377
0.000000 0.000000 0.980499
0.094667 0.000000 0.980346
0.343908 0.000000 0.980194
0.516136 0.000000 0.979980
0.676997 0.000000 0.979461
0.833921 0.000000 0.978698
0.987762 0.000000 0.977508
0.000000 0.215854 0.979828
0.000000 0.214115 0.979858
0.000000 0.206546 0.979400
0.325841 0.196231 0.979706
0.508415 0.178439 0.979187
0.673274 0.154513 0.978241
0.831815 0.130556 0.977386
0.985595 0.113985 0.976165
0.000000 0.373968 0.978729
0.000000 0.377203 0.978668
0.000000 0.380865 0.978119
0.317205 0.379675 0.977813
0.506645 0.378180 0.977234
0.673304 0.376562 0.976287
0.830961 0.377905 0.975219
0.981750 0.384405 0.973968
0.000000 0.532921 0.975891
0.000000 0.532525 0.975982
0.000000 0.531884 0.975616
0.312932 0.540551 0.974670
0.528038 0.561608 0.972656
0.684932 0.564752 0.971588
0.834104 0.571954 0.970611
0.974792 0.585107 0.969818
0.000000 0.685512 0.972229
0.000000 0.684932 0.972045
0.000000 0.684169 0.971466
0.296696 0.688228 0.970428
0.540490 0.708827 0.968170
0.723079 0.740871 0.965728
0.849363 0.749111 0.965728
0.967407 0.759365 0.965881
0.000000 0.834409 0.968475
0.000000 0.834134 0.968353
0.000000 0.833463 0.967895
0.298161 0.835264 0.967041
0.546838 0.843351 0.965240
0.736599 0.859525 0.962921
0.869596 0.877501 0.961791
0.960266 0.877989 0.961822
0.000000 0.980194 0.964599
0.000000 0.979828 0.964446
0.000000 0.978576 0.964080
0.311315 0.975982 0.963500
0.559045 0.971618 0.962371
0.742580 0.966278 0.961151
0.870481 0.961883 0.960479
0.956878 0.959075 0.960662
