data/fiter_cube/39179523/1023429/file.cube
# Created by Adobe Lightroom plugin Export LUT (1.17.0)
# www.johnrellis.com/lightroom/exportlut.htm
# Preset: 日系大师人物肖像_03 云集
# Color profile: C:\Program Files (x86)\Common Files\Adobe\Color\Profiles\Recommended\AdobeRGB1998.icc
LUT_3D_SIZE 5
DOMAIN_MIN 0.000000 0.000000 0.000000
DOMAIN_MAX 0.903226 0.903226 0.903226
0.000000 0.000000 0.000000
0.118593 0.000000 0.003845
0.407599 0.000000 0.000000
0.788296 0.000000 0.000000
1.000000 0.000000 0.000000
0.041688 0.106203 0.037385
0.119478 0.118441 0.014710
0.422705 0.166812 0.000000
0.800320 0.084901 0.000000
1.000000 0.000000 0.000000
0.142184 0.401160 0.075929
0.261784 0.400000 0.141176
0.499825 0.481209 0.000000
0.842191 0.508446 0.000000
1.000000 0.434638 0.000000
0.347356 0.799252 0.268193
0.457862 0.800473 0.324071
0.696590 0.800229 0.512047
0.890532 0.847715 0.241764
1.000000 0.744991 0.198276
0.649195 0.979767 0.621881
0.702052 0.975372 0.656672
0.830014 0.962554 0.755886
0.921569 0.960479 0.819791
1.000000 0.974090 0.643030
0.000000 0.000000 0.125429
0.121889 0.000000 0.129366
0.403815 0.000000 0.180026
0.772885 0.000000 0.140230
1.000000 0.000000 0.153140
0.000000 0.126650 0.129213
0.120607 0.127199 0.131716
0.415259 0.080323 0.136843
0.786954 0.000000 0.132906
1.000000 0.000000 0.165652
0.000000 0.412329 0.159213
0.228977 0.414923 0.218082
0.481636 0.469398 0.203372
0.828672 0.487037 0.168338
1.000000 0.429206 0.229038
0.230991 0.803311 0.278386
0.432471 0.802518 0.392676
0.696345 0.805570 0.565606
0.882597 0.846189 0.393774
1.000000 0.751675 0.363867
0.623529 0.982574 0.625391
0.707301 0.975250 0.689784
0.835904 0.964050 0.781918
0.926940 0.960662 0.850614
1.000000 0.974395 0.711482
0.000000 0.000000 0.423224
0.162997 0.000000 0.425788
0.417243 0.000000 0.434089
0.773495 0.000000 0.492775
1.000000 0.000000 0.479042
0.000000 0.169039 0.427893
0.067659 0.130343 0.430549
0.419684 0.031464 0.437690
0.775143 0.000000 0.480629
1.000000 0.000000 0.474556
0.000000 0.430884 0.434730
0.000000 0.431830 0.436530
0.415717 0.431098 0.441840
0.789212 0.423774 0.465705
1.000000 0.437385 0.506249
0.000000 0.793637 0.489662
0.060121 0.797147 0.492805
0.628229 0.801663 0.629786
0.853147 0.837552 0.651331
1.000000 0.784512 0.644678
0.453651 0.994873 0.606073
0.569055 0.988403 0.656641
0.822812 0.967803 0.818448
0.935393 0.962036 0.902281
0.991424 0.974853 0.832700
0.000000 0.000000 0.773892
0.128115 0.000000 0.775143
0.476814 0.000000 0.778958
0.778805 0.000000 0.783444
1.000000 0.000000 0.739864
0.000000 0.144503 0.776120
0.000000 0.121736 0.776852
0.458381 0.000000 0.779599
0.777859 0.000000 0.783169
1.000000 0.000000 0.738369
0.000000 0.484108 0.776577
0.000000 0.470771 0.777554
0.407477 0.441657 0.779995
0.771664 0.422034 0.780758
0.999939 0.452796 0.747799
0.000000 0.784909 0.778378
0.000000 0.784176 0.778378
0.377630 0.781796 0.779812
0.764889 0.774929 0.782101
0.978454 0.790860 0.809934
0.000000 1.000000 0.735409
0.144839 1.000000 0.742214
0.626734 0.984375 0.795468
0.911162 0.967651 0.912139
0.982849 0.976562 0.920775
0.000000 0.000000 0.980926
0.000000 0.000000 0.980835
0.437293 0.000000 0.980774
0.718227 0.000000 0.980072
0.988922 0.000000 0.978424
0.000000 0.175631 0.980255
0.000000 0.166140 0.980133
0.424109 0.129763 0.979828
0.714321 0.000000 0.978576
0.986572 0.000000 0.976867
0.000000 0.453895 0.977447
0.000000 0.451545 0.977173
0.423041 0.468452 0.975341
0.714626 0.469215 0.973480
0.978454 0.487007 0.971954
0.000000 0.723812 0.971801
0.000000 0.722835 0.971283
0.431281 0.733303 0.969085
0.765377 0.780209 0.964172
0.965301 0.793515 0.964630
0.000000 0.980194 0.964599
0.000000 0.978973 0.964202
0.445655 0.974029 0.963012
0.779721 0.965057 0.960906
0.956878 0.959075 0.960662
