data/fiter_cube/39179523/1023429/file.cube
# Created by Adobe Lightroom plugin Export LUT (1.17.0)
# www.johnrellis.com/lightroom/exportlut.htm
# Preset: 日系大师人物肖像_03 云集
# Color profile: C:\Program Files (x86)\Common Files\Adobe\Color\Profiles\Recommended\AdobeRGB1998.icc
LUT_3D_SIZE 32
DOMAIN_MIN 0.0 0.0 0.0
DOMAIN_MAX 1.0 1.0 1.0
0.000000 0.000000 0.000000
0.000000 0.000000 0.000000
0.000000 0.000000 0.000000
0.000000 0.000000 0.000000
0.021485 0.000000 0.000824
0.071656 0.000000 0.000946
0.093751 0.000000 0.002106
0.118593 0.000000 0.003845
0.148226 0.000000 0.005829
0.182895 0.000000 0.008759
0.221530 0.000000 0.012360
0.264042 0.000000 0.000000
0.309392 0.000000 0.000000
0.357366 0.000000 0.000000
0.407599 0.000000 0.000000
0.459876 0.000000 0.000000
0.513817 0.000000 0.000000
0.568292 0.000000 0.000000
0.622919 0.000000 0.000000
0.680018 0.000000 0.000000
0.735439 0.000000 0.000000
0.788296 0.000000 0.000000
0.837217 0.000000 0.000000
0.881712 0.000000 0.000000
0.921691 0.000000 0.000000
0.957275 0.000000 0.000000
0.988434 0.000000 0.000000
1.000000 0.000000 0.000000
1.000000 0.000000 0.000000
1.000000 0.000000 0.000000
1.000000 0.000000 0.000000
1.000000 0.000000 0.000000
0.000000 0.000000 0.000000
0.000000 0.000000 0.000000
0.000000 0.000000 0.000000
0.000000 0.000000 0.000000
0.022858 0.000000 0.000793
0.071656 0.000000 0.000946
0.093751 0.000000 0.002106
0.118593 0.000000 0.003845
0.148226 0.000000 0.005829
0.182589 0.000000 0.008789
0.221469 0.000000 0.009125
0.264073 0.000000 0.000000
0.309117 0.000000 0.000000
0.357031 0.000000 0.000000
0.407202 0.000000 0.000000
0.459449 0.000000 0.000000
0.513176 0.000000 0.000000
0.567529 0.000000 0.000000
0.622156 0.000000 0.000000
0.679103 0.000000 0.000000
0.734188 0.000000 0.000000
0.786893 0.000000 0.000000
0.835813 0.000000 0.000000
0.880400 0.000000 0.000000
0.920500 0.000000 0.000000
0.956237 0.000000 0.000000
0.987610 0.000000 0.000000
1.000000 0.000000 0.000000
1.000000 0.000000 0.000000
1.000000 0.000000 0.000000
1.000000 0.000000 0.000000
1.000000 0.000000 0.000000
0.000000 0.000000 0.000000
0.000000 0.000000 0.000000
0.000000 0.000000 0.000000
0.000000 0.000000 0.000000
0.024201 0.000000 0.000763
0.072084 0.000000 0.000916
0.094087 0.000000 0.002106
0.118593 0.000000 0.003845
0.148226 0.000000 0.005829
0.182589 0.000000 0.008789
0.221744 0.000000 0.000000
0.264103 0.000000 0.000000
0.309087 0.000000 0.000000
0.357031 0.000000 0.000000
0.407233 0.000000 0.000000
0.459602 0.000000 0.000000
0.513237 0.000000 0.000000
0.567529 0.000000 0.000000
0.622156 0.000000 0.000000
0.678981 0.000000 0.000000
0.733944 0.000000 0.000000
0.786496 0.000000 0.000000
0.835416 0.000000 0.000000
0.879942 0.000000 0.000000
0.920104 0.000000 0.000000
0.955840 0.000000 0.000000
0.987243 0.000000 0.000000
1.000000 0.000000 0.000000
1.000000 0.000000 0.000000
1.000000 0.000000 0.000000
1.000000 0.000000 0.000000
1.000000 0.000000 0.000000
0.000000 0.000000 0.000000
0.000000 0.000000 0.000000
0.000000 0.000000 0.000000
0.000000 0.000000 0.000000
0.028290 0.000000 0.000732
0.072969 0.000000 0.000885
0.094728 0.000000 0.002075
0.119142 0.000000 0.002747
0.148898 0.000000 0.000000
0.183597 0.000000 0.000000
0.222354 0.000000 0.000000
0.264683 0.000000 0.000000
0.309850 0.000000 0.000000
0.357824 0.000000 0.000000
0.408179 0.000000 0.000000
0.460456 0.000000 0.000000
0.514061 0.000000 0.000000
0.568231 0.000000 0.000000
0.623102 0.000000 0.000000
0.679225 0.000000 0.000000
0.733822 0.000000 0.000000
0.786069 0.000000 0.000000
0.834958 0.000000 0.000000
0.879606 0.000000 0.000000
0.919982 0.000000 0.000000
0.955901 0.000000 0.000000
0.987366 0.000000 0.000000
1.000000 0.000000 0.000000
1.000000 0.000000 0.000000
1.000000 0.000000 0.000000
1.000000 0.000000 0.000000
1.000000 0.000000 0.000000
0.004089 0.020294 0.003632
0.003754 0.022705 0.003449
0.004730 0.023682 0.004425
0.005432 0.028260 0.004028
0.024109 0.030915 0.007660
0.071412 0.026307 0.000000
0.094087 0.010712 0.000000
0.118990 0.000000 0.000000
0.148928 0.000000 0.000000
0.183841 0.000000 0.000000
0.222934 0.000000 0.000000
0.265415 0.000000 0.000000
0.310979 0.000000 0.000000
0.359228 0.000000 0.000000
0.409735 0.000000 0.000000
0.462257 0.000000 0.000000
0.515770 0.000000 0.000000
0.570001 0.000000 0.000000
0.625483 0.000000 0.000000
0.681209 0.000000 0.000000
0.735225 0.000000 0.000000
0.787198 0.000000 0.000000
0.835721 0.000000 0.000000
0.880247 0.000000 0.000000
0.920378 0.000000 0.000000
0.956176 0.000000 0.000000
0.987488 0.000000 0.000000
1.000000 0.000000 0.000000
1.000000 0.000000 0.000000
1.000000 0.000000 0.000000
1.000000 0.000000 0.000000
1.000000 0.000000 0.000000
0.014557 0.064851 0.012726
0.014405 0.065278 0.012634
0.015381 0.065644 0.013611
0.015869 0.067292 0.014282
0.036072 0.065980 0.021637
0.067536 0.069490 0.010895
0.092927 0.068788 0.000000
0.118227 0.065461 0.000000
0.149020 0.063996 0.000000
0.184604 0.062135 0.000000
0.224338 0.060548 0.000000
0.267277 0.056245 0.000000
0.313207 0.049439 0.000000
0.361730 0.037201 0.000000
0.412604 0.019745 0.000000
0.465156 0.000000 0.000000
0.518761 0.000000 0.000000
0.572992 0.000000 0.000000
0.628992 0.000000 0.000000
0.684382 0.000000 0.000000
0.738125 0.000000 0.000000
0.789853 0.000000 0.000000
0.848356 0.000000 0.000000
0.891386 0.000000 0.000000
0.929900 0.000000 0.000000
0.963897 0.000000 0.000000
0.993652 0.000000 0.000000
1.000000 0.000000 0.000000
1.000000 0.000000 0.000000
1.000000 0.000000 0.000000
1.000000 0.000000 0.000000
1.000000 0.000000 0.000000
0.027588 0.084565 0.025727
0.028565 0.084840 0.026703
0.028229 0.085481 0.026490
0.028870 0.086366 0.027283
0.049561 0.085359 0.034607
0.070314 0.081178 0.053986
0.090944 0.091615 0.014527
0.120668 0.097505 0.000000
0.151431 0.099977 0.000000
0.187533 0.103761 0.000000
0.228244 0.108156 0.000000
0.272007 0.111940 0.000000
0.318578 0.115297 0.000000
0.367712 0.118044 0.000000
0.418799 0.118593 0.000000
0.471107 0.114473 0.000000
0.524681 0.105653 0.000000
0.579950 0.090303 0.000000
0.636255 0.061982 0.000000
0.691676 0.000000 0.000000
0.745754 0.000000 0.000000
0.797848 0.000000 0.000000
0.846250 0.000000 0.000000
0.890227 0.000000 0.000000
0.929473 0.000000 0.000000
0.963775 0.000000 0.000000
0.993561 0.000000 0.000000
1.000000 0.000000 0.000000
1.000000 0.000000 0.000000
1.000000 0.000000 0.000000
1.000000 0.000000 0.000000
1.000000 0.000000 0.000000
0.041688 0.106203 0.037385
0.042664 0.106416 0.038361
0.042329 0.106905 0.038178
0.043030 0.107851 0.037781
0.062074 0.106600 0.047181
0.079988 0.102571 0.061250
0.094606 0.106416 0.058106
0.119478 0.118441 0.014710
0.154849 0.130983 0.000000
0.191135 0.137697 0.000000
0.231205 0.144808 0.000000
0.274968 0.151858 0.000000
0.322148 0.158541 0.000000
0.371527 0.164065 0.000000
0.422705 0.166812 0.000000
0.475105 0.167086 0.000000
0.529137 0.164858 0.000000
0.584985 0.159457 0.000000
0.640681 0.150912 0.000000
0.695430 0.136873 0.000000
0.748898 0.116579 0.000000
0.800320 0.084901 0.000000
0.848051 0.000000 0.000000
0.891478 0.000000 0.000000
0.930266 0.000000 0.000000
0.964233 0.000000 0.000000
0.993652 0.000000 0.000000
1.000000 0.000000 0.000000
1.000000 0.000000 0.000000
1.000000 0.000000 0.000000
1.000000 0.000000 0.000000
1.000000 0.000000 0.000000
0.054475 0.133089 0.045411
0.055207 0.133242 0.046387
0.054841 0.133822 0.046113
0.055970 0.134890 0.046601
0.074464 0.132845 0.056275
0.092103 0.129335 0.064790
0.106447 0.125460 0.073518
0.126650 0.138888 0.056641
0.155734 0.153262 0.005371
0.196628 0.171176 0.000000
0.237430 0.180636 0.000000
0.281132 0.189517 0.000000
0.327153 0.197635 0.000000
0.376287 0.204654 0.000000
0.427649 0.209842 0.000000
0.480659 0.213046 0.000000
0.535760 0.214328 0.000000
0.591302 0.213443 0.000000
0.646387 0.209476 0.000000
0.700496 0.202518 0.000000
0.753262 0.192905 0.000000
0.803983 0.179110 0.000000
0.850950 0.161685 0.000000
0.893675 0.139284 0.000000
0.931823 0.109377 0.000000
0.965209 0.061555 0.000000
0.994263 0.000000 0.000000
1.000000 0.000000 0.000000
1.000000 0.000000 0.000000
1.000000 0.000000 0.000000
1.000000 0.000000 0.000000
1.000000 0.000000 0.000000
0.063233 0.166171 0.047852
0.063020 0.166445 0.048524
0.063355 0.166873 0.048310
0.071656 0.166659 0.052033
0.088991 0.164858 0.060182
0.107088 0.162112 0.067567
0.123812 0.158175 0.077638
0.141299 0.163821 0.073915
0.166903 0.178866 0.045472
0.199496 0.195010 0.000000
0.243931 0.216190 0.000000
0.288396 0.226993 0.000000
0.334752 0.236515 0.000000
0.383246 0.244511 0.000000
0.433906 0.251316 0.000000
0.488350 0.257511 0.000000
0.543572 0.261326 0.000000
0.599084 0.262821 0.000000
0.653742 0.261814 0.000000
0.707027 0.258152 0.000000
0.758938 0.252293 0.000000
0.808438 0.243687 0.000000
0.854276 0.232486 0.000000
0.895903 0.218570 0.000000
0.933227 0.202243 0.000000
0.966033 0.183474 0.000000
0.994690 0.162570 0.000000
1.000000 0.138918 0.000000
1.000000 0.112215 0.000000
1.000000 0.080568 0.000000
1.000000 0.017212 0.000000
1.000000 0.000000 0.000000
0.069123 0.204471 0.044526
0.071778 0.204471 0.045411
0.077180 0.204318 0.047974
0.090059 0.203433 0.053315
0.106844 0.201999 0.061585
0.125734 0.199863 0.069795
0.144198 0.196872 0.080873
0.161135 0.193912 0.094057
0.183810 0.208927 0.074189
0.213199 0.225284 0.032471
0.248508 0.242222 0.000000
0.293889 0.262730 0.000000
0.343847 0.277012 0.000000
0.393652 0.287083 0.000000
0.444923 0.295445 0.000000
0.497322 0.302007 0.000000
0.551354 0.307073 0.000000
0.606806 0.310552 0.000000
0.660792 0.311254 0.000000
0.713497 0.309758 0.000000
0.764645 0.306096 0.000000
0.813230 0.299992 0.000000
0.858213 0.291691 0.000000
0.898985 0.281102 0.000000
0.935515 0.268772 0.000000
0.967590 0.254582 0.000000
0.995605 0.239475 0.000000
1.000000 0.223667 0.000000
1.000000 0.207889 0.000000
1.000000 0.192691 0.000000
1.000000 0.178836 0.000000
1.000000 0.167971 0.000000
0.086213 0.246708 0.042359
0.090547 0.246677 0.045197
0.096864 0.246433 0.049378
0.109041 0.245762 0.056916
0.125612 0.244877 0.064973
0.144778 0.243503 0.074800
0.165286 0.241764 0.087282
0.185397 0.239414 0.102571
0.205539 0.243473 0.105867
0.232059 0.259800 0.081147
0.264683 0.276860 0.025940
0.303471 0.294865 0.000000
0.356115 0.320165 0.000000
0.413214 0.338506 0.000000
0.465644 0.347845 0.000000
0.518730 0.355261 0.000000
0.572320 0.360754 0.000000
0.625360 0.363989 0.000000
0.677913 0.365209 0.000000
0.729335 0.364385 0.000000
0.778897 0.361242 0.000000
0.825345 0.356023 0.000000
0.868132 0.348394 0.000000
0.906981 0.339055 0.000000
0.941711 0.328038 0.000000
0.972229 0.315679 0.000000
0.998993 0.302464 0.000000
1.000000 0.289097 0.000000
1.000000 0.275944 0.000000
1.000000 0.263340 0.000000
1.000000 0.252445 0.000000
1.000000 0.243717 0.000000
0.103243 0.295811 0.050538
0.107790 0.295781 0.053376
0.114260 0.295537 0.057862
0.127016 0.294987 0.063844
0.144656 0.294285 0.071992
0.165316 0.293126 0.082795
0.187747 0.291722 0.096651
0.210544 0.290043 0.113069
0.233219 0.288090 0.132631
0.257053 0.299748 0.122316
0.287999 0.318059 0.092164
0.325231 0.337072 0.023224
0.367926 0.356359 0.000000
0.415381 0.374914 0.000000
0.477760 0.396460 0.000000
0.531304 0.404791 0.000000
0.584833 0.410895 0.000000
0.637079 0.414405 0.000000
0.686885 0.415015 0.000000
0.736080 0.414191 0.000000
0.784695 0.411872 0.000000
0.830137 0.407202 0.000000
0.871885 0.400397 0.000000
0.909789 0.391669 0.000000
0.943633 0.381415 0.000000
0.973419 0.369787 0.000000
0.999573 0.357610 0.000000
1.000000 0.345068 0.000000
1.000000 0.332799 0.000000
1.000000 0.321324 0.000000
1.000000 0.311192 0.000000
1.000000 0.302831 0.039094
0.121065 0.346441 0.062470
0.126223 0.346349 0.064820
0.132570 0.346258 0.067231
0.145724 0.346044 0.073274
0.164157 0.345342 0.082368
0.186252 0.344610 0.094087
0.210361 0.343999 0.108492
0.235752 0.343420 0.125917
0.261540 0.342626 0.146242
0.286778 0.342657 0.167727
0.314092 0.360662 0.141604
0.348028 0.379522 0.106569
0.387762 0.398718 0.031128
0.432532 0.417762 0.000000
0.477699 0.432288 0.000000
0.544915 0.457008 0.000000
0.598169 0.463233 0.000000
0.649378 0.466377 0.000000
0.698116 0.466651 0.000000
0.745632 0.465278 0.000000
0.791409 0.462348 0.000000
0.835386 0.457740 0.000000
0.876158 0.451087 0.000000
0.913085 0.442603 0.000000
0.945983 0.432471 0.000000
0.974914 0.421149 0.000000
1.000000 0.409155 0.000000
1.000000 0.396948 0.000000
1.000000 0.385046 0.000000
1.000000 0.373816 0.000000
1.000000 0.363897 0.000000
1.000000 0.355566 0.080812
0.142184 0.401160 0.075929
0.147311 0.401190 0.077943
0.153658 0.401038 0.080903
0.167239 0.401068 0.087007
0.186404 0.400824 0.096284
0.209323 0.400610 0.108522
0.234714 0.400366 0.123445
0.261784 0.400000 0.141176
0.289830 0.399786 0.161471
0.318120 0.399634 0.185214
0.344945 0.406134 0.192508
0.375219 0.424750 0.163027
0.411627 0.443732 0.123690
0.453498 0.462806 0.053162
0.499825 0.481209 0.000000
0.541924 0.491371 0.000000
0.612634 0.518242 0.000000
0.662562 0.520348 0.000000
0.710201 0.519799 0.000000
0.756527 0.517815 0.000000
0.800748 0.514061 0.000000
0.842191 0.508446 0.000000
0.880552 0.501244 0.000000
0.916411 0.492500 0.000000
0.948333 0.482155 0.000000
0.976501 0.470771 0.000000
1.000000 0.458656 0.000000
1.000000 0.446509 0.000000
1.000000 0.434638 0.000000
1.000000 0.423529 0.000000
1.000000 0.413550 0.054322
1.000000 0.405097 0.110109
0.165652 0.459022 0.093416
0.170718 0.459205 0.095918
0.177188 0.459236 0.098329
0.190829 0.459236 0.104768
0.210178 0.459174 0.114015
0.233707 0.459327 0.126131
0.260258 0.459480 0.140963
0.288853 0.459754 0.158663
0.318853 0.459998 0.179294
0.349310 0.460334 0.202640
0.379614 0.460548 0.229129
0.407630 0.473182 0.218997
0.439796 0.491371 0.186282
0.477790 0.509728 0.143282
0.520623 0.527520 0.073671
0.567559 0.544915 0.000000
0.605829 0.550225 0.000000
0.675990 0.576410 0.000000
0.722805 0.574792 0.000000
0.768093 0.571832 0.000000
0.810941 0.567010 0.000000
0.850950 0.560266 0.000000
0.887663 0.552026 0.000000
0.920958 0.542321 0.000000
0.951324 0.531487 0.000000
0.978546 0.519524 0.000000
1.000000 0.507012 0.000000
1.000000 0.494606 0.000000
1.000000 0.482429 0.000000
1.000000 0.471015 0.006958
1.000000 0.460609 0.095308
1.000000 0.451850 0.135805
0.190951 0.517693 0.114229
0.195834 0.517723 0.116030
0.202182 0.517693 0.118929
0.215610 0.517845 0.124727
0.234897 0.518029 0.133669
0.258701 0.518303 0.145541
0.285588 0.518700 0.160220
0.315312 0.519188 0.177462
0.346532 0.519738 0.197757
0.378729 0.520409 0.220859
0.411353 0.521263 0.247135
0.443214 0.522179 0.275731
0.471565 0.540063 0.246311
0.505547 0.558038 0.210636
0.544427 0.575250 0.165133
0.587152 0.591363 0.096986
0.633204 0.606317 0.000000
0.668757 0.608209 0.000000
0.735500 0.631495 0.000000
0.779355 0.626825 0.000000
0.820645 0.620386 0.000000
0.858976 0.612268 0.000000
0.894163 0.602594 0.000000
0.926116 0.591730 0.000000
0.954589 0.579736 0.000000
0.979980 0.567163 0.000000
1.000000 0.554162 0.000000
1.000000 0.541222 0.000000
1.000000 0.528618 0.000000
1.000000 0.516747 0.085756
1.000000 0.506035 0.126467
1.000000 0.496895 0.161471
0.217868 0.577508 0.136751
0.222812 0.577722 0.138918
0.232486 0.584955 0.144564
0.245731 0.585016 0.150027
0.265080 0.585290 0.158938
0.288792 0.585504 0.170413
0.316320 0.585870 0.184817
0.346593 0.586267 0.201694
0.379065 0.586969 0.221927
0.412879 0.587732 0.244816
0.447303 0.588617 0.270695
0.481575 0.589441 0.299779
0.512322 0.595361 0.311284
0.541222 0.611658 0.279149
0.575036 0.627253 0.241276
0.613001 0.641993 0.194461
0.654841 0.655726 0.129763
0.699458 0.668269 0.000000
0.733791 0.668086 0.000000
0.793759 0.685847 0.000000
0.832914 0.676936 0.000000
0.869261 0.666499 0.000000
0.902556 0.654810 0.000000
0.932555 0.642115 0.000000
0.959289 0.628473 0.000000
0.983185 0.614496 0.000000
1.000000 0.600610 0.000000
1.000000 0.587030 0.000000
1.000000 0.573754 0.082246
1.000000 0.561395 0.122866
1.000000 0.550134 0.155703
1.000000 0.540520 0.186923
0.247776 0.638880 0.163699
0.252781 0.639857 0.165866
0.259342 0.640864 0.168978
0.272496 0.641962 0.174838
0.291478 0.642878 0.183536
0.315343 0.643458 0.195010
0.342901 0.644038 0.208927
0.373236 0.644556 0.225834
0.406104 0.645350 0.245426
0.440375 0.646113 0.268040
0.475715 0.646998 0.293462
0.511315 0.647852 0.322026
0.546258 0.648707 0.353643
0.574212 0.658625 0.345708
0.602838 0.672938 0.312200
0.635859 0.686488 0.272953
0.672847 0.699153 0.225895
0.713130 0.710719 0.164614
0.756161 0.721187 0.027741
0.789334 0.719570 0.000000
0.840970 0.730434 0.000000
0.876799 0.719478 0.000000
0.908659 0.705898 0.000000
0.937224 0.691432 0.000000
0.962737 0.676295 0.000000
0.985626 0.660914 0.000000
1.000000 0.645899 0.000000
1.000000 0.631464 0.067933
1.000000 0.618036 0.123903
1.000000 0.605097 0.156222
1.000000 0.593317 0.184909
1.000000 0.583154 0.213779
0.278111 0.695247 0.193332
0.282933 0.696101 0.195651
0.289189 0.697047 0.198703
0.301701 0.697963 0.204257
0.320348 0.698756 0.212772
0.343359 0.699397 0.223697
0.370367 0.699825 0.237461
0.400427 0.700343 0.253819
0.432959 0.701015 0.273045
0.467536 0.701686 0.295171
0.503166 0.702541 0.320409
0.539422 0.703334 0.348425
0.575372 0.704005 0.379339
0.610132 0.704646 0.413153
0.633783 0.717281 0.384497
0.661250 0.729488 0.349798
0.692775 0.740902 0.309880
0.727932 0.751278 0.263340
0.766323 0.760647 0.205447
0.807309 0.768978 0.120607
0.838926 0.765957 0.000000
0.881651 0.769284 0.000000
0.914488 0.757290 0.000000
0.941650 0.740871 0.000000
0.965972 0.723964 0.000000
0.987823 0.707118 0.000000
1.000000 0.690700 0.000000
1.000000 0.675105 0.100679
1.000000 0.660548 0.145663
1.000000 0.647303 0.182467
1.000000 0.635492 0.214176
1.000000 0.624720 0.241184
0.310521 0.748470 0.227390
0.315099 0.749203 0.229679
0.321172 0.749996 0.232486
0.333165 0.750790 0.237949
0.350774 0.751400 0.246250
0.372900 0.751858 0.256870
0.398962 0.752193 0.270146
0.428199 0.752529 0.286015
0.460243 0.752834 0.304936
0.494209 0.753231 0.326665
0.529625 0.753719 0.351171
0.565759 0.754147 0.378637
0.601740 0.754452 0.408850
0.637049 0.754726 0.441993
0.666712 0.758206 0.458839
0.688624 0.769253 0.427649
0.714626 0.779599 0.392523
0.744442 0.789181 0.352972
0.777798 0.797818 0.307378
0.814176 0.805478 0.253239
0.853056 0.812070 0.183017
0.883421 0.808133 0.061311
0.917906 0.804593 0.000000
0.947173 0.791318 0.000000
0.970214 0.772610 0.000000
0.990936 0.754147 0.000000
1.000000 0.736233 0.087434
1.000000 0.719356 0.136538
1.000000 0.703578 0.173861
1.000000 0.689296 0.207126
1.000000 0.676722 0.239536
1.000000 0.666377 0.272526
0.347356 0.799252 0.268193
0.351446 0.799557 0.270176
0.356603 0.799832 0.272557
0.367529 0.800076 0.277562
0.383978 0.800259 0.285222
0.404944 0.800351 0.295567
0.429694 0.800412 0.308476
0.457862 0.800473 0.324071
0.488960 0.800626 0.342443
0.522087 0.800748 0.363836
0.556847 0.800870 0.388037
0.592401 0.800900 0.415167
0.628077 0.800748 0.444862
0.662989 0.800504 0.477150
0.696590 0.800229 0.512047
0.719448 0.805966 0.508690
0.739315 0.815000 0.477028
0.762997 0.823392 0.441627
0.790249 0.830991 0.402106
0.820890 0.837583 0.357031
0.854490 0.843168 0.305119
0.890532 0.847715 0.241764
0.919066 0.842679 0.160281
0.946410 0.833585 0.000000
0.972473 0.819577 0.000000
0.992309 0.799496 0.067842
1.000000 0.780209 0.125765
1.000000 0.761990 0.164797
1.000000 0.744991 0.198276
1.000000 0.729549 0.229191
1.000000 0.715846 0.259770
1.000000 0.704311 0.291325
0.384253 0.841367 0.310857
0.387976 0.841611 0.312749
0.392828 0.841825 0.315190
0.403052 0.841947 0.320043
0.418189 0.841947 0.327550
0.437690 0.841825 0.337377
0.461128 0.841611 0.349737
0.487678 0.841306 0.364782
0.517296 0.841032 0.382757
0.548974 0.840696 0.403388
0.582422 0.840330 0.427039
0.616724 0.839841 0.453254
0.651209 0.839200 0.482094
0.685451 0.838437 0.513603
0.718257 0.837705 0.546990
0.749050 0.837064 0.581476
0.764675 0.844450 0.558709
0.782467 0.851865 0.527977
0.803647 0.858579 0.492988
0.828305 0.864591 0.453834
0.856229 0.869627 0.409857
0.887205 0.873777 0.359625
0.920714 0.876951 0.300908
0.947906 0.871550 0.231205
0.969329 0.858122 0.150301
0.993011 0.843961 0.118349
1.000000 0.823178 0.159396
1.000000 0.803708 0.192721
1.000000 0.785519 0.222843
1.000000 0.768887 0.251682
1.000000 0.754086 0.280735
1.000000 0.741390 0.310887
0.425452 0.878904 0.359716
0.428870 0.879088 0.361608
0.433326 0.879149 0.363897
0.442512 0.879026 0.368505
0.456367 0.878782 0.375494
0.474250 0.878325 0.384863
0.495735 0.877775 0.396735
0.520500 0.877073 0.411048
0.548150 0.876219 0.428107
0.577935 0.875303 0.448005
0.609400 0.874266 0.470527
0.641840 0.873136 0.495613
0.674678 0.871855 0.523278
0.707027 0.870512 0.552514
0.738064 0.869139 0.583001
0.767300 0.867857 0.614313
0.790433 0.868681 0.632380
0.803037 0.875029 0.606775
0.818631 0.881041 0.577783
0.837430 0.886442 0.544854
0.859464 0.891203 0.507073
0.884794 0.895171 0.463905
0.913115 0.898253 0.414984
0.944244 0.900328 0.358282
0.970153 0.894896 0.293523
0.988525 0.879850 0.227329
1.000000 0.865812 0.194247
1.000000 0.844938 0.223087
1.000000 0.825498 0.250156
1.000000 0.807675 0.276799
1.000000 0.791745 0.304112
1.000000 0.777829 0.332403
0.466529 0.908202 0.408698
0.469612 0.908293 0.410529
0.473701 0.908293 0.412879
0.482033 0.908110 0.417243
0.494606 0.907713 0.423957
0.510979 0.907134 0.433082
0.530907 0.906371 0.444587
0.553796 0.905425 0.458503
0.579583 0.904387 0.475166
0.607507 0.903166 0.494392
0.636988 0.901823 0.516106
0.667536 0.900359 0.540032
0.698116 0.898802 0.565637
0.728298 0.897154 0.592493
0.757412 0.895506 0.620386
0.784970 0.893919 0.648981
0.810452 0.892546 0.678004
0.825864 0.895171 0.678523
0.836820 0.900481 0.655055
0.850462 0.905394 0.628260
0.866941 0.909789 0.597711
0.886412 0.913603 0.562493
0.909056 0.916747 0.521508
0.934874 0.919066 0.473671
0.963684 0.920531 0.418738
0.988647 0.915435 0.356573
1.000000 0.899107 0.294499
1.000000 0.885496 0.256413
1.000000 0.864897 0.281071
1.000000 0.845975 0.305638
1.000000 0.828885 0.330755
1.000000 0.813840 0.357458
0.510613 0.932280 0.461372
0.513481 0.932280 0.463111
0.516991 0.932189 0.465064
0.524376 0.931853 0.469276
0.535546 0.931304 0.475502
0.550317 0.930541 0.484169
0.568261 0.929595 0.495094
0.589319 0.928466 0.508507
0.612909 0.927153 0.524163
0.638331 0.925719 0.542077
0.665278 0.924163 0.562005
0.693111 0.922484 0.583795
0.721248 0.920714 0.607050
0.749050 0.918883 0.631495
0.775906 0.917021 0.656733
0.801419 0.915221 0.682460
0.825101 0.913603 0.708248
0.846586 0.912230 0.733761
0.855650 0.916258 0.720150
0.865232 0.920714 0.699031
0.877134 0.924834 0.674678
0.891539 0.928557 0.646509
0.908751 0.931731 0.613825
0.928985 0.934264 0.575860
0.952331 0.936126 0.531182
0.978943 0.937194 0.478279
1.000000 0.932677 0.417823
1.000000 0.916106 0.356786
1.000000 0.902922 0.311986
1.000000 0.882872 0.334264
1.000000 0.864652 0.357153
1.000000 0.848539 0.382147
0.556115 0.951324 0.515007
0.558495 0.951263 0.516472
0.561730 0.951110 0.518425
0.568231 0.950774 0.522301
0.578332 0.950164 0.528374
0.591699 0.949432 0.536675
0.607996 0.948516 0.547143
0.627070 0.947417 0.559869
0.648554 0.946197 0.574762
0.671778 0.944793 0.591485
0.696315 0.943236 0.610010
0.721645 0.941588 0.630060
0.747158 0.939788 0.651270
0.772427 0.937896 0.673365
0.796811 0.936004 0.695888
0.819821 0.934142 0.718379
0.841337 0.932403 0.740871
0.860899 0.930907 0.762905
0.876219 0.930755 0.777035
0.882811 0.934722 0.760952
0.891081 0.938476 0.742458
0.901335 0.941955 0.720974
0.913787 0.945068 0.695796
0.928740 0.947723 0.666255
0.946593 0.949859 0.631403
0.967498 0.951385 0.590387
0.991760 0.952270 0.541650
1.000000 0.948425 0.484108
1.000000 0.932189 0.423224
1.000000 0.919310 0.370001
1.000000 0.900114 0.390875
1.000000 0.882963 0.413703
0.605005 0.967468 0.571649
0.607019 0.967376 0.572930
0.609674 0.967193 0.574548
0.615259 0.966796 0.577966
0.623896 0.966155 0.583307
0.635340 0.965301 0.590539
0.649409 0.964294 0.599634
0.665797 0.963073 0.610620
0.684352 0.961669 0.623499
0.704616 0.960113 0.638148
0.726040 0.958404 0.654231
0.748318 0.956573 0.671687
0.770779 0.954650 0.690120
0.793027 0.952697 0.709194
