data/fiter_cube/38543845/1023269/file.cube
# Created by Adobe Lightroom plugin Export LUT (1.17.0)
# www.johnrellis.com/lightroom/exportlut.htm
# Preset: 清新通透胶片预设_05 云集
# Color profile: C:\Program Files (x86)\Common Files\Adobe\Color\Profiles\Recommended\AdobeRGB1998.icc
LUT_3D_SIZE 32
DOMAIN_MIN 0.0 0.0 0.0
DOMAIN_MAX 1.0 1.0 1.0
0.149996 0.157656 0.150057
0.175662 0.156710 0.151492
0.195346 0.157595 0.153414
0.259739 0.155276 0.156527
0.404395 0.123873 0.156252
0.538048 0.000000 0.152255
0.636378 0.000000 0.147585
0.706172 0.000000 0.143618
0.756680 0.000000 0.140902
0.794217 0.000000 0.139071
0.824613 0.000000 0.139101
0.850462 0.000000 0.140871
0.872984 0.000000 0.145113
0.892424 0.090120 0.152926
0.908782 0.135897 0.164858
0.922454 0.171756 0.179538
0.933898 0.203159 0.196963
0.943511 0.232090 0.215366
0.951568 0.258579 0.234562
0.958740 0.282475 0.254459
0.965179 0.304631 0.274205
0.970977 0.325231 0.293706
0.976135 0.344915 0.313573
0.980774 0.363378 0.333135
0.984955 0.380407 0.352636
0.988647 0.396857 0.371954
0.991913 0.412909 0.391608
0.994720 0.428290 0.410834
0.997131 0.443549 0.430365
0.999023 0.458961 0.450721
1.000000 0.474617 0.471321
1.000000 0.490883 0.492744
0.156466 0.177615 0.161135
0.168856 0.179080 0.160830
0.191531 0.181003 0.159121
0.259373 0.183108 0.158175
0.401007 0.173922 0.155367
0.533196 0.142275 0.149966
0.632258 0.100313 0.144717
0.702602 0.063294 0.140597
0.753841 0.021881 0.137545
0.791958 0.036988 0.135927
0.822599 0.057832 0.136385
0.848783 0.086885 0.138643
0.871458 0.113558 0.143771
0.891112 0.141939 0.152773
0.907591 0.169955 0.164828
0.921355 0.197360 0.180240
0.932891 0.223239 0.197574
0.942626 0.247654 0.216373
0.950774 0.270970 0.235599
0.958007 0.292760 0.255344
0.964538 0.313054 0.274784
0.970367 0.332464 0.294347
0.975616 0.350683 0.314183
0.980316 0.368170 0.334020
0.984527 0.384771 0.353002
0.988220 0.400793 0.372686
0.991577 0.415930 0.391974
0.994385 0.431342 0.411627
0.996826 0.446082 0.431006
0.998749 0.461158 0.451270
1.000000 0.476387 0.471656
1.000000 0.492561 0.493172
0.164889 0.193423 0.172244
0.168429 0.194186 0.170809
0.184726 0.196658 0.170382
0.248997 0.212955 0.165896
0.393652 0.224735 0.154940
0.527367 0.211948 0.146792
0.626246 0.192416 0.140383
0.697658 0.175845 0.136019
0.749966 0.165408 0.132815
0.788846 0.158541 0.132113
0.819852 0.159335 0.132601
0.846403 0.164645 0.135775
0.869413 0.173739 0.142123
0.889311 0.189090 0.151980
0.905943 0.207431 0.165164
0.919982 0.226413 0.180972
0.931609 0.247440 0.198672
0.941436 0.267460 0.217350
0.949767 0.286839 0.237125
0.957122 0.305943 0.256107
0.963684 0.324315 0.275883
0.969635 0.341650 0.295476
0.974945 0.358892 0.315160
0.979706 0.374975 0.334813
0.983948 0.390600 0.354009
0.987762 0.405707 0.373358
0.991089 0.420447 0.392615
0.993957 0.435157 0.412329
0.996399 0.449439 0.431830
0.998413 0.464057 0.451728
0.999878 0.478981 0.472236
1.000000 0.494667 0.493599
0.172671 0.236240 0.191745
0.175937 0.236606 0.188937
0.181125 0.238712 0.184543
0.235111 0.254032 0.181094
0.370916 0.296452 0.165225
0.501305 0.306340 0.146273
0.612482 0.300542 0.131594
0.687404 0.289311 0.124697
0.741634 0.277775 0.121645
0.782162 0.266850 0.121950
0.814145 0.259037 0.124941
0.841459 0.255497 0.129976
0.864958 0.256168 0.138705
0.885344 0.260655 0.150698
0.902586 0.268070 0.164950
0.916838 0.278904 0.182406
0.928893 0.291081 0.201144
0.938964 0.304509 0.219821
0.947509 0.318486 0.239567
0.955077 0.332647 0.258946
0.961852 0.347021 0.278630
0.967956 0.361303 0.298375
0.973449 0.375647 0.317754
0.978332 0.389532 0.337316
0.982757 0.403082 0.356237
0.986633 0.416632 0.375555
0.990082 0.429847 0.394629
0.993011 0.443488 0.414130
0.995544 0.456764 0.433478
0.997620 0.470405 0.453193
0.999145 0.484535 0.473671
1.000000 0.499428 0.494636
0.161013 0.344732 0.227054
0.166934 0.343267 0.220279
0.174655 0.341619 0.212161
0.212863 0.348760 0.196719
0.336278 0.368902 0.187137
0.484169 0.398932 0.161410
0.583429 0.398810 0.134249
0.663874 0.393072 0.116732
0.727779 0.383581 0.105318
0.771725 0.370031 0.106111
0.805295 0.357183 0.112123
0.833646 0.347448 0.121950
0.858152 0.341192 0.134432
0.879362 0.338598 0.149813
0.897215 0.338323 0.166903
0.912108 0.341192 0.185336
0.924651 0.345800 0.204746
0.935149 0.352514 0.224369
0.944121 0.360052 0.243961
0.951995 0.368872 0.263432
0.959075 0.378515 0.282994
0.965423 0.388830 0.302464
0.971130 0.399634 0.321965
0.976257 0.410529 0.340978
0.980804 0.421546 0.360113
0.984894 0.432685 0.378912
0.988464 0.444221 0.398047
0.991577 0.455665 0.416785
0.994232 0.467597 0.436042
0.996399 0.480049 0.455726
0.998047 0.492958 0.475685
0.999084 0.506859 0.496803
0.152499 0.461891 0.280430
0.162020 0.459724 0.272801
0.173953 0.456916 0.263676
0.195682 0.450935 0.246616
0.290043 0.463111 0.226108
0.438270 0.477699 0.213260
0.571801 0.494362 0.185122
0.646601 0.486976 0.142245
0.700893 0.471901 0.113832
0.753292 0.461036 0.106294
0.792599 0.446998 0.105348
0.823728 0.433051 0.115633
0.849271 0.422217 0.133364
0.871519 0.414191 0.151858
0.890227 0.408515 0.170413
0.905913 0.404974 0.190982
0.919066 0.403723 0.211185
0.930144 0.404303 0.230716
0.939574 0.406622 0.250675
0.947936 0.410285 0.269596
0.955352 0.415473 0.289342
0.962127 0.421271 0.308721
0.968322 0.428962 0.328618
0.973663 0.436713 0.347478
0.978424 0.444862 0.366094
0.982696 0.453376 0.384497
0.986419 0.462593 0.403174
0.989654 0.472114 0.421790
0.992462 0.482277 0.440650
0.994781 0.492958 0.459693
0.996521 0.504479 0.479652
0.997650 0.517174 0.500420
0.177707 0.558892 0.347723
0.187167 0.556756 0.341283
0.199252 0.554253 0.333349
0.221775 0.548699 0.317296
0.250736 0.544854 0.286473
0.386206 0.554955 0.277653
0.525353 0.562219 0.266484
0.634974 0.570214 0.247562
0.693416 0.558923 0.195956
0.735683 0.540337 0.158663
0.772641 0.523430 0.140871
0.807797 0.509636 0.142489
0.837491 0.496315 0.147646
0.862272 0.483864 0.159213
0.881987 0.474098 0.179416
0.898497 0.466163 0.200015
0.912413 0.460304 0.220218
0.924193 0.456062 0.239719
0.934234 0.453803 0.259617
0.943084 0.453162 0.278630
0.950988 0.454383 0.297826
0.958129 0.456611 0.316503
0.964508 0.460273 0.334874
0.970245 0.464668 0.353338
0.975311 0.469947 0.371740
0.979828 0.476020 0.390051
0.983795 0.482887 0.408179
0.987243 0.490425 0.426703
0.990234 0.498634 0.445258
0.992706 0.507591 0.463874
0.994659 0.517418 0.483192
0.995972 0.528588 0.503471
0.235599 0.629084 0.419287
0.242222 0.627588 0.414282
0.251164 0.625605 0.407782
0.268711 0.621210 0.394263
0.292515 0.614710 0.376257
0.353491 0.615473 0.350256
0.476204 0.619898 0.343694
0.590661 0.623194 0.336614
0.680354 0.626398 0.329046
0.726406 0.613031 0.274754
0.761105 0.594018 0.233219
0.789242 0.573663 0.198581
0.819974 0.559960 0.194766
0.847684 0.547021 0.197787
0.871000 0.533959 0.202762
0.889952 0.521721 0.212955
0.904692 0.512718 0.232212
0.917205 0.505150 0.251347
0.927886 0.499489 0.269993
0.937316 0.495613 0.289189
0.945739 0.493294 0.307378
0.953338 0.492378 0.325383
0.960143 0.492866 0.343297
0.966186 0.494423 0.361364
0.971649 0.496986 0.378912
0.976410 0.500725 0.396826
0.980652 0.505211 0.414618
0.984405 0.510521 0.432166
0.987640 0.516777 0.450294
0.990295 0.523980 0.468727
0.992432 0.532250 0.487648
0.993927 0.541863 0.507530
0.306828 0.679957 0.487007
0.311528 0.678737 0.483406
0.317937 0.677363 0.479011
0.330297 0.674037 0.468940
0.347997 0.669154 0.454963
0.368444 0.662623 0.438300
0.448127 0.665797 0.418952
0.547326 0.667231 0.413062
0.638788 0.668086 0.408026
0.712062 0.667903 0.410407
0.749905 0.654383 0.357000
0.780240 0.636347 0.312840
0.806119 0.617639 0.275303
0.830167 0.600305 0.249119
0.855283 0.587884 0.251438
0.876493 0.575128 0.254704
0.894469 0.562402 0.258549
0.909392 0.551019 0.266026
0.920745 0.542779 0.283940
0.930816 0.536248 0.301457
0.939818 0.531334 0.318914
0.947967 0.527703 0.335882
0.955169 0.525597 0.353185
0.961639 0.524743 0.370489
0.967376 0.525048 0.387701
0.972564 0.526299 0.404517
0.977111 0.528679 0.421668
0.981109 0.532067 0.439002
0.984588 0.536370 0.456275
0.987518 0.541802 0.474159
0.989868 0.548394 0.492683
0.991547 0.556451 0.512261
0.377539 0.715816 0.543633
0.380591 0.715023 0.541375
0.384222 0.713924 0.537987
0.392584 0.711574 0.531060
0.404822 0.707942 0.521050
0.419593 0.703212 0.508507
0.441016 0.700893 0.485695
0.521935 0.701320 0.481422
0.599786 0.701320 0.477607
0.672969 0.700923 0.473091
0.734951 0.699153 0.482094
0.767849 0.686702 0.432258
0.795560 0.670619 0.388830
0.819455 0.653040 0.349523
0.840085 0.634974 0.314336
0.860990 0.620661 0.302373
0.880522 0.608423 0.303471
0.897124 0.596338 0.306310
0.911315 0.584863 0.310216
0.923735 0.574426 0.315831
0.933349 0.567498 0.332128
0.941955 0.561975 0.348272
0.949706 0.557702 0.364385
0.956542 0.554742 0.380743
0.962707 0.552972 0.397101
0.968231 0.552300 0.413214
0.973083 0.552789 0.429786
0.977447 0.554192 0.446265
0.981170 0.556847 0.463325
0.984375 0.560571 0.480537
0.986969 0.565576 0.498482
0.988891 0.572076 0.517449
0.439887 0.741726 0.589044
0.441749 0.741115 0.587335
0.444282 0.740352 0.585077
0.449958 0.738582 0.580499
0.458076 0.735805 0.573327
0.468544 0.732296 0.564660
0.480537 0.727871 0.554681
0.513970 0.727657 0.538415
0.576806 0.727413 0.535180
0.638819 0.726864 0.531670
0.698817 0.726070 0.527977
0.753445 0.724575 0.539544
0.782559 0.713466 0.497017
0.807828 0.698604 0.455360
0.829587 0.682033 0.416754
0.848478 0.664851 0.381476
0.865232 0.647547 0.349310
0.883207 0.636011 0.350072
0.898711 0.624598 0.351659
0.912383 0.613794 0.354040
0.924559 0.603754 0.357488
0.935485 0.594385 0.361578
0.943694 0.588617 0.376959
0.951019 0.583948 0.392279
0.957580 0.580560 0.407630
0.963500 0.578119 0.422980
0.968719 0.576959 0.438819
0.973388 0.576776 0.454414
0.977447 0.577722 0.470619
0.980896 0.579889 0.487465
0.983764 0.583429 0.504845
0.985931 0.588586 0.523522
0.491493 0.762020 0.625605
0.492958 0.761593 0.624659
0.494850 0.760952 0.623163
0.498512 0.759548 0.619837
0.504173 0.757382 0.614801
0.511376 0.754543 0.608484
0.519707 0.751003 0.600946
0.529229 0.747189 0.592126
0.568780 0.748318 0.581567
0.618769 0.748043 0.578454
0.669490 0.747555 0.575189
0.720119 0.746822 0.571740
0.769741 0.746761 0.580591
0.795560 0.736019 0.549279
0.817929 0.722042 0.511894
0.837552 0.706355 0.476234
0.854917 0.690028 0.442267
0.870329 0.673610 0.410376
0.885252 0.659663 0.393164
0.900023 0.649104 0.394293
0.913237 0.638941 0.395880
0.924956 0.629511 0.398688
0.935576 0.620539 0.401648
0.945068 0.612421 0.405615
0.952178 0.607416 0.419501
0.958404 0.603662 0.434150
0.964019 0.600977 0.448768
0.968994 0.599390 0.463783
0.973388 0.598962 0.479072
0.977142 0.599695 0.495216
0.980255 0.601892 0.512139
0.982696 0.605585 0.530114
0.533776 0.779599 0.656001
0.534752 0.779232 0.655299
0.536034 0.778714 0.654170
0.538567 0.777554 0.651637
0.542412 0.775753 0.647883
0.547723 0.773373 0.643153
0.553887 0.770443 0.637537
0.560784 0.766964 0.631281
0.571557 0.765835 0.618677
0.610651 0.765957 0.616144
0.652003 0.765835 0.613428
0.694759 0.765408 0.610254
0.738552 0.764706 0.607233
0.783291 0.764981 0.612543
0.806027 0.754269 0.589593
0.825834 0.741268 0.556725
0.843534 0.726558 0.524743
0.859373 0.711116 0.493751
0.873777 0.695613 0.463935
0.887175 0.680598 0.436133
0.900969 0.670008 0.432074
0.913695 0.660548 0.433173
0.925017 0.651606 0.435554
0.935241 0.643244 0.438331
0.944488 0.635462 0.441810
0.952819 0.628412 0.446021
0.958984 0.624262 0.458686
0.964294 0.621515 0.473060
0.969024 0.619806 0.487922
0.973083 0.619409 0.503288
0.976562 0.620203 0.519280
0.979248 0.622705 0.536736
0.568292 0.794797 0.681086
0.568933 0.794430 0.680385
0.569787 0.793973 0.679500
0.571740 0.793027 0.677699
0.574365 0.791470 0.674708
0.578149 0.789425 0.670985
0.582849 0.786893 0.666621
0.587945 0.783932 0.661585
0.593500 0.780453 0.656062
0.610712 0.780911 0.646387
0.643580 0.780941 0.643793
0.678614 0.780819 0.641047
0.715389 0.780331 0.638300
0.753780 0.779507 0.635035
0.794644 0.780087 0.638056
0.814878 0.769680 0.622126
0.832517 0.757504 0.592615
0.848356 0.743832 0.564416
0.862974 0.729427 0.536706
0.876616 0.715023 0.510338
0.889433 0.700984 0.484871
0.901732 0.688350 0.466560
0.913970 0.679591 0.467750
0.924956 0.671229 0.469398
0.934844 0.663355 0.471809
0.943786 0.656001 0.474922
0.951873 0.649317 0.478859
0.959106 0.643397 0.484138
0.964416 0.640345 0.496956
0.968841 0.638849 0.511467
0.972595 0.638636 0.527153
0.975586 0.640040 0.544213
0.595453 0.807736 0.701076
0.595972 0.807431 0.700587
0.596551 0.807034 0.699855
0.597833 0.806210 0.698268
0.600092 0.804898 0.696040
0.602747 0.803189 0.692927
0.606195 0.800992 0.689387
0.610040 0.798398 0.685115
0.614343 0.795377 0.680537
0.618585 0.793027 0.673396
0.640803 0.793759 0.667811
0.669368 0.793729 0.665400
0.699947 0.793454 0.662898
0.732418 0.792905 0.659998
0.766720 0.791958 0.657130
0.804410 0.792844 0.658503
0.822446 0.782773 0.648249
0.838102 0.771572 0.622339
0.852628 0.758907 0.597162
0.866300 0.745693 0.572869
0.879149 0.732326 0.549340
0.891356 0.719173 0.526665
0.902892 0.706355 0.504997
0.914244 0.696651 0.498207
0.924834 0.688808 0.500023
0.934447 0.681392 0.502281
0.943084 0.674586 0.505516
0.950866 0.668452 0.509697
0.957916 0.662989 0.514885
0.964080 0.658503 0.521538
0.968414 0.656977 0.535424
0.971740 0.657404 0.552026
0.617151 0.818845 0.717342
0.617639 0.818601 0.716945
0.617945 0.818265 0.716335
0.618982 0.817563 0.715084
0.620630 0.816434 0.713222
0.622797 0.814969 0.710689
0.625269 0.813077 0.707576
0.628321 0.810880 0.704097
0.631830 0.808255 0.700160
0.635370 0.805295 0.695827
0.641657 0.804746 0.687129
0.664942 0.804807 0.684962
0.690242 0.804654 0.682704
0.717617 0.804257 0.680262
0.746731 0.803525 0.677607
0.777676 0.802457 0.674861
0.812772 0.803647 0.674983
0.829007 0.793942 0.669062
0.843168 0.783810 0.646876
0.856657 0.772335 0.624781
0.869444 0.760250 0.603265
0.881590 0.747890 0.582605
0.893156 0.735622 0.562432
0.904112 0.723598 0.543206
0.914580 0.712093 0.525750
0.924804 0.704799 0.527703
0.934112 0.697932 0.530022
0.942443 0.691707 0.533654
0.949950 0.686122 0.538323
0.956664 0.681270 0.543938
0.962493 0.677516 0.551537
0.967468 0.675074 0.561151
0.634913 0.828367 0.730831
0.635157 0.828153 0.730465
0.635676 0.827878 0.730068
0.636378 0.827298 0.729000
0.637659 0.826322 0.727352
0.639277 0.825040 0.725246
0.641352 0.823423 0.722621
0.643671 0.821469 0.719539
0.646418 0.819211 0.716091
0.649348 0.816617 0.712367
0.652552 0.813718 0.708400
0.663539 0.814298 0.701045
0.684596 0.814206 0.699001
0.707576 0.813931 0.696803
0.732387 0.813382 0.694453
0.758877 0.812558 0.692042
0.787106 0.811398 0.689479
0.819211 0.812314 0.688899
0.835050 0.803677 0.686336
0.848020 0.794736 0.667109
0.860472 0.784421 0.648035
0.872435 0.773373 0.629297
0.883848 0.762020 0.610925
0.894835 0.750576 0.593133
0.905272 0.739284 0.576074
0.915251 0.728298 0.559869
0.924865 0.719570 0.552819
0.933806 0.713344 0.555779
0.941863 0.707668 0.559869
0.949065 0.702693 0.565057
0.955413 0.698634 0.571771
0.960784 0.695857 0.580713
0.649744 0.836637 0.742245
0.649897 0.836423 0.741909
0.650599 0.836393 0.741787
0.651240 0.835843 0.740902
0.652277 0.835019 0.739498
0.653498 0.833890 0.737636
0.655238 0.832486 0.735470
0.657069 0.830777 0.732753
0.659327 0.828794 0.729763
0.661707 0.826535 0.726436
0.664332 0.824002 0.722866
0.666712 0.822385 0.716640
0.682124 0.822721 0.712978
0.701534 0.822507 0.711025
0.722621 0.822171 0.708980
0.745357 0.821530 0.706783
0.769802 0.820676 0.704585
0.795712 0.819516 0.702266
0.824643 0.819791 0.701198
0.840787 0.812528 0.701320
0.852720 0.804501 0.684382
0.864347 0.795224 0.667597
0.875425 0.785275 0.651484
0.886168 0.774929 0.635706
0.896513 0.764370 0.620050
0.906462 0.753902 0.605097
0.915953 0.743709 0.590967
0.925048 0.733822 0.577966
0.933654 0.727810 0.579889
0.941375 0.722805 0.584680
0.948211 0.718593 0.590784
0.954070 0.715663 0.599268
0.662623 0.844053 0.752316
0.662837 0.843931 0.752071
0.663111 0.843748 0.751736
0.663722 0.843290 0.751034
0.664576 0.842588 0.749874
0.665675 0.841642 0.748287
0.667018 0.840421 0.746334
0.668635 0.838956 0.744015
0.670436 0.837217 0.741329
0.672541 0.835233 0.738491
0.674739 0.833036 0.735317
0.677119 0.830564 0.731960
0.681605 0.830320 0.724971
0.698024 0.830228 0.723201
0.716030 0.829953 0.721309
0.735714 0.829496 0.719478
0.756893 0.828824 0.717372
0.779477 0.827939 0.715358
0.803464 0.826810 0.713252
0.829831 0.826566 0.712062
0.846128 0.820462 0.714015
0.857237 0.813291 0.699184
0.868070 0.804929 0.684443
0.878447 0.795987 0.670375
0.888518 0.786587 0.656733
0.898283 0.777035 0.643427
0.907713 0.767453 0.630701
0.916808 0.758114 0.618677
0.925475 0.749111 0.607904
0.933654 0.741787 0.602991
0.940978 0.737575 0.608820
0.947356 0.734340 0.616358
0.674067 0.850767 0.761349
0.674311 0.850675 0.761166
0.674556 0.850523 0.760891
0.675044 0.850156 0.760281
0.675776 0.849485 0.759243
0.676692 0.848661 0.757870
0.677852 0.847593 0.756130
0.679194 0.846311 0.754116
0.680781 0.844816 0.751858
0.682582 0.843076 0.749294
0.684504 0.841123 0.746487
0.686580 0.838956 0.743526
0.688746 0.836576 0.740383
0.696895 0.837217 0.734279
0.712337 0.837034 0.732570
0.729183 0.836728 0.730831
0.747555 0.836210 0.729030
0.767300 0.835538 0.727169
0.788388 0.834653 0.725246
0.810666 0.833585 0.723354
0.834775 0.832975 0.722011
0.851164 0.827848 0.725765
0.861601 0.821378 0.712306
0.871702 0.813901 0.699336
0.881529 0.805814 0.687007
0.891051 0.797360 0.675135
0.900328 0.788724 0.663874
0.909239 0.780179 0.653376
0.917815 0.771817 0.643793
0.926024 0.763821 0.635340
0.933745 0.756405 0.628687
0.940642 0.752132 0.632471
0.684718 0.856962 0.769772
0.684901 0.856870 0.769619
0.685054 0.856718 0.769345
0.685481 0.856382 0.768795
0.686122 0.855833 0.767941
0.686946 0.855100 0.766751
0.687922 0.854154 0.765225
0.689113 0.853025 0.763455
0.690517 0.851682 0.761440
0.691981 0.850156 0.759121
0.693690 0.848447 0.756619
0.695521 0.846494 0.753964
0.697414 0.844419 0.751125
0.699001 0.843412 0.745693
0.710719 0.843534 0.742855
0.725307 0.843320 0.741299
0.741238 0.842924 0.739681
0.758480 0.842435 0.737972
0.777005 0.841794 0.736294
0.796719 0.840940 0.734646
0.817502 0.839963 0.732906
0.839658 0.839078 0.731563
0.856016 0.834836 0.736355
0.865904 0.828977 0.724453
0.875486 0.822263 0.712795
0.884794 0.815030 0.702022
0.893797 0.807492 0.691920
0.902556 0.799863 0.682582
0.911070 0.792264 0.674037
0.919219 0.785000 0.666651
0.926879 0.778073 0.660639
0.933959 0.771756 0.656184
0.694575 0.862699 0.777646
0.694697 0.862608 0.777462
0.694881 0.862455 0.777279
0.695277 0.862150 0.776791
0.695766 0.861692 0.776028
0.696529 0.861021 0.774960
0.697322 0.860197 0.773587
0.698390 0.859190 0.772061
0.699580 0.858000 0.770230
0.700923 0.856657 0.768246
0.702449 0.855131 0.766018
0.704005 0.853452 0.763577
0.705745 0.851560 0.761044
0.707576 0.849516 0.758450
0.710903 0.849546 0.752438
0.723507 0.849393 0.751064
0.737301 0.849149 0.749538
0.752407 0.848783 0.748074
0.768643 0.848295 0.746578
0.786069 0.847654 0.744991
0.804562 0.846921 0.743587
0.824033 0.846006 0.742092
0.844450 0.844999 0.740749
0.860655 0.841672 0.745144
0.870115 0.836179 0.735958
0.879240 0.830198 0.725460
0.888151 0.823728 0.715785
0.896757 0.817105 0.707332
0.905119 0.810452 0.699733
0.913207 0.803922 0.693202
0.920806 0.797635 0.687678
0.927764 0.792111 0.683955
0.703670 0.867918 0.784939
0.703822 0.867826 0.784817
0.703914 0.867704 0.784604
0.704250 0.867460 0.784146
0.704707 0.867033 0.783474
0.705348 0.866423 0.782559
0.706111 0.865690 0.781399
0.706966 0.864805 0.779965
0.708064 0.863798 0.778378
0.709285 0.862577 0.776547
0.710567 0.861204 0.774563
0.712093 0.859709 0.772427
0.713588 0.858061 0.770169
0.715328 0.856229 0.767819
0.717037 0.854368 0.765286
0.723262 0.855039 0.760006
0.735317 0.854887 0.758755
0.748501 0.854612 0.757412
0.762844 0.854307 0.756100
0.778225 0.853849 0.754788
0.794675 0.853300 0.753506
0.812100 0.852628 0.752255
0.830381 0.851896 0.751186
0.849516 0.851041 0.750088
0.865263 0.848325 0.753872
0.874357 0.843229 0.747219
0.883146 0.837980 0.737881
0.891722 0.832303 0.729397
0.899992 0.826535 0.722194
0.907988 0.820768 0.716091
0.915496 0.815335 0.711208
0.922393 0.810575 0.708034
0.712337 0.872831 0.791867
0.712428 0.872740 0.791714
0.712490 0.872648 0.791531
0.712795 0.872404 0.791165
0.713191 0.872038 0.790524
0.713710 0.871519 0.789700
0.714412 0.870848 0.788693
0.715206 0.870085 0.787411
0.716152 0.869139 0.786007
0.717220 0.868070 0.784360
0.718502 0.866880 0.782620
0.719783 0.865537 0.780697
0.721187 0.864073 0.778653
0.722713 0.862425 0.776486
0.724331 0.860716 0.774319
0.725582 0.860105 0.769589
0.734890 0.860227 0.767361
0.746487 0.860075 0.766201
0.759091 0.859861 0.765072
0.772732 0.859586 0.763943
0.787320 0.859220 0.762875
0.802945 0.858793 0.761837
0.819394 0.858274 0.760983
0.836698 0.857725 0.760189
0.854734 0.857084 0.759548
0.869993 0.854978 0.762875
0.878782 0.850217 0.758602
0.887236 0.845792 0.750454
0.895476 0.841001 0.743282
0.903349 0.836027 0.737209
0.910826 0.831357 0.732662
0.917723 0.827390 0.729824
0.720363 0.877379 0.798306
0.720455 0.877317 0.798184
0.720546 0.877226 0.798062
0.720790 0.877012 0.797665
0.721126 0.876646 0.797116
0.721614 0.876188 0.796414
0.722255 0.875608 0.795499
0.722988 0.874937 0.794400
0.723873 0.874113 0.793149
0.724910 0.873167 0.791745
0.726009 0.872099 0.790158
0.727199 0.870909 0.788418
0.728542 0.869596 0.786648
0.729976 0.868193 0.784726
0.731502 0.866667 0.782742
0.733150 0.865080 0.780789
0.735805 0.865324 0.775631
0.746029 0.865263 0.774685
0.757198 0.865171 0.773709
0.769345 0.865049 0.772793
0.782406 0.864836 0.771939
0.796353 0.864591 0.771145
0.811154 0.864347 0.770474
0.826780 0.864042 0.769955
0.843168 0.863706 0.769650
0.860258 0.863371 0.769528
0.875029 0.861723 0.772488
0.883482 0.857450 0.770474
0.891539 0.853758 0.763455
0.899321 0.849760 0.757504
0.906737 0.845914 0.752956
0.913634 0.842710 0.750454
0.728084 0.881682 0.804471
0.728115 0.881621 0.804318
0.728267 0.881529 0.804227
0.728450 0.881346 0.803922
0.728756 0.881041 0.803433
0.729244 0.880644 0.802762
0.729793 0.880156 0.801999
0.730495 0.879515 0.801053
0.731319 0.878782 0.799893
0.732204 0.877958 0.798642
0.733242 0.877012 0.797238
0.734432 0.875975 0.795804
0.735683 0.874846 0.794186
0.737087 0.873594 0.792508
0.738552 0.872282 0.790799
0.740169 0.870878 0.789059
0.741756 0.869566 0.786923
0.746914 0.870237 0.782803
0.756863 0.870268 0.782040
0.767697 0.870237 0.781308
0.779385 0.870237 0.780697
0.791958 0.870176 0.780148
0.805356 0.870115 0.779751
0.819486 0.870024 0.779568
0.834379 0.869993 0.779477
0.850004 0.869932 0.779690
0.866209 0.869932 0.780148
0.880430 0.868772 0.782712
0.888304 0.864744 0.782467
0.895964 0.861814 0.776791
0.903319 0.858885 0.772396
0.910185 0.856443 0.769924
0.735500 0.885771 0.810391
0.735561 0.885740 0.810300
0.735683 0.885679 0.810178
0.735836 0.885496 0.809903
0.736172 0.885252 0.809506
0.736629 0.884886 0.808927
0.737118 0.884428 0.808255
0.737850 0.883909 0.807401
0.738613 0.883268 0.806455
0.739528 0.882536 0.805386
0.740536 0.881743 0.804196
0.741634 0.880827 0.802884
0.742916 0.879850 0.801541
0.744259 0.878782 0.800076
0.745724 0.877653 0.798611
0.747280 0.876432 0.797116
0.748989 0.875151 0.795621
0.750332 0.874937 0.791928
0.758053 0.875273 0.790341
0.767788 0.875395 0.789822
0.778317 0.875547 0.789487
0.789670 0.875669 0.789181
0.801846 0.875792 0.789120
0.814694 0.875975 0.789151
0.828244 0.876127 0.789425
0.842466 0.876280 0.789761
0.857298 0.876463 0.790372
0.872587 0.876738 0.791318
0.886137 0.876005 0.793606
0.893431 0.872251 0.795071
0.900633 0.870298 0.791012
0.907439 0.868681 0.788785
0.742855 0.889799 0.816190
0.742885 0.889738 0.816129
0.743008 0.889677 0.816037
0.743221 0.889555 0.815824
0.743526 0.889311 0.815457
0.743923 0.889006 0.814969
0.744442 0.888609 0.814359
0.745052 0.888151 0.813626
0.745815 0.887602 0.812802
0.746670 0.886961 0.811887
0.747646 0.886259 0.810849
0.748775 0.885466 0.809720
0.749996 0.884611 0.808560
0.751369 0.883726 0.807370
