data/fiter_cube/38543845/1023269/file.cube
# Created by Adobe Lightroom plugin Export LUT (1.17.0)
# www.johnrellis.com/lightroom/exportlut.htm
# Preset: 清新通透胶片预设_05 云集
# Color profile: C:\Program Files (x86)\Common Files\Adobe\Color\Profiles\Recommended\AdobeRGB1998.icc
LUT_3D_SIZE 5
DOMAIN_MIN 0.000000 0.000000 0.000000
DOMAIN_MAX 0.903226 0.903226 0.903226
0.149996 0.157656 0.150057
0.706172 0.000000 0.143618
0.908782 0.135897 0.164858
0.970977 0.325231 0.293706
0.997131 0.443549 0.430365
0.235599 0.629084 0.419287
0.590661 0.623194 0.336614
0.871000 0.533959 0.202762
0.953338 0.492378 0.325383
0.987640 0.516777 0.450294
0.595453 0.807736 0.701076
0.610040 0.798398 0.685115
0.766720 0.791958 0.657130
0.891356 0.719173 0.526665
0.957916 0.662989 0.514885
0.694575 0.862699 0.777646
0.698390 0.859190 0.772061
0.710903 0.849546 0.752438
0.824033 0.846006 0.742092
0.905119 0.810452 0.699733
0.750027 0.893645 0.821897
0.752193 0.892210 0.819699
0.759915 0.887602 0.813413
0.789670 0.886015 0.806485
0.873442 0.890135 0.813199
0.129000 0.163424 0.600763
0.650965 0.381231 0.655085
0.867887 0.434363 0.590814
0.936065 0.493874 0.569757
0.971557 0.547997 0.599023
0.249973 0.640742 0.620935
0.624445 0.646540 0.636774
0.840604 0.587823 0.574975
0.922881 0.575677 0.576501
0.964416 0.589990 0.604852
0.641321 0.809720 0.743252
0.678523 0.800198 0.743923
0.772030 0.793881 0.719478
0.875669 0.728847 0.621485
0.942412 0.690517 0.623499
0.725307 0.861936 0.800931
0.728908 0.858457 0.796048
0.734829 0.847593 0.779507
0.826902 0.846860 0.767758
0.900664 0.814786 0.727077
0.767544 0.893126 0.834806
0.769223 0.891844 0.832670
0.775479 0.887816 0.826444
0.799161 0.886351 0.819883
0.876188 0.891875 0.827237
0.324224 0.214878 0.814664
0.618982 0.517693 0.829191
0.817014 0.687861 0.824887
0.894285 0.677180 0.784726
0.934936 0.684352 0.767941
0.000000 0.347143 0.756374
0.597955 0.605310 0.795041
0.808133 0.735134 0.819028
0.888029 0.702968 0.783780
0.927459 0.706172 0.771908
0.585931 0.803098 0.797086
0.676905 0.803189 0.800595
0.782254 0.796201 0.800015
0.859953 0.760708 0.767208
0.916533 0.742824 0.760006
0.731533 0.865415 0.824216
0.756466 0.861418 0.829374
0.787716 0.850950 0.829435
0.833799 0.849302 0.818784
0.892027 0.821592 0.779568
0.782254 0.894591 0.852171
0.795865 0.893248 0.856718
0.812039 0.890410 0.858091
0.821195 0.888334 0.850858
0.883909 0.897093 0.858915
0.471748 0.383276 0.887480
0.602411 0.533959 0.886107
0.802945 0.756497 0.890745
0.868162 0.768338 0.876158
0.906126 0.775357 0.857389
0.476600 0.503899 0.864805
0.607568 0.603906 0.868467
0.803159 0.774228 0.884581
0.864347 0.788846 0.874327
0.904356 0.785183 0.858335
0.313024 0.627497 0.825193
0.449073 0.632258 0.817624
0.759243 0.771725 0.850431
0.852750 0.822629 0.866850
0.901427 0.804990 0.856596
0.682307 0.855222 0.853117
0.717433 0.855802 0.855039
0.792416 0.855406 0.858885
0.839933 0.851286 0.858335
0.893339 0.833860 0.844419
0.789456 0.899779 0.872587
0.801938 0.899016 0.875517
0.832578 0.897673 0.883238
0.857084 0.896696 0.887694
0.895567 0.905943 0.893248
0.557000 0.513268 0.926268
0.623163 0.583917 0.922698
0.761257 0.720119 0.916503
0.863859 0.826230 0.915923
0.896361 0.815152 0.904936
0.565545 0.570306 0.915892
0.629938 0.624262 0.913787
0.762905 0.735683 0.911559
0.866636 0.838590 0.915251
0.895415 0.825101 0.904936
0.285801 0.496620 0.890440
0.482399 0.582422 0.890227
0.736294 0.746059 0.893736
0.862760 0.849424 0.910521
0.894652 0.850980 0.906523
0.493477 0.748531 0.878202
0.537621 0.748898 0.875761
0.630213 0.745724 0.867887
0.822690 0.832883 0.891112
0.897734 0.882597 0.911803
0.743038 0.897368 0.897368
0.759854 0.897795 0.898436
0.807858 0.900816 0.903319
0.865446 0.907073 0.912200
0.908324 0.916197 0.923613
