data/fiter_cube/38543845/1023269/file.cube
# Created by Adobe Lightroom plugin Export LUT (1.17.0)
# www.johnrellis.com/lightroom/exportlut.htm
# Preset: 清新通透胶片预设_05 云集
# Color profile: C:\Program Files (x86)\Common Files\Adobe\Color\Profiles\Recommended\AdobeRGB1998.icc
LUT_3D_SIZE 8
DOMAIN_MIN 0.000000 0.000000 0.000000
DOMAIN_MAX 0.903226 0.903226 0.903226
0.149996 0.157656 0.150057
0.404395 0.123873 0.156252
0.756680 0.000000 0.140902
0.872984 0.000000 0.145113
0.933898 0.203159 0.196963
0.965179 0.304631 0.274205
0.984955 0.380407 0.352636
0.997131 0.443549 0.430365
0.161013 0.344732 0.227054
0.336278 0.368902 0.187137
0.727779 0.383581 0.105318
0.858152 0.341192 0.134432
0.924651 0.345800 0.204746
0.959075 0.378515 0.282994
0.980804 0.421546 0.360113
0.994232 0.467597 0.436042
0.306828 0.679957 0.487007
0.347997 0.669154 0.454963
0.638788 0.668086 0.408026
0.806119 0.617639 0.275303
0.894469 0.562402 0.258549
0.939818 0.531334 0.318914
0.967376 0.525048 0.387701
0.984588 0.536370 0.456275
0.533776 0.779599 0.656001
0.542412 0.775753 0.647883
0.571557 0.765835 0.618677
0.738552 0.764706 0.607233
0.843534 0.726558 0.524743
0.900969 0.670008 0.432074
0.944488 0.635462 0.441810
0.969024 0.619806 0.487922
0.634913 0.828367 0.730831
0.637659 0.826322 0.727352
0.646418 0.819211 0.716091
0.684596 0.814206 0.699001
0.787106 0.811398 0.689479
0.860472 0.784421 0.648035
0.905272 0.739284 0.576074
0.941863 0.707668 0.559869
0.684718 0.856962 0.769772
0.686122 0.855833 0.767941
0.690517 0.851682 0.761440
0.697414 0.844419 0.751125
0.741238 0.842924 0.739681
0.817502 0.839963 0.732906
0.875486 0.822263 0.712795
0.911070 0.792264 0.674037
0.720363 0.877379 0.798306
0.721126 0.876646 0.797116
0.723873 0.874113 0.793149
0.728542 0.869596 0.786648
0.735805 0.865324 0.775631
0.782406 0.864836 0.771939
0.843168 0.863706 0.769650
0.891539 0.853758 0.763455
0.750027 0.893645 0.821897
0.750698 0.893217 0.821225
0.752956 0.891752 0.819028
0.757198 0.889250 0.815518
0.763333 0.885924 0.811429
0.780301 0.885618 0.806271
0.821897 0.887419 0.807950
0.873442 0.890135 0.813199
0.156832 0.170138 0.331640
0.378637 0.170565 0.370184
0.748867 0.000000 0.373114
0.859586 0.187259 0.336797
0.919829 0.309117 0.362158
0.952270 0.381140 0.400885
0.973968 0.435004 0.446754
0.988159 0.482490 0.497719
0.094179 0.368414 0.350713
0.397253 0.414405 0.386572
0.723323 0.382055 0.341375
0.845335 0.383062 0.343725
0.911254 0.404395 0.368780
0.946807 0.433692 0.406561
0.970275 0.465980 0.451331
0.985534 0.501823 0.501457
0.394690 0.686549 0.566308
0.482338 0.676081 0.572351
0.645991 0.674220 0.536187
0.794614 0.623224 0.408759
0.884794 0.578759 0.395087
0.929198 0.555261 0.428809
0.958038 0.549950 0.469001
0.976776 0.559258 0.515129
0.584802 0.778714 0.690761
0.593927 0.774716 0.685206
0.608545 0.763638 0.663142
0.740444 0.765621 0.648188
0.836637 0.729488 0.572381
0.894194 0.677150 0.498268
0.937896 0.645472 0.500511
0.962493 0.632746 0.536645
0.656489 0.827848 0.746059
0.658350 0.825895 0.742580
0.664698 0.819089 0.731441
0.693874 0.813718 0.714626
0.788388 0.811734 0.705837
0.857450 0.785977 0.666529
0.901152 0.742367 0.600916
0.937865 0.713344 0.589105
0.696773 0.856443 0.778531
0.697871 0.855344 0.776669
0.701350 0.851316 0.770077
0.707057 0.844266 0.759792
0.745815 0.842710 0.748684
0.818479 0.840177 0.742306
0.874113 0.823178 0.721920
0.909087 0.794095 0.685176
0.728237 0.876921 0.804013
0.728847 0.876249 0.802853
0.731197 0.873747 0.798795
0.735317 0.869413 0.792325
0.740719 0.864958 0.781430
0.785183 0.864775 0.777890
0.843931 0.863920 0.775784
0.890959 0.854520 0.769223
0.755550 0.893400 0.825925
0.756100 0.893004 0.825254
0.758206 0.891569 0.823026
0.762173 0.889158 0.819547
0.768093 0.886046 0.815579
0.783597 0.885649 0.810544
0.823941 0.887663 0.812253
0.874205 0.890593 0.817533
0.144686 0.159365 0.655909
0.408270 0.222324 0.691981
0.692714 0.464393 0.699062
0.821042 0.485328 0.666682
0.885679 0.498604 0.633234
0.918883 0.530388 0.622675
0.946532 0.546990 0.619013
0.965240 0.571740 0.631495
0.000000 0.246067 0.601892
0.399237 0.396429 0.660853
0.682460 0.568048 0.691920
0.816037 0.532982 0.660792
0.876951 0.537652 0.633295
0.916655 0.544457 0.615198
0.943786 0.563348 0.619867
0.963287 0.582910 0.632441
0.333318 0.686000 0.668574
0.495155 0.687648 0.674647
0.663508 0.684596 0.679896
0.783871 0.648127 0.637140
0.858640 0.625574 0.622187
0.903044 0.615503 0.619379
0.934325 0.613336 0.624262
0.956512 0.618799 0.636561
0.597803 0.785397 0.726711
0.633295 0.780911 0.732753
0.677943 0.769192 0.731838
0.747555 0.768734 0.717586
0.822141 0.734066 0.658595
0.878935 0.699275 0.631159
0.918791 0.678981 0.631678
0.945129 0.670466 0.643793
0.673579 0.830259 0.768246
0.689815 0.827878 0.772305
0.707881 0.820768 0.769162
0.716854 0.813077 0.752132
0.792752 0.813138 0.745327
0.850065 0.789487 0.709682
0.890074 0.750393 0.660212
0.927184 0.730983 0.661372
0.718288 0.856779 0.797574
0.728115 0.855222 0.800626
0.731930 0.851164 0.795102
0.734737 0.844663 0.784756
0.759335 0.842130 0.773983
0.821439 0.841032 0.768734
0.870390 0.825772 0.747524
0.903716 0.799191 0.715541
0.750912 0.876341 0.821134
0.751644 0.875608 0.820096
0.753353 0.873259 0.816281
0.755917 0.869261 0.809781
0.759579 0.863676 0.801785
0.794003 0.864836 0.796109
0.846616 0.865141 0.794858
0.889525 0.857389 0.787533
0.773098 0.892973 0.838865
0.773037 0.892668 0.837980
0.774685 0.891386 0.835752
0.777859 0.889250 0.832334
0.782742 0.886503 0.828397
0.793820 0.885893 0.823545
0.830533 0.888640 0.825742
0.877012 0.892393 0.831235
0.262852 0.175784 0.778897
0.425574 0.267857 0.789090
0.692531 0.616205 0.809415
0.788296 0.646937 0.796780
0.850950 0.655512 0.774166
0.900755 0.627802 0.744045
0.922789 0.644984 0.736599
0.939147 0.666011 0.741360
0.263645 0.311894 0.758572
0.432502 0.395483 0.770993
0.693202 0.649195 0.800809
0.784390 0.675135 0.794400
0.848997 0.668147 0.773373
0.895689 0.645258 0.745785
0.919127 0.656611 0.738552
0.938201 0.668788 0.739223
0.000000 0.501396 0.722896
0.249912 0.504143 0.720851
0.649653 0.666682 0.764187
0.772396 0.725826 0.785183
0.843076 0.695888 0.764096
0.880583 0.683650 0.744839
0.911559 0.676875 0.732967
0.936461 0.675593 0.728511
0.533532 0.776944 0.768582
0.586816 0.776638 0.770413
0.692897 0.778408 0.777066
0.755764 0.771176 0.773098
0.817166 0.744350 0.743801
0.864225 0.727779 0.734524
0.900237 0.716091 0.729427
0.927825 0.709895 0.728969
0.677638 0.835416 0.793698
0.692897 0.833188 0.795743
0.732143 0.826047 0.801053
0.754421 0.814878 0.795895
0.798001 0.814481 0.787381
0.840726 0.790585 0.752010
0.881285 0.765682 0.731136
0.916167 0.752255 0.730404
0.721004 0.859068 0.811398
0.730495 0.857664 0.813657
0.756832 0.853025 0.819913
0.769192 0.846372 0.816190
0.776699 0.841489 0.804715
0.825620 0.842374 0.801175
0.865476 0.828489 0.778622
0.897154 0.804196 0.750301
0.753231 0.877562 0.829801
0.759487 0.876646 0.831662
0.778042 0.873747 0.837278
0.783322 0.870115 0.833402
0.784939 0.865171 0.825467
0.805997 0.865324 0.819944
0.850767 0.867185 0.819669
0.888243 0.861112 0.810666
0.781094 0.893736 0.848203
0.785519 0.893278 0.849790
0.798978 0.891844 0.854612
0.799649 0.890288 0.850492
0.803250 0.888029 0.846525
0.808347 0.886595 0.841825
0.839719 0.890501 0.844022
0.881376 0.895323 0.849577
0.376165 0.262699 0.841459
0.466255 0.339971 0.844205
0.653559 0.575128 0.850706
0.790646 0.734798 0.861479
0.836667 0.716762 0.844236
0.868345 0.729458 0.825345
0.906065 0.707820 0.806607
0.930755 0.703456 0.794217
0.388525 0.361273 0.828458
0.475807 0.424781 0.832425
0.657557 0.609094 0.843412
0.793484 0.750637 0.860044
0.834470 0.729732 0.843046
0.867338 0.735561 0.825376
0.904540 0.714199 0.807004
0.928527 0.710475 0.795651
0.009094 0.377508 0.782650
0.333715 0.454047 0.793149
0.634455 0.644282 0.817258
0.789975 0.772702 0.850767
0.827298 0.761440 0.838437
0.863676 0.752041 0.823941
0.899657 0.732235 0.807034
0.921721 0.729732 0.798550
0.332341 0.662898 0.787045
0.400793 0.664912 0.785794
0.549828 0.673945 0.781796
0.746090 0.760616 0.815610
0.813931 0.790005 0.828153
0.857481 0.767849 0.814481
0.887633 0.754665 0.801907
0.913787 0.747646 0.795041
0.623011 0.822049 0.817502
0.645228 0.822721 0.818845
0.706264 0.821866 0.820615
0.772976 0.822873 0.826383
0.801328 0.814389 0.819455
0.839048 0.793057 0.796201
0.876616 0.779507 0.788846
0.907378 0.770809 0.786007
0.724849 0.862516 0.831601
0.733761 0.861204 0.832731
0.759060 0.856962 0.835935
0.787655 0.850370 0.839017
0.797726 0.842405 0.832944
0.829313 0.843442 0.828214
0.860807 0.827390 0.803189
0.894469 0.810605 0.788724
0.756161 0.879637 0.842283
0.762142 0.878813 0.843595
0.779873 0.876280 0.847684
0.801907 0.872618 0.852598
0.809445 0.868406 0.848997
0.816953 0.866178 0.841855
0.855497 0.869810 0.842679
0.887907 0.864012 0.831449
0.783780 0.895659 0.856931
0.787991 0.895262 0.858213
0.800992 0.894133 0.862242
0.818814 0.892729 0.867948
0.824460 0.891142 0.865934
0.828489 0.889403 0.862211
0.849363 0.893217 0.862638
0.886778 0.899199 0.868559
0.455451 0.359930 0.879789
0.507439 0.414527 0.879728
0.635737 0.569909 0.879484
0.761593 0.711147 0.883116
0.832059 0.773037 0.884855
0.863005 0.759670 0.870878
0.884672 0.769863 0.857176
0.911131 0.761501 0.847105
0.467109 0.424750 0.871580
0.516472 0.469703 0.872068
0.640772 0.597711 0.874052
0.762783 0.720821 0.880400
0.833097 0.782101 0.884031
0.861692 0.767300 0.870237
0.883268 0.775509 0.857511
0.910399 0.765103 0.847532
0.419715 0.488441 0.846799
0.496742 0.540307 0.848325
0.633814 0.638422 0.856046
0.758968 0.739223 0.870176
0.835233 0.805600 0.881346
0.857298 0.788479 0.867948
0.878965 0.791653 0.858213
0.908263 0.775692 0.848295
0.177249 0.527123 0.811093
0.256596 0.527855 0.808225
0.491432 0.591974 0.814389
0.727962 0.740932 0.845548
0.834928 0.828885 0.876066
0.850126 0.810819 0.863462
0.876493 0.803128 0.856474
0.905913 0.788357 0.847288
0.494545 0.741421 0.826413
0.523919 0.742641 0.825467
0.600610 0.747280 0.822843
0.677546 0.753201 0.820493
0.794186 0.806790 0.846220
0.840238 0.826017 0.855680
0.873930 0.810575 0.848508
0.900420 0.802396 0.842435
0.672419 0.849454 0.846891
0.685206 0.849668 0.847593
0.723537 0.849516 0.849027
0.771237 0.848997 0.851255
0.812131 0.849729 0.855406
0.832242 0.843931 0.850675
0.862394 0.828183 0.834226
0.894835 0.821653 0.833127
0.760708 0.882902 0.859220
0.766323 0.882231 0.860014
0.782956 0.880156 0.862333
0.804135 0.877226 0.865202
0.824704 0.873594 0.867735
0.833799 0.869139 0.864500
0.860990 0.873167 0.864469
0.888182 0.865385 0.850706
0.788083 0.898741 0.869017
0.792050 0.898466 0.869993
0.804501 0.897673 0.873136
0.821958 0.896757 0.877714
0.841184 0.895995 0.883177
0.850309 0.895048 0.883024
0.860472 0.897002 0.881834
0.893645 0.904417 0.888304
0.514458 0.447700 0.907134
0.547204 0.484627 0.906249
0.636194 0.585931 0.903349
0.737667 0.692836 0.901640
0.821714 0.779019 0.903502
0.859037 0.800534 0.900816
0.881468 0.791012 0.889799
0.898192 0.799496 0.880186
0.520745 0.484627 0.901274
0.552514 0.516014 0.900755
0.639277 0.604059 0.899046
0.738247 0.700343 0.898833
0.821530 0.782712 0.901946
0.858732 0.804868 0.899901
0.880156 0.794308 0.888884
0.897185 0.801358 0.879667
0.519951 0.550988 0.885771
0.552331 0.573999 0.885924
0.640406 0.641840 0.886809
0.737758 0.719844 0.890654
0.821225 0.794491 0.897612
0.859861 0.821378 0.898558
0.878050 0.809384 0.888334
0.895476 0.813626 0.881254
0.284733 0.484077 0.860380
0.368780 0.515618 0.861540
0.584070 0.639918 0.863981
0.718135 0.729061 0.873899
0.812436 0.801480 0.888182
0.860929 0.841032 0.896788
0.875212 0.827695 0.887419
0.893278 0.829129 0.882902
0.353338 0.650141 0.848356
0.387060 0.650690 0.846311
0.475929 0.652949 0.839628
0.589929 0.670710 0.834989
0.774807 0.786343 0.867216
0.859525 0.856260 0.893797
0.870848 0.842588 0.884886
0.892821 0.841062 0.883452
0.576440 0.788327 0.855222
0.590967 0.788846 0.854673
0.631708 0.790463 0.853025
0.680903 0.792142 0.850980
0.729946 0.792447 0.848905
0.826352 0.837613 0.871489
0.866850 0.857633 0.882597
0.895293 0.852110 0.882689
0.707820 0.871550 0.870573
0.716121 0.871763 0.871092
0.740780 0.872313 0.872648
0.774746 0.873228 0.875090
0.811734 0.874052 0.878019
0.847684 0.877775 0.884215
0.866423 0.876524 0.884123
0.893523 0.869413 0.877379
0.793179 0.903044 0.884154
0.796933 0.902892 0.884825
0.809506 0.902678 0.887419
0.826749 0.902281 0.890959
0.846311 0.902190 0.895354
0.866026 0.902708 0.900511
0.877928 0.903319 0.902464
0.901579 0.910735 0.907530
0.557000 0.513268 0.926268
0.578607 0.536522 0.925200
0.641871 0.603632 0.921691
0.722530 0.684077 0.917815
0.797604 0.755093 0.915679
0.856077 0.819852 0.916106
0.877836 0.820523 0.912657
0.896361 0.815152 0.904936
0.561517 0.535241 0.922789
0.582666 0.556023 0.921904
0.644862 0.616968 0.918944
0.723568 0.690730 0.915831
0.797971 0.759030 0.914458
0.856199 0.822202 0.915557
0.877867 0.823728 0.912352
0.895903 0.817716 0.904723
0.563653 0.580163 0.912688
0.584833 0.596582 0.912139
0.646326 0.645472 0.910521
0.724208 0.708156 0.909758
0.798428 0.770565 0.910552
0.856535 0.829465 0.913878
0.878599 0.835111 0.911894
0.895109 0.827878 0.904936
0.453834 0.544793 0.901091
0.509941 0.582300 0.899168
0.624506 0.662135 0.896178
0.710475 0.719112 0.898589
0.791562 0.779355 0.903349
0.854154 0.836210 0.910643
0.880125 0.850889 0.911894
0.894682 0.842802 0.905852
0.180697 0.535821 0.877012
0.229252 0.535180 0.875395
0.399023 0.568994 0.875120
0.619196 0.678553 0.881621
0.760891 0.771023 0.890501
0.842527 0.834714 0.903929
0.881956 0.867063 0.912322
0.895109 0.860044 0.907713
0.431922 0.715694 0.877653
0.449592 0.715602 0.876707
0.503014 0.715419 0.873167
0.568719 0.713344 0.867002
0.632227 0.708248 0.859403
0.809812 0.820066 0.889494
0.886107 0.884977 0.914580
0.897154 0.878416 0.911009
0.621332 0.825254 0.882567
0.629297 0.825467 0.882322
0.654017 0.826139 0.881712
0.691157 0.827573 0.881132
0.734401 0.829587 0.880858
0.778927 0.831815 0.881682
0.863127 0.872587 0.901762
0.900298 0.895628 0.914946
0.743038 0.897368 0.897368
0.748135 0.897459 0.897642
0.765225 0.898009 0.898863
0.792233 0.899565 0.901457
0.824063 0.902403 0.905547
0.857267 0.905943 0.910613
0.889158 0.911772 0.918120
0.908324 0.916197 0.923613
