data/fiter_cube/12898295/1023039/file.cube
# Created by Adobe Lightroom plugin Export LUT (1.17.0)
# www.johnrellis.com/lightroom/exportlut.htm
# Preset: 经典婚礼摄影_01 云集
# Color profile: C:\Program Files (x86)\Common Files\Adobe\Color\Profiles\Recommended\AdobeRGB1998.icc
LUT_3D_SIZE 5
DOMAIN_MIN 0.000000 0.000000 0.000000
DOMAIN_MAX 0.903226 0.903226 0.903226
0.084749 0.066804 0.059724
0.168826 0.064515 0.060334
0.485725 0.000000 0.000000
0.791836 0.126436 0.000000
0.958953 0.349310 0.000000
0.100130 0.115602 0.082643
0.137392 0.114229 0.086976
0.477852 0.177981 0.016510
0.786831 0.277104 0.000000
0.962676 0.434852 0.112337
0.114260 0.280247 0.158114
0.153445 0.275212 0.145724
0.345647 0.328679 0.205478
0.764767 0.532891 0.252262
0.941283 0.604303 0.333806
0.117128 0.577325 0.348516
0.234348 0.578820 0.356817
0.293584 0.553765 0.278477
0.616999 0.604273 0.462257
0.878965 0.752712 0.601770
0.407446 0.792050 0.603174
0.469398 0.788174 0.611658
0.524956 0.771420 0.582788
0.658656 0.778103 0.614221
0.829343 0.811795 0.730800
0.093385 0.078279 0.117556
0.163302 0.080415 0.115602
0.445655 0.000000 0.108492
0.759609 0.035767 0.109834
0.941070 0.327520 0.155795
0.104555 0.132753 0.130037
0.172519 0.144869 0.133547
0.454200 0.162234 0.137942
0.760006 0.253971 0.146426
0.939239 0.410040 0.210513
0.108370 0.308415 0.205905
0.194583 0.318303 0.216403
0.357214 0.338781 0.251987
0.755612 0.526665 0.321721
0.930785 0.604364 0.400855
0.123354 0.590875 0.391760
0.247410 0.592859 0.400855
0.349920 0.571405 0.349828
0.625299 0.612177 0.498787
0.881682 0.756710 0.623438
0.401434 0.795346 0.617884
0.464302 0.791470 0.624994
0.569879 0.785733 0.629389
0.668360 0.786526 0.635615
0.837369 0.820096 0.744808
0.000000 0.100587 0.338293
0.160464 0.095735 0.332647
0.417884 0.044556 0.336065
0.732021 0.000000 0.347478
0.930999 0.288548 0.379644
0.000000 0.174594 0.359289
0.155764 0.168368 0.358404
0.427375 0.181125 0.356756
0.728481 0.196597 0.360784
0.930175 0.388281 0.413245
0.000000 0.369970 0.401465
0.165591 0.382208 0.404303
0.449165 0.432624 0.423316
0.732296 0.513054 0.478676
0.920836 0.598962 0.531365
0.026856 0.632410 0.519432
0.233768 0.627588 0.516716
0.484657 0.622248 0.532647
0.657374 0.642664 0.593225
0.900938 0.769253 0.678614
0.386542 0.804196 0.668757
0.448707 0.803586 0.674037
0.592309 0.798245 0.687251
0.661891 0.788724 0.662409
0.840970 0.823972 0.764889
0.000000 0.144045 0.625910
0.070924 0.139651 0.624537
0.412696 0.096223 0.612696
0.684779 0.220706 0.605005
0.893919 0.460334 0.648768
0.000000 0.217075 0.633082
0.030976 0.214572 0.630121
0.410101 0.202029 0.616419
0.679622 0.301122 0.607263
0.889555 0.484657 0.649256
0.000000 0.415686 0.642451
0.067262 0.418769 0.641627
0.414527 0.429847 0.638911
0.673854 0.482307 0.626581
0.894926 0.566979 0.665034
0.058930 0.631403 0.672999
0.230930 0.632715 0.670527
0.471656 0.646540 0.672816
0.696895 0.680140 0.687861
0.914000 0.740383 0.727932
0.392767 0.828153 0.767239
0.448737 0.828733 0.768368
0.582849 0.831113 0.772793
0.723781 0.825650 0.770413
0.863096 0.847227 0.813962
0.098726 0.284520 0.841642
0.253208 0.285863 0.839414
0.486580 0.292729 0.833494
0.698512 0.315557 0.822385
0.874693 0.514763 0.816373
0.099062 0.344579 0.840970
0.251438 0.345769 0.838865
0.483131 0.351995 0.832944
0.693202 0.366888 0.820737
0.872740 0.538354 0.817166
0.000000 0.497505 0.845090
0.182895 0.491371 0.843687
0.468818 0.502922 0.837675
0.683528 0.503319 0.825772
0.876097 0.611994 0.829709
0.237430 0.690089 0.858366
0.304601 0.687831 0.856657
0.463355 0.683040 0.855192
0.669795 0.673610 0.854185
0.890776 0.717922 0.858671
0.434058 0.854002 0.891569
0.467262 0.854002 0.891234
0.569024 0.858946 0.894285
0.703761 0.868132 0.899077
0.914702 0.902495 0.913787
