data/fiter_cube/12898295/1023039/file.cube
# Created by Adobe Lightroom plugin Export LUT (1.17.0)
# www.johnrellis.com/lightroom/exportlut.htm
# Preset: 经典婚礼摄影_01 云集
# Color profile: C:\Program Files (x86)\Common Files\Adobe\Color\Profiles\Recommended\AdobeRGB1998.icc
LUT_3D_SIZE 8
DOMAIN_MIN 0.000000 0.000000 0.000000
DOMAIN_MAX 0.903226 0.903226 0.903226
0.084749 0.066804 0.059724
0.112581 0.067994 0.060060
0.197482 0.059785 0.059693
0.375433 0.000000 0.030793
0.587366 0.000000 0.000000
0.759182 0.074708 0.000000
0.866209 0.224857 0.000000
0.958953 0.349310 0.000000
0.090639 0.084901 0.068055
0.104036 0.083833 0.069978
0.190372 0.089784 0.065492
0.359167 0.069062 0.044221
0.570733 0.003143 0.000000
0.742611 0.139010 0.000000
0.852659 0.244114 0.000000
0.949065 0.359289 0.000000
0.103304 0.129885 0.089235
0.112825 0.129427 0.087556
0.152865 0.129000 0.094942
0.348913 0.194766 0.078035
0.584710 0.235904 0.000000
0.752041 0.293523 0.000000
0.865599 0.366644 0.000000
0.958556 0.452369 0.135897
0.114076 0.220310 0.129793
0.132509 0.220310 0.131106
0.146944 0.209628 0.112184
0.264714 0.242161 0.154330
0.564691 0.407538 0.168673
0.769131 0.470863 0.161105
0.862547 0.499550 0.202365
0.949584 0.553216 0.263554
0.108736 0.361120 0.200015
0.135439 0.362432 0.201022
0.173404 0.357458 0.182742
0.248264 0.362860 0.178164
0.419074 0.406226 0.260136
0.669337 0.548272 0.324285
0.826566 0.609216 0.364263
0.934234 0.657740 0.413550
0.101137 0.528862 0.308354
0.146548 0.539940 0.318364
0.220706 0.534966 0.308965
0.254185 0.518730 0.262638
0.406714 0.530297 0.299779
0.580743 0.568872 0.417060
0.759304 0.673426 0.525566
0.893828 0.742214 0.574609
0.204318 0.679072 0.450935
0.239475 0.680232 0.455238
0.326940 0.673884 0.459846
0.354192 0.664271 0.422980
0.384771 0.649989 0.377691
0.584009 0.666987 0.478737
0.707088 0.691432 0.584649
0.833768 0.768887 0.667414
0.407446 0.792050 0.603174
0.426368 0.790616 0.605127
0.488930 0.787442 0.615625
0.537072 0.786984 0.614954
0.541924 0.770504 0.574853
0.619196 0.774075 0.592493
0.750118 0.792233 0.671412
0.829343 0.811795 0.730800
0.089448 0.071229 0.080476
0.112428 0.072633 0.078889
0.188418 0.065370 0.077638
0.347601 0.000000 0.075624
0.557824 0.000000 0.033448
0.731228 0.000000 0.000000
0.844999 0.199161 0.000000
0.941772 0.325963 0.000000
0.092653 0.089082 0.082948
0.115297 0.092653 0.083680
0.188327 0.094972 0.085267
0.345922 0.077913 0.079927
0.553277 0.000000 0.045045
0.724086 0.122286 0.000000
0.835355 0.225345 0.000000
0.931884 0.336065 0.018463
0.105898 0.135317 0.100191
0.126436 0.138918 0.105043
0.164584 0.139223 0.110475
0.351995 0.195285 0.102785
0.564538 0.226383 0.077516
0.728969 0.275395 0.050904
0.840696 0.339544 0.081483
0.938140 0.425757 0.146853
0.116854 0.221622 0.140383
0.136995 0.224308 0.143374
0.163119 0.219120 0.130709
0.262547 0.238926 0.164614
0.527428 0.374578 0.174594
0.734218 0.437812 0.167727
0.837034 0.471077 0.199344
0.930480 0.528893 0.257877
0.113130 0.367254 0.215183
0.139406 0.366613 0.214847
0.189761 0.361364 0.203006
0.245914 0.353033 0.185977
0.403449 0.389258 0.259281
0.653651 0.532982 0.320531
0.816526 0.597772 0.363684
0.922820 0.645045 0.412116
0.104280 0.521447 0.312963
0.143130 0.522179 0.314122
0.228977 0.520562 0.314275
0.261051 0.507561 0.271275
0.400122 0.520928 0.302892
0.577691 0.565759 0.422675
0.755764 0.670069 0.526848
0.887938 0.735256 0.571618
0.184787 0.665644 0.442267
0.214206 0.662501 0.440681
0.305211 0.658961 0.446906
0.351904 0.653681 0.422309
0.385840 0.642908 0.381537
0.574823 0.658900 0.472938
0.697261 0.681971 0.575036
0.824063 0.758511 0.657008
0.387091 0.785031 0.594934
0.409644 0.784909 0.598749
0.475563 0.782498 0.610010
0.535241 0.782254 0.614862
0.563928 0.779873 0.597589
0.624750 0.778042 0.602136
0.747768 0.790158 0.671138
0.824399 0.806790 0.727413
0.093355 0.081117 0.138735
0.115419 0.081300 0.138308
0.188998 0.082002 0.135439
0.344579 0.000000 0.137362
0.553796 0.000000 0.126314
0.733303 0.000000 0.143679
0.848783 0.206119 0.165316
0.947601 0.339788 0.199832
0.100221 0.101625 0.143893
0.120821 0.102235 0.144259
0.190646 0.104097 0.140047
0.341466 0.043488 0.139345
0.550774 0.000000 0.136385
0.725856 0.094789 0.149111
0.841733 0.236454 0.169192
0.941894 0.357031 0.206394
0.106386 0.153933 0.154238
0.127840 0.158328 0.155795
0.200198 0.171328 0.159457
0.355596 0.188205 0.167086
0.571405 0.220920 0.177676
0.731106 0.278843 0.190555
0.840299 0.350347 0.216373
0.937774 0.435218 0.257572
0.105684 0.256962 0.193637
0.132906 0.261082 0.196262
0.215488 0.270207 0.206638
0.308141 0.285039 0.231113
0.575433 0.411322 0.267704
0.736141 0.453254 0.284642
0.838407 0.491066 0.314794
0.932494 0.546563 0.356329
0.091524 0.397833 0.267277
0.132052 0.401373 0.270542
0.231662 0.408270 0.281102
0.280705 0.394781 0.251377
0.446906 0.433021 0.332830
0.676783 0.559655 0.399817
0.824430 0.615595 0.444923
0.921538 0.656580 0.479896
0.091493 0.542931 0.360662
0.144442 0.544579 0.363714
0.252110 0.544335 0.370245
0.321538 0.533196 0.347845
0.415351 0.531609 0.348211
0.587945 0.575433 0.463355
0.760555 0.677699 0.559258
0.895201 0.745205 0.605585
0.197910 0.680415 0.482338
0.230381 0.678462 0.482368
0.318761 0.672511 0.484596
0.406500 0.664454 0.480812
0.430030 0.651667 0.436805
0.584894 0.664668 0.504356
0.709438 0.693690 0.606806
0.839139 0.774502 0.683528
0.384710 0.790402 0.613550
0.400641 0.788174 0.613031
0.465431 0.784390 0.620630
0.562310 0.785794 0.644251
0.585138 0.782437 0.623835
0.625910 0.780880 0.615961
0.752956 0.795499 0.684688
0.832639 0.815244 0.741787
0.064057 0.092775 0.255741
0.102785 0.093019 0.257053
0.193668 0.086519 0.252049
0.326909 0.070069 0.252049
0.534295 0.000000 0.265629
0.707851 0.000000 0.256626
0.830106 0.087495 0.271244
0.935576 0.304387 0.312139
0.067567 0.115999 0.269444
0.105287 0.115358 0.269230
0.197482 0.110323 0.261875
0.330907 0.104891 0.259251
0.535882 0.000000 0.271214
0.704524 0.000000 0.258213
0.826413 0.167575 0.279759
0.932921 0.328923 0.318181
0.073060 0.180209 0.280034
0.106172 0.182040 0.281407
0.196475 0.182742 0.284031
0.341833 0.195224 0.281926
0.545617 0.190555 0.292180
0.715785 0.224643 0.300816
0.836576 0.349493 0.348028
0.937774 0.435737 0.376928
0.059968 0.285649 0.306706
0.104738 0.290593 0.308690
0.208164 0.307927 0.315862
0.362890 0.341497 0.329747
0.560967 0.385412 0.356146
0.714687 0.435370 0.384344
0.825895 0.488991 0.418280
0.928557 0.549584 0.452888
0.000000 0.450416 0.375921
0.078584 0.453040 0.376013
0.225315 0.461555 0.380011
0.383001 0.469276 0.397436
0.497902 0.484016 0.432136
0.705989 0.591180 0.502373
0.823331 0.629419 0.534905
0.920592 0.665003 0.553521
0.000000 0.586664 0.452216
0.133577 0.594446 0.460914
0.265385 0.590723 0.461524
0.408637 0.586755 0.472480
0.452827 0.567102 0.434668
0.620172 0.606592 0.539239
0.778286 0.698482 0.615869
0.909422 0.757992 0.649683
0.200687 0.698482 0.539727
0.239292 0.698756 0.541955
0.337957 0.697108 0.547631
0.459937 0.691890 0.559075
0.518212 0.680323 0.540612
0.607324 0.681178 0.558953
0.724575 0.708278 0.646723
0.854490 0.788937 0.709590
0.401312 0.804807 0.656092
0.420630 0.804562 0.657954
0.474342 0.801297 0.660578
0.558404 0.796902 0.670130
0.622248 0.791562 0.670466
0.645106 0.788510 0.649378
0.758114 0.802701 0.702968
0.842771 0.825772 0.761196
0.000000 0.109346 0.424018
0.000000 0.108675 0.423835
0.180026 0.100404 0.416175
0.324651 0.064118 0.409796
0.509178 0.057923 0.424109
0.682979 0.159030 0.430243
0.809476 0.207858 0.437140
0.923674 0.295262 0.455238
0.000000 0.132174 0.432746
0.000000 0.131960 0.433936
0.180911 0.125551 0.426062
0.328161 0.103182 0.417884
0.509422 0.118532 0.427497
0.682948 0.196445 0.435615
0.809079 0.239384 0.442206
0.923247 0.314153 0.457862
0.000000 0.208530 0.445441
0.000000 0.208011 0.447669
0.173190 0.202853 0.448829
0.333196 0.197787 0.438300
0.508995 0.229587 0.438514
0.676234 0.281987 0.445533
0.804074 0.314946 0.452003
0.917815 0.384283 0.469795
0.000000 0.319615 0.466712
0.000000 0.321294 0.466712
0.176364 0.330236 0.470588
0.345312 0.344182 0.476173
0.519982 0.372290 0.470771
0.680415 0.403571 0.477943
0.804654 0.434394 0.484932
0.918700 0.508537 0.516289
0.000000 0.454414 0.492012
0.000000 0.458076 0.493355
0.201205 0.468818 0.495460
0.367651 0.489448 0.501976
0.531701 0.517113 0.512200
0.688838 0.558038 0.542565
0.804562 0.598291 0.571527
0.913695 0.639582 0.592615
0.000000 0.596155 0.538628
0.000000 0.598138 0.539361
0.232639 0.601526 0.539300
0.392340 0.607446 0.543481
0.530999 0.600671 0.548730
0.636683 0.622156 0.592004
0.798489 0.712825 0.663569
0.916869 0.754971 0.683375
0.197513 0.717037 0.610010
0.233402 0.715419 0.609155
0.331426 0.711696 0.608850
0.452186 0.707118 0.612146
0.567285 0.699367 0.618982
0.605158 0.685573 0.592950
0.733852 0.717067 0.678492
0.869322 0.798672 0.731624
0.386084 0.810086 0.692805
0.403235 0.808896 0.692653
0.456977 0.805661 0.692988
0.544396 0.808469 0.703822
0.628382 0.802518 0.707759
0.675105 0.796719 0.695155
0.753292 0.804776 0.716365
0.846860 0.830137 0.777157
0.000000 0.136751 0.597131
0.000000 0.136080 0.597681
0.153841 0.128817 0.594110
0.334997 0.104341 0.587304
0.496712 0.033082 0.577203
0.658503 0.188083 0.577081
0.786130 0.369329 0.586511
0.903288 0.439002 0.623041
0.000000 0.158602 0.595117
0.000000 0.157839 0.593988
0.149233 0.152560 0.589715
0.328893 0.135531 0.581842
0.489845 0.105226 0.571984
0.653925 0.214908 0.574731
0.783383 0.381048 0.586694
0.901213 0.446265 0.622339
0.000000 0.242161 0.611566
0.000000 0.237613 0.610040
0.143496 0.233616 0.605737
0.333349 0.229068 0.597101
0.492561 0.219120 0.582910
0.655238 0.308751 0.585046
0.782650 0.435340 0.599939
0.901823 0.483009 0.630671
0.000000 0.359442 0.621180
0.000000 0.358831 0.619287
0.148562 0.361120 0.618799
0.347570 0.371588 0.622614
0.511284 0.374182 0.612940
0.664942 0.440223 0.611658
0.787167 0.516533 0.627039
0.908507 0.538720 0.645319
0.000000 0.479805 0.625147
0.000000 0.481727 0.625452
0.181491 0.488533 0.626062
0.353338 0.501488 0.628260
0.514366 0.514885 0.628840
0.658778 0.543633 0.624933
0.782986 0.577203 0.637171
0.909117 0.587518 0.641505
0.000000 0.596002 0.637263
0.075349 0.599908 0.639643
0.243870 0.605493 0.640711
0.393591 0.614801 0.642451
0.534478 0.627741 0.645350
0.669581 0.653529 0.659022
0.797940 0.692805 0.691646
0.917723 0.726497 0.708919
0.200504 0.728695 0.692256
0.242618 0.730434 0.693965
0.342443 0.730495 0.693538
0.464057 0.731563 0.694148
0.581903 0.733333 0.696101
0.678279 0.724331 0.695521
0.756283 0.738766 0.725460
0.906249 0.823056 0.775509
0.396185 0.827878 0.753445
0.412421 0.827268 0.753017
0.463478 0.824796 0.752102
0.538720 0.823789 0.754025
0.618738 0.821073 0.753872
0.701137 0.816678 0.753658
0.743404 0.812589 0.736751
0.860105 0.844053 0.806180
0.000000 0.183597 0.723049
0.000000 0.184054 0.723690
0.166751 0.180972 0.720546
0.347234 0.172030 0.715999
0.499733 0.156130 0.706935
0.645441 0.184970 0.702480
0.763546 0.344915 0.691737
0.877501 0.518029 0.722988
0.000000 0.202914 0.719692
0.000000 0.203433 0.720089
0.160433 0.200992 0.717189
0.341039 0.193118 0.711421
0.493538 0.180240 0.702419
0.638331 0.202945 0.696986
0.757687 0.351019 0.686732
0.871458 0.517327 0.716609
0.000000 0.274571 0.726680
0.000000 0.272374 0.726223
0.161135 0.275029 0.722591
0.342504 0.272862 0.716732
0.494240 0.267826 0.707057
0.636103 0.284916 0.700160
0.758907 0.414435 0.694759
0.876158 0.555627 0.728695
0.000000 0.389868 0.733516
0.000000 0.387732 0.731899
0.155612 0.384680 0.729458
0.348943 0.391424 0.726192
0.499367 0.390845 0.717617
0.633814 0.395026 0.707881
0.761410 0.500633 0.708431
0.881743 0.601556 0.742245
0.000000 0.503990 0.733974
0.000000 0.503502 0.732815
0.178164 0.504173 0.730861
0.335729 0.506737 0.729671
0.498695 0.513787 0.725856
0.630060 0.512749 0.715816
0.757321 0.576898 0.717006
0.886412 0.641810 0.751705
0.040497 0.614160 0.740566
0.131624 0.614984 0.740505
0.256504 0.617914 0.740139
0.386725 0.623438 0.740352
0.515160 0.630426 0.740078
0.645716 0.641382 0.740658
0.765225 0.667994 0.741451
0.899931 0.693294 0.764096
0.247776 0.713283 0.755337
0.276616 0.714626 0.756100
0.353643 0.716976 0.756374
0.455085 0.721584 0.757382
0.561761 0.727230 0.757717
0.668360 0.737545 0.760708
0.777951 0.759548 0.772824
0.919097 0.801572 0.802609
0.381933 0.817563 0.798062
0.398138 0.818814 0.799130
0.454871 0.826505 0.806363
0.527947 0.834897 0.813321
0.613062 0.840208 0.816251
0.701076 0.850309 0.820645
0.788571 0.847715 0.816983
0.881834 0.867155 0.849729
0.098726 0.284520 0.841642
0.165255 0.286046 0.841825
0.285435 0.286229 0.838560
0.420233 0.289830 0.835569
0.550439 0.296635 0.830594
0.670253 0.309941 0.823911
0.788815 0.386206 0.823545
0.874693 0.514763 0.816373
0.092714 0.301305 0.839506
0.161257 0.302739 0.839689
0.283146 0.303288 0.837064
0.416480 0.305760 0.833433
0.546777 0.311772 0.828550
0.666743 0.323827 0.821866
0.784787 0.393317 0.820706
0.871885 0.518639 0.814145
0.000000 0.354528 0.840360
0.157565 0.362341 0.839902
0.278080 0.361242 0.836301
0.416663 0.368048 0.835599
0.545251 0.372168 0.829984
0.663508 0.379187 0.822232
0.780941 0.432502 0.820676
0.871519 0.544762 0.816800
0.000000 0.441993 0.843870
0.076875 0.443519 0.844175
0.255039 0.445838 0.841886
0.412085 0.457527 0.839261
0.542840 0.460456 0.834653
0.662654 0.464271 0.828031
0.778073 0.494392 0.825132
0.874754 0.588037 0.825254
0.000000 0.553826 0.846616
0.104799 0.554223 0.847227
0.230167 0.550134 0.846128
0.361791 0.540215 0.845060
0.527764 0.551934 0.840238
0.653193 0.551080 0.833860
0.768734 0.558709 0.829221
0.879759 0.639826 0.836942
0.195834 0.660578 0.852781
0.221500 0.659449 0.851896
0.294530 0.656703 0.850156
0.391211 0.653132 0.849088
0.499825 0.647974 0.849088
0.641688 0.649134 0.849760
0.769833 0.651820 0.848569
0.889921 0.702113 0.855406
0.321660 0.761837 0.867643
0.337102 0.761410 0.867185
0.386114 0.760555 0.866300
0.461799 0.761105 0.866819
0.550896 0.761746 0.868162
0.645624 0.760952 0.871366
0.757473 0.751614 0.874144
0.896422 0.776364 0.873564
0.434058 0.854002 0.891569
0.443885 0.853758 0.891264
0.478248 0.854368 0.891386
0.535332 0.857084 0.893156
0.604669 0.860929 0.895384
0.682246 0.866270 0.898161
0.777401 0.875822 0.902434
0.914702 0.902495 0.913787
