data/fiter_cube/12898295/1023039/file.cube
# Created by Adobe Lightroom plugin Export LUT (1.17.0)
# www.johnrellis.com/lightroom/exportlut.htm
# Preset: 经典婚礼摄影_01 云集
# Color profile: C:\Program Files (x86)\Common Files\Adobe\Color\Profiles\Recommended\AdobeRGB1998.icc
LUT_3D_SIZE 32
DOMAIN_MIN 0.0 0.0 0.0
DOMAIN_MAX 1.0 1.0 1.0
0.084749 0.066804 0.059724
0.087495 0.067048 0.060029
0.091218 0.067445 0.059846
0.100252 0.067720 0.059846
0.112581 0.067994 0.060060
0.127596 0.067689 0.060517
0.145968 0.066926 0.060639
0.168826 0.064515 0.060334
0.197482 0.059785 0.059693
0.232517 0.044434 0.058289
0.274601 0.010132 0.053254
0.322789 0.000000 0.045930
0.375433 0.000000 0.030793
0.430762 0.000000 0.011536
0.485725 0.000000 0.000000
0.538506 0.000000 0.000000
0.587366 0.000000 0.000000
0.631678 0.000000 0.000000
0.671504 0.000000 0.000000
0.719814 0.000000 0.000000
0.759182 0.074708 0.000000
0.791836 0.126436 0.000000
0.819333 0.163577 0.000000
0.843656 0.195560 0.000000
0.866209 0.224857 0.000000
0.888121 0.253391 0.000000
0.910521 0.283177 0.000000
0.933898 0.314824 0.000000
0.958953 0.349310 0.000000
0.986114 0.387640 0.000000
1.000000 0.429999 0.070558
1.000000 0.475837 0.128267
0.085512 0.068727 0.060365
0.086885 0.068421 0.060792
0.090578 0.069245 0.060548
0.099580 0.070375 0.060945
0.112306 0.070558 0.060700
0.126864 0.070832 0.061158
0.144991 0.069856 0.060883
0.167483 0.068116 0.060975
0.195590 0.063844 0.060426
0.229984 0.053254 0.058839
0.271122 0.025605 0.054932
0.318517 0.000000 0.047333
0.370489 0.000000 0.032837
0.425116 0.000000 0.014252
0.479591 0.000000 0.000000
0.532280 0.000000 0.000000
0.581262 0.000000 0.000000
0.625971 0.000000 0.000000
0.667079 0.000000 0.000000
0.714076 0.000000 0.000000
0.753170 0.077455 0.000000
0.785946 0.125216 0.000000
0.813687 0.161166 0.000000
0.838254 0.192538 0.000000
0.860960 0.221469 0.000000
0.883146 0.249882 0.000000
0.905760 0.279301 0.000000
0.929320 0.310857 0.000000
0.954528 0.344976 0.000000
0.981781 0.383032 0.000000
1.000000 0.425177 0.060182
1.000000 0.470893 0.120943
0.086458 0.070954 0.061860
0.087129 0.071199 0.061830
0.089876 0.071015 0.062165
0.098848 0.073213 0.061982
0.111604 0.073793 0.062165
0.126284 0.074037 0.062165
0.143923 0.073335 0.061921
0.166140 0.071992 0.061616
0.193881 0.068299 0.061067
0.227787 0.061707 0.059510
0.268742 0.041779 0.056245
0.315557 0.003326 0.048676
0.367163 0.000000 0.035737
0.421607 0.000000 0.016205
0.475898 0.000000 0.000000
0.528588 0.000000 0.000000
0.577752 0.000000 0.000000
0.622583 0.000000 0.000000
0.664942 0.000000 0.000000
0.711086 0.000000 0.000000
0.750057 0.087678 0.000000
0.782864 0.131044 0.000000
0.810788 0.165042 0.000000
0.835447 0.194949 0.000000
0.858274 0.223117 0.000000
0.880461 0.250828 0.000000
0.903166 0.279728 0.000000
0.926848 0.310887 0.000000
0.952117 0.344732 0.000000
0.979431 0.382544 0.000000
1.000000 0.424170 0.058228
1.000000 0.469612 0.119387
0.088075 0.077302 0.064637
0.090150 0.077272 0.064546
0.091127 0.077424 0.064485
0.096468 0.076997 0.065919
0.108522 0.080293 0.065461
0.125521 0.081056 0.064057
0.143252 0.080781 0.063783
0.165225 0.079683 0.063478
0.192844 0.077302 0.062898
0.226535 0.073121 0.061219
0.266667 0.065370 0.058595
0.313268 0.047272 0.050843
0.364080 0.007477 0.038544
0.417853 0.000000 0.020050
0.472114 0.000000 0.000000
0.524651 0.000000 0.000000
0.573785 0.000000 0.000000
0.618708 0.000000 0.000000
0.662501 0.000000 0.000000
0.706813 0.062379 0.000000
0.744808 0.108583 0.000000
0.777462 0.143923 0.000000
0.805844 0.174655 0.000000
0.831296 0.202914 0.000000
0.855222 0.230625 0.000000
0.878447 0.258122 0.000000
0.901884 0.286900 0.000000
0.926055 0.317998 0.000000
0.951446 0.351385 0.000000
0.978546 0.388067 0.000000
1.000000 0.428412 0.068788
1.000000 0.472389 0.123842
0.090639 0.084901 0.068055
0.093202 0.084749 0.068757
0.093965 0.084627 0.067964
0.097139 0.084321 0.067872
0.104036 0.083833 0.069978
0.117952 0.088289 0.069581
0.138399 0.090364 0.067811
0.163149 0.090608 0.066102
0.190372 0.089784 0.065492
0.223301 0.087892 0.063874
0.262821 0.084230 0.061158
0.308598 0.078553 0.055329
0.359167 0.069062 0.044221
0.412787 0.055146 0.025055
0.467353 0.024628 0.001068
0.520653 0.004700 0.000000
0.570733 0.003143 0.000000
0.616419 0.033326 0.000000
0.662654 0.076661 0.000000
0.705562 0.109224 0.000000
0.742611 0.139010 0.000000
0.774838 0.167056 0.000000
0.803006 0.193454 0.000000
0.828611 0.218845 0.000000
0.852659 0.244114 0.000000
0.876097 0.270176 0.000000
0.899626 0.297917 0.000000
0.923766 0.327062 0.000000
0.949065 0.359289 0.000000
0.976043 0.394690 0.000000
1.000000 0.433967 0.080476
1.000000 0.477089 0.131533
0.093507 0.092805 0.071962
0.095949 0.092958 0.072572
0.097169 0.093050 0.072511
0.098604 0.092531 0.071443
0.104738 0.091951 0.071992
0.112520 0.091463 0.074556
0.128817 0.097719 0.074830
0.154055 0.102266 0.072145
0.187167 0.104524 0.069368
0.222416 0.105013 0.066987
0.261784 0.104768 0.064149
0.307408 0.103548 0.059907
0.357641 0.101106 0.049653
0.411292 0.098054 0.030030
0.465858 0.094881 0.004578
0.519341 0.094606 0.000000
0.569848 0.098299 0.000000
0.615717 0.108919 0.000000
0.664424 0.128878 0.000000
0.706416 0.151247 0.000000
0.743191 0.174624 0.000000
0.775357 0.197787 0.000000
0.836576 0.260380 0.000000
0.860197 0.283146 0.000000
0.882383 0.306004 0.000000
0.904112 0.329259 0.000000
0.925963 0.354009 0.000000
0.948577 0.380896 0.003265
0.972656 0.410895 0.075746
0.998352 0.444343 0.113161
1.000000 0.480873 0.150332
1.000000 0.520165 0.191409
0.097200 0.104158 0.077455
0.098939 0.104372 0.077699
0.101198 0.104524 0.078248
0.102907 0.104036 0.076936
0.104585 0.103548 0.075624
0.114778 0.102937 0.077577
0.124727 0.102419 0.080781
0.145113 0.111299 0.081880
0.177890 0.120119 0.078462
0.220859 0.126833 0.074250
0.273411 0.131319 0.068116
0.321263 0.134066 0.062715
0.373022 0.136324 0.052613
0.426978 0.138033 0.031342
0.480568 0.140291 0.004852
0.532067 0.143801 0.000000
0.580621 0.150210 0.000000
0.629938 0.162875 0.000000
0.677913 0.181186 0.000000
0.719783 0.201511 0.000000
0.757382 0.223728 0.000000
0.791135 0.247166 0.000000
0.821347 0.271183 0.000000
0.848783 0.295232 0.000000
0.874235 0.319646 0.000000
0.897795 0.343297 0.000000
0.920623 0.367376 0.000000
0.943572 0.393011 0.056703
0.967773 0.421424 0.093416
0.993225 0.453071 0.125917
1.000000 0.488106 0.160647
1.000000 0.525933 0.199496
0.100130 0.115602 0.082643
0.101808 0.115816 0.082887
0.104280 0.115877 0.083406
0.106630 0.115785 0.082704
0.108431 0.114870 0.080629
0.113344 0.114107 0.080201
0.125704 0.113924 0.083101
0.137392 0.114229 0.086976
0.161288 0.125368 0.089601
0.199649 0.138705 0.085725
0.249577 0.150393 0.080171
0.310185 0.160525 0.071962
0.370733 0.167636 0.061402
0.424292 0.172824 0.045167
0.477852 0.177981 0.016510
0.529381 0.183627 0.000000
0.578180 0.191165 0.000000
0.631434 0.205783 0.000000
0.676661 0.221317 0.000000
0.716976 0.238010 0.000000
0.753719 0.256809 0.000000
0.786831 0.277104 0.000000
0.816709 0.297948 0.000000
0.843900 0.319188 0.000000
0.869169 0.340673 0.000000
0.892668 0.362219 0.000000
0.915496 0.384192 0.043549
0.938506 0.408118 0.083436
0.962676 0.434852 0.112337
0.988128 0.464851 0.142153
1.000000 0.498390 0.175174
1.000000 0.534936 0.212528
0.103304 0.129885 0.089235
0.104921 0.130068 0.089448
0.107301 0.130312 0.089876
0.110780 0.130251 0.089784
0.112825 0.129427 0.087556
0.115145 0.128176 0.085328
0.124392 0.127718 0.086488
0.138827 0.128115 0.090059
0.152865 0.129000 0.094942
0.180484 0.142763 0.099428
0.226047 0.161685 0.094881
0.282750 0.179049 0.088197
0.348913 0.194766 0.078035
0.420905 0.208011 0.062287
0.477913 0.216281 0.036988
0.529229 0.223423 0.005066
0.584710 0.235904 0.000000
0.634455 0.249516 0.000000
0.677363 0.262669 0.000000
0.716243 0.277073 0.000000
0.752041 0.293523 0.000000
0.784512 0.310552 0.000000
0.813840 0.328679 0.000000
0.840635 0.347570 0.000000
0.865599 0.366644 0.000000
0.888975 0.385626 0.058991
0.911681 0.405737 0.086641
0.934600 0.427619 0.110384
0.958556 0.452369 0.135897
0.983795 0.480507 0.162753
1.000000 0.512078 0.193362
1.000000 0.546899 0.228916
0.106569 0.146670 0.096773
0.108400 0.146792 0.096925
0.110475 0.146883 0.097108
0.115389 0.147250 0.097902
0.117220 0.146242 0.095460
0.119844 0.144778 0.092683
0.122408 0.143130 0.090120
0.137697 0.143557 0.093477
0.154635 0.144869 0.098207
0.171237 0.146639 0.104189
0.202518 0.163058 0.111421
0.254276 0.187839 0.106050
0.317174 0.210910 0.098329
0.387854 0.231601 0.087007
0.461677 0.249760 0.070344
0.537438 0.268925 0.034668
0.592279 0.282658 0.000000
0.639979 0.295079 0.000000
0.681209 0.307042 0.000000
0.718502 0.319463 0.000000
0.752407 0.332586 0.000000
0.782925 0.346593 0.000000
0.810666 0.360937 0.000000
0.836179 0.376013 0.032410
0.860349 0.391974 0.069947
0.883452 0.408881 0.092622
0.906310 0.427039 0.113710
0.929564 0.447639 0.135653
0.953887 0.471412 0.159548
0.979644 0.498543 0.185885
1.000000 0.529442 0.216556
1.000000 0.563378 0.251743
0.109255 0.165377 0.104921
0.111025 0.165469 0.105318
0.113283 0.165682 0.105470
0.118227 0.166262 0.106142
0.121950 0.165591 0.104738
0.124422 0.164218 0.101350
0.127474 0.162600 0.098299
0.134310 0.161288 0.097261
0.153719 0.162997 0.101839
0.173495 0.165438 0.107973
0.192966 0.168246 0.115419
0.227848 0.187137 0.125551
0.286046 0.218082 0.120119
0.354345 0.246708 0.111757
0.434424 0.276493 0.101045
0.514275 0.302373 0.086122
0.587243 0.323949 0.064973
0.641505 0.338659 0.037049
0.681239 0.348821 0.022797
0.717494 0.359228 0.018372
0.750576 0.370428 0.030732
0.780697 0.382361 0.055146
0.808225 0.394873 0.072938
0.833494 0.408087 0.091310
0.857389 0.421942 0.109499
0.880217 0.436591 0.126619
0.902708 0.452796 0.144533
0.925597 0.471168 0.164096
0.949615 0.492714 0.185550
0.974975 0.517967 0.210666
1.000000 0.546868 0.239872
1.000000 0.579187 0.274235
0.112062 0.187686 0.115084
0.113527 0.187808 0.115236
0.115908 0.188083 0.115541
0.120974 0.188571 0.116152
0.126772 0.188632 0.115785
0.129519 0.187167 0.112184
0.132753 0.185275 0.108248
0.136233 0.183169 0.104616
0.150240 0.183444 0.106111
0.172976 0.186435 0.112123
0.196170 0.190097 0.119722
0.218997 0.194553 0.129030
0.277806 0.235386 0.154177
0.356725 0.283818 0.151247
0.442878 0.326726 0.145205
0.526940 0.361822 0.136477
0.600946 0.388983 0.126894
0.662013 0.408240 0.118532
0.712215 0.421576 0.112581
0.745510 0.428901 0.115969
0.773800 0.435767 0.123049
0.799710 0.443519 0.132906
0.823606 0.451606 0.144411
0.846372 0.461219 0.157321
0.868376 0.471901 0.170626
0.889830 0.483925 0.185061
0.911192 0.497597 0.200565
0.933043 0.513481 0.217166
0.955962 0.532433 0.236393
0.980285 0.554925 0.259220
1.000000 0.580896 0.286259
1.000000 0.610224 0.318242
0.114076 0.220310 0.129793
0.115755 0.220371 0.130098
0.118257 0.220279 0.130037
0.123812 0.220340 0.130434
0.132509 0.220310 0.131106
0.135561 0.217746 0.126375
0.138705 0.215122 0.121614
0.142580 0.212375 0.116640
0.146944 0.209628 0.112184
0.170687 0.212985 0.117708
0.198489 0.218570 0.126162
0.230411 0.229068 0.138186
0.264714 0.242161 0.154330
0.317388 0.275334 0.180880
0.400916 0.328985 0.179019
0.486336 0.373236 0.174594
0.564691 0.407538 0.168673
0.630945 0.432105 0.162966
0.685512 0.449165 0.159670
0.731777 0.461860 0.158785
0.769131 0.470863 0.161105
0.794705 0.476631 0.169619
0.818265 0.483162 0.179324
0.840787 0.490791 0.190402
0.862547 0.499550 0.202365
0.883787 0.509789 0.215274
0.905058 0.521752 0.229129
0.926757 0.536004 0.245090
0.949584 0.553216 0.263554
0.973846 0.574365 0.285801
0.999298 0.598810 0.311467
1.000000 0.626795 0.342626
0.114473 0.248569 0.143099
0.116609 0.248783 0.143191
0.119142 0.248631 0.143160
0.124910 0.248661 0.143343
0.134005 0.248478 0.143801
0.139895 0.246647 0.140749
0.143557 0.243839 0.135164
0.147677 0.240818 0.129458
0.152255 0.237888 0.124147
0.162905 0.238132 0.122591
0.195438 0.247898 0.132143
0.230747 0.259251 0.144503
0.267918 0.271916 0.159976
0.305272 0.285527 0.178744
0.357549 0.317052 0.211734
0.442023 0.372076 0.210300
0.523156 0.414954 0.206973
0.594568 0.446723 0.203464
0.654902 0.469459 0.201511
0.705928 0.486000 0.201846
0.749050 0.498604 0.204959
0.785855 0.508385 0.209689
0.813565 0.515129 0.217044
0.836027 0.521477 0.227237
0.857664 0.528985 0.238254
0.878874 0.537713 0.249973
0.900053 0.548241 0.263066
0.921691 0.561120 0.277653
0.944396 0.576959 0.295384
0.968597 0.596521 0.316381
0.993988 0.619593 0.341588
1.000000 0.646143 0.371527
0.114260 0.280247 0.158114
0.116304 0.280613 0.158297
0.119356 0.280339 0.158297
0.125368 0.280278 0.158450
0.134646 0.280217 0.158694
0.144350 0.279088 0.157259
0.148470 0.276524 0.151522
0.153445 0.275212 0.145724
0.158907 0.274235 0.140169
0.165316 0.273442 0.134829
0.187564 0.278264 0.138308
0.225864 0.289708 0.150607
0.265843 0.302312 0.165866
0.306340 0.315526 0.184085
0.345647 0.328679 0.205478
0.398566 0.359472 0.240604
0.478737 0.411566 0.243351
0.555108 0.452613 0.241611
0.621393 0.482673 0.241032
0.677302 0.504448 0.242710
0.724727 0.520684 0.246494
0.764767 0.532891 0.252262
0.799191 0.542473 0.258915
0.830167 0.551110 0.265904
0.852689 0.557885 0.275639
0.874083 0.565881 0.287053
0.895689 0.575952 0.300023
0.917876 0.588647 0.315831
0.941283 0.604303 0.333806
0.966094 0.623682 0.355688
0.992035 0.646540 0.381445
1.000000 0.672450 0.411322
0.112245 0.317998 0.176974
0.114565 0.318578 0.177462
0.117769 0.318944 0.177707
0.124849 0.320012 0.178286
0.135378 0.321050 0.179141
0.149813 0.322637 0.180758
0.155001 0.321172 0.174777
0.160647 0.319585 0.168185
0.166873 0.317845 0.161227
0.173739 0.316106 0.154177
0.180789 0.314061 0.147677
0.217350 0.322454 0.157595
0.259648 0.333562 0.172244
0.302342 0.345006 0.189487
0.343572 0.356451 0.209445
0.382544 0.367864 0.231876
0.435157 0.397528 0.268376
0.510735 0.446693 0.276524
0.583948 0.487160 0.278202
0.646754 0.516991 0.282078
0.699580 0.538933 0.288090
0.743984 0.555261 0.296208
0.781338 0.567620 0.304814
0.814176 0.578027 0.313664
0.844480 0.587823 0.322637
0.871580 0.597253 0.331670
0.893248 0.606531 0.344060
0.915496 0.618189 0.358495
0.938689 0.632715 0.375525
0.963165 0.650355 0.395209
0.988525 0.671015 0.418463
1.000000 0.694453 0.444953
0.108736 0.361120 0.200015
0.111452 0.361395 0.200046
0.115206 0.361456 0.200198
0.123293 0.361852 0.200443
0.135439 0.362432 0.201022
0.151003 0.363348 0.202274
0.160647 0.362402 0.198306
0.166751 0.359930 0.190829
0.173404 0.357458 0.182742
0.180545 0.354955 0.174655
0.188174 0.352514 0.166842
0.202640 0.351659 0.163638
0.248264 0.362860 0.178164
0.293980 0.374182 0.195377
0.338323 0.385107 0.214664
0.380224 0.395758 0.236301
0.419074 0.406226 0.260136
0.471107 0.434913 0.297765
0.541680 0.480659 0.312169
0.610925 0.519768 0.316930
0.669337 0.548272 0.324285
0.718379 0.569421 0.333288
0.759335 0.585107 0.343084
0.794614 0.597864 0.353765
0.826566 0.609216 0.364263
0.856657 0.620356 0.374548
0.885801 0.632105 0.384924
0.910887 0.644038 0.397406
0.934234 0.657740 0.413550
0.958801 0.674434 0.432013
0.984314 0.694026 0.453712
1.000000 0.716304 0.478767
0.104463 0.404456 0.224735
0.108034 0.405249 0.225193
0.111727 0.431189 0.241245
0.122621 0.431281 0.241459
0.138247 0.431250 0.241764
0.157198 0.431189 0.242435
0.174166 0.430060 0.240635
0.180941 0.426276 0.231327
0.188388 0.422614 0.221408
0.196506 0.418982 0.211582
0.204715 0.415259 0.201572
0.213291 0.410925 0.191714
0.243778 0.412879 0.195407
0.295171 0.423224 0.213321
0.344427 0.433173 0.233494
0.390784 0.442481 0.255467
0.433600 0.451698 0.279484
0.472267 0.461036 0.305394
0.522240 0.487160 0.344884
0.585168 0.527276 0.365393
0.647211 0.562219 0.372992
0.699489 0.587915 0.382452
0.742855 0.606714 0.392981
0.779568 0.621118 0.403540
0.812100 0.632990 0.413275
0.842374 0.644129 0.422553
0.871489 0.655421 0.431495
0.900328 0.667781 0.440925
0.929473 0.682063 0.451392
0.954162 0.697414 0.467628
0.979553 0.715633 0.487098
1.000000 0.736141 0.509392
0.100282 0.453803 0.255375
0.104585 0.457527 0.257877
0.110109 0.461280 0.260563
0.121706 0.464546 0.262852
0.138643 0.466865 0.264775
0.158724 0.467933 0.266392
0.182071 0.467933 0.267735
0.189425 0.464363 0.258610
0.197116 0.460731 0.248631
0.205112 0.456764 0.237919
0.213474 0.452857 0.227146
0.222019 0.448554 0.216312
0.230503 0.443214 0.205539
0.277317 0.449409 0.218936
0.329564 0.458625 0.238315
0.378790 0.467323 0.259709
0.424659 0.475715 0.282963
0.466560 0.484291 0.307988
0.504479 0.493446 0.335210
0.552178 0.518029 0.375982
0.609796 0.554894 0.402014
0.668513 0.589044 0.413001
0.717189 0.613947 0.424903
0.757717 0.632532 0.437140
0.792599 0.647272 0.448890
0.824643 0.660365 0.459632
0.855192 0.673182 0.470100
0.885130 0.686763 0.481086
0.915343 0.701839 0.492653
0.945983 0.718685 0.505028
0.975097 0.736599 0.519554
1.000000 0.755673 0.539330
0.099031 0.491768 0.281010
0.103761 0.495338 0.283757
0.110323 0.498726 0.286290
0.122988 0.501762 0.288792
0.141024 0.503807 0.290776
0.162325 0.504540 0.292027
0.186496 0.504326 0.293278
0.199832 0.501854 0.287755
0.207462 0.498421 0.277836
0.215610 0.494636 0.266972
0.224277 0.490944 0.255924
0.233005 0.486793 0.244480
0.241672 0.481758 0.232883
0.257328 0.477424 0.226566
0.313817 0.486061 0.245792
0.366522 0.494179 0.266880
0.415473 0.501915 0.289555
0.460639 0.509667 0.314122
0.501579 0.517937 0.340673
0.538537 0.527276 0.369482
0.583032 0.549828 0.410651
0.635218 0.583398 0.441932
0.689845 0.615991 0.455177
0.734768 0.639734 0.468605
0.772488 0.657771 0.481270
0.806332 0.673060 0.492988
0.838132 0.687373 0.504234
0.869169 0.701991 0.515831
0.900298 0.717800 0.527855
0.931914 0.735195 0.540368
0.963622 0.753841 0.553582
0.994476 0.773098 0.567773
0.101137 0.528862 0.308354
0.106966 0.532097 0.311070
0.114626 0.535393 0.313787
0.128054 0.538140 0.316197
0.146548 0.539940 0.318364
0.168887 0.540307 0.319615
0.193149 0.539849 0.320745
0.213474 0.538354 0.319036
0.220706 0.534966 0.308965
0.228489 0.531212 0.297917
0.237003 0.527581 0.286656
0.245609 0.523491 0.274907
0.254185 0.518730 0.262638
0.262760 0.513512 0.250614
0.295628 0.513664 0.254490
0.352972 0.521935 0.275975
0.406714 0.530297 0.299779
0.456825 0.538903 0.325994
0.502647 0.548150 0.354345
0.544121 0.558190 0.384985
0.580743 0.568872 0.417060
0.622583 0.590326 0.460395
0.668818 0.620356 0.495552
0.718379 0.650813 0.511040
0.759304 0.673426 0.525566
0.795285 0.691890 0.538689
0.828824 0.708614 0.550958
0.861357 0.725032 0.562676
0.893828 0.742214 0.574609
0.926604 0.760555 0.586786
0.959197 0.779721 0.599390
0.990875 0.799039 0.612573
0.117128 0.577325 0.348516
0.122866 0.578698 0.349889
0.129519 0.579828 0.351080
0.142641 0.580499 0.352117
0.160800 0.580774 0.353063
0.182773 0.580285 0.353826
0.207248 0.579583 0.354894
0.234348 0.578820 0.356817
0.242100 0.576196 0.347631
0.249973 0.573602 0.337621
0.258701 0.570916 0.327031
0.267674 0.567620 0.315618
0.276524 0.563745 0.303593
0.285069 0.559045 0.290990
0.293584 0.553765 0.278477
0.344640 0.557549 0.294224
0.402441 0.564569 0.318151
0.455665 0.571771 0.344121
0.503685 0.579187 0.371832
0.546532 0.587060 0.401221
0.584161 0.595392 0.431464
0.616999 0.604273 0.462257
0.653376 0.622004 0.501823
0.692531 0.646998 0.535882
0.737362 0.674769 0.550195
0.775784 0.696559 0.563867
0.811276 0.715785 0.576837
0.845274 0.734127 0.589380
0.878965 0.752712 0.601770
0.912840 0.772030 0.614038
0.946746 0.792172 0.626459
0.979858 0.812406 0.639185
0.135744 0.610864 0.379095
0.141268 0.612177 0.380529
0.148043 0.613275 0.381842
0.160891 0.613916 0.383093
0.178378 0.614008 0.384131
0.199222 0.613275 0.384619
0.222904 0.612238 0.385565
0.248905 0.611017 0.387060
0.263523 0.609003 0.381994
0.270878 0.606500 0.372412
0.279026 0.603998 0.362219
0.287663 0.601160 0.351263
0.296330 0.597803 0.339788
0.305028 0.593927 0.327550
0.313695 0.589685 0.315404
0.328679 0.585657 0.308049
0.391241 0.592187 0.332403
0.448066 0.598657 0.358648
0.499275 0.605402 0.386511
0.544823 0.612573 0.415991
0.585138 0.620233 0.446357
0.620325 0.628412 0.476753
0.650752 0.637018 0.506920
0.683314 0.652735 0.543877
0.711635 0.668513 0.568750
0.753506 0.695033 0.582757
0.791196 0.717403 0.596521
0.826780 0.737881 0.609796
0.861723 0.757992 0.622583
0.896880 0.778683 0.635187
0.932494 0.800320 0.647913
0.967498 0.822232 0.661067
0.173342 0.651484 0.420661
0.178775 0.652827 0.422370
0.185122 0.653468 0.423438
0.196048 0.653498 0.424231
0.211337 0.652796 0.424598
0.230014 0.651514 0.424750
0.251743 0.649775 0.425086
0.276249 0.647669 0.425818
0.296239 0.645167 0.423987
0.301762 0.642023 0.413977
0.307988 0.638666 0.403021
0.315099 0.635462 0.392004
0.322454 0.631922 0.380194
0.329931 0.627771 0.367712
0.337163 0.623041 0.354650
0.344366 0.618006 0.341466
0.376379 0.616266 0.345251
0.435584 0.621057 0.369970
0.489143 0.626642 0.396979
0.537377 0.633051 0.425940
0.580224 0.640192 0.456031
0.617639 0.647578 0.485908
0.649714 0.654841 0.514946
0.676600 0.661982 0.542107
0.704677 0.674708 0.573968
0.733486 0.692653 0.604852
0.773159 0.718441 0.618433
0.810117 0.741146 0.631281
0.846128 0.762905 0.643793
0.882322 0.784909 0.656245
0.919158 0.807828 0.668849
0.956023 0.831479 0.682185
0.204318 0.679072 0.450935
0.209567 0.680262 0.452735
0.215640 0.680964 0.453925
0.225498 0.680964 0.454688
0.239475 0.680232 0.455238
0.256931 0.679103 0.455695
0.277531 0.677577 0.456458
0.300877 0.675746 0.457679
0.326940 0.673884 0.459846
0.333227 0.671626 0.451759
0.339361 0.669215 0.442481
0.346532 0.666865 0.432990
0.354192 0.664271 0.422980
0.361791 0.661250 0.412116
0.369329 0.657771 0.400732
0.376837 0.653895 0.388983
0.384771 0.649989 0.377691
0.433783 0.651484 0.394903
0.489998 0.656031 0.421607
0.539879 0.661280 0.449836
0.584009 0.666987 0.478737
0.622431 0.673030 0.507347
0.655421 0.679133 0.534844
0.683467 0.685298 0.560632
0.707088 0.691432 0.584649
0.731685 0.702419 0.612512
0.756985 0.718227 0.641627
0.796048 0.744472 0.654688
0.833768 0.768887 0.667414
0.871427 0.792996 0.679957
0.909789 0.817838 0.692592
0.948486 0.843473 0.706050
0.245701 0.708095 0.485725
0.250431 0.708797 0.487037
0.255131 0.708980 0.487648
0.263340 0.708522 0.488045
0.275303 0.707454 0.488167
0.290684 0.706020 0.488411
0.309087 0.704311 0.489021
0.330663 0.702358 0.490181
0.355047 0.700435 0.492348
0.367803 0.698604 0.488777
0.373785 0.696712 0.480964
0.380591 0.695003 0.472938
0.388251 0.693111 0.464546
0.395789 0.690852 0.455360
0.403113 0.688075 0.445472
0.410468 0.685023 0.435157
0.418036 0.681788 0.424872
0.430640 0.678706 0.419104
0.488899 0.682033 0.444770
0.540185 0.686061 0.471809
0.585382 0.690639 0.499367
0.624811 0.695583 0.526452
0.658747 0.700832 0.552483
0.687800 0.706203 0.576898
0.712520 0.711604 0.599664
0.733547 0.717098 0.620935
0.755856 0.727108 0.645411
0.779019 0.741634 0.672480
0.817838 0.768490 0.684779
0.856870 0.794980 0.697566
0.896666 0.821897 0.710536
0.936919 0.849577 0.724331
0.287358 0.732967 0.517723
0.291142 0.733303 0.518639
0.295323 0.733455 0.519310
0.303044 0.733089 0.519890
0.314611 0.732509 0.520836
0.329931 0.731838 0.522271
0.349371 0.731411 0.524956
0.372259 0.731075 0.528740
0.398260 0.730861 0.533867
0.420203 0.730861 0.537133
0.428962 0.731106 0.533562
0.438422 0.731258 0.529564
0.447791 0.731136 0.525048
0.456886 0.730526 0.519554
0.465431 0.729335 0.513359
0.473182 0.727443 0.505943
0.480995 0.725307 0.498573
0.489418 0.723323 0.491798
0.517021 0.722774 0.498970
0.566827 0.725429 0.523613
0.610315 0.728725 0.548241
0.648127 0.732540 0.572107
0.680781 0.736690 0.594659
0.709133 0.741176 0.616144
0.733608 0.745846 0.636042
0.754849 0.750759 0.654536
0.773434 0.755978 0.671839
0.793606 0.765194 0.691676
0.815244 0.778927 0.715938
0.854398 0.807218 0.727169
0.895811 0.837034 0.740322
0.937011 0.866728 0.754116
0.357977 0.767269 0.567163
0.361028 0.767422 0.567864
0.364111 0.767239 0.568109
0.370092 0.766598 0.568414
0.379339 0.765682 0.568902
0.391852 0.764523 0.569848
0.407568 0.763394 0.571649
0.426276 0.762234 0.574273
0.447639 0.761135 0.577996
0.471107 0.760037 0.582727
0.477729 0.759426 0.578759
0.484565 0.758877 0.574334
0.491676 0.758145 0.569482
0.498878 0.757198 0.564202
