data/fiter_cube/65184230/1022645/file.cube
# Created by Adobe Lightroom plugin Export LUT (1.17.0)
# www.johnrellis.com/lightroom/exportlut.htm
# Preset: ins网红旅拍风景人像_04 云集
# Color profile: C:\Program Files (x86)\Common Files\Adobe\Color\Profiles\Recommended\AdobeRGB1998.icc
LUT_3D_SIZE 32
DOMAIN_MIN 0.0 0.0 0.0
DOMAIN_MAX 1.0 1.0 1.0
0.135927 0.134798 0.138033
0.135927 0.134798 0.138033
0.135927 0.134798 0.138033
0.144472 0.133303 0.137942
0.158694 0.132448 0.137575
0.173739 0.132784 0.137057
0.190066 0.133730 0.136385
0.208347 0.133730 0.135622
0.229129 0.133333 0.134707
0.253025 0.133181 0.133455
0.281407 0.132357 0.131960
0.314733 0.132876 0.131014
0.353246 0.133364 0.129976
0.396277 0.133700 0.128237
0.442695 0.133730 0.125704
0.491676 0.133669 0.122438
0.541955 0.133455 0.118196
0.590356 0.133120 0.113649
0.639216 0.133028 0.107973
0.685695 0.132967 0.101961
0.728695 0.133425 0.095644
0.768521 0.134340 0.088899
0.805966 0.135866 0.081361
0.842008 0.137575 0.072847
0.877073 0.139559 0.062470
0.911192 0.141848 0.043000
0.944518 0.145052 0.014313
0.977050 0.148806 0.000000
1.000000 0.152895 0.000000
1.000000 0.158083 0.000000
1.000000 0.163699 0.000000
1.000000 0.170108 0.000000
0.135927 0.134798 0.138033
0.135927 0.134798 0.138033
0.135927 0.134798 0.138033
0.143984 0.135622 0.137758
0.158083 0.136263 0.137301
0.173007 0.136812 0.136782
0.189334 0.137209 0.136141
0.207553 0.137240 0.135378
0.228305 0.136904 0.134432
0.252171 0.136995 0.133181
0.280186 0.136721 0.131868
0.313207 0.137423 0.131075
0.351446 0.138125 0.129915
0.394232 0.139101 0.128145
0.440406 0.139620 0.125612
0.489143 0.140291 0.122530
0.539208 0.140658 0.118349
0.587671 0.141085 0.113527
0.636347 0.141085 0.107942
0.682338 0.141634 0.102022
0.725216 0.142153 0.095583
0.765011 0.143099 0.088594
0.802548 0.144137 0.081422
0.838743 0.145632 0.072663
0.873930 0.147677 0.062196
0.908293 0.149844 0.042115
0.941924 0.152621 0.012207
0.974670 0.156100 0.000000
1.000000 0.159976 0.000000
1.000000 0.164614 0.000000
1.000000 0.169863 0.000000
1.000000 0.175998 0.000000
0.135927 0.134798 0.138033
0.135897 0.134981 0.138033
0.136233 0.135470 0.137972
0.143587 0.138582 0.137545
0.157351 0.141054 0.136934
0.172335 0.141756 0.136385
0.188632 0.141817 0.135775
0.206668 0.141726 0.135042
0.227390 0.141604 0.134096
0.251164 0.141573 0.132845
0.279057 0.142092 0.131807
0.311925 0.143404 0.131167
0.350072 0.144747 0.129946
0.392706 0.146151 0.128176
0.438758 0.147494 0.125612
0.487495 0.148592 0.122316
0.537438 0.149813 0.118257
0.585931 0.150820 0.113405
0.634730 0.151156 0.107790
0.680415 0.152132 0.101686
0.723293 0.152895 0.095186
0.763119 0.153719 0.088197
0.800717 0.155032 0.080659
0.836942 0.156161 0.072175
0.872190 0.157931 0.061646
0.906645 0.159915 0.039673
0.940398 0.162570 0.009644
0.973327 0.165652 0.000000
1.000000 0.169100 0.000000
1.000000 0.173312 0.000000
1.000000 0.178103 0.000000
1.000000 0.183627 0.000000
0.134463 0.144900 0.137240
0.134401 0.145418 0.137209
0.137026 0.145693 0.137118
0.144900 0.145968 0.136873
0.156283 0.146700 0.136477
0.170932 0.151217 0.135592
0.187228 0.151308 0.134981
0.205447 0.151064 0.134249
0.226078 0.151186 0.133272
0.249912 0.151644 0.132326
0.277562 0.153201 0.131930
0.310338 0.155276 0.131197
0.348211 0.157748 0.130068
0.390539 0.160342 0.128237
0.436561 0.162783 0.125551
0.485054 0.165347 0.122133
0.534966 0.167514 0.117800
0.584222 0.169528 0.112673
0.632319 0.171084 0.106996
0.677302 0.172274 0.100771
0.719905 0.173373 0.094301
0.759640 0.174258 0.087282
0.797513 0.175570 0.079225
0.834134 0.176699 0.070466
0.870085 0.178256 0.059174
0.905211 0.180117 0.033570
0.939483 0.182132 0.002960
0.972747 0.184970 0.000000
1.000000 0.187930 0.000000
1.000000 0.191440 0.000000
1.000000 0.195499 0.000000
1.000000 0.200168 0.000000
0.131868 0.159152 0.137484
0.131807 0.159457 0.137453
0.133516 0.160037 0.135866
0.142031 0.160067 0.135622
0.155764 0.159792 0.135256
0.169497 0.156680 0.135103
0.185428 0.161135 0.134096
0.203128 0.165164 0.133120
0.223789 0.165438 0.132815
0.247318 0.166995 0.132815
0.274937 0.169039 0.132357
0.307500 0.172030 0.131563
0.345190 0.175662 0.129976
0.387427 0.179599 0.128145
0.433356 0.183841 0.125429
0.482063 0.188052 0.121767
0.532341 0.191562 0.117159
0.583124 0.195041 0.111269
0.630762 0.197421 0.105440
0.675410 0.199344 0.099031
0.717708 0.200839 0.092164
0.757382 0.202060 0.084627
0.795193 0.203220 0.076600
0.831998 0.204349 0.066865
0.868101 0.205509 0.052216
0.903471 0.207034 0.023468
0.937865 0.208804 0.000000
0.971252 0.210727 0.000000
1.000000 0.213413 0.000000
1.000000 0.216281 0.000000
1.000000 0.219303 0.000000
1.000000 0.223087 0.000000
0.128389 0.174502 0.138979
0.128328 0.174777 0.138949
0.128756 0.175479 0.136202
0.135897 0.175753 0.134127
0.149844 0.175570 0.134249
0.168154 0.174899 0.134279
0.183566 0.169955 0.134951
0.201358 0.174014 0.134463
0.221256 0.180728 0.134005
0.244663 0.185397 0.133272
0.272343 0.188266 0.132692
0.304997 0.192203 0.131777
0.342504 0.197177 0.130312
0.384771 0.202792 0.128237
0.430762 0.208560 0.125063
0.479591 0.214298 0.121065
0.530022 0.219455 0.115877
0.582208 0.224735 0.109438
0.629480 0.228183 0.103059
0.674189 0.230777 0.096254
0.716609 0.232578 0.088960
0.756527 0.233799 0.080903
0.813718 0.239597 0.067964
0.849851 0.240513 0.055543
0.884886 0.241245 0.031434
0.918761 0.242374 0.002228
0.951568 0.243442 0.000000
0.983307 0.244633 0.000000
1.000000 0.246433 0.000000
1.000000 0.248417 0.000000
1.000000 0.250645 0.000000
1.000000 0.253330 0.000000
0.123415 0.192630 0.141573
0.123445 0.192996 0.141054
0.123903 0.193637 0.138369
0.129763 0.194430 0.135103
0.144411 0.194400 0.135073
0.162203 0.194064 0.135256
0.183688 0.193484 0.135225
0.202060 0.189059 0.136049
0.221439 0.190555 0.135683
0.244938 0.199374 0.134920
0.272313 0.210575 0.133516
0.305638 0.217014 0.132113
0.343847 0.223453 0.130282
0.386633 0.230533 0.127565
0.432807 0.237827 0.123934
0.481483 0.244968 0.119265
0.534325 0.252598 0.113039
0.586297 0.258915 0.105898
0.633570 0.263157 0.098817
0.678859 0.266361 0.091066
0.722286 0.268956 0.082704
0.763699 0.270848 0.073732
0.803464 0.272496 0.063294
0.842039 0.273777 0.043458
0.879240 0.275029 0.015045
0.914519 0.275944 0.000000
0.948119 0.276951 0.000000
0.980316 0.277836 0.000000
1.000000 0.278874 0.000000
1.000000 0.280217 0.000000
1.000000 0.281743 0.000000
1.000000 0.283452 0.000000
0.117006 0.211917 0.145327
0.117281 0.212345 0.143709
0.117739 0.213016 0.141054
0.123232 0.214023 0.137545
0.136690 0.214511 0.135775
0.155520 0.214359 0.135958
0.176516 0.214115 0.136141
0.200534 0.213870 0.136233
0.223362 0.211490 0.136904
0.242771 0.209171 0.137270
0.270298 0.220218 0.135683
0.302434 0.234226 0.133669
0.339635 0.249424 0.130709
0.382300 0.258061 0.127474
0.428473 0.266880 0.123354
0.478584 0.276219 0.117647
0.531945 0.285679 0.110597
0.582971 0.293065 0.102724
0.629786 0.297978 0.094881
0.674861 0.301610 0.086549
0.718227 0.304479 0.077455
0.759548 0.306615 0.066773
0.799344 0.308293 0.052064
0.837919 0.309514 0.024323
0.875212 0.310613 0.000000
0.910735 0.311498 0.000000
0.944610 0.312108 0.000000
0.977142 0.312657 0.000000
1.000000 0.313298 0.000000
1.000000 0.314000 0.000000
1.000000 0.314916 0.000000
1.000000 0.315740 0.000000
0.108156 0.234501 0.148898
0.108400 0.235111 0.147280
0.109346 0.235752 0.144991
0.115694 0.236698 0.142061
0.125917 0.238102 0.136721
0.146944 0.238071 0.136843
0.169619 0.238285 0.136934
0.193912 0.238376 0.137026
0.221103 0.238285 0.137209
0.246983 0.236881 0.137484
0.268406 0.231571 0.138277
0.300999 0.245579 0.135164
0.337774 0.262455 0.132540
0.379034 0.281926 0.127871
0.425788 0.298558 0.122164
0.477119 0.310124 0.115358
0.529534 0.320562 0.107210
0.580011 0.328862 0.098543
0.626581 0.334264 0.089967
0.671534 0.338445 0.080415
0.714900 0.341772 0.069581
0.756252 0.343969 0.055909
0.795987 0.345647 0.029267
0.834562 0.346929 0.000000
0.871916 0.347997 0.000000
0.907622 0.348363 0.000000
0.941711 0.348821 0.000000
0.974426 0.349004 0.000000
1.000000 0.349218 0.000000
1.000000 0.349401 0.000000
1.000000 0.349615 0.000000
1.000000 0.349859 0.000000
0.094697 0.261357 0.153445
0.095216 0.261936 0.152010
0.098573 0.262364 0.150546
0.104829 0.263493 0.147402
0.114778 0.265263 0.141299
0.134463 0.266300 0.137057
0.160433 0.266636 0.137087
0.187228 0.267063 0.136904
0.215427 0.267552 0.136965
0.245975 0.268040 0.136568
0.275578 0.267430 0.136660
0.298100 0.259495 0.138003
0.335882 0.274998 0.133761
0.378820 0.295689 0.129244
0.425605 0.318578 0.122560
0.475044 0.342962 0.113039
0.527306 0.357336 0.103182
0.577844 0.366522 0.092805
0.624475 0.372595 0.082856
0.669245 0.377050 0.071412
0.712276 0.380377 0.058625
0.752987 0.382452 0.029908
0.792142 0.383825 0.000000
0.830228 0.384833 0.000000
0.867399 0.385565 0.000000
0.903227 0.385931 0.000000
0.937743 0.386145 0.000000
0.971008 0.386145 0.000000
1.000000 0.386023 0.000000
1.000000 0.385870 0.000000
1.000000 0.385718 0.000000
1.000000 0.385321 0.000000
0.073701 0.292729 0.160098
0.076356 0.293156 0.159182
0.080171 0.293858 0.157595
0.087465 0.295171 0.153719
0.098817 0.297185 0.147372
0.113985 0.299657 0.136690
0.146456 0.300359 0.135897
0.178073 0.301274 0.135683
0.209384 0.302220 0.135409
0.242161 0.303319 0.134951
0.276463 0.304326 0.134310
0.311315 0.305608 0.133547
0.334813 0.296147 0.135866
0.378759 0.311406 0.130159
0.425299 0.334020 0.122713
0.474067 0.357824 0.113924
0.524346 0.382452 0.101686
0.573205 0.404242 0.086427
0.619989 0.410864 0.074495
0.664942 0.415778 0.060426
0.708125 0.419348 0.030793
0.749081 0.421515 0.000000
0.788510 0.422980 0.000000
0.826719 0.423926 0.000000
0.864042 0.424537 0.000000
0.899992 0.424659 0.000000
0.934600 0.424506 0.000000
0.967987 0.424231 0.000000
1.000000 0.423774 0.000000
1.000000 0.423194 0.000000
1.000000 0.422461 0.000000
1.000000 0.421515 0.000000
0.004334 0.330175 0.168978
0.012726 0.330663 0.167819
0.023011 0.331365 0.165927
0.048432 0.332830 0.161959
0.070680 0.334997 0.154910
0.090394 0.337774 0.143374
0.122530 0.340032 0.133303
0.163455 0.341100 0.132906
0.200839 0.342321 0.132235
0.237064 0.344610 0.131472
0.275669 0.347295 0.130434
0.315251 0.349981 0.128878
0.366369 0.363653 0.125063
0.393103 0.352697 0.127932
0.440345 0.363561 0.121614
0.491341 0.388067 0.108675
0.541527 0.412085 0.096101
0.588708 0.433814 0.080385
0.632441 0.453223 0.059388
0.675624 0.465614 0.012421
0.717403 0.467872 0.000000
0.757076 0.468879 0.000000
0.795285 0.469062 0.000000
0.832639 0.469093 0.000000
0.869108 0.468788 0.000000
0.904326 0.468177 0.000000
0.938262 0.467231 0.000000
0.970947 0.466163 0.000000
1.000000 0.464881 0.000000
1.000000 0.463416 0.000000
1.000000 0.461891 0.000000
1.000000 0.460121 0.000000
0.000000 0.377111 0.180179
0.000000 0.377600 0.178866
0.000000 0.378119 0.176761
0.000000 0.379217 0.172213
0.000000 0.381079 0.164370
0.017090 0.383581 0.151583
0.076783 0.386999 0.131014
0.138064 0.389471 0.127352
0.187167 0.392248 0.126192
0.231357 0.395636 0.124666
0.273869 0.399664 0.122957
0.319219 0.403754 0.120424
0.364935 0.407874 0.117647
0.410651 0.411719 0.114199
0.444892 0.405005 0.115267
0.486488 0.404547 0.112032
0.537835 0.428809 0.095186
0.585077 0.450019 0.078706
0.628687 0.468849 0.059754
0.671046 0.487037 0.004913
0.711391 0.504204 0.000000
0.751003 0.509117 0.000000
0.789425 0.509239 0.000000
0.826993 0.508995 0.000000
0.863676 0.508537 0.000000
0.899199 0.507683 0.000000
0.933471 0.506584 0.000000
0.966491 0.505180 0.000000
0.998291 0.503532 0.000000
1.000000 0.501793 0.000000
1.000000 0.499886 0.000000
1.000000 0.497627 0.000000
0.000000 0.425513 0.192447
0.000000 0.426093 0.190860
0.000000 0.426734 0.188754
0.000000 0.428229 0.183963
0.000000 0.430426 0.175509
0.000000 0.433387 0.161959
0.000000 0.437263 0.140322
0.085359 0.440681 0.118929
0.161318 0.442817 0.117586
0.216281 0.445838 0.115419
0.265324 0.449470 0.113039
0.312078 0.453651 0.110170
0.361791 0.457496 0.106416
0.410437 0.460945 0.101839
0.458320 0.463722 0.097017
0.498604 0.459785 0.095735
0.532525 0.447517 0.098543
0.580713 0.467323 0.078950
0.624994 0.485786 0.052979
0.667292 0.503349 0.002258
0.707851 0.519982 0.000000
0.746395 0.535698 0.000000
0.783688 0.550103 0.000000
0.821622 0.549828 0.000000
0.858671 0.549187 0.000000
0.894560 0.548119 0.000000
0.929198 0.546715 0.000000
0.962585 0.545037 0.000000
0.994720 0.543145 0.000000
1.000000 0.541100 0.000000
1.000000 0.538689 0.000000
1.000000 0.535943 0.000000
0.000000 0.479652 0.206424
0.000000 0.480232 0.204837
0.000000 0.480598 0.202548
0.000000 0.481758 0.197208
0.000000 0.483436 0.188144
0.000000 0.485878 0.173922
0.000000 0.489143 0.152041
0.000000 0.493202 0.113802
0.113405 0.495460 0.104891
0.191104 0.498024 0.102144
0.249943 0.501244 0.099031
0.302800 0.504997 0.095247
0.353155 0.508659 0.090700
0.405585 0.511620 0.084779
0.456001 0.513603 0.078553
0.504601 0.514580 0.071443
0.546532 0.510124 0.068696
0.575311 0.492470 0.079377
0.620874 0.504204 0.057740
0.664149 0.521355 0.000000
0.704524 0.537194 0.000000
0.743130 0.552148 0.000000
0.780331 0.566674 0.000000
0.816892 0.581262 0.000000
0.853361 0.590234 0.000000
0.889799 0.589166 0.000000
0.925139 0.587671 0.000000
0.959228 0.585992 0.000000
0.992065 0.583948 0.000000
1.000000 0.581659 0.000000
1.000000 0.579004 0.000000
1.000000 0.575708 0.000000
0.000000 0.533562 0.220768
0.000000 0.534203 0.219089
0.000000 0.534752 0.216739
0.000000 0.535912 0.211307
0.000000 0.537560 0.201999
0.000000 0.539971 0.187381
0.000000 0.543114 0.165286
0.000000 0.547021 0.129183
0.000000 0.550317 0.086885
0.148867 0.551995 0.083528
0.225895 0.553857 0.079988
0.286687 0.555932 0.075502
0.340856 0.557824 0.070192
0.393072 0.559289 0.063172
0.445869 0.559899 0.052308
0.496284 0.560052 0.032227
0.544915 0.559625 0.010925
0.588281 0.555291 0.001312
0.615167 0.535424 0.047730
0.660456 0.540917 0.000641
0.702144 0.556573 0.000000
0.741238 0.570947 0.000000
0.778714 0.584833 0.000000
0.815457 0.598779 0.000000
0.851591 0.612848 0.000000
0.886870 0.626764 0.000000
0.922087 0.630060 0.000000
0.956512 0.628046 0.000000
0.989563 0.625605 0.000000
1.000000 0.622797 0.000000
1.000000 0.619379 0.000000
1.000000 0.615503 0.000000
0.000000 0.582513 0.234257
0.000000 0.582818 0.232486
0.000000 0.583154 0.230137
0.000000 0.584131 0.224491
0.000000 0.585504 0.215213
0.000000 0.587457 0.201053
0.000000 0.590082 0.180087
0.000000 0.593317 0.146883
0.000000 0.597009 0.081605
0.053986 0.598383 0.061433
0.187930 0.599664 0.055024
0.261265 0.601038 0.042786
0.321843 0.602319 0.028443
0.376471 0.603326 0.012024
0.429725 0.603601 0.000000
0.482521 0.603052 0.000000
0.532952 0.602136 0.000000
0.581811 0.601129 0.000000
0.627008 0.597711 0.000000
0.653834 0.577813 0.000000
0.697871 0.576135 0.000000
0.737636 0.589929 0.000000
0.775662 0.603143 0.000000
0.812558 0.616449 0.000000
0.848936 0.629877 0.000000
0.884428 0.643275 0.000000
0.918975 0.656519 0.000000
0.952422 0.669490 0.000000
0.985901 0.667109 0.000000
1.000000 0.663935 0.000000
1.000000 0.660212 0.000000
1.000000 0.655726 0.000000
0.000000 0.627619 0.246769
0.000000 0.628229 0.245121
0.000000 0.640620 0.246067
0.000000 0.641260 0.240391
0.000000 0.642267 0.231022
0.000000 0.643580 0.216892
0.000000 0.645319 0.196536
0.000000 0.647486 0.165469
0.000000 0.650263 0.111971
0.000000 0.652338 0.000000
0.127687 0.652644 0.000000
0.229160 0.652949 0.000000
0.300175 0.653040 0.000000
0.360754 0.652918 0.000000
0.415320 0.652522 0.000000
0.469459 0.651423 0.000000
0.522545 0.649805 0.000000
0.573053 0.647944 0.000000
0.621881 0.645960 0.000000
0.668482 0.642878 0.000000
0.701228 0.627924 0.000000
0.738155 0.613886 0.000000
0.776242 0.626032 0.000000
0.813382 0.638178 0.000000
0.849149 0.650294 0.000000
0.884062 0.662501 0.000000
0.918029 0.674556 0.000000
0.951080 0.686549 0.000000
0.983062 0.698390 0.000000
1.000000 0.705501 0.000000
1.000000 0.701289 0.000000
1.000000 0.696193 0.000000
0.000000 0.672908 0.259129
0.000000 0.674647 0.258000
0.000000 0.676448 0.255863
0.000000 0.678431 0.251072
0.000000 0.680354 0.242374
0.000000 0.682063 0.229313
0.000000 0.683803 0.210269
0.000000 0.685725 0.182589
0.000000 0.688197 0.138552
0.000000 0.690883 0.000000
0.000000 0.691218 0.000000
0.180911 0.691188 0.000000
0.267399 0.691005 0.000000
0.334844 0.690547 0.000000
0.393561 0.689876 0.000000
0.447211 0.688869 0.000000
0.501640 0.687190 0.000000
0.554101 0.685267 0.000000
0.604486 0.683314 0.000000
0.653407 0.681422 0.000000
0.700954 0.679255 0.000000
0.740322 0.670405 0.000000
0.771786 0.651179 0.000000
0.809903 0.658259 0.000000
0.846555 0.669825 0.000000
0.881926 0.681422 0.000000
0.916167 0.692927 0.000000
0.949462 0.704402 0.000000
0.981628 0.715694 0.000000
1.000000 0.726589 0.000000
1.000000 0.736782 0.000000
1.000000 0.737179 0.000000
0.000000 0.710964 0.269291
0.000000 0.712459 0.267979
0.000000 0.714046 0.266148
0.000000 0.715724 0.261387
0.000000 0.717464 0.252995
0.000000 0.718959 0.240543
0.000000 0.720455 0.223087
0.000000 0.722194 0.197818
0.000000 0.724300 0.160220
0.000000 0.726680 0.090211
0.000000 0.728206 0.000000
0.103090 0.728054 0.000000
0.227207 0.727657 0.000000
0.304845 0.727108 0.000000
0.368994 0.726253 0.000000
0.426093 0.725154 0.000000
0.478828 0.723934 0.000000
0.533349 0.722011 0.000000
0.585534 0.720058 0.000000
0.635798 0.718227 0.000000
0.684627 0.716396 0.000000
0.732845 0.715114 0.000000
0.778561 0.712001 0.000000
0.805478 0.689174 0.000000
0.843626 0.690608 0.000000
0.879515 0.701442 0.000000
0.914183 0.712184 0.000000
0.947570 0.723018 0.000000
0.979858 0.733669 0.000000
1.000000 0.743984 0.000000
1.000000 0.753597 0.000000
1.000000 0.762234 0.000000
0.000000 0.747402 0.278599
0.000000 0.748745 0.277440
0.000000 0.750210 0.275547
0.000000 0.751705 0.270848
0.000000 0.753231 0.262913
0.000000 0.754574 0.251255
0.000000 0.755886 0.234775
0.000000 0.757412 0.211856
0.000000 0.759213 0.178714
0.000000 0.761318 0.125490
0.000000 0.763638 0.000000
0.000000 0.763455 0.000000
0.173678 0.762966 0.000000
0.269566 0.762356 0.000000
0.341253 0.761624 0.000000
0.402747 0.760800 0.000000
0.458656 0.759976 0.000000
0.511589 0.759182 0.000000
0.566369 0.757931 0.000000
0.618830 0.756741 0.000000
0.669581 0.755673 0.000000
0.719051 0.754604 0.000000
0.768154 0.753933 0.000000
0.818662 0.755123 0.000000
0.843595 0.730861 0.000000
0.881590 0.726680 0.000000
0.916625 0.736599 0.000000
0.950347 0.746456 0.000000
0.982483 0.756222 0.000000
1.000000 0.765591 0.000000
1.000000 0.774289 0.000000
1.000000 0.781888 0.000000
0.000000 0.787472 0.288670
0.000000 0.788205 0.287327
0.000000 0.788785 0.285283
0.000000 0.789609 0.280735
0.000000 0.790524 0.272862
0.000000 0.791470 0.261723
0.000000 0.792630 0.246128
0.000000 0.794034 0.224979
0.000000 0.795895 0.195285
0.000000 0.797971 0.150729
0.000000 0.800290 0.050294
0.000000 0.801297 0.000000
0.083009 0.800839 0.000000
0.228336 0.800229 0.000000
0.311315 0.799435 0.000000
0.378668 0.798520 0.000000
0.437995 0.797574 0.000000
0.492805 0.796628 0.000000
0.545861 0.795651 0.000000
0.600092 0.794186 0.000000
0.651972 0.792752 0.000000
0.702113 0.791287 0.000000
0.750912 0.789731 0.000000
0.799313 0.788693 0.000000
0.850309 0.790433 0.000000
0.876371 0.767971 0.000000
0.914000 0.758145 0.000000
0.948089 0.767391 0.000000
0.980713 0.776303 0.000000
1.000000 0.784909 0.000000
1.000000 0.792935 0.000000
1.000000 0.799924 0.000000
0.000000 0.822354 0.296696
0.000000 0.822995 0.295445
0.000000 0.823697 0.293523
0.000000 0.824430 0.288945
0.000000 0.825223 0.281621
0.000000 0.826047 0.270878
0.000000 0.827024 0.256321
0.000000 0.828183 0.236606
0.000000 0.829740 0.209598
0.000000 0.831540 0.171176
0.000000 0.833585 0.105653
0.000000 0.835477 0.000000
0.000000 0.834989 0.000000
0.173556 0.834409 0.000000
0.275792 0.833738 0.000000
0.350744 0.832944 0.000000
0.414466 0.832120 0.000000
0.471992 0.831327 0.000000
0.525536 0.830594 0.000000
0.579004 0.829618 0.000000
0.632563 0.828397 0.000000
0.684047 0.827085 0.000000
0.733944 0.825772 0.000000
0.782498 0.824338 0.000000
0.828000 0.820706 0.000000
0.879515 0.823239 0.000000
0.907408 0.803250 0.000000
0.944518 0.789212 0.000000
0.977600 0.796597 0.000000
1.000000 0.804501 0.000000
1.000000 0.811734 0.000000
1.000000 0.818173 0.000000
0.000000 0.860197 0.305272
0.000000 0.860899 0.304173
0.000000 0.861387 0.302129
0.000000 0.861875 0.297765
0.000000 0.862364 0.290471
0.000000 0.862882 0.280217
0.000000 0.863462 0.266209
0.000000 0.864225 0.247562
0.000000 0.865141 0.222660
0.000000 0.866331 0.188571
0.000000 0.867704 0.136629
0.000000 0.869139 0.000000
0.000000 0.869200 0.000000
0.080018 0.868223 0.000000
0.234287 0.867063 0.000000
0.319768 0.865843 0.000000
0.388525 0.864591 0.000000
0.449042 0.863462 0.000000
0.504662 0.862638 0.000000
0.557031 0.861967 0.000000
0.610590 0.861051 0.000000
0.663325 0.859892 0.000000
0.714015 0.858488 0.000000
0.763058 0.856809 0.000000
0.810544 0.854826 0.000000
0.857237 0.852934 0.000000
0.909056 0.856168 0.000000
0.941619 0.841184 0.000000
0.974640 0.823972 0.000000
1.000000 0.825559 0.000000
1.000000 0.831968 0.000000
1.000000 0.837461 0.000000
0.000000 0.892760 0.311742
0.000000 0.893400 0.310552
0.000000 0.893889 0.308629
0.000000 0.894316 0.304509
0.000000 0.894743 0.297490
0.000000 0.895232 0.287602
0.000000 0.895842 0.274418
0.000000 0.896605 0.256870
0.000000 0.897581 0.233921
0.000000 0.898772 0.203281
0.000000 0.900084 0.159701
0.000000 0.901518 0.081331
0.000000 0.902434 0.000000
0.000000 0.901640 0.000000
0.183719 0.900664 0.000000
0.286717 0.899565 0.000000
0.362432 0.898436 0.000000
0.426856 0.897398 0.000000
0.484932 0.896513 0.000000
0.539025 0.895781 0.000000
0.590204 0.895079 0.000000
0.643793 0.893889 0.000000
0.695491 0.892454 0.000000
0.745296 0.890806 0.000000
0.793484 0.888945 0.000000
0.840299 0.886809 0.000000
0.886046 0.884581 0.000000
0.938109 0.888457 0.000000
0.975280 0.878447 0.000000
1.000000 0.858610 0.004578
1.000000 0.854276 0.075807
1.000000 0.858885 0.102632
0.000000 0.925566 0.317754
0.000000 0.925994 0.316503
0.000000 0.926268 0.314672
0.000000 0.926543 0.310521
0.000000 0.926757 0.303777
0.000000 0.927062 0.294347
0.000000 0.927459 0.281651
0.000000 0.928038 0.265171
0.000000 0.928862 0.243717
0.000000 0.929900 0.215793
0.000000 0.931090 0.178073
0.000000 0.932403 0.121004
0.000000 0.933593 0.000000
0.000000 0.933165 0.000000
0.110140 0.932219 0.000000
0.249821 0.931090 0.000000
0.334447 0.929961 0.000000
0.403265 0.928832 0.000000
0.464027 0.927855 0.000000
0.519799 0.927031 0.000000
0.572259 0.926268 0.000000
0.622766 0.925383 0.000000
0.675441 0.923919 0.000000
0.725948 0.922301 0.000000
0.774655 0.920439 0.000000
0.821897 0.918364 0.000000
0.867857 0.916136 0.000000
0.912840 0.913787 0.000000
0.964050 0.917601 0.000000
1.000000 0.911925 0.010071
1.000000 0.890043 0.107301
1.000000 0.879881 0.140963
0.000000 0.956085 0.322515
0.000000 0.956390 0.321202
0.000000 0.956603 0.319432
0.000000 0.956878 0.315404
0.000000 0.957214 0.308934
0.000000 0.957794 0.299931
0.000000 0.958648 0.287968
0.000000 0.959808 0.272587
0.000000 0.961212 0.252750
0.000000 0.962799 0.227451
0.000000 0.964477 0.194614
0.000000 0.966155 0.149905
0.000000 0.967559 0.078370
0.000000 0.967956 0.000000
0.000000 0.967285 0.000000
0.214298 0.966308 0.000000
0.310277 0.965179 0.000000
0.383886 0.964050 0.000000
0.447364 0.962982 0.000000
0.504906 0.961944 0.000000
0.558434 0.960998 0.000000
0.609186 0.959960 0.009094
0.659205 0.958618 0.031189
0.710414 0.956786 0.050538
0.759579 0.954742 0.064912
0.807034 0.952575 0.074159
0.853147 0.950164 0.082704
0.898070 0.947631 0.091463
0.941955 0.945037 0.100771
0.991669 0.948241 0.111604
1.000000 0.946075 0.135775
1.000000 0.922087 0.178897
0.000000 0.989471 0.327306
0.000000 0.989654 0.326177
0.000000 0.989746 0.324407
0.000000 0.989837 0.320500
0.000000 0.990021 0.314153
0.000000 0.990295 0.305486
0.000000 0.990784 0.293919
0.000000 0.991424 0.279057
0.000000 0.992248 0.260441
0.000000 0.993225 0.237125
0.000000 0.994232 0.207706
0.000000 0.995178 0.170687
0.000000 0.995941 0.123354
0.000000 0.996246 0.059113
