data/fiter_cube/65184230/1022645/file.cube
# Created by Adobe Lightroom plugin Export LUT (1.17.0)
# www.johnrellis.com/lightroom/exportlut.htm
# Preset: ins网红旅拍风景人像_04 云集
# Color profile: C:\Program Files (x86)\Common Files\Adobe\Color\Profiles\Recommended\AdobeRGB1998.icc
LUT_3D_SIZE 5
DOMAIN_MIN 0.000000 0.000000 0.000000
DOMAIN_MAX 0.903226 0.903226 0.903226
0.135927 0.134798 0.138033
0.208347 0.133730 0.135622
0.442695 0.133730 0.125704
0.768521 0.134340 0.088899
1.000000 0.152895 0.000000
0.117006 0.211917 0.145327
0.200534 0.213870 0.136233
0.428473 0.266880 0.123354
0.759548 0.306615 0.066773
1.000000 0.313298 0.000000
0.000000 0.479652 0.206424
0.000000 0.493202 0.113802
0.456001 0.513603 0.078553
0.743130 0.552148 0.000000
0.992065 0.583948 0.000000
0.000000 0.787472 0.288670
0.000000 0.794034 0.224979
0.311315 0.799435 0.000000
0.702113 0.791287 0.000000
0.980713 0.776303 0.000000
0.000000 1.000000 0.329808
0.000000 1.000000 0.283391
0.000000 1.000000 0.099672
0.574853 1.000000 0.138430
0.900511 0.995850 0.188357
0.125582 0.132052 0.224491
0.208988 0.126864 0.229099
0.441077 0.000000 0.254917
0.762966 0.000000 0.219303
1.000000 0.000000 0.195407
0.098238 0.219486 0.234226
0.181216 0.215763 0.236728
0.435492 0.191348 0.232456
0.756130 0.176761 0.214786
1.000000 0.204135 0.193057
0.000000 0.480079 0.308171
0.000000 0.492775 0.288884
0.419867 0.508812 0.210239
0.734646 0.545373 0.206302
0.991485 0.552575 0.193271
0.000000 0.787381 0.381201
0.000000 0.793729 0.349157
0.234134 0.802976 0.204562
0.689815 0.792416 0.204044
0.979126 0.778408 0.211734
0.000000 1.000000 0.399756
0.000000 1.000000 0.366339
0.000000 1.000000 0.278019
0.579065 1.000000 0.305150
0.900938 0.996185 0.335882
0.000000 0.118257 0.526452
0.218631 0.092622 0.531762
0.480262 0.000000 0.545800
0.757687 0.000000 0.545281
1.000000 0.000000 0.504814
0.000000 0.255131 0.542107
0.000000 0.199466 0.547692
0.459266 0.125612 0.557000
0.753414 0.000000 0.541405
1.000000 0.000000 0.503716
0.000000 0.523705 0.563012
0.000000 0.521416 0.566705
0.341070 0.503380 0.571893
0.726162 0.503410 0.561273
0.984192 0.518578 0.550195
0.000000 0.788418 0.586999
0.000000 0.791348 0.578912
0.145937 0.800809 0.550469
0.672023 0.792416 0.559045
0.963348 0.803342 0.564385
0.000000 1.000000 0.582269
0.000000 1.000000 0.564080
0.000000 1.000000 0.499672
0.615167 1.000000 0.578241
0.902922 0.991791 0.586633
0.000000 0.091920 0.804440
0.141085 0.023529 0.806607
0.450355 0.000000 0.811246
0.725429 0.000000 0.815183
0.991669 0.000000 0.795041
0.000000 0.199588 0.810513
0.000000 0.184665 0.811185
0.407996 0.115816 0.813840
0.712886 0.000000 0.816190
0.988251 0.000000 0.793210
0.000000 0.500481 0.813626
0.000000 0.484749 0.815366
0.286107 0.451789 0.818814
0.682338 0.452094 0.816922
0.978393 0.461372 0.795193
0.000000 0.771847 0.823239
0.000000 0.769650 0.823484
0.000000 0.767544 0.825925
0.659480 0.771908 0.824765
0.956115 0.781552 0.814420
0.000000 1.000000 0.815305
0.000000 1.000000 0.809201
0.000000 1.000000 0.785794
0.564996 1.000000 0.769833
0.914305 0.986725 0.816953
0.000000 0.074586 1.000000
0.000000 0.000000 1.000000
0.396735 0.000000 1.000000
0.658381 0.000000 1.000000
0.915892 0.000000 1.000000
0.000000 0.188876 1.000000
0.000000 0.177401 1.000000
0.361730 0.130922 1.000000
0.646876 0.000000 1.000000
0.912505 0.000000 1.000000
0.000000 0.431952 1.000000
0.000000 0.416999 1.000000
0.298283 0.427924 1.000000
0.633722 0.431159 1.000000
0.909331 0.451270 1.000000
0.000000 0.698085 1.000000
0.000000 0.691798 1.000000
0.000000 0.683955 1.000000
0.660548 0.730007 0.998291
0.912963 0.744045 0.997803
0.000000 0.953887 1.000000
0.000000 0.953613 1.000000
0.000000 0.954894 1.000000
0.561120 0.961456 0.997772
0.936217 0.974456 0.992340
