data/fiter_cube/65184230/1022645/file.cube
# Created by Adobe Lightroom plugin Export LUT (1.17.0)
# www.johnrellis.com/lightroom/exportlut.htm
# Preset: ins网红旅拍风景人像_04 云集
# Color profile: C:\Program Files (x86)\Common Files\Adobe\Color\Profiles\Recommended\AdobeRGB1998.icc
LUT_3D_SIZE 8
DOMAIN_MIN 0.000000 0.000000 0.000000
DOMAIN_MAX 0.903226 0.903226 0.903226
0.135927 0.134798 0.138033
0.158694 0.132448 0.137575
0.229129 0.133333 0.134707
0.353246 0.133364 0.129976
0.541955 0.133455 0.118196
0.728695 0.133425 0.095644
0.877073 0.139559 0.062470
1.000000 0.152895 0.000000
0.131868 0.159152 0.137484
0.155764 0.159792 0.135256
0.223789 0.165438 0.132815
0.345190 0.175662 0.129976
0.532341 0.191562 0.117159
0.717708 0.200839 0.092164
0.868101 0.205509 0.052216
1.000000 0.213413 0.000000
0.108156 0.234501 0.148898
0.125917 0.238102 0.136721
0.221103 0.238285 0.137209
0.337774 0.262455 0.132540
0.529534 0.320562 0.107210
0.714900 0.341772 0.069581
0.871916 0.347997 0.000000
1.000000 0.349218 0.000000
0.000000 0.377111 0.180179
0.000000 0.381079 0.164370
0.187167 0.392248 0.126192
0.364935 0.407874 0.117647
0.537835 0.428809 0.095186
0.711391 0.504204 0.000000
0.863676 0.508537 0.000000
0.998291 0.503532 0.000000
0.000000 0.582513 0.234257
0.000000 0.585504 0.215213
0.000000 0.597009 0.081605
0.321843 0.602319 0.028443
0.532952 0.602136 0.000000
0.697871 0.576135 0.000000
0.848936 0.629877 0.000000
0.985901 0.667109 0.000000
0.000000 0.747402 0.278599
0.000000 0.753231 0.262913
0.000000 0.759213 0.178714
0.173678 0.762966 0.000000
0.458656 0.759976 0.000000
0.669581 0.755673 0.000000
0.843595 0.730861 0.000000
0.982483 0.756222 0.000000
0.000000 0.892760 0.311742
0.000000 0.894743 0.297490
0.000000 0.897581 0.233921
0.000000 0.902434 0.000000
0.362432 0.898436 0.000000
0.590204 0.895079 0.000000
0.793484 0.888945 0.000000
0.975280 0.878447 0.000000
0.000000 1.000000 0.329808
0.000000 1.000000 0.316960
0.000000 1.000000 0.265904
0.000000 1.000000 0.153231
0.251652 1.000000 0.107851
0.522881 1.000000 0.130831
0.719509 1.000000 0.160555
0.900511 0.995850 0.188357
0.131868 0.134310 0.165835
0.158816 0.129244 0.167025
0.225895 0.129183 0.167819
0.349493 0.097322 0.167453
0.537072 0.000000 0.158022
0.718318 0.000000 0.142947
0.867765 0.000000 0.123568
1.000000 0.022553 0.098451
0.123934 0.160922 0.168338
0.151278 0.160403 0.169375
0.221561 0.158114 0.169558
0.345129 0.153384 0.166445
0.532433 0.144686 0.156435
0.712581 0.140230 0.139986
0.861082 0.146273 0.119600
0.997192 0.161532 0.092500
0.104463 0.234348 0.178439
0.129152 0.237308 0.178836
0.213382 0.240146 0.168795
0.335180 0.263157 0.166781
0.524132 0.299748 0.150484
0.706935 0.314244 0.129091
0.860014 0.318486 0.105592
0.997986 0.322606 0.075990
0.000000 0.373754 0.214664
0.000000 0.378576 0.207492
0.153109 0.392920 0.158053
0.348608 0.399786 0.153079
0.520958 0.415930 0.137819
0.695308 0.486397 0.105592
0.850645 0.487922 0.072847
0.990478 0.486366 0.000000
0.000000 0.580499 0.272129
0.000000 0.582544 0.257816
0.000000 0.591943 0.183566
0.296117 0.596246 0.113405
0.518395 0.593988 0.098726
0.690120 0.570397 0.094362
0.842252 0.624445 0.001770
0.981323 0.656580 0.000000
0.000000 0.742824 0.310155
0.000000 0.744900 0.296727
0.000000 0.751156 0.234409
0.106111 0.758206 0.067628
0.444678 0.756710 0.045960
0.663294 0.753994 0.000000
0.840940 0.728511 0.043366
0.978943 0.753780 0.000000
0.000000 0.886503 0.337255
0.000000 0.886748 0.324559
0.000000 0.890532 0.272099
0.000000 0.897551 0.113985
0.347906 0.895811 0.066499
0.583124 0.892058 0.068849
0.787381 0.884855 0.073335
0.969757 0.873533 0.100374
0.000000 1.000000 0.351293
0.000000 1.000000 0.339849
0.000000 1.000000 0.294804
0.000000 1.000000 0.205112
0.252384 1.000000 0.184512
0.523217 1.000000 0.196170
0.718166 1.000000 0.212985
0.898802 0.994507 0.232456
0.120668 0.130770 0.252537
0.151797 0.128237 0.254337
0.233127 0.123720 0.258640
0.354772 0.092988 0.275517
0.547204 0.000000 0.299107
0.726833 0.000000 0.288182
0.878660 0.000000 0.247929
1.000000 0.000000 0.235660
0.106538 0.163760 0.257633
0.132967 0.157259 0.259678
0.225895 0.151522 0.261906
0.350347 0.131167 0.273686
0.542779 0.000000 0.290623
0.722805 0.000000 0.273289
0.873350 0.000000 0.245579
1.000000 0.000000 0.233860
0.071839 0.247776 0.265599
0.105623 0.247837 0.267552
0.192508 0.242161 0.269444
0.340673 0.232364 0.269535
0.540154 0.207584 0.264561
0.718593 0.202670 0.255619
0.868101 0.212558 0.245060
1.000000 0.231266 0.233707
0.000000 0.382483 0.302007
0.000000 0.388312 0.303349
0.113283 0.401068 0.296147
0.316747 0.410620 0.259251
0.528527 0.426032 0.260441
0.705165 0.451179 0.256779
0.859220 0.448280 0.246952
0.996155 0.447364 0.237247
0.000000 0.583368 0.364569
0.000000 0.587030 0.360510
0.000000 0.597253 0.336675
0.189731 0.609583 0.247288
0.499275 0.605280 0.242252
0.696498 0.580102 0.239994
0.843961 0.629267 0.250187
0.984009 0.636957 0.246708
0.000000 0.744808 0.397223
0.000000 0.746975 0.390967
0.000000 0.752560 0.360998
0.000000 0.760311 0.281041
0.407599 0.759518 0.242222
0.648524 0.755032 0.244175
0.840208 0.728786 0.253178
0.978454 0.758938 0.262699
0.000000 0.889189 0.416938
0.000000 0.889799 0.408789
0.000000 0.892424 0.375555
0.000000 0.897368 0.306554
0.314672 0.897215 0.262455
0.573053 0.893492 0.268193
0.783841 0.887877 0.277348
0.969970 0.875639 0.293889
0.000000 1.000000 0.419989
0.000000 1.000000 0.410254
0.000000 1.000000 0.377356
0.000000 1.000000 0.322118
0.262303 1.000000 0.329625
0.529320 1.000000 0.339117
0.720516 1.000000 0.352453
0.899718 0.994751 0.367926
0.068238 0.124910 0.419074
0.133913 0.120882 0.422705
0.251255 0.101503 0.428748
0.384344 0.000000 0.436378
0.550286 0.000000 0.458717
0.721004 0.000000 0.463386
0.870054 0.000000 0.444190
1.000000 0.000000 0.414984
0.000000 0.156863 0.431006
0.059022 0.152865 0.432471
0.232242 0.135622 0.435828
0.379736 0.084627 0.441627
0.549096 0.000000 0.459052
0.718807 0.000000 0.459663
0.867826 0.000000 0.440009
1.000000 0.000000 0.412177
0.000000 0.283146 0.439155
0.000000 0.276280 0.441749
0.108949 0.237369 0.448066
0.349798 0.206424 0.454810
0.543908 0.174746 0.460822
0.718776 0.129000 0.456306
0.871580 0.087221 0.441840
1.000000 0.105715 0.428595
0.000000 0.425971 0.458961
0.000000 0.425879 0.460639
0.000000 0.423255 0.465736
0.267887 0.409308 0.469490
0.519768 0.395636 0.464088
0.701015 0.394873 0.461372
0.856046 0.405890 0.456062
0.994324 0.416052 0.444739
0.000000 0.592462 0.493629
0.000000 0.594293 0.493050
0.000000 0.602228 0.490883
0.152377 0.612909 0.482185
0.463905 0.609796 0.460273
0.689357 0.600671 0.460670
0.840146 0.624964 0.473426
0.981720 0.620508 0.462745
0.000000 0.751522 0.518029
0.000000 0.756039 0.517144
0.000000 0.759884 0.504479
0.000000 0.765927 0.478798
0.387549 0.765866 0.456825
0.636896 0.759701 0.460548
0.837064 0.736446 0.461830
0.970947 0.777157 0.479042
0.000000 0.891234 0.527367
0.000000 0.892790 0.522911
0.000000 0.896941 0.504814
0.000000 0.902129 0.469398
0.311772 0.901366 0.455726
0.582300 0.895598 0.471321
0.782376 0.889342 0.475776
0.963775 0.874388 0.483436
0.000000 1.000000 0.524254
0.000000 1.000000 0.517845
0.000000 1.000000 0.492226
0.000000 1.000000 0.448798
0.234012 1.000000 0.457130
0.557183 1.000000 0.505608
0.734463 1.000000 0.512963
0.902678 0.993896 0.521630
0.000000 0.111147 0.619837
0.022004 0.103090 0.621546
0.246067 0.057282 0.624414
0.401709 0.000000 0.630274
0.562158 0.000000 0.637812
0.717525 0.000000 0.632868
0.865446 0.000000 0.616419
1.000000 0.000000 0.590600
0.000000 0.147982 0.625666
0.000000 0.141756 0.627619
0.212650 0.113344 0.629572
0.388525 0.000000 0.634058
0.556542 0.000000 0.639734
0.716732 0.000000 0.633997
0.865049 0.000000 0.615808
1.000000 0.000000 0.589624
0.000000 0.288121 0.633021
0.000000 0.275364 0.635676
0.000000 0.220035 0.639979
0.327825 0.191318 0.642054
0.533013 0.135775 0.644404
0.709621 0.021057 0.635523
0.860288 0.000000 0.613642
0.996460 0.000000 0.587884
0.000000 0.449012 0.640589
0.000000 0.444160 0.641535
0.000000 0.425299 0.645686
0.193484 0.387030 0.650721
0.486397 0.366918 0.651881
0.698329 0.367620 0.643946
0.851743 0.381323 0.621698
0.990539 0.376318 0.599207
0.000000 0.605127 0.649104
0.000000 0.604822 0.650263
0.000000 0.602106 0.652857
0.000000 0.596002 0.655940
0.437720 0.588403 0.654841
0.672267 0.586450 0.646815
0.832303 0.593896 0.642420
0.974487 0.601984 0.635218
0.000000 0.749844 0.652430
0.000000 0.751278 0.652430
0.000000 0.754513 0.650599
0.000000 0.759152 0.646235
0.362249 0.758450 0.636500
0.630579 0.751705 0.642206
0.824949 0.752895 0.639124
0.961547 0.780880 0.649348
0.000000 0.891691 0.655940
0.000000 0.892271 0.653529
0.000000 0.895048 0.644556
0.000000 0.899504 0.627253
0.254276 0.900267 0.607813
0.592157 0.891447 0.633753
0.780240 0.886198 0.637446
0.957000 0.868711 0.635615
0.000000 1.000000 0.644923
0.000000 1.000000 0.640742
0.000000 1.000000 0.624964
0.000000 1.000000 0.594598
0.000000 1.000000 0.565759
0.567163 1.000000 0.632807
0.749660 0.998932 0.649866
0.905241 0.990906 0.653407
0.000000 0.095827 0.773251
0.000000 0.085328 0.773800
0.209140 0.000000 0.775296
0.379370 0.000000 0.778653
0.536828 0.000000 0.781125
0.695552 0.000000 0.783597
0.860685 0.000000 0.784634
0.995178 0.000000 0.756130
0.000000 0.136538 0.773129
0.000000 0.129549 0.773648
0.165255 0.098817 0.775113
0.361486 0.000000 0.777493
0.526970 0.000000 0.780087
0.690272 0.000000 0.782956
0.858854 0.000000 0.784421
0.993988 0.000000 0.755276
0.000000 0.254826 0.781857
0.000000 0.236240 0.782284
0.000000 0.212924 0.782864
0.294804 0.187045 0.784085
0.497749 0.141909 0.785183
0.677699 0.017670 0.786740
0.856535 0.000000 0.787655
0.991882 0.000000 0.755520
0.000000 0.430335 0.784848
0.000000 0.423377 0.784970
0.000000 0.399939 0.787350
0.139803 0.365606 0.792630
0.456245 0.360967 0.793790
0.661219 0.357946 0.793698
0.851957 0.358007 0.793698
0.987427 0.371405 0.760067
0.000000 0.587396 0.785733
0.000000 0.584802 0.786496
0.000000 0.575433 0.788693
0.000000 0.562219 0.791714
0.418891 0.558556 0.792233
0.641993 0.563348 0.791257
0.836728 0.562646 0.789883
0.976654 0.564782 0.761349
0.000000 0.738796 0.788998
0.000000 0.739223 0.790372
0.000000 0.737942 0.792020
0.000000 0.735836 0.793851
0.355871 0.735195 0.794034
0.619776 0.738155 0.793484
0.818662 0.740627 0.787930
0.960754 0.751125 0.785000
0.000000 0.896513 0.801175
0.000000 0.897978 0.801480
0.000000 0.900298 0.799893
0.000000 0.902770 0.795193
0.236790 0.901061 0.786191
0.569940 0.893950 0.776486
0.787198 0.883787 0.785367
0.951202 0.884245 0.779965
0.000000 1.000000 0.780056
0.000000 1.000000 0.777737
0.000000 1.000000 0.769223
0.000000 1.000000 0.753262
0.000000 1.000000 0.732601
0.495033 1.000000 0.728756
0.774258 0.994079 0.784024
0.912139 0.987884 0.785397
0.000000 0.079316 0.900267
0.000000 0.066163 0.901305
0.156741 0.000000 0.901915
0.348272 0.000000 0.903380
0.506279 0.000000 0.904448
0.659724 0.000000 0.905455
0.814237 0.000000 0.906401
0.983124 0.000000 0.912535
0.000000 0.124331 0.898772
0.000000 0.117098 0.899657
0.094301 0.084962 0.900359
0.330327 0.000000 0.901213
0.495735 0.000000 0.902098
0.652583 0.000000 0.902708
0.808835 0.000000 0.903258
0.979339 0.000000 0.909514
0.000000 0.220432 0.904265
0.000000 0.217136 0.904295
0.000000 0.205264 0.904173
0.264775 0.182559 0.904601
0.466377 0.144320 0.904570
0.638514 0.076387 0.904997
0.803769 0.000000 0.906157
0.979889 0.000000 0.912474
0.000000 0.395300 0.907378
0.000000 0.387976 0.907195
0.000000 0.365332 0.907774
0.130739 0.351385 0.908873
0.429664 0.346471 0.908568
0.623987 0.344854 0.908873
0.798184 0.349004 0.909514
0.977081 0.343572 0.913542
0.000000 0.555627 0.906035
0.000000 0.551690 0.905821
0.000000 0.539361 0.906279
0.000000 0.524254 0.907744
0.414496 0.536950 0.907256
0.615808 0.539574 0.906920
0.789853 0.543053 0.907073
0.969696 0.542077 0.910216
0.000000 0.707790 0.906920
0.000000 0.706142 0.907225
0.000000 0.700923 0.908232
0.000000 0.694575 0.909850
0.342962 0.695155 0.910277
0.608118 0.708034 0.909880
0.788968 0.717372 0.909422
0.961578 0.715816 0.906188
0.000000 0.856748 0.910491
0.000000 0.856901 0.911070
0.000000 0.856443 0.911864
0.000000 0.856474 0.913024
0.249577 0.857939 0.912749
0.563561 0.862028 0.911894
0.780972 0.868467 0.910552
0.946410 0.874205 0.903777
0.000000 1.000000 0.923919
0.000000 1.000000 0.923339
0.000000 1.000000 0.921721
0.000000 1.000000 0.916136
0.000000 1.000000 0.906462
0.483375 1.000000 0.894316
0.742977 0.996521 0.884001
0.926757 0.983246 0.907408
0.000000 0.074586 1.000000
0.000000 0.062348 1.000000
0.089784 0.000000 1.000000
0.315862 0.000000 1.000000
0.473335 0.000000 1.000000
0.621576 0.000000 1.000000
0.768826 0.000000 1.000000
0.915892 0.000000 1.000000
0.000000 0.119936 1.000000
0.000000 0.113649 1.000000
0.000000 0.085359 1.000000
0.300420 0.000000 1.000000
0.465187 0.000000 1.000000
0.616815 0.000000 1.000000
0.765896 0.000000 1.000000
0.914031 0.000000 1.000000
0.000000 0.215305 1.000000
0.000000 0.212833 1.000000
0.000000 0.202579 1.000000
0.245335 0.186526 1.000000
0.440925 0.159915 1.000000
0.604334 0.122316 1.000000
0.759945 0.077668 1.000000
0.911345 0.055482 1.000000
0.000000 0.350408 1.000000
0.000000 0.347906 1.000000
0.000000 0.345434 1.000000
0.157015 0.343084 1.000000
0.415167 0.340612 1.000000
0.594079 0.339513 1.000000
0.756649 0.343969 1.000000
0.909880 0.355657 1.000000
0.000000 0.510643 1.000000
0.000000 0.507347 1.000000
0.000000 0.496132 1.000000
0.000000 0.485298 1.000000
0.417762 0.518975 1.000000
0.596918 0.521904 1.000000
0.758785 0.528832 1.000000
0.909941 0.542229 1.000000
0.000000 0.660670 1.000000
0.000000 0.658320 1.000000
0.000000 0.650996 1.000000
0.000000 0.642969 1.000000
0.334508 0.648524 1.000000
0.615961 0.689815 0.998627
0.771725 0.698787 0.999603
0.912169 0.705715 0.998962
0.000000 0.807095 1.000000
0.000000 0.806027 1.000000
0.000000 0.802579 1.000000
0.000000 0.799344 1.000000
0.249485 0.803586 1.000000
0.558984 0.814267 1.000000
0.783139 0.841611 0.996582
0.921294 0.856565 0.994446
0.000000 0.953887 1.000000
0.000000 0.953735 1.000000
0.000000 0.953582 1.000000
0.000000 0.954101 1.000000
0.000000 0.956237 1.000000
0.493446 0.960235 0.998322
0.745541 0.965972 0.995636
0.936217 0.974456 0.992340
