data/fiter_cube/96471014/1022820/file.cube
# Created by Adobe Lightroom plugin Export LUT (1.17.0)
# www.johnrellis.com/lightroom/exportlut.htm
# Preset: 古风山上预设3
# Color profile: C:\Program Files (x86)\Common Files\Adobe\Color\Profiles\Recommended\AdobeRGB1998.icc
LUT_3D_SIZE 5
DOMAIN_MIN 0.000000 0.000000 0.000000
DOMAIN_MAX 0.903226 0.903226 0.903226
0.078340 0.116640 0.085267
0.261784 0.098604 0.083742
0.647974 0.000000 0.000000
0.901274 0.375036 0.000000
1.000000 0.502861 0.000000
0.117433 0.192355 0.092805
0.262516 0.180362 0.089418
0.641566 0.226719 0.000000
0.892088 0.434211 0.000000
1.000000 0.536919 0.000000
0.181735 0.417884 0.026001
0.348180 0.435218 0.066773
0.577111 0.433265 0.000000
0.846830 0.537469 0.000000
1.000000 0.619684 0.000000
0.294347 0.671290 0.000000
0.442176 0.682582 0.000000
0.696407 0.710109 0.118257
0.788724 0.654963 0.000000
0.969940 0.677729 0.000000
0.466499 0.856626 0.000000
0.558587 0.857115 0.000000
0.737911 0.858091 0.175753
0.893278 0.866880 0.241855
0.972473 0.814755 0.000000
0.000000 0.116518 0.196841
0.221805 0.124361 0.190463
0.613916 0.000000 0.162417
0.877592 0.329961 0.084382
1.000000 0.486793 0.000000
0.033051 0.187686 0.194583
0.230045 0.212009 0.207279
0.615015 0.211734 0.156680
0.872984 0.402625 0.048615
1.000000 0.520714 0.000000
0.000000 0.390600 0.146090
0.252506 0.455177 0.155459
0.574823 0.454353 0.130861
0.843381 0.536278 0.000000
1.000000 0.613184 0.000000
0.000000 0.663233 0.000000
0.339605 0.687770 0.018067
0.676020 0.713771 0.238743
0.790433 0.664607 0.000000
0.971618 0.679988 0.000000
0.326482 0.857755 0.000000
0.480293 0.858030 0.000000
0.715755 0.863706 0.229587
0.886503 0.870329 0.340764
0.973236 0.818601 0.000000
0.000000 0.114687 0.555474
0.050202 0.072908 0.573510
0.555901 0.142184 0.530388
0.845518 0.010681 0.500008
1.000000 0.501488 0.470222
0.000000 0.215305 0.547570
0.000000 0.171603 0.562036
0.561120 0.288060 0.537163
0.843107 0.285740 0.479896
1.000000 0.527855 0.459358
0.000000 0.404120 0.453040
0.000000 0.434913 0.472419
0.502007 0.541833 0.519188
0.832731 0.566278 0.467170
0.999115 0.610468 0.427344
0.000000 0.535180 0.345922
0.000000 0.586694 0.357000
0.470008 0.723781 0.385473
0.793301 0.708614 0.393683
0.977813 0.696315 0.338048
0.000000 0.814054 0.326635
0.000000 0.834104 0.266148
0.531029 0.865843 0.283452
0.852903 0.872770 0.541711
0.962951 0.823484 0.269352
0.000000 0.110292 0.789395
0.000000 0.007050 0.794095
0.575799 0.000000 0.802640
0.796689 0.430976 0.753201
0.958679 0.462989 0.711238
0.000000 0.230228 0.781674
0.000000 0.152346 0.787594
0.540826 0.097749 0.798672
0.791470 0.503288 0.749325
0.957885 0.509758 0.707942
0.000000 0.517967 0.738979
0.000000 0.503593 0.746487
0.204715 0.406348 0.768978
0.776425 0.648005 0.736538
0.959075 0.641962 0.703029
0.000000 0.651728 0.645441
0.000000 0.660670 0.650538
0.000000 0.696101 0.672511
0.729519 0.764065 0.712642
0.963226 0.768826 0.689448
0.000000 0.656825 0.519982
0.000000 0.686732 0.531853
0.000000 0.780880 0.549401
0.656397 0.876677 0.567620
0.942840 0.848264 0.573449
0.000000 0.100038 0.885496
0.000000 0.000000 0.885466
0.464485 0.000000 0.885496
0.774807 0.462135 0.869047
0.922301 0.661616 0.847440
0.000000 0.185916 0.882475
0.000000 0.125093 0.883421
0.412268 0.000000 0.883604
0.763668 0.473274 0.868040
0.919707 0.679194 0.845609
0.000000 0.492561 0.869291
0.000000 0.448890 0.871550
0.000000 0.261753 0.878508
0.716487 0.499611 0.868833
0.920867 0.743435 0.844022
0.000000 0.705287 0.841123
0.000000 0.697383 0.842161
0.000000 0.664424 0.851011
0.509270 0.602289 0.863279
0.930541 0.834195 0.843992
0.000000 0.822019 0.793362
0.000000 0.824094 0.794705
0.000000 0.835569 0.802762
0.000000 0.846647 0.809873
0.895750 0.888273 0.829709
