data/fiter_cube/96471014/1022820/file.cube
# Created by Adobe Lightroom plugin Export LUT (1.17.0)
# www.johnrellis.com/lightroom/exportlut.htm
# Preset: 古风山上预设3
# Color profile: C:\Program Files (x86)\Common Files\Adobe\Color\Profiles\Recommended\AdobeRGB1998.icc
LUT_3D_SIZE 32
DOMAIN_MIN 0.0 0.0 0.0
DOMAIN_MAX 1.0 1.0 1.0
0.078340 0.116640 0.085267
0.085115 0.116793 0.085359
0.094759 0.116701 0.085969
0.116426 0.116579 0.086152
0.146304 0.115267 0.086152
0.180819 0.112337 0.086000
0.219242 0.106844 0.085298
0.261784 0.098604 0.083742
0.308659 0.085206 0.081392
0.359960 0.062287 0.077485
0.416205 0.000000 0.071504
0.475349 0.000000 0.062928
0.535576 0.000000 0.040070
0.593988 0.000000 0.000000
0.647974 0.000000 0.000000
0.696895 0.099702 0.000000
0.743679 0.164797 0.000000
0.785855 0.223545 0.000000
0.819638 0.270634 0.000000
0.849516 0.311070 0.000000
0.876402 0.345800 0.000000
0.901274 0.375036 0.000000
0.923796 0.399390 0.000000
0.944396 0.420844 0.000000
0.963470 0.439673 0.000000
0.981262 0.456916 0.000000
0.998047 0.473182 0.000000
1.000000 0.488411 0.000000
1.000000 0.502861 0.000000
1.000000 0.516838 0.000000
1.000000 0.530266 0.000000
1.000000 0.543206 0.000000
0.080354 0.119020 0.086091
0.086671 0.118746 0.085969
0.095918 0.118471 0.086305
0.117342 0.118379 0.086488
0.146792 0.117128 0.086793
0.180728 0.114382 0.086641
0.218936 0.109346 0.085634
0.260685 0.101534 0.084169
0.307073 0.088899 0.081575
0.358007 0.068696 0.077729
0.413489 0.006775 0.071901
0.471962 0.000000 0.063203
0.531823 0.000000 0.042359
0.590051 0.000000 0.000153
0.643915 0.000000 0.000000
0.692836 0.102266 0.000000
0.739803 0.165499 0.000000
0.781460 0.221775 0.000000
0.815091 0.267857 0.000000
0.844968 0.308415 0.000000
0.872068 0.343145 0.000000
0.897063 0.372503 0.000000
0.919951 0.397345 0.000000
0.940948 0.419013 0.000000
0.960357 0.438056 0.000000
0.978515 0.455634 0.000000
0.995666 0.471992 0.000000
1.000000 0.487282 0.000000
1.000000 0.502037 0.000000
1.000000 0.516197 0.000000
1.000000 0.529717 0.000000
1.000000 0.542687 0.000000
0.082063 0.122377 0.086488
0.090791 0.122042 0.087465
0.098634 0.121523 0.086732
0.117830 0.120607 0.087343
0.147524 0.119966 0.087282
0.181003 0.117372 0.086854
0.218570 0.112490 0.085908
0.259922 0.105196 0.084443
0.305943 0.093782 0.081880
0.356359 0.076020 0.077760
0.411444 0.032624 0.071992
0.469673 0.000000 0.063294
0.529137 0.000000 0.043030
0.587427 0.000000 0.000855
0.641352 0.017151 0.000000
0.690486 0.109865 0.000000
0.737789 0.170718 0.000000
0.778683 0.224552 0.000000
0.812345 0.269322 0.000000
0.842222 0.309087 0.000000
0.869596 0.343786 0.000000
0.894804 0.372930 0.000000
0.917815 0.397955 0.000000
0.939055 0.419287 0.000000
0.958587 0.438422 0.000000
0.976928 0.455940 0.000000
0.994293 0.472236 0.000000
1.000000 0.487770 0.000000
1.000000 0.502464 0.000000
1.000000 0.516564 0.000000
1.000000 0.530053 0.000000
1.000000 0.543084 0.000000
0.087709 0.130526 0.087892
0.097047 0.129854 0.089418
0.107332 0.129519 0.090517
0.123140 0.128054 0.088502
0.147494 0.125093 0.088655
0.181857 0.123049 0.087861
0.219913 0.119081 0.086458
0.260655 0.112490 0.084779
0.305913 0.102693 0.082216
0.355962 0.088380 0.078065
0.410224 0.067109 0.072267
0.467811 0.017548 0.063569
0.526787 0.000000 0.042267
0.584405 0.000000 0.000153
0.638392 0.075044 0.000000
0.687495 0.127871 0.000000
0.735348 0.183047 0.000000
0.775418 0.232547 0.000000
0.808408 0.274907 0.000000
0.838132 0.312657 0.000000
0.865354 0.346197 0.000000
0.890623 0.375036 0.000000
0.914214 0.400000 0.000000
0.936095 0.421546 0.000000
0.956512 0.440986 0.000000
0.975616 0.458778 0.000000
0.993469 0.475196 0.000000
1.000000 0.490730 0.000000
1.000000 0.505150 0.000000
1.000000 0.518914 0.000000
1.000000 0.532097 0.000000
1.000000 0.544732 0.000000
0.093935 0.141512 0.089876
0.103243 0.140841 0.091066
0.114168 0.140017 0.092470
0.133181 0.140475 0.092500
0.153048 0.137118 0.090150
0.178134 0.130861 0.089631
0.215854 0.128145 0.087953
0.259312 0.123415 0.085359
0.305241 0.115846 0.082002
0.354314 0.105531 0.078157
0.407507 0.091829 0.071992
0.464546 0.077211 0.063539
0.522881 0.068269 0.041718
0.580529 0.079408 0.000000
0.634455 0.110628 0.000000
0.684169 0.152316 0.000000
0.733120 0.202213 0.000000
0.772885 0.247807 0.000000
0.806119 0.287602 0.000000
0.835660 0.323308 0.000000
0.862791 0.354925 0.000000
0.888090 0.382513 0.000000
0.911803 0.406226 0.000000
0.933898 0.427436 0.000000
0.954589 0.446296 0.000000
0.973968 0.463569 0.000000
0.992065 0.479622 0.000000
1.000000 0.494636 0.000000
1.000000 0.508843 0.000000
1.000000 0.522240 0.000000
1.000000 0.535119 0.000000
1.000000 0.547570 0.000000
0.100954 0.155093 0.091249
0.109560 0.154635 0.092134
0.120333 0.153841 0.093477
0.139284 0.152468 0.096345
0.165927 0.154635 0.093233
0.185855 0.147860 0.090669
0.210544 0.138064 0.090120
0.251957 0.135042 0.087404
0.299474 0.130526 0.083558
0.353429 0.124605 0.078096
0.407813 0.116884 0.071626
0.463844 0.110231 0.061891
0.521508 0.109621 0.037385
0.578729 0.120577 0.000000
0.632654 0.146242 0.000000
0.684413 0.183688 0.000000
0.731960 0.227695 0.000000
0.771298 0.268772 0.000000
0.804562 0.305669 0.000000
0.834409 0.339330 0.000000
0.861753 0.369146 0.000000
0.887388 0.395026 0.000000
0.932708 0.439948 0.000000
0.952941 0.457038 0.000000
0.971466 0.472480 0.000000
0.988647 0.486549 0.000000
1.000000 0.499794 0.000000
1.000000 0.512230 0.000000
1.000000 0.524376 0.000000
1.000000 0.536156 0.000000
1.000000 0.547356 0.000000
1.000000 0.558221 0.000000
0.109499 0.173159 0.092073
0.117586 0.172885 0.092927
0.128023 0.172274 0.093965
0.147860 0.171206 0.096681
0.174197 0.170321 0.099062
0.207431 0.174502 0.092256
0.225406 0.163241 0.090425
0.248417 0.148470 0.089998
0.295598 0.146181 0.085847
0.349218 0.143801 0.080018
0.409094 0.142123 0.071168
0.474495 0.144808 0.055085
0.532494 0.150515 0.019501
0.588617 0.165103 0.000000
0.640894 0.189212 0.000000
0.694667 0.227543 0.000000
0.740230 0.267369 0.000000
0.778103 0.304143 0.000000
0.810697 0.337194 0.000000
0.840757 0.368078 0.000000
0.869139 0.396002 0.000000
0.896330 0.420874 0.000000
0.921782 0.442695 0.000000
0.945129 0.461738 0.000000
0.966186 0.478462 0.000000
0.984863 0.493080 0.000000
1.000000 0.506218 0.000000
1.000000 0.518334 0.000000
1.000000 0.529961 0.000000
1.000000 0.541192 0.000000
1.000000 0.552026 0.000000
1.000000 0.562585 0.000000
0.117433 0.192355 0.092805
0.124697 0.192264 0.093355
0.134249 0.191867 0.094362
0.154025 0.191196 0.096468
0.181064 0.189883 0.099855
0.210575 0.191531 0.098787
0.247776 0.196780 0.090547
0.262516 0.180362 0.089418
0.281773 0.160159 0.089693
0.333318 0.160067 0.083223
0.390967 0.161532 0.075624
0.453773 0.166415 0.062684
0.520470 0.178134 0.022370
0.585748 0.200107 0.000000
0.641566 0.226719 0.000000
0.692775 0.260258 0.000000
0.736721 0.294957 0.000000
0.773922 0.327703 0.000000
0.806394 0.357763 0.000000
0.836393 0.385809 0.000000
0.864897 0.411383 0.000000
0.892088 0.434211 0.000000
0.917632 0.454597 0.000000
0.941192 0.472358 0.000000
0.962524 0.488045 0.000000
0.981537 0.501884 0.000000
0.998688 0.514275 0.000000
1.000000 0.525750 0.000000
1.000000 0.536919 0.000000
1.000000 0.547601 0.000000
1.000000 0.558038 0.000000
1.000000 0.568139 0.000000
0.125765 0.215183 0.092500
0.132662 0.215183 0.093294
0.141909 0.215122 0.093965
0.161074 0.214694 0.096010
0.187961 0.214054 0.099001
0.219333 0.213107 0.103548
0.251316 0.218143 0.097017
0.289220 0.222843 0.086336
0.302098 0.201938 0.086702
0.319280 0.177646 0.087709
0.372412 0.178470 0.079591
0.433417 0.184909 0.067506
0.498543 0.197147 0.038636
0.567498 0.220096 0.000000
0.634150 0.255436 0.000000
0.691737 0.295140 0.000000
0.734554 0.325963 0.000000
0.771267 0.355383 0.000000
0.803433 0.381933 0.000000
0.833402 0.407019 0.000000
0.861845 0.430182 0.000000
0.889036 0.450965 0.000000
0.914580 0.469398 0.000000
0.938231 0.485695 0.000000
0.959655 0.500114 0.000000
0.978912 0.512718 0.000000
0.996338 0.524193 0.000000
1.000000 0.535058 0.000000
1.000000 0.545464 0.000000
1.000000 0.555444 0.000000
1.000000 0.565270 0.000000
1.000000 0.574975 0.000000
0.134737 0.241367 0.091127
0.141421 0.241611 0.091859
0.150027 0.241581 0.092561
0.168673 0.241703 0.094240
0.194949 0.241520 0.097169
0.226658 0.241398 0.101045
0.260441 0.242588 0.103731
0.294835 0.249577 0.092653
0.331365 0.252171 0.080171
0.343359 0.228275 0.081544
0.358160 0.200015 0.083833
0.410010 0.200229 0.074098
0.476387 0.213931 0.052491
0.545464 0.236149 0.000000
0.612329 0.268498 0.000000
0.673732 0.308690 0.000000
0.728084 0.351690 0.000000
0.770504 0.386450 0.000000
0.802609 0.409888 0.000000
0.832181 0.431617 0.000000
0.860044 0.451545 0.000000
0.886381 0.469459 0.000000
0.911284 0.485451 0.000000
0.934417 0.499641 0.000000
0.955779 0.512444 0.000000
0.975250 0.524071 0.000000
0.993133 0.534813 0.000000
1.000000 0.545037 0.000000
1.000000 0.554925 0.000000
1.000000 0.564538 0.000000
1.000000 0.573999 0.000000
1.000000 0.583215 0.000000
0.142519 0.270085 0.088350
0.148959 0.270390 0.089113
0.158083 0.270481 0.089723
0.175937 0.270970 0.091310
0.202243 0.271641 0.093782
0.233616 0.272465 0.097505
0.269474 0.273442 0.102907
0.304051 0.278111 0.099184
0.341375 0.285985 0.084535
0.375677 0.285924 0.069154
0.386114 0.258824 0.072694
0.401129 0.228305 0.077028
0.451850 0.228000 0.064607
0.519799 0.248447 0.009216
0.586572 0.277989 0.000000
0.649165 0.315251 0.000000
0.706111 0.357061 0.000000
0.754726 0.396429 0.000000
0.795865 0.430243 0.000000
0.829129 0.454841 0.000000
0.856931 0.472419 0.000000
0.883360 0.488624 0.000000
0.908476 0.502922 0.000000
0.931731 0.515770 0.000000
0.953185 0.527276 0.000000
0.972808 0.537652 0.000000
0.990753 0.547326 0.000000
1.000000 0.556512 0.000000
1.000000 0.565606 0.000000
1.000000 0.574395 0.000000
1.000000 0.583215 0.000000
1.000000 0.591913 0.000000
0.151797 0.301946 0.083589
0.157778 0.302281 0.084352
0.166567 0.302708 0.084901
0.183902 0.303502 0.086427
0.209842 0.304814 0.088746
0.241337 0.306279 0.092592
0.277348 0.308385 0.097536
0.316655 0.310796 0.104128
0.351171 0.318700 0.091279
0.390692 0.327733 0.069917
0.424323 0.326482 0.037324
0.434882 0.297398 0.054078
0.466926 0.278172 0.054871
0.515038 0.275761 0.014099
0.585229 0.308629 0.000000
0.650019 0.348241 0.000000
0.707790 0.390265 0.000000
0.756558 0.427588 0.000000
0.797879 0.458900 0.000000
0.834562 0.485725 0.000000
0.867796 0.508263 0.000000
0.894408 0.522271 0.000000
0.917479 0.532403 0.000000
0.939086 0.541924 0.000000
0.959228 0.550683 0.000000
0.977691 0.558831 0.000000
0.994690 0.566583 0.000000
1.000000 0.574029 0.000000
1.000000 0.581445 0.000000
1.000000 0.588922 0.000000
1.000000 0.596521 0.000000
1.000000 0.604089 0.000000
0.162051 0.342138 0.074647
0.168307 0.342596 0.075380
0.176761 0.342992 0.075929
0.194644 0.343694 0.077577
0.220340 0.344945 0.080354
0.251499 0.346593 0.084077
0.288090 0.349035 0.088838
0.328161 0.352148 0.095705
0.370001 0.359777 0.097749
0.408667 0.371771 0.074372
0.452430 0.384283 0.010590
0.483711 0.380438 0.000000
0.494331 0.350042 0.000000
0.503899 0.312078 0.012970
0.545586 0.305028 0.000000
0.614069 0.343175 0.000000
0.676173 0.384863 0.000000
0.729732 0.424689 0.000000
0.775113 0.458534 0.000000
0.814664 0.487465 0.000000
0.850187 0.511864 0.000000
0.882689 0.531914 0.000000
0.912078 0.548547 0.000000
0.934752 0.557733 0.000000
0.955077 0.565454 0.000000
0.973877 0.572656 0.000000
0.991180 0.579553 0.000000
1.000000 0.586236 0.000000
1.000000 0.592950 0.000000
1.000000 0.599847 0.000000
1.000000 0.606867 0.000000
1.000000 0.614038 0.000000
0.171237 0.377569 0.062715
0.177737 0.377935 0.063600
0.186069 0.378424 0.064179
0.203006 0.379400 0.065949
0.227787 0.380926 0.068971
0.259983 0.384192 0.072419
0.297215 0.388708 0.077150
0.338537 0.394232 0.083986
0.383185 0.400916 0.093263
0.423102 0.410651 0.082612
0.462623 0.422217 0.028290
0.504845 0.433814 0.000000
0.530602 0.425544 0.000000
0.537407 0.391943 0.000000
0.542351 0.350744 0.000000
0.574762 0.335698 0.000000
0.640009 0.376013 0.000000
0.698878 0.417639 0.000000
0.749111 0.454810 0.000000
0.792477 0.486671 0.000000
0.830930 0.513542 0.000000
0.865537 0.535668 0.000000
0.897185 0.553704 0.000000
0.925872 0.568719 0.000000
0.951598 0.581323 0.000000
0.970703 0.587610 0.000000
0.988342 0.593622 0.000000
1.000000 0.599542 0.000000
1.000000 0.605615 0.000000
1.000000 0.611872 0.000000
1.000000 0.618280 0.000000
1.000000 0.624933 0.000000
0.181735 0.417884 0.026001
0.187350 0.418677 0.027375
0.195987 0.419196 0.028443
0.213443 0.420752 0.031312
0.238712 0.422950 0.038483
0.270512 0.425849 0.047852
0.306981 0.430121 0.058320
0.348180 0.435218 0.066773
0.392737 0.441962 0.077760
0.439826 0.450355 0.090913
0.476020 0.460517 0.055207
0.514702 0.470985 0.000000
0.553918 0.480903 0.000000
0.573419 0.467872 0.000000
0.577111 0.433265 0.000000
0.579309 0.391028 0.000000
0.601007 0.365087 0.000000
0.663447 0.407019 0.000000
0.719814 0.447791 0.000000
0.768032 0.483223 0.000000
0.809628 0.512840 0.000000
0.846830 0.537469 0.000000
0.880491 0.557336 0.000000
0.911345 0.573632 0.000000
0.939269 0.587335 0.000000
0.964263 0.599054 0.000000
0.985870 0.608515 0.000000
1.000000 0.614069 0.000000
1.000000 0.619684 0.000000
1.000000 0.625452 0.000000
1.000000 0.631525 0.000000
1.000000 0.637781 0.000000
0.192081 0.459327 0.000000
0.199191 0.460304 0.000000
0.207004 0.461006 0.000000
0.224460 0.462745 0.000000
0.249607 0.465003 0.000000
0.281712 0.468513 0.000000
0.318822 0.472877 0.000000
0.360021 0.478462 0.019898
0.405188 0.485176 0.049287
0.452186 0.492866 0.071321
0.495216 0.501366 0.073304
0.529259 0.509239 0.000000
0.563806 0.516533 0.000000
0.597894 0.522911 0.000000
0.610193 0.504448 0.000000
0.611353 0.469703 0.000000
0.611933 0.428321 0.000000
0.628260 0.398810 0.000000
0.685878 0.436378 0.000000
0.740414 0.476631 0.000000
0.787015 0.510369 0.000000
0.827726 0.538415 0.000000
0.863920 0.560845 0.000000
0.897032 0.579004 0.000000
0.927184 0.593927 0.000000
0.954314 0.606561 0.000000
0.978424 0.617395 0.000000
0.999725 0.627039 0.000000
1.000000 0.634424 0.000000
1.000000 0.639399 0.000000
1.000000 0.644678 0.000000
1.000000 0.650233 0.000000
0.204562 0.497414 0.000000
0.210483 0.497932 0.000000
0.218479 0.498604 0.000000
0.235691 0.500114 0.000000
0.260624 0.502464 0.000000
0.292027 0.505608 0.000000
0.328466 0.509697 0.000000
0.369451 0.514824 0.000000
0.413733 0.520806 0.000000
0.460029 0.527825 0.031189
0.506889 0.535851 0.072541
0.542870 0.543328 0.034821
0.574578 0.549615 0.000000
0.606104 0.555322 0.000000
0.633967 0.556939 0.000000
0.643305 0.537224 0.000000
0.643122 0.503410 0.000000
0.642878 0.464363 0.000000
0.656886 0.435737 0.000000
0.706966 0.464027 0.000000
0.759274 0.502556 0.000000
0.804379 0.534386 0.000000
0.843717 0.560327 0.000000
0.879332 0.581018 0.000000
0.912016 0.597894 0.000000
0.941527 0.611872 0.000000
0.967956 0.623774 0.000000
0.991302 0.634119 0.000000
1.000000 0.643336 0.000000
1.000000 0.651789 0.000000
1.000000 0.657984 0.000000
1.000000 0.663172 0.000000
0.217685 0.534264 0.000000
0.224491 0.535210 0.000000
0.240665 0.553063 0.000000
0.258305 0.554498 0.000000
0.283330 0.556512 0.000000
0.315007 0.559045 0.000000
0.352239 0.562310 0.000000
0.393866 0.566186 0.000000
0.437690 0.571069 0.000000
0.483680 0.576928 0.000000
0.529107 0.583917 0.033356
0.572717 0.591455 0.084260
0.600427 0.595483 0.000000
0.628382 0.598962 0.000000
0.655787 0.601862 0.000000
0.677302 0.598779 0.000000
0.683558 0.577630 0.000000
0.682124 0.544854 0.000000
0.680751 0.507469 0.000000
0.692164 0.479255 0.000000
0.733791 0.497353 0.000000
0.783230 0.533135 0.000000
0.826261 0.562127 0.000000
0.864103 0.585046 0.000000
0.898436 0.603174 0.000000
0.929534 0.617975 0.000000
0.957427 0.630335 0.000000
0.982330 0.641077 0.000000
1.000000 0.650660 0.000000
1.000000 0.659480 0.000000
1.000000 0.667659 0.000000
1.000000 0.675257 0.000000
0.235904 0.573388 0.000000
0.242802 0.576104 0.000000
0.251804 0.579004 0.000000
0.269322 0.582300 0.000000
0.294743 0.585687 0.000000
0.326055 0.588861 0.000000
0.362799 0.592096 0.000000
0.402960 0.595819 0.000000
0.445777 0.600366 0.000000
0.490211 0.605524 0.000000
0.534600 0.611658 0.000000
0.577203 0.618524 0.064179
0.612268 0.624109 0.071290
0.637812 0.626825 0.000000
0.663020 0.628840 0.000000
0.687678 0.630365 0.000000
0.704677 0.624140 0.000000
0.709316 0.602716 0.000000
0.708125 0.572290 0.000000
0.707027 0.537682 0.000000
0.716976 0.510582 0.000000
0.752468 0.520806 0.000000
0.800320 0.555016 0.000000
0.842374 0.582422 0.000000
0.879942 0.603876 0.000000
0.913970 0.621027 0.000000
0.944640 0.635096 0.000000
0.971984 0.647028 0.000000
0.996185 0.657588 0.000000
1.000000 0.666987 0.000000
1.000000 0.675746 0.000000
1.000000 0.683406 0.000000
0.252232 0.604517 0.000000
0.258518 0.606958 0.000000
0.267582 0.609613 0.000000
0.284459 0.612604 0.000000
0.308904 0.615686 0.000000
0.339727 0.618494 0.000000
0.374945 0.621454 0.000000
0.413947 0.624842 0.000000
0.455482 0.628992 0.000000
0.498451 0.633570 0.000000
0.541283 0.639033 0.000000
0.582666 0.644953 0.012726
0.622034 0.651179 0.090883
0.649012 0.654261 0.056519
0.672267 0.655726 0.000000
0.695247 0.656825 0.000000
0.717769 0.657465 0.000000
0.731075 0.648524 0.000000
0.734737 0.627497 0.000000
0.733761 0.598840 0.000000
0.733059 0.567071 0.000000
0.741909 0.541344 0.000000
0.771359 0.544030 0.000000
0.818021 0.576654 0.000000
0.859220 0.602228 0.000000
0.896544 0.622248 0.000000
0.930083 0.638422 0.000000
0.960082 0.651942 0.000000
0.986725 0.663539 0.000000
1.000000 0.673884 0.000000
1.000000 0.683314 0.000000
1.000000 0.691218 0.000000
0.269322 0.634974 0.000000
0.276097 0.637171 0.000000
0.284886 0.639521 0.000000
0.301396 0.642237 0.000000
0.325292 0.644984 0.000000
0.354589 0.647486 0.000000
0.388525 0.650050 0.000000
0.425818 0.652888 0.000000
0.466194 0.656214 0.000000
0.507256 0.660090 0.000000
0.548028 0.664607 0.000000
0.587854 0.669703 0.000000
0.625879 0.674952 0.073335
0.660456 0.680201 0.111513
0.682094 0.681483 0.033997
0.703944 0.682460 0.000000
0.725795 0.683406 0.000000
0.747463 0.684291 0.000000
0.758663 0.674128 0.000000
0.762478 0.654414 0.000000
0.762753 0.628870 0.000000
0.763149 0.600092 0.000000
0.771206 0.575708 0.000000
0.795956 0.572381 0.000000
0.841733 0.603113 0.000000
0.882628 0.626673 0.000000
0.919615 0.645136 0.000000
0.952331 0.660304 0.000000
0.981170 0.673030 0.000000
1.000000 0.684138 0.000000
1.000000 0.693782 0.000000
1.000000 0.702022 0.000000
0.294347 0.671290 0.000000
0.300786 0.672419 0.000000
0.307652 0.673548 0.000000
0.322515 0.674891 0.000000
0.345220 0.676509 0.000000
0.373632 0.678248 0.000000
0.406012 0.680201 0.000000
0.442176 0.682582 0.000000
0.480781 0.685634 0.000000
0.520409 0.689204 0.000000
0.559655 0.693355 0.000000
0.598169 0.697780 0.000000
0.634699 0.702388 0.059510
0.669551 0.707179 0.115084
0.696407 0.710109 0.118257
0.716640 0.710628 0.034455
0.736965 0.711025 0.000000
0.757443 0.711391 0.000000
0.777798 0.711696 0.000000
0.786038 0.699306 0.000000
0.788815 0.679683 0.000000
0.788724 0.654963 0.000000
0.788815 0.627680 0.000000
0.795254 0.603479 0.000000
0.815457 0.594476 0.000000
0.860441 0.623163 0.000000
0.901183 0.645411 0.000000
0.937743 0.663081 0.000000
0.969940 0.677729 0.000000
0.997742 0.690303 0.000000
1.000000 0.700618 0.000000
1.000000 0.709651 0.000000
0.315465 0.698695 0.000000
0.321111 0.699763 0.000000
0.327764 0.700832 0.000000
0.342809 0.701991 0.000000
0.363928 0.703273 0.000000
0.390600 0.704616 0.000000
0.421149 0.706050 0.000000
0.455634 0.707851 0.000000
0.492195 0.710231 0.000000
0.529808 0.713039 0.000000
0.567254 0.716487 0.000000
0.603845 0.720180 0.000000
0.639155 0.724147 0.019806
0.673060 0.728389 0.106355
0.704952 0.732876 0.152224
0.726009 0.734035 0.122988
0.745449 0.734463 0.037201
0.765072 0.734859 0.000000
0.784909 0.735164 0.000000
0.804837 0.735531 0.000000
0.811093 0.721675 0.000000
0.813687 0.702724 0.000000
0.814206 0.679835 0.000000
0.814786 0.654505 0.000000
0.817075 0.627985 0.000000
0.834257 0.614923 0.000000
0.878935 0.641840 0.000000
0.919646 0.663172 0.000000
0.955779 0.680415 0.000000
0.986877 0.694545 0.000000
1.000000 0.706233 0.000000
1.000000 0.716457 0.000000
0.342107 0.730007 0.000000
0.347723 0.730953 0.000000
0.354498 0.731685 0.000000
0.367590 0.732387 0.000000
0.387884 0.733059 0.000000
0.412696 0.733730 0.000000
0.441749 0.734524 0.000000
0.473487 0.735470 0.000000
0.507683 0.736782 0.000000
0.542412 0.738613 0.000000
0.577447 0.740810 0.000000
0.611963 0.743465 0.000000
0.645594 0.746517 0.000000
0.677607 0.749752 0.099855
0.708064 0.753048 0.147494
0.734829 0.755856 0.173739
0.752651 0.755550 0.128756
0.771054 0.755459 0.041871
0.790097 0.755612 0.000000
0.809598 0.756039 0.000000
0.827573 0.754696 0.000000
0.833799 0.741115 0.000000
0.836027 0.722530 0.000000
0.836515 0.700618 0.000000
0.836973 0.676478 0.000000
0.841398 0.653498 0.000000
0.859678 0.642054 0.000000
0.900847 0.662379 0.000000
0.940978 0.682673 0.000000
0.975158 0.698512 0.000000
1.000000 0.711666 0.000000
1.000000 0.723232 0.000000
0.363958 0.753872 0.000000
0.369116 0.754788 0.000000
0.375341 0.755459 0.000000
0.388006 0.756039 0.000000
0.406714 0.756558 0.000000
0.430335 0.757046 0.000000
0.457832 0.757687 0.000000
0.487770 0.758541 0.000000
0.520073 0.759762 0.000000
0.553429 0.761471 0.000000
0.586816 0.763455 0.000000
0.620203 0.765957 0.000000
0.652705 0.768673 0.000000
0.683833 0.771603 0.097017
0.713405 0.774685 0.147585
0.741634 0.777951 0.191318
0.763272 0.779294 0.187869
0.780972 0.779263 0.142763
0.799405 0.779446 0.071595
0.818479 0.779721 0.000000
0.838071 0.780087 0.000000
0.854093 0.776761 0.000000
0.860166 0.763210 0.000000
0.862119 0.744808 0.000000
0.863035 0.724056 0.000000
0.863981 0.701595 0.000000
0.868040 0.679408 0.000000
0.888212 0.669734 0.000000
0.926116 0.684718 0.000000
0.964141 0.703243 0.000000
0.996399 0.718441 0.000000
1.000000 0.731350 0.000000
0.388159 0.779202 0.000000
0.393133 0.779812 0.000000
0.399023 0.780117 0.000000
0.410315 0.780331 0.000000
0.427131 0.780453 0.000000
0.449042 0.780667 0.000000
0.474464 0.780911 0.000000
0.502770 0.781460 0.000000
0.533196 0.782376 0.000000
0.564599 0.783719 0.000000
0.596674 0.785306 0.000000
0.628565 0.787533 0.000000
0.659571 0.789944 0.000000
0.689693 0.792538 0.095918
0.718288 0.795193 0.148196
0.745785 0.798001 0.192844
0.772091 0.800931 0.235477
0.789639 0.801083 0.202731
0.807462 0.801236 0.157412
0.826078 0.801511 0.091524
0.845457 0.801816 0.000000
0.865263 0.802090 0.000000
0.879240 0.796872 0.000000
0.885405 0.783536 0.000000
0.887419 0.765560 0.000000
0.888914 0.745846 0.000000
0.890715 0.724788 0.000000
0.894713 0.703578 0.000000
0.915038 0.694545 0.000000
0.949493 0.704952 0.000000
0.985870 0.722774 0.000000
1.000000 0.737667 0.000000
0.411505 0.802609 0.000000
0.415595 0.803006 0.000000
0.421424 0.803250 0.000000
0.431983 0.803494 0.000000
0.448157 0.803738 0.000000
0.468635 0.804227 0.000000
0.493263 0.805112 0.000000
0.520836 0.806332 0.000000
0.550225 0.808011 0.000000
0.580987 0.810086 0.000000
0.612207 0.812436 0.000000
0.643061 0.815061 0.000000
0.673335 0.817746 0.013916
0.702449 0.820462 0.116976
0.730495 0.823026 0.167483
0.757168 0.825376 0.212345
0.782895 0.827787 0.255741
0.805509 0.829496 0.274968
0.822995 0.829618 0.237705
0.841459 0.829801 0.193912
0.860685 0.829984 0.136965
0.880522 0.830167 0.000000
0.900542 0.830228 0.000000
0.912566 0.823362 0.000000
0.918883 0.810452 0.000000
0.921050 0.793149 0.000000
0.922972 0.774166 0.000000
0.925109 0.753750 0.000000
0.928985 0.733120 0.000000
0.949981 0.724941 0.000000
0.981048 0.731930 0.000000
1.000000 0.748775 0.000000
0.442329 0.832792 0.000000
0.446082 0.832975 0.000000
0.450568 0.832975 0.000000
0.460700 0.832944 0.000000
0.475502 0.832853 0.000000
0.493904 0.832883 0.000000
0.516197 0.833066 0.000000
0.541436 0.833555 0.000000
0.568261 0.834318 0.000000
0.596490 0.835447 0.000000
0.625269 0.836667 0.000000
0.653986 0.838254 0.000000
0.682277 0.839933 0.055695
0.709865 0.841733 0.128054
