data/fiter_cube/96471014/1022820/file.cube
# Created by Adobe Lightroom plugin Export LUT (1.17.0)
# www.johnrellis.com/lightroom/exportlut.htm
# Preset: 古风山上预设3
# Color profile: C:\Program Files (x86)\Common Files\Adobe\Color\Profiles\Recommended\AdobeRGB1998.icc
LUT_3D_SIZE 8
DOMAIN_MIN 0.000000 0.000000 0.000000
DOMAIN_MAX 0.903226 0.903226 0.903226
0.078340 0.116640 0.085267
0.146304 0.115267 0.086152
0.308659 0.085206 0.081392
0.535576 0.000000 0.040070
0.743679 0.164797 0.000000
0.876402 0.345800 0.000000
0.963470 0.439673 0.000000
1.000000 0.502861 0.000000
0.093935 0.141512 0.089876
0.153048 0.137118 0.090150
0.305241 0.115846 0.082002
0.522881 0.068269 0.041718
0.733120 0.202213 0.000000
0.862791 0.354925 0.000000
0.954589 0.446296 0.000000
1.000000 0.508843 0.000000
0.125765 0.215183 0.092500
0.187961 0.214054 0.099001
0.302098 0.201938 0.086702
0.498543 0.197147 0.038636
0.734554 0.325963 0.000000
0.861845 0.430182 0.000000
0.959655 0.500114 0.000000
1.000000 0.545464 0.000000
0.162051 0.342138 0.074647
0.220340 0.344945 0.080354
0.370001 0.359777 0.097749
0.494331 0.350042 0.000000
0.676173 0.384863 0.000000
0.850187 0.511864 0.000000
0.955077 0.565454 0.000000
1.000000 0.592950 0.000000
0.204562 0.497414 0.000000
0.260624 0.502464 0.000000
0.413733 0.520806 0.000000
0.574578 0.549615 0.000000
0.643122 0.503410 0.000000
0.759274 0.502556 0.000000
0.912016 0.597894 0.000000
1.000000 0.643336 0.000000
0.269322 0.634974 0.000000
0.325292 0.644984 0.000000
0.466194 0.656214 0.000000
0.625879 0.674952 0.073335
0.725795 0.683406 0.000000
0.762753 0.628870 0.000000
0.841733 0.603113 0.000000
0.981170 0.673030 0.000000
0.363958 0.753872 0.000000
0.406714 0.756558 0.000000
0.520073 0.759762 0.000000
0.652705 0.768673 0.000000
0.763272 0.779294 0.187869
0.838071 0.780087 0.000000
0.863035 0.724056 0.000000
0.926116 0.684718 0.000000
0.466499 0.856626 0.000000
0.496742 0.856535 0.000000
0.584070 0.857725 0.000000
0.692683 0.862455 0.086854
0.788571 0.861662 0.266423
0.874083 0.866453 0.283818
0.952514 0.867491 0.000000
0.972473 0.814755 0.000000
0.067262 0.116457 0.124300
0.130007 0.120912 0.121157
0.288121 0.102327 0.116152
0.508141 0.000000 0.099428
0.723964 0.136172 0.000000
0.856077 0.315770 0.000000
0.950347 0.423163 0.000000
1.000000 0.493294 0.000000
0.074372 0.139559 0.125612
0.139193 0.144808 0.128664
0.290166 0.129091 0.118654
0.506157 0.083162 0.096986
0.718807 0.183963 0.000000
0.849638 0.334691 0.000000
0.943694 0.432349 0.000000
1.000000 0.499153 0.000000
0.089174 0.212070 0.116243
0.159548 0.224613 0.123934
0.303838 0.215824 0.119326
0.495583 0.204257 0.088624
0.715145 0.302861 0.000000
0.846708 0.410254 0.000000
0.944335 0.483284 0.000000
1.000000 0.535302 0.000000
0.092073 0.338231 0.084504
0.186801 0.349523 0.105898
0.357214 0.362493 0.131960
0.482033 0.347417 0.078614
0.653803 0.363989 0.000000
0.831662 0.492042 0.000000
0.938994 0.549798 0.000000
1.000000 0.583948 0.000000
0.144656 0.495949 0.000000
0.222782 0.503136 0.020417
0.390356 0.518059 0.079225
0.559045 0.540856 0.085359
0.632441 0.496742 0.000000
0.751675 0.495674 0.000000
0.905577 0.592401 0.000000
1.000000 0.639521 0.000000
0.220340 0.629297 0.000000
0.280003 0.633875 0.000000
0.433845 0.645869 0.000000
0.606683 0.666407 0.111421
0.717403 0.679072 0.000000
0.760494 0.628992 0.000000
0.839750 0.601984 0.000000
0.977966 0.670497 0.000000
0.316960 0.745663 0.000000
0.362371 0.745876 0.000000
0.489754 0.750729 0.000000
0.635309 0.762051 0.061311
0.755795 0.775875 0.221500
0.831144 0.776242 0.000000
0.856474 0.719722 0.000000
0.919280 0.679500 0.000000
0.430671 0.852079 0.000000
0.466011 0.852811 0.000000
0.562921 0.854429 0.000000
0.679744 0.859678 0.101320
0.786587 0.865446 0.287327
0.872587 0.868101 0.315404
0.949340 0.866697 0.003662
0.969177 0.812772 0.000000
0.000000 0.116365 0.237003
0.082094 0.114778 0.245457
0.261692 0.124392 0.226596
0.492256 0.000000 0.222019
0.720058 0.067140 0.190127
0.854429 0.293187 0.161868
0.951110 0.412573 0.125002
1.000000 0.487587 0.100679
0.000000 0.140688 0.238926
0.063264 0.135897 0.245487
0.267704 0.155062 0.232212
0.489845 0.018036 0.214237
0.711238 0.153536 0.188663
0.848173 0.315770 0.155276
0.946258 0.424079 0.115480
1.000000 0.495460 0.091341
0.000000 0.209720 0.225437
0.070924 0.218509 0.232395
0.264073 0.247166 0.244694
0.498421 0.233677 0.211002
0.712245 0.297246 0.178866
0.845487 0.399969 0.139559
0.943206 0.474830 0.102632
1.000000 0.528954 0.084169
0.000000 0.305119 0.199588
0.062501 0.326146 0.200015
0.262852 0.396857 0.201572
0.502678 0.402777 0.203433
0.682155 0.408759 0.147829
0.841794 0.503807 0.104311
0.939879 0.547326 0.076875
1.000000 0.581476 0.077058
0.000000 0.457771 0.158389
0.000000 0.480079 0.147097
0.290227 0.540856 0.171023
0.551659 0.564965 0.247044
0.652644 0.536767 0.144198
0.769894 0.522332 0.001465
0.914000 0.601617 0.000000
1.000000 0.641657 0.042481
0.000000 0.607904 0.000000
0.000000 0.624109 0.000000
0.330571 0.655634 0.121309
0.564660 0.671412 0.201236
0.707362 0.686213 0.213077
0.763149 0.641718 0.034546
0.845518 0.611078 0.000000
0.982116 0.675135 0.000000
0.000000 0.742672 0.000000
0.133059 0.747707 0.000000
0.395819 0.756344 0.000000
0.590692 0.763973 0.162203
0.736934 0.777310 0.298863
0.823972 0.780270 0.185550
0.860349 0.728634 0.000000
0.928771 0.688777 0.000000
0.239628 0.853788 0.000000
0.314092 0.853605 0.000000
0.480354 0.854398 0.000000
0.637415 0.860197 0.155978
0.763394 0.865385 0.316991
0.862699 0.869718 0.398291
0.943114 0.868467 0.217777
0.969909 0.816892 0.000000
0.000000 0.115389 0.447059
0.000000 0.112062 0.458045
0.242710 0.069123 0.475837
0.450019 0.121370 0.425940
0.660761 0.000000 0.436988
0.837491 0.000000 0.358526
0.934752 0.391180 0.360998
1.000000 0.477424 0.341009
0.000000 0.143374 0.452613
0.000000 0.130953 0.460060
0.227146 0.110231 0.480507
0.454780 0.168215 0.431647
0.666041 0.000000 0.436652
0.835843 0.000000 0.342779
0.931914 0.406714 0.356603
1.000000 0.485573 0.334966
0.000000 0.225315 0.429053
0.000000 0.222873 0.438270
0.000000 0.199771 0.460731
0.461982 0.292027 0.441474
0.679072 0.258152 0.425025
0.829068 0.395209 0.389654
0.935454 0.474434 0.366430
1.000000 0.525811 0.338567
0.000000 0.330205 0.376776
0.000000 0.340429 0.385046
0.000000 0.376501 0.409064
0.422278 0.446082 0.437781
0.677913 0.455482 0.398413
0.821592 0.498268 0.365942
0.927855 0.541650 0.343084
1.000000 0.577905 0.328466
0.000000 0.386114 0.304143
0.000000 0.404669 0.311101
0.000000 0.475929 0.330785
0.392401 0.591302 0.349828
0.666255 0.598657 0.378332
0.791196 0.567651 0.304906
0.924468 0.622339 0.319402
1.000000 0.640833 0.317235
0.000000 0.543847 0.285283
0.000000 0.565026 0.288548
0.000000 0.620386 0.277562
0.418006 0.692042 0.306065
0.690913 0.709255 0.431525
0.772152 0.675074 0.300542
0.861326 0.634455 0.209659
0.987182 0.685420 0.262394
0.000000 0.697169 0.248661
0.000000 0.708461 0.237034
0.000000 0.743557 0.167361
0.455482 0.775418 0.254459
0.691279 0.785092 0.378912
0.810727 0.791989 0.383124
0.862638 0.743008 0.226535
0.937499 0.699275 0.111208
0.000000 0.840482 0.137850
0.000000 0.845884 0.069520
0.000000 0.860380 0.000000
0.513573 0.864012 0.203464
0.710719 0.866850 0.352911
0.845243 0.872526 0.504997
0.929107 0.871183 0.370397
0.968322 0.822782 0.191958
0.000000 0.113832 0.639826
0.000000 0.106691 0.644373
0.161990 0.000000 0.655177
0.502220 0.000000 0.644953
0.649958 0.202976 0.613794
0.778958 0.174014 0.598566
0.911589 0.251164 0.563104
0.999298 0.427008 0.520989
0.000000 0.145510 0.638392
0.000000 0.126864 0.644190
0.093233 0.078187 0.654444
0.496773 0.066987 0.648768
0.649348 0.249332 0.613855
0.778103 0.226078 0.596887
0.911040 0.296025 0.560754
0.996307 0.468544 0.531670
0.000000 0.262211 0.626856
0.000000 0.249943 0.630793
0.000000 0.192020 0.640711
0.454383 0.206455 0.656153
0.644709 0.371313 0.611719
0.772366 0.347173 0.588586
0.907164 0.405097 0.550011
0.986175 0.572351 0.562066
0.000000 0.392920 0.585412
0.000000 0.393896 0.589960
0.000000 0.392981 0.607050
0.198367 0.358007 0.631464
0.641444 0.525566 0.610986
0.782559 0.504601 0.585626
0.898894 0.583368 0.570153
0.989410 0.599298 0.536736
0.000000 0.481086 0.518334
0.000000 0.489296 0.523217
0.000000 0.516472 0.538262
0.154391 0.563653 0.562676
0.577600 0.622797 0.585382
0.781796 0.626429 0.562921
0.899992 0.634913 0.534997
0.989075 0.647944 0.510582
0.000000 0.498085 0.423285
0.000000 0.504112 0.425330
0.000000 0.523186 0.429786
0.000000 0.604791 0.458473
0.515709 0.709804 0.482765
0.764584 0.715541 0.522576
0.873259 0.671748 0.452430
0.987335 0.710109 0.487556
0.000000 0.605585 0.400092
0.000000 0.617548 0.403174
0.000000 0.660121 0.410986
0.000000 0.727901 0.400183
0.526146 0.787228 0.426337
0.783230 0.801328 0.561486
0.856077 0.761990 0.424323
0.944213 0.713008 0.323827
0.000000 0.783993 0.428443
0.000000 0.789883 0.422827
0.000000 0.810697 0.395270
0.000000 0.850248 0.299199
0.554803 0.868803 0.364874
0.789242 0.872435 0.524437
0.903838 0.873320 0.516381
0.959411 0.828214 0.355230
0.000000 0.111208 0.768795
0.000000 0.100923 0.770535
0.000000 0.000000 0.774258
0.468360 0.000000 0.782956
0.676295 0.292119 0.756985
0.775387 0.389258 0.731991
0.872068 0.388525 0.708614
0.973022 0.440192 0.681422
0.000000 0.141573 0.763180
0.000000 0.122927 0.764828
0.000000 0.057527 0.769802
0.450294 0.000000 0.778470
0.670863 0.308721 0.755062
0.772061 0.413367 0.729183
0.869627 0.409339 0.706538
0.972442 0.455879 0.679835
0.000000 0.275761 0.755703
0.000000 0.256870 0.757321
0.000000 0.179171 0.764340
0.378088 0.143526 0.772763
0.659998 0.375982 0.759609
0.769528 0.499519 0.728328
0.866300 0.483070 0.704311
0.970886 0.521538 0.679316
0.000000 0.450294 0.734340
0.000000 0.443030 0.736477
0.000000 0.412543 0.746456
0.000000 0.332067 0.760464
0.624872 0.467659 0.766903
0.770047 0.612390 0.730220
0.863249 0.580957 0.702998
0.969909 0.610956 0.680659
0.000000 0.565606 0.686275
0.000000 0.566705 0.688991
0.000000 0.568505 0.698451
0.000000 0.563256 0.716365
0.394324 0.530968 0.738674
0.760494 0.693172 0.720974
0.867582 0.666712 0.696529
0.964782 0.707515 0.686702
0.000000 0.618494 0.620508
0.000000 0.624170 0.624109
0.000000 0.638392 0.632166
0.000000 0.662318 0.646082
0.306126 0.693599 0.664851
0.704280 0.741268 0.690028
0.872251 0.747677 0.681849
0.969818 0.747646 0.660609
0.000000 0.629297 0.545739
0.000000 0.633326 0.547204
0.000000 0.642359 0.547662
0.000000 0.655512 0.544030
0.000000 0.717220 0.553887
0.642878 0.804898 0.594965
0.851408 0.803464 0.626551
0.952239 0.758663 0.569085
0.000000 0.692012 0.516167
0.000000 0.699519 0.518212
0.000000 0.726741 0.523949
0.000000 0.774807 0.526177
0.000000 0.834653 0.493690
0.629847 0.874296 0.527947
0.876799 0.878965 0.665919
0.947082 0.843076 0.530816
0.000000 0.106966 0.847929
0.000000 0.095369 0.849943
0.000000 0.000000 0.851591
0.405310 0.000000 0.853544
0.635584 0.000000 0.852567
0.782650 0.554833 0.820951
0.858824 0.553429 0.808103
0.939483 0.552209 0.792020
0.000000 0.128878 0.842130
0.000000 0.116854 0.844205
0.000000 0.031495 0.845945
0.377722 0.000000 0.848020
0.622492 0.000000 0.848112
0.773098 0.542870 0.815702
0.849454 0.547356 0.800748
0.932494 0.541131 0.784451
0.000000 0.258579 0.840452
0.000000 0.237980 0.841337
0.000000 0.156374 0.843626
0.282475 0.088991 0.845640
0.597498 0.170932 0.846159
0.771481 0.572503 0.817807
0.851835 0.603876 0.802548
0.935180 0.594018 0.788479
0.000000 0.451759 0.830961
0.000000 0.437690 0.831144
0.000000 0.385016 0.833799
0.000000 0.281468 0.840696
0.538872 0.348180 0.841062
0.767880 0.617395 0.823789
0.856504 0.676143 0.805417
0.935790 0.651728 0.789548
0.000000 0.588983 0.800992
0.000000 0.584009 0.801175
0.000000 0.567529 0.805081
0.000000 0.527794 0.816464
0.280278 0.455177 0.825986
0.725856 0.629938 0.823117
0.848203 0.726467 0.798276
0.931365 0.700526 0.782376
0.000000 0.676875 0.760830
0.000000 0.676967 0.762264
0.000000 0.676661 0.767330
0.000000 0.674495 0.778103
0.000000 0.660670 0.794125
0.569451 0.657710 0.812467
0.853330 0.795315 0.800229
0.940887 0.769924 0.782071
0.000000 0.727779 0.708827
0.000000 0.730709 0.711147
0.000000 0.736294 0.714900
0.000000 0.746883 0.722377
0.000000 0.759945 0.731350
0.425299 0.779538 0.746670
0.799924 0.824674 0.772213
0.945403 0.832761 0.771237
0.000000 0.753872 0.652796
0.000000 0.754849 0.652461
0.000000 0.764950 0.656550
0.000000 0.770565 0.652369
0.000000 0.772061 0.636530
0.000000 0.810575 0.623438
0.738033 0.880095 0.679744
0.931182 0.870756 0.709377
0.000000 0.100038 0.885496
0.000000 0.087770 0.885863
0.000000 0.000000 0.885374
0.326177 0.000000 0.885527
0.570123 0.000000 0.885130
0.738491 0.326390 0.875303
0.866941 0.706844 0.848936
0.922301 0.661616 0.847440
0.000000 0.114412 0.883970
0.000000 0.107179 0.884367
0.000000 0.002014 0.884245
0.296422 0.000000 0.884215
0.559777 0.000000 0.883879
0.732876 0.327092 0.874571
0.862821 0.702663 0.847929
0.919188 0.661311 0.845884
0.000000 0.219791 0.880858
0.000000 0.201144 0.881437
0.000000 0.133944 0.881926
0.147982 0.000000 0.883360
0.527733 0.000000 0.882383
0.719142 0.354376 0.874083
0.860288 0.707485 0.848051
0.918242 0.683223 0.844785
0.000000 0.396765 0.874876
0.000000 0.382635 0.875853
0.000000 0.324926 0.877653
0.000000 0.200320 0.881498
0.442115 0.206699 0.880278
0.691554 0.398444 0.874876
0.859342 0.720882 0.849943
0.920439 0.722774 0.844602
0.000000 0.569818 0.862333
0.000000 0.564508 0.863584
0.000000 0.537194 0.866209
0.000000 0.460548 0.871489
0.000000 0.344182 0.876097
0.631861 0.481697 0.870024
0.847837 0.727749 0.851804
0.923339 0.769284 0.844144
0.000000 0.679469 0.843931
0.000000 0.676295 0.844022
0.000000 0.665431 0.845548
0.000000 0.643061 0.850553
0.000000 0.593469 0.860227
0.435248 0.548302 0.866484
0.827054 0.747280 0.856107
0.931029 0.824460 0.844724
0.000000 0.760342 0.821256
0.000000 0.759274 0.821317
0.000000 0.756374 0.822385
0.000000 0.752743 0.826932
0.000000 0.744594 0.834775
0.000000 0.724361 0.847135
0.709377 0.759121 0.854124
0.930327 0.865415 0.842069
0.000000 0.822019 0.793362
0.000000 0.822263 0.793454
0.000000 0.825376 0.795651
0.000000 0.832914 0.801144
0.000000 0.838346 0.804379
0.000000 0.844938 0.808560
0.507469 0.853391 0.814725
0.895750 0.888273 0.829709
