data/fiter_cube/96143635/1022809/file.cube
# Created by Adobe Lightroom plugin Export LUT (1.17.0)
# www.johnrellis.com/lightroom/exportlut.htm
# Preset: 高雅通透灰色调人像_02 云集
# Color profile: C:\Program Files (x86)\Common Files\Adobe\Color\Profiles\Recommended\AdobeRGB1998.icc
LUT_3D_SIZE 8
DOMAIN_MIN 0.000000 0.000000 0.000000
DOMAIN_MAX 0.903226 0.903226 0.903226
0.000000 0.000000 0.000000
0.134890 0.052399 0.055116
0.252598 0.068421 0.075868
0.359777 0.082368 0.095064
0.458320 0.103822 0.120027
0.552087 0.126528 0.145876
0.646113 0.150179 0.172457
0.760464 0.175845 0.202213
0.109316 0.109316 0.109316
0.122713 0.122713 0.122713
0.269444 0.145357 0.092622
0.371862 0.146365 0.109407
0.467506 0.153902 0.131289
0.556939 0.165866 0.154543
0.648463 0.181949 0.179232
0.762020 0.204044 0.208438
0.206088 0.206088 0.206088
0.212070 0.212070 0.212070
0.231724 0.231724 0.231724
0.400824 0.267674 0.187655
0.506828 0.274937 0.176364
0.584955 0.268925 0.191196
0.674464 0.274022 0.211460
0.782712 0.288640 0.237736
0.304295 0.304295 0.304295
0.307347 0.307347 0.307347
0.319066 0.319066 0.319066
0.344793 0.344793 0.344793
0.492683 0.376104 0.321263
0.632624 0.408270 0.263432
0.711421 0.397833 0.271244
0.809415 0.403265 0.290715
0.401495 0.401495 0.401495
0.403571 0.403571 0.403571
0.411810 0.411810 0.411810
0.427405 0.427405 0.427405
0.447059 0.447059 0.447059
0.553063 0.473548 0.441535
0.723445 0.507256 0.387091
0.843534 0.538262 0.373419
0.490394 0.490394 0.490394
0.493538 0.493538 0.493538
0.498634 0.498634 0.498634
0.508019 0.508019 0.508019
0.521447 0.521447 0.521447
0.539910 0.539910 0.539910
0.629358 0.576349 0.556817
0.815671 0.620569 0.526268
0.581170 0.581170 0.581170
0.582818 0.582818 0.582818
0.586633 0.586633 0.586633
0.594659 0.594659 0.594659
0.606317 0.606317 0.606317
0.623163 0.623163 0.623163
0.644892 0.644892 0.644892
0.719997 0.692164 0.682521
0.687312 0.687312 0.687312
0.688380 0.688380 0.688380
0.692592 0.692592 0.692592
0.701259 0.701259 0.701259
0.709377 0.709377 0.709377
0.726467 0.726467 0.726467
0.748623 0.748623 0.748623
0.774166 0.774166 0.774166
0.089906 0.089906 0.089906
0.105898 0.105898 0.105898
0.250309 0.097230 0.148013
0.353429 0.093385 0.145785
0.450690 0.111238 0.158328
0.543053 0.129091 0.173281
0.635920 0.148409 0.191318
0.750912 0.169650 0.215183
0.120119 0.120119 0.120119
0.152377 0.152377 0.152377
0.262547 0.150118 0.152621
0.365484 0.152499 0.158511
0.460670 0.158358 0.168032
0.549615 0.167727 0.181308
0.639399 0.180331 0.197910
0.752529 0.198489 0.220890
0.214359 0.214359 0.214359
0.231968 0.231968 0.231968
0.248844 0.248844 0.248844
0.407019 0.282933 0.211154
0.498207 0.274662 0.207401
0.575891 0.267765 0.214145
0.662745 0.270237 0.227146
0.772213 0.283238 0.248417
0.311192 0.311192 0.311192
0.318517 0.318517 0.318517
0.330083 0.330083 0.330083
0.351141 0.351141 0.351141
0.494270 0.379767 0.325719
0.619440 0.402380 0.279454
0.699092 0.392248 0.283299
0.799680 0.397986 0.299290
0.408759 0.408759 0.408759
0.410468 0.410468 0.410468
0.417731 0.417731 0.417731
0.431189 0.431189 0.431189
0.449042 0.449042 0.449042
0.555749 0.475013 0.442390
0.722896 0.509361 0.390784
0.837003 0.534661 0.381476
0.493202 0.493202 0.493202
0.494697 0.494697 0.494697
0.499702 0.499702 0.499702
0.509392 0.509392 0.509392
0.523308 0.523308 0.523308
0.542321 0.542321 0.542321
0.633082 0.577935 0.557519
0.816373 0.621332 0.526726
0.581109 0.581109 0.581109
0.581811 0.581811 0.581811
0.586053 0.586053 0.586053
0.594842 0.594842 0.594842
0.607233 0.607233 0.607233
0.623651 0.623651 0.623651
0.644282 0.644282 0.644282
0.720668 0.690700 0.680262
0.687190 0.687190 0.687190
0.688594 0.688594 0.688594
0.693019 0.693019 0.693019
0.701808 0.701808 0.701808
0.713741 0.713741 0.713741
0.729305 0.729305 0.729305
0.749691 0.749691 0.749691
0.774258 0.774258 0.774258
0.158846 0.158846 0.158846
0.170077 0.170077 0.170077
0.204227 0.204227 0.204227
0.315129 0.242832 0.275212
0.453254 0.164279 0.262852
0.528588 0.108125 0.229557
0.621790 0.123079 0.236393
0.739590 0.136294 0.251621
0.194827 0.194827 0.194827
0.206912 0.206912 0.206912
0.229068 0.229068 0.229068
0.338170 0.241733 0.280278
0.454139 0.175601 0.254704
0.534142 0.150057 0.235172
0.626246 0.162173 0.242985
0.743008 0.173007 0.257664
0.232212 0.232212 0.232212
0.247593 0.247593 0.247593
0.287694 0.287694 0.287694
0.386877 0.271519 0.273564
0.480323 0.263584 0.268437
0.560845 0.259709 0.267369
0.648402 0.259861 0.271031
0.760220 0.267369 0.283268
0.318029 0.318029 0.318029
0.329320 0.329320 0.329320
0.362127 0.362127 0.362127
0.380621 0.380621 0.380621
0.522179 0.407965 0.352697
0.604517 0.398779 0.330907
0.686885 0.387884 0.326604
0.790494 0.390295 0.333684
0.412787 0.412787 0.412787
0.420752 0.420752 0.420752
0.441321 0.441321 0.441321
0.453590 0.453590 0.453590
0.469581 0.469581 0.469581
0.578820 0.493111 0.457588
0.731411 0.527214 0.415106
0.828641 0.531029 0.412879
0.498451 0.498451 0.498451
0.503410 0.503410 0.503410
0.514427 0.514427 0.514427
0.522911 0.522911 0.522911
0.535729 0.535729 0.535729
0.553582 0.553582 0.553582
0.650935 0.587762 0.563928
0.828763 0.631769 0.535241
0.588159 0.588159 0.588159
0.591516 0.591516 0.591516
0.597559 0.597559 0.597559
0.605127 0.605127 0.605127
0.616693 0.616693 0.616693
0.633112 0.633112 0.633112
0.654505 0.654505 0.654505
0.738735 0.700801 0.687404
0.693416 0.693416 0.693416
0.695644 0.695644 0.695644
0.699519 0.699519 0.699519
0.708919 0.708919 0.708919
0.720394 0.720394 0.720394
0.736141 0.736141 0.736141
0.756558 0.756558 0.756558
0.781399 0.781399 0.781399
0.235782 0.235782 0.235782
0.244236 0.244236 0.244236
0.267430 0.267430 0.267430
0.298405 0.298405 0.298405
0.377691 0.377691 0.377691
0.518608 0.308446 0.392004
0.628229 0.214817 0.358862
0.724361 0.095796 0.319219
0.266026 0.266026 0.266026
0.271305 0.271305 0.271305
0.287694 0.287694 0.287694
0.313512 0.313512 0.313512
0.389624 0.388281 0.388983
0.525902 0.307164 0.389960
0.627985 0.217197 0.351751
0.721706 0.100526 0.308751
0.299626 0.299626 0.299626
0.310643 0.310643 0.310643
0.336614 0.336614 0.336614
0.356847 0.356847 0.356847
0.445808 0.377630 0.406592
0.551934 0.302525 0.375586
0.624567 0.230076 0.324376
0.736263 0.206760 0.316564
0.338018 0.338018 0.338018
0.347173 0.347173 0.347173
0.376257 0.376257 0.376257
0.419501 0.419501 0.419501
0.501122 0.394354 0.396246
0.573541 0.375402 0.379370
0.658717 0.361486 0.368231
0.768826 0.356817 0.367346
0.420203 0.420203 0.420203
0.427100 0.427100 0.427100
0.450080 0.450080 0.450080
0.483406 0.483406 0.483406
0.497230 0.497230 0.497230
0.614008 0.520348 0.479225
0.714443 0.521172 0.454871
0.812436 0.512596 0.446326
0.503532 0.503532 0.503532
0.509361 0.509361 0.509361
0.524437 0.524437 0.524437
0.546868 0.546868 0.546868
0.558709 0.558709 0.558709
0.574670 0.574670 0.574670
0.683406 0.605615 0.575006
0.850614 0.647333 0.544823
0.590814 0.590814 0.590814
0.594690 0.594690 0.594690
0.607324 0.607324 0.607324
0.624170 0.624170 0.624170
0.635248 0.635248 0.635248
0.650294 0.650294 0.650294
0.669886 0.669886 0.669886
0.765774 0.713497 0.694453
0.696803 0.696803 0.696803
0.699702 0.699702 0.699702
0.709010 0.709010 0.709010
0.721035 0.721035 0.721035
0.731991 0.731991 0.731991
0.747311 0.747311 0.747311
0.767422 0.767422 0.767422
0.792233 0.792233 0.792233
0.315007 0.315007 0.315007
0.320500 0.320500 0.320500
0.336126 0.336126 0.336126
0.359442 0.359442 0.359442
0.390417 0.390417 0.390417
0.466377 0.466377 0.466377
0.579736 0.459785 0.512993
0.719417 0.378607 0.507683
0.335393 0.335393 0.335393
0.339574 0.339574 0.339574
0.351873 0.351873 0.351873
0.371740 0.371740 0.371740
0.400671 0.400671 0.400671
0.473640 0.473640 0.473640
0.586633 0.457160 0.513390
0.723751 0.372930 0.502892
0.373022 0.373022 0.373022
0.381384 0.381384 0.381384
0.392248 0.392248 0.392248
0.409766 0.409766 0.409766
0.432288 0.432288 0.432288
0.495247 0.495247 0.495247
0.607782 0.445289 0.509636
0.737331 0.348669 0.480323
0.401740 0.401740 0.401740
0.409003 0.409003 0.409003
0.432807 0.432807 0.432807
0.461738 0.461738 0.461738
0.477668 0.477668 0.477668
0.540856 0.496925 0.516136
0.641718 0.416938 0.484047
0.742702 0.314702 0.422248
0.438972 0.438972 0.438972
0.444923 0.444923 0.444923
0.463691 0.463691 0.463691
0.492287 0.492287 0.492287
0.525566 0.525566 0.525566
0.592523 0.496376 0.497932
0.673030 0.470161 0.473945
0.779934 0.452735 0.459754
0.506279 0.506279 0.506279
0.510613 0.510613 0.510613
0.524956 0.524956 0.524956
0.549432 0.549432 0.549432
0.580560 0.580560 0.580560
0.597131 0.597101 0.597101
0.723873 0.626856 0.585443
0.843107 0.636744 0.562127
0.593530 0.593530 0.593530
0.596765 0.596765 0.596765
0.608362 0.608362 0.608362
0.628748 0.628748 0.628748
0.653956 0.653956 0.653956
0.668666 0.668666 0.668666
0.687312 0.687312 0.687312
0.801144 0.726558 0.697993
0.697230 0.697230 0.697230
0.699794 0.699794 0.699794
0.708736 0.708736 0.708736
0.726650 0.726650 0.726650
0.745937 0.745937 0.745937
0.760739 0.760739 0.760739
0.780240 0.780240 0.780240
0.804532 0.804532 0.804532
0.398718 0.398718 0.398718
0.402289 0.402289 0.402289
0.412879 0.412879 0.412879
0.431708 0.431708 0.431708
0.454902 0.454902 0.454902
0.479896 0.479896 0.479896
0.551476 0.551476 0.551476
0.656336 0.609277 0.632227
0.411414 0.411414 0.411414
0.414191 0.414191 0.414191
0.423438 0.423438 0.423438
0.440620 0.440620 0.440620
0.461738 0.461738 0.461738
0.485481 0.485481 0.485481
0.555810 0.555810 0.555810
0.662165 0.605768 0.632990
0.447944 0.447944 0.447944
0.450019 0.450019 0.450019
0.457496 0.457496 0.457496
0.470192 0.470192 0.470192
0.486549 0.486549 0.486549
0.506218 0.506218 0.506218
0.572717 0.572717 0.572717
0.683680 0.593927 0.635401
0.474037 0.474037 0.474037
0.478767 0.478767 0.478767
0.495003 0.495003 0.495003
0.510552 0.510552 0.510552
0.523796 0.523796 0.523796
0.540063 0.540063 0.540063
0.601740 0.601740 0.601740
0.719173 0.567529 0.630518
0.498634 0.498634 0.498634
0.502800 0.502800 0.502800
0.516777 0.516777 0.516777
0.539666 0.539666 0.539666
0.564111 0.564111 0.564111
0.578363 0.578363 0.578363
0.643915 0.602960 0.621393
0.761563 0.508873 0.587823
0.528435 0.528435 0.528435
0.532525 0.532525 0.532525
0.544793 0.544793 0.544793
0.565179 0.565179 0.565179
0.592370 0.592370 0.592370
0.629877 0.629877 0.629877
0.702205 0.590509 0.592462
0.803067 0.560357 0.564874
0.599725 0.599725 0.599725
0.603326 0.603326 0.603326
0.614618 0.614618 0.614618
0.633906 0.633906 0.633906
0.661036 0.661036 0.661036
0.696254 0.696254 0.696254
0.714351 0.714351 0.714351
0.851102 0.749630 0.707271
0.701625 0.701625 0.701625
0.703975 0.703975 0.703975
0.712581 0.712581 0.712581
0.728634 0.728634 0.728634
0.751705 0.751705 0.751705
0.780514 0.780514 0.780514
0.800015 0.800015 0.800015
0.823972 0.823972 0.823972
0.489204 0.489204 0.489204
0.491127 0.491127 0.491127
0.498604 0.498604 0.498604
0.510430 0.510430 0.510430
0.525750 0.525750 0.525750
0.544762 0.544762 0.544762
0.567163 0.567163 0.567163
0.649287 0.649287 0.649287
0.499336 0.499336 0.499336
0.500847 0.500847 0.500847
0.507195 0.507195 0.507195
0.517998 0.517998 0.517998
0.532982 0.532982 0.532982
0.551812 0.551812 0.551812
0.573938 0.573938 0.573938
0.655726 0.655726 0.655726
0.521752 0.521752 0.521752
0.523217 0.523217 0.523217
0.528679 0.528679 0.528679
0.538018 0.538018 0.538018
0.551629 0.551629 0.551629
0.568597 0.568597 0.568597
0.588464 0.588464 0.588464
0.666560 0.666560 0.666560
0.547509 0.547509 0.547509
0.550988 0.550988 0.550988
0.560662 0.560662 0.560662
0.568322 0.568322 0.568322
0.579858 0.579858 0.579858
0.594507 0.594507 0.594507
0.612024 0.612024 0.612024
0.686610 0.686610 0.686610
0.569696 0.569696 0.569696
0.573236 0.573236 0.573236
0.584466 0.584466 0.584466
0.602014 0.602014 0.602014
0.617578 0.617578 0.617578
0.631098 0.631098 0.631098
0.647944 0.647944 0.647944
0.718257 0.718257 0.718257
0.597436 0.597436 0.597436
0.600275 0.600275 0.600275
0.610040 0.610040 0.610040
0.626001 0.626001 0.626001
0.648798 0.648798 0.648798
0.675227 0.675227 0.675227
0.691859 0.691859 0.691859
0.766873 0.727565 0.745541
0.629358 0.629358 0.629358
0.631647 0.631647 0.631647
0.640406 0.640406 0.640406
0.655329 0.655329 0.655329
0.678279 0.678279 0.678279
0.710048 0.710048 0.710048
0.752438 0.752438 0.752438
0.835996 0.706325 0.708492
0.709346 0.709346 0.709346
0.711940 0.711940 0.711940
0.719142 0.719142 0.719142
0.734401 0.734401 0.734401
0.758114 0.758114 0.758114
0.790127 0.790127 0.790127
0.830137 0.830137 0.830137
0.854093 0.854093 0.854093
0.597955 0.597955 0.597955
0.599207 0.599207 0.599207
0.604547 0.604547 0.604547
0.613092 0.613092 0.613092
0.625299 0.625299 0.625299
0.640986 0.640986 0.640986
0.659602 0.659602 0.659602
0.681971 0.681971 0.681971
0.604395 0.604395 0.604395
0.605463 0.605463 0.605463
0.610376 0.610376 0.610376
0.618708 0.618708 0.618708
0.630518 0.630518 0.630518
0.645869 0.645869 0.645869
0.664424 0.664424 0.664424
0.686610 0.686610 0.686610
0.621851 0.621851 0.621851
0.622919 0.622919 0.622919
0.627588 0.627588 0.627588
0.634150 0.634150 0.634150
0.645197 0.645197 0.645197
0.659876 0.659876 0.659876
0.677394 0.677394 0.677394
0.698543 0.698543 0.698543
0.647242 0.647242 0.647242
0.648096 0.648096 0.648096
0.652003 0.652003 0.652003
0.658412 0.658412 0.658412
0.668025 0.668025 0.668025
0.681209 0.681209 0.681209
0.697383 0.697383 0.697383
0.717372 0.717372 0.717372
0.667292 0.667292 0.667292
0.669184 0.669184 0.669184
0.676783 0.676783 0.676783
0.688746 0.688746 0.688746
0.697963 0.697963 0.697963
0.710506 0.710506 0.710506
0.726253 0.726253 0.726253
0.745968 0.745968 0.745968
0.692531 0.692531 0.692531
0.694850 0.694850 0.694850
0.702266 0.702266 0.702266
0.714199 0.714199 0.714199
0.731502 0.731502 0.731502
0.748104 0.748104 0.748104
0.762997 0.762997 0.762997
0.783322 0.783322 0.783322
0.723476 0.723476 0.723476
0.725521 0.725521 0.725521
0.732448 0.732448 0.732448
0.744076 0.744076 0.744076
0.761807 0.761807 0.761776
0.786618 0.786618 0.786618
0.816190 0.816190 0.816190
0.837858 0.837858 0.837858
0.761837 0.761837 0.761837
0.763912 0.763912 0.763912
0.770230 0.770230 0.770230
0.781155 0.781155 0.781155
0.798398 0.798398 0.798398
0.823575 0.823575 0.823575
0.858671 0.858671 0.858671
0.905974 0.905974 0.905974
