data/fiter_cube/96143635/1022809/file.cube
# Created by Adobe Lightroom plugin Export LUT (1.17.0)
# www.johnrellis.com/lightroom/exportlut.htm
# Preset: 高雅通透灰色调人像_02 云集
# Color profile: C:\Program Files (x86)\Common Files\Adobe\Color\Profiles\Recommended\AdobeRGB1998.icc
LUT_3D_SIZE 32
DOMAIN_MIN 0.0 0.0 0.0
DOMAIN_MAX 1.0 1.0 1.0
0.000000 0.000000 0.000000
0.051575 0.006226 0.006744
0.076905 0.013519 0.015412
0.103151 0.032197 0.033906
0.134890 0.052399 0.055116
0.166445 0.060548 0.063447
0.196292 0.063111 0.067872
0.224857 0.065766 0.071992
0.252598 0.068421 0.075868
0.280003 0.071321 0.079744
0.307042 0.073945 0.084321
0.333654 0.077638 0.089631
0.359777 0.082368 0.095064
0.385290 0.087739 0.101350
0.410193 0.093202 0.107881
0.434546 0.098512 0.113802
0.458320 0.103822 0.120027
0.481727 0.108980 0.126284
0.503990 0.114382 0.132326
0.528344 0.120363 0.139193
0.552087 0.126528 0.145876
0.575006 0.132601 0.152743
0.597955 0.138521 0.159243
0.621607 0.144442 0.165866
0.646113 0.150179 0.172457
0.671992 0.155978 0.179141
0.699458 0.161837 0.186313
0.728939 0.168734 0.193881
0.760464 0.175845 0.202213
0.794369 0.184146 0.211460
0.830594 0.193576 0.221958
0.868956 0.204379 0.234073
0.034180 0.034180 0.034180
0.044923 0.044923 0.044923
0.076844 0.054780 0.035615
0.105318 0.064393 0.048005
0.137484 0.070710 0.061341
0.168612 0.073823 0.066255
0.198367 0.075746 0.069703
0.226566 0.077546 0.073335
0.254093 0.079072 0.077180
0.281315 0.081483 0.081331
0.308171 0.083497 0.085817
0.334600 0.086763 0.090761
0.360510 0.090730 0.096437
0.386053 0.095186 0.102388
0.410742 0.100343 0.108614
0.434943 0.104799 0.115175
0.458717 0.109773 0.121126
0.481941 0.114321 0.126986
0.504082 0.119509 0.133150
0.528313 0.125307 0.139681
0.551751 0.130739 0.146548
0.574487 0.136721 0.153109
0.597192 0.142214 0.159762
0.620783 0.147707 0.166140
0.645258 0.153353 0.172702
0.671015 0.158846 0.179538
0.698512 0.164797 0.186343
0.727932 0.171481 0.194034
0.759487 0.178531 0.202365
0.793332 0.186618 0.211704
0.829496 0.195773 0.222141
0.867887 0.206821 0.234043
0.064088 0.064088 0.064088
0.066987 0.066987 0.066987
0.070497 0.070497 0.070497
0.104005 0.079194 0.067323
0.140993 0.087251 0.066072
0.172000 0.088960 0.069490
0.201083 0.089906 0.072816
0.229068 0.090425 0.075746
0.256260 0.091707 0.079408
0.283177 0.093202 0.083467
0.309972 0.095094 0.087495
0.336339 0.097566 0.092653
0.362005 0.100832 0.098451
0.387427 0.104768 0.104494
0.412055 0.109133 0.110414
0.436164 0.112978 0.116457
0.459754 0.117372 0.122713
0.482918 0.121798 0.128481
0.504936 0.126101 0.134432
0.529046 0.131441 0.141054
0.552270 0.136538 0.147585
0.574823 0.141878 0.154147
0.597467 0.147341 0.160739
0.620874 0.152438 0.167117
0.645319 0.157931 0.173495
0.671015 0.163180 0.180179
0.698390 0.168856 0.187228
0.727810 0.175509 0.194766
0.759304 0.182284 0.203067
0.793149 0.190341 0.212467
0.829252 0.199557 0.222721
0.867521 0.210178 0.234653
0.085817 0.085817 0.085817
0.087617 0.087617 0.087617
0.090150 0.090150 0.090150
0.095216 0.095216 0.095216
0.132998 0.103914 0.090517
0.179385 0.116548 0.076539
0.207797 0.115755 0.078370
0.234897 0.115236 0.081147
0.261570 0.114778 0.084413
0.288121 0.115175 0.087953
0.314519 0.116396 0.091798
0.340459 0.117891 0.096712
0.365911 0.120424 0.102449
0.390967 0.123262 0.108492
0.415412 0.126406 0.114199
0.439216 0.129335 0.120241
0.462593 0.132570 0.126162
0.485451 0.136141 0.131777
0.507622 0.139712 0.137575
0.530999 0.144076 0.143801
0.553704 0.148684 0.150088
0.575891 0.153292 0.156435
0.598322 0.157961 0.162966
0.621698 0.162509 0.169375
0.646296 0.167605 0.175662
0.672145 0.172702 0.182437
0.699702 0.178256 0.189212
0.729091 0.184451 0.196963
0.760555 0.191196 0.205356
0.794217 0.198917 0.214450
0.830014 0.207797 0.224796
0.868009 0.218143 0.236515
0.109316 0.109316 0.109316
0.110872 0.110872 0.110872
0.112612 0.112612 0.112612
0.116701 0.116701 0.116701
0.122713 0.122713 0.122713
0.155642 0.129885 0.119173
0.209720 0.140230 0.098268
0.243565 0.147463 0.090028
0.269444 0.145357 0.092622
0.295323 0.144594 0.095674
0.321202 0.144411 0.099275
0.346715 0.144991 0.104311
0.371862 0.146365 0.109407
0.396460 0.147799 0.115114
0.420539 0.149538 0.120516
0.444221 0.151675 0.125856
0.467506 0.153902 0.131289
0.489937 0.156405 0.136568
0.512352 0.159243 0.142397
0.534905 0.162356 0.148531
0.556939 0.165866 0.154543
0.578668 0.169863 0.160586
0.600946 0.173770 0.166690
0.624170 0.177981 0.172915
0.648463 0.181949 0.179232
0.674220 0.186709 0.185855
0.701564 0.191836 0.192813
0.730770 0.197391 0.200259
0.762020 0.204044 0.208438
0.795438 0.211551 0.217563
0.831083 0.220035 0.227756
0.868803 0.230259 0.239536
0.133181 0.133181 0.133181
0.134279 0.134279 0.134279
0.135653 0.135653 0.135653
0.138796 0.138796 0.138796
0.143740 0.143740 0.143740
0.149844 0.149844 0.149844
0.176028 0.157168 0.149966
0.232486 0.164462 0.128420
0.279210 0.177340 0.108186
0.305547 0.179110 0.107424
0.330663 0.177432 0.110780
0.355688 0.176608 0.114748
0.380194 0.176455 0.119478
0.404364 0.176883 0.124147
0.428046 0.177157 0.128878
0.451362 0.178195 0.134035
0.474281 0.179385 0.138857
0.495979 0.180606 0.143923
0.518608 0.182589 0.149386
0.540581 0.185031 0.154971
0.562005 0.187625 0.160769
0.583246 0.190158 0.166659
0.613916 0.196658 0.175601
0.637232 0.200107 0.181765
0.661463 0.203983 0.187869
0.686976 0.208011 0.194308
0.714015 0.212772 0.201083
0.742672 0.218082 0.208438
0.773342 0.224216 0.216526
0.806180 0.231235 0.225681
0.841062 0.239567 0.235874
0.877867 0.249332 0.247532
0.158083 0.158083 0.158083
0.158846 0.158846 0.158846
0.159976 0.159976 0.159976
0.162692 0.162692 0.162692
0.166659 0.166659 0.166659
0.171695 0.171695 0.171695
0.178103 0.178103 0.178103
0.196750 0.186191 0.182437
0.255772 0.191836 0.161074
0.307103 0.203494 0.140597
0.344732 0.215885 0.127077
0.369177 0.213382 0.129793
0.393072 0.211643 0.133394
0.416693 0.210361 0.136873
0.439643 0.209293 0.140749
0.462196 0.208865 0.144656
0.484199 0.208682 0.149111
0.506310 0.208927 0.153902
0.528252 0.210147 0.158907
0.549493 0.211368 0.164340
0.570703 0.213077 0.169802
0.592523 0.215335 0.175601
0.615320 0.218051 0.181582
0.639185 0.221134 0.187564
0.663996 0.224460 0.193820
0.689723 0.228275 0.200198
0.716701 0.232700 0.206943
0.745174 0.237583 0.214206
0.775601 0.243290 0.222171
0.808011 0.250004 0.231174
0.842466 0.257847 0.241276
0.878904 0.267338 0.252781
0.181796 0.181796 0.181796
0.182528 0.182528 0.182528
0.183505 0.183505 0.183505
0.185702 0.185702 0.185702
0.188907 0.188907 0.188907
0.193240 0.193240 0.193240
0.198550 0.198550 0.198550
0.204685 0.204685 0.204685
0.216068 0.214237 0.213657
0.276493 0.218601 0.192996
0.329595 0.229252 0.173861
0.378210 0.242832 0.153597
0.405249 0.248661 0.149477
0.428138 0.245884 0.151736
0.450538 0.243412 0.154696
0.472541 0.241520 0.157687
0.494301 0.240146 0.161135
0.516045 0.239567 0.165377
0.536584 0.239078 0.169711
0.556725 0.239170 0.174319
0.577081 0.239872 0.179477
0.598352 0.240970 0.184665
0.620783 0.242954 0.190036
0.644129 0.245274 0.195773
0.668482 0.247990 0.201572
0.693874 0.251286 0.207797
0.720424 0.255009 0.214298
0.748531 0.259434 0.221317
0.778622 0.264866 0.229129
0.810605 0.271244 0.237888
0.844724 0.278904 0.247898
0.880735 0.287999 0.259373
0.206088 0.206088 0.206088
0.206729 0.206729 0.206729
0.207553 0.207553 0.207553
0.209293 0.209293 0.209293
0.212070 0.212070 0.212070
0.215610 0.215610 0.215610
0.220096 0.220096 0.220096
0.225559 0.225559 0.225559
0.231724 0.231724 0.231724
0.241123 0.241123 0.241123
0.296971 0.246403 0.225376
0.351476 0.255406 0.206607
0.400824 0.267674 0.187655
0.440314 0.280613 0.172091
0.463691 0.280461 0.171420
0.485298 0.277287 0.173281
0.506828 0.274937 0.176364
0.527062 0.272770 0.179416
0.546105 0.270573 0.182986
0.565332 0.269444 0.186831
0.584955 0.268925 0.191196
0.605829 0.269047 0.195682
0.627710 0.270176 0.200717
0.650629 0.271824 0.205844
0.674464 0.274022 0.211460
0.699367 0.276524 0.217136
0.725490 0.279789 0.223423
0.753170 0.283787 0.230137
0.782712 0.288640 0.237736
0.814267 0.294835 0.246281
0.847745 0.302068 0.256291
0.883238 0.310765 0.267491
0.230442 0.230442 0.230442
0.231022 0.231022 0.231022
0.231662 0.231662 0.231662
0.233188 0.233188 0.233188
0.235477 0.235477 0.235477
0.238499 0.238499 0.238499
0.242496 0.242496 0.242496
0.247074 0.247074 0.247074
0.252567 0.252567 0.252567
0.258701 0.258701 0.258701
0.267369 0.267369 0.267369
0.317113 0.273869 0.256992
0.372381 0.281590 0.238285
0.422522 0.292485 0.219913
0.469917 0.305760 0.200839
0.500359 0.316350 0.192355
0.520409 0.312139 0.193942
0.539178 0.308049 0.196048
0.557153 0.304723 0.198672
0.575250 0.301884 0.201877
0.594354 0.300206 0.205173
0.614374 0.299321 0.209110
0.635584 0.299413 0.213107
0.657618 0.299962 0.217777
0.680903 0.301427 0.222629
0.705165 0.303441 0.228031
0.730892 0.306126 0.233951
0.758267 0.309819 0.240391
0.787472 0.314427 0.247745
0.818631 0.320256 0.256291
0.851835 0.327367 0.266117
0.886870 0.335760 0.277409
0.254582 0.254582 0.254582
0.255009 0.255009 0.255009
0.255589 0.255589 0.255589
0.256870 0.256870 0.256870
0.258915 0.258915 0.258915
0.261631 0.261631 0.261631
0.265141 0.265141 0.265141
0.269261 0.269261 0.269261
0.273960 0.273960 0.273960
0.279576 0.279576 0.279576
0.285588 0.285588 0.285588
0.293492 0.293492 0.293492
0.337316 0.301732 0.288365
0.394507 0.308965 0.270481
0.446296 0.319402 0.253056
0.492958 0.331212 0.234989
0.530388 0.342321 0.218540
0.551385 0.345098 0.215152
0.568200 0.339879 0.216556
0.585779 0.335943 0.218509
0.604273 0.333135 0.221164
0.623987 0.331334 0.224033
0.644587 0.330419 0.227787
0.666224 0.330419 0.231632
0.688899 0.331090 0.236179
0.712703 0.332464 0.240940
0.737789 0.334630 0.246311
0.764492 0.337804 0.252567
0.793057 0.341833 0.259678
0.823514 0.347234 0.267857
0.856077 0.354040 0.277501
0.890501 0.362249 0.288701
0.278813 0.278813 0.278813
0.279149 0.279149 0.279149
0.279789 0.279789 0.279789
0.280797 0.280797 0.280797
0.282567 0.282567 0.282567
0.285100 0.285100 0.285100
0.288121 0.288121 0.288121
0.291814 0.291814 0.291814
0.296086 0.296086 0.296086
0.300999 0.300999 0.300999
0.306493 0.306493 0.306493
0.313573 0.313573 0.313573
0.325872 0.325872 0.325872
0.364050 0.336187 0.326055
0.422400 0.342138 0.307713
0.474464 0.351019 0.289952
0.519310 0.360449 0.271946
0.558129 0.369635 0.253147
0.585321 0.378729 0.242130
0.603540 0.376226 0.241489
0.621424 0.372015 0.242679
0.640223 0.368994 0.244816
0.659968 0.366735 0.247318
0.680751 0.365759 0.250492
0.702510 0.365332 0.254063
0.725521 0.365850 0.258335
0.749783 0.367224 0.263188
0.775601 0.369635 0.268803
0.803220 0.373297 0.275578
0.832761 0.378058 0.283360
0.864256 0.384314 0.292638
0.897673 0.392096 0.303532
0.304295 0.304295 0.304295
0.304723 0.304723 0.304723
0.305119 0.305119 0.305119
0.305974 0.305974 0.305974
0.307347 0.307347 0.307347
0.309331 0.309331 0.309331
0.311986 0.311986 0.311986
0.315160 0.315160 0.315160
0.319066 0.319066 0.319066
0.324651 0.324651 0.324651
0.330816 0.330816 0.330816
0.337591 0.337591 0.337591
0.344793 0.344793 0.344793
0.352300 0.352300 0.352300
0.383642 0.363928 0.357000
0.442054 0.368994 0.338933
0.492683 0.376104 0.321263
0.535607 0.383673 0.303685
0.573754 0.391485 0.285771
0.609552 0.400610 0.268376
0.632624 0.408270 0.263432
0.650965 0.404120 0.264256
0.670069 0.401068 0.266056
0.690181 0.398932 0.268315
0.711421 0.397833 0.271244
0.733730 0.397620 0.274846
0.757351 0.398352 0.279271
0.782467 0.400275 0.284489
0.809415 0.403265 0.290715
0.838376 0.407813 0.298222
0.869200 0.413672 0.307225
0.901884 0.421118 0.317967
0.327886 0.327886 0.327886
0.328191 0.328191 0.328191
0.328527 0.328527 0.328527
0.329320 0.329320 0.329320
0.330571 0.330571 0.330571
0.332586 0.332586 0.332586
0.335485 0.335485 0.335485
0.338933 0.338933 0.338933
0.342962 0.342962 0.342962
0.347723 0.347723 0.347723
0.353033 0.353033 0.353033
0.358984 0.358984 0.358984
0.365484 0.365484 0.365484
0.372168 0.372168 0.372168
0.379034 0.379034 0.379034
0.402289 0.390936 0.387091
0.459815 0.394873 0.369207
0.508415 0.400183 0.351476
0.550408 0.406439 0.334539
0.589624 0.414069 0.317754
0.627924 0.423102 0.300481
0.659022 0.433204 0.289189
0.681147 0.436774 0.286992
0.700740 0.433906 0.288518
0.721340 0.431922 0.290715
0.743008 0.430976 0.293645
0.765957 0.431067 0.297429
0.790463 0.432380 0.302098
0.816739 0.435004 0.307927
0.844907 0.438972 0.315221
0.874998 0.444495 0.323980
0.906950 0.451728 0.334478
0.352941 0.352941 0.352941
0.353338 0.353338 0.353338
0.353613 0.353613 0.353613
0.354437 0.354437 0.354437
0.355627 0.355627 0.355627
0.357458 0.357458 0.357458
0.359838 0.359838 0.359838
0.362646 0.362646 0.362646
0.366155 0.366155 0.366155
0.370336 0.370336 0.370336
0.375006 0.375006 0.375006
0.380407 0.380407 0.380407
0.386145 0.386145 0.386145
0.392218 0.392218 0.392218
0.398505 0.398505 0.398505
0.404791 0.404791 0.404791
0.420294 0.417212 0.416175
0.475868 0.420020 0.398596
0.523400 0.423987 0.381109
0.565545 0.430030 0.365454
0.606073 0.437690 0.349828
0.645533 0.446540 0.333623
0.684047 0.456428 0.316686
0.710689 0.467536 0.311620
0.731777 0.467262 0.312352
0.753017 0.465614 0.314519
0.775479 0.465248 0.317815
0.799557 0.466163 0.322179
0.825345 0.468391 0.327855
0.853025 0.472145 0.334783
0.882536 0.477516 0.343511
0.913787 0.484382 0.353948
0.377874 0.377874 0.377874
0.378149 0.378149 0.378149
0.378454 0.378454 0.378454
0.379156 0.379156 0.379156
0.380316 0.380316 0.380316
0.381933 0.381933 0.381933
0.384009 0.384009 0.384009
0.386664 0.386664 0.386664
0.389776 0.389776 0.389776
0.393408 0.393408 0.393408
0.397467 0.397467 0.397467
0.402106 0.402106 0.402106
0.407050 0.407050 0.407050
0.412360 0.412360 0.412360
0.417700 0.417700 0.417700
0.423438 0.423438 0.423438
0.429114 0.429114 0.429114
0.440894 0.440894 0.440894
0.491188 0.444770 0.427436
0.538018 0.448707 0.411627
0.581567 0.454871 0.396948
0.623529 0.462715 0.382422
0.664210 0.471687 0.367498
0.703914 0.481483 0.351781
0.738399 0.492470 0.340276
0.764370 0.502037 0.338231
0.786221 0.500999 0.340887
0.809628 0.501396 0.344701
0.834623 0.503136 0.349920
0.861387 0.506340 0.356359
0.889830 0.511009 0.364538
0.919951 0.517449 0.374640
0.401495 0.401495 0.401495
0.401617 0.401617 0.401617
0.401953 0.401953 0.401953
0.402625 0.402625 0.402625
0.403571 0.403571 0.403571
0.404974 0.404974 0.404974
0.406836 0.406836 0.406836
0.409033 0.409033 0.409033
0.411810 0.411810 0.411810
0.415198 0.415198 0.415198
0.418830 0.418830 0.418830
0.422980 0.422980 0.422980
0.427405 0.427405 0.427405
0.432136 0.432136 0.432136
0.436988 0.436988 0.436988
0.441901 0.441901 0.441901
0.447059 0.447059 0.447059
0.452369 0.452369 0.452369
0.463142 0.463142 0.463142
0.506310 0.469032 0.455482
0.553063 0.473548 0.441535
0.597833 0.480018 0.428077
0.640955 0.488197 0.414984
0.682704 0.497353 0.401373
0.723445 0.507256 0.387091
0.763302 0.517967 0.371893
0.793698 0.530541 0.367346
0.819242 0.536980 0.368872
0.843534 0.538262 0.373419
0.869474 0.540948 0.379522
0.897063 0.545281 0.387427
0.926329 0.551232 0.397101
0.424689 0.424689 0.424689
0.424872 0.424872 0.424872
0.429694 0.429694 0.429694
0.430152 0.430152 0.430152
0.431037 0.431037 0.431037
0.432105 0.432105 0.432105
0.433570 0.433570 0.433570
0.435340 0.435340 0.435340
0.437659 0.437659 0.437659
0.440436 0.440436 0.440436
0.443610 0.443610 0.443610
0.446967 0.446967 0.446967
0.450660 0.450660 0.450660
0.454688 0.454688 0.454688
0.458839 0.458839 0.458839
0.463142 0.463142 0.463142
0.467659 0.467659 0.467659
0.472328 0.472328 0.472328
0.477150 0.477150 0.477150
0.486976 0.486976 0.486976
0.523613 0.494606 0.484352
0.571405 0.499916 0.471992
0.617243 0.506889 0.459754
0.661280 0.515557 0.448188
0.703639 0.525017 0.436164
0.744991 0.535180 0.423407
0.785489 0.545983 0.409949
0.822995 0.557885 0.398749
0.852079 0.572229 0.399176
0.877745 0.576013 0.404181
0.904417 0.579583 0.411109
0.932586 0.584741 0.419898
0.448157 0.448157 0.448157
0.448981 0.448981 0.448981
0.449744 0.449744 0.449744
0.450782 0.450782 0.450782
0.451881 0.451881 0.451881
0.453071 0.453071 0.453071
0.454536 0.454536 0.454536
0.456123 0.456123 0.456123
0.458289 0.458289 0.458289
0.460670 0.460670 0.460670
0.463416 0.463416 0.463416
0.466499 0.466499 0.466499
0.469856 0.469856 0.469856
0.473365 0.473365 0.473365
0.477119 0.477119 0.477119
0.480995 0.480995 0.480995
0.485084 0.485084 0.485084
0.489296 0.489296 0.489296
0.493904 0.493904 0.493904
0.498756 0.498756 0.498756
0.507866 0.507866 0.507866
0.540002 0.517571 0.509789
0.588708 0.523857 0.499153
0.635523 0.531579 0.488350
0.680446 0.540948 0.478279
0.723873 0.551141 0.468025
0.766201 0.562158 0.457343
0.807828 0.573846 0.446174
0.848875 0.586206 0.434424
0.882658 0.600610 0.431495
0.912016 0.613916 0.435431
0.939147 0.618311 0.443244
0.469429 0.469429 0.469429
0.470192 0.470192 0.470192
0.470924 0.470924 0.470924
0.471839 0.471839 0.471839
0.472816 0.472816 0.472816
0.473945 0.473945 0.473945
0.475166 0.475166 0.475166
0.476692 0.476692 0.476692
0.478492 0.478492 0.478492
0.480720 0.480720 0.480720
0.483223 0.483223 0.483223
0.486030 0.486030 0.486030
0.488991 0.488991 0.488991
0.492287 0.492287 0.492287
0.495644 0.495644 0.495644
0.499123 0.499123 0.499123
0.502861 0.502861 0.502861
0.506798 0.506798 0.506798
0.511070 0.511070 0.511070
0.515679 0.515679 0.515679
0.520623 0.520623 0.520623
0.529534 0.529534 0.529534
0.557488 0.541436 0.535943
0.607324 0.548455 0.526360
0.655085 0.556695 0.516655
0.701045 0.566522 0.507591
0.745388 0.577478 0.498878
0.788815 0.589410 0.490089
0.831388 0.602075 0.481147
0.873320 0.615351 0.471901
0.913725 0.629084 0.462898
0.944152 0.645869 0.467720
0.490394 0.490394 0.490394
0.491066 0.491066 0.491066
0.491768 0.491768 0.491768
0.492592 0.492592 0.492592
0.493538 0.493538 0.493538
0.494545 0.494545 0.494545
0.495705 0.495705 0.495705
0.496956 0.496956 0.496956
0.498634 0.498634 0.498634
0.500542 0.500542 0.500542
0.502739 0.502739 0.502739
0.505303 0.505303 0.505303
0.508019 0.508019 0.508019
0.511009 0.511009 0.511009
0.514214 0.514214 0.514214
0.517662 0.517662 0.517662
0.521447 0.521447 0.521447
0.525566 0.525566 0.525566
0.529992 0.529992 0.529992
0.534722 0.534722 0.534722
0.539910 0.539910 0.539910
0.545434 0.545434 0.545434
0.554223 0.554223 0.554223
0.578241 0.568444 0.565148
0.629358 0.576349 0.556817
0.678279 0.585443 0.548486
0.725460 0.595911 0.540520
0.771176 0.607782 0.533288
0.815671 0.620569 0.526268
0.859220 0.634089 0.519188
0.901640 0.648066 0.511986
0.942809 0.662257 0.504540
0.513054 0.513054 0.513054
0.513451 0.513451 0.513451
0.513756 0.513756 0.513756
0.514336 0.514336 0.514336
0.515038 0.515038 0.515038
0.515831 0.515831 0.515831
0.516869 0.516869 0.516869
0.518151 0.518151 0.518151
0.519738 0.519738 0.519738
0.521660 0.521660 0.521660
0.523919 0.523919 0.523919
0.526390 0.526390 0.526390
0.529076 0.529076 0.529076
0.531975 0.531975 0.531975
0.535088 0.535088 0.535088
0.538384 0.538384 0.538384
0.542016 0.542016 0.542016
0.545861 0.545861 0.545861
0.550164 0.550164 0.550164
0.554650 0.554650 0.554650
0.559533 0.559533 0.559533
0.564691 0.564691 0.564691
0.570153 0.570153 0.570153
0.578271 0.578271 0.578271
0.597955 0.594446 0.593317
0.649928 0.603174 0.586267
0.699947 0.613184 0.579278
0.748226 0.624414 0.572625
0.795010 0.637354 0.567224
0.840482 0.651118 0.562066
0.884672 0.665522 0.557000
0.927428 0.680262 0.552087
0.534356 0.534356 0.534356
0.534722 0.534722 0.534722
0.535119 0.535119 0.535119
0.535637 0.535637 0.535637
0.536309 0.536309 0.536309
0.537041 0.537041 0.537041
0.538018 0.538018 0.538018
0.539269 0.539269 0.539269
0.540703 0.540703 0.540703
0.542535 0.542535 0.542535
0.544701 0.544701 0.544701
0.547051 0.547051 0.547051
0.549676 0.549676 0.549676
0.552453 0.552453 0.552453
0.555505 0.555505 0.555505
0.558831 0.558831 0.558831
0.562371 0.562371 0.562371
0.566278 0.566278 0.566278
0.570459 0.570459 0.570459
0.575006 0.575006 0.575006
0.579858 0.579858 0.579858
0.585077 0.585077 0.585077
0.590570 0.590570 0.590570
0.596277 0.596277 0.596277
0.602380 0.602380 0.602380
0.620233 0.620233 0.620233
0.671077 0.630610 0.616175
0.722072 0.641749 0.610956
0.771481 0.654108 0.606012
0.819333 0.668025 0.602319
0.865599 0.682918 0.599329
0.910277 0.698451 0.596704
0.558312 0.558312 0.558312
0.558740 0.558740 0.558740
0.559014 0.559014 0.559014
0.559472 0.559472 0.559472
0.559991 0.559991 0.559991
0.560693 0.560693 0.560693
0.561456 0.561456 0.561456
0.562432 0.562432 0.562432
0.563745 0.563745 0.563745
0.565270 0.565270 0.565270
0.567071 0.567071 0.567071
0.569177 0.569177 0.569177
0.571588 0.571588 0.571588
0.574121 0.574121 0.574121
0.576867 0.576867 0.576867
0.579858 0.579858 0.579858
0.583154 0.583154 0.583154
0.586755 0.586755 0.586755
0.590875 0.590875 0.590875
0.595331 0.595331 0.595331
0.600183 0.600183 0.600183
0.605341 0.605341 0.605341
0.610742 0.610742 0.610742
0.616266 0.616266 0.616266
0.621973 0.621973 0.621973
0.628626 0.628626 0.628626
0.647425 0.647425 0.647425
0.694331 0.660182 0.648219
0.746212 0.672480 0.644709
0.796567 0.686030 0.641718
0.845212 0.701015 0.639826
0.892027 0.717189 0.639216
0.581170 0.581170 0.581170
0.581567 0.581567 0.581567
0.581872 0.581872 0.581872
0.582300 0.582300 0.582300
0.582818 0.582818 0.582818
0.583459 0.583459 0.583459
0.584314 0.584314 0.584314
0.585351 0.585351 0.585351
0.586633 0.586633 0.586633
0.588220 0.588220 0.588220
0.590082 0.590082 0.590082
0.592218 0.592218 0.592218
0.594659 0.594659 0.594659
0.597223 0.597223 0.597223
0.600031 0.600031 0.600031
0.603052 0.603052 0.603052
0.606317 0.606317 0.606317
0.609918 0.609918 0.609918
0.613977 0.613977 0.613977
0.618402 0.618402 0.618402
0.623163 0.623163 0.623163
0.628260 0.628260 0.628260
0.633570 0.633570 0.633570
0.639124 0.639124 0.639124
0.644892 0.644892 0.644892
0.650752 0.650752 0.650752
0.656916 0.656916 0.656916
0.676692 0.676692 0.676692
0.719997 0.692164 0.682521
0.773007 0.705928 0.681056
0.824186 0.720943 0.680354
0.873442 0.737148 0.680659
0.605737 0.605737 0.605737
0.606012 0.606012 0.606012
0.606256 0.606256 0.606256
0.606592 0.606592 0.606592
0.606989 0.606989 0.606989
0.607538 0.607538 0.607538
0.608301 0.608301 0.608301
0.609277 0.609277 0.609277
0.610498 0.610498 0.610498
0.612116 0.612116 0.612116
0.613916 0.613916 0.613916
0.616083 0.616083 0.616083
0.618494 0.618494 0.618494
0.621118 0.621118 0.621118
0.623835 0.623835 0.623835
0.626825 0.626825 0.626825
0.630030 0.630030 0.630030
0.633570 0.633570 0.633570
0.637537 0.637537 0.637537
0.641901 0.641901 0.641901
0.646601 0.646601 0.646601
0.651637 0.651637 0.651637
0.656916 0.656916 0.656916
0.662440 0.662440 0.662440
0.668147 0.668147 0.668147
0.674067 0.674067 0.674067
0.680262 0.680262 0.680262
0.686702 0.686702 0.686702
0.706538 0.706538 0.706538
0.746242 0.724697 0.717311
0.800168 0.739956 0.717983
0.852018 0.756527 0.719661
0.630732 0.630732 0.630732
0.630976 0.630976 0.630976
0.631220 0.631220 0.631220
0.631525 0.631525 0.631525
0.632044 0.632044 0.632044
0.632776 0.632776 0.632776
0.633906 0.633906 0.633906
0.635248 0.635248 0.635248
0.636957 0.636957 0.636957
0.638972 0.638972 0.638972
0.641260 0.641260 0.641260
0.643793 0.643793 0.643793
0.646509 0.646509 0.646509
0.649409 0.649409 0.649409
0.652399 0.652399 0.652399
0.655421 0.655421 0.655421
0.658686 0.658686 0.658686
0.662257 0.662257 0.662257
0.666194 0.666194 0.666194
0.670497 0.670497 0.670497
0.675135 0.675135 0.675135
0.680140 0.680140 0.680140
0.685328 0.685328 0.685328
0.690791 0.690791 0.690791
0.696498 0.696498 0.696498
0.702388 0.702388 0.702388
0.708583 0.708583 0.708583
0.715084 0.715084 0.715084
0.721889 0.721889 0.721889
0.741695 0.741695 0.741695
0.777829 0.762448 0.757259
0.832303 0.779263 0.760189
0.659815 0.659815 0.659815
0.660029 0.660029 0.660029
0.660151 0.660151 0.660151
0.660426 0.660426 0.660426
0.660822 0.660822 0.660822
0.661433 0.661433 0.661433
0.662318 0.662318 0.662318
0.663447 0.663447 0.663447
0.664881 0.664881 0.664881
0.666590 0.666590 0.666590
0.668513 0.668513 0.668513
0.670741 0.670741 0.670741
0.673182 0.673182 0.673182
0.675837 0.675837 0.675837
