data/fiter_cube/96143635/1022809/file.cube
# Created by Adobe Lightroom plugin Export LUT (1.17.0)
# www.johnrellis.com/lightroom/exportlut.htm
# Preset: 高雅通透灰色调人像_02 云集
# Color profile: C:\Program Files (x86)\Common Files\Adobe\Color\Profiles\Recommended\AdobeRGB1998.icc
LUT_3D_SIZE 5
DOMAIN_MIN 0.000000 0.000000 0.000000
DOMAIN_MAX 0.903226 0.903226 0.903226
0.000000 0.000000 0.000000
0.224857 0.065766 0.071992
0.410193 0.093202 0.107881
0.575006 0.132601 0.152743
0.760464 0.175845 0.202213
0.181796 0.181796 0.181796
0.204685 0.204685 0.204685
0.450538 0.243412 0.154696
0.598352 0.240970 0.184665
0.778622 0.264866 0.229129
0.352941 0.352941 0.352941
0.362646 0.362646 0.362646
0.398505 0.398505 0.398505
0.645533 0.446540 0.333623
0.825345 0.468391 0.327855
0.513054 0.513054 0.513054
0.518151 0.518151 0.518151
0.535088 0.535088 0.535088
0.564691 0.564691 0.564691
0.795010 0.637354 0.567224
0.687312 0.687312 0.687312
0.691096 0.691096 0.691096
0.702754 0.702754 0.702754
0.731624 0.731624 0.731624
0.774166 0.774166 0.774166
0.140139 0.140139 0.140139
0.179294 0.179294 0.179294
0.405768 0.150576 0.236728
0.554192 0.120333 0.215427
0.741756 0.149722 0.241001
0.205356 0.205356 0.205356
0.254856 0.254856 0.254856
0.427405 0.235630 0.239658
0.577844 0.234134 0.243809
0.758785 0.247807 0.265293
0.364202 0.364202 0.364202
0.390295 0.390295 0.390295
0.418402 0.418402 0.418402
0.649928 0.464118 0.360723
0.812985 0.462165 0.361242
0.521660 0.521660 0.521660
0.531365 0.531365 0.531365
0.547173 0.547173 0.547173
0.575128 0.575128 0.575128
0.806271 0.645716 0.573480
0.694392 0.694392 0.694392
0.698085 0.698085 0.698085
0.712703 0.712703 0.712703
0.739651 0.739651 0.739651
0.781094 0.781094 0.781094
0.275792 0.275792 0.275792
0.295720 0.295720 0.295720
0.343664 0.343664 0.343664
0.516472 0.404242 0.454292
0.739345 0.224521 0.410895
0.330144 0.330144 0.330144
0.347387 0.347387 0.347387
0.383581 0.383581 0.383581
0.542718 0.396063 0.454261
0.736751 0.227268 0.385534
0.389685 0.389685 0.389685
0.413428 0.413428 0.413428
0.476356 0.476356 0.476356
0.600488 0.431983 0.435126
0.773770 0.405341 0.413916
0.525933 0.525933 0.525933
0.539300 0.539300 0.539300
0.580957 0.580957 0.580957
0.607172 0.607172 0.607172
0.846036 0.669306 0.584894
0.696101 0.696101 0.696101
0.705745 0.705745 0.705745
0.732357 0.732357 0.732357
0.757321 0.757321 0.757321
0.796872 0.796872 0.796872
0.419776 0.419776 0.419776
0.429938 0.429938 0.429938
0.460700 0.460700 0.460700
0.500267 0.500267 0.500267
0.642176 0.642176 0.642176
0.455055 0.455055 0.455055
0.462318 0.462318 0.462318
0.484901 0.484901 0.484901
0.517906 0.517906 0.517906
0.654139 0.651606 0.652888
0.500633 0.500633 0.500633
0.514366 0.514366 0.514366
0.546899 0.546899 0.546899
0.573327 0.573327 0.573327
0.722621 0.606043 0.655726
0.552514 0.552514 0.552514
0.562951 0.562951 0.562951
0.597436 0.597436 0.597436
0.657954 0.657954 0.657954
0.808286 0.590753 0.594751
0.702663 0.702663 0.702663
0.711299 0.711299 0.711299
0.740963 0.740963 0.740963
0.791989 0.791989 0.791989
0.829709 0.829709 0.829709
0.597955 0.597955 0.597955
0.602960 0.602960 0.602960
0.618677 0.618677 0.618677
0.645319 0.645319 0.645319
0.681971 0.681971 0.681971
0.616205 0.616205 0.616205
0.620356 0.620356 0.620356
0.634363 0.634363 0.634363
0.659510 0.659510 0.659510
0.694240 0.694240 0.694240
0.657008 0.657008 0.657008
0.664607 0.664607 0.664607
0.677913 0.677913 0.677913
0.699641 0.699641 0.699641
0.730709 0.730709 0.730709
0.698726 0.698726 0.698726
0.705806 0.705806 0.705806
0.727901 0.727901 0.727901
0.763149 0.763149 0.763149
0.795804 0.795804 0.795804
0.761837 0.761837 0.761837
0.768246 0.768246 0.768246
0.788846 0.788846 0.788846
0.831296 0.831296 0.831296
0.905974 0.905974 0.905974
