data/fiter_cube/93231427/1022692/file.cube
# Created by Adobe Lightroom plugin Export LUT (1.17.0)
# www.johnrellis.com/lightroom/exportlut.htm
# Preset: 工业风黑金_04 云集后期
# Color profile: C:\Program Files (x86)\Common Files\Adobe\Color\Profiles\Recommended\AdobeRGB1998.icc
LUT_3D_SIZE 32
DOMAIN_MIN 0.0 0.0 0.0
DOMAIN_MAX 1.0 1.0 1.0
0.025452 0.080812 0.076844
0.025452 0.080812 0.076844
0.025452 0.080812 0.076844
0.043793 0.081270 0.076631
0.062226 0.081636 0.076387
0.074464 0.082673 0.077333
0.088685 0.084291 0.079103
0.106294 0.085267 0.080995
0.128328 0.085298 0.082856
0.155764 0.083558 0.084382
0.189364 0.078553 0.086244
0.229221 0.068788 0.087373
0.274205 0.039216 0.088533
0.323308 0.000000 0.089326
0.374365 0.000000 0.089693
0.426581 0.000000 0.089845
0.478126 0.000000 0.089631
0.530022 0.000000 0.088624
0.581018 0.000000 0.087709
0.631434 0.000000 0.086702
0.699763 0.000000 0.086122
0.763394 0.000000 0.087892
0.814725 0.000000 0.093294
0.857267 0.000000 0.102693
0.892454 0.000000 0.115908
0.923003 0.114565 0.132998
0.950896 0.182406 0.155337
0.976318 0.238193 0.184756
0.999664 0.290867 0.222690
1.000000 0.344213 0.271183
1.000000 0.399298 0.331701
1.000000 0.457404 0.404334
0.025452 0.080812 0.076844
0.025452 0.080812 0.076844
0.026642 0.081086 0.076783
0.046021 0.082185 0.076539
0.064118 0.082765 0.076265
0.075898 0.084108 0.077516
0.090486 0.085542 0.079255
0.108034 0.086458 0.081117
0.129976 0.086427 0.083009
0.157931 0.084443 0.084504
0.191348 0.080079 0.086275
0.230472 0.070405 0.087434
0.274876 0.044648 0.088655
0.322850 0.000000 0.089479
0.373358 0.000000 0.089845
0.424384 0.000000 0.089876
0.475929 0.000000 0.089631
0.526482 0.000000 0.088930
0.576959 0.000000 0.087922
0.627283 0.000000 0.087007
0.694179 0.000000 0.086152
0.755093 0.000000 0.087526
0.805661 0.000000 0.091920
0.847684 0.000000 0.100252
0.883482 0.000000 0.111604
0.915007 0.098299 0.127352
0.943847 0.170596 0.148104
0.970245 0.227543 0.176364
0.994598 0.281102 0.212833
1.000000 0.334600 0.259800
1.000000 0.389807 0.318883
1.000000 0.447761 0.390234
0.025452 0.080812 0.076844
0.025299 0.081147 0.076814
0.030213 0.081910 0.076692
0.048646 0.083680 0.076387
0.065797 0.084535 0.076051
0.078248 0.086305 0.077913
0.093141 0.087251 0.079683
0.110964 0.088289 0.081483
0.133639 0.088228 0.082979
0.161807 0.086213 0.085023
0.195834 0.081361 0.086458
0.235538 0.072023 0.087770
0.279881 0.048096 0.088899
0.328069 0.000000 0.089601
0.378485 0.000000 0.089845
0.428870 0.000000 0.090120
0.479988 0.000000 0.089509
0.530144 0.000000 0.088716
0.580041 0.000000 0.087892
0.629480 0.000000 0.087007
0.696162 0.000000 0.086183
0.755032 0.000000 0.087495
0.804135 0.000000 0.092164
0.845518 0.000000 0.099794
0.880949 0.000000 0.110842
0.912169 0.103426 0.125978
0.941070 0.171817 0.146517
0.967803 0.227543 0.173770
0.992493 0.280308 0.209903
1.000000 0.333410 0.256352
1.000000 0.387732 0.314458
1.000000 0.444923 0.384741
0.031434 0.085725 0.077668
0.038117 0.086091 0.077241
0.045380 0.086122 0.076204
0.051759 0.086061 0.076143
0.068360 0.088319 0.075990
0.085237 0.091310 0.078553
0.100893 0.092439 0.080537
0.120821 0.092622 0.082216
0.145144 0.091859 0.083925
0.174868 0.089815 0.085420
0.210971 0.084260 0.086854
0.251957 0.073945 0.088167
0.297368 0.050629 0.089174
0.345464 0.000000 0.089815
0.394690 0.000000 0.090181
0.444953 0.000000 0.089723
0.494545 0.000000 0.089479
0.543664 0.000000 0.088594
0.591333 0.000000 0.087709
0.640497 0.000000 0.086854
0.702602 0.000000 0.086244
0.756985 0.000000 0.088167
0.804166 0.000000 0.092683
0.845304 0.000000 0.100832
0.881712 0.010620 0.112428
0.913878 0.133547 0.129061
0.943206 0.192294 0.150973
0.969909 0.244877 0.179934
0.994110 0.294926 0.216678
1.000000 0.344610 0.262669
1.000000 0.395697 0.319249
1.000000 0.449470 0.386572
0.043641 0.092073 0.081453
0.049439 0.092409 0.081086
0.056489 0.092622 0.080690
0.061280 0.092592 0.078340
0.066438 0.091249 0.075410
0.084413 0.095491 0.077150
0.113008 0.101106 0.081392
0.136049 0.101106 0.083162
0.162783 0.099733 0.084627
0.195163 0.097047 0.086336
0.233249 0.090913 0.087404
0.276616 0.080262 0.088441
0.323186 0.060517 0.089479
0.372473 0.000000 0.089723
0.422919 0.000000 0.089815
0.473213 0.000000 0.089448
0.522484 0.000000 0.088655
0.570520 0.000000 0.087770
0.615534 0.000000 0.087312
0.667140 0.000000 0.086427
0.722438 0.000000 0.086885
0.771542 0.000000 0.089998
0.814847 0.000000 0.095399
0.853178 0.000000 0.104921
0.887297 0.117128 0.117739
0.917998 0.172732 0.135286
0.946075 0.220768 0.157870
0.971466 0.266087 0.186801
0.994659 0.311406 0.223392
1.000000 0.357427 0.268681
1.000000 0.405585 0.324193
1.000000 0.457038 0.390539
0.056367 0.099947 0.085451
0.060090 0.100221 0.085084
0.064332 0.100618 0.084657
0.069123 0.100710 0.082734
0.073487 0.100069 0.079896
0.079774 0.098299 0.076997
0.104921 0.103914 0.078828
0.147097 0.111299 0.082704
0.195682 0.114412 0.085359
0.231785 0.110414 0.086763
0.273564 0.103700 0.087861
0.319158 0.093141 0.088869
0.367529 0.075685 0.089113
0.417243 0.033967 0.089174
0.467659 0.000000 0.088624
0.516442 0.000000 0.087984
0.563561 0.000000 0.087465
0.608667 0.000000 0.086549
0.650660 0.000000 0.086152
0.704158 0.000000 0.086580
0.753750 0.000000 0.089143
0.797665 0.000000 0.094697
0.903838 0.214389 0.141329
0.931762 0.252201 0.164431
0.955016 0.285405 0.189303
0.975036 0.316747 0.216342
0.992889 0.347234 0.246921
1.000000 0.379004 0.282078
1.000000 0.412818 0.323430
1.000000 0.450050 0.372229
1.000000 0.490181 0.427924
1.000000 0.533288 0.488258
0.068238 0.112306 0.090486
0.071901 0.112673 0.090120
0.076173 0.113191 0.089693
0.083803 0.113283 0.088380
0.088106 0.113100 0.084840
0.093294 0.111574 0.081819
0.101015 0.108431 0.079103
0.141115 0.117159 0.080476
0.211398 0.129580 0.083436
0.319280 0.145693 0.084535
0.367803 0.138155 0.085420
0.417182 0.128328 0.085206
0.465614 0.116762 0.084932
0.511925 0.103243 0.084535
0.555840 0.089723 0.083680
0.596551 0.076509 0.083314
0.635492 0.066285 0.083375
0.672267 0.062135 0.084077
0.717067 0.082338 0.086183
0.767605 0.118502 0.091127
0.814115 0.157290 0.101595
0.857053 0.198428 0.117617
0.895201 0.239719 0.139254
0.927581 0.278569 0.166140
0.954040 0.313542 0.196078
0.975280 0.344152 0.226932
0.993072 0.372473 0.259007
1.000000 0.401007 0.294041
1.000000 0.431495 0.334173
1.000000 0.464607 0.380438
1.000000 0.501091 0.433173
1.000000 0.541161 0.490822
0.080995 0.125154 0.094942
0.083986 0.125460 0.094575
0.088594 0.125795 0.094179
0.098970 0.126223 0.093080
0.102815 0.125795 0.090028
0.107973 0.124788 0.086885
0.113558 0.122194 0.084108
0.121920 0.118166 0.080903
0.173861 0.129580 0.081239
0.264652 0.148348 0.082338
0.393256 0.177249 0.079805
0.490242 0.195651 0.075532
0.534966 0.188907 0.075807
0.577691 0.183597 0.075410
0.615381 0.177707 0.076570
0.650446 0.173434 0.077668
0.683772 0.172000 0.079988
0.719814 0.176730 0.082704
0.763302 0.194095 0.089174
0.803159 0.214755 0.099611
0.841123 0.240085 0.114229
0.876738 0.268742 0.133944
0.908812 0.299016 0.158450
0.936431 0.328191 0.186496
0.959594 0.355444 0.216312
0.978546 0.380346 0.246799
0.994751 0.403662 0.277470
1.000000 0.427741 0.311162
1.000000 0.454536 0.350011
1.000000 0.484108 0.394202
1.000000 0.517418 0.444678
1.000000 0.554253 0.499519
0.098177 0.141543 0.099886
0.101442 0.141909 0.099489
0.105653 0.142306 0.099336
0.116091 0.143282 0.098634
0.123812 0.142977 0.096681
0.128328 0.141878 0.093294
0.133730 0.139590 0.089326
0.139651 0.135622 0.085634
0.148806 0.130098 0.082338
0.214572 0.145296 0.080812
0.326970 0.174594 0.078462
0.471107 0.220829 0.067506
0.615961 0.287999 0.048341
0.650904 0.280949 0.058015
0.682063 0.274571 0.064698
0.710292 0.269352 0.071839
0.741451 0.269505 0.078920
0.778012 0.279026 0.089845
0.809964 0.289128 0.103029
0.841032 0.302617 0.118807
0.871183 0.320134 0.138155
0.900023 0.340185 0.161288
0.926116 0.361822 0.188113
0.948852 0.383398 0.217685
0.968353 0.404273 0.247654
0.984436 0.423011 0.276799
0.998596 0.441932 0.306798
1.000000 0.461707 0.338689
1.000000 0.484169 0.375158
1.000000 0.509758 0.416480
1.000000 0.539055 0.463294
1.000000 0.572015 0.513848
0.119020 0.163424 0.106752
0.122560 0.163760 0.106355
0.127077 0.164096 0.106172
0.137392 0.165133 0.105226
0.151339 0.164920 0.104036
0.155215 0.163821 0.099977
0.160189 0.161501 0.095583
0.165377 0.157565 0.091188
0.171054 0.151431 0.087098
0.180880 0.144411 0.082551
0.258183 0.163973 0.078614
0.388617 0.206088 0.069978
0.539117 0.268986 0.035248
0.677028 0.346197 0.007019
0.745205 0.376928 0.060975
0.776394 0.375677 0.080812
0.807675 0.378851 0.099397
0.833738 0.380682 0.118685
0.857389 0.384466 0.137118
0.879911 0.390143 0.156741
0.901946 0.399084 0.177951
0.922850 0.409949 0.201480
0.942138 0.422431 0.226658
0.959380 0.435584 0.253147
0.974914 0.449531 0.280186
0.988678 0.463386 0.307347
1.000000 0.478462 0.335882
1.000000 0.495460 0.367498
1.000000 0.515465 0.403601
1.000000 0.538903 0.444404
1.000000 0.566125 0.489693
1.000000 0.596826 0.537957
0.143984 0.189578 0.113863
0.147555 0.190005 0.113466
0.152377 0.190646 0.113191
0.163394 0.191989 0.112337
0.181460 0.193729 0.110842
0.188785 0.192050 0.107240
0.193698 0.189853 0.102022
0.198917 0.186191 0.096986
0.204379 0.180026 0.091737
0.209567 0.171298 0.086854
0.219486 0.161868 0.081819
0.307347 0.187228 0.074006
0.451911 0.243900 0.049561
0.608209 0.324620 0.000000
0.743069 0.411536 0.000000
0.837797 0.479988 0.129091
0.858030 0.473762 0.149264
0.876036 0.469093 0.168307
0.892515 0.465827 0.186618
0.909209 0.465736 0.205814
0.925902 0.469123 0.227573
0.942016 0.474647 0.251041
0.957458 0.482582 0.276432
0.971344 0.491371 0.302251
0.983917 0.500755 0.327672
0.995117 0.510399 0.352575
1.000000 0.521080 0.378027
1.000000 0.533928 0.406195
1.000000 0.549889 0.438331
1.000000 0.569299 0.474861
1.000000 0.592859 0.515648
1.000000 0.619715 0.558923
0.175753 0.224949 0.121553
0.179385 0.225711 0.121096
0.184512 0.226352 0.120760
0.195895 0.227787 0.119600
0.214694 0.230076 0.118044
0.230900 0.229587 0.115389
0.235508 0.227329 0.109194
0.240818 0.223514 0.102785
0.245792 0.217350 0.096132
0.251072 0.208499 0.089937
0.255131 0.196506 0.084504
0.267796 0.185672 0.078462
0.435584 0.258213 0.020111
0.619409 0.363470 0.000000
0.764340 0.459602 0.000000
0.862882 0.531579 0.129763
0.924346 0.587366 0.269352
0.946410 0.601251 0.333165
0.953826 0.591150 0.343694
0.961975 0.584558 0.356970
0.970367 0.580621 0.371679
0.978729 0.579034 0.388342
0.986969 0.579004 0.404730
0.994873 0.580865 0.422553
1.000000 0.583856 0.440040
1.000000 0.588067 0.458106
1.000000 0.593591 0.476234
1.000000 0.601404 0.496773
1.000000 0.612024 0.520195
1.000000 0.626093 0.547356
1.000000 0.643458 0.577630
1.000000 0.664118 0.610620
0.230472 0.287480 0.133242
0.233982 0.287938 0.132815
0.238987 0.287663 0.132082
0.250248 0.287938 0.130343
0.268467 0.288701 0.127993
0.293126 0.288731 0.124849
0.296239 0.283055 0.117617
0.299901 0.277989 0.109102
0.304540 0.271183 0.100343
0.315679 0.266941 0.091371
0.329900 0.261479 0.081697
0.342962 0.250828 0.072755
0.362219 0.238956 0.061463
0.495033 0.298833 0.000000
0.674983 0.412451 0.000000
0.804318 0.500511 0.000000
0.888243 0.564141 0.161105
0.939055 0.613367 0.300938
0.967254 0.651850 0.422766
0.972992 0.641901 0.429816
0.979309 0.634943 0.439551
0.985809 0.630335 0.450965
0.992309 0.627283 0.462745
0.998688 0.626001 0.475502
1.000000 0.625971 0.488441
1.000000 0.627314 0.501793
1.000000 0.630182 0.516136
1.000000 0.635096 0.532464
1.000000 0.642725 0.551659
1.000000 0.653925 0.574823
1.000000 0.668299 0.601007
1.000000 0.686061 0.630365
0.272770 0.336126 0.142885
0.277226 0.336584 0.142214
0.281865 0.336370 0.141329
0.292912 0.336645 0.139620
0.310491 0.337102 0.136843
0.337682 0.340368 0.133669
0.355962 0.340093 0.128176
0.363134 0.338201 0.117556
0.372076 0.335607 0.105867
0.382696 0.331579 0.093477
0.394324 0.325353 0.079347
0.405310 0.314763 0.065064
0.413489 0.298192 0.047608
0.427131 0.280125 0.013733
0.552911 0.342473 0.000000
0.718379 0.452033 0.000000
0.832120 0.530327 0.000000
0.904723 0.587274 0.182712
0.949371 0.632868 0.323888
0.975891 0.674800 0.457069
0.985962 0.685817 0.507347
0.991272 0.679469 0.515068
0.996643 0.674525 0.522759
1.000000 0.671260 0.531701
1.000000 0.669184 0.541009
1.000000 0.668238 0.550408
1.000000 0.668605 0.560479
1.000000 0.671015 0.572778
1.000000 0.676234 0.588098
1.000000 0.684657 0.607080
1.000000 0.696284 0.629358
1.000000 0.711208 0.654597
0.337621 0.407630 0.160220
0.342626 0.408820 0.159731
0.347478 0.408698 0.158724
0.359289 0.409247 0.156802
0.377539 0.410407 0.153872
0.403388 0.411994 0.149569
0.430701 0.411383 0.145266
0.434974 0.407355 0.131716
0.441260 0.403296 0.116579
0.449683 0.398505 0.100038
0.459266 0.392065 0.080781
0.468940 0.382605 0.058442
0.476051 0.367407 0.011383
0.478645 0.344732 0.000000
0.486488 0.321355 0.000000
0.600183 0.380621 0.000000
0.752560 0.483650 0.000000
0.854246 0.554742 0.000000
0.919097 0.607416 0.203189
0.958984 0.650843 0.346136
0.982422 0.691279 0.478370
0.995361 0.724422 0.573541
0.999817 0.717922 0.577874
1.000000 0.712917 0.583185
1.000000 0.709285 0.589349
1.000000 0.707210 0.596521
1.000000 0.706813 0.605310
1.000000 0.708766 0.616693
1.000000 0.713191 0.630518
1.000000 0.720668 0.647669
1.000000 0.731075 0.667659
1.000000 0.744198 0.689906
0.407446 0.480079 0.185702
0.412543 0.481422 0.185580
0.417975 0.481819 0.184665
0.429755 0.482551 0.182559
0.447730 0.483742 0.179690
0.472755 0.485847 0.175601
0.505272 0.489693 0.171450
0.516106 0.485115 0.159640
0.521050 0.480446 0.140414
0.526909 0.474830 0.119203
0.532525 0.466804 0.094209
0.537407 0.455299 0.062715
0.539696 0.438788 0.000000
0.538415 0.415778 0.000000
0.532616 0.385534 0.000000
0.534142 0.356939 0.000000
0.635004 0.409857 0.000000
0.777798 0.507500 0.000000
0.872801 0.575647 0.000000
0.932891 0.626642 0.224247
0.969055 0.669215 0.371649
0.989593 0.709560 0.505577
1.000000 0.747646 0.608301
1.000000 0.756100 0.638575
1.000000 0.751644 0.642542
1.000000 0.748440 0.647395
1.000000 0.746792 0.653498
1.000000 0.747127 0.661707
1.000000 0.749508 0.671931
1.000000 0.754147 0.684443
1.000000 0.761166 0.699275
1.000000 0.770626 0.716304
0.469062 0.538720 0.215671
0.472572 0.538994 0.215061
0.476753 0.538994 0.214511
0.487190 0.539208 0.212345
0.503288 0.539788 0.209445
0.525658 0.541131 0.205936
0.554406 0.543572 0.201938
0.576074 0.541222 0.194827
0.579706 0.536553 0.174380
0.584070 0.530999 0.151492
0.588739 0.523827 0.124849
0.592920 0.514092 0.093019
0.595422 0.500481 0.039185
0.594598 0.481392 0.000000
0.589899 0.455818 0.000000
0.580163 0.422675 0.000000
0.579095 0.392248 0.000000
0.668513 0.438392 0.000000
0.802426 0.530571 0.000000
0.890135 0.594965 0.027710
0.944915 0.643366 0.242252
0.977203 0.684077 0.390997
0.995270 0.722652 0.521386
1.000000 0.759426 0.620935
1.000000 0.785702 0.682246
1.000000 0.781827 0.685603
1.000000 0.779416 0.690181
1.000000 0.778714 0.696529
1.000000 0.779782 0.704646
1.000000 0.782986 0.714839
1.000000 0.788296 0.727047
1.000000 0.795712 0.741238
0.527581 0.592340 0.254795
0.532677 0.593805 0.255192
0.593072 0.642847 0.303990
0.601892 0.642512 0.301854
0.615412 0.641932 0.298741
0.633326 0.641077 0.294285
0.656489 0.640436 0.289067
0.683345 0.639094 0.283757
0.685420 0.631434 0.261967
0.687068 0.624414 0.234562
0.688716 0.615961 0.203586
0.689662 0.604974 0.167453
0.688685 0.590478 0.125765
0.685420 0.571923 0.067353
0.679225 0.548394 0.000000
0.669429 0.519005 0.000000
0.655970 0.483375 0.000000
0.651972 0.451301 0.000000
0.728481 0.488136 0.000000
0.846952 0.571405 0.000000
0.920623 0.628107 0.116762
0.964843 0.671473 0.292210
0.989899 0.709255 0.439551
1.000000 0.745480 0.560601
1.000000 0.778683 0.648768
1.000000 0.808469 0.713497
1.000000 0.812222 0.728023
1.000000 0.808988 0.730098
1.000000 0.807889 0.734615
1.000000 0.809201 0.741970
1.000000 0.812558 0.751461
1.000000 0.817807 0.762722
0.593866 0.649805 0.311650
0.603693 0.655940 0.318639
0.614527 0.661830 0.325322
0.628748 0.667018 0.330388
0.645472 0.670558 0.332738
0.663844 0.671870 0.331518
0.685176 0.672023 0.327916
0.710201 0.671931 0.323400
0.721889 0.666285 0.311223
0.723323 0.660060 0.284459
0.724971 0.652644 0.254124
0.726223 0.643458 0.220645
0.725765 0.631098 0.181613
0.723415 0.615351 0.134981
0.718563 0.595575 0.071595
0.710750 0.570886 0.000000
0.699977 0.541375 0.000000
0.686549 0.506432 0.000000
0.684138 0.476967 0.000000
0.753017 0.508843 0.000000
0.864530 0.588251 0.000000
0.933318 0.642664 0.129366
0.973938 0.684321 0.305943
0.996338 0.721035 0.454139
1.000000 0.755947 0.572168
1.000000 0.788174 0.658228
1.000000 0.817105 0.721523
1.000000 0.835447 0.758694
1.000000 0.833463 0.761746
1.000000 0.833463 0.767178
1.000000 0.835233 0.774411
1.000000 0.838682 0.783291
0.633265 0.683162 0.351873
0.641779 0.688258 0.358648
0.651209 0.693416 0.365606
0.663386 0.697688 0.370550
0.678126 0.700740 0.373205
0.694209 0.701778 0.372259
0.712825 0.701839 0.369360
0.734951 0.701656 0.365118
0.755306 0.698482 0.361791
0.756924 0.693080 0.336126
0.758907 0.686946 0.308171
0.760678 0.679347 0.276860
0.760800 0.668818 0.239475
0.759670 0.655726 0.197024
0.756374 0.639063 0.146578
0.750729 0.618677 0.079683
0.742641 0.594049 0.000000
0.732448 0.565393 0.000000
0.720333 0.532433 0.000000
0.720241 0.505730 0.000000
0.782132 0.533196 0.000000
0.885039 0.607843 0.000000
0.947631 0.658930 0.149081
0.983673 0.698207 0.324681
1.000000 0.733211 0.470832
1.000000 0.766751 0.585016
1.000000 0.797726 0.668116
1.000000 0.825742 0.729702
1.000000 0.850828 0.777584
1.000000 0.854551 0.788815
1.000000 0.854917 0.794064
1.000000 0.856840 0.800961
0.669886 0.713863 0.393957
0.677485 0.718318 0.400702
0.685695 0.722774 0.407507
0.696407 0.726497 0.412634
0.709041 0.729061 0.415534
0.723293 0.729824 0.414710
0.739376 0.729702 0.411841
0.758328 0.729366 0.408515
0.780941 0.729335 0.404883
0.786557 0.722957 0.389166
0.788388 0.717403 0.362249
0.790066 0.710567 0.331670
0.790951 0.701778 0.296757
0.790982 0.690913 0.257084
0.789761 0.677546 0.212589
0.787320 0.661646 0.161318
0.783963 0.643061 0.095155
0.779416 0.621637 0.000000
0.773953 0.597253 0.000000
0.767575 0.569543 0.000000
0.773129 0.548486 0.000000
0.829496 0.573266 0.000000
0.919005 0.640589 0.000000
0.970947 0.686610 0.205142
0.999298 0.723476 0.379522
1.000000 0.757900 0.522698
1.000000 0.790219 0.626795
1.000000 0.819913 0.702327
1.000000 0.846281 0.758267
1.000000 0.868894 0.801114
1.000000 0.881559 0.825193
1.000000 0.881804 0.829526
0.723262 0.758267 0.466468
0.727199 0.760067 0.469581
0.731258 0.761471 0.471931
0.737972 0.762448 0.472786
0.746883 0.762997 0.472694
0.757961 0.762814 0.470893
0.771633 0.762417 0.468177
0.788357 0.762325 0.465705
0.808225 0.762692 0.463630
0.821927 0.759091 0.457710
0.824735 0.755215 0.435370
0.827359 0.749935 0.408057
0.829313 0.742916 0.375860
0.830503 0.733944 0.338811
0.830716 0.722774 0.296574
0.829953 0.709316 0.248569
0.828336 0.693751 0.195560
0.825803 0.675776 0.130251
0.822385 0.655360 0.000000
0.817899 0.631922 0.000000
0.812100 0.605097 0.000000
0.817716 0.584894 0.000000
0.864256 0.603052 0.000000
0.939483 0.660822 0.000000
0.983764 0.702052 0.227848
1.000000 0.736416 0.399420
1.000000 0.769497 0.539117
1.000000 0.800992 0.640345
1.000000 0.829892 0.713771
1.000000 0.855192 0.767819
1.000000 0.876585 0.809079
1.000000 0.894224 0.840848
0.752590 0.782864 0.509087
0.756161 0.784451 0.512016
0.760006 0.785916 0.514611
0.765805 0.786862 0.515923
0.773495 0.787289 0.515831
0.782742 0.786923 0.513878
0.794308 0.786221 0.510826
0.808255 0.785702 0.507836
0.825254 0.785550 0.505425
0.843320 0.784665 0.503838
0.846525 0.779812 0.486671
0.849180 0.775448 0.462928
0.851560 0.769619 0.434211
0.853635 0.762356 0.401251
0.855253 0.753414 0.362951
0.856352 0.742733 0.319921
0.856962 0.730373 0.272618
0.857115 0.716091 0.219211
0.856626 0.699794 0.155856
0.855528 0.681453 0.054139
0.853727 0.660456 0.000000
0.850889 0.636530 0.000000
0.859190 0.619471 0.000000
0.899290 0.633906 0.000000
0.954498 0.675715 0.000000
0.993835 0.713710 0.240238
1.000000 0.746609 0.411810
1.000000 0.778775 0.549798
1.000000 0.809445 0.649073
1.000000 0.837430 0.720882
1.000000 0.862119 0.774350
1.000000 0.882689 0.814786
0.791836 0.815946 0.571069
0.795010 0.817563 0.574365
0.797910 0.818479 0.575830
0.802029 0.818692 0.576013
0.807645 0.818265 0.574334
0.814694 0.817380 0.571588
0.823606 0.816098 0.567681
0.834409 0.814694 0.563439
0.847684 0.813321 0.558831
0.863188 0.812284 0.554772
0.869718 0.806729 0.543999
0.871458 0.802060 0.521569
0.873228 0.796475 0.495247
0.874815 0.789456 0.463996
0.875883 0.780667 0.426917
0.876555 0.770443 0.385199
0.876951 0.758602 0.338109
0.877440 0.745785 0.288243
0.878264 0.732113 0.234134
0.879423 0.717250 0.171969
0.880430 0.700893 0.084840
0.880522 0.681880 0.000000
0.879088 0.659541 0.000000
0.887480 0.643244 0.000000
0.920195 0.652430 0.000000
0.973602 0.695155 0.000000
1.000000 0.729641 0.268254
1.000000 0.760311 0.436103
1.000000 0.791073 0.568688
1.000000 0.820432 0.663630
1.000000 0.847257 0.732570
1.000000 0.870451 0.783566
0.812863 0.834012 0.603754
0.815579 0.835386 0.606500
0.818112 0.836271 0.608301
0.821683 0.836454 0.608362
0.826505 0.836149 0.607050
0.832731 0.835447 0.604822
0.840696 0.834501 0.601831
0.850401 0.833524 0.598566
0.862211 0.832700 0.595575
0.876066 0.832181 0.592981
0.887785 0.828611 0.590143
0.889921 0.825284 0.572747
0.892271 0.821164 0.552148
0.894591 0.815854 0.527092
0.896757 0.809262 0.497353
0.898833 0.801205 0.461921
0.900877 0.791897 0.421607
0.903166 0.781643 0.377173
0.905791 0.770596 0.329381
0.908751 0.758511 0.276860
0.911650 0.745113 0.217594
0.914061 0.729763 0.142947
0.915465 0.711879 0.000000
0.915618 0.690944 0.000000
0.924834 0.676051 0.000000
0.951690 0.681270 0.000000
0.993957 0.716793 0.044892
1.000000 0.748348 0.308965
1.000000 0.777981 0.474617
1.000000 0.807858 0.600000
1.000000 0.835966 0.688411
1.000000 0.860929 0.751888
0.834836 0.854124 0.643458
0.836912 0.854978 0.645228
0.838560 0.855283 0.645624
0.841337 0.855070 0.644495
0.845212 0.854337 0.642115
0.850523 0.853330 0.638605
0.857237 0.852171 0.634913
0.865415 0.851164 0.631830
0.875639 0.850340 0.628870
0.887694 0.849882 0.626703
0.901518 0.849546 0.624659
0.905150 0.845029 0.615442
0.907622 0.841886 0.598810
0.910124 0.837858 0.578973
0.912566 0.832486 0.554528
0.915007 0.825986 0.525505
0.917571 0.818326 0.491646
0.920562 0.809689 0.452918
0.924102 0.800504 0.410956
0.928099 0.790555 0.365026
0.932280 0.779538 0.313878
0.936339 0.766964 0.255497
0.939788 0.752438 0.184268
0.942412 0.735439 0.067262
0.943877 0.715724 0.000000
0.953826 0.702083 0.000000
0.976532 0.704555 0.000000
1.000000 0.734524 0.113375
1.000000 0.763363 0.338964
1.000000 0.792020 0.501946
1.000000 0.820462 0.620294
1.000000 0.846891 0.703426
0.850187 0.870420 0.679377
0.851591 0.870939 0.680293
0.853086 0.871183 0.680568
0.855528 0.871122 0.679927
0.859312 0.870939 0.678828
0.864591 0.870817 0.677607
0.871824 0.871183 0.677119
0.880797 0.871855 0.677028
0.891600 0.872862 0.677638
0.903960 0.874205 0.678645
0.917723 0.875639 0.679591
0.927092 0.873899 0.678431
0.930541 0.872862 0.668330
0.933867 0.871000 0.656092
0.937041 0.867979 0.640436
0.940032 0.863554 0.620478
0.943175 0.858061 0.596490
0.946746 0.851713 0.568811
0.951019 0.844694 0.537682
0.955901 0.836881 0.501976
0.961334 0.828122 0.461189
0.967071 0.818021 0.413519
0.972717 0.806119 0.356847
0.978088 0.792325 0.289982
0.982849 0.776333 0.207431
0.986847 0.758053 0.070344
0.997894 0.745174 0.000000
1.000000 0.743893 0.000000
1.000000 0.766720 0.229862
1.000000 0.792233 0.426123
1.000000 0.818906 0.570397
1.000000 0.844144 0.668788
0.876585 0.895872 0.734218
0.877562 0.896117 0.734676
0.878386 0.896086 0.734401
0.880034 0.895781 0.733333
0.882658 0.895293 0.731807
0.886442 0.894804 0.729885
0.891539 0.894469 0.728206
0.898039 0.894347 0.726741
0.906035 0.894377 0.725460
0.915435 0.894591 0.724331
0.926116 0.894835 0.723140
0.937987 0.895140 0.722072
0.942077 0.891783 0.715297
0.944762 0.889586 0.702327
