data/fiter_cube/93231427/1022692/file.cube
# Created by Adobe Lightroom plugin Export LUT (1.17.0)
# www.johnrellis.com/lightroom/exportlut.htm
# Preset: 工业风黑金_04 云集后期
# Color profile: C:\Program Files (x86)\Common Files\Adobe\Color\Profiles\Recommended\AdobeRGB1998.icc
LUT_3D_SIZE 8
DOMAIN_MIN 0.000000 0.000000 0.000000
DOMAIN_MAX 0.903226 0.903226 0.903226
0.025452 0.080812 0.076844
0.062226 0.081636 0.076387
0.128328 0.085298 0.082856
0.274205 0.039216 0.088533
0.478126 0.000000 0.089631
0.699763 0.000000 0.086122
0.892454 0.000000 0.115908
0.999664 0.290867 0.222690
0.043641 0.092073 0.081453
0.066438 0.091249 0.075410
0.162783 0.099733 0.084627
0.323186 0.060517 0.089479
0.522484 0.000000 0.088655
0.722438 0.000000 0.086885
0.887297 0.117128 0.117739
0.994659 0.311406 0.223392
0.098177 0.141543 0.099886
0.123812 0.142977 0.096681
0.148806 0.130098 0.082338
0.615961 0.287999 0.048341
0.741451 0.269505 0.078920
0.871183 0.320134 0.138155
0.968353 0.404273 0.247654
1.000000 0.484169 0.375158
0.230472 0.287480 0.133242
0.268467 0.288701 0.127993
0.304540 0.271183 0.100343
0.362219 0.238956 0.061463
0.888243 0.564141 0.161105
0.979309 0.634943 0.439551
1.000000 0.625971 0.488441
1.000000 0.642725 0.551659
0.469062 0.538720 0.215671
0.503288 0.539788 0.209445
0.579706 0.536553 0.174380
0.595422 0.500481 0.039185
0.579095 0.392248 0.000000
0.944915 0.643366 0.242252
1.000000 0.785702 0.682246
1.000000 0.779782 0.704646
0.669886 0.713863 0.393957
0.709041 0.729061 0.415534
0.780941 0.729335 0.404883
0.790951 0.701778 0.296757
0.783963 0.643061 0.095155
0.773129 0.548486 0.000000
0.999298 0.723476 0.379522
1.000000 0.846281 0.758267
0.812863 0.834012 0.603754
0.826505 0.836149 0.607050
0.862211 0.832700 0.595575
0.892271 0.821164 0.552148
0.900877 0.791897 0.421607
0.911650 0.745113 0.217594
0.924834 0.676051 0.000000
1.000000 0.777981 0.474617
0.889799 0.909789 0.763973
0.894957 0.909392 0.762142
0.915404 0.909514 0.758633
0.952697 0.910155 0.757900
0.955871 0.887877 0.677760
0.975952 0.870176 0.586358
1.000000 0.838743 0.433387
1.000000 0.783474 0.000000
0.043915 0.089784 0.088472
0.038727 0.089570 0.099763
0.100587 0.100343 0.114656
0.239414 0.072786 0.117983
0.420142 0.000000 0.119295
0.620386 0.000000 0.116548
0.824949 0.000000 0.129458
0.966308 0.216495 0.199008
0.049744 0.092042 0.091554
0.062135 0.102266 0.104311
0.131350 0.109194 0.111055
0.271275 0.095644 0.117647
0.459632 0.000000 0.119997
0.661250 0.000000 0.121614
0.830869 0.000000 0.135134
0.961181 0.244602 0.200259
0.081514 0.146700 0.125002
0.112062 0.154910 0.128359
0.155642 0.144930 0.108431
0.529076 0.260838 0.148562
0.682948 0.250797 0.150027
0.814206 0.279637 0.172396
0.920012 0.342779 0.224033
0.998993 0.431769 0.326635
0.195346 0.281285 0.165103
0.234684 0.289891 0.165255
0.312810 0.289952 0.140047
0.336919 0.235538 0.096742
0.824216 0.522698 0.212497
0.937957 0.586572 0.394324
0.978302 0.580407 0.434333
1.000000 0.606500 0.507713
0.438514 0.538781 0.267948
0.468360 0.536461 0.259373
0.566278 0.534234 0.235477
0.564233 0.483680 0.129122
0.540490 0.370214 0.000000
0.921019 0.630610 0.280583
1.000000 0.774899 0.676143
1.000000 0.768948 0.695552
0.633478 0.700404 0.414099
0.656184 0.701930 0.412848
0.731502 0.704311 0.404547
0.764736 0.685878 0.323888
0.765347 0.634058 0.159060
0.762051 0.544549 0.000000
0.990814 0.725338 0.421637
1.000000 0.848142 0.766537
0.783139 0.818082 0.592432
0.791531 0.815213 0.585229
0.832151 0.814633 0.578851
0.876951 0.810056 0.554528
0.888792 0.785306 0.439185
0.897490 0.736477 0.241337
0.903319 0.659663 0.000000
1.000000 0.769986 0.469429
0.880949 0.902434 0.748714
0.887755 0.903197 0.749111
0.909758 0.903960 0.746944
0.949096 0.905547 0.747616
0.960601 0.896300 0.700679
0.975830 0.876127 0.616571
0.999145 0.838682 0.454170
1.000000 0.778836 0.000000
0.109529 0.150393 0.167269
0.109041 0.164431 0.194705
0.089143 0.145266 0.247379
0.204074 0.222507 0.256901
0.439368 0.164584 0.317632
0.679530 0.000000 0.317601
0.849912 0.000000 0.313024
0.967590 0.234653 0.372412
0.123293 0.156588 0.172763
0.141543 0.173129 0.193271
0.116609 0.163546 0.243473
0.221439 0.222812 0.266270
0.452674 0.139040 0.287633
0.671565 0.000000 0.265782
0.834379 0.000000 0.281041
0.960662 0.249149 0.338109
0.120485 0.154086 0.169802
0.136019 0.167727 0.186313
0.182101 0.213107 0.239506
0.365454 0.229618 0.250401
0.572625 0.234501 0.260533
0.735378 0.253452 0.270695
0.870848 0.309850 0.297490
0.974914 0.406622 0.371283
0.191531 0.309148 0.304356
0.217716 0.339300 0.318547
0.335637 0.395850 0.322789
0.418036 0.343816 0.230900
0.835691 0.632593 0.547692
0.899901 0.613367 0.544549
0.952758 0.606409 0.547723
0.999512 0.625696 0.580285
0.380194 0.570855 0.421698
0.415747 0.577996 0.425757
0.535149 0.594659 0.430823
0.627527 0.576257 0.358648
0.606500 0.460182 0.191684
0.916197 0.696834 0.548119
0.983490 0.800107 0.744289
1.000000 0.789425 0.743771
0.595209 0.718990 0.540703
0.618158 0.721859 0.544305
0.686702 0.725063 0.543267
0.770230 0.718349 0.510796
0.771603 0.666865 0.356207
0.765255 0.569207 0.142519
0.974945 0.758541 0.584924
1.000000 0.882231 0.831296
0.767880 0.831235 0.673671
0.776272 0.830045 0.670924
0.808438 0.827329 0.661799
0.872435 0.827390 0.654505
0.882078 0.801907 0.566705
0.895232 0.756741 0.403876
0.912047 0.682185 0.115969
1.000000 0.806363 0.620081
0.872465 0.905180 0.775601
0.875944 0.904051 0.771908
0.894408 0.903929 0.769070
0.934295 0.910155 0.777310
0.954742 0.902953 0.749722
0.969268 0.886442 0.683864
0.992187 0.852445 0.557549
1.000000 0.791653 0.264836
0.326390 0.379583 0.429511
0.341009 0.414252 0.474739
0.308202 0.428351 0.544488
0.298131 0.344091 0.602777
0.483009 0.435492 0.547356
0.622614 0.536522 0.630915
0.801724 0.484108 0.650721
0.924834 0.480323 0.653498
0.388830 0.418158 0.461494
0.398810 0.442206 0.490364
0.367376 0.460456 0.549096
0.332982 0.377264 0.603632
0.493385 0.463294 0.555840
0.634058 0.516411 0.623957
0.802670 0.458991 0.629877
0.927337 0.453712 0.628931
0.360296 0.389380 0.431830
0.383154 0.412390 0.455665
0.448890 0.477516 0.521508
0.406409 0.451881 0.591516
0.520470 0.538720 0.585229
0.703395 0.485084 0.610834
0.850309 0.445350 0.593256
0.952148 0.445624 0.578576
0.330175 0.358892 0.399908
0.346380 0.375280 0.417151
0.399023 0.428321 0.471931
0.477974 0.510643 0.553735
0.659083 0.535851 0.564111
0.774228 0.518791 0.540490
0.878416 0.523033 0.534997
0.966186 0.564569 0.568811
0.451057 0.564172 0.593896
0.462196 0.573999 0.599054
0.514397 0.616480 0.620294
0.630365 0.669337 0.632624
0.674220 0.601984 0.514641
0.909056 0.793515 0.763638
0.956634 0.805234 0.783627
0.990265 0.791104 0.771420
0.615839 0.742123 0.693019
0.642359 0.757565 0.704829
0.670497 0.764797 0.696834
0.751675 0.772732 0.694514
0.804379 0.750027 0.635340
0.794797 0.649989 0.442512
0.961883 0.824002 0.756039
1.000000 0.908141 0.879789
0.755245 0.841917 0.756344
0.764218 0.843809 0.757778
0.791684 0.847501 0.758206
0.841642 0.851682 0.755550
0.890410 0.844663 0.731258
0.897520 0.804013 0.622736
0.912230 0.718105 0.388861
1.000000 0.849821 0.748959
0.868711 0.914458 0.832609
0.872770 0.915160 0.832456
0.884550 0.915435 0.827756
0.911101 0.916747 0.822263
0.949859 0.915679 0.816678
0.961273 0.902800 0.766751
0.981079 0.873381 0.675257
1.000000 0.811673 0.457862
0.640955 0.668055 0.708736
0.649531 0.681514 0.723720
0.651331 0.698482 0.752010
0.623346 0.686275 0.783902
0.637873 0.639826 0.812650
0.727382 0.657923 0.760769
0.781125 0.760830 0.792233
0.879088 0.765682 0.831968
0.670985 0.681025 0.716396
0.679713 0.695430 0.731594
0.681086 0.713039 0.757473
0.650752 0.702052 0.785458
0.649592 0.652003 0.810208
0.733089 0.669520 0.762844
0.782589 0.766201 0.794369
0.882780 0.759060 0.828885
0.677607 0.681239 0.715114
0.695613 0.696559 0.728939
0.724788 0.725521 0.755795
0.701778 0.727810 0.778622
0.673548 0.677882 0.798367
0.733425 0.688045 0.757473
0.790127 0.752773 0.792416
0.891508 0.724025 0.807645
0.652277 0.659602 0.695460
0.661585 0.667567 0.702724
0.696742 0.697566 0.729793
0.743130 0.737453 0.765347
0.708675 0.712795 0.782681
0.741512 0.729305 0.762417
0.827268 0.697871 0.770596
0.918975 0.659876 0.754147
0.585260 0.601923 0.642054
0.596185 0.611414 0.650935
0.624567 0.635889 0.673701
0.664546 0.670100 0.705043
0.701381 0.704860 0.736019
0.806027 0.716457 0.738521
0.877134 0.689082 0.709865
0.950683 0.685908 0.701717
0.643244 0.684352 0.719661
0.650050 0.692103 0.725460
0.667262 0.714809 0.740566
0.705959 0.749386 0.758816
0.768490 0.780056 0.758480
0.800229 0.733883 0.681910
0.955810 0.882780 0.863951
0.989166 0.896025 0.881041
0.769619 0.828916 0.816281
0.772030 0.830442 0.815824
0.784360 0.838590 0.816373
0.807492 0.853422 0.814603
0.856535 0.860502 0.808347
0.890898 0.842710 0.763607
0.892729 0.759609 0.608667
0.990417 0.889799 0.840513
0.863462 0.910521 0.870237
0.864744 0.911376 0.869352
0.868193 0.912566 0.864469
0.889982 0.920317 0.866178
0.919158 0.921874 0.855863
0.952331 0.917784 0.837797
0.966247 0.893187 0.768795
0.997742 0.830167 0.606348
0.824094 0.821286 0.842924
0.827726 0.826902 0.848936
0.834775 0.839139 0.863706
0.829923 0.842130 0.878172
0.812528 0.826200 0.891142
0.811398 0.795346 0.898161
0.857267 0.800870 0.871275
0.895323 0.861204 0.889281
0.827176 0.819852 0.840116
0.828794 0.823972 0.844724
0.833188 0.834928 0.858213
0.828275 0.838560 0.872313
0.811460 0.824399 0.885954
0.810330 0.794919 0.894530
0.856413 0.801419 0.869078
0.893614 0.861143 0.887755
0.847654 0.833158 0.850065
0.850797 0.836210 0.852781
0.856199 0.846220 0.863127
0.854307 0.853910 0.876432
0.836088 0.841917 0.886198
0.827573 0.813107 0.894011
0.865019 0.817166 0.871794
0.894530 0.868833 0.889250
0.840574 0.826322 0.843992
0.843015 0.828672 0.846067
0.856901 0.842191 0.858122
0.881071 0.867338 0.880766
0.871153 0.867704 0.891020
0.856382 0.843229 0.898222
0.879942 0.843351 0.879332
0.897459 0.882811 0.894499
0.810452 0.797818 0.818753
0.815183 0.802243 0.822629
0.829648 0.815824 0.834684
0.851072 0.836484 0.853025
0.873045 0.858274 0.872374
0.853239 0.841764 0.878599
0.867185 0.846952 0.865904
0.912139 0.832395 0.872557
0.758480 0.750912 0.777218
0.766598 0.758083 0.783566
0.779904 0.769955 0.794064
0.797726 0.786130 0.808347
0.814176 0.801266 0.821805
0.836820 0.824826 0.842466
0.901122 0.834043 0.845548
0.950866 0.813474 0.824399
0.811948 0.809384 0.832242
0.816617 0.814328 0.836393
0.824186 0.824247 0.844327
0.837003 0.842771 0.857847
0.854612 0.865232 0.869810
0.886595 0.883818 0.867704
0.895933 0.837430 0.796689
0.988769 0.941802 0.927123
0.876402 0.900603 0.899687
0.876982 0.901305 0.899626
0.880583 0.905028 0.900206
0.890532 0.914733 0.902983
0.902220 0.926421 0.900237
0.930907 0.930846 0.891417
0.957214 0.920928 0.860990
0.976104 0.865568 0.751919
0.893187 0.886564 0.900145
0.895995 0.890410 0.904051
0.899962 0.897551 0.912291
0.902556 0.904143 0.922545
0.894682 0.900206 0.929534
0.884184 0.887480 0.937743
0.885924 0.869749 0.941375
0.919371 0.878508 0.930419
0.892515 0.883879 0.897032
0.894804 0.887480 0.900725
0.898436 0.894621 0.908873
0.900816 0.901274 0.918944
0.892271 0.897215 0.925689
0.880491 0.883787 0.933501
0.880522 0.864256 0.936919
0.913664 0.871489 0.924712
0.905272 0.891447 0.901976
0.907103 0.893858 0.904265
0.908385 0.899535 0.910735
0.911009 0.907408 0.920836
0.903838 0.905272 0.927092
0.892912 0.894194 0.934417
0.892668 0.877623 0.939544
0.921660 0.883726 0.928618
0.906859 0.893126 0.903471
0.908049 0.894377 0.904601
0.914611 0.901366 0.910857
0.923461 0.913390 0.922393
0.921538 0.917754 0.930846
0.912474 0.911101 0.937835
0.909178 0.895933 0.943511
0.930755 0.897856 0.932464
0.897368 0.883146 0.894591
0.898405 0.884245 0.895537
0.904295 0.890410 0.901061
0.916197 0.903044 0.912383
0.930327 0.919036 0.926848
0.922728 0.918212 0.933562
0.914885 0.903044 0.939727
0.934661 0.907012 0.931487
0.884367 0.869749 0.882628
0.886351 0.871763 0.884428
0.893034 0.878660 0.890562
0.904662 0.890837 0.901427
0.919219 0.906310 0.915282
0.937621 0.926452 0.933318
0.927214 0.917113 0.938720
0.934936 0.918944 0.929625
0.864897 0.850095 0.865141
0.867582 0.852750 0.867491
0.873167 0.858366 0.872496
0.882231 0.867552 0.880674
0.891478 0.877043 0.889128
0.901884 0.887846 0.898772
0.912963 0.900908 0.910369
0.954864 0.900877 0.906401
0.891112 0.879545 0.893248
0.892271 0.881010 0.894591
0.898955 0.889067 0.901915
0.905943 0.898894 0.910552
0.914153 0.912718 0.921294
0.925811 0.930938 0.931884
0.947631 0.945342 0.929778
0.960540 0.912169 0.874083
0.930449 0.924773 0.933928
0.931762 0.926818 0.936034
0.934081 0.931151 0.940948
0.939178 0.938720 0.949676
0.936156 0.938842 0.954711
0.930846 0.934874 0.960174
0.925017 0.925933 0.966949
0.928283 0.915251 0.969482
0.930632 0.923949 0.932769
0.931884 0.925963 0.934844
0.934295 0.930571 0.940002
0.938720 0.937713 0.948363
0.936522 0.938689 0.953918
0.931060 0.934813 0.959289
0.924590 0.925444 0.965820
0.927428 0.914366 0.968414
0.934813 0.924804 0.932280
0.935576 0.926482 0.934020
0.936919 0.930480 0.938506
0.942321 0.939391 0.948272
0.942443 0.942809 0.955016
0.936187 0.938750 0.959472
0.929747 0.930175 0.965759
0.931640 0.919280 0.968872
0.935607 0.924224 0.931334
0.937560 0.926390 0.933288
0.942565 0.931975 0.938323
0.947387 0.940673 0.947204
0.951171 0.948760 0.956909
0.946410 0.947112 0.961669
0.940215 0.940063 0.967498
0.940368 0.929412 0.971038
0.934539 0.923033 0.930266
0.936187 0.924865 0.931914
0.939971 0.929076 0.935698
0.947082 0.937041 0.942870
0.955810 0.949004 0.954284
0.956329 0.954406 0.962799
0.950896 0.950103 0.968627
0.950744 0.941588 0.973724
0.933257 0.921599 0.928985
0.933837 0.922271 0.929595
0.936706 0.925444 0.932464
0.942931 0.932372 0.938689
0.952850 0.943572 0.948760
0.966766 0.960449 0.964202
0.966705 0.964996 0.973419
0.964172 0.957519 0.978363
0.933257 0.921599 0.928985
0.933928 0.922362 0.929686
0.936706 0.925444 0.932464
0.942718 0.932158 0.938476
0.951659 0.942260 0.947570
0.963531 0.955932 0.959930
0.977173 0.972045 0.974517
0.971099 0.966125 0.978302
0.927001 0.914733 0.922850
0.927337 0.915099 0.923186
0.929473 0.917449 0.925261
0.934325 0.922820 0.930053
0.940795 0.930022 0.936553
0.948638 0.938811 0.944488
0.957488 0.948913 0.953582
0.965026 0.958343 0.962066
