data/fiter_cube/93231427/1022692/file.cube
# Created by Adobe Lightroom plugin Export LUT (1.17.0)
# www.johnrellis.com/lightroom/exportlut.htm
# Preset: 工业风黑金_04 云集后期
# Color profile: C:\Program Files (x86)\Common Files\Adobe\Color\Profiles\Recommended\AdobeRGB1998.icc
LUT_3D_SIZE 5
DOMAIN_MIN 0.000000 0.000000 0.000000
DOMAIN_MAX 0.903226 0.903226 0.903226
0.025452 0.080812 0.076844
0.106294 0.085267 0.080995
0.374365 0.000000 0.089693
0.763394 0.000000 0.087892
0.999664 0.290867 0.222690
0.080995 0.125154 0.094942
0.121920 0.118166 0.080903
0.615381 0.177707 0.076570
0.876738 0.268742 0.133944
1.000000 0.454536 0.350011
0.337621 0.407630 0.160220
0.434974 0.407355 0.131716
0.486488 0.321355 0.000000
0.995361 0.724422 0.573541
1.000000 0.713191 0.630518
0.723262 0.758267 0.466468
0.788357 0.762325 0.465705
0.830716 0.722774 0.296574
0.817716 0.584894 0.000000
1.000000 0.829892 0.713771
0.889799 0.909789 0.763973
0.908476 0.909239 0.759152
0.949004 0.893400 0.708370
0.982361 0.864225 0.556664
1.000000 0.783474 0.000000
0.081331 0.123537 0.132418
0.071473 0.122988 0.184451
0.323186 0.135470 0.239719
0.700130 0.000000 0.220066
0.957885 0.183505 0.289708
0.094331 0.131441 0.141604
0.136324 0.169833 0.188693
0.429450 0.168582 0.198276
0.753292 0.187991 0.219638
0.975860 0.370855 0.327245
0.267521 0.441962 0.309819
0.398840 0.465126 0.310369
0.482307 0.357610 0.156191
0.952361 0.719722 0.634791
1.000000 0.719020 0.667628
0.682765 0.767605 0.579034
0.744076 0.773220 0.584283
0.827756 0.747280 0.483711
0.816800 0.601953 0.044038
1.000000 0.859861 0.783536
0.883146 0.910033 0.776425
0.900145 0.909667 0.773312
0.952636 0.907774 0.762631
0.978149 0.880217 0.648585
1.000000 0.795743 0.252567
0.498390 0.547753 0.597742
0.507866 0.586908 0.656001
0.480293 0.503990 0.730861
0.675288 0.666468 0.709712
0.899809 0.645502 0.764767
0.545006 0.566491 0.608423
0.592584 0.613123 0.653803
0.549462 0.573358 0.727260
0.693202 0.661921 0.714931
0.916197 0.611872 0.735286
0.459571 0.487800 0.531701
0.500114 0.525841 0.569146
0.601526 0.620142 0.658778
0.809659 0.621546 0.646296
0.958282 0.630518 0.643427
0.670222 0.760616 0.748470
0.688563 0.771359 0.747616
0.789517 0.801999 0.747158
0.824857 0.702449 0.560632
0.999359 0.921599 0.897673
0.859220 0.910918 0.847715
0.870848 0.913756 0.847440
0.914214 0.918425 0.838132
0.958373 0.903197 0.783627
1.000000 0.815305 0.520684
0.840330 0.836057 0.855833
0.848753 0.849485 0.870787
0.843015 0.854307 0.894041
0.831357 0.814664 0.909117
0.903838 0.861265 0.898528
0.858122 0.843412 0.859190
0.862425 0.853422 0.869902
0.857176 0.861784 0.891295
0.838956 0.823423 0.905028
0.900450 0.863554 0.894774
0.841611 0.827298 0.844877
0.853239 0.838621 0.854948
0.884977 0.870451 0.883268
0.854856 0.842313 0.893675
0.898528 0.881346 0.894713
0.798306 0.786618 0.808774
0.803952 0.791806 0.813413
0.829313 0.815579 0.834440
0.858488 0.845609 0.860990
0.948119 0.831724 0.841703
0.879637 0.896849 0.902281
0.884123 0.901732 0.904906
0.900969 0.919493 0.912200
0.936706 0.935973 0.903349
0.970001 0.874601 0.782345
0.930449 0.924773 0.933928
0.933257 0.929717 0.939330
0.938384 0.939513 0.952422
0.929534 0.933318 0.961791
0.928283 0.915251 0.969482
0.934142 0.925292 0.933074
0.936370 0.930114 0.938293
0.943297 0.942443 0.952880
0.933379 0.936217 0.961089
0.931212 0.918761 0.969207
0.935058 0.923583 0.930785
0.938872 0.927855 0.934630
0.950683 0.943816 0.949798
0.947906 0.947936 0.962036
0.944762 0.934600 0.971923
0.934844 0.923369 0.930602
0.937438 0.926238 0.933165
0.948608 0.938781 0.944427
0.969879 0.963806 0.967163
0.965972 0.959747 0.978454
0.927001 0.914733 0.922850
0.928679 0.916594 0.924498
0.937438 0.926268 0.933196
0.950805 0.941283 0.946685
0.965026 0.958343 0.962066
