data/fiter_cube/82249637/1022807/file.cube
# Created by Adobe Lightroom plugin Export LUT (1.17.0)
# www.johnrellis.com/lightroom/exportlut.htm
# Preset: 王家卫电影色调_06 云集
# Color profile: C:\Program Files (x86)\Common Files\Adobe\Color\Profiles\Recommended\AdobeRGB1998.icc
LUT_3D_SIZE 8
DOMAIN_MIN 0.000000 0.000000 0.000000
DOMAIN_MAX 0.903226 0.903226 0.903226
0.000000 0.000000 0.000000
0.120241 0.061524 0.026398
0.280064 0.070344 0.032319
0.515831 0.029725 0.000000
0.743526 0.177523 0.000000
0.891142 0.340948 0.057984
0.966827 0.462776 0.172213
1.000000 0.561852 0.285679
0.000000 0.140200 0.068482
0.107973 0.116823 0.101595
0.468238 0.171817 0.000000
0.655482 0.189487 0.000000
0.800534 0.277012 0.000000
0.904540 0.385931 0.069825
0.969146 0.484199 0.176913
1.000000 0.573877 0.288731
0.000000 0.450721 0.168521
0.000000 0.436408 0.117525
0.383307 0.387854 0.348180
0.815549 0.574640 0.294469
0.917205 0.551019 0.209384
0.953826 0.553765 0.217166
0.993011 0.596277 0.260868
1.000000 0.641627 0.338262
0.000000 0.755581 0.361120
0.000000 0.744747 0.359197
0.374426 0.701564 0.303807
0.707515 0.700801 0.649195
0.889769 0.799771 0.650507
0.979980 0.775235 0.521111
1.000000 0.739284 0.454780
1.000000 0.729549 0.424140
0.000000 0.901884 0.523919
0.153811 0.894224 0.531365
0.420417 0.874510 0.488136
0.685542 0.840879 0.573175
0.825559 0.828611 0.783322
0.906371 0.870817 0.789273
0.971191 0.863005 0.710994
1.000000 0.832456 0.612482
0.254185 0.958190 0.636042
0.392737 0.953216 0.653254
0.591730 0.934630 0.679347
0.673426 0.918303 0.646265
0.822568 0.896727 0.740230
0.882597 0.888701 0.853208
0.924407 0.911376 0.864805
0.969451 0.910033 0.816434
0.467811 0.985229 0.722744
0.534691 0.980194 0.734920
0.680964 0.964446 0.768490
0.728542 0.956268 0.748653
0.797604 0.941772 0.751278
0.888151 0.929351 0.834318
0.917174 0.923461 0.895995
0.938445 0.934569 0.905974
0.596735 0.999237 0.784237
0.641779 0.994751 0.794858
0.752071 0.982147 0.827390
0.821012 0.973083 0.846799
0.837064 0.967803 0.830259
0.881987 0.960235 0.845335
0.928923 0.952911 0.895628
0.942107 0.947539 0.927245
0.000000 0.055543 0.138674
0.152529 0.035492 0.148928
0.203952 0.080842 0.085359
0.432074 0.096254 0.094392
0.690242 0.167056 0.091402
0.858579 0.317784 0.119905
0.955352 0.452705 0.183627
1.000000 0.556023 0.275059
0.000000 0.143893 0.173922
0.147921 0.164462 0.180453
0.343725 0.171145 0.151247
0.558923 0.179995 0.128969
0.748287 0.255314 0.121553
0.875639 0.366003 0.145937
0.957702 0.474922 0.198856
1.000000 0.567803 0.277897
0.000000 0.467506 0.288762
0.078035 0.459236 0.291600
0.427405 0.425971 0.417884
0.813931 0.578454 0.383795
0.885618 0.535271 0.296391
0.932097 0.539239 0.275761
0.977905 0.581720 0.296147
1.000000 0.633997 0.333196
0.000000 0.754757 0.438056
0.000000 0.745907 0.439857
0.413428 0.707057 0.396735
0.705959 0.699001 0.662135
0.881987 0.791257 0.658350
0.968475 0.768917 0.552605
0.990173 0.733608 0.485756
1.000000 0.728695 0.456458
0.000000 0.901518 0.569116
0.194491 0.893248 0.572869
0.482856 0.868986 0.561212
0.680842 0.834867 0.590875
0.823819 0.826719 0.786984
0.905364 0.870268 0.793637
0.968505 0.863645 0.725063
1.000000 0.835782 0.640955
0.269474 0.955840 0.656336
0.387274 0.949676 0.666224
0.605371 0.929686 0.699855
0.680629 0.914672 0.666407
0.821897 0.895140 0.748165
0.884428 0.890532 0.858061
0.925505 0.912871 0.868498
0.968627 0.911009 0.823148
0.457832 0.983825 0.728389
0.519921 0.978576 0.737179
0.669825 0.963226 0.768551
0.737728 0.953399 0.762173
0.801083 0.940307 0.761990
0.887907 0.928679 0.837369
0.917052 0.923339 0.897063
0.938598 0.934661 0.906462
0.583642 0.999634 0.785122
0.631464 0.995148 0.795865
0.745510 0.982422 0.827543
0.826871 0.971893 0.853666
0.846433 0.967987 0.842588
0.884825 0.960662 0.851926
0.929717 0.953277 0.898253
0.942657 0.948028 0.928496
0.000000 0.104341 0.423865
0.036713 0.108736 0.468116
0.553277 0.032471 0.498146
0.420447 0.000000 0.175265
0.377935 0.060517 0.109194
0.738674 0.195804 0.173709
0.916869 0.403693 0.253758
0.994751 0.549828 0.340459
0.000000 0.208164 0.403906
0.100313 0.222477 0.456794
0.537316 0.256077 0.506493
0.340734 0.097353 0.163882
0.480659 0.111452 0.146395
0.771908 0.260716 0.203250
0.922881 0.434821 0.274937
0.995056 0.565881 0.354131
0.000000 0.439796 0.514488
0.000000 0.454963 0.517021
0.494972 0.485725 0.524254
0.639490 0.418982 0.404334
0.769863 0.427955 0.354498
0.873075 0.483406 0.353613
0.949157 0.560662 0.382635
0.998596 0.634485 0.423621
0.000000 0.796170 0.640711
0.000000 0.787778 0.633173
0.524102 0.746304 0.621088
0.743008 0.738430 0.727260
0.891905 0.807279 0.724178
0.937987 0.766751 0.643671
0.968017 0.741878 0.585321
0.998505 0.743954 0.557671
0.000000 0.913298 0.677089
0.188266 0.905089 0.681300
0.571405 0.876463 0.698512
0.707332 0.844511 0.680385
0.844144 0.848417 0.823789
0.913573 0.883024 0.825498
0.965423 0.875578 0.780301
0.991577 0.850278 0.719356
0.278172 0.959472 0.720851
0.409461 0.952575 0.729763
0.623285 0.932555 0.752682
0.728084 0.914427 0.745052
0.828794 0.897154 0.782040
0.892851 0.899138 0.874937
0.931212 0.920012 0.882811
0.968322 0.918181 0.850462
0.472023 0.985168 0.767880
0.536522 0.979797 0.775540
0.678950 0.964721 0.797940
0.789639 0.949035 0.820615
0.823026 0.939879 0.805478
0.893828 0.931395 0.856474
0.924132 0.930236 0.909483
0.944732 0.941436 0.917205
0.567529 1.000000 0.801602
0.611536 0.997681 0.808560
0.733577 0.984375 0.835874
0.841703 0.970947 0.872984
0.861082 0.967254 0.864652
0.889921 0.961364 0.866667
0.933654 0.955444 0.908354
0.946899 0.951995 0.935790
0.000000 0.193301 0.690425
0.000000 0.209354 0.712337
0.583673 0.250858 0.771023
0.819272 0.395544 0.751644
0.815457 0.251926 0.522515
0.459632 0.000000 0.130220
0.750637 0.090669 0.179904
0.956817 0.443275 0.334752
0.000000 0.316014 0.684108
0.092622 0.308354 0.705898
0.575799 0.370672 0.763241
0.812345 0.478523 0.756008
0.787472 0.265263 0.498695
0.393500 0.000000 0.117098
0.777737 0.177523 0.207309
0.960296 0.470039 0.354406
0.000000 0.462745 0.669734
0.133333 0.473182 0.668177
0.514977 0.533806 0.721157
0.788327 0.631647 0.761044
0.648554 0.246036 0.375982
0.603326 0.176822 0.224491
0.870848 0.409491 0.348791
0.973480 0.578943 0.451667
0.000000 0.709560 0.751339
0.000000 0.713588 0.751339
0.502739 0.723751 0.751614
0.749203 0.744594 0.756680
0.794186 0.668391 0.657374
0.860594 0.650050 0.602838
0.927489 0.679042 0.592126
0.977722 0.723781 0.603845
0.000000 0.916899 0.808896
0.141085 0.913268 0.809049
0.560998 0.897337 0.808865
0.767727 0.863035 0.801968
0.858701 0.863676 0.852140
0.921935 0.891569 0.854002
0.952941 0.874632 0.816678
0.975860 0.853361 0.769802
0.271427 0.968261 0.810941
0.416571 0.962249 0.815518
0.634363 0.941985 0.822080
0.786618 0.919371 0.833463
0.837980 0.902525 0.823545
0.905058 0.911345 0.896056
0.939513 0.929198 0.900664
0.969177 0.926207 0.879789
0.465644 0.988769 0.820554
0.534508 0.983642 0.825315
0.683558 0.969055 0.839384
0.806149 0.952850 0.858549
0.853513 0.942931 0.857176
0.901213 0.935943 0.878965
0.932464 0.938262 0.923461
0.951720 0.948608 0.928527
0.566155 1.000000 0.836545
0.612268 0.999908 0.841764
0.721309 0.988373 0.856870
0.829160 0.974640 0.881315
0.884581 0.966461 0.896300
0.902586 0.962402 0.892210
0.938231 0.958343 0.919951
0.952178 0.956909 0.944457
0.000000 0.317723 0.833249
0.221439 0.333776 0.839994
0.554650 0.393103 0.859251
0.825223 0.537377 0.887694
0.906065 0.638025 0.857816
0.927031 0.630762 0.778622
0.870268 0.124147 0.413336
0.824979 0.000000 0.192508
0.188602 0.413977 0.826627
0.287083 0.411994 0.834867
0.567285 0.468818 0.854490
0.819059 0.590509 0.883543
0.901884 0.671290 0.858824
0.920378 0.637385 0.773739
0.855375 0.097932 0.389837
0.837430 0.000000 0.210086
0.242435 0.538293 0.794003
0.355566 0.555261 0.803220
0.564996 0.594781 0.832395
0.796323 0.693202 0.868986
0.889464 0.748348 0.860563
0.892027 0.633539 0.742885
0.775540 0.115267 0.320867
0.888914 0.290990 0.307195
0.215702 0.675715 0.815305
0.328130 0.680171 0.813535
0.539757 0.697169 0.808469
0.750240 0.758755 0.837797
0.873899 0.818723 0.861936
0.812284 0.558099 0.635492
0.753384 0.309453 0.346654
0.941283 0.566827 0.509422
0.235416 0.840085 0.852750
0.355261 0.840299 0.852323
0.570703 0.840604 0.850767
0.746853 0.844999 0.850614
0.850156 0.854429 0.853178
0.865751 0.804410 0.790768
0.910552 0.789761 0.752773
0.957580 0.805814 0.744350
0.323217 0.952331 0.877806
0.420691 0.948760 0.877867
0.613916 0.938384 0.878325
0.773556 0.928466 0.881285
0.856321 0.909636 0.873259
0.908446 0.914672 0.905180
0.945769 0.932036 0.909941
0.967102 0.923980 0.890898
0.452064 0.993347 0.880491
0.519738 0.988342 0.881163
0.670832 0.974029 0.884123
0.795926 0.958404 0.889128
0.869322 0.946227 0.894011
0.897948 0.937163 0.889250
0.938109 0.943603 0.933104
0.957549 0.953368 0.936126
0.539269 1.000000 0.875578
0.587121 1.000000 0.877928
0.702968 0.991791 0.885527
0.812619 0.979156 0.898222
0.882811 0.969177 0.911009
0.913085 0.964111 0.914153
0.940520 0.960693 0.928344
0.956603 0.960967 0.951598
0.342565 0.456458 0.902678
0.415869 0.470253 0.904234
0.591333 0.516258 0.909026
0.778470 0.606806 0.918791
0.902770 0.715877 0.927825
0.938231 0.771817 0.904295
0.957824 0.815488 0.885222
0.964355 0.626917 0.741390
0.398383 0.514641 0.896269
0.446235 0.519280 0.898314
0.602564 0.559503 0.904295
0.777554 0.638331 0.914946
0.900481 0.737942 0.926055
0.935851 0.784756 0.904326
0.955535 0.817899 0.883940
0.962127 0.621088 0.733730
0.475929 0.629938 0.880888
0.524651 0.641108 0.883543
0.629175 0.659602 0.893400
0.779477 0.721157 0.906523
0.897581 0.802029 0.923796
0.930724 0.825986 0.907195
0.948180 0.825803 0.879728
0.954986 0.600641 0.705287
0.446387 0.704860 0.868101
0.489784 0.709133 0.866056
0.619593 0.733822 0.868711
0.772305 0.788388 0.891966
0.884428 0.849149 0.915679
0.925841 0.869169 0.911955
0.933867 0.822507 0.863401
0.938415 0.535546 0.625238
0.453254 0.805509 0.884611
0.500664 0.807736 0.883757
0.621302 0.815091 0.880949
0.744045 0.827634 0.877287
0.850309 0.860807 0.894347
0.917205 0.893370 0.911009
0.892668 0.747738 0.784451
0.901030 0.524743 0.537407
0.477333 0.901793 0.902586
0.527550 0.901579 0.902739
0.647303 0.900023 0.901976
0.765591 0.899992 0.901579
0.846525 0.902983 0.902190
0.904204 0.910277 0.905974
0.915373 0.882414 0.868833
0.948913 0.879240 0.852049
0.527520 0.976532 0.923339
0.573816 0.973816 0.923369
0.685603 0.965789 0.922972
0.793332 0.958129 0.923766
0.868589 0.955077 0.926574
0.912505 0.945159 0.922026
0.942931 0.948089 0.941131
0.963806 0.957092 0.943511
0.539696 1.000000 0.920378
0.582696 1.000000 0.920958
0.693355 0.996033 0.923369
0.803037 0.983429 0.926177
0.874510 0.973846 0.929442
0.920684 0.967010 0.934630
0.939940 0.963104 0.934966
0.961242 0.965179 0.958587
0.515709 0.576349 0.938018
0.552667 0.587671 0.938781
0.649226 0.617212 0.939605
0.770535 0.672145 0.941955
0.874449 0.748287 0.946136
0.936095 0.809934 0.947723
0.956146 0.845029 0.930999
0.970825 0.885863 0.927245
0.529442 0.602472 0.933227
0.562676 0.611933 0.934081
0.652949 0.638209 0.935546
0.768826 0.686946 0.938476
0.871000 0.756435 0.943389
0.933471 0.813504 0.945769
0.954040 0.844633 0.929229
0.969726 0.883757 0.925383
0.605737 0.701259 0.924834
0.635523 0.710994 0.925414
0.681117 0.711055 0.928801
0.779660 0.748959 0.932921
0.870420 0.800992 0.939330
0.931853 0.847929 0.945037
0.952331 0.868864 0.932403
0.968505 0.897276 0.929534
0.584680 0.751614 0.913664
0.611505 0.756344 0.914092
0.695338 0.777554 0.916899
0.787289 0.807736 0.924865
0.868864 0.846006 0.934142
0.931731 0.886625 0.945739
0.950866 0.896666 0.937011
0.965087 0.902770 0.927916
0.562219 0.806485 0.913420
0.585870 0.807797 0.912047
0.657679 0.814389 0.908507
0.749660 0.829068 0.906188
0.849454 0.864408 0.922820
0.920592 0.902068 0.939910
0.947173 0.913909 0.938170
0.957794 0.895933 0.916045
0.564813 0.874632 0.922942
0.592706 0.875364 0.922484
0.671138 0.878050 0.921050
0.761257 0.883421 0.919463
0.832425 0.889647 0.917357
0.901823 0.911650 0.929747
0.945922 0.933562 0.942199
0.941863 0.865293 0.878630
0.590600 0.938170 0.935180
0.620630 0.937713 0.935302
0.698299 0.935973 0.934997
0.783932 0.935241 0.935180
0.851225 0.936004 0.935424
0.902007 0.939147 0.936919
0.939574 0.944854 0.940673
0.951263 0.931975 0.921355
0.581933 0.994018 0.950225
0.612360 0.992279 0.950286
0.706416 0.986419 0.950988
0.797757 0.978973 0.950530
0.868193 0.973754 0.950988
0.918364 0.971893 0.953521
0.947387 0.967285 0.952880
0.964721 0.968322 0.963806
0.617060 0.660487 0.957885
0.636957 0.666865 0.957977
0.692927 0.683589 0.957519
0.774746 0.718929 0.957671
0.854643 0.768490 0.958495
0.919036 0.824918 0.960784
0.955291 0.861662 0.960510
0.967834 0.886412 0.947997
0.625696 0.677577 0.955566
0.644434 0.683406 0.955718
0.698146 0.699153 0.955596
0.775906 0.730617 0.955901
0.854093 0.776761 0.957122
0.917876 0.829770 0.959808
0.954284 0.864042 0.959869
0.967193 0.887327 0.947631
0.676844 0.746304 0.948821
0.684169 0.744839 0.949432
0.713375 0.743709 0.950500
0.786435 0.773342 0.952178
0.856718 0.809079 0.954223
0.916258 0.850553 0.957794
0.952758 0.879545 0.959289
0.966125 0.897734 0.948913
0.643549 0.771450 0.943359
0.667506 0.778653 0.943572
0.734890 0.800900 0.943694
0.794003 0.817472 0.946807
0.858549 0.845029 0.950378
0.914366 0.876799 0.955596
0.951690 0.901793 0.959533
0.965270 0.913848 0.951781
0.610071 0.811307 0.936309
0.629328 0.814359 0.935912
0.684016 0.821653 0.935363
0.767483 0.838987 0.938781
0.848844 0.867185 0.944701
0.906950 0.893889 0.951843
0.950439 0.920989 0.959838
0.964721 0.930388 0.955261
0.594537 0.860014 0.941375
0.611902 0.860533 0.940703
0.666377 0.863157 0.938720
0.740536 0.869047 0.936095
0.811917 0.878202 0.933349
0.894957 0.908171 0.946838
0.947387 0.937194 0.959716
0.965606 0.947723 0.960296
0.588067 0.913207 0.948547
0.608026 0.913115 0.948150
0.668635 0.913268 0.947082
0.751217 0.915465 0.946075
0.825559 0.919982 0.945342
0.883268 0.926818 0.945434
0.936950 0.944701 0.955413
0.965087 0.958495 0.962829
0.596612 0.962554 0.957244
0.619318 0.961761 0.957092
0.690181 0.959686 0.957031
0.780728 0.958129 0.957580
0.851530 0.958221 0.958251
0.903197 0.960327 0.959625
0.939788 0.963775 0.961852
0.964019 0.967620 0.964660
