data/fiter_cube/82249637/1022807/file.cube
# Created by Adobe Lightroom plugin Export LUT (1.17.0)
# www.johnrellis.com/lightroom/exportlut.htm
# Preset: 王家卫电影色调_06 云集
# Color profile: C:\Program Files (x86)\Common Files\Adobe\Color\Profiles\Recommended\AdobeRGB1998.icc
LUT_3D_SIZE 32
DOMAIN_MIN 0.0 0.0 0.0
DOMAIN_MAX 1.0 1.0 1.0
0.000000 0.000000 0.000000
0.032227 0.008606 0.003876
0.059815 0.019409 0.007507
0.085542 0.047089 0.018372
0.120241 0.061524 0.026398
0.157076 0.065919 0.032105
0.194949 0.068940 0.034638
0.235538 0.070680 0.035401
0.280064 0.070344 0.032319
0.330419 0.066529 0.026001
0.386664 0.058259 0.015839
0.449348 0.038666 0.001007
0.515831 0.029725 0.000000
0.582849 0.061830 0.000000
0.643915 0.098756 0.000000
0.697078 0.137942 0.000000
0.743526 0.177523 0.000000
0.787747 0.219913 0.000000
0.828458 0.263493 0.000000
0.862486 0.303655 0.000000
0.891142 0.340948 0.057984
0.915251 0.375433 0.091035
0.935332 0.406897 0.119142
0.952361 0.435981 0.146029
0.966827 0.462776 0.172213
0.979522 0.488380 0.198795
0.990814 0.513329 0.226566
1.000000 0.537835 0.255497
1.000000 0.561852 0.285679
1.000000 0.585443 0.317174
1.000000 0.608362 0.349584
1.000000 0.630152 0.381994
0.000000 0.031556 0.007172
0.021027 0.022919 0.015961
0.058473 0.039612 0.014618
0.090822 0.060975 0.019348
0.130037 0.069398 0.028595
0.169772 0.073854 0.032990
0.209659 0.076509 0.034211
0.251621 0.077699 0.033570
0.296818 0.076692 0.029175
0.347631 0.072450 0.021363
0.403418 0.065644 0.010712
0.464332 0.057588 0.000000
0.529015 0.058778 0.000000
0.593500 0.079194 0.000000
0.651331 0.111971 0.000000
0.702724 0.149172 0.000000
0.747524 0.186557 0.000000
0.790097 0.226505 0.000000
0.828855 0.267643 0.000000
0.861753 0.305852 0.000000
0.889799 0.341863 0.053681
0.913603 0.375280 0.088228
0.933654 0.406256 0.116518
0.950713 0.434791 0.143038
0.965362 0.461463 0.169162
0.978210 0.487098 0.195987
0.989654 0.511894 0.223758
0.999908 0.536553 0.252720
1.000000 0.560632 0.283085
1.000000 0.584344 0.314733
1.000000 0.607263 0.347173
1.000000 0.629206 0.379706
0.000000 0.060609 0.018311
0.027375 0.059205 0.018952
0.046754 0.049775 0.037903
0.088075 0.071778 0.037781
0.144259 0.082582 0.029236
0.188510 0.087037 0.031403
0.230961 0.088655 0.031861
0.274601 0.088655 0.029419
0.321569 0.086488 0.023896
0.372473 0.082124 0.014008
0.427741 0.076814 0.002136
0.487343 0.073518 0.000000
0.549157 0.079652 0.000000
0.610254 0.101015 0.000000
0.664881 0.131319 0.000000
0.712673 0.164950 0.000000
0.755459 0.200534 0.000000
0.796048 0.238224 0.000000
0.832609 0.276646 0.000000
0.864073 0.313085 0.000000
0.891173 0.347478 0.054994
0.914366 0.379675 0.088655
0.934051 0.409766 0.116701
0.950774 0.437507 0.143130
0.965332 0.463691 0.169223
0.978027 0.488685 0.195651
0.989441 0.513329 0.223270
0.999664 0.537591 0.252293
1.000000 0.561456 0.282536
1.000000 0.585016 0.314153
1.000000 0.607782 0.346471
1.000000 0.629572 0.378973
0.000000 0.091096 0.049500
0.026307 0.090944 0.039979
0.059388 0.088746 0.040772
0.075349 0.078676 0.069978
0.131167 0.109010 0.068544
0.229007 0.124605 0.031342
0.284611 0.122621 0.018708
0.332708 0.118563 0.013001
0.380804 0.113649 0.003479
0.431037 0.109590 0.000000
0.483650 0.107515 0.000000
0.538445 0.110292 0.000000
0.594507 0.122896 0.000000
0.647150 0.144961 0.000000
0.693690 0.170962 0.000000
0.735988 0.200443 0.000000
0.773434 0.230838 0.000000
0.810117 0.264652 0.000000
0.842313 0.297978 0.000000
0.870451 0.330053 0.000000
0.895201 0.360845 0.059541
0.916838 0.390478 0.090822
0.935698 0.418738 0.118471
0.952087 0.445441 0.145022
0.966430 0.470985 0.171328
0.979126 0.495644 0.198276
0.990417 0.519707 0.226230
1.000000 0.543542 0.255283
1.000000 0.566766 0.285374
1.000000 0.589349 0.316411
1.000000 0.611292 0.348302
1.000000 0.632288 0.380102
0.000000 0.140200 0.068482
0.011414 0.140047 0.065827
0.035248 0.138705 0.052125
0.083772 0.132113 0.065003
0.107973 0.116823 0.101595
0.177401 0.158694 0.107362
0.300420 0.183658 0.070588
0.419135 0.180667 0.000000
0.468238 0.171817 0.000000
0.516838 0.167941 0.000000
0.564660 0.168765 0.000000
0.611200 0.176120 0.000000
0.655482 0.189487 0.000000
0.697383 0.208072 0.000000
0.735012 0.229221 0.000000
0.769436 0.252659 0.000000
0.800534 0.277012 0.000000
0.832090 0.305730 0.000000
0.859159 0.333013 0.000000
0.883116 0.359747 0.013458
0.904540 0.385931 0.069825
0.923735 0.411780 0.099031
0.940642 0.436622 0.125338
0.955749 0.460822 0.151034
0.969146 0.484199 0.176913
0.981079 0.507134 0.203433
0.991821 0.529747 0.230838
1.000000 0.551904 0.259190
1.000000 0.573877 0.288731
1.000000 0.595483 0.319219
1.000000 0.616419 0.350500
1.000000 0.636683 0.381933
0.000000 0.202152 0.084260
0.000000 0.202213 0.081239
0.000000 0.200961 0.073945
0.062165 0.195499 0.064149
0.121462 0.184726 0.090608
0.152010 0.167330 0.146395
0.232700 0.218112 0.166629
0.381140 0.257053 0.122744
0.530968 0.270085 0.057954
0.611963 0.267735 0.000000
0.647303 0.263188 0.000000
0.680934 0.264286 0.000000
0.713680 0.271122 0.000000
0.745235 0.282078 0.000000
0.774563 0.295781 0.000000
0.801602 0.311864 0.000000
0.828000 0.330816 0.000000
0.853819 0.352972 0.000000
0.876524 0.374670 0.027253
0.897459 0.396918 0.068147
0.916777 0.419806 0.090944
0.934112 0.442390 0.113100
0.963226 0.490608 0.165072
0.974609 0.510033 0.189364
0.984710 0.528679 0.213413
0.993744 0.546929 0.237858
1.000000 0.565026 0.263127
1.000000 0.583093 0.289097
1.000000 0.601221 0.316167
1.000000 0.619226 0.344152
1.000000 0.636835 0.372534
1.000000 0.653742 0.400763
0.000000 0.282750 0.106844
0.000000 0.281987 0.104067
0.000000 0.281071 0.102113
0.000000 0.276280 0.072572
0.097383 0.266117 0.083528
0.178286 0.253696 0.134737
0.216892 0.235966 0.208438
0.311315 0.294774 0.249302
0.481636 0.352026 0.198734
0.626123 0.381964 0.145205
0.733364 0.396429 0.075593
0.764553 0.387915 0.045747
0.785275 0.382422 0.039643
0.805447 0.381415 0.038117
0.824247 0.383734 0.044709
0.842374 0.389410 0.057893
0.863432 0.401953 0.071809
0.882628 0.415778 0.085786
0.900237 0.430732 0.100984
0.917235 0.447669 0.116732
0.933806 0.466804 0.134218
0.949523 0.487068 0.152804
0.964019 0.507958 0.172427
0.976440 0.527520 0.194217
0.986664 0.545678 0.219760
0.995453 0.562676 0.244694
1.000000 0.579248 0.269596
1.000000 0.595636 0.295109
1.000000 0.611994 0.321233
1.000000 0.628443 0.348302
1.000000 0.644648 0.375860
1.000000 0.660426 0.403357
0.000000 0.363561 0.133516
0.000000 0.362737 0.131472
0.000000 0.361425 0.129976
0.000000 0.356970 0.114015
0.034333 0.347326 0.096773
0.152041 0.334874 0.118318
0.246250 0.323674 0.187533
0.292607 0.307652 0.273960
0.389807 0.369512 0.337987
0.560357 0.440558 0.285863
0.687526 0.475776 0.237339
0.779812 0.491615 0.189242
0.839811 0.494667 0.145418
0.852140 0.481666 0.137270
0.863890 0.472999 0.132753
0.877165 0.470558 0.132235
0.891234 0.472969 0.136019
0.904326 0.477241 0.141299
0.917113 0.484230 0.148653
0.930083 0.494026 0.158663
0.943297 0.506737 0.171054
0.956329 0.521477 0.185153
0.968719 0.537469 0.200565
0.980072 0.553582 0.216373
0.990295 0.569146 0.232120
0.998077 0.583154 0.255528
1.000000 0.596948 0.279026
1.000000 0.610895 0.303166
1.000000 0.625360 0.328405
1.000000 0.639948 0.354284
1.000000 0.654688 0.380896
1.000000 0.669123 0.407691
0.000000 0.450721 0.168521
0.000000 0.449683 0.166934
0.000000 0.448402 0.165805
0.000000 0.444770 0.165835
0.000000 0.436408 0.117525
0.119265 0.422675 0.130556
0.229984 0.411658 0.170993
0.332036 0.401526 0.250492
0.383307 0.387854 0.348180
0.471717 0.448676 0.433692
0.627192 0.524834 0.383551
0.736782 0.559411 0.337255
0.815549 0.574640 0.294469
0.872984 0.578790 0.251896
0.900389 0.570916 0.224063
0.908965 0.559411 0.215366
0.917205 0.551019 0.209384
0.925597 0.546288 0.206394
0.934173 0.544915 0.206821
0.943633 0.547601 0.210666
0.953826 0.553765 0.217166
0.964172 0.562432 0.226291
0.974365 0.572992 0.237003
0.984039 0.584497 0.248875
0.993011 0.596277 0.260868
1.000000 0.607538 0.272190
1.000000 0.618433 0.292149
1.000000 0.629664 0.314611
1.000000 0.641627 0.338262
1.000000 0.654139 0.362829
1.000000 0.666926 0.388098
1.000000 0.679683 0.413642
0.000000 0.538567 0.210605
0.000000 0.537499 0.209506
0.000000 0.535882 0.207950
0.000000 0.532280 0.206729
0.000000 0.525048 0.176699
0.053986 0.513146 0.155734
0.194949 0.496925 0.168826
0.324376 0.489509 0.232151
0.425910 0.480842 0.321874
0.475959 0.470680 0.424475
0.546685 0.524834 0.524315
0.679713 0.597223 0.477455
0.773342 0.629999 0.434852
0.841581 0.644526 0.395483
0.891691 0.649226 0.358160
0.928374 0.646662 0.320287
0.939055 0.632746 0.298802
0.944335 0.620020 0.286564
0.950103 0.611475 0.278935
0.956634 0.606836 0.274937
0.964019 0.606043 0.274388
0.971771 0.608118 0.276921
0.979736 0.612421 0.281193
0.987579 0.618463 0.287388
0.995178 0.625544 0.294469
1.000000 0.633204 0.301915
1.000000 0.641260 0.309239
1.000000 0.649958 0.327581
1.000000 0.659724 0.349920
1.000000 0.670222 0.373388
1.000000 0.681239 0.397559
1.000000 0.692439 0.422065
0.000000 0.616968 0.256870
0.000000 0.616052 0.255772
0.000000 0.614771 0.254490
0.000000 0.611688 0.253086
0.000000 0.606073 0.241733
0.000000 0.597711 0.188022
0.176852 0.583703 0.199527
0.285924 0.568292 0.217563
0.424353 0.564019 0.302342
0.516106 0.557336 0.398169
0.560357 0.550378 0.499855
0.610376 0.592798 0.603357
0.724239 0.662165 0.565332
0.804288 0.693507 0.528496
0.861082 0.705196 0.491218
0.902678 0.706355 0.453712
0.934478 0.701320 0.415381
0.957610 0.692409 0.379461
0.961639 0.677211 0.361364
0.966461 0.666346 0.348486
0.971984 0.659571 0.340490
0.978088 0.656031 0.335882
0.984527 0.655390 0.334600
0.991089 0.656764 0.335241
0.997589 0.659571 0.337407
1.000000 0.663264 0.339940
1.000000 0.667750 0.342901
1.000000 0.672938 0.346319
1.000000 0.679683 0.363989
1.000000 0.687739 0.385351
1.000000 0.696590 0.407935
1.000000 0.705928 0.430945
0.000000 0.686793 0.305577
0.000000 0.686030 0.304967
0.000000 0.684810 0.304204
0.000000 0.682094 0.302983
0.000000 0.677363 0.303532
0.000000 0.670466 0.260349
0.152682 0.660121 0.237858
0.277043 0.645350 0.248447
0.395148 0.634241 0.288975
0.515831 0.630121 0.378729
0.593225 0.625177 0.474922
0.634363 0.624323 0.573175
0.693233 0.682490 0.695949
0.780087 0.739101 0.662470
0.840360 0.762356 0.628809
0.883940 0.769467 0.594537
0.916991 0.767880 0.559411
0.943145 0.761227 0.523461
0.964660 0.751614 0.486793
0.977447 0.739162 0.456031
0.981659 0.726528 0.437598
0.986236 0.717250 0.424018
0.991150 0.710536 0.413367
0.996307 0.706325 0.406134
1.000000 0.703975 0.400793
1.000000 0.703059 0.397040
1.000000 0.703334 0.394141
1.000000 0.704433 0.391638
1.000000 0.706233 0.389227
1.000000 0.711116 0.407050
1.000000 0.717128 0.426520
1.000000 0.723842 0.446845
0.000000 0.755581 0.361120
0.000000 0.754849 0.360693
0.000000 0.753262 0.359808
0.000000 0.750057 0.358923
0.000000 0.744747 0.359197
0.016114 0.737728 0.337713
0.135439 0.730007 0.285588
0.277836 0.716670 0.293980
0.374426 0.701564 0.303807
0.499153 0.696956 0.370520
0.604822 0.697780 0.467323
0.673213 0.698848 0.563561
0.707515 0.700801 0.649195
0.731807 0.725429 0.738857
0.801968 0.773434 0.711543
0.852354 0.793637 0.681575
0.889769 0.799771 0.650507
0.918822 0.798276 0.618585
0.942473 0.792660 0.586542
0.962585 0.784695 0.554070
0.979980 0.775235 0.521111
0.987549 0.763424 0.497017
0.991913 0.753231 0.480110
0.996582 0.745266 0.466102
1.000000 0.739284 0.454780
1.000000 0.734981 0.445411
1.000000 0.732113 0.437629
1.000000 0.730434 0.430915
1.000000 0.729549 0.424140
1.000000 0.729824 0.421302
1.000000 0.733822 0.438972
1.000000 0.738766 0.457679
0.000000 0.803128 0.405402
0.000000 0.802304 0.405158
0.000000 0.801022 0.404791
0.000000 0.798245 0.404669
0.000000 0.793332 0.405463
0.147341 0.786496 0.404334
0.189731 0.780392 0.358495
0.277928 0.772091 0.339269
0.379919 0.760769 0.349432
0.462257 0.748745 0.362280
0.585809 0.747616 0.452399
0.671412 0.746792 0.542748
0.724483 0.746700 0.624720
0.750271 0.746822 0.695796
0.767422 0.763516 0.768063
0.819669 0.800626 0.750729
0.861845 0.817563 0.723049
0.894102 0.822904 0.695186
0.920134 0.822080 0.666865
0.941955 0.817899 0.638666
0.960723 0.811551 0.610193
0.977173 0.803616 0.580835
0.991547 0.794095 0.549920
0.995880 0.783810 0.531029
1.000000 0.775235 0.514733
1.000000 0.768185 0.500511
1.000000 0.762570 0.487709
1.000000 0.758206 0.476265
1.000000 0.754879 0.465461
1.000000 0.752224 0.454383
1.000000 0.751705 0.453651
1.000000 0.754849 0.470588
0.000000 0.842557 0.446723
0.000000 0.842100 0.447181
0.000000 0.841123 0.447364
0.000000 0.838926 0.448463
0.000000 0.835019 0.451057
0.197726 0.829191 0.456367
0.257572 0.824033 0.430854
0.289586 0.818753 0.388617
0.387518 0.808225 0.396368
0.467140 0.796841 0.405554
0.553643 0.788174 0.440284
0.654261 0.785763 0.525536
0.721859 0.784085 0.603967
0.763058 0.782986 0.673213
0.782559 0.781949 0.732479
0.794553 0.792844 0.791043
0.833860 0.821714 0.781491
0.869718 0.836423 0.756710
0.898192 0.841642 0.732052
0.921752 0.841794 0.707454
0.941833 0.838773 0.682673
0.959289 0.833616 0.657313
0.974670 0.826749 0.630701
0.988586 0.818479 0.602380
0.998627 0.808957 0.575555
1.000000 0.800198 0.557580
1.000000 0.792844 0.541436
1.000000 0.786740 0.526818
1.000000 0.781613 0.512718
1.000000 0.777127 0.498482
1.000000 0.772763 0.482277
1.000000 0.772335 0.487037
0.000000 0.877256 0.488685
0.000000 0.876738 0.489540
0.000000 0.875822 0.490089
0.000000 0.873594 0.491798
0.000000 0.869780 0.495155
0.243565 0.864256 0.501457
0.326665 0.858488 0.496132
0.347906 0.854459 0.460792
0.404395 0.847166 0.445869
0.478401 0.837003 0.452918
0.541405 0.826078 0.460853
0.629328 0.819242 0.514000
0.707942 0.815335 0.587457
0.760311 0.812345 0.653529
0.791714 0.809964 0.711147
0.806332 0.807797 0.760250
0.815091 0.815091 0.808774
0.845212 0.838071 0.805661
0.876768 0.851835 0.784268
0.902403 0.857572 0.763333
0.923888 0.858671 0.742306
0.942321 0.856748 0.720943
0.958434 0.852628 0.698665
0.972839 0.846891 0.674922
0.985962 0.839689 0.649378
0.998138 0.831174 0.621088
1.000000 0.822263 0.597833
1.000000 0.814694 0.580041
1.000000 0.807980 0.562921
1.000000 0.801724 0.545068
1.000000 0.795560 0.525566
1.000000 0.788907 0.502464
0.000000 0.901884 0.523919
0.000000 0.901213 0.524437
0.000000 0.900175 0.525322
0.000000 0.897948 0.527337
0.153811 0.894224 0.531365
0.282811 0.888975 0.538079
0.384253 0.882109 0.548913
0.400763 0.878630 0.520165
0.420417 0.874510 0.488136
0.488167 0.865507 0.493538
0.547417 0.855955 0.499855
0.598840 0.845975 0.506828
0.685542 0.840879 0.573175
0.748135 0.836851 0.636774
0.789517 0.833616 0.693172
0.814115 0.830961 0.741787
0.825559 0.828611 0.783322
0.832212 0.833524 0.823972
0.855528 0.852079 0.825864
0.883391 0.864988 0.807431
0.906371 0.870817 0.789273
0.925902 0.872374 0.770901
0.942779 0.871122 0.751949
0.957733 0.867887 0.732235
0.971191 0.863005 0.710994
0.983581 0.856809 0.687922
0.995239 0.849271 0.662074
1.000000 0.840299 0.632532
1.000000 0.832456 0.612482
1.000000 0.825162 0.592615
1.000000 0.817868 0.570794
1.000000 0.810086 0.545006
0.000000 0.921019 0.555810
0.000000 0.920500 0.556970
0.000000 0.926543 0.572442
0.167788 0.924193 0.575311
0.267491 0.920409 0.580316
0.355840 0.915160 0.587915
0.437934 0.908568 0.598444
0.473854 0.903868 0.588159
0.485634 0.900542 0.560845
0.521813 0.894560 0.549310
0.572747 0.886229 0.553216
0.618494 0.877470 0.557671
0.670436 0.869017 0.576715
0.739498 0.863645 0.635584
0.787228 0.859342 0.688289
0.818631 0.855894 0.734463
0.837491 0.853056 0.774502
0.846128 0.850584 0.808438
0.850706 0.853391 0.841428
0.867918 0.867552 0.846555
0.891783 0.878965 0.830472
0.911925 0.884367 0.814603
0.929229 0.885985 0.798428
0.944396 0.885069 0.781674
0.957916 0.882170 0.763668
0.970275 0.877775 0.744228
0.981781 0.872068 0.722683
0.992767 0.865080 0.698451
1.000000 0.856748 0.670375
1.000000 0.847379 0.640314
1.000000 0.839353 0.617060
1.000000 0.830777 0.589960
0.000000 0.937530 0.588251
0.090761 0.937621 0.591058
0.156832 0.937438 0.594232
0.232364 0.935943 0.599054
0.310399 0.932952 0.605646
0.387091 0.928374 0.614099
0.459632 0.922484 0.624201
0.513817 0.916716 0.628412
0.523003 0.914061 0.605737
0.535180 0.910857 0.581567
0.581231 0.903593 0.584436
0.623499 0.895933 0.587823
0.661463 0.887877 0.591363
0.716884 0.880919 0.623743
0.772091 0.875853 0.674678
0.810483 0.871794 0.720089
0.835904 0.868589 0.759884
0.851347 0.865995 0.794217
0.858671 0.863798 0.823758
0.862425 0.865751 0.852323
0.875731 0.877287 0.860258
0.897276 0.888243 0.846372
0.915587 0.893706 0.832486
0.931395 0.895689 0.818387
0.945312 0.895232 0.803525
0.957855 0.893004 0.787564
0.969451 0.889342 0.770199
0.980316 0.884459 0.751003
0.990753 0.878325 0.729000
1.000000 0.870695 0.702785
1.000000 0.861082 0.669764
1.000000 0.850889 0.636316
0.174838 0.948760 0.612848
0.205447 0.948699 0.615686
0.238407 0.948333 0.618799
0.290501 0.946807 0.623590
0.353429 0.943877 0.630396
0.418189 0.939666 0.638453
0.482460 0.934295 0.648188
0.543908 0.928069 0.659541
0.558312 0.925292 0.644953
0.566552 0.922820 0.623407
0.593133 0.918151 0.614527
0.631525 0.911528 0.617090
0.666590 0.904509 0.619715
0.698421 0.897215 0.622583
0.754971 0.891356 0.665187
0.799374 0.886717 0.709255
0.830350 0.883055 0.748348
0.851194 0.880156 0.782620
0.864073 0.877836 0.812345
0.870329 0.875975 0.838041
0.873320 0.877226 0.862730
0.883391 0.886442 0.872770
0.902770 0.896757 0.860563
0.919310 0.902129 0.848386
0.933715 0.904295 0.835782
0.946532 0.904173 0.822477
0.958190 0.902464 0.808255
0.968994 0.899413 0.792782
0.979217 0.895201 0.775448
0.989105 0.889677 0.755184
0.998962 0.882536 0.730159
1.000000 0.873045 0.697169
0.254185 0.958190 0.636042
0.274784 0.958038 0.638697
0.299413 0.957580 0.641840
0.340764 0.955993 0.646754
0.392737 0.953216 0.653254
0.448524 0.949310 0.661036
0.505272 0.944396 0.670253
0.560876 0.938720 0.680995
0.591730 0.934630 0.679347
0.598199 0.932616 0.661341
0.607019 0.930175 0.642451
0.641413 0.924407 0.644373
0.673426 0.918303 0.646265
0.703090 0.911955 0.648554
0.736110 0.905638 0.658534
0.786252 0.900603 0.701442
0.822568 0.896727 0.740230
0.848264 0.893797 0.774533
0.865873 0.891600 0.804593
0.876982 0.889952 0.830686
0.882597 0.888701 0.853208
0.885283 0.889677 0.874601
0.892485 0.896727 0.885863
0.909667 0.906249 0.875364
0.924407 0.911376 0.864805
0.937346 0.913603 0.853880
0.948943 0.913817 0.842344
0.959533 0.912566 0.830045
0.969451 0.910033 0.816434
0.978820 0.906249 0.800809
0.988006 0.901091 0.781949
0.997314 0.893919 0.757168
0.331701 0.967681 0.663722
0.345129 0.967224 0.665583
0.361547 0.966522 0.667720
0.392828 0.964752 0.671626
0.434882 0.961975 0.677302
0.482734 0.958190 0.684565
0.532982 0.953643 0.693416
0.583520 0.948425 0.703883
0.627863 0.943267 0.713100
0.633295 0.941711 0.698512
0.639582 0.939971 0.682307
0.659205 0.936339 0.675410
0.687617 0.931151 0.676997
0.714229 0.925750 0.678584
0.738827 0.920165 0.680323
0.774990 0.914702 0.700587
0.814847 0.910277 0.737331
0.843931 0.906859 0.770260
0.864805 0.904265 0.799313
0.879271 0.902190 0.824643
0.888334 0.900572 0.846738
0.892882 0.899199 0.865965
0.894743 0.899413 0.884062
0.899321 0.904356 0.895750
0.914611 0.913024 0.886229
0.927947 0.917876 0.876707
0.939788 0.920226 0.866941
0.950500 0.920745 0.856687
0.960357 0.919860 0.845701
0.969574 0.917723 0.833341
0.978363 0.914275 0.818845
0.986999 0.909087 0.799954
0.379889 0.974212 0.683619
0.391180 0.973754 0.685451
0.405066 0.973083 0.687556
0.432044 0.971405 0.691493
0.468421 0.968780 0.696986
0.510552 0.965270 0.703914
0.555657 0.960998 0.712367
0.601404 0.956176 0.722225
0.646754 0.950896 0.733639
0.661646 0.948486 0.727779
0.666529 0.947051 0.714046
0.673274 0.945281 0.699855
0.698482 0.940795 0.701076
0.722744 0.936126 0.702449
0.745357 0.931304 0.703944
0.766476 0.926452 0.705592
0.804257 0.921721 0.733883
0.836759 0.917967 0.765896
0.860807 0.915068 0.794369
0.878233 0.912840 0.819425
0.890410 0.911070 0.841367
0.898131 0.909667 0.860563
0.902068 0.908446 0.877348
0.903502 0.908385 0.893004
0.904997 0.910582 0.903868
0.918853 0.918669 0.895323
0.931121 0.923461 0.886778
0.942077 0.925902 0.878050
0.952026 0.926665 0.868864
0.961212 0.926085 0.858885
0.969787 0.924163 0.847379
0.977966 0.920714 0.832914
0.433234 0.980621 0.706630
0.442908 0.980163 0.708461
0.454688 0.979461 0.710475
0.476905 0.977844 0.713985
0.507866 0.975311 0.719051
0.544366 0.971954 0.725582
0.584192 0.967926 0.733486
0.625177 0.963348 0.742641
0.665888 0.958404 0.753079
0.691951 0.954711 0.756374
0.695033 0.953429 0.744411
0.698726 0.952056 0.731197
0.712612 0.949187 0.725338
0.733425 0.945068 0.725826
0.753231 0.940795 0.726314
0.772061 0.936400 0.726986
0.792233 0.931945 0.731167
0.827481 0.927672 0.761624
0.854215 0.924376 0.789212
0.874388 0.921874 0.813931
0.889189 0.919951 0.835813
0.899565 0.918395 0.854978
0.906126 0.917052 0.871702
0.909331 0.915740 0.886320
0.910246 0.915190 0.899809
0.911009 0.916991 0.911894
0.923491 0.924468 0.904204
0.934600 0.928985 0.896483
0.944640 0.931456 0.888609
0.953826 0.932341 0.880308
0.962219 0.931731 0.870817
0.970123 0.929747 0.859434
0.467811 0.985229 0.722744
0.476356 0.984802 0.724514
0.486976 0.984131 0.726467
0.506767 0.982574 0.729915
0.534691 0.980194 0.734920
0.568078 0.977020 0.741360
0.604852 0.973266 0.749203
0.642878 0.969024 0.758267
0.680964 0.964446 0.768490
0.717433 0.959716 0.779690
0.720638 0.958679 0.770352
0.723873 0.957580 0.759609
0.728542 0.956268 0.748653
0.746822 0.952819 0.749172
0.764523 0.949218 0.749752
0.781430 0.945525 0.750362
0.797604 0.941772 0.751278
0.820890 0.937865 0.763546
0.849516 0.934325 0.789731
0.871519 0.931548 0.813321
0.888151 0.929351 0.834318
0.900450 0.927581 0.852842
0.909056 0.926085 0.869108
0.914519 0.924743 0.883421
0.917174 0.923461 0.895995
0.917723 0.922698 0.907622
0.917693 0.923613 0.918700
0.928344 0.930205 0.912718
0.938445 0.934569 0.905974
0.947539 0.936919 0.898924
0.955749 0.937652 0.891051
0.963378 0.937011 0.881895
0.502953 0.989502 0.739284
0.510582 0.989014 0.740902
0.519402 0.988342 0.742550
0.536767 0.986847 0.745754
0.561547 0.984558 0.750454
0.591699 0.981567 0.756649
0.625208 0.978027 0.764126
0.660487 0.973999 0.772915
0.696010 0.969696 0.782834
0.730037 0.965301 0.793576
0.744320 0.963073 0.793057
0.747066 0.962249 0.784329
0.750088 0.961303 0.774594
0.760555 0.959197 0.770443
0.775967 0.956146 0.770840
0.790890 0.953002 0.771267
0.805325 0.949798 0.771878
0.819211 0.946624 0.772885
0.844022 0.943084 0.790860
0.867521 0.940063 0.813230
0.885710 0.937652 0.833371
0.899596 0.935698 0.851255
0.909850 0.934051 0.867063
0.917113 0.932616 0.881041
0.921691 0.931304 0.893370
0.923857 0.930022 0.904326
0.924193 0.929137 0.914427
0.923919 0.929595 0.924041
0.932586 0.935149 0.920012
0.941650 0.939086 0.913725
0.949828 0.941222 0.907012
0.957275 0.941863 0.899504
0.532036 0.993072 0.753384
0.538445 0.992615 0.754757
0.546715 0.991943 0.756435
0.562615 0.990539 0.759609
0.586084 0.988342 0.764553
0.614771 0.985534 0.771023
0.647181 0.982208 0.779141
0.681361 0.978515 0.788571
0.715846 0.974548 0.799191
0.748898 0.970550 0.810544
0.773404 0.967437 0.818326
0.776547 0.966888 0.812192
0.779751 0.966278 0.805295
0.783658 0.965454 0.798184
0.796811 0.963073 0.798947
0.809262 0.960601 0.799405
0.821439 0.958007 0.799985
0.833249 0.955474 0.800748
0.845274 0.952911 0.802609
0.868711 0.949798 0.822568
0.887205 0.947265 0.840635
0.901610 0.945190 0.856840
0.912688 0.943420 0.871244
0.920928 0.941894 0.884092
0.926757 0.940520 0.895537
0.930449 0.939239 0.905730
0.932189 0.938048 0.914824
0.932219 0.937041 0.923217
0.931548 0.936919 0.930968
0.937926 0.940978 0.928191
0.945739 0.944396 0.922454
0.952758 0.946136 0.916136
0.572320 0.996521 0.772122
0.577844 0.996063 0.773373
0.584833 0.995422 0.774899
0.599054 0.994018 0.777951
0.620020 0.991913 0.782681
0.645655 0.989197 0.788846
0.674647 0.986023 0.796414
0.705257 0.982483 0.805203
0.736172 0.978729 0.814939
0.766049 0.974975 0.825498
0.793362 0.971313 0.836118
0.798734 0.970397 0.833005
0.800809 0.969879 0.826993
0.802976 0.969299 0.820310
