data/fiter_cube/82249637/1022807/file.cube
# Created by Adobe Lightroom plugin Export LUT (1.17.0)
# www.johnrellis.com/lightroom/exportlut.htm
# Preset: 王家卫电影色调_06 云集
# Color profile: C:\Program Files (x86)\Common Files\Adobe\Color\Profiles\Recommended\AdobeRGB1998.icc
LUT_3D_SIZE 5
DOMAIN_MIN 0.000000 0.000000 0.000000
DOMAIN_MAX 0.903226 0.903226 0.903226
0.000000 0.000000 0.000000
0.235538 0.070680 0.035401
0.643915 0.098756 0.000000
0.915251 0.375433 0.091035
1.000000 0.561852 0.285679
0.000000 0.363561 0.133516
0.292607 0.307652 0.273960
0.863890 0.472999 0.132753
0.956329 0.521477 0.185153
1.000000 0.625360 0.328405
0.000000 0.842557 0.446723
0.289586 0.818753 0.388617
0.782559 0.781949 0.732479
0.959289 0.833616 0.657313
1.000000 0.781613 0.512718
0.331701 0.967681 0.663722
0.583520 0.948425 0.703883
0.738827 0.920165 0.680323
0.892882 0.899199 0.865965
0.960357 0.919860 0.845701
0.596735 0.999237 0.784237
0.722805 0.985718 0.817624
0.817136 0.971374 0.828702
0.898192 0.957977 0.860227
0.942107 0.947539 0.927245
0.000000 0.088533 0.340215
0.439155 0.000000 0.401373
0.315648 0.077516 0.102632
0.827604 0.289220 0.185183
0.998230 0.551720 0.317845
0.000000 0.356115 0.429419
0.399176 0.399908 0.439643
0.692775 0.353063 0.294011
0.896391 0.468269 0.300786
1.000000 0.616388 0.380896
0.000000 0.860197 0.612299
0.459052 0.827024 0.621759
0.795926 0.796353 0.770138
0.952514 0.842222 0.725338
1.000000 0.798489 0.619257
0.367010 0.967895 0.724178
0.604211 0.948943 0.753109
0.773648 0.919554 0.751766
0.901061 0.907439 0.882261
0.961181 0.925689 0.866300
0.580407 1.000000 0.799039
0.713924 0.987396 0.828183
0.848753 0.969574 0.864225
0.904387 0.959472 0.876127
0.946441 0.951598 0.934752
0.000000 0.253880 0.776638
0.462562 0.304387 0.812253
0.875090 0.533959 0.817227
0.775265 0.000000 0.324102
0.915282 0.309850 0.284977
0.039979 0.465766 0.736690
0.468147 0.511009 0.785092
0.858762 0.670100 0.822904
0.649348 0.000000 0.254459
0.941527 0.446265 0.376440
0.000000 0.788083 0.812985
0.460517 0.791135 0.810910
0.809689 0.810880 0.814176
0.873289 0.730556 0.697841
0.966644 0.767697 0.681392
0.329961 0.977844 0.852903
0.589410 0.958373 0.854307
0.832334 0.924651 0.863005
0.916411 0.922637 0.910185
0.965484 0.935912 0.901518
0.549310 1.000000 0.854154
0.682673 0.993225 0.866575
0.858427 0.971405 0.897002
0.912505 0.961761 0.902922
0.954070 0.958618 0.947662
0.387182 0.484230 0.912078
0.559075 0.526238 0.916014
0.842405 0.672999 0.929412
0.943206 0.792508 0.911681
0.965209 0.732662 0.819486
0.509850 0.628443 0.897612
0.600946 0.637751 0.904662
0.838804 0.744961 0.921996
0.938079 0.827878 0.913420
0.959503 0.724788 0.805814
0.473793 0.753353 0.883085
0.588098 0.764523 0.878599
0.811856 0.826200 0.898161
0.926909 0.882444 0.915679
0.937621 0.628840 0.700221
0.520714 0.913664 0.912932
0.633722 0.910979 0.911650
0.812070 0.910979 0.911284
0.914183 0.920226 0.915770
0.947875 0.892515 0.870420
0.555688 1.000000 0.929320
0.671046 0.996307 0.930632
0.843168 0.979461 0.935302
0.928985 0.967102 0.940215
0.962188 0.966033 0.959991
0.617060 0.660487 0.957885
0.675654 0.677852 0.957610
0.816251 0.742428 0.957977
0.932372 0.839292 0.961669
0.967834 0.886412 0.947997
0.664149 0.728450 0.951141
0.697505 0.729671 0.952300
0.821225 0.780331 0.954131
0.929808 0.856779 0.959625
0.966552 0.895598 0.948821
0.624689 0.789853 0.938903
0.683680 0.800229 0.939757
0.821836 0.842741 0.944945
0.922240 0.891356 0.955108
0.964813 0.921630 0.953216
0.599390 0.875181 0.943847
0.656519 0.877134 0.942107
0.784298 0.886381 0.938262
0.905608 0.917479 0.948150
0.965423 0.950469 0.960906
0.596612 0.962554 0.957244
0.668788 0.960235 0.957000
0.818692 0.957916 0.957855
0.913634 0.961089 0.960143
0.964019 0.967620 0.964660
