data/fiter_cube/89350833/1022873/file.cube
# Created by Adobe Lightroom plugin Export LUT (1.24.0)
# www.johnrellis.com/lightroom/exportlut.htm
# Preset: 婚礼接亲预设[余晖]-3 车上送新人
# Color profile: C:\Windows\System32\Spool\Drivers\Color\AppleRGB.icc
LUT_3D_SIZE 5
DOMAIN_MIN 0.000000 0.000000 0.000000
DOMAIN_MAX 0.903226 0.903226 0.903226
0.055116 0.108461 0.126741
0.154147 0.109468 0.130037
0.741726 0.000000 0.129580
1.000000 0.221164 0.190311
1.000000 0.477089 0.433478
0.052827 0.173983 0.148440
0.180453 0.188846 0.143404
0.886351 0.485206 0.034241
1.000000 0.548150 0.265019
1.000000 0.648920 0.506523
0.081270 0.527245 0.270298
0.245975 0.507591 0.234989
0.717617 0.599268 0.272251
0.983825 0.738643 0.495064
1.000000 0.844511 0.686824
0.487831 0.799496 0.553399
0.514763 0.795743 0.522148
0.658808 0.786343 0.514122
0.881621 0.806851 0.567529
0.987640 0.842130 0.714382
0.715145 0.898039 0.749355
0.714382 0.897551 0.732204
0.741604 0.885710 0.709010
0.838346 0.891814 0.726558
0.945251 0.900999 0.760861
0.055268 0.110231 0.150668
0.116732 0.114900 0.161807
0.474128 0.075807 0.228153
0.955352 0.119478 0.321050
1.000000 0.453651 0.486305
0.043122 0.168124 0.187716
0.160708 0.189029 0.203403
0.677211 0.270878 0.279637
0.984833 0.458137 0.416205
1.000000 0.621851 0.571893
0.115358 0.499336 0.359014
0.304051 0.507378 0.353582
0.644129 0.543481 0.352392
0.948638 0.751461 0.588312
1.000000 0.834531 0.732845
0.500114 0.792660 0.604334
0.573297 0.790280 0.607630
0.647669 0.774899 0.566461
0.865354 0.800565 0.611963
0.979736 0.853880 0.750423
0.713100 0.897002 0.763912
0.736629 0.894713 0.764218
0.759304 0.890929 0.744289
0.836790 0.892424 0.748531
0.943755 0.904417 0.782864
0.027802 0.111391 0.301091
0.200931 0.104097 0.348608
0.503380 0.070985 0.399115
0.899229 0.234897 0.533684
0.997589 0.487221 0.638300
0.000000 0.186038 0.352911
0.180026 0.193088 0.407172
0.573144 0.254490 0.471199
0.864012 0.415961 0.572168
0.968688 0.582330 0.671138
0.000000 0.471504 0.497475
0.269078 0.491493 0.512932
0.593347 0.540215 0.547448
0.874418 0.688777 0.676478
0.982727 0.779965 0.762509
0.491432 0.782376 0.689998
0.558099 0.777279 0.685176
0.684779 0.776638 0.685328
0.837339 0.792294 0.690791
0.969757 0.880644 0.817624
0.681849 0.893431 0.785977
0.710292 0.892943 0.786618
0.776822 0.889952 0.792966
0.816281 0.883574 0.770779
0.933532 0.899962 0.801938
0.000000 0.095918 0.619562
0.295354 0.064057 0.655024
0.682551 0.115389 0.722988
0.871336 0.257633 0.718624
0.991302 0.544854 0.750515
0.000000 0.187198 0.644251
0.236637 0.197696 0.672145
0.662593 0.302434 0.728267
0.847776 0.411902 0.722866
0.967376 0.616571 0.760586
0.000000 0.435981 0.654322
0.000000 0.430426 0.657160
0.562860 0.494850 0.714626
0.809201 0.612848 0.735836
0.933165 0.724239 0.786984
0.321752 0.729183 0.746120
0.427131 0.731533 0.746517
0.621759 0.746975 0.754849
0.794003 0.773587 0.770260
0.942046 0.850767 0.842435
0.658991 0.888304 0.833738
0.704311 0.890501 0.839353
0.767819 0.892027 0.840818
0.833402 0.889250 0.836271
0.921508 0.898711 0.840452
0.189303 0.091737 0.849699
0.392950 0.083650 0.857389
0.686427 0.186862 0.872251
0.896178 0.453315 0.878294
0.973022 0.505882 0.850858
0.000000 0.199130 0.847166
0.328801 0.210575 0.853635
0.659663 0.313329 0.866972
0.874601 0.531182 0.872190
0.955200 0.578576 0.850248
0.000000 0.406897 0.823392
0.000000 0.390478 0.834684
0.551080 0.457710 0.852018
0.829435 0.630182 0.862150
0.928283 0.699672 0.856168
0.000000 0.665553 0.836149
0.108736 0.658106 0.834043
0.382147 0.643885 0.832090
0.757015 0.725704 0.856474
0.913787 0.819242 0.877531
0.498848 0.851347 0.863706
0.550469 0.852689 0.864164
0.662287 0.859098 0.867735
0.785550 0.870909 0.874205
0.900145 0.892973 0.889738
