data/fiter_cube/89350833/1022873/file.cube
# Created by Adobe Lightroom plugin Export LUT (1.24.0)
# www.johnrellis.com/lightroom/exportlut.htm
# Preset: 婚礼接亲预设[余晖]-3 车上送新人
# Color profile: C:\Windows\System32\Spool\Drivers\Color\AppleRGB.icc
LUT_3D_SIZE 8
DOMAIN_MIN 0.000000 0.000000 0.000000
DOMAIN_MAX 0.903226 0.903226 0.903226
0.055116 0.108461 0.126741
0.078492 0.109834 0.128298
0.202090 0.107027 0.130678
0.558007 0.028443 0.130678
0.877653 0.000000 0.130922
1.000000 0.173220 0.164157
1.000000 0.340459 0.287083
1.000000 0.477089 0.433478
0.056367 0.122835 0.132479
0.082368 0.126131 0.131838
0.299901 0.178470 0.120241
0.649409 0.201266 0.104463
0.904662 0.252750 0.095644
1.000000 0.330602 0.141939
1.000000 0.413977 0.263706
1.000000 0.513207 0.415686
0.047303 0.201053 0.155856
0.084016 0.201114 0.151003
0.233463 0.221866 0.147463
0.659236 0.352544 0.121706
0.970001 0.579034 0.121920
1.000000 0.591363 0.256840
1.000000 0.638636 0.413886
1.000000 0.676051 0.515770
0.000000 0.397162 0.211734
0.081117 0.402258 0.195346
0.277562 0.418219 0.195926
0.619745 0.501335 0.209384
0.891508 0.601617 0.303807
1.000000 0.733455 0.464302
1.000000 0.802884 0.592523
1.000000 0.801053 0.642542
0.196170 0.626703 0.340398
0.202640 0.623041 0.306340
0.344366 0.610163 0.300023
0.559075 0.638178 0.314946
0.779232 0.670192 0.344182
0.919432 0.686213 0.447791
0.995575 0.791684 0.603418
1.000000 0.847471 0.703243
0.415961 0.766201 0.497139
0.435523 0.774685 0.490272
0.488716 0.765805 0.472663
0.568841 0.752651 0.459785
0.730678 0.771817 0.485054
0.867338 0.786007 0.525078
0.944457 0.775448 0.611017
0.995941 0.846738 0.718715
0.601465 0.849058 0.648920
0.603632 0.849882 0.639551
0.617060 0.845090 0.620508
0.656031 0.837125 0.608728
0.722591 0.833982 0.604944
0.825254 0.845151 0.629603
0.911467 0.851072 0.658442
0.958740 0.826444 0.700710
0.715145 0.898039 0.749355
0.714046 0.897856 0.742489
0.719234 0.896971 0.731594
0.744289 0.894774 0.730037
0.757137 0.883543 0.706111
0.820584 0.889464 0.720943
0.888884 0.898375 0.742641
0.945251 0.900999 0.760861
0.055512 0.109377 0.133333
0.069429 0.110811 0.134951
0.139437 0.114839 0.147372
0.380468 0.075288 0.160983
0.754971 0.000000 0.177768
0.983642 0.128389 0.212375
1.000000 0.300938 0.290318
1.000000 0.434760 0.391455
0.055695 0.122530 0.141146
0.078279 0.127260 0.144717
0.189181 0.138705 0.154391
0.488441 0.136080 0.165591
0.810056 0.165621 0.179965
0.993774 0.271519 0.223606
1.000000 0.378759 0.299016
1.000000 0.482582 0.399542
0.055909 0.194217 0.174289
0.095277 0.203342 0.174563
0.217472 0.215976 0.170138
0.630091 0.351232 0.176516
0.908476 0.496468 0.219272
1.000000 0.534447 0.307591
1.000000 0.588220 0.413672
1.000000 0.644862 0.514336
0.035859 0.369207 0.239078
0.121614 0.380102 0.235447
0.238590 0.379309 0.220340
0.533806 0.432380 0.225315
0.833616 0.547417 0.290867
0.976135 0.701595 0.440131
1.000000 0.764431 0.558587
1.000000 0.774166 0.622950
0.201633 0.604089 0.367407
0.255497 0.600275 0.356542
0.332097 0.586816 0.321386
0.513817 0.596674 0.322393
0.738521 0.629786 0.342290
0.899107 0.668879 0.445991
0.984497 0.784482 0.605249
1.000000 0.844450 0.705867
0.401251 0.748318 0.503502
0.432898 0.748287 0.500755
0.465095 0.744167 0.469856
0.552026 0.734463 0.462043
0.709926 0.754788 0.485969
0.854948 0.775540 0.531334
0.936767 0.772763 0.617060
0.991058 0.844785 0.721431
0.577081 0.835508 0.638636
0.586358 0.832944 0.632288
0.589258 0.829953 0.604150
0.636011 0.823819 0.596979
0.704585 0.821836 0.596460
0.812284 0.834653 0.621271
0.901762 0.839963 0.645594
0.952453 0.815579 0.687312
0.706081 0.892760 0.746975
0.712520 0.892638 0.745510
0.711727 0.892729 0.729732
0.737484 0.890654 0.728267
0.764553 0.886168 0.721523
0.818631 0.888548 0.727138
0.884886 0.895689 0.743160
0.942168 0.898253 0.760037
0.054566 0.110658 0.162966
0.083833 0.112306 0.170596
0.148592 0.115816 0.180087
0.379736 0.091798 0.227695
0.630518 0.048676 0.281193
0.872648 0.122469 0.354864
1.000000 0.312352 0.440253
1.000000 0.481056 0.533715
0.041474 0.128603 0.179049
0.081758 0.130587 0.188327
0.169558 0.139345 0.196963
0.380499 0.140322 0.238712
0.619074 0.142763 0.293065
0.906126 0.205722 0.357275
1.000000 0.387793 0.454047
1.000000 0.524529 0.543267
0.020844 0.195926 0.216190
0.081910 0.205417 0.223880
0.212375 0.225742 0.239170
0.522484 0.282811 0.295720
0.805966 0.382208 0.374578
0.947387 0.490394 0.459205
1.000000 0.583551 0.542107
1.000000 0.655970 0.614069
0.048157 0.395605 0.328985
0.156008 0.410407 0.336584
0.315404 0.428443 0.339605
0.544732 0.458778 0.343664
0.835264 0.624903 0.475502
0.947509 0.739986 0.602869
0.994354 0.760983 0.659297
1.000000 0.780240 0.700313
0.235660 0.609827 0.451392
0.306645 0.611963 0.453620
0.421241 0.614740 0.450446
0.519982 0.608606 0.426917
0.736995 0.648249 0.454444
0.892027 0.713710 0.563012
0.969177 0.815274 0.695735
1.000000 0.867002 0.767849
0.419104 0.749691 0.561303
0.458503 0.749477 0.563622
0.528618 0.746273 0.561303
0.574029 0.737545 0.530602
0.694667 0.746090 0.538079
0.839658 0.770718 0.579919
0.928344 0.790219 0.669490
0.984009 0.861357 0.765286
0.587915 0.839536 0.674922
0.606836 0.837430 0.675410
0.640497 0.832578 0.671077
0.656489 0.827298 0.644556
0.700038 0.818021 0.629969
0.806302 0.833585 0.655268
0.897734 0.844297 0.684810
0.951293 0.835569 0.733242
0.698756 0.893065 0.757595
0.709773 0.891661 0.758419
0.732021 0.890074 0.759152
0.744198 0.891081 0.748287
0.769467 0.886656 0.741085
0.815457 0.887755 0.743557
0.882506 0.896452 0.760616
0.940581 0.900694 0.777951
0.045869 0.111910 0.236606
0.094881 0.111818 0.254337
0.221469 0.108827 0.288457
0.357031 0.097475 0.303471
0.677211 0.040314 0.388098
0.859983 0.172122 0.461280
0.952239 0.326665 0.530724
0.998810 0.467964 0.603845
0.000000 0.131197 0.273259
0.081270 0.133639 0.287480
0.240208 0.139071 0.319951
0.395789 0.140444 0.333562
0.693324 0.162631 0.413550
0.843259 0.254459 0.473243
0.934813 0.376074 0.539788
1.000000 0.499611 0.608606
0.000000 0.205356 0.302831
0.000000 0.208774 0.313024
0.221439 0.225010 0.355138
0.455634 0.267216 0.391577
0.693111 0.344335 0.466682
0.829038 0.424292 0.530938
0.946319 0.532769 0.605402
1.000000 0.627924 0.665858
0.000000 0.380102 0.406531
0.077211 0.390509 0.414710
0.285039 0.414221 0.433661
0.501122 0.448615 0.459937
0.739162 0.541772 0.540520
0.877775 0.632898 0.618189
0.953735 0.703761 0.683070
0.999084 0.751095 0.728969
0.247410 0.617548 0.547051
0.326299 0.621759 0.552728
0.447242 0.624109 0.553429
0.572320 0.632868 0.556786
0.719631 0.654810 0.562219
0.881865 0.765316 0.685847
0.957275 0.844511 0.773617
0.991363 0.851957 0.793881
0.450813 0.760250 0.641505
0.497292 0.764706 0.649073
0.562737 0.760616 0.646387
0.639765 0.758175 0.645136
0.693355 0.750973 0.621241
0.828794 0.775906 0.651209
0.923888 0.817563 0.734157
0.978454 0.881010 0.811460
0.589807 0.840909 0.714565
0.608728 0.840543 0.715328
0.650385 0.838712 0.716487
0.701930 0.835904 0.718166
0.724422 0.828672 0.693477
0.800351 0.834684 0.699611
0.890837 0.846220 0.722286
0.949584 0.853208 0.773159
0.695125 0.898009 0.780880
0.706966 0.897429 0.781857
0.735439 0.895048 0.784817
0.767849 0.892973 0.787106
0.778592 0.889769 0.770108
0.808560 0.885710 0.762814
0.877806 0.896727 0.781033
0.938567 0.903899 0.800504
0.000000 0.109590 0.381506
0.103792 0.105867 0.403784
0.272679 0.089204 0.444800
0.514336 0.070161 0.505150
0.648219 0.070222 0.507927
0.867674 0.205997 0.578454
0.958648 0.375097 0.623713
0.996277 0.509026 0.673793
0.000000 0.132753 0.414252
0.072572 0.132815 0.433997
0.277195 0.129274 0.472297
0.525475 0.147005 0.524743
0.669368 0.170962 0.533684
0.863310 0.301762 0.594812
0.945129 0.434394 0.637049
0.984680 0.545373 0.684016
0.000000 0.214878 0.432959
0.000000 0.215518 0.456641
0.244297 0.229435 0.503563
0.530510 0.288304 0.557183
0.672969 0.329625 0.560021
0.835843 0.433692 0.608392
0.912657 0.521172 0.651789
0.960784 0.595758 0.692988
0.000000 0.367803 0.503929
0.000000 0.374121 0.512291
0.201602 0.385992 0.529534
0.496620 0.435889 0.579950
0.681849 0.502281 0.604089
0.809628 0.571496 0.645747
0.884092 0.618616 0.680323
0.951812 0.671870 0.718776
0.089113 0.562890 0.586816
0.200168 0.569360 0.592126
0.364324 0.583001 0.602014
0.525841 0.603967 0.616480
0.671199 0.627588 0.630121
0.824918 0.703975 0.696712
0.914153 0.762539 0.750546
0.968658 0.801419 0.787289
0.354345 0.723659 0.664210
0.405158 0.725765 0.667475
0.502739 0.728298 0.672328
0.601099 0.731319 0.675196
0.686213 0.733059 0.672572
0.800137 0.759213 0.690791
0.918608 0.842283 0.790799
0.974670 0.899413 0.851835
0.579431 0.835294 0.752071
0.593103 0.833005 0.749264
0.629389 0.829740 0.745357
0.686030 0.830808 0.747402
0.742885 0.829374 0.747189
0.778286 0.822721 0.726741
0.876158 0.839200 0.748013
0.946105 0.865568 0.803525
0.677974 0.891844 0.798856
0.688197 0.891417 0.798550
0.711147 0.890318 0.797421
0.751247 0.891997 0.802121
0.792355 0.889647 0.804746
0.808621 0.885100 0.787716
0.864988 0.891173 0.794705
0.930877 0.900145 0.812558
0.000000 0.098390 0.590936
0.142733 0.089082 0.606744
0.344091 0.058137 0.634058
0.573541 0.053254 0.674403
0.770565 0.175235 0.718013
0.851865 0.230716 0.697322
0.948791 0.405859 0.716365
0.993957 0.557916 0.743832
0.000000 0.131807 0.593286
0.093416 0.128817 0.605615
0.324498 0.120821 0.634516
0.567407 0.147036 0.678614
0.760464 0.256992 0.715480
0.839780 0.297185 0.695827
0.936187 0.452644 0.718349
0.983368 0.583978 0.747524
0.000000 0.228305 0.622553
0.000000 0.222599 0.639612
0.293675 0.241611 0.664973
0.559014 0.298344 0.697719
0.755886 0.423407 0.730037
0.829679 0.446448 0.713985
0.915923 0.566400 0.737789
0.963836 0.648310 0.763699
0.000000 0.381811 0.638331
0.000000 0.378332 0.638788
0.194034 0.387091 0.667597
0.526299 0.453620 0.714687
0.741482 0.568322 0.748623
0.822110 0.605280 0.744564
0.901030 0.680354 0.767880
0.945861 0.716609 0.785519
0.000000 0.548058 0.676936
0.042664 0.550622 0.679530
0.266758 0.556207 0.684535
0.438453 0.563500 0.691768
0.667414 0.619867 0.724910
0.793790 0.680934 0.742153
0.873869 0.727047 0.768185
0.924254 0.750332 0.786770
0.270970 0.696437 0.715267
0.331243 0.702419 0.720119
0.433600 0.707851 0.723293
0.554528 0.717159 0.728237
0.668879 0.728939 0.733852
0.775326 0.751797 0.748959
0.886687 0.811917 0.804776
0.948608 0.847410 0.838437
0.518059 0.827665 0.783322
0.550652 0.829343 0.786130
0.612634 0.830808 0.789609
0.688746 0.834806 0.796567
0.751034 0.836667 0.798825
0.797391 0.832517 0.790616
0.865629 0.840360 0.791592
0.949859 0.896056 0.859709
0.677943 0.891112 0.831907
0.687007 0.890379 0.830900
0.709804 0.889342 0.829374
0.744930 0.889952 0.829892
0.781827 0.889830 0.828580
0.823087 0.888121 0.827878
0.851286 0.885924 0.816434
0.924712 0.900481 0.836698
0.079347 0.086702 0.741360
0.205600 0.076234 0.754360
0.396277 0.052918 0.770809
0.598474 0.090578 0.793027
0.773495 0.227085 0.811276
0.881529 0.337835 0.818418
0.929961 0.379675 0.790219
0.977874 0.522271 0.787533
0.000000 0.127993 0.734890
0.157534 0.125002 0.745968
0.367681 0.121065 0.762020
0.577173 0.156954 0.783200
0.755398 0.272496 0.801358
0.865507 0.372930 0.808194
0.914916 0.401923 0.780575
0.967437 0.530632 0.780331
0.000000 0.218570 0.753536
0.000000 0.223423 0.759640
0.324163 0.238590 0.771542
0.556451 0.289921 0.788113
0.738125 0.395117 0.802518
0.852140 0.501335 0.812284
0.902007 0.524315 0.793057
0.954192 0.626825 0.799832
0.000000 0.368261 0.746487
0.000000 0.363989 0.752987
0.203159 0.364904 0.771176
0.508110 0.420661 0.790188
0.712947 0.516564 0.805570
0.840330 0.632746 0.821256
0.887572 0.640528 0.807767
0.941039 0.707485 0.817258
0.000000 0.516289 0.750729
0.000000 0.511070 0.748775
0.002441 0.499886 0.746731
0.355383 0.504753 0.761898
0.639124 0.579248 0.789395
0.805478 0.681514 0.811215
0.867063 0.709895 0.809171
0.929168 0.766751 0.829526
0.100374 0.666957 0.774502
0.179324 0.667506 0.774990
0.305089 0.668849 0.776028
0.441840 0.672541 0.778103
0.576776 0.678431 0.779782
0.761288 0.733547 0.806638
0.857908 0.783108 0.822904
0.916716 0.812680 0.840513
0.402228 0.788754 0.802853
0.437018 0.790555 0.804013
0.506798 0.793240 0.805325
0.594293 0.798581 0.808194
0.681575 0.804929 0.810971
0.765652 0.814694 0.815976
0.841764 0.828336 0.824460
0.927428 0.872923 0.867033
0.579889 0.874144 0.838682
0.601099 0.876432 0.841367
0.652064 0.881407 0.847715
0.711360 0.884245 0.852293
0.772824 0.888457 0.858671
0.824063 0.892210 0.862913
0.861906 0.891051 0.859037
0.917052 0.900816 0.864988
0.189303 0.091737 0.849699
0.279332 0.087617 0.854612
0.434485 0.085817 0.859007
0.606134 0.136446 0.868376
0.758877 0.251835 0.874784
0.874083 0.410040 0.877684
0.941100 0.477821 0.878019
0.973022 0.505882 0.850858
0.135927 0.135470 0.845151
0.241306 0.135348 0.849424
0.412604 0.141329 0.855131
0.590387 0.186923 0.863615
0.747372 0.293980 0.870420
0.864103 0.438666 0.873533
0.931579 0.502403 0.873259
0.964843 0.524163 0.847257
0.000000 0.219486 0.844633
0.127718 0.223636 0.847532
0.355718 0.237766 0.851865
0.561944 0.292576 0.861723
0.725887 0.385382 0.866270
0.845090 0.506920 0.868559
0.915282 0.574487 0.869749
0.950378 0.585962 0.847745
0.000000 0.337713 0.834958
0.000000 0.333227 0.841520
0.226383 0.341527 0.850004
0.500755 0.394812 0.857694
0.692866 0.481056 0.863615
0.823941 0.589288 0.867674
0.900511 0.663386 0.871763
0.936248 0.668177 0.854856
0.000000 0.477913 0.817838
0.000000 0.471931 0.818845
0.000000 0.461128 0.828275
0.337865 0.467384 0.844297
0.618372 0.543511 0.853452
0.787228 0.642451 0.860929
0.884947 0.731868 0.871550
0.922606 0.736843 0.861265
0.000000 0.622858 0.827756
0.000000 0.618463 0.826535
0.000000 0.608301 0.824063
0.231113 0.595575 0.822965
0.460365 0.598474 0.831174
0.730526 0.691859 0.854124
0.868040 0.783627 0.874846
0.915862 0.806363 0.875364
0.233341 0.756313 0.844236
0.271336 0.755886 0.843992
0.350835 0.754940 0.843351
0.455726 0.756344 0.843778
0.565393 0.759243 0.844388
0.674159 0.764828 0.846006
0.827481 0.811002 0.867216
0.906279 0.851316 0.881315
0.498848 0.851347 0.863706
0.517998 0.851682 0.863828
0.563958 0.853208 0.864469
0.627680 0.856748 0.866423
0.697261 0.861753 0.869139
0.767971 0.868681 0.872923
0.836820 0.878813 0.879301
0.900145 0.892973 0.889738
