data/fiter_cube/89350833/1022873/file.cube
# Created by Adobe Lightroom plugin Export LUT (1.24.0)
# www.johnrellis.com/lightroom/exportlut.htm
# Preset: 婚礼接亲预设[余晖]-3 车上送新人
# Color profile: C:\Windows\System32\Spool\Drivers\Color\AppleRGB.icc
LUT_3D_SIZE 32
DOMAIN_MIN 0.0 0.0 0.0
DOMAIN_MAX 1.0 1.0 1.0
0.055116 0.108461 0.126741
0.056092 0.108614 0.126925
0.059327 0.109010 0.127352
0.066743 0.109346 0.127718
0.078492 0.109834 0.128298
0.095644 0.110140 0.128847
0.119905 0.110201 0.129427
0.154147 0.109468 0.130037
0.202090 0.107027 0.130678
0.268376 0.100771 0.131289
0.352087 0.088197 0.131502
0.451942 0.066651 0.131319
0.558007 0.028443 0.130678
0.655756 0.000000 0.130159
0.741726 0.000000 0.129580
0.815976 0.000000 0.129549
0.877653 0.000000 0.130922
0.928038 0.057313 0.134157
0.969574 0.095491 0.139590
1.000000 0.130159 0.148043
1.000000 0.173220 0.164157
1.000000 0.221164 0.190311
1.000000 0.264530 0.220798
1.000000 0.303777 0.253452
1.000000 0.340459 0.287083
1.000000 0.374731 0.322026
1.000000 0.408881 0.358526
1.000000 0.442786 0.395727
1.000000 0.477089 0.433478
1.000000 0.511681 0.472328
1.000000 0.546807 0.511955
1.000000 0.582208 0.552117
0.055116 0.109285 0.127169
0.056245 0.109316 0.127260
0.060639 0.110353 0.127138
0.068727 0.110964 0.127565
0.081453 0.111635 0.128084
0.099153 0.112306 0.128573
0.123934 0.112764 0.129061
0.158572 0.112642 0.129549
0.207523 0.110903 0.129946
0.273564 0.106050 0.130220
0.356329 0.095918 0.130220
0.453895 0.078798 0.129824
0.557946 0.054231 0.128695
0.654322 0.027100 0.127626
0.738186 0.000122 0.126680
0.811307 0.025208 0.126497
0.872984 0.054719 0.127230
0.923186 0.083558 0.130556
0.964782 0.114443 0.135561
0.999756 0.144320 0.143679
1.000000 0.183780 0.159792
1.000000 0.226322 0.183444
1.000000 0.264897 0.211032
1.000000 0.300298 0.241215
1.000000 0.333135 0.272923
1.000000 0.365026 0.305486
1.000000 0.397436 0.340490
1.000000 0.430549 0.377478
1.000000 0.464393 0.415473
1.000000 0.498970 0.454780
1.000000 0.534478 0.495521
1.000000 0.570184 0.536431
0.055848 0.111666 0.128267
0.056611 0.111849 0.128237
0.060792 0.112276 0.128328
0.069917 0.113832 0.128176
0.089387 0.118441 0.127321
0.110353 0.119936 0.127474
0.138857 0.121462 0.127626
0.177249 0.122530 0.127718
0.231510 0.122621 0.127596
0.301823 0.120241 0.127230
0.387945 0.114473 0.126284
0.485451 0.105013 0.124758
0.585931 0.095094 0.122652
0.675624 0.089479 0.120790
0.754635 0.092103 0.119142
0.823087 0.103853 0.118318
0.880369 0.120485 0.119112
0.927642 0.140139 0.122316
0.967163 0.161837 0.128115
1.000000 0.185550 0.136934
1.000000 0.222171 0.155062
1.000000 0.257725 0.179385
1.000000 0.290043 0.206729
1.000000 0.320592 0.236759
1.000000 0.349676 0.267430
1.000000 0.377966 0.299870
1.000000 0.407324 0.334539
1.000000 0.438025 0.371069
1.000000 0.470253 0.409613
1.000000 0.503716 0.449744
1.000000 0.538109 0.490394
1.000000 0.572900 0.531823
0.056153 0.116182 0.130007
0.056916 0.116487 0.129732
0.060487 0.116945 0.129824
0.069642 0.118013 0.129824
0.084352 0.119478 0.129671
0.112673 0.126955 0.128603
0.159701 0.138766 0.126131
0.206027 0.141909 0.125612
0.267063 0.144625 0.124544
0.343023 0.145693 0.123079
0.432471 0.145418 0.120577
0.529259 0.144320 0.117372
0.622614 0.145998 0.113588
0.707118 0.152071 0.109499
0.779751 0.162448 0.106172
0.842405 0.175937 0.104067
0.893584 0.190219 0.105043
0.936248 0.204746 0.109194
0.972259 0.221317 0.115602
1.000000 0.243015 0.127962
1.000000 0.270665 0.147433
1.000000 0.297642 0.172000
1.000000 0.323857 0.200046
1.000000 0.350286 0.230594
1.000000 0.376532 0.263828
1.000000 0.403326 0.298589
1.000000 0.431617 0.335637
1.000000 0.461128 0.374670
1.000000 0.491005 0.413764
1.000000 0.521569 0.453376
1.000000 0.552575 0.493263
1.000000 0.583337 0.532128
0.056367 0.122835 0.132479
0.056703 0.123171 0.131807
0.060609 0.123507 0.131991
0.068421 0.124636 0.132021
0.082368 0.126131 0.131838
0.101411 0.126864 0.132052
0.139559 0.137453 0.130617
0.202029 0.153902 0.127443
0.299901 0.178470 0.120241
0.380835 0.184176 0.117281
0.469856 0.188327 0.113741
0.562860 0.193790 0.109194
0.649409 0.201266 0.104463
0.727749 0.211429 0.099947
0.796109 0.223514 0.096803
0.855375 0.237369 0.095125
0.904662 0.252750 0.095644
0.945373 0.267094 0.100313
0.981262 0.283604 0.108003
1.000000 0.307652 0.122652
1.000000 0.330602 0.141939
1.000000 0.351415 0.167330
1.000000 0.371618 0.196963
1.000000 0.392340 0.229191
1.000000 0.413977 0.263706
1.000000 0.436683 0.299809
1.000000 0.461067 0.337682
1.000000 0.486732 0.376379
1.000000 0.513207 0.415686
1.000000 0.540337 0.454688
1.000000 0.568200 0.493874
1.000000 0.596429 0.532769
0.056184 0.132845 0.135836
0.056580 0.133150 0.135073
0.060639 0.133455 0.134981
0.067536 0.133791 0.135012
0.081727 0.136202 0.134890
0.101198 0.138369 0.134768
0.124819 0.137270 0.135409
0.178347 0.152590 0.133394
0.262699 0.175570 0.128969
0.381659 0.207797 0.119020
0.525719 0.253086 0.099245
0.614099 0.265171 0.092042
0.692073 0.275334 0.086580
0.761929 0.286961 0.082277
0.823270 0.298466 0.080629
0.875578 0.311254 0.081147
0.919188 0.322148 0.086152
0.956542 0.334112 0.095583
0.995178 0.353582 0.110597
1.000000 0.372015 0.130892
1.000000 0.390478 0.154025
1.000000 0.408667 0.180575
1.000000 0.498848 0.299199
1.000000 0.518975 0.335088
1.000000 0.537621 0.374090
1.000000 0.555779 0.411048
1.000000 0.573236 0.445106
1.000000 0.591241 0.478279
1.000000 0.609430 0.510155
1.000000 0.628290 0.541772
1.000000 0.647272 0.572503
1.000000 0.665400 0.601007
0.055268 0.153201 0.142245
0.055573 0.153414 0.141238
0.060304 0.153750 0.140322
0.070253 0.153994 0.140444
0.084413 0.155489 0.140322
0.108583 0.159731 0.139864
0.139681 0.163058 0.139467
0.172183 0.157992 0.141115
0.257267 0.182559 0.137301
0.378302 0.218021 0.129519
0.523217 0.266361 0.113497
0.661250 0.327581 0.086397
0.774655 0.392157 0.044434
0.832303 0.401617 0.045045
0.878660 0.406531 0.055207
0.917601 0.410559 0.069368
0.954528 0.418738 0.086213
0.991974 0.434241 0.111452
1.000000 0.448188 0.140047
1.000000 0.463600 0.171237
1.000000 0.480903 0.206882
1.000000 0.500786 0.247105
1.000000 0.522484 0.289647
1.000000 0.544091 0.332403
1.000000 0.564446 0.371801
1.000000 0.581567 0.405066
1.000000 0.597162 0.441230
1.000000 0.612360 0.475227
1.000000 0.628168 0.507927
1.000000 0.644282 0.539422
1.000000 0.660853 0.570092
1.000000 0.677089 0.598749
0.052827 0.173983 0.148440
0.053407 0.174105 0.147219
0.057588 0.174502 0.145296
0.069581 0.174502 0.145418
0.083345 0.174411 0.145388
0.106722 0.178500 0.144839
0.140200 0.184451 0.144106
0.180453 0.188846 0.143404
0.219944 0.182071 0.145663
0.319463 0.208164 0.141848
0.453681 0.251255 0.131899
0.594812 0.307836 0.115206
0.716274 0.370855 0.091859
0.813901 0.432441 0.063355
0.886351 0.485206 0.034241
0.929412 0.494270 0.064057
0.965576 0.501396 0.095033
0.994324 0.506676 0.126314
1.000000 0.513268 0.156893
1.000000 0.522240 0.189303
1.000000 0.533562 0.225071
1.000000 0.548150 0.265019
1.000000 0.564446 0.306615
1.000000 0.581415 0.347723
1.000000 0.597498 0.385016
1.000000 0.611383 0.417365
1.000000 0.623835 0.445472
1.000000 0.635676 0.473182
1.000000 0.648920 0.506523
1.000000 0.662593 0.538415
1.000000 0.677119 0.569390
1.000000 0.691493 0.598596
0.047303 0.201053 0.155856
0.047700 0.201236 0.154269
0.050690 0.201663 0.151156
0.066346 0.201511 0.151186
0.084016 0.201114 0.151003
0.104158 0.201755 0.150698
0.138857 0.208743 0.149813
0.182803 0.216587 0.148440
0.233463 0.221866 0.147463
0.279637 0.213199 0.150698
0.388373 0.238468 0.147402
0.530419 0.290562 0.135409
0.659236 0.352544 0.121706
0.771633 0.419989 0.106477
0.861143 0.484962 0.099062
0.924437 0.537316 0.104189
0.970001 0.579034 0.121920
0.994842 0.580316 0.153414
1.000000 0.580896 0.185306
1.000000 0.584649 0.219486
1.000000 0.591363 0.256840
1.000000 0.601709 0.297093
1.000000 0.613855 0.338781
1.000000 0.626490 0.378210
1.000000 0.638636 0.413886
1.000000 0.648981 0.443854
1.000000 0.658198 0.469856
1.000000 0.666987 0.493477
1.000000 0.676051 0.515770
1.000000 0.686397 0.544945
1.000000 0.697932 0.574792
1.000000 0.709682 0.602991
0.036011 0.235111 0.164401
0.036652 0.235111 0.162661
0.039124 0.235355 0.158480
0.059510 0.234775 0.157534
0.082216 0.233860 0.157321
0.104677 0.232822 0.156985
0.136477 0.237034 0.156130
0.181430 0.245945 0.154726
0.236820 0.255528 0.152895
0.297368 0.262119 0.151797
0.346777 0.250187 0.156344
0.465644 0.276097 0.155306
0.613581 0.342657 0.145693
0.736385 0.414191 0.138796
0.830961 0.480842 0.139742
0.898680 0.535912 0.151156
0.948241 0.580896 0.172488
0.984497 0.617426 0.201297
1.000000 0.648646 0.236057
1.000000 0.650538 0.269871
1.000000 0.652064 0.304692
1.000000 0.656275 0.340429
1.000000 0.661769 0.374945
1.000000 0.668269 0.407416
1.000000 0.675074 0.437598
1.000000 0.681392 0.464118
1.000000 0.688014 0.488258
1.000000 0.695094 0.511864
1.000000 0.702541 0.533928
1.000000 0.710658 0.556176
1.000000 0.719753 0.581781
1.000000 0.729793 0.610101
0.016693 0.272129 0.173892
0.018341 0.272282 0.171939
0.022827 0.272465 0.167300
0.047456 0.272526 0.164797
0.078004 0.271672 0.164523
0.106081 0.270817 0.164187
0.133333 0.269963 0.163912
0.180636 0.280034 0.162692
0.237064 0.291386 0.160983
0.309239 0.307469 0.159274
0.387701 0.320348 0.158846
0.446143 0.309117 0.166690
0.559411 0.330022 0.169314
0.687068 0.399084 0.165438
0.790036 0.466621 0.166567
0.864744 0.525200 0.180880
0.919677 0.573602 0.203525
0.959808 0.613153 0.232914
0.990417 0.646784 0.267613
1.000000 0.675959 0.306889
1.000000 0.701686 0.348058
1.000000 0.704677 0.381903
1.000000 0.706783 0.413611
1.000000 0.709987 0.443214
1.000000 0.713680 0.470710
1.000000 0.717525 0.494789
1.000000 0.721553 0.517266
1.000000 0.726223 0.538140
1.000000 0.731563 0.558923
1.000000 0.737514 0.578882
1.000000 0.743832 0.598016
1.000000 0.750790 0.619348
0.000000 0.317723 0.186343
0.000000 0.317723 0.184146
0.000000 0.318181 0.179110
0.029023 0.318212 0.174258
0.073182 0.317357 0.173983
0.108095 0.316197 0.173465
0.141451 0.317144 0.173617
0.184329 0.325475 0.173892
0.248966 0.342657 0.173587
0.323491 0.360876 0.172427
0.408240 0.379614 0.170718
0.489204 0.392065 0.171267
0.629480 0.443732 0.208621
0.719265 0.452491 0.224918
0.815976 0.523125 0.242893
0.883513 0.579553 0.267735
0.929351 0.625330 0.305730
0.962341 0.662165 0.346258
0.987060 0.692775 0.386633
1.000000 0.718624 0.425513
1.000000 0.741238 0.464027
1.000000 0.760891 0.500298
1.000000 0.777676 0.532830
1.000000 0.778195 0.553216
1.000000 0.777371 0.569848
1.000000 0.777005 0.585138
1.000000 0.777005 0.598566
1.000000 0.777554 0.611261
1.000000 0.778775 0.623926
1.000000 0.780667 0.636255
1.000000 0.783108 0.648341
1.000000 0.786130 0.660548
0.000000 0.397162 0.211734
0.000000 0.397833 0.209079
0.000000 0.399542 0.203281
0.001251 0.401678 0.195377
0.081117 0.402258 0.195346
0.128115 0.402289 0.195407
0.170321 0.402777 0.195254
0.211582 0.403510 0.195468
0.277562 0.418219 0.195926
0.359106 0.438636 0.196902
0.447059 0.461036 0.198703
0.538323 0.485054 0.201877
0.619745 0.501335 0.209384
0.672450 0.487251 0.228428
0.747799 0.484932 0.248661
0.832334 0.549310 0.273808
0.891508 0.601617 0.303807
0.933043 0.643885 0.341466
0.962829 0.679103 0.383764
0.985595 0.708400 0.424445
1.000000 0.733455 0.464302
1.000000 0.755032 0.501701
1.000000 0.773465 0.535729
1.000000 0.789456 0.566613
1.000000 0.802884 0.592523
1.000000 0.802853 0.607324
1.000000 0.801541 0.619287
1.000000 0.800900 0.630976
1.000000 0.801053 0.642542
1.000000 0.801938 0.654108
1.000000 0.803281 0.665400
1.000000 0.805295 0.676478
0.018616 0.468757 0.240299
0.022858 0.468544 0.237308
0.026795 0.467994 0.229557
0.035645 0.467414 0.218296
0.093538 0.464881 0.216007
0.141634 0.461616 0.214908
0.185061 0.458839 0.213779
0.227451 0.456916 0.213260
0.274144 0.458564 0.212955
0.351324 0.476173 0.214908
0.433173 0.495857 0.217899
0.516991 0.517021 0.222049
0.600336 0.538994 0.227878
0.671595 0.551446 0.236912
0.716060 0.535058 0.255924
0.776608 0.526360 0.275792
0.845090 0.572168 0.303746
0.897795 0.621027 0.337041
0.936309 0.660822 0.373907
0.963653 0.694850 0.417700
0.984436 0.723354 0.459998
1.000000 0.747646 0.500023
1.000000 0.768124 0.536278
1.000000 0.785794 0.568872
1.000000 0.800656 0.596612
1.000000 0.813352 0.620905
1.000000 0.824094 0.641199
1.000000 0.823911 0.652522
1.000000 0.822934 0.662623
1.000000 0.822751 0.672786
1.000000 0.823239 0.683131
1.000000 0.824338 0.693507
0.081270 0.527245 0.270298
0.082460 0.527337 0.267491
0.084321 0.526329 0.259831
0.086244 0.524529 0.247318
0.118044 0.520714 0.240574
0.162478 0.515465 0.238163
0.204654 0.511162 0.236454
0.245975 0.507591 0.234989
0.287236 0.505577 0.234440
0.347539 0.514061 0.236057
0.424689 0.532006 0.240391
0.503319 0.551812 0.246677
0.581659 0.572015 0.253910
0.656641 0.591241 0.261723
0.717617 0.599268 0.272251
0.753628 0.580041 0.289708
0.802579 0.567529 0.309300
0.858976 0.597894 0.338323
0.905638 0.643275 0.373968
0.940276 0.680079 0.410712
0.965209 0.711879 0.453346
0.983825 0.738643 0.495064
0.998077 0.761410 0.533623
1.000000 0.780880 0.568353
1.000000 0.797360 0.598230
1.000000 0.811582 0.624628
1.000000 0.823911 0.647700
1.000000 0.834806 0.668299
1.000000 0.844511 0.686824
1.000000 0.845457 0.698085
1.000000 0.845609 0.708339
1.000000 0.846098 0.717922
0.140627 0.581201 0.305486
0.142153 0.581964 0.302800
0.144137 0.582025 0.295598
0.145541 0.581323 0.284092
0.162631 0.579095 0.274601
0.202182 0.575341 0.272679
0.242039 0.572107 0.271305
0.282017 0.569268 0.270329
0.321935 0.567041 0.269718
0.361883 0.565209 0.269474
0.431250 0.579248 0.274266
0.502495 0.594537 0.279911
0.572076 0.609613 0.286381
0.638911 0.623438 0.292851
0.701747 0.635859 0.299168
0.751919 0.637873 0.308202
0.782162 0.617609 0.323766
0.823026 0.603876 0.343511
0.871458 0.622705 0.373510
0.913420 0.666041 0.412573
0.944701 0.701564 0.452491
0.967559 0.731563 0.494453
0.983948 0.757046 0.536339
0.996765 0.778653 0.573877
1.000000 0.796689 0.605921
1.000000 0.812192 0.633875
1.000000 0.825467 0.658076
1.000000 0.837064 0.679225
1.000000 0.847227 0.697993
1.000000 0.856291 0.714748
1.000000 0.864195 0.729397
1.000000 0.864683 0.737606
0.196170 0.626703 0.340398
0.196262 0.626368 0.337194
0.196719 0.625849 0.330144
0.196475 0.624720 0.318456
0.202640 0.623041 0.306340
0.236301 0.619287 0.304173
0.271672 0.615717 0.302190
0.307561 0.612634 0.300633
0.344366 0.610163 0.300023
0.380957 0.607874 0.299199
0.427802 0.611383 0.301091
0.493965 0.625025 0.307683
0.559075 0.638178 0.314946
0.621149 0.650141 0.322057
0.680049 0.660914 0.328985
0.735317 0.670344 0.335454
0.779232 0.670192 0.344182
0.805814 0.650965 0.358801
0.840391 0.636683 0.378180
0.881743 0.645167 0.406470
0.919432 0.686213 0.447791
0.947631 0.719570 0.488380
0.968872 0.747097 0.527031
0.983673 0.771420 0.568200
0.995575 0.791684 0.603418
1.000000 0.808865 0.633906
1.000000 0.823606 0.660212
1.000000 0.836362 0.683253
1.000000 0.847471 0.703243
1.000000 0.857206 0.720790
1.000000 0.865721 0.736172
1.000000 0.873228 0.749813
0.255467 0.670039 0.379797
0.257542 0.671199 0.378454
0.326543 0.711940 0.419440
0.326116 0.711116 0.409216
0.324712 0.709743 0.395178
0.345342 0.705898 0.390906
0.369574 0.701442 0.387030
0.395758 0.697078 0.383490
0.423682 0.692866 0.380224
0.452705 0.689021 0.377661
0.482216 0.685389 0.375250
0.531762 0.691096 0.379675
0.586633 0.699123 0.385870
0.639521 0.706569 0.391852
0.690059 0.713161 0.397559
0.737972 0.719081 0.402716
0.783780 0.724208 0.407233
0.819333 0.721096 0.414343
0.840604 0.701991 0.426001
0.867185 0.686152 0.441932
0.899718 0.683986 0.465400
0.930297 0.719387 0.506432
0.953429 0.748135 0.544823
0.971374 0.771847 0.579583
0.984802 0.792050 0.612451
0.995361 0.809415 0.642145
1.000000 0.824186 0.667628
1.000000 0.837095 0.690150
1.000000 0.848600 0.710231
1.000000 0.858854 0.728298
1.000000 0.867887 0.744137
1.000000 0.875731 0.757992
0.335546 0.720089 0.435767
0.341924 0.723476 0.438056
0.348699 0.726741 0.437324
0.353429 0.729000 0.431891
0.356725 0.730312 0.422766
0.371649 0.728603 0.417639
0.393164 0.725246 0.414588
0.416114 0.721340 0.411078
0.440864 0.717647 0.408179
0.466835 0.714321 0.405798
0.493660 0.711025 0.403479
0.524132 0.709224 0.402472
0.575067 0.716396 0.408789
0.624140 0.723049 0.414740
0.671626 0.729000 0.420539
0.716884 0.734249 0.425696
0.760494 0.739162 0.430823
0.802243 0.743801 0.436133
0.834562 0.740749 0.444160
0.854124 0.724208 0.456489
0.877134 0.709224 0.471992
0.906249 0.702937 0.494209
0.933989 0.734798 0.535119
0.955077 0.761990 0.572961
0.971862 0.784115 0.605402
0.984955 0.802762 0.634913
0.994934 0.819272 0.663050
1.000000 0.833555 0.687648
1.000000 0.846098 0.709224
1.000000 0.857145 0.728267
1.000000 0.866819 0.745022
1.000000 0.875273 0.759640
0.374060 0.743282 0.464759
0.379706 0.746151 0.466926
0.385962 0.748867 0.466346
0.390936 0.751095 0.462501
0.394476 0.752377 0.455024
0.403113 0.751614 0.448035
0.421820 0.748867 0.445411
0.441962 0.745724 0.442603
0.463416 0.742611 0.439765
0.486030 0.739467 0.437079
0.509789 0.736507 0.434974
0.533593 0.733272 0.432258
0.569512 0.734951 0.434333
0.615229 0.740688 0.440192
0.659327 0.745785 0.445655
0.701595 0.750423 0.450996
0.742367 0.754635 0.455818
0.781735 0.758694 0.460945
0.819638 0.762783 0.466529
0.848844 0.759854 0.475441
0.866545 0.745113 0.487984
0.886564 0.731228 0.503410
0.912902 0.726101 0.525444
0.937469 0.749508 0.562554
0.957000 0.774807 0.598291
0.972564 0.795529 0.629084
0.985290 0.812802 0.655482
0.994812 0.828489 0.682002
1.000000 0.842344 0.705623
1.000000 0.854429 0.726253
1.000000 0.864988 0.744320
1.000000 0.874235 0.760220
0.415961 0.766201 0.497139
0.421546 0.768856 0.499458
0.427588 0.771420 0.499641
0.432349 0.773465 0.496620
0.435523 0.774685 0.490272
0.439399 0.774411 0.482033
0.454719 0.771878 0.479255
0.470832 0.768856 0.475898
0.488716 0.765805 0.472663
0.507591 0.762539 0.469490
0.527581 0.759457 0.466407
0.548150 0.756130 0.463233
0.568841 0.752651 0.459785
0.609949 0.757229 0.465278
0.651179 0.762142 0.471290
0.691249 0.766812 0.477852
0.730678 0.771817 0.485054
0.768612 0.776791 0.493172
0.805356 0.781949 0.502251
0.840696 0.787289 0.512352
0.867338 0.786007 0.525078
0.883726 0.774746 0.540887
0.900542 0.763333 0.557061
0.923461 0.759640 0.578851
0.944457 0.775448 0.611017
0.961639 0.798215 0.643885
0.975463 0.816983 0.671992
0.986938 0.832670 0.695918
0.995941 0.846738 0.718715
1.000000 0.859220 0.739590
1.000000 0.870024 0.757656
1.000000 0.879301 0.773098
0.487831 0.799496 0.553399
0.489754 0.800320 0.553399
0.491310 0.800900 0.550988
0.491829 0.801144 0.545830
0.491981 0.800992 0.538567
0.490608 0.800412 0.528099
0.501793 0.798184 0.525078
0.514763 0.795743 0.522148
0.529534 0.793362 0.519341
0.545892 0.791104 0.517082
0.563165 0.788815 0.514794
0.580865 0.786313 0.512352
0.598322 0.783322 0.509026
0.622339 0.782498 0.508537
0.658808 0.786343 0.514122
0.694484 0.790005 0.520104
0.729335 0.793759 0.526574
0.763241 0.797513 0.533410
0.796353 0.801358 0.540948
0.828214 0.805356 0.549126
0.858854 0.809293 0.557397
0.881621 0.806851 0.567529
0.895354 0.795895 0.579736
0.909056 0.783810 0.591089
0.928923 0.779232 0.608728
0.947753 0.788205 0.634241
0.963745 0.809384 0.665064
0.976806 0.827024 0.691341
0.987640 0.842130 0.714382
0.996582 0.855283 0.734951
1.000000 0.867124 0.754665
1.000000 0.877317 0.771542
0.524498 0.816037 0.583520
0.526207 0.816678 0.583642
0.527459 0.817136 0.581476
0.527947 0.817319 0.577081
0.527642 0.817197 0.570397
0.526726 0.816709 0.561761
0.533104 0.815061 0.556878
0.543786 0.812924 0.553948
0.555901 0.810819 0.551110
0.569665 0.808804 0.548974
0.584558 0.806729 0.546777
0.599695 0.804532 0.544244
0.615106 0.802060 0.541497
0.630579 0.799344 0.538018
0.659174 0.801114 0.541253
0.692012 0.804501 0.547387
0.724392 0.807980 0.554070
0.755825 0.811490 0.560845
0.786618 0.815091 0.568109
0.816312 0.818784 0.575982
0.845243 0.822538 0.584405
0.873014 0.826291 0.592828
0.893217 0.824063 0.603052
0.905699 0.814572 0.614801
0.916747 0.801541 0.620294
0.934173 0.796506 0.635523
0.951324 0.800931 0.657160
0.966217 0.820951 0.686458
0.978515 0.837736 0.711482
0.988769 0.852018 0.733150
0.997345 0.864347 0.752071
1.000000 0.875486 0.770291
0.577722 0.838132 0.628168
0.579278 0.838712 0.628412
0.579797 0.838895 0.626154
0.579278 0.838651 0.621820
0.577539 0.838071 0.615015
0.575036 0.837217 0.606317
0.576715 0.835630 0.599603
0.583642 0.833127 0.595361
0.591669 0.830594 0.591241
0.600885 0.828061 0.587060
0.611048 0.825284 0.582757
0.622248 0.822568 0.578607
0.634089 0.819699 0.574273
0.646326 0.816556 0.569696
0.660670 0.813931 0.565515
0.689631 0.816281 0.569543
0.718471 0.818753 0.574060
0.747402 0.821530 0.579522
0.776120 0.824826 0.586389
0.804532 0.828489 0.594446
0.832090 0.832273 0.602930
0.858579 0.835904 0.611383
0.883787 0.839139 0.619135
0.901671 0.836301 0.627588
0.912627 0.826841 0.636316
0.923400 0.816464 0.644709
0.938476 0.810758 0.657191
0.954284 0.810727 0.674281
0.968322 0.829587 0.701869
0.980041 0.845701 0.725917
0.989837 0.859525 0.746822
0.997986 0.871519 0.765225
0.601465 0.849058 0.648920
0.603388 0.849699 0.649653
0.604486 0.850065 0.648310
0.604303 0.850126 0.644709
0.603632 0.849882 0.639551
0.602411 0.849454 0.632776
0.602777 0.848661 0.626154
0.609369 0.846921 0.623285
0.617060 0.845090 0.620508
0.625727 0.843290 0.617639
0.635187 0.841306 0.614832
0.645441 0.839292 0.612055
0.656031 0.837125 0.608728
0.666865 0.834714 0.605127
0.677882 0.831968 0.600855
0.696712 0.831785 0.600702
0.722591 0.833982 0.604944
0.748470 0.836332 0.609857
0.774350 0.839048 0.615747
0.800076 0.842039 0.622431
0.825254 0.845151 0.629603
0.849607 0.848264 0.637079
0.873075 0.851194 0.644099
0.895659 0.853941 0.650935
0.911467 0.851072 0.658442
0.921386 0.842649 0.666651
0.931243 0.833738 0.674739
0.944244 0.828031 0.685542
0.958740 0.826444 0.700710
0.971740 0.843015 0.726009
0.982666 0.858122 0.748440
0.991730 0.871122 0.768032
0.632074 0.862272 0.675746
0.633143 0.862608 0.675837
0.633265 0.862699 0.673976
0.632654 0.862486 0.670497
0.631250 0.862089 0.665339
0.629664 0.861540 0.659113
0.627649 0.860899 0.651484
0.632776 0.859251 0.648524
0.639155 0.857542 0.645899
0.646479 0.855924 0.643214
0.654597 0.854185 0.640528
0.663691 0.852567 0.638331
0.673182 0.850828 0.635767
0.682918 0.848844 0.632898
0.692500 0.846586 0.629206
0.702419 0.844053 0.625025
0.724788 0.845640 0.628229
0.748287 0.847684 0.632563
0.771878 0.850065 0.637629
0.795590 0.852628 0.643671
0.818875 0.855436 0.650202
0.841611 0.858274 0.657008
0.863676 0.861021 0.663691
0.885008 0.863676 0.670253
0.905486 0.866056 0.676356
0.919768 0.863279 0.683192
0.928801 0.855680 0.691005
0.937774 0.847623 0.698329
0.949187 0.842008 0.707759
0.962554 0.840726 0.721920
0.974701 0.853269 0.743740
0.984924 0.867552 0.764950
0.655024 0.872618 0.696132
0.655451 0.872740 0.695857
0.655482 0.872801 0.694209
0.655146 0.872740 0.691279
0.654932 0.872709 0.687800
0.654841 0.872740 0.683436
0.655512 0.873075 0.679164
0.661494 0.872862 0.678279
0.669673 0.872618 0.678828
0.678798 0.872435 0.679622
0.688472 0.872251 0.680568
0.698390 0.871946 0.681331
0.708186 0.871458 0.681544
0.717617 0.870603 0.680964
0.726589 0.869352 0.679408
0.735012 0.867582 0.676692
0.747097 0.866850 0.675746
0.766934 0.868650 0.679591
0.787015 0.870634 0.684108
0.807248 0.872801 0.689143
0.827268 0.875181 0.694667
0.846952 0.877501 0.700374
0.866117 0.879728 0.705776
0.884733 0.881834 0.710964
0.902770 0.883757 0.715816
0.920256 0.885527 0.720455
0.932280 0.882780 0.725948
0.940124 0.876158 0.732265
0.947936 0.869352 0.738705
0.957488 0.864408 0.746639
0.969177 0.863584 0.759213
0.980011 0.872526 0.777523
0.695918 0.889128 0.731991
0.696071 0.889220 0.731624
0.695827 0.889158 0.730037
0.695155 0.889006 0.727382
0.694270 0.888762 0.723873
0.693263 0.888487 0.719539
0.692622 0.888334 0.714961
0.694850 0.887846 0.711940
0.700191 0.887114 0.711055
0.706233 0.886320 0.710170
0.712764 0.885527 0.709316
0.719722 0.884672 0.708370
0.726894 0.883696 0.707149
0.734005 0.882536 0.705440
0.741085 0.881102 0.703151
