data/fiter_cube/28334299/1023170/file.cube
# Created by Adobe Lightroom plugin Export LUT (1.17.0)
# www.johnrellis.com/lightroom/exportlut.htm
# Preset: 梦幻人像_09 云集
# Color profile: C:\Program Files (x86)\Common Files\Adobe\Color\Profiles\Recommended\AdobeRGB1998.icc
LUT_3D_SIZE 5
DOMAIN_MIN 0.000000 0.000000 0.000000
DOMAIN_MAX 0.903226 0.903226 0.903226
0.080903 0.072755 0.063203
0.212863 0.016419 0.072023
0.483162 0.000000 0.088045
0.765530 0.000000 0.134096
0.965393 0.000000 0.229862
0.109102 0.185153 0.111147
0.183139 0.201724 0.096773
0.491493 0.206485 0.091981
0.771969 0.112337 0.151400
0.972015 0.117647 0.271580
0.173312 0.394598 0.220584
0.206058 0.385962 0.208530
0.401434 0.464912 0.195590
0.784970 0.515618 0.182345
0.960235 0.478553 0.303471
0.263401 0.621607 0.360784
0.302312 0.622889 0.362890
0.342504 0.599634 0.321996
0.603388 0.704280 0.343877
0.944976 0.773098 0.425452
0.480201 0.854948 0.577905
0.512749 0.853269 0.587213
0.532494 0.838437 0.562371
0.593408 0.836362 0.557946
0.820279 0.906035 0.647486
0.084901 0.080110 0.120394
0.167636 0.066133 0.139315
0.404120 0.000000 0.193484
0.694423 0.000000 0.238407
0.935485 0.000000 0.283146
0.110292 0.179538 0.149783
0.219089 0.198672 0.176272
0.468025 0.150454 0.192325
0.734493 0.000000 0.221744
0.947234 0.000000 0.291356
0.172641 0.392767 0.242130
0.247929 0.399908 0.256657
0.402869 0.444526 0.244022
0.756405 0.483040 0.260685
0.950225 0.467872 0.356085
0.264988 0.621881 0.377234
0.318090 0.626825 0.387701
0.374701 0.608453 0.358740
0.610986 0.699855 0.380713
0.941314 0.764736 0.464759
0.472084 0.854185 0.582269
0.505303 0.852537 0.591058
0.566369 0.849577 0.597864
0.614496 0.842588 0.583551
0.828000 0.907652 0.667659
0.078309 0.088716 0.245243
0.129549 0.070924 0.259403
0.330846 0.000000 0.290471
0.551049 0.000000 0.340398
0.872068 0.000000 0.435462
0.123812 0.158267 0.282658
0.160891 0.149660 0.297826
0.367407 0.112551 0.324071
0.590021 0.084230 0.360357
0.889769 0.000000 0.432715
0.153079 0.389502 0.334203
0.238071 0.406043 0.354498
0.480720 0.451575 0.422370
0.727474 0.419715 0.435889
0.933623 0.411658 0.476326
0.247501 0.629694 0.432898
0.304448 0.629969 0.439246
0.471260 0.644434 0.481819
0.648798 0.698299 0.498360
0.933013 0.736049 0.569207
0.443641 0.849088 0.599634
0.479438 0.850980 0.609155
0.587793 0.852567 0.641596
0.645533 0.841642 0.628656
0.833860 0.899779 0.697536
0.000000 0.099428 0.405463
0.104768 0.082643 0.414527
0.228641 0.000000 0.444526
0.501884 0.000000 0.465980
0.777798 0.000000 0.560723
0.018280 0.132876 0.424109
0.114534 0.125368 0.433112
0.238956 0.083162 0.465766
0.517937 0.000000 0.482155
0.778164 0.000000 0.554162
0.166690 0.314611 0.457282
0.225620 0.311467 0.470436
0.327703 0.314458 0.521233
0.574121 0.272160 0.537316
0.814725 0.253513 0.562768
0.196170 0.614557 0.548455
0.263127 0.621180 0.558099
0.446815 0.649989 0.599634
0.719448 0.698939 0.679042
0.912840 0.677943 0.688411
0.413977 0.856199 0.659693
0.449592 0.856901 0.665583
0.561273 0.860685 0.689723
0.715541 0.860502 0.732387
0.856138 0.895109 0.766415
0.000000 0.139315 0.646662
0.000000 0.124666 0.650141
0.192599 0.013886 0.667445
0.411109 0.000000 0.686915
0.713588 0.000000 0.700984
0.000000 0.137270 0.643244
0.000000 0.123201 0.646723
0.190219 0.016724 0.663447
0.403174 0.000000 0.679805
0.707607 0.000000 0.694942
0.000000 0.275059 0.656825
0.000000 0.245701 0.658534
0.173129 0.209812 0.671778
0.347356 0.113130 0.696162
0.725246 0.000000 0.713375
0.122927 0.528283 0.686305
0.180423 0.518608 0.686091
0.313359 0.483558 0.694392
0.439948 0.437751 0.736233
0.785611 0.405066 0.774594
0.288579 0.843412 0.777096
0.328069 0.843442 0.779019
0.462379 0.849363 0.793362
0.666316 0.857115 0.820188
0.899168 0.891051 0.883146
