data/fiter_cube/28334299/1023170/file.cube
# Created by Adobe Lightroom plugin Export LUT (1.17.0)
# www.johnrellis.com/lightroom/exportlut.htm
# Preset: 梦幻人像_09 云集
# Color profile: C:\Program Files (x86)\Common Files\Adobe\Color\Profiles\Recommended\AdobeRGB1998.icc
LUT_3D_SIZE 32
DOMAIN_MIN 0.0 0.0 0.0
DOMAIN_MAX 1.0 1.0 1.0
0.080903 0.072755 0.063203
0.085267 0.072663 0.063905
0.090700 0.072694 0.064576
0.104616 0.072053 0.066041
0.126101 0.070069 0.067842
0.151400 0.064302 0.069093
0.180789 0.050752 0.070649
0.212863 0.016419 0.072023
0.247501 0.000000 0.073579
0.284337 0.000000 0.074891
0.323003 0.000000 0.076570
0.362768 0.000000 0.078553
0.403388 0.000000 0.081056
0.443519 0.000000 0.084138
0.483162 0.000000 0.088045
0.522759 0.000000 0.091951
0.561761 0.000000 0.096651
0.599451 0.000000 0.101656
0.636164 0.000000 0.107576
0.678187 0.000000 0.114870
0.724636 0.000000 0.124117
0.765530 0.000000 0.134096
0.801297 0.000000 0.144839
0.833249 0.000000 0.156252
0.862272 0.000000 0.167819
0.889494 0.000000 0.180575
0.915496 0.000000 0.194827
0.940795 0.000000 0.211093
0.965393 0.000000 0.229862
0.989197 0.000000 0.251987
1.000000 0.000000 0.278355
1.000000 0.000000 0.309819
0.082673 0.076875 0.065278
0.084504 0.077272 0.065187
0.091279 0.078096 0.065248
0.105592 0.078492 0.066560
0.127260 0.077272 0.068299
0.152621 0.073213 0.069825
0.182162 0.065705 0.071199
0.214237 0.049317 0.073121
0.248631 0.006592 0.074617
0.285191 0.000000 0.075837
0.323125 0.000000 0.077790
0.362432 0.000000 0.079713
0.402197 0.000000 0.082246
0.441840 0.000000 0.085328
0.481147 0.000000 0.088899
0.520073 0.000000 0.092958
0.558923 0.000000 0.097505
0.596612 0.000000 0.102419
0.632959 0.000000 0.108248
0.674922 0.000000 0.115450
0.719905 0.000000 0.124361
0.760098 0.000000 0.133822
0.795682 0.000000 0.144228
0.827726 0.000000 0.155032
0.857053 0.000000 0.166567
0.884581 0.000000 0.179141
0.911101 0.000000 0.193057
0.936797 0.000000 0.209262
0.961852 0.000000 0.228031
0.986084 0.000000 0.249851
1.000000 0.000000 0.275883
1.000000 0.000000 0.306950
0.084535 0.081697 0.067842
0.086336 0.081727 0.067781
0.089326 0.082856 0.067536
0.106264 0.086305 0.067262
0.128023 0.085817 0.068544
0.153353 0.082887 0.069978
0.182284 0.077790 0.071290
0.213840 0.069001 0.072816
0.248234 0.048981 0.074556
0.284794 0.000000 0.076356
0.323461 0.000000 0.078401
0.363287 0.000000 0.080690
0.403235 0.000000 0.083619
0.442542 0.000000 0.086854
0.481453 0.000000 0.090639
0.520226 0.000000 0.094820
0.558740 0.000000 0.099306
0.596063 0.000000 0.104158
0.632288 0.000000 0.109895
0.674495 0.000000 0.117098
0.718532 0.000000 0.125582
0.758145 0.000000 0.135103
0.793545 0.000000 0.145235
0.825467 0.000000 0.156008
0.854765 0.000000 0.167391
0.882292 0.000000 0.179721
0.908995 0.000000 0.193637
0.934844 0.000000 0.209598
0.960113 0.000000 0.228275
0.984466 0.000000 0.250156
1.000000 0.000000 0.275944
1.000000 0.000000 0.306828
0.088716 0.094667 0.073335
0.090700 0.094911 0.073243
0.092042 0.095277 0.072816
0.101289 0.098451 0.071748
0.128847 0.103853 0.069795
0.155978 0.102296 0.069825
0.184512 0.098909 0.071412
0.215640 0.093416 0.072877
0.249210 0.084657 0.074159
0.285374 0.070802 0.075837
0.323400 0.035248 0.077790
0.362676 0.000000 0.080385
0.402319 0.000000 0.083680
0.442176 0.000000 0.087495
0.481758 0.000000 0.092012
0.521019 0.000000 0.097108
0.559991 0.000000 0.102632
0.597528 0.000000 0.108186
0.632959 0.000000 0.113741
0.675135 0.000000 0.121126
0.716976 0.000000 0.129244
0.755428 0.000000 0.138369
0.790524 0.000000 0.148379
0.822812 0.000000 0.159030
0.853056 0.000000 0.170657
0.881498 0.000000 0.183505
0.908812 0.000000 0.197787
0.935027 0.000000 0.214237
0.960204 0.000000 0.232975
0.984283 0.000000 0.254734
1.000000 0.000000 0.280186
1.000000 0.000000 0.310338
0.093996 0.112459 0.080476
0.096315 0.113039 0.080934
0.097993 0.112825 0.080293
0.100618 0.112459 0.079255
0.117006 0.118410 0.077516
0.153628 0.127382 0.072541
0.186770 0.126131 0.071046
0.217014 0.122683 0.072084
0.249912 0.117556 0.073274
0.285222 0.110567 0.075196
0.322484 0.100496 0.076997
0.361212 0.085176 0.079805
0.400458 0.061616 0.083040
0.439979 0.000000 0.087098
0.479530 0.000000 0.091493
0.518975 0.000000 0.096742
0.558373 0.000000 0.102113
0.596429 0.000000 0.108248
0.634668 0.000000 0.115389
0.677119 0.000000 0.123690
0.718074 0.000000 0.133211
0.756069 0.000000 0.143130
0.790921 0.000000 0.154574
0.822995 0.000000 0.165499
0.852842 0.000000 0.177249
0.881193 0.000000 0.190066
0.908263 0.000000 0.204349
0.934234 0.000000 0.220554
0.959197 0.000000 0.239292
0.983062 0.000000 0.260929
1.000000 0.000000 0.286320
1.000000 0.000000 0.316503
0.098756 0.133272 0.089204
0.101961 0.134188 0.090089
0.103395 0.133852 0.089021
0.106050 0.132998 0.087312
0.111940 0.132631 0.086000
0.135683 0.142367 0.082704
0.182040 0.155612 0.075685
0.218204 0.155795 0.072847
0.253330 0.152102 0.072663
0.287999 0.147921 0.074434
0.324834 0.142061 0.076478
0.362768 0.134401 0.079377
0.401495 0.123842 0.082521
0.440620 0.109895 0.086702
0.479835 0.090211 0.091279
0.519219 0.056580 0.096407
0.558556 0.000000 0.102388
0.596582 0.000000 0.108186
0.637629 0.000000 0.115938
0.679164 0.000000 0.124392
0.719600 0.000000 0.133791
0.757351 0.000000 0.144442
0.829923 0.000000 0.172732
0.859739 0.000000 0.187015
0.886778 0.000000 0.201572
0.911894 0.000000 0.217105
0.935454 0.000000 0.234226
0.957916 0.000000 0.253025
0.979431 0.000000 0.274083
0.999908 0.000000 0.296483
1.000000 0.071199 0.322515
1.000000 0.167605 0.353277
0.103944 0.160555 0.100343
0.107027 0.161135 0.100893
0.109499 0.161196 0.100587
0.112215 0.160189 0.098421
0.116518 0.158724 0.095735
0.127749 0.160861 0.093965
0.160220 0.173526 0.089601
0.216617 0.190646 0.080507
0.259312 0.194125 0.074342
0.300786 0.191104 0.073243
0.337713 0.187137 0.076356
0.375921 0.182162 0.079164
0.414435 0.175357 0.083253
0.453040 0.166934 0.087160
0.491371 0.155764 0.092195
0.529564 0.142428 0.097444
0.567681 0.124575 0.103487
0.608362 0.103090 0.110628
0.650904 0.072419 0.118715
0.693660 0.000000 0.128450
0.735622 0.000000 0.139162
0.775723 0.000000 0.151705
0.813169 0.000000 0.165896
0.847562 0.000000 0.181491
0.878508 0.000000 0.197787
0.905913 0.000000 0.214786
0.930724 0.000000 0.232242
0.953826 0.000000 0.251347
0.975799 0.000000 0.272557
0.996551 0.076326 0.296788
1.000000 0.152010 0.324651
1.000000 0.215213 0.357397
0.109102 0.185153 0.111147
0.112001 0.185763 0.111604
0.115145 0.186221 0.111879
0.118074 0.185122 0.109590
0.122164 0.183383 0.106416
0.127504 0.181338 0.103120
0.145296 0.187167 0.101259
0.183139 0.201724 0.096773
0.241703 0.219059 0.087434
0.294499 0.229984 0.076570
0.337316 0.228550 0.077241
0.377783 0.224491 0.078737
0.415595 0.219821 0.082795
0.453498 0.213901 0.087007
0.491493 0.206485 0.091981
0.529320 0.197482 0.097230
0.569665 0.188022 0.103670
0.611292 0.177096 0.111025
0.651453 0.164218 0.119020
0.692287 0.148714 0.128389
0.732937 0.130983 0.139345
0.771969 0.112337 0.151400
0.808774 0.092195 0.165652
0.842710 0.071656 0.181064
0.873564 0.051972 0.197208
0.901152 0.041871 0.213657
0.926238 0.060090 0.231083
0.949676 0.084779 0.250034
0.972015 0.117647 0.271580
0.993133 0.154879 0.295415
1.000000 0.197757 0.323369
1.000000 0.245457 0.355993
0.115389 0.211429 0.123415
0.118166 0.211826 0.123659
0.121920 0.212467 0.124239
0.125490 0.211551 0.122560
0.129397 0.209964 0.119448
0.134463 0.207797 0.115633
0.140780 0.205142 0.111910
0.165805 0.215610 0.110384
0.208103 0.232212 0.105440
0.267460 0.249302 0.096681
0.331731 0.268803 0.081483
0.375677 0.268437 0.082368
0.419165 0.264225 0.082399
0.456458 0.259525 0.087587
0.493782 0.253727 0.092561
0.534813 0.248936 0.098085
0.575769 0.242618 0.104738
0.615045 0.234684 0.111940
0.653498 0.225467 0.120394
0.693080 0.215824 0.129427
0.732387 0.205936 0.140078
0.770474 0.195590 0.152560
0.806485 0.186007 0.166720
0.839933 0.178134 0.181643
0.870420 0.171939 0.197787
0.897917 0.168643 0.214420
0.923095 0.169619 0.231876
0.946624 0.176669 0.250706
0.969024 0.190402 0.271946
0.990295 0.211856 0.295872
1.000000 0.241062 0.323522
1.000000 0.278355 0.355657
0.123079 0.238407 0.136721
0.125643 0.238743 0.136965
0.129152 0.239200 0.137453
0.133852 0.239048 0.136690
0.137545 0.237217 0.133333
0.142611 0.234928 0.129732
0.148379 0.232486 0.125429
0.157900 0.229038 0.123445
0.188296 0.245182 0.120638
0.234379 0.263828 0.115785
0.295598 0.282444 0.107454
0.368261 0.307805 0.090425
0.413123 0.308507 0.088319
0.458503 0.306340 0.090333
0.502495 0.303197 0.093050
0.543328 0.299565 0.099550
0.582940 0.294408 0.106050
0.621210 0.287999 0.113710
0.658778 0.280735 0.122316
0.696864 0.273320 0.131594
0.734249 0.265537 0.142275
0.770077 0.257572 0.154452
0.804013 0.249912 0.167697
0.835904 0.243198 0.182101
0.865568 0.237552 0.197543
0.892882 0.233951 0.214084
0.918486 0.233097 0.231571
0.942626 0.236637 0.251041
0.965728 0.245579 0.272740
0.987549 0.261051 0.297063
1.000000 0.284062 0.325414
1.000000 0.315282 0.358618
0.130983 0.265019 0.150271
0.133516 0.265385 0.150607
0.136965 0.265965 0.151034
0.143069 0.266392 0.151400
0.146456 0.264866 0.148409
0.151308 0.262882 0.144625
0.156863 0.260380 0.140261
0.163302 0.257511 0.135775
0.177829 0.258091 0.134829
0.212802 0.276768 0.132113
0.262272 0.297185 0.127443
0.328435 0.320592 0.120180
0.410590 0.352605 0.102296
0.458350 0.355230 0.095674
0.504173 0.353765 0.099397
0.549065 0.348791 0.100649
0.587091 0.343572 0.107820
0.623987 0.337682 0.115541
0.660456 0.331029 0.123964
0.697627 0.324620 0.133364
0.734005 0.318090 0.144106
0.769131 0.311498 0.156252
0.802640 0.305058 0.169741
0.834165 0.299199 0.184237
0.863432 0.293980 0.199985
0.890471 0.289799 0.216495
0.915770 0.288121 0.233768
0.939757 0.289464 0.252964
0.962737 0.295018 0.274296
0.984588 0.306126 0.298589
1.000000 0.323888 0.326940
1.000000 0.349828 0.360143
0.139925 0.293156 0.164950
0.142275 0.293492 0.165255
0.145480 0.293919 0.165652
0.152468 0.294896 0.166659
0.156374 0.293706 0.164218
0.160678 0.291691 0.160494
0.166079 0.289464 0.156374
0.172274 0.286778 0.151736
0.179446 0.284245 0.147158
0.200931 0.291356 0.147555
0.241489 0.313695 0.145754
0.296178 0.337926 0.142336
0.388800 0.387640 0.144228
0.485969 0.428809 0.125185
0.536431 0.430884 0.111360
0.581567 0.426886 0.118257
0.624109 0.418982 0.121889
0.662074 0.409705 0.127321
0.696284 0.401343 0.136995
0.729763 0.393164 0.147555
0.762173 0.385016 0.159396
0.793271 0.377264 0.172091
0.822812 0.369604 0.185946
0.850919 0.362799 0.200565
0.877348 0.356970 0.216037
0.902098 0.352575 0.232486
0.925414 0.349828 0.249699
0.947539 0.349767 0.268742
0.968719 0.353246 0.290074
0.989075 0.361791 0.314275
1.000000 0.376135 0.342351
1.000000 0.398260 0.375799
0.150851 0.328405 0.183688
0.153231 0.328649 0.183963
0.156283 0.328679 0.184237
0.162783 0.329412 0.185031
0.168704 0.329015 0.183780
0.172946 0.327428 0.180392
0.178408 0.325597 0.176303
0.184817 0.323583 0.171847
0.192172 0.321599 0.167208
0.200809 0.319982 0.162936
0.231205 0.334508 0.165438
0.278386 0.361334 0.165194
0.340093 0.390753 0.163302
0.416632 0.421942 0.158511
0.518029 0.466438 0.143404
0.572259 0.472877 0.126162
0.615900 0.468421 0.130831
0.656275 0.460121 0.136110
0.695216 0.449470 0.139376
0.727626 0.440711 0.150118
0.759243 0.432380 0.161807
0.789792 0.424353 0.174716
0.818814 0.416571 0.188357
0.846555 0.409400 0.202762
0.872740 0.403052 0.217838
0.897429 0.397803 0.233951
0.920745 0.394079 0.251438
0.943023 0.392645 0.270420
0.964508 0.394385 0.291264
0.985107 0.400580 0.315923
1.000000 0.412238 0.344305
1.000000 0.431098 0.377996
0.161990 0.362371 0.202335
0.164431 0.362646 0.202640
0.167239 0.362737 0.202884
0.173770 0.363195 0.203616
0.180819 0.362707 0.203006
0.184787 0.360296 0.199313
0.189487 0.357794 0.194888
0.195438 0.355230 0.190066
0.202243 0.352941 0.185245
0.210117 0.350713 0.180209
0.222232 0.348547 0.178744
0.258091 0.370275 0.180453
0.308141 0.398322 0.180667
0.371191 0.428351 0.179385
0.447395 0.459510 0.175235
0.544518 0.500145 0.163210
0.605249 0.512566 0.144594
0.647089 0.507378 0.144076
0.686336 0.499245 0.150942
0.723476 0.488869 0.156344
0.756985 0.478614 0.165438
0.787228 0.470436 0.178164
0.815946 0.462348 0.191836
0.843534 0.454963 0.206332
0.869535 0.448066 0.221775
0.894163 0.442237 0.237980
0.917540 0.437751 0.255161
0.939849 0.435309 0.273960
0.961395 0.435767 0.295384
0.982177 0.440253 0.319951
1.000000 0.449866 0.348974
1.000000 0.466133 0.383093
0.173312 0.394598 0.220584
0.175387 0.394995 0.220859
0.178103 0.394812 0.221012
0.183963 0.394873 0.221347
0.192630 0.394751 0.221836
0.196109 0.391760 0.217807
0.200534 0.388891 0.213352
0.206058 0.385962 0.208530
0.212253 0.383398 0.203494
0.219852 0.381201 0.198489
0.228122 0.379248 0.193606
0.244602 0.378912 0.194217
0.285191 0.405707 0.196048
0.337346 0.434546 0.196780
0.401434 0.464912 0.195590
0.476265 0.495125 0.192081
0.567224 0.530571 0.182864
0.636835 0.551019 0.164462
0.677974 0.545800 0.158480
0.715419 0.537591 0.168154
0.751064 0.527337 0.175631
0.784970 0.515618 0.182345
0.813260 0.507103 0.195987
0.840513 0.499184 0.210605
0.866545 0.491920 0.225956
0.891386 0.485725 0.242679
0.915190 0.481056 0.260655
0.938140 0.478431 0.280766
0.960235 0.478553 0.303471
0.981415 0.482673 0.329595
1.000000 0.491676 0.360296
1.000000 0.507195 0.396887
0.184054 0.425757 0.238346
0.186282 0.426215 0.238834
0.188937 0.426368 0.239078
0.194827 0.426581 0.239628
0.203708 0.427039 0.240726
0.208591 0.425116 0.237858
0.213138 0.422736 0.233799
0.218387 0.420264 0.229282
0.224613 0.417823 0.224430
0.231601 0.415076 0.218936
0.239170 0.412268 0.213504
0.247227 0.409125 0.207980
0.269718 0.413703 0.210086
0.312169 0.440253 0.211551
0.365087 0.468544 0.212039
0.428412 0.497627 0.211032
0.501610 0.526513 0.208286
0.586633 0.557916 0.201816
0.667445 0.588464 0.185885
0.708492 0.583642 0.175479
0.744961 0.576165 0.188113
0.779507 0.566583 0.198001
0.811978 0.555474 0.206729
0.840909 0.545190 0.218692
0.866789 0.537499 0.234653
0.891508 0.530785 0.251804
0.915221 0.525536 0.270146
0.937926 0.522240 0.290562
0.959747 0.521508 0.313817
0.980499 0.524132 0.340307
1.000000 0.531212 0.370947
1.000000 0.544182 0.407202
0.194766 0.454994 0.255558
0.196475 0.455146 0.255833
0.199161 0.455207 0.256016
0.204685 0.455390 0.256565
0.213199 0.455634 0.257450
0.219883 0.454688 0.256046
0.224033 0.452338 0.252140
0.228946 0.449714 0.247684
0.234836 0.447120 0.242832
0.241367 0.444526 0.237583
0.248753 0.441840 0.232242
0.256413 0.438666 0.226383
0.265110 0.435187 0.221195
0.293980 0.446113 0.224979
0.338262 0.473243 0.226719
0.391852 0.501152 0.227390
0.454475 0.529137 0.227176
0.526238 0.557427 0.225498
0.606806 0.585840 0.221836
0.697017 0.624933 0.209293
0.736110 0.619867 0.199649
0.771420 0.612085 0.208774
0.804135 0.602472 0.220951
0.835203 0.591791 0.231296
0.864500 0.580072 0.241489
0.889250 0.572930 0.258793
0.913054 0.567071 0.277867
0.935882 0.563256 0.298894
0.957794 0.561761 0.322698
0.978576 0.563500 0.350195
0.998108 0.569543 0.381933
1.000000 0.581109 0.419135
0.205997 0.485939 0.273991
0.207950 0.486519 0.274510
0.219181 0.508049 0.287938
0.224491 0.508080 0.288426
0.232975 0.507958 0.289097
0.241764 0.507073 0.288945
0.245304 0.503807 0.284276
0.249760 0.500237 0.279149
0.255222 0.496773 0.273625
0.261234 0.493202 0.267918
0.267826 0.489448 0.261570
0.274998 0.485298 0.255009
0.282383 0.480476 0.248234
0.293431 0.474495 0.244511
0.327245 0.492134 0.247471
0.373571 0.518975 0.249729
0.428504 0.546166 0.251072
0.491554 0.573541 0.251804
0.562371 0.601068 0.251469
0.639765 0.626886 0.250584
0.733791 0.668757 0.243687
0.771359 0.663294 0.234836
0.804379 0.653986 0.239902
0.834409 0.643610 0.253147
0.862425 0.631983 0.264622
0.888975 0.619928 0.275059
0.912871 0.610163 0.289494
0.934661 0.604547 0.309636
0.955932 0.601648 0.333135
0.976440 0.602167 0.360754
0.995850 0.606836 0.393072
1.000000 0.616449 0.430304
0.220035 0.522271 0.296300
0.222965 0.525231 0.298344
0.226474 0.528130 0.300359
0.232792 0.530724 0.302464
0.241611 0.532677 0.304387
0.252384 0.533654 0.306218
0.256229 0.531273 0.302434
0.260441 0.528099 0.297581
0.265385 0.524926 0.292210
0.271092 0.521569 0.286625
0.277379 0.517937 0.280461
0.284215 0.514122 0.274144
0.291142 0.509514 0.267247
0.298192 0.504143 0.260014
0.311833 0.497292 0.258732
0.350561 0.521721 0.261692
0.397650 0.547967 0.264256
0.452522 0.574640 0.266484
0.515221 0.602106 0.268132
0.585046 0.629450 0.269963
0.660151 0.654627 0.271672
0.753445 0.695796 0.272892
0.795132 0.695613 0.264134
0.827207 0.686458 0.265019
0.855711 0.676448 0.280583
0.882658 0.665827 0.293980
0.908324 0.654963 0.307103
0.933013 0.644800 0.320867
0.954131 0.640986 0.345037
0.974456 0.640528 0.373297
0.993744 0.643885 0.405737
1.000000 0.652064 0.443763
0.231479 0.550744 0.314122
0.234195 0.553460 0.316014
0.237858 0.556176 0.318090
0.243717 0.558618 0.320073
0.252018 0.560449 0.321996
0.262303 0.561364 0.323735
0.268376 0.559777 0.321416
0.272282 0.556970 0.316960
0.276829 0.554101 0.311955
0.282353 0.550896 0.306523
0.288457 0.547845 0.300969
0.295018 0.544244 0.294713
0.301427 0.539818 0.287755
0.308324 0.534874 0.280644
0.314946 0.528985 0.272953
0.334569 0.527428 0.274205
0.375341 0.552728 0.277562
0.423255 0.578820 0.280827
0.478737 0.605737 0.283848
0.541039 0.633021 0.287236
0.608942 0.658839 0.291142
0.681697 0.683375 0.296208
0.771359 0.721675 0.303563
0.818601 0.727810 0.297246
0.849363 0.718441 0.294224
0.876493 0.708797 0.311284
0.902129 0.698970 0.327092
0.926726 0.689723 0.343389
0.950530 0.681514 0.361181
0.972045 0.677638 0.385504
0.991150 0.679683 0.418616
1.000000 0.686213 0.456580
0.244022 0.580255 0.333135
0.246769 0.582757 0.334997
0.250126 0.585443 0.337011
0.255955 0.587854 0.338994
0.263706 0.589563 0.340917
0.273625 0.590417 0.342596
0.281590 0.589654 0.341894
0.285283 0.586908 0.337591
0.289616 0.584100 0.332769
0.294621 0.580987 0.327459
0.300206 0.577844 0.321782
0.306340 0.574334 0.315740
0.312718 0.570245 0.309087
0.319219 0.565576 0.301854
0.325872 0.560449 0.294377
0.333196 0.554681 0.287327
0.360021 0.560906 0.291661
0.403204 0.587549 0.296727
0.453529 0.615473 0.301976
0.510704 0.643641 0.308019
0.573358 0.670649 0.315007
0.640436 0.696010 0.323095
0.711208 0.719753 0.332433
0.794888 0.753811 0.346044
0.848692 0.766720 0.345830
0.877684 0.757961 0.345464
0.903624 0.748775 0.360693
0.927703 0.740475 0.381170
0.950866 0.733242 0.401862
0.972808 0.727626 0.424475
0.993469 0.724239 0.450263
1.000000 0.729458 0.488777
0.263401 0.621607 0.360784
0.265476 0.622919 0.361883
0.268009 0.623957 0.362768
0.272770 0.624750 0.363745
0.279850 0.625299 0.364996
0.288914 0.625422 0.366033
0.298802 0.625177 0.366888
0.302312 0.622889 0.362890
0.306767 0.620508 0.358373
0.311864 0.618189 0.353857
0.317449 0.615656 0.348577
0.323583 0.612757 0.343023
0.329747 0.608972 0.336492
0.336095 0.604608 0.329473
0.342504 0.599634 0.321996
0.349157 0.594232 0.314305
0.359533 0.588037 0.309972
0.391272 0.601465 0.315007
0.435920 0.628199 0.320989
0.486976 0.654719 0.327794
0.543084 0.680171 0.335332
0.603388 0.704280 0.343877
0.666865 0.726680 0.353521
0.733028 0.747616 0.364355
0.809903 0.776883 0.380987
0.869108 0.795712 0.386389
0.896666 0.787747 0.388342
0.921935 0.779629 0.401434
0.944976 0.773098 0.425452
0.966796 0.768002 0.450538
0.987274 0.765103 0.478370
1.000000 0.764462 0.508812
0.279149 0.653590 0.382818
0.281346 0.654841 0.383886
0.283879 0.655970 0.384955
0.288609 0.656794 0.386053
0.295293 0.657191 0.387152
0.303777 0.657130 0.388220
0.314305 0.656855 0.389441
0.318791 0.654871 0.386328
0.322545 0.652491 0.381933
0.327367 0.650263 0.377508
0.332586 0.647913 0.372534
0.338354 0.645136 0.366949
0.344274 0.641871 0.360876
0.350591 0.638025 0.354162
0.356939 0.633783 0.347112
0.363531 0.629114 0.339849
0.370397 0.624079 0.332341
0.384253 0.618219 0.331426
0.421698 0.639307 0.338018
0.467903 0.665064 0.345983
0.519219 0.690059 0.354955
0.574701 0.713954 0.365026
0.633234 0.736538 0.376440
0.694087 0.757351 0.388891
0.751431 0.771328 0.394751
0.822660 0.797116 0.413550
0.886778 0.821683 0.425971
0.913207 0.815030 0.431037
0.937926 0.808164 0.442817
0.959838 0.803494 0.471260
0.980224 0.800778 0.501427
0.998779 0.800504 0.534234
0.304082 0.693874 0.413123
0.306462 0.695155 0.414374
0.308873 0.695979 0.415320
0.313054 0.696223 0.415991
0.319036 0.695949 0.416632
0.326909 0.695247 0.417273
0.336492 0.694301 0.418067
0.342443 0.692226 0.415961
0.345403 0.689265 0.411170
0.348852 0.686336 0.406104
0.353063 0.683131 0.400610
0.357885 0.679988 0.394873
0.363043 0.676509 0.388708
0.368353 0.672389 0.381659
0.373693 0.667597 0.374121
0.379217 0.662440 0.366155
0.385046 0.657038 0.358068
0.391516 0.651850 0.350439
0.409613 0.648157 0.352728
0.451514 0.672969 0.361273
0.498482 0.697444 0.371313
0.549310 0.720851 0.382330
0.603052 0.742763 0.394141
0.658564 0.762875 0.406195
0.715206 0.781003 0.418738
0.772976 0.797482 0.432013
0.838437 0.819974 0.453559
0.902708 0.845975 0.473823
0.930358 0.843198 0.481392
0.953857 0.837675 0.494270
0.973907 0.834501 0.525292
0.992401 0.834012 0.559808
0.325475 0.723507 0.437018
0.327825 0.724727 0.438361
0.330388 0.725551 0.439307
0.334386 0.725734 0.440070
0.340154 0.725460 0.440803
0.347478 0.724849 0.441566
0.356786 0.724086 0.442634
0.365057 0.722774 0.442359
0.368017 0.720546 0.438361
0.371588 0.718257 0.433967
0.375860 0.715938 0.429419
0.380682 0.713527 0.424384
0.385992 0.710933 0.418982
0.391394 0.707851 0.413001
0.396887 0.704158 0.406409
0.402380 0.700008 0.399207
0.408362 0.695674 0.391974
0.414740 0.691463 0.384833
0.422766 0.687587 0.379004
0.448066 0.690822 0.385504
0.490974 0.713741 0.396246
0.537591 0.735958 0.408026
0.586694 0.756893 0.420447
0.637690 0.776364 0.433326
0.689967 0.794095 0.446784
0.742916 0.810147 0.460578
0.796353 0.824613 0.475410
0.856321 0.844419 0.500938
0.918456 0.870573 0.531914
0.947753 0.872374 0.542748
0.969207 0.868681 0.559747
0.987915 0.867369 0.590631
0.353918 0.756039 0.465888
0.356023 0.756863 0.466987
0.358038 0.757107 0.467536
0.361547 0.756954 0.468025
0.366430 0.756252 0.468360
0.373175 0.755306 0.469001
0.381598 0.754177 0.469886
0.391913 0.753140 0.471199
0.394476 0.751125 0.467475
0.397803 0.749233 0.463569
0.401831 0.747280 0.459480
0.406775 0.745510 0.455390
0.412055 0.743526 0.450782
0.417395 0.741115 0.445686
0.422797 0.738094 0.439948
0.428229 0.734646 0.433539
0.433936 0.730922 0.426947
0.440162 0.727352 0.420478
0.447272 0.724147 0.414527
0.458595 0.721004 0.412512
0.488350 0.730007 0.421180
0.530877 0.750881 0.433204
0.575830 0.770748 0.445960
0.622583 0.789334 0.459388
0.670619 0.806455 0.473304
0.719509 0.822049 0.487800
0.768795 0.836240 0.503166
0.817990 0.849027 0.519615
0.871824 0.865751 0.546990
0.930358 0.890715 0.582330
0.961669 0.897093 0.597925
0.981415 0.895384 0.618952
0.384588 0.785641 0.495003
0.386450 0.786130 0.495766
0.388403 0.786343 0.496407
0.391760 0.786221 0.497017
0.396948 0.786038 0.498085
0.404181 0.785885 0.499580
0.413733 0.786130 0.502068
0.425635 0.786679 0.505608
0.432563 0.786984 0.505791
0.438025 0.787289 0.504479
0.444465 0.787625 0.503441
0.451026 0.787839 0.501793
0.457862 0.787716 0.499794
0.464637 0.786984 0.497078
0.470893 0.785580 0.493324
0.476600 0.783322 0.488472
0.482582 0.780758 0.483467
0.488838 0.778164 0.478279
0.496071 0.775937 0.473732
0.504082 0.774014 0.469856
0.518334 0.771633 0.471992
0.551446 0.784237 0.483192
0.591638 0.801724 0.496590
0.633509 0.818112 0.510582
0.676417 0.833280 0.525231
0.719539 0.846952 0.539849
0.762844 0.859434 0.554894
0.806119 0.870726 0.570367
0.848997 0.880949 0.586358
0.896391 0.895476 0.614130
0.946746 0.916350 0.650202
0.978424 0.926421 0.672694
0.436805 0.825986 0.540764
0.438270 0.826261 0.541436
0.439673 0.826139 0.541741
0.442420 0.825742 0.542107
0.446571 0.825132 0.542687
0.452491 0.824460 0.543755
0.460395 0.823880 0.545556
0.470344 0.823514 0.548211
0.478035 0.823056 0.549065
0.482063 0.822538 0.547326
0.486580 0.821958 0.545251
0.491768 0.821378 0.543267
0.497200 0.820615 0.540887
0.502708 0.819577 0.538048
