data/fiter_cube/28334299/1023170/file.cube
# Created by Adobe Lightroom plugin Export LUT (1.17.0)
# www.johnrellis.com/lightroom/exportlut.htm
# Preset: 梦幻人像_09 云集
# Color profile: C:\Program Files (x86)\Common Files\Adobe\Color\Profiles\Recommended\AdobeRGB1998.icc
LUT_3D_SIZE 8
DOMAIN_MIN 0.000000 0.000000 0.000000
DOMAIN_MAX 0.903226 0.903226 0.903226
0.080903 0.072755 0.063203
0.126101 0.070069 0.067842
0.247501 0.000000 0.073579
0.403388 0.000000 0.081056
0.561761 0.000000 0.096651
0.724636 0.000000 0.124117
0.862272 0.000000 0.167819
0.965393 0.000000 0.229862
0.093996 0.112459 0.080476
0.117006 0.118410 0.077516
0.249912 0.117556 0.073274
0.400458 0.061616 0.083040
0.558373 0.000000 0.102113
0.718074 0.000000 0.133211
0.852842 0.000000 0.177249
0.959197 0.000000 0.239292
0.115389 0.211429 0.123415
0.129397 0.209964 0.119448
0.208103 0.232212 0.105440
0.419165 0.264225 0.082399
0.575769 0.242618 0.104738
0.732387 0.205936 0.140078
0.870420 0.171939 0.197787
0.969024 0.190402 0.271946
0.150851 0.328405 0.183688
0.168704 0.329015 0.183780
0.192172 0.321599 0.167208
0.340093 0.390753 0.163302
0.615900 0.468421 0.130831
0.759243 0.432380 0.161807
0.872740 0.403052 0.217838
0.964508 0.394385 0.291264
0.194766 0.454994 0.255558
0.213199 0.455634 0.257450
0.234836 0.447120 0.242832
0.265110 0.435187 0.221195
0.454475 0.529137 0.227176
0.736110 0.619867 0.199649
0.864500 0.580072 0.241489
0.957794 0.561761 0.322698
0.244022 0.580255 0.333135
0.263706 0.589563 0.340917
0.289616 0.584100 0.332769
0.312718 0.570245 0.309087
0.360021 0.560906 0.291661
0.573358 0.670649 0.315007
0.848692 0.766720 0.345830
0.950866 0.733242 0.401862
0.325475 0.723507 0.437018
0.340154 0.725460 0.440803
0.368017 0.720546 0.438361
0.385992 0.710933 0.418982
0.408362 0.695674 0.391974
0.490974 0.713741 0.396246
0.689967 0.794095 0.446784
0.918456 0.870573 0.531914
0.480201 0.854948 0.577905
0.489448 0.854185 0.580224
0.522850 0.853208 0.590326
0.544701 0.853361 0.587793
0.546502 0.837186 0.558770
0.582055 0.836057 0.556146
0.682856 0.865537 0.595727
0.820279 0.906035 0.647486
0.083742 0.076387 0.084840
0.111330 0.072450 0.090242
0.214206 0.059937 0.111574
0.366033 0.000000 0.132204
0.525200 0.000000 0.144289
0.685359 0.000000 0.157504
0.831540 0.000000 0.180026
0.947265 0.000000 0.224704
0.091859 0.108919 0.092226
0.129610 0.116670 0.102144
0.240635 0.102419 0.110780
0.386603 0.000000 0.120027
0.539452 0.000000 0.132937
0.691157 0.000000 0.152071
0.827176 0.000000 0.181765
0.940826 0.000000 0.232578
0.117311 0.208377 0.132357
0.150149 0.213993 0.140597
0.216342 0.230289 0.131350
0.405646 0.248997 0.128054
0.556878 0.225681 0.143221
0.707149 0.184726 0.168124
0.841642 0.137484 0.208408
0.951049 0.151858 0.272862
0.153048 0.322271 0.189242
0.177615 0.326665 0.194247
0.208377 0.322789 0.183719
0.330236 0.371008 0.176394
0.576226 0.429694 0.156649
0.719875 0.401709 0.179324
0.843351 0.377874 0.222354
0.947570 0.373053 0.289097
0.197635 0.451301 0.260777
0.214939 0.450782 0.261997
0.245914 0.444373 0.253300
0.270695 0.427283 0.228580
0.442359 0.509117 0.232853
0.717220 0.597803 0.208713
0.849516 0.565118 0.252354
0.947570 0.549462 0.325658
0.241917 0.570367 0.332158
0.256809 0.571618 0.334417
0.291630 0.570123 0.332860
0.314977 0.559319 0.311345
0.358099 0.549523 0.294926
0.571160 0.663935 0.322423
0.842832 0.758114 0.351659
0.944854 0.724025 0.402838
0.312963 0.708217 0.427771
0.323522 0.706020 0.427558
0.361303 0.704982 0.431708
0.382361 0.699367 0.415900
0.407599 0.687861 0.392218
0.484291 0.702571 0.393347
0.681117 0.783139 0.439979
0.912566 0.861814 0.518364
0.464149 0.846830 0.568017
0.475746 0.847410 0.571954
0.512352 0.847288 0.583795
0.539971 0.848203 0.584802
0.564752 0.845274 0.577356
0.591333 0.839353 0.566796
0.680293 0.862181 0.594842
0.816373 0.901884 0.642908
0.084596 0.081483 0.137209
0.098756 0.076814 0.143954
0.191348 0.059937 0.160281
0.306310 0.039033 0.185275
0.470558 0.000000 0.224857
0.645930 0.000000 0.259525
0.809079 0.000000 0.284367
0.936553 0.000000 0.310582
0.104524 0.107973 0.152010
0.117952 0.106661 0.160098
0.207706 0.096712 0.173678
0.324681 0.091005 0.193515
0.483467 0.000000 0.224552
0.652369 0.000000 0.252384
0.809110 0.000000 0.274174
0.935821 0.000000 0.302953
0.116274 0.207156 0.172793
0.148562 0.215244 0.182010
0.253727 0.230961 0.206271
0.396521 0.214237 0.215549
0.554009 0.177096 0.229007
0.702571 0.099763 0.244694
0.835569 0.000000 0.269535
0.946075 0.000000 0.312993
0.149630 0.334478 0.220768
0.178531 0.340337 0.227298
0.265293 0.352178 0.248875
0.361547 0.380591 0.244022
0.583307 0.410895 0.253391
0.721920 0.387457 0.271824
0.845792 0.369055 0.303685
0.948150 0.373083 0.356695
0.193820 0.456458 0.283085
0.216617 0.459266 0.287327
0.285863 0.467079 0.302739
0.322698 0.456123 0.285679
0.469490 0.521782 0.292332
0.723445 0.588373 0.291356
0.847044 0.557488 0.328832
0.945220 0.548394 0.387976
0.241520 0.575647 0.351568
0.259800 0.577508 0.355108
0.313939 0.580652 0.364965
0.351781 0.572412 0.352636
0.379156 0.553124 0.326818
0.579553 0.659297 0.361547
0.839750 0.745632 0.393561
0.944244 0.719112 0.453040
0.315557 0.714839 0.446052
0.328191 0.713710 0.447120
0.370001 0.711330 0.452399
0.411353 0.705959 0.448157
0.433143 0.692805 0.422583
0.494240 0.698604 0.418250
0.694575 0.786679 0.477272
0.922332 0.867582 0.561303
0.458930 0.847929 0.575463
0.466224 0.846464 0.575921
0.501244 0.845121 0.585321
0.556573 0.849088 0.604578
0.578485 0.845274 0.594812
0.605737 0.840757 0.585321
0.686702 0.860868 0.610681
0.824399 0.903685 0.663661
0.082063 0.086580 0.205844
0.098390 0.081666 0.212253
0.146456 0.066041 0.231693
0.284520 0.000000 0.245975
0.398352 0.000000 0.267521
0.555505 0.000000 0.312474
0.739437 0.000000 0.361181
0.895933 0.000000 0.392767
0.094270 0.102541 0.223178
0.109621 0.100771 0.228824
0.157321 0.091035 0.246891
0.298314 0.034821 0.258335
0.407935 0.049012 0.272618
0.566491 0.000000 0.316228
0.744228 0.000000 0.359197
0.898314 0.000000 0.388556
0.131838 0.183963 0.241337
0.156802 0.184665 0.249790
0.207095 0.190066 0.277134
0.336858 0.175723 0.291539
0.453742 0.187778 0.300694
0.622858 0.136477 0.340215
0.790707 0.000000 0.371466
0.922087 0.000000 0.391455
0.140536 0.328923 0.279057
0.168856 0.335119 0.286198
0.259892 0.354376 0.310338
0.408545 0.379644 0.350011
0.556512 0.362432 0.357855
0.698756 0.337377 0.367315
0.829496 0.316472 0.385290
0.940063 0.324285 0.420386
0.185336 0.474281 0.331609
0.209567 0.475227 0.334417
0.285527 0.482795 0.348974
0.404761 0.498939 0.384863
0.509972 0.531762 0.386511
0.723232 0.563165 0.408362
0.841001 0.544671 0.432471
0.940124 0.543450 0.473793
0.238895 0.593164 0.392279
0.261479 0.600824 0.400153
0.320653 0.602350 0.409064
0.413947 0.609064 0.432105
0.449928 0.592889 0.409735
0.610590 0.667811 0.440864
0.842252 0.731014 0.471901
0.940795 0.710414 0.526482
0.310491 0.720790 0.472847
0.325719 0.722194 0.476020
0.374090 0.724575 0.485420
0.451911 0.727077 0.504051
0.491920 0.717342 0.491493
0.519188 0.699275 0.467292
0.713893 0.788968 0.532830
0.924010 0.860105 0.605005
0.460883 0.854551 0.597894
0.471443 0.855039 0.600793
0.503014 0.854337 0.607935
0.562982 0.853574 0.626307
0.606500 0.849577 0.630335
0.630365 0.844358 0.617731
0.693599 0.856535 0.632776
0.834287 0.904356 0.691463
0.071748 0.090883 0.285924
0.091646 0.086366 0.290288
0.140230 0.066255 0.301976
0.233799 0.000000 0.321508
0.376867 0.000000 0.336065
0.504692 0.000000 0.368139
0.646693 0.000000 0.405158
0.843168 0.000000 0.473365
0.082399 0.098573 0.295903
0.099336 0.096895 0.301549
0.145876 0.087434 0.315435
0.235569 0.039399 0.333196
0.387213 0.000000 0.345861
0.511955 0.000000 0.372595
0.656367 0.000000 0.410040
0.847715 0.000000 0.473030
0.128573 0.176059 0.327733
0.133761 0.171359 0.333257
0.175326 0.165469 0.345129
0.241428 0.149630 0.367346
0.417884 0.120760 0.374823
0.530327 0.130373 0.382788
0.685023 0.001770 0.422827
0.860227 0.000000 0.469062
0.155398 0.289738 0.344945
0.177920 0.291661 0.351110
0.250980 0.298192 0.373205
0.332464 0.311131 0.413428
0.475593 0.297856 0.428138
0.578058 0.299229 0.417212
0.745235 0.255558 0.451942
0.894133 0.192966 0.471962
0.167880 0.450843 0.391577
0.193454 0.456062 0.397711
0.272068 0.471595 0.417151
0.395148 0.497139 0.451942
0.551781 0.523888 0.496345
0.689937 0.504875 0.499672
0.816007 0.488258 0.508568
0.926146 0.486549 0.530449
0.218387 0.595758 0.437873
0.239414 0.597253 0.440711
0.302342 0.600061 0.449317
0.399695 0.608301 0.469917
0.522179 0.618769 0.506126
0.636957 0.661036 0.523735
0.832273 0.698848 0.567254
0.930510 0.691066 0.598566
0.295811 0.724849 0.509636
0.310033 0.724300 0.510704
0.358404 0.724910 0.517082
0.437415 0.728420 0.532738
0.537224 0.731868 0.559075
0.572015 0.716396 0.536675
0.730343 0.783383 0.590143
0.922637 0.839567 0.639551
0.434974 0.849363 0.611505
0.444160 0.848905 0.612757
0.476204 0.848264 0.618372
0.542748 0.854673 0.639887
0.617884 0.853330 0.661646
0.657343 0.846983 0.657282
0.691066 0.842313 0.649805
0.839719 0.899321 0.714900
0.000000 0.097322 0.384222
0.063539 0.092714 0.386999
0.128115 0.073426 0.394110
0.195529 0.000000 0.409888
0.329473 0.000000 0.422705
0.478309 0.000000 0.440894
0.630213 0.000000 0.492958
0.783444 0.000000 0.538048
0.049592 0.094331 0.382116
0.077607 0.091707 0.384985
0.131655 0.081025 0.395483
0.197238 0.036591 0.414618
0.330266 0.000000 0.428260
0.481910 0.000000 0.444312
0.631220 0.000000 0.492378
0.782559 0.000000 0.535241
0.072419 0.157076 0.412207
0.093599 0.155215 0.414282
0.145541 0.147982 0.423346
0.213565 0.131899 0.443000
0.338720 0.087739 0.459083
0.506218 0.000000 0.468788
0.646998 0.000000 0.501640
0.791806 0.000000 0.535698
0.162264 0.258488 0.431098
0.177462 0.262181 0.437629
0.229892 0.276890 0.464881
0.273777 0.263615 0.488716
0.350500 0.243290 0.515618
0.554620 0.221103 0.517510
0.680018 0.212131 0.522637
0.829191 0.190799 0.553491
0.174380 0.407660 0.462287
0.195163 0.409644 0.467079
0.260258 0.415625 0.483436
0.361730 0.423590 0.511803
0.452186 0.432013 0.553094
0.604883 0.413794 0.565179
0.706996 0.398230 0.538781
0.868864 0.370611 0.570977
0.189761 0.576104 0.511131
0.213260 0.581628 0.517418
0.282567 0.592981 0.532128
0.387793 0.611353 0.557519
0.522637 0.633875 0.592523
0.689662 0.667384 0.645869
0.811215 0.654963 0.651575
0.918151 0.648615 0.663508
0.282414 0.742184 0.573358
0.300664 0.744228 0.576776
0.354711 0.745785 0.583764
0.437964 0.748806 0.597498
0.541558 0.751705 0.618799
0.664759 0.754269 0.656336
0.764370 0.787137 0.676448
0.922423 0.820737 0.719905
0.420233 0.855161 0.649104
0.429664 0.854643 0.650019
0.462898 0.854124 0.654688
0.523247 0.856321 0.667811
0.600031 0.857053 0.685817
0.690242 0.856413 0.712703
0.723903 0.847776 0.700008
0.852903 0.896574 0.755428
0.000000 0.110353 0.502464
0.000000 0.106020 0.507805
0.088319 0.087495 0.514885
0.180270 0.004120 0.528008
0.261631 0.000000 0.544366
0.434638 0.000000 0.542199
0.586755 0.000000 0.558648
0.769284 0.000000 0.638666
0.000000 0.107210 0.494453
0.000000 0.103120 0.499184
0.095613 0.085206 0.506554
0.180362 0.003449 0.518212
0.258244 0.000000 0.534508
0.426795 0.000000 0.533837
0.576837 0.000000 0.547570
0.753994 0.000000 0.622492
0.000000 0.142306 0.516167
0.000000 0.139925 0.517815
0.095583 0.129946 0.522698
0.182437 0.108248 0.534386
0.263493 0.044953 0.550134
0.431922 0.000000 0.553704
0.596826 0.000000 0.569024
0.773159 0.000000 0.636469
0.095827 0.250309 0.545892
0.093568 0.242527 0.546075
0.130922 0.228183 0.550134
0.205478 0.214694 0.563928
0.285679 0.188235 0.581231
0.440955 0.137209 0.594263
0.631006 0.000000 0.605219
0.793149 0.000000 0.646509
0.159823 0.362921 0.544854
0.177157 0.359716 0.545312
0.230472 0.350134 0.551751
0.297765 0.361334 0.582422
0.340581 0.334051 0.604028
0.428229 0.301823 0.627344
0.656580 0.275181 0.629908
0.804929 0.270817 0.644251
0.169802 0.527916 0.583642
0.189273 0.528618 0.586328
0.247837 0.530388 0.595850
0.334936 0.532403 0.613397
0.449958 0.531273 0.636622
0.556023 0.540246 0.678431
0.719997 0.524804 0.692012
0.827909 0.505821 0.662165
0.208865 0.710719 0.642817
0.229984 0.713832 0.646723
0.291325 0.719631 0.655238
0.384894 0.729458 0.670710
0.503502 0.739712 0.690608
0.651240 0.755734 0.722225
0.803159 0.788052 0.773312
0.905791 0.777218 0.777340
0.382635 0.856352 0.692805
0.394385 0.856748 0.694514
0.441535 0.861997 0.705409
0.507378 0.864744 0.717708
0.590173 0.865568 0.733516
0.684749 0.866545 0.755795
0.786282 0.866697 0.787045
0.872251 0.893706 0.811002
0.000000 0.139315 0.646662
0.000000 0.135592 0.649714
0.000000 0.119112 0.651118
0.137362 0.081575 0.661006
0.240909 0.000000 0.673854
0.354376 0.000000 0.686946
0.550256 0.000000 0.686122
0.713588 0.000000 0.700984
0.000000 0.137179 0.640955
0.000000 0.133577 0.643946
0.000000 0.117800 0.646784
0.136934 0.080598 0.654994
0.239078 0.000000 0.667964
0.350683 0.000000 0.681086
0.544121 0.000000 0.678340
0.705928 0.000000 0.692500
0.000000 0.136660 0.640406
0.000000 0.132998 0.642176
0.000000 0.117281 0.642359
0.134493 0.082246 0.657527
0.236606 0.000000 0.668391
0.341039 0.000000 0.679927
0.539605 0.000000 0.677913
0.705470 0.000000 0.692531
0.000000 0.203677 0.650935
0.000000 0.201877 0.653620
0.000000 0.191745 0.655970
0.112978 0.173190 0.666285
0.229252 0.137148 0.679591
0.325902 0.011109 0.695064
0.536828 0.000000 0.695552
0.719387 0.000000 0.707515
0.021088 0.327276 0.652522
0.070771 0.327459 0.657069
0.128206 0.322087 0.665370
0.127535 0.282506 0.675013
0.233341 0.255772 0.686702
0.330480 0.212253 0.702632
0.520409 0.133211 0.712581
0.736629 0.000000 0.725277
0.109499 0.479591 0.670497
0.129702 0.475807 0.669612
0.184360 0.463294 0.669490
0.256992 0.439490 0.673701
0.336889 0.427771 0.695155
0.387579 0.389532 0.723842
0.502098 0.351293 0.755550
0.776425 0.337530 0.765927
0.158846 0.657160 0.714870
0.175387 0.655726 0.714870
0.225284 0.651514 0.716213
0.302403 0.646784 0.722927
0.403418 0.639216 0.733639
0.531365 0.629969 0.750332
0.645808 0.635767 0.787930
0.822629 0.629053 0.807736
0.288579 0.843412 0.777096
0.299931 0.843076 0.777279
0.341802 0.843900 0.780209
0.415351 0.847379 0.788052
0.515404 0.851041 0.799344
0.634241 0.855436 0.815091
0.766445 0.864652 0.839658
0.899168 0.891051 0.883146
