data/fiter_cube/27130762/1023405/file.cube
# Created by Adobe Lightroom plugin Export LUT (1.17.0)
# www.johnrellis.com/lightroom/exportlut.htm
# Preset: 森系文艺人像美食静物_09 云集
# Color profile: C:\Program Files (x86)\Common Files\Adobe\Color\Profiles\Recommended\AdobeRGB1998.icc
LUT_3D_SIZE 8
DOMAIN_MIN 0.000000 0.000000 0.000000
DOMAIN_MAX 0.903226 0.903226 0.903226
0.085969 0.080903 0.085023
0.152285 0.073030 0.087373
0.279515 0.081941 0.095033
0.437354 0.084688 0.107210
0.622675 0.093172 0.125856
0.783688 0.121920 0.155825
0.916869 0.174105 0.203342
1.000000 0.254704 0.276463
0.090272 0.142306 0.108766
0.148928 0.142794 0.106050
0.292363 0.166812 0.098054
0.454932 0.176120 0.110140
0.639734 0.189487 0.129488
0.796109 0.205356 0.161471
0.923705 0.237125 0.210758
1.000000 0.297551 0.284977
0.114290 0.261662 0.170932
0.140383 0.268498 0.143160
0.264897 0.257206 0.157748
0.460945 0.320592 0.129854
0.662470 0.361761 0.137728
0.807431 0.363867 0.173129
0.924346 0.370581 0.223484
1.000000 0.401617 0.300786
0.148196 0.420325 0.259403
0.167453 0.428748 0.237888
0.296727 0.446326 0.224094
0.406165 0.397345 0.223392
0.601617 0.455940 0.196017
0.821592 0.541009 0.195193
0.933013 0.532311 0.256260
1.000000 0.541711 0.340459
0.191775 0.610925 0.368078
0.210544 0.616785 0.351324
0.283116 0.633692 0.293462
0.471748 0.626642 0.318883
0.568109 0.559442 0.301366
0.719051 0.578576 0.288243
0.922911 0.663478 0.309026
1.000000 0.693141 0.405402
0.287938 0.767178 0.478706
0.299687 0.767361 0.465370
0.347417 0.778286 0.425879
0.493629 0.788602 0.431739
0.630243 0.765774 0.440772
0.714595 0.707698 0.404974
0.823178 0.693324 0.399542
0.998779 0.773434 0.447242
0.439612 0.884154 0.599573
0.449073 0.885161 0.593622
0.486244 0.890776 0.577447
0.555505 0.897978 0.562158
0.694179 0.900023 0.614588
0.772152 0.875364 0.596033
0.845365 0.840635 0.559533
0.928618 0.821469 0.572473
0.610376 0.967498 0.726925
0.617182 0.968109 0.724941
0.639582 0.969909 0.718135
0.675166 0.972595 0.707301
0.756893 0.974334 0.733852
0.834592 0.970306 0.760769
0.888212 0.959136 0.748989
0.951232 0.949065 0.738277
0.086275 0.087526 0.143862
0.156222 0.079255 0.152621
0.283116 0.100038 0.169467
0.444251 0.064851 0.174411
0.630915 0.054932 0.189975
0.791989 0.105196 0.213657
0.921904 0.176761 0.253178
1.000000 0.268620 0.319127
0.100038 0.136110 0.152956
0.162234 0.155764 0.160098
0.291203 0.160037 0.166781
0.454780 0.166262 0.177523
0.641291 0.175631 0.193362
0.799283 0.196994 0.217899
0.926940 0.239200 0.260044
1.000000 0.310765 0.327977
0.124514 0.268498 0.216983
0.184237 0.273167 0.212497
0.276402 0.268620 0.202274
0.476204 0.332616 0.186923
0.666011 0.356115 0.201205
0.811887 0.361028 0.229221
0.930358 0.375616 0.273838
1.000000 0.412879 0.343786
0.167117 0.429511 0.300755
0.212192 0.434699 0.293004
0.306035 0.453254 0.263523
0.421607 0.412696 0.259709
0.628748 0.477790 0.237430
0.831418 0.546258 0.253361
0.938842 0.538598 0.306798
1.000000 0.551476 0.382727
0.218173 0.612604 0.402167
0.251102 0.618006 0.393500
0.302586 0.637049 0.335576
0.484932 0.638636 0.357244
0.580102 0.571588 0.331884
0.733669 0.592554 0.319005
0.927977 0.672847 0.351751
1.000000 0.699245 0.442817
0.317906 0.769039 0.508751
0.337743 0.771511 0.501366
0.382330 0.781949 0.466865
0.507012 0.792538 0.462318
0.640040 0.771756 0.471687
0.719051 0.712093 0.428046
0.829648 0.701259 0.421912
0.999786 0.780667 0.479652
0.469459 0.885771 0.625971
0.480568 0.887724 0.622065
0.514153 0.892790 0.606409
0.570062 0.899931 0.584314
0.702541 0.901396 0.632868
0.778561 0.878508 0.616175
0.849454 0.844877 0.578668
0.933532 0.828672 0.591058
0.626459 0.967681 0.742550
0.632166 0.968109 0.740047
0.653315 0.969818 0.733150
0.687190 0.972442 0.722194
0.757900 0.972930 0.738949
0.837247 0.970153 0.768429
0.890318 0.959869 0.757534
0.952544 0.950439 0.746853
0.105348 0.098695 0.254185
0.158724 0.098238 0.261326
0.284459 0.108064 0.277562
0.439490 0.118929 0.300511
0.613367 0.108217 0.330480
0.772427 0.103792 0.346227
0.910155 0.147707 0.356847
1.000000 0.283970 0.412146
0.134524 0.165133 0.258885
0.175845 0.168246 0.266880
0.289616 0.170199 0.282994
0.446143 0.175723 0.305852
0.620264 0.172763 0.333471
0.782895 0.130007 0.329046
0.914305 0.221378 0.363500
1.000000 0.323522 0.419196
0.153323 0.246799 0.278355
0.196719 0.257328 0.282383
0.300725 0.292393 0.296452
0.463783 0.296971 0.303410
0.644068 0.309606 0.318425
0.795926 0.330877 0.342168
0.920012 0.367468 0.379339
1.000000 0.426886 0.438025
0.141726 0.426581 0.381781
0.200565 0.430457 0.377905
0.333135 0.446632 0.366125
0.439460 0.430518 0.343725
0.656550 0.501305 0.341466
0.816220 0.524956 0.368322
0.927764 0.532921 0.409827
1.000000 0.561700 0.472755
0.197604 0.610285 0.472480
0.251652 0.613367 0.469886
0.378546 0.624659 0.459480
0.501640 0.647059 0.445075
0.590723 0.582361 0.406806
0.757565 0.618250 0.401587
0.930510 0.692073 0.458778
1.000000 0.706996 0.528374
0.310735 0.766232 0.562402
0.352544 0.767300 0.562615
0.456764 0.772854 0.562158
0.528923 0.789700 0.530541
0.662074 0.780972 0.551293
0.728023 0.721309 0.495766
0.844602 0.721920 0.488869
0.997406 0.796323 0.559991
0.466560 0.883330 0.660487
0.495460 0.883543 0.664088
0.566308 0.885832 0.669520
0.613947 0.894865 0.649287
0.717464 0.900328 0.675013
0.790646 0.882109 0.665339
0.850797 0.846372 0.618891
0.936492 0.836088 0.624598
0.624811 0.967376 0.763241
0.642176 0.967071 0.766781
0.685451 0.966827 0.772519
0.714839 0.969390 0.760433
0.768734 0.972320 0.763607
0.847990 0.971160 0.795529
0.894774 0.960754 0.780880
0.952728 0.950652 0.765164
0.130220 0.120760 0.399207
0.180789 0.122499 0.403143
0.300328 0.119417 0.421668
0.449104 0.125429 0.438300
0.622339 0.136507 0.461189
0.771786 0.179873 0.483467
0.897429 0.273564 0.515862
0.995178 0.402869 0.574151
0.155612 0.186069 0.400397
0.195285 0.185916 0.405310
0.303349 0.181308 0.423377
0.451331 0.182071 0.440925
0.624506 0.194308 0.464057
0.773434 0.230777 0.486976
0.897978 0.311711 0.521447
0.997742 0.411902 0.569207
0.192416 0.291905 0.409125
0.229404 0.301610 0.412757
0.318273 0.309026 0.432898
0.462379 0.309331 0.453407
0.629389 0.322728 0.472602
0.771725 0.349920 0.494911
0.895201 0.394690 0.523796
1.000000 0.446296 0.551781
0.203098 0.385901 0.438178
0.239384 0.393652 0.441596
0.340002 0.420386 0.452766
0.476783 0.467781 0.471290
0.648676 0.477790 0.482765
0.792844 0.498970 0.505028
0.911192 0.531212 0.537743
1.000000 0.577111 0.583673
0.146670 0.595117 0.568322
0.205142 0.605127 0.571923
0.353491 0.615839 0.563073
0.522850 0.631006 0.552117
0.612482 0.604395 0.518151
0.793179 0.662837 0.537255
0.921233 0.698299 0.583825
1.000000 0.714137 0.627680
0.276890 0.758450 0.641810
0.319127 0.757687 0.638392
0.442603 0.762936 0.637140
0.584833 0.771817 0.639704
0.690730 0.792233 0.647913
0.738247 0.731868 0.584527
0.866850 0.754421 0.587945
0.995636 0.821897 0.664881
0.448981 0.880949 0.716243
0.477180 0.880705 0.716884
0.560845 0.880705 0.721065
0.663325 0.883421 0.729061
0.726955 0.895628 0.721065
0.807218 0.887510 0.729580
0.854582 0.850401 0.676967
0.946075 0.852964 0.682033
0.611841 0.966583 0.795895
0.627985 0.966064 0.797330
0.679316 0.964965 0.803220
0.747799 0.964630 0.812070
0.785092 0.970428 0.801144
0.856840 0.971771 0.825559
0.901884 0.963012 0.815427
0.953765 0.951873 0.793668
0.164370 0.151614 0.562799
0.209781 0.152682 0.565728
0.322515 0.149966 0.579522
0.466590 0.125917 0.600366
0.625422 0.144442 0.612055
0.773709 0.210910 0.615137
0.896818 0.306371 0.629023
0.992889 0.430091 0.664973
0.181643 0.210117 0.564752
0.220737 0.209079 0.566522
0.325139 0.205051 0.579614
0.467597 0.188754 0.601801
0.627344 0.202640 0.614405
0.774136 0.257359 0.616724
0.896147 0.340307 0.632319
0.991974 0.453193 0.669337
0.219821 0.328710 0.569024
0.251621 0.330388 0.573541
0.341405 0.330755 0.586969
0.473579 0.325475 0.607477
0.633814 0.335729 0.622309
0.776791 0.380224 0.625483
0.894865 0.440192 0.646723
0.989654 0.524132 0.684901
0.253330 0.434516 0.583520
0.286778 0.442145 0.586236
0.382330 0.468116 0.593622
0.497078 0.487678 0.613306
0.640040 0.493660 0.631312
0.775753 0.522271 0.641962
0.891112 0.557824 0.666041
0.985016 0.611749 0.703120
0.273869 0.540002 0.612299
0.305547 0.545403 0.613916
0.398901 0.565118 0.620142
0.525383 0.599329 0.630365
0.651331 0.643915 0.646479
0.789639 0.657496 0.660792
0.903563 0.679683 0.683467
0.992706 0.710445 0.714321
0.268345 0.716091 0.715724
0.303593 0.720729 0.718044
0.413184 0.746181 0.727321
0.560174 0.767269 0.726436
0.701534 0.782162 0.722133
0.759487 0.753689 0.683955
0.899535 0.800961 0.708888
0.993225 0.837125 0.757839
0.418250 0.878264 0.794034
0.448402 0.878569 0.793179
0.535271 0.879301 0.790219
0.646357 0.881224 0.787869
0.755001 0.887785 0.791928
0.832944 0.901610 0.803250
0.863249 0.859434 0.744167
0.962982 0.878599 0.755612
0.597620 0.968261 0.848173
0.614343 0.967956 0.848447
0.665949 0.967010 0.849454
0.734707 0.965209 0.849851
0.812192 0.966491 0.856168
0.860166 0.972930 0.854215
0.912352 0.968017 0.857877
0.957214 0.955505 0.830320
0.206058 0.191379 0.711940
0.243259 0.192294 0.714046
0.342992 0.192599 0.723232
0.471931 0.185763 0.736233
0.620417 0.172091 0.752407
0.773068 0.228763 0.759060
0.894652 0.335027 0.750790
0.989746 0.462013 0.760769
0.222751 0.243259 0.717678
0.256626 0.243290 0.719905
0.350347 0.242252 0.727474
0.476539 0.236881 0.739834
0.623224 0.226627 0.755337
0.774777 0.274540 0.761135
0.894774 0.369268 0.753140
0.989227 0.484413 0.764309
0.266209 0.360204 0.718624
0.293095 0.360754 0.721096
0.372930 0.361517 0.728695
0.487648 0.360479 0.740505
0.627192 0.355688 0.756924
0.775448 0.391119 0.763119
0.892454 0.463294 0.758602
0.986236 0.547570 0.773556
0.329778 0.491249 0.718471
0.354803 0.495338 0.721523
0.429816 0.507378 0.729976
0.522362 0.512902 0.740230
0.637659 0.511772 0.754879
0.773953 0.530541 0.764096
0.888212 0.576043 0.766049
0.981750 0.629664 0.785794
0.361517 0.580621 0.737881
0.387549 0.586511 0.738735
0.467445 0.607263 0.741482
0.572534 0.640864 0.746029
0.667292 0.660090 0.759976
0.780301 0.664637 0.773648
0.888731 0.689265 0.782010
0.979278 0.722194 0.803738
0.397833 0.679042 0.759731
0.421149 0.682551 0.759792
0.493416 0.696620 0.762142
0.589990 0.719570 0.766629
0.689998 0.748959 0.774136
0.788449 0.783413 0.785092
0.897642 0.797452 0.799496
0.983856 0.817227 0.819425
0.432044 0.821866 0.833555
0.452216 0.824369 0.834348
0.516045 0.834531 0.838651
0.605371 0.855009 0.846403
0.718074 0.879576 0.848508
0.831357 0.892393 0.847044
0.874144 0.870817 0.814694
0.980682 0.908385 0.840665
0.563531 0.968414 0.914458
0.580896 0.968200 0.913268
0.634485 0.967529 0.909178
0.708553 0.966583 0.902739
0.791806 0.967132 0.897917
0.874357 0.970245 0.900694
0.927764 0.975341 0.907469
0.961181 0.959716 0.872923
0.273747 0.258915 0.852598
0.301518 0.260502 0.853971
0.381750 0.263828 0.857572
0.492012 0.266239 0.863401
0.619471 0.266880 0.872038
0.758328 0.288426 0.879240
0.894102 0.366918 0.880858
0.987121 0.491859 0.866728
0.289464 0.300206 0.851499
0.314946 0.301244 0.852811
0.390082 0.303014 0.856413
0.496712 0.304936 0.862486
0.621180 0.305486 0.870634
0.757839 0.322423 0.877714
0.892119 0.393713 0.879210
0.985260 0.507530 0.866148
0.344610 0.412604 0.852262
0.363989 0.413031 0.853178
0.425818 0.414313 0.856291
0.519463 0.416480 0.861997
0.633265 0.417731 0.869749
0.762325 0.427741 0.877684
0.891417 0.482368 0.879728
0.983581 0.570153 0.870665
0.426398 0.546410 0.850736
0.445655 0.550256 0.851713
0.499001 0.558160 0.854612
0.569024 0.559991 0.860441
0.660822 0.560601 0.868345
0.771633 0.559350 0.878477
0.890684 0.593408 0.881132
0.980926 0.652277 0.876707
0.480018 0.645716 0.851438
0.497993 0.650996 0.851286
0.554040 0.669032 0.851408
0.622675 0.683192 0.856535
0.693233 0.686427 0.865141
0.781521 0.683711 0.875975
0.888792 0.698329 0.881529
0.977600 0.738460 0.883268
0.509728 0.718807 0.862638
0.525933 0.722774 0.862760
0.576715 0.735958 0.863279
0.648554 0.756802 0.864591
0.728481 0.782895 0.866728
0.802487 0.797910 0.876493
0.891112 0.801755 0.886625
0.975799 0.824033 0.894194
0.545190 0.798367 0.876555
0.559442 0.801175 0.876860
0.603693 0.810056 0.877592
0.667720 0.824491 0.879088
0.741726 0.843320 0.881468
0.819303 0.866392 0.886076
0.896696 0.894163 0.894987
0.979675 0.908659 0.909636
0.594476 0.911772 0.930968
0.605585 0.913634 0.931548
0.642512 0.920684 0.934325
0.696162 0.932006 0.938537
0.760403 0.947845 0.944640
0.845365 0.968902 0.945617
0.931243 0.974426 0.942657
0.966766 0.965728 0.922637
0.372961 0.360052 0.955322
0.390570 0.361517 0.955901
0.445991 0.365332 0.957244
0.530694 0.371984 0.960113
0.632776 0.378973 0.964050
0.745632 0.384833 0.968902
0.868284 0.434546 0.970855
0.981659 0.514366 0.970031
0.389868 0.392767 0.954284
0.406226 0.393988 0.954864
0.458167 0.397009 0.956298
0.538903 0.402167 0.959045
0.637812 0.408179 0.963012
0.748104 0.413611 0.967926
0.868498 0.456641 0.970031
0.980682 0.530297 0.969329
0.446662 0.488808 0.951904
0.459571 0.489601 0.952361
0.501549 0.491127 0.953643
0.571374 0.495827 0.956909
0.658534 0.499336 0.960784
0.758633 0.501122 0.965667
0.871153 0.526879 0.968688
0.978882 0.584405 0.968475
0.531121 0.611658 0.948058
0.540154 0.612116 0.948638
0.569909 0.612390 0.950134
0.621668 0.613519 0.953185
0.691432 0.613916 0.957488
0.776059 0.612268 0.962890
0.875822 0.620539 0.967498
0.977020 0.660212 0.968048
0.591547 0.711086 0.944457
0.601099 0.712947 0.944915
0.630243 0.717403 0.946136
0.674037 0.721645 0.948821
0.726284 0.720180 0.953399
0.794827 0.717464 0.959350
0.880552 0.714992 0.966339
0.975036 0.743679 0.968017
0.624872 0.775723 0.948272
0.634363 0.778531 0.948058
0.665492 0.788083 0.947509
0.713375 0.803464 0.946990
0.765133 0.814359 0.949462
0.819760 0.815640 0.956573
0.890105 0.814725 0.965423
0.974792 0.829679 0.969970
0.651789 0.834501 0.956481
0.660121 0.836576 0.956359
0.687526 0.843473 0.956085
0.731319 0.855375 0.956085
0.786069 0.871397 0.956420
0.847684 0.891661 0.957580
0.906279 0.904051 0.964843
0.974029 0.907225 0.971496
0.684077 0.897032 0.966613
0.691096 0.898436 0.966583
0.714900 0.903410 0.966583
0.753902 0.912169 0.966888
0.803525 0.924132 0.967498
0.860075 0.939025 0.968750
0.919890 0.956603 0.971221
0.976410 0.975830 0.976013
