data/fiter_cube/27130762/1023405/file.cube
# Created by Adobe Lightroom plugin Export LUT (1.17.0)
# www.johnrellis.com/lightroom/exportlut.htm
# Preset: 森系文艺人像美食静物_09 云集
# Color profile: C:\Program Files (x86)\Common Files\Adobe\Color\Profiles\Recommended\AdobeRGB1998.icc
LUT_3D_SIZE 32
DOMAIN_MIN 0.0 0.0 0.0
DOMAIN_MAX 1.0 1.0 1.0
0.085969 0.080903 0.085023
0.085969 0.080903 0.085023
0.094392 0.079591 0.085756
0.122042 0.074434 0.088350
0.152285 0.073030 0.087373
0.182650 0.075593 0.087739
0.213931 0.078218 0.088258
0.245762 0.080171 0.091615
0.279515 0.081941 0.095033
0.315282 0.083192 0.097719
0.353826 0.083467 0.100740
0.394568 0.083925 0.103944
0.437354 0.084688 0.107210
0.482277 0.085969 0.111055
0.528374 0.088655 0.115785
0.575586 0.090974 0.120363
0.622675 0.093172 0.125856
0.666712 0.098146 0.132174
0.707698 0.104585 0.138827
0.746456 0.111513 0.147280
0.783688 0.121920 0.155825
0.819425 0.132235 0.165713
0.853605 0.144442 0.177188
0.886137 0.158663 0.189456
0.916869 0.174105 0.203342
0.945617 0.191623 0.218997
0.972290 0.210910 0.236484
0.997070 0.231693 0.255467
1.000000 0.254704 0.276463
1.000000 0.279667 0.299687
1.000000 0.307042 0.325353
1.000000 0.337346 0.353918
0.085969 0.080903 0.085023
0.085878 0.081239 0.085298
0.096071 0.081666 0.085573
0.123537 0.084199 0.086152
0.153353 0.086519 0.086885
0.184085 0.088350 0.087251
0.215396 0.090394 0.089174
0.247623 0.092287 0.092164
0.281437 0.093874 0.095277
0.317601 0.095033 0.098329
0.356451 0.095644 0.101015
0.397650 0.096132 0.104097
0.440833 0.097658 0.107637
0.486000 0.099367 0.111543
0.532464 0.101534 0.115938
0.579828 0.103761 0.121340
0.626795 0.107027 0.126650
0.670893 0.111696 0.132815
0.711513 0.117739 0.139895
0.750088 0.124208 0.148104
0.786984 0.133181 0.157076
0.822446 0.142824 0.166995
0.856321 0.154452 0.178347
0.888609 0.167941 0.190768
0.919036 0.182650 0.204868
0.947509 0.199405 0.220615
0.973877 0.217868 0.238163
0.998413 0.238285 0.257389
1.000000 0.260502 0.278477
1.000000 0.285100 0.302037
1.000000 0.312139 0.327459
1.000000 0.342077 0.356268
0.086427 0.089937 0.088319
0.086519 0.091676 0.088167
0.096773 0.092378 0.087556
0.124971 0.099367 0.085634
0.155093 0.102388 0.086244
0.185885 0.103761 0.086885
0.217044 0.105104 0.089906
0.249424 0.106477 0.093141
0.283726 0.107698 0.095644
0.319860 0.108766 0.098665
0.359014 0.110292 0.101137
0.400336 0.111757 0.104311
0.443732 0.112825 0.108248
0.488960 0.115023 0.112215
0.535485 0.118410 0.116579
0.583032 0.120180 0.121309
0.629877 0.123751 0.127077
0.673701 0.128328 0.133181
0.714168 0.132692 0.140780
0.752499 0.139681 0.148684
0.789151 0.146517 0.157839
0.824338 0.155520 0.167849
0.858030 0.165805 0.179446
0.890043 0.178195 0.192020
0.920287 0.192142 0.206241
0.948608 0.208072 0.221988
0.974823 0.225620 0.239506
0.999145 0.245609 0.259159
1.000000 0.266911 0.280186
1.000000 0.291142 0.303380
1.000000 0.317449 0.329168
1.000000 0.347082 0.358007
0.086824 0.115145 0.097169
0.088808 0.116152 0.093690
0.099550 0.116548 0.092012
0.122042 0.116518 0.094209
0.154177 0.122438 0.090028
0.188266 0.131075 0.088411
0.219669 0.131502 0.091402
0.252445 0.132296 0.094270
0.286748 0.133242 0.096712
0.323369 0.134585 0.099275
0.362707 0.136141 0.102083
0.404517 0.138003 0.105257
0.447944 0.140780 0.108858
0.493324 0.143374 0.113252
0.540124 0.146273 0.117403
0.587793 0.149630 0.122377
0.634424 0.152987 0.127993
0.677913 0.156374 0.134920
0.718257 0.160861 0.141970
0.756405 0.166384 0.150393
0.792996 0.172396 0.159640
0.827817 0.180056 0.169802
0.860990 0.188968 0.181155
0.892393 0.198917 0.194064
0.921965 0.211154 0.208225
0.949645 0.224826 0.224125
0.975463 0.240909 0.241276
0.999542 0.259007 0.260746
1.000000 0.279393 0.281895
1.000000 0.301762 0.305394
1.000000 0.327398 0.331273
1.000000 0.356268 0.360479
0.090272 0.142306 0.108766
0.093263 0.143191 0.103609
0.100221 0.143954 0.099031
0.123415 0.143740 0.102937
0.148928 0.142794 0.106050
0.179690 0.147066 0.103700
0.221622 0.159152 0.095613
0.257450 0.165927 0.096101
0.292363 0.166812 0.098054
0.329412 0.168399 0.100649
0.369146 0.170504 0.102907
0.411109 0.173251 0.106416
0.454932 0.176120 0.110140
0.500267 0.179446 0.114351
0.546868 0.182498 0.119081
0.594018 0.186130 0.123812
0.639734 0.189487 0.129488
0.682399 0.193179 0.135927
0.722164 0.196536 0.143465
0.759945 0.200565 0.152010
0.796109 0.205356 0.161471
0.830686 0.211002 0.172183
0.863523 0.218418 0.183536
0.894560 0.226963 0.196628
0.923705 0.237125 0.210758
0.951019 0.249119 0.226688
0.976532 0.263066 0.244450
1.000000 0.278904 0.263798
1.000000 0.297551 0.284977
1.000000 0.318822 0.308812
1.000000 0.342565 0.334936
1.000000 0.370031 0.364263
0.096712 0.170230 0.123079
0.099184 0.170962 0.118471
0.102693 0.172030 0.112123
0.121828 0.173068 0.110628
0.149996 0.172091 0.114260
0.176333 0.169833 0.117372
0.204318 0.170840 0.117159
0.254429 0.188083 0.103487
0.295232 0.200259 0.101381
0.335241 0.205966 0.101991
0.375433 0.208652 0.104585
0.417609 0.211643 0.108156
0.461555 0.215030 0.112123
0.507073 0.218784 0.116152
0.553460 0.222690 0.120272
0.600275 0.226230 0.125521
0.645136 0.229252 0.131655
0.687037 0.232578 0.137972
0.725978 0.234958 0.145968
0.763210 0.238254 0.154269
0.798764 0.242191 0.163638
0.832731 0.246220 0.174624
0.850950 0.245304 0.179629
0.883024 0.251804 0.192264
0.913420 0.260075 0.206302
0.941924 0.269871 0.221836
0.968658 0.281804 0.239384
0.993591 0.295537 0.258854
1.000000 0.311894 0.280369
1.000000 0.331029 0.303716
1.000000 0.352880 0.330236
1.000000 0.378515 0.359442
0.101686 0.196628 0.136446
0.103853 0.197482 0.132723
0.106874 0.198428 0.127382
0.116426 0.200229 0.118135
0.147494 0.201144 0.122560
0.176211 0.198672 0.125460
0.202182 0.195346 0.128481
0.225589 0.191653 0.130343
0.277928 0.212528 0.117678
0.326848 0.229191 0.109926
0.375433 0.245487 0.106142
0.417121 0.249241 0.109468
0.460883 0.253330 0.113130
0.506279 0.257359 0.117128
0.552850 0.261784 0.121736
0.600122 0.266239 0.126741
0.645136 0.269566 0.132601
0.687068 0.272068 0.139406
0.725582 0.274479 0.146853
0.761929 0.276341 0.155673
0.796384 0.278538 0.164797
0.829007 0.281346 0.174899
0.859953 0.284947 0.185672
0.889525 0.289311 0.198032
0.917906 0.295323 0.211337
0.945098 0.302831 0.227359
0.970977 0.312871 0.244755
0.995361 0.325017 0.264408
1.000000 0.339330 0.286259
1.000000 0.356512 0.309972
1.000000 0.376593 0.336553
1.000000 0.400610 0.366552
0.107027 0.228031 0.152895
0.109194 0.228763 0.149203
0.112551 0.229770 0.145174
0.118593 0.231968 0.133791
0.144289 0.233799 0.131807
0.177798 0.234165 0.136446
0.207004 0.230076 0.139437
0.232853 0.225528 0.142306
0.250950 0.216312 0.146609
0.306950 0.240879 0.134157
0.365606 0.263554 0.121462
0.418280 0.282658 0.117220
0.470924 0.298344 0.114992
0.516472 0.302770 0.119081
0.563043 0.307103 0.124208
0.609827 0.311772 0.128603
0.653956 0.314611 0.135042
0.695003 0.316686 0.142245
0.732631 0.318059 0.150454
0.768338 0.319341 0.159152
0.802152 0.320684 0.168704
0.834226 0.322271 0.179110
0.864561 0.324712 0.190433
0.893614 0.327611 0.203037
0.921355 0.332006 0.217288
0.947997 0.338476 0.233341
0.973327 0.346593 0.251286
0.997223 0.356970 0.271061
1.000000 0.369574 0.293004
1.000000 0.384741 0.317235
1.000000 0.403143 0.344182
1.000000 0.425299 0.374426
0.114290 0.261662 0.170932
0.116793 0.262303 0.168460
0.119661 0.263310 0.164034
0.125765 0.265446 0.154696
0.140383 0.268498 0.143160
0.177218 0.270237 0.148592
0.210819 0.268772 0.152865
0.239628 0.263523 0.155123
0.264897 0.257206 0.157748
0.281193 0.245670 0.161746
0.336248 0.269566 0.152132
0.402167 0.297520 0.136660
0.460945 0.320592 0.129854
0.520928 0.343542 0.124941
0.573205 0.355138 0.126131
0.619165 0.359136 0.131472
0.662470 0.361761 0.137728
0.702541 0.363012 0.145571
0.739406 0.363348 0.154116
0.774289 0.363378 0.163394
0.807431 0.363867 0.173129
0.838895 0.364080 0.184085
0.868650 0.365179 0.195834
0.897154 0.367224 0.209018
0.924346 0.370581 0.223484
0.950469 0.375250 0.240024
0.975280 0.382208 0.258366
0.998657 0.390784 0.278477
1.000000 0.401617 0.300786
1.000000 0.415198 0.325383
1.000000 0.431891 0.352728
1.000000 0.452155 0.383246
0.122591 0.298161 0.191531
0.124788 0.298894 0.188785
0.127718 0.299901 0.185275
0.133608 0.302251 0.176455
0.142916 0.305791 0.162753
0.174716 0.308507 0.160922
0.214176 0.311254 0.167758
0.246921 0.306310 0.170321
0.275151 0.299382 0.172396
0.299474 0.291417 0.174105
0.314580 0.277897 0.177279
0.366705 0.298955 0.170199
0.436347 0.330877 0.155978
0.503868 0.359136 0.143618
0.566247 0.383948 0.138582
0.628351 0.407874 0.134249
0.670619 0.409918 0.140963
0.709407 0.410010 0.149142
0.745266 0.409339 0.157931
0.779568 0.408240 0.167575
0.812314 0.407752 0.178470
0.843565 0.407355 0.189853
0.873198 0.407630 0.202182
0.901305 0.408728 0.215976
0.928099 0.410742 0.231296
0.953613 0.414313 0.248356
0.977752 0.419623 0.266941
1.000000 0.426612 0.287480
1.000000 0.435645 0.309972
1.000000 0.447425 0.334783
1.000000 0.462043 0.361975
1.000000 0.480323 0.392615
0.131350 0.338994 0.214084
0.133486 0.339696 0.211795
0.136141 0.340795 0.207980
0.142306 0.342870 0.200565
0.151400 0.346166 0.187655
0.170321 0.350103 0.174594
0.213046 0.352941 0.181247
0.253269 0.354192 0.187472
0.284855 0.346319 0.189029
0.312474 0.337285 0.190188
0.335821 0.327489 0.191379
0.349615 0.311894 0.193240
0.396979 0.328222 0.188540
0.469795 0.363500 0.175235
0.546197 0.397681 0.157168
0.609247 0.423377 0.153506
0.668391 0.445991 0.151156
0.718044 0.459785 0.153109
0.752987 0.457496 0.162753
0.786374 0.455268 0.173587
0.818357 0.453529 0.184573
0.848692 0.451911 0.196231
0.877531 0.451118 0.209415
0.904906 0.450752 0.223972
0.931060 0.451606 0.239780
0.955962 0.453834 0.257389
0.979614 0.457679 0.276219
1.000000 0.463386 0.297307
1.000000 0.471046 0.320012
1.000000 0.481209 0.345220
1.000000 0.494118 0.372930
1.000000 0.510765 0.403967
0.140597 0.381903 0.238163
0.142397 0.382544 0.235538
0.145357 0.383673 0.232700
0.151156 0.385595 0.225284
0.159884 0.388861 0.213321
0.171359 0.393317 0.195804
0.210117 0.396674 0.195499
0.254704 0.400183 0.202792
0.293523 0.397375 0.207126
0.324376 0.387396 0.207767
0.350896 0.376379 0.208286
0.373083 0.364660 0.208377
0.376196 0.338293 0.205356
0.415686 0.347967 0.202853
0.489540 0.385321 0.190951
0.566491 0.421302 0.174899
0.633753 0.449958 0.166018
0.690791 0.471962 0.165286
0.742794 0.490822 0.166751
0.782406 0.495979 0.175113
0.814786 0.493629 0.186648
0.845548 0.491768 0.199069
0.874815 0.489937 0.213138
0.902617 0.489265 0.227878
0.929015 0.489387 0.244205
0.954009 0.490455 0.262486
0.977722 0.493172 0.282048
1.000000 0.497597 0.303532
1.000000 0.504051 0.326848
1.000000 0.512718 0.352331
1.000000 0.524285 0.380896
1.000000 0.539147 0.412299
0.148196 0.420325 0.259403
0.149905 0.421118 0.257237
0.153017 0.422400 0.254795
0.158663 0.424842 0.248142
0.167453 0.428748 0.237888
0.178653 0.433722 0.222141
0.202243 0.438972 0.208988
0.250614 0.442481 0.216007
0.296727 0.446326 0.224094
0.332280 0.437781 0.225650
0.361395 0.425483 0.225284
0.385962 0.411536 0.224369
0.406165 0.397345 0.223392
0.416480 0.377356 0.222904
0.447150 0.378027 0.221317
0.523430 0.418158 0.210452
0.601617 0.455940 0.196017
0.671321 0.486000 0.182345
0.725612 0.506859 0.184115
0.776059 0.525139 0.188296
0.821592 0.541009 0.195193
0.852201 0.538628 0.208927
0.880552 0.535821 0.223148
0.907439 0.533532 0.239170
0.933013 0.532311 0.256260
0.957305 0.532311 0.274540
0.980255 0.533745 0.294987
1.000000 0.536858 0.316991
1.000000 0.541711 0.340459
1.000000 0.549065 0.366613
1.000000 0.558953 0.394995
1.000000 0.572198 0.426734
0.157321 0.467994 0.285893
0.159304 0.468666 0.283818
0.161990 0.469917 0.281224
0.167788 0.472419 0.275547
0.176394 0.476112 0.265537
0.187808 0.480903 0.251133
0.201480 0.486702 0.231205
0.246647 0.490974 0.231968
0.296269 0.494820 0.240116
0.342229 0.496254 0.247593
0.375006 0.483101 0.246738
0.403143 0.468696 0.245182
0.426612 0.453193 0.243473
0.446021 0.437140 0.241367
0.456855 0.416632 0.239780
0.477089 0.406714 0.239231
0.555688 0.449836 0.230076
0.633417 0.488319 0.217746
0.703609 0.519127 0.203738
0.758511 0.540612 0.204318
0.806851 0.558221 0.211612
0.850065 0.573327 0.221775
0.885893 0.581964 0.235386
0.911833 0.578363 0.251713
0.936553 0.575769 0.268986
0.960021 0.574334 0.288243
0.982300 0.574365 0.308659
1.000000 0.576165 0.331182
1.000000 0.579767 0.355200
1.000000 0.585504 0.381353
1.000000 0.594018 0.410346
1.000000 0.605676 0.442329
0.166781 0.516106 0.312535
0.168826 0.516716 0.310979
0.171450 0.517815 0.308354
0.177157 0.520287 0.302983
0.185763 0.523980 0.293614
0.197238 0.529015 0.280430
0.211124 0.534539 0.262638
0.240238 0.539940 0.248844
0.293584 0.543755 0.256718
0.344244 0.547662 0.265812
0.386328 0.543023 0.270024
0.418006 0.527947 0.268070
0.444953 0.511925 0.265843
0.467720 0.495003 0.263218
0.486427 0.477577 0.260136
0.497932 0.456764 0.257267
0.506004 0.434821 0.257298
0.586694 0.480385 0.249516
0.662501 0.518791 0.240116
0.731777 0.550042 0.229557
0.789425 0.573022 0.226047
0.835447 0.590021 0.236362
0.876341 0.604578 0.249424
0.912535 0.616999 0.265660
0.939940 0.619471 0.284092
0.962554 0.616693 0.303288
0.983917 0.615198 0.323919
1.000000 0.615412 0.346258
1.000000 0.617334 0.370367
1.000000 0.621485 0.396338
1.000000 0.628138 0.424781
1.000000 0.637964 0.456764
0.177462 0.564477 0.340490
0.179538 0.564996 0.338354
0.181857 0.565820 0.336156
0.187655 0.567834 0.330846
0.196475 0.570886 0.322240
0.207614 0.575006 0.309545
0.221103 0.579797 0.292973
0.236637 0.585351 0.270878
0.287846 0.588891 0.273564
0.340795 0.592279 0.282536
0.391516 0.595972 0.292851
0.429236 0.585809 0.293309
0.460090 0.570794 0.290776
0.486946 0.554772 0.287602
0.509575 0.537530 0.284123
0.527977 0.519219 0.280064
0.540276 0.498299 0.275822
0.541497 0.469337 0.275212
0.616022 0.509850 0.270207
0.691127 0.548791 0.263462
0.758328 0.579767 0.256046
0.817746 0.603723 0.248447
0.861448 0.620111 0.261753
0.899962 0.633967 0.278019
0.933806 0.646174 0.297063
0.963592 0.657221 0.318700
0.984802 0.655512 0.339635
1.000000 0.654383 0.362280
1.000000 0.654963 0.386511
1.000000 0.657679 0.412757
1.000000 0.663050 0.441779
1.000000 0.671534 0.474220
0.191775 0.610925 0.368078
0.193545 0.611444 0.366339
0.196384 0.612268 0.364111
0.201907 0.614069 0.359350
0.210544 0.616785 0.351324
0.221653 0.620356 0.339910
0.235111 0.624475 0.325200
0.250187 0.629328 0.305272
0.283116 0.633692 0.293462
0.338140 0.636530 0.302434
0.390387 0.639521 0.312688
0.438605 0.640742 0.322332
0.471748 0.626642 0.318883
0.501274 0.611536 0.315343
0.527398 0.595117 0.310857
0.549737 0.577935 0.306462
0.568109 0.559442 0.301366
0.582238 0.539818 0.295415
0.581506 0.508263 0.294011
0.645167 0.539269 0.291539
0.719051 0.578576 0.288243
0.784695 0.609583 0.284276
0.842130 0.633295 0.280522
0.886717 0.650111 0.289433
0.922911 0.663478 0.309026
0.954376 0.675319 0.330999
0.981903 0.686305 0.355535
1.000000 0.693935 0.381079
1.000000 0.693141 0.405402
1.000000 0.694453 0.432074
1.000000 0.698268 0.460883
1.000000 0.705013 0.492958
0.209873 0.653071 0.394995
0.211673 0.653193 0.393133
0.209201 0.644434 0.384924
0.214420 0.646052 0.380377
0.222751 0.648524 0.373449
0.233310 0.651820 0.363500
0.246250 0.655970 0.350530
0.260960 0.660700 0.333501
0.277867 0.665919 0.311833
0.330602 0.668879 0.318151
0.383185 0.671901 0.328099
0.433509 0.675044 0.339788
0.475990 0.671565 0.345342
0.507713 0.658320 0.341619
0.536309 0.644068 0.337530
0.561822 0.628656 0.332647
0.584100 0.612268 0.327642
0.602686 0.594354 0.321416
0.617395 0.575250 0.314641
0.617334 0.544091 0.312230
0.670375 0.565484 0.311894
0.743496 0.605310 0.311681
0.807736 0.636622 0.311650
0.863188 0.660365 0.311803
0.908934 0.677607 0.316625
0.943206 0.691157 0.340063
0.972900 0.703304 0.365606
0.998505 0.714748 0.393591
1.000000 0.725826 0.423499
1.000000 0.731014 0.452766
1.000000 0.733425 0.481849
1.000000 0.738460 0.513329
0.230472 0.690761 0.420600
0.231266 0.690028 0.418341
0.232761 0.689448 0.415381
0.237400 0.689723 0.411017
0.244450 0.691005 0.403815
0.254429 0.693568 0.394659
0.266575 0.696925 0.382879
0.281193 0.701045 0.368322
0.297612 0.705653 0.350256
0.331518 0.709499 0.341985
0.384527 0.711940 0.352056
0.435096 0.714534 0.363561
0.484047 0.717678 0.376867
0.519677 0.709438 0.376959
0.549767 0.696742 0.372290
0.577234 0.682826 0.367102
0.601984 0.667964 0.361303
0.623713 0.651972 0.354833
0.642329 0.634394 0.347539
0.657282 0.615412 0.339025
0.657557 0.584253 0.335332
0.700008 0.595666 0.336126
0.771481 0.635554 0.339605
0.833433 0.666560 0.343633
0.886046 0.689631 0.347997
0.930541 0.706447 0.352361
0.963684 0.719692 0.374975
0.990906 0.731807 0.403754
1.000000 0.743343 0.434760
1.000000 0.754879 0.468086
1.000000 0.766720 0.502708
1.000000 0.771054 0.533989
0.257145 0.730159 0.449226
0.258030 0.729488 0.447395
0.259434 0.729122 0.444953
0.263218 0.729335 0.440589
0.269932 0.730526 0.434180
0.279362 0.732662 0.426123
0.291356 0.735531 0.416175
0.304997 0.739101 0.403326
0.320531 0.743130 0.387854
0.337713 0.747555 0.369329
0.388861 0.749630 0.378485
0.438941 0.751766 0.389990
0.487282 0.754238 0.402960
0.532830 0.755825 0.415656
0.562707 0.744656 0.410712
0.590753 0.732540 0.405493
0.616785 0.719570 0.399390
0.640650 0.705226 0.392370
0.661891 0.689723 0.384710
0.680323 0.672816 0.375799
0.695644 0.654322 0.366033
0.696498 0.623896 0.360693
0.729580 0.626062 0.362097
0.798978 0.665797 0.369909
0.858335 0.696284 0.378180
0.907958 0.718746 0.386694
0.949767 0.735286 0.395239
0.982879 0.748043 0.412329
1.000000 0.760281 0.444984
1.000000 0.772091 0.479072
1.000000 0.783871 0.514488
1.000000 0.796109 0.551476
0.287938 0.767178 0.478706
0.288670 0.766629 0.476967
0.289799 0.766232 0.474647
0.293339 0.766415 0.470832
0.299687 0.767361 0.465370
0.308354 0.769253 0.458198
0.319463 0.771756 0.449500
0.332799 0.774807 0.438972
0.347417 0.778286 0.425879
0.364111 0.782101 0.410773
0.397528 0.785031 0.407477
0.446357 0.786709 0.419013
0.493629 0.788602 0.431739
0.539422 0.790646 0.446204
0.577386 0.787991 0.453285
0.604486 0.777432 0.447578
0.630243 0.765774 0.440772
0.654353 0.753140 0.433356
0.676570 0.739254 0.424781
0.696742 0.724056 0.415351
0.714595 0.707698 0.404974
0.730037 0.689784 0.393469
0.731563 0.660151 0.386481
0.755978 0.653986 0.387762
0.823178 0.693324 0.399542
0.879423 0.723018 0.411902
0.926268 0.745052 0.424231
0.965637 0.761440 0.436133
0.998779 0.773434 0.447242
1.000000 0.785885 0.482765
1.000000 0.797940 0.519371
1.000000 0.809995 0.556817
0.318578 0.798306 0.505699
0.319493 0.798245 0.504417
0.320958 0.798276 0.502831
0.324590 0.798917 0.499825
0.330846 0.800046 0.495338
0.339483 0.801785 0.489754
0.350011 0.803891 0.482216
0.362341 0.806394 0.473365
0.376318 0.809293 0.462593
0.391760 0.812406 0.449897
0.409339 0.815793 0.436439
0.456031 0.816922 0.447639
0.501335 0.818235 0.460517
0.545525 0.819760 0.474556
0.588464 0.821439 0.490028
0.618524 0.815457 0.490486
0.643214 0.805753 0.484108
0.666957 0.795163 0.476844
0.689601 0.783627 0.468574
0.710903 0.770993 0.459388
0.730770 0.757290 0.449195
0.748928 0.742458 0.437995
0.765438 0.726436 0.425879
0.768673 0.699001 0.417975
0.786313 0.686000 0.419471
0.850431 0.724575 0.436255
0.903044 0.753323 0.453407
0.946654 0.774868 0.470192
0.983032 0.790982 0.485634
1.000000 0.802853 0.499733
1.000000 0.814054 0.528099
1.000000 0.825742 0.565911
0.356664 0.830167 0.536736
0.357305 0.830106 0.535454
0.358587 0.830137 0.534173
0.362158 0.830564 0.531456
0.367864 0.831540 0.527733
0.375860 0.832944 0.523095
0.385748 0.834867 0.516991
0.397528 0.837003 0.509911
0.410834 0.839414 0.501183
0.425788 0.842008 0.491615
0.442237 0.844877 0.480995
0.473548 0.846677 0.481788
0.516258 0.847532 0.494240
0.557946 0.848447 0.507622
0.598474 0.849607 0.522210
0.636896 0.850462 0.536522
0.659663 0.842313 0.530632
0.681971 0.833433 0.523705
0.703761 0.823758 0.516167
0.724758 0.813321 0.507591
0.744869 0.801938 0.497871
0.764034 0.789548 0.487007
0.782193 0.776211 0.475196
0.799161 0.761868 0.462135
0.805692 0.738521 0.455146
0.821134 0.723842 0.457984
0.877836 0.757259 0.479164
0.926574 0.784939 0.500572
0.966735 0.805753 0.520439
0.999969 0.821378 0.538537
1.000000 0.832914 0.555200
1.000000 0.841459 0.574609
0.394293 0.857176 0.565789
0.395026 0.856992 0.564904
0.396002 0.857053 0.563470
0.399695 0.857511 0.561791
0.405219 0.858488 0.558831
0.412879 0.859770 0.555261
0.422492 0.861448 0.550591
0.433753 0.863401 0.545159
0.446693 0.865599 0.538689
0.460914 0.867979 0.531334
0.476661 0.870603 0.523491
0.494514 0.873228 0.516045
0.534112 0.873869 0.527977
0.573266 0.874632 0.540917
0.611475 0.875578 0.554864
0.648646 0.876616 0.569787
0.679164 0.874907 0.577691
0.699794 0.867796 0.572015
0.720027 0.860014 0.565393
0.739834 0.851377 0.557610
0.759304 0.842039 0.548821
0.778347 0.831998 0.539178
0.797055 0.821378 0.528985
0.815427 0.810086 0.517632
0.833310 0.798306 0.505669
0.839658 0.775784 0.495918
0.856687 0.764034 0.502098
0.903838 0.789609 0.524926
0.948882 0.816159 0.549462
0.985626 0.836271 0.571832
1.000000 0.850919 0.591485
1.000000 0.861204 0.609003
0.439612 0.884154 0.599573
0.439979 0.884001 0.598505
0.440955 0.884062 0.597467
0.444068 0.884428 0.595880
0.449073 0.885161 0.593622
0.455940 0.886198 0.590570
0.464576 0.887541 0.586877
0.474708 0.889036 0.582544
0.486244 0.890776 0.577447
0.498970 0.892668 0.571527
0.512932 0.894713 0.565270
0.527886 0.896910 0.558251
0.555505 0.897978 0.562158
0.591028 0.898344 0.573816
0.626246 0.898802 0.586694
0.660731 0.899382 0.600275
0.694179 0.900023 0.614588
0.717098 0.896208 0.615564
0.735500 0.889830 0.609888
0.753872 0.882902 0.603479
0.772152 0.875364 0.596033
0.790433 0.867338 0.587762
0.808713 0.858885 0.579034
0.826993 0.849973 0.569482
0.845365 0.840635 0.559533
0.863676 0.830991 0.548730
0.871519 0.811398 0.539025
0.889403 0.802487 0.548791
0.928618 0.821469 0.572473
0.969665 0.846647 0.599084
1.000000 0.864897 0.621759
1.000000 0.878172 0.642084
0.483467 0.908080 0.632227
0.484047 0.908019 0.631403
0.485115 0.908141 0.630640
0.488075 0.908507 0.629572
0.492775 0.909148 0.627863
0.499031 0.910094 0.625635
0.506798 0.911223 0.622797
0.515892 0.912505 0.619287
0.526360 0.913878 0.615290
0.537774 0.915404 0.610742
0.550317 0.917021 0.605737
0.563806 0.918791 0.600488
0.580224 0.920409 0.596887
0.612421 0.920439 0.607782
0.644465 0.920592 0.619593
0.676143 0.920867 0.632013
0.707149 0.921172 0.645106
0.736965 0.921508 0.658381
0.753445 0.916442 0.653742
0.770077 0.910918 0.648371
0.786893 0.904967 0.642267
0.803952 0.898711 0.635767
0.821225 0.892088 0.628687
0.838743 0.885222 0.621118
0.856596 0.878080 0.613001
0.874784 0.870756 0.604517
0.893278 0.863279 0.595697
0.903593 0.847868 0.587579
0.920958 0.840787 0.600244
0.953277 0.854398 0.624537
0.989410 0.877043 0.650782
1.000000 0.893645 0.674159
0.528527 0.930480 0.665583
0.528985 0.930480 0.665034
0.530022 0.930541 0.664454
0.532464 0.930846 0.663416
0.536492 0.931304 0.661952
0.541650 0.931884 0.659876
0.547906 0.932525 0.657160
0.555352 0.933196 0.653956
0.563775 0.933989 0.650111
0.573205 0.934844 0.645808
0.583673 0.935790 0.641260
0.595087 0.936919 0.636378
0.607446 0.938170 0.631495
0.630610 0.938476 0.636011
0.659541 0.938262 0.646357
0.688563 0.938170 0.657710
0.717189 0.938201 0.669703
0.744961 0.938293 0.682002
0.768063 0.936980 0.689021
0.783200 0.932616 0.684810
0.798642 0.927947 0.680110
0.814450 0.923033 0.674983
0.830655 0.917937 0.669520
0.847227 0.912657 0.663691
0.864286 0.907286 0.657771
0.881804 0.901854 0.651423
0.899748 0.896330 0.644953
0.918242 0.890806 0.638178
0.930144 0.878813 0.631647
0.946166 0.872526 0.645380
0.973571 0.882780 0.670863
1.000000 0.903716 0.697780
0.566918 0.948852 0.694392
0.567651 0.948882 0.694148
0.568627 0.948974 0.693782
0.571008 0.949279 0.693080
0.574731 0.949706 0.692012
0.579614 0.950256 0.690486
0.585534 0.950835 0.688655
0.592554 0.951568 0.686275
0.600519 0.952331 0.683558
0.609522 0.953155 0.680568
0.619379 0.954070 0.677302
0.630060 0.955108 0.673854
0.641627 0.956237 0.670527
0.656123 0.957214 0.669337
