data/fiter_cube/27130762/1023405/file.cube
# Created by Adobe Lightroom plugin Export LUT (1.17.0)
# www.johnrellis.com/lightroom/exportlut.htm
# Preset: 森系文艺人像美食静物_09 云集
# Color profile: C:\Program Files (x86)\Common Files\Adobe\Color\Profiles\Recommended\AdobeRGB1998.icc
LUT_3D_SIZE 5
DOMAIN_MIN 0.000000 0.000000 0.000000
DOMAIN_MAX 0.903226 0.903226 0.903226
0.085969 0.080903 0.085023
0.245762 0.080171 0.091615
0.528374 0.088655 0.115785
0.819425 0.132235 0.165713
1.000000 0.254704 0.276463
0.107027 0.228031 0.152895
0.232853 0.225528 0.142306
0.563043 0.307103 0.124208
0.834226 0.322271 0.179110
1.000000 0.369574 0.293004
0.166781 0.516106 0.312535
0.240238 0.539940 0.248844
0.486427 0.477577 0.260136
0.835447 0.590021 0.236362
1.000000 0.617334 0.370367
0.318578 0.798306 0.505699
0.362341 0.806394 0.473365
0.588464 0.821439 0.490028
0.748928 0.742458 0.437995
0.983032 0.790982 0.485634
0.610376 0.967498 0.726925
0.632563 0.969390 0.720333
0.711421 0.975463 0.715816
0.847349 0.967651 0.758083
0.951232 0.949065 0.738277
0.100465 0.094575 0.225925
0.250523 0.100862 0.244419
0.526848 0.109682 0.288060
0.819699 0.000000 0.302251
1.000000 0.282200 0.387701
0.139864 0.216892 0.244358
0.262760 0.254856 0.259037
0.553246 0.266484 0.275303
0.831449 0.301671 0.315190
1.000000 0.392065 0.404517
0.174380 0.519982 0.403906
0.320775 0.536584 0.392218
0.513420 0.504601 0.350866
0.852689 0.614038 0.366278
1.000000 0.629908 0.470405
0.344640 0.795834 0.566766
0.443030 0.799466 0.565545
0.608515 0.819974 0.555779
0.756161 0.749844 0.502190
0.986206 0.804715 0.549432
0.623621 0.966155 0.755093
0.666560 0.966003 0.760372
0.726040 0.972137 0.743252
0.855314 0.967895 0.783200
0.951385 0.949279 0.756924
0.146456 0.135500 0.479835
0.278721 0.136294 0.495583
0.539666 0.129854 0.527276
0.806241 0.215946 0.551720
0.994141 0.415747 0.618372
0.195773 0.284062 0.485908
0.294774 0.284642 0.502525
0.548180 0.283085 0.537041
0.807431 0.344305 0.563012
0.990570 0.488075 0.633753
0.233036 0.465431 0.529015
0.337407 0.488014 0.538018
0.570611 0.562219 0.565270
0.822354 0.589349 0.594049
0.997375 0.647364 0.652399
0.295537 0.789792 0.706325
0.423499 0.793759 0.702541
0.660822 0.805905 0.701442
0.775937 0.770260 0.649653
0.990906 0.847196 0.716518
0.607599 0.967895 0.820951
0.658503 0.966308 0.823423
0.780758 0.965362 0.834379
0.877653 0.972808 0.847959
0.955932 0.954131 0.812284
0.222049 0.207065 0.753719
0.324437 0.208530 0.759182
0.546227 0.198581 0.778286
0.807370 0.260319 0.793423
0.989837 0.473976 0.786374
0.269322 0.339940 0.756893
0.352270 0.340185 0.762600
0.555810 0.337682 0.780819
0.809079 0.381781 0.796323
0.987793 0.540673 0.796048
0.376623 0.555474 0.762295
0.456825 0.579065 0.764401
0.610529 0.602228 0.782315
0.808988 0.612116 0.800595
0.981018 0.683833 0.817105
0.433539 0.710109 0.790951
0.501457 0.723415 0.793515
0.654841 0.760189 0.800107
0.818509 0.814176 0.815610
0.983093 0.843229 0.845090
0.556512 0.961273 0.927916
0.606470 0.967651 0.928710
0.740078 0.966369 0.914214
0.888579 0.970916 0.910979
0.962646 0.961303 0.885161
0.372961 0.360052 0.955322
0.429023 0.364172 0.956786
0.580102 0.375463 0.961975
0.775235 0.386297 0.970306
0.981659 0.514366 0.970031
0.429206 0.460731 0.952880
0.474067 0.463203 0.954314
0.604700 0.470619 0.959503
0.782895 0.476204 0.967834
0.979614 0.568811 0.968933
0.561212 0.662135 0.946227
0.594171 0.667750 0.947326
0.675807 0.668666 0.952758
0.805844 0.663478 0.962310
0.975830 0.701076 0.967803
0.632380 0.790707 0.950622
0.662501 0.799405 0.950103
0.746334 0.825681 0.949401
0.841886 0.838254 0.958007
0.974395 0.849454 0.970153
0.684077 0.897032 0.966613
0.707301 0.901793 0.966552
0.777676 0.917784 0.967163
0.874907 0.943206 0.969207
0.976410 0.975830 0.976013
