data/fiter_cube/72007313/1022715/file.cube
# Created by Adobe Lightroom plugin Export LUT (1.17.0)
# www.johnrellis.com/lightroom/exportlut.htm
# Preset: 高级电影暗青色_04 云集
# Color profile: C:\Program Files (x86)\Common Files\Adobe\Color\Profiles\Recommended\AdobeRGB1998.icc
LUT_3D_SIZE 8
DOMAIN_MIN 0.000000 0.000000 0.000000
DOMAIN_MAX 0.903226 0.903226 0.903226
0.064668 0.073671 0.070710
0.084749 0.075502 0.074281
0.157198 0.068452 0.081453
0.316991 0.000000 0.089509
0.569970 0.000000 0.095644
0.756405 0.000000 0.124697
0.844968 0.084443 0.190860
0.899718 0.311559 0.304387
0.071534 0.090791 0.079927
0.084596 0.093629 0.081819
0.159823 0.093233 0.084535
0.313085 0.039155 0.091768
0.563226 0.000000 0.096864
0.740414 0.000000 0.120760
0.835935 0.145602 0.184695
0.895323 0.328466 0.300694
0.084047 0.156588 0.112581
0.107332 0.153689 0.117769
0.163058 0.167361 0.113344
0.370947 0.191287 0.095491
0.602167 0.190829 0.099062
0.753292 0.245212 0.132021
0.844938 0.342443 0.220798
0.896361 0.439643 0.349889
0.111788 0.305180 0.181918
0.149325 0.305303 0.187869
0.232731 0.291844 0.218936
0.384131 0.369635 0.182132
0.662257 0.469245 0.120089
0.773648 0.478676 0.168887
0.843656 0.502495 0.272618
0.889311 0.547295 0.406958
0.165408 0.518517 0.290898
0.213413 0.518334 0.296330
0.334478 0.513237 0.325322
0.452033 0.525780 0.360998
0.596765 0.575494 0.300267
0.761013 0.625818 0.267948
0.836362 0.626184 0.339696
0.880095 0.648096 0.482826
0.318700 0.681605 0.447852
0.371191 0.688289 0.466682
0.470314 0.684962 0.493477
0.568688 0.673426 0.547265
0.628473 0.687129 0.544335
0.719020 0.713283 0.501854
0.818051 0.737179 0.514305
0.871824 0.741604 0.582788
0.511894 0.780728 0.614893
0.534295 0.780636 0.623682
0.590936 0.776242 0.646754
0.646357 0.771359 0.674189
0.692073 0.764797 0.709773
0.725887 0.781949 0.695033
0.784543 0.798215 0.675074
0.848569 0.811521 0.693843
0.641688 0.844877 0.739528
0.650874 0.844053 0.743099
0.681025 0.842374 0.757076
0.719265 0.842161 0.777218
0.744900 0.834043 0.787961
0.772549 0.837003 0.805234
0.799619 0.850340 0.800137
0.838499 0.859953 0.795285
0.064546 0.075319 0.078523
0.081086 0.077058 0.078950
0.151797 0.079652 0.082490
0.303014 0.025574 0.091005
0.549767 0.000000 0.096284
0.730251 0.000000 0.117037
0.830991 0.076875 0.177188
0.892973 0.293339 0.285771
0.065400 0.092134 0.088319
0.087068 0.095857 0.088930
0.158785 0.103151 0.086549
0.309728 0.084962 0.092805
0.551049 0.000000 0.097505
0.724697 0.000000 0.116732
0.824521 0.146365 0.174228
0.888365 0.309819 0.281621
0.082887 0.156344 0.120516
0.111543 0.156741 0.126528
0.164157 0.168368 0.123507
0.356970 0.195041 0.095064
0.577783 0.195926 0.097902
0.734951 0.241703 0.123751
0.829465 0.320378 0.197452
0.889158 0.417609 0.321965
0.111574 0.290105 0.184482
0.148928 0.293370 0.191501
0.229435 0.285496 0.220706
0.351080 0.338659 0.185794
0.618006 0.425940 0.108278
0.747951 0.448737 0.140963
0.828885 0.478737 0.237583
0.883238 0.528283 0.374823
0.166995 0.510796 0.296849
0.211032 0.508904 0.300145
0.326848 0.502556 0.324407
0.433082 0.504356 0.353246
0.573205 0.551659 0.293584
0.748684 0.611444 0.245060
0.829862 0.616419 0.317174
0.876921 0.638697 0.462776
0.305394 0.671809 0.442756
0.344610 0.671778 0.450111
0.453010 0.670008 0.480446
0.554986 0.661524 0.533196
0.620417 0.678401 0.538354
0.714565 0.708797 0.503380
0.815549 0.733089 0.504051
0.870115 0.736233 0.569909
0.491554 0.772702 0.601740
0.509636 0.770413 0.605463
0.572442 0.767208 0.630213
0.636866 0.764675 0.663966
0.687129 0.760250 0.703944
0.721096 0.776883 0.689845
0.779263 0.792172 0.666621
0.845426 0.805692 0.680781
0.631830 0.841703 0.733059
0.642634 0.841367 0.737697
0.674495 0.839994 0.752346
0.715694 0.840177 0.774533
0.749355 0.837736 0.793790
0.774441 0.838285 0.808286
0.798581 0.849454 0.800015
0.836820 0.858061 0.791867
0.066011 0.079011 0.104494
0.083589 0.082094 0.105837
0.143282 0.092348 0.114809
0.310918 0.036011 0.113497
0.572259 0.000000 0.098421
0.742184 0.000000 0.122927
0.837125 0.195254 0.189822
0.896025 0.325811 0.301305
0.073915 0.098787 0.114870
0.092836 0.103426 0.119051
0.155184 0.110536 0.125307
0.315160 0.094667 0.121218
0.568231 0.000000 0.103639
0.736721 0.118288 0.122255
0.832578 0.230747 0.188663
0.893339 0.346685 0.302525
0.074434 0.162844 0.154665
0.100526 0.170443 0.158053
0.181582 0.183200 0.158816
0.364172 0.202121 0.147005
0.597559 0.234134 0.125582
0.745510 0.296208 0.129702
0.832822 0.355657 0.207706
0.890135 0.430426 0.330602
0.081514 0.311528 0.224399
0.132998 0.317449 0.227604
0.252476 0.319707 0.254826
0.377874 0.362524 0.238163
0.629450 0.439948 0.176028
0.756985 0.475380 0.152468
0.833982 0.499794 0.254490
0.885496 0.539391 0.389532
0.131624 0.516747 0.329259
0.193881 0.519860 0.334386
0.341558 0.526940 0.362768
0.461463 0.524956 0.408606
0.589990 0.570703 0.358862
0.750729 0.619135 0.299351
0.831968 0.623468 0.327489
0.878050 0.642451 0.470192
0.289830 0.675441 0.467903
0.336767 0.675532 0.475105
0.456825 0.673640 0.504845
0.558709 0.665980 0.549615
0.621393 0.677699 0.562341
0.709987 0.706783 0.531548
0.813962 0.731930 0.507195
0.871031 0.737636 0.574090
0.487800 0.776455 0.617365
0.508629 0.774624 0.621759
0.569543 0.770199 0.640681
0.636896 0.766903 0.672145
0.687648 0.761837 0.708705
0.722042 0.777676 0.702846
0.780179 0.795499 0.687221
0.848631 0.809995 0.690578
0.623407 0.843046 0.735805
0.631861 0.841855 0.737911
0.664546 0.839719 0.750607
0.715053 0.840757 0.778592
0.748226 0.838621 0.795315
0.775998 0.838743 0.813169
0.799710 0.850462 0.806119
0.838102 0.859464 0.795773
0.067384 0.088167 0.146853
0.087098 0.091981 0.152010
0.148257 0.103029 0.163485
0.279301 0.103243 0.183536
0.551995 0.000000 0.173007
0.732937 0.000000 0.172305
0.832609 0.209171 0.186435
0.894133 0.314397 0.294163
0.077516 0.109377 0.162051
0.097200 0.112947 0.166598
0.161379 0.124758 0.178561
0.298894 0.125490 0.196994
0.560845 0.000000 0.190677
0.731563 0.105715 0.181064
0.830564 0.250248 0.188663
0.892729 0.337224 0.298100
0.083375 0.159457 0.191470
0.105165 0.166201 0.196384
0.194614 0.196475 0.223697
0.357000 0.201114 0.232792
0.588006 0.222324 0.229770
0.743832 0.308629 0.224277
0.838895 0.385504 0.222599
0.893309 0.432319 0.338781
0.000000 0.311070 0.287327
0.089113 0.321416 0.292241
0.228977 0.353277 0.305303
0.409979 0.388525 0.312566
0.618128 0.429297 0.285649
0.745724 0.473793 0.283879
0.832456 0.506371 0.281468
0.887327 0.536797 0.392309
0.000000 0.538048 0.406195
0.119875 0.537835 0.403449
0.314092 0.544396 0.411841
0.492988 0.547387 0.478218
0.604120 0.589837 0.446601
0.748257 0.626581 0.410498
0.828885 0.632319 0.403693
0.880247 0.642237 0.476722
0.255680 0.688563 0.521141
0.316594 0.693355 0.531182
0.446204 0.689052 0.545525
0.573785 0.687129 0.590539
0.637568 0.691615 0.618463
0.712398 0.715785 0.591302
0.811307 0.738521 0.571893
0.873259 0.736568 0.575677
0.464363 0.780117 0.637781
0.489754 0.779568 0.642817
0.559716 0.777371 0.660304
0.642390 0.776547 0.695674
0.695338 0.773037 0.726741
0.727901 0.783597 0.729213
0.780392 0.798886 0.713069
0.850004 0.812009 0.702693
0.615320 0.847288 0.747524
0.625849 0.846891 0.750515
0.655879 0.844999 0.759152
0.702480 0.843259 0.777707
0.746029 0.841733 0.798947
0.778134 0.840085 0.820005
0.800717 0.851530 0.814878
0.838621 0.861082 0.805966
0.063294 0.101411 0.211460
0.087831 0.104860 0.218631
0.167849 0.115816 0.242344
0.266636 0.130098 0.250645
0.510155 0.090547 0.306401
0.716426 0.000000 0.302098
0.823606 0.231785 0.318090
0.895628 0.329351 0.302953
0.072175 0.120241 0.225132
0.096498 0.124331 0.233127
0.178470 0.137118 0.257511
0.283726 0.154116 0.267460
0.520409 0.136263 0.318151
0.719478 0.053895 0.311559
0.823056 0.276402 0.329442
0.894743 0.353613 0.311376
0.081209 0.170626 0.246555
0.105470 0.178714 0.259159
0.197971 0.203830 0.297704
0.332219 0.239139 0.320409
0.550713 0.247654 0.354253
0.720638 0.281041 0.351843
0.818692 0.381750 0.361303
0.890654 0.418616 0.334142
0.059327 0.276890 0.323674
0.101656 0.285313 0.329381
0.211521 0.320592 0.355627
0.417304 0.405280 0.420661
0.598108 0.427283 0.424933
0.727413 0.472724 0.424262
0.816342 0.510857 0.424537
0.888548 0.509545 0.379797
0.000000 0.505638 0.461952
0.000000 0.515831 0.468544
0.246494 0.546319 0.488746
0.479622 0.571832 0.514488
0.609064 0.597436 0.519341
0.733089 0.614649 0.499794
0.812406 0.626490 0.503532
0.878843 0.625055 0.483925
0.117128 0.685145 0.575067
0.201572 0.685023 0.574609
0.365484 0.682124 0.573754
0.533989 0.682979 0.596368
0.632959 0.683162 0.646357
0.707210 0.714992 0.632410
0.804349 0.737697 0.626246
0.867216 0.734249 0.616327
0.414130 0.782315 0.666773
0.440009 0.780728 0.667475
0.516228 0.777157 0.674342
0.610864 0.775540 0.695888
0.685878 0.776913 0.729763
0.726802 0.782650 0.748074
0.776913 0.798093 0.733181
0.848905 0.811002 0.721675
0.582849 0.847044 0.754147
0.593622 0.846189 0.755550
0.627344 0.843961 0.761349
0.680476 0.844877 0.778134
0.733883 0.844053 0.799191
0.774624 0.842374 0.820523
0.799069 0.850614 0.822965
0.836637 0.860441 0.813901
0.000000 0.118196 0.311772
0.069856 0.121279 0.321263
0.178408 0.129915 0.354406
0.365698 0.139254 0.417914
0.498451 0.163546 0.417762
0.682399 0.230350 0.467475
0.803006 0.301518 0.475532
0.877714 0.402472 0.486427
0.010864 0.134127 0.317754
0.078065 0.137606 0.326818
0.183230 0.149020 0.360662
0.370703 0.168887 0.423529
0.500603 0.196384 0.423865
0.681605 0.260929 0.472236
0.801175 0.329503 0.481758
0.874784 0.429114 0.499123
0.024781 0.188266 0.345129
0.079927 0.192996 0.358618
0.196628 0.213809 0.397070
0.402319 0.266209 0.466896
0.534081 0.310277 0.472419
0.691310 0.370581 0.507469
0.799435 0.428473 0.516777
0.867185 0.515129 0.549828
0.000000 0.278935 0.392950
0.067689 0.284184 0.396643
0.185183 0.308873 0.416907
0.422217 0.405005 0.518822
0.582177 0.485939 0.555657
0.708278 0.517723 0.572045
0.797330 0.559228 0.585992
0.864042 0.588983 0.591150
0.000000 0.455085 0.498482
0.000000 0.462989 0.503807
0.225956 0.490730 0.523369
0.422858 0.540459 0.562005
0.608362 0.614160 0.623163
0.713497 0.626856 0.623407
0.792966 0.645655 0.628534
0.860899 0.647944 0.616327
0.066651 0.664057 0.624414
0.165713 0.670100 0.630213
0.323156 0.681422 0.641108
0.489387 0.698726 0.660334
0.636072 0.707973 0.682643
0.713344 0.727108 0.691646
0.796872 0.735897 0.686702
0.857481 0.733211 0.679469
0.350469 0.789975 0.718868
0.383551 0.790494 0.720577
0.472541 0.787137 0.720668
0.578393 0.784085 0.726406
0.671168 0.785122 0.745022
0.732937 0.787228 0.777340
0.778592 0.803555 0.764920
0.848508 0.813870 0.757473
0.545739 0.852018 0.777310
0.557702 0.851041 0.777676
0.595941 0.848508 0.779965
0.651209 0.846952 0.787533
0.709926 0.846098 0.800381
0.765682 0.847257 0.821866
0.799466 0.851225 0.836149
0.836027 0.861601 0.827359
0.000000 0.135073 0.447974
0.000000 0.137789 0.461158
0.184176 0.143191 0.496956
0.401312 0.149630 0.559167
0.576104 0.195682 0.597711
0.673426 0.300633 0.586816
0.766598 0.420722 0.604181
0.847593 0.489387 0.618677
0.000000 0.148470 0.445136
0.000000 0.151797 0.457404
0.181460 0.160128 0.493111
0.393011 0.175631 0.552880
0.570428 0.224826 0.593530
0.666346 0.316350 0.582238
0.761379 0.423651 0.599420
0.843961 0.487922 0.613489
0.000000 0.197330 0.466011
0.000000 0.200290 0.478004
0.176791 0.218601 0.511833
0.398535 0.261204 0.570947
0.586358 0.342321 0.620356
0.672755 0.417395 0.609125
0.763394 0.498604 0.627314
0.842832 0.550927 0.644617
0.000000 0.273838 0.464179
0.000000 0.275517 0.465980
0.128298 0.302220 0.515679
0.382483 0.372107 0.590509
0.609339 0.501640 0.663294
0.683986 0.545953 0.655573
0.766751 0.591699 0.670527
0.840604 0.621759 0.683223
0.000000 0.427771 0.553704
0.000000 0.429267 0.553948
0.115297 0.438239 0.559319
0.301061 0.458595 0.574182
0.572717 0.571832 0.665553
0.686549 0.639063 0.694057
0.766873 0.660731 0.704158
0.838499 0.684108 0.718807
0.000000 0.616938 0.651728
0.000000 0.619471 0.653590
0.238193 0.628107 0.660609
0.407324 0.643915 0.674800
0.564050 0.670100 0.698116
0.705440 0.731380 0.750515
0.777798 0.742092 0.755062
0.838956 0.750576 0.758938
0.306157 0.764462 0.742519
0.336309 0.766720 0.745174
0.416602 0.772488 0.752010
0.522728 0.777218 0.759030
0.626795 0.786282 0.771237
0.723171 0.795956 0.788418
0.781033 0.808743 0.796902
0.843290 0.810086 0.791287
0.490455 0.850553 0.803342
0.503716 0.850492 0.803983
0.549584 0.851865 0.808164
0.610010 0.852384 0.812558
0.679652 0.850462 0.816648
0.747646 0.851194 0.828367
0.801022 0.853513 0.849790
0.835813 0.863767 0.845121
0.000000 0.155917 0.611933
0.000000 0.157412 0.620386
0.207523 0.158480 0.641871
0.428260 0.171359 0.681910
0.621363 0.283970 0.728145
0.708888 0.356817 0.728969
0.765713 0.483650 0.706416
0.819028 0.569238 0.710292
0.000000 0.168307 0.607752
0.000000 0.170779 0.616327
0.197757 0.175540 0.639033
0.420233 0.193790 0.678309
0.615991 0.303990 0.725338
0.707057 0.377081 0.729427
0.762844 0.492897 0.706233
0.817288 0.574395 0.710933
0.000000 0.207553 0.606043
0.000000 0.211856 0.613764
0.152499 0.224918 0.635370
0.403723 0.265019 0.680690
0.606226 0.378180 0.726772
0.706874 0.455695 0.739284
0.760128 0.542626 0.717617
0.815824 0.608576 0.724575
0.000000 0.274388 0.584497
0.000000 0.278813 0.595422
0.000000 0.294041 0.629572
0.345953 0.346502 0.677424
0.583062 0.464485 0.727657
0.706508 0.561425 0.755642
0.759365 0.615564 0.741146
0.816373 0.660548 0.749477
0.000000 0.404517 0.622400
0.000000 0.404089 0.623041
0.000000 0.395392 0.618463
0.140414 0.399481 0.641901
0.515679 0.515740 0.716579
0.704829 0.651240 0.773342
0.759152 0.683101 0.767758
0.817868 0.713893 0.777249
0.000000 0.591302 0.705867
0.000000 0.589807 0.704677
0.000000 0.585718 0.702174
0.204501 0.579309 0.699672
0.392218 0.574151 0.698360
0.666621 0.687526 0.772274
0.767300 0.754360 0.803647
0.822171 0.767117 0.807095
0.208377 0.743008 0.781582
0.237705 0.742672 0.781338
0.319036 0.741634 0.780850
0.425177 0.741604 0.781491
0.539788 0.744320 0.783780
0.650019 0.755367 0.791257
0.776059 0.809110 0.833402
0.828824 0.815305 0.835080
0.453101 0.836484 0.826841
0.464210 0.836576 0.827054
0.503136 0.837797 0.828733
0.564599 0.841398 0.833127
0.634913 0.846189 0.839017
0.709041 0.850462 0.845243
0.784573 0.857908 0.856809
0.836423 0.867247 0.867521
