data/fiter_cube/72007313/1022715/file.cube
# Created by Adobe Lightroom plugin Export LUT (1.17.0)
# www.johnrellis.com/lightroom/exportlut.htm
# Preset: 高级电影暗青色_04 云集
# Color profile: C:\Program Files (x86)\Common Files\Adobe\Color\Profiles\Recommended\AdobeRGB1998.icc
LUT_3D_SIZE 32
DOMAIN_MIN 0.0 0.0 0.0
DOMAIN_MAX 1.0 1.0 1.0
0.064668 0.073671 0.070710
0.064668 0.073671 0.070710
0.065675 0.073518 0.070710
0.073426 0.074556 0.072206
0.084749 0.075502 0.074281
0.098238 0.075929 0.076204
0.114595 0.075105 0.077943
0.134005 0.072816 0.079866
0.157198 0.068452 0.081453
0.186191 0.061830 0.083406
0.221805 0.037964 0.085634
0.265446 0.000000 0.087434
0.316991 0.000000 0.089509
0.375219 0.000000 0.090944
0.437171 0.000000 0.092561
0.499886 0.000000 0.093538
0.569970 0.000000 0.095644
0.632593 0.000000 0.099092
0.681758 0.000000 0.105440
0.722774 0.000000 0.113558
0.756405 0.000000 0.124697
0.784421 0.000000 0.138094
0.807706 0.000000 0.153536
0.827604 0.000000 0.171145
0.844968 0.084443 0.190860
0.860533 0.160067 0.213199
0.874846 0.215061 0.239445
0.887877 0.264408 0.269627
0.899718 0.311559 0.304387
0.910063 0.358190 0.343999
0.918791 0.404364 0.388464
0.925719 0.449104 0.436103
0.064668 0.073671 0.070710
0.064668 0.073671 0.070710
0.065675 0.073518 0.070710
0.073426 0.074556 0.072206
0.084382 0.075563 0.074281
0.097963 0.075654 0.076265
0.113863 0.074952 0.078004
0.133089 0.073915 0.079835
0.156466 0.071199 0.081910
0.185183 0.065217 0.083558
0.220157 0.048676 0.085786
0.262974 0.000000 0.087678
0.313603 0.000000 0.089784
0.371008 0.000000 0.091341
0.432105 0.000000 0.092561
0.494301 0.000000 0.093629
0.564355 0.000000 0.095552
0.625483 0.000000 0.098970
0.674372 0.000000 0.104463
0.715938 0.000000 0.112184
0.750332 0.000000 0.122469
0.779110 0.000000 0.135348
0.803037 0.000000 0.150423
0.823545 0.000000 0.167575
0.841428 0.073396 0.187198
0.857542 0.153964 0.209110
0.872313 0.209293 0.234806
0.885801 0.259434 0.264775
0.897978 0.307103 0.299351
0.908690 0.354162 0.339269
0.917754 0.400427 0.383642
0.924956 0.445472 0.431312
0.065003 0.074372 0.071015
0.065003 0.074372 0.071015
0.065827 0.074617 0.071321
0.073457 0.076387 0.072755
0.084749 0.077638 0.074800
0.098207 0.078065 0.076692
0.114015 0.078126 0.078401
0.133211 0.077180 0.080232
0.156374 0.074678 0.082277
0.184817 0.069184 0.084260
0.219760 0.058076 0.085847
0.261967 0.014740 0.088014
0.312230 0.000000 0.089845
0.369146 0.000000 0.091371
0.429969 0.000000 0.092592
0.491859 0.000000 0.093965
0.562219 0.000000 0.095796
0.622065 0.000000 0.098970
0.670619 0.000000 0.104067
0.712306 0.000000 0.111666
0.747189 0.000000 0.121736
0.776394 0.000000 0.134188
0.800687 0.000000 0.149264
0.821469 0.000000 0.166171
0.839597 0.081758 0.185397
0.855863 0.156802 0.207279
0.870878 0.211429 0.232914
0.884550 0.260472 0.263096
0.896971 0.307744 0.297704
0.907897 0.354284 0.337194
0.917052 0.400275 0.381811
0.924407 0.445106 0.429389
0.068086 0.081300 0.074922
0.068086 0.081300 0.074922
0.069398 0.081117 0.075624
0.073854 0.082795 0.076020
0.086580 0.085054 0.076478
0.100191 0.085054 0.078004
0.115938 0.084749 0.079713
0.135012 0.084108 0.081422
0.158083 0.081788 0.083192
0.186282 0.077913 0.085054
0.220829 0.069184 0.086885
0.262974 0.046235 0.088960
0.312535 0.000000 0.090669
0.368933 0.000000 0.092409
0.429023 0.000000 0.093568
0.490578 0.000000 0.094575
0.561517 0.000000 0.096345
0.618982 0.000000 0.099245
0.666163 0.000000 0.104097
0.707240 0.000000 0.111208
0.742092 0.000000 0.120668
0.771633 0.000000 0.132753
0.796750 0.000000 0.147219
0.818479 0.000000 0.164767
0.837583 0.108675 0.184360
0.854643 0.172732 0.207462
0.870115 0.223880 0.233921
0.884092 0.271489 0.264652
0.896544 0.316747 0.299382
0.907408 0.361578 0.338964
0.916503 0.405707 0.382940
0.923766 0.448859 0.430091
0.071534 0.090791 0.079927
0.071534 0.090791 0.079927
0.072786 0.090639 0.080262
0.077058 0.089998 0.082368
0.084596 0.093629 0.081819
0.102113 0.096468 0.080415
0.118166 0.095766 0.081422
0.137087 0.094911 0.083131
0.159823 0.093233 0.084535
0.187991 0.090150 0.086275
0.222141 0.084321 0.088014
0.263890 0.073365 0.089876
0.313085 0.039155 0.091768
0.368994 0.000000 0.093355
0.429023 0.000000 0.094270
0.495430 0.000000 0.095399
0.563226 0.000000 0.096864
0.619135 0.000000 0.100130
0.665705 0.000000 0.104738
0.706142 0.000000 0.111391
0.740414 0.000000 0.120760
0.769711 0.000000 0.132906
0.794827 0.000000 0.147524
0.816648 0.074220 0.164920
0.835935 0.145602 0.184695
0.853208 0.196658 0.208103
0.868803 0.242557 0.235019
0.882841 0.285710 0.265537
0.895323 0.328466 0.300694
0.906218 0.371038 0.340459
0.915435 0.413245 0.384283
0.922789 0.455116 0.431403
0.074006 0.102937 0.085969
0.074525 0.102876 0.085695
0.076539 0.102632 0.086244
0.081605 0.100954 0.088014
0.086915 0.102266 0.089174
0.098116 0.106722 0.087861
0.121645 0.111635 0.085054
0.141512 0.109957 0.084688
0.164645 0.108461 0.086244
0.192752 0.106630 0.087861
0.227237 0.102968 0.089631
0.268986 0.095766 0.091279
0.318303 0.081544 0.092866
0.374029 0.046113 0.094362
0.433753 0.000000 0.095186
0.504082 0.000000 0.096651
0.568475 0.000000 0.097902
0.622431 0.000000 0.100801
0.667933 0.000000 0.105898
0.707698 0.000000 0.112764
0.741726 0.000000 0.122316
0.770840 0.000000 0.135012
0.822049 0.178012 0.174014
0.839811 0.216007 0.194888
0.855406 0.251133 0.217807
0.869322 0.284459 0.243168
0.881834 0.317906 0.271977
0.893126 0.351690 0.303807
0.903136 0.386236 0.339544
0.911864 0.421454 0.379187
0.919066 0.456916 0.421546
0.924804 0.491798 0.465156
0.076753 0.119387 0.094118
0.077638 0.119295 0.093843
0.080995 0.119142 0.094850
0.087190 0.117769 0.096132
0.094270 0.115267 0.099702
0.101808 0.119112 0.097902
0.117311 0.125002 0.096040
0.147951 0.132906 0.092042
0.176394 0.132052 0.089296
0.207736 0.130129 0.089723
0.244877 0.127779 0.091463
0.289586 0.123079 0.093202
0.340978 0.113863 0.094728
0.397528 0.097902 0.095949
0.466255 0.070344 0.096925
0.534142 0.000000 0.097749
0.592645 0.000000 0.099825
0.641901 0.000000 0.103243
0.684749 0.000000 0.108919
0.722805 0.060365 0.117617
0.756161 0.115206 0.129641
0.785367 0.159487 0.145846
0.810544 0.200626 0.165896
0.832029 0.238437 0.189181
0.850309 0.273899 0.214694
0.865751 0.306218 0.242344
0.878965 0.337713 0.272526
0.890623 0.368902 0.304997
0.900877 0.400855 0.341314
0.909789 0.433356 0.380652
0.917205 0.466621 0.422919
0.923095 0.499825 0.466346
0.079072 0.136416 0.102358
0.081788 0.136172 0.102571
0.085359 0.135988 0.103212
0.091493 0.135195 0.104341
0.100649 0.132601 0.107820
0.108248 0.131594 0.110140
0.118441 0.136965 0.106172
0.137453 0.143862 0.104067
0.174197 0.155001 0.099367
0.212558 0.157107 0.094484
0.252903 0.155673 0.092348
0.297856 0.153475 0.094179
0.349096 0.148562 0.095521
0.413184 0.142519 0.096773
0.479255 0.133394 0.097230
0.541466 0.123751 0.098268
0.595697 0.119509 0.099977
0.642420 0.123842 0.103426
0.683803 0.136995 0.109041
0.720851 0.158328 0.117678
0.753658 0.185489 0.130068
0.782437 0.215122 0.146304
0.807370 0.245792 0.166873
0.828824 0.276188 0.190280
0.847135 0.305760 0.216251
0.862699 0.333806 0.244266
0.876158 0.361456 0.274449
0.888029 0.389136 0.307378
0.898528 0.418341 0.344152
0.907561 0.448341 0.383856
0.915160 0.479561 0.426337
0.921233 0.510918 0.469947
0.084047 0.156588 0.112581
0.086458 0.156374 0.113222
0.090394 0.156344 0.113954
0.098268 0.156039 0.115908
0.107332 0.153689 0.117769
0.117647 0.150301 0.122377
0.125734 0.152499 0.121950
0.139345 0.159121 0.116854
0.163058 0.167361 0.113344
0.207919 0.182803 0.107881
0.258732 0.189822 0.100465
0.310643 0.190494 0.096498
0.370947 0.191287 0.095491
0.433051 0.190646 0.096040
0.494270 0.189090 0.096742
0.551690 0.188266 0.097414
0.602167 0.190829 0.099062
0.646479 0.196994 0.103304
0.685969 0.208377 0.109346
0.721645 0.224796 0.118746
0.753292 0.245212 0.132021
0.781369 0.268437 0.149020
0.805753 0.292973 0.170016
0.826780 0.317876 0.194064
0.844938 0.342443 0.220798
0.860410 0.366064 0.249180
0.873930 0.389654 0.279759
0.885801 0.413916 0.313207
0.896361 0.439643 0.349889
0.905425 0.466835 0.389899
0.913054 0.495399 0.432441
0.919280 0.524437 0.475319
0.089509 0.180819 0.124910
0.092470 0.180575 0.125277
0.096193 0.180423 0.125765
0.104585 0.180331 0.127626
0.114229 0.178775 0.129244
0.126833 0.175357 0.133883
0.138094 0.171389 0.139864
0.148074 0.178195 0.135225
0.165774 0.186160 0.128969
0.195224 0.197177 0.124300
0.253513 0.220157 0.118471
0.322759 0.235416 0.106844
0.384466 0.239811 0.100221
0.449287 0.242466 0.093599
0.508721 0.245457 0.093660
0.563745 0.249332 0.094667
0.612146 0.254978 0.097658
0.654536 0.263340 0.102388
0.692134 0.274357 0.109895
0.725460 0.287541 0.120607
0.755062 0.303136 0.135042
0.781125 0.320439 0.152651
0.803983 0.338750 0.173953
0.824063 0.357733 0.197665
0.841703 0.377111 0.224552
0.857176 0.396826 0.253361
0.870909 0.417090 0.284520
0.883085 0.438819 0.319158
0.893919 0.462257 0.357031
0.903258 0.487312 0.397864
0.911009 0.514153 0.441352
0.917357 0.541405 0.484718
0.095674 0.208438 0.138186
0.098604 0.208438 0.138613
0.102541 0.208499 0.139193
0.111086 0.208591 0.140963
0.121798 0.208133 0.142245
0.136355 0.204990 0.147158
0.150881 0.201328 0.153506
0.163485 0.202396 0.157626
0.179232 0.213291 0.152438
0.204135 0.225254 0.145785
0.241825 0.239414 0.138491
0.310918 0.267735 0.130617
0.387640 0.287633 0.115114
0.456245 0.297124 0.103059
0.519890 0.303197 0.092439
0.573632 0.308843 0.090089
0.619165 0.315221 0.094118
0.659113 0.322820 0.100649
0.694789 0.331975 0.109651
0.726680 0.342962 0.121920
0.755123 0.355627 0.137942
0.780453 0.369482 0.157412
0.802914 0.384375 0.179843
0.822660 0.399725 0.204837
0.839994 0.415320 0.232609
0.855253 0.431189 0.261997
0.868742 0.447883 0.293675
0.880797 0.466163 0.328374
0.891508 0.486458 0.366247
0.900786 0.508782 0.407202
0.908598 0.533104 0.450538
0.915099 0.557885 0.493111
0.102052 0.243229 0.154391
0.105501 0.243442 0.154879
0.109957 0.243900 0.155764
0.119326 0.244846 0.157717
0.133974 0.246525 0.161929
0.148348 0.244999 0.164523
0.167300 0.242496 0.171939
0.185153 0.239597 0.181399
0.199802 0.246433 0.181155
0.220615 0.259434 0.173953
0.251987 0.273503 0.165072
0.297154 0.289982 0.154910
0.423957 0.364416 0.153445
0.509514 0.392645 0.130556
0.576501 0.408392 0.111452
0.625757 0.414679 0.101534
0.667445 0.419043 0.096834
0.699397 0.421942 0.109957
0.727260 0.425360 0.124788
0.752621 0.430091 0.142611
0.775570 0.436133 0.162539
0.796353 0.443366 0.184634
0.814969 0.451301 0.208499
0.831754 0.460517 0.234989
0.846799 0.470588 0.263462
0.860258 0.481910 0.293614
0.872221 0.494362 0.325750
0.882933 0.508446 0.359960
0.892454 0.524773 0.396643
0.900755 0.543267 0.436225
0.907836 0.563348 0.476387
0.913878 0.584344 0.515740
0.111788 0.305180 0.181918
0.115908 0.305303 0.182315
0.121096 0.305089 0.182986
0.132296 0.305028 0.184421
0.149325 0.305303 0.187869
0.165560 0.303166 0.189212
0.188449 0.299474 0.196811
0.211124 0.295293 0.206332
0.232731 0.291844 0.218936
0.251865 0.307591 0.211887
0.282689 0.326024 0.203983
0.325963 0.346105 0.193881
0.384131 0.369635 0.182132
0.474342 0.412604 0.168917
0.556298 0.444709 0.147005
0.619379 0.463569 0.126711
0.662257 0.469245 0.120089
0.698573 0.472023 0.115938
0.726925 0.473274 0.128420
0.751369 0.475196 0.147402
0.773648 0.478676 0.168887
0.793973 0.483131 0.191928
0.812192 0.488563 0.216922
0.828763 0.494972 0.243839
0.843656 0.502495 0.272618
0.856992 0.511131 0.303136
0.868986 0.521324 0.335088
0.879759 0.533165 0.369848
0.889311 0.547295 0.406958
0.897765 0.563867 0.446296
0.905058 0.581964 0.486152
0.911254 0.601404 0.525628
0.120027 0.357000 0.205234
0.124910 0.357183 0.205661
0.130465 0.356847 0.206027
0.142916 0.356359 0.207340
0.160922 0.355962 0.210300
0.180056 0.354620 0.212009
0.203616 0.350591 0.217990
0.230228 0.346258 0.227604
0.256291 0.342565 0.240177
0.278874 0.346197 0.247929
0.304173 0.364630 0.239963
0.340703 0.384894 0.230625
0.388403 0.405798 0.218967
0.447578 0.428840 0.205417
0.530571 0.468757 0.191073
0.599939 0.496162 0.171206
0.656092 0.512779 0.150515
0.692409 0.515984 0.146853
0.723751 0.517174 0.146670
0.750698 0.517632 0.154574
0.772427 0.519036 0.177493
0.792294 0.521447 0.202274
0.810269 0.524712 0.227848
0.826535 0.529198 0.255863
0.841245 0.534600 0.285466
0.854459 0.541283 0.316381
0.866392 0.549310 0.348760
0.877043 0.559319 0.383642
0.886534 0.571679 0.421210
0.895018 0.586145 0.460121
0.902373 0.602411 0.499458
0.908721 0.619989 0.538140
0.130922 0.411505 0.230777
0.135927 0.411872 0.231449
0.141939 0.411292 0.231724
0.155032 0.410559 0.232975
0.174746 0.409613 0.235416
0.199649 0.408972 0.240452
0.220554 0.405127 0.241581
0.250340 0.400732 0.251469
0.280156 0.396979 0.264164
0.309270 0.394415 0.280461
0.332952 0.406073 0.281254
0.363439 0.426184 0.272709
0.403662 0.446601 0.261967
0.452094 0.466224 0.248234
0.507988 0.486610 0.233127
0.577447 0.518456 0.219333
0.637018 0.541100 0.202548
0.684932 0.553948 0.184970
0.718563 0.557000 0.180911
0.746242 0.557397 0.184176
0.771206 0.557397 0.191531
0.791012 0.557733 0.214054
0.808438 0.559106 0.241215
0.824399 0.561639 0.269657
0.838926 0.565484 0.299809
0.852140 0.570672 0.331640
0.864073 0.577600 0.365637
0.874876 0.586664 0.402075
0.884459 0.597986 0.440833
0.892943 0.611353 0.480415
0.900389 0.626337 0.519585
0.906676 0.642634 0.557946
0.145296 0.466926 0.259861
0.150790 0.467720 0.260746
0.157656 0.467659 0.261265
0.171786 0.467720 0.262821
0.192905 0.467720 0.265873
0.220554 0.468147 0.271305
0.243046 0.467536 0.272313
0.276524 0.463996 0.282841
0.310399 0.460731 0.296330
0.343084 0.457618 0.312444
0.372656 0.454658 0.331395
0.395789 0.471778 0.321935
0.426886 0.488655 0.310430
0.465126 0.504509 0.296788
0.508232 0.518761 0.280522
0.555810 0.533867 0.264256
0.614649 0.559258 0.251621
0.666926 0.578912 0.237949
0.709438 0.589776 0.225010
0.741665 0.593866 0.222354
0.766842 0.594354 0.230106
0.789517 0.594324 0.240787
0.808530 0.594202 0.260563
0.824125 0.595392 0.289921
0.838285 0.597772 0.321080
0.851133 0.601678 0.354192
0.862760 0.607233 0.388708
0.873198 0.614862 0.425422
0.882475 0.624445 0.463478
0.890776 0.635706 0.501152
0.898039 0.648524 0.538354
0.904173 0.662562 0.574365
0.165408 0.518517 0.290898
0.170687 0.518486 0.291234
0.177432 0.518334 0.291844
0.191989 0.518273 0.293370
0.213413 0.518334 0.296330
0.241123 0.518791 0.301640
0.270207 0.519219 0.306889
0.298924 0.516625 0.312322
0.334478 0.513237 0.325322
0.369146 0.510185 0.341192
0.401556 0.507500 0.360143
0.427710 0.510826 0.371130
0.452033 0.525780 0.360998
0.482460 0.539818 0.348852
0.517449 0.552392 0.333989
0.555261 0.563409 0.316533
0.596765 0.575494 0.300267
0.647211 0.596094 0.289128
0.692988 0.612665 0.278904
0.730587 0.621820 0.270359
0.761013 0.625818 0.267948
0.783536 0.625910 0.278569
0.803952 0.625422 0.291783
0.822477 0.624964 0.307744
0.836362 0.626184 0.339696
0.848997 0.628901 0.373480
0.860441 0.633417 0.408881
0.870756 0.639857 0.445808
0.880095 0.648096 0.482826
0.888334 0.658015 0.519921
0.895537 0.669612 0.556573
0.901732 0.682155 0.591302
0.194766 0.567010 0.326604
0.200412 0.567895 0.327794
0.232792 0.597131 0.354711
0.247440 0.596796 0.356420
0.269444 0.596094 0.359503
0.297337 0.595087 0.364416
0.330663 0.594202 0.372778
0.354101 0.591455 0.373236
0.389715 0.587121 0.385840
0.424079 0.582910 0.400977
0.456062 0.579065 0.418738
0.483925 0.575250 0.438849
0.502861 0.581018 0.438239
0.523674 0.591547 0.425757
0.548760 0.601129 0.410864
0.577874 0.609796 0.393957
0.609827 0.617731 0.375067
0.644984 0.626520 0.358038
0.685145 0.640436 0.347631
0.723049 0.652491 0.340734
0.754849 0.658625 0.334783
0.782559 0.661372 0.331762
0.801999 0.660426 0.344030
0.819730 0.659236 0.358495
0.835721 0.657923 0.374517
0.848386 0.658106 0.401495
0.858915 0.660395 0.434302
0.868681 0.664698 0.468330
0.877684 0.671046 0.503105
0.885832 0.679500 0.538811
0.893004 0.689631 0.573877
0.899138 0.700710 0.607233
0.238346 0.616510 0.371862
0.246494 0.619959 0.376043
0.257359 0.623316 0.380438
0.274418 0.626093 0.385687
0.297459 0.627863 0.391485
0.325139 0.628168 0.397986
0.357427 0.627771 0.406592
0.383368 0.626337 0.409979
0.414710 0.622919 0.419532
0.447608 0.619074 0.433783
0.478553 0.615564 0.450477
0.505852 0.612207 0.468696
0.528588 0.608515 0.487770
0.543450 0.617670 0.477363
0.562249 0.626276 0.464576
0.584894 0.634058 0.449653
0.610773 0.641199 0.432959
0.639368 0.647791 0.414618
0.670771 0.655360 0.399115
0.705531 0.666499 0.391424
0.739528 0.677028 0.387915
0.768826 0.683040 0.386175
0.794675 0.685878 0.386297
0.813382 0.685603 0.398779
0.829526 0.684749 0.415229
0.844236 0.684199 0.433265
0.856901 0.684718 0.456672
0.866484 0.687953 0.489906
0.875334 0.693294 0.524071
0.883421 0.700557 0.558251
0.890471 0.709316 0.591913
0.896605 0.719051 0.623774
0.276524 0.650721 0.409003
0.284733 0.653529 0.413123
0.294804 0.656275 0.417487
0.310948 0.658381 0.422522
0.332403 0.659724 0.428321
0.358190 0.659724 0.434668
0.388312 0.659083 0.443244
0.420203 0.658167 0.453468
0.442023 0.655940 0.456245
0.472633 0.652552 0.469184
0.501427 0.649561 0.484352
0.527520 0.646632 0.500755
0.549889 0.643305 0.517693
0.566674 0.643580 0.526940
0.580133 0.651087 0.516350
0.597070 0.658015 0.504082
0.617182 0.664393 0.490120
0.640375 0.670405 0.474861
0.666163 0.676295 0.458289
0.694331 0.682856 0.445045
0.724331 0.691676 0.440436
0.754757 0.701015 0.440192
0.781491 0.706691 0.441718
0.805295 0.709377 0.444190
0.823423 0.709407 0.455116
0.838163 0.709071 0.472114
0.851682 0.709102 0.490608
0.864103 0.710048 0.511315
0.872953 0.714168 0.543542
0.880858 0.720241 0.576532
0.887846 0.727718 0.608759
0.894133 0.736141 0.638727
0.318700 0.681605 0.447852
0.326665 0.683772 0.451637
0.336278 0.685878 0.455909
0.351110 0.687556 0.460914
0.371191 0.688289 0.466682
0.394781 0.688075 0.472999
0.421515 0.687221 0.480934
0.451148 0.686122 0.491341
0.470314 0.684962 0.493477
0.497139 0.681971 0.504601
0.523095 0.679133 0.517723
0.547265 0.676295 0.532128
0.568688 0.673426 0.547265
0.587182 0.670680 0.563134
0.599756 0.673884 0.563928
0.612482 0.680568 0.554498
0.628473 0.687129 0.544335
0.647517 0.693629 0.533501
0.669245 0.700160 0.522362
0.693355 0.706600 0.510521
0.719020 0.713283 0.501854
0.745235 0.720943 0.501762
0.772213 0.729091 0.504265
0.796445 0.734463 0.509117
0.818051 0.737179 0.514305
0.835447 0.737911 0.524529
0.848722 0.738308 0.542260
0.860838 0.739406 0.561425
0.871824 0.741604 0.582788
0.880186 0.745693 0.609430
0.886900 0.751583 0.637934
0.892882 0.758358 0.664454
0.379828 0.716182 0.499672
0.385199 0.716945 0.501854
0.391394 0.717464 0.504021
0.402686 0.717586 0.507164
0.418616 0.717220 0.511376
0.438270 0.716396 0.516625
0.460822 0.715419 0.523674
0.486122 0.714473 0.533227
0.509697 0.713771 0.542046
0.528405 0.712184 0.547387
0.551781 0.710079 0.559564
0.573693 0.707851 0.572564
0.593408 0.705501 0.586145
0.610773 0.703090 0.600092
0.625574 0.700618 0.614313
0.634607 0.705806 0.608148
0.645838 0.711452 0.599664
0.659785 0.717006 0.590631
0.676417 0.722591 0.581018
0.695369 0.728054 0.571038
0.716365 0.733364 0.560174
0.738705 0.738521 0.551965
0.760739 0.743862 0.552331
0.784329 0.750088 0.553826
0.806302 0.754726 0.559106
0.826139 0.757382 0.565148
0.843107 0.758724 0.574334
0.855314 0.760037 0.592920
0.866423 0.761990 0.612268
0.876402 0.764584 0.632105
0.884642 0.768490 0.654047
0.890654 0.774411 0.679316
0.424384 0.738643 0.537255
0.428870 0.739284 0.539300
0.434424 0.739803 0.541588
0.444160 0.739864 0.544671
0.457465 0.739498 0.548547
0.473854 0.738643 0.553277
0.492866 0.737545 0.559594
0.514397 0.736416 0.567834
0.538262 0.735500 0.578912
0.552239 0.734646 0.581384
0.572778 0.732692 0.591882
0.592401 0.730709 0.603418
0.610468 0.728695 0.615320
0.626856 0.726650 0.627771
0.641199 0.724727 0.640345
0.652461 0.724636 0.648798
0.660761 0.729946 0.642512
0.671290 0.735286 0.635737
0.684169 0.740627 0.628717
0.699306 0.745968 0.621271
0.716487 0.751247 0.613428
0.735592 0.756374 0.605127
0.755764 0.761135 0.598962
0.775174 0.765591 0.601526
0.794125 0.767514 0.595636
0.814481 0.772122 0.601831
0.833036 0.775235 0.609339
0.849607 0.777218 0.618128
0.860960 0.779019 0.635767
0.871214 0.781582 0.654322
0.880339 0.784970 0.673518
0.888212 0.789242 0.692653
0.476661 0.763607 0.582757
0.480720 0.764248 0.584894
0.485145 0.764462 0.586664
0.492348 0.764248 0.589014
0.502708 0.763546 0.592065
0.515618 0.762478 0.596002
0.531060 0.761105 0.601099
0.548425 0.759640 0.607874
0.567864 0.758175 0.616785
0.583398 0.757015 0.622736
0.596918 0.755093 0.627222
0.613184 0.752987 0.636103
0.628626 0.750912 0.645563
0.642847 0.748684 0.655207
0.655604 0.746395 0.665095
0.666835 0.744198 0.675227
0.674647 0.745541 0.676814
0.682002 0.749996 0.670802
0.691798 0.754849 0.665064
0.703853 0.759976 0.659571
0.717922 0.765194 0.654047
0.733730 0.770230 0.648005
0.751095 0.774868 0.641016
0.769192 0.778714 0.635279
0.785977 0.781857 0.638148
0.804776 0.785763 0.638422
0.823545 0.790311 0.645228
0.840513 0.793301 0.652491
0.855894 0.795529 0.660883
0.866789 0.797848 0.676570
0.876097 0.801022 0.694179
0.884215 0.805081 0.712154
0.511894 0.780728 0.614893
0.515435 0.781277 0.616907
0.519249 0.781521 0.618616
0.525475 0.781277 0.620874
0.534295 0.780636 0.623682
0.545434 0.779690 0.627497
0.558862 0.778561 0.632441
0.574121 0.777340 0.638758
0.590936 0.776242 0.646754
0.608728 0.775357 0.656550
0.617914 0.774502 0.657893
0.632441 0.772915 0.665858
0.646357 0.771359 0.674189
0.659480 0.769741 0.682856
0.671504 0.768002 0.691615
0.682368 0.766293 0.700526
0.692073 0.764797 0.709773
0.698238 0.768093 0.707607
0.705562 0.772549 0.703334
0.714839 0.777249 0.699275
0.725887 0.781949 0.695033
0.738552 0.786587 0.690608
0.752682 0.790982 0.685603
0.768276 0.794949 0.679805
0.784543 0.798215 0.675074
0.799069 0.800534 0.678767
0.815732 0.803616 0.678676
0.832975 0.808042 0.685756
0.848569 0.811521 0.693843
0.862608 0.814328 0.702846
0.873136 0.817258 0.716640
0.881285 0.821042 0.733089
0.548302 0.798001 0.648829
0.551019 0.798306 0.650294
0.553796 0.798306 0.651484
0.558587 0.797940 0.653193
0.565667 0.797177 0.655390
0.574578 0.796201 0.658442
0.585473 0.795071 0.662470
0.598108 0.793942 0.667720
0.612421 0.792935 0.674525
0.627619 0.792142 0.682765
0.639063 0.791562 0.687526
0.650019 0.790646 0.692348
0.662501 0.789425 0.699672
0.674495 0.788113 0.707210
0.685542 0.786709 0.714717
0.695766 0.785245 0.722408
0.705104 0.783932 0.730312
0.713191 0.783536 0.737026
0.718715 0.787503 0.733730
0.725856 0.791775 0.730587
0.734585 0.796139 0.727443
0.744808 0.800473 0.724147
0.756313 0.804501 0.720363
0.769162 0.808286 0.716030
0.783261 0.811704 0.710994
0.797726 0.814481 0.708309
0.810636 0.816220 0.711635
0.825528 0.818814 0.711482
0.841245 0.823117 0.718471
0.855589 0.826963 0.727169
0.868284 0.830350 0.736721
0.878294 0.833829 0.748775
0.578698 0.812863 0.678004
0.580682 0.813016 0.679042
0.582971 0.813016 0.680018
0.587060 0.812772 0.681605
0.593347 0.812284 0.683955
0.601617 0.811795 0.687373
0.612055 0.811429 0.692164
0.624170 0.811215 0.698238
0.637659 0.811154 0.705592
0.652094 0.811337 0.714137
0.666743 0.811704 0.723415
0.674800 0.812070 0.726284
0.686427 0.811704 0.733333
0.697475 0.811185 0.740352
0.707851 0.810483 0.747158
0.717311 0.809506 0.753750
0.726070 0.808499 0.760372
0.734188 0.807736 0.767269
0.740505 0.808927 0.770474
0.745785 0.812528 0.768124
0.752346 0.816251 0.765805
0.760159 0.819944 0.763302
0.769070 0.823484 0.760464
0.779171 0.826810 0.757321
0.790433 0.829892 0.753658
0.802884 0.832792 0.749630
0.815457 0.835142 0.748928
0.826352 0.836179 0.751278
0.839017 0.838071 0.751003
0.852567 0.841794 0.757168
0.864927 0.845518 0.765377
0.875456 0.848936 0.774319
0.617182 0.831662 0.715114
0.618524 0.831754 0.715816
0.620111 0.831601 0.716396
0.623163 0.831266 0.717464
0.627863 0.830716 0.719142
0.634150 0.830076 0.721584
0.642145 0.829496 0.725002
0.651423 0.828946 0.729335
0.662013 0.828519 0.734676
0.673610 0.828183 0.741024
0.685725 0.827970 0.748104
0.694423 0.827939 0.752071
0.702815 0.827481 0.756008
0.712276 0.826749 0.761379
