data/fiter_cube/72007313/1022715/file.cube
# Created by Adobe Lightroom plugin Export LUT (1.17.0)
# www.johnrellis.com/lightroom/exportlut.htm
# Preset: 高级电影暗青色_04 云集
# Color profile: C:\Program Files (x86)\Common Files\Adobe\Color\Profiles\Recommended\AdobeRGB1998.icc
LUT_3D_SIZE 5
DOMAIN_MIN 0.000000 0.000000 0.000000
DOMAIN_MAX 0.903226 0.903226 0.903226
0.064668 0.073671 0.070710
0.134005 0.072816 0.079866
0.437171 0.000000 0.092561
0.784421 0.000000 0.138094
0.899718 0.311559 0.304387
0.079072 0.136416 0.102358
0.137453 0.143862 0.104067
0.479255 0.133394 0.097230
0.782437 0.215122 0.146304
0.898528 0.418341 0.344152
0.130922 0.411505 0.230777
0.250340 0.400732 0.251469
0.507988 0.486610 0.233127
0.791012 0.557733 0.214054
0.884459 0.597986 0.440833
0.379828 0.716182 0.499672
0.486122 0.714473 0.533227
0.625574 0.700618 0.614313
0.738705 0.738521 0.551965
0.866423 0.761990 0.612268
0.641688 0.844877 0.739528
0.671687 0.842710 0.752346
0.727718 0.835080 0.777005
0.778042 0.840482 0.804257
0.838499 0.859953 0.795285
0.065522 0.078035 0.096071
0.121767 0.087465 0.102663
0.427070 0.000000 0.094667
0.762234 0.000000 0.130648
0.893095 0.309453 0.290471
0.072969 0.140444 0.133913
0.148867 0.153780 0.136049
0.468269 0.169863 0.113558
0.766110 0.250553 0.138766
0.890776 0.402930 0.319219
0.109865 0.404944 0.257053
0.253208 0.410101 0.276677
0.481086 0.460548 0.267247
0.778592 0.548913 0.193973
0.882536 0.594537 0.431769
0.370092 0.715328 0.516899
0.481056 0.713924 0.546288
0.627558 0.702693 0.624323
0.734646 0.736965 0.575860
0.866178 0.760250 0.608637
0.632563 0.845396 0.740475
0.663905 0.843107 0.752377
0.733181 0.840635 0.786618
0.781613 0.842893 0.811887
0.839902 0.861143 0.797513
0.066438 0.094423 0.176425
0.138125 0.106081 0.195285
0.391394 0.095277 0.238285
0.758694 0.000000 0.237308
0.894835 0.320745 0.297368
0.083589 0.149050 0.205570
0.161044 0.170016 0.236393
0.443214 0.190402 0.278813
0.758663 0.270939 0.272190
0.893370 0.399664 0.323186
0.000000 0.403876 0.369299
0.181186 0.440681 0.389288
0.524926 0.502953 0.412879
0.762814 0.554040 0.394751
0.884886 0.580987 0.425025
0.278599 0.718013 0.575494
0.411017 0.712673 0.579980
0.625391 0.712306 0.647333
0.729641 0.740139 0.645228
0.865721 0.754696 0.615961
0.597772 0.845884 0.747616
0.633265 0.844785 0.756771
0.717372 0.843046 0.787533
0.781765 0.841093 0.822538
0.836667 0.859709 0.807828
0.000000 0.121523 0.336095
0.143038 0.130312 0.370520
0.446784 0.141939 0.459327
0.707027 0.272862 0.501518
0.870237 0.418280 0.519799
0.000000 0.172000 0.363348
0.152834 0.187655 0.397833
0.477485 0.253910 0.496986
0.709133 0.368597 0.526146
0.864836 0.476722 0.544060
0.000000 0.343908 0.447089
0.141878 0.364904 0.462867
0.511009 0.498512 0.574304
0.717403 0.562341 0.599817
0.853635 0.624323 0.629328
0.159884 0.697810 0.662776
0.308568 0.704372 0.669154
0.564813 0.727169 0.696895
0.731350 0.749996 0.722133
0.852110 0.751949 0.708827
0.531884 0.853178 0.784329
0.574426 0.851011 0.786465
0.675074 0.848356 0.798337
0.775814 0.849516 0.829831
0.835508 0.861601 0.830747
0.000000 0.155917 0.611933
0.150668 0.158267 0.634577
0.531853 0.209476 0.705043
0.712276 0.378271 0.708003
0.819028 0.569238 0.710292
0.000000 0.197024 0.609216
0.100191 0.208438 0.632471
0.518517 0.287633 0.704067
0.711452 0.448707 0.718502
0.816739 0.600458 0.721706
0.000000 0.322789 0.581231
0.000000 0.323125 0.595270
0.430732 0.424109 0.693935
0.718379 0.605615 0.760311
0.817136 0.687922 0.763668
0.000000 0.637690 0.729519
0.000000 0.635096 0.727749
0.355383 0.629114 0.725917
0.699763 0.725429 0.789853
0.823117 0.778775 0.813626
0.453101 0.836484 0.826841
0.490730 0.837308 0.828092
0.599115 0.844053 0.836240
0.727749 0.852415 0.847807
0.836423 0.867247 0.867521
