data/fiter_cube/55192441/1023190/file.cube
# Created by Adobe Lightroom plugin Export LUT (1.17.0)
# www.johnrellis.com/lightroom/exportlut.htm
# Preset: 清新轻盈通透人像_08 云集
# Color profile: C:\Program Files (x86)\Common Files\Adobe\Color\Profiles\Recommended\AdobeRGB1998.icc
LUT_3D_SIZE 8
DOMAIN_MIN 0.000000 0.000000 0.000000
DOMAIN_MAX 0.903226 0.903226 0.903226
0.000000 0.000000 0.000000
0.062135 0.062135 0.062135
0.181582 0.181582 0.181582
0.366705 0.366705 0.366705
0.499489 0.499489 0.499489
0.611841 0.611841 0.611841
0.692470 0.692470 0.692470
0.772061 0.772061 0.772061
0.066987 0.066987 0.066987
0.081453 0.081453 0.081453
0.236576 0.236576 0.236576
0.388312 0.388312 0.388312
0.505699 0.505699 0.505699
0.607630 0.607630 0.607630
0.685451 0.685451 0.685451
0.766781 0.766781 0.766781
0.205997 0.205997 0.205997
0.207828 0.207828 0.207828
0.291142 0.291142 0.291142
0.466438 0.466438 0.466438
0.564599 0.564599 0.564599
0.642481 0.642481 0.642481
0.717952 0.717952 0.717952
0.794919 0.794919 0.794919
0.404334 0.404334 0.404334
0.402808 0.402808 0.402808
0.408484 0.408484 0.408484
0.507164 0.507164 0.507164
0.618647 0.618647 0.618647
0.693324 0.693324 0.693324
0.749935 0.749935 0.749935
0.817136 0.817136 0.817136
0.539635 0.539635 0.539635
0.539300 0.539300 0.539300
0.542229 0.542229 0.542229
0.566033 0.566033 0.566033
0.617975 0.617975 0.617975
0.684535 0.684535 0.684535
0.762966 0.762966 0.762966
0.844358 0.844358 0.844358
0.631891 0.631891 0.631891
0.638605 0.638605 0.638605
0.639155 0.639155 0.639155
0.641505 0.641505 0.641505
0.662379 0.662379 0.662379
0.699428 0.699428 0.699428
0.769162 0.769162 0.769162
0.856901 0.856901 0.856901
0.711147 0.711147 0.711147
0.712856 0.712856 0.712856
0.711330 0.711330 0.711330
0.712215 0.712215 0.712215
0.712764 0.712764 0.712764
0.745022 0.745022 0.745022
0.784665 0.784665 0.784665
0.852873 0.852873 0.852873
0.798642 0.798642 0.798642
0.798398 0.798398 0.798398
0.799374 0.799374 0.799374
0.804257 0.804257 0.804257
0.794034 0.794034 0.794034
0.809537 0.809537 0.809537
0.849485 0.849485 0.849485
0.887083 0.887083 0.887083
0.057160 0.057160 0.057160
0.067323 0.067323 0.067323
0.214359 0.214359 0.214359
0.392218 0.392218 0.392218
0.506371 0.506371 0.506371
0.602380 0.602380 0.602380
0.679011 0.679011 0.679011
0.757473 0.757473 0.757473
0.071138 0.071138 0.071138
0.153170 0.153170 0.153170
0.283635 0.283635 0.283635
0.415015 0.415015 0.415015
0.516533 0.516533 0.516533
0.604974 0.604974 0.604974
0.675502 0.675502 0.675502
0.751827 0.751827 0.751827
0.243320 0.243320 0.243320
0.300938 0.300938 0.300938
0.348669 0.348669 0.348669
0.485298 0.485298 0.485298
0.563622 0.563622 0.563622
0.633417 0.633417 0.633417
0.698299 0.698299 0.698299
0.775540 0.775540 0.775540
0.423346 0.423346 0.423346
0.436255 0.436255 0.436255
0.443427 0.443427 0.443427
0.506584 0.506584 0.506584
0.601770 0.601770 0.601770
0.671595 0.671595 0.671595
0.726253 0.726253 0.726253
0.797452 0.797452 0.797452
0.554803 0.554803 0.554803
0.553094 0.553094 0.553094
0.552972 0.552972 0.552972
0.565301 0.565301 0.565301
0.610742 0.610742 0.610742
0.676814 0.676814 0.676814
0.753536 0.753536 0.753536
0.832425 0.832425 0.832425
0.633661 0.633661 0.633661
0.634180 0.634180 0.634180
0.635126 0.635126 0.635126
0.639399 0.639399 0.639399
0.660639 0.660639 0.660639
0.699397 0.699397 0.699397
0.766720 0.766720 0.766720
0.850584 0.850584 0.850584
0.705135 0.705135 0.705135
0.703487 0.703487 0.703487
0.703700 0.703700 0.703700
0.707698 0.707698 0.707698
0.711238 0.711238 0.711238
0.740597 0.740597 0.740597
0.776669 0.776669 0.776669
0.842435 0.842435 0.842435
0.794095 0.794095 0.794095
0.795132 0.795132 0.795132
0.796872 0.796872 0.796872
0.802457 0.802457 0.802457
0.806027 0.806027 0.806027
0.815274 0.815274 0.815274
0.849058 0.849058 0.849058
0.883604 0.883604 0.883604
0.135348 0.135348 0.135348
0.167269 0.167269 0.167269
0.263554 0.263554 0.263554
0.428321 0.428321 0.428321
0.537194 0.537194 0.537194
0.631403 0.631403 0.631403
0.698177 0.698177 0.698177
0.772274 0.772274 0.772274
0.216648 0.216648 0.216648
0.269444 0.269444 0.269444
0.331182 0.331182 0.331182
0.453651 0.453651 0.453651
0.551293 0.551293 0.551293
0.632349 0.632349 0.632349
0.696407 0.696407 0.696407
0.771054 0.771054 0.771054
0.297215 0.297215 0.297215
0.350896 0.350896 0.350896
0.457313 0.457313 0.457313
0.525200 0.525200 0.525200
0.597467 0.597467 0.597467
0.655055 0.655055 0.655055
0.712490 0.712490 0.712490
0.783902 0.783902 0.783902
0.453986 0.453986 0.453986
0.479255 0.479255 0.479255
0.536919 0.536919 0.536919
0.567834 0.567834 0.567834
0.641260 0.641260 0.641260
0.688960 0.688960 0.688960
0.742275 0.742275 0.742275
0.809110 0.809110 0.809110
0.567895 0.567895 0.567895
0.580835 0.580835 0.580835
0.608392 0.608392 0.608392
0.612940 0.612940 0.612940
0.646387 0.646387 0.646387
0.700435 0.700435 0.700435
0.771237 0.771237 0.771237
0.839292 0.839292 0.839292
0.646418 0.646418 0.646418
0.653346 0.653346 0.653346
0.663630 0.663630 0.663630
0.665126 0.665126 0.665126
0.677089 0.677089 0.677089
0.711788 0.711788 0.711788
0.776974 0.776974 0.776974
0.862028 0.862028 0.862028
0.720516 0.720516 0.720516
0.723873 0.723873 0.723873
0.725612 0.725612 0.725612
0.726345 0.726345 0.726345
0.728267 0.728267 0.728267
0.753536 0.753536 0.753536
0.792386 0.792386 0.792386
0.860746 0.860746 0.860746
0.805814 0.805814 0.805814
0.806882 0.806882 0.806882
0.807004 0.807004 0.807004
0.815183 0.815183 0.815183
0.817716 0.817716 0.817716
0.824491 0.824491 0.824491
0.858427 0.858427 0.858427
0.893553 0.893553 0.893553
0.292424 0.292424 0.292424
0.324468 0.324468 0.324468
0.396918 0.396918 0.396918
0.450355 0.450355 0.450355
0.555993 0.555993 0.555993
0.635676 0.635676 0.635676
0.699580 0.699580 0.699580
0.771237 0.771237 0.771237
0.375982 0.375982 0.375982
0.392218 0.392218 0.392218
0.437415 0.437415 0.437415
0.478584 0.478584 0.478584
0.571466 0.571466 0.571466
0.641535 0.641535 0.641535
0.701839 0.701839 0.701839
0.772915 0.772915 0.772915
0.416632 0.416632 0.416632
0.445228 0.445228 0.445228
0.513359 0.513359 0.513359
0.546502 0.546502 0.546502
0.616205 0.616205 0.616205
0.671870 0.671870 0.671870
0.732357 0.732357 0.732357
0.795377 0.795377 0.795377
0.484382 0.484382 0.484382
0.504479 0.504479 0.504479
0.560174 0.560174 0.560174
0.626246 0.626246 0.626246
0.662837 0.662837 0.662837
0.700526 0.700526 0.700526
0.751156 0.751156 0.751156
0.816098 0.816098 0.816098
0.591638 0.591638 0.591638
0.600610 0.600610 0.600610
0.630640 0.630640 0.630640
0.668421 0.668421 0.668421
0.684443 0.684443 0.684443
0.733700 0.733700 0.733700
0.789273 0.789273 0.789273
0.847807 0.847807 0.847807
0.661555 0.661555 0.661555
0.671534 0.671534 0.671534
0.688106 0.688106 0.688106
0.710994 0.710994 0.710994
0.714137 0.714137 0.714137
0.742702 0.742702 0.742702
0.802121 0.802121 0.802121
0.879271 0.879271 0.879271
0.727718 0.727718 0.727718
0.732815 0.732815 0.732815
0.748287 0.748287 0.748287
0.764675 0.764675 0.764675
0.766415 0.766415 0.766415
0.780819 0.780819 0.780819
0.813535 0.813535 0.813535
0.877806 0.877806 0.877806
0.815579 0.815579 0.815579
0.819150 0.819150 0.819150
0.828763 0.828763 0.828763
0.837613 0.837613 0.837613
0.839200 0.839200 0.839200
0.842618 0.842618 0.842618
0.871702 0.871702 0.871702
0.906432 0.906432 0.906432
0.438453 0.438453 0.438453
0.453071 0.453071 0.453071
0.490181 0.490181 0.490181
0.539452 0.539452 0.539452
0.574395 0.574395 0.574395
0.647120 0.647120 0.647120
0.708888 0.708888 0.708888
0.780148 0.780148 0.780148
0.477821 0.477821 0.477821
0.489204 0.489204 0.489204
0.516503 0.516503 0.516503
0.555200 0.555200 0.555200
0.587366 0.587366 0.587366
0.654566 0.654566 0.654566
0.714046 0.714046 0.714046
0.783413 0.783413 0.783413
0.527916 0.527916 0.527916
0.547143 0.547143 0.547143
0.570397 0.570397 0.570397
0.601190 0.601190 0.601190
0.622400 0.622400 0.622400
0.672663 0.672663 0.672663
0.727138 0.727138 0.727138
0.791073 0.791073 0.791073
0.553948 0.553948 0.553948
0.566735 0.566735 0.566735
0.606104 0.606104 0.606104
0.653346 0.653346 0.653346
0.669642 0.669642 0.669642
0.708309 0.708309 0.708309
0.755886 0.755886 0.755886
0.814023 0.814023 0.814023
0.599176 0.599176 0.599176
0.609216 0.609216 0.609216
0.637324 0.637324 0.637324
0.674647 0.674647 0.674647
0.715206 0.715206 0.715206
0.746822 0.746822 0.746822
0.788876 0.788876 0.788876
0.844633 0.844633 0.844633
0.665187 0.665187 0.665187
0.670100 0.670100 0.670100
0.684932 0.684932 0.684932
0.711666 0.711666 0.711666
0.742489 0.742489 0.742489
0.764950 0.764950 0.764950
0.824704 0.824704 0.824704
0.888396 0.888396 0.888396
0.733089 0.733089 0.733089
0.736110 0.736110 0.736110
0.748440 0.748440 0.748440
0.771359 0.771359 0.771359
0.795560 0.795560 0.795560
0.800320 0.800320 0.800320
0.830198 0.830198 0.830198
0.890867 0.890867 0.890867
0.812863 0.812863 0.812863
0.815122 0.815122 0.815122
0.823819 0.823819 0.823819
0.846952 0.846952 0.846952
0.861753 0.861753 0.861753
0.864042 0.864042 0.864042
0.882353 0.882353 0.882353
0.915221 0.915221 0.915221
0.552453 0.552453 0.552453
0.559380 0.559380 0.559380
0.577966 0.577966 0.577966
0.611719 0.611719 0.611719
0.644556 0.644556 0.644556
0.660151 0.660151 0.660151
0.720974 0.720974 0.720974
0.795041 0.795041 0.795041
0.566278 0.566278 0.566278
0.571313 0.571313 0.571313
0.588190 0.588190 0.588190
0.618158 0.618158 0.618158
0.648280 0.648280 0.648280
0.663447 0.663447 0.663447
0.723476 0.723476 0.723476
0.796262 0.796262 0.796262
0.615686 0.615686 0.615686
0.618891 0.618891 0.618891
0.630854 0.630854 0.630854
0.650202 0.650202 0.650202
0.672419 0.672419 0.672419
0.684718 0.684718 0.684718
0.740780 0.740780 0.740780
0.808133 0.808133 0.808133
0.626001 0.626001 0.626001
0.634363 0.634363 0.634363
0.663111 0.663111 0.663111
0.691493 0.691493 0.691493
0.711666 0.711666 0.711666
0.723934 0.723934 0.723934
0.773648 0.773648 0.773648
0.831357 0.831357 0.831357
0.648310 0.648310 0.648310
0.654536 0.654536 0.654536
0.673884 0.673884 0.673884
0.704677 0.704677 0.704677
0.742061 0.742061 0.742061
0.756863 0.756863 0.756863
0.799619 0.799619 0.799619
0.851347 0.851347 0.851347
0.674372 0.674372 0.674372
0.680873 0.680873 0.680873
0.697597 0.697597 0.697597
0.724331 0.724331 0.724331
0.758267 0.758267 0.758267
0.805112 0.805112 0.805112
0.844541 0.844541 0.844541
0.891661 0.891661 0.891661
0.746700 0.746700 0.746700
0.752041 0.752041 0.752041
0.764858 0.764858 0.764858
0.785031 0.785031 0.785031
0.812528 0.812528 0.812528
0.844999 0.844999 0.844999
0.862638 0.862638 0.862638
0.920867 0.920867 0.920867
0.821592 0.821592 0.821592
0.823453 0.823453 0.823453
0.831235 0.831235 0.831235
0.848112 0.848112 0.848112
0.870634 0.870634 0.870634
0.894957 0.894957 0.894957
0.901976 0.901976 0.901976
0.932738 0.932738 0.932738
0.637812 0.637812 0.637812
0.642481 0.642481 0.642481
0.653925 0.653925 0.653925
0.672053 0.672053 0.672053
0.694118 0.694118 0.694118
0.714656 0.714656 0.714656
0.727199 0.727199 0.727199
0.797208 0.797208 0.797208
0.644160 0.644160 0.644160
0.648096 0.648096 0.648096
0.658259 0.658259 0.658259
0.674189 0.674189 0.674189
0.695216 0.695216 0.695216
0.715114 0.715114 0.715114
0.726741 0.726741 0.726741
0.794827 0.794827 0.794827
0.670680 0.670680 0.670680
0.672877 0.672877 0.672877
0.680201 0.680201 0.680201
0.693812 0.693812 0.693812
0.711971 0.711971 0.711971
0.731991 0.731991 0.731991
0.743923 0.743923 0.743923
0.810666 0.810666 0.810666
0.690089 0.690089 0.690089
0.695094 0.695094 0.695094
0.711513 0.711513 0.711513
0.723720 0.723720 0.723720
0.739925 0.739925 0.739925
0.761227 0.761227 0.761227
0.771908 0.771908 0.771908
0.832883 0.832883 0.832883
0.693782 0.693782 0.693782
0.697353 0.697353 0.697353
0.710933 0.710933 0.710933
0.740322 0.740322 0.740322
0.768307 0.768307 0.768307
0.787533 0.787533 0.787533
0.800076 0.800076 0.800076
0.858335 0.858335 0.858335
0.717403 0.717403 0.717403
0.721248 0.721248 0.721248
0.734463 0.734463 0.734463
0.756832 0.756832 0.756832
0.787106 0.787106 0.787106
0.829618 0.829618 0.829618
0.847349 0.847349 0.847349
0.894896 0.894896 0.894896
0.748592 0.748592 0.748592
0.752621 0.752621 0.752621
0.764584 0.764584 0.764584
0.784878 0.784878 0.784878
0.812619 0.812619 0.812619
0.850645 0.850645 0.850645
0.899046 0.899046 0.899046
0.937316 0.937316 0.937316
0.821256 0.821256 0.821256
0.824216 0.824216 0.824216
0.836759 0.836759 0.836759
0.855131 0.855131 0.855131
0.877928 0.877928 0.877928
0.907591 0.907591 0.907591
0.940307 0.940307 0.940307
0.957397 0.957397 0.957397
0.718746 0.718746 0.718746
0.721523 0.721523 0.721523
0.728359 0.728359 0.728359
0.742153 0.742153 0.742153
0.760708 0.760708 0.760708
0.783139 0.783139 0.783139
0.800107 0.800107 0.800107
0.810361 0.810361 0.810361
0.721950 0.721950 0.721950
0.724605 0.724605 0.724605
0.731441 0.731441 0.731441
0.744259 0.744259 0.744259
0.762325 0.762325 0.762325
0.784207 0.784207 0.784207
0.800656 0.800656 0.800656
0.810636 0.810636 0.810636
0.736202 0.736202 0.736202
0.738216 0.738216 0.738216
0.743618 0.743618 0.743618
0.757443 0.757443 0.757443
0.773556 0.773556 0.773556
0.793179 0.793179 0.793179
0.810056 0.810056 0.810056
0.819791 0.819791 0.819791
0.758724 0.758724 0.758724
0.760861 0.760861 0.760861
0.765957 0.765957 0.765957
0.776944 0.776944 0.776944
0.792172 0.792172 0.792172
0.810788 0.810788 0.810788
0.828855 0.828855 0.828855
0.837949 0.837949 0.837949
0.753536 0.753536 0.753536
0.758450 0.758450 0.758450
0.772824 0.772824 0.772824
0.798001 0.798001 0.798001
0.812741 0.812741 0.812741
0.830320 0.830320 0.830320
0.851926 0.851926 0.851926
0.863035 0.863035 0.863035
0.770321 0.770321 0.770321
0.772396 0.772396 0.772396
0.780453 0.780453 0.780453
0.795590 0.795590 0.795590
0.824887 0.824887 0.824887
0.860563 0.860563 0.860563
0.886015 0.886015 0.886015
0.901946 0.901946 0.901946
0.800015 0.800015 0.800015
0.802060 0.802060 0.802060
0.809659 0.809659 0.809659
0.824704 0.824704 0.824704
0.847593 0.847593 0.847593
0.880308 0.880308 0.880308
0.925963 0.925963 0.925963
0.942565 0.942565 0.942565
0.835752 0.835752 0.835752
0.837613 0.837613 0.837613
0.845029 0.845029 0.845029
0.859648 0.859648 0.859648
0.881224 0.881224 0.881224
0.910460 0.910460 0.910460
0.948089 0.948089 0.948089
0.987304 0.987304 0.987304
