data/fiter_cube/55192441/1023190/file.cube
# Created by Adobe Lightroom plugin Export LUT (1.17.0)
# www.johnrellis.com/lightroom/exportlut.htm
# Preset: 清新轻盈通透人像_08 云集
# Color profile: C:\Program Files (x86)\Common Files\Adobe\Color\Profiles\Recommended\AdobeRGB1998.icc
LUT_3D_SIZE 32
DOMAIN_MIN 0.0 0.0 0.0
DOMAIN_MAX 1.0 1.0 1.0
0.000000 0.000000 0.000000
0.000000 0.000000 0.000000
0.001953 0.001953 0.001953
0.031250 0.031250 0.031250
0.062135 0.062135 0.062135
0.079469 0.079469 0.079469
0.105074 0.105074 0.105074
0.139681 0.139681 0.139681
0.181582 0.181582 0.181582
0.228000 0.228000 0.228000
0.276158 0.276158 0.276158
0.323674 0.323674 0.323674
0.366705 0.366705 0.366705
0.405615 0.405615 0.405615
0.440345 0.440345 0.440345
0.471412 0.471412 0.471412
0.499489 0.499489 0.499489
0.525475 0.525475 0.525475
0.550866 0.550866 0.550866
0.583368 0.583368 0.583368
0.611841 0.611841 0.611841
0.636103 0.636103 0.636103
0.656550 0.656550 0.656550
0.674769 0.674769 0.674769
0.692470 0.692470 0.692470
0.710506 0.710506 0.710506
0.729549 0.729549 0.729549
0.749996 0.749996 0.749996
0.772061 0.772061 0.772061
0.795804 0.795804 0.795804
0.821073 0.821073 0.821073
0.847471 0.847471 0.847471
0.000000 0.000000 0.000000
0.000000 0.000000 0.000000
0.002930 0.002930 0.002930
0.032227 0.032227 0.032227
0.065583 0.065583 0.065583
0.084504 0.084504 0.084504
0.110506 0.110506 0.110506
0.144717 0.144717 0.144717
0.185611 0.185611 0.185611
0.230930 0.230930 0.230930
0.277836 0.277836 0.277836
0.324010 0.324010 0.324010
0.366339 0.366339 0.366339
0.404639 0.404639 0.404639
0.438666 0.438666 0.438666
0.469551 0.469551 0.469551
0.497414 0.497414 0.497414
0.523156 0.523156 0.523156
0.548974 0.548974 0.548974
0.580072 0.580072 0.580072
0.607843 0.607843 0.607843
0.631891 0.631891 0.631861
0.652399 0.652399 0.652399
0.670558 0.670558 0.670527
0.688136 0.688136 0.688136
0.706142 0.706142 0.706142
0.725216 0.725216 0.725216
0.745754 0.745754 0.745754
0.767941 0.767941 0.767941
0.791836 0.791836 0.791836
0.817258 0.817258 0.817258
0.843809 0.843809 0.843809
0.003906 0.003906 0.003906
0.005859 0.005859 0.005859
0.007813 0.007813 0.007813
0.053468 0.053468 0.053468
0.072724 0.072724 0.072724
0.092378 0.092378 0.092378
0.118715 0.118715 0.118715
0.152499 0.152499 0.152499
0.192264 0.192264 0.192264
0.236332 0.236332 0.236332
0.282322 0.282322 0.282322
0.327398 0.327398 0.327398
0.368688 0.368688 0.368688
0.406287 0.406287 0.406287
0.439765 0.439765 0.439765
0.469947 0.469947 0.469947
0.497536 0.497536 0.497536
0.522972 0.522972 0.522972
0.549248 0.549248 0.549248
0.579339 0.579339 0.579339
0.606592 0.606592 0.606592
0.630396 0.630396 0.630396
0.650843 0.650843 0.650843
0.668849 0.668849 0.668849
0.686366 0.686366 0.686366
0.704250 0.704250 0.704250
0.723323 0.723323 0.723323
0.743893 0.743893 0.743893
0.766140 0.766140 0.766140
0.790097 0.790097 0.790097
0.815488 0.815488 0.815488
0.842039 0.842039 0.842039
0.041016 0.041016 0.041016
0.042969 0.042969 0.042969
0.044923 0.044923 0.044923
0.059022 0.059022 0.059022
0.082826 0.082826 0.082826
0.113191 0.113191 0.113191
0.139986 0.139986 0.139986
0.172946 0.172946 0.172946
0.210636 0.210636 0.210636
0.252262 0.252262 0.252262
0.295842 0.295842 0.295842
0.337896 0.337896 0.337896
0.376837 0.376837 0.376837
0.412299 0.412299 0.412299
0.444221 0.444221 0.444221
0.473457 0.473457 0.473457
0.500114 0.500114 0.500114
0.524773 0.524773 0.524773
0.551324 0.551324 0.551324
0.579309 0.579309 0.579309
0.605127 0.605127 0.605127
0.628168 0.628168 0.628168
0.648615 0.648615 0.648615
0.667079 0.667079 0.667079
0.685176 0.685176 0.685176
0.703883 0.703883 0.703883
0.723568 0.723568 0.723568
0.744564 0.744564 0.744564
0.766934 0.766934 0.766934
0.790646 0.790646 0.790646
0.815610 0.815610 0.815610
0.841581 0.841581 0.841581
0.066987 0.066987 0.066987
0.067689 0.067689 0.067689
0.067689 0.067689 0.067689
0.068025 0.068025 0.068025
0.081453 0.081453 0.081453
0.114137 0.114137 0.114137
0.161349 0.161349 0.161349
0.202457 0.202457 0.202457
0.236576 0.236576 0.236576
0.275334 0.275334 0.275334
0.314397 0.314397 0.314397
0.352758 0.352758 0.352758
0.388312 0.388312 0.388312
0.421424 0.421424 0.421424
0.451789 0.451789 0.451789
0.479744 0.479744 0.479744
0.505699 0.505699 0.505699
0.529717 0.529717 0.529717
0.557153 0.557153 0.557153
0.583337 0.583337 0.583337
0.607630 0.607630 0.607630
0.629572 0.629572 0.629572
0.649317 0.649317 0.649317
0.667475 0.667475 0.667475
0.685451 0.685451 0.685451
0.704097 0.704097 0.704097
0.723751 0.723751 0.723751
0.744564 0.744564 0.744564
0.766781 0.766781 0.766781
0.790311 0.790311 0.790311
0.815183 0.815183 0.815183
0.841093 0.841093 0.841093
0.084779 0.084779 0.084779
0.085023 0.085023 0.085023
0.084779 0.084779 0.084779
0.084504 0.084504 0.084504
0.091890 0.091890 0.091890
0.112795 0.112795 0.112795
0.155245 0.155245 0.155245
0.210544 0.210544 0.210544
0.268772 0.268772 0.268772
0.307988 0.307988 0.307988
0.341802 0.341802 0.341802
0.374914 0.374914 0.374914
0.406409 0.406409 0.406409
0.436316 0.436316 0.436316
0.464149 0.464149 0.464149
0.490303 0.490303 0.490303
0.514702 0.514702 0.514702
0.539147 0.539147 0.539147
0.565759 0.565759 0.565759
0.590448 0.590448 0.590448
0.613581 0.613581 0.613581
0.634699 0.634699 0.634699
0.682216 0.682216 0.682216
0.700282 0.700282 0.700282
0.718135 0.718135 0.718135
0.736172 0.736172 0.736172
0.754788 0.754788 0.754788
0.774289 0.774289 0.774289
0.794919 0.794919 0.794919
0.816770 0.816770 0.816770
0.839506 0.839506 0.839506
0.859709 0.859709 0.859709
0.114870 0.114870 0.114870
0.115053 0.115053 0.115053
0.115053 0.115053 0.115053
0.115785 0.115785 0.115785
0.116365 0.116365 0.116365
0.138796 0.138796 0.138796
0.170657 0.170657 0.170657
0.222782 0.222782 0.222782
0.282444 0.282444 0.282444
0.338323 0.338323 0.338323
0.386358 0.386358 0.386358
0.413703 0.413703 0.413703
0.440162 0.440162 0.440162
0.465278 0.465278 0.465278
0.488899 0.488899 0.488899
0.511162 0.511162 0.511162
0.532647 0.532647 0.532647
0.559136 0.559136 0.559136
0.584131 0.584131 0.584131
0.608209 0.608209 0.608209
0.631281 0.631281 0.631281
0.653101 0.653101 0.653101
0.673671 0.673671 0.673671
0.694209 0.694209 0.694209
0.714595 0.714595 0.714595
0.734188 0.734188 0.734188
0.753567 0.753567 0.753567
0.773251 0.773251 0.773251
0.793912 0.793912 0.793912
0.815457 0.815457 0.815457
0.838010 0.838010 0.838010
0.861143 0.861143 0.861143
0.155642 0.155642 0.155642
0.155917 0.155917 0.155917
0.156161 0.156161 0.156161
0.156405 0.156405 0.156405
0.157321 0.157321 0.157321
0.164889 0.164889 0.164889
0.194430 0.194430 0.194430
0.229648 0.229648 0.229648
0.281041 0.281041 0.281041
0.336278 0.336278 0.336278
0.385565 0.385565 0.385565
0.428656 0.428656 0.428656
0.461067 0.461067 0.461067
0.482948 0.482948 0.482948
0.503899 0.503899 0.503899
0.523980 0.523980 0.523980
0.547509 0.547509 0.547509
0.570947 0.570947 0.570947
0.592950 0.592950 0.592950
0.614618 0.614618 0.614618
0.635676 0.635676 0.635676
0.656001 0.656001 0.656001
0.675502 0.675502 0.675502
0.695277 0.695277 0.695277
0.715023 0.715023 0.715023
0.734279 0.734279 0.734279
0.753384 0.753384 0.753384
0.772915 0.772915 0.772915
0.793484 0.793484 0.793484
0.814969 0.814969 0.814969
0.837491 0.837491 0.837491
0.860624 0.860624 0.860624
0.205997 0.205997 0.205997
0.206180 0.206180 0.206180
0.206638 0.206638 0.206638
0.207095 0.207095 0.207095
0.207828 0.207828 0.207828
0.209018 0.209018 0.209018
0.225956 0.225956 0.225956
0.256779 0.256779 0.256779
0.291142 0.291142 0.291142
0.334966 0.334966 0.334966
0.385657 0.385657 0.385657
0.428626 0.428626 0.428626
0.466438 0.466438 0.466438
0.500008 0.500008 0.500008
0.521721 0.521721 0.521721
0.543053 0.543053 0.543053
0.564599 0.564599 0.564599
0.584741 0.584741 0.584741
0.604089 0.604089 0.604089
0.623346 0.623346 0.623346
0.642481 0.642481 0.642481
0.661158 0.661158 0.661158
0.679713 0.679713 0.679713
0.698787 0.698787 0.698787
0.717952 0.717952 0.717952
0.736660 0.736660 0.736660
0.755459 0.755459 0.755459
0.774685 0.774685 0.774685
0.794919 0.794919 0.794919
0.816068 0.816068 0.816068
0.838224 0.838224 0.838224
0.861082 0.861082 0.861082
0.258976 0.258976 0.258976
0.259251 0.259251 0.259251
0.259098 0.259098 0.259098
0.259251 0.259251 0.259251
0.259953 0.259953 0.259953
0.260777 0.260777 0.260777
0.262181 0.262181 0.262181
0.287022 0.287022 0.287022
0.316167 0.316167 0.316167
0.346288 0.346288 0.346288
0.381781 0.381781 0.381781
0.427497 0.427497 0.427497
0.465400 0.465400 0.465400
0.499092 0.499092 0.499092
0.534081 0.534081 0.534081
0.564385 0.564385 0.564385
0.583032 0.583032 0.583032
0.600855 0.600855 0.600855
0.617884 0.617884 0.617884
0.634668 0.634668 0.634668
0.651331 0.651331 0.651331
0.667659 0.667659 0.667659
0.684474 0.684474 0.684474
0.701930 0.701930 0.701930
0.719844 0.719844 0.719844
0.737942 0.737942 0.737942
0.756527 0.756527 0.756527
0.775967 0.775967 0.775967
0.796506 0.796506 0.796506
0.818082 0.818082 0.818082
0.840635 0.840635 0.840635
0.863767 0.863767 0.863767
0.307530 0.307530 0.307530
0.307744 0.307744 0.307744
0.307744 0.307744 0.307744
0.308202 0.308202 0.308202
0.308934 0.308934 0.308934
0.309911 0.309911 0.309911
0.311589 0.311589 0.311589
0.318853 0.318853 0.318853
0.343603 0.343603 0.343603
0.369451 0.369451 0.369451
0.395483 0.395483 0.395483
0.423651 0.423651 0.423651
0.468818 0.468818 0.468818
0.505364 0.505364 0.505364
0.537926 0.537926 0.537926
0.567193 0.567193 0.567193
0.593774 0.593774 0.593774
0.614588 0.614588 0.614588
0.629206 0.629206 0.629206
0.644007 0.644007 0.644007
0.659022 0.659022 0.659022
0.674342 0.674342 0.674342
0.690669 0.690669 0.690669
0.707576 0.707576 0.707576
0.724941 0.724941 0.724941
0.742428 0.742428 0.742428
0.760433 0.760433 0.760433
0.779232 0.779232 0.779232
0.799222 0.799222 0.799222
0.820371 0.820371 0.820371
0.842588 0.842588 0.842588
0.865537 0.865537 0.865537
0.353033 0.353033 0.353033
0.353246 0.353246 0.353246
0.353429 0.353429 0.353429
0.353765 0.353765 0.353765
0.354437 0.354437 0.354437
0.355352 0.355352 0.355352
0.356847 0.356847 0.356847
0.358495 0.358495 0.358495
0.371893 0.371893 0.371893
0.393988 0.393988 0.393988
0.419257 0.419257 0.419257
0.446265 0.446265 0.446265
0.499031 0.499031 0.499031
0.538659 0.538659 0.538659
0.569329 0.569329 0.569329
0.596674 0.596674 0.596674
0.620630 0.620630 0.620630
0.641444 0.641444 0.641444
0.660060 0.660060 0.660060
0.673671 0.673671 0.673671
0.686549 0.686549 0.686549
0.700435 0.700435 0.700435
0.714992 0.714992 0.714992
0.730343 0.730343 0.730343
0.746181 0.746181 0.746181
0.762509 0.762509 0.762509
0.779202 0.779202 0.779202
0.796628 0.796628 0.796628
0.815091 0.815091 0.815091
0.834775 0.834775 0.834775
0.855375 0.855375 0.855375
0.876860 0.876860 0.876860
0.404334 0.404334 0.404334
0.404334 0.404334 0.404334
0.403845 0.403845 0.403845
0.403449 0.403449 0.403449
0.402808 0.402808 0.402808
0.402411 0.402411 0.402411
0.402747 0.402747 0.402747
0.403693 0.403693 0.403693
0.408484 0.408484 0.408484
0.430854 0.430854 0.430854
0.456001 0.456001 0.456001
0.481727 0.481727 0.481727
0.507164 0.507164 0.507164
0.531151 0.531151 0.531151
0.566857 0.566857 0.566857
0.594598 0.594598 0.594598
0.618647 0.618647 0.618647
0.639155 0.639155 0.639155
0.657679 0.657679 0.657679
0.675319 0.675319 0.675319
0.693324 0.693324 0.693324
0.706386 0.706386 0.706386
0.720150 0.720150 0.720150
0.734768 0.734768 0.734768
0.749935 0.749935 0.749935
0.765621 0.765621 0.765621
0.781857 0.781857 0.781857
0.798947 0.798947 0.798947
0.817136 0.817136 0.817136
0.836667 0.836667 0.836667
0.857267 0.857267 0.857267
0.878782 0.878782 0.878782
0.438117 0.438117 0.438117
0.438056 0.438056 0.438056
0.437720 0.437720 0.437720
0.437812 0.437812 0.437812
0.438727 0.438727 0.438727
0.440101 0.440101 0.440101
0.442206 0.442206 0.442206
0.444892 0.444892 0.444892
0.448646 0.448646 0.448646
0.457008 0.457008 0.457008
0.477882 0.477882 0.477882
0.499794 0.499794 0.499794
0.521721 0.521721 0.521721
0.542687 0.542687 0.542687
0.562310 0.562310 0.562310
0.592248 0.592248 0.592248
0.615991 0.615991 0.615991
0.636500 0.636500 0.636500
0.655024 0.655024 0.655024
0.672541 0.672541 0.672541
0.690761 0.690761 0.690761
0.709682 0.709682 0.709682
0.726619 0.726619 0.726619
0.740749 0.740749 0.740749
0.755489 0.755489 0.755489
0.770748 0.770748 0.770748
0.786587 0.786587 0.786587
0.803342 0.803342 0.803342
0.821286 0.821286 0.821286
0.840604 0.840604 0.840604
0.861051 0.861051 0.861051
0.882475 0.882475 0.882475
0.478248 0.478248 0.478248
0.478584 0.478584 0.478584
0.478340 0.478340 0.478340
0.478157 0.478157 0.478157
0.478004 0.478004 0.478004
0.477943 0.477943 0.477943
0.478614 0.478614 0.478614
0.480049 0.480049 0.480049
0.482551 0.482551 0.482551
0.486183 0.486183 0.486183
0.498360 0.498360 0.498360
0.517388 0.517388 0.517388
0.536553 0.536553 0.536553
0.555169 0.555169 0.555169
0.572717 0.572717 0.572717
0.588678 0.588678 0.588678
0.614038 0.614038 0.614038
0.634455 0.634455 0.634455
0.652918 0.652918 0.652918
0.670314 0.670314 0.670314
0.688136 0.688136 0.688136
0.706752 0.706752 0.706752
0.725765 0.725765 0.725765
0.745541 0.745541 0.745541
0.761471 0.761471 0.761471
0.776669 0.776669 0.776669
0.792813 0.792813 0.792813
0.810086 0.810086 0.810086
0.828641 0.828641 0.828641
0.848539 0.848539 0.848539
0.869535 0.869535 0.869535
0.891173 0.891173 0.891173
0.512047 0.512047 0.512047
0.512535 0.512535 0.512535
0.512474 0.512474 0.512474
0.512413 0.512413 0.512413
0.512413 0.512413 0.512413
0.512657 0.512657 0.512657
0.513420 0.513420 0.513420
0.514824 0.514824 0.514824
0.516777 0.516777 0.516777
0.519371 0.519371 0.519371
0.522423 0.522423 0.522423
0.536553 0.536553 0.536553
0.552117 0.552117 0.552117
0.567498 0.567498 0.567498
0.582391 0.582391 0.582391
0.596582 0.596582 0.596582
0.610132 0.610132 0.610132
0.631281 0.631281 0.631281
0.651026 0.651026 0.651026
0.668910 0.668910 0.668910
0.687068 0.687068 0.687068
0.705989 0.705989 0.705989
0.725307 0.725307 0.725307
0.745235 0.745235 0.745235
0.765713 0.765713 0.765713
0.786221 0.786221 0.786221
0.802182 0.802182 0.802182
0.819242 0.819242 0.819242
0.837430 0.837430 0.837430
0.856687 0.856687 0.856687
0.876738 0.876738 0.876738
0.897398 0.897398 0.897398
0.539635 0.539635 0.539635
0.539635 0.539635 0.539635
0.539513 0.539513 0.539513
0.539391 0.539391 0.539391
0.539300 0.539300 0.539300
0.539391 0.539391 0.539391
0.539910 0.539910 0.539910
0.540795 0.540795 0.540795
0.542229 0.542229 0.542229
0.544244 0.544244 0.544244
0.546807 0.546807 0.546807
0.552056 0.552056 0.552056
0.566033 0.566033 0.566033
0.579889 0.579889 0.579889
0.593317 0.593317 0.593317
0.605982 0.605982 0.605982
0.617975 0.617975 0.617975
0.629511 0.629511 0.629511
0.647547 0.647547 0.647547
0.666590 0.666590 0.666590
0.684535 0.684535 0.684535
0.703182 0.703182 0.703182
0.722408 0.722408 0.722408
0.742397 0.742397 0.742397
0.762966 0.762966 0.762966
0.784115 0.784115 0.784115
0.805966 0.805966 0.805966
0.826230 0.826230 0.826230
0.844358 0.844358 0.844358
0.863523 0.863523 0.863523
0.883543 0.883543 0.883543
0.904021 0.904021 0.904021
0.565515 0.565515 0.565515
0.566094 0.566094 0.566094
0.585718 0.585718 0.585718
0.585504 0.585504 0.585504
0.585138 0.585138 0.585138
0.584619 0.584619 0.584619
0.584283 0.584283 0.584283
0.584131 0.584131 0.584131
0.584558 0.584558 0.584558
0.585565 0.585565 0.585565
0.586908 0.586908 0.586908
0.588464 0.588464 0.588464
0.595270 0.595270 0.595270
0.606470 0.606470 0.606470
0.617273 0.617273 0.617273
0.627527 0.627527 0.627527
0.637324 0.637324 0.637324
0.646723 0.646723 0.646723
0.655940 0.655940 0.655940
0.670741 0.670741 0.670741
0.689723 0.689723 0.689723
0.707973 0.707973 0.707973
0.726864 0.726864 0.726864
0.746242 0.746242 0.746242
0.765774 0.765774 0.765774
0.785733 0.785733 0.785733
0.806271 0.806271 0.806271
0.827817 0.827817 0.827817
0.850523 0.850523 0.850523
0.870390 0.870390 0.870390
0.889982 0.889982 0.889982
0.909911 0.909911 0.909911
0.594171 0.594171 0.594171
0.596765 0.596765 0.596765
0.599237 0.599237 0.599237
0.601434 0.601434 0.601434
0.602930 0.602930 0.602930
0.603449 0.603449 0.603449
0.603449 0.603449 0.603449
0.603418 0.603418 0.603418
0.603815 0.603815 0.603815
0.604517 0.604517 0.604517
0.605554 0.605554 0.605554
0.606836 0.606836 0.606836
0.607874 0.607874 0.607874
0.616571 0.616571 0.616571
0.626093 0.626093 0.626093
0.635248 0.635248 0.635248
0.644099 0.644099 0.644099
0.652766 0.652766 0.652766
0.661433 0.661433 0.661433
0.670344 0.670344 0.670344
0.684443 0.684443 0.684443
0.705043 0.705043 0.705043
0.724086 0.724086 0.724086
0.743709 0.743709 0.743709
0.763546 0.763546 0.763546
0.783841 0.783841 0.783841
0.804746 0.804746 0.804746
0.826535 0.826535 0.826535
0.849454 0.849454 0.849454
0.873259 0.873259 0.873259
0.896910 0.896910 0.896910
0.916381 0.916381 0.916381
0.613672 0.613672 0.613672
0.615869 0.615869 0.615869
0.618097 0.618097 0.618097
0.619959 0.619959 0.619959
0.621241 0.621241 0.621241
0.621729 0.621729 0.621729
0.621759 0.621759 0.621759
0.621759 0.621759 0.621759
0.622126 0.622126 0.622126
0.622644 0.622644 0.622644
0.623590 0.623590 0.623590
0.624659 0.624659 0.624659
0.625452 0.625452 0.625452
0.627802 0.627802 0.627802
0.636225 0.636225 0.636225
0.644465 0.644465 0.644465
0.652461 0.652461 0.652461
0.660395 0.660395 0.660395
0.668513 0.668513 0.668513
0.677211 0.677211 0.677211
0.686427 0.686427 0.686427
0.700191 0.700191 0.700191
0.722133 0.722133 0.722133
0.741817 0.741817 0.741817
0.761776 0.761776 0.761776
0.782101 0.782101 0.782101
0.802976 0.802976 0.802976
0.824765 0.824765 0.824765
0.847684 0.847684 0.847684
0.871489 0.871489 0.871489
0.895720 0.895720 0.895720
0.919646 0.919646 0.919646
0.631891 0.631891 0.631891
0.633845 0.633845 0.633845
0.635798 0.635798 0.635798
0.637476 0.637476 0.637476
0.638605 0.638605 0.638605
0.639063 0.639063 0.639063
0.639063 0.639063 0.639063
0.639033 0.639033 0.639033
0.639155 0.639155 0.639155
0.639551 0.639551 0.639551
0.640131 0.640131 0.640131
0.640864 0.640864 0.640864
0.641505 0.641505 0.641505
0.642115 0.642115 0.642115
0.646540 0.646540 0.646540
0.654383 0.654383 0.654383
0.662379 0.662379 0.662379
0.670710 0.670710 0.670710
0.679652 0.679652 0.679652
0.689265 0.689265 0.689265
0.699428 0.699428 0.699428
0.710170 0.710170 0.710170
0.724147 0.724147 0.724147
0.748196 0.748196 0.748196
0.769162 0.769162 0.769162
0.790219 0.790219 0.790219
0.811704 0.811704 0.811704
0.833890 0.833890 0.833890
0.856901 0.856901 0.856901
0.880461 0.880461 0.880461
0.904143 0.904143 0.904143
0.923735 0.923735 0.923735
0.656367 0.656367 0.656367
0.657191 0.657191 0.657191
0.657862 0.657862 0.657862
0.658350 0.658350 0.658350
0.658625 0.658625 0.658625
0.658625 0.658625 0.658625
0.658595 0.658595 0.658595
0.658686 0.658686 0.658686
0.659022 0.659022 0.659022
0.659632 0.659632 0.659632
0.660517 0.660517 0.660517
0.661341 0.661341 0.661341
0.661952 0.661952 0.661952
0.662470 0.662470 0.662470
0.662837 0.662837 0.662837
0.668910 0.668910 0.668910
0.676295 0.676295 0.676295
0.684138 0.684138 0.684138
0.692531 0.692531 0.692531
0.701442 0.701442 0.701442
0.710842 0.710842 0.710842
0.720638 0.720638 0.720638
0.730739 0.730739 0.730739
0.742947 0.742947 0.742947
0.767300 0.767300 0.767300
0.788449 0.788449 0.788449
0.810147 0.810147 0.810147
0.832517 0.832517 0.832517
0.855650 0.855650 0.855650
0.879240 0.879240 0.879240
0.902922 0.902922 0.902922
0.922637 0.922637 0.922637
0.672297 0.672297 0.672297
0.673121 0.673121 0.673121
0.673884 0.673884 0.673884
0.674434 0.674434 0.674434
0.674708 0.674708 0.674708
0.674586 0.674586 0.674586
0.674372 0.674372 0.674372
0.674250 0.674250 0.674250
0.674434 0.674434 0.674434
0.674861 0.674861 0.674861
0.675532 0.675532 0.675532
0.676295 0.676295 0.676295
0.676905 0.676905 0.676905
0.677516 0.677516 0.677516
0.678035 0.678035 0.678035
0.679774 0.679774 0.679774
0.687160 0.687160 0.687160
0.695094 0.695094 0.695094
0.703548 0.703548 0.703548
0.712551 0.712551 0.712551
0.722103 0.722103 0.722103
0.732113 0.732113 0.732113
0.742550 0.742550 0.742550
0.753201 0.753201 0.753201
0.759182 0.759182 0.759182
0.783871 0.783871 0.783871
0.806241 0.806241 0.806241
0.828702 0.828702 0.828702
0.851896 0.851896 0.851896
0.875700 0.875700 0.875700
0.899840 0.899840 0.899840
0.921324 0.921324 0.921324
0.695003 0.695003 0.695003
0.696010 0.696010 0.696010
0.696590 0.696590 0.696590
0.696773 0.696773 0.696773
0.696590 0.696590 0.696590
0.696162 0.696162 0.696162
0.695552 0.695552 0.695552
0.694850 0.694850 0.694850
0.694301 0.694301 0.694301
0.693996 0.693996 0.693996
0.693812 0.693812 0.693812
0.693904 0.693904 0.693904
0.693996 0.693996 0.693996
0.693935 0.693935 0.693935
0.693690 0.693690 0.693690
0.693416 0.693416 0.693416
0.696651 0.696651 0.696651
0.703731 0.703731 0.703731
0.711788 0.711788 0.711788
0.720729 0.720729 0.720729
0.730404 0.730404 0.730404
0.740444 0.740444 0.740444
0.750515 0.750515 0.750515
0.760494 0.760494 0.760494
0.770230 0.770230 0.770230
0.779995 0.779995 0.779995
0.804532 0.804532 0.804532
0.827604 0.827604 0.827604
0.850401 0.850401 0.850401
0.873960 0.873960 0.873960
0.898283 0.898283 0.898283
0.920012 0.920012 0.920012
0.711147 0.711147 0.711147
0.712184 0.712184 0.712184
0.712795 0.712795 0.712795
0.713008 0.713008 0.713008
0.712856 0.712856 0.712856
0.712490 0.712490 0.712490
0.712032 0.712032 0.712032
0.711574 0.711574 0.711574
0.711330 0.711330 0.711330
0.711299 0.711299 0.711299
0.711391 0.711391 0.711391
0.711788 0.711788 0.711788
0.712215 0.712215 0.712215
0.712490 0.712490 0.712490
0.712612 0.712612 0.712612
0.712642 0.712642 0.712642
0.712764 0.712764 0.712764
0.718837 0.718837 0.718837
0.726802 0.726802 0.726802
0.735592 0.735592 0.735592
0.745022 0.745022 0.745022
0.754910 0.754910 0.754910
0.764889 0.764889 0.764889
0.774838 0.774838 0.774838
0.784665 0.784665 0.784665
0.794308 0.794308 0.794308
0.804105 0.804105 0.804105
0.828397 0.828397 0.828397
0.852873 0.852873 0.852873
0.876555 0.876555 0.876555
0.900969 0.900969 0.900969
0.918914 0.918914 0.918914
0.730587 0.730587 0.730587
0.731319 0.731319 0.731319
0.731624 0.731624 0.731624
0.731502 0.731502 0.731502
0.731075 0.731075 0.731075
0.730434 0.730434 0.730434
0.729763 0.729763 0.729763
0.729183 0.729183 0.729183
0.728847 0.728847 0.728847
0.728847 0.728847 0.728847
0.729061 0.729061 0.729061
0.729610 0.729610 0.729610
0.730190 0.730190 0.730190
0.730648 0.730648 0.730648
0.730800 0.730800 0.730800
0.730892 0.730892 0.730892
0.730983 0.730983 0.730983
0.732479 0.732479 0.732479
0.740200 0.740200 0.740200
0.748775 0.748775 0.748775
0.757992 0.757992 0.757992
0.767666 0.767666 0.767666
0.777493 0.777493 0.777493
0.787320 0.787320 0.787320
0.797086 0.797086 0.797086
0.806729 0.806729 0.806729
0.816434 0.816434 0.816434
0.826139 0.826139 0.826139
0.849638 0.849638 0.849638
0.875608 0.875608 0.875608
0.899931 0.899931 0.899931
0.917479 0.917479 0.917479
0.748684 0.748684 0.748684
0.749172 0.749172 0.749172
0.749447 0.749447 0.749447
0.749477 0.749477 0.749477
0.749416 0.749416 0.749416
0.749508 0.749508 0.749508
0.750088 0.750088 0.750088
0.751003 0.751003 0.751003
0.752377 0.752377 0.752377
0.754086 0.754086 0.754086
0.756008 0.756008 0.756008
0.757992 0.757992 0.757992
0.759884 0.759884 0.759884
0.761410 0.761410 0.761410
0.762478 0.762478 0.762478
0.762997 0.762997 0.762997
0.763394 0.763394 0.763394
0.763973 0.763973 0.763973
0.768338 0.768338 0.768338
0.776730 0.776730 0.776730
0.785733 0.785733 0.785733
0.795132 0.795132 0.795132
0.804593 0.804593 0.804593
0.814115 0.814115 0.814115
0.823606 0.823606 0.823606
0.833066 0.833066 0.833066
0.842557 0.842557 0.842557
0.852201 0.852201 0.852201
0.862028 0.862028 0.862028
0.884550 0.884550 0.884550
0.910369 0.910369 0.910369
0.916930 0.916930 0.916930
0.778317 0.778317 0.778317
0.778592 0.778592 0.778592
0.778592 0.778592 0.778592
0.778317 0.778317 0.778317
0.777920 0.777920 0.777920
0.777584 0.777584 0.777584
0.777432 0.777432 0.777432
0.777554 0.777554 0.777554
0.777951 0.777951 0.777951
0.778653 0.778653 0.778653
0.779416 0.779416 0.779416
0.780392 0.780392 0.780392
0.781338 0.781338 0.781338
0.782132 0.782132 0.782132
