data/fiter_cube/55192441/1023190/file.cube
# Created by Adobe Lightroom plugin Export LUT (1.17.0)
# www.johnrellis.com/lightroom/exportlut.htm
# Preset: 清新轻盈通透人像_08 云集
# Color profile: C:\Program Files (x86)\Common Files\Adobe\Color\Profiles\Recommended\AdobeRGB1998.icc
LUT_3D_SIZE 5
DOMAIN_MIN 0.000000 0.000000 0.000000
DOMAIN_MAX 0.903226 0.903226 0.903226
0.000000 0.000000 0.000000
0.139681 0.139681 0.139681
0.440345 0.440345 0.440345
0.636103 0.636103 0.636103
0.772061 0.772061 0.772061
0.155642 0.155642 0.155642
0.229648 0.229648 0.229648
0.503899 0.503899 0.503899
0.656001 0.656001 0.656001
0.793484 0.793484 0.793484
0.478248 0.478248 0.478248
0.480049 0.480049 0.480049
0.572717 0.572717 0.572717
0.706752 0.706752 0.706752
0.828641 0.828641 0.828641
0.656367 0.656367 0.656367
0.658686 0.658686 0.658686
0.662837 0.662837 0.662837
0.720638 0.720638 0.720638
0.855650 0.855650 0.855650
0.798642 0.798642 0.798642
0.798703 0.798703 0.798703
0.791653 0.791653 0.791653
0.819364 0.819364 0.819364
0.887083 0.887083 0.887083
0.105470 0.105470 0.105470
0.198734 0.198734 0.198734
0.478676 0.478676 0.478676
0.637018 0.637018 0.637018
0.762814 0.762814 0.762814
0.233646 0.233646 0.233646
0.399634 0.399634 0.399634
0.535363 0.535363 0.535363
0.655909 0.655909 0.655909
0.777340 0.777340 0.777340
0.509575 0.509575 0.509575
0.550408 0.550408 0.550408
0.593530 0.593530 0.593530
0.708583 0.708583 0.708583
0.825162 0.825162 0.825162
0.672053 0.672053 0.672053
0.681849 0.681849 0.681849
0.684871 0.684871 0.684871
0.732204 0.732204 0.732204
0.861326 0.861326 0.861326
0.810788 0.810788 0.810788
0.810636 0.810636 0.810636
0.815183 0.815183 0.815183
0.833158 0.833158 0.833158
0.896727 0.896727 0.896727
0.373144 0.373144 0.373144
0.429969 0.429969 0.429969
0.514763 0.514763 0.514763
0.657740 0.657740 0.657740
0.775174 0.775174 0.775174
0.473518 0.473518 0.473518
0.517327 0.517327 0.517327
0.573968 0.573968 0.573968
0.676417 0.676417 0.676417
0.789242 0.789242 0.789242
0.546929 0.546929 0.546929
0.588006 0.588006 0.588006
0.672816 0.672816 0.672816
0.733364 0.733364 0.733364
0.830747 0.830747 0.830747
0.681483 0.681483 0.681483
0.695308 0.695308 0.695308
0.740902 0.740902 0.740902
0.771206 0.771206 0.771206
0.882383 0.882383 0.882383
0.811124 0.811124 0.811124
0.822873 0.822873 0.822873
0.848203 0.848203 0.848203
0.851591 0.851591 0.851591
0.907469 0.907469 0.907469
0.569451 0.569451 0.569451
0.588922 0.588922 0.588922
0.640803 0.640803 0.640803
0.674342 0.674342 0.674342
0.794125 0.794125 0.794125
0.614466 0.614466 0.614466
0.626673 0.626673 0.626673
0.661280 0.661280 0.661280
0.689509 0.689509 0.689509
0.800381 0.800381 0.800381
0.642359 0.642359 0.642359
0.661555 0.661555 0.661555
0.713985 0.713985 0.713985
0.738277 0.738277 0.738277
0.834775 0.834775 0.834775
0.695155 0.695155 0.695155
0.707912 0.707912 0.707912
0.752834 0.752834 0.752834
0.827359 0.827359 0.827359
0.898589 0.898589 0.898589
0.823056 0.823056 0.823056
0.831815 0.831815 0.831815
0.862547 0.862547 0.862547
0.907866 0.907866 0.907866
0.937041 0.937041 0.937041
0.718746 0.718746 0.718746
0.726040 0.726040 0.726040
0.751003 0.751003 0.751003
0.789517 0.789517 0.789517
0.810361 0.810361 0.810361
0.732631 0.732631 0.732631
0.739010 0.739010 0.739010
0.761593 0.761593 0.761593
0.796536 0.796536 0.796536
0.817929 0.817929 0.817929
0.756435 0.756435 0.756435
0.770443 0.770443 0.770443
0.792996 0.792996 0.792996
0.822690 0.822690 0.822690
0.848753 0.848753 0.848753
0.779141 0.779141 0.779141
0.786709 0.786709 0.786709
0.814755 0.814755 0.814755
0.875029 0.875029 0.875029
0.910948 0.910948 0.910948
0.835752 0.835752 0.835752
0.842496 0.842496 0.842496
0.869566 0.869566 0.869566
0.919066 0.919066 0.919066
0.987304 0.987304 0.987304
