data/fiter_cube/57993848/1023154/file.cube
# Created by Adobe Lightroom plugin Export LUT (1.17.0)
# www.johnrellis.com/lightroom/exportlut.htm
# Preset: 萌宠摄影后期_01 云集
# Color profile: C:\Program Files (x86)\Common Files\Adobe\Color\Profiles\Recommended\AdobeRGB1998.icc
LUT_3D_SIZE 8
DOMAIN_MIN 0.000000 0.000000 0.000000
DOMAIN_MAX 0.903226 0.903226 0.903226
0.131930 0.131930 0.131930
0.179202 0.129732 0.132509
0.272038 0.124086 0.132876
0.395270 0.112306 0.130526
0.549371 0.088563 0.122683
0.726131 0.000000 0.108644
0.871580 0.000000 0.090700
0.980346 0.000000 0.091096
0.125612 0.175509 0.127718
0.178500 0.167636 0.129641
0.253605 0.165072 0.141024
0.377874 0.162905 0.137118
0.533257 0.154360 0.130251
0.707759 0.130495 0.116152
0.856718 0.083528 0.098329
0.972076 0.000000 0.098390
0.117159 0.253727 0.117128
0.157015 0.246555 0.116915
0.273655 0.243992 0.121248
0.369238 0.243595 0.157870
0.522271 0.267430 0.158358
0.707210 0.271824 0.140688
0.865324 0.260655 0.126162
0.976043 0.224918 0.131411
0.098787 0.345830 0.098573
0.142885 0.337621 0.099580
0.220188 0.313481 0.101839
0.430304 0.375280 0.085054
0.600000 0.376989 0.147677
0.704250 0.412207 0.199527
0.853422 0.407446 0.181521
0.963684 0.382452 0.186587
0.006653 0.457618 0.005005
0.115084 0.449348 0.014221
0.214725 0.423896 0.039673
0.340154 0.431159 0.000000
0.604547 0.522789 0.000000
0.773678 0.488075 0.111360
0.851102 0.508721 0.205325
0.942168 0.525444 0.275425
0.000000 0.581262 0.000000
0.000000 0.581201 0.000000
0.200351 0.555657 0.000000
0.298772 0.511742 0.000000
0.492805 0.576715 0.000000
0.766476 0.660426 0.000000
0.912261 0.582300 0.048341
0.963684 0.596368 0.259892
0.000000 0.725765 0.000000
0.000000 0.722255 0.000000
0.164553 0.700984 0.000000
0.302007 0.665522 0.000000
0.393866 0.612634 0.000000
0.655756 0.728542 0.000000
0.888273 0.766323 0.000000
0.998535 0.648798 0.102541
0.000000 0.870115 0.000000
0.000000 0.866972 0.000000
0.000000 0.857481 0.000000
0.269596 0.842771 0.000000
0.405615 0.803525 0.000000
0.546410 0.795529 0.000000
0.794156 0.862821 0.000000
0.986847 0.856870 0.000000
0.148989 0.149142 0.158877
0.155001 0.155001 0.155001
0.254734 0.140902 0.173404
0.389441 0.096345 0.157504
0.537865 0.013672 0.150179
0.703578 0.000000 0.137667
0.851835 0.000000 0.120394
0.967681 0.000000 0.103090
0.132601 0.169497 0.169558
0.172152 0.172152 0.172152
0.260685 0.167056 0.169345
0.380194 0.156130 0.164034
0.529900 0.134615 0.155581
0.694728 0.092256 0.142611
0.840940 0.000000 0.125185
0.959136 0.000000 0.108553
0.111635 0.256809 0.157992
0.151888 0.254765 0.151949
0.270603 0.246494 0.158572
0.358587 0.250614 0.190860
0.516747 0.259556 0.179446
0.689387 0.255192 0.163180
0.842008 0.238956 0.146578
0.961089 0.215488 0.135470
0.074647 0.350500 0.133394
0.126345 0.346136 0.126101
0.220401 0.323552 0.123232
0.412634 0.362860 0.131167
0.557824 0.359167 0.182193
0.672786 0.391547 0.211917
0.829465 0.389349 0.192111
0.949584 0.373877 0.183566
0.000000 0.467292 0.072419
0.074739 0.457954 0.074342
0.206302 0.430457 0.078614
0.325902 0.421546 0.073335
0.583581 0.506371 0.000000
0.752651 0.479103 0.154360
0.835996 0.504112 0.228031
0.933959 0.518822 0.267796
0.000000 0.583001 0.000000
0.000000 0.576349 0.000000
0.182254 0.551781 0.000000
0.291508 0.510460 0.000000
0.479255 0.566644 0.000000
0.760342 0.656184 0.000000
0.906035 0.581231 0.117678
0.958618 0.592004 0.254612
0.000000 0.718685 0.000000
0.000000 0.711391 0.000000
0.133669 0.691798 0.000000
0.289525 0.659907 0.000000
0.387610 0.610285 0.000000
0.646174 0.720119 0.000000
0.880430 0.757839 0.000000
0.992279 0.643763 0.094728
0.000000 0.862455 0.000000
0.000000 0.860319 0.000000
0.000000 0.850645 0.000000
0.270542 0.836301 0.000000
0.410437 0.810605 0.000000
0.549798 0.798520 0.000000
0.793576 0.860868 0.000000
0.984192 0.853178 0.000000
0.189731 0.189822 0.218936
0.200168 0.195926 0.214603
0.210086 0.210086 0.210086
0.304662 0.231144 0.264286
0.506889 0.104280 0.265873
0.713161 0.000000 0.204044
0.860502 0.000000 0.183536
0.975280 0.000000 0.164248
0.192782 0.201968 0.231601
0.208713 0.208743 0.229343
0.221103 0.221103 0.221103
0.326299 0.223636 0.265324
0.521324 0.087709 0.247837
0.706233 0.000000 0.203098
0.852811 0.000000 0.186618
0.970367 0.000000 0.168093
0.140780 0.250034 0.249973
0.170596 0.251926 0.251957
0.254002 0.254002 0.254002
0.379065 0.243442 0.246983
0.541253 0.225620 0.236820
0.704341 0.197147 0.222019
0.849058 0.158846 0.204746
0.965240 0.109102 0.187961
0.000000 0.374945 0.247959
0.088960 0.373907 0.240879
0.208530 0.365179 0.208286
0.411566 0.372686 0.226108
0.543694 0.378943 0.278660
0.693965 0.386542 0.269993
0.842008 0.370153 0.248539
0.957122 0.346014 0.232486
0.000000 0.491829 0.219577
0.000000 0.490181 0.206088
0.159762 0.476265 0.159823
0.300938 0.428382 0.149722
0.589685 0.517784 0.178988
0.745235 0.492317 0.261265
0.827085 0.521202 0.318151
0.939422 0.512261 0.312352
0.000000 0.608423 0.167941
0.000000 0.606439 0.144625
0.074403 0.588861 0.073854
0.278752 0.543297 0.071870
0.451911 0.558068 0.026917
0.753292 0.654322 0.070649
0.896452 0.590387 0.246555
0.953552 0.606500 0.331548
0.000000 0.741665 0.000000
0.000000 0.738155 0.000000
0.000000 0.719173 0.000000
0.252415 0.683009 0.000000
0.379644 0.629541 0.000000
0.627192 0.715267 0.000000
0.882658 0.762539 0.000000
0.994232 0.653132 0.199435
0.000000 0.873808 0.000000
0.000000 0.871000 0.000000
0.000000 0.859586 0.000000
0.206607 0.845701 0.000000
0.389837 0.816342 0.000000
0.534813 0.794003 0.000000
0.794522 0.861479 0.000000
0.987121 0.851255 0.000000
0.243168 0.243107 0.298985
0.253666 0.248966 0.296818
0.274174 0.266911 0.284245
0.280156 0.280156 0.280156
0.356268 0.356268 0.356268
0.601495 0.250675 0.406989
0.809781 0.000000 0.383856
0.960754 0.000000 0.298985
0.250950 0.257420 0.315404
0.261387 0.261357 0.311589
0.283482 0.276066 0.296788
0.289311 0.289311 0.289311
0.366827 0.364446 0.365667
0.612665 0.241276 0.401526
0.813687 0.000000 0.367620
0.963378 0.000000 0.270298
0.226413 0.275883 0.332586
0.246738 0.280980 0.333440
0.299718 0.299748 0.331975
0.318151 0.318151 0.318151
0.444984 0.340856 0.386664
0.667811 0.210452 0.375921
0.850950 0.000000 0.299382
0.971740 0.000000 0.252659
0.114473 0.363134 0.363104
0.146609 0.365057 0.365026
0.234806 0.370062 0.370214
0.372930 0.372930 0.372930
0.533440 0.356329 0.360723
0.695216 0.330999 0.342748
0.842527 0.298100 0.320256
0.961822 0.260075 0.295201
0.000000 0.542382 0.387762
0.000000 0.538354 0.379950
0.083253 0.527428 0.352026
0.293217 0.503532 0.293400
0.574853 0.523400 0.334478
0.710140 0.523033 0.413550
0.829435 0.523857 0.409339
0.946258 0.491493 0.376562
0.000000 0.652888 0.345098
0.000000 0.656062 0.337835
0.000000 0.644038 0.297032
0.211978 0.617304 0.212284
0.395270 0.550439 0.184878
0.749020 0.662135 0.277409
0.879698 0.618952 0.403357
0.937499 0.642603 0.464881
0.000000 0.767514 0.294072
0.000000 0.766354 0.280766
0.000000 0.759518 0.221469
0.069490 0.736934 0.068055
0.358251 0.680507 0.000000
0.588678 0.709194 0.000000
0.880339 0.767971 0.183444
0.984985 0.679438 0.370062
0.000000 0.890135 0.217105
0.000000 0.889433 0.194553
0.000000 0.884459 0.000000
0.000000 0.869413 0.000000
0.323613 0.837583 0.000000
0.491585 0.794919 0.000000
0.768734 0.858457 0.000000
0.987121 0.853758 0.000000
0.314611 0.314580 0.409674
0.324254 0.319371 0.407263
0.347936 0.333745 0.394141
0.366796 0.361883 0.371099
0.373877 0.373877 0.373877
0.467048 0.467048 0.467048
0.683162 0.456092 0.562615
0.888914 0.331060 0.567407
0.320378 0.326024 0.422004
0.330694 0.330694 0.420050
0.355383 0.343084 0.406043
0.374578 0.368109 0.380560
0.381201 0.381201 0.381201
0.474434 0.474434 0.474434
0.694789 0.448524 0.562371
0.894285 0.317662 0.558984
0.313298 0.347967 0.447761
0.329870 0.354925 0.449805
0.365637 0.365728 0.436835
0.400153 0.390417 0.414160
0.404578 0.404578 0.404578
0.494240 0.494240 0.494240
0.728481 0.416022 0.550927
0.910948 0.256535 0.519219
0.245365 0.384497 0.469978
0.266392 0.386481 0.470680
0.336187 0.398016 0.473396
0.429450 0.429511 0.471565
0.450385 0.450385 0.450385
0.576928 0.486000 0.526970
0.788540 0.358099 0.507012
0.948119 0.011810 0.414862
0.000000 0.502739 0.502708
0.000000 0.504295 0.504417
0.191226 0.507195 0.507347
0.340002 0.511131 0.511192
0.508598 0.508598 0.508598
0.674037 0.483803 0.488380
0.824033 0.449775 0.460548
0.948455 0.405280 0.424140
0.000000 0.693843 0.528740
0.000000 0.691798 0.523613
0.000000 0.681819 0.502892
0.157992 0.663813 0.461585
0.379156 0.625055 0.378943
0.713161 0.656245 0.457649
0.833921 0.659358 0.563897
0.925139 0.655085 0.558373
0.000000 0.797971 0.475349
0.000000 0.795590 0.467933
0.000000 0.788815 0.440528
0.000000 0.776272 0.379858
0.253025 0.744167 0.252628
0.487282 0.673671 0.197574
0.863462 0.769894 0.383398
0.961120 0.718898 0.534997
0.000000 0.900572 0.417426
0.000000 0.899290 0.408240
0.000000 0.895048 0.371893
0.000000 0.892332 0.283543
0.000000 0.870787 0.000000
0.432563 0.821744 0.000000
0.711604 0.845121 0.000000
0.978698 0.856413 0.253117
0.416144 0.416144 0.555291
0.424262 0.419776 0.552270
0.446113 0.429816 0.537987
0.476692 0.454810 0.518486
0.490089 0.490089 0.490089
0.490883 0.490883 0.490883
0.599298 0.599298 0.599298
0.753994 0.688441 0.720607
0.415351 0.420233 0.557397
0.422980 0.423011 0.553857
0.446509 0.433356 0.541497
0.478004 0.456947 0.522118
0.491920 0.491920 0.491920
0.493385 0.493385 0.493385
0.601404 0.601404 0.601404
0.760433 0.681086 0.719661
0.422004 0.448280 0.586633
0.431067 0.450355 0.583124
0.459968 0.459968 0.572076
0.496864 0.479835 0.551812
0.515373 0.511589 0.518456
0.514824 0.514824 0.514824
0.618677 0.618677 0.618677
0.787869 0.661402 0.720546
0.384161 0.469642 0.604456
0.398627 0.472877 0.604089
0.451209 0.490791 0.606897
0.518639 0.518608 0.599512
0.557031 0.546899 0.570306
0.556817 0.556817 0.556817
0.652674 0.652674 0.652674
0.835996 0.621759 0.712612
0.260441 0.518303 0.622309
0.282841 0.519371 0.622827
0.354223 0.524010 0.624079
0.465187 0.540215 0.625208
0.574823 0.574792 0.618524
0.593347 0.593347 0.593347
0.710445 0.638880 0.671504
0.894285 0.523735 0.646021
0.000000 0.642847 0.642939
0.000000 0.645319 0.645472
0.079286 0.647456 0.647486
0.292363 0.649805 0.649866
0.465888 0.650294 0.650416
0.649653 0.649653 0.649653
0.803006 0.623682 0.627832
0.931792 0.582910 0.592035
0.000000 0.827298 0.660731
0.000000 0.829374 0.659968
0.000000 0.832670 0.652644
0.000000 0.827207 0.628992
0.251286 0.806790 0.579644
0.482979 0.758877 0.482948
0.834073 0.779812 0.601251
0.925414 0.777005 0.700191
0.000000 0.923003 0.595972
0.000000 0.921965 0.590906
0.000000 0.918791 0.572015
0.000000 0.914458 0.532799
0.000000 0.903044 0.453742
0.283848 0.872892 0.283757
0.588251 0.815305 0.177371
0.961303 0.866758 0.502495
0.546105 0.546075 0.697047
0.553491 0.550134 0.696132
0.572168 0.559258 0.687892
0.598962 0.576318 0.672908
0.619806 0.599847 0.647211
0.621302 0.621302 0.621302
0.618006 0.618006 0.618006
0.724086 0.724086 0.724086
0.543938 0.547387 0.697261
0.551019 0.550958 0.696132
0.569909 0.559564 0.688075
0.596002 0.574823 0.672175
0.617700 0.597650 0.646632
0.619318 0.619318 0.619318
0.615412 0.615412 0.615412
0.720638 0.720638 0.720638
0.550927 0.567895 0.714656
0.556939 0.569665 0.712306
0.575921 0.575860 0.703548
0.604181 0.588983 0.688075
0.628656 0.609003 0.662989
0.633570 0.633570 0.633570
0.631312 0.631312 0.631312
0.733516 0.733516 0.733516
0.536461 0.585901 0.732570
0.546044 0.589319 0.731624
0.577050 0.601129 0.728298
0.612818 0.612818 0.714778
0.646326 0.630488 0.692164
0.659815 0.658900 0.660517
0.657404 0.657404 0.657404
0.751095 0.751095 0.751095
0.459052 0.592828 0.738186
0.472267 0.594873 0.737087
0.518303 0.605219 0.734920
0.586786 0.627344 0.735775
0.651606 0.651637 0.724086
0.683528 0.674861 0.694392
0.681788 0.681788 0.681788
0.770596 0.770596 0.770596
0.298283 0.645686 0.753353
0.318364 0.646204 0.753353
0.383368 0.648524 0.753384
0.481483 0.655238 0.753567
0.599878 0.671870 0.751949
0.707820 0.707790 0.745876
0.723995 0.723995 0.723995
0.821012 0.769955 0.793423
0.000000 0.769192 0.769284
0.000000 0.770016 0.770108
0.000000 0.770932 0.771023
0.232120 0.772549 0.772580
0.423133 0.772824 0.772946
0.605188 0.772732 0.772732
0.770138 0.770138 0.770138
0.902373 0.741634 0.745144
0.000000 0.923796 0.762417
0.000000 0.924620 0.761227
0.000000 0.929168 0.758175
0.000000 0.934447 0.748196
0.000000 0.934264 0.725063
0.356512 0.915221 0.679286
0.575158 0.869383 0.575219
0.930022 0.881682 0.729610
0.697627 0.697566 0.818662
0.701381 0.699550 0.817716
0.710750 0.703243 0.811826
0.727169 0.712276 0.802640
0.744045 0.725002 0.787869
0.753964 0.742367 0.766445
0.751583 0.751583 0.751583
0.746456 0.746456 0.746456
0.695705 0.697597 0.818753
0.699519 0.699519 0.817868
0.709499 0.703487 0.812375
0.725673 0.711788 0.802853
0.743069 0.724422 0.788205
0.753567 0.741573 0.766873
0.750820 0.750820 0.750820
0.745663 0.745663 0.745663
0.694636 0.703700 0.824491
0.698146 0.705074 0.823301
0.707790 0.707759 0.817350
0.727474 0.717861 0.809964
0.745815 0.729030 0.795254
0.757473 0.744472 0.773617
0.755703 0.755703 0.755703
0.750942 0.750942 0.750942
0.690791 0.715755 0.836728
0.695003 0.717189 0.835813
0.706783 0.719997 0.830625
0.727260 0.727230 0.822293
0.749966 0.737911 0.808774
0.766629 0.752682 0.788602
0.767391 0.767391 0.767391
0.762783 0.762783 0.762783
0.649989 0.711788 0.839994
0.657465 0.714748 0.840452
0.679774 0.722805 0.840024
0.717952 0.739376 0.840116
0.747860 0.747799 0.826688
0.773495 0.761074 0.807340
0.781674 0.781674 0.781674
0.779080 0.779080 0.779080
0.561059 0.715846 0.848966
0.570184 0.716976 0.848295
0.601801 0.722164 0.846555
0.654841 0.733974 0.844388
0.719875 0.754604 0.843839
0.777859 0.777829 0.836179
0.806119 0.799405 0.814176
0.806088 0.806088 0.806088
0.389227 0.762081 0.862211
0.402686 0.762112 0.861906
0.447791 0.762661 0.861143
0.523491 0.765805 0.860685
0.621668 0.773617 0.859739
0.729244 0.790494 0.858396
0.822690 0.822660 0.854551
0.835599 0.835599 0.835599
0.000000 0.875242 0.875303
0.000000 0.875151 0.875181
0.000000 0.875334 0.875395
0.183352 0.876249 0.876310
0.389776 0.877165 0.877256
0.568353 0.877897 0.877958
0.733455 0.878904 0.878935
0.879454 0.879454 0.879454
