data/fiter_cube/57993848/1023154/file.cube
# Created by Adobe Lightroom plugin Export LUT (1.17.0)
# www.johnrellis.com/lightroom/exportlut.htm
# Preset: 萌宠摄影后期_01 云集
# Color profile: C:\Program Files (x86)\Common Files\Adobe\Color\Profiles\Recommended\AdobeRGB1998.icc
LUT_3D_SIZE 32
DOMAIN_MIN 0.0 0.0 0.0
DOMAIN_MAX 1.0 1.0 1.0
0.131930 0.131930 0.131930
0.136965 0.131655 0.131991
0.143099 0.131502 0.132021
0.157534 0.130770 0.132326
0.179202 0.129732 0.132509
0.201266 0.128389 0.132601
0.223941 0.127016 0.132723
0.247166 0.125673 0.132815
0.272038 0.124086 0.132876
0.298802 0.122042 0.132662
0.328435 0.119081 0.132265
0.360662 0.116487 0.131502
0.395270 0.112306 0.130526
0.431739 0.108553 0.128908
0.469825 0.103944 0.127047
0.508965 0.098085 0.124971
0.549371 0.088563 0.122683
0.590112 0.076509 0.120150
0.629633 0.059785 0.117281
0.678614 0.001831 0.113130
0.726131 0.000000 0.108644
0.769162 0.000000 0.103700
0.806973 0.000000 0.099184
0.840757 0.000000 0.094789
0.871580 0.000000 0.090700
0.900359 0.000000 0.089021
0.927947 0.000000 0.088319
0.954498 0.000000 0.088716
0.980346 0.000000 0.091096
1.000000 0.000000 0.095277
1.000000 0.000000 0.101778
1.000000 0.000000 0.110780
0.131289 0.136477 0.131563
0.136843 0.135592 0.131685
0.140810 0.135409 0.132967
0.154177 0.136233 0.133700
0.176028 0.135714 0.133700
0.198367 0.134463 0.133791
0.221195 0.132845 0.133761
0.244572 0.131441 0.133700
0.269352 0.129885 0.133608
0.296086 0.127901 0.133425
0.325505 0.125368 0.133059
0.357641 0.122591 0.132204
0.391943 0.119112 0.131075
0.428107 0.115877 0.129702
0.465797 0.112093 0.127718
0.504662 0.106508 0.125765
0.544854 0.098939 0.123537
0.585595 0.088319 0.121126
0.625177 0.076204 0.118257
0.673579 0.048341 0.114321
0.719997 0.000000 0.109590
0.762936 0.000000 0.104799
0.800900 0.000000 0.100191
0.835080 0.000000 0.096101
0.866270 0.000000 0.091768
0.895537 0.000000 0.089693
0.923674 0.000000 0.088746
0.950683 0.000000 0.089479
0.976959 0.000000 0.091432
1.000000 0.000000 0.095247
1.000000 0.000000 0.101686
1.000000 0.000000 0.110628
0.130556 0.142794 0.131014
0.135500 0.142397 0.130922
0.143221 0.140597 0.131594
0.152285 0.139956 0.134463
0.172061 0.142184 0.135683
0.194827 0.141390 0.135409
0.217899 0.139925 0.135195
0.241459 0.138521 0.135012
0.266423 0.136751 0.134768
0.293278 0.134798 0.134432
0.322667 0.132570 0.133913
0.354711 0.130190 0.133089
0.389044 0.127535 0.131777
0.425177 0.125032 0.130404
0.462806 0.121645 0.128664
0.501884 0.116640 0.126711
0.541833 0.110048 0.124605
0.582544 0.101411 0.122194
0.622431 0.091279 0.119356
0.670710 0.075135 0.115267
0.716701 0.047669 0.110658
0.759548 0.000000 0.105776
0.797604 0.000000 0.101534
0.831998 0.000000 0.097017
0.863340 0.000000 0.093050
0.892851 0.000000 0.090730
0.921172 0.000000 0.089906
0.948486 0.000000 0.090333
0.975067 0.000000 0.092226
1.000000 0.000000 0.096254
1.000000 0.000000 0.102327
1.000000 0.000000 0.111208
0.128237 0.156954 0.129732
0.133700 0.156527 0.129610
0.140719 0.156008 0.129488
0.158633 0.152316 0.130892
0.171511 0.148196 0.135500
0.187625 0.152712 0.139162
0.211612 0.152193 0.138247
0.236149 0.151003 0.137697
0.261570 0.149477 0.137148
0.288884 0.147921 0.136477
0.318334 0.146304 0.135775
0.350469 0.144900 0.134951
0.384558 0.143252 0.133639
0.420874 0.141421 0.132296
0.458625 0.138888 0.130587
0.497688 0.135195 0.128878
0.537713 0.129946 0.126802
0.578363 0.123842 0.124269
0.619837 0.116060 0.121248
0.666407 0.105257 0.117403
0.711025 0.092714 0.113039
0.753506 0.075837 0.108248
0.792050 0.053254 0.103731
0.827298 0.000000 0.099428
0.859922 0.000000 0.094881
0.890593 0.000000 0.092805
0.919738 0.000000 0.092073
0.947570 0.000000 0.092622
0.974273 0.000000 0.094667
0.999939 0.000000 0.098634
1.000000 0.000000 0.104860
1.000000 0.000000 0.113466
0.125612 0.175509 0.127718
0.131197 0.175143 0.127626
0.138247 0.174289 0.127535
0.153994 0.172580 0.127626
0.178500 0.167636 0.129641
0.192142 0.158083 0.135500
0.206638 0.162753 0.140383
0.227237 0.165499 0.142123
0.253605 0.165072 0.141024
0.281254 0.164767 0.140139
0.311131 0.164065 0.139254
0.343297 0.163424 0.138277
0.377874 0.162905 0.137118
0.414343 0.162356 0.135775
0.452766 0.160494 0.134249
0.492470 0.158114 0.132540
0.533257 0.154360 0.130251
0.574578 0.150210 0.127504
0.618585 0.145052 0.124086
0.664118 0.138369 0.120424
0.707759 0.130495 0.116152
0.749813 0.121401 0.111391
0.788266 0.110536 0.106935
0.823819 0.097597 0.102754
0.856718 0.083528 0.098329
0.887785 0.047150 0.096315
0.917174 0.000000 0.095583
0.945251 0.000000 0.096101
0.972076 0.000000 0.098390
0.997803 0.000000 0.102388
1.000000 0.000000 0.108644
1.000000 0.000000 0.117250
0.122805 0.194369 0.125368
0.128389 0.193820 0.125307
0.135225 0.192874 0.125246
0.148379 0.190890 0.125124
0.172335 0.189242 0.125612
0.199435 0.184237 0.128237
0.215000 0.169802 0.134829
0.229923 0.174136 0.140291
0.246006 0.180270 0.146639
0.272618 0.182681 0.146670
0.303136 0.183505 0.145266
0.336004 0.184298 0.143893
0.371160 0.184695 0.142550
0.408423 0.184817 0.141176
0.447364 0.184298 0.139284
0.487770 0.183200 0.137331
0.529015 0.181125 0.134859
0.570855 0.178653 0.131746
0.617792 0.175387 0.128267
0.662928 0.171359 0.124331
0.706752 0.166293 0.120119
0.749050 0.160311 0.115389
0.822873 0.154910 0.109712
0.855802 0.146883 0.106386
0.885679 0.137850 0.103334
0.913512 0.123507 0.102358
0.939696 0.104097 0.102815
0.964691 0.077211 0.104921
0.988769 0.002655 0.108431
1.000000 0.000000 0.113619
1.000000 0.000000 0.120760
1.000000 0.000000 0.130098
0.120424 0.215488 0.122286
0.125978 0.214694 0.122255
0.132570 0.213809 0.122225
0.145907 0.211612 0.122164
0.162814 0.208499 0.122072
0.195102 0.208957 0.122927
0.224399 0.204196 0.125978
0.243931 0.185580 0.133455
0.260227 0.190005 0.140078
0.278294 0.196719 0.147555
0.299077 0.204746 0.154360
0.334142 0.207279 0.152468
0.370916 0.209232 0.150607
0.409369 0.210544 0.148470
0.449165 0.211032 0.146212
0.489601 0.211002 0.143587
0.531121 0.210208 0.140566
0.577783 0.209751 0.137179
0.625635 0.208652 0.133394
0.672267 0.206271 0.129305
0.718776 0.203464 0.124758
0.763851 0.199313 0.120302
0.805264 0.194614 0.116091
0.842893 0.188449 0.112520
0.876707 0.181979 0.109438
0.906828 0.172549 0.108248
0.934356 0.159487 0.109041
0.960021 0.144198 0.111116
0.984588 0.125612 0.114595
1.000000 0.102571 0.119905
1.000000 0.069703 0.126894
1.000000 0.000000 0.136049
0.119356 0.233890 0.119326
0.124208 0.233341 0.119295
0.131014 0.232212 0.119112
0.143648 0.229953 0.119142
0.159884 0.226841 0.119142
0.182284 0.224765 0.119173
0.217777 0.227329 0.119936
0.247776 0.222599 0.123262
0.272007 0.201389 0.131350
0.289891 0.206546 0.139345
0.309606 0.213993 0.148470
0.331212 0.222812 0.156832
0.360449 0.230137 0.160678
0.399725 0.233280 0.157900
0.440162 0.235447 0.155032
0.481300 0.237034 0.151797
0.525536 0.238163 0.148501
0.574151 0.239780 0.144656
0.620569 0.240146 0.140566
0.666438 0.239017 0.136446
0.712276 0.237797 0.132052
0.757168 0.235477 0.127504
0.798642 0.231815 0.123476
0.836362 0.227573 0.119905
0.870420 0.222416 0.117067
0.900938 0.215061 0.115755
0.928893 0.204746 0.116487
0.955077 0.192844 0.118624
0.980041 0.179507 0.122255
1.000000 0.164614 0.127352
1.000000 0.148226 0.134524
1.000000 0.129519 0.143618
0.117159 0.253727 0.117128
0.121981 0.252964 0.117128
0.127993 0.252018 0.117159
0.140597 0.249790 0.117037
0.157015 0.246555 0.116915
0.174655 0.242374 0.117037
0.203586 0.243381 0.117311
0.241520 0.247868 0.117678
0.273655 0.243992 0.121248
0.300725 0.223056 0.129793
0.324559 0.226902 0.139406
0.346136 0.234592 0.148989
0.369238 0.243595 0.157870
0.393530 0.253696 0.166690
0.430884 0.259403 0.166049
0.474403 0.263249 0.162325
0.522271 0.267430 0.158358
0.569879 0.270207 0.154025
0.616052 0.271519 0.149691
0.661616 0.272007 0.145296
0.707210 0.271824 0.140688
0.751980 0.270787 0.136080
0.793393 0.268437 0.132326
0.831205 0.264958 0.128908
0.865324 0.260655 0.126162
0.896086 0.254337 0.124636
0.924407 0.245731 0.125673
0.950835 0.235752 0.127687
0.976043 0.224918 0.131411
1.000000 0.213199 0.136507
1.000000 0.200870 0.143679
1.000000 0.187778 0.152773
0.114534 0.274144 0.114321
0.119265 0.273472 0.114351
0.125490 0.272465 0.114199
0.137819 0.270237 0.114351
0.153750 0.267063 0.114290
0.171603 0.262852 0.114321
0.189700 0.257847 0.114595
0.226505 0.263462 0.114290
0.267643 0.270359 0.114595
0.302251 0.267796 0.117769
0.331701 0.247440 0.127962
0.362921 0.249729 0.138460
0.385901 0.257572 0.148379
0.410193 0.266697 0.158083
0.438025 0.278050 0.167361
0.470008 0.290105 0.175357
0.518303 0.296239 0.170748
0.566461 0.300664 0.165682
0.613001 0.303380 0.160861
0.658412 0.304845 0.156161
0.703334 0.305547 0.151339
0.747005 0.305241 0.146670
0.787350 0.303410 0.142641
0.824308 0.300542 0.139284
0.858183 0.296818 0.136294
0.889250 0.291356 0.134737
0.918212 0.283757 0.135653
0.945464 0.275425 0.137972
0.971435 0.266056 0.141634
0.996155 0.256229 0.147127
1.000000 0.246220 0.154513
1.000000 0.236027 0.164004
0.110933 0.294987 0.110933
0.115541 0.294377 0.110964
0.122316 0.293370 0.110842
0.134371 0.291234 0.111025
0.150454 0.288029 0.111055
0.168490 0.283940 0.111147
0.187045 0.278965 0.111330
0.211215 0.277317 0.111116
0.251682 0.285893 0.110262
0.296910 0.295720 0.109133
0.334539 0.294621 0.112428
0.365728 0.274662 0.124056
0.407294 0.276768 0.135439
0.434424 0.285954 0.146242
0.462501 0.296391 0.156771
0.491157 0.307713 0.166964
0.520165 0.319371 0.177066
0.558190 0.328740 0.180026
0.605219 0.333013 0.174411
0.651118 0.335790 0.168978
0.696498 0.337682 0.163851
0.740658 0.338537 0.158968
0.781491 0.337743 0.154879
0.818936 0.335637 0.151247
0.852995 0.332555 0.148501
0.884276 0.327672 0.146822
0.913329 0.320806 0.147738
0.940734 0.313176 0.149935
0.966827 0.304936 0.153597
0.991730 0.296330 0.159091
1.000000 0.287663 0.166659
1.000000 0.279179 0.176364
0.106020 0.317632 0.106172
0.111208 0.316930 0.106264
0.117769 0.315953 0.106355
0.130220 0.313817 0.106386
0.146914 0.310704 0.106508
0.165408 0.306401 0.106752
0.184329 0.301335 0.107088
0.203006 0.295445 0.107301
0.235172 0.299596 0.106386
0.279545 0.311131 0.104189
0.329595 0.324315 0.101076
0.373510 0.327337 0.103792
0.431006 0.323857 0.113924
0.491218 0.327550 0.126833
0.519890 0.336248 0.140597
0.548455 0.345708 0.153658
0.576562 0.355627 0.165988
0.603601 0.365667 0.178134
0.630152 0.376074 0.190066
0.672023 0.380774 0.187625
0.716274 0.382452 0.181643
0.757687 0.382513 0.176699
0.795407 0.380743 0.172274
0.830198 0.377752 0.168795
0.862211 0.373816 0.165896
0.891752 0.368841 0.164309
0.919402 0.361975 0.165408
0.945403 0.354345 0.167666
0.970184 0.346593 0.171633
0.994018 0.338415 0.177157
1.000000 0.330449 0.184970
1.000000 0.323125 0.195071
0.098787 0.345830 0.098573
0.104494 0.345068 0.098695
0.111666 0.343877 0.098939
0.125124 0.341405 0.099153
0.142885 0.337621 0.099580
0.162478 0.332586 0.100008
0.182193 0.327001 0.100679
0.201633 0.320592 0.101228
0.220188 0.313481 0.101839
0.264500 0.328161 0.098024
0.316594 0.346441 0.091646
0.377447 0.367712 0.083070
0.430304 0.375280 0.085054
0.473213 0.358160 0.103120
0.546258 0.362249 0.116030
0.574060 0.369635 0.132479
0.600000 0.376989 0.147677
0.624567 0.384497 0.162112
0.649165 0.392859 0.175631
0.674830 0.402472 0.188968
0.704250 0.412207 0.199527
0.746792 0.413642 0.193698
0.785397 0.412909 0.188754
0.820829 0.410773 0.184665
0.853422 0.407446 0.181521
0.883574 0.402747 0.179629
0.911803 0.396521 0.180545
0.938384 0.389715 0.182773
0.963684 0.382452 0.186587
0.988037 0.375250 0.192233
1.000000 0.368231 0.200229
1.000000 0.361822 0.210697
0.090455 0.369940 0.090364
0.097200 0.369055 0.090578
0.104738 0.367926 0.090852
0.119509 0.365332 0.091218
0.138064 0.361578 0.091798
0.158480 0.357061 0.092500
0.179385 0.352209 0.092836
0.199863 0.346532 0.093294
0.219669 0.340093 0.093904
0.246494 0.340154 0.092866
0.296666 0.359045 0.085481
0.354406 0.381201 0.073854
0.420722 0.406134 0.055207
0.476539 0.414221 0.058961
0.521904 0.397833 0.084657
0.600427 0.396887 0.102022
0.623865 0.401038 0.122835
0.646387 0.405951 0.140993
0.669062 0.411994 0.157198
0.692897 0.419593 0.172457
0.718074 0.428717 0.187442
0.743435 0.438911 0.202548
0.775204 0.444373 0.207828
0.811765 0.443214 0.203342
0.845212 0.440436 0.199466
0.876097 0.436469 0.197543
0.904936 0.430823 0.198093
0.932036 0.424689 0.200259
0.957855 0.418067 0.203983
0.982574 0.411688 0.209995
1.000000 0.405432 0.218051
1.000000 0.399969 0.229007
0.077943 0.398871 0.077852
0.084962 0.398322 0.077974
0.094484 0.397070 0.078401
0.111788 0.394629 0.078523
0.131899 0.391028 0.079652
0.153964 0.386206 0.080507
0.176120 0.380499 0.081514
0.197696 0.373938 0.082704
0.218387 0.366888 0.083955
0.238010 0.359136 0.085298
0.275669 0.368719 0.079896
0.330663 0.391424 0.065949
0.393500 0.417060 0.028504
0.464912 0.444984 0.000000
0.522332 0.452979 0.000000
0.568963 0.436378 0.050690
0.649897 0.429084 0.083009
0.670100 0.430701 0.110780
0.690883 0.434241 0.132662
0.712856 0.439490 0.151369
0.735622 0.446204 0.168826
0.758663 0.454078 0.185641
0.781338 0.462745 0.202731
0.803891 0.472450 0.220462
0.836179 0.472572 0.219944
0.868193 0.469429 0.217929
0.898253 0.464973 0.218479
0.926513 0.459846 0.220890
0.953246 0.454322 0.225101
0.978729 0.448951 0.231754
1.000000 0.443885 0.240787
1.000000 0.439582 0.252873
0.059327 0.428992 0.057679
0.069551 0.428443 0.058717
0.080354 0.427497 0.059174
0.100679 0.425055 0.059907
0.124239 0.421271 0.061311
0.148867 0.416327 0.062806
0.172457 0.410590 0.064576
0.195529 0.403998 0.066468
0.217472 0.396551 0.068635
0.238071 0.388159 0.070771
0.257023 0.379004 0.073396
0.307897 0.400366 0.057282
0.366796 0.425666 0.006836
0.433448 0.453346 0.000000
0.507591 0.482338 0.000000
0.564538 0.488716 0.000000
0.610254 0.471015 0.000000
0.688289 0.459541 0.054505
0.713832 0.459266 0.095705
0.734432 0.462287 0.122805
0.755550 0.466773 0.144961
0.776883 0.472572 0.165499
0.798032 0.479408 0.185000
0.818936 0.487129 0.204196
0.839597 0.495979 0.224369
0.862272 0.503349 0.242496
0.892973 0.499702 0.242893
0.921721 0.495369 0.245274
0.948760 0.490547 0.249516
0.974273 0.485786 0.256168
0.998413 0.481117 0.265110
1.000000 0.477424 0.277165
0.006653 0.457618 0.005005
0.035309 0.456764 0.005097
0.062165 0.455634 0.006653
0.087892 0.453132 0.010163
0.115084 0.449348 0.014221
0.141634 0.444373 0.018769
0.167147 0.438544 0.025269
0.191684 0.431647 0.032013
0.214725 0.423896 0.039673
0.236240 0.415351 0.047089
0.256199 0.405890 0.053559
0.284306 0.405524 0.048463
0.340154 0.431159 0.000000
0.403021 0.459205 0.000000
0.473121 0.488899 0.000000
0.549401 0.518883 0.000000
0.604547 0.522789 0.000000
0.649409 0.504356 0.000000
0.721889 0.489998 0.000000
0.754757 0.486336 0.076631
0.773678 0.488075 0.111360
0.792996 0.491432 0.138033
0.812406 0.495949 0.161471
0.831846 0.501701 0.183291
0.851102 0.508721 0.205325
0.869902 0.517418 0.231510
0.888426 0.528069 0.260349
0.914458 0.529290 0.271183
0.942168 0.525444 0.275425
0.968261 0.521447 0.282170
0.992859 0.517723 0.291478
1.000000 0.514885 0.304082
0.000000 0.487098 0.000000
0.000000 0.486793 0.000000
0.000000 0.501671 0.000000
0.060792 0.498848 0.000000
0.099611 0.494728 0.000000
0.132753 0.489021 0.000000
0.162509 0.482155 0.000000
0.190066 0.474189 0.000000
0.215579 0.465248 0.000000
0.239109 0.455482 0.000000
0.260624 0.444923 0.000000
0.280003 0.433295 0.000000
0.321233 0.445228 0.000000
0.382696 0.474372 0.000000
0.450660 0.505180 0.000000
0.524590 0.536278 0.000000
0.602625 0.565911 0.000000
0.655970 0.566552 0.000000
0.699916 0.546258 0.000000
0.764523 0.526146 0.000000
0.801328 0.517205 0.032166
0.817685 0.517174 0.098817
0.834409 0.518761 0.132265
0.851194 0.521782 0.159548
0.867674 0.525872 0.184482
0.883787 0.532067 0.213870
0.899931 0.540063 0.244205
0.916197 0.550347 0.276188
0.935027 0.559686 0.304204
0.961456 0.556420 0.310674
0.986328 0.553582 0.320104
1.000000 0.551476 0.332860
0.000000 0.521691 0.000000
0.000000 0.523064 0.000000
0.000000 0.524315 0.000000
0.002106 0.523796 0.000000
0.082918 0.521294 0.000000
0.121584 0.516686 0.000000
0.154696 0.510216 0.000000
0.184085 0.502403 0.000000
0.211093 0.493690 0.000000
0.235752 0.484138 0.000000
0.258640 0.473365 0.000000
0.279149 0.461830 0.000000
0.297398 0.449042 0.000000
0.353246 0.475715 0.000000
0.417365 0.506493 0.000000
0.487404 0.538170 0.000000
0.561639 0.568597 0.000000
0.639277 0.597467 0.000000
0.690791 0.596124 0.000000
0.733608 0.575219 0.000000
0.791257 0.551720 0.000000
0.833524 0.539147 0.000000
0.849058 0.538476 0.083162
0.864652 0.539391 0.123873
0.880034 0.541711 0.156313
0.895109 0.545983 0.190799
0.910277 0.552209 0.224063
0.925566 0.560723 0.258244
0.941070 0.571984 0.294499
0.956573 0.586450 0.334020
0.979278 0.589014 0.351598
1.000000 0.587884 0.364569
0.000000 0.551171 0.000000
0.000000 0.552422 0.000000
0.000000 0.553521 0.000000
0.000000 0.553124 0.000000
0.056977 0.550713 0.000000
0.107942 0.546227 0.000000
0.145052 0.540032 0.000000
0.177279 0.532433 0.000000
0.206149 0.523919 0.000000
0.232547 0.514336 0.000000
0.256687 0.503868 0.000000
0.278660 0.492317 0.000000
0.298222 0.479652 0.000000
0.326635 0.477974 0.000000
0.387701 0.508904 0.000000
0.454261 0.540856 0.000000
0.525200 0.572015 0.000000
0.599725 0.601862 0.000000
0.677577 0.630335 0.000000
0.726436 0.626246 0.000000
0.766659 0.603754 0.000000
0.818051 0.577234 0.000000
0.864347 0.560204 0.000000
0.878660 0.558831 0.062562
0.892760 0.559136 0.118654
0.906676 0.561273 0.161807
0.920592 0.565362 0.199893
0.934813 0.571893 0.236912
0.949248 0.581048 0.275029
0.963745 0.593439 0.315740
0.977996 0.609644 0.360418
0.995026 0.623011 0.397864
0.000000 0.581262 0.000000
0.000000 0.582757 0.000000
0.000000 0.583886 0.000000
0.000000 0.583490 0.000000
0.000000 0.581201 0.000000
0.089052 0.577050 0.000000
0.133669 0.571130 0.000000
0.169070 0.563867 0.000000
0.200351 0.555657 0.000000
0.228641 0.546258 0.000000
0.254398 0.535943 0.000000
0.277775 0.524468 0.000000
0.298772 0.511742 0.000000
0.317510 0.497932 0.000000
0.360204 0.511467 0.000000
0.424109 0.544152 0.000000
0.492805 0.576715 0.000000
0.565576 0.608484 0.000000
0.641993 0.639246 0.000000
0.720577 0.667689 0.000000
0.766476 0.660426 0.000000
0.805112 0.636683 0.000000
0.850675 0.606531 0.000000
0.899229 0.583948 0.000000
0.912261 0.582300 0.048341
0.925048 0.582452 0.127321
0.937774 0.584588 0.175143
0.950591 0.589105 0.217838
0.963684 0.596368 0.259892
0.976715 0.606836 0.303410
0.989563 0.621088 0.350042
1.000000 0.640009 0.401526
0.000000 0.620905 0.000000
0.000000 0.621241 0.000000
0.000000 0.621118 0.000000
0.000000 0.619684 0.000000
0.000000 0.616632 0.000000
0.059144 0.612207 0.000000
0.118502 0.606653 0.000000
0.159854 0.599908 0.000000
0.194522 0.592401 0.000000
0.225284 0.583917 0.000000
0.253391 0.574456 0.000000
0.278965 0.563653 0.000000
0.302037 0.551354 0.000000
0.322637 0.537774 0.000000
0.340581 0.522789 0.000000
0.399817 0.552850 0.000000
0.466102 0.585687 0.000000
0.536187 0.617823 0.000000
0.609796 0.648920 0.000000
0.685237 0.677516 0.000000
0.760830 0.702388 0.000000
0.801328 0.690211 0.000000
0.836271 0.663813 0.000000
0.875151 0.629908 0.000000
0.924590 0.602167 0.000000
0.936309 0.600122 0.055116
0.948089 0.600122 0.135500
0.960113 0.602533 0.187106
0.972259 0.607599 0.233677
0.984405 0.615778 0.279942
0.996399 0.627649 0.328191
1.000000 0.644190 0.380865
0.000000 0.652918 0.000000
0.000000 0.653315 0.000000
0.000000 0.653376 0.000000
0.000000 0.651881 0.000000
0.000000 0.649195 0.000000
0.000000 0.644984 0.000000
0.098939 0.639612 0.000000
0.147585 0.633143 0.000000
0.186130 0.625818 0.000000
0.219608 0.617639 0.000000
0.249699 0.608667 0.000000
0.277226 0.598505 0.000000
0.302007 0.586999 0.000000
0.324681 0.574212 0.000000
0.344793 0.560296 0.000000
0.374517 0.558312 0.000000
0.438361 0.591363 0.000000
0.506004 0.624079 0.000000
0.577417 0.655970 0.000000
0.650538 0.685298 0.000000
0.724025 0.711208 0.000000
0.797238 0.733639 0.000000
0.833646 0.717678 0.000000
0.866026 0.689998 0.000000
0.895689 0.650690 0.000000
0.944488 0.619593 0.000000
0.957031 0.615991 0.065156
0.968231 0.616144 0.145632
0.979644 0.618982 0.200595
0.991089 0.624842 0.251133
1.000000 0.634363 0.301976
1.000000 0.648554 0.356420
0.000000 0.693477 0.000000
0.000000 0.694148 0.000000
0.000000 0.693904 0.000000
0.000000 0.692378 0.000000
0.000000 0.689296 0.000000
0.000000 0.684932 0.000000
0.066346 0.679377 0.000000
0.132235 0.672663 0.000000
0.176883 0.664851 0.000000
0.213474 0.656428 0.000000
0.246128 0.646937 0.000000
0.275456 0.636683 0.000000
0.302312 0.625269 0.000000
0.326452 0.612726 0.000000
0.348150 0.598718 0.000000
0.367498 0.583581 0.000000
0.411810 0.596582 0.000000
0.476478 0.628473 0.000000
0.544884 0.660334 0.000000
0.615686 0.690303 0.000000
0.686915 0.716976 0.000000
0.757382 0.740139 0.000000
0.827176 0.759854 0.000000
0.859617 0.740719 0.000000
0.888884 0.711238 0.000000
0.917449 0.672480 0.000000
0.962615 0.640284 0.000000
0.977813 0.632197 0.081117
0.988159 0.632563 0.160159
0.998779 0.635950 0.218448
1.000000 0.643000 0.273289
1.000000 0.654627 0.330114
0.000000 0.725765 0.000000
0.000000 0.726406 0.000000
0.000000 0.726345 0.000000
0.000000 0.724971 0.000000
0.000000 0.722255 0.000000
0.000000 0.718441 0.000000
0.000000 0.713558 0.000000
0.112764 0.707698 0.000000
0.164553 0.700984 0.000000
0.205753 0.693416 0.000000
0.240940 0.685054 0.000000
0.272923 0.675837 0.000000
0.302007 0.665522 0.000000
0.328588 0.654108 0.000000
0.352667 0.641230 0.000000
0.374334 0.627527 0.000000
0.393866 0.612634 0.000000
0.454292 0.641444 0.000000
0.520348 0.673030 0.000000
0.587671 0.702235 0.000000
0.655756 0.728542 0.000000
0.724178 0.751766 0.000000
0.792264 0.771756 0.000000
0.859312 0.788540 0.000000
0.888273 0.766323 0.000000
0.914885 0.735103 0.000000
0.939666 0.694636 0.000000
0.981048 0.661067 0.000000
0.998535 0.648798 0.102541
1.000000 0.649836 0.180545
1.000000 0.654566 0.243229
1.000000 0.663722 0.304173
0.000000 0.760433 0.000000
0.000000 0.760800 0.000000
0.000000 0.760494 0.000000
0.000000 0.758877 0.000000
0.000000 0.756252 0.000000
0.000000 0.752590 0.000000
0.000000 0.747951 0.000000
0.083589 0.742641 0.000000
0.149569 0.736660 0.000000
0.195468 0.730098 0.000000
0.234348 0.722652 0.000000
0.268742 0.714839 0.000000
0.300389 0.705867 0.000000
0.329473 0.695613 0.000000
0.355657 0.684047 0.000000
0.379553 0.671473 0.000000
0.401007 0.658289 0.000000
0.429511 0.653742 0.000000
0.493141 0.684565 0.000000
0.558312 0.713222 0.000000
0.624445 0.739223 0.000000
0.691035 0.762417 0.000000
0.757259 0.782467 0.000000
0.822812 0.799557 0.000000
0.887144 0.813535 0.000000
0.913207 0.788968 0.000000
0.937499 0.756435 0.000000
0.960174 0.715328 0.000000
0.996857 0.679866 0.000000
1.000000 0.663569 0.123781
1.000000 0.665705 0.202426
1.000000 0.672114 0.269749
0.000000 0.792721 0.000000
0.000000 0.792752 0.000000
0.000000 0.792386 0.000000
0.000000 0.791226 0.000000
0.000000 0.789151 0.000000
0.000000 0.786618 0.000000
0.000000 0.783841 0.000000
0.000000 0.780636 0.000000
0.130892 0.777035 0.000000
0.184604 0.773098 0.000000
0.227695 0.768612 0.000000
0.264958 0.763760 0.000000
0.299168 0.757931 0.000000
0.331090 0.750790 0.000000
0.360662 0.742397 0.000000
0.388098 0.732448 0.000000
0.413703 0.721431 0.000000
0.437354 0.709682 0.000000
0.476692 0.714107 0.000000
0.540673 0.740780 0.000000
0.605158 0.765011 0.000000
0.669947 0.786648 0.000000
0.734279 0.805325 0.000000
0.797971 0.821347 0.000000
0.860716 0.834623 0.000000
0.921691 0.845060 0.000000
0.944671 0.817380 0.000000
0.966125 0.782620 0.000000
0.986236 0.740414 0.000000
1.000000 0.702571 0.000000
1.000000 0.682124 0.158206
1.000000 0.686000 0.238682
0.000000 0.835691 0.000000
0.000000 0.835660 0.000000
0.000000 0.835142 0.000000
0.000000 0.833921 0.000000
0.000000 0.831998 0.000000
0.000000 0.829496 0.000000
0.000000 0.826627 0.000000
0.000000 0.823392 0.000000
0.072663 0.819821 0.000000
0.153567 0.815824 0.000000
0.205631 0.811307 0.000000
0.248722 0.806241 0.000000
0.287053 0.800473 0.000000
0.322301 0.793851 0.000000
