data/fiter_cube/57993848/1023154/file.cube
# Created by Adobe Lightroom plugin Export LUT (1.17.0)
# www.johnrellis.com/lightroom/exportlut.htm
# Preset: 萌宠摄影后期_01 云集
# Color profile: C:\Program Files (x86)\Common Files\Adobe\Color\Profiles\Recommended\AdobeRGB1998.icc
LUT_3D_SIZE 5
DOMAIN_MIN 0.000000 0.000000 0.000000
DOMAIN_MAX 0.903226 0.903226 0.903226
0.131930 0.131930 0.131930
0.247166 0.125673 0.132815
0.469825 0.103944 0.127047
0.769162 0.000000 0.103700
0.980346 0.000000 0.091096
0.119356 0.233890 0.119326
0.247776 0.222599 0.123262
0.440162 0.235447 0.155032
0.757168 0.235477 0.127504
0.980041 0.179507 0.122255
0.077943 0.398871 0.077852
0.197696 0.373938 0.082704
0.522332 0.452979 0.000000
0.758663 0.454078 0.185641
0.953246 0.454322 0.225101
0.000000 0.620905 0.000000
0.159854 0.599908 0.000000
0.340581 0.522789 0.000000
0.801328 0.690211 0.000000
0.972259 0.607599 0.233677
0.000000 0.870115 0.000000
0.000000 0.860258 0.000000
0.340612 0.817380 0.000000
0.609400 0.816068 0.000000
0.986847 0.856870 0.000000
0.177707 0.177676 0.201053
0.194553 0.194553 0.194553
0.431495 0.129335 0.239078
0.745693 0.000000 0.177615
0.969268 0.000000 0.146517
0.140352 0.227695 0.227726
0.231266 0.231266 0.231266
0.452674 0.209201 0.217288
0.740566 0.159030 0.193698
0.965759 0.050294 0.165988
0.000000 0.423987 0.201236
0.160891 0.412543 0.160647
0.496468 0.438087 0.175937
0.723384 0.454078 0.273869
0.950439 0.439673 0.255314
0.000000 0.645563 0.078340
0.000000 0.630091 0.000000
0.337926 0.549462 0.000000
0.796292 0.689326 0.000000
0.967315 0.612757 0.280522
0.000000 0.876921 0.000000
0.000000 0.866117 0.000000
0.325780 0.831479 0.000000
0.612177 0.819760 0.000000
0.989624 0.854917 0.000000
0.276616 0.276677 0.351446
0.303227 0.292180 0.339635
0.322484 0.322484 0.322484
0.579431 0.378607 0.473457
0.931334 0.000000 0.445289
0.277806 0.304784 0.384070
0.319158 0.319127 0.375769
0.351598 0.351598 0.351598
0.625818 0.350866 0.470375
0.948882 0.000000 0.390112
0.053956 0.431006 0.430915
0.187137 0.434455 0.434546
0.438727 0.438727 0.438727
0.725216 0.398444 0.407813
0.956237 0.332341 0.357885
0.000000 0.703090 0.424292
0.000000 0.692378 0.394903
0.263767 0.652766 0.263737
0.775143 0.691920 0.351446
0.933867 0.669429 0.515282
0.000000 0.892424 0.324285
0.000000 0.890227 0.276036
0.000000 0.869322 0.000000
0.505272 0.790829 0.000000
0.982147 0.853239 0.099397
0.440558 0.440620 0.585687
0.464820 0.452216 0.575982
0.515709 0.496651 0.541833
0.520012 0.520012 0.520012
0.722835 0.722835 0.722835
0.446815 0.463844 0.607141
0.473182 0.473213 0.597528
0.528771 0.510002 0.561486
0.533837 0.533837 0.533837
0.729122 0.725490 0.727321
0.368353 0.499275 0.635981
0.425055 0.511009 0.635218
0.555047 0.555047 0.626246
0.583642 0.583642 0.583642
0.820188 0.657404 0.727932
0.000000 0.680568 0.680659
0.000000 0.679744 0.679835
0.364385 0.682979 0.683070
0.681514 0.681514 0.681514
0.922881 0.621607 0.629023
0.000000 0.928557 0.640650
0.000000 0.926757 0.626459
0.000000 0.918791 0.563592
0.348394 0.875059 0.348333
0.954040 0.869718 0.562463
0.697627 0.697566 0.818662
0.707637 0.701839 0.813596
0.736049 0.718257 0.796109
0.754360 0.747829 0.760128
0.746456 0.746456 0.746456
0.696132 0.702724 0.823270
0.706569 0.706538 0.818448
0.736721 0.721675 0.801419
0.757290 0.748898 0.765286
0.750210 0.750210 0.750210
0.673701 0.713527 0.838651
0.694148 0.722377 0.838102
0.735683 0.735653 0.823148
0.771084 0.758755 0.789059
0.769558 0.769558 0.769558
0.531304 0.724086 0.853696
0.564660 0.727687 0.852110
0.667964 0.746639 0.848661
0.787228 0.787228 0.839597
0.812802 0.812802 0.812802
0.000000 0.875242 0.875303
0.000000 0.875181 0.875273
0.295750 0.876799 0.876829
0.611200 0.878111 0.878172
0.879454 0.879454 0.879454
