data/fiter_cube/63078869/1022672/file.cube
# Created by Adobe Lightroom plugin Export LUT (1.17.0)
# www.johnrellis.com/lightroom/exportlut.htm
# Preset: 暗调胶片街拍_01 云集
# Color profile: C:\Program Files (x86)\Common Files\Adobe\Color\Profiles\Recommended\AdobeRGB1998.icc
LUT_3D_SIZE 5
DOMAIN_MIN 0.000000 0.000000 0.000000
DOMAIN_MAX 0.903226 0.903226 0.903226
0.060822 0.071870 0.070588
0.127657 0.079957 0.079622
0.287480 0.116121 0.080781
0.598444 0.202029 0.087709
0.857908 0.285344 0.146120
0.085817 0.111543 0.100282
0.102358 0.118379 0.106020
0.296025 0.167147 0.084321
0.596063 0.247898 0.098665
0.869200 0.330266 0.167391
0.134066 0.189181 0.157626
0.133974 0.180514 0.156497
0.201328 0.223911 0.188571
0.606867 0.378607 0.157900
0.868559 0.436011 0.208743
0.196628 0.276738 0.226169
0.192447 0.265141 0.221134
0.175967 0.228794 0.200351
0.320378 0.341283 0.278080
0.810208 0.590570 0.373053
0.307012 0.459327 0.350011
0.298283 0.440803 0.340917
0.260044 0.364965 0.298192
0.295079 0.397589 0.310979
0.652308 0.639551 0.528985
0.074128 0.095308 0.105806
0.112459 0.096498 0.116884
0.262791 0.135714 0.129702
0.525505 0.201572 0.154788
0.830747 0.279728 0.190341
0.087922 0.123537 0.105409
0.118685 0.138521 0.131533
0.276310 0.180728 0.144198
0.536797 0.242100 0.161624
0.836759 0.319432 0.201419
0.147250 0.205264 0.169436
0.160525 0.205020 0.181094
0.203006 0.227207 0.199710
0.573449 0.364233 0.193912
0.855558 0.436713 0.250645
0.213565 0.296483 0.241794
0.215885 0.289158 0.242924
0.190463 0.242252 0.215030
0.326726 0.348577 0.290013
0.810117 0.595087 0.396460
0.325536 0.481514 0.366094
0.319799 0.464576 0.359686
0.289555 0.404822 0.328313
0.304601 0.406714 0.323400
0.664790 0.651789 0.547295
0.113161 0.173648 0.212222
0.137148 0.165713 0.215702
0.244846 0.185885 0.238743
0.508324 0.160494 0.262242
0.811551 0.282719 0.306188
0.141878 0.212467 0.220066
0.173404 0.216464 0.228244
0.253239 0.219944 0.247166
0.503777 0.225223 0.256260
0.819699 0.323766 0.316503
0.180179 0.259953 0.211429
0.206271 0.269322 0.225895
0.252079 0.280552 0.263706
0.555261 0.373510 0.300237
0.837278 0.447028 0.360632
0.249760 0.357733 0.275273
0.261112 0.352758 0.284764
0.270848 0.327062 0.291325
0.361242 0.384710 0.336614
0.824216 0.612604 0.465248
0.368078 0.539971 0.401343
0.378363 0.536461 0.409400
0.368170 0.492653 0.398657
0.290623 0.375463 0.320134
0.658869 0.648402 0.557031
0.203647 0.317052 0.398413
0.227268 0.308598 0.402106
0.299535 0.273716 0.389776
0.459785 0.284642 0.417334
0.787778 0.349737 0.518669
0.237949 0.361791 0.415381
0.262150 0.353826 0.413458
0.308843 0.307164 0.397009
0.459571 0.310094 0.417182
0.787045 0.362280 0.508446
0.251469 0.421576 0.406561
0.283635 0.424018 0.413733
0.379706 0.431464 0.440681
0.483497 0.398352 0.437690
0.803433 0.436744 0.491676
0.318181 0.477729 0.369390
0.340246 0.480446 0.377813
0.418891 0.501854 0.418341
0.448066 0.469276 0.440803
0.827848 0.634455 0.576806
0.481239 0.655085 0.487434
0.492592 0.652766 0.497597
0.522759 0.643549 0.525017
0.471962 0.554101 0.482826
0.679805 0.671077 0.604974
0.483467 0.588678 0.703670
0.508934 0.586725 0.702663
0.514885 0.533135 0.695155
0.598047 0.456977 0.664302
0.762661 0.518975 0.688258
0.507897 0.615717 0.707973
0.530846 0.613733 0.707271
0.539055 0.567071 0.700618
0.603876 0.487922 0.668788
0.763790 0.539422 0.691066
0.532525 0.672663 0.711757
0.560937 0.673793 0.715785
0.633204 0.673579 0.721248
0.635828 0.588891 0.693141
0.770382 0.603204 0.703731
0.548730 0.742733 0.706600
0.570733 0.740780 0.709651
0.639185 0.737453 0.722805
0.737911 0.743801 0.750149
0.784695 0.696590 0.729213
0.617426 0.756954 0.646754
0.631006 0.757900 0.653620
0.676814 0.763424 0.678981
0.739254 0.773709 0.717098
0.752987 0.744167 0.722499
