data/fiter_cube/63078869/1022672/file.cube
# Created by Adobe Lightroom plugin Export LUT (1.17.0)
# www.johnrellis.com/lightroom/exportlut.htm
# Preset: 暗调胶片街拍_01 云集
# Color profile: C:\Program Files (x86)\Common Files\Adobe\Color\Profiles\Recommended\AdobeRGB1998.icc
LUT_3D_SIZE 8
DOMAIN_MIN 0.000000 0.000000 0.000000
DOMAIN_MAX 0.903226 0.903226 0.903226
0.060822 0.071870 0.070588
0.070710 0.073091 0.071687
0.147097 0.080659 0.081117
0.236118 0.100008 0.081514
0.351141 0.136172 0.079683
0.549126 0.189364 0.085603
0.726680 0.237400 0.100832
0.857908 0.285344 0.146120
0.062409 0.074647 0.072816
0.066621 0.079744 0.076478
0.143557 0.094942 0.081880
0.229557 0.115267 0.082246
0.344488 0.148989 0.080812
0.515343 0.194644 0.087343
0.699916 0.242039 0.098604
0.846952 0.290593 0.141268
0.091585 0.121614 0.107332
0.092805 0.122072 0.108797
0.112795 0.129915 0.114015
0.236698 0.166415 0.088716
0.367926 0.200961 0.093233
0.542016 0.247044 0.099580
0.741512 0.300237 0.119173
0.866514 0.340154 0.168765
0.116487 0.164248 0.138003
0.117037 0.161837 0.138064
0.120577 0.157443 0.140383
0.173312 0.194644 0.164492
0.347082 0.272618 0.165347
0.602228 0.339269 0.126802
0.760372 0.374243 0.145602
0.869200 0.401282 0.193820
0.151797 0.212924 0.176883
0.151125 0.209812 0.175967
0.149172 0.200168 0.173220
0.158175 0.205173 0.174899
0.226230 0.249058 0.208804
0.422431 0.347265 0.224460
0.731594 0.448554 0.188815
0.871092 0.476234 0.231144
0.184848 0.259312 0.213077
0.186740 0.260136 0.215000
0.181491 0.247288 0.209018
0.171572 0.225101 0.196933
0.200137 0.252018 0.211002
0.296452 0.318517 0.261448
0.567498 0.469184 0.315282
0.835782 0.573480 0.338720
0.228336 0.326452 0.261479
0.227420 0.323674 0.260563
0.219120 0.306279 0.251286
0.206210 0.279759 0.236484
0.191714 0.251286 0.217990
0.260380 0.320439 0.260563
0.414313 0.428656 0.339086
0.705531 0.603265 0.456703
0.307012 0.459327 0.350011
0.304112 0.453437 0.347051
0.296208 0.435920 0.338811
0.285710 0.410285 0.327123
0.249973 0.344610 0.286687
0.270909 0.365362 0.296056
0.432410 0.507927 0.392737
0.652308 0.639551 0.528985
0.061494 0.072511 0.071595
0.069154 0.073243 0.074556
0.138582 0.087709 0.084932
0.221958 0.113313 0.094636
0.330968 0.143404 0.103395
0.489143 0.183139 0.112398
0.678096 0.227970 0.121187
0.833677 0.276219 0.152193
0.063630 0.077729 0.073945
0.070680 0.084749 0.081147
0.139284 0.104982 0.090120
0.221714 0.125887 0.096407
0.329381 0.154849 0.104921
0.478218 0.191989 0.112917
0.659480 0.234440 0.119753
0.821073 0.280644 0.146792
0.090944 0.122347 0.106600
0.098360 0.125704 0.113710
0.116060 0.133974 0.120363
0.228824 0.168826 0.108431
0.340368 0.196078 0.114656
0.495888 0.235691 0.121706
0.685206 0.282109 0.131563
0.838895 0.326329 0.166873
0.120699 0.166842 0.141085
0.124361 0.166903 0.144320
0.126986 0.162631 0.146548
0.167849 0.189425 0.163546
0.308782 0.249790 0.163760
0.527825 0.306676 0.139315
0.703395 0.349218 0.149416
0.843565 0.386084 0.187503
0.158907 0.218448 0.183017
0.157534 0.214572 0.181521
0.154452 0.204196 0.177676
0.158938 0.203342 0.176181
0.218631 0.242008 0.205478
0.396704 0.331273 0.222080
0.705653 0.433814 0.191287
0.856352 0.466651 0.229221
0.188266 0.260868 0.215488
0.187259 0.257847 0.214450
0.182650 0.246342 0.209201
0.173983 0.226719 0.198978
0.199008 0.249882 0.211032
0.294102 0.316472 0.262089
0.556786 0.462318 0.314397
0.826841 0.564935 0.332311
0.226871 0.321263 0.258732
0.223850 0.315373 0.255406
0.217105 0.300755 0.247929
0.206332 0.278141 0.235874
0.190494 0.248112 0.216800
0.255222 0.313878 0.257176
0.396796 0.412909 0.329564
0.683711 0.583215 0.436408
0.302373 0.449378 0.343694
0.301244 0.446082 0.342535
0.294072 0.429877 0.335149
0.283970 0.405493 0.324193
0.262974 0.363012 0.300694
0.275212 0.370306 0.301152
0.425696 0.501427 0.388464
0.640162 0.628687 0.518578
0.078431 0.103822 0.119081
0.078798 0.098726 0.121157
0.129000 0.108309 0.132692
0.219913 0.112306 0.136660
0.330388 0.159640 0.153750
0.490608 0.199039 0.170321
0.685756 0.239597 0.183352
0.839475 0.287327 0.212314
0.081453 0.116335 0.120272
0.094148 0.119265 0.124392
0.131350 0.124056 0.135317
0.215244 0.136446 0.138613
0.324498 0.171176 0.155001
0.479774 0.207523 0.169314
0.673518 0.247562 0.181155
0.833829 0.294499 0.210147
0.098390 0.140200 0.118013
0.110903 0.146090 0.125978
0.135439 0.157259 0.148806
0.228672 0.185550 0.156588
0.341802 0.214511 0.169039
0.498970 0.249912 0.178286
0.685542 0.290257 0.189639
0.837247 0.333165 0.220127
0.132784 0.187381 0.152377
0.142580 0.191501 0.161929
0.158846 0.194797 0.177493
0.186557 0.210941 0.190219
0.330449 0.271763 0.200198
0.533867 0.320958 0.196292
0.711696 0.361883 0.209354
0.846921 0.397894 0.244785
0.169009 0.234745 0.192752
0.175174 0.236057 0.198245
0.183230 0.232975 0.205203
0.177646 0.218448 0.197543
0.236912 0.261875 0.228824
0.420661 0.352911 0.251194
0.720607 0.445319 0.237308
0.854856 0.477180 0.282170
0.201389 0.279393 0.228244
0.205753 0.279789 0.231937
0.207401 0.271702 0.232456
0.195315 0.248600 0.219394
0.207034 0.257206 0.221775
0.300816 0.324285 0.274510
0.562707 0.470314 0.333532
0.832883 0.576471 0.370886
0.244511 0.346502 0.275975
0.246128 0.343816 0.276890
0.241581 0.328344 0.271031
0.226200 0.299931 0.254826
0.203708 0.261570 0.230045
0.260227 0.319036 0.265141
0.414221 0.430060 0.348394
0.709194 0.609583 0.472908
0.319921 0.474464 0.359991
0.319219 0.468727 0.358556
0.313512 0.451423 0.352056
0.304204 0.430091 0.343114
0.278294 0.381201 0.315190
0.275822 0.367285 0.304479
0.430457 0.506889 0.397528
0.653407 0.641535 0.537316
0.094728 0.144808 0.176486
0.105440 0.145022 0.179995
0.138155 0.141421 0.183719
0.199619 0.156252 0.198001
0.314519 0.165621 0.220401
0.463478 0.164309 0.212802
0.647059 0.226658 0.236118
0.818753 0.278996 0.267674
0.112642 0.165133 0.183291
0.122805 0.165652 0.185306
0.144778 0.157900 0.188205
0.204776 0.170840 0.203159
0.318425 0.174655 0.218448
0.456550 0.194583 0.216800
0.643244 0.238743 0.236332
0.817319 0.287999 0.267185
0.121706 0.190738 0.183841
0.133577 0.192569 0.186831
0.166842 0.200015 0.198856
0.216068 0.206760 0.213870
0.325902 0.222538 0.218479
0.484749 0.255436 0.235904
0.686000 0.297856 0.259861
0.835080 0.340551 0.289708
0.151980 0.219425 0.179599
0.161349 0.222812 0.184970
0.189029 0.233799 0.204990
0.214267 0.241428 0.227420
0.349950 0.288975 0.243259
0.506859 0.322393 0.254063
0.692927 0.362432 0.272526
0.840208 0.405737 0.311345
0.191531 0.271275 0.213138
0.196841 0.270787 0.217990
0.215061 0.272831 0.234989
0.226078 0.266606 0.244755
0.264500 0.291508 0.263920
0.463478 0.387610 0.296971
0.729519 0.461219 0.313298
0.850278 0.493507 0.356115
0.225864 0.318883 0.251804
0.234012 0.324102 0.259495
0.246006 0.320409 0.269322
0.246250 0.303166 0.268101
0.230777 0.277287 0.249424
0.328222 0.352483 0.306950
0.597284 0.501762 0.378882
0.843839 0.593805 0.428046
0.267979 0.386267 0.298802
0.271824 0.386084 0.301976
0.281559 0.381689 0.309483
0.276066 0.357397 0.302495
0.243442 0.306737 0.269291
0.273045 0.333623 0.282872
0.437446 0.453040 0.376776
0.729854 0.631525 0.507561
0.359136 0.527764 0.395270
0.361913 0.526421 0.397406
0.365270 0.515160 0.398840
0.353979 0.486336 0.387701
0.316228 0.428168 0.351659
0.274113 0.358984 0.307378
0.431617 0.510185 0.407355
0.666987 0.655207 0.560113
0.135164 0.205570 0.251164
0.146975 0.206577 0.252964
0.162203 0.193912 0.253696
0.214878 0.192233 0.257023
0.293828 0.213748 0.281193
0.437049 0.219059 0.317174
0.645197 0.166079 0.321019
0.812467 0.237522 0.338720
0.150240 0.221927 0.256168
0.160281 0.222965 0.258701
0.173404 0.210575 0.260319
0.219120 0.204807 0.260838
0.295079 0.223087 0.282506
0.442084 0.226352 0.317021
0.646479 0.181765 0.316869
0.811124 0.266514 0.343511
0.169802 0.254429 0.264012
0.182010 0.257908 0.268437
0.209445 0.259495 0.274937
0.231113 0.241306 0.271763
0.299474 0.251835 0.286931
0.449500 0.245975 0.306493
0.639887 0.246250 0.306889
0.804074 0.333776 0.351873
0.179629 0.284306 0.263493
0.188327 0.285283 0.265537
0.217044 0.291539 0.275731
0.262242 0.300389 0.292149
0.329900 0.298802 0.301732
0.473243 0.317235 0.307561
0.658961 0.352483 0.332982
0.819608 0.397467 0.370428
0.212222 0.307469 0.247318
0.220310 0.310643 0.251774
0.245396 0.319829 0.265354
0.279759 0.329259 0.292973
0.295476 0.324102 0.304204
0.504601 0.409461 0.343297
0.692897 0.448859 0.367926
0.832395 0.490089 0.411017
0.250401 0.362249 0.271489
0.255436 0.362188 0.276158
0.269352 0.359442 0.288945
0.291173 0.357183 0.308659
0.283116 0.327550 0.300114
0.350439 0.376104 0.338628
0.636072 0.532128 0.428107
0.848020 0.606348 0.491188
0.301244 0.444495 0.328466
0.304051 0.441932 0.330694
0.314641 0.436011 0.339391
0.329992 0.425879 0.351690
0.311498 0.381262 0.332891
0.280705 0.336065 0.297887
0.451850 0.468391 0.403326
0.747372 0.646265 0.534630
0.392370 0.567803 0.420325
0.393988 0.565087 0.421393
0.399084 0.556085 0.425147
0.418158 0.552789 0.440986
0.388769 0.504112 0.415106
0.321843 0.415351 0.353002
0.410010 0.493721 0.401740
0.665492 0.655299 0.569970
0.192203 0.296666 0.370001
0.204196 0.297917 0.373693
0.217350 0.281621 0.374151
0.261265 0.265904 0.368719
0.319921 0.251652 0.357275
0.425116 0.271672 0.389319
0.608331 0.300267 0.452918
0.802701 0.319127 0.488167
0.202518 0.307164 0.369390
0.211398 0.305821 0.369726
0.228183 0.293187 0.369085
0.259648 0.271977 0.363012
0.315831 0.256901 0.352575
0.420447 0.277653 0.385565
0.606470 0.303899 0.449287
0.801541 0.322179 0.483528
0.235508 0.356085 0.393408
0.244968 0.355047 0.394049
0.267430 0.345953 0.390906
0.281529 0.314824 0.382605
0.327489 0.288823 0.363531
0.431678 0.308965 0.394690
0.621180 0.329381 0.451453
0.807889 0.350134 0.478676
0.242924 0.391913 0.391333
0.252262 0.390509 0.391180
0.286503 0.393622 0.399451
0.347051 0.405127 0.422858
0.365423 0.360235 0.402533
0.465919 0.371862 0.422736
0.657710 0.381384 0.458656
0.816648 0.410834 0.476570
0.250950 0.404730 0.363745
0.259709 0.406470 0.366674
0.288212 0.412512 0.376989
0.334539 0.424292 0.396612
0.396307 0.434546 0.420844
0.492714 0.422126 0.424811
0.661860 0.453376 0.445655
0.812955 0.505119 0.493050
0.287541 0.429511 0.334539
0.297337 0.435492 0.340612
0.323278 0.444587 0.353460
0.365515 0.458503 0.375036
0.402747 0.457038 0.405737
0.413336 0.437415 0.410071
0.706203 0.579095 0.511131
0.833005 0.612543 0.551873
0.369207 0.538506 0.381994
0.376989 0.540429 0.388983
0.393103 0.537377 0.403632
0.415930 0.530877 0.424262
0.433967 0.513512 0.440375
0.382635 0.436042 0.394842
0.496925 0.511650 0.461006
0.789792 0.687648 0.602411
0.463142 0.638605 0.474281
0.464881 0.636378 0.475807
0.472358 0.630426 0.482338
0.487953 0.624140 0.496193
0.495521 0.604303 0.503044
0.446448 0.536858 0.461555
0.392248 0.473701 0.404273
0.677974 0.668788 0.598444
0.273777 0.417762 0.532280
0.285710 0.416907 0.533288
0.302739 0.400336 0.530663
0.325475 0.365301 0.524376
0.390570 0.336980 0.503899
0.467353 0.318212 0.492439
0.590478 0.350286 0.525811
0.753567 0.455604 0.603723
0.283330 0.428260 0.532128
0.294255 0.427131 0.532952
0.317845 0.414740 0.530236
0.327550 0.373663 0.521965
0.389593 0.344701 0.502037
0.464027 0.323613 0.489265
0.585962 0.354833 0.522118
0.751125 0.454597 0.600000
0.323674 0.474220 0.549462
0.332464 0.472236 0.548913
0.358404 0.463203 0.545434
0.371130 0.429145 0.536706
0.405585 0.385779 0.515618
0.472572 0.354894 0.497414
0.595117 0.389105 0.530968
0.760708 0.478187 0.606683
0.344244 0.520043 0.553979
0.354925 0.518975 0.554253
0.395697 0.520897 0.561059
0.443427 0.514397 0.564050
0.444862 0.460822 0.543786
0.490272 0.410285 0.514397
0.610834 0.444099 0.546654
0.773983 0.510948 0.612970
0.345586 0.558679 0.542870
0.356054 0.558099 0.543877
0.392035 0.558160 0.549645
0.449256 0.560266 0.562707
0.520867 0.562890 0.580560
0.515221 0.488472 0.540185
0.623713 0.504814 0.561089
0.789883 0.549126 0.613642
0.366033 0.573846 0.507713
0.375067 0.575006 0.510582
0.404822 0.578393 0.519951
0.451575 0.585473 0.537499
0.509361 0.595148 0.562127
0.581964 0.602533 0.589715
0.664820 0.580560 0.586633
0.803586 0.617395 0.617517
0.423651 0.602777 0.475257
0.431800 0.604822 0.479347
0.456794 0.609705 0.491341
0.496223 0.618128 0.511315
0.545220 0.628107 0.537255
0.582818 0.622950 0.565972
0.568536 0.577935 0.548089
0.825986 0.724453 0.681239
0.541161 0.703029 0.531151
0.544976 0.703090 0.534783
0.560510 0.704646 0.549310
0.582147 0.704189 0.569818
0.605249 0.699947 0.592096
0.619257 0.684565 0.606348
0.540581 0.593744 0.539117
0.701778 0.693538 0.644160
0.483467 0.588678 0.703670
0.492592 0.588952 0.703944
0.508202 0.581292 0.702022
0.502495 0.547478 0.698909
0.534844 0.518181 0.689204
0.583764 0.472572 0.670680
0.666835 0.464485 0.670039
0.762661 0.518975 0.688258
0.489540 0.595911 0.703883
0.498238 0.596094 0.704128
0.521263 0.592828 0.702632
0.513512 0.559228 0.699001
0.538476 0.526726 0.689570
0.584649 0.480629 0.670863
0.665614 0.469520 0.668940
0.761990 0.523339 0.687953
0.513848 0.623163 0.708980
0.521263 0.622980 0.709010
0.541680 0.619379 0.707332
0.558495 0.603906 0.705653
0.559625 0.562097 0.696529
0.594598 0.514336 0.677241
0.668238 0.493996 0.671870
0.763943 0.545525 0.691798
0.531640 0.656825 0.713741
0.543847 0.658900 0.715572
0.576379 0.662226 0.718776
0.605188 0.656703 0.717342
0.603723 0.622034 0.710140
0.617762 0.572992 0.692226
0.675441 0.536156 0.679805
0.768368 0.582147 0.699519
0.535485 0.690791 0.709712
0.544762 0.691463 0.711391
0.571923 0.691798 0.715511
0.615778 0.693507 0.723751
0.663386 0.692836 0.727871
0.653864 0.644831 0.712581
0.683589 0.588220 0.689876
0.773404 0.627497 0.709407
0.543053 0.730709 0.705776
0.549615 0.730007 0.706477
0.573022 0.728389 0.709834
0.611994 0.726864 0.717037
0.663569 0.727321 0.729030
0.723049 0.733181 0.744778
0.709499 0.669734 0.715023
0.782559 0.683131 0.725307
0.570397 0.743038 0.675441
0.575738 0.743221 0.677211
0.594293 0.744289 0.683864
0.626337 0.747189 0.696468
0.667170 0.751583 0.713863
0.712734 0.758480 0.735592
0.763424 0.761410 0.754360
0.796872 0.736995 0.743038
0.617426 0.756954 0.646754
0.621332 0.757137 0.648646
0.635737 0.758389 0.656123
0.661128 0.761349 0.669978
0.693782 0.765774 0.688869
0.729946 0.771878 0.711086
0.760861 0.774350 0.733455
0.752987 0.744167 0.722499
