data/fiter_cube/63078869/1022672/file.cube
# Created by Adobe Lightroom plugin Export LUT (1.17.0)
# www.johnrellis.com/lightroom/exportlut.htm
# Preset: 暗调胶片街拍_01 云集
# Color profile: C:\Program Files (x86)\Common Files\Adobe\Color\Profiles\Recommended\AdobeRGB1998.icc
LUT_3D_SIZE 32
DOMAIN_MIN 0.0 0.0 0.0
DOMAIN_MAX 1.0 1.0 1.0
0.060822 0.071870 0.070588
0.060822 0.071870 0.070588
0.060822 0.071870 0.070588
0.060822 0.071870 0.070588
0.070710 0.073091 0.071687
0.091737 0.076265 0.075044
0.109346 0.078614 0.077882
0.127657 0.079957 0.079622
0.147097 0.080659 0.081117
0.167544 0.082948 0.081910
0.189548 0.087831 0.082185
0.212497 0.093416 0.081758
0.236118 0.100008 0.081514
0.261112 0.107424 0.081025
0.287480 0.116121 0.080781
0.315373 0.125032 0.080446
0.351141 0.136172 0.079683
0.398840 0.149905 0.080598
0.447150 0.163027 0.082185
0.498177 0.176425 0.083467
0.549126 0.189364 0.085603
0.598444 0.202029 0.087709
0.644251 0.214298 0.091341
0.687160 0.226078 0.095033
0.726680 0.237400 0.100832
0.763272 0.248692 0.108064
0.797482 0.260105 0.117739
0.828916 0.272282 0.130526
0.857908 0.285344 0.146120
0.884672 0.300023 0.165499
0.909209 0.316960 0.188937
0.931548 0.337102 0.217838
0.060822 0.071870 0.070588
0.060822 0.071870 0.070588
0.060822 0.071870 0.070588
0.060822 0.071870 0.070588
0.070253 0.073182 0.071687
0.091249 0.075288 0.074800
0.108583 0.078462 0.077607
0.126558 0.079957 0.079347
0.145571 0.080842 0.081178
0.166110 0.084474 0.082185
0.187778 0.089479 0.082490
0.210330 0.094636 0.082124
0.233677 0.101381 0.081910
0.258305 0.108492 0.081209
0.284154 0.116609 0.080781
0.311498 0.125338 0.080934
0.346868 0.136507 0.079622
0.391547 0.149355 0.080720
0.436927 0.161990 0.082216
0.486091 0.174685 0.083742
0.536278 0.187503 0.085237
0.585412 0.200076 0.086946
0.631434 0.212070 0.090120
0.674983 0.223850 0.093507
0.715602 0.235203 0.098573
0.753506 0.246464 0.105623
0.789242 0.258122 0.114839
0.822171 0.270359 0.126955
0.852354 0.283421 0.142397
0.880125 0.297887 0.161379
0.905425 0.314488 0.184451
0.928405 0.334234 0.212619
0.060822 0.071870 0.070588
0.060822 0.071870 0.070588
0.060822 0.071870 0.070588
0.060822 0.071870 0.070588
0.070253 0.073182 0.071687
0.090852 0.075746 0.074769
0.108125 0.078248 0.077302
0.125887 0.079774 0.079377
0.144747 0.082094 0.080812
0.164981 0.086763 0.082368
0.186496 0.091737 0.082673
0.208927 0.097139 0.082612
0.232273 0.103273 0.081849
0.256687 0.110445 0.081147
0.282261 0.118379 0.081086
0.309514 0.127108 0.080629
0.345037 0.138155 0.079652
0.387823 0.150484 0.080842
0.431617 0.162478 0.082856
0.479927 0.175296 0.084047
0.529656 0.187747 0.085573
0.578851 0.200320 0.087129
0.625177 0.212345 0.089815
0.668910 0.223972 0.093324
0.709895 0.235264 0.097932
0.748470 0.246494 0.104707
0.784939 0.258122 0.113497
0.818570 0.270298 0.125277
0.849485 0.283268 0.140658
0.877714 0.297734 0.159670
0.903410 0.314153 0.182376
0.926635 0.333532 0.210117
0.060822 0.071870 0.070588
0.060822 0.071870 0.070588
0.060822 0.071870 0.070588
0.060822 0.071870 0.070588
0.071107 0.073030 0.072053
0.091157 0.076051 0.074739
0.108064 0.078981 0.077241
0.125582 0.082887 0.079774
0.144442 0.087312 0.081605
0.164584 0.092042 0.082521
0.186007 0.096742 0.082826
0.208255 0.102174 0.082765
0.231205 0.108400 0.081971
0.255344 0.115114 0.081331
0.280827 0.122591 0.081025
0.307774 0.130831 0.080629
0.344152 0.142275 0.079774
0.384192 0.153750 0.081514
0.425422 0.165133 0.083223
0.470985 0.177066 0.084657
0.519219 0.189456 0.085847
0.567681 0.201541 0.087373
0.614740 0.213657 0.089784
0.660456 0.225589 0.093141
0.704097 0.237339 0.097841
0.745174 0.249271 0.104524
0.783444 0.261143 0.113863
0.818082 0.273625 0.125826
0.849149 0.286595 0.141390
0.877287 0.300664 0.160067
0.902617 0.316625 0.182498
0.925475 0.335119 0.209354
0.062409 0.074647 0.072816
0.062715 0.075380 0.073121
0.063050 0.076051 0.073396
0.064149 0.077302 0.074311
0.066621 0.079744 0.076478
0.090974 0.084321 0.075410
0.107546 0.087282 0.078187
0.124697 0.090883 0.080690
0.143557 0.094942 0.081880
0.163272 0.099641 0.083070
0.184573 0.104280 0.083070
0.206607 0.109438 0.083314
0.229557 0.115267 0.082246
0.253452 0.121706 0.081910
0.278904 0.129030 0.081270
0.306249 0.137270 0.081117
0.344488 0.148989 0.080812
0.383337 0.159976 0.082673
0.423865 0.171267 0.084474
0.468452 0.182803 0.085786
0.515343 0.194644 0.087343
0.563134 0.206760 0.088746
0.609857 0.218662 0.090455
0.655695 0.230350 0.094087
0.699916 0.242039 0.098604
0.741878 0.254032 0.105013
0.780575 0.265873 0.114168
0.815579 0.277897 0.126101
0.846952 0.290593 0.141268
0.875212 0.304417 0.159823
0.900816 0.319860 0.181704
0.923888 0.337926 0.208408
0.069886 0.087922 0.081788
0.070619 0.088136 0.082368
0.070893 0.088716 0.082612
0.071290 0.090120 0.083406
0.073579 0.091249 0.085634
0.079683 0.093874 0.087282
0.102205 0.100587 0.085176
0.125612 0.101930 0.081392
0.144076 0.105806 0.083192
0.164126 0.109621 0.083772
0.185092 0.114290 0.084352
0.207065 0.119356 0.083619
0.229831 0.124697 0.082856
0.254002 0.130861 0.082155
0.279454 0.137758 0.081483
0.310338 0.146944 0.081209
0.346990 0.158267 0.082521
0.384924 0.168948 0.084413
0.425238 0.179843 0.086641
0.470100 0.191531 0.087984
0.517510 0.203677 0.089174
0.565881 0.215793 0.090700
0.689509 0.252537 0.103426
0.729854 0.263554 0.109743
0.765927 0.274052 0.117494
0.798215 0.284123 0.126955
0.827054 0.294377 0.138643
0.853239 0.304936 0.152377
0.877409 0.316686 0.168917
0.899809 0.329961 0.188510
0.920287 0.345373 0.211948
0.938933 0.363684 0.239445
0.079255 0.101595 0.092683
0.079530 0.101808 0.092927
0.079835 0.102022 0.093172
0.080323 0.102724 0.093874
0.081697 0.103548 0.095338
0.083894 0.104219 0.096529
0.092500 0.107698 0.098238
0.113832 0.116060 0.097353
0.144747 0.121950 0.089723
0.171817 0.125216 0.085298
0.193698 0.129915 0.085023
0.216403 0.134524 0.084169
0.239750 0.139895 0.083131
0.264195 0.145846 0.082185
0.289952 0.152438 0.081575
0.326696 0.163668 0.083497
0.363928 0.174563 0.086275
0.403174 0.185428 0.088411
0.446418 0.197086 0.089845
0.495033 0.209751 0.091646
0.547784 0.223545 0.093294
0.602472 0.237888 0.096407
0.656611 0.252384 0.100801
0.707301 0.266300 0.107057
0.752041 0.278965 0.115755
0.789303 0.290318 0.125856
0.820859 0.300847 0.137697
0.848295 0.311467 0.151553
0.873320 0.322576 0.167727
0.895995 0.335119 0.186831
0.916838 0.349737 0.209659
0.935821 0.367163 0.236637
0.085817 0.111543 0.100282
0.085786 0.111788 0.100252
0.085725 0.111788 0.100496
0.086152 0.112642 0.100862
0.086976 0.112764 0.101808
0.088777 0.112245 0.103487
0.092256 0.114748 0.103639
0.102358 0.118379 0.106020
0.122591 0.127077 0.107118
0.154757 0.136599 0.099245
0.188418 0.142916 0.090120
0.217166 0.147219 0.085145
0.240543 0.152193 0.083803
0.264897 0.157748 0.082856
0.296025 0.167147 0.084321
0.329442 0.176699 0.086885
0.364538 0.186496 0.089296
0.401862 0.196719 0.091310
0.443458 0.207797 0.092714
0.490730 0.220371 0.094606
0.542229 0.233829 0.096223
0.596063 0.247898 0.098665
0.649348 0.261967 0.102815
0.699794 0.275700 0.108797
0.744747 0.288090 0.116762
0.782895 0.299290 0.126253
0.815244 0.309392 0.137606
0.843565 0.319402 0.150973
0.869200 0.330266 0.167391
0.892454 0.342138 0.186160
0.913756 0.356054 0.208652
0.933074 0.372747 0.235538
0.091585 0.121614 0.107332
0.091585 0.121614 0.107332
0.091768 0.122225 0.107485
0.091890 0.122591 0.107912
0.092805 0.122072 0.108797
0.093965 0.121248 0.109957
0.095674 0.121431 0.110567
0.101686 0.125368 0.111116
0.112795 0.129915 0.114015
0.131716 0.138308 0.117342
0.165438 0.150881 0.109773
0.200381 0.159609 0.100191
0.236698 0.166415 0.088716
0.271824 0.174441 0.086213
0.302586 0.183169 0.088319
0.334264 0.191867 0.090578
0.367926 0.200961 0.093233
0.404334 0.210575 0.094942
0.445075 0.221469 0.096223
0.491493 0.233707 0.097780
0.542016 0.247044 0.099580
0.594751 0.260929 0.102022
0.647059 0.274815 0.106325
0.696681 0.288060 0.112062
0.741512 0.300237 0.119173
0.779568 0.310826 0.128695
0.812253 0.320439 0.139803
0.840726 0.330022 0.152926
0.866514 0.340154 0.168765
0.889891 0.351385 0.187198
0.911254 0.364538 0.209415
0.930663 0.380224 0.235660
0.097261 0.131868 0.114199
0.097261 0.131868 0.114199
0.097169 0.132052 0.114382
0.097688 0.131991 0.114778
0.097963 0.131350 0.115450
0.098939 0.130282 0.116152
0.099947 0.128969 0.116854
0.102449 0.131746 0.116152
0.111391 0.136294 0.118715
0.123445 0.141329 0.122194
0.140658 0.149081 0.127657
0.176181 0.164248 0.120241
0.215885 0.177859 0.113130
0.258640 0.189425 0.104311
0.304082 0.200046 0.095064
0.340154 0.208865 0.095918
0.374609 0.218021 0.097993
0.411810 0.227848 0.099916
0.453071 0.238834 0.101137
0.498543 0.250797 0.102449
0.546715 0.263401 0.103914
0.595972 0.276066 0.106477
0.644923 0.288731 0.109865
0.691829 0.300786 0.114717
0.735134 0.312047 0.121553
0.773373 0.322240 0.130220
0.807004 0.331762 0.140963
0.836728 0.341161 0.154147
0.863523 0.351202 0.170443
0.887785 0.362310 0.189517
0.909728 0.375250 0.212192
0.929564 0.390692 0.239109
0.102144 0.141451 0.120760
0.102113 0.141451 0.120943
0.102449 0.141238 0.120974
0.102998 0.140993 0.121370
0.103334 0.140230 0.121828
0.104067 0.138888 0.122316
0.104707 0.137728 0.122988
0.106111 0.137728 0.122957
0.111269 0.142397 0.123140
0.121553 0.147555 0.126864
0.135836 0.154604 0.132235
0.153872 0.164034 0.142123
0.192844 0.182528 0.136385
0.233738 0.197513 0.129305
0.278233 0.210788 0.120912
0.327611 0.223362 0.110323
0.376745 0.234714 0.103792
0.415503 0.244450 0.104677
0.456123 0.255283 0.106203
0.500816 0.267002 0.107118
0.548272 0.279454 0.108614
0.596948 0.292058 0.110933
0.645411 0.304631 0.114473
0.691829 0.316503 0.119478
0.734554 0.327367 0.125887
0.772244 0.337011 0.134005
0.805295 0.345861 0.144747
0.834714 0.354620 0.157534
0.861326 0.363867 0.173159
0.885466 0.374243 0.192111
0.907469 0.386419 0.214725
0.927398 0.401099 0.241398
0.107607 0.150851 0.127596
0.107881 0.150637 0.127779
0.107912 0.150484 0.127810
0.108248 0.149935 0.128023
0.108583 0.149264 0.128450
0.109224 0.148196 0.128908
0.109895 0.146944 0.129549
0.110903 0.145296 0.130037
0.113832 0.148592 0.130007
0.122377 0.155276 0.133364
0.135622 0.163058 0.138979
0.151431 0.171511 0.145541
0.184176 0.194705 0.167361
0.227359 0.216709 0.164889
0.276524 0.236576 0.158480
0.331609 0.254765 0.149874
0.393133 0.272251 0.137972
0.463325 0.289830 0.121096
0.518547 0.302037 0.117739
0.560998 0.311986 0.119265
0.604395 0.321935 0.121431
0.647669 0.331975 0.124483
0.689448 0.341497 0.128603
0.729030 0.350469 0.134371
0.764889 0.358679 0.142031
0.796750 0.366064 0.151278
0.824735 0.373053 0.162448
0.849882 0.380041 0.175387
0.872892 0.387732 0.191196
0.894224 0.396948 0.210147
0.913848 0.408118 0.232334
0.931914 0.422248 0.259312
0.116487 0.164248 0.138003
0.116518 0.164096 0.138003
0.116670 0.163638 0.137881
0.116823 0.162875 0.137972
0.117037 0.161837 0.138064
0.117159 0.160189 0.138064
0.117647 0.158755 0.138338
0.118807 0.157839 0.139406
0.120577 0.157443 0.140383
0.126223 0.164889 0.141939
0.138277 0.173342 0.147707
0.153964 0.183322 0.155337
0.173312 0.194644 0.164492
0.196139 0.207584 0.177859
0.238834 0.230137 0.178347
0.289769 0.252140 0.173312
0.347082 0.272618 0.165347
0.411353 0.292454 0.154055
0.483925 0.312200 0.138949
0.552026 0.328222 0.126772
0.602228 0.339269 0.126802
0.644678 0.348882 0.129458
0.685664 0.358068 0.133547
0.724727 0.366613 0.138705
0.760372 0.374243 0.145602
0.792172 0.381201 0.154665
0.820401 0.387549 0.165499
0.845823 0.394018 0.178439
0.869200 0.401282 0.193820
0.890898 0.410010 0.212680
0.910857 0.420539 0.235050
0.929259 0.434028 0.262181
0.124056 0.175051 0.146487
0.124300 0.175021 0.146487
0.124300 0.174899 0.146639
0.124544 0.174441 0.146975
0.124910 0.173587 0.147219
0.125338 0.172427 0.147463
0.125795 0.170993 0.147768
0.126528 0.169375 0.148043
0.127138 0.167453 0.148226
0.130098 0.169894 0.149294
0.137179 0.178195 0.151888
0.151156 0.187350 0.159091
0.167910 0.198001 0.167483
0.187716 0.209537 0.176822
0.210361 0.222416 0.189700
0.251377 0.244175 0.192233
0.303563 0.267430 0.187259
0.362127 0.289586 0.179873
0.429969 0.312108 0.169589
0.505730 0.334539 0.155795
0.581842 0.353826 0.138705
0.642725 0.367285 0.135958
0.684596 0.376318 0.139223
0.723262 0.384619 0.144656
0.758755 0.391943 0.151247
0.790372 0.398413 0.160281
0.818570 0.404334 0.170596
0.843992 0.410285 0.183413
0.867399 0.417060 0.199100
0.889158 0.425177 0.217960
0.909178 0.435309 0.240574
0.927611 0.448280 0.268101
0.134066 0.189181 0.157626
0.134279 0.189029 0.157626
0.134188 0.188540 0.157687
0.134249 0.187686 0.157351
0.133944 0.186343 0.157351
0.133791 0.184634 0.156954
0.134005 0.182834 0.156863
0.133974 0.180514 0.156497
0.134127 0.178164 0.156313
0.134310 0.175601 0.155978
0.139620 0.181857 0.158083
0.148989 0.190982 0.162356
0.163699 0.200992 0.170260
0.181125 0.212009 0.179049
0.201328 0.223911 0.188571
0.224247 0.236484 0.200961
0.263890 0.257847 0.205661
0.317662 0.282750 0.201053
0.379553 0.307286 0.194186
0.452186 0.333318 0.184756
0.530205 0.357946 0.172610
0.606867 0.378607 0.157900
0.673457 0.393622 0.147097
0.722316 0.403357 0.150698
0.757595 0.410437 0.157687
0.789609 0.416846 0.166415
0.818418 0.422797 0.177981
0.844602 0.429023 0.191775
0.868559 0.436011 0.208743
0.890654 0.444434 0.229160
0.910857 0.455024 0.253941
0.929168 0.468727 0.283787
0.143526 0.201785 0.167819
0.143496 0.201785 0.167941
0.143404 0.201328 0.167849
0.143282 0.200443 0.167697
0.143252 0.199191 0.167422
0.142947 0.197360 0.167086
0.142733 0.195285 0.166781
0.142580 0.193057 0.166201
0.142367 0.190219 0.165682
0.141878 0.187076 0.164797
0.142641 0.185763 0.164370
0.149599 0.194369 0.167239
0.160616 0.203708 0.172885
0.175906 0.213748 0.180697
0.193301 0.224704 0.189395
0.213657 0.236454 0.198611
0.236881 0.249241 0.210971
0.275608 0.270512 0.218143
0.332891 0.298253 0.214572
0.400153 0.326970 0.209323
0.479255 0.357244 0.201144
0.560388 0.384527 0.190799
0.637537 0.406561 0.178744
0.707576 0.422919 0.165255
0.759457 0.432837 0.167666
0.794217 0.439063 0.176913
0.822263 0.444556 0.188815
0.847715 0.450324 0.203311
0.870909 0.456703 0.220676
0.892058 0.464424 0.241276
0.911254 0.474128 0.265995
0.928679 0.486854 0.295537
0.151797 0.212924 0.176883
0.151705 0.212711 0.176761
0.151644 0.212192 0.176699
0.151369 0.211368 0.176425
0.151125 0.209812 0.175967
0.150546 0.207919 0.175570
0.150149 0.205661 0.174807
0.149599 0.203189 0.174044
0.149172 0.200168 0.173220
0.148501 0.196811 0.172061
0.147463 0.192966 0.170535
0.150668 0.195865 0.171572
0.158175 0.205173 0.174899
0.171267 0.214939 0.181888
0.187076 0.225528 0.190249
0.205173 0.236820 0.199161
0.226230 0.249058 0.208804
0.250095 0.262516 0.221225
0.288609 0.284001 0.231205
0.349676 0.314763 0.228794
0.422431 0.347265 0.224460
0.505058 0.380285 0.217411
0.586786 0.408881 0.208743
0.663539 0.431891 0.198947
0.731594 0.448554 0.188815
0.785428 0.458503 0.185000
0.822690 0.464637 0.197879
0.848020 0.470100 0.213199
0.871092 0.476234 0.231144
0.892058 0.483772 0.252598
0.911101 0.493355 0.278386
0.928222 0.506096 0.309178
0.160067 0.224338 0.186007
0.160220 0.224308 0.186130
0.167422 0.233555 0.193912
0.166903 0.232273 0.193271
0.166232 0.230442 0.192477
0.165408 0.227939 0.191531
0.164279 0.224949 0.190188
0.163088 0.221500 0.188632
0.161563 0.217533 0.186893
0.160250 0.213199 0.185031
0.158297 0.208347 0.182589
0.156130 0.202914 0.179843
0.162692 0.210941 0.183078
0.171756 0.221225 0.187320
0.186648 0.231968 0.195712
0.203952 0.243534 0.204776
0.223819 0.256199 0.214481
0.246738 0.269780 0.224949
0.273075 0.284550 0.238224
0.313909 0.307652 0.251621
0.382055 0.342962 0.250065
0.463569 0.380499 0.246250
0.548577 0.415198 0.240665
0.629053 0.443702 0.233799
0.701320 0.465217 0.226291
0.762448 0.479469 0.218997
0.811704 0.486915 0.212650
0.846555 0.491585 0.224491
0.871519 0.496620 0.242954
0.891875 0.503441 0.264622
0.910430 0.512596 0.290806
0.927214 0.525109 0.322576
0.170230 0.238132 0.196963
0.171176 0.239231 0.197910
0.171878 0.240055 0.198795
0.172519 0.240146 0.199283
0.172366 0.239322 0.199374
0.171817 0.237186 0.198550
0.170718 0.234318 0.197360
0.169528 0.230777 0.195682
0.167971 0.226780 0.193912
0.166354 0.222538 0.191836
0.164431 0.217533 0.189425
0.161990 0.212100 0.186465
0.161898 0.210117 0.185061
0.169894 0.219974 0.189181
0.180545 0.230655 0.194675
0.196017 0.241886 0.203403
0.214023 0.253971 0.212711
0.234836 0.267277 0.222965
0.259098 0.282017 0.234379
0.287083 0.298070 0.248234
0.328405 0.321904 0.265080
0.402380 0.361578 0.265324
0.488991 0.402930 0.263188
0.575189 0.439338 0.259770
0.655268 0.468849 0.255314
0.725856 0.491035 0.250919
0.783932 0.505241 0.247471
0.830198 0.513054 0.246128
0.865995 0.517723 0.252964
0.891875 0.524071 0.278325
0.909941 0.532799 0.305089
0.926329 0.545464 0.338537
0.177615 0.248447 0.204929
0.178378 0.249485 0.205814
0.179019 0.250278 0.206638
0.179416 0.250217 0.206943
0.179324 0.249363 0.206943
0.178805 0.247227 0.206149
0.177676 0.244327 0.204807
0.176181 0.240818 0.203128
0.174746 0.236851 0.201358
0.172885 0.232303 0.199222
0.170687 0.227390 0.196628
0.168276 0.221561 0.193423
0.165255 0.215427 0.189853
0.168734 0.218936 0.191135
0.177310 0.229557 0.195621
0.189883 0.240665 0.202426
0.206210 0.252628 0.211673
0.225284 0.265690 0.221775
0.247532 0.280247 0.232792
0.273838 0.296391 0.245090
0.304051 0.314122 0.260105
0.346990 0.339483 0.280888
0.428168 0.384039 0.282841
0.517876 0.428107 0.282841
0.604242 0.465583 0.281437
0.683101 0.495796 0.279881
0.750362 0.517784 0.278935
0.804349 0.531914 0.280156
0.847410 0.540398 0.284062
0.882261 0.545190 0.289952
0.906737 0.552758 0.317174
0.924804 0.565270 0.353979
0.184848 0.259312 0.213077
0.185702 0.260288 0.213931
0.186557 0.261082 0.214817
0.186801 0.261051 0.215091
0.186740 0.260136 0.215000
0.185977 0.258061 0.214267
0.184756 0.255009 0.212741
0.183291 0.251316 0.210971
0.181491 0.247288 0.209018
0.179568 0.242527 0.206699
0.177310 0.237430 0.203983
0.174533 0.231571 0.200748
0.171572 0.225101 0.196933
0.167910 0.218143 0.192660
0.175875 0.228122 0.197421
0.185061 0.239719 0.202335
0.200137 0.252018 0.211002
0.218387 0.265721 0.221500
0.240024 0.281193 0.233341
0.265782 0.298680 0.246586
0.296452 0.318517 0.261448
0.332311 0.340368 0.279301
0.380865 0.369482 0.306279
0.473671 0.421820 0.311406
0.567498 0.469184 0.315282
0.654261 0.508537 0.318730
0.729397 0.538903 0.323033
0.789212 0.559808 0.329595
0.835782 0.573480 0.338720
0.872526 0.582574 0.350103
0.902403 0.589410 0.364050
0.925200 0.598535 0.389471
0.196628 0.276738 0.226169
0.196902 0.277012 0.226505
0.197116 0.277043 0.226658
0.196872 0.276158 0.226322
0.196445 0.274571 0.225742
0.195315 0.272038 0.224460
0.193851 0.268894 0.222965
0.192447 0.265141 0.221134
0.190585 0.260929 0.219150
0.188418 0.256107 0.216526
0.186099 0.250919 0.213901
0.183383 0.244877 0.210605
0.179965 0.238163 0.206516
0.176089 0.230686 0.201938
0.175967 0.228794 0.200351
0.185214 0.240513 0.205966
0.196109 0.253452 0.211948
0.213535 0.267216 0.222507
0.233890 0.282689 0.234134
0.258030 0.300023 0.247227
0.286595 0.319493 0.261845
0.320378 0.341283 0.278080
0.359472 0.364965 0.296910
0.411017 0.395819 0.326848
0.505699 0.449775 0.335149
0.599451 0.498360 0.342260
0.684749 0.538811 0.350042
0.755642 0.569390 0.360082
0.810208 0.590570 0.373053
0.852232 0.605280 0.388128
0.885740 0.617060 0.406500
0.912505 0.627588 0.427771
0.205051 0.289769 0.235508
0.205631 0.290135 0.235966
0.205783 0.290257 0.236210
0.205417 0.289342 0.235966
0.204929 0.287877 0.235264
0.203738 0.285130 0.233921
0.202243 0.281712 0.232273
0.200412 0.277745 0.230228
0.198459 0.273259 0.227939
0.196231 0.268315 0.225376
0.193759 0.262821 0.222385
0.190738 0.256626 0.219028
0.187381 0.249790 0.214969
0.183291 0.242252 0.210269
0.178958 0.234073 0.205173
0.183566 0.239170 0.207553
0.193851 0.252201 0.213687
0.207401 0.266545 0.221592
0.226780 0.282261 0.233494
0.249668 0.299779 0.246586
0.276951 0.319768 0.261418
0.309483 0.342321 0.278080
0.348272 0.367620 0.296727
0.392920 0.394903 0.318059
0.440101 0.420935 0.345098
0.533806 0.475257 0.358923
0.628168 0.525933 0.370214
0.711177 0.567407 0.383185
0.777035 0.597986 0.398718
0.827176 0.620142 0.417548
0.865904 0.637690 0.439979
0.896025 0.652949 0.465522
0.218387 0.310430 0.250309
0.218814 0.310826 0.250645
0.218936 0.310887 0.250980
0.218601 0.309789 0.250523
0.217441 0.307561 0.249332
0.216007 0.304295 0.247593
0.214176 0.300359 0.245548
0.211826 0.295506 0.242954
0.209262 0.290135 0.240024
0.206485 0.284276 0.236912
0.203372 0.277867 0.233249
0.199893 0.271061 0.229374
0.196170 0.263615 0.224949
0.191867 0.255528 0.219944
0.186893 0.246769 0.214389
0.181949 0.237766 0.208438
0.191623 0.250065 0.214847
0.202579 0.264012 0.221408
0.218570 0.279545 0.230961
0.239963 0.297002 0.244053
0.265537 0.316930 0.258701
0.295903 0.339300 0.275212
0.331762 0.364141 0.293370
0.373968 0.391485 0.313298
0.420996 0.419806 0.335210
0.478645 0.454261 0.371038
0.570977 0.509087 0.392065
0.663355 0.560479 0.407568
0.740841 0.601190 0.425330
0.800320 0.631708 0.447181
0.844877 0.655116 0.472480
0.878996 0.674983 0.500999
0.228336 0.326452 0.261479
0.228733 0.327031 0.261997
0.228916 0.327062 0.262150
0.228489 0.326055 0.261753
0.227420 0.323674 0.260563
0.225956 0.320592 0.258976
0.223972 0.316381 0.256718
0.221805 0.311620 0.254185
0.219120 0.306279 0.251286
0.216464 0.300542 0.248295
0.213321 0.294072 0.244663
0.209873 0.287144 0.240726
0.206210 0.279759 0.236484
0.201785 0.271427 0.231449
0.196994 0.262425 0.225864
0.191653 0.252964 0.219638
0.191714 0.251286 0.217990
0.202884 0.265690 0.225406
0.215488 0.281987 0.233005
0.235569 0.300053 0.245579
0.260380 0.320439 0.260563
0.289921 0.343450 0.277317
0.324834 0.369146 0.295903
0.366186 0.397589 0.316442
0.414313 0.428656 0.339086
0.465705 0.459113 0.364294
0.524498 0.494667 0.405768
0.615625 0.550561 0.434668
0.705531 0.603265 0.456703
0.774960 0.643214 0.481941
0.825864 0.673243 0.510552
0.863676 0.698146 0.542596
0.241398 0.348089 0.276249
0.241825 0.348547 0.276677
0.241611 0.348180 0.276585
0.241093 0.346715 0.275883
0.239689 0.344030 0.274418
0.237919 0.340307 0.272374
0.235630 0.335790 0.269963
0.233280 0.330694 0.267277
0.230564 0.324987 0.264256
0.227634 0.318975 0.260960
0.224491 0.312444 0.257450
0.221164 0.305516 0.253635
0.217350 0.297795 0.249210
0.213016 0.289372 0.244297
0.208042 0.280034 0.238499
0.202518 0.270207 0.232181
0.196658 0.259709 0.225315
0.202823 0.266972 0.228916
0.215549 0.283452 0.237308
0.230716 0.302312 0.246464
0.254704 0.323064 0.261570
0.283238 0.346593 0.278538
0.317266 0.372869 0.297490
0.357214 0.402136 0.318303
0.404059 0.433875 0.341314
0.456001 0.466468 0.367010
0.509728 0.497932 0.396246
0.568780 0.534081 0.441871
0.657527 0.590539 0.477668
0.740719 0.642145 0.505150
0.800809 0.680201 0.536034
0.844511 0.710475 0.570214
0.255070 0.371374 0.291783
0.255314 0.371618 0.292088
0.255283 0.371344 0.292027
0.254612 0.369787 0.291203
0.253483 0.367468 0.290135
0.252262 0.364569 0.288701
0.250980 0.361364 0.287297
0.249424 0.357763 0.285740
0.247929 0.353735 0.283909
0.246281 0.349340 0.282048
0.244327 0.344396 0.279698
0.241825 0.338598 0.276951
0.238651 0.331640 0.273320
0.234562 0.323430 0.268833
0.229740 0.314092 0.263249
0.224094 0.303410 0.256718
0.217807 0.292088 0.249516
0.212070 0.281743 0.242649
0.226169 0.300298 0.252628
0.242527 0.321599 0.263249
0.263767 0.345800 0.276310
0.294743 0.372503 0.295232
0.331487 0.402350 0.316289
0.375067 0.435309 0.339635
0.424628 0.469245 0.365820
0.479072 0.503532 0.395880
0.535271 0.537255 0.428443
0.589624 0.568841 0.462287
0.646784 0.604791 0.511864
0.723812 0.656489 0.553185
0.788998 0.701015 0.586114
0.834653 0.734401 0.620111
0.282902 0.418463 0.323033
0.282963 0.418433 0.323217
0.282567 0.417639 0.322759
0.281559 0.415503 0.321660
0.280064 0.412268 0.319982
0.278080 0.408179 0.317906
0.275975 0.403601 0.315587
0.273777 0.398566 0.313146
0.271366 0.393072 0.310460
0.268681 0.387030 0.307591
0.265660 0.380316 0.304234
0.262425 0.373022 0.300511
0.258579 0.364691 0.296147
0.254063 0.355413 0.290990
