data/fiter_cube/72007313/1022712/file.cube
# Created by Adobe Lightroom plugin Export LUT (1.17.0)
# www.johnrellis.com/lightroom/exportlut.htm
# Preset: 高级电影暗青色_01 云集
# Color profile: C:\Program Files (x86)\Common Files\Adobe\Color\Profiles\Recommended\AdobeRGB1998.icc
LUT_3D_SIZE 5
DOMAIN_MIN 0.000000 0.000000 0.000000
DOMAIN_MAX 0.903226 0.903226 0.903226
0.056153 0.065675 0.062409
0.143679 0.066438 0.077180
0.402960 0.000000 0.094942
0.650416 0.000000 0.147890
0.780514 0.223423 0.273228
0.081697 0.150332 0.105501
0.146304 0.157534 0.109712
0.424537 0.131502 0.106447
0.652064 0.138460 0.163973
0.782712 0.318273 0.298161
0.141451 0.396246 0.240238
0.248905 0.388525 0.260349
0.431800 0.423102 0.257939
0.662898 0.441566 0.220340
0.776852 0.499245 0.358007
0.321721 0.607355 0.419898
0.396887 0.606256 0.438422
0.525109 0.592920 0.492164
0.618463 0.623896 0.458747
0.769955 0.680964 0.476051
0.520867 0.756588 0.596765
0.550408 0.755886 0.605310
0.614832 0.751522 0.625605
0.679164 0.756252 0.666438
0.750423 0.793729 0.649439
0.047730 0.072572 0.105257
0.127291 0.084627 0.106813
0.402319 0.000000 0.099062
0.638453 0.000000 0.148959
0.774258 0.229557 0.268681
0.058473 0.155154 0.150057
0.158358 0.169955 0.153902
0.425452 0.169192 0.127749
0.643214 0.180880 0.163424
0.774533 0.311864 0.288090
0.119265 0.399725 0.271031
0.254734 0.397803 0.289647
0.423011 0.415381 0.291264
0.655451 0.439399 0.213718
0.774868 0.497932 0.355230
0.315404 0.608820 0.435920
0.393530 0.607843 0.451759
0.527947 0.597009 0.502098
0.617090 0.623957 0.477943
0.769894 0.679957 0.474830
0.511345 0.757443 0.600214
0.542412 0.756588 0.607996
0.616907 0.758968 0.634211
0.682521 0.759579 0.675227
0.752224 0.796078 0.655268
0.021424 0.095216 0.218662
0.146304 0.107271 0.234897
0.366705 0.143954 0.256168
0.635492 0.107179 0.250767
0.778286 0.243137 0.275212
0.064973 0.171603 0.256352
0.170626 0.190402 0.277653
0.399725 0.231449 0.298894
0.636500 0.246738 0.286839
0.779080 0.312108 0.292699
0.051698 0.392432 0.373938
0.202823 0.417304 0.388006
0.445380 0.439857 0.399573
0.642573 0.458442 0.367071
0.778592 0.487068 0.354498
0.252598 0.616632 0.490700
0.343938 0.613123 0.492317
0.525170 0.611505 0.526848
0.617029 0.628840 0.531792
0.770535 0.676112 0.496010
0.475929 0.759121 0.616327
0.510399 0.759487 0.621698
0.593439 0.762142 0.639063
0.681025 0.761898 0.683742
0.749844 0.795010 0.669520
0.000000 0.134157 0.377996
0.148257 0.146914 0.395605
0.416541 0.192386 0.443061
0.588342 0.295171 0.443915
0.757687 0.342596 0.455055
0.030213 0.199435 0.399908
0.174289 0.215213 0.416571
0.436286 0.280095 0.465034
0.593042 0.352758 0.464454
0.756100 0.385809 0.468727
0.095674 0.353521 0.450752
0.200076 0.369451 0.457649
0.437079 0.434333 0.501091
0.606867 0.484291 0.517266
0.756344 0.515221 0.522026
0.229679 0.589014 0.558373
0.302983 0.597192 0.563470
0.469551 0.620844 0.580713
0.618891 0.637659 0.596216
0.765988 0.659785 0.573877
0.400519 0.768917 0.664942
0.442969 0.768307 0.665370
0.544701 0.770138 0.669551
0.663752 0.777737 0.691981
0.750820 0.799344 0.701106
0.000000 0.191012 0.555505
0.188327 0.202609 0.566613
0.450477 0.257389 0.601587
0.631556 0.354620 0.622370
0.715755 0.483162 0.607599
0.000000 0.233005 0.556695
0.187503 0.246891 0.567651
0.445502 0.306279 0.602228
0.629694 0.401984 0.626856
0.714412 0.509300 0.615412
0.000000 0.330144 0.542107
0.051881 0.335912 0.551629
0.396429 0.401556 0.599847
0.626307 0.520012 0.644007
0.719356 0.581201 0.644831
0.128695 0.543603 0.621454
0.199222 0.543450 0.620356
0.347723 0.542626 0.618555
0.587579 0.604211 0.655238
0.735836 0.672938 0.689845
0.362188 0.740230 0.705684
0.392187 0.741329 0.706325
0.484260 0.749538 0.712734
0.595880 0.775296 0.732723
0.751003 0.806882 0.762570
