data/fiter_cube/72007313/1022712/file.cube
# Created by Adobe Lightroom plugin Export LUT (1.17.0)
# www.johnrellis.com/lightroom/exportlut.htm
# Preset: 高级电影暗青色_01 云集
# Color profile: C:\Program Files (x86)\Common Files\Adobe\Color\Profiles\Recommended\AdobeRGB1998.icc
LUT_3D_SIZE 8
DOMAIN_MIN 0.000000 0.000000 0.000000
DOMAIN_MAX 0.903226 0.903226 0.903226
0.056153 0.065675 0.062409
0.085542 0.066835 0.066835
0.170871 0.060243 0.079530
0.318029 0.000000 0.088808
0.482124 0.000000 0.102907
0.624292 0.000000 0.135836
0.709560 0.000000 0.191318
0.780514 0.223423 0.273228
0.068849 0.091188 0.077333
0.082704 0.093385 0.080385
0.172824 0.086976 0.083070
0.318425 0.000122 0.091951
0.481483 0.000000 0.106569
0.615778 0.000000 0.137057
0.703731 0.050996 0.190677
0.776486 0.242588 0.273472
0.083101 0.176944 0.117800
0.106142 0.173983 0.120699
0.176150 0.186526 0.122072
0.351690 0.188937 0.101076
0.507897 0.165835 0.121157
0.627283 0.173617 0.155734
0.712062 0.242313 0.217594
0.781247 0.339300 0.302586
0.106600 0.319860 0.192264
0.148898 0.319310 0.198764
0.240024 0.306218 0.228824
0.351568 0.348943 0.205844
0.544671 0.375555 0.166049
0.644739 0.364508 0.190311
0.714107 0.387518 0.253147
0.778988 0.445960 0.337499
0.184237 0.463539 0.288914
0.218753 0.462501 0.294133
0.311437 0.457527 0.316167
0.399573 0.450660 0.351659
0.495857 0.485298 0.309697
0.632807 0.514794 0.270665
0.711452 0.515892 0.294530
0.775845 0.553429 0.383337
0.287968 0.578729 0.389990
0.318975 0.582605 0.399481
0.397131 0.580346 0.420386
0.475654 0.570397 0.449104
0.528923 0.574640 0.460761
0.599603 0.600031 0.427924
0.693202 0.629969 0.418219
0.773831 0.658717 0.452979
0.411170 0.669551 0.494759
0.429297 0.669581 0.499733
0.479500 0.666438 0.514031
0.538964 0.662806 0.537194
0.587030 0.655451 0.566064
0.618585 0.669245 0.564660
0.669642 0.691859 0.544579
0.750088 0.731685 0.552605
0.520867 0.756588 0.596765
0.529961 0.756191 0.599115
0.559564 0.756039 0.608423
0.602899 0.758572 0.626520
0.635920 0.750668 0.637476
0.673121 0.751156 0.666896
0.703090 0.773129 0.660365
0.750423 0.793729 0.649439
0.053162 0.067445 0.077302
0.083101 0.069215 0.073426
0.165042 0.067781 0.080110
0.312291 0.000000 0.090944
0.475715 0.000000 0.104952
0.609552 0.000000 0.133669
0.700252 0.000000 0.185489
0.773465 0.214817 0.264866
0.059480 0.092683 0.090028
0.085939 0.096010 0.089235
0.173709 0.101869 0.084962
0.318364 0.075868 0.093996
0.479194 0.000000 0.108248
0.607355 0.000000 0.136477
0.696376 0.075624 0.186343
0.769406 0.233097 0.264622
0.070283 0.179446 0.129397
0.111788 0.179660 0.135286
0.178744 0.188449 0.133822
0.348486 0.196597 0.100801
0.497505 0.177462 0.119661
0.616602 0.181033 0.152163
0.701076 0.232914 0.207065
0.773007 0.325322 0.290318
0.105135 0.315435 0.200626
0.149325 0.316320 0.207584
0.241428 0.306706 0.235203
0.337926 0.336339 0.212863
0.521691 0.358160 0.157168
0.628656 0.349859 0.178225
0.702815 0.372351 0.238773
0.771298 0.432105 0.324163
0.184848 0.461616 0.296757
0.218479 0.459785 0.300328
0.308965 0.455024 0.319585
0.393805 0.442084 0.352453
0.484810 0.474372 0.310765
0.624811 0.505913 0.262303
0.706050 0.508476 0.285985
0.771481 0.545647 0.374456
0.283238 0.573754 0.390906
0.308324 0.573510 0.395422
0.386145 0.571954 0.414923
0.468940 0.564446 0.445167
0.525231 0.569787 0.461097
0.597192 0.597528 0.431708
0.690883 0.626612 0.414221
0.771023 0.653773 0.446662
0.400000 0.664027 0.490211
0.415534 0.662501 0.492714
0.468238 0.660212 0.507164
0.532921 0.658503 0.532891
0.583978 0.652522 0.563653
0.615534 0.665309 0.563226
0.665400 0.686458 0.541588
0.745846 0.725490 0.545220
0.513695 0.752834 0.593194
0.523796 0.753109 0.596368
0.554681 0.753292 0.606073
0.599023 0.756100 0.624231
0.638849 0.755306 0.642420
0.674464 0.753353 0.669245
0.702174 0.772061 0.660761
0.748409 0.791196 0.646448
0.044923 0.074372 0.116762
0.080171 0.077638 0.116213
0.152773 0.090944 0.122683
0.320562 0.000000 0.118929
0.489296 0.000000 0.111421
0.618708 0.000000 0.142245
0.705379 0.116487 0.195499
0.777768 0.241337 0.274235
0.065370 0.101167 0.129549
0.091157 0.105776 0.133455
0.167849 0.115877 0.138155
0.325322 0.094545 0.131258
0.489967 0.047761 0.121584
0.616480 0.069978 0.144350
0.702663 0.154391 0.197208
0.775601 0.261540 0.276555
0.051698 0.184024 0.177981
0.092775 0.195041 0.183261
0.193759 0.204135 0.183749
0.354376 0.210575 0.164340
0.508293 0.210178 0.153567
0.624537 0.221744 0.159548
0.704280 0.261631 0.214725
0.774960 0.337133 0.295659
0.051179 0.335180 0.247959
0.127474 0.337041 0.249607
0.256016 0.334936 0.268009
0.354192 0.351690 0.264256
0.527459 0.371649 0.214115
0.634424 0.370520 0.193729
0.707332 0.390600 0.247837
0.774838 0.442298 0.331762
0.159701 0.469154 0.324834
0.204593 0.469306 0.329076
0.317937 0.468513 0.349645
0.414191 0.455390 0.387518
0.495491 0.486244 0.354101
0.627619 0.514672 0.301701
0.708461 0.515709 0.291325
0.773587 0.549889 0.378943
0.271672 0.578424 0.410498
0.301884 0.578302 0.415137
0.383825 0.576471 0.430915
0.472358 0.570550 0.458778
0.529473 0.570947 0.480079
0.595758 0.597650 0.453529
0.689876 0.627008 0.425513
0.772946 0.655787 0.449409
0.394873 0.667781 0.503105
0.412146 0.666590 0.505791
0.464454 0.663478 0.516960
0.535607 0.661311 0.543664
0.584802 0.655390 0.568994
0.617426 0.666743 0.574395
0.667292 0.690272 0.557122
0.750729 0.731075 0.551293
0.504295 0.754757 0.598047
0.513054 0.753902 0.599390
0.545159 0.753201 0.607630
0.592798 0.757198 0.625788
0.636439 0.757229 0.644495
0.674922 0.756039 0.672084
0.703334 0.773709 0.668025
0.750179 0.793790 0.654261
0.040681 0.086275 0.177462
0.081178 0.090639 0.182589
0.168154 0.101991 0.194949
0.287663 0.119966 0.205081
0.477577 0.000000 0.198062
0.613184 0.020050 0.198520
0.703578 0.137392 0.196231
0.776699 0.236667 0.272465
0.061006 0.115053 0.198520
0.092103 0.118654 0.202853
0.183566 0.132143 0.213321
0.301183 0.148318 0.220157
0.484565 0.083803 0.209354
0.612909 0.123720 0.208225
0.702510 0.175418 0.199802
0.775875 0.257115 0.275944
0.062837 0.184390 0.235386
0.100404 0.191806 0.239414
0.204105 0.216190 0.255497
0.341436 0.232029 0.263706
0.502068 0.235080 0.255314
0.621942 0.258610 0.246983
0.708705 0.289006 0.237736
0.779416 0.339239 0.300816
0.003082 0.325872 0.311864
0.096345 0.336828 0.317998
0.223636 0.358190 0.326970
0.369207 0.366979 0.330602
0.520256 0.376410 0.302678
0.625299 0.387640 0.293767
0.705348 0.402594 0.284001
0.777798 0.440833 0.334112
0.079591 0.486519 0.388617
0.152834 0.485359 0.386908
0.290166 0.483803 0.388739
0.429389 0.480781 0.419226
0.505730 0.499092 0.410773
0.626917 0.523186 0.374273
0.705837 0.525994 0.355016
0.777249 0.550347 0.383337
0.243534 0.590265 0.450782
0.280827 0.592859 0.455787
0.370336 0.589715 0.462745
0.480568 0.587823 0.488624
0.544518 0.581720 0.517693
0.599695 0.605371 0.493629
0.691829 0.634333 0.468574
0.776455 0.656001 0.452430
0.373907 0.672297 0.523003
0.393866 0.672084 0.525719
0.452308 0.670710 0.535058
0.528923 0.669520 0.556176
0.589136 0.666773 0.582849
0.623224 0.672908 0.594995
0.669154 0.694697 0.577905
0.754238 0.735134 0.567193
0.492317 0.760372 0.612085
0.502495 0.760464 0.613947
0.532616 0.759915 0.618952
0.578546 0.760616 0.629816
0.630488 0.762478 0.648493
0.674586 0.760861 0.676143
0.704494 0.775692 0.679286
0.751736 0.796658 0.666133
0.000000 0.104768 0.261570
0.072511 0.108858 0.267338
0.177249 0.120729 0.284092
0.299138 0.136233 0.296086
0.441627 0.177920 0.310369
0.595483 0.149294 0.307469
0.694911 0.198093 0.307042
0.777157 0.265263 0.306371
0.024079 0.130159 0.277623
0.085939 0.134737 0.283268
0.188510 0.148684 0.298283
0.313481 0.167208 0.311650
0.448676 0.204929 0.321660
0.598260 0.185519 0.317144
0.694423 0.239261 0.321721
0.776852 0.285527 0.312413
0.065675 0.198123 0.300969
0.105715 0.206271 0.309148
0.208499 0.227146 0.331975
0.346410 0.258274 0.351812
0.468940 0.282200 0.355413
0.603510 0.273350 0.343999
0.692226 0.319646 0.348241
0.774838 0.341558 0.327916
0.072633 0.302525 0.359167
0.119417 0.309148 0.362188
0.226322 0.332403 0.373816
0.377050 0.374914 0.400793
0.502922 0.387976 0.403876
0.611658 0.403296 0.396460
0.693355 0.418647 0.385168
0.776608 0.423682 0.354253
0.106905 0.455055 0.432227
0.151186 0.462623 0.437079
0.259678 0.482185 0.448951
0.400488 0.498848 0.457435
0.508995 0.505455 0.463111
0.618616 0.515648 0.437415
0.694362 0.522301 0.429267
0.774319 0.536156 0.413794
0.167117 0.593622 0.502312
0.209506 0.593896 0.502159
0.317632 0.591180 0.499519
0.442298 0.589227 0.504417
0.542138 0.586694 0.531884
0.597925 0.606592 0.528191
0.691310 0.634333 0.509148
0.773648 0.650507 0.494911
0.333013 0.676539 0.553246
0.353674 0.675502 0.553552
0.416510 0.673274 0.556359
0.500023 0.671839 0.566491
0.579217 0.673487 0.590448
0.624811 0.673518 0.613367
0.668177 0.695613 0.597040
0.757321 0.735073 0.583886
0.459510 0.760861 0.626001
0.470619 0.760342 0.626642
0.504540 0.759457 0.629633
0.555261 0.763119 0.638972
0.610468 0.765103 0.650690
0.668147 0.765713 0.677546
0.703212 0.775113 0.691493
0.750454 0.796445 0.677272
0.000000 0.128420 0.357275
0.051911 0.132631 0.362493
0.181399 0.145266 0.379309
0.343908 0.171298 0.411170
0.442298 0.203464 0.399176
0.565332 0.271092 0.419409
0.675196 0.287938 0.425238
0.764797 0.321599 0.426154
0.000000 0.150210 0.364324
0.074891 0.154391 0.368841
0.190036 0.168765 0.385901
0.346593 0.197116 0.414893
0.445075 0.228672 0.405493
0.565942 0.289677 0.425025
0.674525 0.305608 0.430243
0.763973 0.336126 0.430518
0.065126 0.216342 0.385138
0.107851 0.221561 0.392157
0.212497 0.240024 0.410712
0.363714 0.276982 0.438300
0.465705 0.310857 0.436561
0.576043 0.354040 0.451575
0.675898 0.367193 0.452979
0.764034 0.389319 0.450568
0.084993 0.302800 0.416388
0.124178 0.308171 0.418219
0.219608 0.328313 0.427375
0.375067 0.375982 0.467964
0.502739 0.422827 0.489570
0.593317 0.445350 0.493355
0.680934 0.452094 0.488533
0.763516 0.479561 0.491981
0.127504 0.425605 0.472175
0.163729 0.430396 0.474495
0.258061 0.446235 0.482368
0.379370 0.471473 0.496620
0.514580 0.513329 0.524651
0.604364 0.524651 0.525322
0.680903 0.537926 0.522667
0.764370 0.544701 0.508171
0.203494 0.562676 0.533349
0.233768 0.566613 0.536187
0.310430 0.580560 0.545922
0.414832 0.595483 0.556298
0.524407 0.606348 0.564111
0.601953 0.615717 0.573938
0.688655 0.629175 0.558495
0.768643 0.640162 0.549187
0.294957 0.678828 0.596490
0.316167 0.680110 0.597833
0.375555 0.682643 0.600610
0.465309 0.682063 0.601770
0.554620 0.682307 0.608118
0.625940 0.685420 0.629755
0.671168 0.702296 0.625757
0.765591 0.737087 0.611963
0.416266 0.767422 0.655909
0.428229 0.766873 0.655756
0.467384 0.765713 0.656214
0.523095 0.766537 0.659327
0.582055 0.768856 0.663691
0.650813 0.773434 0.680934
0.704372 0.776486 0.711177
0.751034 0.799039 0.695979
0.000000 0.155703 0.453956
0.032136 0.160281 0.459907
0.192966 0.173465 0.475471
0.351904 0.199588 0.502556
0.504295 0.246708 0.528435
0.573083 0.294926 0.508537
0.647547 0.378058 0.517082
0.738338 0.409644 0.533196
0.000000 0.172976 0.454719
0.065522 0.177310 0.460243
0.197024 0.191196 0.475441
0.350805 0.218265 0.501061
0.502373 0.266545 0.527733
0.569421 0.308263 0.507836
0.643763 0.384619 0.516014
0.734524 0.411170 0.530114
0.007263 0.229129 0.468177
0.094575 0.233249 0.474250
0.211826 0.249943 0.487953
0.359716 0.283268 0.512749
0.514275 0.341497 0.543511
0.576043 0.372168 0.526421
0.647211 0.432929 0.534264
0.737972 0.455116 0.548669
0.000000 0.299443 0.469642
0.087251 0.302892 0.471168
0.203952 0.322789 0.492592
0.357671 0.364080 0.526268
0.514672 0.425055 0.559808
0.586633 0.460700 0.556329
0.653132 0.500084 0.562615
0.742000 0.511315 0.572045
0.095552 0.406165 0.515038
0.131411 0.408362 0.515251
0.216556 0.417060 0.517876
0.322087 0.431891 0.524010
0.485695 0.485206 0.563897
0.592279 0.539208 0.584497
0.656550 0.560174 0.587549
0.746426 0.566766 0.592798
0.180209 0.533318 0.566888
0.205142 0.535454 0.567834
0.277134 0.542443 0.571160
0.373114 0.553765 0.577478
0.479133 0.569696 0.586877
0.598138 0.613916 0.615320
0.672053 0.627924 0.620661
0.755306 0.638880 0.620935
0.291478 0.649165 0.616785
0.309606 0.650782 0.618036
0.363531 0.655207 0.621088
0.436896 0.665858 0.629358
0.519707 0.678676 0.639582
0.601251 0.695430 0.651759
0.672786 0.708064 0.661860
0.765042 0.723568 0.648707
0.380102 0.758694 0.681971
0.391119 0.759335 0.682643
0.428656 0.763485 0.686763
0.481544 0.769284 0.692042
0.544762 0.775326 0.696223
0.618189 0.779629 0.699001
0.698604 0.785946 0.721889
0.752010 0.802945 0.722744
0.000000 0.191012 0.555505
0.092775 0.194736 0.559655
0.221744 0.206485 0.570123
0.371740 0.233341 0.589776
0.523857 0.292576 0.613886
0.616480 0.347021 0.623774
0.661189 0.406775 0.599847
0.715755 0.483162 0.607599
0.000000 0.203952 0.554528
0.095338 0.208011 0.558526
0.221866 0.220554 0.569543
0.369390 0.247745 0.588495
0.520897 0.305882 0.612787
0.614923 0.360784 0.623682
0.659205 0.415076 0.599969
0.713985 0.488350 0.607843
0.000000 0.244144 0.555962
0.084810 0.248539 0.559503
0.215244 0.262760 0.569574
0.365637 0.295537 0.590936
0.515496 0.352697 0.614588
0.614008 0.411414 0.628595
0.658259 0.453315 0.608331
0.713710 0.516564 0.617365
0.000000 0.294438 0.545769
0.000000 0.299596 0.551110
0.177035 0.318029 0.567834
0.340246 0.353185 0.590997
0.500114 0.410925 0.616449
0.615473 0.484962 0.640253
0.659113 0.512047 0.625116
0.716793 0.559228 0.635004
0.000000 0.385168 0.563714
0.000000 0.385931 0.564080
0.104555 0.385199 0.562127
0.244511 0.392157 0.573816
0.453010 0.454994 0.611841
0.602289 0.539239 0.645747
0.659388 0.572747 0.644923
0.724147 0.606073 0.657282
0.068544 0.509850 0.608331
0.108461 0.509575 0.607752
0.186893 0.508995 0.606378
0.276280 0.507591 0.604822
0.377630 0.506126 0.603021
0.562280 0.573877 0.643183
0.671778 0.641291 0.681361
0.733883 0.659174 0.683467
0.245548 0.636255 0.658595
0.259892 0.636469 0.658595
0.304143 0.636805 0.658289
0.371832 0.638178 0.658747
0.454688 0.641047 0.659907
0.544366 0.648493 0.663539
0.658289 0.692775 0.698360
0.744625 0.721065 0.713283
0.362188 0.740230 0.705684
0.371069 0.740383 0.705684
0.402075 0.741970 0.706813
0.453773 0.746273 0.710201
0.515801 0.753780 0.715999
0.577356 0.771633 0.729915
0.661036 0.790829 0.745205
0.751003 0.806882 0.762570
