data/fiter_cube/72007313/1022712/file.cube
# Created by Adobe Lightroom plugin Export LUT (1.17.0)
# www.johnrellis.com/lightroom/exportlut.htm
# Preset: 高级电影暗青色_01 云集
# Color profile: C:\Program Files (x86)\Common Files\Adobe\Color\Profiles\Recommended\AdobeRGB1998.icc
LUT_3D_SIZE 32
DOMAIN_MIN 0.0 0.0 0.0
DOMAIN_MAX 1.0 1.0 1.0
0.056153 0.065675 0.062409
0.056153 0.065675 0.062409
0.056153 0.065675 0.062409
0.066316 0.065949 0.063874
0.085542 0.066835 0.066835
0.101900 0.068177 0.070344
0.121035 0.068208 0.073793
0.143679 0.066438 0.077180
0.170871 0.060243 0.079530
0.202304 0.037354 0.082063
0.237583 0.000000 0.084077
0.276127 0.000000 0.086336
0.318029 0.000000 0.088808
0.360815 0.000000 0.091554
0.402960 0.000000 0.094942
0.443580 0.000000 0.098726
0.482124 0.000000 0.102907
0.522911 0.000000 0.109468
0.560540 0.000000 0.116976
0.594171 0.000000 0.125765
0.624292 0.000000 0.135836
0.650416 0.000000 0.147890
0.672724 0.000000 0.160983
0.692042 0.000000 0.175387
0.709560 0.000000 0.191318
0.727016 0.060243 0.208347
0.744625 0.129824 0.227390
0.762509 0.178653 0.248692
0.780514 0.223423 0.273228
0.798672 0.267582 0.300969
0.817166 0.311925 0.331853
0.836088 0.357733 0.366949
0.056153 0.065675 0.062409
0.056153 0.065675 0.062409
0.056153 0.065675 0.062409
0.066316 0.065949 0.063874
0.085176 0.066896 0.066835
0.101350 0.067903 0.070405
0.120302 0.068452 0.073793
0.142763 0.066407 0.076905
0.169589 0.060487 0.079622
0.200778 0.038849 0.081849
0.235874 0.000000 0.083864
0.274662 0.000000 0.086519
0.316258 0.000000 0.088991
0.358892 0.000000 0.091707
0.400763 0.000000 0.094911
0.441260 0.000000 0.098695
0.479683 0.000000 0.103151
0.520195 0.000000 0.109316
0.557305 0.000000 0.116152
0.590570 0.000000 0.125307
0.620630 0.000000 0.135348
0.647120 0.000000 0.146426
0.669734 0.000000 0.159396
0.689418 0.000000 0.173861
0.707088 0.000000 0.189303
0.724697 0.056580 0.206546
0.742458 0.127077 0.225284
0.760464 0.176699 0.246708
0.778653 0.221286 0.270817
0.796933 0.265568 0.298650
0.815518 0.309911 0.329625
0.834501 0.355505 0.364385
0.056153 0.065675 0.062409
0.056153 0.065675 0.062409
0.056153 0.065675 0.062409
0.065827 0.066011 0.063874
0.085237 0.066926 0.066438
0.101106 0.067994 0.070008
0.119631 0.068238 0.073487
0.141787 0.066804 0.076600
0.168490 0.060639 0.079347
0.199527 0.043275 0.081819
0.235386 0.008972 0.084230
0.274418 0.000000 0.086793
0.315862 0.000000 0.089479
0.358251 0.000000 0.092500
0.400031 0.000000 0.095613
0.440436 0.000000 0.099153
0.478767 0.000000 0.103578
0.519371 0.000000 0.109438
0.555871 0.000000 0.116762
0.588861 0.000000 0.125002
0.618921 0.000000 0.134920
0.645472 0.000000 0.146304
0.668299 0.000000 0.159457
0.688106 0.000000 0.173434
0.705898 0.000000 0.188663
0.723507 0.065126 0.205631
0.741299 0.131014 0.224765
0.759365 0.178836 0.246036
0.777646 0.222965 0.270512
0.796017 0.266575 0.298070
0.814633 0.310521 0.328832
0.833646 0.355779 0.363470
0.060243 0.074006 0.066560
0.060090 0.074403 0.066896
0.060578 0.074708 0.066865
0.066621 0.076081 0.068544
0.085695 0.076905 0.069429
0.101656 0.076356 0.072541
0.120394 0.076143 0.075654
0.143038 0.074647 0.078279
0.169955 0.070375 0.080873
0.201450 0.062715 0.083162
0.237034 0.039368 0.085481
0.275761 0.000000 0.087922
0.316747 0.000000 0.090517
0.358831 0.000000 0.093172
0.400397 0.000000 0.096223
0.440467 0.000000 0.100221
0.478859 0.000000 0.104280
0.519066 0.000000 0.110750
0.554314 0.000000 0.117281
0.586511 0.000000 0.125765
0.616266 0.000000 0.135164
0.642786 0.000000 0.146578
0.666011 0.000000 0.159121
0.686336 0.000000 0.173312
0.704616 0.000000 0.189059
0.722621 0.089693 0.206729
0.740810 0.143954 0.225895
0.759121 0.189273 0.247593
0.777371 0.231540 0.272099
0.795712 0.273442 0.299382
0.814145 0.316045 0.329839
0.832883 0.360082 0.364294
0.068849 0.091188 0.077333
0.068849 0.091188 0.077333
0.069306 0.091127 0.077333
0.072999 0.090639 0.079255
0.082704 0.093385 0.080385
0.103883 0.094820 0.077577
0.123262 0.092744 0.079286
0.145907 0.090547 0.081239
0.172824 0.086976 0.083070
0.204044 0.081453 0.085298
0.239261 0.072206 0.087129
0.277684 0.053925 0.089509
0.318425 0.000122 0.091951
0.360052 0.000000 0.094789
0.401373 0.000000 0.097932
0.441291 0.000000 0.101778
0.481483 0.000000 0.106569
0.520378 0.000000 0.112459
0.555108 0.000000 0.119448
0.586633 0.000000 0.127413
0.615778 0.000000 0.137057
0.642023 0.000000 0.148135
0.665064 0.000000 0.160494
0.685451 0.000000 0.174746
0.703731 0.050996 0.190677
0.721828 0.117220 0.207889
0.739986 0.162142 0.227237
0.758236 0.202731 0.249058
0.776486 0.242588 0.273472
0.794766 0.282536 0.300542
0.813169 0.323949 0.331212
0.831937 0.366522 0.365240
0.074983 0.106569 0.085573
0.074983 0.106569 0.085573
0.074983 0.106569 0.085573
0.077333 0.106050 0.086458
0.086427 0.104311 0.091463
0.099092 0.110353 0.089143
0.127443 0.115145 0.084108
0.151125 0.111940 0.084260
0.178195 0.108644 0.085695
0.209476 0.104372 0.087770
0.244480 0.097902 0.089479
0.282536 0.087984 0.091951
0.322820 0.073060 0.093935
0.363989 0.038758 0.096864
0.404883 0.000000 0.100130
0.444434 0.000000 0.104189
0.485908 0.000000 0.109163
0.523552 0.000000 0.115267
0.557305 0.000000 0.122103
0.588403 0.000000 0.130648
0.617212 0.000000 0.140047
0.643275 0.000000 0.151217
0.683436 0.071260 0.177188
0.701289 0.116579 0.192813
0.718502 0.152682 0.209262
0.735561 0.185580 0.227237
0.752560 0.218173 0.246860
0.769558 0.251011 0.268498
0.786587 0.285313 0.292943
0.803738 0.321111 0.320378
0.821103 0.358618 0.350866
0.838987 0.397253 0.383978
0.079591 0.127474 0.094972
0.079774 0.127077 0.094759
0.080232 0.126833 0.094759
0.083131 0.125948 0.094545
0.094148 0.123598 0.099855
0.103792 0.125551 0.102266
0.121431 0.133028 0.099489
0.156558 0.140993 0.093507
0.189578 0.138613 0.089815
0.222477 0.134249 0.090578
0.258183 0.128664 0.092653
0.296880 0.121492 0.094453
0.336797 0.111604 0.097261
0.377295 0.098390 0.100160
0.416693 0.081819 0.103426
0.458564 0.060517 0.108034
0.498482 0.012818 0.114076
0.534508 0.000000 0.120180
0.567224 0.000000 0.127565
0.597986 0.000000 0.136751
0.627039 0.016327 0.147677
0.653223 0.076905 0.160220
0.676234 0.114046 0.175540
0.696284 0.146792 0.191867
0.715053 0.178164 0.209598
0.733028 0.207950 0.228244
0.750423 0.237919 0.248814
0.767544 0.268498 0.270848
0.784665 0.300359 0.295293
0.801755 0.334051 0.322271
0.819120 0.369390 0.352239
0.836973 0.406500 0.385199
0.081697 0.150332 0.105501
0.082185 0.150118 0.105287
0.082399 0.149783 0.104860
0.088136 0.149142 0.105745
0.099916 0.145785 0.108370
0.112337 0.141787 0.115084
0.124208 0.148745 0.113191
0.146304 0.157534 0.109712
0.185916 0.168124 0.103578
0.227909 0.168276 0.096284
0.265476 0.162478 0.094118
0.303716 0.156252 0.096529
0.343145 0.149050 0.099184
0.382788 0.140261 0.102449
0.424537 0.131502 0.106447
0.465095 0.122011 0.111543
0.502403 0.113405 0.117128
0.536736 0.106722 0.123720
0.568231 0.104372 0.131075
0.598047 0.108614 0.140352
0.626429 0.120394 0.151125
0.652064 0.138460 0.163973
0.674769 0.160250 0.178347
0.694575 0.184085 0.195041
0.713130 0.208896 0.212711
0.731014 0.234409 0.231510
0.748379 0.260838 0.251835
0.765591 0.288487 0.273747
0.782712 0.318273 0.298161
0.799863 0.349676 0.325170
0.817227 0.383337 0.354894
0.835111 0.418708 0.388067
0.083101 0.176944 0.117800
0.083650 0.176791 0.117433
0.084260 0.176486 0.117037
0.092958 0.176089 0.118349
0.106142 0.173983 0.120699
0.121767 0.169253 0.126558
0.134066 0.167666 0.130739
0.149538 0.176608 0.126162
0.176150 0.186526 0.122072
0.220401 0.199100 0.115511
0.271061 0.202579 0.104280
0.311559 0.196139 0.100801
0.351690 0.188937 0.101076
0.394293 0.183444 0.104982
0.434455 0.177310 0.109987
0.472450 0.171237 0.115236
0.507897 0.165835 0.121157
0.540642 0.162356 0.127962
0.570886 0.161685 0.135653
0.599939 0.165164 0.144564
0.627283 0.173617 0.155734
0.652155 0.186618 0.168582
0.674281 0.202945 0.183505
0.693751 0.221622 0.199741
0.712062 0.242313 0.217594
0.729763 0.263920 0.236484
0.747127 0.287175 0.256443
0.764218 0.312078 0.278202
0.781247 0.339300 0.302586
0.798306 0.368597 0.329473
0.815610 0.399908 0.359045
0.833310 0.433417 0.392035
0.084108 0.207065 0.131930
0.084230 0.206973 0.131777
0.087770 0.206851 0.131899
0.098726 0.206455 0.133516
0.114168 0.205692 0.136538
0.131167 0.201266 0.140658
0.147951 0.196017 0.148226
0.160586 0.198550 0.148501
0.179690 0.208194 0.141421
0.210086 0.218875 0.136477
0.257481 0.232364 0.130251
0.313878 0.239414 0.117647
0.361669 0.236057 0.111452
0.404974 0.229007 0.108003
0.443946 0.223484 0.113039
0.480507 0.218540 0.118685
0.514916 0.214450 0.125765
0.546654 0.212070 0.132692
0.575860 0.211917 0.140932
0.603540 0.215152 0.150271
0.629480 0.221500 0.161410
0.652918 0.230838 0.174502
0.673884 0.243137 0.188724
0.692439 0.257481 0.204868
0.710292 0.274174 0.222202
0.727810 0.292760 0.240787
0.745144 0.313573 0.261204
0.762356 0.336645 0.283330
0.779538 0.361975 0.307958
0.796811 0.389502 0.335088
0.814206 0.419501 0.365332
0.832151 0.451362 0.398230
0.085176 0.239200 0.147646
0.088533 0.239231 0.148074
0.093996 0.239109 0.148623
0.105776 0.238956 0.150088
0.122988 0.238621 0.153933
0.140230 0.235843 0.156832
0.160555 0.231022 0.164523
0.178134 0.225345 0.173648
0.192203 0.233219 0.168765
0.216220 0.245121 0.161257
0.251225 0.257328 0.154513
0.302495 0.272251 0.148928
0.359197 0.280400 0.135073
0.409644 0.279026 0.124819
0.450233 0.272190 0.121523
0.487678 0.265751 0.121981
0.520531 0.261662 0.129519
0.550866 0.259007 0.137514
0.578882 0.258274 0.146273
0.605707 0.260288 0.155825
0.630671 0.265446 0.167422
0.653437 0.272831 0.180331
0.673823 0.282689 0.195132
0.692073 0.294530 0.211551
0.709712 0.308751 0.229221
0.726955 0.324681 0.247898
0.744015 0.342931 0.268040
0.761074 0.363317 0.290013
0.778042 0.386328 0.314427
0.795163 0.411597 0.341344
0.812528 0.439399 0.371405
0.830411 0.469276 0.404059
0.092805 0.273808 0.166262
0.097047 0.273930 0.166567
0.102693 0.273869 0.167422
0.114778 0.273808 0.169070
0.132631 0.273716 0.172610
0.151064 0.272984 0.175601
0.174075 0.269627 0.183566
0.196078 0.265354 0.193210
0.214359 0.263096 0.201785
0.231785 0.274723 0.194217
0.258671 0.286534 0.185275
0.295811 0.298222 0.175479
0.367956 0.330510 0.179934
0.425238 0.340185 0.164584
0.477302 0.341314 0.149783
0.513878 0.334691 0.146273
0.547356 0.327672 0.143801
0.575006 0.323430 0.150912
0.599908 0.321508 0.160800
0.623529 0.321935 0.171267
0.645075 0.324498 0.183536
0.664729 0.329198 0.197269
0.682460 0.335698 0.212100
0.699214 0.344579 0.228672
0.715877 0.355688 0.245884
0.732357 0.369116 0.264683
0.748714 0.384405 0.284764
0.764920 0.402014 0.306615
0.781186 0.421790 0.330358
0.797635 0.444221 0.357153
0.814481 0.468818 0.385962
0.831998 0.496193 0.418158
0.106600 0.319860 0.192264
0.111147 0.320043 0.192752
0.117617 0.319799 0.193362
0.129763 0.319554 0.195163
0.148898 0.319310 0.198764
0.172488 0.318791 0.204959
0.192569 0.315618 0.208316
0.217014 0.311101 0.217624
0.240024 0.306218 0.228824
0.258244 0.309392 0.232761
0.279881 0.322423 0.225284
0.311131 0.335821 0.216434
0.351568 0.348943 0.205844
0.403449 0.364355 0.201266
0.458991 0.376043 0.186954
0.508751 0.379706 0.171939
0.544671 0.375555 0.166049
0.574578 0.369512 0.164096
0.601312 0.364630 0.166323
0.623926 0.363561 0.177920
0.644739 0.364508 0.190311
0.663844 0.367102 0.204227
0.681117 0.371710 0.219211
0.697627 0.378485 0.235721
0.714107 0.387518 0.253147
0.730373 0.398901 0.271855
0.746578 0.412360 0.291905
0.762753 0.428046 0.313787
0.778988 0.445960 0.337499
0.795468 0.466529 0.363928
0.812314 0.489570 0.393194
0.829953 0.515221 0.425147
0.122957 0.359136 0.215915
0.127382 0.359197 0.216709
0.132998 0.358862 0.217258
0.145388 0.358465 0.218967
0.163333 0.357671 0.221866
0.186831 0.356695 0.227085
0.207309 0.354864 0.230137
0.232853 0.350347 0.238621
0.258122 0.345617 0.248905
0.281193 0.341253 0.261662
0.298863 0.349584 0.260014
0.322484 0.362432 0.252018
0.354192 0.375219 0.242954
0.393133 0.386999 0.231662
0.440040 0.399786 0.225528
0.491310 0.411719 0.211368
0.536187 0.415808 0.196689
0.571130 0.413581 0.187686
0.598505 0.408881 0.186221
0.623804 0.404852 0.186618
0.644709 0.403754 0.197452
0.663294 0.404822 0.211978
0.680201 0.407599 0.227695
0.696590 0.412726 0.244083
0.712947 0.420172 0.261906
0.729091 0.429694 0.280461
0.745205 0.441413 0.300816
0.761257 0.455360 0.322667
0.777401 0.471595 0.346471
0.793851 0.490517 0.372930
0.810727 0.511955 0.401953
0.828428 0.536095 0.433814
0.141451 0.396246 0.240238
0.145388 0.396338 0.240940
0.150973 0.395911 0.241428
0.162875 0.395331 0.242863
0.179995 0.394385 0.245609
0.202518 0.393225 0.250004
0.228122 0.392126 0.256626
0.248905 0.388525 0.260349
0.275273 0.384192 0.270115
0.300481 0.379858 0.282048
0.322454 0.376562 0.295109
0.339971 0.388952 0.287968
0.364263 0.401068 0.279759
0.395178 0.412726 0.269810
0.431800 0.423102 0.257939
0.473426 0.433417 0.250462
0.520043 0.444953 0.236912
0.560632 0.449744 0.222782
0.595056 0.450019 0.211460
0.619959 0.446540 0.211551
0.642878 0.443397 0.213199
0.662898 0.441566 0.220340
0.679377 0.442573 0.236576
0.695583 0.446174 0.253513
0.711818 0.452094 0.271336
0.727993 0.460395 0.290501
0.744259 0.470893 0.310887
0.760464 0.483925 0.333654
0.776852 0.499245 0.358007
0.793515 0.517235 0.385290
0.810697 0.537743 0.414710
0.828641 0.560876 0.446876
0.161990 0.431464 0.264927
0.166140 0.431586 0.265446
0.171206 0.431495 0.266148
0.182406 0.431220 0.267948
0.199619 0.430549 0.270634
0.221530 0.430091 0.275181
0.247318 0.429511 0.282170
0.268406 0.427893 0.285313
0.295079 0.423865 0.294652
0.321233 0.419776 0.305516
0.344793 0.415412 0.317937
0.363378 0.416175 0.325048
0.380499 0.426856 0.316930
0.403632 0.437140 0.307317
0.432105 0.446509 0.296208
0.465522 0.455177 0.283696
0.502892 0.464118 0.274571
0.544823 0.475319 0.262913
0.582666 0.481666 0.250401
0.616052 0.484230 0.239322
0.639490 0.482277 0.239872
0.660243 0.480079 0.243900
0.679377 0.478553 0.249363
0.696040 0.480598 0.265141
0.712093 0.485420 0.283635
0.728267 0.492561 0.302953
0.744350 0.501823 0.324041
0.760494 0.513420 0.346563
0.776669 0.527398 0.371405
0.793149 0.543603 0.398016
0.810086 0.562249 0.427039
0.827909 0.583551 0.458259
0.184237 0.463539 0.288914
0.187808 0.463447 0.289281
0.192599 0.463203 0.290043
0.203128 0.462867 0.291539
0.218753 0.462501 0.294133
0.239475 0.462013 0.298497
0.264286 0.461433 0.304784
0.289006 0.460731 0.311009
0.311437 0.457527 0.316167
0.337377 0.453712 0.326329
0.361883 0.449775 0.337896
0.383917 0.445869 0.350835
0.399573 0.450660 0.351659
0.416907 0.460365 0.343359
0.439155 0.469520 0.333593
0.465522 0.477699 0.322240
0.495857 0.485298 0.309697
0.529747 0.493294 0.300237
0.567712 0.504509 0.290257
0.602564 0.511681 0.279576
0.632807 0.514794 0.270665
0.655665 0.514092 0.270329
0.674739 0.512688 0.275212
0.693690 0.513054 0.282231
0.711452 0.515892 0.294530
0.727504 0.521813 0.314275
0.743557 0.530114 0.335729
0.759640 0.540673 0.358526
0.775845 0.553429 0.383337
0.792294 0.568597 0.410346
0.809323 0.586114 0.439155
0.827329 0.606195 0.470253
0.208377 0.494545 0.313787
0.212131 0.494881 0.314519
0.229160 0.508537 0.327062
0.238804 0.508171 0.328649
0.253849 0.507469 0.331151
0.272923 0.506554 0.334691
0.295689 0.505394 0.340063
0.322148 0.504387 0.347784
0.341161 0.502037 0.350256
0.366308 0.498116 0.359197
0.390478 0.494026 0.369512
0.412512 0.489815 0.380896
0.431403 0.485420 0.393317
0.443946 0.492592 0.387182
0.459968 0.500511 0.378241
0.479988 0.507988 0.367529
0.503899 0.514916 0.355993
0.530907 0.521477 0.343206
0.560510 0.528374 0.333623
0.593866 0.538445 0.324834
0.624292 0.544915 0.316350
0.650904 0.547845 0.309361
0.673121 0.548211 0.307225
0.691676 0.548455 0.313176
0.710018 0.549981 0.320623
0.728237 0.553002 0.329625
0.743709 0.559258 0.349615
0.759243 0.567926 0.371923
0.775113 0.579156 0.396155
0.791470 0.592950 0.422614
0.808499 0.609186 0.451148
0.826383 0.627741 0.481636
0.237217 0.527153 0.341863
0.242008 0.528801 0.343816
0.247990 0.530419 0.346075
0.258579 0.531731 0.348882
0.273533 0.532341 0.352422
0.291905 0.532219 0.356634
0.313329 0.531487 0.361578
0.337926 0.530694 0.368688
0.359686 0.529412 0.373571
0.381018 0.526299 0.379522
0.404822 0.522698 0.389075
0.426886 0.518944 0.399603
0.446540 0.514885 0.410925
0.462013 0.513024 0.419013
0.473671 0.520531 0.411109
0.488930 0.527642 0.401862
0.507622 0.534417 0.391730
0.529656 0.540856 0.380560
0.554528 0.547204 0.368536
0.581476 0.553826 0.359899
0.610956 0.562799 0.353246
0.638849 0.569635 0.347387
0.663630 0.573480 0.342718
0.687037 0.576532 0.339849
0.705470 0.578607 0.346929
0.723812 0.581994 0.355871
0.742092 0.586816 0.366827
0.758785 0.594049 0.385138
0.774563 0.604273 0.409277
0.790890 0.616876 0.435554
0.807889 0.632013 0.463783
0.825742 0.649195 0.493507
0.262242 0.553307 0.365606
0.266667 0.554742 0.367590
0.272465 0.556207 0.369726
0.281926 0.557214 0.372412
0.295750 0.557794 0.375677
0.312535 0.557671 0.379461
0.332341 0.557092 0.384222
0.355077 0.556298 0.390478
0.380713 0.555596 0.398993
0.397131 0.553643 0.400946
0.419959 0.550439 0.409705
0.441779 0.547082 0.419379
0.461524 0.543481 0.429755
0.478737 0.539818 0.440833
0.490852 0.541070 0.443488
0.502098 0.547875 0.435584
0.516503 0.554406 0.426703
0.533898 0.560632 0.416938
0.554101 0.566705 0.406653
0.576867 0.572717 0.395819
0.600946 0.578576 0.387884
0.626856 0.586511 0.383825
0.652369 0.593622 0.380194
0.676631 0.599329 0.377203
0.700496 0.604517 0.374731
0.719478 0.608423 0.381872
0.737697 0.613336 0.392401
0.755947 0.619745 0.405219
0.773861 0.628229 0.422309
0.790097 0.639796 0.448096
0.807004 0.653712 0.475929
0.824887 0.669642 0.504967
0.287968 0.578729 0.389990
0.292332 0.579950 0.391730
0.297551 0.581262 0.393835
0.306737 0.582147 0.396307
0.318975 0.582605 0.399481
0.334569 0.582422 0.402869
0.352911 0.581842 0.407355
0.373724 0.581109 0.412940
0.397131 0.580346 0.420386
0.415625 0.579248 0.424445
0.435431 0.576654 0.430732
0.456306 0.573632 0.439551
0.475654 0.570397 0.449104
0.492988 0.567224 0.459236
0.507958 0.563867 0.469917
0.517815 0.568078 0.467781
0.528923 0.574640 0.460761
0.542901 0.581079 0.453193
0.559594 0.587549 0.445350
0.578637 0.593866 0.436927
0.599603 0.600031 0.427924
0.621332 0.605798 0.422065
0.644038 0.612818 0.420203
0.668849 0.621881 0.418982
0.693202 0.629969 0.418219
0.716915 0.637385 0.418128
0.737057 0.643580 0.425238
0.755337 0.650385 0.437812
0.773831 0.658717 0.452979
0.792660 0.668727 0.470649
0.809995 0.681025 0.495857
0.827939 0.695827 0.524193
0.321721 0.607355 0.419898
0.325078 0.607874 0.420905
0.328740 0.608209 0.422034
0.336004 0.608301 0.423743
0.347082 0.608118 0.426062
0.360815 0.607630 0.429053
0.377417 0.607019 0.433051
0.396887 0.606256 0.438422
0.418250 0.605615 0.445319
0.441688 0.605097 0.454261
0.455329 0.603754 0.456092
0.475166 0.601160 0.464240
0.493538 0.598566 0.473121
0.510246 0.595758 0.482338
0.525109 0.592920 0.492164
0.537774 0.590326 0.501854
0.545556 0.596124 0.495918
0.555779 0.601892 0.489296
0.568414 0.607630 0.482521
0.583246 0.613214 0.475135
0.600031 0.618647 0.467231
0.618463 0.623896 0.458747
0.637476 0.628534 0.452857
0.658198 0.635431 0.451942
0.682551 0.645777 0.451789
0.706508 0.655390 0.452705
0.730037 0.664332 0.454536
0.751369 0.672511 0.461463
0.769955 0.680964 0.476051
0.788876 0.690730 0.492744
0.808225 0.701991 0.511894
0.827695 0.715450 0.535729
0.349767 0.628840 0.444129
0.352728 0.629236 0.445136
0.356329 0.629572 0.446174
0.362890 0.629664 0.447852
0.372869 0.629419 0.450050
0.385321 0.628840 0.452796
0.400336 0.628107 0.456306
0.417487 0.627314 0.461067
0.437079 0.626581 0.467384
0.458106 0.625879 0.475227
0.473487 0.625177 0.479072
0.490303 0.623194 0.485420
0.507500 0.620844 0.493385
0.523583 0.618463 0.502007
0.538201 0.616175 0.511131
0.551171 0.613855 0.520714
0.560998 0.614038 0.526055
0.568566 0.619471 0.520806
0.578119 0.624903 0.515251
0.589715 0.630274 0.509178
0.603265 0.635615 0.503075
0.618647 0.640986 0.496254
0.635706 0.646448 0.489174
0.653773 0.651942 0.483894
0.671443 0.656550 0.480903
0.695644 0.668391 0.482277
0.719417 0.679438 0.484962
0.742916 0.689937 0.489143
0.765469 0.700008 0.496223
0.784421 0.709743 0.512291
0.804135 0.721035 0.530602
0.824949 0.734035 0.550988
0.383948 0.651728 0.472267
0.386755 0.652155 0.473304
0.389837 0.652369 0.474250
0.395544 0.652186 0.475593
0.403967 0.651728 0.477363
0.414588 0.650996 0.479774
0.427649 0.650019 0.482826
0.442847 0.648920 0.486793
0.459663 0.647822 0.492103
0.478126 0.646784 0.498787
0.496620 0.645777 0.506493
0.507561 0.644312 0.508263
0.523003 0.642054 0.515221
0.537621 0.639704 0.522698
0.550988 0.637263 0.530419
0.563043 0.634913 0.538476
0.573632 0.632654 0.546960
0.580957 0.634546 0.548028
0.588037 0.639582 0.543359
0.597192 0.645045 0.538598
0.608301 0.650660 0.533684
0.621118 0.656336 0.528435
0.635523 0.661891 0.522454
0.651392 0.667323 0.515496
0.668208 0.672663 0.510246
0.686366 0.679866 0.511681
0.710292 0.692897 0.514672
0.733852 0.705074 0.518944
0.757198 0.716548 0.524620
0.780697 0.727962 0.532158
0.800870 0.739193 0.548730
0.822110 0.752010 0.567834
0.411170 0.669551 0.494759
0.413733 0.669947 0.495796
0.416724 0.670130 0.496803
0.421668 0.670039 0.497963
0.429297 0.669581 0.499733
0.438819 0.668971 0.502098
0.450568 0.668177 0.505058
0.464149 0.667292 0.508934
0.479500 0.666438 0.514031
0.496162 0.665736 0.520439
0.513725 0.665064 0.528161
0.525719 0.664424 0.531670
0.538964 0.662806 0.537194
0.552544 0.660975 0.544060
0.565057 0.659113 0.551080
0.576593 0.657191 0.558404
0.587030 0.655451 0.566064
0.596277 0.653986 0.574090
0.602411 0.658137 0.572290
0.609613 0.663569 0.568566
0.618585 0.669245 0.564660
0.629175 0.675013 0.560357
0.641291 0.680781 0.555688
0.654871 0.686366 0.550439
0.669642 0.691859 0.544579
0.685664 0.697505 0.540673
0.702693 0.704585 0.542535
0.726436 0.718502 0.546838
0.750088 0.731685 0.552605
0.773861 0.744533 0.560266
0.798367 0.757473 0.569909
0.821469 0.770565 0.585748
0.439673 0.689265 0.519097
0.441840 0.689570 0.519982
0.444038 0.689601 0.520623
0.448493 0.689326 0.521630
0.454719 0.688808 0.523064
0.463081 0.688136 0.525139
0.473182 0.687373 0.527764
0.485176 0.686549 0.531304
0.498909 0.685817 0.535943
0.513787 0.685237 0.541772
0.529473 0.684810 0.548608
0.544549 0.684657 0.555688
0.553613 0.683894 0.557610
0.566125 0.682490 0.563745
0.577874 0.680934 0.570031
0.588861 0.679377 0.576532
0.598962 0.677852 0.583276
0.608240 0.676570 0.590448
0.616297 0.676448 0.596826
0.622156 0.681788 0.593805
0.629572 0.687465 0.590692
0.638514 0.693233 0.587366
0.648890 0.699031 0.583673
0.660578 0.704738 0.579583
0.673548 0.710292 0.575067
0.687617 0.715602 0.569940
0.702815 0.721309 0.567559
0.718807 0.727901 0.569635
0.742245 0.742184 0.574670
0.766415 0.756374 0.582086
0.791165 0.770413 0.591333
0.816953 0.785000 0.603632
0.465614 0.708919 0.542443
0.467170 0.709102 0.543114
0.469215 0.709133 0.543755
0.472969 0.708980 0.544762
0.478889 0.708736 0.546319
0.486732 0.708461 0.548608
0.496498 0.708339 0.551812
0.508141 0.708339 0.556023
0.521111 0.708614 0.561089
0.534905 0.709071 0.566979
0.549157 0.709743 0.573571
0.563653 0.710597 0.580774
0.573297 0.711238 0.583825
0.584314 0.710780 0.588739
0.595605 0.710018 0.594598
0.606165 0.709010 0.600427
0.615991 0.708003 0.606500
0.625299 0.707088 0.613031
0.634028 0.706538 0.620111
0.641108 0.708309 0.623896
0.647333 0.713802 0.621332
0.654902 0.719387 0.618555
0.663691 0.724880 0.615381
0.673732 0.730312 0.611933
0.685054 0.735592 0.608179
0.697505 0.740841 0.604059
0.711177 0.745998 0.599725
0.725765 0.751614 0.599054
0.740932 0.757656 0.601465
0.764279 0.771817 0.607568
0.789242 0.786954 0.617517
0.815274 0.802487 0.630793
0.497505 0.734646 0.572625
0.498726 0.734768 0.573083
0.500237 0.734676 0.573510
0.503410 0.734401 0.574243
0.508171 0.734066 0.575463
0.514427 0.733639 0.577142
0.522484 0.733303 0.579522
0.531701 0.733089 0.582544
0.542138 0.733059 0.586206
0.553460 0.733181 0.590600
0.565393 0.733455 0.595483
0.577539 0.733974 0.600855
0.588983 0.734554 0.605859
0.596399 0.734401 0.607141
