data/fiter_cube/26597975/1022846/file.cube
# Created by Adobe Lightroom plugin Export LUT (1.17.0)
# www.johnrellis.com/lightroom/exportlut.htm
# Preset:  城市电影胶片_02 云集
# Color profile: C:\Program Files (x86)\Common Files\Adobe\Color\Profiles\Recommended\AdobeRGB1998.icc
LUT_3D_SIZE 8
DOMAIN_MIN 0.000000 0.000000 0.000000
DOMAIN_MAX 0.903226 0.903226 0.903226
0.078706 0.076967 0.072908
0.080293 0.077058 0.072877
0.104280 0.076478 0.072084
0.233585 0.024109 0.065034
0.831266 0.000000 0.000000
1.000000 0.000000 0.000000
1.000000 0.289220 0.000000
1.000000 0.379278 0.000000
0.078981 0.077272 0.073243
0.080171 0.077424 0.073182
0.097871 0.081086 0.072267
0.201785 0.075532 0.066682
0.662043 0.000000 0.000000
1.000000 0.000000 0.000000
1.000000 0.331212 0.000000
1.000000 0.423163 0.000000
0.083528 0.081270 0.076570
0.083894 0.081209 0.076570
0.099245 0.087526 0.074067
0.193454 0.111574 0.069734
0.586267 0.150912 0.000000
1.000000 0.367773 0.000000
1.000000 0.576959 0.000000
1.000000 0.593469 0.000000
0.101411 0.097658 0.089204
0.099062 0.095369 0.087495
0.103029 0.097261 0.084901
0.173434 0.126192 0.077241
0.629603 0.275090 0.000000
1.000000 0.646021 0.000000
1.000000 0.787198 0.000000
1.000000 0.783352 0.000000
0.126223 0.120974 0.107362
0.123354 0.117922 0.105257
0.115633 0.110658 0.100526
0.156649 0.137728 0.096773
0.353124 0.219028 0.049805
0.947601 0.525597 0.000000
1.000000 0.831785 0.000000
1.000000 0.921965 0.455909
0.188083 0.181491 0.157931
0.194156 0.187472 0.163882
0.175570 0.168002 0.148989
0.171023 0.160403 0.133822
0.342657 0.277379 0.111086
0.814603 0.538476 0.000000
1.000000 0.834989 0.000000
1.000000 0.932494 0.484993
0.429603 0.440314 0.403204
0.427314 0.437201 0.401892
0.372198 0.375769 0.347967
0.306432 0.302861 0.283543
0.415717 0.384405 0.248631
0.841978 0.689906 0.191989
1.000000 0.874449 0.095857
1.000000 0.931060 0.384436
0.908080 0.903838 0.866270
0.902770 0.898405 0.860746
0.890532 0.885435 0.848905
0.880278 0.873594 0.841672
0.736202 0.733761 0.714473
0.964935 0.918669 0.759976
1.000000 0.975158 0.819272
1.000000 0.979034 0.823453
0.078706 0.076967 0.072908
0.079042 0.076905 0.073274
0.098726 0.075959 0.072694
0.190249 0.063661 0.069154
0.601984 0.000000 0.000000
1.000000 0.000000 0.000000
1.000000 0.189639 0.000000
1.000000 0.347875 0.000000
0.078981 0.077272 0.073243
0.080110 0.077790 0.073152
0.096895 0.080934 0.073030
0.180392 0.079774 0.069398
0.537926 0.000000 0.000000
1.000000 0.000000 0.000000
1.000000 0.249516 0.000000
1.000000 0.390356 0.000000
0.084138 0.081819 0.076844
0.084077 0.081819 0.077150
0.097993 0.086824 0.074922
0.166903 0.105959 0.073304
0.450843 0.124178 0.000000
0.990204 0.237125 0.000000
1.000000 0.501671 0.000000
1.000000 0.563775 0.000000
0.097810 0.094484 0.086732
0.096864 0.093538 0.086000
0.101564 0.096162 0.084138
0.147341 0.112978 0.078370
0.405127 0.179141 0.005310
0.942412 0.474098 0.000000
1.000000 0.715541 0.000000
1.000000 0.754879 0.000000
0.124941 0.119753 0.106630
0.121675 0.116304 0.104311
0.113863 0.108888 0.099031
0.145693 0.129244 0.094697
0.286351 0.183291 0.070497
0.855100 0.436927 0.000000
1.000000 0.797452 0.000000
1.000000 0.908476 0.356939
0.177401 0.170932 0.148959
0.173617 0.166873 0.146120
0.160128 0.153048 0.135775
0.159030 0.149203 0.125765
0.308812 0.250523 0.110842
0.777462 0.507164 0.000000
1.000000 0.819242 0.000000
1.000000 0.925872 0.432776
0.363012 0.369085 0.334386
0.343999 0.347753 0.315099
0.309606 0.308476 0.281346
0.269139 0.263035 0.243351
0.372015 0.343145 0.224887
0.782162 0.634302 0.157717
1.000000 0.838193 0.000000
1.000000 0.918669 0.270542
0.874449 0.872129 0.829984
0.873991 0.871244 0.829953
0.862058 0.858396 0.819211
0.851896 0.846372 0.812955
0.805722 0.799954 0.777066
0.970001 0.927642 0.784024
1.000000 0.972900 0.805722
1.000000 0.976410 0.795010
0.078920 0.076905 0.073976
0.079286 0.077546 0.073548
0.093599 0.076875 0.077272
0.201999 0.020203 0.072938
0.645106 0.000000 0.000000
1.000000 0.000000 0.000000
1.000000 0.119722 0.000000
1.000000 0.297398 0.000000
0.078920 0.077913 0.075319
0.081178 0.078981 0.074800
0.102113 0.076875 0.075319
0.193393 0.066865 0.073396
0.576379 0.000000 0.000000
1.000000 0.000000 0.000000
1.000000 0.231296 0.000000
1.000000 0.355352 0.000000
0.087709 0.085389 0.079683
0.088594 0.085847 0.080262
0.102968 0.090028 0.078401
0.183291 0.115572 0.080323
0.553307 0.114260 0.000000
1.000000 0.260777 0.000000
1.000000 0.486885 0.000000
1.000000 0.531792 0.000000
0.105379 0.101625 0.092531
0.104250 0.100557 0.091859
0.107546 0.101869 0.089174
0.162295 0.121370 0.083375
0.483894 0.217441 0.000000
0.993957 0.552331 0.000000
1.000000 0.731807 0.000000
1.000000 0.750759 0.000000
0.132998 0.127535 0.113252
0.130251 0.124880 0.111452
0.121706 0.116243 0.105470
0.160189 0.141512 0.101778
0.336187 0.210330 0.071778
0.907195 0.491768 0.000000
1.000000 0.820768 0.000000
1.000000 0.910857 0.448676
0.191684 0.185580 0.162661
0.187320 0.180697 0.159152
0.170291 0.162844 0.145357
0.163272 0.153567 0.131136
0.309911 0.252873 0.118318
0.760342 0.493446 0.000000
1.000000 0.819516 0.000000
1.000000 0.935332 0.549584
0.411017 0.421607 0.387549
0.392920 0.401251 0.369451
0.342046 0.343938 0.318364
0.282963 0.278172 0.259556
0.365423 0.339391 0.233066
0.785824 0.641138 0.192264
1.000000 0.858427 0.134798
1.000000 0.934081 0.460517
0.888945 0.886381 0.846372
0.878660 0.876280 0.835782
0.858457 0.855589 0.816342
0.861295 0.855833 0.822843
0.809171 0.803464 0.780148
0.965820 0.926482 0.794797
1.000000 0.974762 0.827481
1.000000 0.979065 0.832425
0.079713 0.076967 0.078004
0.081239 0.078523 0.076875
0.085237 0.082582 0.078035
0.146548 0.075380 0.093294
0.550103 0.000000 0.049195
1.000000 0.000000 0.000000
1.000000 0.000000 0.000000
1.000000 0.000000 0.000000
0.081453 0.079042 0.081331
0.084504 0.081025 0.079500
0.089540 0.086885 0.081697
0.182834 0.059632 0.092531
0.558740 0.000000 0.035584
1.000000 0.000000 0.000000
1.000000 0.000000 0.000000
1.000000 0.076844 0.000000
0.088106 0.089876 0.081483
0.093660 0.091249 0.084565
0.109682 0.097841 0.087770
0.204318 0.103548 0.087648
0.597711 0.000000 0.000000
1.000000 0.031586 0.000000
1.000000 0.410010 0.000000
1.000000 0.441016 0.000000
0.116793 0.112947 0.101961
0.117556 0.113252 0.102846
0.112581 0.107485 0.097200
0.179873 0.130373 0.092317
0.502312 0.240787 0.055024
1.000000 0.525994 0.000000
1.000000 0.691005 0.000000
1.000000 0.706416 0.000000
0.158816 0.153567 0.136080
0.152468 0.146731 0.130922
0.137819 0.131533 0.119203
0.179019 0.158663 0.115206
0.394720 0.243931 0.083955
0.961303 0.568536 0.000000
1.000000 0.858579 0.263096
1.000000 0.907256 0.539757
0.240482 0.237461 0.212314
0.244663 0.241337 0.217350
0.210788 0.203891 0.184909
0.183871 0.174655 0.155306
0.372076 0.308049 0.146456
0.830625 0.553643 0.000000
1.000000 0.850462 0.129763
1.000000 0.949401 0.700374
0.481392 0.497566 0.465949
0.473060 0.487861 0.458167
0.432410 0.442206 0.418677
0.361395 0.363226 0.348455
0.411139 0.391302 0.298985
0.836515 0.698726 0.292515
1.000000 0.876829 0.297612
1.000000 0.945769 0.609674
0.927855 0.923949 0.891478
0.926940 0.922820 0.890593
0.915068 0.910460 0.877836
0.893339 0.887602 0.856291
0.843900 0.837400 0.812406
0.955962 0.922698 0.813382
1.000000 0.976226 0.851286
1.000000 0.981567 0.867704
0.082399 0.078248 0.088197
0.085420 0.080629 0.086213
0.091188 0.088136 0.082765
0.105379 0.101320 0.094392
0.307988 0.000000 0.141390
1.000000 0.000000 0.125063
1.000000 0.000000 0.000000
1.000000 0.000000 0.047028
0.084871 0.081147 0.092073
0.088777 0.083528 0.090150
0.095918 0.092836 0.086671
0.110445 0.106111 0.098634
0.373388 0.000000 0.142184
1.000000 0.000000 0.046418
1.000000 0.000000 0.000000
1.000000 0.000000 0.044556
0.083070 0.090669 0.105287
0.092439 0.094118 0.105989
0.108370 0.104311 0.096895
0.173312 0.098878 0.113649
0.540856 0.000000 0.085084
1.000000 0.000000 0.000000
1.000000 0.000000 0.000000
1.000000 0.149691 0.000000
0.124178 0.122316 0.108858
0.126589 0.123507 0.111055
0.129305 0.123751 0.114321
0.207462 0.153323 0.117098
0.559899 0.263890 0.116365
1.000000 0.409247 0.000000
1.000000 0.563195 0.000000
1.000000 0.558038 0.076570
0.182376 0.179446 0.159152
0.184451 0.180453 0.162142
0.169375 0.162753 0.149081
0.188022 0.170809 0.134493
0.420508 0.256229 0.113069
0.954223 0.584710 0.077760
1.000000 0.851041 0.402655
1.000000 0.859129 0.496254
0.283543 0.287022 0.264042
0.272068 0.273198 0.251621
0.233097 0.228244 0.210605
0.189609 0.181796 0.168521
0.325292 0.278202 0.164340
0.810758 0.536828 0.066346
1.000000 0.871855 0.392828
1.000000 0.961456 0.815518
0.569940 0.589929 0.560235
0.548150 0.567102 0.539849
0.488411 0.503136 0.483101
0.407080 0.413855 0.402075
0.344823 0.339574 0.313298
0.791989 0.674067 0.343450
1.000000 0.871611 0.377234
1.000000 0.952514 0.706783
0.930602 0.927672 0.897002
0.926146 0.923156 0.892027
0.911986 0.908721 0.876768
0.914244 0.909087 0.880095
0.872984 0.866819 0.840208
0.912505 0.887907 0.806271
1.000000 0.972290 0.849973
1.000000 0.980865 0.872374
0.088258 0.081544 0.114015
0.092836 0.084535 0.110170
0.106905 0.100649 0.098970
0.113130 0.108492 0.100801
0.154299 0.147799 0.139071
0.703365 0.000000 0.328405
1.000000 0.000000 0.452735
1.000000 0.000000 0.429053
0.090028 0.084291 0.118502
0.095460 0.087282 0.114778
0.109316 0.102968 0.101625
0.114717 0.109834 0.102052
0.156802 0.150210 0.141726
0.751858 0.000000 0.324102
1.000000 0.000000 0.412390
1.000000 0.000000 0.406012
0.087007 0.095491 0.155215
0.098909 0.098512 0.146731
0.126528 0.116487 0.124269
0.138186 0.132296 0.123568
0.273167 0.139406 0.193759
0.968597 0.000000 0.311254
1.000000 0.000000 0.288304
1.000000 0.000000 0.369787
0.076478 0.181582 0.177157
0.088991 0.176272 0.174868
0.128206 0.155032 0.172427
0.231601 0.180148 0.192599
0.706996 0.000000 0.194736
1.000000 0.000000 0.231327
1.000000 0.391516 0.347845
1.000000 0.533837 0.501884
0.226505 0.235996 0.208774
0.230961 0.238407 0.214359
0.240360 0.240696 0.227695
0.217838 0.209415 0.195254
0.549554 0.364355 0.227817
0.995239 0.710109 0.432654
1.000000 0.803220 0.520500
1.000000 0.791897 0.580652
0.376471 0.399298 0.372045
0.386786 0.408270 0.385687
0.384222 0.397650 0.389654
0.294713 0.293889 0.289128
0.385657 0.349950 0.254429
0.894652 0.619715 0.272984
1.000000 0.916991 0.681758
1.000000 0.965179 0.881102
0.725795 0.743954 0.707546
0.732174 0.748226 0.714595
0.700862 0.714199 0.690089
0.599115 0.611566 0.601282
0.444617 0.452277 0.456245
0.775082 0.693568 0.471931
1.000000 0.898039 0.564294
1.000000 0.972076 0.874357
0.959045 0.955932 0.932860
0.957885 0.954589 0.931701
0.951537 0.947723 0.924346
0.940734 0.936034 0.911986
0.913603 0.907683 0.883391
0.847684 0.841367 0.823331
1.000000 0.969787 0.871336
1.000000 0.982757 0.901823
0.087770 0.084169 0.184482
0.097475 0.087617 0.179141
0.123842 0.105592 0.150118
0.144656 0.138491 0.129610
0.164645 0.158175 0.149752
0.273228 0.271977 0.279088
0.984009 0.000000 0.636530
1.000000 0.000000 0.768734
0.087343 0.086519 0.187533
0.097688 0.089815 0.181582
0.124880 0.107179 0.153414
0.145205 0.139071 0.130251
0.164645 0.158175 0.149752
0.264439 0.262333 0.267857
0.986877 0.000000 0.613306
1.000000 0.000000 0.748165
0.023377 0.095735 0.262669
0.075929 0.099397 0.248692
0.135012 0.118379 0.202518
0.172641 0.165957 0.158145
0.196780 0.190433 0.184665
0.398627 0.278202 0.360693
1.000000 0.000000 0.655573
1.000000 0.210636 0.737911
0.000000 0.134646 0.368688
0.000000 0.133303 0.364782
0.060243 0.139864 0.338109
0.235569 0.227817 0.238590
0.275578 0.274571 0.282078
0.813382 0.191379 0.551476
1.000000 0.000000 0.644862
1.000000 0.480171 0.729091
0.000000 0.390082 0.315557
0.000000 0.384619 0.316136
0.094362 0.378943 0.333989
0.206302 0.360235 0.386023
0.519646 0.343328 0.431342
1.000000 0.353033 0.497871
1.000000 0.633143 0.627527
1.000000 0.781369 0.784207
0.556329 0.616785 0.569574
0.562493 0.618524 0.576074
0.576684 0.618921 0.592523
0.577478 0.600885 0.599573
0.426123 0.436378 0.457252
0.943267 0.776669 0.632227
1.000000 0.947295 0.866026
1.000000 0.950042 0.901122
0.825650 0.844175 0.799893
0.828855 0.845335 0.803525
0.829587 0.841215 0.806882
0.821042 0.826291 0.804105
0.690883 0.697780 0.694911
0.764065 0.724453 0.618402
1.000000 0.923980 0.751553
1.000000 0.986084 0.956268
0.968688 0.966766 0.945861
0.968963 0.966827 0.946410
0.972656 0.969635 0.951812
0.973907 0.969909 0.954376
0.962951 0.957733 0.940917
0.928344 0.921386 0.903777
0.985016 0.961822 0.897459
1.000000 0.986023 0.938018
0.000000 0.074220 0.459846
0.000000 0.079164 0.443610
0.113985 0.104799 0.356664
0.215427 0.196109 0.238224
0.236393 0.231998 0.232395
0.328862 0.333196 0.350286
0.662104 0.671107 0.693935
1.000000 0.752255 0.911284
0.000000 0.076692 0.470192
0.000000 0.081147 0.454536
0.106050 0.105959 0.372290
0.216098 0.193942 0.248905
0.239750 0.235569 0.236576
0.333104 0.337804 0.355566
0.669184 0.677790 0.699947
1.000000 0.742428 0.909575
0.000000 0.082399 0.564996
0.000000 0.086336 0.546899
0.000000 0.108644 0.458198
0.239109 0.204501 0.342199
0.281834 0.281437 0.290135
0.385962 0.395392 0.420630
0.717861 0.723507 0.740688
1.000000 0.758968 0.916442
0.000000 0.102907 0.730922
0.000000 0.104646 0.720638
0.000000 0.120058 0.655970
0.233524 0.206363 0.539757
0.384710 0.394079 0.419135
0.522484 0.536339 0.567407
0.862730 0.766018 0.822446
1.000000 0.804746 0.926818
0.000000 0.484962 0.788815
0.000000 0.456794 0.790951
0.000000 0.314031 0.775448
0.000000 0.213993 0.784573
0.544732 0.530358 0.642084
0.662959 0.671870 0.694606
0.979980 0.801328 0.891722
1.000000 0.860410 0.932403
0.000000 0.917876 0.715908
0.000000 0.915770 0.721798
0.000000 0.912718 0.750057
0.245975 0.910369 0.809232
0.427527 0.821805 0.862150
0.812436 0.812009 0.818021
1.000000 0.895537 0.929351
1.000000 0.943603 0.949767
0.953857 0.962097 0.932738
0.954040 0.961791 0.933074
0.954803 0.960784 0.934325
0.956481 0.959350 0.936950
0.954162 0.953429 0.935760
0.925536 0.920500 0.910185
0.997162 0.974701 0.951690
1.000000 0.989654 0.980407
0.986053 0.985016 0.971740
0.986053 0.984894 0.971740
0.986572 0.985046 0.972747
0.987823 0.985779 0.975097
0.988556 0.985779 0.976715
0.986023 0.982116 0.973510
0.959594 0.951934 0.937072
1.000000 0.992187 0.977234
