data/fiter_cube/26597975/1022846/file.cube
# Created by Adobe Lightroom plugin Export LUT (1.17.0)
# www.johnrellis.com/lightroom/exportlut.htm
# Preset:  城市电影胶片_02 云集
# Color profile: C:\Program Files (x86)\Common Files\Adobe\Color\Profiles\Recommended\AdobeRGB1998.icc
LUT_3D_SIZE 5
DOMAIN_MIN 0.000000 0.000000 0.000000
DOMAIN_MAX 0.903226 0.903226 0.903226
0.078706 0.076967 0.072908
0.094636 0.076844 0.072419
0.513298 0.000000 0.000000
1.000000 0.000000 0.000000
1.000000 0.379278 0.000000
0.081758 0.079927 0.075044
0.091646 0.083558 0.073671
0.363287 0.113283 0.027558
1.000000 0.397986 0.000000
1.000000 0.550469 0.000000
0.111421 0.107240 0.096529
0.104128 0.099794 0.091646
0.247105 0.163180 0.073243
1.000000 0.676539 0.000000
1.000000 0.860685 0.074617
0.232059 0.227024 0.198581
0.213718 0.206668 0.183047
0.246799 0.223545 0.151278
0.923644 0.644800 0.000000
1.000000 0.932097 0.462440
0.908080 0.903838 0.866270
0.893339 0.888548 0.851438
0.766629 0.763760 0.735988
0.992157 0.943572 0.778286
1.000000 0.979034 0.823453
0.078553 0.076967 0.073640
0.087190 0.076783 0.075502
0.335576 0.000000 0.060761
1.000000 0.000000 0.000000
1.000000 0.307103 0.000000
0.084138 0.081819 0.076844
0.093996 0.085023 0.076234
0.299901 0.105135 0.065278
1.000000 0.239658 0.000000
1.000000 0.494575 0.000000
0.113466 0.108980 0.098299
0.106691 0.102388 0.093996
0.207858 0.144167 0.081239
1.000000 0.595422 0.000000
1.000000 0.848234 0.129366
0.242313 0.238224 0.210483
0.222019 0.215396 0.192691
0.248722 0.226352 0.157504
0.911467 0.631891 0.000000
1.000000 0.935424 0.524346
0.911772 0.907836 0.871244
0.896635 0.892119 0.855711
0.852384 0.845945 0.816831
0.993713 0.953704 0.821012
1.000000 0.981353 0.855558
0.080690 0.077729 0.082368
0.086000 0.083772 0.078889
0.203891 0.060792 0.110201
1.000000 0.000000 0.000000
1.000000 0.000000 0.000000
0.082216 0.085512 0.092622
0.098085 0.094667 0.088441
0.331914 0.000000 0.086732
1.000000 0.000000 0.000000
1.000000 0.245396 0.000000
0.139956 0.135775 0.120699
0.133974 0.128237 0.116854
0.263401 0.171633 0.101381
1.000000 0.677882 0.000000
1.000000 0.789944 0.276036
0.310796 0.315526 0.289921
0.264561 0.261906 0.241215
0.245457 0.229801 0.184085
0.926787 0.652674 0.000000
1.000000 0.950256 0.712459
0.919066 0.916167 0.882658
0.914702 0.910979 0.878233
0.880186 0.874388 0.844785
0.969940 0.931548 0.807156
1.000000 0.979736 0.855406
0.088746 0.082094 0.120607
0.104738 0.094423 0.108797
0.127993 0.122530 0.114046
0.778897 0.000000 0.388617
1.000000 0.000000 0.506889
0.090303 0.091371 0.149172
0.115999 0.104646 0.129549
0.148653 0.142397 0.133516
0.943542 0.000000 0.391363
1.000000 0.000000 0.450172
0.118135 0.194858 0.149050
0.150912 0.192935 0.157565
0.365118 0.237369 0.214786
1.000000 0.368322 0.261662
1.000000 0.620325 0.541772
0.497047 0.530663 0.500877
0.480110 0.504204 0.489784
0.324559 0.325628 0.326513
0.963043 0.716823 0.377569
1.000000 0.973632 0.909880
0.961822 0.958953 0.936461
0.962097 0.958465 0.937621
0.946593 0.941253 0.919585
0.887785 0.876799 0.844999
1.000000 0.982879 0.906706
0.000000 0.074220 0.459846
0.072053 0.095155 0.382483
0.230777 0.226078 0.225467
0.393500 0.403510 0.429603
1.000000 0.752255 0.911284
0.000000 0.080110 0.544305
0.000000 0.099123 0.469429
0.265019 0.263035 0.268589
0.440833 0.453529 0.483467
1.000000 0.759670 0.916289
0.000000 0.180972 0.737453
0.000000 0.154360 0.746090
0.354192 0.316320 0.567285
0.648676 0.658381 0.682399
1.000000 0.827695 0.929107
0.461677 0.919341 0.680842
0.522667 0.913237 0.706905
0.665492 0.898619 0.790738
0.938109 0.860807 0.885710
1.000000 0.959594 0.956451
0.986053 0.985016 0.971740
0.986358 0.984955 0.972320
0.988373 0.985992 0.976135
0.982391 0.977844 0.968353
1.000000 0.992187 0.977234
