data/fiter_cube/26597975/1022846/file.cube
# Created by Adobe Lightroom plugin Export LUT (1.17.0)
# www.johnrellis.com/lightroom/exportlut.htm
# Preset:  城市电影胶片_02 云集
# Color profile: C:\Program Files (x86)\Common Files\Adobe\Color\Profiles\Recommended\AdobeRGB1998.icc
LUT_3D_SIZE 32
DOMAIN_MIN 0.0 0.0 0.0
DOMAIN_MAX 1.0 1.0 1.0
0.078706 0.076967 0.072908
0.078706 0.076967 0.072908
0.078706 0.076967 0.072908
0.079103 0.076905 0.072908
0.080293 0.077058 0.072877
0.082948 0.076936 0.072786
0.088014 0.076722 0.072663
0.094636 0.076844 0.072419
0.104280 0.076478 0.072084
0.117311 0.075349 0.071626
0.136294 0.073518 0.070802
0.164157 0.068605 0.069764
0.233585 0.024109 0.065034
0.354040 0.000000 0.046479
0.513298 0.000000 0.000000
0.682246 0.000000 0.000000
0.831266 0.000000 0.000000
0.947753 0.000000 0.000000
1.000000 0.000000 0.000000
1.000000 0.000000 0.000000
1.000000 0.000000 0.000000
1.000000 0.000000 0.000000
1.000000 0.164065 0.000000
1.000000 0.243168 0.000000
1.000000 0.289220 0.000000
1.000000 0.321569 0.000000
1.000000 0.346166 0.000000
1.000000 0.364874 0.000000
1.000000 0.379278 0.000000
1.000000 0.389410 0.000000
1.000000 0.394141 0.000000
1.000000 0.403021 0.000000
0.078706 0.076967 0.072908
0.078706 0.076967 0.072908
0.078706 0.076967 0.072908
0.079103 0.076905 0.072908
0.080293 0.077058 0.072877
0.082948 0.076936 0.072786
0.087617 0.077150 0.072633
0.094270 0.077272 0.072389
0.103395 0.077058 0.072084
0.115999 0.076417 0.071595
0.133883 0.074708 0.071199
0.160372 0.070771 0.069856
0.225132 0.039673 0.065522
0.329381 0.000000 0.051942
0.468849 0.000000 0.000458
0.627314 0.000000 0.000000
0.777279 0.000000 0.000000
0.904082 0.000000 0.000000
0.997101 0.000000 0.000000
1.000000 0.000000 0.000000
1.000000 0.000000 0.000000
1.000000 0.000000 0.000000
1.000000 0.133242 0.000000
1.000000 0.226749 0.000000
1.000000 0.280705 0.000000
1.000000 0.316625 0.000000
1.000000 0.343481 0.000000
1.000000 0.364721 0.000000
1.000000 0.379767 0.000000
1.000000 0.391974 0.000000
1.000000 0.396033 0.000000
1.000000 0.403571 0.000000
0.078706 0.076967 0.072908
0.078706 0.076967 0.072908
0.078706 0.076967 0.072908
0.079103 0.076905 0.072908
0.079866 0.077119 0.072877
0.082490 0.077394 0.072786
0.086854 0.077668 0.072602
0.093599 0.077760 0.072389
0.102449 0.077638 0.072053
0.114900 0.077424 0.071565
0.132540 0.075929 0.071168
0.158755 0.072602 0.069825
0.221256 0.050629 0.065614
0.316838 0.000000 0.054108
0.445441 0.000000 0.009400
0.596368 0.000000 0.000000
0.744961 0.000000 0.000000
0.876524 0.000000 0.000000
0.977813 0.000000 0.000000
1.000000 0.000000 0.000000
1.000000 0.000000 0.000000
1.000000 0.000000 0.000000
1.000000 0.132113 0.000000
1.000000 0.228397 0.000000
1.000000 0.283391 0.000000
1.000000 0.320378 0.000000
1.000000 0.347814 0.000000
1.000000 0.369024 0.000000
1.000000 0.384985 0.000000
1.000000 0.396796 0.000000
1.000000 0.401129 0.000000
1.000000 0.407599 0.000000
0.078706 0.076967 0.072908
0.078706 0.076967 0.072908
0.078706 0.076967 0.072908
0.079103 0.076905 0.072908
0.079866 0.077119 0.072877
0.082063 0.077821 0.072755
0.085969 0.078523 0.072908
0.092134 0.078767 0.072694
0.100801 0.079042 0.072358
0.112673 0.079072 0.071870
0.129305 0.078706 0.071107
0.159762 0.076020 0.069429
0.216190 0.062837 0.065919
0.301366 0.000000 0.055909
0.417884 0.000000 0.017914
0.560937 0.000000 0.000000
0.708431 0.000000 0.000000
0.841978 0.000000 0.000000
0.949981 0.000000 0.000000
1.000000 0.000000 0.000000
1.000000 0.000000 0.000000
1.000000 0.000000 0.000000
1.000000 0.143587 0.000000
1.000000 0.242893 0.000000
1.000000 0.299779 0.000000
1.000000 0.338384 0.000000
1.000000 0.365911 0.000000
1.000000 0.386328 0.000000
1.000000 0.400580 0.000000
1.000000 0.411078 0.000000
1.000000 0.414649 0.000000
1.000000 0.419226 0.000000
0.078981 0.077272 0.073243
0.078981 0.077272 0.073243
0.078981 0.077272 0.073243
0.079408 0.077180 0.073243
0.080171 0.077424 0.073182
0.082002 0.077821 0.073091
0.085206 0.079011 0.072908
0.089937 0.080262 0.072633
0.097871 0.081086 0.072267
0.108705 0.081727 0.071778
0.124544 0.081758 0.071412
0.155276 0.081209 0.069642
0.201785 0.075532 0.066682
0.272618 0.042756 0.060212
0.374701 0.000000 0.031800
0.509728 0.000000 0.000000
0.662043 0.000000 0.000000
0.807370 0.000000 0.000000
0.927611 0.000000 0.000000
1.000000 0.000000 0.000000
1.000000 0.000000 0.000000
1.000000 0.000000 0.000000
1.000000 0.198856 0.000000
1.000000 0.279515 0.000000
1.000000 0.331212 0.000000
1.000000 0.366400 0.000000
1.000000 0.392004 0.000000
1.000000 0.410468 0.000000
1.000000 0.423163 0.000000
1.000000 0.431861 0.000000
1.000000 0.434180 0.000000
1.000000 0.437415 0.000000
0.079286 0.077546 0.073548
0.079683 0.077485 0.073548
0.079683 0.077485 0.073548
0.079683 0.077485 0.073548
0.080415 0.078096 0.073487
0.081910 0.078553 0.073030
0.085512 0.079316 0.072877
0.089906 0.080598 0.072602
0.096468 0.082338 0.072572
0.106142 0.084627 0.072328
0.124056 0.086427 0.071687
0.151369 0.087678 0.070008
0.192660 0.086336 0.067231
0.255650 0.075654 0.061402
0.348241 0.000000 0.039246
0.475685 0.000000 0.000000
0.627497 0.000000 0.000000
0.778958 0.000000 0.000000
0.908659 0.000000 0.000000
1.000000 0.000000 0.000000
1.000000 0.000000 0.000000
1.000000 0.168582 0.000000
1.000000 0.419593 0.000000
1.000000 0.442420 0.000000
1.000000 0.456794 0.000000
1.000000 0.466224 0.000000
1.000000 0.472724 0.000000
1.000000 0.476692 0.000000
1.000000 0.479011 0.000000
1.000000 0.476753 0.000000
1.000000 0.477455 0.000000
1.000000 0.482033 0.000000
0.080629 0.078370 0.074159
0.080629 0.078370 0.074159
0.080629 0.078370 0.074159
0.080629 0.078370 0.074159
0.080964 0.078676 0.074128
0.082765 0.079805 0.073610
0.085695 0.080354 0.073121
0.092073 0.081544 0.072786
0.100740 0.084474 0.072572
0.114137 0.088167 0.072694
0.135225 0.094026 0.072084
0.169223 0.100008 0.070314
0.222812 0.101839 0.065431
0.303258 0.094270 0.051911
0.412665 0.056916 0.006561
0.548363 0.000000 0.000000
0.697261 0.000000 0.000000
0.838590 0.000000 0.000000
0.955383 0.000000 0.000000
1.000000 0.107820 0.000000
1.000000 0.258396 0.000000
1.000000 0.355657 0.000000
1.000000 0.421607 0.000000
1.000000 0.463600 0.000000
1.000000 0.488411 0.000000
1.000000 0.501884 0.000000
1.000000 0.508537 0.000000
1.000000 0.511223 0.000000
1.000000 0.511589 0.000000
1.000000 0.507500 0.000000
1.000000 0.505333 0.000000
1.000000 0.507225 0.000000
0.081758 0.079927 0.075044
0.081758 0.079927 0.075044
0.081788 0.079561 0.075074
0.081788 0.079561 0.075074
0.081788 0.079561 0.075074
0.083253 0.080385 0.074617
0.086275 0.082185 0.074342
0.091646 0.083558 0.073671
0.101717 0.085512 0.072755
0.113802 0.089174 0.072602
0.132204 0.094484 0.072541
0.160525 0.101778 0.071412
0.203159 0.111879 0.068757
0.269017 0.117891 0.060883
0.363287 0.113283 0.027558
0.486854 0.092348 0.000000
0.632715 0.024414 0.000000
0.781033 0.000000 0.000000
0.912230 0.084016 0.000000
1.000000 0.201175 0.000000
1.000000 0.308263 0.000000
1.000000 0.397986 0.000000
1.000000 0.463172 0.000000
1.000000 0.504875 0.000000
1.000000 0.529686 0.000000
1.000000 0.542809 0.000000
1.000000 0.548791 0.000000
1.000000 0.550805 0.000000
1.000000 0.550469 0.000000
1.000000 0.545769 0.000000
1.000000 0.540490 0.000000
1.000000 0.537957 0.000000
0.083528 0.081270 0.076570
0.083528 0.081270 0.076570
0.083528 0.081270 0.076570
0.083894 0.081209 0.076570
0.083894 0.081209 0.076570
0.084535 0.082094 0.076478
0.087892 0.083864 0.075898
0.092470 0.085634 0.075227
0.099245 0.087526 0.074067
0.112673 0.089693 0.072969
0.129580 0.094820 0.072663
0.155154 0.101991 0.071748
0.193454 0.111574 0.069734
0.249973 0.124208 0.064240
0.331090 0.140291 0.043061
0.443763 0.147036 0.000000
0.586267 0.150912 0.000000
0.737423 0.164858 0.000000
0.877531 0.204807 0.000000
0.987488 0.278325 0.000000
1.000000 0.367773 0.000000
1.000000 0.450050 0.000000
1.000000 0.512383 0.000000
1.000000 0.552789 0.000000
1.000000 0.576959 0.000000
1.000000 0.588525 0.000000
1.000000 0.593683 0.000000
1.000000 0.594903 0.000000
1.000000 0.593469 0.000000
1.000000 0.589044 0.000000
1.000000 0.582452 0.000000
1.000000 0.578790 0.000000
0.086946 0.084596 0.078798
0.086946 0.084596 0.078798
0.086976 0.084260 0.078828
0.086671 0.084321 0.078492
0.086366 0.084047 0.078553
0.086152 0.083436 0.078279
0.088777 0.085267 0.077699
0.092866 0.087709 0.077028
0.098970 0.089662 0.075959
0.107393 0.091920 0.075074
0.124178 0.094667 0.073304
0.147433 0.101167 0.072328
0.180606 0.110414 0.070985
0.230930 0.122560 0.066468
0.306218 0.138918 0.053315
0.413855 0.164218 0.000000
0.556207 0.208408 0.000000
0.714015 0.242130 0.000000
0.860227 0.290227 0.000000
0.974121 0.356146 0.000000
1.000000 0.433204 0.000000
1.000000 0.504173 0.000000
1.000000 0.559747 0.000000
1.000000 0.596948 0.000000
1.000000 0.619684 0.000000
1.000000 0.631891 0.000000
1.000000 0.637415 0.000000
1.000000 0.638849 0.000000
1.000000 0.637781 0.000000
1.000000 0.634730 0.000000
1.000000 0.627710 0.000000
1.000000 0.624170 0.000000
0.090242 0.087404 0.081025
0.089967 0.087129 0.081056
0.089967 0.087129 0.081056
0.089693 0.086885 0.080781
0.089448 0.086610 0.080507
0.088899 0.086091 0.080232
0.089906 0.086580 0.079835
0.093629 0.089052 0.079164
0.099214 0.091920 0.078370
0.107027 0.094789 0.077119
0.118166 0.097597 0.075715
0.139437 0.101350 0.073487
0.170962 0.109682 0.071809
0.215549 0.121340 0.068360
0.282628 0.137240 0.059724
0.380377 0.160678 0.014435
0.513848 0.201297 0.000000
0.668269 0.266056 0.000000
0.819089 0.342840 0.000000
0.945068 0.407996 0.000000
1.000000 0.482246 0.000000
1.000000 0.552544 0.000000
1.000000 0.608240 0.000000
1.000000 0.645808 0.000000
1.000000 0.668025 0.000000
1.000000 0.679347 0.000000
1.000000 0.684016 0.000000
1.000000 0.684688 0.000000
1.000000 0.682948 0.000000
1.000000 0.680079 0.000000
1.000000 0.673426 0.000000
1.000000 0.669703 0.000000
0.093568 0.090700 0.083680
0.093629 0.090700 0.083375
0.093355 0.090455 0.083406
0.093111 0.090181 0.083131
0.092927 0.089631 0.082887
0.092042 0.089204 0.082643
0.091524 0.088380 0.082429
0.094820 0.090822 0.081788
0.100038 0.093996 0.081025
0.107362 0.097414 0.080110
0.118044 0.101503 0.078584
0.133333 0.105440 0.076753
0.212039 0.130587 0.070954
0.297032 0.149844 0.056550
0.407843 0.181643 0.000000
0.552789 0.234318 0.000000
0.708278 0.307347 0.000000
0.849088 0.395087 0.000000
0.956756 0.490730 0.000000
1.000000 0.588739 0.000000
1.000000 0.658839 0.000000
1.000000 0.699275 0.000000
1.000000 0.725887 0.000000
1.000000 0.741939 0.000000
1.000000 0.749874 0.000000
1.000000 0.752224 0.000000
1.000000 0.750729 0.000000
1.000000 0.747158 0.000000
1.000000 0.742428 0.000000
1.000000 0.736904 0.000000
1.000000 0.730343 0.000000
1.000000 0.727962 0.000000
0.101411 0.097658 0.089204
0.101167 0.097444 0.088960
0.100679 0.097261 0.088716
0.099977 0.096590 0.088228
0.099062 0.095369 0.087495
0.097810 0.094484 0.086732
0.096895 0.093263 0.086030
0.097536 0.093721 0.085389
0.103029 0.097261 0.084901
0.111208 0.102144 0.084108
0.123476 0.108522 0.082918
0.142916 0.116548 0.080751
0.173434 0.126192 0.077241
0.231144 0.139254 0.069642
0.339696 0.164614 0.038178
0.472602 0.208774 0.000000
0.629603 0.275090 0.000000
0.781827 0.358099 0.000000
0.909422 0.452461 0.000000
0.998169 0.551995 0.000000
1.000000 0.646021 0.000000
1.000000 0.724300 0.000000
1.000000 0.760128 0.000000
1.000000 0.777981 0.000000
1.000000 0.787198 0.000000
1.000000 0.790524 0.000000
1.000000 0.789822 0.000000
1.000000 0.787228 0.000000
1.000000 0.783352 0.000000
1.000000 0.779568 0.000000
1.000000 0.773892 0.000000
1.000000 0.772305 0.000000
0.105959 0.101808 0.092226
0.105715 0.101595 0.092256
0.105287 0.101167 0.091768
0.104341 0.100557 0.091310
0.103212 0.099458 0.090639
0.102113 0.098054 0.089693
0.100649 0.096986 0.089021
0.099489 0.095552 0.088319
0.103578 0.098421 0.087648
0.110872 0.103426 0.086915
0.121950 0.109926 0.086091
0.138888 0.118593 0.084688
0.165011 0.129244 0.081849
0.204898 0.142092 0.076326
0.275303 0.157961 0.064332
0.407599 0.190524 0.000000
0.553277 0.247257 0.000000
0.708797 0.323430 0.000000
0.852689 0.414862 0.000000
0.962493 0.514977 0.000000
1.000000 0.615259 0.000000
1.000000 0.701534 0.000000
1.000000 0.767147 0.000000
1.000000 0.811795 0.000000
1.000000 0.822324 0.000000
1.000000 0.826627 0.000000
1.000000 0.827146 0.000000
1.000000 0.825345 0.000000
1.000000 0.822599 0.000000
1.000000 0.819913 0.000000
1.000000 0.816342 0.034485
1.000000 0.815793 0.214664
0.111421 0.107240 0.096529
0.111238 0.107027 0.096284
0.110811 0.106630 0.096071
0.110018 0.105531 0.095430
0.108736 0.104311 0.094545
0.106996 0.102876 0.093446
0.105409 0.101381 0.092561
0.104128 0.099794 0.091646
0.104219 0.100069 0.090822
0.111452 0.104952 0.090394
0.121675 0.111757 0.089876
0.137179 0.120760 0.088533
0.160250 0.132265 0.086488
0.195010 0.146609 0.081819
0.247105 0.163180 0.073243
0.330053 0.182223 0.050080
0.489845 0.226871 0.000000
0.642603 0.296208 0.000000
0.794369 0.383032 0.000000
0.921660 0.481392 0.000000
1.000000 0.583703 0.000000
1.000000 0.676539 0.000000
1.000000 0.749447 0.000000
1.000000 0.802731 0.000000
1.000000 0.839872 0.000000
1.000000 0.858701 0.000000
1.000000 0.861143 0.000000
1.000000 0.861387 0.000000
1.000000 0.860685 0.074617
1.000000 0.860349 0.204105
1.000000 0.859709 0.300847
1.000000 0.862425 0.398596
0.118410 0.113802 0.101595
0.118227 0.113619 0.101381
0.118105 0.113222 0.101167
0.117281 0.112428 0.100801
0.115908 0.111086 0.100008
0.114534 0.109499 0.098970
0.112886 0.108125 0.097902
0.110994 0.106325 0.096864
0.109346 0.104677 0.095521
0.113863 0.108064 0.095064
0.123812 0.115084 0.094545
0.138155 0.124178 0.093538
0.158511 0.135500 0.091463
0.187961 0.149905 0.087709
0.231083 0.167208 0.080751
0.293828 0.186893 0.067231
0.387701 0.210697 0.011963
0.573205 0.269139 0.000000
0.733669 0.353613 0.000000
0.879454 0.453681 0.000000
0.984466 0.560693 0.000000
1.000000 0.660914 0.000000
1.000000 0.740963 0.000000
1.000000 0.799191 0.000000
1.000000 0.839200 0.000000
1.000000 0.867765 0.000000
1.000000 0.889494 0.142824
1.000000 0.895018 0.247898
1.000000 0.895262 0.312779
1.000000 0.895659 0.381231
1.000000 0.896025 0.454047
1.000000 0.898558 0.532952
0.126223 0.120974 0.107362
0.125856 0.120638 0.107179
0.125521 0.120272 0.106783
0.124605 0.119387 0.106203
0.123354 0.117922 0.105257
0.121706 0.116304 0.104097
0.119783 0.114443 0.102907
0.117861 0.112551 0.101717
0.115633 0.110658 0.100526
0.114717 0.109682 0.099184
0.124331 0.116640 0.098939
0.137697 0.125948 0.098207
0.156649 0.137728 0.096773
0.183597 0.152804 0.093568
0.221897 0.171206 0.087922
0.276249 0.193088 0.077028
0.353124 0.219028 0.049805
0.459419 0.249516 0.000000
0.664576 0.323400 0.000000
0.822721 0.419226 0.000000
0.947601 0.525597 0.000000
1.000000 0.630640 0.000000
1.000000 0.719173 0.000000
1.000000 0.785885 0.000000
1.000000 0.831785 0.000000
1.000000 0.863798 0.000000
1.000000 0.887602 0.079103
1.000000 0.906828 0.307561
1.000000 0.921965 0.455909
1.000000 0.923308 0.516136
1.000000 0.924773 0.582269
1.000000 0.927581 0.652522
0.136721 0.130892 0.115297
0.136690 0.130892 0.115480
0.152499 0.146151 0.127932
0.150942 0.144442 0.126894
0.148348 0.141848 0.124819
0.145052 0.138643 0.122591
0.141360 0.135012 0.119936
0.137606 0.131258 0.117037
0.133913 0.127352 0.114260
0.129976 0.123720 0.111574
0.134920 0.127504 0.110414
0.150607 0.139071 0.109743
0.172213 0.153628 0.108003
0.202518 0.172549 0.104555
0.245304 0.196170 0.097688
0.304997 0.225620 0.084382
0.386389 0.261662 0.051301
0.493690 0.303807 0.000000
0.622431 0.348211 0.000000
0.823423 0.439155 0.000000
0.950256 0.541527 0.000000
1.000000 0.644221 0.000000
1.000000 0.730220 0.000000
1.000000 0.793576 0.000000
1.000000 0.836484 0.000000
1.000000 0.866392 0.000000
1.000000 0.888701 0.047761
1.000000 0.907134 0.292668
1.000000 0.923583 0.451148
1.000000 0.938567 0.593988
1.000000 0.946410 0.688472
1.000000 0.948638 0.746273
0.154147 0.147982 0.129335
0.156374 0.149996 0.131014
0.158389 0.151827 0.132876
0.159152 0.152804 0.133608
0.158663 0.151919 0.133181
0.156161 0.149508 0.131594
0.152590 0.145754 0.128878
0.148562 0.141787 0.125917
0.144442 0.137484 0.122713
0.139925 0.133242 0.119570
0.135378 0.128969 0.116518
0.149935 0.140078 0.116182
0.169833 0.154696 0.115236
0.197299 0.173007 0.112490
0.235172 0.196262 0.107149
0.287480 0.225315 0.097017
0.358648 0.261418 0.076722
0.453010 0.305119 0.000000
0.571923 0.355291 0.000000
0.705592 0.406836 0.000000
0.889158 0.501915 0.000000
0.997559 0.607965 0.000000
1.000000 0.704707 0.000000
1.000000 0.778286 0.000000
1.000000 0.828336 0.000000
1.000000 0.862394 0.000000
1.000000 0.887114 0.000000
1.000000 0.906615 0.267979
1.000000 0.923583 0.435126
1.000000 0.938842 0.583856
1.000000 0.952300 0.713985
1.000000 0.963439 0.818143
0.168948 0.162478 0.141482
0.171115 0.164645 0.143435
0.173556 0.166903 0.145480
0.174472 0.167849 0.146456
0.174014 0.167086 0.146242
0.171359 0.164309 0.144259
0.167422 0.160220 0.141115
0.162783 0.155642 0.137606
0.158022 0.150729 0.134005
0.153048 0.145815 0.130282
0.148043 0.140810 0.126406
0.151064 0.142611 0.124269
0.170077 0.157351 0.123781
0.196017 0.176028 0.122011
0.231327 0.199405 0.117861
0.279515 0.229007 0.109560
0.344305 0.265995 0.093812
0.430640 0.311559 0.056977
0.540887 0.365545 0.000000
0.668971 0.423621 0.000000
0.799496 0.480232 0.000000
0.954070 0.577661 0.000000
1.000000 0.679133 0.000000
1.000000 0.762112 0.000000
1.000000 0.819547 0.000000
1.000000 0.857786 0.000000
1.000000 0.884611 0.000000
1.000000 0.905241 0.233066
1.000000 0.922759 0.409705
1.000000 0.938262 0.564721
1.000000 0.952087 0.701015
1.000000 0.963317 0.811032
0.188083 0.181491 0.157931
0.190738 0.184298 0.160342
0.193545 0.187106 0.162997
0.195041 0.188296 0.164309
0.194156 0.187472 0.163882
0.191104 0.184207 0.161440
0.186862 0.179507 0.157870
0.181369 0.173922 0.153567
0.175570 0.168002 0.148989
0.169680 0.161959 0.144228
0.163577 0.155917 0.139528
0.157107 0.149416 0.134493
0.171023 0.160403 0.133822
0.196109 0.179599 0.132845
0.230350 0.204013 0.130037
0.277501 0.235813 0.123812
0.342657 0.277379 0.111086
0.431495 0.330663 0.083314
0.546349 0.395880 0.000000
0.679866 0.467353 0.000000
0.814603 0.538476 0.000000
0.929229 0.604547 0.000000
1.000000 0.696803 0.000000
1.000000 0.777615 0.000000
1.000000 0.834989 0.000000
1.000000 0.871550 0.000000
1.000000 0.896818 0.077058
1.000000 0.916228 0.318151
1.000000 0.932494 0.484993
1.000000 0.946715 0.631830
1.000000 0.958862 0.756985
1.000000 0.969085 0.851133
0.232059 0.227024 0.198581
0.233524 0.228580 0.200198
0.234501 0.229465 0.201114
0.233799 0.228428 0.200504
0.231083 0.225406 0.198123
0.226017 0.219944 0.193698
0.220035 0.213413 0.188449
0.213718 0.206668 0.183047
0.206760 0.199252 0.177127
0.199893 0.192020 0.171389
0.192508 0.184329 0.165316
0.184482 0.176181 0.158816
0.181979 0.172885 0.153353
0.209567 0.195102 0.153353
0.246799 0.223545 0.151278
0.297337 0.260441 0.145876
0.365362 0.307591 0.134646
0.455665 0.366888 0.110994
0.568017 0.436072 0.043793
0.693751 0.509056 0.000000
0.817807 0.579858 0.000000
0.923644 0.644800 0.000000
0.998566 0.700160 0.000000
1.000000 0.767697 0.000000
1.000000 0.824552 0.000000
1.000000 0.866239 0.000000
1.000000 0.894377 0.000000
1.000000 0.915129 0.284123
1.000000 0.932097 0.462440
1.000000 0.946563 0.616236
1.000000 0.958923 0.746670
1.000000 0.969146 0.846159
0.271458 0.269017 0.237797
0.273777 0.271519 0.240238
0.275181 0.273136 0.241978
0.274632 0.272129 0.241428
0.271275 0.268315 0.238468
0.265263 0.261540 0.232761
0.257786 0.253178 0.225681
0.249424 0.243870 0.217746
0.240726 0.234379 0.209812
0.231876 0.224674 0.201877
0.222904 0.215000 0.193912
0.213199 0.204898 0.185458
0.202701 0.194247 0.176486
0.215305 0.203891 0.173159
0.253574 0.234775 0.172915
0.305089 0.274784 0.169802
0.374029 0.325902 0.161807
0.464759 0.389776 0.145144
0.576593 0.463752 0.110201
0.700374 0.541253 0.000000
0.822202 0.616938 0.000000
0.925444 0.686000 0.000000
0.998016 0.744686 0.000000
1.000000 0.788449 0.000000
1.000000 0.814084 0.000000
1.000000 0.854704 0.000000
1.000000 0.887755 0.000000
1.000000 0.910948 0.214847
1.000000 0.929137 0.412268
1.000000 0.944427 0.578393
1.000000 0.957733 0.722103
1.000000 0.968292 0.832822
0.356115 0.361151 0.326574
0.359991 0.365332 0.330846
0.361883 0.367407 0.332982
0.359289 0.364385 0.330541
0.352544 0.356634 0.323888
0.343084 0.345800 0.314458
0.330724 0.332128 0.302068
0.317113 0.316747 0.288396
0.302861 0.300725 0.274235
0.288396 0.284703 0.260044
0.273411 0.268376 0.245579
0.259251 0.252842 0.231907
0.244419 0.237003 0.217746
0.228763 0.220523 0.203281
0.263676 0.249363 0.201816
0.312688 0.288823 0.198520
0.376532 0.337865 0.191836
0.460548 0.399512 0.179416
0.566186 0.472999 0.157931
0.686610 0.552850 0.120363
0.808011 0.632166 0.000000
0.912016 0.704250 0.000000
0.985565 0.763546 0.000000
1.000000 0.806973 0.000000
1.000000 0.834684 0.000000
1.000000 0.861082 0.000000
1.000000 0.885344 0.000000
1.000000 0.909575 0.165957
1.000000 0.928222 0.380255
1.000000 0.943694 0.553246
1.000000 0.957153 0.704036
1.000000 0.968048 0.823362
0.429603 0.440314 0.403204
0.434760 0.445624 0.408789
0.437171 0.448127 0.411383
0.434394 0.444770 0.408698
0.427314 0.437201 0.401892
0.416449 0.425025 0.391272
0.403052 0.410193 0.378119
0.388037 0.393500 0.363409
0.372198 0.375769 0.347967
0.356420 0.358129 0.332525
0.339940 0.339696 0.316381
0.323674 0.321691 0.300481
0.306432 0.302861 0.283543
0.287907 0.282658 0.265354
0.288212 0.280034 0.252445
0.344152 0.326970 0.252140
0.415717 0.384405 0.248631
0.506065 0.453559 0.241367
0.613458 0.531121 0.229496
0.729854 0.612085 0.212955
0.841978 0.689906 0.191989
0.932952 0.758297 0.169100
0.995758 0.812284 0.146426
1.000000 0.850156 0.123812
1.000000 0.874449 0.095857
1.000000 0.888212 0.016449
1.000000 0.899901 0.022797
1.000000 0.912749 0.169009
1.000000 0.931060 0.384436
1.000000 0.946410 0.562676
1.000000 0.959594 0.715999
1.000000 0.970092 0.834470
0.540124 0.553918 0.514733
0.543938 0.557488 0.518456
0.544701 0.558068 0.519402
0.539757 0.552941 0.514855
0.529564 0.542473 0.505516
0.516411 0.528649 0.493294
0.500450 0.511772 0.478157
0.482551 0.492988 0.461311
0.464729 0.473610 0.444190
0.447120 0.454505 0.427405
0.428321 0.434089 0.409491
0.410437 0.414496 0.392676
0.390570 0.392889 0.374060
0.368750 0.369055 0.352880
0.344335 0.342840 0.329229
0.376989 0.368841 0.321477
0.453956 0.431861 0.320592
0.546380 0.503746 0.317235
0.651789 0.581964 0.313207
0.762020 0.661646 0.309178
0.864286 0.736110 0.305821
0.944396 0.799557 0.305211
0.999176 0.847532 0.306920
1.000000 0.880735 0.309911
1.000000 0.902098 0.309575
1.000000 0.914519 0.305241
1.000000 0.920470 0.297124
1.000000 0.924681 0.302770
1.000000 0.932372 0.370916
1.000000 0.945953 0.537102
1.000000 0.959258 0.698329
1.000000 0.969879 0.824552
0.650446 0.661646 0.618311
0.652827 0.663752 0.620478
0.653162 0.664057 0.620966
0.649500 0.660212 0.617792
0.643091 0.653712 0.612421
0.635920 0.646235 0.606287
0.629694 0.639704 0.601434
0.624231 0.633600 0.597284
0.620050 0.628840 0.594507
0.616144 0.623865 0.592248
0.611444 0.618524 0.589654
0.604852 0.611170 0.585534
0.594720 0.600458 0.578515
0.578576 0.583856 0.566155
0.556146 0.561242 0.547967
0.526116 0.531212 0.523369
0.617487 0.603876 0.525628
0.713893 0.678065 0.528161
0.808408 0.749477 0.532921
0.890288 0.812497 0.540856
0.952056 0.862821 0.552117
0.994415 0.899504 0.565332
1.000000 0.924254 0.577111
1.000000 0.940276 0.586938
1.000000 0.949828 0.592798
1.000000 0.954955 0.594690
1.000000 0.957000 0.593622
1.000000 0.956573 0.588525
1.000000 0.955596 0.592889
1.000000 0.958434 0.653132
1.000000 0.966430 0.767819
1.000000 0.975616 0.870634
0.831754 0.831785 0.786374
0.832670 0.832639 0.787259
0.831662 0.831601 0.786374
0.827604 0.827634 0.782650
0.821500 0.821622 0.776974
0.813931 0.814084 0.769986
0.805997 0.806363 0.763027
0.798337 0.798428 0.756283
0.790372 0.790341 0.749783
0.782406 0.782193 0.743496
0.773068 0.772549 0.736110
0.763302 0.762417 0.728511
0.750454 0.749477 0.718685
0.734432 0.733639 0.706386
