data/fiter_cube/38543845/1023267/file.cube
# Created by Adobe Lightroom plugin Export LUT (1.17.0)
# www.johnrellis.com/lightroom/exportlut.htm
# Preset: 清新通透胶片预设_03 云集
# Color profile: C:\Program Files (x86)\Common Files\Adobe\Color\Profiles\Recommended\AdobeRGB1998.icc
LUT_3D_SIZE 32
DOMAIN_MIN 0.0 0.0 0.0
DOMAIN_MAX 1.0 1.0 1.0
0.144442 0.160189 0.149691
0.162631 0.159091 0.150027
0.177401 0.159304 0.150759
0.205173 0.159304 0.151888
0.271611 0.153567 0.152621
0.366491 0.134676 0.151705
0.461860 0.099306 0.149325
0.547143 0.000000 0.145785
0.618280 0.000000 0.141482
0.675837 0.000000 0.137240
0.722713 0.000000 0.133639
0.759457 0.000000 0.130678
0.789181 0.000000 0.128359
0.814267 0.000000 0.127291
0.836240 0.000000 0.126497
0.855863 0.000000 0.126131
0.873503 0.000000 0.126436
0.890166 0.063111 0.127626
0.905394 0.094881 0.130159
0.919005 0.117800 0.133822
0.931334 0.137392 0.138705
0.942657 0.154788 0.144472
0.953002 0.171176 0.151125
0.962524 0.186709 0.158602
0.971435 0.200565 0.166781
0.979767 0.214054 0.175509
0.987671 0.227481 0.184878
0.995117 0.240787 0.195254
1.000000 0.253910 0.206424
1.000000 0.267521 0.218662
1.000000 0.281621 0.232090
1.000000 0.296788 0.247288
0.147127 0.173587 0.156008
0.156527 0.174746 0.154665
0.173617 0.175631 0.153811
0.203189 0.173678 0.152865
0.268742 0.171786 0.152468
0.361852 0.161471 0.151247
0.457038 0.138125 0.148440
0.542260 0.104494 0.144472
0.613886 0.052186 0.140261
0.672236 0.000000 0.135592
0.719600 0.000000 0.131685
0.756893 0.000000 0.129000
0.786954 0.000000 0.126955
0.812222 0.000000 0.125795
0.834440 0.002319 0.124819
0.854185 0.061341 0.124727
0.871946 0.084291 0.125185
0.888731 0.104829 0.126467
0.903960 0.122713 0.129061
0.917601 0.139406 0.132692
0.929992 0.154543 0.137392
0.941405 0.168704 0.143160
0.951873 0.182437 0.149966
0.961517 0.195529 0.157656
0.970520 0.208408 0.165621
0.978943 0.221134 0.174563
0.986938 0.233158 0.183719
0.994446 0.245823 0.194400
1.000000 0.258366 0.205447
1.000000 0.271244 0.217502
1.000000 0.284855 0.230930
1.000000 0.299351 0.246098
0.152590 0.185306 0.163638
0.155245 0.185733 0.162325
0.167575 0.187533 0.161685
0.196445 0.191257 0.160159
0.259922 0.194583 0.156130
0.356451 0.190463 0.151034
0.450568 0.176547 0.147219
0.536065 0.155673 0.142947
0.608576 0.133089 0.138033
0.667720 0.113130 0.133639
0.715846 0.100496 0.129458
0.753750 0.096132 0.126345
0.784360 0.096376 0.124483
0.809964 0.102663 0.123476
0.832395 0.111818 0.122621
0.852445 0.120027 0.122621
0.870329 0.130831 0.123140
0.887327 0.141634 0.124666
0.902617 0.151919 0.127565
0.916258 0.164034 0.131350
0.928832 0.174807 0.136294
0.940368 0.186160 0.142031
0.950866 0.197513 0.149020
0.960662 0.208286 0.156588
0.969696 0.219730 0.164797
0.978210 0.230564 0.173648
0.986267 0.241978 0.183352
0.993866 0.253391 0.193668
1.000000 0.264866 0.204807
1.000000 0.277134 0.217014
1.000000 0.289830 0.230381
1.000000 0.303777 0.245670
0.160037 0.206027 0.175662
0.162112 0.206027 0.174624
0.165042 0.206363 0.172885
0.187045 0.210239 0.171267
0.243412 0.226108 0.165957
0.329351 0.237156 0.156924
0.431189 0.236728 0.147982
0.524895 0.226658 0.138735
0.598657 0.214603 0.133303
0.659327 0.204379 0.128206
0.708705 0.197360 0.123629
0.747890 0.192142 0.120638
0.779232 0.189639 0.118929
0.805478 0.188479 0.117952
0.828519 0.187839 0.117494
0.848936 0.189334 0.117861
0.867216 0.191623 0.119142
0.884611 0.195621 0.121035
0.899962 0.200504 0.124208
0.913756 0.205966 0.128573
0.926452 0.211948 0.133761
0.938140 0.218601 0.139956
0.948913 0.226383 0.147219
0.958923 0.234165 0.155184
0.968231 0.242710 0.163760
0.976989 0.251225 0.173037
0.985229 0.260105 0.182681
0.992920 0.270115 0.193423
1.000000 0.279881 0.204685
1.000000 0.290379 0.216892
1.000000 0.301610 0.230198
1.000000 0.313878 0.245182
0.162844 0.243320 0.190433
0.164767 0.242741 0.188418
0.167147 0.242100 0.185794
0.178744 0.245121 0.180819
0.225010 0.255772 0.177005
0.312718 0.282719 0.167025
0.399420 0.293462 0.154726
0.489784 0.295781 0.143099
0.575494 0.292821 0.131655
0.644343 0.288182 0.120974
0.697353 0.282353 0.114351
0.738430 0.276616 0.111147
0.771359 0.270939 0.109499
0.798672 0.265934 0.108766
0.822507 0.261662 0.109224
0.843687 0.258579 0.110170
0.862882 0.256077 0.112245
0.880766 0.255650 0.114870
0.896452 0.255619 0.119081
0.910552 0.256321 0.124269
0.923491 0.258305 0.130129
0.935424 0.261173 0.137240
0.946441 0.264897 0.144747
0.956664 0.269230 0.153475
0.966217 0.274388 0.162295
0.975128 0.280064 0.171878
0.983520 0.286534 0.182010
0.991424 0.293339 0.192721
0.998810 0.301152 0.204135
1.000000 0.309606 0.216617
1.000000 0.318761 0.229892
1.000000 0.329259 0.244938
0.153750 0.310002 0.210269
0.156283 0.309026 0.206912
0.159823 0.307195 0.202457
0.166445 0.303838 0.194217
0.205356 0.312810 0.184451
0.284001 0.325994 0.177584
0.388342 0.351049 0.164218
0.470497 0.358953 0.148440
0.539300 0.356725 0.135653
0.615595 0.359136 0.122408
0.676661 0.358129 0.110262
0.724788 0.353704 0.100526
0.761563 0.346685 0.094942
0.790311 0.338720 0.095369
0.815122 0.331670 0.096315
0.837186 0.325200 0.099123
0.857511 0.320165 0.102388
0.875822 0.316075 0.106630
0.891936 0.312413 0.112337
0.906554 0.309819 0.118593
0.919890 0.308415 0.125765
0.932219 0.307591 0.133913
0.947509 0.313329 0.147250
0.957580 0.314824 0.157076
0.966949 0.317021 0.166995
0.975647 0.319860 0.177127
0.983795 0.323491 0.187716
0.991485 0.327764 0.199008
0.998657 0.332891 0.210697
1.000000 0.338842 0.223178
1.000000 0.345861 0.236790
1.000000 0.354131 0.251926
0.135409 0.392859 0.238193
0.139986 0.391180 0.233860
0.145327 0.389227 0.228641
0.156069 0.385107 0.218173
0.169375 0.382116 0.198459
0.252415 0.394629 0.191104
0.354559 0.406378 0.180880
0.465431 0.425940 0.165621
0.539147 0.429694 0.143069
0.597284 0.425544 0.126528
0.651698 0.422889 0.112276
0.705226 0.422217 0.099092
0.746609 0.416724 0.090089
0.779782 0.408484 0.083558
0.807706 0.399023 0.079164
0.830930 0.390448 0.083497
0.852293 0.383185 0.089265
0.871183 0.376074 0.096162
0.887877 0.369787 0.103944
0.903044 0.364477 0.112734
0.917082 0.360418 0.121798
0.930053 0.357488 0.131777
0.941985 0.355749 0.142245
0.953002 0.354711 0.153384
0.963073 0.354650 0.164248
0.972351 0.355047 0.175235
0.980835 0.356420 0.186557
0.988800 0.358373 0.198184
0.996246 0.361059 0.209903
1.000000 0.364843 0.222629
1.000000 0.369482 0.236179
1.000000 0.375616 0.251377
0.123659 0.470649 0.274052
0.129213 0.469184 0.270054
0.136538 0.467262 0.264805
0.150790 0.462837 0.253971
0.169039 0.456550 0.239261
0.213870 0.459205 0.217594
0.313542 0.469947 0.208865
0.422461 0.479225 0.197208
0.530480 0.494179 0.185000
0.593164 0.494514 0.153262
0.642176 0.487953 0.129854
0.681575 0.478462 0.111025
0.724971 0.474434 0.098207
0.761929 0.467933 0.089845
0.792386 0.459052 0.084535
0.819608 0.450233 0.080690
0.843381 0.440864 0.078279
0.863584 0.431434 0.083345
0.880858 0.423194 0.093996
0.896696 0.415686 0.104921
0.911223 0.409461 0.116274
0.924712 0.404089 0.127565
0.937102 0.399878 0.139132
0.948516 0.396521 0.150790
0.958984 0.393896 0.162417
0.968566 0.392187 0.174075
0.977417 0.391028 0.185550
0.985687 0.390661 0.197055
0.993408 0.391241 0.209323
1.000000 0.392737 0.222080
1.000000 0.395544 0.236027
1.000000 0.399542 0.251194
0.133700 0.541833 0.320012
0.139467 0.540490 0.316258
0.147494 0.538903 0.311559
0.161898 0.535088 0.301671
0.181308 0.529534 0.287388
0.202457 0.522240 0.270787
0.277745 0.529778 0.249485
0.381018 0.537377 0.239689
0.487068 0.543328 0.228428
0.585595 0.554192 0.223453
0.638178 0.551812 0.185794
0.679438 0.542687 0.155703
0.712154 0.530510 0.131044
0.741726 0.518822 0.112245
0.775906 0.512383 0.106050
0.804776 0.503960 0.101381
0.830014 0.494423 0.098299
0.852354 0.484474 0.095918
0.872099 0.474006 0.095369
0.889708 0.464240 0.097963
0.904875 0.456336 0.110903
0.918944 0.449042 0.123842
0.931823 0.442908 0.136507
0.943664 0.437659 0.148867
0.954498 0.433143 0.161318
0.964446 0.429267 0.173281
0.973693 0.426215 0.185092
0.982238 0.423926 0.197086
0.990265 0.422583 0.209262
0.997711 0.422187 0.222263
1.000000 0.422858 0.236088
1.000000 0.424933 0.251408
0.167056 0.601312 0.370581
0.171908 0.600336 0.367590
0.177676 0.598932 0.363256
0.189975 0.595880 0.354314
0.207095 0.591302 0.341436
0.226474 0.585199 0.325597
0.249546 0.582544 0.296971
0.348333 0.588006 0.289128
0.447425 0.592340 0.280034
0.542809 0.595422 0.269566
0.630426 0.602899 0.272587
0.674464 0.598016 0.231785
0.709407 0.587701 0.199039
0.737789 0.574548 0.170993
0.761532 0.560357 0.146487
0.788022 0.550042 0.134157
0.815183 0.541588 0.129488
0.839109 0.532128 0.126680
0.860197 0.522118 0.125032
0.879301 0.511833 0.123781
0.896635 0.501793 0.123415
0.912413 0.491890 0.123629
0.925933 0.483803 0.134615
0.938140 0.476905 0.147524
0.949340 0.470741 0.160372
0.959716 0.465339 0.172610
0.969360 0.460609 0.184665
0.978332 0.456764 0.196811
0.986664 0.453895 0.209689
0.994476 0.451820 0.222721
1.000000 0.450965 0.237034
1.000000 0.451331 0.252415
0.212558 0.648585 0.421515
0.216037 0.647852 0.418952
0.220432 0.646693 0.415351
0.229862 0.644404 0.407935
0.243473 0.640650 0.396704
0.259831 0.635920 0.382635
0.278050 0.630030 0.366735
0.324468 0.631250 0.341131
0.416754 0.634150 0.333623
0.506401 0.636133 0.325322
0.589624 0.638148 0.316503
0.667597 0.643946 0.324743
0.704677 0.636744 0.286320
0.734066 0.624872 0.250187
0.758389 0.610864 0.219028
0.779416 0.596277 0.191958
0.798398 0.581720 0.166964
0.823789 0.573480 0.162570
0.846494 0.564141 0.159701
0.866941 0.554467 0.157290
0.885435 0.544640 0.155825
0.902312 0.534691 0.154818
0.917693 0.524926 0.154543
0.931731 0.515282 0.154055
0.943999 0.507073 0.160861
0.954772 0.500298 0.173404
0.964782 0.494362 0.185519
0.974090 0.489204 0.197940
0.982757 0.484840 0.210605
0.990845 0.481331 0.223758
0.998322 0.478950 0.237827
1.000000 0.477882 0.253605
0.262638 0.686671 0.469856
0.265202 0.686091 0.467811
0.268650 0.685206 0.464973
0.275547 0.683345 0.458808
0.285924 0.680507 0.449592
0.298894 0.676692 0.437629
0.313909 0.671962 0.423621
0.329961 0.666316 0.408301
0.395422 0.669734 0.386755
0.478737 0.671626 0.380560
0.556847 0.672786 0.373938
0.628565 0.673548 0.366400
0.701534 0.682307 0.382574
0.732998 0.672480 0.350317
0.758175 0.659785 0.312108
0.779873 0.645624 0.278111
0.799191 0.631037 0.247562
0.816526 0.616480 0.220066
0.835264 0.604303 0.202976
0.856748 0.595239 0.199649
0.876158 0.585718 0.197086
0.893736 0.575982 0.195132
0.909667 0.566125 0.193484
0.924254 0.556298 0.192020
0.937591 0.546593 0.190738
0.949859 0.537041 0.189487
0.960967 0.528222 0.191531
0.970459 0.521874 0.203586
0.979309 0.516350 0.215854
0.987549 0.511620 0.228977
0.995148 0.508049 0.243168
1.000000 0.505486 0.258610
0.316411 0.717922 0.515068
0.318212 0.717494 0.513573
0.320409 0.716670 0.511131
0.325292 0.715084 0.506188
0.332738 0.712673 0.498543
0.342168 0.709529 0.488655
0.354589 0.706111 0.477699
0.368383 0.702144 0.465339
0.387243 0.701289 0.440253
0.461189 0.702266 0.435492
0.532067 0.702876 0.430426
0.598779 0.703212 0.424933
0.661006 0.703334 0.419043
0.721157 0.706172 0.424933
0.749630 0.695705 0.400488
0.772854 0.683833 0.362249
0.793149 0.670344 0.327367
0.811185 0.656184 0.295506
0.827573 0.642054 0.267002
0.842985 0.628412 0.240909
0.862333 0.618921 0.233433
0.881193 0.609949 0.230533
0.898192 0.600702 0.228458
0.913695 0.591241 0.226230
0.927916 0.581781 0.224369
0.940948 0.572412 0.222446
0.953002 0.563073 0.220584
0.964172 0.553918 0.219150
0.974670 0.544976 0.217624
0.983276 0.539361 0.230655
0.991241 0.534661 0.244511
0.998535 0.531090 0.260105
0.365850 0.741146 0.552178
0.367193 0.740780 0.550927
0.368933 0.740230 0.549218
0.372747 0.739101 0.545678
0.378180 0.737270 0.539940
0.385718 0.734859 0.532464
0.394965 0.731899 0.523522
0.405341 0.728481 0.513237
0.417029 0.724544 0.502007
0.450111 0.725246 0.481941
0.512261 0.725338 0.477424
0.572107 0.725246 0.472694
0.629084 0.724880 0.467414
0.683284 0.724239 0.461311
0.737758 0.726589 0.464607
0.763973 0.715999 0.447211
0.785367 0.704494 0.409247
0.804227 0.691585 0.374548
0.821347 0.677974 0.342229
0.837247 0.664607 0.313146
0.852323 0.651606 0.286748
0.867613 0.639918 0.266453
0.885863 0.631495 0.263981
0.902434 0.622736 0.261540
0.917510 0.613825 0.259129
0.931334 0.604761 0.257115
0.944121 0.595666 0.254826
0.955932 0.586725 0.252873
0.966979 0.578027 0.251469
0.977264 0.569543 0.250614
0.986755 0.561517 0.250980
0.994720 0.556298 0.262638
0.411505 0.760098 0.584314
0.412665 0.759792 0.583490
0.413642 0.759304 0.581994
0.416175 0.758297 0.579095
0.420356 0.756680 0.574456
0.425513 0.754604 0.568414
0.432380 0.752071 0.561303
0.440162 0.749111 0.552972
0.449195 0.745846 0.543908
0.458808 0.742947 0.531701
0.500999 0.744045 0.518547
0.553368 0.743801 0.514427
0.604334 0.743374 0.509789
0.653773 0.742702 0.504662
0.701747 0.741726 0.498756
0.752132 0.744167 0.499336
0.776364 0.733577 0.488808
0.796109 0.722499 0.452491
0.813901 0.710140 0.418494
0.830442 0.697414 0.387152
0.845914 0.684779 0.358282
0.860563 0.672358 0.331609
0.874479 0.660365 0.307042
0.890257 0.650843 0.296239
0.906340 0.642542 0.293919
0.921050 0.634089 0.291630
0.934630 0.625544 0.289525
0.947173 0.617029 0.287877
0.958862 0.608637 0.286656
0.969696 0.600549 0.285954
0.979706 0.592737 0.286503
0.988983 0.585382 0.288365
0.450599 0.775998 0.611536
0.451575 0.775723 0.610895
0.452430 0.775387 0.609857
0.454383 0.774533 0.607538
0.457557 0.773190 0.603998
0.461646 0.771450 0.599298
0.466957 0.769345 0.593713
0.473243 0.766873 0.587274
0.480385 0.763973 0.579980
0.488167 0.760830 0.572229
0.499214 0.760281 0.554925
0.543206 0.760067 0.551049
0.587335 0.759548 0.546715
0.631281 0.758846 0.541772
0.674525 0.757900 0.536278
0.717342 0.756649 0.530205
0.763943 0.758846 0.528985
0.787076 0.748836 0.524315
0.805509 0.738430 0.491188
0.822629 0.726986 0.459571
0.838651 0.715114 0.429786
0.853727 0.703182 0.401892
0.868009 0.691341 0.375860
0.881621 0.679835 0.351385
0.894621 0.668696 0.328801
0.910277 0.660914 0.326787
0.924651 0.652888 0.324773
0.937896 0.644892 0.323278
0.950164 0.636927 0.322210
0.961547 0.629053 0.321355
0.972045 0.621424 0.321721
0.981720 0.614252 0.323552
0.483925 0.789578 0.634607
0.484352 0.789364 0.633997
0.485206 0.788998 0.633204
0.486732 0.788266 0.631312
0.489082 0.787137 0.628504
0.492348 0.785611 0.624811
0.496468 0.783749 0.620325
0.501335 0.781582 0.614923
0.506950 0.779080 0.609003
0.513237 0.776242 0.602533
0.520073 0.773129 0.595819
0.539452 0.773831 0.581628
0.577142 0.773526 0.577905
0.615351 0.773037 0.573663
0.653864 0.772244 0.568841
0.692287 0.771176 0.563561
0.731075 0.769802 0.557794
0.773098 0.770871 0.555291
0.796811 0.762509 0.555444
0.814145 0.752895 0.525566
0.830472 0.742184 0.496437
0.845823 0.731014 0.468727
0.860410 0.719661 0.442176
0.874266 0.708431 0.417060
0.887602 0.697383 0.393256
0.900328 0.686671 0.371160
0.913787 0.677516 0.358312
0.927794 0.670069 0.357031
0.940764 0.662593 0.356207
0.952758 0.655146 0.355993
0.963836 0.647913 0.356298
0.974029 0.641016 0.358465
0.513268 0.801846 0.655024
0.513878 0.801663 0.654658
0.520378 0.803799 0.658106
0.521538 0.803128 0.656611
0.523278 0.802121 0.654292
0.525628 0.800717 0.651179
0.528649 0.799008 0.647456
0.532097 0.796994 0.642939
0.536431 0.794705 0.638056
0.541253 0.792142 0.632654
0.546532 0.789273 0.626886
0.551507 0.787228 0.617487
0.576440 0.787716 0.608820
0.608606 0.787320 0.604852
0.641627 0.786618 0.600519
0.675319 0.785733 0.595605
0.709773 0.784573 0.590448
0.744869 0.783139 0.584833
0.782834 0.783169 0.581262
0.806851 0.776150 0.585229
0.822965 0.767147 0.558099
0.838376 0.757015 0.531487
0.852995 0.746334 0.505943
0.866911 0.735531 0.481361
0.880278 0.724666 0.457374
0.893095 0.714046 0.434638
0.905516 0.703639 0.412879
0.917571 0.693599 0.392676
0.930846 0.686152 0.388922
0.943450 0.679194 0.388952
0.955077 0.672328 0.389899
0.965820 0.665736 0.392157
0.540490 0.813474 0.674037
0.541588 0.813596 0.674128
0.542748 0.813626 0.674037
0.544396 0.813321 0.673335
0.546258 0.812650 0.671778
0.548486 0.811551 0.669490
0.550988 0.810117 0.666346
0.553918 0.808347 0.662684
0.557488 0.806332 0.658595
0.561395 0.804074 0.654078
0.565667 0.801572 0.649134
0.570336 0.798764 0.643977
0.576684 0.798520 0.631586
0.603723 0.798245 0.628077
0.632105 0.797787 0.624262
0.661585 0.797116 0.620020
0.692073 0.796231 0.615381
0.723415 0.795102 0.610437
0.755886 0.793729 0.605371
0.790616 0.793088 0.601373
0.814939 0.787350 0.608667
0.830198 0.779110 0.584314
0.844846 0.769680 0.560143
0.858824 0.759701 0.536950
0.872221 0.749447 0.514427
0.885161 0.739193 0.492622
0.897734 0.729061 0.471504
0.909911 0.719234 0.451637
0.921813 0.709773 0.433112
0.933745 0.701350 0.420630
0.945983 0.694972 0.422065
0.957275 0.688808 0.424781
0.562524 0.823362 0.689570
0.563409 0.823484 0.689693
0.564355 0.823514 0.689631
0.565667 0.823270 0.688991
0.567285 0.822690 0.687678
0.569055 0.821714 0.685725
0.571130 0.820432 0.683162
0.573510 0.818936 0.680079
0.576410 0.817166 0.676631
0.579614 0.815183 0.672724
0.583276 0.812955 0.668574
0.587121 0.810483 0.664088
0.591150 0.807736 0.659297
0.602960 0.808469 0.648524
0.627253 0.808164 0.645136
0.652705 0.807675 0.641505
0.679438 0.807004 0.637446
0.707271 0.806119 0.633265
0.736202 0.805020 0.628748
0.766384 0.803677 0.624079
0.798184 0.802487 0.619806
0.822660 0.797848 0.629694
0.837064 0.790311 0.607752
0.850919 0.781582 0.586023
0.864286 0.772183 0.564843
0.877195 0.762539 0.544335
0.889738 0.752804 0.524498
0.901946 0.743313 0.505669
0.913878 0.734066 0.488075
0.925505 0.725124 0.471656
0.936828 0.716640 0.456886
0.948363 0.710262 0.455299
0.581933 0.832670 0.703609
0.582696 0.832731 0.703639
0.583459 0.832761 0.703609
0.584558 0.832547 0.703059
0.585840 0.831998 0.701930
0.587366 0.831174 0.700282
0.589014 0.830106 0.698085
0.591058 0.828763 0.695460
0.593378 0.827207 0.692439
0.596063 0.825437 0.689082
0.599054 0.823453 0.685420
0.602319 0.821225 0.681483
0.605676 0.818814 0.677241
0.608576 0.817380 0.669551
0.625513 0.817746 0.663355
0.647608 0.817472 0.660243
0.671077 0.817014 0.656947
0.695735 0.816434 0.653437
0.721553 0.815702 0.649805
0.748592 0.814725 0.645991
0.776822 0.813565 0.642084
0.806210 0.812100 0.637934
0.830472 0.808530 0.646967
0.844144 0.801419 0.630365
0.857328 0.793393 0.611048
0.870115 0.784756 0.592065
0.882506 0.775784 0.573907
0.894621 0.766781 0.556634
0.906523 0.757870 0.540246
0.918120 0.749264 0.525170
0.929381 0.741054 0.511772
0.940246 0.733639 0.500938
0.600946 0.842130 0.717433
0.601343 0.842100 0.717342
0.601709 0.842039 0.717098
0.602411 0.841703 0.716487
0.603326 0.841184 0.715419
0.604486 0.840391 0.713893
0.605890 0.839445 0.712032
0.607599 0.838254 0.709773
0.609644 0.836942 0.707179
0.611963 0.835386 0.704311
0.614618 0.833677 0.701228
0.617426 0.831754 0.697780
0.620356 0.829618 0.694087
0.623346 0.827237 0.690181
0.627222 0.827237 0.680323
0.646265 0.826993 0.677607
0.666529 0.826658 0.674678
0.688136 0.826169 0.671534
0.710872 0.825559 0.668269
0.734859 0.824735 0.664790
0.760037 0.823728 0.661250
0.786374 0.822477 0.657496
0.813779 0.820981 0.653559
0.837278 0.817899 0.660731
0.850340 0.810971 0.648615
0.862791 0.803708 0.631586
0.875029 0.795743 0.614710
0.887053 0.787564 0.598596
0.898833 0.779263 0.583551
0.910369 0.771145 0.569665
0.921599 0.763516 0.557671
0.932403 0.756771 0.548394
0.616144 0.850187 0.728786
0.616480 0.850156 0.728695
0.616876 0.850095 0.728542
0.617456 0.849821 0.727962
0.618250 0.849332 0.727047
0.619165 0.848661 0.725704
0.620325 0.847807 0.724025
0.621729 0.846769 0.722042
0.623468 0.845548 0.719753
0.625452 0.844175 0.717220
0.627680 0.842649 0.714412
0.630091 0.840940 0.711421
0.632624 0.839017 0.708095
0.635309 0.836881 0.704646
0.638025 0.834623 0.700984
0.646143 0.835416 0.692134
0.663844 0.835172 0.689570
0.682795 0.834836 0.686854
0.702968 0.834348 0.684016
0.724300 0.833738 0.681025
0.746853 0.832944 0.677943
0.770535 0.831968 0.674708
0.795315 0.830777 0.671351
0.821103 0.829343 0.667811
0.843534 0.826352 0.672694
0.856107 0.819699 0.664393
0.868009 0.813107 0.649378
0.879820 0.806027 0.634791
0.891417 0.798672 0.621088
0.902861 0.791379 0.608576
0.914031 0.784543 0.597955
0.924712 0.778683 0.590295
0.631098 0.858274 0.740078
0.631495 0.858274 0.740047
0.631769 0.858213 0.739834
0.632197 0.857939 0.739345
0.632776 0.857481 0.738460
0.633509 0.856840 0.737209
0.634424 0.856016 0.735683
0.635523 0.855070 0.733822
0.636866 0.853910 0.731716
0.638453 0.852628 0.729366
0.640223 0.851194 0.726772
0.642145 0.849607 0.723964
0.644312 0.847868 0.720912
0.646479 0.845945 0.717708
0.648829 0.843839 0.714290
0.650568 0.842741 0.707698
0.662806 0.842954 0.702663
0.679377 0.842618 0.700160
0.697169 0.842222 0.697536
0.716182 0.841764 0.694911
0.736385 0.841154 0.692226
0.757687 0.840391 0.689357
0.780056 0.839414 0.686366
0.803403 0.838193 0.683162
0.827634 0.836759 0.679866
0.849851 0.834684 0.684230
0.862028 0.828214 0.679316
0.873442 0.822416 0.666194
0.884794 0.816190 0.653834
0.895995 0.809934 0.642756
0.906950 0.804105 0.633783
0.917540 0.799222 0.627588
0.643275 0.865263 0.749416
0.643610 0.865232 0.749416
0.643854 0.865171 0.749264
0.644221 0.864958 0.748806
0.644739 0.864530 0.748013
0.645350 0.863981 0.746944
0.646174 0.863249 0.745602
0.647181 0.862425 0.743984
0.648402 0.861418 0.742123
0.649836 0.860319 0.740078
0.651453 0.859037 0.737758
0.653223 0.857664 0.735286
0.655207 0.856107 0.732631
0.657221 0.854429 0.729763
0.659327 0.852567 0.726711
0.661524 0.850584 0.723568
0.664027 0.850675 0.715206
0.678584 0.850431 0.712978
0.694331 0.850126 0.710689
0.711208 0.849760 0.708339
0.729183 0.849271 0.705898
0.748287 0.848661 0.703395
0.768460 0.847868 0.700740
0.789578 0.846891 0.697963
0.811643 0.845731 0.695094
0.834592 0.844388 0.692103
0.856291 0.842802 0.695613
0.868070 0.836698 0.693660
0.879118 0.831785 0.682765
0.890074 0.826719 0.673030
0.900877 0.821958 0.665217
0.911406 0.818112 0.660395
0.654963 0.871977 0.758541
0.655116 0.871977 0.758480
0.655329 0.871885 0.758328
0.655665 0.871641 0.757870
0.656001 0.871275 0.757137
0.656550 0.870756 0.756161
0.657252 0.870115 0.754910
0.658106 0.869322 0.753445
0.659205 0.868437 0.751797
0.660487 0.867430 0.749935
0.661891 0.866300 0.747890
0.663569 0.865080 0.745693
0.665309 0.863706 0.743313
0.667262 0.862211 0.740780
0.669184 0.860563 0.738064
0.671199 0.858762 0.735195
0.673335 0.856870 0.732265
0.679133 0.857603 0.724575
0.692988 0.857389 0.722438
0.707942 0.857115 0.720333
0.724025 0.856718 0.718105
0.741176 0.856260 0.715877
0.759335 0.855650 0.713558
0.778500 0.854887 0.711116
0.798550 0.854002 0.708614
0.819547 0.852934 0.706081
0.841428 0.851743 0.703548
0.862699 0.850736 0.706416
0.874022 0.844907 0.707240
0.884825 0.841062 0.698573
0.895476 0.837400 0.691737
0.905943 0.834592 0.687709
0.665583 0.878202 0.766964
0.665736 0.878172 0.766873
0.665919 0.878080 0.766690
0.666163 0.877867 0.766323
0.666560 0.877592 0.765682
0.667140 0.877165 0.764889
0.667964 0.876646 0.763912
0.668971 0.876066 0.762783
0.670192 0.875364 0.761471
0.671595 0.874601 0.760006
0.673152 0.873686 0.758389
0.674861 0.872679 0.756588
0.676661 0.871550 0.754604
0.678553 0.870268 0.752438
0.680476 0.868833 0.750118
0.682368 0.867277 0.747616
0.684352 0.865599 0.744991
0.685817 0.864897 0.739620
0.695155 0.865171 0.735378
0.708370 0.864958 0.733425
0.722591 0.864714 0.731502
0.737881 0.864378 0.729519
0.754147 0.863920 0.727443
0.771420 0.863371 0.725338
0.789609 0.862699 0.723262
0.808774 0.861936 0.721126
0.828794 0.861082 0.719051
0.849607 0.860136 0.717098
0.870268 0.859709 0.719692
0.881102 0.854307 0.723171
0.891630 0.851835 0.717189
0.902007 0.850065 0.713954
0.677180 0.884672 0.776059
0.677333 0.884642 0.775967
0.677455 0.884550 0.775814
0.677638 0.884367 0.775448
0.677974 0.884062 0.774868
0.678431 0.883696 0.774075
0.679072 0.883207 0.773159
0.679866 0.882597 0.772030
0.680842 0.881956 0.770779
0.682002 0.881193 0.769406
0.683314 0.880308 0.767819
0.684718 0.879362 0.766110
0.686305 0.878325 0.764248
0.687922 0.877134 0.762264
