data/fiter_cube/38543845/1023267/file.cube
# Created by Adobe Lightroom plugin Export LUT (1.17.0)
# www.johnrellis.com/lightroom/exportlut.htm
# Preset: 清新通透胶片预设_03 云集
# Color profile: C:\Program Files (x86)\Common Files\Adobe\Color\Profiles\Recommended\AdobeRGB1998.icc
LUT_3D_SIZE 8
DOMAIN_MIN 0.000000 0.000000 0.000000
DOMAIN_MAX 0.903226 0.903226 0.903226
0.144442 0.160189 0.149691
0.271611 0.153567 0.152621
0.618280 0.000000 0.141482
0.789181 0.000000 0.128359
0.873503 0.000000 0.126436
0.931334 0.137392 0.138705
0.971435 0.200565 0.166781
1.000000 0.253910 0.206424
0.162844 0.243320 0.190433
0.225010 0.255772 0.177005
0.575494 0.292821 0.131655
0.771359 0.270939 0.109499
0.862882 0.256077 0.112245
0.923491 0.258305 0.130129
0.966217 0.274388 0.162295
0.998810 0.301152 0.204135
0.133700 0.541833 0.320012
0.181308 0.529534 0.287388
0.487068 0.543328 0.228428
0.712154 0.530510 0.131044
0.830014 0.494423 0.098299
0.904875 0.456336 0.110903
0.954498 0.433143 0.161318
0.990265 0.422583 0.209262
0.316411 0.717922 0.515068
0.332738 0.712673 0.498543
0.387243 0.701289 0.440253
0.661006 0.703334 0.419043
0.793149 0.670344 0.327367
0.862333 0.618921 0.233433
0.927916 0.581781 0.224369
0.974670 0.544976 0.217624
0.483925 0.789578 0.634607
0.489082 0.787137 0.628504
0.506950 0.779080 0.609003
0.577142 0.773526 0.577905
0.731075 0.769802 0.557794
0.830472 0.742184 0.496437
0.887602 0.697383 0.393256
0.940764 0.662593 0.356207
0.581933 0.832670 0.703609
0.585840 0.831998 0.701930
0.593378 0.827207 0.692439
0.605676 0.818814 0.677241
0.671077 0.817014 0.656947
0.776822 0.813565 0.642084
0.857328 0.793393 0.611048
0.906523 0.757870 0.540246
0.643275 0.865263 0.749416
0.644739 0.864530 0.748013
0.648402 0.861418 0.742123
0.655207 0.856107 0.732631
0.664027 0.850675 0.715206
0.729183 0.849271 0.705898
0.811643 0.845731 0.695094
0.879118 0.831785 0.682765
0.686915 0.890318 0.783841
0.687678 0.889769 0.782773
0.690486 0.887938 0.779263
0.695796 0.884794 0.773617
0.701045 0.879423 0.764584
0.721462 0.877714 0.752773
0.777371 0.877409 0.747585
0.847745 0.876402 0.743496
0.158968 0.178927 0.228916
0.247013 0.185092 0.249638
0.616114 0.000000 0.270970
0.783505 0.000000 0.216220
0.867765 0.000000 0.213626
0.924254 0.152163 0.222843
0.965423 0.224552 0.241062
0.997375 0.276524 0.267918
0.153262 0.252781 0.235447
0.261448 0.286900 0.258885
0.589380 0.250767 0.226688
0.768856 0.231785 0.210636
0.858854 0.243534 0.209354
0.917815 0.265660 0.219608
0.960784 0.290196 0.238254
0.994141 0.318029 0.265507
0.200076 0.555962 0.393530
0.301396 0.550347 0.399023
0.505425 0.554742 0.347478
0.706569 0.527825 0.240482
0.827298 0.492378 0.211765
0.899046 0.458534 0.215824
0.948394 0.438911 0.239353
0.985473 0.430884 0.269963
0.393225 0.717067 0.563775
0.410895 0.712276 0.553094
0.442908 0.698695 0.513268
0.659113 0.701442 0.480049
0.783413 0.667201 0.383551
0.856504 0.617823 0.295628
0.922911 0.581842 0.280186
0.970184 0.548272 0.275944
0.522026 0.787778 0.658015
0.525231 0.785336 0.652094
0.537560 0.777371 0.633509
0.588373 0.770932 0.603449
0.729458 0.768093 0.584527
0.825284 0.741604 0.524010
0.882963 0.697017 0.423621
0.937743 0.663447 0.389410
0.598993 0.831113 0.714626
0.600946 0.829831 0.712001
0.607141 0.825254 0.702663
0.617792 0.817350 0.688045
0.675685 0.815763 0.669490
0.777096 0.813260 0.656397
0.854948 0.793729 0.625055
0.903929 0.758114 0.554894
0.651362 0.863951 0.755093
0.652033 0.862974 0.753262
0.655512 0.860075 0.747524
0.662074 0.855100 0.738399
0.669337 0.849577 0.722042
0.731167 0.848508 0.712428
0.811398 0.845090 0.701625
0.877592 0.831357 0.688075
0.692042 0.889647 0.787716
0.692897 0.889189 0.786740
0.695552 0.887419 0.783291
0.700618 0.884367 0.777646
0.707149 0.879789 0.769955
0.725032 0.877684 0.757809
0.778866 0.877226 0.752041
0.847807 0.876219 0.747616
0.126772 0.189731 0.490944
0.277134 0.205325 0.540093
0.570123 0.287602 0.576379
0.759030 0.281895 0.562554
0.850340 0.280461 0.510002
0.905333 0.317479 0.473884
0.950164 0.332769 0.445380
0.983215 0.368292 0.445899
0.056947 0.239048 0.449287
0.272313 0.306737 0.511345
0.561700 0.406897 0.567681
0.755489 0.349981 0.546288
0.841611 0.345861 0.497688
0.902983 0.340948 0.449439
0.946197 0.372412 0.442695
0.980621 0.395148 0.443915
0.129183 0.551507 0.521569
0.308232 0.568963 0.537346
0.540276 0.578943 0.550134
0.720241 0.539574 0.492317
0.819303 0.510735 0.465003
0.885161 0.492378 0.449256
0.934203 0.480934 0.442634
0.972168 0.475624 0.443946
0.408545 0.727993 0.624109
0.474311 0.723110 0.632410
0.561608 0.709255 0.634272
0.668513 0.708248 0.609094
0.770108 0.669215 0.520592
0.850736 0.629664 0.470527
0.914885 0.595422 0.444953
0.958251 0.572015 0.446082
0.550042 0.790585 0.691737
0.578729 0.787411 0.698024
0.612207 0.779110 0.695827
0.626856 0.770779 0.671046
0.734920 0.771359 0.658656
0.816251 0.745174 0.601617
0.872679 0.699550 0.512413
0.930663 0.671199 0.494514
0.628504 0.831876 0.739834
0.642786 0.830137 0.743709
0.650996 0.825376 0.737179
0.656275 0.817807 0.722744
0.691951 0.814939 0.706020
0.779660 0.813809 0.695766
0.849546 0.795621 0.664210
0.897734 0.760922 0.601923
0.679591 0.863859 0.776547
0.681544 0.862913 0.775509
0.683772 0.859922 0.769741
0.687556 0.855039 0.760128
0.692622 0.847898 0.747738
0.740200 0.848173 0.735256
0.814023 0.846006 0.726375
0.875914 0.833616 0.711269
0.712123 0.889128 0.802976
0.711910 0.888670 0.801541
0.713710 0.886900 0.797848
0.717983 0.884123 0.792325
0.722927 0.879728 0.784268
0.734859 0.877134 0.772549
0.784756 0.877409 0.767575
0.850126 0.877287 0.764218
0.167819 0.213748 0.677516
0.313542 0.252506 0.697749
0.591974 0.477516 0.741268
0.719234 0.512718 0.731075
0.807340 0.542077 0.709407
0.882872 0.485451 0.668696
0.922362 0.502495 0.648249
0.953979 0.526177 0.643946
0.169772 0.292149 0.656367
0.314122 0.336370 0.679103
0.589105 0.527764 0.730251
0.713924 0.559716 0.727352
0.805295 0.562493 0.707729
0.877958 0.513054 0.667964
0.918303 0.522820 0.648890
0.952575 0.533837 0.640528
0.000000 0.425574 0.612665
0.174716 0.430762 0.616266
0.536065 0.573266 0.684596
0.699031 0.646448 0.715999
0.800198 0.608789 0.694697
0.861784 0.582605 0.663447
0.910857 0.564569 0.638178
0.951751 0.546990 0.615656
0.337072 0.710872 0.687129
0.416510 0.714504 0.692470
0.582788 0.718593 0.703029
0.680720 0.713802 0.702724
0.768917 0.681453 0.662135
0.839902 0.654963 0.640955
0.895537 0.631830 0.623804
0.939879 0.612665 0.610773
0.558312 0.798215 0.730312
0.583948 0.795071 0.732967
0.645319 0.786526 0.740383
0.682277 0.774838 0.735988
0.742763 0.774624 0.722957
0.804929 0.745876 0.671901
0.866056 0.711757 0.629908
0.921996 0.684413 0.610163
0.632441 0.836088 0.760220
0.646754 0.834958 0.763485
0.683009 0.829526 0.770687
0.703273 0.821714 0.766232
0.713924 0.815427 0.748867
0.785306 0.815824 0.740810
0.843717 0.796994 0.706905
0.890013 0.761868 0.652705
0.680171 0.865751 0.787930
0.688594 0.864744 0.790127
0.713558 0.861418 0.796780
0.723018 0.856748 0.791562
0.725002 0.849943 0.778775
0.753597 0.848356 0.766415
0.817990 0.847257 0.758663
0.873472 0.835447 0.739376
0.718349 0.890105 0.813718
0.723934 0.889433 0.815366
0.741176 0.887266 0.820493
0.743282 0.884672 0.814389
0.746304 0.880491 0.805905
0.750515 0.876280 0.795132
0.793210 0.877836 0.789883
0.853696 0.878996 0.787930
0.296483 0.287968 0.767117
0.380713 0.327977 0.774380
0.569482 0.485817 0.794553
0.727108 0.663142 0.819211
0.790372 0.639582 0.801968
0.839628 0.665583 0.784085
0.897581 0.625605 0.760067
0.940826 0.596338 0.734066
0.300267 0.347539 0.754574
0.383246 0.384985 0.763058
0.569970 0.523339 0.786404
0.730037 0.684291 0.817441
0.787564 0.657832 0.800137
0.838834 0.672847 0.783810
0.896452 0.633539 0.759701
0.938445 0.608026 0.735470
0.000000 0.370275 0.700923
0.238743 0.411933 0.717647
0.538537 0.569421 0.756039
0.721798 0.710445 0.803006
0.778897 0.699916 0.793790
0.835935 0.690913 0.780026
0.892760 0.654475 0.755764
0.931121 0.638148 0.736934
0.204074 0.600732 0.714382
0.279362 0.602960 0.714534
0.441718 0.611353 0.715663
0.673030 0.706477 0.760647
0.765011 0.739559 0.781918
0.832242 0.709926 0.765896
0.880888 0.685664 0.745052
0.922118 0.667689 0.729366
0.486275 0.776150 0.759701
0.522087 0.777371 0.762142
0.611994 0.778836 0.767239
0.701717 0.784329 0.776913
0.748653 0.775265 0.769711
0.806577 0.746120 0.736233
0.864561 0.723049 0.720333
0.912352 0.702205 0.706996
0.633600 0.840330 0.787442
0.646052 0.838865 0.788724
0.681239 0.833860 0.792142
0.723903 0.826230 0.796475
0.743038 0.816007 0.788876
0.789609 0.816251 0.779538
0.836759 0.792020 0.739528
0.887541 0.762783 0.707240
0.680201 0.868254 0.804562
0.688014 0.867216 0.805936
0.712093 0.864012 0.810422
0.744472 0.859098 0.816648
0.757656 0.852903 0.811246
0.765957 0.847654 0.796658
0.821897 0.848142 0.790585
0.870726 0.834928 0.765286
0.716213 0.891386 0.823575
0.721614 0.890745 0.824826
0.738613 0.888701 0.828946
0.764187 0.886015 0.835660
0.772549 0.882506 0.831174
0.774990 0.877470 0.821164
0.801968 0.878325 0.814023
0.857694 0.880858 0.813260
0.406104 0.386023 0.826230
0.452918 0.417456 0.828946
0.573785 0.523095 0.837339
0.706172 0.659174 0.851957
0.791409 0.723445 0.860868
0.835325 0.703883 0.845670
0.870787 0.718166 0.830808
0.912078 0.701381 0.816800
0.406836 0.422004 0.817227
0.452888 0.450233 0.820493
0.574121 0.545861 0.831083
0.705898 0.669551 0.848081
0.791897 0.733272 0.859464
0.833585 0.712581 0.844480
0.869291 0.724392 0.830747
0.911528 0.704677 0.816495
0.341436 0.460945 0.789731
0.415869 0.499519 0.794766
0.557763 0.583978 0.810941
0.699916 0.691463 0.835752
0.794522 0.761868 0.856565
0.829068 0.738674 0.841672
0.864958 0.744015 0.830900
0.910094 0.715633 0.815457
0.017487 0.494240 0.748806
0.154543 0.491341 0.746944
0.392737 0.540459 0.760342
0.661830 0.694179 0.805722
0.793271 0.789914 0.850004
0.821958 0.769589 0.836820
0.862699 0.760159 0.828244
0.908598 0.729732 0.810971
0.369085 0.698116 0.774563
0.402441 0.698573 0.774166
0.492287 0.700771 0.772915
0.593103 0.705440 0.771389
0.740200 0.767636 0.809476
0.808621 0.792050 0.825711
0.859892 0.767483 0.814145
0.902220 0.744564 0.797635
0.568261 0.818235 0.806516
0.586358 0.818967 0.807828
0.636011 0.821317 0.811704
0.699458 0.822263 0.815274
0.761990 0.825956 0.822690
0.793912 0.816495 0.814908
0.839994 0.789334 0.785367
0.890440 0.769314 0.772824
0.681483 0.872374 0.828122
0.689296 0.871611 0.829038
0.712642 0.868742 0.831449
0.744320 0.864317 0.834684
0.776150 0.858305 0.837369
0.790158 0.849790 0.830503
0.826871 0.849760 0.822660
0.867796 0.831205 0.790646
0.715328 0.893980 0.838590
0.720516 0.893400 0.839475
0.737270 0.891569 0.842466
0.762173 0.889006 0.847196
0.790005 0.885710 0.852659
0.803006 0.881682 0.849516
0.812802 0.879515 0.840177
0.863584 0.884215 0.841245
0.492531 0.488197 0.870848
0.519432 0.509026 0.871611
0.596857 0.573999 0.873991
0.694484 0.662104 0.879240
0.784512 0.741604 0.888182
0.833219 0.762081 0.888090
0.866300 0.745357 0.875700
0.893980 0.755001 0.863920
0.492256 0.507103 0.865507
0.519188 0.526177 0.866545
0.596704 0.586450 0.869871
0.694209 0.669245 0.876310
0.784207 0.745998 0.886473
0.833158 0.767727 0.887236
0.865080 0.750179 0.874907
0.892943 0.758267 0.863584
0.470710 0.540185 0.849699
0.500999 0.557092 0.851377
0.586816 0.611688 0.857084
0.689784 0.686549 0.867308
0.782589 0.758511 0.881315
0.834470 0.786954 0.885801
0.862608 0.767880 0.873747
0.890715 0.772122 0.864317
0.231357 0.485176 0.816831
0.304967 0.505028 0.819791
0.503807 0.596246 0.829648
0.660273 0.690852 0.847501
0.770199 0.766262 0.869841
0.835660 0.811551 0.883726
0.858610 0.791043 0.871672
0.887205 0.790860 0.864561
0.251896 0.622766 0.805417
0.281254 0.620752 0.803861
0.360693 0.612909 0.798672
0.486580 0.617731 0.796872
0.721889 0.750027 0.841794
0.834043 0.833127 0.879942
0.852140 0.812100 0.867369
0.884703 0.805539 0.862425
0.464759 0.758419 0.820920
0.481788 0.758297 0.820401
0.532586 0.757870 0.818662
0.596063 0.756649 0.815793
0.657160 0.752895 0.811521
0.782925 0.806424 0.844297
0.842496 0.830228 0.859831
0.884916 0.812406 0.853330
0.610834 0.850309 0.841154
0.620996 0.850584 0.841703
0.652277 0.851438 0.843534
0.697444 0.853300 0.846891
0.750057 0.853635 0.849882
0.802579 0.856901 0.856321
0.830747 0.850156 0.851408
0.873350 0.828855 0.829740
0.713649 0.897490 0.858183
0.718837 0.897032 0.858793
0.735988 0.895689 0.860990
0.761257 0.893553 0.864256
0.790341 0.890959 0.868193
0.819394 0.888090 0.872465
0.835813 0.884031 0.870512
0.871397 0.889189 0.870481
0.568719 0.583001 0.906371
0.584314 0.594202 0.906218
0.632441 0.629877 0.905638
0.699702 0.681483 0.905882
0.770687 0.736599 0.907774
0.834348 0.793423 0.911650
0.863249 0.790555 0.908293
0.890227 0.776791 0.898772
0.568170 0.591608 0.903624
0.583795 0.602228 0.903593
0.632197 0.636530 0.903410
0.699428 0.686061 0.904112
0.770596 0.740047 0.906615
0.834379 0.796078 0.911040
0.863249 0.794339 0.907958
0.889647 0.780117 0.898497
0.555993 0.608301 0.895140
0.572930 0.618250 0.895323
0.624475 0.650202 0.896056
0.695216 0.697383 0.898466
0.768765 0.749386 0.902770
0.833982 0.803830 0.908965
0.863798 0.807126 0.907256
0.888243 0.791867 0.898039
0.443397 0.571496 0.881682
0.486183 0.594354 0.881437
0.585687 0.651392 0.882139
0.672633 0.701228 0.887205
0.757412 0.755734 0.894957
0.829862 0.811551 0.904753
0.864652 0.825620 0.906493
0.886320 0.809232 0.897581
0.141085 0.553887 0.855100
0.173190 0.548852 0.853971
0.339422 0.568566 0.856229
0.557824 0.652247 0.865690
0.717708 0.745052 0.878843
0.814237 0.810941 0.895720
0.865324 0.845640 0.905791
0.884092 0.829129 0.897063
0.362493 0.705135 0.854795
0.376318 0.703670 0.853910
0.418006 0.698146 0.850797
0.473671 0.685847 0.844907
0.540642 0.666621 0.836393
0.765591 0.789700 0.873381
0.865965 0.865537 0.905058
0.881895 0.850034 0.896696
0.524224 0.804654 0.861082
0.533471 0.804379 0.860716
0.562402 0.803311 0.859556
0.605127 0.801358 0.857542
0.652827 0.797665 0.854398
0.701320 0.790463 0.849516
0.820615 0.840726 0.877256
0.879149 0.870054 0.895689
0.640711 0.881315 0.873777
0.647150 0.881254 0.873960
0.669154 0.881285 0.874754
0.705226 0.882170 0.876921
0.749722 0.884154 0.880613
0.797787 0.887205 0.885863
0.847471 0.892699 0.894163
0.880674 0.895659 0.899565
