data/fiter_cube/38543845/1023267/file.cube
# Created by Adobe Lightroom plugin Export LUT (1.17.0)
# www.johnrellis.com/lightroom/exportlut.htm
# Preset: 清新通透胶片预设_03 云集
# Color profile: C:\Program Files (x86)\Common Files\Adobe\Color\Profiles\Recommended\AdobeRGB1998.icc
LUT_3D_SIZE 5
DOMAIN_MIN 0.000000 0.000000 0.000000
DOMAIN_MAX 0.903226 0.903226 0.903226
0.144442 0.160189 0.149691
0.547143 0.000000 0.145785
0.836240 0.000000 0.126497
0.942657 0.154788 0.144472
1.000000 0.253910 0.206424
0.123659 0.470649 0.274052
0.422461 0.479225 0.197208
0.792386 0.459052 0.084535
0.924712 0.404089 0.127565
0.993408 0.391241 0.209323
0.411505 0.760098 0.584314
0.440162 0.749111 0.552972
0.701747 0.741726 0.498756
0.860563 0.672358 0.331609
0.958862 0.608637 0.286656
0.600946 0.842130 0.717433
0.607599 0.838254 0.709773
0.627222 0.827237 0.680323
0.786374 0.822477 0.657496
0.898833 0.779263 0.583551
0.686915 0.890318 0.783841
0.689479 0.888518 0.780331
0.697200 0.881895 0.768490
0.734066 0.877684 0.751492
0.847745 0.876402 0.743496
0.140993 0.187900 0.422339
0.502739 0.230472 0.504875
0.818143 0.185245 0.456733
0.924956 0.252628 0.386389
0.987793 0.337896 0.394018
0.098390 0.484688 0.455024
0.483467 0.521141 0.486915
0.788815 0.459754 0.405127
0.908598 0.436774 0.385382
0.979339 0.435950 0.395239
0.487251 0.761410 0.649104
0.560021 0.749325 0.652369
0.702846 0.741878 0.610071
0.845426 0.672541 0.456214
0.950469 0.617639 0.421454
0.644190 0.841245 0.748074
0.650080 0.837400 0.741573
0.660395 0.824735 0.718379
0.788754 0.822934 0.695033
0.893034 0.781857 0.624628
0.706600 0.889647 0.798764
0.708522 0.887907 0.795224
0.715572 0.882231 0.784298
0.743557 0.877562 0.767147
0.849973 0.877440 0.760281
0.234531 0.246281 0.730007
0.521355 0.415106 0.762387
0.759243 0.587335 0.771298
0.875944 0.578149 0.729244
0.947143 0.562005 0.691829
0.000000 0.339513 0.661677
0.489021 0.517998 0.724147
0.747829 0.661952 0.763516
0.870268 0.614801 0.724453
0.939300 0.600732 0.695491
0.421149 0.748531 0.728725
0.564630 0.751186 0.736477
0.718746 0.748348 0.740597
0.837034 0.700954 0.692073
0.925048 0.663050 0.666377
0.646845 0.846128 0.778683
0.680842 0.841367 0.784329
0.729000 0.828977 0.784695
0.796445 0.824826 0.764431
0.881804 0.781155 0.694270
0.716945 0.890501 0.817899
0.734676 0.888518 0.822782
0.757656 0.883452 0.822538
0.764492 0.876493 0.803861
0.855253 0.879545 0.799771
0.427893 0.409949 0.837797
0.546746 0.505089 0.844511
0.755276 0.709133 0.866423
0.843839 0.715236 0.853941
0.904845 0.722347 0.831693
0.408453 0.480171 0.813901
0.537896 0.558282 0.825376
0.753262 0.728573 0.858305
0.839506 0.739437 0.851225
0.903502 0.731594 0.830930
0.203281 0.587030 0.768063
0.332860 0.583001 0.763485
0.697444 0.727871 0.814389
0.826291 0.785885 0.841855
0.901457 0.752010 0.823026
0.582452 0.827329 0.816434
0.627893 0.828824 0.819272
0.728786 0.831266 0.825956
0.803220 0.824979 0.824216
0.885283 0.783993 0.786831
0.714992 0.894743 0.843015
0.731960 0.893065 0.845823
0.776089 0.888640 0.853635
0.811246 0.882078 0.854704
0.865202 0.885130 0.848264
0.568719 0.583001 0.906371
0.617853 0.618860 0.905760
0.735286 0.708705 0.906615
0.845182 0.801602 0.912139
0.890227 0.776791 0.898772
0.561852 0.605005 0.897948
0.613367 0.637598 0.898314
0.733608 0.720241 0.901976
0.847837 0.814908 0.911376
0.888762 0.788418 0.898222
0.299901 0.537682 0.869444
0.440955 0.583185 0.872465
0.695033 0.723384 0.882719
0.840238 0.826291 0.904387
0.885191 0.818906 0.897276
0.408148 0.733394 0.855985
0.447333 0.729885 0.853452
0.539513 0.713802 0.843839
0.778439 0.801663 0.873075
0.881224 0.855009 0.896452
0.640711 0.881315 0.873777
0.662104 0.881193 0.874388
0.726802 0.882994 0.878538
0.810117 0.888060 0.887388
0.880674 0.895659 0.899565
