data/fiter_cube/23985691/1023001/file.cube
# Created by Adobe Lightroom plugin Export LUT (1.17.0)
# www.johnrellis.com/lightroom/exportlut.htm
# Preset: 日系风光建筑_02 云集
# Color profile: C:\Program Files (x86)\Common Files\Adobe\Color\Profiles\Recommended\AdobeRGB1998.icc
LUT_3D_SIZE 32
DOMAIN_MIN 0.0 0.0 0.0
DOMAIN_MAX 1.0 1.0 1.0
0.025574 0.052644 0.058198
0.025574 0.052644 0.058198
0.025574 0.052644 0.058198
0.049653 0.051270 0.059052
0.066224 0.050843 0.060060
0.081361 0.053834 0.060304
0.102937 0.054505 0.060243
0.132815 0.051179 0.059541
0.172854 0.036652 0.056336
0.222904 0.005127 0.050782
0.282719 0.000000 0.038697
0.350195 0.000000 0.016388
0.421149 0.000000 0.000000
0.491218 0.000000 0.000000
0.555627 0.000000 0.000000
0.613336 0.000000 0.000000
0.664881 0.000000 0.000000
0.717281 0.000000 0.000000
0.761654 0.000000 0.000000
0.799283 0.000000 0.000000
0.831937 0.000000 0.000000
0.861692 0.103853 0.000000
0.889647 0.150759 0.000000
0.916014 0.189395 0.000000
0.941070 0.223545 0.000000
0.964996 0.255375 0.000000
0.988128 0.286198 0.000000
1.000000 0.316075 0.000000
1.000000 0.345403 0.000000
1.000000 0.374762 0.000000
1.000000 0.404852 0.000000
1.000000 0.436011 0.000000
0.025574 0.052644 0.058198
0.025574 0.052644 0.058198
0.025574 0.052644 0.058198
0.049653 0.051270 0.059052
0.066590 0.053376 0.059510
0.081666 0.056367 0.059754
0.103151 0.057954 0.059632
0.132753 0.054780 0.058961
0.172457 0.043122 0.056001
0.222354 0.014435 0.049500
0.281590 0.000000 0.036988
0.348577 0.000000 0.014832
0.419135 0.000000 0.000000
0.488838 0.000000 0.000000
0.552880 0.000000 0.000000
0.610559 0.000000 0.000000
0.662104 0.000000 0.000000
0.714046 0.000000 0.000000
0.757992 0.000000 0.000000
0.795590 0.000000 0.000000
0.828458 0.000000 0.000000
0.858183 0.104585 0.000000
0.886290 0.150423 0.000000
0.912871 0.188266 0.000000
0.938109 0.222446 0.000000
0.962310 0.254490 0.000000
0.985718 0.285039 0.000000
1.000000 0.314977 0.000000
1.000000 0.344305 0.000000
1.000000 0.373754 0.000000
1.000000 0.403601 0.000000
1.000000 0.434668 0.000000
0.025574 0.052644 0.058198
0.025574 0.052644 0.058198
0.026917 0.052491 0.058198
0.051240 0.055451 0.058259
0.066957 0.057740 0.058259
0.082338 0.059663 0.058686
0.103609 0.060975 0.058442
0.133303 0.059205 0.057160
0.172824 0.050782 0.053742
0.222477 0.026001 0.047974
0.281621 0.000000 0.034638
0.348425 0.000000 0.012146
0.418769 0.000000 0.000000
0.487922 0.000000 0.000000
0.551751 0.000000 0.000000
0.609522 0.000000 0.000000
0.660975 0.000000 0.000000
0.712612 0.000000 0.000000
0.756252 0.000000 0.000000
0.793820 0.000000 0.000000
0.826749 0.029053 0.000000
0.856535 0.111910 0.000000
0.884672 0.155001 0.000000
0.911345 0.191287 0.000000
0.936645 0.224674 0.000000
0.960967 0.256260 0.000000
0.984466 0.286625 0.000000
1.000000 0.316228 0.000000
1.000000 0.345312 0.000000
1.000000 0.374578 0.000000
1.000000 0.404242 0.000000
1.000000 0.435004 0.000000
0.027497 0.059510 0.059358
0.027131 0.059998 0.059754
0.029297 0.060761 0.060090
0.049287 0.065095 0.056245
0.067689 0.065095 0.055543
0.083772 0.065858 0.055207
0.105562 0.066804 0.054902
0.135927 0.066011 0.054139
0.175418 0.063355 0.050324
0.225162 0.051240 0.042084
0.284184 0.012757 0.027497
0.350744 0.000000 0.005188
0.420081 0.000000 0.000000
0.488411 0.000000 0.000000
0.551904 0.000000 0.000000
0.609308 0.000000 0.000000
0.660914 0.000000 0.000000
0.711788 0.000000 0.000000
0.754482 0.000000 0.000000
0.791379 0.000000 0.000000
0.824125 0.077790 0.000000
0.853758 0.127016 0.000000
0.882109 0.165591 0.000000
0.909239 0.199954 0.000000
0.935241 0.232334 0.000000
0.960113 0.263127 0.000000
0.984039 0.293034 0.000000
1.000000 0.322179 0.000000
1.000000 0.350713 0.000000
1.000000 0.379217 0.000000
1.000000 0.408118 0.000000
1.000000 0.437903 0.000000
0.030121 0.066560 0.061769
0.029755 0.066987 0.062165
0.032074 0.067262 0.062562
0.041657 0.066621 0.065095
0.063783 0.073793 0.055818
0.083040 0.075990 0.052613
0.107820 0.077211 0.050324
0.138766 0.077974 0.048310
0.178927 0.077363 0.044068
0.228519 0.073793 0.034699
0.287114 0.062959 0.021363
0.352728 0.020356 0.001404
0.421485 0.000000 0.000000
0.489265 0.000000 0.000000
0.552697 0.000000 0.000000
0.610132 0.000000 0.000000
0.663081 0.000000 0.000000
0.712825 0.000000 0.000000
0.754879 0.000000 0.000000
0.791379 0.071138 0.000000
0.823545 0.117098 0.000000
0.852964 0.152193 0.000000
0.881163 0.184512 0.000000
0.908263 0.215305 0.000000
0.934295 0.245121 0.000000
0.959319 0.274144 0.000000
0.983276 0.302831 0.000000
1.000000 0.330510 0.000000
1.000000 0.358007 0.000000
1.000000 0.385626 0.000000
1.000000 0.413642 0.000000
1.000000 0.442817 0.000000
0.029450 0.073365 0.065003
0.029084 0.073762 0.065370
0.033906 0.073854 0.066102
0.045930 0.072724 0.069184
0.054597 0.074434 0.068940
0.076204 0.085512 0.060243
0.105867 0.092073 0.054505
0.139834 0.094911 0.049989
0.183688 0.096681 0.042420
0.233890 0.096162 0.033875
0.292851 0.092012 0.018769
0.358556 0.081727 0.000000
0.426673 0.062043 0.000000
0.494026 0.005066 0.000000
0.556725 0.000000 0.000000
0.613550 0.000000 0.000000
0.667231 0.000000 0.000000
0.715663 0.054292 0.000000
0.756893 0.095521 0.000000
0.792966 0.127047 0.000000
0.824949 0.155978 0.000000
0.854337 0.182986 0.000000
0.902831 0.235843 0.000000
0.928435 0.261906 0.000000
0.952575 0.287449 0.000000
0.975586 0.312139 0.000000
0.997498 0.336828 0.000000
1.000000 0.361181 0.000000
1.000000 0.385748 0.000000
1.000000 0.410834 0.000000
1.000000 0.436805 0.000000
1.000000 0.463783 0.000000
0.028870 0.081209 0.068544
0.028656 0.081209 0.068940
0.035981 0.081178 0.070039
0.048524 0.081147 0.072450
0.058350 0.078340 0.075074
0.066377 0.085542 0.072450
0.096529 0.104555 0.063752
0.141207 0.117800 0.056092
0.188235 0.122805 0.046906
0.246860 0.126284 0.028992
0.310735 0.125612 0.007141
0.377569 0.121218 0.000000
0.445441 0.113832 0.000000
0.511162 0.105867 0.000000
0.571435 0.101350 0.000000
0.625666 0.103914 0.000000
0.680201 0.118593 0.000000
0.726955 0.137697 0.000000
0.766812 0.158022 0.000000
0.802213 0.179812 0.000000
0.834287 0.202304 0.000000
0.864958 0.226413 0.000000
0.894499 0.251926 0.000000
0.922576 0.277592 0.000000
0.948791 0.302953 0.000000
0.972992 0.327092 0.000000
0.995483 0.350622 0.000000
1.000000 0.373571 0.000000
1.000000 0.396918 0.000000
1.000000 0.420691 0.000000
1.000000 0.445289 0.000000
1.000000 0.471107 0.000000
0.025360 0.090455 0.072419
0.029053 0.090578 0.072724
0.033661 0.090639 0.073762
0.046967 0.090944 0.075380
0.059602 0.088930 0.078065
0.065064 0.084810 0.080934
0.078340 0.100923 0.075410
0.123171 0.128908 0.064179
0.184421 0.149203 0.049348
0.242679 0.156008 0.029236
0.311528 0.160464 0.000305
0.385901 0.161471 0.000000
0.453132 0.159365 0.000000
0.517723 0.157259 0.000000
0.576776 0.158053 0.000000
0.632990 0.163821 0.000000
0.684474 0.175204 0.000000
0.729244 0.188785 0.000000
0.767849 0.203738 0.000000
0.802365 0.220157 0.000000
0.833829 0.237858 0.000000
0.864012 0.257664 0.000000
0.893217 0.279271 0.000000
0.920989 0.301732 0.000000
0.947051 0.324010 0.000000
0.971160 0.345983 0.000000
0.993713 0.367437 0.000000
1.000000 0.388769 0.000000
1.000000 0.410529 0.000000
1.000000 0.432929 0.000000
1.000000 0.456184 0.000000
1.000000 0.480690 0.000000
0.022889 0.102022 0.077058
0.026581 0.102144 0.077333
0.032593 0.102419 0.077913
0.044831 0.102724 0.079103
0.059113 0.102968 0.082063
0.067384 0.097353 0.085206
0.073610 0.098787 0.086091
0.096681 0.122347 0.079072
0.159792 0.161776 0.061891
0.239170 0.189822 0.025086
0.308049 0.197879 0.000000
0.383276 0.203098 0.000000
0.459541 0.206577 0.000000
0.527428 0.208347 0.000000
0.585962 0.211368 0.000000
0.641901 0.218906 0.000000
0.690791 0.227756 0.000000
0.733669 0.238407 0.000000
0.770748 0.249363 0.000000
0.804257 0.262119 0.000000
0.834958 0.276066 0.000000
0.864591 0.292210 0.000000
0.893309 0.310369 0.000000
0.920684 0.329686 0.000000
0.946410 0.349340 0.000000
0.970367 0.368536 0.000000
0.992798 0.387854 0.000000
1.000000 0.407294 0.000000
1.000000 0.427192 0.000000
1.000000 0.447883 0.000000
1.000000 0.469520 0.000000
1.000000 0.492500 0.000000
0.019287 0.116274 0.082094
0.022980 0.116365 0.082368
0.027863 0.116640 0.082612
0.038178 0.117372 0.083955
0.056489 0.117952 0.086366
0.067933 0.114168 0.089754
0.075990 0.106752 0.093324
0.086152 0.117372 0.091737
0.122042 0.150484 0.082277
0.205447 0.202518 0.053986
0.303166 0.237766 0.000000
0.378607 0.246128 0.000000
0.455024 0.252659 0.000000
0.527855 0.258549 0.000000
0.597864 0.267613 0.000000
0.651881 0.274235 0.000000
0.699123 0.281437 0.000000
0.740383 0.289342 0.000000
0.776059 0.297459 0.000000
0.808133 0.306340 0.000000
0.837583 0.316655 0.000000
0.865965 0.329076 0.000000
0.893553 0.343267 0.000000
0.919951 0.358892 0.000000
0.945068 0.375341 0.000000
0.968780 0.392218 0.000000
0.991211 0.409461 0.000000
1.000000 0.427222 0.000000
1.000000 0.445716 0.000000
1.000000 0.465003 0.000000
1.000000 0.485512 0.000000
1.000000 0.507134 0.000000
0.009979 0.132631 0.087739
0.013489 0.132906 0.087984
0.018372 0.133120 0.088197
0.029114 0.133761 0.088899
0.048432 0.134676 0.091096
0.066438 0.134646 0.095399
0.078767 0.125460 0.098756
0.085206 0.115877 0.102022
0.104189 0.141299 0.098024
0.155215 0.185672 0.085237
0.261051 0.250675 0.028534
0.374212 0.292973 0.000000
0.451179 0.301457 0.000000
0.527947 0.311223 0.000000
0.596307 0.320287 0.000000
0.656184 0.328649 0.000000
0.706203 0.335271 0.000000
0.745541 0.339879 0.000000
0.779721 0.344335 0.000000
0.810727 0.350164 0.000000
0.839414 0.357336 0.000000
0.867338 0.366857 0.000000
0.894560 0.378302 0.000000
0.920531 0.391272 0.000000
0.945281 0.405097 0.000000
0.968627 0.419440 0.000000
0.990723 0.434333 0.000000
1.000000 0.449897 0.000000
1.000000 0.466407 0.000000
1.000000 0.483864 0.000000
1.000000 0.502525 0.000000
1.000000 0.522637 0.000000
0.000000 0.151339 0.093965
0.000000 0.151583 0.094148
0.004486 0.151949 0.094331
0.016419 0.152621 0.094942
0.036286 0.153567 0.096742
0.062074 0.154604 0.100832
0.079011 0.148104 0.105135
0.089570 0.136385 0.108309
0.097200 0.131991 0.110384
0.127779 0.170993 0.104921
0.196262 0.227390 0.087770
0.324987 0.305577 0.000000
0.475624 0.375586 0.000000
0.553185 0.386633 0.000000
0.620569 0.395270 0.000000
0.678737 0.401953 0.000000
0.728603 0.406928 0.000000
0.770016 0.409766 0.000000
0.801328 0.409552 0.000000
0.828977 0.410559 0.000000
0.855650 0.413764 0.000000
0.881621 0.419440 0.000000
0.906676 0.426856 0.000000
0.930816 0.436042 0.000000
0.953887 0.446296 0.000000
0.975830 0.457435 0.000000
0.996674 0.469337 0.000000
1.000000 0.482094 0.000000
1.000000 0.495796 0.000000
1.000000 0.510765 0.000000
1.000000 0.527031 0.000000
1.000000 0.544945 0.000000
0.000000 0.174533 0.101595
0.000000 0.174868 0.101503
0.000000 0.174899 0.101717
0.000000 0.175326 0.102296
0.016846 0.175967 0.103731
0.051972 0.176699 0.107057
0.076417 0.175479 0.112367
0.092164 0.161471 0.115389
0.101015 0.146578 0.118105
0.114046 0.156802 0.118654
0.159030 0.208042 0.112428
0.252018 0.282353 0.090700
0.411048 0.379461 0.000000
0.544091 0.437659 0.000000
0.613001 0.446082 0.000000
0.671992 0.451728 0.000000
0.722408 0.454932 0.000000
0.764187 0.455573 0.000000
0.799771 0.455177 0.000000
0.830472 0.454719 0.000000
0.856565 0.455116 0.000000
0.882017 0.457893 0.000000
0.906554 0.462745 0.000000
0.930236 0.469215 0.000000
0.952972 0.477089 0.000000
0.974578 0.486000 0.000000
0.995239 0.495766 0.000000
1.000000 0.506523 0.000000
1.000000 0.518425 0.000000
1.000000 0.531731 0.000000
1.000000 0.546410 0.000000
1.000000 0.562676 0.000000
0.000000 0.195987 0.108583
0.000000 0.196048 0.108553
0.000000 0.196201 0.108705
0.000000 0.196567 0.109041
0.000000 0.196994 0.110170
0.031098 0.197482 0.112856
0.070069 0.198245 0.118563
0.091371 0.187808 0.122438
0.104891 0.170871 0.124910
0.110628 0.153872 0.126680
0.135225 0.185733 0.127474
0.197665 0.251133 0.121004
0.311070 0.337621 0.092836
0.480812 0.440558 0.000000
0.605066 0.496407 0.000000
0.664973 0.500450 0.000000
0.715511 0.501762 0.000000
0.757748 0.500725 0.000000
0.793942 0.498543 0.000000
0.826108 0.496742 0.000000
0.856504 0.496895 0.000000
0.882963 0.497902 0.000000
0.907134 0.500145 0.000000
0.930449 0.504387 0.000000
0.952819 0.509941 0.000000
0.974182 0.516655 0.000000
0.994598 0.524346 0.000000
1.000000 0.533165 0.000000
1.000000 0.543267 0.000000
1.000000 0.554772 0.000000
1.000000 0.567834 0.000000
1.000000 0.582483 0.000000
0.000000 0.218021 0.115785
0.000000 0.218173 0.115969
0.000000 0.218173 0.115908
0.000000 0.218418 0.116030
0.000000 0.218784 0.117067
0.002258 0.219028 0.119234
0.059113 0.219516 0.123690
0.087129 0.216800 0.129946
0.106142 0.198489 0.132387
0.116548 0.179232 0.133852
0.120302 0.162875 0.134371
0.161166 0.218997 0.136782
0.240665 0.296880 0.129305
0.371618 0.392401 0.096376
0.542626 0.496223 0.000000
0.656916 0.547967 0.000000
0.709010 0.548425 0.000000
0.751614 0.545586 0.000000
0.788266 0.541772 0.000000
0.820768 0.538323 0.000000
0.851408 0.536706 0.000000
0.880613 0.537011 0.000000
0.907927 0.538506 0.000000
0.930785 0.540276 0.000000
0.952819 0.543725 0.000000
0.974029 0.548486 0.000000
0.994415 0.554528 0.000000
1.000000 0.561944 0.000000
1.000000 0.570672 0.000000
1.000000 0.580896 0.000000
1.000000 0.592584 0.000000
1.000000 0.605921 0.002716
0.000000 0.240421 0.123171
0.000000 0.240543 0.123110
0.000000 0.240574 0.123079
0.000000 0.240848 0.123354
0.000000 0.241367 0.124300
0.000000 0.242222 0.126192
0.028290 0.243015 0.130129
0.079500 0.243687 0.137362
0.104952 0.229709 0.140749
0.119722 0.207553 0.141726
0.125948 0.184634 0.141329
0.137301 0.187869 0.142611
0.191257 0.255131 0.145998
0.287663 0.343938 0.137697
0.429694 0.443671 0.103029
0.594171 0.543786 0.000000
0.699825 0.591882 0.000000
0.744747 0.589136 0.000000
0.782406 0.584283 0.000000
0.815732 0.579828 0.000000
0.847044 0.577173 0.000000
0.876799 0.576318 0.000000
0.904875 0.576776 0.000000
0.931273 0.578332 0.000000
0.954498 0.580194 0.000000
0.975372 0.582940 0.000000
0.995422 0.586999 0.000000
1.000000 0.592523 0.000000
1.000000 0.599451 0.000000
1.000000 0.607660 0.000000
1.000000 0.617334 0.000000
1.000000 0.628626 0.086885
0.000000 0.264256 0.130953
0.000000 0.264195 0.130953
0.000000 0.264378 0.131075
0.000000 0.264561 0.131136
0.000000 0.264836 0.131868
0.000000 0.265202 0.133364
0.000000 0.265507 0.136477
0.065003 0.265354 0.142184
0.099763 0.260685 0.148562
0.119814 0.236545 0.148989
0.130098 0.211154 0.148226
0.131930 0.185641 0.145785
0.156558 0.214450 0.150454
0.224308 0.293034 0.154910
0.336339 0.390234 0.146395
0.483864 0.490913 0.113649
0.639399 0.586297 0.000000
0.736324 0.630396 0.000000
0.775875 0.625544 0.000000
0.809659 0.619684 0.000000
0.841276 0.615717 0.000000
0.871366 0.613519 0.000000
0.899748 0.612818 0.000000
0.926574 0.613336 0.000000
0.951751 0.614588 0.000000
0.975341 0.616327 0.000000
0.995239 0.618708 0.000000
1.000000 0.622461 0.000000
1.000000 0.627619 0.000000
1.000000 0.634272 0.000000
1.000000 0.642420 0.041810
1.000000 0.652186 0.125795
0.000000 0.288212 0.138766
0.000000 0.288457 0.138857
0.000000 0.295933 0.141482
0.000000 0.295781 0.141451
0.000000 0.295720 0.141848
0.000000 0.295262 0.142885
0.000000 0.294743 0.145235
0.030671 0.293706 0.149813
0.091707 0.292241 0.158022
0.119112 0.272313 0.159152
0.133577 0.243412 0.157351
0.138674 0.213931 0.153902
0.135744 0.185122 0.148836
0.181613 0.247410 0.160159
0.267002 0.339452 0.166415
0.394842 0.444160 0.159945
0.544427 0.544305 0.134615
0.689387 0.634272 0.061555
0.774868 0.671351 0.000000
0.809110 0.664424 0.000000
0.840391 0.658717 0.000000
0.870237 0.654963 0.000000
0.898497 0.652766 0.000000
0.924987 0.651728 0.000000
0.949676 0.651179 0.000000
0.972808 0.651331 0.000000
0.994568 0.651911 0.000000
1.000000 0.653376 0.000000
1.000000 0.656458 0.000000
1.000000 0.661280 0.014008
1.000000 0.667750 0.107576
1.000000 0.675776 0.158022
0.000000 0.313878 0.147311
0.000000 0.314916 0.147555
0.000000 0.315862 0.147951
0.000000 0.316594 0.148226
0.000000 0.316960 0.148653
0.000000 0.316533 0.149325
0.000000 0.315557 0.151247
0.000000 0.314031 0.154726
0.073945 0.311925 0.161013
0.111849 0.303593 0.166415
0.131991 0.272892 0.164157
0.141238 0.241276 0.160281
0.141695 0.209628 0.154940
0.145724 0.199191 0.152987
0.206699 0.278813 0.167483
0.306889 0.379950 0.174960
0.443732 0.487282 0.170962
0.588647 0.583856 0.153017
0.723415 0.667445 0.111574
0.801236 0.700526 0.062989
0.833646 0.694392 0.053712
0.864073 0.689998 0.044587
0.892851 0.687068 0.034943
0.919829 0.685328 0.030732
0.944976 0.684199 0.029114
0.968536 0.683650 0.029999
0.990631 0.683650 0.037934
1.000000 0.684291 0.054902
1.000000 0.685756 0.069612
1.000000 0.688777 0.109499
1.000000 0.693599 0.149386
1.000000 0.700038 0.190066
0.000000 0.336400 0.154635
0.000000 0.337407 0.154849
0.000000 0.338293 0.155093
0.000000 0.338781 0.155215
0.000000 0.338811 0.155550
0.000000 0.337926 0.155856
0.000000 0.336584 0.157076
0.000000 0.334508 0.159579
0.037690 0.331823 0.164218
0.100587 0.328191 0.172305
0.127626 0.303746 0.170932
0.141329 0.270024 0.166781
0.145327 0.235782 0.160891
0.141360 0.202518 0.153597
0.161807 0.222538 0.158816
0.235966 0.313664 0.175357
0.350408 0.422461 0.184573
0.492683 0.529870 0.184848
0.631891 0.622858 0.175937
0.754910 0.698543 0.155703
0.827268 0.729397 0.136172
0.858061 0.724239 0.135653
0.887327 0.720699 0.136080
0.914672 0.718227 0.137392
0.940154 0.716457 0.138979
0.963958 0.715236 0.141146
0.986267 0.714473 0.144442
1.000000 0.714534 0.150393
1.000000 0.715297 0.158389
1.000000 0.716793 0.168795
1.000000 0.719295 0.185855
1.000000 0.724178 0.220737
0.000000 0.359289 0.161807
0.000000 0.360174 0.162020
0.000000 0.361059 0.162387
0.000000 0.361395 0.162387
0.000000 0.361028 0.162387
0.000000 0.359899 0.162478
0.000000 0.357946 0.162966
0.000000 0.355230 0.164584
0.000000 0.351904 0.168063
0.080110 0.347601 0.173922
0.118959 0.335485 0.177584
0.138643 0.300237 0.172915
0.146578 0.263767 0.166781
0.145846 0.227573 0.159030
0.138430 0.193027 0.149844
0.180331 0.248875 0.164767
0.269871 0.352056 0.183719
0.398718 0.467659 0.196445
0.543389 0.574609 0.203494
0.675502 0.663081 0.206943
0.786618 0.730556 0.205447
0.856321 0.761746 0.200198
0.885344 0.757198 0.202274
0.913207 0.754482 0.205631
0.939025 0.752346 0.209384
0.962951 0.750698 0.213931
0.985290 0.749447 0.219120
1.000000 0.748836 0.225895
1.000000 0.748989 0.234531
1.000000 0.749874 0.245182
1.000000 0.751400 0.258457
1.000000 0.753262 0.273716
0.000000 0.387640 0.170932
0.000000 0.387915 0.170962
0.000000 0.388006 0.170932
0.000000 0.387518 0.170596
0.000000 0.386419 0.170230
0.000000 0.384619 0.169833
0.000000 0.382116 0.169924
0.000000 0.378820 0.170748
0.000000 0.374823 0.172915
0.039338 0.369879 0.177066
0.106996 0.363531 0.184054
0.132753 0.333959 0.179904
0.145968 0.295048 0.173098
0.148745 0.255741 0.164645
0.143801 0.217472 0.155093
0.137819 0.190402 0.146975
0.204105 0.280644 0.171939
0.311223 0.396674 0.194034
0.451911 0.516197 0.211673
0.593866 0.619776 0.227420
0.714565 0.699428 0.242222
0.815518 0.759976 0.251926
0.881437 0.789944 0.252995
0.907652 0.784787 0.254643
0.933623 0.781979 0.258518
0.957763 0.779782 0.263371
0.980377 0.778103 0.269505
1.000000 0.777127 0.277012
1.000000 0.776852 0.286656
1.000000 0.777279 0.298100
1.000000 0.778408 0.312139
1.000000 0.779843 0.327886
0.000000 0.412940 0.178897
0.000000 0.413245 0.179080
0.000000 0.413336 0.178897
0.000000 0.412757 0.178622
0.000000 0.411353 0.177981
0.000000 0.409033 0.177279
0.000000 0.405921 0.176547
0.000000 0.402045 0.176669
0.000000 0.397284 0.177615
0.000000 0.391455 0.180362
0.082124 0.384253 0.185061
0.122438 0.367864 0.186160
0.141817 0.327733 0.178988
0.149172 0.285985 0.170321
0.147524 0.244511 0.160372
0.138918 0.205112 0.149203
0.151492 0.212314 0.151736
0.232609 0.317296 0.179782
0.357244 0.443793 0.205447
0.504875 0.563531 0.229709
0.640314 0.661646 0.255039
0.749081 0.731838 0.280583
0.843229 0.788540 0.298680
0.905455 0.817227 0.305760
0.927123 0.809110 0.301366
0.951537 0.806455 0.306432
0.974456 0.804471 0.313207
0.995972 0.803128 0.321386
1.000000 0.802487 0.331518
1.000000 0.802609 0.344030
1.000000 0.803586 0.359289
1.000000 0.804746 0.375982
0.000000 0.445411 0.189914
0.000000 0.445838 0.190036
0.000000 0.445777 0.189792
0.000000 0.444739 0.189181
0.000000 0.442603 0.188113
0.000000 0.439643 0.186801
0.000000 0.435645 0.185580
0.000000 0.430640 0.184604
0.000000 0.424598 0.184237
0.000000 0.417365 0.185306
0.026154 0.408698 0.187808
0.108125 0.398413 0.192660
0.134096 0.363500 0.185275
0.147066 0.319799 0.176181
0.149660 0.275151 0.165957
0.144106 0.232029 0.154665
0.132845 0.192142 0.142367
0.169528 0.239841 0.157931
0.267826 0.359747 0.188876
0.407813 0.492775 0.218936
0.555840 0.609339 0.250950
0.681086 0.698543 0.285527
0.779812 0.761044 0.318242
0.867582 0.813748 0.340734
0.925231 0.839933 0.350469
0.946563 0.833555 0.351904
0.969421 0.830991 0.358556
0.990936 0.829068 0.366827
1.000000 0.827939 0.377050
1.000000 0.827665 0.389837
1.000000 0.828122 0.405249
1.000000 0.829038 0.422889
0.000000 0.475959 0.200504
0.000000 0.476417 0.200595
0.000000 0.476295 0.200259
0.000000 0.475166 0.199619
0.000000 0.472877 0.198245
0.000000 0.469642 0.196597
0.000000 0.465278 0.194949
0.000000 0.459968 0.193179
0.000000 0.453437 0.191928
0.000000 0.445808 0.191623
0.000000 0.436347 0.192233
0.078676 0.425147 0.194858
0.122225 0.403540 0.192447
0.142519 0.358618 0.182956
0.150454 0.311742 0.172457
0.148867 0.264836 0.160922
0.140200 0.220340 0.148470
0.126497 0.180117 0.135561
0.195834 0.277501 0.166720
0.316075 0.414466 0.202396
0.469062 0.550195 0.240269
0.611475 0.659998 0.282536
0.722621 0.736355 0.326574
0.813138 0.793393 0.364141
0.893492 0.841032 0.390692
0.946166 0.864225 0.403357
0.965240 0.857389 0.405341
0.986755 0.855131 0.414191
1.000000 0.853727 0.425208
1.000000 0.853208 0.438880
1.000000 0.853178 0.454444
1.000000 0.853758 0.472816
0.000000 0.513542 0.214878
0.000000 0.513664 0.214939
0.000000 0.513359 0.214481
0.000000 0.511772 0.213443
0.000000 0.509056 0.211704
0.000000 0.505333 0.209445
0.000000 0.500450 0.206973
0.000000 0.494514 0.204562
0.000000 0.487465 0.202274
0.000000 0.479194 0.200381
0.000000 0.469123 0.199374
0.000000 0.457221 0.199832
0.106325 0.442695 0.201694
0.134615 0.403388 0.191165
0.149203 0.355352 0.180331
0.152956 0.305608 0.168673
0.147921 0.256657 0.156130
0.136660 0.211185 0.143252
0.140597 0.203098 0.141482
0.233982 0.329351 0.179782
0.377234 0.479011 0.221653
0.533837 0.609979 0.269291
0.662959 0.706569 0.321508
0.761563 0.772457 0.371435
0.844572 0.824063 0.411078
0.917021 0.866026 0.438880
0.964630 0.886015 0.453285
0.981933 0.879057 0.455512
1.000000 0.876921 0.466194
1.000000 0.875975 0.479927
1.000000 0.875578 0.495338
1.000000 0.875822 0.513909
0.000000 0.555230 0.232761
0.000000 0.555291 0.232578
0.000000 0.554833 0.232212
0.000000 0.553399 0.230961
0.000000 0.550958 0.229129
0.000000 0.547753 0.226841
0.000000 0.543877 0.224369
0.000000 0.539208 0.221805
0.000000 0.533532 0.219089
0.000000 0.526390 0.216709
0.000000 0.517479 0.214603
0.000000 0.506157 0.213169
0.073701 0.491798 0.212406
0.124056 0.466102 0.205570
0.149081 0.418402 0.194278
0.160098 0.366766 0.182132
0.160616 0.313481 0.169497
0.152834 0.261448 0.156283
0.139406 0.213352 0.142733
0.176181 0.258518 0.158755
0.304051 0.415351 0.206760
0.468605 0.568353 0.262028
0.613916 0.684260 0.324224
0.721798 0.760433 0.386206
0.809262 0.817655 0.437995
0.881468 0.861082 0.477272
0.944030 0.895537 0.504601
0.985290 0.911315 0.518914
1.000000 0.904326 0.521935
1.000000 0.901823 0.533318
1.000000 0.900938 0.548821
1.000000 0.900572 0.567102
0.000000 0.616571 0.264286
0.000000 0.616480 0.263981
0.000000 0.615808 0.263493
0.000000 0.614069 0.261845
0.000000 0.611231 0.259617
0.000000 0.607568 0.256565
0.000000 0.603021 0.253300
0.000000 0.597620 0.249485
0.000000 0.591119 0.245548
0.000000 0.583368 0.241581
0.000000 0.573663 0.237430
0.000000 0.561761 0.233524
0.000000 0.546960 0.229984
0.116854 0.528557 0.227268
