data/fiter_cube/23985691/1023001/file.cube
# Created by Adobe Lightroom plugin Export LUT (1.17.0)
# www.johnrellis.com/lightroom/exportlut.htm
# Preset: 日系风光建筑_02 云集
# Color profile: C:\Program Files (x86)\Common Files\Adobe\Color\Profiles\Recommended\AdobeRGB1998.icc
LUT_3D_SIZE 8
DOMAIN_MIN 0.000000 0.000000 0.000000
DOMAIN_MAX 0.903226 0.903226 0.903226
0.025574 0.052644 0.058198
0.066224 0.050843 0.060060
0.172854 0.036652 0.056336
0.421149 0.000000 0.000000
0.664881 0.000000 0.000000
0.831937 0.000000 0.000000
0.941070 0.223545 0.000000
1.000000 0.345403 0.000000
0.030121 0.066560 0.061769
0.063783 0.073793 0.055818
0.178927 0.077363 0.044068
0.421485 0.000000 0.000000
0.663081 0.000000 0.000000
0.823545 0.117098 0.000000
0.934295 0.245121 0.000000
1.000000 0.358007 0.000000
0.022889 0.102022 0.077058
0.059113 0.102968 0.082063
0.159792 0.161776 0.061891
0.459541 0.206577 0.000000
0.690791 0.227756 0.000000
0.834958 0.276066 0.000000
0.946410 0.349340 0.000000
1.000000 0.427192 0.000000
0.000000 0.174533 0.101595
0.016846 0.175967 0.103731
0.101015 0.146578 0.118105
0.411048 0.379461 0.000000
0.722408 0.454932 0.000000
0.856565 0.455116 0.000000
0.952972 0.477089 0.000000
1.000000 0.518425 0.000000
0.000000 0.264256 0.130953
0.000000 0.264836 0.131868
0.099763 0.260685 0.148562
0.156558 0.214450 0.150454
0.639399 0.586297 0.000000
0.841276 0.615717 0.000000
0.951751 0.614588 0.000000
1.000000 0.627619 0.000000
0.000000 0.359289 0.161807
0.000000 0.361028 0.162387
0.000000 0.351904 0.168063
0.146578 0.263767 0.166781
0.269871 0.352056 0.183719
0.786618 0.730556 0.205447
0.939025 0.752346 0.209384
1.000000 0.748989 0.234531
0.000000 0.475959 0.200504
0.000000 0.472877 0.198245
0.000000 0.453437 0.191928
0.122225 0.403540 0.192447
0.140200 0.220340 0.148470
0.469062 0.550195 0.240269
0.893492 0.841032 0.390692
1.000000 0.853727 0.425208
0.000000 0.675990 0.300542
0.000000 0.671199 0.295720
0.000000 0.654292 0.281712
0.000000 0.617151 0.263005
0.194247 0.466712 0.212345
0.191257 0.284916 0.175204
0.742580 0.799863 0.466896
0.982971 0.939055 0.605219
0.023468 0.056977 0.075166
0.060975 0.063569 0.077760
0.163485 0.057099 0.076905
0.402197 0.000000 0.060151
0.650752 0.000000 0.000000
0.814206 0.000000 0.000000
0.927611 0.215854 0.000000
1.000000 0.343847 0.000000
0.012940 0.072206 0.080232
0.063478 0.077455 0.082765
0.170718 0.083711 0.081056
0.409918 0.000000 0.057954
0.653834 0.000000 0.000000
0.812131 0.109163 0.000000
0.923278 0.240024 0.000000
1.000000 0.355566 0.000000
0.008423 0.116335 0.093019
0.057038 0.122072 0.099214
0.166232 0.169619 0.093477
0.449226 0.200626 0.019776
0.674952 0.217838 0.000000
0.821653 0.267735 0.000000
0.930968 0.338811 0.000000
1.000000 0.422614 0.000000
0.000000 0.193423 0.119997
0.000000 0.198032 0.123507
0.118990 0.177493 0.140810
0.402380 0.373083 0.085389
0.696834 0.433326 0.000000
0.836149 0.438972 0.000000
0.937102 0.465522 0.000000
1.000000 0.513634 0.000000
0.000000 0.287968 0.151308
0.000000 0.288090 0.151369
0.104005 0.287388 0.168490
0.163912 0.217899 0.167575
0.627466 0.576349 0.116365
0.830777 0.608209 0.000000
0.943908 0.610773 0.000000
1.000000 0.626581 0.084138
0.000000 0.376806 0.178347
0.000000 0.375311 0.177737
0.000000 0.367742 0.182345
0.161257 0.292699 0.185763
0.271427 0.350622 0.198978
0.783230 0.729091 0.254337
0.934112 0.751339 0.263798
1.000000 0.748562 0.278965
0.000000 0.483925 0.212772
0.000000 0.478553 0.209506
0.000000 0.462379 0.203464
0.131594 0.426093 0.211093
0.151614 0.240330 0.160281
0.460914 0.541466 0.250523
0.887083 0.836271 0.409949
1.000000 0.850401 0.442542
0.000000 0.676265 0.307988
0.000000 0.673274 0.304509
0.000000 0.658076 0.290990
0.000000 0.623438 0.272740
0.208713 0.499855 0.230259
0.188815 0.280888 0.176730
0.737514 0.795651 0.470710
0.980102 0.937346 0.614496
0.000000 0.070283 0.135897
0.047456 0.076387 0.140261
0.169741 0.098177 0.190066
0.408453 0.000000 0.184268
0.646937 0.000000 0.163821
0.809964 0.120394 0.168307
0.924620 0.270268 0.171603
1.000000 0.390661 0.199619
0.000000 0.084474 0.147219
0.044556 0.092744 0.157412
0.172091 0.124269 0.195895
0.399390 0.019715 0.177310
0.646937 0.000000 0.171756
0.807919 0.169528 0.169589
0.921874 0.290196 0.170596
1.000000 0.402564 0.198886
0.000000 0.143526 0.174258
0.000000 0.154971 0.183902
0.181857 0.197726 0.216342
0.437476 0.210117 0.207523
0.670954 0.240635 0.196628
0.816892 0.300359 0.187015
0.925505 0.373663 0.188785
1.000000 0.456947 0.216587
0.000000 0.256626 0.205844
0.000000 0.275303 0.212955
0.148775 0.289952 0.230716
0.433234 0.407568 0.255192
0.702876 0.451575 0.234928
0.830442 0.461555 0.226474
0.932464 0.494453 0.229984
1.000000 0.544213 0.256321
0.000000 0.361242 0.225742
0.000000 0.366247 0.227756
0.087373 0.375128 0.243168
0.238437 0.300786 0.254826
0.643519 0.599420 0.306432
0.828122 0.622980 0.299931
0.937621 0.629084 0.295750
1.000000 0.648127 0.317754
0.000000 0.444892 0.244144
0.000000 0.446509 0.245029
0.000000 0.444312 0.250004
0.227024 0.416266 0.273564
0.286259 0.354681 0.253208
0.778744 0.732815 0.391211
0.924956 0.758145 0.412634
1.000000 0.762173 0.425757
0.000000 0.545373 0.275181
0.000000 0.541833 0.272099
0.000000 0.527062 0.263401
0.134157 0.493874 0.262577
0.203281 0.328130 0.214298
0.453040 0.531426 0.293339
0.884398 0.841276 0.508354
0.996948 0.859739 0.548058
0.000000 0.713008 0.362188
0.000000 0.707820 0.355718
0.000000 0.693751 0.341009
0.000000 0.668360 0.324315
0.239231 0.573663 0.281926
0.223911 0.340673 0.206058
0.728969 0.789548 0.496681
0.977264 0.939513 0.663416
0.000000 0.089113 0.271580
0.000000 0.098817 0.286473
0.171298 0.148379 0.324559
0.456245 0.217899 0.446998
0.671595 0.224674 0.452949
0.782101 0.204379 0.357000
0.900206 0.338689 0.378424
1.000000 0.453803 0.414038
0.000000 0.109133 0.285649
0.000000 0.119570 0.303349
0.182162 0.172702 0.339940
0.457923 0.253666 0.451484
0.666255 0.252079 0.447883
0.782437 0.243565 0.364874
0.899321 0.358251 0.382422
1.000000 0.463081 0.413306
0.000000 0.166232 0.304784
0.000000 0.174472 0.316686
0.170535 0.227604 0.366705
0.458473 0.344488 0.461006
0.649500 0.319127 0.424262
0.793301 0.364446 0.404211
0.908598 0.442695 0.418372
1.000000 0.516014 0.436316
0.000000 0.284184 0.344976
0.000000 0.297795 0.355810
0.084779 0.352026 0.396399
0.456672 0.451453 0.472816
0.667353 0.471107 0.458320
0.802457 0.497536 0.448554
0.910704 0.535821 0.447730
1.000000 0.588067 0.464485
0.000000 0.432990 0.376257
0.000000 0.447120 0.383459
0.000000 0.496651 0.410254
0.380438 0.513756 0.445594
0.654536 0.628595 0.512383
0.816953 0.649012 0.515129
0.918761 0.658534 0.507744
1.000000 0.681056 0.513176
0.000000 0.563775 0.393317
0.000000 0.568811 0.395819
0.000000 0.567498 0.394690
0.278538 0.555657 0.408301
0.372930 0.424048 0.374365
0.777310 0.747189 0.560845
0.913603 0.774411 0.580499
1.000000 0.782254 0.583368
0.000000 0.638697 0.398383
0.000000 0.637720 0.396002
0.000000 0.629816 0.386908
0.117098 0.604761 0.374762
0.336400 0.524132 0.362799
0.433204 0.505272 0.350317
0.878904 0.847715 0.626459
0.988159 0.869047 0.659022
0.000000 0.774929 0.467689
0.000000 0.772946 0.463722
0.000000 0.761685 0.446113
0.000000 0.736751 0.418616
0.287327 0.681117 0.389776
0.304540 0.471199 0.281071
0.705837 0.771725 0.524559
0.973022 0.942016 0.722194
0.000000 0.124514 0.442023
0.000000 0.138247 0.458137
0.155062 0.192233 0.500175
0.454566 0.343877 0.567163
0.693141 0.470558 0.685451
0.805264 0.524926 0.689662
0.879850 0.492622 0.614527
0.971893 0.556176 0.616083
0.000000 0.144442 0.446845
0.000000 0.158602 0.466163
0.165835 0.215610 0.508507
0.460914 0.364111 0.573327
0.690913 0.488746 0.685267
0.802548 0.534234 0.687861
0.877684 0.497261 0.609979
0.972320 0.564111 0.617853
0.000000 0.189883 0.446754
0.000000 0.197055 0.457282
0.146731 0.265904 0.516838
0.465522 0.410590 0.584192
0.683162 0.538415 0.683558
0.790280 0.553368 0.674342
0.867460 0.505974 0.587060
0.973144 0.586511 0.619135
0.000000 0.294865 0.474647
0.000000 0.304784 0.483528
0.000000 0.344427 0.516411
0.435096 0.458228 0.589929
0.675410 0.604089 0.684749
0.773495 0.577203 0.645899
0.876188 0.581842 0.614405
0.979828 0.628962 0.623438
0.000000 0.441169 0.510307
0.000000 0.452674 0.518456
0.000000 0.492775 0.546380
0.373175 0.561395 0.598810
0.657862 0.654383 0.676234
0.781399 0.659693 0.659876
0.888609 0.674525 0.648280
0.983246 0.702663 0.649470
0.000000 0.580255 0.533196
0.000000 0.589380 0.538720
0.000000 0.617884 0.556085
0.281682 0.661402 0.587701
0.555840 0.659083 0.606897
0.770809 0.757870 0.693050
0.901030 0.786343 0.704250
0.986847 0.794797 0.699672
0.000000 0.713893 0.559533
0.000000 0.718105 0.560388
0.000000 0.733364 0.564172
0.000000 0.721065 0.550652
0.411414 0.680079 0.529778
0.434730 0.487312 0.425208
0.871397 0.852110 0.721157
0.979706 0.873869 0.741817
0.000000 0.833066 0.596735
0.000000 0.831083 0.592981
0.000000 0.823423 0.579492
0.000000 0.810636 0.558038
0.269108 0.770291 0.514733
0.442817 0.664881 0.451057
0.643122 0.719387 0.521233
0.966278 0.942473 0.777920
0.000000 0.183505 0.609003
0.000000 0.201572 0.621302
0.170565 0.260563 0.653681
0.474525 0.399908 0.703273
0.671321 0.566155 0.748470
0.814542 0.672175 0.820096
0.898100 0.721950 0.842374
0.958862 0.713344 0.814755
0.000000 0.197513 0.603815
0.000000 0.213443 0.616510
0.172030 0.275547 0.651240
0.470893 0.408576 0.699794
0.670741 0.575677 0.747036
0.811948 0.676844 0.818326
0.896147 0.723293 0.840330
0.957824 0.712734 0.811582
0.000000 0.232731 0.595483
0.000000 0.246921 0.607385
0.145571 0.315709 0.650965
0.470405 0.448005 0.702480
0.681392 0.619501 0.753628
0.810391 0.700343 0.819638
0.892912 0.732662 0.836881
0.956573 0.713924 0.802487
0.000000 0.316381 0.603479
0.000000 0.322332 0.608148
0.000000 0.349401 0.628229
0.430274 0.480812 0.697139
0.683436 0.652338 0.759976
0.810941 0.736019 0.824430
0.888243 0.744472 0.828519
0.956023 0.709926 0.778592
0.000000 0.442969 0.623560
0.000000 0.450172 0.628565
0.000000 0.476570 0.646235
0.318273 0.526116 0.678645
0.627619 0.641657 0.740291
0.799588 0.760403 0.817777
0.870420 0.732906 0.789822
0.959960 0.731533 0.764858
0.000000 0.582177 0.649561
0.000000 0.589685 0.654841
0.000000 0.611261 0.669154
0.255528 0.647517 0.695125
0.559503 0.699184 0.734768
0.780270 0.783047 0.804379
0.879545 0.786221 0.790646
0.971588 0.799771 0.785092
0.000000 0.731258 0.694453
0.000000 0.734463 0.695857
0.000000 0.744076 0.699275
0.000000 0.762020 0.708766
0.471351 0.782101 0.723507
0.675593 0.765103 0.725917
0.871397 0.864469 0.813260
0.975158 0.883940 0.825040
0.000000 0.859373 0.727718
0.000000 0.860716 0.726833
0.000000 0.865995 0.724239
0.000000 0.875914 0.721065
0.290501 0.862303 0.699947
0.528618 0.809628 0.653285
0.525566 0.602808 0.492836
0.960540 0.945373 0.841154
0.000000 0.273838 0.750454
0.000000 0.297551 0.758389
0.268956 0.358648 0.774319
0.510246 0.480079 0.799893
0.698848 0.636744 0.831083
0.805142 0.725368 0.859800
0.901793 0.795377 0.906188
0.960479 0.845792 0.927398
0.000000 0.277684 0.742733
0.000000 0.297154 0.750698
0.256443 0.362432 0.768673
0.500633 0.479011 0.794156
0.691646 0.632807 0.825986
0.800137 0.723598 0.855344
0.897337 0.792050 0.902342
0.957519 0.841459 0.923857
0.000000 0.300847 0.737179
0.000000 0.315953 0.743465
0.213382 0.382208 0.764248
0.491249 0.499794 0.792020
0.688136 0.644648 0.825254
0.803738 0.742763 0.858640
0.899016 0.807584 0.905241
0.959167 0.850065 0.925597
0.000000 0.345586 0.728969
0.000000 0.347082 0.729610
0.000000 0.378759 0.743557
0.434333 0.507042 0.782834
0.673243 0.655879 0.822934
0.811429 0.773098 0.865782
0.901762 0.830411 0.909850
0.959869 0.857847 0.924681
0.000000 0.460212 0.738857
0.000000 0.461616 0.739162
0.000000 0.470253 0.743252
0.223239 0.491737 0.754330
0.594781 0.628901 0.800656
0.797116 0.777554 0.859831
0.897551 0.846311 0.908293
0.957427 0.858549 0.916136
0.000000 0.588159 0.755703
0.000000 0.590570 0.756893
0.000000 0.599176 0.761288
0.134127 0.616205 0.770779
0.469490 0.647761 0.786801
0.738277 0.754391 0.839567
0.897368 0.871611 0.911070
0.953307 0.849729 0.892699
0.000000 0.717891 0.780880
0.000000 0.720943 0.782681
0.000000 0.728237 0.786191
0.000000 0.741329 0.793423
0.426246 0.760708 0.804990
0.674189 0.800168 0.832181
0.877806 0.882322 0.897337
0.960815 0.883055 0.885740
0.000000 0.862028 0.829923
0.000000 0.863676 0.830411
0.000000 0.874418 0.836728
0.000000 0.881315 0.837766
0.312230 0.886412 0.836484
0.595026 0.896696 0.840421
0.754543 0.869230 0.815244
0.956237 0.950103 0.904295
0.237644 0.432288 0.871122
0.302770 0.452461 0.873838
0.437598 0.504906 0.878599
0.593927 0.592981 0.889036
0.732174 0.695613 0.902678
0.838102 0.792935 0.919585
0.900389 0.838529 0.934600
0.961059 0.885039 0.960296
0.203708 0.428199 0.867399
0.275608 0.447517 0.870207
0.427039 0.504479 0.876036
0.585840 0.590509 0.886320
0.727413 0.693690 0.900603
0.835416 0.791348 0.918151
0.898711 0.838376 0.933379
0.960174 0.885100 0.959625
0.000000 0.424262 0.862058
0.162539 0.439857 0.864439
0.373297 0.496834 0.870237
0.568261 0.594476 0.884337
0.718135 0.695552 0.899046
0.830991 0.792172 0.917144
0.898863 0.845762 0.933867
0.960540 0.891020 0.960479
0.000000 0.417700 0.854551
0.000000 0.430030 0.857420
0.187015 0.474556 0.863981
0.499702 0.579217 0.878294
0.692744 0.692683 0.896056
0.822660 0.793729 0.916960
0.901305 0.860136 0.936522
0.962463 0.902373 0.963043
0.000000 0.510826 0.860410
0.000000 0.511772 0.861448
0.000000 0.508812 0.860929
0.210697 0.514946 0.863554
0.607019 0.659358 0.884977
0.793606 0.781369 0.911620
0.902007 0.875090 0.938506
0.965118 0.917144 0.966491
0.000000 0.631312 0.873930
0.000000 0.629877 0.873045
0.000000 0.626795 0.871489
0.000000 0.624170 0.871244
0.394324 0.627283 0.873075
0.711788 0.745754 0.899931
0.898314 0.885283 0.941070
0.967773 0.933928 0.970153
0.000000 0.756008 0.894041
0.000000 0.755428 0.893553
0.000000 0.754299 0.892607
0.000000 0.755398 0.893278
0.368963 0.759335 0.894957
0.597833 0.773373 0.899626
0.833829 0.851469 0.926452
0.968170 0.949767 0.972168
0.000000 0.874907 0.918486
0.000000 0.874968 0.918303
0.000000 0.877134 0.919280
0.000000 0.882811 0.922667
0.374426 0.887877 0.924865
0.587945 0.893614 0.925963
0.768490 0.907256 0.930907
0.957641 0.959899 0.965759
