data/fiter_cube/23985691/1023001/file.cube
# Created by Adobe Lightroom plugin Export LUT (1.17.0)
# www.johnrellis.com/lightroom/exportlut.htm
# Preset: 日系风光建筑_02 云集
# Color profile: C:\Program Files (x86)\Common Files\Adobe\Color\Profiles\Recommended\AdobeRGB1998.icc
LUT_3D_SIZE 5
DOMAIN_MIN 0.000000 0.000000 0.000000
DOMAIN_MAX 0.903226 0.903226 0.903226
0.025574 0.052644 0.058198
0.132815 0.051179 0.059541
0.555627 0.000000 0.000000
0.861692 0.103853 0.000000
1.000000 0.345403 0.000000
0.025360 0.090455 0.072419
0.123171 0.128908 0.064179
0.576776 0.158053 0.000000
0.864012 0.257664 0.000000
1.000000 0.410529 0.000000
0.000000 0.218021 0.115785
0.087129 0.216800 0.129946
0.542626 0.496223 0.000000
0.880613 0.537011 0.000000
1.000000 0.570672 0.000000
0.000000 0.387640 0.170932
0.000000 0.378820 0.170748
0.143801 0.217472 0.155093
0.815518 0.759976 0.251926
1.000000 0.776852 0.286656
0.000000 0.675990 0.300542
0.000000 0.659754 0.285740
0.147280 0.556085 0.235386
0.340398 0.467048 0.240970
0.982971 0.939055 0.605219
0.014466 0.066743 0.112520
0.124758 0.085359 0.145296
0.528801 0.000000 0.126680
0.838682 0.129854 0.103273
1.000000 0.370611 0.125032
0.000000 0.118135 0.140932
0.135225 0.152560 0.167056
0.558495 0.160250 0.147738
0.844480 0.268681 0.115663
1.000000 0.428199 0.146456
0.000000 0.288792 0.186007
0.070588 0.303136 0.200229
0.540032 0.499611 0.223758
0.864439 0.539422 0.188846
1.000000 0.588952 0.232181
0.000000 0.454383 0.232578
0.000000 0.450874 0.233158
0.205295 0.313878 0.220127
0.810697 0.762936 0.388281
1.000000 0.786007 0.424201
0.000000 0.709407 0.350561
0.000000 0.695857 0.335851
0.173831 0.625605 0.297337
0.308232 0.428229 0.241733
0.979950 0.941131 0.655512
0.000000 0.104585 0.357275
0.089540 0.148348 0.402136
0.594659 0.341772 0.580743
0.812650 0.352880 0.505425
0.987549 0.504540 0.522332
0.000000 0.158419 0.371038
0.079225 0.209445 0.426612
0.590936 0.423682 0.585229
0.799283 0.387121 0.484810
0.989929 0.537774 0.529473
0.000000 0.363958 0.431556
0.000000 0.409094 0.464149
0.570520 0.564141 0.585107
0.818875 0.589410 0.561395
0.993469 0.649134 0.566033
0.000000 0.612146 0.473487
0.000000 0.637903 0.484474
0.392981 0.615442 0.492103
0.800351 0.778134 0.643519
0.992370 0.810086 0.658564
0.000000 0.800320 0.525811
0.000000 0.794430 0.513603
0.088563 0.752682 0.461830
0.335424 0.480781 0.306859
0.968811 0.941100 0.747036
0.000000 0.200076 0.642847
0.014282 0.258244 0.675166
0.591852 0.507774 0.749325
0.838254 0.704555 0.844388
0.957733 0.750637 0.851102
0.000000 0.236484 0.632685
0.000000 0.296605 0.670802
0.589532 0.532647 0.748043
0.834775 0.721309 0.843198
0.955200 0.750484 0.843870
0.000000 0.376135 0.637140
0.000000 0.396857 0.651637
0.520653 0.554711 0.729702
0.824338 0.761807 0.839078
0.951293 0.741207 0.807279
0.000000 0.619379 0.686122
0.000000 0.633875 0.694484
0.386175 0.686915 0.731411
0.806180 0.809964 0.830228
0.967620 0.819394 0.810697
0.000000 0.860441 0.755642
0.000000 0.866453 0.755123
0.000000 0.882719 0.752316
0.593133 0.823850 0.696925
0.958892 0.945983 0.856535
0.237644 0.432288 0.871122
0.401190 0.488991 0.876890
0.667750 0.645197 0.895476
0.860197 0.816434 0.924315
0.961059 0.885039 0.960296
0.109255 0.427893 0.864958
0.351141 0.485084 0.871733
0.654047 0.645899 0.892210
0.856199 0.816526 0.922759
0.960815 0.889830 0.960571
0.000000 0.453437 0.855283
0.000000 0.450080 0.854795
0.551873 0.616663 0.879667
0.838529 0.812680 0.919402
0.963378 0.908904 0.964416
0.000000 0.667048 0.881682
0.000000 0.664302 0.880064
0.263218 0.661830 0.879759
0.739864 0.769863 0.905211
0.967864 0.937621 0.970642
0.000000 0.874907 0.918486
0.000000 0.876249 0.918791
0.231785 0.886076 0.924498
0.632990 0.895872 0.926635
0.957641 0.959899 0.965759
