data/fiter_cube/46928955/1023411/file.cube
# Created by Adobe Lightroom plugin Export LUT (1.17.0)
# www.johnrellis.com/lightroom/exportlut.htm
# Preset: 室内干净明亮通透人像_04 云集
# Color profile: C:\Program Files (x86)\Common Files\Adobe\Color\Profiles\Recommended\AdobeRGB1998.icc
LUT_3D_SIZE 5
DOMAIN_MIN 0.000000 0.000000 0.000000
DOMAIN_MAX 0.903226 0.903226 0.903226
0.107637 0.020172 0.075471
0.248875 0.089723 0.094636
0.641474 0.148898 0.120150
0.858457 0.371740 0.277745
1.000000 0.612055 0.525841
0.100465 0.218662 0.147219
0.235843 0.253544 0.179477
0.622553 0.308782 0.141146
0.841306 0.436500 0.293095
1.000000 0.659052 0.553460
0.182162 0.558038 0.378393
0.383246 0.562463 0.395666
0.660883 0.649531 0.579767
0.821530 0.631464 0.443336
1.000000 0.741848 0.585718
0.486549 0.772152 0.639399
0.577844 0.773587 0.661463
0.713863 0.781003 0.730007
0.846830 0.852262 0.819730
1.000000 0.896391 0.780270
0.656001 0.970672 0.861662
0.700832 0.970916 0.865324
0.806332 0.965148 0.874693
0.939361 0.986145 0.937438
1.000000 0.999512 0.986725
0.100221 0.088563 0.156191
0.229038 0.142123 0.179355
0.631159 0.222385 0.197086
0.827909 0.384558 0.271397
1.000000 0.599268 0.505028
0.070130 0.237461 0.235386
0.273686 0.289067 0.248386
0.627008 0.350439 0.253117
0.819272 0.445777 0.310033
1.000000 0.636378 0.523369
0.121889 0.570153 0.443885
0.398718 0.574212 0.455695
0.643153 0.632929 0.582330
0.798428 0.610224 0.455116
1.000000 0.736019 0.577356
0.473610 0.774044 0.660182
0.570062 0.775570 0.677852
0.713741 0.783841 0.736721
0.845762 0.852262 0.827543
1.000000 0.891814 0.781888
0.640558 0.971862 0.868894
0.686549 0.971954 0.871153
0.820066 0.979156 0.893767
0.947143 0.992737 0.945739
1.000000 0.999725 0.993194
0.000000 0.186221 0.390509
0.193484 0.245396 0.394873
0.607111 0.366613 0.474525
0.833890 0.500420 0.534417
1.000000 0.629541 0.592615
0.000000 0.291630 0.463783
0.256565 0.341527 0.471168
0.623865 0.455634 0.519829
0.822110 0.549310 0.557183
1.000000 0.658076 0.607111
0.000000 0.551080 0.585504
0.335485 0.575921 0.592309
0.645167 0.636591 0.626032
0.799619 0.654505 0.609705
1.000000 0.741024 0.654078
0.366125 0.782956 0.736629
0.494057 0.778317 0.730922
0.700649 0.789059 0.756100
0.849973 0.858946 0.854551
1.000000 0.872496 0.777829
0.583581 0.972473 0.895933
0.631525 0.975921 0.896880
0.773037 0.983459 0.903349
0.940459 0.990021 0.950835
1.000000 0.999969 0.999786
0.000000 0.315343 0.639490
0.165469 0.346471 0.646235
0.569360 0.552270 0.648829
0.776913 0.601953 0.708248
1.000000 0.683864 0.789975
0.000000 0.387243 0.664149
0.265599 0.419959 0.667628
0.587884 0.578729 0.669642
0.778317 0.627314 0.720394
1.000000 0.698451 0.792111
0.000000 0.528954 0.711391
0.289067 0.546777 0.713313
0.607721 0.633783 0.726589
0.789761 0.698604 0.760281
1.000000 0.757809 0.808408
0.373999 0.738918 0.798154
0.461952 0.745449 0.797940
0.632136 0.774624 0.809537
0.826047 0.834073 0.850278
1.000000 0.853605 0.828214
0.504845 0.982513 0.952453
0.544121 0.986450 0.953521
0.675532 0.999634 0.953063
0.909209 1.000000 0.958221
1.000000 1.000000 1.000000
0.196689 0.480903 0.848997
0.332464 0.504662 0.848539
0.593347 0.619196 0.846860
0.765805 0.723873 0.860441
0.979583 0.762692 0.908659
0.235325 0.514611 0.853666
0.352453 0.533928 0.853361
0.589471 0.626276 0.852903
0.766598 0.736446 0.862181
0.981323 0.774472 0.911833
0.000000 0.550683 0.879179
0.120638 0.567773 0.876555
0.565759 0.656001 0.874815
0.779538 0.784237 0.878080
0.999664 0.820432 0.931884
0.237919 0.765133 0.933715
0.324712 0.764248 0.930632
0.499489 0.764004 0.926116
0.758755 0.808164 0.931670
1.000000 0.905303 0.964691
0.482033 0.962860 1.000000
0.512200 0.963684 1.000000
0.614405 0.974090 1.000000
0.793301 0.993683 1.000000
1.000000 1.000000 1.000000
