data/fiter_cube/46928955/1023411/file.cube
# Created by Adobe Lightroom plugin Export LUT (1.17.0)
# www.johnrellis.com/lightroom/exportlut.htm
# Preset: 室内干净明亮通透人像_04 云集
# Color profile: C:\Program Files (x86)\Common Files\Adobe\Color\Profiles\Recommended\AdobeRGB1998.icc
LUT_3D_SIZE 8
DOMAIN_MIN 0.000000 0.000000 0.000000
DOMAIN_MAX 0.903226 0.903226 0.903226
0.107637 0.020172 0.075471
0.141939 0.052461 0.083650
0.302983 0.093599 0.096223
0.543359 0.109255 0.105684
0.718288 0.206912 0.150729
0.833066 0.338872 0.248325
0.931975 0.468971 0.372961
1.000000 0.612055 0.525841
0.111971 0.106600 0.098543
0.132357 0.118990 0.108888
0.289494 0.158145 0.100862
0.520470 0.182071 0.109224
0.703151 0.246738 0.151369
0.812680 0.344518 0.236912
0.914000 0.464820 0.358251
1.000000 0.609277 0.515496
0.093507 0.263249 0.169192
0.150698 0.267338 0.166567
0.292668 0.306401 0.216190
0.522728 0.335698 0.150027
0.696040 0.365484 0.179049
0.807248 0.429084 0.266636
0.922972 0.542046 0.404730
1.000000 0.665766 0.553704
0.117617 0.463752 0.297490
0.211154 0.464393 0.299413
0.385016 0.466651 0.352941
0.586664 0.567773 0.470741
0.721340 0.576623 0.397681
0.803128 0.541283 0.323369
0.911315 0.617700 0.442359
1.000000 0.716548 0.576043
0.269627 0.637751 0.460456
0.334874 0.637140 0.465217
0.478676 0.637842 0.490272
0.614069 0.654231 0.580774
0.711086 0.706996 0.650813
0.799588 0.717311 0.595270
0.890929 0.715877 0.543359
1.000000 0.771267 0.599786
0.440436 0.741848 0.596612
0.488746 0.747982 0.613123
0.584192 0.747005 0.638819
0.661555 0.750759 0.672480
0.735897 0.776028 0.729061
0.818173 0.823667 0.788602
0.908995 0.847257 0.757931
1.000000 0.873838 0.740017
0.566827 0.848356 0.737026
0.586481 0.850401 0.741695
0.641474 0.849424 0.750057
0.707546 0.853574 0.764981
0.780362 0.854948 0.812009
0.852232 0.890105 0.854063
0.931426 0.930999 0.896635
1.000000 0.956939 0.882628
0.656001 0.970672 0.861662
0.669276 0.970397 0.862272
0.715938 0.971740 0.867643
0.796384 0.978027 0.886534
0.843656 0.967071 0.889067
0.921569 0.978271 0.929717
0.986419 1.000000 0.959411
1.000000 0.999512 0.986725
0.103517 0.051606 0.105806
0.133944 0.079622 0.108431
0.288121 0.120974 0.110872
0.515465 0.171145 0.112459
0.697688 0.238071 0.147829
0.805386 0.331090 0.227695
0.907103 0.448554 0.345251
1.000000 0.590600 0.499855
0.103243 0.114260 0.125521
0.140963 0.137331 0.129641
0.289769 0.176089 0.128450
0.509911 0.213779 0.124361
0.689570 0.270603 0.151186
0.795712 0.346746 0.226871
0.894469 0.450324 0.337011
1.000000 0.586725 0.488685
0.080232 0.271855 0.197726
0.164920 0.281651 0.200076
0.301122 0.315312 0.242679
0.513817 0.335637 0.182406
0.679164 0.365301 0.185519
0.787991 0.418799 0.249760
0.894133 0.511498 0.368261
1.000000 0.638697 0.521965
0.109499 0.458534 0.313848
0.210727 0.462837 0.317174
0.387274 0.468635 0.362676
0.558709 0.541070 0.453132
0.691310 0.543206 0.371984
0.774777 0.514031 0.306615
0.881010 0.582605 0.400824
1.000000 0.690669 0.545861
0.268833 0.635889 0.472694
0.329900 0.633845 0.474159
0.476692 0.631373 0.495399
0.600549 0.640040 0.568719
0.694362 0.688808 0.634730
0.783749 0.699916 0.580713
0.874723 0.698146 0.529473
1.000000 0.755947 0.582269
0.426856 0.734493 0.593713
0.464759 0.734157 0.599695
0.565972 0.733150 0.624506
0.650202 0.739132 0.660609
0.727718 0.766812 0.721492
0.812924 0.818753 0.785946
0.901884 0.840665 0.753109
1.000000 0.863645 0.729763
0.551171 0.835386 0.724849
0.568048 0.833494 0.724849
0.625360 0.834470 0.735012
0.698146 0.842313 0.756039
0.772824 0.847868 0.804868
0.843565 0.881804 0.847532
0.920348 0.921172 0.888853
1.000000 0.945464 0.871824
0.643397 0.961395 0.855039
0.658045 0.962707 0.857023
0.705592 0.965057 0.862882
0.786740 0.972442 0.881834
0.852445 0.976593 0.897642
0.925597 0.981689 0.933532
0.985931 1.000000 0.958495
1.000000 0.999420 0.984100
0.093690 0.101961 0.183658
0.122255 0.119326 0.180240
0.283207 0.168185 0.214450
0.555352 0.184054 0.226108
0.714717 0.291081 0.255131
0.811856 0.388708 0.304784
0.914488 0.484260 0.368139
1.000000 0.613519 0.519158
0.086213 0.152621 0.219333
0.135500 0.170016 0.218631
0.301274 0.215091 0.235721
0.544762 0.243229 0.241764
0.704067 0.321386 0.266667
0.802701 0.400702 0.308110
0.904814 0.488106 0.365026
1.000000 0.616297 0.515587
0.000702 0.284398 0.283665
0.135714 0.302098 0.288487
0.337469 0.344945 0.301640
0.545220 0.373663 0.299443
0.697658 0.417060 0.318914
0.795773 0.465797 0.349676
0.898222 0.537713 0.402106
1.000000 0.649805 0.530632
0.000000 0.491096 0.412543
0.152163 0.499825 0.410681
0.415778 0.509758 0.423957
0.579400 0.565728 0.515312
0.692836 0.552972 0.433265
0.782895 0.553765 0.414313
0.889250 0.612970 0.464851
1.000000 0.704524 0.559503
0.216770 0.646204 0.523186
0.303990 0.646967 0.524773
0.491951 0.646235 0.545190
0.616785 0.652583 0.605493
0.705928 0.704402 0.668849
0.785763 0.705684 0.608331
0.874449 0.699641 0.554589
1.000000 0.763180 0.596826
0.407446 0.740597 0.621942
0.453071 0.740414 0.627253
0.559716 0.739101 0.644831
0.648768 0.743771 0.670741
0.727169 0.765866 0.731380
0.810880 0.817960 0.794278
0.898131 0.837064 0.758419
1.000000 0.863340 0.738094
0.542199 0.842802 0.746731
0.561456 0.841825 0.747280
0.618433 0.840635 0.751797
0.700954 0.844724 0.772427
0.771695 0.850553 0.808652
0.845853 0.884092 0.855436
0.928801 0.929290 0.900969
1.000000 0.955169 0.884825
0.628779 0.964813 0.864897
0.640589 0.963470 0.863859
0.688136 0.964050 0.866697
0.774166 0.974548 0.885008
0.846708 0.979339 0.898802
0.927398 0.983520 0.937896
0.986847 1.000000 0.964324
1.000000 0.999603 0.990814
0.000000 0.153964 0.312139
0.061860 0.161501 0.317082
0.251774 0.263157 0.311742
0.509361 0.288029 0.379522
0.715267 0.349859 0.417884
0.809781 0.438239 0.443183
0.905180 0.520714 0.482368
1.000000 0.612909 0.535637
0.000000 0.206882 0.353704
0.098482 0.216770 0.354833
0.281926 0.296788 0.343908
0.525811 0.327520 0.403021
0.715785 0.383581 0.433661
0.803922 0.456489 0.451514
0.899535 0.530449 0.486458
1.000000 0.619074 0.537743
0.000000 0.305547 0.410071
0.081300 0.317784 0.416083
0.328893 0.367559 0.423255
0.557366 0.426337 0.458289
0.705715 0.476509 0.477577
0.800015 0.529656 0.499306
0.907073 0.594781 0.536248
1.000000 0.665034 0.573388
0.000000 0.475410 0.500359
0.137270 0.486305 0.503868
0.375219 0.521477 0.515496
0.581689 0.566247 0.543816
0.686702 0.567651 0.522576
0.781521 0.596582 0.536522
0.888609 0.643854 0.563134
1.000000 0.713344 0.606561
0.092958 0.664057 0.619287
0.214115 0.664942 0.617487
0.442420 0.663600 0.607019
0.622858 0.668299 0.634211
0.713252 0.716060 0.703670
0.783505 0.703334 0.635554
0.878996 0.710201 0.608301
1.000000 0.773068 0.650324
0.362646 0.756558 0.683467
0.422278 0.760739 0.690394
0.540368 0.757198 0.692164
0.657954 0.761166 0.712398
0.738216 0.778317 0.761990
0.821134 0.830228 0.821103
0.901305 0.837644 0.773617
1.000000 0.857450 0.743648
0.510826 0.850004 0.778714
0.534417 0.851072 0.780606
0.599786 0.853819 0.785031
0.690822 0.859556 0.798154
0.777096 0.868101 0.826108
0.856321 0.894682 0.874235
0.938262 0.938476 0.916136
1.000000 0.958740 0.893156
0.609735 0.977111 0.889769
0.623957 0.978058 0.890196
0.668177 0.978454 0.889555
0.746731 0.981140 0.894194
0.846128 0.985595 0.911223
0.928161 0.988586 0.942931
0.988037 1.000000 0.972107
1.000000 0.999969 0.999390
0.000000 0.220340 0.467109
0.000000 0.228611 0.471382
0.242100 0.294774 0.473915
0.458473 0.391211 0.500786
0.668544 0.445808 0.551537
0.795499 0.514763 0.589593
0.909789 0.580865 0.622156
1.000000 0.644465 0.649622
0.000000 0.265660 0.492897
0.000000 0.272862 0.497200
0.266056 0.323735 0.497749
0.475959 0.419898 0.516533
0.669917 0.467811 0.561486
0.796139 0.532158 0.599054
0.908232 0.591730 0.627008
1.000000 0.651606 0.652216
0.000000 0.336309 0.537621
0.001007 0.354772 0.544762
0.322179 0.402777 0.552697
0.519738 0.497536 0.555566
0.674037 0.530480 0.591699
0.794430 0.575067 0.619318
0.898344 0.620325 0.636225
1.000000 0.670649 0.655299
0.000000 0.469032 0.593866
0.110994 0.477028 0.595819
0.344091 0.506859 0.604639
0.567315 0.573968 0.616815
0.690211 0.612482 0.640162
0.788876 0.637476 0.648280
0.892302 0.667659 0.656153
1.000000 0.709529 0.668696
0.183719 0.610925 0.652247
0.257206 0.617029 0.654200
0.422370 0.635492 0.659113
0.585901 0.669551 0.675624
0.696498 0.694911 0.693751
0.771847 0.688716 0.663905
0.880217 0.718257 0.674372
1.000000 0.766598 0.698085
0.306340 0.744686 0.731136
0.349187 0.748592 0.734401
0.465156 0.751247 0.734768
0.603418 0.754635 0.731289
0.716640 0.764920 0.754177
0.812985 0.823850 0.828397
0.891691 0.818570 0.770260
1.000000 0.839322 0.746639
0.446143 0.854734 0.821775
0.472938 0.853666 0.820005
0.547936 0.853300 0.816831
0.644862 0.857969 0.817288
0.755795 0.867552 0.833494
0.848905 0.889921 0.879942
0.938872 0.939910 0.925689
1.000000 0.950744 0.890837
0.558404 0.975189 0.910491
0.572564 0.974853 0.909422
0.619104 0.974884 0.906767
0.700771 0.985443 0.911131
0.804471 0.988525 0.915557
0.913390 0.993988 0.940734
0.986999 1.000000 0.976410
1.000000 1.000000 1.000000
0.000000 0.300450 0.616571
0.000000 0.308293 0.618402
0.236454 0.351873 0.623774
0.486030 0.477028 0.626093
0.627588 0.526146 0.654292
0.757656 0.580682 0.682704
0.890623 0.627283 0.729549
1.000000 0.676600 0.768795
0.000000 0.329046 0.621912
0.000000 0.335546 0.623590
0.250767 0.367559 0.627558
0.488991 0.483375 0.628046
0.627466 0.536980 0.654536
0.755856 0.587579 0.684291
0.889128 0.632929 0.730678
1.000000 0.680720 0.768765
0.000000 0.395148 0.654322
0.123964 0.407599 0.654994
0.331548 0.444678 0.657923
0.522393 0.528862 0.658869
0.643885 0.589563 0.676112
0.762417 0.622309 0.705165
0.894957 0.661189 0.746242
1.000000 0.706538 0.779660
0.000000 0.479866 0.684474
0.112154 0.485206 0.684169
0.325597 0.509239 0.687800
0.556451 0.590021 0.702449
0.673426 0.659602 0.717189
0.780758 0.679164 0.744961
0.912505 0.709346 0.775204
1.000000 0.742855 0.791135
0.189151 0.595453 0.719387
0.251164 0.600824 0.720546
0.396033 0.619196 0.724239
0.551476 0.650568 0.731807
0.684443 0.699062 0.746365
0.789517 0.727504 0.770443
0.902251 0.749569 0.781064
1.000000 0.776669 0.788266
0.338354 0.709133 0.764797
0.377874 0.714260 0.767758
0.477394 0.725490 0.771328
0.585992 0.743801 0.778622
0.685634 0.774838 0.796719
0.798611 0.806729 0.822049
0.889677 0.801236 0.791348
1.000000 0.839750 0.808225
0.451545 0.840665 0.850919
0.472145 0.844968 0.854276
0.525872 0.855039 0.860868
0.600610 0.869383 0.868894
0.707851 0.878843 0.867277
0.836790 0.893278 0.886046
0.948608 0.949371 0.943664
1.000000 0.939422 0.894072
0.506828 0.984283 0.946990
0.518273 0.984466 0.946593
0.558587 0.986572 0.945830
0.640497 0.991150 0.942626
0.745357 0.995850 0.937926
0.881865 1.000000 0.946136
0.987243 1.000000 0.984558
1.000000 1.000000 1.000000
0.000000 0.379767 0.727687
0.000000 0.389532 0.730831
0.277317 0.421088 0.732876
0.493294 0.516014 0.734218
0.640894 0.631800 0.733272
0.739040 0.630793 0.777554
0.849638 0.669276 0.794980
1.000000 0.715541 0.849821
0.000000 0.395117 0.725948
0.104921 0.403449 0.728603
0.289189 0.431922 0.730922
0.490150 0.516655 0.731106
0.637476 0.629023 0.730007
0.732845 0.630365 0.770687
0.841581 0.666682 0.787564
0.995972 0.711604 0.842527
0.060426 0.444373 0.746761
0.191012 0.457130 0.747372
0.345434 0.485756 0.748165
0.508080 0.547509 0.749416
0.647456 0.644770 0.748653
0.738003 0.658015 0.781369
0.850767 0.691859 0.804196
1.000000 0.735378 0.856748
0.000000 0.489448 0.771328
0.000000 0.497230 0.770321
0.331762 0.533104 0.770932
0.530541 0.596826 0.776638
0.659113 0.669093 0.780545
0.749813 0.704707 0.803342
0.866972 0.731716 0.830381
1.000000 0.768002 0.872648
0.114473 0.594476 0.797269
0.185122 0.596246 0.795743
0.326207 0.605768 0.793668
0.476112 0.625391 0.793576
0.644831 0.684535 0.804440
0.756466 0.749844 0.820981
0.874388 0.768734 0.848081
1.000000 0.806119 0.886076
0.296941 0.707942 0.834318
0.329747 0.710475 0.834470
0.421851 0.719051 0.835050
0.528954 0.732815 0.837675
0.631525 0.748043 0.841489
0.773281 0.797513 0.859190
0.905425 0.833982 0.886076
1.000000 0.861357 0.901457
0.432959 0.818814 0.880980
0.452461 0.821500 0.882353
0.506371 0.827024 0.883909
0.579217 0.837461 0.887602
0.668940 0.852262 0.891966
0.782315 0.884550 0.906889
0.924987 0.925231 0.932525
1.000000 0.915953 0.906371
0.508415 0.946929 0.950469
0.518669 0.949432 0.951751
0.556573 0.963104 0.959686
0.612207 0.980987 0.968444
0.688411 1.000000 0.978149
0.811612 1.000000 0.976165
0.978820 1.000000 0.987518
1.000000 1.000000 1.000000
0.196689 0.480903 0.848997
0.247990 0.489113 0.850248
0.365972 0.513207 0.848173
0.520806 0.576654 0.847654
0.653620 0.661158 0.845609
0.745418 0.724605 0.852567
0.859312 0.726528 0.894743
0.979583 0.762692 0.908659
0.206699 0.488808 0.847471
0.254826 0.496407 0.848692
0.369512 0.519829 0.847562
0.516777 0.576745 0.846372
0.650843 0.660304 0.844663
0.743984 0.726253 0.850950
0.855589 0.726986 0.892210
0.976745 0.763485 0.907134
0.207645 0.515526 0.854215
0.275700 0.527672 0.854429
0.381811 0.545953 0.851896
0.516320 0.592004 0.856168
0.650141 0.667659 0.853941
0.748745 0.741665 0.855711
0.856992 0.741054 0.896147
0.981201 0.777707 0.912383
0.000000 0.530449 0.869932
0.000000 0.540887 0.870726
0.340429 0.575219 0.868528
0.517876 0.624628 0.869566
0.641382 0.677729 0.870787
0.759976 0.766323 0.870848
0.863676 0.769680 0.907012
0.994934 0.805753 0.925902
0.000000 0.607446 0.891325
0.000000 0.609430 0.892027
0.156283 0.609308 0.888914
0.409125 0.632654 0.885588
0.613886 0.692103 0.886870
0.752132 0.768521 0.890043
0.862486 0.807034 0.914549
1.000000 0.838865 0.939788
0.161654 0.728450 0.920714
0.203403 0.727626 0.919249
0.304326 0.726680 0.915831
0.421027 0.727108 0.912505
0.534997 0.725795 0.909758
0.723995 0.780056 0.919890
0.886900 0.873045 0.942779
1.000000 0.890929 0.960967
0.367651 0.852354 0.960571
0.383551 0.852201 0.959960
0.432593 0.852445 0.958892
0.504601 0.855619 0.959716
0.593561 0.860807 0.961822
0.703182 0.866331 0.963439
0.883299 0.905180 0.966705
1.000000 0.960754 0.982208
0.482033 0.962860 1.000000
0.490761 0.962768 1.000000
0.522423 0.964477 1.000000
0.578302 0.970153 1.000000
0.655818 0.978576 1.000000
0.760342 0.990997 1.000000
0.913848 1.000000 1.000000
1.000000 1.000000 1.000000
