data/fiter_cube/46928955/1023411/file.cube
# Created by Adobe Lightroom plugin Export LUT (1.17.0)
# www.johnrellis.com/lightroom/exportlut.htm
# Preset: 室内干净明亮通透人像_04 云集
# Color profile: C:\Program Files (x86)\Common Files\Adobe\Color\Profiles\Recommended\AdobeRGB1998.icc
LUT_3D_SIZE 32
DOMAIN_MIN 0.0 0.0 0.0
DOMAIN_MAX 1.0 1.0 1.0
0.107637 0.020172 0.075471
0.107637 0.020172 0.075471
0.111757 0.021393 0.076265
0.124941 0.025696 0.078553
0.141939 0.052461 0.083650
0.166690 0.071138 0.088716
0.202487 0.082277 0.092073
0.248875 0.089723 0.094636
0.302983 0.093599 0.096223
0.362005 0.096010 0.097597
0.424018 0.096315 0.099458
0.485451 0.100374 0.101869
0.543359 0.109255 0.105684
0.595972 0.126467 0.111727
0.641474 0.148898 0.120150
0.678920 0.174014 0.131655
0.718288 0.206912 0.150729
0.751522 0.241550 0.172885
0.780148 0.273777 0.195773
0.807065 0.306157 0.221195
0.833066 0.338872 0.248325
0.858457 0.371740 0.277745
0.882963 0.404181 0.308202
0.907347 0.436591 0.339910
0.931975 0.468971 0.372961
0.957671 0.502312 0.407630
0.985260 0.537316 0.444495
1.000000 0.574212 0.484108
1.000000 0.612055 0.525841
1.000000 0.648829 0.567803
1.000000 0.678279 0.611353
1.000000 0.688624 0.630823
0.107637 0.020172 0.075471
0.107637 0.020172 0.075471
0.111757 0.021393 0.076265
0.124483 0.047059 0.079683
0.141451 0.067384 0.085389
0.165835 0.080964 0.089784
0.201053 0.091066 0.092866
0.246342 0.098146 0.095186
0.299321 0.102907 0.096834
0.357794 0.105226 0.098085
0.419135 0.106722 0.099794
0.479805 0.110597 0.101961
0.537469 0.119326 0.105867
0.590234 0.134218 0.111208
0.636164 0.154177 0.119661
0.674189 0.177859 0.130861
0.713466 0.209049 0.148898
0.745937 0.240787 0.169741
0.774136 0.271244 0.192081
0.800839 0.302281 0.216068
0.826688 0.333959 0.242252
0.851987 0.366033 0.271122
0.876524 0.397864 0.300999
0.900938 0.429816 0.332280
0.925597 0.462196 0.365057
0.951354 0.495583 0.399817
0.979095 0.530724 0.437018
1.000000 0.567926 0.476875
1.000000 0.606500 0.519127
1.000000 0.644007 0.561700
1.000000 0.675196 0.605280
1.000000 0.689387 0.631220
0.108064 0.034913 0.077089
0.108278 0.041657 0.077882
0.110597 0.050141 0.080171
0.124239 0.068452 0.082155
0.140841 0.080781 0.087678
0.165072 0.092164 0.091127
0.199680 0.101228 0.093660
0.244022 0.108339 0.095766
0.296269 0.113710 0.097139
0.354101 0.116518 0.098451
0.414893 0.119203 0.099947
0.475715 0.122988 0.102632
0.533349 0.131075 0.105928
0.586114 0.144930 0.111727
0.632410 0.163485 0.119692
0.671015 0.184634 0.130648
0.710475 0.214389 0.148257
0.742458 0.244022 0.168856
0.770413 0.273045 0.190341
0.797024 0.302892 0.214023
0.823026 0.333684 0.239994
0.848386 0.365057 0.268040
0.872984 0.396582 0.297917
0.897429 0.428138 0.329168
0.922087 0.460182 0.361486
0.947845 0.493202 0.396002
0.975647 0.528344 0.433234
1.000000 0.565606 0.473243
1.000000 0.604364 0.515831
1.000000 0.642298 0.558740
1.000000 0.674250 0.602411
1.000000 0.690394 0.631617
0.110536 0.078737 0.086458
0.110750 0.080751 0.087160
0.114412 0.080751 0.090150
0.120302 0.087831 0.095033
0.139498 0.103365 0.093263
0.164889 0.112154 0.093843
0.199191 0.120851 0.095888
0.243076 0.128084 0.097322
0.294224 0.133608 0.098421
0.351263 0.137484 0.099947
0.411048 0.141238 0.101411
0.471015 0.146365 0.103822
0.528313 0.153841 0.107332
0.580987 0.165957 0.112703
0.627741 0.181369 0.120851
0.666804 0.200320 0.131655
0.706844 0.227085 0.149172
0.737911 0.253330 0.168460
0.765133 0.279393 0.188907
0.791165 0.306615 0.211246
0.816739 0.335332 0.236393
0.841947 0.365179 0.263737
0.866941 0.395911 0.293187
0.892149 0.427649 0.324926
0.917937 0.460609 0.358892
0.944884 0.494789 0.394842
0.973663 0.530755 0.433204
1.000000 0.568444 0.473854
1.000000 0.607111 0.516503
1.000000 0.644465 0.559136
1.000000 0.675959 0.602075
1.000000 0.692592 0.632593
0.111971 0.106600 0.098543
0.112551 0.107698 0.098695
0.116091 0.108034 0.098543
0.123049 0.108736 0.103548
0.132357 0.118990 0.108888
0.160342 0.137911 0.104555
0.197024 0.144289 0.098543
0.239658 0.151980 0.099825
0.289494 0.158145 0.100862
0.344976 0.164096 0.101717
0.403754 0.169009 0.103182
0.463142 0.174868 0.105531
0.520470 0.182071 0.109224
0.573510 0.192752 0.114656
0.621118 0.206058 0.122621
0.663996 0.223819 0.134524
0.703151 0.246738 0.151369
0.734188 0.269749 0.170382
0.761440 0.293339 0.190372
0.787381 0.318120 0.212314
0.812680 0.344518 0.236912
0.837736 0.372625 0.263584
0.862669 0.401831 0.292638
0.887968 0.432685 0.324468
0.914000 0.464820 0.358251
0.941283 0.498482 0.394018
0.970214 0.534051 0.432563
1.000000 0.571130 0.473152
1.000000 0.609277 0.515496
1.000000 0.646296 0.558038
1.000000 0.678004 0.600671
1.000000 0.696010 0.634119
0.110658 0.137148 0.111238
0.112001 0.138247 0.111299
0.117464 0.139284 0.111879
0.125399 0.138308 0.113252
0.136294 0.142611 0.119356
0.151553 0.154635 0.124727
0.192386 0.177310 0.118288
0.238529 0.184268 0.109285
0.287297 0.186954 0.103517
0.341894 0.193729 0.104402
0.399695 0.200229 0.106050
0.458381 0.206607 0.108217
0.515251 0.214023 0.112154
0.568353 0.223484 0.117830
0.616358 0.235203 0.126040
0.662104 0.252201 0.138521
0.700252 0.271763 0.155276
0.731167 0.291661 0.174197
0.758541 0.312688 0.194156
0.784817 0.335546 0.216403
0.810513 0.360388 0.241062
0.836088 0.387091 0.268193
0.897246 0.464240 0.345983
0.922728 0.494423 0.379187
0.948638 0.524895 0.413031
0.975494 0.556146 0.447883
1.000000 0.588251 0.483833
1.000000 0.620966 0.521294
1.000000 0.652918 0.558709
1.000000 0.681910 0.596155
1.000000 0.702815 0.636011
1.000000 0.700649 0.636255
0.105348 0.178408 0.129122
0.109773 0.179477 0.128695
0.115938 0.180453 0.128634
0.126894 0.181674 0.127657
0.144259 0.179294 0.136385
0.162539 0.189639 0.142336
0.190005 0.205509 0.150515
0.246128 0.230045 0.139559
0.301671 0.237003 0.125795
0.355657 0.237369 0.114961
0.411139 0.239353 0.110811
0.469978 0.246372 0.113710
0.525719 0.254154 0.118593
0.577417 0.263066 0.125032
0.625177 0.274296 0.134218
0.671534 0.291661 0.149691
0.707515 0.308415 0.167025
0.737301 0.325841 0.186496
0.764797 0.345251 0.207614
0.792111 0.367651 0.231846
0.819974 0.393805 0.260166
0.848692 0.423407 0.292149
0.877867 0.455848 0.327916
0.907439 0.489815 0.366003
0.937102 0.524163 0.404578
0.966369 0.557488 0.442481
0.995972 0.590600 0.480201
1.000000 0.623407 0.518181
1.000000 0.655268 0.555810
1.000000 0.685115 0.592615
1.000000 0.705196 0.632410
1.000000 0.706325 0.638880
0.100465 0.218662 0.147219
0.105470 0.219364 0.146731
0.112703 0.220493 0.146304
0.129305 0.222385 0.147250
0.146639 0.221256 0.147738
0.171511 0.222049 0.160708
0.198672 0.235325 0.168185
0.235843 0.253544 0.179477
0.300542 0.279301 0.168215
0.359289 0.286229 0.148989
0.414588 0.286687 0.134646
0.464851 0.282811 0.122896
0.517662 0.286900 0.123629
0.569360 0.295171 0.130159
0.622553 0.308782 0.141146
0.666194 0.322515 0.155673
0.701198 0.335882 0.172000
0.730617 0.350011 0.190463
0.757931 0.366400 0.211093
0.785153 0.385901 0.234379
0.812833 0.409369 0.261845
0.841306 0.436500 0.293095
0.870329 0.466468 0.327947
0.899626 0.498329 0.364965
0.929168 0.530846 0.402899
0.958526 0.563073 0.440284
0.988373 0.595178 0.477790
1.000000 0.627405 0.515618
1.000000 0.659052 0.553460
1.000000 0.688716 0.590539
1.000000 0.709285 0.630030
1.000000 0.713039 0.642023
0.093507 0.263249 0.169192
0.100099 0.264103 0.168612
0.109651 0.265049 0.168063
0.129397 0.266728 0.168673
0.150698 0.267338 0.166567
0.182650 0.264652 0.178775
0.212772 0.271244 0.191470
0.247623 0.286320 0.201480
0.292668 0.306401 0.216190
0.363348 0.333562 0.206943
0.423316 0.340002 0.184237
0.476204 0.339666 0.165591
0.522728 0.335698 0.150027
0.568688 0.331823 0.138857
0.619898 0.343877 0.149355
0.661616 0.354833 0.163272
0.696040 0.365484 0.179049
0.725277 0.377081 0.196994
0.752468 0.390784 0.216892
0.779660 0.408057 0.239811
0.807248 0.429084 0.266636
0.835569 0.453773 0.297551
0.864378 0.481453 0.331426
0.893553 0.511254 0.367651
0.922972 0.542046 0.404730
0.952392 0.572839 0.441749
0.982422 0.603815 0.478767
1.000000 0.635096 0.516350
1.000000 0.665766 0.553704
1.000000 0.694728 0.590326
1.000000 0.715114 0.629053
1.000000 0.720760 0.645686
0.088014 0.310399 0.194308
0.096529 0.311009 0.194125
0.107729 0.311559 0.193606
0.131746 0.313054 0.193912
0.162539 0.314336 0.194797
0.190982 0.312810 0.196963
0.230167 0.309941 0.217044
0.264439 0.322820 0.228000
0.305272 0.339330 0.241001
0.355657 0.360876 0.259281
0.427466 0.388312 0.252781
0.484474 0.393530 0.226261
0.538811 0.396796 0.209018
0.585595 0.395972 0.192386
0.623957 0.391211 0.177462
0.657282 0.387274 0.171908
0.692164 0.396796 0.188083
0.721859 0.406836 0.206363
0.749203 0.418952 0.226566
0.776120 0.433875 0.248966
0.803067 0.452155 0.274876
0.830289 0.473487 0.303746
0.857877 0.497597 0.335607
0.885893 0.523857 0.369238
0.914519 0.551965 0.404700
0.943816 0.581048 0.440894
0.974243 0.611200 0.477821
1.000000 0.642329 0.515892
1.000000 0.673091 0.553857
1.000000 0.702296 0.591241
1.000000 0.722957 0.630335
1.000000 0.729366 0.649805
0.085817 0.356420 0.222049
0.096681 0.357153 0.221744
0.110628 0.357794 0.221408
0.137087 0.359228 0.222080
0.175296 0.360998 0.225437
0.202426 0.361212 0.222232
0.245274 0.359258 0.238071
0.285313 0.361303 0.258335
0.324804 0.376928 0.271763
0.369848 0.394659 0.287785
0.423713 0.418372 0.311101
0.498878 0.450996 0.312932
0.553765 0.457893 0.284825
0.598596 0.457313 0.263340
0.634607 0.452003 0.243626
0.664332 0.444099 0.225223
0.689509 0.434058 0.209812
0.715389 0.434180 0.214145
0.742855 0.444221 0.233585
0.769802 0.457221 0.255924
0.796841 0.473610 0.281285
0.824216 0.493172 0.309941
0.851957 0.515679 0.341253
0.880095 0.540490 0.374884
0.908782 0.566949 0.409583
0.938048 0.594415 0.444984
0.968444 0.623102 0.481331
1.000000 0.652735 0.518456
1.000000 0.682216 0.555627
1.000000 0.710384 0.592187
1.000000 0.731106 0.630793
1.000000 0.738766 0.654383
0.093843 0.404334 0.253574
0.105470 0.404974 0.253696
0.120668 0.405554 0.253696
0.148959 0.406806 0.254215
0.188113 0.408545 0.257206
0.225010 0.409644 0.258640
0.259525 0.409461 0.263005
0.307378 0.407263 0.286748
0.347997 0.415808 0.306035
0.392950 0.434638 0.324498
0.445106 0.458167 0.348760
0.501549 0.486061 0.379339
0.603388 0.552697 0.425605
0.643397 0.552697 0.391699
0.674128 0.545922 0.365454
0.699458 0.535271 0.340185
0.721828 0.523522 0.316197
0.742336 0.511833 0.294011
0.761532 0.500023 0.276097
0.786435 0.508537 0.293492
0.812467 0.523064 0.318761
0.838712 0.540520 0.346807
0.865232 0.560143 0.376623
0.892515 0.582208 0.408179
0.920653 0.605890 0.440833
0.949706 0.630976 0.474372
0.979919 0.656916 0.508568
1.000000 0.682887 0.542535
1.000000 0.708339 0.576074
1.000000 0.733089 0.609857
1.000000 0.747616 0.647425
1.000000 0.748867 0.659449
0.117617 0.463752 0.297490
0.129427 0.464027 0.297429
0.144167 0.463874 0.297093
0.172183 0.464027 0.297368
0.211154 0.464393 0.299413
0.257176 0.464485 0.305028
0.284672 0.464240 0.300847
0.332982 0.463203 0.319982
0.385016 0.466651 0.352941
0.431983 0.487190 0.376623
0.482460 0.511315 0.403326
0.534356 0.537774 0.433356
0.586664 0.567773 0.470741
0.636927 0.593194 0.481239
0.671168 0.592981 0.449500
0.698146 0.586572 0.423682
0.721340 0.576623 0.397681
0.742184 0.565332 0.372290
0.762020 0.554498 0.349310
0.781979 0.545281 0.329595
0.803128 0.541283 0.323369
0.829465 0.557092 0.350652
0.855985 0.575097 0.379675
0.883238 0.595483 0.410376
0.911315 0.617700 0.442359
0.940368 0.641505 0.475380
0.970794 0.666285 0.508873
1.000000 0.691524 0.542565
1.000000 0.716548 0.576043
1.000000 0.741115 0.609766
1.000000 0.756435 0.647150
1.000000 0.759548 0.664881
0.143923 0.507286 0.333074
0.155062 0.507530 0.333165
0.168185 0.507439 0.333074
0.193881 0.507591 0.333715
0.232029 0.508690 0.336400
0.279301 0.511223 0.344091
0.318059 0.513878 0.347204
0.356481 0.516167 0.355627
0.409979 0.517327 0.385107
0.456519 0.524498 0.415625
0.500725 0.545220 0.439521
0.545892 0.567559 0.466651
0.588525 0.589502 0.495796
0.628748 0.612909 0.529717
0.667048 0.632410 0.539086
0.695552 0.630823 0.506737
0.719387 0.623835 0.478004
0.740597 0.614496 0.451759
0.760739 0.604486 0.427008
0.780880 0.595727 0.405066
0.801724 0.588769 0.386023
0.822812 0.582971 0.371862
0.847501 0.591180 0.384405
0.875029 0.610559 0.414923
0.903349 0.631739 0.446662
0.932708 0.654536 0.479225
0.963500 0.678431 0.512322
0.996338 0.702876 0.545617
1.000000 0.727321 0.578637
1.000000 0.751492 0.612238
1.000000 0.766995 0.649592
1.000000 0.770748 0.670680
0.182162 0.558038 0.378393
0.192325 0.558587 0.378943
0.203891 0.558709 0.379278
0.229129 0.559167 0.380316
0.264530 0.559533 0.382879
0.308263 0.559991 0.388312
0.353246 0.560876 0.395789
0.383246 0.562463 0.395666
0.430579 0.563226 0.416907
0.478584 0.564691 0.448035
0.519219 0.576440 0.474983
0.558373 0.594690 0.499641
0.595605 0.612940 0.525750
0.629175 0.630457 0.551568
0.660883 0.649531 0.579767
0.692958 0.666163 0.586816
0.717708 0.664729 0.556909
0.739254 0.658381 0.528740
0.759457 0.650660 0.503807
0.779568 0.642969 0.480995
0.800137 0.636378 0.460914
0.821530 0.631464 0.443336
0.843473 0.627680 0.428931
0.866575 0.625269 0.419471
0.895262 0.645716 0.451026
0.925322 0.668177 0.483894
0.957336 0.692164 0.517815
0.991913 0.716945 0.551690
1.000000 0.741848 0.585718
1.000000 0.766476 0.619989
1.000000 0.780850 0.659022
1.000000 0.782345 0.676875
0.226200 0.603265 0.422553
0.234714 0.603815 0.423499
0.245396 0.603967 0.423896
0.268040 0.604150 0.425360
0.300999 0.604242 0.428016
0.341558 0.604395 0.433448
0.388556 0.604852 0.443244
0.421180 0.606104 0.446021
0.455695 0.607416 0.455116
0.502251 0.607355 0.482887
0.541985 0.608331 0.513451
0.574578 0.621332 0.534722
0.605127 0.635248 0.555474
0.633509 0.649042 0.575921
0.659815 0.662867 0.595361
0.686763 0.679225 0.617670
0.715511 0.694514 0.624079
0.738064 0.693996 0.597620
0.758907 0.689906 0.572930
0.779263 0.685573 0.552972
0.800076 0.681392 0.534539
0.821561 0.677852 0.517784
0.843961 0.675410 0.502495
0.867735 0.674678 0.489815
0.892515 0.674281 0.480934
0.921569 0.686152 0.493782
0.954559 0.709651 0.527428
0.990112 0.733761 0.561028
1.000000 0.757870 0.594171
1.000000 0.781552 0.627710
1.000000 0.793912 0.666529
1.000000 0.794247 0.683284
0.269627 0.637751 0.460456
0.276524 0.637873 0.460883
0.286015 0.637659 0.461280
0.305791 0.637415 0.462501
0.334874 0.637140 0.465217
0.371099 0.636744 0.470253
0.413489 0.636408 0.478737
0.451575 0.636652 0.486732
0.478676 0.637842 0.490272
0.517510 0.637781 0.509911
0.555962 0.638025 0.537133
0.587274 0.641993 0.562615
0.614069 0.654231 0.580774
0.639551 0.666865 0.598505
0.663691 0.679530 0.615625
0.686549 0.691951 0.631556
0.711086 0.706996 0.650813
0.737636 0.721370 0.657740
0.758938 0.721828 0.634089
0.779324 0.719478 0.612146
0.799588 0.717311 0.595270
0.820493 0.715267 0.579828
0.842313 0.713954 0.565820
0.865660 0.714046 0.553582
0.890929 0.715877 0.543359
0.917876 0.718441 0.537255
0.948333 0.723171 0.533196
0.984985 0.747097 0.566522
1.000000 0.771267 0.599786
1.000000 0.795102 0.633631
1.000000 0.806821 0.673243
1.000000 0.806332 0.689967
0.314946 0.667536 0.496468
0.322393 0.667994 0.497597
0.362890 0.686183 0.522972
0.379889 0.685634 0.524559
0.404395 0.684718 0.527459
0.434974 0.683467 0.532067
0.470466 0.682094 0.539879
0.509148 0.680781 0.551720
0.531945 0.681086 0.554681
0.556695 0.681666 0.563012
0.589349 0.681361 0.584527
0.616968 0.681880 0.606592
0.639399 0.688289 0.623896
0.660700 0.699245 0.637903
0.681666 0.710231 0.651667
0.702358 0.721187 0.665400
0.722774 0.732082 0.679194
0.745205 0.745602 0.696803
0.769528 0.758419 0.703761
0.789517 0.758572 0.680262
0.809140 0.756649 0.658564
0.829129 0.755520 0.643000
0.850004 0.754818 0.629358
0.872129 0.754879 0.617090
0.895689 0.755917 0.605982
0.921538 0.758755 0.596796
0.949737 0.762448 0.591638
0.982269 0.768490 0.588800
1.000000 0.784939 0.605829
1.000000 0.808499 0.639368
1.000000 0.819547 0.679286
1.000000 0.818601 0.696742
0.367987 0.697749 0.536400
0.377234 0.700069 0.540307
0.388891 0.702235 0.544335
0.406867 0.703975 0.549096
0.431342 0.704799 0.554284
0.459754 0.704524 0.560113
0.491585 0.703639 0.567651
0.525383 0.702632 0.577813
0.551781 0.702724 0.584710
0.571191 0.703670 0.588342
0.597498 0.704067 0.602655
0.624292 0.704555 0.622126
0.646815 0.705287 0.641657
0.666346 0.714351 0.654902
0.685756 0.724453 0.667628
0.705104 0.734554 0.680446
0.724392 0.744686 0.693385
0.743801 0.754971 0.706477
0.765713 0.768215 0.723842
0.789609 0.781277 0.732631
0.809567 0.782467 0.711116
0.830045 0.782467 0.691920
0.850980 0.782864 0.677577
0.872892 0.783780 0.665461
0.896086 0.785306 0.654627
0.921416 0.788418 0.645777
0.949676 0.793606 0.639338
0.981353 0.800137 0.637385
1.000000 0.809293 0.638361
1.000000 0.822416 0.645747
1.000000 0.832578 0.686213
1.000000 0.830961 0.703853
0.404730 0.719875 0.566339
0.413062 0.721920 0.570031
0.423194 0.723934 0.573907
0.439063 0.725460 0.578424
0.460487 0.726314 0.583581
0.485115 0.726070 0.588952
0.512902 0.725399 0.595605
0.541924 0.724758 0.604089
0.570703 0.724697 0.613916
0.587579 0.725856 0.615900
0.606073 0.727291 0.621698
0.631891 0.727718 0.639002
0.654505 0.728267 0.656764
0.674037 0.731014 0.673793
0.692226 0.740383 0.685756
0.710445 0.749813 0.697780
0.728786 0.759304 0.709957
0.747402 0.769039 0.722408
0.766354 0.779171 0.735348
0.788205 0.792477 0.752529
0.811856 0.805692 0.762722
0.831937 0.807889 0.743435
0.853025 0.809201 0.726192
0.874723 0.810758 0.712825
0.897368 0.812711 0.701808
0.921874 0.815702 0.692531
0.949035 0.820493 0.685573
0.979980 0.827817 0.681880
1.000000 0.836881 0.683406
1.000000 0.848478 0.688380
1.000000 0.848081 0.700557
1.000000 0.843351 0.711055
0.440436 0.741848 0.596612
0.447639 0.743801 0.600275
0.456428 0.745693 0.604059
0.470436 0.747158 0.608362
0.488746 0.747982 0.613123
0.509911 0.747921 0.618006
0.533165 0.747463 0.623438
0.557977 0.747066 0.630152
0.584192 0.747005 0.638819
0.602930 0.747921 0.642725
0.618097 0.749477 0.645167
0.638819 0.750362 0.656001
0.661555 0.750759 0.672480
0.681910 0.751461 0.689845
0.699763 0.756771 0.704372
0.717556 0.766140 0.716396
0.735897 0.776028 0.729061
0.754879 0.786465 0.742245
0.774502 0.797482 0.756130
0.794919 0.809140 0.770565
0.818173 0.823667 0.788602
0.843015 0.838163 0.800870
0.863493 0.841306 0.784085
0.885771 0.844205 0.769528
0.908995 0.847257 0.757931
0.933654 0.851133 0.749325
0.960815 0.856382 0.742916
0.991485 0.863798 0.739406
1.000000 0.873838 0.740017
1.000000 0.881651 0.746548
1.000000 0.876951 0.759854
1.000000 0.862181 0.737392
0.486549 0.772152 0.639399
0.491005 0.773068 0.641321
0.496590 0.773709 0.643091
0.506218 0.774105 0.645502
0.520165 0.774166 0.648371
0.537072 0.773892 0.651728
0.556481 0.773587 0.655970
0.577844 0.773587 0.661463
0.600610 0.774166 0.668635
0.622156 0.775387 0.675685
0.636530 0.777310 0.677363
0.651667 0.779294 0.681483
0.674647 0.779690 0.697139
0.695338 0.780270 0.713344
0.713863 0.781003 0.730007
0.730800 0.788540 0.742092
0.748257 0.797696 0.753780
0.766323 0.807309 0.765805
0.785061 0.817411 0.778317
0.804410 0.827970 0.791135
0.824308 0.838865 0.803983
0.846830 0.852262 0.819730
0.870359 0.865415 0.831113
0.889128 0.867521 0.814603
0.911009 0.870634 0.801297
0.934752 0.874357 0.790738
0.960815 0.879637 0.784207
0.990173 0.886839 0.780545
1.000000 0.896391 0.780270
1.000000 0.903288 0.785702
1.000000 0.899016 0.798306
1.000000 0.885679 0.779080
0.514794 0.794705 0.669886
0.518517 0.795682 0.671717
0.523217 0.796506 0.673457
0.531579 0.797024 0.675593
0.543236 0.797177 0.677913
0.557397 0.796933 0.680415
0.573754 0.796689 0.683528
0.592035 0.796628 0.687587
0.612238 0.797055 0.693111
0.634241 0.798001 0.700710
0.649866 0.799649 0.703548
0.663874 0.801572 0.706081
0.682155 0.802701 0.715206
0.703487 0.803250 0.730587
0.722957 0.804013 0.746456
0.740444 0.806332 0.761929
0.757504 0.815274 0.773129
0.775326 0.824765 0.784787
0.793851 0.834714 0.796750
0.813046 0.845151 0.808988
0.832944 0.855955 0.821347
0.853330 0.867063 0.833799
0.876066 0.880308 0.848569
0.899443 0.893370 0.860227
0.911833 0.890135 0.839658
0.934081 0.894072 0.828183
0.958984 0.899046 0.819425
0.986694 0.906065 0.815366
1.000000 0.915190 0.814511
1.000000 0.921721 0.818387
1.000000 0.918425 0.830076
1.000000 0.907347 0.816312
0.547356 0.825193 0.709407
0.550683 0.826352 0.711238
0.554376 0.826993 0.712490
0.560784 0.827237 0.713680
0.569757 0.827054 0.714839
0.581262 0.826566 0.716091
0.594842 0.825956 0.717739
0.610620 0.825406 0.720180
0.628626 0.825071 0.723903
0.648371 0.825132 0.729397
0.666499 0.825620 0.734096
0.679103 0.826719 0.734707
0.692226 0.827909 0.737057
0.712703 0.827695 0.749874
0.731991 0.827390 0.763607
0.749599 0.827298 0.777768
0.765652 0.831083 0.789914
0.782223 0.839445 0.799985
0.800046 0.848722 0.810910
0.818997 0.858915 0.822507
0.838743 0.869596 0.834501
0.858885 0.880461 0.846372
0.878965 0.891051 0.857755
0.900603 0.903075 0.870665
0.922118 0.914611 0.881376
0.938506 0.915740 0.866606
0.961212 0.920562 0.856962
0.986816 0.926513 0.849973
1.000000 0.935027 0.848203
1.000000 0.939391 0.851164
1.000000 0.936461 0.860594
1.000000 0.927062 0.849302
0.566827 0.848356 0.737026
0.569635 0.849546 0.738674
0.572839 0.850248 0.739864
0.578332 0.850523 0.740810
0.586481 0.850401 0.741695
0.596887 0.850126 0.742794
0.609552 0.849729 0.744350
0.624445 0.849424 0.746609
0.641474 0.849424 0.750057
0.660365 0.849882 0.755062
0.680781 0.850645 0.761746
0.694575 0.852049 0.763272
0.707546 0.853574 0.764981
0.723842 0.854459 0.771817
0.744198 0.854398 0.784970
0.763027 0.854520 0.798337
0.780362 0.854948 0.812009
0.796902 0.861479 0.822477
0.814420 0.870390 0.832547
0.832944 0.880003 0.843168
0.852232 0.890105 0.854063
0.871885 0.900328 0.864897
0.891478 0.910338 0.875364
0.910826 0.920073 0.885344
0.931426 0.930999 0.896635
0.951568 0.941527 0.906859
0.967376 0.942748 0.893584
0.990997 0.949065 0.886564
1.000000 0.956939 0.882628
1.000000 0.956695 0.885344
1.000000 0.954223 0.893828
1.000000 0.944610 0.878416
0.587274 0.875486 0.767880
0.589715 0.876341 0.769039
0.592218 0.876707 0.769650
0.597070 0.876646 0.770108
0.604089 0.876188 0.770443
0.613428 0.875608 0.770962
0.625055 0.874998 0.771878
0.638849 0.874571 0.773526
0.654810 0.874510 0.776333
0.672724 0.874968 0.780514
0.692348 0.875792 0.786221
0.710048 0.877256 0.790860
0.722774 0.878874 0.791867
0.735866 0.880400 0.794156
0.755459 0.880522 0.804746
0.775143 0.880430 0.817014
0.793484 0.880583 0.829526
0.810605 0.881865 0.842161
0.827634 0.890196 0.851316
0.845670 0.899199 0.860960
0.864439 0.908690 0.870939
0.883604 0.918303 0.880888
0.902708 0.927794 0.890532
0.921569 0.937011 0.899840
0.939940 0.945830 0.908598
0.959197 0.955596 0.918486
0.977844 0.965209 0.928405
0.993225 0.966827 0.916747
1.000000 0.974060 0.911742
1.000000 0.970855 0.912718
1.000000 0.968353 0.919127
1.000000 0.959991 0.905577
0.605524 0.901427 0.795682
0.607568 0.902007 0.796445
0.609979 0.902312 0.796963
0.614435 0.902373 0.797421
0.621424 0.902403 0.798093
0.630823 0.902617 0.799344
0.642878 0.903441 0.801480
0.657313 0.904692 0.804562
0.674250 0.906523 0.808743
0.693080 0.908873 0.814145
0.713832 0.911559 0.820768
0.736294 0.914488 0.828702
0.750881 0.917418 0.831113
0.764920 0.919921 0.833585
0.781186 0.921508 0.839048
0.802457 0.921538 0.850431
0.822293 0.921599 0.861784
0.840848 0.922057 0.873411
0.858305 0.925628 0.883940
0.875883 0.933776 0.892302
0.893980 0.942229 0.900847
0.912322 0.950805 0.909392
0.930449 0.959106 0.917662
0.948180 0.967193 0.925597
0.965362 0.974884 0.933135
0.981872 0.982147 0.940307
0.998688 0.990051 0.948425
1.000000 0.994202 0.957427
1.000000 0.989075 0.949218
1.000000 0.985351 0.948577
1.000000 0.981903 0.947478
1.000000 0.973205 0.929808
0.634974 0.940978 0.835203
0.636774 0.941344 0.835660
0.638697 0.941344 0.835782
0.642695 0.941070 0.835813
0.648890 0.940673 0.835904
0.657282 0.940337 0.836301
0.668086 0.940276 0.837278
0.681056 0.940581 0.838895
0.696407 0.941253 0.841367
0.713771 0.942290 0.844846
0.732967 0.943572 0.849210
0.753933 0.945129 0.854856
0.771939 0.946746 0.858824
0.785000 0.948241 0.859831
