data/fiter_cube/87192323/1023457/file.cube
# Created by Adobe Lightroom plugin Export LUT (1.17.0)
# www.johnrellis.com/lightroom/exportlut.htm
# Preset: 日系清新自然_08 云集
# Color profile: C:\Program Files (x86)\Common Files\Adobe\Color\Profiles\Recommended\AdobeRGB1998.icc
LUT_3D_SIZE 8
DOMAIN_MIN 0.000000 0.000000 0.000000
DOMAIN_MAX 0.903226 0.903226 0.903226
0.000000 0.000000 0.000000
0.183902 0.000000 0.000000
0.385107 0.000000 0.000000
0.584436 0.000000 0.000000
0.754910 0.000000 0.000000
0.885435 0.000000 0.000000
0.991333 0.000000 0.000000
1.000000 0.000000 0.000000
0.000000 0.173709 0.080720
0.174838 0.187839 0.000000
0.377783 0.183291 0.000000
0.575830 0.187625 0.000000
0.747951 0.186374 0.000000
0.879118 0.169039 0.000000
0.985382 0.119753 0.000000
1.000000 0.000000 0.000000
0.000000 0.359716 0.158175
0.125368 0.364172 0.118959
0.364050 0.390356 0.000000
0.574578 0.378149 0.000000
0.745937 0.359014 0.000000
0.879088 0.334173 0.000000
0.988525 0.303807 0.000000
1.000000 0.244388 0.000000
0.000000 0.538201 0.249485
0.105226 0.543511 0.218418
0.315862 0.554131 0.210086
0.568017 0.602777 0.000000
0.761959 0.565118 0.000000
0.880247 0.501244 0.000000
0.984619 0.457130 0.000000
1.000000 0.409125 0.000000
0.066590 0.702968 0.336248
0.158511 0.706355 0.326452
0.292058 0.715877 0.285252
0.491066 0.730526 0.284062
0.718868 0.752010 0.109255
0.876860 0.691432 0.000000
0.976623 0.618280 0.000000
1.000000 0.554742 0.000000
0.178378 0.823209 0.416175
0.239994 0.827634 0.420417
0.293553 0.834562 0.369818
0.467994 0.837919 0.389807
0.630701 0.847257 0.354559
0.831235 0.857115 0.196811
0.975341 0.794675 0.000000
1.000000 0.713100 0.000000
0.297704 0.922728 0.504753
0.338354 0.923247 0.511650
0.384771 0.925566 0.490211
0.484779 0.927092 0.484077
0.617884 0.925689 0.505516
0.746609 0.933440 0.433692
0.919585 0.935607 0.267887
1.000000 0.869841 0.000000
0.432319 0.999054 0.603571
0.460334 0.997986 0.611231
0.508385 0.997436 0.612726
0.552270 0.999023 0.594079
0.642725 0.993256 0.602441
0.741970 0.990723 0.610925
0.841276 0.995331 0.519219
0.984588 0.990845 0.331975
0.087739 0.000000 0.178134
0.186282 0.000000 0.115541
0.374640 0.000000 0.117983
0.570489 0.000000 0.102327
0.745052 0.000000 0.000000
0.876280 0.000000 0.000000
0.983276 0.000000 0.000000
1.000000 0.000000 0.000000
0.000000 0.178592 0.178164
0.167727 0.183902 0.180545
0.368048 0.165927 0.146761
0.566949 0.160555 0.101839
0.741573 0.153994 0.000000
0.872892 0.141299 0.000000
0.978912 0.110964 0.000000
1.000000 0.000000 0.000000
0.000000 0.352789 0.226658
0.167330 0.359716 0.228397
0.356359 0.383612 0.180392
0.562646 0.363561 0.107118
0.738247 0.346960 0.000000
0.870573 0.320623 0.000000
0.978851 0.288731 0.000000
1.000000 0.248844 0.000000
0.003845 0.527916 0.293889
0.166903 0.533867 0.291966
0.319615 0.550042 0.268345
0.553948 0.589105 0.184268
0.742947 0.550317 0.014832
0.865721 0.491646 0.000000
0.974029 0.448432 0.000000
1.000000 0.402380 0.000000
0.097139 0.696803 0.369238
0.183230 0.699458 0.365789
0.296605 0.709804 0.324224
0.488563 0.721279 0.330755
0.709041 0.742824 0.209110
0.867582 0.685115 0.000000
0.970275 0.613947 0.000000
1.000000 0.550347 0.000000
0.184512 0.817075 0.436042
0.239384 0.818753 0.437446
0.313787 0.825925 0.404700
0.470588 0.831754 0.415198
0.630549 0.842588 0.392157
0.828428 0.854673 0.263493
0.971496 0.793088 0.017762
1.000000 0.711360 0.000000
0.292302 0.917296 0.513939
0.330449 0.916716 0.518456
0.402106 0.918791 0.513787
0.489052 0.922759 0.500847
0.621485 0.922759 0.524071
0.747219 0.930419 0.463081
0.916289 0.932799 0.314092
1.000000 0.867918 0.000000
0.424109 0.997070 0.606928
0.453162 0.996307 0.614740
0.520714 0.994720 0.628717
0.557244 0.997253 0.605646
0.652613 0.993957 0.620905
0.748501 0.990265 0.630243
0.843351 0.994324 0.542382
0.983612 0.989960 0.369055
0.171389 0.000000 0.351019
0.294041 0.000000 0.358190
0.375616 0.000000 0.235203
0.562097 0.000000 0.196139
0.737087 0.000000 0.250431
0.872587 0.000000 0.260136
0.983032 0.000000 0.206546
1.000000 0.000000 0.066621
0.000000 0.198795 0.345159
0.217411 0.169070 0.354101
0.366979 0.168734 0.266819
0.554864 0.137209 0.246006
0.731991 0.007843 0.287144
0.868803 0.102602 0.261021
0.979644 0.007477 0.206210
1.000000 0.000000 0.066804
0.000000 0.350347 0.347723
0.148013 0.354284 0.350500
0.333867 0.364569 0.356451
0.544152 0.346899 0.327733
0.730648 0.334936 0.301213
0.866209 0.315801 0.267369
0.976745 0.281315 0.212985
1.000000 0.217197 0.081483
0.000000 0.515770 0.393347
0.139528 0.521782 0.394507
0.335851 0.542779 0.399481
0.542016 0.579431 0.368383
0.729427 0.538231 0.317998
0.861265 0.494087 0.280644
0.972656 0.451423 0.227237
1.000000 0.395209 0.107637
0.000000 0.685298 0.446174
0.167758 0.688746 0.447089
0.347662 0.699763 0.453620
0.501183 0.716548 0.452003
0.705348 0.740475 0.387030
0.859770 0.683314 0.315953
0.965209 0.614008 0.252201
1.000000 0.551812 0.143038
0.171237 0.810422 0.495094
0.236728 0.811978 0.498268
0.381689 0.816220 0.512169
0.492683 0.826047 0.500206
0.641810 0.836301 0.505028
0.823819 0.850950 0.418097
0.963592 0.793210 0.320745
1.000000 0.713497 0.210330
0.289647 0.915068 0.557794
0.330419 0.914672 0.562493
0.441535 0.914061 0.580774
0.516320 0.919066 0.564843
0.640528 0.919860 0.587396
0.758389 0.927611 0.556573
0.916503 0.932952 0.452644
1.000000 0.871214 0.306981
0.410864 0.996612 0.630701
0.436591 0.995636 0.635187
0.525872 0.992401 0.658656
0.592737 0.993591 0.659297
0.670344 0.991882 0.663264
0.764553 0.987854 0.680323
0.852354 0.992432 0.614527
0.983276 0.989441 0.485359
0.250431 0.000000 0.507286
0.336217 0.000000 0.514214
0.530175 0.000000 0.507500
0.557702 0.000000 0.348791
0.722377 0.000000 0.262608
0.860441 0.000000 0.318853
0.970733 0.000000 0.372564
1.000000 0.000000 0.368811
0.174716 0.174228 0.506554
0.282994 0.155764 0.512078
0.519646 0.000000 0.531090
0.554192 0.141390 0.367681
0.720150 0.125124 0.299535
0.856718 0.119600 0.347967
0.967254 0.151644 0.396490
1.000000 0.042725 0.366674
0.000000 0.388617 0.485786
0.118105 0.389868 0.487922
0.365423 0.337102 0.516075
0.537560 0.341955 0.428595
0.710933 0.338476 0.405798
0.850248 0.340795 0.443458
0.966552 0.336614 0.441718
1.000000 0.265934 0.372259
0.000000 0.508843 0.503227
0.105592 0.511925 0.505760
0.301274 0.523003 0.514366
0.502220 0.542626 0.529259
0.694697 0.530846 0.510552
0.839567 0.514488 0.488136
0.959045 0.482460 0.449775
1.000000 0.423468 0.381842
0.000000 0.666072 0.549767
0.076265 0.668544 0.549645
0.307652 0.678889 0.551995
0.515099 0.697444 0.571801
0.689143 0.726650 0.559167
0.837766 0.683406 0.516197
0.953185 0.633875 0.470375
1.000000 0.573602 0.400153
0.110567 0.800900 0.580713
0.198947 0.804410 0.583856
0.359380 0.807553 0.590753
0.536797 0.815091 0.616388
0.663966 0.829526 0.631312
0.819577 0.847623 0.585046
0.950561 0.798978 0.518853
1.000000 0.724239 0.436439
0.261387 0.909575 0.621698
0.306310 0.909911 0.625086
0.423957 0.910613 0.637720
0.570855 0.912078 0.665919
0.666041 0.918273 0.668177
0.776669 0.924773 0.669245
0.915679 0.932097 0.603204
1.000000 0.877073 0.507347
0.398688 0.996246 0.678767
0.425391 0.995727 0.682338
0.504143 0.993561 0.694118
0.623316 0.989441 0.723110
0.691432 0.989715 0.719478
0.781857 0.986358 0.736507
0.864500 0.989532 0.703426
0.982513 0.988312 0.616907
0.327184 0.000000 0.651972
0.388434 0.000000 0.655756
0.558923 0.000000 0.667323
0.704402 0.000000 0.569421
0.720760 0.000000 0.448615
0.849454 0.000000 0.348486
0.965148 0.035737 0.378332
1.000000 0.120302 0.422980
0.280156 0.162356 0.649348
0.349401 0.143832 0.653651
0.530266 0.000000 0.665400
0.698085 0.000000 0.589929
0.717586 0.119722 0.461830
0.846494 0.157412 0.367773
0.962890 0.178531 0.402716
1.000000 0.203952 0.443732
0.000000 0.370001 0.632837
0.124453 0.342168 0.639948
0.410101 0.318059 0.653864
0.674586 0.267735 0.656550
0.704433 0.329168 0.506767
0.833555 0.344305 0.441077
0.952941 0.353460 0.479591
1.000000 0.359960 0.510369
0.000000 0.532219 0.625208
0.066712 0.532891 0.626184
0.274235 0.536584 0.630365
0.516930 0.505943 0.660426
0.680018 0.523705 0.585779
0.816861 0.528923 0.567407
0.939147 0.529137 0.592828
1.000000 0.508110 0.589837
0.000000 0.647852 0.640375
0.071138 0.649531 0.641596
0.283268 0.654932 0.645533
0.468635 0.666499 0.654383
0.644160 0.685237 0.669917
0.803616 0.679744 0.660670
0.931365 0.662013 0.639734
1.000000 0.617670 0.591730
0.000000 0.777737 0.670771
0.082277 0.778561 0.671565
0.289097 0.780789 0.673610
0.478676 0.788876 0.679835
0.654841 0.804746 0.701869
0.802884 0.833219 0.702724
0.929931 0.800168 0.668147
1.000000 0.746456 0.614313
0.194766 0.898863 0.701656
0.247227 0.898741 0.702235
0.375708 0.899016 0.705989
0.526207 0.901244 0.717128
0.678614 0.906889 0.742123
0.788357 0.916869 0.760464
0.911620 0.928527 0.721736
1.000000 0.881224 0.655879
0.360296 0.992065 0.738399
0.387488 0.991424 0.739834
0.469093 0.989593 0.745449
0.583581 0.988556 0.759243
0.712245 0.984741 0.784848
0.792905 0.984527 0.790097
0.875486 0.985504 0.786007
0.980743 0.986297 0.728725
0.396063 0.000000 0.775998
0.441138 0.000000 0.777676
0.574182 0.000000 0.782681
0.772549 0.000000 0.795224
0.838743 0.000000 0.638117
0.849821 0.000000 0.530449
0.961761 0.090883 0.442542
1.000000 0.147219 0.428931
0.362829 0.161685 0.771145
0.410376 0.144747 0.772732
0.549340 0.000000 0.778836
0.752010 0.000000 0.792050
0.834592 0.000000 0.644617
0.845762 0.140017 0.539635
0.958434 0.187594 0.456092
1.000000 0.216098 0.448005
0.203738 0.338659 0.765042
0.281346 0.333196 0.766873
0.459968 0.311254 0.774075
0.682399 0.257053 0.787198
0.827176 0.252873 0.673945
0.836637 0.332341 0.577295
0.949859 0.354955 0.507103
1.000000 0.365881 0.514122
0.000000 0.567041 0.740017
0.083009 0.557031 0.742397
0.285252 0.512322 0.755795
0.546288 0.485512 0.775723
0.798306 0.471565 0.765377
0.821225 0.518090 0.644739
0.936004 0.525811 0.589715
1.000000 0.523339 0.610742
0.000000 0.659693 0.745937
0.087648 0.660151 0.746151
0.271733 0.662013 0.746853
0.435645 0.667933 0.748745
0.649622 0.648890 0.774136
0.794095 0.667903 0.713741
0.917266 0.668971 0.697169
1.000000 0.665034 0.712856
0.000000 0.763516 0.755917
0.125429 0.764828 0.756954
0.291356 0.767086 0.758267
0.451270 0.771603 0.761074
0.605707 0.779812 0.767361
0.765286 0.799802 0.786007
0.907744 0.800107 0.784726
1.000000 0.778470 0.761379
0.106264 0.888884 0.790158
0.182498 0.889372 0.790921
0.320867 0.889220 0.791897
0.465370 0.889647 0.794461
0.622736 0.893706 0.798306
0.783780 0.904967 0.820218
0.906340 0.923857 0.822385
1.000000 0.888487 0.785702
0.298924 0.989136 0.817288
0.329412 0.988586 0.817258
0.418219 0.987030 0.817563
0.536370 0.985473 0.820096
0.665980 0.983185 0.827054
0.803555 0.980560 0.850553
0.890471 0.980896 0.865690
0.979614 0.984771 0.831418
0.461585 0.071168 0.886687
0.495460 0.000000 0.887510
0.601740 0.000000 0.890227
0.763699 0.000000 0.895384
0.922911 0.000000 0.857755
0.949798 0.000000 0.700771
0.961517 0.004334 0.599725
1.000000 0.142000 0.517052
0.438788 0.184421 0.885374
0.473976 0.170993 0.886168
0.583246 0.100801 0.888914
0.747799 0.000000 0.893797
0.919036 0.000000 0.866880
0.947967 0.000000 0.707393
0.959411 0.166506 0.608392
1.000000 0.212222 0.528527
0.343206 0.343847 0.880552
0.387030 0.338201 0.881346
0.513359 0.316228 0.884245
0.690517 0.265904 0.889555
0.905028 0.130678 0.897520
0.941283 0.245029 0.731411
0.951965 0.336614 0.639765
1.000000 0.357977 0.569024
0.130068 0.525963 0.868040
0.190890 0.512810 0.869596
0.365759 0.490913 0.874632
0.581720 0.472480 0.880888
0.811551 0.438605 0.890166
0.928588 0.456886 0.773770
0.938354 0.502953 0.692500
1.000000 0.508873 0.631617
0.053681 0.691585 0.855558
0.145968 0.691615 0.855253
0.281621 0.691798 0.854185
0.435492 0.656062 0.862211
0.668635 0.622919 0.877562
0.900816 0.615351 0.857633
0.920409 0.650477 0.755367
1.000000 0.651820 0.706874
0.116487 0.780453 0.861204
0.177615 0.780606 0.860990
0.300725 0.781338 0.860410
0.432410 0.782040 0.859403
0.567437 0.782742 0.858091
0.766018 0.763485 0.876799
0.899138 0.783749 0.823301
1.000000 0.785245 0.808377
0.176120 0.874418 0.868742
0.220401 0.874540 0.868711
0.327611 0.875029 0.868620
0.452796 0.876005 0.868620
0.587152 0.877714 0.869200
0.729061 0.882017 0.872496
0.875731 0.897704 0.888579
0.986297 0.897276 0.888090
0.254215 0.984741 0.897520
0.285710 0.984497 0.897490
0.372869 0.983734 0.897459
0.485573 0.982391 0.897490
0.610864 0.980377 0.898314
0.752834 0.977966 0.899474
0.894377 0.977661 0.917388
0.978515 0.983368 0.917632
0.531395 0.192569 0.988586
0.556817 0.179721 0.988678
0.640101 0.116976 0.988983
0.772030 0.000000 0.989685
0.942351 0.000000 0.990784
1.000000 0.000000 0.880339
1.000000 0.000000 0.756710
1.000000 0.125307 0.661769
0.516045 0.251102 0.987762
0.541985 0.241886 0.987854
0.626612 0.202396 0.988251
0.759884 0.061402 0.988983
0.931121 0.000000 0.990173
1.000000 0.000000 0.889006
1.000000 0.000000 0.762478
1.000000 0.200198 0.669306
0.458198 0.382910 0.985046
0.486458 0.377630 0.985168
0.577142 0.356939 0.985657
0.716121 0.312718 0.986603
0.890898 0.217746 0.988037
1.000000 0.085664 0.918761
1.000000 0.254215 0.783322
1.000000 0.346654 0.696040
0.330999 0.527459 0.980407
0.378637 0.530694 0.980316
0.485817 0.519127 0.980926
0.637507 0.496101 0.982116
0.818692 0.456031 0.983886
1.000000 0.399023 0.967498
1.000000 0.449622 0.819333
1.000000 0.496590 0.739712
0.271946 0.723995 0.968139
0.299504 0.716823 0.968872
0.380011 0.690181 0.971466
0.496559 0.640467 0.976410
0.710719 0.628229 0.978149
0.925658 0.594873 0.981048
1.000000 0.609094 0.865202
1.000000 0.640314 0.795773
0.284062 0.817685 0.966186
0.307683 0.817868 0.966003
0.376989 0.818235 0.965423
0.471809 0.818051 0.964477
0.590478 0.790524 0.967224
0.792935 0.753658 0.973938
0.992950 0.745083 0.943420
1.000000 0.773190 0.858671
0.310307 0.893858 0.967681
0.331762 0.893980 0.967529
0.396063 0.894255 0.967163
0.487892 0.894530 0.966400
0.596094 0.894774 0.965270
0.714015 0.894743 0.963409
0.882567 0.873594 0.969909
0.986603 0.888762 0.921263
0.342840 0.971374 0.969696
0.361883 0.971374 0.969635
0.421332 0.971466 0.969360
0.510216 0.971527 0.968963
0.617456 0.971466 0.968353
0.735012 0.971221 0.967590
0.857176 0.970947 0.967254
0.969543 0.975708 0.973083
