data/fiter_cube/87192323/1023457/file.cube
# Created by Adobe Lightroom plugin Export LUT (1.17.0)
# www.johnrellis.com/lightroom/exportlut.htm
# Preset: 日系清新自然_08 云集
# Color profile: C:\Program Files (x86)\Common Files\Adobe\Color\Profiles\Recommended\AdobeRGB1998.icc
LUT_3D_SIZE 5
DOMAIN_MIN 0.000000 0.000000 0.000000
DOMAIN_MAX 0.903226 0.903226 0.903226
0.000000 0.000000 0.000000
0.336889 0.000000 0.000000
0.676387 0.000000 0.000000
0.915068 0.000000 0.000000
1.000000 0.000000 0.000000
0.000000 0.316228 0.136782
0.318151 0.341405 0.000000
0.666163 0.322820 0.000000
0.910521 0.287602 0.000000
1.000000 0.196963 0.000000
0.000000 0.625757 0.293767
0.249760 0.638697 0.242832
0.653285 0.688136 0.051637
0.904570 0.579004 0.000000
1.000000 0.483375 0.000000
0.209384 0.852018 0.439155
0.297856 0.858061 0.414801
0.548241 0.864134 0.426062
0.855772 0.879362 0.216190
1.000000 0.752926 0.000000
0.432319 0.999054 0.603571
0.503441 0.996887 0.618708
0.592523 0.994965 0.594079
0.763149 0.992401 0.593011
0.984588 0.990845 0.331975
0.151278 0.000000 0.309087
0.330022 0.000000 0.205631
0.656458 0.000000 0.218692
0.901518 0.000000 0.186465
1.000000 0.000000 0.000000
0.000000 0.310369 0.308354
0.293797 0.321294 0.314458
0.647730 0.292058 0.259953
0.897978 0.260349 0.192050
1.000000 0.165591 0.000000
0.000000 0.609674 0.395209
0.296178 0.624353 0.396582
0.633082 0.669734 0.328283
0.888792 0.568231 0.220951
1.000000 0.473976 0.000000
0.213596 0.844938 0.497810
0.364996 0.848722 0.513024
0.569757 0.859678 0.512810
0.852506 0.876707 0.388922
1.000000 0.753597 0.161196
0.419348 0.998260 0.625666
0.509239 0.994995 0.648829
0.619806 0.994629 0.644312
0.780179 0.990417 0.654322
0.984253 0.990326 0.457038
0.290959 0.000000 0.583856
0.499367 0.000000 0.598901
0.642725 0.000000 0.400488
0.885405 0.000000 0.336522
1.000000 0.105196 0.420478
0.000000 0.331304 0.567864
0.365270 0.282200 0.587945
0.633204 0.284398 0.453010
0.875517 0.295872 0.424720
1.000000 0.321355 0.491310
0.000000 0.582574 0.575860
0.240726 0.589715 0.581231
0.577447 0.619226 0.604395
0.854459 0.600641 0.577386
1.000000 0.525963 0.494301
0.096345 0.822232 0.634943
0.303868 0.824216 0.637293
0.606714 0.837644 0.672969
0.842161 0.868101 0.656031
1.000000 0.770352 0.540398
0.380011 0.993652 0.705470
0.464820 0.992248 0.714748
0.667506 0.986908 0.753414
0.809598 0.984283 0.767178
0.981201 0.986969 0.672541
0.411017 0.000000 0.802090
0.540795 0.000000 0.807095
0.839750 0.000000 0.786007
0.877836 0.000000 0.547845
1.000000 0.144533 0.428107
0.295842 0.294621 0.794949
0.456886 0.269139 0.800748
0.821561 0.055146 0.820584
0.867857 0.285313 0.580316
1.000000 0.320073 0.490333
0.000000 0.616724 0.766629
0.220127 0.616754 0.766293
0.598383 0.559136 0.796780
0.836698 0.587701 0.686549
1.000000 0.588098 0.655482
0.000000 0.793118 0.785794
0.258122 0.793545 0.785367
0.522576 0.799893 0.789120
0.793362 0.825315 0.812406
1.000000 0.809934 0.794736
0.273472 0.988006 0.839231
0.373388 0.986938 0.838865
0.587823 0.984222 0.840818
0.827848 0.980102 0.868376
0.979156 0.984283 0.854337
0.531395 0.192569 0.988586
0.614191 0.141543 0.988861
0.852689 0.000000 0.990173
1.000000 0.000000 0.825315
1.000000 0.125307 0.661769
0.477363 0.347082 0.985931
0.566033 0.325109 0.986358
0.812894 0.214176 0.988006
1.000000 0.000000 0.857450
1.000000 0.308598 0.687556
0.284398 0.621424 0.975158
0.368261 0.590692 0.977661
0.673274 0.564080 0.980102
1.000000 0.498482 0.955535
1.000000 0.569512 0.766476
0.290135 0.836423 0.966522
0.361151 0.836851 0.966003
0.528313 0.836667 0.964294
0.814908 0.784421 0.972869
1.000000 0.803891 0.874601
0.342840 0.971374 0.969696
0.402991 0.971435 0.969451
0.562066 0.971527 0.968658
0.765377 0.971130 0.967407
0.969543 0.975708 0.973083
