data/fiter_cube/87192323/1023457/file.cube
# Created by Adobe Lightroom plugin Export LUT (1.17.0)
# www.johnrellis.com/lightroom/exportlut.htm
# Preset: 日系清新自然_08 云集
# Color profile: C:\Program Files (x86)\Common Files\Adobe\Color\Profiles\Recommended\AdobeRGB1998.icc
LUT_3D_SIZE 32
DOMAIN_MIN 0.0 0.0 0.0
DOMAIN_MAX 1.0 1.0 1.0
0.000000 0.000000 0.000000
0.057832 0.000000 0.000000
0.083070 0.000000 0.000000
0.127687 0.000000 0.000000
0.183902 0.000000 0.000000
0.238102 0.000000 0.000000
0.288548 0.000000 0.000000
0.336889 0.000000 0.000000
0.385107 0.000000 0.000000
0.433692 0.000000 0.000000
0.483406 0.000000 0.000000
0.534051 0.000000 0.000000
0.584436 0.000000 0.000000
0.631983 0.000000 0.000000
0.676387 0.000000 0.000000
0.717403 0.000000 0.000000
0.754910 0.000000 0.000000
0.789273 0.000000 0.000000
0.820798 0.000000 0.000000
0.853208 0.000000 0.000000
0.885435 0.000000 0.000000
0.915068 0.000000 0.000000
0.942321 0.000000 0.000000
0.967620 0.000000 0.000000
0.991333 0.000000 0.000000
1.000000 0.000000 0.000000
1.000000 0.000000 0.000000
1.000000 0.000000 0.000000
1.000000 0.000000 0.000000
1.000000 0.000000 0.000000
1.000000 0.000000 0.000000
1.000000 0.000000 0.000000
0.002014 0.054231 0.012634
0.051026 0.058778 0.000000
0.081971 0.051148 0.000000
0.126894 0.051545 0.000000
0.183200 0.052064 0.000000
0.236881 0.047211 0.000000
0.287388 0.034363 0.000000
0.335637 0.024475 0.000000
0.383612 0.014160 0.000000
0.432136 0.009216 0.000000
0.481697 0.002258 0.000000
0.532067 0.002319 0.000000
0.582361 0.008362 0.000000
0.629816 0.024109 0.000000
0.674250 0.037934 0.000000
0.715328 0.049256 0.000000
0.752895 0.055024 0.000000
0.787289 0.057740 0.000000
0.818906 0.058228 0.000000
0.851499 0.048493 0.000000
0.883330 0.022583 0.000000
0.912779 0.000000 0.000000
0.940032 0.000000 0.000000
0.965393 0.000000 0.000000
0.989227 0.000000 0.000000
1.000000 0.000000 0.000000
1.000000 0.000000 0.000000
1.000000 0.000000 0.000000
1.000000 0.000000 0.000000
1.000000 0.000000 0.000000
1.000000 0.000000 0.000000
1.000000 0.000000 0.000000
0.004852 0.080934 0.030610
0.042329 0.080598 0.022156
0.078676 0.084504 0.001678
0.126528 0.086275 0.000000
0.182254 0.088624 0.000000
0.235966 0.089479 0.000000
0.286137 0.087068 0.000000
0.334173 0.084474 0.000000
0.382238 0.082338 0.000000
0.430610 0.080385 0.000000
0.480140 0.079622 0.000000
0.530510 0.080629 0.000000
0.580835 0.081910 0.000000
0.628382 0.086000 0.000000
0.672786 0.089937 0.000000
0.714015 0.091402 0.000000
0.751553 0.092897 0.000000
0.786069 0.092317 0.000000
0.817777 0.090852 0.000000
0.850553 0.087190 0.000000
0.882231 0.078248 0.000000
0.911589 0.063081 0.000000
0.938750 0.017060 0.000000
0.964202 0.000000 0.000000
0.988067 0.000000 0.000000
1.000000 0.000000 0.000000
1.000000 0.000000 0.000000
1.000000 0.000000 0.000000
1.000000 0.000000 0.000000
1.000000 0.000000 0.000000
1.000000 0.000000 0.000000
1.000000 0.000000 0.000000
0.009827 0.123079 0.061585
0.040864 0.123964 0.048646
0.075257 0.123445 0.049958
0.123934 0.132876 0.000000
0.181552 0.136782 0.000000
0.234592 0.136172 0.000000
0.284550 0.135836 0.000000
0.332830 0.134707 0.000000
0.380560 0.133639 0.000000
0.429084 0.132937 0.000000
0.478309 0.133486 0.000000
0.528649 0.134035 0.000000
0.578759 0.136416 0.000000
0.626398 0.138460 0.000000
0.670954 0.138888 0.000000
0.712123 0.139651 0.000000
0.749813 0.138766 0.000000
0.784329 0.137026 0.000000
0.816068 0.134401 0.000000
0.849058 0.130587 0.000000
0.880247 0.123842 0.000000
0.909300 0.114229 0.000000
0.936614 0.100526 0.000000
0.962341 0.080812 0.000000
0.986694 0.033173 0.000000
1.000000 0.000000 0.000000
1.000000 0.000000 0.000000
1.000000 0.000000 0.000000
1.000000 0.000000 0.000000
1.000000 0.000000 0.000000
1.000000 0.000000 0.000000
1.000000 0.000000 0.000000
0.000000 0.173709 0.080720
0.016083 0.174929 0.066865
0.068086 0.174838 0.062501
0.114199 0.176394 0.056550
0.174838 0.187839 0.000000
0.233005 0.189303 0.000000
0.282414 0.185885 0.000000
0.329870 0.183261 0.000000
0.377783 0.183291 0.000000
0.426062 0.183841 0.000000
0.475441 0.184207 0.000000
0.525566 0.186038 0.000000
0.575830 0.187625 0.000000
0.623499 0.188937 0.000000
0.668299 0.188754 0.000000
0.709804 0.188144 0.000000
0.747951 0.186374 0.000000
0.782773 0.183597 0.000000
0.815305 0.179843 0.000000
0.848386 0.175387 0.000000
0.879118 0.169039 0.000000
0.907988 0.160983 0.000000
0.935180 0.150393 0.000000
0.960937 0.137240 0.000000
0.985382 0.119753 0.000000
1.000000 0.095125 0.000000
1.000000 0.052613 0.000000
1.000000 0.000000 0.000000
1.000000 0.000000 0.000000
1.000000 0.000000 0.000000
1.000000 0.000000 0.000000
1.000000 0.000000 0.000000
0.000000 0.222873 0.098238
0.000000 0.224277 0.088502
0.028412 0.224857 0.070436
0.104738 0.224399 0.071412
0.159030 0.229313 0.052827
0.223850 0.240421 0.000000
0.282017 0.240146 0.000000
0.329320 0.235447 0.000000
0.375891 0.230625 0.000000
0.423804 0.229648 0.000000
0.473213 0.230808 0.000000
0.523461 0.232456 0.000000
0.573571 0.233829 0.000000
0.621515 0.234257 0.000000
0.666407 0.233768 0.000000
0.708125 0.232029 0.000000
0.746456 0.229221 0.000000
0.781399 0.226230 0.000000
0.815427 0.222538 0.000000
0.848142 0.218601 0.000000
0.878721 0.213840 0.000000
0.907622 0.205692 0.000000
0.948241 0.197604 0.000000
0.973297 0.185946 0.000000
0.996735 0.171572 0.000000
1.000000 0.154360 0.000000
1.000000 0.132998 0.000000
1.000000 0.103792 0.000000
1.000000 0.049073 0.000000
1.000000 0.000000 0.000000
1.000000 0.000000 0.000000
1.000000 0.000000 0.000000
0.000000 0.272404 0.117281
0.000000 0.273472 0.111635
0.000000 0.274479 0.093294
0.089418 0.274876 0.083223
0.148440 0.274510 0.085237
0.207034 0.282780 0.050263
0.273259 0.293309 0.000000
0.332891 0.293095 0.000000
0.380316 0.287541 0.000000
0.427985 0.283024 0.000000
0.475929 0.279332 0.000000
0.526726 0.280522 0.000000
0.576928 0.281315 0.000000
0.624506 0.280735 0.000000
0.669062 0.279088 0.000000
0.710140 0.276280 0.000000
0.747982 0.272557 0.000000
0.783627 0.268406 0.000000
0.818845 0.264408 0.000000
0.851743 0.259556 0.000000
0.883024 0.254307 0.000000
0.912993 0.248417 0.000000
0.941405 0.241428 0.000000
0.968139 0.230564 0.000000
0.993072 0.218112 0.000000
1.000000 0.203464 0.000000
1.000000 0.186923 0.000000
1.000000 0.166781 0.000000
1.000000 0.141543 0.000000
1.000000 0.107454 0.000000
1.000000 0.026368 0.000000
1.000000 0.000000 0.000000
0.000000 0.316228 0.136782
0.000000 0.317205 0.133455
0.000000 0.318273 0.121248
0.064820 0.319524 0.097902
0.137270 0.319554 0.099886
0.191989 0.320958 0.099001
0.251774 0.331090 0.058778
0.318151 0.341405 0.000000
0.379980 0.342046 0.000000
0.427924 0.336675 0.000000
0.476265 0.332555 0.000000
0.524987 0.328557 0.000000
0.573816 0.326116 0.000000
0.621424 0.325292 0.000000
0.666163 0.322820 0.000000
0.707362 0.319310 0.000000
0.745357 0.314946 0.000000
0.783200 0.310857 0.000000
0.817472 0.305669 0.000000
0.849851 0.300053 0.000000
0.880797 0.294011 0.000000
0.910521 0.287602 0.000000
0.938811 0.281041 0.000000
0.965515 0.273594 0.000000
0.990509 0.261753 0.000000
1.000000 0.248600 0.000000
1.000000 0.233738 0.000000
1.000000 0.216556 0.000000
1.000000 0.196963 0.000000
1.000000 0.173556 0.000000
1.000000 0.144289 0.000000
1.000000 0.102724 0.000000
0.000000 0.359716 0.158175
0.000000 0.360479 0.155734
0.000000 0.361608 0.148379
0.028565 0.363409 0.121584
0.125368 0.364172 0.118959
0.183841 0.364691 0.122164
0.237247 0.369360 0.112001
0.297307 0.379675 0.069062
0.364050 0.390356 0.000000
0.428260 0.392798 0.000000
0.477607 0.387701 0.000000
0.526543 0.383062 0.000000
0.574578 0.378149 0.000000
0.619837 0.371649 0.000000
0.663783 0.367376 0.000000
0.705165 0.363287 0.000000
0.745937 0.359014 0.000000
0.782803 0.353704 0.000000
0.816403 0.347234 0.000000
0.848386 0.340703 0.000000
0.879088 0.334173 0.000000
0.908659 0.327214 0.000000
0.936858 0.319921 0.000000
0.963500 0.312139 0.000000
0.988525 0.303807 0.000000
1.000000 0.291295 0.000000
1.000000 0.277348 0.000000
1.000000 0.261753 0.000000
1.000000 0.244388 0.000000
1.000000 0.224765 0.000000
1.000000 0.202090 0.000000
1.000000 0.174929 0.000000
0.000000 0.403052 0.180484
0.000000 0.403754 0.178744
0.006714 0.404730 0.175143
0.049042 0.406500 0.154086
0.111635 0.408331 0.138338
0.175784 0.409216 0.141207
0.229038 0.410376 0.145235
0.282933 0.418219 0.125002
0.343603 0.428809 0.081331
0.410742 0.439673 0.000000
0.476570 0.443610 0.000000
0.527977 0.438666 0.000000
0.575860 0.432593 0.000000
0.620996 0.425238 0.000000
0.664607 0.417487 0.000000
0.706386 0.409277 0.000000
0.746365 0.403815 0.000000
0.782773 0.397009 0.000000
0.816068 0.389807 0.000000
0.847715 0.382208 0.000000
0.877989 0.374609 0.000000
0.906981 0.366705 0.000000
0.934630 0.358831 0.000000
0.960876 0.350500 0.000000
0.985687 0.341619 0.000000
1.000000 0.332372 0.000000
1.000000 0.318883 0.000000
1.000000 0.304234 0.000000
1.000000 0.288121 0.000000
1.000000 0.270390 0.000000
1.000000 0.250675 0.000000
1.000000 0.228214 0.000000
0.000000 0.445838 0.202609
0.000000 0.446571 0.201175
0.023865 0.447517 0.199405
0.065614 0.449439 0.183871
0.096345 0.451881 0.157717
0.166598 0.453376 0.160678
0.222873 0.455146 0.164218
0.273655 0.457679 0.167849
0.329259 0.468147 0.137942
0.391241 0.479194 0.092744
0.458900 0.490394 0.000000
0.526116 0.495277 0.000000
0.578302 0.489174 0.000000
0.625299 0.482002 0.000000
0.669245 0.473182 0.000000
0.709468 0.462989 0.000000
0.746517 0.451270 0.000000
0.781094 0.440681 0.000000
0.814206 0.432074 0.000000
0.845762 0.423499 0.000000
0.875883 0.415076 0.000000
0.904906 0.406287 0.000000
0.932647 0.397620 0.000000
0.958923 0.388830 0.000000
0.983764 0.379614 0.000000
1.000000 0.369909 0.000000
1.000000 0.359197 0.000000
1.000000 0.344915 0.000000
1.000000 0.329595 0.000000
1.000000 0.312871 0.000000
1.000000 0.294926 0.000000
1.000000 0.274784 0.000000
0.000000 0.489601 0.225101
0.000000 0.490333 0.224002
0.038514 0.491188 0.222629
0.078431 0.492988 0.211978
0.096254 0.495979 0.186740
0.156100 0.498146 0.179629
0.215702 0.500267 0.182925
0.268650 0.502892 0.186923
0.320012 0.508476 0.181643
0.377111 0.519463 0.150118
0.440314 0.530785 0.103883
0.510643 0.544060 0.000000
0.590570 0.559960 0.000000
0.644038 0.552026 0.000000
0.686946 0.539910 0.000000
0.725887 0.526482 0.000000
0.761532 0.512169 0.000000
0.794095 0.497353 0.000000
0.824247 0.482338 0.000000
0.854398 0.470802 0.000000
0.883665 0.460426 0.000000
0.911681 0.450233 0.000000
0.938323 0.440009 0.000000
0.963653 0.429786 0.000000
0.987671 0.419440 0.000000
1.000000 0.409033 0.000000
1.000000 0.398260 0.000000
1.000000 0.385718 0.000000
1.000000 0.370397 0.000000
1.000000 0.354192 0.000000
1.000000 0.336767 0.000000
1.000000 0.317906 0.000000
0.000000 0.538201 0.249485
0.000000 0.538811 0.248600
0.045594 0.539605 0.246891
0.089601 0.541039 0.239902
0.105226 0.543511 0.218418
0.143343 0.546105 0.198581
0.207736 0.547967 0.201694
0.263310 0.550561 0.205509
0.315862 0.554131 0.210086
0.369848 0.564294 0.196017
0.430365 0.577356 0.165164
0.496712 0.590356 0.117891
0.568017 0.602777 0.000000
0.635584 0.606226 0.000000
0.687892 0.596155 0.000000
0.726802 0.581292 0.000000
0.761959 0.565118 0.000000
0.793912 0.548577 0.000000
0.823728 0.532097 0.000000
0.852415 0.516350 0.000000
0.880247 0.501244 0.000000
0.908293 0.490211 0.000000
0.934997 0.479225 0.000000
0.960418 0.468086 0.000000
0.984619 0.457130 0.000000
1.000000 0.446113 0.000000
1.000000 0.434913 0.000000
1.000000 0.423407 0.000000
1.000000 0.409125 0.000000
1.000000 0.393317 0.000000
1.000000 0.376440 0.000000
1.000000 0.358343 0.000000
0.000000 0.581140 0.270817
0.000000 0.581659 0.269932
0.055451 0.582269 0.268650
0.099855 0.583764 0.264469
0.114412 0.586114 0.246250
0.130800 0.590051 0.218753
0.198642 0.592920 0.219852
0.256901 0.596155 0.224033
0.311131 0.600122 0.228641
0.363195 0.604791 0.234531
0.418097 0.615869 0.211307
0.478645 0.627405 0.178897
0.543999 0.638422 0.132326
0.613306 0.648371 0.000000
0.677089 0.648737 0.000000
0.727138 0.636011 0.000000
0.761837 0.618067 0.000000
0.793515 0.599908 0.000000
0.823026 0.582086 0.000000
0.851499 0.564904 0.000000
0.879057 0.548394 0.000000
0.905791 0.532616 0.000000
0.931914 0.518486 0.000000
0.957549 0.506737 0.000000
0.981872 0.495003 0.000000
1.000000 0.483223 0.000000
1.000000 0.471412 0.000000
1.000000 0.459724 0.000000
1.000000 0.447272 0.000000
1.000000 0.431464 0.000000
1.000000 0.415015 0.000000
1.000000 0.397375 0.000000
0.000000 0.625757 0.293767
0.010376 0.626429 0.293095
0.067659 0.626947 0.291997
0.112306 0.628382 0.290135
0.127108 0.630488 0.274693
0.141970 0.633478 0.250919
0.189029 0.636347 0.239109
0.249760 0.638697 0.242832
0.304509 0.641871 0.247227
0.357092 0.645838 0.252567
0.408240 0.651698 0.251621
0.463386 0.661830 0.226078
0.523003 0.671656 0.192966
0.586450 0.680629 0.146609
0.653285 0.688136 0.051637
0.716457 0.688563 0.000000
0.761929 0.671504 0.000000
0.793301 0.651575 0.000000
0.822599 0.632197 0.000000
0.850797 0.613733 0.000000
0.878111 0.595972 0.000000
0.904570 0.579004 0.000000
0.930114 0.562493 0.000000
0.954742 0.546441 0.000000
0.979034 0.532891 0.000000
1.000000 0.520562 0.000000
1.000000 0.508171 0.000000
1.000000 0.495827 0.000000
1.000000 0.483375 0.000000
1.000000 0.469215 0.000000
1.000000 0.452827 0.000000
1.000000 0.435401 0.000000
0.003540 0.666865 0.315740
0.058656 0.667475 0.315404
0.084199 0.668025 0.314488
0.122133 0.669245 0.312932
0.141787 0.671168 0.301640
0.155123 0.674037 0.280949
0.180453 0.677272 0.258946
0.242954 0.679469 0.262425
0.298802 0.681971 0.266941
0.351141 0.685084 0.271946
0.401923 0.688411 0.277714
0.451911 0.694606 0.268101
0.505425 0.702663 0.241855
0.563073 0.710079 0.208103
0.624018 0.716518 0.162448
0.687861 0.721920 0.083467
0.751034 0.723323 0.000000
0.792630 0.703120 0.000000
0.822171 0.682368 0.000000
0.850553 0.662715 0.000000
0.877867 0.643977 0.000000
0.904326 0.625971 0.000000
0.929839 0.608545 0.000000
0.954406 0.591485 0.000000
0.978058 0.574731 0.000000
1.000000 0.558404 0.000000
1.000000 0.545342 0.000000
1.000000 0.532250 0.000000
1.000000 0.519280 0.000000
1.000000 0.505852 0.000000
1.000000 0.489784 0.000000
1.000000 0.472450 0.000000
0.066590 0.702968 0.336248
0.083894 0.703365 0.335760
0.103304 0.703700 0.335302
0.135103 0.704677 0.333989
0.158511 0.706355 0.326452
0.170474 0.708675 0.308598
0.184390 0.711727 0.284581
0.236332 0.713832 0.281224
0.292058 0.715877 0.285252
0.344152 0.718257 0.290043
0.394110 0.721035 0.295903
0.442695 0.723873 0.302281
0.491066 0.730526 0.284062
0.543328 0.737209 0.257176
0.599023 0.743130 0.223575
0.657527 0.748104 0.178866
0.718868 0.752010 0.109255
0.782528 0.754849 0.000000
0.820798 0.732479 0.000000
0.849607 0.711391 0.000000
0.876860 0.691432 0.000000
0.903136 0.672297 0.000000
0.928466 0.653803 0.000000
0.953002 0.635920 0.000000
0.976623 0.618280 0.000000
0.999329 0.601007 0.000000
1.000000 0.584039 0.000000
1.000000 0.568505 0.000000
1.000000 0.554742 0.000000
1.000000 0.541070 0.000000
1.000000 0.526085 0.000000
1.000000 0.508690 0.000000
0.097261 0.736019 0.356420
0.109987 0.736568 0.356207
0.132418 0.745693 0.361913
0.158907 0.746456 0.361059
0.184939 0.747585 0.356939
0.194980 0.749386 0.341741
0.207126 0.751675 0.320836
0.238376 0.753750 0.306584
0.293004 0.755032 0.310460
0.343908 0.756649 0.315099
0.392859 0.758511 0.320470
0.440406 0.760433 0.326452
0.486488 0.762936 0.328344
0.533104 0.768551 0.305272
0.583307 0.773587 0.277623
0.636896 0.777920 0.243595
0.693477 0.781460 0.200107
0.752621 0.784085 0.137240
0.814145 0.785855 0.000000
0.851164 0.763577 0.000000
0.879332 0.741634 0.000000
0.905119 0.720943 0.000000
0.930083 0.701045 0.000000
0.954040 0.681819 0.000000
0.976989 0.662959 0.000000
0.999084 0.644495 0.000000
1.000000 0.626429 0.000000
1.000000 0.608637 0.000000
1.000000 0.591180 0.000000
1.000000 0.575952 0.000000
1.000000 0.561334 0.000000
1.000000 0.544305 0.000000
0.127626 0.768795 0.377813
0.138155 0.770138 0.378424
0.150820 0.771542 0.379126
0.174807 0.773159 0.379492
0.204135 0.774868 0.379156
0.213474 0.776822 0.366186
0.224186 0.779049 0.348425
0.237400 0.781613 0.325689
0.290043 0.782681 0.329503
0.339208 0.783963 0.333989
0.386908 0.785428 0.339055
0.433143 0.786984 0.344732
0.478340 0.788479 0.350988
0.521752 0.791592 0.344579
0.566766 0.796231 0.320714
0.615198 0.800381 0.292699
0.666804 0.803861 0.258701
0.721431 0.806607 0.215732
0.778714 0.808713 0.156161
0.838560 0.810025 0.000000
0.875395 0.788876 0.000000
0.903593 0.766873 0.000000
0.928527 0.746059 0.000000
0.952544 0.725948 0.000000
0.975494 0.706355 0.000000
0.997620 0.687129 0.000000
1.000000 0.668269 0.000000
1.000000 0.649744 0.000000
1.000000 0.631464 0.000000
1.000000 0.613397 0.000000
1.000000 0.595727 0.000000
1.000000 0.579431 0.000000
0.152895 0.796567 0.396796
0.162142 0.797696 0.397681
0.172976 0.798978 0.398322
0.193606 0.800320 0.399145
0.221805 0.801724 0.399908
0.233463 0.803403 0.390356
0.243259 0.805325 0.374945
0.254398 0.807645 0.355322
0.290074 0.809201 0.349157
0.337560 0.810178 0.353491
0.383520 0.811398 0.358587
0.428290 0.812711 0.363958
0.472084 0.813840 0.369909
0.515038 0.814908 0.376562
0.555749 0.818448 0.361517
0.599145 0.822385 0.336950
0.645899 0.825803 0.308415
0.695857 0.828641 0.274144
0.748775 0.830869 0.232029
0.804349 0.832547 0.175418
0.862425 0.833371 0.067323
0.899290 0.813413 0.000000
0.927184 0.791043 0.000000
0.951080 0.770108 0.000000
0.973999 0.749599 0.000000
0.996033 0.729549 0.000000
1.000000 0.709865 0.000000
1.000000 0.690639 0.000000
1.000000 0.671534 0.000000
1.000000 0.652644 0.000000
1.000000 0.633936 0.000000
1.000000 0.615106 0.000000
0.178378 0.823209 0.416175
0.185855 0.824216 0.417182
0.196170 0.825284 0.417884
0.214420 0.826505 0.419043
0.239994 0.827634 0.420417
0.255406 0.828977 0.414435
0.264103 0.830655 0.401404
0.274052 0.832639 0.384344
0.293553 0.834562 0.369818
0.338811 0.835294 0.373968
0.382727 0.836179 0.378637
0.425849 0.837095 0.384070
0.467994 0.837919 0.389807
0.509514 0.838712 0.395911
0.550011 0.839719 0.400702
0.588525 0.843656 0.379065
0.630701 0.847257 0.354559
0.676234 0.850523 0.325780
0.725032 0.853300 0.291875
0.776761 0.855528 0.250706
0.831235 0.857115 0.196811
0.888121 0.857877 0.108705
0.924773 0.838743 0.000000
0.952453 0.815946 0.000000
0.975341 0.794675 0.000000
0.997284 0.773831 0.000000
1.000000 0.753353 0.000000
1.000000 0.733120 0.000000
1.000000 0.713100 0.000000
1.000000 0.693111 0.000000
1.000000 0.673213 0.000000
1.000000 0.653407 0.000000
0.209384 0.852018 0.439155
0.215427 0.852537 0.439704
0.223239 0.852964 0.440345
0.239048 0.853513 0.441321
0.262089 0.854063 0.442939
0.280949 0.854887 0.440375
0.288640 0.856291 0.428931
0.297856 0.858061 0.414801
0.308202 0.860258 0.396979
0.345953 0.861143 0.397559
0.387579 0.861875 0.402441
0.428779 0.862608 0.407691
0.469184 0.863218 0.413428
0.508995 0.863706 0.419471
0.548241 0.864134 0.426062
0.585382 0.865690 0.422400
0.622156 0.869108 0.400214
0.662623 0.872190 0.374548
0.706447 0.874846 0.345464
0.753445 0.876982 0.310948
0.803311 0.878538 0.269413
0.855772 0.879362 0.216190
0.910674 0.879301 0.135317
0.946288 0.860472 0.000000
0.973510 0.837125 0.000000
0.995270 0.815610 0.000000
1.000000 0.794430 0.000000
1.000000 0.773556 0.000000
1.000000 0.752926 0.000000
1.000000 0.732235 0.000000
1.000000 0.711452 0.000000
1.000000 0.690700 0.000000
0.236484 0.876127 0.459571
0.241733 0.876555 0.460243
0.248905 0.877012 0.460975
0.263584 0.877409 0.462409
0.284611 0.877775 0.464546
0.306554 0.878264 0.465095
0.313390 0.879423 0.455085
0.321416 0.880827 0.442725
0.330938 0.882628 0.427619
0.354528 0.883879 0.420356
0.393591 0.884337 0.424964
0.432349 0.884794 0.429938
0.470802 0.885161 0.435554
0.508904 0.885435 0.441474
0.546532 0.885679 0.447822
0.583795 0.885863 0.454475
0.617578 0.888212 0.442603
0.652949 0.891325 0.419867
0.691951 0.894102 0.393683
0.734157 0.896483 0.363958
0.779599 0.898314 0.329229
0.827909 0.899504 0.287724
0.878843 0.899962 0.235416
0.932219 0.899504 0.158816
0.965576 0.880095 0.000000
0.992493 0.856260 0.000000
1.000000 0.834562 0.000000
1.000000 0.813199 0.000000
1.000000 0.791958 0.000000
1.000000 0.770657 0.000000
1.000000 0.749294 0.000000
1.000000 0.727749 0.000000
0.268956 0.901518 0.483436
0.273960 0.901976 0.484291
0.280461 0.902220 0.485176
0.293492 0.902373 0.486793
0.312779 0.902434 0.489235
0.336828 0.902403 0.492866
0.343359 0.903136 0.484382
0.350195 0.904112 0.473487
0.358221 0.905364 0.459998
0.369360 0.906737 0.446082
0.404852 0.906645 0.450080
0.440436 0.906645 0.454505
0.476295 0.906615 0.459327
0.511894 0.906462 0.464698
0.547204 0.906188 0.470161
0.582208 0.905882 0.475807
0.617151 0.905547 0.482094
0.647547 0.908385 0.461738
0.681422 0.911131 0.438331
0.718807 0.913603 0.411749
0.759518 0.915709 0.381506
0.803342 0.917205 0.346166
0.849943 0.917906 0.303655
0.899107 0.917754 0.250309
0.950500 0.916625 0.174990
0.984924 0.899260 0.000000
1.000000 0.874693 0.000000
1.000000 0.852689 0.000000
1.000000 0.830900 0.000000
1.000000 0.809018 0.000000
1.000000 0.787076 0.000000
1.000000 0.764797 0.000000
0.297704 0.922728 0.504753
0.302403 0.923064 0.505760
0.308415 0.923308 0.506828
0.320409 0.923369 0.508721
0.338354 0.923247 0.511650
0.361028 0.923095 0.515709
0.371221 0.923552 0.510979
0.377325 0.924437 0.501366
0.384771 0.925566 0.490211
0.393347 0.926909 0.477150
0.418311 0.927306 0.475074
0.451423 0.927214 0.479377
0.484779 0.927092 0.484077
0.518212 0.926879 0.489021
0.551598 0.926543 0.494301
0.584802 0.926116 0.499702
0.617884 0.925689 0.505516
0.649134 0.926177 0.504356
0.678340 0.928832 0.483986
0.710872 0.931304 0.460548
0.746609 0.933440 0.433692
0.785519 0.935088 0.402380
0.827420 0.936065 0.365728
0.872129 0.936309 0.322301
0.919585 0.935607 0.267887
0.969390 0.934081 0.193149
1.000000 0.917510 0.053040
1.000000 0.892576 0.000000
1.000000 0.869841 0.000000
1.000000 0.847471 0.000000
1.000000 0.824949 0.000000
1.000000 0.801999 0.000000
0.329717 0.943572 0.528252
0.333928 0.943755 0.529198
0.339300 0.943816 0.530236
0.350011 0.943664 0.532158
0.366125 0.943389 0.535119
0.386816 0.942992 0.539330
0.400244 0.943084 0.537774
0.405676 0.943755 0.529442
0.412116 0.944610 0.519493
0.419562 0.945769 0.508080
0.434272 0.946593 0.500145
0.464546 0.946410 0.504204
0.495369 0.946136 0.508476
0.526604 0.945800 0.513298
0.557671 0.945312 0.518029
0.588891 0.944762 0.523095
0.620081 0.944091 0.528344
0.651270 0.943450 0.534173
0.679011 0.944732 0.525414
0.706935 0.947112 0.504692
0.737942 0.949248 0.481117
0.772061 0.950988 0.454108
0.809110 0.952178 0.421881
0.849119 0.952728 0.383856
0.892149 0.952483 0.338628
0.937865 0.951385 0.283268
0.986145 0.949432 0.207828
1.000000 0.934081 0.076967
1.000000 0.908507 0.000000
1.000000 0.884825 0.000000
1.000000 0.861875 0.000000
1.000000 0.838468 0.000000
0.360876 0.962524 0.551202
0.364813 0.962615 0.552178
0.369451 0.962615 0.553185
0.379431 0.962463 0.555261
0.394507 0.962188 0.558556
0.413947 0.961883 0.563256
0.431189 0.961913 0.565545
0.436957 0.962829 0.558953
0.443702 0.963958 0.551171
0.451362 0.965270 0.542229
0.459907 0.966766 0.531975
0.486061 0.966918 0.534813
0.514641 0.966766 0.539544
0.543542 0.966461 0.544305
0.572564 0.965972 0.549126
0.601465 0.965270 0.553918
0.630488 0.964477 0.558831
0.659480 0.963653 0.563958
0.688563 0.962799 0.569665
0.712551 0.964721 0.553582
0.738705 0.966735 0.532860
0.767788 0.968383 0.509117
0.799741 0.969604 0.481392
0.834623 0.970245 0.448798
0.872557 0.970245 0.409735
0.913451 0.969543 0.362860
0.957305 0.967956 0.305394
1.000000 0.965515 0.229618
1.000000 0.951354 0.109163
1.000000 0.924681 0.000000
1.000000 0.899565 0.000000
1.000000 0.875517 0.000000
0.399725 0.982849 0.579431
0.403052 0.982818 0.580316
0.407172 0.982727 0.581323
0.416022 0.982422 0.583368
0.429603 0.981964 0.586725
0.447333 0.981353 0.591394
0.467018 0.980804 0.596307
0.471595 0.981353 0.590326
0.476967 0.982025 0.583185
0.483223 0.982879 0.574975
0.490089 0.983825 0.565515
0.506615 0.984070 0.562585
0.531975 0.983551 0.566400
0.557946 0.982940 0.570367
