data/fiter_cube/93231427/1022694/file.cube
# Created by Adobe Lightroom plugin Export LUT (1.17.0)
# www.johnrellis.com/lightroom/exportlut.htm
# Preset: 工业风黑金_06 云集后期
# Color profile: C:\Program Files (x86)\Common Files\Adobe\Color\Profiles\Recommended\AdobeRGB1998.icc
LUT_3D_SIZE 32
DOMAIN_MIN 0.0 0.0 0.0
DOMAIN_MAX 1.0 1.0 1.0
0.068452 0.068391 0.067994
0.068452 0.068391 0.067994
0.072877 0.068025 0.068696
0.088319 0.067384 0.069001
0.105104 0.069459 0.068940
0.121859 0.072908 0.069001
0.141421 0.076295 0.069093
0.164279 0.081270 0.068971
0.191501 0.087129 0.067628
0.224002 0.094575 0.065461
0.262486 0.103975 0.061555
0.306859 0.114839 0.053712
0.355749 0.127382 0.033906
0.407874 0.140719 0.004334
0.460975 0.154330 0.000000
0.523033 0.169802 0.000000
0.595727 0.188144 0.000000
0.657282 0.204074 0.000000
0.708705 0.218173 0.000000
0.753811 0.231113 0.000000
0.793545 0.243076 0.000000
0.829129 0.254368 0.000000
0.860655 0.264591 0.000000
0.889220 0.274449 0.000000
0.915282 0.283482 0.000000
0.939849 0.292546 0.000000
0.963745 0.301884 0.000000
0.987182 0.311620 0.000000
1.000000 0.322393 0.000000
1.000000 0.334325 0.000000
1.000000 0.348211 0.000000
1.000000 0.364599 0.000000
0.068452 0.068391 0.067994
0.068452 0.068391 0.067994
0.072877 0.068025 0.068696
0.088899 0.068971 0.068482
0.104921 0.071504 0.068788
0.121462 0.074556 0.069245
0.140505 0.078035 0.069001
0.162905 0.082460 0.068574
0.189639 0.088533 0.067659
0.221530 0.096010 0.065553
0.259037 0.104921 0.061921
0.302373 0.115877 0.054047
0.350408 0.127993 0.035340
0.401526 0.141085 0.008087
0.454139 0.154726 0.000000
0.515129 0.170016 0.000000
0.584619 0.187411 0.000000
0.644739 0.202853 0.000000
0.696315 0.216709 0.000000
0.742245 0.229618 0.000000
0.782956 0.241489 0.000000
0.819211 0.252445 0.000000
0.851530 0.262760 0.000000
0.880919 0.272313 0.000000
0.907805 0.281468 0.000000
0.933165 0.290501 0.000000
0.957855 0.299962 0.000000
0.981994 0.309819 0.000000
1.000000 0.320500 0.000000
1.000000 0.332464 0.000000
1.000000 0.346136 0.000000
1.000000 0.362219 0.000000
0.068452 0.068391 0.067994
0.068391 0.068391 0.068391
0.073640 0.069581 0.068147
0.088869 0.072175 0.068605
0.104341 0.074342 0.068940
0.121035 0.076905 0.069062
0.139742 0.080415 0.069215
0.161746 0.084871 0.068788
0.187991 0.090394 0.067597
0.219486 0.097719 0.065553
0.256474 0.106661 0.062013
0.299443 0.117372 0.054536
0.347143 0.129763 0.036164
0.397894 0.143008 0.008179
0.449989 0.156100 0.000000
0.511101 0.171511 0.000000
0.578424 0.188540 0.000000
0.637507 0.203372 0.000000
0.689296 0.217319 0.000000
0.735744 0.229862 0.000000
0.777188 0.241703 0.000000
0.814023 0.252628 0.000000
0.846860 0.262913 0.000000
0.876646 0.272313 0.000000
0.903899 0.281468 0.000000
0.929595 0.290379 0.000000
0.954681 0.299687 0.000000
0.979187 0.309697 0.000000
1.000000 0.320256 0.000000
1.000000 0.332219 0.000000
1.000000 0.345708 0.000000
1.000000 0.361517 0.000000
0.070893 0.071199 0.070039
0.071473 0.072236 0.070680
0.073274 0.073457 0.071595
0.085573 0.077943 0.071565
0.104311 0.080140 0.068788
0.120790 0.082185 0.068940
0.139590 0.085084 0.068727
0.161440 0.089326 0.068330
0.187411 0.095247 0.067445
0.218296 0.102449 0.065461
0.254856 0.111421 0.061463
0.297276 0.122072 0.053620
0.344091 0.134554 0.035279
0.394324 0.147494 0.007782
0.446174 0.160555 0.000000
0.507195 0.175906 0.000000
0.571954 0.192172 0.000000
0.629206 0.206455 0.000000
0.680140 0.219516 0.000000
0.726070 0.231937 0.000000
0.767666 0.243351 0.000000
0.804990 0.253788 0.000000
0.839017 0.263859 0.000000
0.870481 0.273655 0.000000
0.899657 0.282994 0.000000
0.927123 0.292485 0.000000
0.953368 0.302068 0.000000
0.978576 0.312139 0.000000
1.000000 0.322728 0.000000
1.000000 0.334356 0.000000
1.000000 0.347356 0.000000
1.000000 0.362615 0.000000
0.074281 0.076265 0.073091
0.074861 0.077211 0.073701
0.076661 0.077607 0.074708
0.081025 0.080354 0.076722
0.095460 0.085695 0.076478
0.118318 0.088808 0.070283
0.138430 0.091524 0.068452
0.159945 0.095888 0.068025
0.185458 0.101320 0.066835
0.215793 0.108858 0.064820
0.251469 0.117800 0.061311
0.292973 0.128481 0.052705
0.339422 0.140810 0.034333
0.389288 0.153811 0.007019
0.441199 0.166934 0.000000
0.503716 0.182986 0.000000
0.567224 0.198642 0.000000
0.624659 0.212833 0.000000
0.676020 0.225742 0.000000
0.721981 0.237613 0.000000
0.763302 0.248386 0.000000
0.800626 0.258579 0.000000
0.834806 0.268406 0.000000
0.866697 0.277775 0.000000
0.896422 0.286992 0.000000
0.924407 0.296269 0.000000
0.951019 0.305577 0.000000
0.976440 0.315343 0.000000
1.000000 0.325658 0.000000
1.000000 0.336919 0.000000
1.000000 0.349615 0.000000
1.000000 0.364446 0.000000
0.077699 0.082216 0.075990
0.079591 0.083192 0.077821
0.081209 0.083558 0.079042
0.083528 0.084138 0.080262
0.088411 0.086732 0.082338
0.105165 0.093599 0.081514
0.131319 0.099031 0.074556
0.158206 0.103792 0.068299
0.185245 0.109804 0.066468
0.215824 0.117281 0.063813
0.251347 0.126772 0.059663
0.292546 0.137850 0.050050
0.338598 0.150271 0.030426
0.388434 0.163363 0.002594
0.440406 0.176577 0.000000
0.504234 0.192996 0.000000
0.566613 0.208682 0.000000
0.623499 0.222324 0.000000
0.675196 0.235080 0.000000
0.721736 0.246525 0.000000
0.763699 0.257359 0.000000
0.801602 0.267063 0.000000
0.888823 0.297124 0.000000
0.915679 0.305364 0.000000
0.940154 0.313329 0.000000
0.963012 0.321111 0.000000
0.984649 0.329046 0.000000
1.000000 0.337621 0.000000
1.000000 0.347051 0.000000
1.000000 0.357641 0.000000
1.000000 0.369940 0.000000
1.000000 0.384588 0.000000
0.083009 0.088594 0.081117
0.085054 0.089418 0.083131
0.087068 0.089937 0.085145
0.088014 0.089754 0.085725
0.091615 0.091524 0.086610
0.096773 0.093782 0.087984
0.118532 0.103273 0.086366
0.149630 0.112642 0.079927
0.185611 0.121157 0.070100
0.222690 0.130922 0.063020
0.263798 0.142458 0.055116
0.308873 0.155032 0.038453
0.356420 0.168063 0.013153
0.406867 0.181094 0.000000
0.459571 0.194400 0.000000
0.528130 0.212192 0.000000
0.590112 0.227726 0.000000
0.645838 0.240879 0.000000
0.696345 0.253056 0.000000
0.742977 0.264530 0.000000
0.786496 0.275547 0.000000
0.827420 0.286534 0.000000
0.865385 0.297276 0.000000
0.899596 0.307622 0.000000
0.929808 0.317205 0.000000
0.955932 0.325780 0.000000
0.979370 0.333959 0.000000
1.000000 0.342260 0.000000
1.000000 0.351263 0.000000
1.000000 0.361303 0.000000
1.000000 0.372869 0.000000
1.000000 0.386847 0.000000
0.087678 0.094179 0.085634
0.089662 0.094667 0.087251
0.091829 0.095674 0.089113
0.092958 0.095460 0.090181
0.094697 0.095705 0.090944
0.099062 0.098238 0.091951
0.105440 0.101320 0.094148
0.130282 0.112154 0.090608
0.165469 0.123934 0.083467
0.206241 0.136294 0.073732
0.254795 0.150546 0.058808
0.301244 0.164370 0.040192
0.352880 0.179232 0.009308
0.405249 0.193454 0.000000
0.462776 0.208682 0.000000
0.526726 0.225345 0.000000
0.585840 0.239872 0.000000
0.640040 0.252476 0.000000
0.690150 0.264225 0.000000
0.736721 0.275212 0.000000
0.780270 0.285679 0.000000
0.821012 0.295872 0.000000
0.859007 0.306035 0.000000
0.893370 0.315526 0.000000
0.923919 0.324559 0.000000
0.950500 0.332738 0.000000
0.974456 0.340459 0.000000
0.996796 0.348180 0.000000
1.000000 0.356786 0.000000
1.000000 0.366339 0.000000
1.000000 0.377447 0.000000
1.000000 0.390723 0.000000
0.093141 0.100313 0.090303
0.094331 0.100862 0.091859
0.096407 0.101534 0.093599
0.098146 0.101961 0.095338
0.099092 0.101289 0.095613
0.102449 0.103029 0.096651
0.108186 0.106294 0.097719
0.115663 0.109957 0.100832
0.145174 0.122530 0.095247
0.184482 0.137392 0.087221
0.230381 0.152773 0.076081
0.285649 0.170596 0.058289
0.342870 0.188357 0.014130
0.397620 0.204227 0.000000
0.465003 0.223819 0.000000
0.529595 0.241215 0.000000
0.586481 0.254765 0.000000
0.639521 0.266941 0.000000
0.688655 0.278233 0.000000
0.734737 0.288365 0.000000
0.777829 0.298222 0.000000
0.818204 0.307927 0.000000
0.855833 0.317205 0.000000
0.889982 0.326177 0.000000
0.920470 0.334508 0.000000
0.947234 0.341863 0.000000
0.971374 0.349096 0.000000
0.993896 0.356329 0.000000
1.000000 0.364233 0.000000
1.000000 0.373175 0.000000
1.000000 0.383551 0.000000
1.000000 0.396216 0.000000
0.098177 0.107210 0.095369
0.099672 0.107668 0.096559
0.101350 0.108339 0.097963
0.103944 0.109041 0.100526
0.104646 0.107973 0.100618
0.105959 0.108003 0.101045
0.111147 0.110903 0.102541
0.117433 0.114351 0.104158
0.128054 0.119997 0.107851
0.162295 0.135073 0.100771
0.205661 0.151949 0.090944
0.256779 0.170352 0.078126
0.316808 0.190921 0.056306
0.385718 0.213199 0.000000
0.456153 0.235233 0.000000
0.523430 0.254307 0.000000
0.588251 0.271122 0.000000
0.645411 0.284855 0.000000
0.693782 0.295445 0.000000
0.738216 0.304814 0.000000
0.779202 0.313451 0.000000
0.817136 0.321691 0.000000
0.852567 0.329534 0.000000
0.885161 0.337133 0.000000
0.914824 0.344366 0.000000
0.941680 0.351110 0.000000
0.966491 0.357855 0.000000
0.989899 0.364904 0.000000
1.000000 0.372686 0.000000
1.000000 0.381353 0.000000
1.000000 0.391699 0.000000
1.000000 0.403937 0.000000
0.103761 0.113954 0.100099
0.104860 0.114412 0.101198
0.106477 0.115053 0.102541
0.109743 0.116243 0.105592
0.110658 0.115175 0.105867
0.110842 0.113802 0.105989
0.114687 0.115846 0.107057
0.120821 0.119722 0.108980
0.128359 0.123384 0.111025
0.143801 0.132143 0.114504
0.182895 0.149447 0.106447
0.231540 0.168978 0.095125
0.286748 0.189578 0.079530
0.357702 0.215702 0.047852
0.435706 0.242008 0.000000
0.510979 0.264622 0.000000
0.574792 0.282048 0.000000
0.635096 0.297154 0.000000
0.690425 0.310430 0.000000
0.737392 0.320470 0.000000
0.777890 0.328618 0.000000
0.815610 0.336217 0.000000
0.850950 0.343542 0.000000
0.883391 0.350530 0.000000
0.912963 0.357031 0.000000
0.939605 0.363104 0.000000
0.964202 0.369085 0.000000
0.987427 0.375463 0.000000
1.000000 0.382391 0.000000
1.000000 0.390448 0.000000
1.000000 0.400000 0.000000
1.000000 0.411627 0.000000
0.109865 0.121981 0.105501
0.110658 0.122469 0.106325
0.112154 0.122805 0.107820
0.115480 0.123873 0.110689
0.117250 0.123751 0.111940
0.117372 0.121889 0.111696
0.118410 0.121096 0.111940
0.124544 0.124971 0.113741
0.132235 0.129732 0.115938
0.140658 0.134035 0.119081
0.162539 0.145998 0.121828
0.206943 0.166018 0.112917
0.287388 0.204288 0.102083
0.365942 0.236301 0.077852
0.452338 0.267948 0.002594
0.538445 0.295872 0.000000
0.618006 0.318853 0.000000
0.679866 0.334264 0.000000
0.729915 0.344945 0.000000
0.774502 0.354040 0.000000
0.814908 0.361791 0.000000
0.848966 0.367620 0.000000
0.878752 0.372351 0.000000
0.906554 0.377081 0.000000
0.932250 0.381567 0.000000
0.955993 0.386114 0.000000
0.978058 0.390661 0.000000
0.999023 0.395422 0.000000
1.000000 0.401129 0.000000
1.000000 0.408118 0.000000
1.000000 0.416724 0.000000
1.000000 0.427558 0.000000
0.117952 0.133181 0.112703
0.118959 0.133577 0.113497
0.120333 0.133730 0.114870
0.123201 0.134707 0.117342
0.126314 0.134890 0.120027
0.126009 0.132174 0.119295
0.125063 0.129274 0.118410
0.129183 0.131472 0.119478
0.137057 0.136416 0.121889
0.147097 0.142580 0.124971
0.157748 0.148165 0.129366
0.188022 0.165072 0.131838
0.249180 0.194949 0.123659
0.327855 0.230228 0.107851
0.408728 0.262272 0.080018
0.492897 0.292576 0.000000
0.575311 0.318791 0.000000
0.649866 0.339788 0.000000
0.711910 0.354986 0.000000
0.758419 0.364630 0.000000
0.800137 0.372839 0.000000
0.838621 0.380072 0.000000
0.873533 0.386542 0.000000
0.901640 0.390692 0.000000
0.927337 0.394537 0.000000
0.951141 0.398291 0.000000
0.973419 0.402258 0.000000
0.994659 0.406592 0.000000
1.000000 0.411688 0.000000
1.000000 0.418158 0.000000
1.000000 0.426123 0.000000
1.000000 0.436408 0.000000
0.124727 0.142123 0.118379
0.125643 0.142306 0.119326
0.126986 0.142611 0.120211
0.129671 0.143343 0.122774
0.133883 0.144503 0.126650
0.133455 0.141665 0.125826
0.132601 0.138125 0.124514
0.132570 0.136172 0.123934
0.139742 0.141176 0.126436
0.149294 0.147463 0.129702
0.161257 0.154635 0.133547
0.177005 0.164004 0.140597
0.219455 0.188174 0.143709
0.288731 0.221439 0.132967
0.370184 0.256992 0.114382
0.450385 0.287633 0.083894
0.529290 0.315129 0.000000
0.607660 0.339483 0.000000
0.678370 0.359167 0.000000
0.738979 0.373999 0.000000
0.785519 0.383612 0.000000
0.825559 0.391363 0.000000
0.861906 0.398138 0.000000
0.895293 0.404273 0.000000
0.924346 0.409186 0.000000
0.948241 0.412299 0.000000
0.970672 0.415625 0.000000
0.992065 0.419440 0.000000
1.000000 0.424079 0.000000
1.000000 0.429908 0.000000
1.000000 0.437415 0.000000
1.000000 0.447303 0.000000
0.131930 0.151888 0.124483
0.132998 0.152224 0.125368
0.134005 0.152529 0.126406
0.136782 0.153017 0.128817
0.140780 0.153902 0.132326
0.141756 0.151980 0.132998
0.140505 0.148165 0.131502
0.138705 0.143984 0.129824
0.143038 0.146120 0.131075
0.152163 0.152193 0.134218
0.164218 0.160403 0.138766
0.180484 0.171054 0.145174
0.201846 0.184237 0.155062
0.252811 0.212039 0.155367
0.327764 0.247318 0.142367
0.409979 0.282048 0.121645
0.489265 0.311437 0.089235
0.564630 0.336980 0.000000
0.639704 0.360174 0.000000
0.707088 0.378698 0.000000
0.764614 0.392462 0.000000
0.811978 0.402350 0.000000
0.849729 0.409430 0.000000
0.884398 0.415747 0.000000
0.916014 0.421424 0.000000
0.944854 0.426673 0.000000
0.969177 0.430396 0.000000
0.991516 0.434272 0.000000
1.000000 0.438941 0.000000
1.000000 0.444953 0.000000
1.000000 0.452644 0.000000
1.000000 0.462654 0.000000
0.139681 0.162600 0.130953
0.140597 0.163027 0.131930
0.141756 0.163272 0.132906
0.144503 0.163851 0.135348
0.148409 0.164645 0.138827
0.151186 0.164004 0.141238
0.149996 0.159823 0.139590
0.147860 0.155001 0.137453
0.146822 0.151583 0.135958
0.156100 0.158389 0.139712
0.169009 0.167544 0.145113
0.185214 0.178531 0.151247
0.202457 0.189273 0.158358
0.227481 0.204807 0.169711
0.286015 0.235325 0.166201
0.362890 0.270298 0.151125
0.445014 0.304051 0.129183
0.523857 0.333043 0.096559
0.598962 0.358373 0.008026
0.673121 0.381537 0.000000
0.738003 0.399359 0.000000
0.792752 0.412543 0.000000
0.840574 0.422614 0.000000
0.877440 0.429572 0.000000
0.910399 0.435645 0.000000
0.940459 0.441169 0.000000
0.968078 0.446296 0.000000
0.993103 0.451179 0.000000
1.000000 0.455299 0.000000
1.000000 0.460548 0.000000
1.000000 0.467384 0.000000
1.000000 0.476509 0.000000
0.147707 0.173739 0.137728
0.148653 0.174014 0.138491
0.149691 0.174105 0.139590
0.152285 0.174624 0.141726
0.156130 0.175326 0.145174
0.160739 0.175875 0.149416
0.159182 0.171298 0.147341
0.156893 0.165927 0.144991
0.154452 0.160830 0.142885
0.159792 0.164034 0.144778
0.171878 0.172915 0.150149
0.186984 0.183413 0.156069
0.205417 0.195712 0.162844
0.224002 0.206851 0.171023
0.253361 0.224887 0.184085
0.319005 0.258183 0.176883
0.398016 0.293248 0.160769
0.480232 0.326329 0.137728
0.559106 0.355077 0.105348
0.633234 0.380133 0.033326
0.704036 0.402045 0.000000
0.764981 0.418463 0.000000
0.816892 0.430640 0.000000
0.862913 0.440375 0.000000
0.900603 0.447639 0.000000
0.932280 0.453559 0.000000
0.961364 0.459205 0.000000
0.988281 0.464637 0.000000
1.000000 0.470283 0.000000
1.000000 0.475715 0.000000
1.000000 0.482246 0.000000
1.000000 0.491127 0.000000
0.156435 0.186069 0.145113
0.157443 0.186404 0.145998
0.163455 0.192691 0.150881
0.165957 0.192996 0.152987
0.169741 0.193332 0.156435
0.174594 0.193851 0.160739
0.175296 0.190616 0.160769
0.173495 0.185367 0.158694
0.170230 0.179171 0.155856
0.167910 0.173861 0.153262
0.180301 0.183536 0.159091
0.195834 0.194888 0.165652
0.214725 0.207889 0.173159
0.236912 0.222293 0.181308
0.258091 0.234409 0.190799
0.293553 0.256016 0.206394
0.370794 0.293645 0.195041
0.453651 0.329351 0.176944
0.537041 0.361791 0.152743
0.615137 0.389441 0.119661
0.685054 0.412177 0.066835
0.748531 0.430884 0.000000
0.803281 0.444709 0.000000
0.851072 0.455299 0.000000
0.892821 0.463203 0.000000
0.928710 0.469123 0.000000
0.957092 0.473945 0.000000
0.983734 0.478706 0.000000
1.000000 0.484138 0.000000
1.000000 0.490333 0.000000
1.000000 0.497200 0.000000
1.000000 0.505516 0.000000
0.167605 0.201175 0.154055
0.169192 0.202396 0.155459
0.171298 0.203647 0.157259
0.175143 0.205509 0.160433
0.180270 0.207431 0.164706
0.186313 0.209293 0.170077
0.189181 0.207797 0.172580
0.186160 0.200961 0.169406
0.182101 0.193423 0.165560
0.176944 0.184909 0.161013
0.181430 0.186770 0.162325
0.195926 0.197726 0.168795
0.213474 0.210086 0.176089
0.234440 0.224247 0.184024
0.257420 0.238712 0.192844
0.281071 0.252201 0.203372
0.321721 0.276219 0.218448
0.402502 0.314763 0.204990
0.486397 0.350439 0.187015
0.569451 0.382635 0.163149
0.646540 0.410132 0.131991
0.714046 0.432258 0.087678
0.774807 0.450080 0.000000
0.827359 0.463416 0.000000
0.873320 0.473487 0.000000
0.913848 0.481270 0.000000
0.949981 0.487129 0.000000
0.978241 0.492439 0.000000
1.000000 0.498116 0.000000
1.000000 0.504479 0.000000
1.000000 0.511833 0.000000
1.000000 0.520806 0.000000
0.180331 0.218296 0.164431
0.182254 0.219760 0.165927
0.184268 0.221195 0.167697
0.187930 0.222843 0.170626
0.192691 0.224308 0.174746
0.198489 0.225559 0.179721
0.203647 0.225284 0.184329
0.199802 0.217441 0.180392
0.194522 0.208347 0.175631
0.188479 0.198764 0.170321
0.182376 0.189517 0.165133
0.196170 0.200137 0.171481
0.212711 0.212375 0.178714
0.232547 0.226291 0.186770
0.255772 0.241611 0.195438
0.279698 0.256199 0.205081
0.307286 0.272068 0.217563
0.354406 0.299107 0.230564
0.438178 0.338354 0.217075
0.523552 0.374456 0.199191
0.605707 0.406165 0.176089
0.680354 0.432898 0.147433
0.744472 0.453773 0.110018
0.801999 0.470558 0.062776
0.852079 0.483223 0.000000
0.895995 0.492927 0.000000
0.935027 0.500206 0.000000
0.970153 0.505882 0.000000
0.999207 0.511589 0.000000
1.000000 0.518181 0.000000
1.000000 0.525689 0.000000
1.000000 0.534752 0.000000
0.192905 0.235752 0.174319
0.194888 0.237217 0.175937
0.197299 0.238804 0.177768
0.200778 0.240330 0.180758
0.205417 0.241611 0.184726
0.210819 0.242130 0.189334
0.216464 0.242100 0.194491
0.213962 0.234714 0.191806
0.208042 0.224460 0.186374
0.200900 0.213382 0.180179
0.192538 0.201572 0.173373
0.195682 0.201877 0.173495
0.211460 0.213809 0.180636
0.230289 0.227604 0.188876
0.252903 0.243137 0.197757
0.278965 0.260227 0.207614
0.304845 0.275853 0.219181
0.338628 0.295933 0.234958
0.396094 0.328161 0.247227
0.486366 0.370672 0.235172
0.575555 0.408698 0.219150
0.658228 0.441169 0.198550
0.728176 0.465949 0.173892
0.787808 0.485328 0.145602
0.842191 0.501488 0.117983
0.889586 0.513634 0.075776
0.931060 0.522759 0.000000
0.967987 0.529686 0.000000
1.000000 0.535119 0.000000
1.000000 0.540642 0.000000
1.000000 0.548455 0.000000
1.000000 0.558221 0.000000
0.211154 0.260441 0.188449
0.212680 0.261204 0.189792
0.214328 0.261936 0.191104
0.217136 0.262455 0.193515
0.221164 0.262577 0.196872
0.226017 0.262394 0.201022
0.231388 0.261509 0.205814
0.231754 0.256138 0.206088
0.224979 0.244785 0.199771
0.216739 0.232090 0.192660
0.207553 0.219120 0.185061
0.197330 0.205447 0.176699
0.213077 0.217960 0.184421
0.232029 0.232334 0.193149
0.254490 0.248386 0.202670
0.280674 0.266209 0.213291
0.310613 0.285649 0.224887
0.338750 0.302129 0.238346
0.378790 0.326116 0.257603
0.444678 0.362066 0.268009
0.536675 0.404578 0.255772
0.623621 0.441138 0.239963
0.698634 0.469673 0.220584
0.760555 0.490669 0.198062
0.816739 0.508690 0.175448
0.868132 0.524102 0.154757
0.913298 0.535973 0.128420
0.953277 0.545251 0.090974
0.989197 0.552422 0.000000
1.000000 0.557916 0.000000
1.000000 0.563378 0.000000
1.000000 0.573571 0.000000
0.225528 0.279789 0.199527
0.227176 0.280613 0.200748
0.228763 0.281437 0.202060
0.231662 0.281773 0.204532
0.235447 0.281651 0.207584
0.239780 0.280827 0.211460
0.244663 0.279179 0.215915
0.248203 0.275883 0.219120
0.240391 0.263432 0.211978
0.231449 0.249821 0.204074
0.221256 0.235416 0.195590
0.209659 0.219974 0.186313
0.211063 0.218357 0.185275
0.229526 0.232822 0.194186
0.251621 0.249180 0.204135
0.277317 0.267308 0.215061
0.307164 0.287480 0.227481
0.339605 0.308263 0.241123
0.371374 0.326879 0.256809
0.417975 0.355230 0.279911
0.492714 0.395178 0.288457
0.586236 0.438453 0.277684
0.670253 0.473945 0.263798
0.738796 0.499855 0.247227
0.786496 0.511711 0.220035
0.841123 0.529961 0.203738
0.890654 0.545373 0.188449
0.934234 0.557641 0.170443
0.973022 0.567315 0.148165
1.000000 0.575189 0.119326
1.000000 0.581994 0.078248
1.000000 0.588159 0.000000
0.246830 0.307469 0.215610
0.248631 0.308629 0.217136
0.250217 0.309087 0.218448
0.252720 0.308995 0.220584
0.255955 0.307897 0.223209
0.259678 0.306004 0.226474
0.263828 0.303410 0.230259
0.268162 0.299931 0.234318
0.260899 0.287327 0.227878
0.250217 0.271733 0.218570
0.238010 0.255131 0.208438
0.224887 0.237797 0.197848
0.210880 0.220188 0.186831
0.227237 0.233158 0.194888
0.248325 0.249271 0.204959
0.272740 0.267094 0.215824
0.300938 0.286473 0.227726
0.333288 0.307988 0.241154
0.367468 0.329351 0.256443
0.402045 0.349706 0.273960
0.454932 0.382361 0.300908
0.536980 0.425574 0.307286
0.628260 0.467720 0.297368
0.704982 0.499611 0.284306
0.766079 0.521843 0.268376
0.817258 0.538018 0.249027
0.869993 0.556573 0.239353
0.916411 0.571618 0.228702
0.957549 0.583978 0.217014
0.994476 0.594354 0.204440
1.000000 0.603571 0.190982
1.000000 0.612543 0.178988
0.262486 0.327825 0.227176
0.264256 0.328954 0.228611
0.265843 0.329473 0.230014
0.268315 0.329107 0.232029
0.271305 0.327855 0.234562
0.274754 0.325719 0.237675
0.278782 0.322911 0.241276
0.282994 0.319219 0.245182
0.280125 0.309606 0.242741
0.268315 0.293095 0.232395
0.255650 0.275639 0.221744
0.241520 0.257206 0.210330
0.226322 0.238102 0.198306
0.225162 0.233677 0.195560
0.246586 0.250645 0.206302
0.271580 0.269505 0.218204
0.300420 0.290257 0.231296
0.333562 0.312963 0.245792
0.371344 0.337865 0.261967
0.408820 0.361181 0.280369
0.449470 0.385168 0.301427
0.506859 0.420905 0.332097
0.594141 0.466194 0.335851
0.679622 0.505669 0.327245
0.747768 0.533715 0.316045
0.803037 0.553643 0.301854
0.851194 0.569299 0.287358
0.901122 0.588312 0.282719
0.945006 0.604334 0.278599
0.983948 0.618006 0.274296
1.000000 0.630549 0.271427
1.000000 0.642939 0.271397
0.282048 0.352758 0.241764
0.283696 0.353613 0.243107
0.284977 0.353552 0.244083
0.286778 0.352514 0.245640
0.289220 0.350591 0.247715
0.292302 0.347814 0.250401
0.295537 0.344213 0.253452
0.299229 0.339818 0.256931
0.300572 0.333074 0.258427
0.288090 0.315923 0.247532
0.274388 0.297581 0.236027
0.259403 0.278050 0.223697
0.243198 0.257694 0.210819
0.226108 0.236851 0.197574
0.243290 0.250401 0.206241
0.268437 0.269993 0.218814
0.297490 0.291508 0.232761
0.330877 0.315221 0.248112
0.368780 0.340917 0.265049
0.411231 0.368597 0.283696
0.451270 0.393103 0.304784
0.497810 0.421271 0.329961
0.556878 0.458350 0.363195
0.645869 0.504204 0.364294
0.722744 0.539727 0.357336
0.783871 0.564904 0.347570
0.835233 0.583673 0.334844
0.880705 0.599390 0.325811
0.927184 0.618585 0.325353
0.968688 0.636042 0.326818
1.000000 0.651942 0.330144
1.000000 0.667964 0.337072
0.300969 0.376379 0.255497
0.302220 0.376776 0.256504
0.303471 0.376715 0.257481
0.305333 0.375830 0.259098
0.308110 0.374090 0.261387
0.311742 0.372015 0.264500
0.316411 0.369635 0.268559
0.321508 0.366766 0.273075
0.326848 0.363134 0.277928
0.318059 0.348821 0.270146
0.304417 0.330663 0.258579
0.288457 0.310338 0.245335
0.271000 0.288762 0.231357
0.251804 0.265507 0.216281
0.247837 0.257877 0.211337
0.276066 0.280827 0.226566
0.308751 0.305791 0.243290
0.345861 0.332860 0.261631
0.388006 0.362127 0.281712
0.434302 0.393103 0.303441
0.483040 0.424537 0.326726
0.527489 0.451759 0.352117
0.579889 0.484260 0.383124
0.637995 0.522362 0.420844
0.719539 0.564691 0.420356
0.784726 0.595361 0.415412
0.838804 0.618372 0.407446
0.884947 0.636500 0.399908
0.924407 0.650752 0.393957
0.964996 0.669856 0.398291
1.000000 0.689204 0.406775
1.000000 0.708492 0.418891
0.336980 0.418372 0.281926
0.338048 0.418555 0.282780
0.338811 0.417853 0.283452
0.340246 0.416266 0.284672
0.342351 0.413764 0.286442
0.345129 0.410529 0.288884
0.348516 0.406683 0.291875
0.352178 0.402014 0.295262
0.355810 0.396399 0.298772
0.350347 0.383764 0.294316
0.334295 0.363256 0.280674
0.316197 0.340795 0.265660
0.296513 0.316960 0.249912
0.275212 0.291661 0.233219
