data/fiter_cube/93231427/1022694/file.cube
# Created by Adobe Lightroom plugin Export LUT (1.17.0)
# www.johnrellis.com/lightroom/exportlut.htm
# Preset: 工业风黑金_06 云集后期
# Color profile: C:\Program Files (x86)\Common Files\Adobe\Color\Profiles\Recommended\AdobeRGB1998.icc
LUT_3D_SIZE 5
DOMAIN_MIN 0.000000 0.000000 0.000000
DOMAIN_MAX 0.903226 0.903226 0.903226
0.068452 0.068391 0.067994
0.164279 0.081270 0.068971
0.460975 0.154330 0.000000
0.829129 0.254368 0.000000
1.000000 0.322393 0.000000
0.087678 0.094179 0.085634
0.130282 0.112154 0.090608
0.462776 0.208682 0.000000
0.821012 0.295872 0.000000
1.000000 0.356786 0.000000
0.131930 0.151888 0.124483
0.138705 0.143984 0.129824
0.327764 0.247318 0.142367
0.811978 0.402350 0.000000
1.000000 0.438941 0.000000
0.211154 0.260441 0.188449
0.231754 0.256138 0.206088
0.254490 0.248386 0.202670
0.623621 0.441138 0.239963
0.989197 0.552422 0.000000
0.362799 0.448524 0.300389
0.378302 0.432288 0.313787
0.268437 0.283909 0.227115
0.534569 0.470192 0.361212
0.905089 0.691524 0.492348
0.088136 0.110445 0.123842
0.142123 0.114504 0.130159
0.437018 0.170993 0.079194
0.789242 0.289220 0.000000
0.993927 0.336675 0.000000
0.100435 0.137331 0.134249
0.148714 0.143832 0.141207
0.445289 0.212314 0.088930
0.790829 0.316716 0.000000
0.996612 0.363500 0.000000
0.140444 0.186069 0.139834
0.184634 0.196902 0.174655
0.328435 0.259800 0.185946
0.778897 0.394202 0.000000
1.000000 0.447211 0.000000
0.234836 0.308446 0.213779
0.271824 0.310399 0.242649
0.277317 0.272129 0.231998
0.629206 0.455665 0.285130
0.981018 0.557244 0.088930
0.385534 0.490791 0.322881
0.407263 0.476204 0.339178
0.336675 0.351659 0.281712
0.552453 0.488563 0.385870
0.907591 0.703273 0.516655
0.130617 0.265965 0.321996
0.199496 0.259403 0.322911
0.381628 0.245426 0.314305
0.763577 0.279271 0.268009
0.991333 0.368048 0.159762
0.167971 0.301091 0.334630
0.234379 0.300816 0.339239
0.386633 0.277348 0.322515
0.761654 0.317632 0.278691
0.994842 0.389807 0.161685
0.194217 0.376074 0.355810
0.258518 0.375738 0.357458
0.407752 0.364874 0.350958
0.778042 0.427131 0.312902
1.000000 0.464057 0.187137
0.274449 0.421271 0.334295
0.328466 0.433875 0.343969
0.446387 0.430793 0.390295
0.660975 0.516930 0.417823
0.982818 0.583764 0.302739
0.448737 0.616114 0.402136
0.488441 0.610254 0.425086
0.539483 0.555291 0.451514
0.535515 0.487953 0.410620
0.898772 0.716304 0.565881
0.368902 0.521965 0.605127
0.435798 0.527184 0.609796
0.504631 0.476081 0.587274
0.680995 0.458320 0.542168
0.938720 0.569024 0.579248
0.399969 0.542107 0.606561
0.457252 0.545098 0.609552
0.533867 0.507866 0.589288
0.676295 0.471656 0.541588
0.937987 0.570367 0.573205
0.425330 0.586175 0.607477
0.475715 0.586633 0.608698
0.597436 0.584985 0.609735
0.674098 0.519524 0.550042
0.952300 0.600458 0.571923
0.481025 0.663203 0.627436
0.516747 0.658686 0.625147
0.614801 0.651148 0.624262
0.708949 0.618311 0.596277
0.975280 0.673060 0.575647
0.579126 0.730343 0.637934
0.604120 0.727016 0.636927
0.671351 0.715236 0.629053
0.713069 0.660182 0.608301
0.900145 0.757656 0.660609
0.673884 0.725612 0.797971
0.702388 0.731624 0.801419
0.759884 0.737331 0.803769
0.784695 0.691341 0.780545
0.892332 0.701411 0.762875
0.672908 0.729580 0.795651
0.700282 0.734951 0.799039
0.762387 0.743679 0.804196
0.786007 0.698939 0.781338
0.891447 0.705562 0.763210
0.667384 0.747829 0.795590
0.687495 0.749599 0.797574
0.764797 0.764218 0.808927
0.803922 0.737636 0.797543
0.894133 0.726772 0.771786
0.683986 0.790249 0.804379
0.699519 0.790158 0.804990
0.754055 0.795712 0.813504
0.849821 0.818051 0.838926
0.903563 0.771878 0.794186
0.705379 0.845274 0.818418
0.719600 0.846311 0.820310
0.775051 0.857267 0.834928
0.847898 0.867430 0.850065
0.914275 0.846403 0.829343
