data/fiter_cube/93231427/1022694/file.cube
# Created by Adobe Lightroom plugin Export LUT (1.17.0)
# www.johnrellis.com/lightroom/exportlut.htm
# Preset: 工业风黑金_06 云集后期
# Color profile: C:\Program Files (x86)\Common Files\Adobe\Color\Profiles\Recommended\AdobeRGB1998.icc
LUT_3D_SIZE 8
DOMAIN_MIN 0.000000 0.000000 0.000000
DOMAIN_MAX 0.903226 0.903226 0.903226
0.068452 0.068391 0.067994
0.105104 0.069459 0.068940
0.191501 0.087129 0.067628
0.355749 0.127382 0.033906
0.595727 0.188144 0.000000
0.793545 0.243076 0.000000
0.915282 0.283482 0.000000
1.000000 0.322393 0.000000
0.074281 0.076265 0.073091
0.095460 0.085695 0.076478
0.185458 0.101320 0.066835
0.339422 0.140810 0.034333
0.567224 0.198642 0.000000
0.763302 0.248386 0.000000
0.896422 0.286992 0.000000
1.000000 0.325658 0.000000
0.093141 0.100313 0.090303
0.099092 0.101289 0.095613
0.145174 0.122530 0.095247
0.342870 0.188357 0.014130
0.586481 0.254765 0.000000
0.777829 0.298222 0.000000
0.920470 0.334508 0.000000
1.000000 0.364233 0.000000
0.117952 0.133181 0.112703
0.126314 0.134890 0.120027
0.137057 0.136416 0.121889
0.249180 0.194949 0.123659
0.575311 0.318791 0.000000
0.800137 0.372839 0.000000
0.927337 0.394537 0.000000
1.000000 0.411688 0.000000
0.147707 0.173739 0.137728
0.156130 0.175326 0.145174
0.154452 0.160830 0.142885
0.205417 0.195712 0.162844
0.398016 0.293248 0.160769
0.704036 0.402045 0.000000
0.900603 0.447639 0.000000
1.000000 0.470283 0.000000
0.192905 0.235752 0.174319
0.205417 0.241611 0.184726
0.208042 0.224460 0.186374
0.211460 0.213809 0.180636
0.304845 0.275853 0.219181
0.575555 0.408698 0.219150
0.842191 0.501488 0.117983
1.000000 0.535119 0.000000
0.262486 0.327825 0.227176
0.271305 0.327855 0.234562
0.280125 0.309606 0.242741
0.226322 0.238102 0.198306
0.300420 0.290257 0.231296
0.449470 0.385168 0.301427
0.747768 0.533715 0.316045
0.945006 0.604334 0.278599
0.362799 0.448524 0.300389
0.368078 0.443946 0.304814
0.382147 0.426642 0.317266
0.327611 0.350866 0.272435
0.294072 0.299840 0.238346
0.478676 0.433021 0.332982
0.685542 0.569390 0.463142
0.905089 0.691524 0.492348
0.074983 0.083131 0.089693
0.096498 0.085878 0.092226
0.178103 0.099031 0.080049
0.332464 0.146853 0.037629
0.556512 0.205356 0.000000
0.748867 0.251377 0.000000
0.886168 0.286564 0.000000
0.992523 0.320867 0.000000
0.077882 0.093111 0.092103
0.098451 0.096864 0.096284
0.177707 0.111391 0.085451
0.329961 0.156222 0.043000
0.547204 0.215335 0.000000
0.736568 0.259190 0.000000
0.872526 0.291081 0.000000
0.982300 0.323400 0.000000
0.095369 0.109285 0.095247
0.112734 0.116701 0.110140
0.151247 0.132326 0.111727
0.326116 0.186862 0.062531
0.552270 0.256077 0.000000
0.745693 0.299931 0.000000
0.885740 0.329351 0.000000
0.994141 0.357794 0.000000
0.120974 0.140932 0.117189
0.133333 0.145388 0.127687
0.145602 0.145632 0.133303
0.243229 0.194583 0.135286
0.509392 0.290013 0.000000
0.742702 0.354498 0.000000
0.890990 0.383001 0.000000
0.994690 0.403235 0.000000
0.153689 0.185428 0.144656
0.162417 0.186557 0.151858
0.168643 0.175967 0.156222
0.207309 0.198917 0.169345
0.376776 0.282475 0.167666
0.671778 0.387030 0.000000
0.879179 0.440101 0.000000
1.000000 0.464607 0.000000
0.196719 0.244083 0.178988
0.205386 0.245212 0.186160
0.217472 0.234836 0.195987
0.212161 0.215061 0.184634
0.303899 0.276463 0.223453
0.568261 0.406928 0.229435
0.829740 0.496345 0.124941
0.990875 0.530144 0.000000
0.257847 0.326604 0.225376
0.263188 0.322545 0.229801
0.282872 0.313573 0.246799
0.235935 0.247990 0.207095
0.297765 0.288731 0.233127
0.439887 0.379187 0.299870
0.730037 0.521538 0.310979
0.928923 0.589868 0.260258
0.356847 0.447486 0.297337
0.364752 0.445319 0.303593
0.382208 0.430793 0.318303
0.339635 0.362615 0.283085
0.303288 0.309270 0.247105
0.486915 0.440833 0.341924
0.681544 0.567071 0.462745
0.896880 0.682948 0.483131
0.092470 0.124971 0.142885
0.108156 0.125643 0.146181
0.164279 0.127352 0.148409
0.328283 0.137331 0.127047
0.569512 0.205844 0.070619
0.763241 0.275212 0.000000
0.901061 0.325353 0.000000
1.000000 0.347173 0.000000
0.101747 0.135073 0.146395
0.117617 0.136782 0.149172
0.165011 0.136904 0.150851
0.322271 0.150759 0.130068
0.552178 0.214206 0.078492
0.751156 0.280064 0.000000
0.891783 0.329503 0.000000
0.997375 0.351659 0.000000
0.108309 0.158358 0.154269
0.124849 0.160464 0.156954
0.172427 0.165164 0.161532
0.337713 0.196384 0.139956
0.567681 0.257633 0.088502
0.758846 0.313268 0.000000
0.895323 0.359106 0.000000
0.998016 0.377264 0.000000
0.127321 0.170291 0.146731
0.143374 0.179873 0.153628
0.192233 0.195529 0.183413
0.279667 0.234134 0.190341
0.552544 0.313451 0.128878
0.760830 0.364782 0.000000
0.903624 0.404364 0.000000
1.000000 0.422034 0.000000
0.162081 0.224277 0.160555
0.179019 0.230533 0.173556
0.225650 0.241398 0.209995
0.245548 0.238071 0.213260
0.417090 0.321324 0.225681
0.698146 0.407050 0.143740
0.883391 0.449622 0.000000
1.000000 0.476326 0.000000
0.214572 0.290440 0.200717
0.228733 0.293614 0.211460
0.264530 0.293919 0.239139
0.238682 0.242557 0.215793
0.332586 0.305241 0.257420
0.575738 0.422889 0.275059
0.830686 0.506004 0.206729
0.988617 0.540093 0.000000
0.286259 0.380224 0.254246
0.295567 0.377569 0.261021
0.319829 0.365911 0.279271
0.299962 0.312444 0.261723
0.312535 0.304845 0.255375
0.463020 0.402380 0.329046
0.743282 0.543206 0.358770
0.937774 0.610376 0.309453
0.381628 0.493477 0.321996
0.386328 0.487068 0.324956
0.408301 0.472297 0.341344
0.412879 0.433112 0.344274
0.299077 0.307958 0.252567
0.491432 0.448249 0.356725
0.689784 0.578973 0.482002
0.901061 0.697230 0.513054
0.111513 0.204135 0.245823
0.134127 0.206760 0.251438
0.175784 0.187015 0.248142
0.293065 0.196231 0.248478
0.521386 0.195560 0.229007
0.735470 0.250065 0.181308
0.882231 0.311284 0.112917
0.995026 0.360052 0.000000
0.129763 0.221744 0.256443
0.149905 0.222538 0.259495
0.191714 0.206271 0.255131
0.298344 0.208530 0.253910
0.523278 0.210269 0.231693
0.730739 0.261418 0.184237
0.877958 0.317815 0.114900
0.993256 0.364660 0.000000
0.140566 0.245396 0.260746
0.160739 0.246433 0.262699
0.217929 0.245945 0.266453
0.303746 0.239536 0.262730
0.537377 0.259892 0.244114
0.748074 0.312566 0.210056
0.899535 0.361639 0.151064
1.000000 0.393652 0.000000
0.152071 0.287724 0.274998
0.171115 0.288273 0.275792
0.232486 0.293370 0.282689
0.322179 0.294652 0.284428
0.552605 0.331334 0.260960
0.749722 0.371374 0.226139
0.894438 0.404852 0.163882
1.000000 0.432502 0.000000
0.187716 0.311315 0.266697
0.204746 0.311040 0.267033
0.261173 0.316960 0.272953
0.341985 0.330388 0.310857
0.465919 0.380224 0.320836
0.730373 0.444831 0.278721
0.893645 0.471595 0.211643
1.000000 0.488594 0.003326
0.241032 0.366796 0.271031
0.265629 0.381720 0.282261
0.322728 0.395392 0.299687
0.380560 0.380713 0.337560
0.393439 0.364202 0.327306
0.614466 0.471748 0.362341
0.846494 0.538842 0.321202
0.995483 0.556512 0.190127
0.322179 0.468482 0.301091
0.338628 0.469245 0.311559
0.382666 0.464149 0.339361
0.424262 0.440436 0.366278
0.344732 0.338109 0.298283
0.511650 0.449439 0.384405
0.757168 0.574243 0.427680
0.944305 0.636622 0.390234
0.438148 0.583307 0.380743
0.448920 0.581140 0.387488
0.473274 0.566003 0.401495
0.499794 0.532982 0.417456
0.415442 0.417548 0.347356
0.490333 0.454261 0.375311
0.697078 0.593347 0.507591
0.904906 0.716274 0.555016
0.167941 0.334997 0.402899
0.197848 0.337652 0.407416
0.261021 0.327977 0.404120
0.324376 0.288060 0.388251
0.472877 0.300542 0.380804
0.681636 0.312566 0.368597
0.860258 0.359075 0.345525
0.983429 0.406165 0.309270
0.190311 0.348333 0.408270
0.217166 0.352056 0.413977
0.280980 0.347478 0.415717
0.330968 0.301030 0.392950
0.472328 0.308690 0.381781
0.684474 0.322545 0.371405
0.861112 0.368719 0.349004
0.983612 0.411475 0.309453
0.219333 0.378759 0.417792
0.245945 0.382422 0.422309
0.310857 0.381689 0.425788
0.349401 0.338018 0.403906
0.470375 0.333928 0.384527
0.684016 0.346960 0.372534
0.858305 0.392859 0.353033
0.981353 0.423041 0.301518
0.235447 0.417578 0.426703
0.257176 0.417182 0.427070
0.323919 0.417914 0.430182
0.410254 0.412482 0.429969
0.486580 0.382574 0.402869
0.705715 0.405737 0.391485
0.867399 0.441413 0.367590
0.989380 0.452430 0.292241
0.258610 0.467109 0.439155
0.279423 0.467750 0.440345
0.338964 0.465034 0.440223
0.417884 0.456031 0.436378
0.498665 0.438300 0.420661
0.722744 0.473884 0.405432
0.876677 0.499458 0.378058
0.993866 0.507836 0.307195
0.291081 0.479988 0.417121
0.307561 0.479133 0.417090
0.354223 0.470710 0.412299
0.423133 0.461097 0.407538
0.477760 0.443122 0.417945
0.630060 0.512413 0.446387
0.856565 0.576745 0.432776
0.993164 0.588434 0.364294
0.354467 0.524834 0.414801
0.368902 0.526818 0.416449
0.418799 0.536156 0.424292
0.493721 0.551537 0.438056
0.527672 0.505394 0.451972
0.535546 0.480079 0.431861
0.759609 0.601404 0.495247
0.945281 0.659937 0.465553
0.466957 0.637140 0.458778
0.478279 0.637751 0.460029
0.515587 0.640162 0.465126
0.575341 0.634913 0.493324
0.585351 0.581201 0.491218
0.457404 0.436896 0.377661
0.697871 0.604181 0.529931
0.900053 0.727321 0.590509
0.342748 0.503685 0.586694
0.369360 0.506920 0.589868
0.421851 0.500786 0.584771
0.473365 0.475013 0.569909
0.512291 0.408545 0.528099
0.649531 0.428809 0.515251
0.803159 0.497871 0.537011
0.953948 0.545922 0.543633
0.340978 0.499519 0.575250
0.361913 0.500328 0.576379
0.418036 0.498116 0.575647
0.471290 0.475105 0.561212
0.506340 0.410224 0.522637
0.643458 0.429541 0.511376
0.800626 0.497414 0.534173
0.953063 0.545220 0.540520
0.383093 0.530632 0.587243
0.398444 0.529381 0.586267
0.453773 0.529015 0.586969
0.508263 0.512993 0.575921
0.526055 0.446815 0.536736
0.648341 0.454292 0.519249
0.809842 0.506371 0.535271
0.957183 0.556695 0.541741
0.400793 0.559564 0.590631
0.416175 0.558038 0.589319
0.472724 0.559136 0.591028
0.560754 0.567437 0.600031
0.575616 0.516564 0.570184
0.668391 0.505028 0.542962
0.830594 0.544366 0.553979
0.966247 0.582971 0.548486
0.406928 0.587366 0.586694
0.424018 0.587884 0.587579
0.477028 0.588403 0.589685
0.550469 0.587762 0.591760
0.617853 0.576928 0.585687
0.664454 0.534569 0.546532
0.839841 0.569451 0.550988
0.970489 0.595575 0.529747
0.423651 0.624720 0.588678
0.443000 0.627314 0.592035
0.489357 0.626001 0.593133
0.552453 0.621118 0.592370
0.610773 0.606592 0.583185
0.674220 0.586542 0.564660
0.861448 0.632532 0.569482
0.983276 0.648157 0.537652
0.488441 0.667201 0.597925
0.503471 0.668025 0.599878
0.539544 0.663478 0.598657
0.589685 0.654108 0.594293
0.636896 0.633265 0.578546
0.655146 0.591302 0.560815
0.780240 0.653559 0.590387
0.960571 0.711696 0.576867
0.551171 0.706905 0.600702
0.557977 0.704646 0.599176
0.581231 0.697658 0.594354
0.626764 0.695644 0.594079
0.681941 0.700679 0.597406
0.683345 0.639216 0.580194
0.696986 0.616907 0.560266
0.900969 0.751736 0.645869
0.521324 0.618738 0.696864
0.541680 0.623621 0.700374
0.584741 0.627955 0.701869
0.630549 0.625208 0.698116
0.638911 0.585473 0.679988
0.671870 0.527703 0.637781
0.776364 0.562890 0.632746
0.902678 0.638544 0.672267
0.516197 0.615839 0.690242
0.535088 0.619989 0.693324
0.580621 0.625635 0.696254
0.622766 0.620539 0.690700
0.633082 0.582361 0.672358
0.661921 0.522210 0.629877
0.766323 0.554345 0.623316
0.896757 0.631342 0.664363
0.542901 0.636774 0.698146
0.555962 0.638117 0.698909
0.596551 0.641871 0.700832
0.642603 0.640894 0.698787
0.658015 0.609400 0.679408
0.672786 0.547753 0.638819
0.772946 0.573602 0.632563
0.903471 0.647700 0.674159
0.563622 0.661707 0.705318
0.572534 0.660914 0.704372
0.607324 0.662470 0.705135
0.665156 0.669459 0.710658
0.696407 0.653193 0.697658
0.697414 0.593683 0.659937
0.783841 0.603632 0.647822
0.912169 0.665126 0.681910
0.564019 0.679713 0.701198
0.572107 0.678737 0.700221
0.603540 0.678828 0.700618
0.653742 0.682124 0.705013
0.711818 0.684749 0.709163
0.712947 0.634089 0.675135
0.781796 0.623468 0.651148
0.926177 0.678035 0.681910
0.575921 0.708370 0.703548
0.585595 0.708766 0.704250
0.616480 0.710109 0.706661
0.662989 0.713161 0.711696
0.714412 0.714565 0.716213
0.769223 0.711757 0.717464
0.798001 0.667659 0.674464
0.945800 0.710628 0.689387
0.600641 0.747097 0.714412
0.610620 0.748379 0.716243
0.637171 0.749142 0.718624
0.676905 0.750698 0.722683
0.720638 0.748501 0.723445
0.765042 0.739834 0.718349
0.805478 0.713802 0.691981
0.960967 0.761837 0.698817
0.637110 0.784878 0.724788
0.643336 0.784695 0.725093
0.671809 0.789639 0.732052
0.705501 0.789609 0.734279
0.744015 0.784237 0.731350
0.782437 0.768185 0.717189
0.785519 0.715023 0.681849
0.904356 0.788510 0.721920
0.673884 0.725612 0.797971
0.684077 0.728481 0.800046
0.710109 0.732967 0.802090
0.742885 0.736965 0.803922
0.774624 0.734249 0.801328
0.777951 0.699001 0.786374
0.811429 0.657771 0.756405
0.892332 0.701411 0.762875
0.670924 0.724514 0.794949
0.680903 0.727291 0.796994
0.708522 0.732723 0.800076
0.740688 0.736080 0.801389
0.772549 0.733547 0.799008
0.776242 0.698878 0.784482
0.808499 0.656367 0.753689
0.890440 0.700282 0.760800
0.670588 0.729763 0.794064
0.679377 0.731685 0.795407
0.704524 0.735195 0.797116
0.747341 0.745998 0.805051
0.777920 0.743374 0.802487
0.781033 0.709499 0.787869
0.809689 0.665766 0.756619
0.890623 0.706233 0.762692
0.667018 0.740505 0.795468
0.676417 0.742702 0.797269
0.702693 0.746609 0.799802
0.747921 0.756954 0.807523
0.787564 0.761501 0.810697
0.799557 0.737636 0.799924
0.819211 0.693141 0.770443
0.893462 0.719631 0.769070
0.669490 0.756954 0.796139
0.677028 0.758633 0.797940
0.696681 0.760250 0.800015
0.730404 0.764675 0.805692
0.787137 0.776944 0.815488
0.821561 0.772702 0.813016
0.831022 0.729000 0.788815
0.896086 0.736873 0.776547
0.676234 0.779812 0.799222
0.680598 0.779416 0.798978
0.697200 0.779507 0.799832
0.727565 0.782254 0.804166
0.771664 0.789273 0.813596
0.836057 0.808133 0.832792
0.853147 0.780484 0.818723
0.903258 0.765805 0.792020
0.689815 0.810513 0.807553
0.693965 0.810361 0.807614
0.709224 0.810697 0.808804
0.738552 0.814084 0.813901
0.779812 0.820584 0.822904
0.832242 0.832883 0.838468
0.885435 0.842985 0.851774
0.907042 0.796414 0.805264
0.705379 0.845274 0.818418
0.709133 0.845243 0.818601
0.725002 0.847135 0.821500
0.755489 0.853086 0.829435
0.795041 0.860624 0.839689
0.836759 0.865995 0.847837
0.881346 0.869810 0.854612
0.914275 0.846403 0.829343
