data/fiter_cube/59424107/1023395/file.cube
# Created by Adobe Lightroom plugin Export LUT (1.17.0)
# www.johnrellis.com/lightroom/exportlut.htm
# Preset: 情感落日_04 云集
# Color profile: C:\Program Files (x86)\Common Files\Adobe\Color\Profiles\Recommended\AdobeRGB1998.icc
LUT_3D_SIZE 5
DOMAIN_MIN 0.000000 0.000000 0.000000
DOMAIN_MAX 0.903226 0.903226 0.903226
0.106447 0.120241 0.127596
0.190555 0.107912 0.121279
0.571893 0.000000 0.084932
0.880644 0.000000 0.000000
1.000000 0.000000 0.000000
0.086244 0.157839 0.129091
0.168948 0.167514 0.113710
0.586908 0.192172 0.006683
0.882078 0.078431 0.000000
1.000000 0.161410 0.000000
0.000000 0.412238 0.203891
0.125795 0.422675 0.168399
0.466316 0.457679 0.032715
0.881376 0.519615 0.000000
1.000000 0.485939 0.000000
0.000000 0.703792 0.350896
0.134890 0.709651 0.346868
0.405158 0.706630 0.284764
0.762783 0.725704 0.000000
0.999817 0.736843 0.000000
0.140291 0.902953 0.557244
0.312963 0.900847 0.568261
0.510948 0.896086 0.544518
0.728725 0.887938 0.514336
0.955474 0.891814 0.298894
0.089326 0.113191 0.168399
0.163973 0.106752 0.156252
0.536919 0.000000 0.147280
0.869413 0.000000 0.035248
1.000000 0.000000 0.000000
0.064729 0.167300 0.186313
0.178592 0.182528 0.189670
0.544549 0.169802 0.159915
0.869169 0.150729 0.014252
1.000000 0.200717 0.000000
0.000000 0.414679 0.274113
0.173495 0.428748 0.272648
0.462959 0.457557 0.197574
0.869322 0.512200 0.000000
1.000000 0.494362 0.000000
0.000000 0.702083 0.409247
0.147341 0.707668 0.408972
0.424201 0.710323 0.365698
0.760586 0.726436 0.228641
0.998352 0.740505 0.000000
0.087404 0.902525 0.587701
0.295048 0.900481 0.596399
0.553643 0.894713 0.611353
0.735531 0.887633 0.571710
0.952239 0.892973 0.390753
0.000000 0.121462 0.373724
0.174777 0.117189 0.368383
0.426581 0.119539 0.344427
0.805844 0.000000 0.358099
1.000000 0.171115 0.330419
0.000000 0.184421 0.380041
0.149752 0.194095 0.393744
0.433906 0.225498 0.371313
0.804776 0.197818 0.380529
1.000000 0.277501 0.329503
0.000000 0.390784 0.431067
0.078676 0.406653 0.434821
0.450507 0.468788 0.457343
0.809964 0.506126 0.445991
1.000000 0.510063 0.346075
0.000000 0.698726 0.560540
0.000000 0.702358 0.558007
0.465553 0.712886 0.560479
0.747250 0.728817 0.499489
0.988098 0.758511 0.438972
0.000000 0.900084 0.685664
0.222385 0.899474 0.686488
0.531518 0.894438 0.695338
0.745022 0.886687 0.690120
0.938781 0.894224 0.584588
0.000000 0.158450 0.631708
0.092073 0.155276 0.627893
0.447639 0.133761 0.615595
0.703395 0.226322 0.583825
0.952453 0.416541 0.634272
0.000000 0.199954 0.628382
0.000000 0.220249 0.632929
0.437232 0.224521 0.624079
0.701656 0.314153 0.597498
0.950164 0.463020 0.645869
0.000000 0.384863 0.640284
0.000000 0.384863 0.637324
0.370520 0.419593 0.651057
0.691920 0.502007 0.635279
0.947997 0.580865 0.677241
0.000000 0.637568 0.690364
0.000000 0.643397 0.690211
0.346929 0.667414 0.695033
0.712764 0.722621 0.723018
0.951537 0.758450 0.722011
0.000000 0.895445 0.804501
0.000000 0.896147 0.804868
0.459419 0.896178 0.805325
0.743313 0.890623 0.803372
0.921141 0.897826 0.772580
0.000000 0.243839 0.851804
0.141787 0.242039 0.848661
0.469886 0.236851 0.840238
0.743954 0.264164 0.825101
0.892058 0.440986 0.785763
0.000000 0.262394 0.847166
0.000000 0.284672 0.844785
0.443580 0.285588 0.837186
0.729122 0.311620 0.821592
0.887541 0.473060 0.787137
0.000000 0.390600 0.838468
0.000000 0.376013 0.837308
0.315618 0.407080 0.835264
0.685908 0.438911 0.822293
0.882689 0.580255 0.803708
0.000000 0.624689 0.851926
0.000000 0.618250 0.848783
0.000000 0.597406 0.842161
0.578058 0.615595 0.839689
0.885954 0.740444 0.841062
0.000000 0.847929 0.875822
0.000000 0.848173 0.874754
0.240116 0.853178 0.874144
0.604669 0.858122 0.871855
0.894408 0.887938 0.884367
