data/fiter_cube/59424107/1023395/file.cube
# Created by Adobe Lightroom plugin Export LUT (1.17.0)
# www.johnrellis.com/lightroom/exportlut.htm
# Preset: 情感落日_04 云集
# Color profile: C:\Program Files (x86)\Common Files\Adobe\Color\Profiles\Recommended\AdobeRGB1998.icc
LUT_3D_SIZE 8
DOMAIN_MIN 0.000000 0.000000 0.000000
DOMAIN_MAX 0.903226 0.903226 0.903226
0.106447 0.120241 0.127596
0.102113 0.118593 0.125795
0.233646 0.098207 0.118929
0.450202 0.000000 0.101686
0.680629 0.000000 0.059510
0.847837 0.000000 0.000000
0.957610 0.000000 0.000000
1.000000 0.000000 0.000000
0.101747 0.114809 0.123079
0.102419 0.116915 0.123476
0.238712 0.129641 0.116548
0.452674 0.044160 0.096345
0.680446 0.000000 0.030945
0.844968 0.000000 0.000000
0.954925 0.000000 0.000000
1.000000 0.000000 0.000000
0.077638 0.183169 0.134432
0.092988 0.187472 0.121889
0.202426 0.196048 0.109407
0.467628 0.249729 0.052552
0.693812 0.232456 0.000000
0.850797 0.190524 0.000000
0.957977 0.178653 0.000000
1.000000 0.217319 0.000000
0.000000 0.325628 0.174289
0.071809 0.330632 0.169894
0.180362 0.330449 0.145327
0.371710 0.362249 0.080842
0.673701 0.433539 0.000000
0.860655 0.436469 0.000000
0.957702 0.407843 0.000000
1.000000 0.401923 0.000000
0.000000 0.502251 0.239628
0.000000 0.505852 0.235874
0.145815 0.514000 0.193515
0.326024 0.516228 0.171267
0.556451 0.544274 0.000000
0.807309 0.584100 0.000000
0.950347 0.589502 0.000000
1.000000 0.567407 0.000000
0.000000 0.664851 0.324743
0.000000 0.669245 0.324132
0.189456 0.675532 0.319036
0.315404 0.673579 0.263401
0.499489 0.679316 0.213504
0.725216 0.693904 0.000000
0.908812 0.710475 0.000000
1.000000 0.709407 0.000000
0.000000 0.801602 0.431403
0.000000 0.802670 0.431891
0.232547 0.803616 0.434791
0.343511 0.805417 0.385595
0.503197 0.796567 0.374365
0.674098 0.802365 0.299779
0.859434 0.806638 0.139315
0.977996 0.807492 0.000000
0.140291 0.902953 0.557244
0.206760 0.902373 0.559991
0.353216 0.900053 0.573114
0.504143 0.896513 0.590051
0.573083 0.892638 0.541924
0.696559 0.886595 0.530846
0.829862 0.890379 0.449195
0.955474 0.891814 0.298894
0.101900 0.116548 0.123507
0.102144 0.114290 0.122927
0.226139 0.088075 0.119570
0.439887 0.000000 0.103944
0.678401 0.000000 0.034089
0.842771 0.000000 0.000000
0.953613 0.000000 0.000000
1.000000 0.000000 0.000000
0.098207 0.118868 0.126955
0.106203 0.120302 0.127413
0.228977 0.117586 0.121492
0.442603 0.066316 0.101930
0.678401 0.000000 0.013611
0.842130 0.000000 0.000000
0.951751 0.000000 0.000000
1.000000 0.000000 0.000000
0.074189 0.186282 0.152865
0.106569 0.192782 0.152010
0.206912 0.201083 0.131380
0.455543 0.234226 0.090852
0.682673 0.228031 0.000000
0.846616 0.222019 0.000000
0.953277 0.201205 0.000000
1.000000 0.224643 0.000000
0.000000 0.325322 0.197635
0.085725 0.330785 0.196353
0.190249 0.336492 0.175051
0.368750 0.360021 0.124392
0.660243 0.423468 0.000000
0.847593 0.423560 0.000000
0.952972 0.411810 0.000000
1.000000 0.403052 0.000000
0.000000 0.501427 0.263584
0.000000 0.504448 0.260105
0.177859 0.514000 0.236240
0.327947 0.512474 0.204715
0.551049 0.539666 0.098970
0.801694 0.580438 0.000000
0.947631 0.586633 0.000000
1.000000 0.567590 0.000000
0.000000 0.661555 0.343542
0.000000 0.663722 0.341497
0.190311 0.670192 0.336706
0.319860 0.671229 0.287572
0.499428 0.676753 0.245670
0.723415 0.692927 0.107820
0.907042 0.710201 0.000000
1.000000 0.708949 0.000000
0.000000 0.797787 0.443275
0.000000 0.798001 0.442573
0.228153 0.799588 0.445319
0.356329 0.802518 0.410193
0.506035 0.795193 0.393713
0.672877 0.800504 0.325780
0.856443 0.804868 0.185214
0.976013 0.806546 0.000000
0.122805 0.901457 0.564202
0.195743 0.901122 0.566979
0.346563 0.899016 0.579522
0.515648 0.894774 0.607111
0.580529 0.893614 0.559197
0.699916 0.886595 0.548699
0.829252 0.890013 0.468666
0.953826 0.891356 0.324865
0.081239 0.112703 0.191897
0.113771 0.109529 0.188052
0.195468 0.106355 0.175631
0.399878 0.000000 0.179965
0.644465 0.000000 0.164340
0.828611 0.000000 0.131228
0.953216 0.000000 0.000000
1.000000 0.000000 0.000000
0.066194 0.128634 0.197848
0.102876 0.126955 0.200473
0.200443 0.131044 0.186099
0.402625 0.066835 0.187289
0.643153 0.000000 0.170535
0.826902 0.000000 0.131868
0.951415 0.000000 0.000000
1.000000 0.000000 0.000000
0.029328 0.191501 0.214603
0.090578 0.196475 0.215885
0.212070 0.214359 0.219821
0.416419 0.219883 0.208804
0.650477 0.213291 0.181888
0.828855 0.211856 0.134981
0.949950 0.230686 0.000000
1.000000 0.251957 0.000000
0.000000 0.332586 0.266331
0.055390 0.338048 0.266484
0.215427 0.353613 0.265873
0.374548 0.370825 0.229435
0.658839 0.425238 0.191836
0.831571 0.418036 0.141054
0.947662 0.415778 0.000000
1.000000 0.415991 0.000000
0.000000 0.502708 0.327977
0.000000 0.506645 0.327794
0.204623 0.518761 0.326665
0.346288 0.522972 0.298985
0.555230 0.546929 0.234379
0.800290 0.585626 0.178775
0.943145 0.589258 0.024506
1.000000 0.572107 0.000000
0.000000 0.661372 0.401801
0.000000 0.663478 0.401770
0.196353 0.669306 0.401007
0.340856 0.676265 0.367315
0.506798 0.676295 0.342840
0.720760 0.693660 0.254063
0.904173 0.713954 0.189120
1.000000 0.714046 0.000000
0.000000 0.797879 0.492103
0.000000 0.798123 0.492164
0.225650 0.799039 0.493751
0.422217 0.799710 0.508049
0.522423 0.796414 0.461524
0.676600 0.800137 0.413367
0.854856 0.806882 0.307073
0.974792 0.811643 0.231144
0.036622 0.901335 0.596002
0.155550 0.900816 0.596612
0.325566 0.898619 0.606012
0.503990 0.894804 0.630579
0.592676 0.893370 0.602319
0.707607 0.886107 0.597650
0.829038 0.890043 0.533165
0.950347 0.892546 0.414252
0.000000 0.115938 0.306554
0.084718 0.114748 0.304997
0.217166 0.107973 0.297307
0.343938 0.111971 0.280217
0.578149 0.000000 0.296239
0.789639 0.000000 0.279271
0.931212 0.000000 0.268498
1.000000 0.000000 0.197971
0.000000 0.132174 0.312505
0.070741 0.137301 0.315587
0.217594 0.135317 0.307439
0.347601 0.145846 0.289891
0.579950 0.080995 0.304265
0.788693 0.000000 0.285588
0.929992 0.000000 0.271977
1.000000 0.106081 0.196262
0.000000 0.200320 0.324559
0.000000 0.202365 0.325933
0.198398 0.216373 0.335973
0.356390 0.239567 0.320012
0.587854 0.225834 0.329503
0.789761 0.225986 0.321660
0.931243 0.260746 0.288243
1.000000 0.269932 0.201083
0.000000 0.318669 0.354437
0.000000 0.323705 0.355444
0.179812 0.342779 0.360540
0.368231 0.380102 0.372595
0.600855 0.401892 0.366583
0.792630 0.416052 0.346929
0.928130 0.426581 0.305180
1.000000 0.425269 0.215915
0.000000 0.500572 0.423224
0.000000 0.505455 0.424659
0.171725 0.521111 0.428565
0.371862 0.537255 0.428443
0.551110 0.552728 0.390234
0.793912 0.596368 0.382544
0.925719 0.594415 0.340368
1.000000 0.580285 0.248325
0.000000 0.663325 0.492592
0.000000 0.666835 0.493843
0.168368 0.671626 0.492134
0.379644 0.678981 0.494423
0.524712 0.679530 0.474983
0.716579 0.697444 0.414069
0.898589 0.724300 0.392340
1.000000 0.725582 0.309392
0.000000 0.796902 0.565667
0.000000 0.797726 0.565850
0.198093 0.799496 0.566644
0.405707 0.800778 0.573022
0.545464 0.801236 0.556298
0.682948 0.800412 0.532433
0.848997 0.809201 0.454994
0.969299 0.819120 0.412757
0.000000 0.901579 0.653620
0.108400 0.901396 0.654078
0.288426 0.900084 0.655604
0.467872 0.896422 0.665705
0.630915 0.891051 0.683253
0.717006 0.887510 0.659937
0.827268 0.890043 0.619928
0.943633 0.894102 0.529442
0.000000 0.129274 0.443824
0.000000 0.128786 0.442817
0.202976 0.123262 0.437720
0.366155 0.109285 0.428779
0.509972 0.134096 0.412146
0.723537 0.160647 0.432258
0.894774 0.143008 0.433906
0.998322 0.225986 0.427924
0.000000 0.145174 0.447181
0.000000 0.151553 0.449622
0.199710 0.149111 0.444800
0.366613 0.142824 0.435920
0.511131 0.172274 0.419013
0.723934 0.200778 0.439460
0.894224 0.193332 0.440589
0.996612 0.273564 0.440162
0.000000 0.208804 0.447181
0.000000 0.209293 0.450782
0.168276 0.222934 0.464729
0.361639 0.232273 0.457679
0.514611 0.270970 0.442176
0.724025 0.300755 0.461891
0.891875 0.304967 0.461311
0.993164 0.369574 0.460090
0.000000 0.317082 0.473304
0.000000 0.319432 0.473671
0.102602 0.328832 0.476539
0.332891 0.360571 0.494179
0.521843 0.405524 0.484108
0.729366 0.427222 0.500847
0.889952 0.450477 0.503288
0.995148 0.455818 0.449348
0.000000 0.463935 0.508263
0.000000 0.467994 0.509422
0.078676 0.482185 0.512840
0.319219 0.509728 0.522057
0.530694 0.550774 0.540093
0.742458 0.575525 0.542901
0.893736 0.591547 0.525994
0.990784 0.590051 0.467628
0.000000 0.645167 0.579034
0.000000 0.648219 0.580102
0.000000 0.657923 0.583307
0.340429 0.673426 0.590753
0.534264 0.681453 0.589746
0.700832 0.695918 0.561456
0.888975 0.735866 0.571893
0.982696 0.731838 0.520592
0.000000 0.794614 0.655390
0.000000 0.794980 0.654688
0.121309 0.796292 0.652613
0.366308 0.797971 0.651057
0.552422 0.799313 0.652796
0.684260 0.797238 0.641718
0.837736 0.809873 0.591547
0.960327 0.827512 0.577386
0.000000 0.899535 0.721584
0.000000 0.899260 0.721279
0.242039 0.898161 0.720455
0.421241 0.897093 0.721187
0.594232 0.892760 0.726284
0.720729 0.889769 0.722927
0.822477 0.889220 0.705226
0.933989 0.895201 0.642267
0.000000 0.151492 0.595453
0.000000 0.150820 0.594354
0.172519 0.146242 0.589776
0.360967 0.132906 0.583062
0.531762 0.120790 0.577325
0.667689 0.202457 0.550378
0.840177 0.329839 0.578332
0.963012 0.385870 0.600122
0.000000 0.168521 0.594995
0.000000 0.171572 0.594903
0.163943 0.168948 0.590997
0.356512 0.161318 0.584527
0.530144 0.159548 0.579095
0.666590 0.233188 0.554223
0.839292 0.350591 0.583093
0.962097 0.402228 0.603998
0.000000 0.219364 0.591760
0.000000 0.216922 0.593988
0.110872 0.235874 0.600977
0.341863 0.240848 0.596551
0.528862 0.256718 0.590509
0.667140 0.323217 0.571527
0.838499 0.416968 0.601984
0.960327 0.455512 0.618311
0.000000 0.321782 0.600000
0.000000 0.321508 0.598871
0.000000 0.321508 0.597192
0.298436 0.353338 0.617304
0.519066 0.381231 0.615106
0.670039 0.446021 0.603357
0.840116 0.507073 0.632044
0.959350 0.530388 0.639124
0.000000 0.456001 0.624384
0.000000 0.457679 0.624323
0.000000 0.463691 0.624231
0.233097 0.474830 0.625635
0.477943 0.512871 0.641901
0.670222 0.567071 0.639704
0.843320 0.597711 0.661341
0.957214 0.623651 0.667140
0.000000 0.602777 0.654566
0.000000 0.605615 0.655390
0.000000 0.614008 0.656672
0.255039 0.629541 0.660212
0.469368 0.653223 0.668330
0.679316 0.692073 0.690303
0.854673 0.719265 0.700282
0.959472 0.731014 0.681331
0.000000 0.774044 0.724269
0.000000 0.777707 0.726711
0.000000 0.783352 0.728634
0.291630 0.790249 0.730861
0.514580 0.799161 0.737118
0.689174 0.801053 0.735714
0.824643 0.811154 0.716182
0.951507 0.839933 0.728237
0.000000 0.897826 0.791623
0.000000 0.897917 0.791653
0.175967 0.898161 0.792264
0.380560 0.896818 0.789792
0.552056 0.894041 0.786465
0.714778 0.890593 0.788388
0.819760 0.887938 0.784909
0.923735 0.897337 0.749111
0.000000 0.187106 0.741299
0.000000 0.187655 0.742733
0.152255 0.184390 0.738643
0.361639 0.176181 0.732204
0.541375 0.169162 0.723568
0.698421 0.188205 0.720150
0.800626 0.316472 0.681483
0.918822 0.497078 0.715297
0.000000 0.201419 0.732570
0.000000 0.202152 0.733852
0.129244 0.200168 0.730709
0.348852 0.194278 0.724422
0.528801 0.189670 0.715236
0.685908 0.206332 0.710536
0.789700 0.320989 0.672755
0.912444 0.489601 0.705928
0.000000 0.232273 0.735042
0.000000 0.229252 0.735592
0.000000 0.259037 0.734646
0.325963 0.260868 0.729213
0.516625 0.265995 0.720089
0.682399 0.292119 0.716213
0.791928 0.394537 0.688075
0.915496 0.538811 0.724758
0.000000 0.332921 0.732631
0.000000 0.329564 0.730678
0.000000 0.322271 0.731807
0.265721 0.355505 0.738857
0.493019 0.371252 0.732967
0.679835 0.408515 0.730037
0.795438 0.495888 0.713100
0.917327 0.599817 0.746059
0.000000 0.454444 0.739895
0.000000 0.451911 0.737148
0.000000 0.446021 0.731441
0.000000 0.436408 0.726101
0.418891 0.473854 0.737850
0.649500 0.510613 0.735622
0.785519 0.583337 0.727718
0.916625 0.658656 0.762448
0.000000 0.591211 0.755612
0.000000 0.591669 0.755062
0.000000 0.593011 0.753445
0.000000 0.596063 0.752010
0.343511 0.598901 0.749355
0.607904 0.636469 0.761685
0.792325 0.698695 0.766354
0.921630 0.734829 0.788449
0.000000 0.729183 0.780514
0.000000 0.731441 0.781399
0.000000 0.735531 0.781308
0.149233 0.743282 0.781979
0.403754 0.752438 0.781460
0.610071 0.768215 0.785611
0.801205 0.802243 0.805966
0.930663 0.828061 0.816983
0.000000 0.867521 0.825620
0.000000 0.869291 0.826596
0.000000 0.879026 0.833371
0.253513 0.889494 0.840482
0.483345 0.890166 0.840635
0.677150 0.890623 0.843290
0.817563 0.890227 0.842374
0.914153 0.898772 0.832090
0.000000 0.243839 0.851804
0.000000 0.244511 0.851987
0.199039 0.241306 0.847501
0.384192 0.238254 0.843198
0.552789 0.236576 0.836240
0.708186 0.253056 0.827115
0.830533 0.299168 0.825772
0.892058 0.440986 0.785763
0.000000 0.254673 0.847990
0.000000 0.255375 0.848142
0.177432 0.253239 0.844541
0.371160 0.250217 0.839597
0.543053 0.249332 0.832944
0.700710 0.264988 0.824033
0.824491 0.307530 0.821927
0.888304 0.444038 0.782712
0.000000 0.260716 0.844816
0.000000 0.271641 0.844663
0.039979 0.294469 0.840513
0.339849 0.299535 0.839750
0.523308 0.301671 0.832609
0.686854 0.316594 0.822873
0.817105 0.359411 0.820829
0.885405 0.481025 0.786648
0.000000 0.335668 0.841917
0.000000 0.334020 0.842618
0.000000 0.325933 0.841154
0.255833 0.368658 0.839963
0.482307 0.377630 0.834684
0.667048 0.397192 0.827054
0.809689 0.441535 0.824369
0.884459 0.545190 0.798032
0.000000 0.452674 0.840238
0.000000 0.450752 0.840482
0.000000 0.437079 0.836973
0.000000 0.412818 0.836393
0.383124 0.456703 0.835325
0.619654 0.478706 0.828763
0.793271 0.525536 0.825986
0.882597 0.622950 0.812619
0.000000 0.585595 0.846250
0.000000 0.582849 0.844785
0.000000 0.574426 0.841245
0.000000 0.560021 0.837156
0.088411 0.535851 0.832120
0.534447 0.579187 0.837583
0.776516 0.633204 0.839261
0.887419 0.721462 0.837675
0.000000 0.723568 0.859129
0.000000 0.722621 0.858396
0.000000 0.720333 0.856596
0.000000 0.718868 0.855131
0.215518 0.716640 0.852873
0.457313 0.712825 0.849760
0.724636 0.739345 0.853269
0.884398 0.801358 0.854795
0.000000 0.847929 0.875822
0.000000 0.847745 0.875334
0.000000 0.848631 0.874601
0.000000 0.851530 0.874418
0.358251 0.854490 0.873564
0.557519 0.857237 0.872129
0.739315 0.862913 0.872068
0.894408 0.887938 0.884367
