data/fiter_cube/59424107/1023395/file.cube
# Created by Adobe Lightroom plugin Export LUT (1.17.0)
# www.johnrellis.com/lightroom/exportlut.htm
# Preset: 情感落日_04 云集
# Color profile: C:\Program Files (x86)\Common Files\Adobe\Color\Profiles\Recommended\AdobeRGB1998.icc
LUT_3D_SIZE 32
DOMAIN_MIN 0.0 0.0 0.0
DOMAIN_MAX 1.0 1.0 1.0
0.106447 0.120241 0.127596
0.103700 0.120211 0.127474
0.100313 0.120058 0.127169
0.096590 0.119722 0.126741
0.102113 0.118593 0.125795
0.122072 0.116823 0.124544
0.152895 0.113497 0.123110
0.190555 0.107912 0.121279
0.233646 0.098207 0.118929
0.281498 0.081483 0.116121
0.334203 0.035676 0.112428
0.390845 0.000000 0.107790
0.450202 0.000000 0.101686
0.511254 0.000000 0.094270
0.571893 0.000000 0.084932
0.628565 0.000000 0.073426
0.680629 0.000000 0.059510
0.728359 0.000000 0.025879
0.770840 0.000000 0.000000
0.811124 0.000000 0.000000
0.847837 0.000000 0.000000
0.880644 0.000000 0.000000
0.909606 0.000000 0.000000
0.935058 0.000000 0.000000
0.957610 0.000000 0.000000
0.977813 0.000000 0.000000
0.996063 0.000000 0.000000
1.000000 0.000000 0.000000
1.000000 0.000000 0.000000
1.000000 0.000000 0.003937
1.000000 0.000000 0.072541
1.000000 0.000000 0.107240
0.106142 0.118410 0.126833
0.103822 0.118288 0.127230
0.100313 0.118349 0.127321
0.096773 0.118624 0.126802
0.102419 0.118563 0.125765
0.122408 0.117861 0.124453
0.153262 0.115206 0.122957
0.190921 0.110414 0.121065
0.233799 0.101595 0.118898
0.281529 0.086061 0.115846
0.334203 0.053498 0.112093
0.390539 0.000000 0.107454
0.449683 0.000000 0.101289
0.510491 0.000000 0.093812
0.570977 0.000000 0.084352
0.627436 0.000000 0.072755
0.679591 0.000000 0.057679
0.727321 0.000000 0.023651
0.769802 0.000000 0.000000
0.809934 0.000000 0.000000
0.846525 0.000000 0.000000
0.879210 0.000000 0.000000
0.908263 0.000000 0.000000
0.933867 0.000000 0.000000
0.956542 0.000000 0.000000
0.976837 0.000000 0.000000
0.995239 0.000000 0.000000
1.000000 0.000000 0.000000
1.000000 0.000000 0.000000
1.000000 0.000000 0.000000
1.000000 0.000000 0.069520
1.000000 0.010285 0.105837
0.105592 0.116365 0.125887
0.103914 0.116396 0.125917
0.100832 0.116335 0.126711
0.097047 0.117067 0.126925
0.103273 0.118441 0.125948
0.123384 0.118990 0.124514
0.153902 0.117678 0.122744
0.191501 0.113710 0.120790
0.234195 0.105959 0.118563
0.281743 0.091981 0.115480
0.334356 0.066773 0.111635
0.390723 0.000000 0.106874
0.449714 0.000000 0.100862
0.510491 0.000000 0.093019
0.570703 0.000000 0.083314
0.627283 0.000000 0.071199
0.679347 0.000000 0.054536
0.726864 0.000000 0.018402
0.769436 0.000000 0.000000
0.809476 0.000000 0.000000
0.845945 0.000000 0.000000
0.878569 0.000000 0.000000
0.907652 0.000000 0.000000
0.933288 0.000000 0.000000
0.955993 0.000000 0.000000
0.976349 0.000000 0.000000
0.994751 0.000000 0.000000
1.000000 0.000000 0.000000
1.000000 0.000000 0.000000
1.000000 0.000000 0.000000
1.000000 0.000000 0.067933
1.000000 0.052705 0.104036
0.104280 0.113741 0.124056
0.102602 0.113741 0.123903
0.101350 0.113924 0.124086
0.098024 0.114107 0.125277
0.103609 0.118379 0.125765
0.125216 0.122255 0.124392
0.155795 0.123171 0.122438
0.193515 0.120943 0.120333
0.236057 0.115053 0.117769
0.283757 0.104341 0.114687
0.335851 0.085817 0.110719
0.392065 0.037812 0.105531
0.451026 0.000000 0.099214
0.511284 0.000000 0.090944
0.571496 0.000000 0.080903
0.627771 0.000000 0.067811
0.679469 0.000000 0.047242
0.726833 0.000000 0.008637
0.769162 0.000000 0.000000
0.808865 0.000000 0.000000
0.845029 0.000000 0.000000
0.877531 0.000000 0.000000
0.906645 0.000000 0.000000
0.932433 0.000000 0.000000
0.955413 0.000000 0.000000
0.975952 0.000000 0.000000
0.994507 0.000000 0.000000
1.000000 0.000000 0.000000
1.000000 0.000000 0.000000
1.000000 0.000000 0.000000
1.000000 0.000000 0.061555
1.000000 0.091188 0.100984
0.101747 0.114809 0.123079
0.100404 0.115236 0.122316
0.100099 0.115511 0.122103
0.100618 0.115663 0.122286
0.102419 0.116915 0.123476
0.122621 0.125582 0.123445
0.158572 0.132235 0.121950
0.196139 0.132753 0.119387
0.238712 0.129641 0.116548
0.286137 0.122866 0.113008
0.338140 0.110628 0.108705
0.394110 0.090028 0.103120
0.452674 0.044160 0.096345
0.512810 0.000000 0.087465
0.572686 0.000000 0.076020
0.628687 0.000000 0.061830
0.680446 0.000000 0.030945
0.727535 0.000000 0.000000
0.770047 0.000000 0.000000
0.809323 0.000000 0.000000
0.844968 0.000000 0.000000
0.877256 0.000000 0.000000
0.906218 0.000000 0.000000
0.932006 0.000000 0.000000
0.954925 0.000000 0.000000
0.975525 0.000000 0.000000
0.994079 0.000000 0.000000
1.000000 0.000000 0.000000
1.000000 0.000000 0.000000
1.000000 0.000000 0.000000
1.000000 0.000000 0.050813
1.000000 0.127626 0.096315
0.098146 0.122560 0.123293
0.097536 0.123293 0.122683
0.097169 0.123995 0.121309
0.099580 0.123720 0.120302
0.105409 0.124605 0.120485
0.116701 0.126986 0.120790
0.150515 0.138643 0.119692
0.194308 0.147158 0.117617
0.242985 0.149874 0.114412
0.290349 0.146487 0.110445
0.342290 0.139651 0.105623
0.398108 0.128267 0.099397
0.456397 0.110750 0.091554
0.516258 0.082490 0.081514
0.575616 0.000000 0.068299
0.631189 0.000000 0.046113
0.682338 0.000000 0.004700
0.729122 0.000000 0.000000
0.771603 0.000000 0.000000
0.810483 0.000000 0.000000
0.845823 0.000000 0.000000
0.877867 0.000000 0.000000
0.914763 0.000000 0.000000
0.939422 0.000000 0.000000
0.961273 0.000000 0.000000
0.980804 0.000000 0.000000
0.998444 0.000000 0.000000
1.000000 0.000000 0.000000
1.000000 0.000000 0.000000
1.000000 0.036164 0.000000
1.000000 0.125277 0.042481
1.000000 0.175601 0.095552
0.092897 0.137697 0.125643
0.093050 0.138430 0.124483
0.093233 0.139345 0.123049
0.094972 0.140169 0.119295
0.104189 0.139162 0.119203
0.118563 0.141238 0.118227
0.140108 0.144625 0.117433
0.185092 0.158236 0.114565
0.236118 0.167971 0.111147
0.295232 0.175448 0.106233
0.351080 0.174746 0.099886
0.406989 0.168948 0.092500
0.465248 0.160037 0.083040
0.524620 0.146761 0.070710
0.583032 0.128298 0.050263
0.637201 0.103182 0.009308
0.687556 0.066529 0.000000
0.733669 0.000000 0.000000
0.775998 0.000000 0.000000
0.814664 0.000000 0.000000
0.850065 0.000000 0.000000
0.882383 0.000000 0.000000
0.911406 0.000000 0.000000
0.937011 0.000000 0.000000
0.959625 0.000000 0.000000
0.979583 0.000000 0.000000
0.997406 0.000000 0.000000
1.000000 0.000000 0.000000
1.000000 0.086275 0.000000
1.000000 0.132601 0.000000
1.000000 0.170932 0.005554
1.000000 0.207980 0.085603
0.086244 0.157839 0.129091
0.086976 0.158541 0.128267
0.087831 0.159579 0.126711
0.091707 0.161318 0.123262
0.099794 0.160678 0.119326
0.115145 0.159731 0.118685
0.138033 0.163638 0.116182
0.168948 0.167514 0.113710
0.221866 0.182437 0.108644
0.278874 0.193606 0.102632
0.343175 0.203677 0.094545
0.412177 0.211948 0.082979
0.470130 0.208347 0.071015
0.529290 0.201572 0.050477
0.586908 0.192172 0.006683
0.640436 0.179599 0.000000
0.689967 0.164492 0.000000
0.735958 0.147707 0.000000
0.777310 0.130495 0.000000
0.815213 0.111879 0.000000
0.850095 0.093080 0.000000
0.882078 0.078431 0.000000
0.910704 0.068879 0.000000
0.936156 0.069245 0.000000
0.958648 0.079866 0.000000
0.978546 0.096681 0.000000
0.996399 0.116304 0.000000
1.000000 0.138033 0.000000
1.000000 0.161410 0.000000
1.000000 0.186374 0.000000
1.000000 0.213169 0.000000
1.000000 0.241642 0.072236
0.077638 0.183169 0.134432
0.078920 0.183871 0.133455
0.081361 0.184756 0.132113
0.087587 0.186679 0.129671
0.092988 0.187472 0.121889
0.111788 0.185977 0.121126
0.133730 0.186954 0.119020
0.164065 0.191501 0.114260
0.202426 0.196048 0.109407
0.261936 0.212863 0.101411
0.324620 0.226261 0.091768
0.393744 0.238621 0.077546
0.467628 0.249729 0.052552
0.535027 0.255528 0.000000
0.591791 0.250645 0.000000
0.644495 0.242161 0.000000
0.693812 0.232456 0.000000
0.739010 0.221897 0.000000
0.779324 0.210483 0.000000
0.816556 0.199985 0.000000
0.850797 0.190524 0.000000
0.882261 0.182712 0.000000
0.910521 0.178012 0.000000
0.935698 0.176913 0.000000
0.957977 0.178653 0.000000
0.977813 0.183658 0.000000
0.995575 0.192111 0.000000
1.000000 0.203464 0.000000
1.000000 0.217319 0.000000
1.000000 0.234134 0.000000
1.000000 0.253605 0.000000
1.000000 0.276005 0.047456
0.066316 0.212802 0.141573
0.068666 0.213474 0.140810
0.072419 0.214176 0.139528
0.081361 0.215915 0.137362
0.092500 0.217807 0.131991
0.106630 0.217197 0.125704
0.130343 0.215549 0.124849
0.158175 0.218936 0.119966
0.194675 0.224613 0.112703
0.239170 0.229801 0.104616
0.304814 0.248783 0.092317
0.372290 0.264622 0.076600
0.445075 0.278843 0.044221
0.520958 0.291752 0.000000
0.595331 0.302617 0.000000
0.649989 0.302159 0.000000
0.698695 0.294804 0.000000
0.742733 0.285649 0.000000
0.782162 0.276646 0.000000
0.818570 0.267247 0.000000
0.852110 0.259129 0.000000
0.882719 0.252445 0.000000
0.910277 0.247166 0.000000
0.934966 0.244694 0.000000
0.957000 0.244236 0.000000
0.976684 0.245792 0.000000
0.994476 0.250217 0.000000
1.000000 0.256748 0.000000
1.000000 0.266239 0.000000
1.000000 0.278325 0.000000
1.000000 0.293431 0.000000
1.000000 0.311223 0.000000
0.044373 0.246067 0.150332
0.051453 0.246677 0.149905
0.060578 0.247501 0.148836
0.073182 0.249210 0.147066
0.091707 0.251865 0.144564
0.099031 0.252476 0.132143
0.126345 0.250950 0.131106
0.153811 0.249424 0.129732
0.187594 0.255772 0.121309
0.229618 0.262516 0.111147
0.279088 0.268681 0.099001
0.350195 0.289616 0.080385
0.421393 0.307439 0.048859
0.497261 0.323491 0.000000
0.573266 0.337499 0.000000
0.643885 0.347234 0.000000
0.701564 0.350347 0.000000
0.745754 0.346075 0.000000
0.784298 0.336858 0.000000
0.820035 0.328008 0.000000
0.852903 0.319738 0.000000
0.883055 0.312688 0.000000
0.910307 0.307286 0.000000
0.934630 0.303441 0.000000
0.956451 0.301549 0.000000
0.975952 0.301061 0.000000
0.993591 0.302464 0.000000
1.000000 0.306371 0.000000
1.000000 0.312474 0.000000
1.000000 0.320745 0.000000
1.000000 0.332158 0.000000
1.000000 0.346715 0.000000
0.000000 0.283116 0.161196
0.009613 0.283787 0.160647
0.027314 0.284581 0.159915
0.060212 0.286290 0.158389
0.083833 0.288853 0.156283
0.100130 0.290593 0.147341
0.119997 0.290227 0.139132
0.150973 0.288609 0.137667
0.182712 0.289738 0.133700
0.221592 0.297215 0.122499
0.268040 0.304662 0.109041
0.322179 0.311711 0.091737
0.404944 0.340764 0.059419
0.481422 0.361303 0.000000
0.559167 0.378363 0.000000
0.631586 0.390021 0.000000
0.697017 0.397803 0.000000
0.754360 0.402899 0.000000
0.794430 0.398749 0.000000
0.829038 0.390906 0.000000
0.860380 0.381811 0.000000
0.889006 0.374029 0.000000
0.914794 0.367193 0.000000
0.937987 0.362097 0.000000
0.958831 0.358099 0.000000
0.977630 0.355718 0.000000
0.994751 0.355016 0.000000
1.000000 0.356329 0.000000
1.000000 0.359503 0.000000
1.000000 0.365087 0.000000
1.000000 0.373236 0.000000
1.000000 0.384405 0.000000
0.000000 0.325628 0.174289
0.000000 0.326146 0.173922
0.000000 0.326757 0.173129
0.018616 0.328161 0.171725
0.071809 0.330632 0.169894
0.103304 0.333562 0.166751
0.110384 0.333654 0.148440
0.146120 0.332219 0.147189
0.180362 0.330449 0.145327
0.216190 0.334874 0.137118
0.260349 0.344244 0.123293
0.312383 0.353399 0.105348
0.371710 0.362249 0.080842
0.453223 0.387427 0.005341
0.531365 0.408728 0.000000
0.605859 0.423987 0.000000
0.673701 0.433539 0.000000
0.733791 0.439338 0.000000
0.786069 0.442512 0.000000
0.828794 0.442359 0.000000
0.860655 0.436469 0.000000
0.888762 0.427497 0.000000
0.914153 0.419745 0.000000
0.937072 0.413153 0.000000
0.957702 0.407843 0.000000
0.976379 0.403998 0.000000
0.993408 0.401587 0.000000
1.000000 0.400824 0.000000
1.000000 0.401923 0.000000
1.000000 0.405341 0.000000
1.000000 0.411048 0.000000
1.000000 0.419654 0.000000
0.000000 0.367956 0.188418
0.000000 0.368383 0.187808
0.000000 0.368994 0.187198
0.000000 0.370428 0.185855
0.047272 0.372503 0.183963
0.095003 0.375372 0.181613
0.112062 0.376928 0.167849
0.137850 0.376593 0.157259
0.175570 0.375402 0.155398
0.212253 0.373968 0.153475
0.253056 0.382483 0.140719
0.301488 0.392218 0.123415
0.356909 0.401556 0.100679
0.418860 0.410224 0.066468
0.501213 0.434424 0.000000
0.578241 0.454261 0.000000
0.648066 0.466621 0.000000
0.711025 0.474159 0.000000
0.766476 0.478279 0.000000
0.815244 0.480934 0.000000
0.857786 0.482795 0.000000
0.888792 0.479408 0.000000
0.913817 0.470588 0.000000
0.936431 0.462837 0.000000
0.956847 0.456458 0.000000
0.975341 0.450935 0.000000
0.992218 0.447028 0.000000
1.000000 0.444648 0.000000
1.000000 0.444007 0.000000
1.000000 0.445472 0.000000
1.000000 0.449073 0.000000
1.000000 0.455390 0.000000
0.000000 0.412238 0.203891
0.000000 0.412757 0.203525
0.000000 0.413336 0.202945
0.000000 0.414801 0.201694
0.000000 0.416846 0.199893
0.080262 0.419532 0.197726
0.116274 0.422309 0.190921
0.125795 0.422675 0.168399
0.168887 0.421454 0.166812
0.208530 0.420172 0.164736
0.247379 0.421180 0.159823
0.292576 0.430854 0.143648
0.344488 0.440467 0.122927
0.402594 0.449683 0.094881
0.466316 0.457679 0.032715
0.548180 0.479530 0.000000
0.621363 0.496315 0.000000
0.686580 0.506218 0.000000
0.745083 0.512291 0.000000
0.796933 0.515953 0.000000
0.842222 0.518090 0.000000
0.881376 0.519615 0.000000
0.913329 0.519493 0.000000
0.935729 0.511162 0.000000
0.955932 0.503319 0.000000
0.974304 0.496864 0.000000
0.991150 0.491646 0.000000
1.000000 0.488045 0.000000
1.000000 0.485939 0.000000
1.000000 0.485786 0.000000
1.000000 0.487678 0.000000
1.000000 0.492164 0.000000
0.000000 0.457984 0.221256
0.000000 0.458381 0.220768
0.000000 0.459052 0.220279
0.000000 0.460212 0.219150
0.000000 0.462226 0.217594
0.057069 0.464759 0.215274
0.113893 0.468147 0.212589
0.127535 0.469459 0.192050
0.159121 0.469001 0.179660
0.202884 0.467750 0.177737
0.243900 0.466072 0.175265
0.286137 0.470008 0.165499
0.334295 0.479042 0.146731
0.388678 0.487831 0.122408
0.448341 0.495766 0.087892
0.512535 0.502617 0.000000
0.590906 0.520195 0.000000
0.660365 0.534722 0.000000
0.722225 0.543603 0.000000
0.777371 0.549157 0.000000
0.825742 0.552361 0.000000
0.867613 0.554376 0.000000
0.903349 0.555413 0.000000
0.933684 0.556237 0.000000
0.955627 0.550042 0.000000
0.973754 0.542351 0.000000
0.990387 0.535851 0.000000
1.000000 0.530785 0.000000
1.000000 0.527306 0.000000
1.000000 0.525505 0.000000
1.000000 0.525566 0.000000
1.000000 0.528130 0.000000
0.000000 0.502251 0.239628
0.000000 0.502678 0.239078
0.000000 0.503044 0.238682
0.000000 0.504204 0.237369
0.000000 0.505852 0.235874
0.000000 0.508263 0.233646
0.099977 0.511254 0.231235
0.134524 0.513573 0.219669
0.145815 0.514000 0.193515
0.194644 0.512688 0.191409
0.238926 0.511223 0.189120
0.280858 0.509392 0.186374
0.326024 0.516228 0.171267
0.376776 0.524620 0.150210
0.432776 0.532250 0.122744
0.492897 0.538781 0.082765
0.556451 0.544274 0.000000
0.631067 0.558007 0.000000
0.697566 0.571221 0.000000
0.755917 0.579187 0.000000
0.807309 0.584100 0.000000
0.851957 0.586877 0.000000
0.890257 0.588464 0.000000
0.922728 0.589319 0.000000
0.950347 0.589502 0.000000
0.972747 0.585931 0.000000
0.989288 0.578424 0.000000
1.000000 0.572229 0.000000
1.000000 0.567407 0.000000
1.000000 0.564233 0.000000
1.000000 0.562890 0.000000
1.000000 0.563806 0.000000
0.000000 0.545617 0.259098
0.000000 0.546105 0.258793
0.000000 0.553246 0.261662
0.000000 0.554131 0.260655
0.000000 0.555535 0.259068
0.000000 0.557275 0.256657
0.085603 0.559564 0.254398
0.144961 0.562310 0.251377
0.152865 0.562829 0.223819
0.187778 0.562066 0.209567
0.235569 0.560449 0.207431
0.280034 0.558373 0.204623
0.323033 0.557153 0.199588
0.370977 0.564599 0.180240
0.423438 0.571496 0.156527
0.480110 0.577508 0.126253
0.540490 0.582818 0.080995
0.603174 0.587091 0.000000
0.673732 0.597314 0.000000
0.736202 0.608789 0.000000
0.790097 0.615412 0.000000
0.837339 0.619318 0.000000
0.877897 0.621576 0.000000
0.912261 0.622583 0.000000
0.941314 0.622614 0.000000
0.966186 0.622095 0.000000
0.987823 0.619562 0.000000
1.000000 0.612909 0.000000
1.000000 0.606775 0.000000
1.000000 0.602228 0.000000
1.000000 0.599512 0.000000
1.000000 0.598871 0.000000
0.000000 0.588525 0.280583
0.000000 0.589715 0.280827
0.000000 0.590936 0.280735
0.000000 0.592493 0.280430
0.000000 0.594202 0.279088
0.000000 0.596155 0.277317
0.067414 0.598230 0.275181
0.138430 0.600549 0.272892
0.165530 0.602045 0.256199
0.177676 0.602441 0.227756
0.228977 0.600793 0.225467
0.275517 0.598901 0.222812
0.319524 0.596582 0.219730
0.363592 0.598077 0.209720
0.412696 0.604547 0.188907
0.465858 0.610315 0.163577
0.522789 0.615473 0.131228
0.582391 0.619898 0.083223
0.644251 0.623560 0.000000
0.710689 0.631403 0.000000
0.768826 0.641077 0.000000
0.819059 0.647059 0.000000
0.862516 0.650568 0.000000
0.899474 0.652522 0.000000
0.930602 0.653285 0.000000
0.957183 0.652979 0.000000
0.980133 0.652033 0.000000
1.000000 0.649592 0.000000
1.000000 0.644984 0.000000
1.000000 0.639338 0.000000
1.000000 0.635340 0.000000
1.000000 0.633478 0.000000
0.000000 0.627283 0.301946
0.000000 0.628351 0.302220
0.000000 0.629419 0.302342
0.000000 0.630793 0.302068
0.000000 0.632410 0.300969
0.000000 0.633936 0.299474
0.043214 0.635737 0.297704
0.133486 0.637690 0.295720
0.181582 0.639734 0.290135
0.188327 0.640467 0.260258
0.223423 0.639826 0.245853
0.271702 0.638117 0.243442
0.316869 0.636011 0.240574
0.360327 0.633539 0.237430
0.405646 0.637140 0.222141
0.455512 0.642664 0.200198
0.509117 0.647700 0.173190
0.565698 0.652033 0.139254
0.624720 0.655695 0.089235
0.684627 0.658930 0.000000
0.746517 0.664607 0.000000
0.799802 0.672114 0.000000
0.846220 0.677272 0.000000
0.885771 0.680415 0.000000
0.919158 0.682033 0.000000
0.947539 0.682338 0.000000
0.971893 0.681880 0.000000
0.993072 0.680568 0.000000
1.000000 0.678248 0.000000
1.000000 0.675257 0.000000
1.000000 0.670130 0.000000
1.000000 0.667079 0.000000
0.000000 0.664851 0.324743
0.000000 0.665797 0.325048
0.000000 0.666804 0.325139
0.000000 0.667933 0.324865
0.000000 0.669245 0.324132
0.000000 0.670588 0.322972
0.013977 0.672114 0.321508
0.131319 0.673793 0.320073
0.189456 0.675532 0.319036
0.207401 0.676631 0.297612
0.219730 0.677180 0.268772
0.269474 0.675563 0.266453
0.315404 0.673579 0.263401
0.359625 0.671290 0.260563
0.402228 0.668940 0.256504
0.448981 0.674342 0.236973
0.499489 0.679316 0.213504
0.553338 0.683833 0.186069
0.609491 0.687770 0.151247
0.667292 0.691005 0.102388
0.725216 0.693904 0.000000
0.782742 0.697841 0.000000
0.830900 0.703182 0.000000
0.873136 0.707759 0.000000
0.908812 0.710475 0.000000
0.938903 0.711696 0.000000
0.964630 0.711818 0.000000
0.986938 0.710994 0.000000
1.000000 0.709407 0.000000
1.000000 0.707271 0.000000
1.000000 0.704799 0.000000
1.000000 0.701259 0.000000
0.000000 0.703792 0.350896
0.000000 0.704250 0.350927
0.000000 0.704677 0.350744
0.000000 0.705409 0.350256
0.000000 0.706203 0.349645
0.000000 0.707179 0.348638
0.018097 0.708370 0.347601
0.134890 0.709651 0.346868
0.194003 0.711238 0.346502
0.231418 0.712642 0.337438
0.237766 0.713649 0.307317
0.271580 0.713039 0.293462
0.317937 0.711177 0.290776
0.362249 0.709071 0.287907
0.405158 0.706630 0.284764
0.448035 0.706355 0.275914
0.494820 0.710811 0.255192
0.545129 0.714870 0.231266
0.597864 0.718379 0.202731
0.652552 0.721248 0.167880
0.707881 0.723690 0.120974
0.762783 0.725704 0.000000
0.815030 0.727932 0.000000
0.857725 0.730800 0.000000
0.895872 0.734646 0.000000
0.928008 0.736904 0.000000
0.955413 0.737850 0.000000
0.979126 0.737789 0.000000
0.999817 0.736843 0.000000
1.000000 0.735348 0.000000
1.000000 0.733516 0.000000
1.000000 0.731716 0.000000
0.000000 0.737942 0.376043
0.000000 0.738369 0.376013
0.000000 0.738827 0.376135
0.000000 0.739315 0.375921
0.000000 0.740047 0.375586
0.000000 0.740749 0.374945
0.049836 0.741604 0.374212
0.143008 0.742550 0.373999
0.201938 0.743587 0.374243
0.254398 0.744778 0.375586
0.263767 0.745663 0.349706
0.275578 0.746304 0.321782
0.321630 0.744625 0.319249
0.365789 0.742580 0.316686
0.408423 0.740322 0.313695
0.449989 0.737819 0.310124
0.492836 0.739437 0.296666
0.539544 0.743160 0.275151
0.589014 0.746517 0.250736
0.640467 0.749325 0.222202
0.693233 0.751644 0.187747
0.746120 0.753567 0.142641
0.797757 0.755154 0.064759
0.845274 0.756161 0.000000
0.881559 0.756008 0.000000
0.916014 0.759396 0.000000
0.945342 0.761318 0.000000
0.970550 0.762112 0.000000
0.992493 0.761990 0.000000
1.000000 0.760891 0.000000
1.000000 0.759884 0.000000
1.000000 0.758602 0.000000
0.000000 0.772061 0.404211
0.000000 0.772457 0.404578
0.000000 0.772702 0.404608
0.000000 0.773068 0.404425
0.000000 0.773404 0.404120
0.000000 0.773800 0.403876
0.085878 0.774228 0.403540
0.159548 0.774685 0.403723
0.215854 0.775143 0.404486
0.267216 0.775723 0.406409
0.294194 0.776272 0.393957
0.299565 0.777005 0.364538
0.329931 0.776120 0.351019
0.372808 0.774075 0.348241
0.414221 0.771725 0.345098
0.454841 0.769162 0.341894
0.494667 0.766354 0.338109
0.537224 0.769223 0.319493
0.582910 0.772244 0.297490
0.631006 0.774899 0.272801
0.680751 0.777127 0.243778
0.731197 0.778927 0.209934
0.781064 0.780270 0.166690
0.829129 0.781338 0.102113
0.871611 0.781247 0.000000
0.904051 0.780301 0.000000
0.935241 0.783200 0.000000
0.961975 0.784787 0.000000
0.985138 0.785428 0.000000
1.000000 0.785122 0.000000
1.000000 0.784512 0.000000
1.000000 0.783352 0.000000
0.000000 0.801602 0.431403
0.000000 0.801938 0.431556
0.000000 0.802213 0.431769
0.000000 0.802457 0.431739
0.000000 0.802670 0.431891
0.000000 0.802884 0.431952
0.116854 0.803159 0.432349
0.179446 0.803403 0.433082
0.232547 0.803616 0.434791
0.282902 0.803922 0.437537
0.327581 0.804166 0.438544
0.332708 0.804898 0.411872
0.343511 0.805417 0.385595
0.384558 0.803555 0.383185
0.424781 0.801450 0.380621
0.464302 0.799100 0.377417
0.503197 0.796567 0.374365
0.541772 0.795193 0.367376
0.583490 0.797971 0.347082
0.627893 0.800381 0.325017
0.674098 0.802365 0.299779
0.721492 0.803891 0.270573
0.768948 0.805051 0.236606
0.815244 0.805905 0.195499
0.859434 0.806638 0.139315
0.897154 0.805875 0.078187
0.925170 0.803464 0.000000
0.953460 0.805936 0.000000
0.977996 0.807492 0.000000
0.999512 0.808072 0.000000
1.000000 0.807584 0.000000
1.000000 0.806699 0.000000
0.000000 0.829862 0.460426
0.000000 0.830076 0.460700
0.000000 0.830167 0.460945
0.000000 0.830228 0.460975
0.000000 0.830259 0.461250
0.078584 0.830289 0.461677
0.150484 0.830228 0.462409
0.204715 0.830198 0.463783
0.254368 0.830137 0.466102
0.302403 0.830045 0.469612
0.350835 0.829831 0.474739
0.369177 0.830320 0.460273
0.373632 0.831205 0.432319
0.400977 0.830350 0.420661
0.439277 0.828367 0.418219
0.476936 0.826200 0.415381
0.514336 0.823758 0.412390
0.551171 0.821256 0.409461
0.588556 0.821378 0.397650
0.628779 0.823545 0.377539
0.671138 0.825376 0.354650
0.715145 0.826780 0.329259
0.759670 0.827817 0.300114
0.803769 0.828519 0.266514
0.846464 0.829068 0.226383
0.886534 0.829709 0.175021
0.920104 0.828489 0.128176
0.944610 0.825101 0.080110
0.970123 0.827115 0.000000
0.992859 0.828702 0.000000
1.000000 0.828580 0.000000
1.000000 0.827787 0.000000
0.000000 0.855528 0.490181
0.000000 0.855619 0.490333
0.000000 0.855711 0.490608
0.000000 0.855711 0.490974
0.066896 0.855711 0.491524
0.135500 0.855680 0.492775
0.187503 0.855741 0.494301
0.235386 0.855741 0.497047
0.282902 0.855711 0.500572
0.329808 0.855589 0.505577
0.377295 0.855253 0.512200
0.412879 0.855222 0.511833
0.417670 0.856321 0.488411
0.427588 0.856962 0.465309
0.463600 0.855222 0.463416
0.499153 0.853239 0.461433
0.534386 0.850980 0.458778
0.569421 0.848692 0.456184
0.603967 0.846311 0.453529
0.639582 0.847471 0.437476
0.677546 0.849088 0.417273
0.717281 0.850340 0.394293
0.758053 0.851255 0.368353
0.799039 0.851835 0.339117
0.839231 0.852293 0.305333
0.877592 0.852781 0.266087
0.913664 0.853422 0.218601
0.943328 0.851865 0.179232
0.964630 0.847745 0.145327
0.986908 0.848631 0.099458
1.000000 0.849271 0.000000
1.000000 0.848905 0.000000
0.000000 0.881224 0.524437
0.023407 0.881254 0.524712
0.070893 0.881193 0.524926
0.108797 0.881102 0.525597
0.149752 0.880858 0.526329
0.190372 0.880583 0.527764
0.231296 0.880278 0.529900
0.273564 0.879820 0.532799
0.316533 0.879301 0.536889
0.361273 0.878569 0.542290
0.405554 0.877714 0.548882
0.449989 0.876738 0.556542
0.459510 0.877379 0.539269
0.463691 0.878294 0.515221
