data/fiter_cube/81078425/1022771/file.cube
# Created by Adobe Lightroom plugin Export LUT (1.17.0)
# www.johnrellis.com/lightroom/exportlut.htm
# Preset: 旅拍情绪景观_05 云集视觉
# Color profile: C:\Program Files (x86)\Common Files\Adobe\Color\Profiles\Recommended\AdobeRGB1998.icc
LUT_3D_SIZE 32
DOMAIN_MIN 0.0 0.0 0.0
DOMAIN_MAX 1.0 1.0 1.0
0.104646 0.104646 0.104646
0.106813 0.105043 0.104799
0.109499 0.105074 0.104738
0.115938 0.105684 0.104250
0.123934 0.106600 0.104158
0.133272 0.107607 0.104005
0.144350 0.108736 0.103975
0.157961 0.110658 0.103487
0.174685 0.112886 0.103212
0.195193 0.116304 0.102480
0.220706 0.120760 0.101198
0.251652 0.126253 0.099580
0.287694 0.133791 0.096803
0.328527 0.142336 0.093141
0.372900 0.152651 0.087617
0.419989 0.164034 0.080140
0.469245 0.176608 0.068757
0.520226 0.189853 0.047974
0.571099 0.203372 0.001709
0.621942 0.217563 0.000000
0.672175 0.231571 0.000000
0.730220 0.248020 0.000000
0.784695 0.263676 0.000000
0.829587 0.277256 0.000000
0.866850 0.288273 0.000000
0.898772 0.297642 0.000000
0.926818 0.306004 0.000000
0.952087 0.313664 0.000000
0.975219 0.320470 0.000000
0.996521 0.326818 0.000000
1.000000 0.332464 0.000000
1.000000 0.337530 0.000000
0.104860 0.106355 0.105196
0.106783 0.106508 0.105135
0.109468 0.106813 0.105043
0.115602 0.107424 0.104829
0.123659 0.108095 0.104738
0.133059 0.108827 0.104372
0.143984 0.110262 0.104067
0.157259 0.111971 0.103853
0.173617 0.114321 0.103365
0.193851 0.117586 0.102693
0.218753 0.121828 0.101686
0.249088 0.127413 0.099916
0.284428 0.134554 0.097505
0.324498 0.143435 0.093721
0.367987 0.153262 0.088563
0.414405 0.164675 0.081361
0.463081 0.177035 0.070985
0.513512 0.189822 0.053803
0.564355 0.203677 0.008850
0.615412 0.217472 0.000000
0.665980 0.231632 0.000000
0.723812 0.248112 0.000000
0.777371 0.263493 0.000000
0.822354 0.276677 0.000000
0.860075 0.287846 0.000000
0.892699 0.297398 0.000000
0.921660 0.305882 0.000000
0.947723 0.313573 0.000000
0.971496 0.320623 0.000000
0.993408 0.326970 0.000000
1.000000 0.332799 0.000000
1.000000 0.337865 0.000000
0.104921 0.108492 0.105928
0.107149 0.108370 0.106111
0.109804 0.108888 0.105776
0.115419 0.109346 0.105562
0.123537 0.110018 0.105257
0.132753 0.110780 0.104891
0.143465 0.112184 0.104829
0.156680 0.113680 0.104402
0.172946 0.116030 0.103914
0.192996 0.119326 0.103273
0.217411 0.123690 0.102083
0.247532 0.129335 0.100557
0.282383 0.136446 0.098207
0.322240 0.145418 0.094484
0.365393 0.155215 0.089448
0.411475 0.166384 0.082155
0.459663 0.178531 0.072175
0.509789 0.191348 0.056855
0.560845 0.204715 0.014435
0.611963 0.218997 0.000000
0.662776 0.233097 0.000000
0.720882 0.249668 0.000000
0.774014 0.264927 0.000000
0.818723 0.277714 0.000000
0.856657 0.288945 0.000000
0.889494 0.298497 0.000000
0.918914 0.307012 0.000000
0.945373 0.314946 0.000000
0.969574 0.321874 0.000000
0.991791 0.328435 0.000000
1.000000 0.333928 0.000000
1.000000 0.339178 0.000000
0.105287 0.113039 0.107332
0.107698 0.113130 0.107729
0.110567 0.112886 0.108339
0.116030 0.113832 0.106996
0.123415 0.114107 0.106752
0.132631 0.115084 0.106355
0.143221 0.116243 0.106081
0.156435 0.117678 0.105653
0.172763 0.119936 0.104952
0.192538 0.123171 0.104311
0.216739 0.127687 0.103365
0.246433 0.133486 0.101595
0.281132 0.140841 0.099031
0.320256 0.149691 0.095399
0.362982 0.159670 0.090455
0.408576 0.170993 0.083619
0.456703 0.183139 0.073518
0.506065 0.195895 0.059144
0.556512 0.209262 0.018799
0.607263 0.223026 0.000000
0.657801 0.237064 0.000000
0.715908 0.253422 0.000000
0.768399 0.268284 0.000000
0.813718 0.281224 0.000000
0.853117 0.292668 0.000000
0.887510 0.302525 0.000000
0.917937 0.311223 0.000000
0.944976 0.318944 0.000000
0.969329 0.326024 0.000000
0.991485 0.332097 0.000000
1.000000 0.337469 0.000000
1.000000 0.342412 0.000000
0.105867 0.118624 0.109468
0.108003 0.118746 0.109651
0.111025 0.118685 0.110445
0.116274 0.118715 0.110933
0.123568 0.120333 0.108827
0.132052 0.120333 0.108339
0.142855 0.121828 0.107820
0.155734 0.123476 0.107393
0.171847 0.125673 0.106722
0.191440 0.129030 0.106050
0.215335 0.133608 0.104646
0.244541 0.139864 0.102907
0.278874 0.147250 0.100618
0.317693 0.156374 0.097047
0.360204 0.166537 0.092134
0.406378 0.178042 0.085054
0.454719 0.190524 0.075319
0.504784 0.203677 0.060456
0.555535 0.216983 0.021363
0.606226 0.230808 0.000000
0.656703 0.244633 0.000000
0.715114 0.261509 0.000000
0.766262 0.275700 0.000000
0.811276 0.288243 0.000000
0.850736 0.299443 0.000000
0.885435 0.309117 0.000000
0.916106 0.317632 0.000000
0.943297 0.324926 0.000000
0.967803 0.331792 0.000000
0.990021 0.337591 0.000000
1.000000 0.342870 0.000000
1.000000 0.347509 0.000000
0.106905 0.125063 0.112093
0.108553 0.125246 0.111818
0.110414 0.125399 0.111757
0.116762 0.125216 0.113313
0.123323 0.125978 0.113252
0.132723 0.127871 0.110658
0.143069 0.128176 0.110079
0.156069 0.130282 0.109346
0.172122 0.133669 0.108766
0.191928 0.137270 0.107851
0.215915 0.142184 0.106630
0.245121 0.148470 0.105043
0.279271 0.156466 0.102480
0.317937 0.165927 0.098573
0.360571 0.176455 0.093599
0.406775 0.188449 0.086336
0.455360 0.201053 0.076204
0.505638 0.214359 0.062043
0.556725 0.228031 0.022797
0.607630 0.242100 0.000000
0.661463 0.256596 0.000000
0.718868 0.272953 0.000000
0.816983 0.303532 0.000000
0.858427 0.314733 0.000000
0.892576 0.324010 0.000000
0.921294 0.331456 0.000000
0.946075 0.337865 0.000000
0.968170 0.343328 0.000000
0.988281 0.348211 0.000000
1.000000 0.352667 0.000000
1.000000 0.356512 0.000000
1.000000 0.359747 0.000000
0.107515 0.134157 0.115175
0.109133 0.134127 0.115145
0.111269 0.134432 0.114839
0.117189 0.134676 0.116518
0.125277 0.134768 0.117281
0.134371 0.137209 0.116396
0.146365 0.139559 0.113283
0.160098 0.140230 0.112245
0.177310 0.144015 0.111299
0.198795 0.149416 0.110292
0.224979 0.156222 0.108827
0.256291 0.163729 0.106569
0.292088 0.172671 0.103487
0.332006 0.182681 0.099275
0.375067 0.193912 0.093416
0.420630 0.205661 0.085695
0.468940 0.218479 0.075044
0.519066 0.232120 0.058625
0.569787 0.245640 0.014343
0.621576 0.259861 0.000000
0.682856 0.277501 0.000000
0.744198 0.295018 0.000000
0.798611 0.310460 0.000000
0.845274 0.323430 0.000000
0.884123 0.333684 0.000000
0.915679 0.341802 0.000000
0.941955 0.348119 0.000000
0.964782 0.353429 0.000000
0.985382 0.358129 0.000000
1.000000 0.361944 0.000000
1.000000 0.365454 0.000000
1.000000 0.368322 0.000000
0.108583 0.143343 0.118868
0.109957 0.143526 0.118624
0.111727 0.143832 0.118532
0.115816 0.144350 0.117983
0.125704 0.144503 0.120455
0.135500 0.145052 0.121675
0.147372 0.149386 0.119112
0.161471 0.152407 0.115846
0.177798 0.153811 0.114595
0.199344 0.159091 0.113344
0.225528 0.166842 0.111727
0.256931 0.176608 0.109163
0.292760 0.186404 0.105867
0.332311 0.196841 0.101595
0.375280 0.208408 0.095399
0.420508 0.220462 0.087648
0.468360 0.233280 0.077119
0.518242 0.246860 0.061891
0.568963 0.260624 0.020172
0.622492 0.275547 0.000000
0.684321 0.293523 0.000000
0.743038 0.310460 0.000000
0.795590 0.324926 0.000000
0.841337 0.337407 0.000000
0.879881 0.347204 0.000000
0.911559 0.354711 0.000000
0.938201 0.360662 0.000000
0.961456 0.365484 0.000000
0.982422 0.369635 0.000000
1.000000 0.373205 0.000000
1.000000 0.376287 0.000000
1.000000 0.378820 0.000000
0.109224 0.155062 0.123415
0.110567 0.155215 0.123171
0.112398 0.155489 0.122927
0.116213 0.156161 0.122194
0.125826 0.156802 0.124147
0.136751 0.157443 0.125612
0.149050 0.158663 0.127138
0.164096 0.165408 0.122530
0.180911 0.168887 0.118502
0.201144 0.171359 0.116457
0.227817 0.179232 0.114534
0.259220 0.189242 0.112276
0.295445 0.201236 0.108766
0.335271 0.214145 0.104158
0.378027 0.225986 0.098054
0.423285 0.238560 0.090120
0.471199 0.251713 0.079133
0.520745 0.265263 0.064057
0.571069 0.278996 0.025452
0.629267 0.295872 0.000000
0.688319 0.313085 0.000000
0.744717 0.328923 0.000000
0.795499 0.342840 0.000000
0.840055 0.354437 0.000000
0.877897 0.363287 0.000000
0.909392 0.370520 0.000000
0.936034 0.375647 0.000000
0.959319 0.379858 0.000000
0.980407 0.383520 0.000000
0.999634 0.386542 0.000000
1.000000 0.389258 0.000000
1.000000 0.391058 0.000000
0.109621 0.169070 0.128664
0.110994 0.169223 0.128267
0.112825 0.169589 0.127810
0.116609 0.170352 0.126925
0.122988 0.171633 0.125887
0.137667 0.172122 0.129793
0.151400 0.173526 0.131502
0.166262 0.177005 0.131838
0.185580 0.185428 0.126131
0.204959 0.189487 0.121309
0.229679 0.193271 0.118074
0.261418 0.203464 0.115297
0.297581 0.215702 0.112093
0.337743 0.229618 0.107424
0.381598 0.244907 0.101076
0.427955 0.259220 0.092714
0.476844 0.273167 0.081086
0.526940 0.287114 0.065797
0.581903 0.303319 0.024414
0.639124 0.319768 0.000000
0.695155 0.335973 0.000000
0.747494 0.349981 0.000000
0.795102 0.362280 0.000000
0.837125 0.372320 0.000000
0.873808 0.380652 0.000000
0.905180 0.386847 0.000000
0.932311 0.391852 0.000000
0.956329 0.395575 0.000000
0.978119 0.399084 0.000000
0.997925 0.401770 0.000000
1.000000 0.403998 0.000000
1.000000 0.405646 0.000000
0.109468 0.185000 0.134340
0.110750 0.185397 0.134096
0.112581 0.185763 0.133669
0.116365 0.186679 0.132631
0.122560 0.188113 0.131075
0.137179 0.189425 0.134340
0.153079 0.191257 0.136538
0.170382 0.193820 0.138827
0.188785 0.200473 0.137026
0.212985 0.211154 0.130037
0.235660 0.215915 0.123934
0.264775 0.220554 0.119051
0.301305 0.232975 0.115480
0.341497 0.247044 0.110842
0.385504 0.262547 0.104585
0.432044 0.278996 0.096254
0.481178 0.296239 0.084718
0.534752 0.312383 0.068940
0.590356 0.328832 0.031281
0.645075 0.344274 0.000000
0.698878 0.359411 0.000000
0.749722 0.372747 0.000000
0.796078 0.384192 0.000000
0.837339 0.393866 0.000000
0.873289 0.401068 0.000000
0.904082 0.406500 0.000000
0.930785 0.410407 0.000000
0.954620 0.413764 0.000000
0.976257 0.416327 0.000000
0.996033 0.418494 0.000000
1.000000 0.420203 0.000000
1.000000 0.421515 0.000000
0.108248 0.204593 0.141543
0.109529 0.204959 0.141299
0.111360 0.205478 0.140719
0.115389 0.206638 0.139528
0.121859 0.208316 0.137667
0.132876 0.210391 0.136477
0.153964 0.212467 0.142153
0.173709 0.215763 0.144594
0.195071 0.219974 0.147921
0.218082 0.230381 0.142763
0.248112 0.243839 0.133577
0.273991 0.249027 0.126314
0.328710 0.270787 0.119081
0.372656 0.285924 0.113466
0.418830 0.301640 0.106477
0.466987 0.318181 0.097353
0.525841 0.340612 0.083101
0.584985 0.362737 0.062745
0.639918 0.380285 0.012909
0.692683 0.394018 0.000000
0.741878 0.405982 0.000000
0.786557 0.415778 0.000000
0.826444 0.423407 0.000000
0.861875 0.429603 0.000000
0.892821 0.433814 0.000000
0.919707 0.436683 0.000000
0.943297 0.438697 0.000000
0.964416 0.440131 0.000000
0.983795 0.441047 0.000000
1.000000 0.441810 0.000000
1.000000 0.442237 0.000000
1.000000 0.442298 0.000000
0.104280 0.234226 0.152102
0.105623 0.234623 0.151736
0.107942 0.234958 0.150912
0.112551 0.235813 0.149386
0.119997 0.237125 0.146609
0.130129 0.239231 0.142947
0.154452 0.241123 0.148714
0.177676 0.244785 0.151949
0.202945 0.249943 0.155459
0.230198 0.257023 0.159579
0.259892 0.272801 0.150332
0.298192 0.290776 0.138399
0.330205 0.297917 0.128542
0.370459 0.304936 0.119265
0.421271 0.323919 0.112001
0.480110 0.347539 0.102022
0.538537 0.369635 0.089601
0.593256 0.388739 0.074189
0.645106 0.405982 0.048341
0.695521 0.422339 0.000000
0.742336 0.433112 0.000000
0.785397 0.441596 0.000000
0.824002 0.448127 0.000000
0.858671 0.453162 0.000000
0.889311 0.456733 0.000000
0.915984 0.458747 0.000000
0.939666 0.460243 0.000000
0.961028 0.460883 0.000000
0.980652 0.461097 0.000000
0.998993 0.461463 0.000000
1.000000 0.461433 0.000000
1.000000 0.461158 0.000000
0.098756 0.260807 0.161898
0.100496 0.261326 0.161410
0.102937 0.261631 0.160616
0.108156 0.262455 0.158755
0.116182 0.264012 0.155703
0.127352 0.266300 0.151614
0.146517 0.269200 0.150698
0.177340 0.272526 0.158694
0.205478 0.278202 0.162417
0.235660 0.285649 0.167208
0.267399 0.296880 0.168521
0.303075 0.315373 0.156832
0.346319 0.335149 0.142031
0.384802 0.345647 0.130465
0.433509 0.357122 0.119539
0.491890 0.379095 0.109041
0.547265 0.398657 0.097719
0.598840 0.415412 0.086336
0.648402 0.430671 0.071901
0.696895 0.445319 0.046998
0.742733 0.458869 0.001160
0.784878 0.469276 0.000000
0.822843 0.474983 0.000000
0.857084 0.479164 0.000000
0.887266 0.481697 0.000000
0.913939 0.483192 0.000000
0.937560 0.483619 0.000000
0.958953 0.483711 0.000000
0.978698 0.483589 0.000000
0.997101 0.483284 0.000000
1.000000 0.482856 0.000000
1.000000 0.482246 0.000000
0.089723 0.291325 0.173312
0.091951 0.291844 0.172854
0.094667 0.292241 0.171847
0.100710 0.293095 0.169986
0.110292 0.294743 0.166445
0.122896 0.297063 0.161807
0.138033 0.300511 0.156008
0.174594 0.303471 0.165713
0.206760 0.309606 0.170352
0.239933 0.317510 0.175570
0.275547 0.327276 0.182193
0.312078 0.343603 0.179477
0.357763 0.369116 0.166323
0.411994 0.396063 0.148287
0.452735 0.405280 0.133852
0.498360 0.411200 0.121004
0.555047 0.429694 0.108736
0.604730 0.444282 0.098085
0.652277 0.457588 0.088716
0.698787 0.470497 0.077516
0.742885 0.482338 0.065736
0.784054 0.492744 0.050172
0.821378 0.501640 0.029328
0.855283 0.506371 0.015503
0.885405 0.508232 0.011444
0.912230 0.509178 0.011048
0.936400 0.509392 0.013306
0.958404 0.509270 0.023316
0.978637 0.508904 0.038148
0.997375 0.508598 0.052003
1.000000 0.508049 0.060121
1.000000 0.507225 0.064027
0.075868 0.325048 0.186038
0.078584 0.325872 0.185641
0.082185 0.326360 0.184726
0.090028 0.327733 0.182528
0.101350 0.329747 0.179202
0.115755 0.332860 0.174380
0.133364 0.336889 0.167971
0.164553 0.341466 0.169009
0.207340 0.346838 0.180636
0.245274 0.356237 0.186587
0.286442 0.369604 0.195071
0.330785 0.384802 0.205478
0.373114 0.406958 0.196933
0.421912 0.431281 0.179385
0.476875 0.455848 0.156222
0.513970 0.459327 0.139590
0.554253 0.459113 0.125948
0.608423 0.473945 0.113252
0.656062 0.486275 0.104921
0.702327 0.498451 0.099672
0.746181 0.509514 0.094209
0.786984 0.519097 0.091188
0.824063 0.527214 0.089693
0.857481 0.533837 0.090608
0.887388 0.538994 0.093507
0.913878 0.539086 0.097627
0.937682 0.538476 0.102663
0.959319 0.537591 0.108064
0.979095 0.536553 0.114534
0.997284 0.535393 0.120424
1.000000 0.534112 0.125460
1.000000 0.532677 0.129030
0.047822 0.360632 0.200076
0.054566 0.361181 0.199313
0.062104 0.361883 0.198428
0.073060 0.363134 0.196414
0.087984 0.365423 0.192813
0.105928 0.368566 0.187991
0.126040 0.374273 0.182071
0.150271 0.381659 0.173800
0.205539 0.388190 0.191867
0.249149 0.398962 0.200076
0.294011 0.412177 0.209049
0.340307 0.426978 0.220005
0.388678 0.443671 0.231510
0.432746 0.466987 0.215274
0.482979 0.489876 0.194430
0.536889 0.510979 0.167849
0.570397 0.509575 0.149722
0.605554 0.503685 0.136294
0.658167 0.515953 0.124117
0.703426 0.526360 0.119722
0.746181 0.535760 0.118379
0.786130 0.544396 0.118135
0.822599 0.551385 0.120912
0.855924 0.557366 0.124239
0.885801 0.562097 0.129061
0.912444 0.565881 0.135653
0.936370 0.567071 0.142336
0.958038 0.565789 0.149752
0.977874 0.564294 0.156985
0.996033 0.562829 0.164462
1.000000 0.561364 0.171298
1.000000 0.559808 0.178103
0.000000 0.404547 0.218112
0.000000 0.405890 0.217258
0.000000 0.427070 0.225101
0.000000 0.429419 0.222721
0.044556 0.432837 0.219242
0.084749 0.437293 0.214420
0.116243 0.443000 0.208103
0.148806 0.450233 0.199557
0.202579 0.457893 0.206607
0.263981 0.467170 0.225620
0.314885 0.480598 0.236088
0.366430 0.495125 0.248661
0.418402 0.509941 0.263035
0.467689 0.526879 0.268650
0.512169 0.546685 0.248905
0.561517 0.565332 0.224033
0.614252 0.582574 0.194064
0.644129 0.575677 0.174411
0.673823 0.563622 0.160647
0.722255 0.570672 0.151156
0.761563 0.576074 0.150942
0.798642 0.581262 0.154147
0.832700 0.585748 0.158846
0.863340 0.589227 0.164645
0.890440 0.591394 0.170871
0.914824 0.592920 0.176883
0.936950 0.594018 0.182956
0.957427 0.595270 0.189303
0.976562 0.593408 0.196506
0.994354 0.591363 0.205356
1.000000 0.589563 0.213169
1.000000 0.587732 0.221042
0.000000 0.460304 0.241062
0.000000 0.464271 0.242100
0.000000 0.468635 0.242405
0.000000 0.473732 0.241642
0.000000 0.479133 0.239139
0.051270 0.484321 0.234806
0.101900 0.489876 0.228214
0.141573 0.496437 0.220066
0.183352 0.504387 0.213169
0.259800 0.510765 0.240635
0.315679 0.522148 0.253147
0.369024 0.535180 0.265843
0.421820 0.548211 0.280308
0.473945 0.561425 0.296452
0.518853 0.577111 0.293370
0.562371 0.593957 0.270817
0.609857 0.609888 0.244663
0.660548 0.624628 0.213260
0.687739 0.615137 0.194797
0.714321 0.600427 0.182101
0.760037 0.604974 0.175296
0.797269 0.609216 0.178927
0.831449 0.612665 0.184329
0.862150 0.615442 0.192538
0.889311 0.617121 0.200809
0.913725 0.618158 0.208652
0.935851 0.618708 0.216464
0.956146 0.619593 0.225559
0.975036 0.620752 0.235294
0.992554 0.621241 0.245426
1.000000 0.619135 0.254887
1.000000 0.617212 0.264134
0.000000 0.507591 0.261570
0.000000 0.511803 0.262577
0.000000 0.516350 0.263249
0.000000 0.521355 0.262455
0.000000 0.526726 0.259831
0.000000 0.531212 0.255772
0.082856 0.536095 0.249729
0.132570 0.541833 0.242191
0.176730 0.548730 0.233951
0.246311 0.555261 0.248631
0.315435 0.563409 0.272526
0.370825 0.575036 0.285405
0.424506 0.586755 0.299992
0.477211 0.598566 0.316503
0.528557 0.610132 0.334173
0.568994 0.624811 0.320562
0.611017 0.639368 0.296727
0.656703 0.652888 0.269688
0.705409 0.665705 0.238804
0.730648 0.654383 0.220951
0.753964 0.637293 0.210513
0.797086 0.639399 0.205692
0.831113 0.641871 0.212528
0.861723 0.643397 0.220401
0.888579 0.644160 0.230564
0.912596 0.644282 0.240177
0.934356 0.644160 0.249393
0.954345 0.644465 0.259648
0.972930 0.645197 0.270787
0.990112 0.646296 0.282689
1.000000 0.647700 0.294621
1.000000 0.646967 0.305974
0.000000 0.554314 0.281956
0.000000 0.558434 0.283299
0.000000 0.562860 0.284245
0.000000 0.567803 0.283452
0.000000 0.572564 0.281193
0.000000 0.576715 0.277470
0.056611 0.580926 0.271641
0.124208 0.585840 0.264927
0.173953 0.591669 0.257694
0.229496 0.598199 0.257511
0.312352 0.603235 0.290532
0.371313 0.612909 0.306157
0.426184 0.623438 0.320897
0.479255 0.634211 0.337346
0.531334 0.645075 0.355749
0.580468 0.656031 0.373480
0.618128 0.670741 0.353277
0.660243 0.684932 0.330724
0.706050 0.698543 0.306096
0.755245 0.711879 0.278111
0.779904 0.700435 0.264652
0.801846 0.682887 0.257084
0.840879 0.681819 0.256870
0.870756 0.682185 0.268589
0.897032 0.681605 0.279210
0.919921 0.680812 0.291875
0.940368 0.680110 0.304875
0.959136 0.679683 0.317327
0.976410 0.679835 0.330632
0.992218 0.680629 0.344060
1.000000 0.681697 0.357702
1.000000 0.683101 0.371191
0.000000 0.614832 0.311101
0.000000 0.617151 0.311131
0.000000 0.619257 0.311009
0.000000 0.621820 0.309545
0.000000 0.624506 0.307286
0.000000 0.627527 0.303197
0.004669 0.631128 0.298497
0.121462 0.635706 0.292699
0.177127 0.641505 0.287510
0.228641 0.648371 0.283268
0.309148 0.654047 0.308782
0.381903 0.660670 0.338018
0.438025 0.670008 0.353796
0.491493 0.679133 0.371283
0.543511 0.688228 0.390173
0.593225 0.697261 0.410986
0.636164 0.707393 0.420233
0.671382 0.719661 0.399634
0.710780 0.731502 0.377081
0.753475 0.742580 0.352453
0.798978 0.752804 0.324224
0.819669 0.738643 0.310704
0.836973 0.718135 0.302434
0.870085 0.712520 0.301518
0.895415 0.710567 0.313268
0.918181 0.708583 0.324804
0.938506 0.707118 0.338048
0.956939 0.706325 0.352819
0.973816 0.706264 0.367773
0.989197 0.706813 0.383154
1.000000 0.707912 0.398291
1.000000 0.709468 0.413550
0.000000 0.659144 0.332830
0.000000 0.661341 0.333196
0.000000 0.663630 0.333135
0.000000 0.665949 0.332128
0.000000 0.668482 0.329900
0.000000 0.670832 0.326452
0.000000 0.673610 0.322362
0.118654 0.677150 0.317662
0.179904 0.681788 0.313451
0.233402 0.687282 0.310948
0.298222 0.692866 0.321721
0.383612 0.696315 0.361151
0.442206 0.703883 0.380133
0.496193 0.711910 0.398077
0.547387 0.719905 0.417670
0.596918 0.728054 0.438849
0.644129 0.736385 0.461494
0.680873 0.746548 0.461952
0.714595 0.757687 0.443000
0.751827 0.768307 0.422339
0.792050 0.778134 0.399390
0.834775 0.787137 0.373602
0.853117 0.772183 0.362524
0.868132 0.751431 0.355077
0.891722 0.737484 0.342229
0.914305 0.734554 0.354345
0.934752 0.732326 0.367834
0.953216 0.730892 0.382483
0.969818 0.730495 0.399390
0.985046 0.731014 0.416358
0.998871 0.732235 0.433661
1.000000 0.734066 0.450538
0.000000 0.713283 0.362097
0.000000 0.715541 0.362890
0.000000 0.717128 0.362890
0.000000 0.718593 0.361700
0.000000 0.719783 0.359594
0.000000 0.721096 0.356390
0.020752 0.722530 0.352819
0.135409 0.724422 0.349035
0.194827 0.726864 0.346227
0.248783 0.730007 0.345006
0.300969 0.733730 0.346715
0.382696 0.735470 0.380621
0.452308 0.738460 0.412299
0.504479 0.744289 0.429114
0.553185 0.749783 0.446876
0.599939 0.755337 0.465553
0.644373 0.761166 0.485603
0.687190 0.767727 0.507469
0.717617 0.777279 0.497780
0.749416 0.787381 0.480934
0.784482 0.796933 0.462593
0.821958 0.805570 0.442054
0.861357 0.812894 0.417426
0.876555 0.796811 0.406256
0.888548 0.774990 0.396521
0.913115 0.764309 0.393835
0.932738 0.760861 0.407263
0.950561 0.758175 0.420508
0.966827 0.756619 0.435309
0.981506 0.756527 0.452674
0.994873 0.757443 0.470802
1.000000 0.759304 0.489235
0.000000 0.749905 0.382849
0.000000 0.751919 0.383642
0.000000 0.753384 0.383734
0.000000 0.754543 0.383124
0.000000 0.755703 0.381445
0.000000 0.756802 0.379156
0.068818 0.758145 0.376745
0.149966 0.759792 0.374945
0.209659 0.762173 0.373999
0.263890 0.765133 0.375311
0.316838 0.768399 0.380041
0.385046 0.770962 0.402167
0.465431 0.771725 0.444984
0.518517 0.776333 0.465278
0.566247 0.781308 0.483345
0.611536 0.786221 0.502037
0.654597 0.791257 0.521996
0.695979 0.796811 0.543450
0.734066 0.803189 0.563622
0.759640 0.812100 0.549798
0.788388 0.820554 0.534417
0.819669 0.828275 0.517723
0.853056 0.834928 0.498207
0.888457 0.840482 0.475044
0.900908 0.824155 0.464973
0.910979 0.803189 0.455634
0.931975 0.791653 0.453193
0.949340 0.788083 0.466926
0.965026 0.786007 0.481941
0.979248 0.785092 0.498054
0.991791 0.785824 0.517082
1.000000 0.787625 0.536400
0.000000 0.787839 0.406714
0.000000 0.789059 0.407416
0.000000 0.789853 0.407233
0.000000 0.790372 0.406622
0.000000 0.790768 0.405035
0.000000 0.791165 0.403540
0.104555 0.791867 0.401892
0.172610 0.792905 0.401160
0.229038 0.794553 0.401892
0.282200 0.796780 0.405371
0.335546 0.799283 0.412329
0.389960 0.802274 0.424689
0.469490 0.802548 0.466377
0.533684 0.804196 0.500008
0.579217 0.808194 0.517449
0.622583 0.812192 0.535546
0.663630 0.816159 0.554620
0.702785 0.820493 0.575067
0.740139 0.825376 0.597009
0.770748 0.831540 0.608331
0.793820 0.839200 0.596033
0.819516 0.846311 0.582208
0.847349 0.852537 0.566400
0.877287 0.857908 0.547631
0.909056 0.862242 0.525994
0.919371 0.846250 0.516930
0.928008 0.826596 0.508263
0.946044 0.815030 0.506188
0.961578 0.811307 0.519219
0.975341 0.809903 0.535546
0.987732 0.809689 0.552514
0.998535 0.811002 0.571862
0.000000 0.819486 0.428107
0.000000 0.820310 0.428473
0.000000 0.820859 0.428779
0.000000 0.821408 0.428595
0.000000 0.822141 0.428229
0.064240 0.823239 0.428473
0.149752 0.825162 0.429786
0.210391 0.827604 0.432837
0.266972 0.830594 0.438697
0.322576 0.833860 0.447974
0.378820 0.837186 0.461860
0.434852 0.840330 0.479957
0.502312 0.841886 0.513359
0.573541 0.841764 0.557427
0.619165 0.844694 0.579309
0.658808 0.847684 0.597375
0.696071 0.850675 0.615564
0.731075 0.853819 0.634333
0.764309 0.857420 0.653925
0.795224 0.861387 0.674098
0.817411 0.866819 0.676967
0.836393 0.872679 0.666682
0.857420 0.877989 0.654566
0.880400 0.882597 0.640772
0.905333 0.886503 0.624323
0.932311 0.889616 0.605432
0.940276 0.875090 0.598169
0.947631 0.858030 0.590478
0.961730 0.846983 0.588647
0.974334 0.843168 0.600000
0.985351 0.842161 0.615290
0.994995 0.842283 0.631098
0.000000 0.860288 0.462745
0.000000 0.860716 0.463020
0.000000 0.860838 0.463294
0.034821 0.860807 0.463386
0.115450 0.860807 0.463905
0.167178 0.860960 0.465003
0.215152 0.861387 0.467384
0.263737 0.862119 0.471412
0.313512 0.863096 0.478340
0.364385 0.864195 0.488777
0.415564 0.865202 0.502403
0.466743 0.866270 0.519677
0.519249 0.866941 0.542107
0.586969 0.865415 0.583398
