data/fiter_cube/81078425/1022771/file.cube
# Created by Adobe Lightroom plugin Export LUT (1.17.0)
# www.johnrellis.com/lightroom/exportlut.htm
# Preset: 旅拍情绪景观_05 云集视觉
# Color profile: C:\Program Files (x86)\Common Files\Adobe\Color\Profiles\Recommended\AdobeRGB1998.icc
LUT_3D_SIZE 8
DOMAIN_MIN 0.000000 0.000000 0.000000
DOMAIN_MAX 0.903226 0.903226 0.903226
0.104646 0.104646 0.104646
0.123934 0.106600 0.104158
0.174685 0.112886 0.103212
0.287694 0.133791 0.096803
0.469245 0.176608 0.068757
0.672175 0.231571 0.000000
0.866850 0.288273 0.000000
0.975219 0.320470 0.000000
0.105867 0.118624 0.109468
0.123568 0.120333 0.108827
0.171847 0.125673 0.106722
0.278874 0.147250 0.100618
0.454719 0.190524 0.075319
0.656703 0.244633 0.000000
0.850736 0.299443 0.000000
0.967803 0.331792 0.000000
0.109224 0.155062 0.123415
0.125826 0.156802 0.124147
0.180911 0.168887 0.118502
0.295445 0.201236 0.108766
0.471199 0.251713 0.079133
0.688319 0.313085 0.000000
0.877897 0.363287 0.000000
0.980407 0.383520 0.000000
0.104280 0.234226 0.152102
0.119997 0.237125 0.146609
0.202945 0.249943 0.155459
0.330205 0.297917 0.128542
0.538537 0.369635 0.089601
0.742336 0.433112 0.000000
0.889311 0.456733 0.000000
0.980652 0.461097 0.000000
0.047822 0.360632 0.200076
0.087984 0.365423 0.192813
0.205539 0.388190 0.191867
0.388678 0.443671 0.231510
0.570397 0.509575 0.149722
0.746181 0.535760 0.118379
0.885801 0.562097 0.129061
0.977874 0.564294 0.156985
0.000000 0.554314 0.281956
0.000000 0.572564 0.281193
0.173953 0.591669 0.257694
0.426184 0.623438 0.320897
0.618128 0.670741 0.353277
0.779904 0.700435 0.264652
0.897032 0.681605 0.279210
0.976410 0.679835 0.330632
0.000000 0.749905 0.382849
0.000000 0.755703 0.381445
0.209659 0.762173 0.373999
0.465431 0.771725 0.444984
0.654597 0.791257 0.521996
0.788388 0.820554 0.534417
0.900908 0.824155 0.464973
0.965026 0.786007 0.481941
0.078340 0.885496 0.485908
0.176913 0.885679 0.488808
0.351110 0.886870 0.510765
0.548852 0.888914 0.579553
0.710750 0.880308 0.661707
0.827604 0.892302 0.733364
0.896818 0.909819 0.726497
0.960906 0.905425 0.682673
0.112978 0.113985 0.123476
0.127535 0.114595 0.122652
0.174685 0.119509 0.122621
0.280888 0.134920 0.121736
0.452308 0.167422 0.105531
0.653742 0.218509 0.047456
0.841581 0.273045 0.000000
0.960998 0.309850 0.000000
0.113039 0.125917 0.126986
0.127596 0.127596 0.127596
0.175906 0.133547 0.127535
0.280674 0.149783 0.123903
0.449287 0.184817 0.107424
0.649042 0.235325 0.056153
0.829404 0.285405 0.000000
0.952697 0.321050 0.000000
0.114229 0.160769 0.139223
0.130648 0.165103 0.140688
0.184970 0.175631 0.138613
0.293156 0.202518 0.132082
0.460334 0.244419 0.114229
0.666316 0.299443 0.065919
0.845243 0.345922 0.000000
0.963195 0.372930 0.000000
0.110597 0.235447 0.168307
0.127565 0.240482 0.166720
0.202823 0.254063 0.172488
0.318975 0.290471 0.152651
0.499245 0.345098 0.131289
0.692561 0.402930 0.096956
0.854185 0.436042 0.042878
0.963958 0.451331 0.000000
0.066499 0.366979 0.221195
0.098207 0.371649 0.215732
0.191867 0.390753 0.201358
0.373419 0.428992 0.246983
0.538598 0.483558 0.180423
0.718135 0.517235 0.158328
0.868132 0.552514 0.170138
0.967681 0.559228 0.191714
0.000000 0.543938 0.296757
0.000000 0.549920 0.291844
0.174228 0.568444 0.273472
0.406836 0.602411 0.325109
0.603082 0.655665 0.368719
0.769680 0.693782 0.294469
0.888762 0.678950 0.308232
0.969329 0.678614 0.351446
0.000000 0.729976 0.388037
0.000000 0.730068 0.382605
0.192416 0.740078 0.375555
0.436133 0.757565 0.429786
0.643122 0.781643 0.521263
0.778592 0.811704 0.538689
0.890227 0.815183 0.466346
0.957397 0.778988 0.479286
0.000000 0.877256 0.489174
0.157839 0.878813 0.493141
0.338781 0.881254 0.512932
0.538048 0.884672 0.577691
0.723964 0.885161 0.683925
0.830808 0.894133 0.744472
0.895171 0.908537 0.733181
0.957916 0.903593 0.686366
0.130312 0.134493 0.179263
0.146975 0.132876 0.179995
0.194766 0.138430 0.175051
0.300298 0.132204 0.177188
0.472053 0.145998 0.177768
0.682795 0.204623 0.180484
0.856626 0.265446 0.172366
0.967742 0.309209 0.155215
0.137545 0.155001 0.183566
0.149142 0.151980 0.183780
0.193759 0.152438 0.178836
0.298375 0.148348 0.179232
0.466651 0.172854 0.182437
0.674281 0.225315 0.182010
0.848203 0.280919 0.172274
0.963806 0.322698 0.157382
0.132540 0.192569 0.197086
0.148653 0.193484 0.197269
0.195621 0.195621 0.195621
0.310796 0.214603 0.199832
0.490669 0.252293 0.202945
0.688716 0.301427 0.200107
0.853208 0.347082 0.195499
0.963958 0.378454 0.188571
0.111269 0.262119 0.226200
0.131746 0.267613 0.227695
0.202792 0.283085 0.227359
0.342260 0.321019 0.233707
0.526146 0.371649 0.237125
0.711330 0.416449 0.239689
0.864012 0.450874 0.246433
0.965942 0.469368 0.250950
0.056489 0.390631 0.283818
0.104067 0.398230 0.284489
0.208164 0.420874 0.283696
0.385199 0.459174 0.320897
0.558587 0.511498 0.292424
0.727871 0.537682 0.292302
0.868193 0.573114 0.318791
0.963775 0.581598 0.340337
0.000000 0.557122 0.359289
0.000000 0.563806 0.359258
0.204349 0.580682 0.354376
0.398047 0.604639 0.383093
0.601678 0.653895 0.452308
0.757198 0.693355 0.395972
0.878599 0.690852 0.419257
0.961517 0.705440 0.471717
0.000000 0.739590 0.450019
0.000000 0.740810 0.448035
0.230014 0.746731 0.443793
0.421515 0.760494 0.464027
0.640558 0.779355 0.562219
0.778988 0.811978 0.604608
0.886320 0.824186 0.559411
0.953155 0.802396 0.582238
0.103548 0.877043 0.534142
0.173617 0.876493 0.533501
0.339147 0.877592 0.547570
0.539117 0.883452 0.605676
0.723476 0.882902 0.703639
0.831479 0.894377 0.763882
0.895750 0.909606 0.767239
0.954009 0.908446 0.732906
0.159670 0.174411 0.297185
0.183902 0.173342 0.299138
0.248844 0.161746 0.294774
0.329168 0.177127 0.281041
0.482429 0.175631 0.294041
0.672267 0.171054 0.297642
0.837888 0.278752 0.331365
0.953216 0.348547 0.346227
0.169894 0.205264 0.310582
0.187778 0.199741 0.309300
0.249790 0.184604 0.302281
0.333288 0.195926 0.288304
0.484718 0.197024 0.298863
0.668177 0.213474 0.308476
0.834348 0.297673 0.334081
0.951873 0.359899 0.346929
0.176669 0.264439 0.324041
0.197543 0.264988 0.323613
0.246403 0.252293 0.317937
0.334997 0.250126 0.304784
0.497414 0.264591 0.319768
0.689906 0.319677 0.348974
0.854856 0.392004 0.381842
0.958373 0.430304 0.385992
0.154788 0.341192 0.353368
0.178500 0.340673 0.351934
0.246799 0.340520 0.347875
0.341955 0.341955 0.341955
0.516716 0.382666 0.363256
0.698054 0.431098 0.385809
0.851530 0.481239 0.412146
0.955383 0.517571 0.432044
0.089021 0.442084 0.392065
0.128054 0.441596 0.390051
0.215915 0.445594 0.387304
0.370062 0.481971 0.403265
0.558801 0.531914 0.427588
0.725948 0.571466 0.452552
0.860807 0.608484 0.485328
0.952148 0.628504 0.507439
0.000000 0.582544 0.456123
0.043397 0.596216 0.464057
0.230716 0.607721 0.463539
0.399573 0.632197 0.474403
0.608484 0.670680 0.547936
0.753140 0.709499 0.533989
0.868711 0.721248 0.563531
0.948241 0.744778 0.605493
0.000000 0.744137 0.532799
0.087892 0.748257 0.533989
0.269352 0.758358 0.537957
0.446082 0.772519 0.555352
0.645716 0.786862 0.627527
0.787533 0.818784 0.692287
0.878019 0.833280 0.658686
0.943511 0.824613 0.678553
0.219394 0.880583 0.613062
0.262608 0.881437 0.614984
0.371710 0.882292 0.619776
0.528527 0.883574 0.645533
0.697078 0.884855 0.709346
0.828702 0.894163 0.786465
0.895750 0.910552 0.807004
0.948730 0.913756 0.784451
0.224033 0.253666 0.478767
0.250492 0.252476 0.480018
0.321569 0.239200 0.473030
0.419440 0.215640 0.460639
0.520897 0.256046 0.439307
0.664027 0.288060 0.446784
0.822477 0.350561 0.478370
0.929107 0.485481 0.551049
0.234867 0.285954 0.491005
0.260441 0.285527 0.494575
0.327459 0.269413 0.486213
0.419287 0.236332 0.465278
0.519219 0.273411 0.441779
0.665187 0.306981 0.452369
0.822873 0.369879 0.485328
0.929259 0.495064 0.554070
0.275059 0.378607 0.516930
0.290898 0.374273 0.515282
0.329076 0.345159 0.500359
0.413397 0.306401 0.478340
0.512993 0.326299 0.450294
0.660334 0.358007 0.463722
0.819272 0.419989 0.500420
0.928405 0.517449 0.555627
0.260502 0.446448 0.529564
0.282078 0.445716 0.527428
0.349706 0.447547 0.523766
0.420661 0.427955 0.508904
0.516564 0.414923 0.479408
0.672663 0.451484 0.502037
0.824430 0.520562 0.547234
0.933440 0.570825 0.572595
0.227390 0.527611 0.546838
0.252506 0.527947 0.546410
0.323156 0.525963 0.541039
0.419043 0.523888 0.532830
0.515648 0.515648 0.515648
0.688869 0.566583 0.550286
0.834104 0.619074 0.588067
0.933379 0.658564 0.617304
0.159060 0.615625 0.565148
0.191196 0.615869 0.564477
0.271427 0.612757 0.558038
0.373816 0.612238 0.550500
0.535698 0.639399 0.565301
0.720089 0.697292 0.614710
0.849546 0.738918 0.661860
0.933593 0.766812 0.694606
0.073671 0.742061 0.620935
0.131594 0.740658 0.618402
0.269200 0.746242 0.618280
0.425788 0.759762 0.625147
0.591302 0.778134 0.646906
0.768948 0.808652 0.728145
0.862272 0.832395 0.722927
0.931395 0.837552 0.745174
0.254032 0.870054 0.684901
0.285527 0.870085 0.684688
0.376135 0.870970 0.685481
0.514488 0.878904 0.700038
0.655970 0.881682 0.723751
0.809415 0.888518 0.796475
0.891691 0.908141 0.837949
0.941466 0.915282 0.821317
0.370916 0.404639 0.686885
0.387549 0.401892 0.685420
0.432288 0.381445 0.671748
0.509392 0.346929 0.654383
0.609461 0.328222 0.632715
0.693019 0.387366 0.594873
0.806821 0.467842 0.611109
0.913909 0.574914 0.667964
0.367803 0.415961 0.674983
0.381170 0.410956 0.672175
0.425940 0.393835 0.662776
0.500450 0.360235 0.646723
0.600580 0.338659 0.626947
0.687068 0.395819 0.592615
0.804013 0.475074 0.611688
0.912383 0.579583 0.668788
0.423102 0.504662 0.694423
0.428443 0.496956 0.689723
0.451911 0.472938 0.678767
0.510765 0.438605 0.662684
0.599969 0.397620 0.638117
0.686946 0.445380 0.605219
0.805478 0.516289 0.627985
0.911925 0.608911 0.682033
0.452735 0.582361 0.708705
0.465370 0.582025 0.705898
0.505638 0.581628 0.700771
0.543084 0.555505 0.690272
0.608545 0.504051 0.667201
0.696315 0.528740 0.636439
0.813962 0.587732 0.661921
0.914153 0.659022 0.707179
0.421515 0.628138 0.707088
0.437842 0.629267 0.706752
0.487526 0.632654 0.704707
0.559777 0.638697 0.701869
0.609918 0.615656 0.683314
0.683467 0.594476 0.649989
0.811582 0.643732 0.680781
0.912291 0.707637 0.726162
0.388830 0.689937 0.711513
0.408759 0.692653 0.713466
0.458167 0.693080 0.711147
0.527642 0.692592 0.706386
0.601648 0.688472 0.696254
0.682399 0.682399 0.682399
0.827726 0.740414 0.729549
0.920592 0.781125 0.763088
0.377386 0.788571 0.747097
0.395972 0.789639 0.747768
0.443244 0.787594 0.744320
0.510002 0.784604 0.738125
0.582971 0.779049 0.726101
0.721798 0.797086 0.742580
0.848600 0.833951 0.782956
0.924376 0.857115 0.812528
0.391333 0.874968 0.776761
0.401801 0.873960 0.775326
0.437171 0.871427 0.770718
0.505028 0.871000 0.766567
0.629969 0.875914 0.772335
0.760769 0.884245 0.795529
0.883482 0.904997 0.860227
0.935302 0.918151 0.858579
0.531273 0.556481 0.801633
0.542229 0.557733 0.802884
0.565332 0.546441 0.798703
0.608209 0.523827 0.791470
0.669215 0.477119 0.776059
0.759640 0.485145 0.762478
0.814145 0.544976 0.722042
0.891814 0.640986 0.746578
0.529168 0.562249 0.795834
0.538872 0.562615 0.796597
0.560906 0.551415 0.792874
0.600000 0.526207 0.784237
0.659113 0.479103 0.768276
0.747860 0.479774 0.752926
0.803769 0.535668 0.712306
0.885252 0.629328 0.736812
0.576440 0.627100 0.806516
0.576806 0.621271 0.805295
0.588403 0.606836 0.799985
0.616480 0.581659 0.791196
0.662989 0.534325 0.774411
0.745754 0.519677 0.758480
0.806729 0.573480 0.725216
0.889952 0.662257 0.753994
0.625483 0.699306 0.821286
0.626276 0.695155 0.818662
0.633936 0.683650 0.812100
0.649531 0.662287 0.804318
0.679225 0.622461 0.789578
0.747005 0.586694 0.772641
0.811551 0.629755 0.745968
0.893767 0.701228 0.772976
0.612940 0.727474 0.820005
0.618463 0.726864 0.818296
0.642298 0.728786 0.815671
0.683162 0.735195 0.814481
0.693629 0.701961 0.799619
0.731624 0.646021 0.777066
0.802701 0.671199 0.754025
0.894255 0.737209 0.787686
0.593530 0.762692 0.822019
0.601801 0.763455 0.821836
0.628870 0.766049 0.821256
0.671962 0.771237 0.821347
0.722255 0.776425 0.820218
0.757198 0.761105 0.808988
0.808499 0.742641 0.783230
0.900237 0.788907 0.813046
0.583124 0.812406 0.830900
0.593133 0.813718 0.831601
0.618891 0.814908 0.831174
0.658961 0.817105 0.830686
0.704219 0.817014 0.827085
0.755398 0.815366 0.820981
0.807309 0.807279 0.807309
0.911101 0.853391 0.846433
0.580224 0.878965 0.852384
0.586694 0.879088 0.852232
0.617304 0.884459 0.856809
0.653407 0.885985 0.856535
0.695857 0.884062 0.851499
0.742397 0.880888 0.842588
0.842832 0.893126 0.856443
0.927214 0.918395 0.888426
0.698634 0.713893 0.881315
0.702510 0.713680 0.881590
0.708156 0.704219 0.878904
0.725490 0.691279 0.876371
0.752651 0.666011 0.871336
0.797147 0.621881 0.862821
0.868742 0.657984 0.859251
0.899443 0.708125 0.830106
0.698604 0.717342 0.879545
0.702327 0.717067 0.879789
0.708644 0.708797 0.877653
0.723873 0.694453 0.874540
0.750362 0.669459 0.869535
0.793790 0.624628 0.860960
0.865232 0.657130 0.856870
0.897490 0.707576 0.828611
0.713436 0.742184 0.880552
0.715480 0.740871 0.880369
0.718013 0.731075 0.877409
0.735561 0.723018 0.876951
0.756069 0.697993 0.871427
0.792569 0.653834 0.862058
0.861570 0.673365 0.857694
0.896941 0.721523 0.832822
0.737209 0.780209 0.886076
0.740658 0.780423 0.886107
0.746273 0.775570 0.883543
0.753872 0.764034 0.881285
0.769039 0.743832 0.876799
0.797391 0.706874 0.868681
0.859098 0.706081 0.863127
0.898070 0.747616 0.842435
0.755734 0.815000 0.891356
0.761013 0.816983 0.891997
0.771481 0.818235 0.891478
0.776425 0.809140 0.888823
0.785183 0.792844 0.883452
0.803189 0.763577 0.876005
0.853666 0.742519 0.869108
0.896727 0.774563 0.850889
0.750118 0.835416 0.895048
0.752743 0.835386 0.894621
0.763607 0.836423 0.893919
0.784451 0.840085 0.894224
0.814511 0.847105 0.896025
0.826261 0.831266 0.891600
0.852171 0.795468 0.881621
0.898009 0.812039 0.865263
0.752346 0.865995 0.903410
0.755398 0.866209 0.903258
0.766384 0.867308 0.903197
0.787076 0.870481 0.904082
0.812406 0.873320 0.904173
0.843778 0.877409 0.904662
0.863645 0.866178 0.897734
0.895781 0.848814 0.877592
0.741848 0.894926 0.908263
0.744076 0.894835 0.907958
0.754299 0.895384 0.907805
0.773922 0.897398 0.908385
0.799649 0.899748 0.908812
0.829770 0.902007 0.908721
0.863401 0.903380 0.907195
0.896727 0.896696 0.896696
