data/fiter_cube/81078425/1022771/file.cube
# Created by Adobe Lightroom plugin Export LUT (1.17.0)
# www.johnrellis.com/lightroom/exportlut.htm
# Preset: 旅拍情绪景观_05 云集视觉
# Color profile: C:\Program Files (x86)\Common Files\Adobe\Color\Profiles\Recommended\AdobeRGB1998.icc
LUT_3D_SIZE 5
DOMAIN_MIN 0.000000 0.000000 0.000000
DOMAIN_MAX 0.903226 0.903226 0.903226
0.104646 0.104646 0.104646
0.157961 0.110658 0.103487
0.372900 0.152651 0.087617
0.730220 0.248020 0.000000
0.975219 0.320470 0.000000
0.108583 0.143343 0.118868
0.161471 0.152407 0.115846
0.375280 0.208408 0.095399
0.743038 0.310460 0.000000
0.982422 0.369635 0.000000
0.089723 0.291325 0.173312
0.174594 0.303471 0.165713
0.452735 0.405280 0.133852
0.784054 0.492744 0.050172
0.978637 0.508904 0.038148
0.000000 0.614832 0.311101
0.121462 0.635706 0.292699
0.543511 0.688228 0.390173
0.819669 0.738643 0.310704
0.973816 0.706264 0.367773
0.078340 0.885496 0.485908
0.303441 0.886381 0.501518
0.638087 0.876066 0.624659
0.850614 0.896056 0.748928
0.960906 0.905425 0.682673
0.124483 0.127443 0.158663
0.171756 0.130892 0.157015
0.372015 0.137942 0.158267
0.716487 0.218784 0.139040
0.961791 0.302800 0.081544
0.127382 0.169833 0.173312
0.172824 0.172824 0.172824
0.381048 0.207004 0.173068
0.724514 0.289311 0.153292
0.964080 0.357580 0.122591
0.096620 0.309239 0.231266
0.175814 0.328435 0.228550
0.435431 0.398749 0.227604
0.755001 0.482887 0.226017
0.969055 0.518944 0.254612
0.000000 0.621302 0.376379
0.170108 0.641077 0.372839
0.539727 0.687190 0.452003
0.808133 0.739467 0.418311
0.963317 0.725948 0.475227
0.127687 0.883543 0.528405
0.316167 0.884245 0.541497
0.640192 0.885008 0.649012
0.855955 0.899260 0.777096
0.956725 0.910216 0.730404
0.185946 0.208499 0.383642
0.260319 0.197910 0.377813
0.424537 0.211612 0.358679
0.714351 0.236118 0.380133
0.943236 0.412329 0.453346
0.218357 0.300664 0.410529
0.265385 0.278233 0.403326
0.425360 0.269749 0.373266
0.714229 0.307012 0.397009
0.944945 0.456733 0.469551
0.179232 0.432776 0.448707
0.255985 0.430091 0.442939
0.426734 0.426734 0.426734
0.734707 0.515312 0.482185
0.944610 0.593805 0.535210
0.000000 0.629145 0.523735
0.191470 0.633875 0.520409
0.488594 0.676905 0.545800
0.780880 0.745632 0.611200
0.938018 0.774166 0.663722
0.227970 0.873014 0.645014
0.345312 0.876310 0.650507
0.594446 0.881743 0.684504
0.843076 0.894987 0.804044
0.944244 0.913115 0.799619
0.392370 0.425147 0.706386
0.439216 0.415564 0.702205
0.568536 0.356664 0.677241
0.724361 0.421637 0.625727
0.906889 0.589258 0.687617
0.434241 0.500664 0.713100
0.458778 0.482094 0.706477
0.564782 0.422065 0.681178
0.717006 0.457496 0.629847
0.903532 0.606256 0.692042
0.470466 0.619318 0.730007
0.513268 0.623407 0.727169
0.582391 0.592401 0.704921
0.702449 0.556054 0.649287
0.904295 0.677516 0.722683
0.446418 0.730068 0.751156
0.483833 0.727382 0.746181
0.591882 0.727108 0.738827
0.716884 0.716793 0.716823
0.915923 0.798306 0.783413
0.446357 0.878141 0.800290
0.480507 0.876829 0.797910
0.570977 0.874022 0.788632
0.786954 0.887724 0.814939
0.933196 0.918120 0.865995
0.698634 0.713893 0.881315
0.705898 0.707057 0.879606
0.737789 0.680934 0.874388
0.815915 0.630732 0.862028
0.899443 0.708125 0.830106
0.711055 0.736599 0.881071
0.716487 0.729885 0.879423
0.742489 0.704677 0.874327
0.809873 0.644129 0.860380
0.897795 0.718898 0.832517
0.750362 0.800717 0.889128
0.753292 0.795529 0.887205
0.766506 0.775540 0.880674
0.805417 0.717403 0.866850
0.897063 0.759457 0.845853
0.754208 0.844846 0.898466
0.764370 0.845640 0.897795
0.801511 0.851987 0.898589
0.837919 0.842191 0.894713
0.897124 0.820066 0.867613
0.741848 0.894926 0.908263
0.750759 0.895079 0.907744
0.786282 0.898619 0.908721
0.837949 0.902556 0.908598
0.896727 0.896696 0.896696
