data/filter_cube/11206988/1023416/file.cube
# Created by Adobe Lightroom plugin Export LUT (1.17.0)
# www.johnrellis.com/lightroom/exportlut.htm
# Preset: 焦糖暖色调人像产品_05 云集
# Color profile: C:\Program Files (x86)\Common Files\Adobe\Color\Profiles\Recommended\AdobeRGB1998.icc
LUT_3D_SIZE 8
DOMAIN_MIN 0.000000 0.000000 0.000000
DOMAIN_MAX 0.903226 0.903226 0.903226
0.024903 0.024170 0.028748
0.055695 0.033539 0.037934
0.117464 0.051026 0.053986
0.305089 0.000000 0.059724
0.477638 0.086519 0.082216
0.628138 0.237095 0.186923
0.736294 0.363348 0.302892
0.854948 0.492287 0.413855
0.036072 0.049134 0.045838
0.049042 0.048157 0.049958
0.114900 0.062043 0.054749
0.287083 0.032136 0.059113
0.459968 0.104158 0.076936
0.607568 0.225986 0.167422
0.712398 0.343786 0.280980
0.838254 0.477150 0.398322
0.057343 0.093111 0.072206
0.064637 0.093141 0.065980
0.089784 0.088411 0.080934
0.313695 0.142336 0.059754
0.488258 0.194430 0.089693
0.622583 0.281621 0.191714
0.742580 0.401221 0.317327
0.861479 0.523400 0.427527
0.062348 0.214786 0.119020
0.079744 0.213657 0.109621
0.108339 0.163516 0.074556
0.243961 0.244877 0.189059
0.502281 0.368444 0.228885
0.652155 0.370245 0.240177
0.749813 0.448859 0.335454
0.858030 0.549371 0.433204
0.133181 0.359564 0.206577
0.146548 0.355688 0.197452
0.151339 0.320592 0.137850
0.206332 0.270054 0.108797
0.376104 0.372717 0.298375
0.564904 0.478920 0.356023
0.727565 0.496193 0.351446
0.851469 0.581476 0.438819
0.233616 0.461280 0.288548
0.250278 0.467445 0.290227
0.254612 0.446876 0.254276
0.212802 0.358526 0.144320
0.317937 0.364965 0.186526
0.485969 0.478553 0.399786
0.640131 0.590875 0.496681
0.826780 0.654932 0.501884
0.334569 0.559991 0.376745
0.338994 0.558556 0.372747
0.337591 0.540887 0.344152
0.287907 0.482856 0.251041
0.235111 0.362158 0.117769
0.425788 0.457771 0.276219
0.570642 0.564691 0.494453
0.720211 0.682368 0.603052
0.437171 0.648188 0.476265
0.436683 0.644495 0.469947
0.435615 0.632959 0.448524
0.409216 0.607996 0.387915
0.327642 0.519799 0.248264
0.317479 0.433143 0.143069
0.551537 0.571557 0.402564
0.670588 0.667262 0.608576
0.029328 0.033143 0.051331
0.060822 0.025452 0.054292
0.108064 0.059052 0.059754
0.278111 0.023346 0.059113
0.452766 0.094606 0.074556
0.596124 0.211276 0.156100
0.700435 0.327550 0.267979
0.823697 0.457282 0.383490
0.042267 0.050629 0.056428
0.059419 0.059297 0.062013
0.115480 0.068238 0.064210
0.278721 0.064912 0.058412
0.448524 0.115084 0.073304
0.587671 0.214176 0.149874
0.685389 0.316747 0.253605
0.805142 0.441321 0.367437
0.061891 0.095491 0.083070
0.073640 0.105043 0.083680
0.102693 0.102022 0.094667
0.301518 0.145113 0.070954
0.466163 0.186557 0.079988
0.596612 0.260105 0.165042
0.698726 0.355383 0.273960
0.824491 0.480446 0.390600
0.073152 0.214237 0.135714
0.092927 0.219333 0.131594
0.121920 0.187655 0.091920
0.230259 0.231968 0.185458
0.447913 0.324926 0.191989
0.609339 0.326757 0.190921
0.702510 0.397955 0.288640
0.822538 0.507774 0.397436
0.153170 0.364965 0.226902
0.163119 0.359594 0.217044
0.168307 0.332616 0.163455
0.203738 0.266941 0.116426
0.357427 0.355596 0.286778
0.540673 0.454200 0.330724
0.703365 0.472236 0.329442
0.830686 0.556909 0.417578
0.238102 0.456550 0.295506
0.244480 0.453620 0.289555
0.259525 0.439490 0.263615
0.220615 0.363317 0.161349
0.313725 0.360845 0.189395
0.483101 0.476204 0.400031
0.631037 0.581720 0.486763
0.812680 0.640497 0.489357
0.325048 0.548058 0.371923
0.324071 0.542138 0.363439
0.328191 0.528008 0.339879
0.290684 0.480598 0.259342
0.241428 0.367926 0.132296
0.416968 0.449165 0.272007
0.559747 0.553735 0.482918
0.700404 0.662959 0.583062
0.430030 0.640009 0.471870
0.431891 0.638331 0.468116
0.432532 0.628260 0.448646
0.415351 0.606439 0.397101
0.347204 0.538537 0.271580
0.317479 0.435492 0.145022
0.547631 0.568261 0.399512
0.662715 0.659174 0.600214
0.038544 0.058198 0.089174
0.061799 0.046204 0.104219
0.172671 0.000000 0.116915
0.327764 0.000000 0.100160
0.470069 0.170382 0.142061
0.611353 0.259220 0.196597
0.716945 0.354955 0.287358
0.840085 0.479561 0.400305
0.066499 0.078584 0.089082
0.066621 0.075257 0.106050
0.170993 0.019074 0.119692
0.309667 0.117891 0.125551
0.468666 0.191318 0.150637
0.602655 0.261601 0.193271
0.705623 0.348241 0.277409
0.830991 0.473487 0.392676
0.079408 0.114900 0.116854
0.097261 0.127413 0.126284
0.164736 0.166567 0.153872
0.332158 0.205875 0.160708
0.492744 0.263890 0.189425
0.609949 0.306615 0.220005
0.708705 0.373083 0.286442
0.830503 0.489601 0.397009
0.119936 0.271763 0.222843
0.150271 0.282597 0.225772
0.214359 0.295445 0.212253
0.300237 0.304173 0.259770
0.500114 0.367041 0.260472
0.620325 0.374975 0.263310
0.718379 0.419776 0.306279
0.835721 0.524407 0.410773
0.213413 0.399634 0.296818
0.230442 0.400061 0.294133
0.267674 0.395117 0.275456
0.247471 0.318853 0.174929
0.407202 0.404395 0.343114
0.568383 0.482948 0.372259
0.710048 0.486671 0.347478
0.836820 0.564446 0.423835
0.287327 0.484993 0.352361
0.296422 0.483619 0.348974
0.313329 0.472175 0.328313
0.286961 0.419379 0.247501
0.329412 0.377111 0.220096
0.495583 0.490120 0.422004
0.636072 0.585351 0.492775
0.817777 0.644282 0.492164
0.368597 0.570367 0.422004
0.369512 0.566308 0.415534
0.370855 0.552300 0.392004
0.351415 0.519615 0.330419
0.285740 0.411994 0.197269
0.423316 0.456886 0.288090
0.573571 0.568841 0.505119
0.717678 0.678096 0.596857
0.452186 0.652705 0.505791
0.450416 0.648188 0.498390
0.450599 0.637110 0.478492
0.452766 0.622889 0.446113
0.379217 0.561791 0.320623
0.308690 0.434302 0.149630
0.548302 0.570214 0.405310
0.670008 0.666896 0.610315
0.000000 0.083009 0.195071
0.000000 0.074769 0.221103
0.224002 0.000000 0.290623
0.405097 0.000000 0.256687
0.533471 0.000000 0.211612
0.598627 0.331395 0.300023
0.697383 0.390661 0.337133
0.827695 0.465492 0.388190
0.071351 0.135866 0.209201
0.054139 0.117769 0.229404
0.213474 0.008392 0.291203
0.406287 0.000000 0.263920
0.527489 0.133852 0.227939
0.594232 0.342290 0.305150
0.692439 0.392309 0.336095
0.824063 0.465431 0.385870
0.134127 0.194919 0.202823
0.156710 0.208011 0.211551
0.201816 0.221683 0.269566
0.401282 0.202243 0.287236
0.504387 0.325994 0.300237
0.607935 0.391669 0.339605
0.717037 0.445228 0.376165
0.842374 0.502586 0.408545
0.197604 0.298131 0.275120
0.220951 0.307225 0.281498
0.290349 0.336889 0.303441
0.380316 0.380377 0.337957
0.511315 0.406622 0.345006
0.608667 0.433936 0.361822
0.708675 0.471199 0.386053
0.840696 0.528557 0.415167
0.313024 0.455055 0.402075
0.329381 0.460487 0.406836
0.359991 0.457832 0.393378
0.388983 0.447456 0.356664
0.465949 0.464027 0.415412
0.602686 0.514183 0.424750
0.720699 0.529656 0.423102
0.843442 0.577569 0.443214
0.373754 0.538079 0.452613
0.389776 0.543877 0.457008
0.402838 0.533227 0.437873
0.414832 0.513512 0.399237
0.363989 0.417365 0.275731
0.532647 0.529595 0.475227
0.664179 0.606653 0.519432
0.833371 0.649195 0.502464
0.428717 0.598779 0.495399
0.433173 0.597925 0.492988
0.441413 0.591241 0.478706
0.443061 0.573663 0.442786
0.380621 0.501335 0.322362
0.438483 0.476112 0.317357
0.591699 0.588678 0.534478
0.740871 0.694728 0.611627
0.494820 0.684749 0.574060
0.496223 0.683131 0.570275
0.496468 0.672724 0.551049
0.493599 0.652247 0.513024
0.447852 0.605585 0.415991
0.358984 0.491615 0.239353
0.544335 0.569970 0.408515
0.682704 0.680995 0.630549
0.000000 0.149966 0.335698
0.000000 0.136416 0.352422
0.187778 0.095003 0.399359
0.446815 0.000000 0.461128
0.586145 0.000000 0.387945
0.664912 0.198764 0.341009
0.721920 0.386999 0.391913
0.819455 0.526848 0.478767
0.109804 0.212192 0.337926
0.105531 0.197513 0.355688
0.203647 0.159701 0.400702
0.448371 0.000000 0.466163
0.581720 0.000000 0.393133
0.659602 0.246006 0.351965
0.716701 0.411841 0.405798
0.819364 0.529656 0.479408
0.222751 0.297978 0.312749
0.239780 0.309606 0.332403
0.259007 0.298924 0.385748
0.428321 0.249577 0.460731
0.564355 0.254185 0.407233
0.633783 0.342626 0.376013
0.691249 0.472969 0.439796
0.813046 0.532860 0.475105
0.279973 0.358984 0.346105
0.294499 0.364477 0.349798
0.343175 0.386725 0.366278
0.403693 0.411505 0.428443
0.548180 0.405615 0.436286
0.603754 0.472023 0.439857
0.691218 0.517540 0.467231
0.823392 0.554009 0.480720
0.339300 0.435279 0.405554
0.352941 0.440803 0.410040
0.393530 0.456397 0.422583
0.453620 0.483192 0.445228
0.511284 0.509117 0.467231
0.602869 0.525719 0.469886
0.698970 0.550439 0.482002
0.828550 0.589441 0.495186
0.414008 0.537835 0.492714
0.425055 0.542016 0.496956
0.456611 0.553338 0.508080
0.482033 0.552941 0.498665
0.475074 0.524987 0.438605
0.554925 0.554467 0.513176
0.692561 0.615259 0.535424
0.842893 0.647456 0.527916
0.492866 0.631403 0.579126
0.494331 0.628901 0.574762
0.500664 0.622400 0.561913
0.507439 0.610925 0.537499
0.498695 0.583398 0.482185
0.429480 0.480354 0.331548
0.605127 0.604059 0.559747
0.760952 0.701259 0.614893
0.525444 0.709499 0.640681
0.526238 0.706874 0.635950
0.528557 0.698146 0.619745
0.535546 0.691981 0.598566
0.524407 0.656062 0.534569
0.441199 0.567956 0.374334
0.522667 0.558007 0.394018
0.687404 0.687312 0.644190
0.155123 0.271763 0.471168
0.152041 0.257328 0.481819
0.234897 0.241672 0.514488
0.397467 0.184421 0.570764
0.604608 0.000000 0.594903
0.696071 0.163424 0.497169
0.799405 0.293767 0.474220
0.881010 0.432380 0.495583
0.206912 0.306157 0.458991
0.204288 0.295109 0.469734
0.249638 0.273411 0.503777
0.391669 0.227359 0.557031
0.594110 0.128969 0.585657
0.686915 0.207553 0.495857
0.790005 0.317723 0.475776
0.874784 0.441993 0.496193
0.318334 0.396765 0.453193
0.325689 0.397650 0.463508
0.324010 0.374762 0.496132
0.407446 0.351019 0.547509
0.587396 0.299565 0.588220
0.677394 0.326421 0.515221
0.776150 0.399237 0.498451
0.863706 0.490272 0.515709
0.368170 0.435126 0.431525
0.375769 0.437293 0.432197
0.405829 0.455421 0.456306
0.445533 0.467750 0.528038
0.587335 0.450935 0.602625
0.672145 0.456641 0.552789
0.762814 0.495186 0.532860
0.846616 0.574090 0.560998
0.400641 0.479561 0.465614
0.409705 0.483284 0.468421
0.438605 0.495308 0.477363
0.482399 0.514763 0.492287
0.529076 0.534691 0.543816
0.640040 0.531853 0.553918
0.709194 0.570825 0.550286
0.823362 0.617975 0.574487
0.443946 0.534295 0.508415
0.454597 0.539330 0.513176
0.479255 0.548180 0.520684
0.514885 0.561700 0.532799
0.554162 0.578363 0.548547
0.601709 0.602014 0.571801
0.711910 0.625879 0.579004
0.837675 0.659419 0.587976
0.518364 0.627283 0.599512
0.525231 0.631922 0.604730
0.541955 0.641718 0.615381
0.569482 0.660975 0.636316
0.586450 0.661463 0.626978
0.562951 0.610254 0.536309
0.639429 0.641901 0.613794
0.809506 0.722927 0.640864
0.573327 0.761898 0.745052
0.574273 0.759823 0.741299
0.578027 0.753872 0.729122
0.584771 0.746578 0.710018
0.584466 0.723751 0.663691
0.564446 0.668177 0.566705
0.479988 0.539544 0.367071
0.705135 0.708156 0.677943
0.279088 0.371557 0.570336
0.280735 0.366308 0.579858
0.310185 0.353338 0.603021
0.395117 0.327764 0.648127
0.572717 0.236149 0.717586
0.726741 0.185580 0.713252
0.806821 0.251713 0.626123
0.914244 0.334691 0.615991
0.300816 0.388403 0.558373
0.301305 0.383154 0.567193
0.317632 0.366278 0.590356
0.392340 0.342016 0.631830
0.556939 0.265415 0.697688
0.710994 0.213382 0.696498
0.790585 0.264012 0.610529
0.901823 0.336217 0.600305
0.386542 0.460670 0.551781
0.384863 0.456123 0.558007
0.377874 0.434668 0.579400
0.419715 0.414496 0.620203
0.548974 0.369329 0.682948
0.703548 0.325414 0.698848
0.788968 0.354650 0.631952
0.901305 0.409125 0.623896
0.430152 0.499825 0.519982
0.433295 0.501152 0.525597
0.450507 0.508873 0.550317
0.463416 0.499306 0.597528
0.541314 0.480568 0.661891
0.698238 0.446967 0.711330
0.786770 0.456062 0.660395
0.894469 0.484047 0.638727
0.454505 0.524254 0.521935
0.457771 0.524315 0.521202
0.472480 0.528099 0.522362
0.499184 0.539727 0.534112
0.526146 0.547875 0.608118
0.669612 0.529351 0.702907
0.762295 0.525902 0.658076
0.873533 0.553460 0.635706
0.487800 0.565240 0.555779
0.492226 0.566796 0.556939
0.506920 0.571923 0.560937
0.530571 0.581201 0.569085
0.559625 0.592340 0.579034
0.603967 0.614588 0.647333
0.750576 0.612268 0.675715
0.838926 0.652827 0.658167
0.525536 0.617670 0.604639
0.530114 0.620233 0.607416
0.542443 0.625513 0.612696
0.563073 0.635279 0.622797
0.590906 0.647517 0.635187
0.632227 0.667872 0.656550
0.691096 0.696193 0.685054
0.825559 0.725490 0.688930
0.565820 0.707454 0.699062
0.569207 0.710262 0.702144
0.584131 0.724941 0.718898
0.607050 0.744259 0.740200
0.643336 0.771603 0.769680
0.672053 0.782406 0.771420
0.626337 0.697627 0.621973
0.737270 0.746609 0.737972
0.383001 0.470222 0.683375
0.381415 0.465095 0.691737
0.387396 0.448066 0.710872
0.437629 0.427863 0.753231
0.554864 0.375738 0.811429
0.762356 0.225254 0.874052
0.839475 0.254093 0.836942
0.904295 0.301823 0.768521
0.395758 0.480934 0.672602
0.394415 0.476509 0.680690
0.393744 0.457496 0.701411
0.438087 0.437720 0.741939
0.548394 0.390875 0.801175
0.753384 0.256352 0.867399
0.833066 0.270695 0.831052
0.899260 0.312291 0.763058
0.442451 0.523522 0.653956
0.440711 0.519921 0.660426
0.429725 0.499031 0.678645
0.455543 0.482826 0.727138
0.545098 0.448066 0.786069
0.730159 0.355596 0.853727
0.827695 0.340551 0.833524
0.894072 0.368200 0.768124
0.476326 0.556268 0.619287
0.480720 0.559014 0.627466
0.491157 0.561944 0.651209
0.484230 0.540856 0.695918
0.537011 0.518059 0.760647
0.695918 0.466682 0.837308
0.825284 0.430152 0.845609
0.890684 0.442206 0.781674
0.503319 0.571618 0.582849
0.506920 0.573327 0.584466
0.512871 0.576318 0.592248
0.522606 0.586999 0.634485
0.529686 0.575616 0.707820
0.633967 0.549615 0.798672
0.808621 0.509636 0.847623
0.885832 0.517357 0.794522
0.524865 0.605402 0.615045
0.526085 0.604761 0.613916
0.531640 0.604089 0.612146
0.543297 0.605371 0.612299
0.561730 0.608881 0.614923
0.587854 0.624506 0.738338
0.794339 0.610254 0.865629
0.880613 0.611658 0.813779
0.552911 0.656947 0.668910
0.554589 0.657038 0.668788
0.561181 0.658228 0.669673
0.574914 0.663111 0.674891
0.596307 0.670924 0.683436
0.628595 0.682704 0.696284
0.684199 0.707759 0.787564
0.854978 0.712367 0.817075
0.579461 0.717494 0.730434
0.581170 0.717617 0.730465
0.588647 0.720546 0.733455
0.604547 0.728389 0.741817
0.629541 0.739834 0.753780
0.667353 0.755947 0.770230
0.725277 0.781247 0.795682
0.796201 0.813840 0.826902
