data/filter_cube/11206988/1023416/file.cube
# Created by Adobe Lightroom plugin Export LUT (1.17.0)
# www.johnrellis.com/lightroom/exportlut.htm
# Preset: 焦糖暖色调人像产品_05 云集
# Color profile: C:\Program Files (x86)\Common Files\Adobe\Color\Profiles\Recommended\AdobeRGB1998.icc
LUT_3D_SIZE 5
DOMAIN_MIN 0.000000 0.000000 0.000000
DOMAIN_MAX 0.903226 0.903226 0.903226
0.024903 0.024170 0.028748
0.092531 0.049897 0.050690
0.398993 0.000000 0.063996
0.657282 0.272679 0.219821
0.854948 0.492287 0.413855
0.052033 0.079042 0.066194
0.076387 0.075227 0.071717
0.399878 0.134371 0.061646
0.653529 0.301610 0.223514
0.866606 0.524285 0.431403
0.084932 0.292485 0.160006
0.115267 0.262394 0.108949
0.322576 0.321965 0.252995
0.657740 0.422126 0.280278
0.852506 0.561547 0.433234
0.266484 0.493812 0.315984
0.280919 0.480995 0.292851
0.212375 0.328954 0.110475
0.510887 0.503624 0.425635
0.802304 0.668666 0.527337
0.437171 0.648188 0.476265
0.435859 0.636500 0.455421
0.354314 0.562036 0.310338
0.386572 0.475380 0.211460
0.670588 0.667262 0.608576
0.037873 0.050782 0.075288
0.121736 0.009552 0.090913
0.383368 0.105074 0.101228
0.625788 0.253788 0.188510
0.825589 0.461860 0.385870
0.069612 0.089448 0.092317
0.120729 0.121004 0.116243
0.398901 0.186221 0.128328
0.628473 0.285985 0.198062
0.828794 0.481910 0.393774
0.143191 0.328496 0.236942
0.200412 0.328099 0.218692
0.332860 0.333928 0.277806
0.632929 0.407385 0.273564
0.840696 0.548516 0.421332
0.311711 0.515831 0.368017
0.329168 0.506828 0.350591
0.267948 0.384619 0.187228
0.520928 0.515068 0.445167
0.798428 0.663813 0.522637
0.455482 0.658106 0.506310
0.455482 0.646815 0.486580
0.406043 0.595483 0.373510
0.382757 0.477363 0.214450
0.676600 0.673518 0.616449
0.000000 0.109957 0.269413
0.133425 0.064546 0.326940
0.505211 0.000000 0.325231
0.645808 0.311650 0.321172
0.824338 0.492897 0.426429
0.163699 0.235447 0.256748
0.186801 0.227329 0.317510
0.499611 0.175662 0.348211
0.621729 0.404150 0.371527
0.829129 0.509697 0.434150
0.272099 0.371099 0.342107
0.324865 0.390570 0.357031
0.451423 0.448920 0.405432
0.626764 0.490211 0.423133
0.835172 0.563226 0.458991
0.428870 0.573236 0.509911
0.438788 0.564294 0.493385
0.457313 0.537804 0.434852
0.558862 0.557061 0.508965
0.817166 0.660060 0.529015
0.506462 0.691005 0.599817
0.511284 0.686458 0.588159
0.507500 0.652583 0.521996
0.365942 0.482704 0.241794
0.679866 0.678706 0.631006
0.176791 0.288945 0.488808
0.222110 0.270481 0.521630
0.493996 0.151125 0.615717
0.718105 0.187503 0.520989
0.887297 0.409430 0.513909
0.308782 0.389319 0.477241
0.302312 0.364141 0.506279
0.481453 0.306737 0.594812
0.701106 0.300877 0.529259
0.870573 0.446632 0.517632
0.385168 0.456703 0.450752
0.411353 0.467048 0.457465
0.474586 0.491463 0.535698
0.662440 0.475990 0.551629
0.832731 0.571801 0.563989
0.473823 0.560479 0.537163
0.490547 0.564324 0.539666
0.544274 0.585626 0.559533
0.621241 0.622431 0.595972
0.830564 0.668605 0.604059
0.573510 0.751766 0.738186
0.586938 0.761990 0.749233
0.606043 0.760189 0.731411
0.579736 0.677241 0.581231
0.709499 0.713527 0.687312
0.383001 0.470222 0.683375
0.381476 0.451453 0.704250
0.485542 0.408179 0.781216
0.786557 0.229679 0.869291
0.904295 0.301823 0.768521
0.431037 0.513512 0.662531
0.422431 0.495552 0.683070
0.489326 0.456123 0.761105
0.774472 0.314580 0.861784
0.897154 0.355169 0.769467
0.490364 0.564019 0.594141
0.495308 0.567956 0.613367
0.504875 0.555413 0.696803
0.716274 0.488533 0.835569
0.887419 0.477394 0.786191
0.534722 0.620600 0.631495
0.540032 0.620020 0.629908
0.562158 0.623194 0.631586
0.606989 0.641047 0.749691
0.875273 0.634089 0.814084
0.579461 0.717494 0.730434
0.586084 0.719387 0.732235
0.615839 0.733791 0.747494
0.679591 0.761166 0.775479
0.796201 0.813840 0.826902
