data/filter_cube/11206988/1023416/file.cube
# Created by Adobe Lightroom plugin Export LUT (1.17.0)
# www.johnrellis.com/lightroom/exportlut.htm
# Preset: 焦糖暖色调人像产品_05 云集
# Color profile: C:\Program Files (x86)\Common Files\Adobe\Color\Profiles\Recommended\AdobeRGB1998.icc
LUT_3D_SIZE 32
DOMAIN_MIN 0.0 0.0 0.0
DOMAIN_MAX 1.0 1.0 1.0
0.024903 0.024170 0.028748
0.025879 0.025147 0.029725
0.030762 0.026673 0.030549
0.041688 0.029450 0.033295
0.055695 0.033539 0.037934
0.065797 0.039124 0.042298
0.077119 0.045106 0.047272
0.092531 0.049897 0.050690
0.117464 0.051026 0.053986
0.153567 0.044556 0.057252
0.199985 0.021393 0.059113
0.252232 0.000000 0.059327
0.305089 0.000000 0.059724
0.354162 0.000000 0.060334
0.398993 0.000000 0.063996
0.439857 0.043122 0.071229
0.477638 0.086519 0.082216
0.512688 0.119051 0.096925
0.550469 0.154391 0.118441
0.594049 0.198215 0.152255
0.628138 0.237095 0.186923
0.657282 0.272679 0.219821
0.684047 0.304967 0.249729
0.710079 0.334844 0.277104
0.736294 0.363348 0.302892
0.763973 0.392309 0.328466
0.793545 0.423499 0.355261
0.824247 0.456794 0.383612
0.854948 0.492287 0.413855
0.884276 0.529015 0.445594
0.911376 0.565057 0.477516
0.935485 0.599481 0.509056
0.025727 0.026368 0.029633
0.025727 0.026368 0.029633
0.030762 0.026673 0.030549
0.042664 0.030426 0.034272
0.055299 0.035920 0.038819
0.065644 0.040314 0.043305
0.076661 0.046509 0.047242
0.091829 0.051118 0.050660
0.115450 0.052369 0.054108
0.150271 0.047242 0.056733
0.195193 0.028260 0.058991
0.246281 0.000000 0.059449
0.298314 0.000000 0.059266
0.347112 0.000000 0.060243
0.391791 0.000000 0.063386
0.432685 0.041199 0.069612
0.470527 0.084321 0.079896
0.505821 0.115969 0.093965
0.544244 0.150820 0.114809
0.586664 0.192081 0.145968
0.620447 0.229313 0.178866
0.649256 0.263920 0.210880
0.675441 0.295415 0.240269
0.700832 0.324895 0.267704
0.726558 0.353246 0.293584
0.753841 0.382177 0.319371
0.783719 0.413336 0.346380
0.815183 0.447059 0.375219
0.847074 0.483131 0.405829
0.877714 0.520684 0.438178
0.905974 0.557946 0.471046
0.931151 0.593256 0.503197
0.027497 0.029511 0.031495
0.027344 0.030732 0.031403
0.029633 0.030274 0.033539
0.043458 0.032624 0.035157
0.056184 0.036927 0.038697
0.066011 0.042512 0.043091
0.076600 0.047517 0.047150
0.091096 0.052369 0.050629
0.114351 0.054871 0.054017
0.148196 0.049989 0.056794
0.192142 0.034363 0.058656
0.242527 0.007263 0.059236
0.294499 0.000000 0.059144
0.343389 0.000000 0.060212
0.387915 0.000000 0.062684
0.428809 0.047974 0.068757
0.466560 0.085878 0.078340
0.501976 0.116182 0.092317
0.541405 0.150790 0.113222
0.582849 0.190341 0.143099
0.616510 0.226566 0.174960
0.645197 0.260288 0.206668
0.671168 0.291356 0.235752
0.696284 0.320531 0.262943
0.721584 0.348821 0.289067
0.748623 0.377508 0.314855
0.778500 0.408606 0.342046
0.810269 0.442359 0.370825
0.842832 0.478676 0.401648
0.874144 0.516655 0.434424
0.903014 0.554406 0.467597
0.928710 0.590051 0.499916
0.031312 0.039216 0.038178
0.031525 0.039216 0.037079
0.035431 0.039734 0.036927
0.038575 0.037842 0.042420
0.054780 0.044129 0.042512
0.066682 0.046876 0.043763
0.077119 0.051698 0.047608
0.092195 0.056214 0.051026
0.115175 0.058656 0.054414
0.148379 0.056001 0.057099
0.191287 0.045106 0.058839
0.240787 0.022644 0.059388
0.291691 0.001251 0.058900
0.339879 0.000000 0.059663
0.384100 0.020294 0.062257
0.424964 0.064607 0.068055
0.462654 0.092134 0.077302
0.497749 0.119509 0.090639
0.538170 0.154055 0.111696
0.577356 0.189273 0.138857
0.610040 0.222782 0.168917
0.638178 0.254978 0.199344
0.664088 0.285649 0.228611
0.689845 0.315404 0.256748
0.716396 0.345037 0.284245
0.744930 0.375525 0.311986
0.776272 0.407996 0.340429
0.809110 0.442664 0.370092
0.842008 0.479316 0.401465
0.873198 0.516808 0.433722
0.901640 0.553765 0.466285
0.926970 0.588586 0.497902
0.036072 0.049134 0.045838
0.037263 0.049866 0.045716
0.038880 0.050599 0.043427
0.045655 0.049775 0.043336
0.049042 0.048157 0.049958
0.062379 0.054170 0.051484
0.077852 0.057527 0.048707
0.092531 0.060548 0.051331
0.114900 0.062043 0.054749
0.146975 0.062104 0.057374
0.188540 0.058503 0.058961
0.236851 0.046082 0.059144
0.287083 0.032136 0.059113
0.335180 0.033753 0.059388
0.379797 0.058228 0.061463
0.421393 0.079683 0.067170
0.459968 0.104158 0.076936
0.495796 0.129122 0.089876
0.538598 0.162692 0.112459
0.576196 0.195132 0.138796
0.607568 0.225986 0.167422
0.635065 0.256229 0.197055
0.660456 0.285435 0.225620
0.685908 0.314611 0.253544
0.712398 0.343786 0.280980
0.740993 0.374121 0.308995
0.772274 0.406561 0.337713
0.805173 0.440772 0.367224
0.838254 0.477150 0.398322
0.869718 0.514733 0.430793
0.898619 0.551629 0.463325
0.924468 0.586786 0.495216
0.040131 0.059266 0.052461
0.042512 0.060060 0.052277
0.043915 0.060456 0.051392
0.048188 0.060182 0.048890
0.055146 0.059083 0.050507
0.058686 0.057710 0.058656
0.069245 0.063294 0.060121
0.090242 0.066926 0.056184
0.118166 0.067597 0.055116
0.150484 0.068482 0.057465
0.191897 0.067414 0.058747
0.239292 0.065034 0.058625
0.288365 0.063935 0.058076
0.335882 0.068391 0.058778
0.380011 0.080873 0.061036
0.421515 0.098573 0.066926
0.460060 0.119722 0.076905
0.499977 0.145510 0.092287
0.541527 0.176242 0.115389
0.577813 0.205814 0.141756
0.608820 0.235019 0.170230
0.636286 0.264103 0.199680
0.714961 0.354772 0.285893
0.743404 0.384314 0.313329
0.771939 0.413336 0.339269
0.800351 0.442359 0.364660
0.828031 0.471992 0.390356
0.854765 0.502129 0.416541
0.880095 0.532921 0.443702
0.903899 0.563439 0.470985
0.925475 0.592584 0.497871
0.944366 0.620539 0.524529
0.047608 0.069337 0.060883
0.048371 0.070100 0.060822
0.051362 0.070710 0.060273
0.053193 0.070649 0.057618
0.060060 0.068818 0.054475
0.065461 0.067475 0.059419
0.067781 0.066896 0.065431
0.081239 0.074830 0.069001
0.116152 0.082490 0.064454
0.170901 0.082307 0.059236
0.217990 0.083467 0.058473
0.266941 0.085817 0.056947
0.314702 0.091402 0.056062
0.359258 0.100557 0.058778
0.400305 0.113283 0.062470
0.438422 0.129366 0.070588
0.474403 0.147189 0.082094
0.519890 0.176364 0.103883
0.560021 0.204898 0.129824
0.595666 0.234043 0.159426
0.627649 0.265385 0.192752
0.658595 0.298466 0.227085
0.690089 0.332799 0.261387
0.722774 0.367712 0.295018
0.756405 0.402075 0.326482
0.788632 0.434607 0.355322
0.818814 0.466041 0.382757
0.846952 0.496986 0.409796
0.873472 0.528283 0.437507
0.897887 0.558953 0.465034
0.920256 0.588342 0.492073
0.940002 0.616602 0.518883
0.052033 0.079042 0.066194
0.053834 0.079652 0.066102
0.055787 0.080232 0.065644
0.058381 0.080812 0.063478
0.062043 0.078676 0.061006
0.067353 0.076234 0.059388
0.073335 0.075959 0.064424
0.076387 0.075227 0.071717
0.093385 0.086946 0.078370
0.139864 0.100252 0.072175
0.204288 0.106600 0.064302
0.269718 0.105653 0.054261
0.316136 0.112856 0.053620
0.359564 0.122347 0.056886
0.399878 0.134371 0.061646
0.437293 0.148257 0.070344
0.480323 0.169558 0.085054
0.521843 0.193606 0.106020
0.558923 0.217624 0.130617
0.592798 0.243076 0.158846
0.623713 0.271183 0.190463
0.653529 0.301610 0.223514
0.683833 0.333562 0.256779
0.715206 0.366400 0.289220
0.747707 0.399237 0.320287
0.779568 0.430793 0.348699
0.810056 0.461952 0.376257
0.839109 0.492744 0.403357
0.866606 0.524285 0.431403
0.891997 0.555322 0.459297
0.915312 0.585290 0.486946
0.935912 0.613916 0.514061
0.057343 0.093111 0.072206
0.058900 0.093568 0.072114
0.059876 0.094331 0.071656
0.062379 0.096071 0.070344
0.064637 0.093141 0.065980
0.069673 0.089387 0.063874
0.076539 0.086915 0.064393
0.085023 0.087648 0.070649
0.089784 0.088411 0.080934
0.111055 0.104952 0.092866
0.170352 0.127016 0.083986
0.242130 0.140719 0.073243
0.313695 0.142336 0.059754
0.364050 0.146883 0.054414
0.403174 0.157809 0.061067
0.445899 0.174502 0.072419
0.488258 0.194430 0.089693
0.525963 0.213993 0.110170
0.560693 0.234134 0.134035
0.592828 0.256291 0.161288
0.622583 0.281621 0.191714
0.651484 0.309300 0.223545
0.680812 0.339117 0.255619
0.711086 0.370062 0.287297
0.742580 0.401221 0.317327
0.773953 0.431891 0.345586
0.804349 0.462165 0.372869
0.833585 0.492409 0.399786
0.861479 0.523400 0.427527
0.887266 0.554314 0.455634
0.910979 0.584070 0.482918
0.932067 0.612512 0.510002
0.059998 0.112825 0.079683
0.060426 0.113497 0.079255
0.062043 0.114046 0.078492
0.064546 0.115450 0.077272
0.065827 0.113893 0.071565
0.072236 0.107759 0.068513
0.078401 0.101106 0.065766
0.088777 0.101503 0.069642
0.100649 0.104341 0.078279
0.108797 0.107301 0.093233
0.133455 0.128847 0.113100
0.202152 0.159335 0.102266
0.277134 0.178531 0.089448
0.346502 0.185397 0.075380
0.414862 0.187411 0.062837
0.458381 0.204257 0.077363
0.498054 0.221134 0.096132
0.533989 0.237675 0.117342
0.566888 0.255100 0.141360
0.596704 0.274571 0.168215
0.624201 0.296056 0.196567
0.650690 0.320012 0.225895
0.677516 0.345464 0.254704
0.705226 0.372625 0.283726
0.734463 0.400885 0.311955
0.764736 0.429938 0.339422
0.795621 0.459724 0.366705
0.826139 0.490669 0.394507
0.855619 0.522606 0.423377
0.882963 0.554467 0.452338
0.907866 0.585199 0.480873
0.929961 0.614496 0.508751
0.060639 0.136812 0.088197
0.061616 0.137331 0.087831
0.062623 0.137972 0.087129
0.066102 0.139406 0.085451
0.069398 0.139956 0.081025
0.073610 0.132845 0.074495
0.081514 0.124208 0.071077
0.088716 0.115419 0.068025
0.105348 0.120851 0.075685
0.122591 0.127169 0.088624
0.134890 0.133425 0.110262
0.162264 0.160647 0.141238
0.240391 0.200198 0.130037
0.320867 0.227695 0.119203
0.392554 0.240757 0.108034
0.455818 0.241947 0.097505
0.503624 0.244846 0.100587
0.537285 0.258396 0.122194
0.568261 0.272984 0.145846
0.596765 0.289677 0.171450
0.623407 0.308965 0.198978
0.649287 0.330632 0.227237
0.675624 0.354559 0.255833
0.702846 0.380224 0.284001
0.731350 0.407172 0.311711
0.760952 0.434668 0.338384
0.791104 0.463172 0.365087
0.821225 0.492775 0.392126
0.850584 0.523552 0.420294
0.878172 0.554986 0.449165
0.903532 0.585473 0.477516
0.926207 0.614618 0.505394
0.060212 0.167086 0.099550
0.061830 0.167605 0.098695
0.063447 0.168093 0.097841
0.067323 0.169467 0.096071
0.073518 0.170993 0.092561
0.074311 0.164736 0.082216
0.084260 0.153841 0.077302
0.092683 0.141451 0.072419
0.104860 0.136721 0.072786
0.127413 0.146273 0.083986
0.151980 0.157992 0.103792
0.174105 0.173739 0.137392
0.251377 0.254795 0.221469
0.337499 0.299138 0.209232
0.414435 0.323705 0.199222
0.480842 0.332677 0.189517
0.537652 0.330602 0.180423
0.584924 0.320623 0.172488
0.610559 0.329412 0.192630
0.633448 0.343328 0.216434
0.656153 0.359747 0.241001
0.679713 0.378546 0.265629
0.704158 0.399207 0.290196
0.730251 0.422095 0.314977
0.757809 0.446448 0.339879
0.785855 0.471626 0.364233
0.813413 0.497108 0.388586
0.840055 0.523339 0.413306
0.865507 0.550195 0.438544
0.889586 0.577447 0.464302
0.911864 0.603967 0.489906
0.932067 0.630091 0.515679
0.062348 0.214786 0.119020
0.064179 0.214847 0.118379
0.066865 0.214542 0.117006
0.071870 0.214054 0.114137
0.079744 0.213657 0.109621
0.082338 0.208194 0.098299
0.088777 0.194522 0.087434
0.098939 0.178927 0.080568
0.108339 0.163516 0.074556
0.131716 0.171481 0.081117
0.168521 0.192660 0.101900
0.208957 0.217594 0.137545
0.243961 0.244877 0.189059
0.286564 0.292454 0.258366
0.368170 0.334936 0.247593
0.440497 0.359136 0.238224
0.502281 0.368444 0.228885
0.554498 0.367132 0.219821
0.597681 0.359289 0.212802
0.630304 0.356298 0.217166
0.652155 0.370245 0.240177
0.674861 0.386725 0.263798
0.698207 0.405371 0.287449
0.723232 0.426398 0.311559
0.749813 0.448859 0.335454
0.777218 0.472633 0.359350
0.804715 0.497200 0.383276
0.831815 0.522667 0.407630
0.858030 0.549371 0.433204
0.883085 0.576806 0.459266
0.906401 0.603693 0.485298
0.927642 0.630335 0.511650
0.067994 0.247593 0.135164
0.070344 0.247593 0.134096
0.072816 0.247257 0.132937
0.078614 0.246891 0.130312
0.087282 0.247654 0.126436
0.096590 0.247807 0.119966
0.094728 0.236088 0.101808
0.106447 0.221225 0.092561
0.116701 0.203677 0.083589
0.124483 0.183597 0.075898
0.162509 0.206149 0.092836
0.206912 0.232303 0.122713
0.251530 0.260227 0.167422
0.286351 0.287083 0.223148
0.323461 0.329076 0.292760
0.395514 0.366766 0.282658
0.462165 0.389075 0.271916
0.519066 0.398291 0.262181
0.567620 0.398688 0.254093
0.608789 0.393622 0.248447
0.646418 0.386114 0.244999
0.671138 0.397223 0.263767
0.694057 0.414221 0.286839
0.718593 0.433753 0.310399
0.744594 0.455146 0.333989
0.771756 0.477729 0.357488
0.799130 0.501457 0.381170
0.826413 0.526207 0.405341
0.853117 0.552453 0.430762
0.878691 0.579736 0.457130
0.902617 0.606592 0.483284
0.924498 0.633265 0.509789
0.084932 0.292485 0.160006
0.087434 0.292851 0.159365
0.089754 0.292271 0.157900
0.095521 0.291417 0.155123
0.103517 0.290105 0.150393
0.113283 0.288304 0.143832
0.109102 0.278782 0.123873
0.115267 0.262394 0.108949
0.125063 0.243442 0.096773
0.133547 0.222110 0.085756
0.149813 0.212955 0.083406
0.194980 0.240177 0.108309
0.244022 0.268650 0.146639
0.289311 0.296544 0.197330
0.322576 0.321965 0.252995
0.356268 0.359319 0.318853
0.419471 0.394232 0.313878
0.481147 0.415900 0.303044
0.534997 0.426337 0.293980
0.580713 0.428626 0.287266
0.620264 0.426429 0.283024
0.657740 0.422126 0.280278
0.690120 0.423957 0.286564
0.714015 0.441901 0.309392
0.739712 0.462135 0.332738
0.767086 0.484443 0.356634
0.795590 0.508446 0.380987
0.824338 0.534295 0.406561
0.852506 0.561547 0.433234
0.879301 0.589685 0.460578
0.904082 0.617273 0.487800
0.926329 0.644190 0.515007
0.108919 0.330236 0.184939
0.111177 0.330388 0.184298
0.113222 0.330175 0.183230
0.118257 0.329107 0.180362
0.125734 0.327672 0.175998
0.134707 0.325689 0.169467
0.137545 0.320562 0.156130
0.131350 0.305913 0.132540
0.138857 0.287114 0.116884
0.145571 0.264286 0.101045
0.150484 0.238193 0.086763
0.179141 0.244175 0.095369
0.228367 0.272496 0.127565
0.277684 0.299840 0.171817
0.320043 0.325414 0.223514
0.350439 0.348363 0.276432
0.381720 0.382849 0.339361
0.439033 0.417304 0.341222
0.498909 0.440742 0.332311
0.550927 0.453864 0.325933
0.595026 0.459327 0.321904
0.634394 0.460883 0.319646
0.672938 0.460395 0.318181
0.712703 0.459541 0.317571
0.740810 0.476600 0.337835
0.768551 0.498299 0.361517
0.797208 0.521782 0.385962
0.825895 0.547082 0.411475
0.853605 0.573327 0.437659
0.879698 0.599847 0.463935
0.903624 0.625757 0.490059
0.925139 0.651179 0.516258
0.133181 0.359564 0.206577
0.134585 0.359319 0.205783
0.136507 0.358740 0.204623
0.140505 0.357610 0.201938
0.146548 0.355688 0.197452
0.153780 0.353277 0.191257
0.162722 0.350591 0.183627
0.148440 0.338140 0.155917
0.151339 0.320592 0.137850
0.156039 0.299596 0.119631
0.159915 0.274479 0.101564
0.161227 0.244907 0.085481
0.206332 0.270054 0.108797
0.257908 0.298650 0.147463
0.306554 0.325566 0.195621
0.346777 0.350164 0.246708
0.376104 0.372717 0.298375
0.405829 0.405188 0.359197
0.458473 0.439979 0.368292
0.515831 0.464546 0.360937
0.564904 0.478920 0.356023
0.606683 0.486366 0.353307
0.645991 0.490455 0.351690
0.685695 0.493385 0.351415
0.727565 0.496193 0.351446
0.765042 0.507164 0.361975
0.794003 0.530480 0.386725
0.823209 0.555413 0.412451
0.851469 0.581476 0.438819
0.877958 0.607752 0.465278
0.902312 0.633539 0.491463
0.924163 0.658839 0.517937
0.159731 0.387610 0.228489
0.161563 0.388098 0.228367
0.192264 0.415412 0.249973
0.194766 0.413764 0.247074
0.198550 0.411017 0.242435
0.203189 0.407141 0.235935
0.208316 0.402380 0.227237
0.200046 0.391760 0.206058
0.187320 0.373754 0.177462
0.185733 0.352117 0.154482
0.184390 0.326268 0.130068
0.182559 0.295964 0.106447
0.191135 0.276005 0.096315
0.246403 0.308049 0.132845
0.300786 0.337407 0.180026
0.349157 0.364385 0.231754
0.389075 0.389532 0.283482
0.417914 0.412207 0.335332
0.446052 0.443732 0.395605
0.493324 0.478065 0.411170
0.544823 0.501152 0.404120
0.588617 0.515038 0.399969
0.628717 0.523980 0.397314
0.668238 0.530449 0.395544
0.708888 0.535241 0.393713
0.751705 0.539818 0.392370
0.795346 0.544396 0.391852
0.822477 0.566339 0.415229
0.849607 0.590448 0.440406
0.875914 0.615686 0.466255
0.900359 0.640864 0.492256
0.922179 0.665431 0.518395
0.192996 0.420386 0.255070
0.197848 0.423743 0.257389
0.202823 0.426673 0.259281
0.208652 0.428443 0.259373
0.214389 0.428382 0.257237
0.219272 0.425910 0.252201
0.224002 0.421729 0.244572
0.225406 0.415198 0.232456
0.204074 0.399359 0.200412
0.200015 0.379034 0.177493
0.196780 0.355566 0.152621
0.193057 0.327611 0.126314
0.188479 0.295171 0.101717
0.214206 0.295506 0.108186
0.270176 0.326848 0.149508
0.322759 0.355230 0.198489
0.369146 0.381720 0.249638
0.407599 0.406531 0.300359
0.436133 0.429603 0.351934
0.463874 0.460731 0.411322
0.508110 0.496010 0.433967
0.557549 0.520195 0.429664
0.600153 0.535943 0.427436
0.640558 0.547478 0.426337
0.681361 0.556603 0.425269
0.724392 0.565057 0.424689
0.769589 0.573510 0.424811
0.814481 0.582177 0.426184
0.848051 0.600183 0.442451
0.874327 0.624628 0.467964
0.898772 0.649073 0.493568
0.920653 0.673182 0.519707
0.213687 0.440925 0.271824
0.218112 0.443793 0.273869
0.222507 0.446509 0.275761
0.227359 0.447883 0.275608
0.232425 0.447852 0.273716
0.236545 0.445472 0.269047
0.240299 0.441352 0.262058
0.243900 0.436072 0.252842
0.229374 0.423560 0.228092
0.216587 0.405310 0.200839
0.211093 0.383429 0.176120
0.205997 0.358160 0.149599
0.200076 0.327916 0.121584
0.192935 0.293095 0.096162
0.237980 0.314733 0.122255
0.293767 0.345312 0.167269
0.344884 0.373571 0.217594
0.389929 0.400061 0.268009
0.427741 0.425360 0.318853
0.456275 0.449165 0.370855
0.483467 0.479957 0.429511
0.525017 0.515953 0.459388
0.571710 0.540368 0.457069
0.613397 0.557488 0.455940
0.654383 0.570947 0.455268
0.696925 0.582788 0.454932
0.742336 0.594324 0.455055
0.788815 0.605951 0.456397
0.833860 0.617853 0.459358
0.871672 0.632563 0.468635
0.896178 0.656306 0.493904
0.918212 0.679835 0.519768
0.233616 0.461280 0.288548
0.237766 0.463905 0.290471
0.241672 0.466285 0.291936
0.246006 0.467750 0.292180
0.250278 0.467445 0.290227
0.253788 0.465156 0.285924
0.256809 0.461128 0.279240
0.259678 0.455940 0.270603
0.254612 0.446876 0.254276
0.233829 0.430457 0.223362
0.226658 0.409918 0.199557
0.219913 0.386267 0.173098
0.212802 0.358526 0.144320
0.204929 0.326513 0.115572
0.204776 0.299840 0.097871
0.261906 0.333593 0.137606
0.317937 0.364965 0.186526
0.369726 0.394751 0.238560
0.415991 0.423621 0.291173
0.455695 0.451911 0.344976
0.485969 0.478553 0.399786
0.513909 0.510430 0.460151
0.551873 0.545861 0.496223
0.596796 0.571008 0.496162
0.640131 0.590875 0.496681
0.684596 0.607996 0.497078
0.732082 0.624353 0.497719
0.780453 0.640009 0.499184
0.826780 0.654932 0.501884
0.868101 0.668879 0.506035
0.903929 0.681453 0.511376
0.925444 0.701778 0.534325
0.266484 0.493812 0.315984
0.268620 0.494789 0.316777
0.270115 0.495338 0.316625
0.272190 0.494881 0.315221
0.274449 0.493141 0.312169
0.276493 0.490181 0.307439
0.278691 0.486030 0.300877
0.280919 0.480995 0.292851
0.283055 0.475135 0.283085
0.262821 0.460548 0.253971
0.249943 0.441962 0.227726
0.241459 0.419776 0.201907
0.232090 0.393683 0.172457
0.222751 0.363561 0.141207
0.212375 0.328954 0.110475
0.231388 0.323461 0.111604
0.290990 0.357885 0.157900
0.347570 0.390143 0.210636
0.399054 0.420722 0.263737
0.444709 0.450233 0.317296
0.482643 0.478248 0.371374
0.510887 0.503624 0.425635
0.535119 0.531823 0.482399
0.568811 0.565148 0.521141
0.612421 0.590082 0.520989
0.656458 0.611292 0.521538
0.703548 0.631098 0.522606
0.753445 0.650355 0.524376
0.802304 0.668666 0.527337
0.846769 0.685512 0.531579
0.885283 0.700801 0.537407
0.917845 0.714626 0.545068
0.285740 0.513817 0.333074
0.287480 0.514733 0.333654
0.289342 0.515496 0.333989
0.291264 0.515007 0.332738
0.293034 0.513298 0.329747
0.294347 0.510185 0.324865
0.295659 0.506065 0.318547
0.297063 0.501061 0.310796
0.298344 0.495064 0.301091
0.287694 0.484199 0.280644
0.267674 0.467445 0.250492
0.258427 0.446632 0.225956
0.248295 0.422400 0.197971
0.238132 0.394568 0.166842
0.227054 0.362615 0.133944
0.214969 0.326482 0.102754
0.256321 0.343603 0.126497
0.316503 0.378607 0.177188
0.373053 0.411749 0.231662
0.424689 0.443458 0.286046
0.469764 0.473762 0.341009
0.507012 0.502190 0.396521
0.533745 0.526879 0.451057
0.556512 0.553521 0.505730
0.581811 0.580011 0.540887
0.625544 0.605829 0.541436
0.671412 0.629175 0.543053
0.721126 0.651820 0.545190
0.772152 0.673671 0.548577
0.820249 0.694087 0.553552
0.862608 0.713130 0.560632
0.898405 0.730556 0.569940
0.316381 0.543053 0.360204
0.318547 0.544244 0.361212
0.319799 0.544427 0.360998
0.320714 0.543542 0.359319
0.321386 0.541375 0.355840
0.321355 0.537926 0.350530
0.321294 0.533318 0.343664
0.321019 0.527642 0.335149
0.320409 0.520867 0.324743
0.316411 0.512047 0.310124
0.292729 0.495613 0.278172
0.278630 0.475746 0.251560
0.267155 0.452308 0.224063
0.255253 0.425666 0.193576
0.242802 0.395117 0.159792
0.229831 0.360754 0.125429
0.218479 0.324926 0.096193
0.279667 0.361883 0.141726
0.339086 0.396674 0.195102
0.395117 0.430274 0.250217
0.445991 0.462562 0.305364
0.490028 0.492958 0.361059
0.525139 0.520073 0.416297
0.549096 0.542626 0.468879
0.570062 0.567193 0.520500
0.599542 0.599603 0.566125
0.644373 0.626886 0.567346
0.692439 0.652399 0.569451
0.743801 0.677424 0.572869
0.794186 0.701198 0.578058
0.839567 0.723476 0.585779
0.878325 0.744259 0.596765
0.334569 0.559991 0.376745
0.336706 0.561089 0.377844
0.337865 0.561364 0.377630
0.338689 0.560571 0.376165
0.338994 0.558556 0.372747
0.339025 0.555535 0.367926
0.338689 0.551568 0.361517
0.338048 0.546624 0.353460
0.337591 0.540887 0.344152
0.336553 0.534081 0.332860
0.319982 0.521386 0.307469
0.299260 0.504051 0.276616
0.287907 0.482856 0.251041
0.275547 0.458259 0.221897
0.262516 0.429816 0.188968
0.249332 0.398108 0.153780
0.235111 0.362158 0.117769
0.246036 0.349126 0.110445
0.309117 0.387243 0.162448
0.369848 0.423377 0.219669
0.425788 0.457771 0.276219
0.475715 0.490181 0.332982
0.517144 0.519036 0.389532
0.548669 0.543694 0.444282
0.570642 0.564691 0.494453
0.591638 0.589258 0.544915
0.620508 0.622675 0.595850
0.668238 0.652857 0.598749
0.720211 0.682368 0.603052
0.772488 0.710353 0.609430
0.820249 0.736355 0.618585
0.861173 0.760433 0.631586
0.357794 0.579767 0.397803
0.359258 0.580377 0.398352
0.359930 0.580285 0.397986
0.360052 0.579156 0.396033
0.359564 0.576867 0.392340
0.358679 0.573724 0.387121
0.357641 0.569787 0.380621
0.356542 0.565118 0.372839
0.355474 0.559747 0.363622
0.354253 0.553796 0.353216
0.345617 0.544762 0.335058
0.322332 0.530449 0.303319
0.308049 0.511650 0.276555
0.295689 0.489296 0.248997
0.282658 0.463111 0.218051
0.268742 0.433295 0.183200
0.254337 0.400000 0.145998
0.239384 0.362768 0.108705
0.274449 0.373480 0.127291
0.338384 0.412116 0.184573
0.398718 0.448676 0.243107
0.453712 0.483070 0.300908
0.501274 0.513939 0.358221
0.539422 0.540337 0.414923
0.568078 0.563256 0.468360
0.589349 0.583917 0.516167
0.610956 0.608972 0.566705
0.639277 0.643671 0.623651
0.689723 0.676631 0.628107
0.743221 0.709041 0.635401
0.793942 0.739101 0.645594
0.837919 0.766812 0.660212
0.377874 0.596735 0.416541
0.378790 0.596979 0.416724
0.379309 0.596857 0.416327
0.379492 0.595972 0.414679
0.379492 0.594263 0.411505
0.379797 0.592248 0.407874
0.380560 0.590051 0.403418
0.381384 0.587457 0.397894
0.382513 0.584558 0.391577
0.383276 0.580926 0.383551
0.383124 0.576471 0.373632
0.364111 0.566522 0.346197
0.345006 0.553307 0.316564
0.332494 0.535576 0.290074
0.319097 0.513298 0.260227
0.304845 0.486183 0.226474
0.290043 0.455024 0.188785
0.274571 0.420050 0.147738
0.258091 0.381353 0.105531
0.320928 0.417639 0.159121
0.386908 0.457496 0.222751
0.447211 0.494240 0.284337
0.499763 0.526268 0.344823
0.542687 0.552941 0.404303
0.576165 0.576379 0.460395
0.602747 0.598535 0.509758
0.625452 0.620844 0.557122
0.648188 0.647303 0.610163
0.678126 0.685786 0.676661
0.730831 0.722286 0.684718
0.782406 0.756435 0.696162
0.826932 0.787076 0.712367
0.415900 0.627619 0.453132
0.416419 0.627710 0.453101
0.416327 0.627222 0.452247
0.415930 0.625879 0.450019
0.415351 0.623804 0.446662
0.414588 0.621210 0.442176
0.413794 0.618097 0.436561
0.413184 0.614649 0.430182
0.412604 0.610834 0.422797
0.411444 0.606317 0.413794
0.409369 0.600793 0.402686
0.397284 0.592432 0.381659
0.373663 0.580652 0.349035
0.358465 0.565240 0.321569
