data/fiter_cube/57993848/1023157/file.cube
# Created by Adobe Lightroom plugin Export LUT (1.17.0)
# www.johnrellis.com/lightroom/exportlut.htm
# Preset: 萌宠摄影后期_04 云集
# Color profile: C:\Program Files (x86)\Common Files\Adobe\Color\Profiles\Recommended\AdobeRGB1998.icc
LUT_3D_SIZE 32
DOMAIN_MIN 0.0 0.0 0.0
DOMAIN_MAX 1.0 1.0 1.0
0.121706 0.121706 0.121706
0.121706 0.121706 0.121706
0.125582 0.121431 0.122011
0.135256 0.120729 0.122744
0.148226 0.120607 0.123476
0.165988 0.120363 0.123812
0.188846 0.119844 0.123873
0.217105 0.118929 0.123568
0.250828 0.117281 0.123476
0.288975 0.114290 0.123049
0.330694 0.109377 0.122194
0.374914 0.103395 0.120974
0.420630 0.095186 0.119387
0.466804 0.084932 0.117494
0.512749 0.071748 0.115694
0.557366 0.050141 0.113771
0.598871 0.006439 0.112459
0.637049 0.000000 0.112154
0.671992 0.000000 0.112764
0.714748 0.000000 0.115023
0.755184 0.000000 0.118532
0.791806 0.000000 0.124544
0.824216 0.000000 0.131991
0.852659 0.000000 0.141360
0.877745 0.000000 0.151827
0.900420 0.000000 0.164401
0.921477 0.065797 0.178775
0.941161 0.103151 0.195956
0.959625 0.136934 0.216037
0.976715 0.171603 0.239628
0.992218 0.208865 0.267277
1.000000 0.248936 0.299016
0.121706 0.121706 0.121706
0.121675 0.121920 0.121675
0.126253 0.121981 0.121553
0.136416 0.122194 0.122011
0.149844 0.122408 0.122316
0.167514 0.122347 0.122835
0.190249 0.122194 0.122866
0.218387 0.121675 0.122713
0.251469 0.120699 0.122805
0.289158 0.118166 0.122377
0.330175 0.114107 0.121706
0.373846 0.108888 0.120485
0.419043 0.102327 0.118715
0.464729 0.093507 0.117067
0.509911 0.082429 0.115175
0.554284 0.068727 0.113313
0.595758 0.046113 0.111788
0.633783 0.004700 0.111360
0.668849 0.000000 0.111788
0.710842 0.000000 0.113436
0.750240 0.000000 0.117189
0.786374 0.000000 0.122347
0.818753 0.000000 0.129335
0.847562 0.000000 0.138003
0.873106 0.000000 0.148287
0.896269 0.000000 0.160403
0.917906 0.065858 0.174533
0.938109 0.101472 0.191501
0.957061 0.134127 0.211185
0.974548 0.168185 0.234775
0.990509 0.204471 0.261784
1.000000 0.243992 0.293278
0.122164 0.125277 0.122347
0.122286 0.126070 0.122286
0.126619 0.126772 0.121706
0.137240 0.126131 0.121279
0.151827 0.125490 0.121035
0.169924 0.125490 0.121340
0.192721 0.125429 0.121340
0.220401 0.125551 0.121523
0.253239 0.124971 0.121767
0.290532 0.123445 0.121462
0.331426 0.120394 0.120699
0.374792 0.116487 0.119234
0.419440 0.110384 0.117891
0.465003 0.103456 0.115969
0.509880 0.095003 0.114015
0.553948 0.083314 0.112184
0.595178 0.070741 0.110689
0.633051 0.053468 0.110079
0.667994 0.017029 0.110811
0.709682 0.000000 0.112306
0.748531 0.000000 0.115419
0.784268 0.000000 0.120638
0.816556 0.000000 0.127260
0.845365 0.000000 0.135653
0.871031 0.000000 0.146029
0.894377 0.026154 0.157534
0.916197 0.075105 0.171969
0.936614 0.105623 0.188785
0.955810 0.136080 0.208286
0.973541 0.168765 0.231449
0.989685 0.203861 0.258457
1.000000 0.242374 0.289677
0.123476 0.133700 0.124025
0.124392 0.134340 0.123568
0.127321 0.135409 0.122652
0.137087 0.136233 0.121920
0.152285 0.135195 0.120546
0.173098 0.134798 0.119997
0.197940 0.134890 0.119081
0.227115 0.135042 0.119142
0.259709 0.135134 0.119478
0.296635 0.134798 0.119387
0.336858 0.133242 0.118502
0.379583 0.130312 0.117128
0.423682 0.126589 0.115419
0.468360 0.121736 0.113619
0.512779 0.115480 0.111391
0.556176 0.107698 0.109468
0.596551 0.098939 0.108278
0.633845 0.088930 0.107546
0.669673 0.079683 0.107790
0.709010 0.068727 0.109499
0.746151 0.055726 0.112520
0.781064 0.040894 0.116945
0.813291 0.033326 0.123537
0.842741 0.037354 0.132174
0.869383 0.059297 0.142061
0.893645 0.075624 0.154665
0.916075 0.096834 0.169284
0.936828 0.120790 0.186465
0.956023 0.146975 0.206180
0.973632 0.175998 0.229221
0.989532 0.208377 0.255772
1.000000 0.244236 0.285954
0.125643 0.143648 0.126223
0.126955 0.144503 0.125551
0.129183 0.145418 0.124666
0.136355 0.147066 0.123171
0.150851 0.148745 0.122164
0.170748 0.148806 0.120241
0.198825 0.150484 0.119051
0.230930 0.151431 0.118013
0.266087 0.152316 0.116854
0.305211 0.152773 0.115633
0.344579 0.152438 0.114778
0.386481 0.151278 0.113588
0.429877 0.149264 0.111666
0.473915 0.146273 0.109682
0.517845 0.141909 0.107485
0.561089 0.136934 0.105074
0.601190 0.130983 0.103517
0.638087 0.124117 0.102998
0.675013 0.117586 0.103426
0.712551 0.110780 0.105135
0.748287 0.105135 0.107942
0.781949 0.100099 0.112734
0.813474 0.097383 0.118868
0.842618 0.097414 0.127291
0.869108 0.101167 0.137942
0.893339 0.109560 0.150271
0.915740 0.122744 0.164920
0.936400 0.139834 0.182010
0.955566 0.160616 0.201511
0.973144 0.185672 0.224216
0.989075 0.214542 0.250645
1.000000 0.247684 0.280552
0.127687 0.157076 0.127932
0.129397 0.157778 0.127443
0.131746 0.158694 0.126741
0.137850 0.160769 0.125246
0.150393 0.163302 0.124178
0.170077 0.166690 0.123079
0.194400 0.167666 0.121370
0.231022 0.172671 0.117647
0.271519 0.175875 0.115785
0.312291 0.177615 0.113741
0.354742 0.178622 0.111177
0.399237 0.178714 0.107790
0.442145 0.177859 0.105470
0.485267 0.175509 0.103273
0.528588 0.172946 0.100435
0.570459 0.169070 0.098146
0.609461 0.164340 0.096834
0.645319 0.159274 0.096101
0.683345 0.154360 0.096407
0.719661 0.149508 0.098238
0.754360 0.145022 0.101747
0.787381 0.140841 0.107088
0.853117 0.150454 0.126436
0.878172 0.152682 0.138399
0.900237 0.157656 0.152010
0.920165 0.164950 0.166812
0.938384 0.175692 0.183322
0.955322 0.189456 0.201663
0.971099 0.206943 0.222202
0.985718 0.228428 0.245518
0.998840 0.253849 0.271855
1.000000 0.283116 0.301122
0.129641 0.177554 0.129732
0.131472 0.178408 0.129213
0.134310 0.179385 0.128664
0.141024 0.181369 0.127321
0.152560 0.184543 0.125093
0.172671 0.188724 0.123781
0.199466 0.194156 0.122072
0.229892 0.196139 0.119997
0.277836 0.205966 0.113893
0.325505 0.211337 0.110140
0.376898 0.215213 0.105653
0.422156 0.216190 0.101595
0.467414 0.215854 0.096986
0.512566 0.214206 0.091951
0.554833 0.211124 0.087739
0.592889 0.207034 0.086030
0.628656 0.202335 0.084871
0.665827 0.197910 0.084565
0.703090 0.193729 0.085695
0.739315 0.189609 0.088960
0.775082 0.186435 0.093751
0.809812 0.183719 0.101320
0.842191 0.182620 0.112123
0.871031 0.183169 0.125551
0.896239 0.186191 0.140566
0.917784 0.190921 0.156741
0.936797 0.198337 0.174014
0.954009 0.208316 0.192355
0.969940 0.221836 0.213046
0.984588 0.239231 0.235843
0.997864 0.260533 0.261601
1.000000 0.286564 0.290684
0.131167 0.199619 0.131289
0.133394 0.200320 0.130953
0.136416 0.201175 0.130220
0.143160 0.203098 0.128878
0.154665 0.205966 0.126650
0.172152 0.209903 0.124147
0.198062 0.215885 0.122469
0.230442 0.223362 0.119936
0.264347 0.225284 0.118044
0.318334 0.238590 0.109041
0.371527 0.246586 0.102663
0.426001 0.251835 0.096315
0.476905 0.253605 0.089876
0.521386 0.252628 0.084169
0.564172 0.250187 0.078065
0.603571 0.246098 0.071870
0.641291 0.241337 0.067445
0.677729 0.236790 0.067353
0.711940 0.232212 0.069947
0.745815 0.227695 0.073762
0.779477 0.223789 0.080201
0.812375 0.220615 0.088869
0.843290 0.218387 0.100557
0.871092 0.217136 0.114321
0.895659 0.217624 0.129763
0.916899 0.219760 0.146151
0.935790 0.223514 0.163485
0.953002 0.230137 0.182254
0.968994 0.239841 0.202762
0.983764 0.253208 0.225254
0.997162 0.271031 0.250980
1.000000 0.293126 0.279545
0.133150 0.226139 0.133303
0.135348 0.226841 0.132631
0.138674 0.227726 0.132052
0.145907 0.229343 0.130526
0.157839 0.232059 0.128115
0.173892 0.235203 0.124971
0.197726 0.240696 0.122591
0.229007 0.248447 0.119905
0.267002 0.257939 0.116335
0.304021 0.260197 0.114015
0.361975 0.275151 0.102815
0.420356 0.285771 0.091585
0.475959 0.291356 0.082765
0.531762 0.294255 0.072450
0.575555 0.291997 0.064881
0.614923 0.288090 0.057984
0.654414 0.284092 0.044099
0.690089 0.278599 0.032990
0.723781 0.272343 0.026825
0.755398 0.267124 0.040101
0.787015 0.262638 0.056825
0.818082 0.258244 0.070100
0.847227 0.254887 0.084260
0.873655 0.252232 0.100130
0.897185 0.250584 0.117311
0.917784 0.250065 0.134524
0.936278 0.251377 0.152346
0.953155 0.254856 0.171542
0.968994 0.261112 0.191714
0.983520 0.270848 0.214633
0.996857 0.284581 0.239628
1.000000 0.302708 0.267704
0.135103 0.256382 0.135103
0.137697 0.256870 0.134615
0.141238 0.257450 0.133913
0.149081 0.258854 0.132204
0.160952 0.261021 0.129854
0.177096 0.263890 0.126528
0.197299 0.266972 0.122438
0.227817 0.274723 0.119570
0.264164 0.284459 0.116060
0.306676 0.295628 0.110903
0.345647 0.297612 0.108339
0.405707 0.312810 0.094728
0.467994 0.325597 0.076051
0.523827 0.331304 0.063722
0.580713 0.335088 0.037537
0.631983 0.334447 0.010498
0.668696 0.329198 0.000000
0.702693 0.322820 0.000000
0.734890 0.316136 0.000000
0.766354 0.309361 0.000000
0.797055 0.302647 0.000000
0.825254 0.296727 0.020508
0.851621 0.291539 0.059174
0.875761 0.286992 0.080507
0.897826 0.283207 0.099519
0.917754 0.280583 0.118563
0.936004 0.279515 0.137514
0.953002 0.280552 0.157351
0.968933 0.284154 0.178744
0.983703 0.290837 0.201968
0.997162 0.301518 0.228000
1.000000 0.316197 0.256260
0.137392 0.287602 0.137606
0.140108 0.288090 0.137087
0.143954 0.288640 0.136202
0.151980 0.289921 0.134524
0.164279 0.291905 0.131807
0.180850 0.294499 0.128176
0.200809 0.297551 0.123842
0.226444 0.302342 0.119265
0.262058 0.312169 0.115663
0.303044 0.323613 0.110475
0.349462 0.336309 0.103883
0.389441 0.337682 0.100923
0.452094 0.353246 0.084138
0.519310 0.369238 0.047181
0.577935 0.376287 0.000000
0.629145 0.377081 0.000000
0.675288 0.373663 0.000000
0.712856 0.367071 0.000000
0.743221 0.359167 0.000000
0.773007 0.351507 0.000000
0.802213 0.344152 0.000000
0.830350 0.336858 0.000000
0.856779 0.329717 0.000000
0.880278 0.323003 0.039399
0.901183 0.317693 0.076112
0.920134 0.313054 0.099519
0.937591 0.309789 0.120974
0.953948 0.308293 0.141970
0.969390 0.309056 0.164279
0.983856 0.312535 0.187808
0.997223 0.319615 0.213535
1.000000 0.330632 0.241794
0.140444 0.321721 0.140352
0.143252 0.322210 0.139864
0.147250 0.322606 0.139010
0.155428 0.323705 0.137362
0.168307 0.325383 0.134371
0.184878 0.327703 0.130587
0.204959 0.330327 0.125612
0.228275 0.333349 0.119783
0.260166 0.340978 0.114961
0.300145 0.352453 0.109926
0.345098 0.365576 0.103151
0.398413 0.382879 0.093202
0.470893 0.410346 0.081575
0.540246 0.426734 0.048127
0.605005 0.438148 0.000000
0.658076 0.439429 0.000000
0.702632 0.435004 0.000000
0.743313 0.427955 0.000000
0.780179 0.419074 0.000000
0.807431 0.408667 0.000000
0.832059 0.398260 0.000000
0.855406 0.388434 0.000000
0.877165 0.378729 0.020050
0.897459 0.369635 0.053559
0.916228 0.360540 0.071534
0.933288 0.352636 0.088624
0.948455 0.347112 0.113649
0.962768 0.343389 0.136599
0.976410 0.341772 0.159548
0.989349 0.342565 0.183383
1.000000 0.346502 0.208560
1.000000 0.354192 0.236667
0.144900 0.365545 0.144900
0.147890 0.365820 0.144289
0.152041 0.365881 0.143374
0.161013 0.366094 0.141146
0.174044 0.366735 0.137942
0.190921 0.367620 0.133700
0.211185 0.369268 0.128298
0.234501 0.371405 0.121798
0.260807 0.374365 0.113741
0.302312 0.389105 0.107912
0.350713 0.406836 0.100343
0.405676 0.426856 0.089357
0.467109 0.448432 0.072633
0.516564 0.453437 0.066957
0.582361 0.465888 0.019318
0.641382 0.473823 0.000000
0.692042 0.473762 0.000000
0.732784 0.467750 0.000000
0.770199 0.459663 0.000000
0.804746 0.450385 0.000000
0.835111 0.440101 0.000000
0.857176 0.428840 0.000000
0.877836 0.418189 0.013001
0.897276 0.407874 0.052552
0.915373 0.398077 0.072206
0.932219 0.388617 0.086152
0.947997 0.379767 0.098482
0.962921 0.371649 0.110780
0.976349 0.367468 0.136538
0.989227 0.365728 0.162020
1.000000 0.366674 0.188235
1.000000 0.370916 0.216495
0.149355 0.400763 0.149630
0.152438 0.401068 0.148867
0.156741 0.400977 0.147707
0.165255 0.401160 0.145571
0.178531 0.401404 0.142245
0.195651 0.402960 0.137758
0.216220 0.405737 0.131930
0.240116 0.408911 0.124788
0.266758 0.412909 0.116213
0.299870 0.420478 0.106935
0.345953 0.436805 0.100008
0.397681 0.455451 0.089784
0.454902 0.475563 0.075135
0.516533 0.495735 0.047852
0.564050 0.498482 0.039612
0.619623 0.501701 0.010559
0.672602 0.505638 0.000000
0.720027 0.504143 0.000000
0.759274 0.497688 0.000000
0.794675 0.489418 0.000000
0.827298 0.479896 0.000000
0.856596 0.469459 0.000000
0.879545 0.457923 0.010834
0.898222 0.446693 0.056733
0.915709 0.435920 0.075746
0.932036 0.425544 0.090272
0.947417 0.415839 0.102937
0.962036 0.406836 0.115206
0.976135 0.398901 0.127565
0.989685 0.391943 0.140505
1.000000 0.389502 0.165988
1.000000 0.390600 0.195346
0.155917 0.442603 0.155886
0.159030 0.443030 0.155550
0.163241 0.443061 0.154421
0.172305 0.443336 0.152041
0.185489 0.443610 0.148257
0.202548 0.444282 0.143221
0.222690 0.445594 0.137392
0.245945 0.447608 0.129824
0.272099 0.450538 0.120394
0.300969 0.454383 0.109071
0.340429 0.465736 0.099611
0.389746 0.483284 0.090761
0.443519 0.501915 0.078126
0.500633 0.520195 0.060365
0.560052 0.537255 0.013367
0.604639 0.537316 0.012482
0.651789 0.533440 0.024170
0.701015 0.535302 0.000000
0.745968 0.532891 0.000000
0.784756 0.526574 0.000000
0.818051 0.517845 0.000000
0.848142 0.507897 0.000000
0.874815 0.496834 0.000000
0.898619 0.485115 0.059205
0.916197 0.473335 0.081239
0.932219 0.462318 0.096071
0.947509 0.452033 0.110628
0.962158 0.442664 0.124147
0.976318 0.434333 0.137087
0.989807 0.427161 0.152010
1.000000 0.421210 0.166995
1.000000 0.416724 0.184512
0.164309 0.484840 0.164492
0.167544 0.485359 0.163821
0.171572 0.485542 0.162875
0.180453 0.485817 0.160464
0.193698 0.486061 0.156619
0.210575 0.486824 0.151247
0.230625 0.488045 0.144839
0.253574 0.489937 0.136873
0.279423 0.492317 0.126864
0.307591 0.495247 0.115084
0.337926 0.498177 0.099947
0.383703 0.512566 0.091524
0.433143 0.527916 0.081697
0.485451 0.543145 0.069337
0.539574 0.557671 0.046143
0.595300 0.571069 0.000000
0.637964 0.570001 0.008667
0.680079 0.562554 0.045991
0.727535 0.563439 0.000000
0.771328 0.561120 0.000000
0.810117 0.555230 0.000000
0.841489 0.546166 0.000000
0.869200 0.535576 0.000000
0.893858 0.524163 0.050477
0.915648 0.512322 0.086366
0.934386 0.500359 0.108248
0.949096 0.489235 0.122621
0.963256 0.479133 0.135805
0.976806 0.469978 0.149874
0.989746 0.461891 0.163729
1.000000 0.454994 0.178653
1.000000 0.449500 0.195438
0.173831 0.523125 0.174258
0.176699 0.523247 0.173129
0.180667 0.523186 0.172030
0.189181 0.523186 0.169619
0.201724 0.523308 0.165652
0.217655 0.523735 0.160464
0.237003 0.524498 0.154055
0.259312 0.525689 0.145663
0.283970 0.527367 0.135836
0.310918 0.529473 0.123934
0.340002 0.531823 0.109438
0.374731 0.537224 0.094270
0.421851 0.551324 0.086366
0.471077 0.565148 0.077607
0.521935 0.578210 0.065675
0.573877 0.590234 0.046296
0.627070 0.601556 0.008972
0.669154 0.600610 0.020020
0.707668 0.591333 0.064881
0.753048 0.590753 0.011780
0.794766 0.587793 0.000000
0.831601 0.581170 0.000000
0.861082 0.571374 0.000000
0.886717 0.560479 0.018006
0.909453 0.548852 0.079561
0.929778 0.536889 0.106905
0.947936 0.525139 0.129671
0.963043 0.514122 0.146120
0.976318 0.504295 0.160342
0.988952 0.495613 0.175113
1.000000 0.488075 0.190249
1.000000 0.482033 0.207309
0.185672 0.560082 0.185946
0.188785 0.560754 0.185306
0.201694 0.583215 0.193515
0.209537 0.583032 0.190921
0.221714 0.582635 0.186343
0.236790 0.582086 0.180484
0.255039 0.581689 0.173434
0.276158 0.581415 0.164126
0.299931 0.581689 0.153689
0.325963 0.582330 0.141024
0.353948 0.583124 0.125643
0.383612 0.583734 0.106569
0.423255 0.590570 0.094759
0.470069 0.601770 0.089570
0.518120 0.612573 0.083284
0.567559 0.622980 0.075441
0.618128 0.633112 0.067079
0.669764 0.642664 0.053437
0.711086 0.641199 0.063905
0.745296 0.628626 0.092073
0.786831 0.624842 0.082063
0.824643 0.619654 0.041260
0.857572 0.610651 0.000000
0.884550 0.599481 0.010773
0.906767 0.587091 0.080812
0.926604 0.574426 0.109590
0.944457 0.561822 0.131899
0.960754 0.549767 0.152560
0.975647 0.538476 0.171450
0.988037 0.528771 0.186404
0.999512 0.520562 0.202182
1.000000 0.513573 0.219089
0.202304 0.599908 0.202487
0.206363 0.602838 0.203067
0.211063 0.605737 0.203494
0.219516 0.608240 0.202518
0.231205 0.609888 0.199344
0.245518 0.610498 0.194369
0.262638 0.610407 0.187259
0.282200 0.610224 0.178958
0.304387 0.610376 0.168673
0.328740 0.610681 0.156527
0.355047 0.611170 0.142306
0.383093 0.611536 0.125032
0.412299 0.611383 0.103243
0.456001 0.620691 0.097658
0.501671 0.630579 0.093812
0.548669 0.640284 0.089235
0.596796 0.649714 0.083558
0.645808 0.658839 0.077790
0.696101 0.667994 0.072023
0.737423 0.667567 0.081178
0.768704 0.653712 0.108583
0.808316 0.648859 0.110292
0.843839 0.642908 0.091981
0.874571 0.633387 0.068147
0.900481 0.621515 0.066163
0.921233 0.609064 0.103792
0.939879 0.596551 0.130373
0.956786 0.584405 0.153170
0.972198 0.572930 0.174472
0.986084 0.562310 0.195712
0.998199 0.552850 0.215549
1.000000 0.545251 0.232670
0.217136 0.629297 0.217075
0.220890 0.631861 0.218051
0.225284 0.634516 0.218509
0.232975 0.636652 0.217655
0.243656 0.638300 0.214908
0.256535 0.638819 0.210208
0.272038 0.638788 0.203586
0.289982 0.638575 0.195163
0.310491 0.638697 0.185428
0.333043 0.639002 0.174289
0.357885 0.639460 0.160891
0.384375 0.639826 0.144686
0.412177 0.639643 0.124941
0.444709 0.641657 0.106264
0.488838 0.650874 0.104189
0.533776 0.659785 0.101167
0.579706 0.668605 0.098146
0.626520 0.677211 0.095399
0.674464 0.685817 0.092622
0.723690 0.694484 0.091249
0.764706 0.694697 0.101045
0.792844 0.679469 0.128664
0.829740 0.672786 0.139345
0.862516 0.665858 0.127138
0.890776 0.655390 0.112398
0.915282 0.642939 0.102480
0.934997 0.630243 0.126223
0.952453 0.617945 0.152010
0.968322 0.606195 0.175418
0.982666 0.595209 0.197848
0.995331 0.585168 0.220279
1.000000 0.576349 0.243687
0.233585 0.658503 0.233768
0.237278 0.660975 0.234897
0.241611 0.663447 0.235477
0.248478 0.665614 0.234592
0.258030 0.667079 0.232120
0.269780 0.667567 0.227573
0.283543 0.667506 0.221225
0.299657 0.667323 0.213504
0.318486 0.667292 0.204074
0.339452 0.667384 0.193210
0.362280 0.667659 0.180331
0.387243 0.667872 0.165347
0.413458 0.667720 0.147219
0.441047 0.667292 0.125124
0.478035 0.672175 0.113985
0.521691 0.681025 0.113405
0.566613 0.690089 0.112886
0.612604 0.699275 0.113100
0.659907 0.708522 0.113710
0.707973 0.717708 0.117098
0.756863 0.726650 0.121157
0.798398 0.727932 0.133547
0.823056 0.710780 0.161593
0.856474 0.701808 0.179812
0.886168 0.693477 0.172793
0.911833 0.682216 0.163912
0.934234 0.669032 0.156313
0.952941 0.655848 0.167910
0.968658 0.643854 0.193027
0.982696 0.632593 0.217136
0.994934 0.622156 0.241093
1.000000 0.612940 0.265507
0.260014 0.697841 0.260197
0.262638 0.699001 0.260594
0.265568 0.699916 0.260319
0.270939 0.700618 0.258457
0.278691 0.700984 0.255222
0.288426 0.700954 0.250553
0.300664 0.700832 0.244450
0.315312 0.700862 0.236881
0.332433 0.701198 0.228153
0.351873 0.701808 0.217990
0.373419 0.702541 0.206302
0.396857 0.703151 0.192294
0.421668 0.703273 0.175814
0.447791 0.702968 0.155886
0.475135 0.702235 0.131136
0.516442 0.709346 0.129885
0.559686 0.717159 0.130831
0.603693 0.725032 0.132845
0.648463 0.732876 0.135592
0.693965 0.740536 0.139193
0.739712 0.747799 0.144137
0.785611 0.754482 0.150149
0.824887 0.754604 0.161990
0.844816 0.734707 0.187869
0.874601 0.723262 0.210452
0.901701 0.714137 0.205386
0.925536 0.702510 0.198306
0.946654 0.689326 0.190677
0.964904 0.675837 0.193210
0.979370 0.664210 0.219303
0.991913 0.653437 0.245212
1.000000 0.643549 0.270787
0.281987 0.727077 0.282078
0.284337 0.728206 0.282414
0.287144 0.729213 0.282444
0.291875 0.729946 0.281071
0.298680 0.730312 0.278019
0.307103 0.730190 0.273259
0.317601 0.729946 0.267185
0.330297 0.729763 0.259739
0.345434 0.729854 0.251316
0.362921 0.730312 0.241489
0.382635 0.730922 0.230503
0.404120 0.731502 0.217380
0.427161 0.731777 0.202090
0.451911 0.731777 0.184115
0.477882 0.731533 0.162661
0.508721 0.732998 0.143893
0.550591 0.740200 0.146578
0.593164 0.747433 0.149905
0.636347 0.754574 0.153872
0.680018 0.761563 0.159060
0.723934 0.768185 0.165805
0.767941 0.774350 0.173342
0.811734 0.779934 0.182345
0.849912 0.780087 0.194675
0.862547 0.754757 0.211154
0.889738 0.742458 0.236576
0.914946 0.732723 0.235019
0.937346 0.721248 0.230137
0.957305 0.708248 0.223972
0.974884 0.694606 0.221347
0.988434 0.683192 0.245060
0.999207 0.672602 0.272007
0.315038 0.763333 0.315160
0.317449 0.764553 0.315740
0.319799 0.765286 0.315679
0.323461 0.765530 0.314000
0.328435 0.765438 0.310399
0.335058 0.764950 0.305547
0.343267 0.764248 0.298955
0.353491 0.763455 0.291112
0.365881 0.762814 0.282109
0.380529 0.762387 0.272007
0.397223 0.761990 0.260533
0.416022 0.761868 0.247471
0.436713 0.761624 0.232425
0.458808 0.761044 0.215305
0.482368 0.760037 0.195010
0.507347 0.758846 0.171389
0.541344 0.761349 0.161349
0.581720 0.766964 0.164584
0.622889 0.772976 0.169131
0.664881 0.779263 0.175113
0.707088 0.785367 0.182620
0.749264 0.791012 0.190738
0.790982 0.795804 0.199771
0.832059 0.799771 0.208499
0.868223 0.799191 0.219333
0.881407 0.776211 0.240940
0.906065 0.763210 0.267338
0.928893 0.752377 0.270542
0.949523 0.740871 0.267247
0.967987 0.728084 0.263401
0.984039 0.714412 0.260990
0.996246 0.701717 0.274601
0.341985 0.789059 0.342107
0.344274 0.790158 0.342840
0.346532 0.790829 0.342962
0.349645 0.791135 0.341436
0.353674 0.791043 0.338018
0.359197 0.790799 0.333440
0.366217 0.790402 0.327459
0.374945 0.790005 0.320165
0.385779 0.789761 0.311894
0.398688 0.789792 0.302831
0.413581 0.789944 0.292241
0.430610 0.790249 0.280430
0.449348 0.790524 0.266819
0.469734 0.790524 0.251072
0.491585 0.790188 0.233036
0.514855 0.789639 0.212039
0.539818 0.788968 0.187655
0.577569 0.793118 0.189517
0.617121 0.798001 0.194736
0.657130 0.803037 0.201694
0.697353 0.807889 0.209506
0.737484 0.812436 0.218418
0.777218 0.816373 0.227390
0.816251 0.819638 0.236759
0.854704 0.822171 0.245945
0.889464 0.821469 0.256657
0.900298 0.798001 0.276738
0.922362 0.784543 0.304417
0.942992 0.773373 0.314336
0.961913 0.762203 0.314397
0.978210 0.749233 0.311833
0.991974 0.735103 0.308995
0.376043 0.815488 0.376165
0.378027 0.816220 0.376898
0.379461 0.816495 0.376410
0.381476 0.816495 0.374426
0.384283 0.816159 0.370855
0.388190 0.815732 0.366003
0.393378 0.815274 0.359716
0.400305 0.814878 0.352697
0.409094 0.814755 0.344854
0.419959 0.814908 0.336248
0.432776 0.815213 0.326452
0.447700 0.815793 0.315770
0.464332 0.816373 0.303319
0.482551 0.816709 0.289311
0.502037 0.816678 0.272465
0.523125 0.816434 0.253605
0.545922 0.816068 0.231815
0.573449 0.816709 0.214817
0.611261 0.820432 0.220462
0.649378 0.824369 0.227604
0.687770 0.828275 0.235630
0.725978 0.831907 0.244602
0.763851 0.835050 0.253819
0.801144 0.837675 0.263279
0.837797 0.839719 0.272618
0.873777 0.841215 0.281987
0.907256 0.840635 0.292546
0.916747 0.817624 0.311498
0.935821 0.803525 0.340093
0.954162 0.791897 0.355200
0.970886 0.780484 0.355810
0.985107 0.767636 0.355138
0.410773 0.837827 0.410834
0.412146 0.838254 0.411170
0.413397 0.838529 0.410834
0.415015 0.838651 0.408972
0.417762 0.838743 0.406348
0.421637 0.838987 0.402747
0.427344 0.839658 0.398901
0.434668 0.840665 0.394629
0.443885 0.842008 0.389899
0.454841 0.843656 0.384588
0.467323 0.845457 0.378424
0.481209 0.847318 0.370886
0.496254 0.849027 0.361608
0.512352 0.850370 0.350286
0.529595 0.851316 0.336461
0.547753 0.851743 0.319707
0.567590 0.851926 0.300572
0.589227 0.852171 0.279393
0.619593 0.853666 0.273533
0.655451 0.856107 0.280797
0.691341 0.858457 0.289158
0.727108 0.860624 0.298131
0.762448 0.862394 0.307195
0.797208 0.863798 0.316472
0.831357 0.864775 0.325902
0.864836 0.865385 0.335424
0.897734 0.865660 0.345006
0.929015 0.864927 0.355474
0.936675 0.842435 0.372107
0.951385 0.827085 0.399634
0.966064 0.814817 0.419165
0.979431 0.803067 0.421271
0.466407 0.865568 0.466468
0.467353 0.865782 0.466529
0.467842 0.865843 0.465858
0.468696 0.865782 0.463905
0.470039 0.865690 0.460822
0.472206 0.865660 0.457069
0.475441 0.865843 0.452461
0.480049 0.866239 0.447547
0.486091 0.866880 0.442023
0.493538 0.867735 0.435828
0.502190 0.868650 0.428504
0.512261 0.869749 0.420203
0.523583 0.870787 0.410620
0.536065 0.871733 0.399237
