data/fiter_cube/57993848/1023157/file.cube
# Created by Adobe Lightroom plugin Export LUT (1.17.0)
# www.johnrellis.com/lightroom/exportlut.htm
# Preset: 萌宠摄影后期_04 云集
# Color profile: C:\Program Files (x86)\Common Files\Adobe\Color\Profiles\Recommended\AdobeRGB1998.icc
LUT_3D_SIZE 8
DOMAIN_MIN 0.000000 0.000000 0.000000
DOMAIN_MAX 0.903226 0.903226 0.903226
0.121706 0.121706 0.121706
0.148226 0.120607 0.123476
0.250828 0.117281 0.123476
0.420630 0.095186 0.119387
0.598871 0.006439 0.112459
0.755184 0.000000 0.118532
0.877745 0.000000 0.151827
0.959625 0.136934 0.216037
0.125643 0.143648 0.126223
0.150851 0.148745 0.122164
0.266087 0.152316 0.116854
0.429877 0.149264 0.111666
0.601190 0.130983 0.103517
0.748287 0.105135 0.107942
0.869108 0.101167 0.137942
0.955566 0.160616 0.201511
0.133150 0.226139 0.133303
0.157839 0.232059 0.128115
0.267002 0.257939 0.116335
0.475959 0.291356 0.082765
0.654414 0.284092 0.044099
0.787015 0.262638 0.056825
0.897185 0.250584 0.117311
0.968994 0.261112 0.191714
0.144900 0.365545 0.144900
0.174044 0.366735 0.137942
0.260807 0.374365 0.113741
0.467109 0.448432 0.072633
0.692042 0.473762 0.000000
0.835111 0.440101 0.000000
0.915373 0.398077 0.072206
0.976349 0.367468 0.136538
0.173831 0.523125 0.174258
0.201724 0.523308 0.165652
0.283970 0.527367 0.135836
0.421851 0.551324 0.086366
0.627070 0.601556 0.008972
0.794766 0.587793 0.000000
0.909453 0.548852 0.079561
0.976318 0.504295 0.160342
0.233585 0.658503 0.233768
0.258030 0.667079 0.232120
0.318486 0.667292 0.204074
0.413458 0.667720 0.147219
0.566613 0.690089 0.112886
0.756863 0.726650 0.121157
0.886168 0.693477 0.172793
0.968658 0.643854 0.193027
0.341985 0.789059 0.342107
0.353674 0.791043 0.338018
0.385779 0.789761 0.311894
0.449348 0.790524 0.266819
0.539818 0.788968 0.187655
0.697353 0.807889 0.209506
0.854704 0.822171 0.245945
0.942992 0.773373 0.314336
0.506920 0.883696 0.507042
0.509819 0.883909 0.502251
0.524041 0.885801 0.487678
0.556847 0.890593 0.464027
0.590082 0.886870 0.390967
0.682307 0.892668 0.355993
0.808774 0.895964 0.394507
0.923766 0.893034 0.424842
0.126772 0.128237 0.140566
0.149569 0.118196 0.149569
0.240238 0.116732 0.154116
0.394385 0.089784 0.156680
0.573236 0.000000 0.156710
0.725246 0.000000 0.164736
0.853635 0.000000 0.190249
0.945739 0.143221 0.242893
0.132113 0.140688 0.140780
0.150088 0.150088 0.150088
0.250736 0.148806 0.151980
0.411933 0.136660 0.151278
0.583948 0.112459 0.149874
0.727474 0.091707 0.157443
0.848753 0.098909 0.179385
0.941375 0.162661 0.229099
0.139864 0.220798 0.161776
0.158663 0.236790 0.158633
0.268559 0.260594 0.145357
0.468940 0.277653 0.132021
0.635676 0.266575 0.121614
0.761410 0.248783 0.133486
0.871366 0.240940 0.163729
0.954040 0.258122 0.219913
0.147860 0.360235 0.180056
0.171878 0.367834 0.171969
0.258457 0.378790 0.146151
0.446876 0.429816 0.126955
0.657343 0.445899 0.089479
0.800870 0.418463 0.111086
0.892546 0.384253 0.130861
0.963226 0.362921 0.177035
0.176730 0.523888 0.210483
0.201602 0.522728 0.201694
0.278599 0.523857 0.172763
0.406439 0.536889 0.130465
0.608240 0.584039 0.113924
0.779538 0.574670 0.097749
0.899474 0.541802 0.147158
0.969055 0.501305 0.197269
0.235508 0.650782 0.259617
0.252995 0.651514 0.252964
0.310216 0.652522 0.227298
0.403693 0.655756 0.178683
0.555871 0.679927 0.151095
0.751034 0.721553 0.168185
0.881468 0.690120 0.209781
0.963897 0.641779 0.228275
0.335576 0.775906 0.350958
0.342260 0.774258 0.342382
0.375402 0.774960 0.319402
0.441108 0.779446 0.280705
0.532952 0.781369 0.210819
0.689174 0.800381 0.226658
0.846525 0.814603 0.259403
0.936950 0.767575 0.320195
0.501549 0.877745 0.509209
0.506523 0.878813 0.506645
0.521416 0.881193 0.493355
0.554620 0.886595 0.471534
0.602411 0.891020 0.425544
0.684688 0.894011 0.378454
0.806973 0.894438 0.406714
0.921202 0.890867 0.432624
0.135531 0.136202 0.218540
0.158480 0.127474 0.236179
0.268528 0.088045 0.268559
0.434302 0.000000 0.284276
0.577264 0.000000 0.279240
0.706691 0.107790 0.295567
0.842954 0.164492 0.322606
0.938018 0.255711 0.368658
0.151034 0.168490 0.218570
0.162325 0.162325 0.236790
0.270115 0.126925 0.270207
0.426184 0.101503 0.274296
0.569360 0.111849 0.274784
0.707912 0.151614 0.290562
0.841276 0.186221 0.314305
0.937041 0.263127 0.359747
0.170108 0.223880 0.223880
0.192142 0.235599 0.235599
0.269108 0.269108 0.269108
0.435615 0.267338 0.272923
0.609918 0.265080 0.279698
0.743771 0.265965 0.289708
0.858732 0.278386 0.309300
0.943633 0.316899 0.349493
0.194186 0.357977 0.275792
0.212924 0.371374 0.281132
0.276677 0.410620 0.276616
0.462959 0.449439 0.259586
0.670619 0.450690 0.279606
0.794247 0.424140 0.289708
0.886778 0.403449 0.299840
0.955718 0.402960 0.332586
0.219669 0.521996 0.316747
0.238468 0.529992 0.315801
0.298009 0.549218 0.298009
0.404486 0.553735 0.246647
0.621241 0.599725 0.261418
0.790097 0.582757 0.270603
0.898375 0.554955 0.319341
0.962615 0.521263 0.334356
0.274998 0.652491 0.355261
0.290898 0.656519 0.353460
0.335393 0.662715 0.335363
0.409735 0.663539 0.289494
0.546654 0.677821 0.256199
0.746029 0.719417 0.288060
0.878233 0.692226 0.324865
0.958953 0.655146 0.363745
0.379492 0.778683 0.434058
0.387854 0.779019 0.430518
0.409339 0.779141 0.409339
0.455390 0.780758 0.368658
0.534234 0.781643 0.304570
0.685298 0.799527 0.311284
0.847318 0.818021 0.357916
0.937041 0.777035 0.418372
0.529656 0.874907 0.559380
0.531853 0.874815 0.555413
0.541314 0.876524 0.541314
0.573236 0.883726 0.526207
0.613306 0.888212 0.484504
0.684413 0.892912 0.431617
0.807309 0.894377 0.463691
0.919860 0.892027 0.493782
0.152865 0.153994 0.357946
0.180331 0.145327 0.374762
0.285222 0.081666 0.421210
0.449836 0.000000 0.449928
0.626337 0.000000 0.454963
0.735195 0.000000 0.429694
0.834073 0.163577 0.435309
0.915679 0.330785 0.483040
0.168490 0.197055 0.368902
0.187747 0.188083 0.381872
0.281254 0.137240 0.424018
0.454108 0.000000 0.454292
0.628138 0.000000 0.452705
0.729580 0.067414 0.427131
0.828183 0.216739 0.435920
0.911986 0.356756 0.487251
0.233371 0.287846 0.349706
0.254337 0.296361 0.359380
0.286595 0.286503 0.411749
0.458015 0.227176 0.458045
0.619623 0.251164 0.444831
0.725429 0.304906 0.442237
0.828885 0.374365 0.472480
0.920134 0.427314 0.506645
0.253819 0.372351 0.372442
0.274815 0.381140 0.381231
0.344976 0.410864 0.410895
0.457954 0.457954 0.457954
0.613336 0.456733 0.461128
0.739040 0.456123 0.465309
0.849393 0.462623 0.476448
0.931823 0.484352 0.500877
0.315770 0.521172 0.439216
0.328985 0.526879 0.442756
0.377325 0.549981 0.455879
0.458228 0.585931 0.458381
0.626764 0.613581 0.448310
0.786954 0.609979 0.487739
0.880552 0.592554 0.501549
0.946807 0.568414 0.496071
0.357641 0.656123 0.479774
0.376989 0.665339 0.487129
0.415930 0.673884 0.487404
0.473152 0.688258 0.473121
0.548211 0.688228 0.406043
0.749020 0.728756 0.453285
0.876402 0.707210 0.483192
0.946807 0.687800 0.530236
0.440681 0.773953 0.534997
0.450507 0.776394 0.536065
0.479286 0.782742 0.534936
0.515679 0.790646 0.515648
0.563775 0.793027 0.459052
0.685756 0.803189 0.436378
0.844846 0.820737 0.485817
0.931945 0.786618 0.530053
0.574670 0.871794 0.631891
0.579828 0.872801 0.631922
0.592737 0.875242 0.627161
0.610285 0.880003 0.610315
0.636774 0.885161 0.573693
0.689509 0.890929 0.518730
0.805997 0.893614 0.538964
0.916594 0.892699 0.572595
0.193393 0.194583 0.522148
0.218173 0.186252 0.532708
0.300664 0.140566 0.561212
0.446632 0.000000 0.605859
0.621302 0.000000 0.621302
0.760433 0.000000 0.596765
0.857389 0.000000 0.566094
0.927642 0.272160 0.567559
0.211185 0.238804 0.526970
0.230961 0.231418 0.537896
0.302739 0.191409 0.564721
0.442664 0.000000 0.605737
0.621881 0.000000 0.621973
0.760800 0.000000 0.596124
0.855497 0.114778 0.567224
0.925353 0.309880 0.571466
0.285496 0.352544 0.518791
0.294499 0.351293 0.531273
0.324529 0.324590 0.558129
0.435157 0.253452 0.602350
0.620600 0.187442 0.620752
0.754452 0.225162 0.590509
0.843931 0.307225 0.570092
0.915435 0.404089 0.581720
0.345006 0.442054 0.510582
0.361852 0.448066 0.516106
0.420081 0.470863 0.536645
0.471901 0.471839 0.587701
0.621515 0.424781 0.621485
0.741756 0.453132 0.596674
0.827420 0.481147 0.589593
0.903716 0.526513 0.607385
0.371313 0.529290 0.529381
0.388464 0.535149 0.535180
0.443732 0.552331 0.552361
0.527031 0.580621 0.580652
0.612329 0.612329 0.612329
0.729915 0.607507 0.610773
0.833433 0.606195 0.612787
0.914611 0.612940 0.622217
0.457465 0.635370 0.574121
0.467048 0.639216 0.577722
0.495399 0.649958 0.586816
0.540764 0.670588 0.600122
0.590814 0.694423 0.590753
0.736965 0.725673 0.593011
0.862943 0.728573 0.639765
0.929381 0.715999 0.651850
0.514641 0.762081 0.630213
0.519890 0.763058 0.630274
0.539696 0.768429 0.631586
0.572625 0.779507 0.631006
0.607630 0.791684 0.607630
0.669245 0.794156 0.544579
0.835569 0.817929 0.597101
0.924010 0.792752 0.628016
0.612665 0.858000 0.695033
0.615686 0.858518 0.694514
0.626581 0.860990 0.692592
0.654261 0.870115 0.694759
0.672419 0.877592 0.672389
0.703578 0.884794 0.624231
0.797848 0.889555 0.611231
0.909697 0.890379 0.648768
0.270695 0.271794 0.669032
0.286259 0.264469 0.674067
0.338689 0.230747 0.687922
0.439338 0.137697 0.715999
0.587610 0.000000 0.747189
0.748623 0.000000 0.748684
0.862547 0.000000 0.712398
0.939788 0.142855 0.676204
0.285588 0.305516 0.663600
0.297337 0.298070 0.667964
0.343297 0.267643 0.683406
0.436805 0.191135 0.710872
0.582330 0.000000 0.743252
0.745357 0.000000 0.745388
0.860227 0.000000 0.710414
0.937194 0.205539 0.676448
0.360113 0.416907 0.664912
0.363867 0.410315 0.668971
0.386450 0.386633 0.684321
0.451637 0.334051 0.711025
0.579797 0.207492 0.743465
0.746700 0.183352 0.746731
0.858335 0.255863 0.711666
0.930968 0.353246 0.683925
0.467323 0.532097 0.643153
0.470924 0.532494 0.648371
0.488411 0.535241 0.670710
0.517113 0.517144 0.706233
0.596857 0.452979 0.742489
0.752499 0.425360 0.752621
0.856016 0.461158 0.721157
0.921538 0.505089 0.699763
0.484596 0.589197 0.645533
0.495979 0.593225 0.648768
0.532860 0.606775 0.659693
0.589105 0.628901 0.678431
0.626490 0.626459 0.716640
0.742031 0.588098 0.742123
0.838376 0.604883 0.718929
0.903166 0.626703 0.711604
0.505180 0.655055 0.655146
0.517510 0.659937 0.659998
0.550317 0.670008 0.670008
0.601251 0.686213 0.686244
0.662806 0.706538 0.706538
0.735439 0.735378 0.735409
0.827390 0.734249 0.736629
0.902190 0.736904 0.741360
0.597925 0.756863 0.709041
0.606989 0.759670 0.712581
0.631403 0.765042 0.719936
0.660548 0.775723 0.729702
0.690486 0.789792 0.736141
0.722652 0.804105 0.722652
0.830198 0.821469 0.722927
0.912627 0.818662 0.758297
0.675135 0.846983 0.762844
0.677333 0.847501 0.762875
0.686030 0.850156 0.763638
0.703548 0.856870 0.766262
0.723964 0.865751 0.764065
0.745480 0.876677 0.745449
0.789425 0.884977 0.697230
0.902434 0.889403 0.737942
0.373877 0.374578 0.779446
0.384161 0.371466 0.784207
0.410346 0.345861 0.792172
0.465553 0.289097 0.806699
0.557061 0.148501 0.824308
0.689815 0.000000 0.837552
0.836240 0.000000 0.836332
0.927764 0.000000 0.793271
0.380194 0.392981 0.770382
0.388922 0.389471 0.774929
0.412543 0.365423 0.783780
0.462806 0.311040 0.797879
0.550744 0.189761 0.815671
0.681514 0.000000 0.829191
0.827207 0.000000 0.827298
0.920653 0.000000 0.785611
0.448981 0.488808 0.772274
0.451026 0.483070 0.774533
0.460090 0.460273 0.781643
0.491310 0.415442 0.795682
0.558892 0.326726 0.812833
0.680903 0.161929 0.830137
0.830594 0.179812 0.830655
0.922545 0.273442 0.791440
0.539208 0.597070 0.764797
0.539574 0.593927 0.766476
0.543084 0.582544 0.774838
0.555627 0.555627 0.790585
0.593927 0.499336 0.809445
0.688411 0.390234 0.833402
0.834531 0.406806 0.834562
0.919921 0.449378 0.797238
0.585687 0.656153 0.744259
0.589746 0.656245 0.743893
0.608759 0.661189 0.746670
0.624079 0.662287 0.765988
0.635798 0.635798 0.791348
0.693385 0.572930 0.817472
0.825467 0.552941 0.825467
0.911101 0.587488 0.798672
0.598749 0.703548 0.749081
0.604883 0.705348 0.750484
0.625910 0.711635 0.755459
0.661769 0.723629 0.765225
0.707149 0.739193 0.777737
0.739925 0.739895 0.807828
0.827695 0.713222 0.827756
0.900267 0.726955 0.810452
0.627070 0.763394 0.763455
0.634455 0.765896 0.765957
0.653681 0.770596 0.770626
0.685634 0.779049 0.779080
0.724331 0.788602 0.788602
0.771572 0.803006 0.803006
0.823545 0.823545 0.823545
0.891051 0.822812 0.824491
0.707301 0.833310 0.799496
0.711269 0.834104 0.800595
0.730831 0.840269 0.808530
0.754086 0.846128 0.816159
0.778408 0.854154 0.824369
0.799069 0.865843 0.829923
0.820859 0.878904 0.820859
0.894438 0.888212 0.820249
0.493904 0.494392 0.850462
0.497810 0.491066 0.852628
0.502495 0.467140 0.855985
0.522942 0.424353 0.864866
0.563989 0.340154 0.876310
0.639765 0.135225 0.889494
0.762264 0.000000 0.896880
0.895384 0.000000 0.895445
0.499641 0.506889 0.846403
0.503227 0.503655 0.848600
0.508415 0.482124 0.852689
0.525566 0.439521 0.861021
0.564324 0.359503 0.872801
0.637781 0.180880 0.886351
0.758724 0.000000 0.893645
0.892241 0.000000 0.892302
0.534966 0.560662 0.841032
0.536339 0.556939 0.842649
0.536156 0.536400 0.845731
0.554711 0.508965 0.857328
0.581628 0.441413 0.868681
0.640589 0.305394 0.881956
0.755825 0.113985 0.891356
0.890471 0.145632 0.890562
0.596094 0.640101 0.834348
0.597162 0.638148 0.836454
0.594141 0.623499 0.840421
0.599237 0.599329 0.849973
0.616266 0.553338 0.862608
0.658747 0.463020 0.877470
0.756527 0.332036 0.890837
0.890257 0.355352 0.890288
0.657954 0.709194 0.818235
0.660121 0.709834 0.820920
0.659571 0.704585 0.826261
0.660212 0.692683 0.837675
0.659113 0.659144 0.850553
0.681666 0.599512 0.866911
0.756466 0.492592 0.886778
0.888487 0.518273 0.888548
0.683375 0.750088 0.816037
0.684871 0.749599 0.815640
0.692683 0.749935 0.815793
0.710475 0.753902 0.818784
0.724544 0.754360 0.831968
0.735439 0.735439 0.856535
0.782528 0.688380 0.881743
0.890745 0.689265 0.890776
0.706722 0.794064 0.826352
0.708583 0.794064 0.826352
0.716426 0.794980 0.827115
0.734096 0.799527 0.830961
0.760189 0.807065 0.837461
0.795346 0.819455 0.847898
0.823911 0.823911 0.873075
0.886625 0.803220 0.886625
0.741299 0.843015 0.843046
0.742885 0.843046 0.843107
0.750484 0.844419 0.844450
0.766262 0.848325 0.848356
0.788083 0.853788 0.853819
0.815885 0.861204 0.861204
0.849638 0.871702 0.871702
0.885283 0.885283 0.885283
