data/fiter_cube/57993848/1023157/file.cube
# Created by Adobe Lightroom plugin Export LUT (1.17.0)
# www.johnrellis.com/lightroom/exportlut.htm
# Preset: 萌宠摄影后期_04 云集
# Color profile: C:\Program Files (x86)\Common Files\Adobe\Color\Profiles\Recommended\AdobeRGB1998.icc
LUT_3D_SIZE 5
DOMAIN_MIN 0.000000 0.000000 0.000000
DOMAIN_MAX 0.903226 0.903226 0.903226
0.121706 0.121706 0.121706
0.217105 0.118929 0.123568
0.512749 0.071748 0.115694
0.791806 0.000000 0.124544
0.959625 0.136934 0.216037
0.131167 0.199619 0.131289
0.230442 0.223362 0.119936
0.564172 0.250187 0.078065
0.812375 0.220615 0.088869
0.968994 0.239841 0.202762
0.155917 0.442603 0.155886
0.245945 0.447608 0.129824
0.560052 0.537255 0.013367
0.848142 0.507897 0.000000
0.976318 0.434333 0.137087
0.260014 0.697841 0.260197
0.315312 0.700862 0.236881
0.475135 0.702235 0.131136
0.785611 0.754482 0.150149
0.964904 0.675837 0.193210
0.506920 0.883696 0.507042
0.518730 0.885039 0.491859
0.560845 0.884428 0.417639
0.714961 0.894133 0.366155
0.923766 0.893034 0.424842
0.132723 0.133181 0.189792
0.227970 0.105013 0.228061
0.489235 0.000000 0.241062
0.743191 0.048585 0.259373
0.937865 0.211948 0.325628
0.157382 0.195560 0.195651
0.230289 0.230289 0.230289
0.516045 0.221439 0.234012
0.770504 0.219577 0.252232
0.945342 0.277867 0.316381
0.187625 0.440986 0.268742
0.250614 0.466804 0.250584
0.541192 0.522026 0.213260
0.831235 0.497292 0.248814
0.966125 0.446265 0.281529
0.296422 0.697993 0.356146
0.340246 0.704768 0.340215
0.475166 0.705653 0.252750
0.780972 0.752438 0.276249
0.958801 0.682277 0.326635
0.533013 0.879850 0.555474
0.541802 0.881315 0.541894
0.589258 0.888243 0.495125
0.718898 0.895689 0.429908
0.922332 0.894072 0.486702
0.169986 0.170993 0.440925
0.260349 0.130282 0.479927
0.540826 0.000000 0.540887
0.779202 0.000000 0.506554
0.921508 0.306279 0.522179
0.239292 0.297673 0.440925
0.273564 0.273625 0.480079
0.549096 0.139590 0.549218
0.767514 0.230838 0.504692
0.914458 0.408820 0.543389
0.308537 0.452186 0.452216
0.369299 0.475074 0.475074
0.541680 0.541680 0.541680
0.761807 0.538689 0.545312
0.923247 0.554070 0.566339
0.422431 0.681971 0.546777
0.452674 0.688685 0.549737
0.540185 0.718074 0.540093
0.771817 0.754238 0.529839
0.936461 0.721157 0.588067
0.587671 0.863645 0.659632
0.603754 0.867491 0.660243
0.639063 0.878325 0.639094
0.708553 0.888396 0.548730
0.912413 0.890440 0.604639
0.288945 0.289860 0.693812
0.334722 0.264439 0.708614
0.501915 0.050477 0.752468
0.771695 0.000000 0.771756
0.938415 0.018952 0.703731
0.351904 0.397253 0.691371
0.374517 0.374823 0.704677
0.501854 0.264134 0.746853
0.768368 0.082673 0.768429
0.932860 0.267094 0.704280
0.495674 0.570825 0.662226
0.527886 0.582727 0.670314
0.565332 0.565301 0.722499
0.756466 0.480659 0.756405
0.913420 0.543328 0.719539
0.541222 0.689052 0.689113
0.566217 0.694453 0.694514
0.647761 0.719265 0.719265
0.760189 0.760159 0.760189
0.897673 0.757809 0.761501
0.690425 0.843412 0.776120
0.700038 0.846769 0.778622
0.730037 0.859312 0.784878
0.767208 0.878172 0.767178
0.900145 0.888762 0.758480
0.493904 0.494392 0.850462
0.500175 0.474586 0.854673
0.540246 0.389532 0.870481
0.665858 0.000000 0.893248
0.895384 0.000000 0.895445
0.526970 0.547326 0.843900
0.530327 0.530602 0.848264
0.558892 0.459998 0.864500
0.663539 0.208621 0.887602
0.892149 0.076143 0.892241
0.626154 0.675929 0.826963
0.625696 0.668208 0.832059
0.624567 0.624689 0.848386
0.678859 0.496956 0.874266
0.888731 0.435981 0.888762
0.694118 0.764736 0.821317
0.701167 0.764920 0.821347
0.733089 0.772366 0.827085
0.756313 0.756313 0.859159
0.890013 0.722377 0.890043
0.741299 0.843015 0.843046
0.747768 0.843870 0.843870
0.776577 0.850919 0.850950
0.823850 0.863523 0.863523
0.885283 0.885283 0.885283
