data/fiter_cube/69180065/1023051/file.cube
# Created by Adobe Lightroom plugin Export LUT (1.17.0)
# www.johnrellis.com/lightroom/exportlut.htm
# Preset: 室内文艺胶片_04 云集
# Color profile: C:\Program Files (x86)\Common Files\Adobe\Color\Profiles\Recommended\AdobeRGB1998.icc
LUT_3D_SIZE 32
DOMAIN_MIN 0.0 0.0 0.0
DOMAIN_MAX 1.0 1.0 1.0
0.056275 0.073884 0.070130
0.066011 0.076448 0.071168
0.077119 0.079713 0.072724
0.098604 0.086061 0.075654
0.132509 0.093080 0.079469
0.171572 0.098695 0.082063
0.207126 0.101839 0.083192
0.235752 0.103731 0.084535
0.260929 0.104921 0.085573
0.286625 0.105928 0.086244
0.315740 0.106538 0.087404
0.349432 0.108125 0.089418
0.387945 0.111238 0.092714
0.430640 0.116518 0.097108
0.476600 0.124300 0.102113
0.524498 0.135500 0.107027
0.573022 0.151553 0.111940
0.622217 0.173373 0.116854
0.682002 0.206912 0.122103
0.735286 0.243442 0.126314
0.783413 0.281041 0.129244
0.825528 0.317571 0.130861
0.860533 0.350317 0.132204
0.890379 0.379644 0.133608
0.916442 0.405676 0.134920
0.939879 0.429694 0.136568
0.961547 0.452552 0.139010
0.981781 0.474434 0.142489
1.000000 0.495674 0.147829
1.000000 0.516411 0.155550
1.000000 0.536706 0.166720
1.000000 0.556573 0.181765
0.057527 0.080232 0.073121
0.064576 0.082155 0.072816
0.076661 0.086336 0.073518
0.098116 0.092439 0.077028
0.131807 0.100099 0.081025
0.170748 0.105318 0.083558
0.206119 0.107912 0.084443
0.234592 0.109529 0.085481
0.259556 0.110414 0.086549
0.285069 0.111025 0.087312
0.313725 0.111727 0.088533
0.346929 0.113008 0.090333
0.384741 0.116426 0.094209
0.426795 0.121798 0.098665
0.472175 0.129213 0.103273
0.519646 0.140322 0.108675
0.567864 0.155154 0.113497
0.617578 0.176181 0.117983
0.675502 0.207523 0.123140
0.727871 0.242130 0.127077
0.775784 0.278141 0.129763
0.818418 0.314031 0.131258
0.854185 0.346746 0.132265
0.884794 0.376074 0.133486
0.911559 0.402472 0.134432
0.935637 0.426886 0.135897
0.957946 0.449989 0.138033
0.978698 0.472267 0.141482
0.998260 0.493843 0.146578
1.000000 0.514763 0.153933
1.000000 0.535271 0.164584
1.000000 0.555230 0.179202
0.058350 0.089662 0.077699
0.064302 0.091707 0.077699
0.074006 0.094636 0.076875
0.097353 0.101259 0.079408
0.131197 0.108644 0.083162
0.170016 0.114015 0.085023
0.205051 0.116060 0.085939
0.233371 0.117006 0.087037
0.258396 0.117403 0.087892
0.283726 0.117708 0.088991
0.312169 0.118105 0.090242
0.345098 0.119783 0.092287
0.382696 0.123262 0.095827
0.424445 0.128634 0.100710
0.469459 0.136263 0.105684
0.516869 0.146517 0.110628
0.564904 0.161318 0.115358
0.615351 0.181582 0.120058
0.672084 0.211307 0.124758
0.723934 0.244419 0.128573
0.771725 0.279454 0.131106
0.814755 0.314641 0.132143
0.850950 0.347143 0.133120
0.881926 0.376257 0.133974
0.909026 0.402502 0.134920
0.933410 0.426856 0.135988
0.955993 0.450019 0.138064
0.977050 0.472389 0.141421
0.996857 0.493935 0.146273
1.000000 0.514977 0.153597
1.000000 0.535393 0.164004
1.000000 0.555322 0.178531
0.060853 0.107637 0.087770
0.068208 0.109285 0.090272
0.073274 0.111391 0.089387
0.092012 0.116793 0.086915
0.129519 0.127047 0.087221
0.169924 0.132235 0.087678
0.204410 0.133181 0.088716
0.232609 0.132387 0.089998
0.257420 0.131685 0.090974
0.282597 0.131502 0.092378
0.310918 0.131746 0.093874
0.343511 0.133455 0.096132
0.380621 0.137270 0.100465
0.422004 0.142885 0.105074
0.466896 0.150057 0.109834
0.513909 0.160311 0.114931
0.561791 0.174197 0.119692
0.613397 0.193973 0.124269
0.667933 0.221103 0.128420
0.718166 0.251316 0.131868
0.765194 0.283940 0.133852
0.808286 0.317540 0.134676
0.845518 0.349493 0.135195
0.877775 0.378698 0.135836
0.906188 0.405646 0.136202
0.931762 0.430518 0.137423
0.955108 0.453925 0.139437
0.976562 0.476356 0.143038
0.996460 0.497749 0.147799
1.000000 0.518273 0.155154
1.000000 0.538170 0.165469
1.000000 0.557610 0.179538
0.062470 0.130098 0.100252
0.068421 0.131930 0.101137
0.075380 0.134340 0.101961
0.086854 0.138643 0.100038
0.117708 0.146517 0.095125
0.164462 0.157076 0.092927
0.201694 0.157656 0.093294
0.230594 0.154910 0.094545
0.255283 0.152377 0.096010
0.280308 0.151034 0.098024
0.308263 0.150851 0.099794
0.340490 0.152590 0.102632
0.377356 0.156405 0.106874
0.418616 0.162234 0.111971
0.463447 0.169802 0.116884
0.511009 0.179812 0.121462
0.559625 0.192966 0.126101
0.613519 0.212863 0.130617
0.666896 0.238041 0.134340
0.716365 0.266178 0.136904
0.762509 0.296361 0.138277
0.805295 0.328069 0.138582
0.842527 0.358312 0.138643
0.875181 0.386542 0.138613
0.903990 0.412543 0.139162
0.929931 0.436866 0.139956
0.953491 0.459815 0.141756
0.975158 0.481514 0.144900
0.995117 0.502434 0.149813
1.000000 0.522637 0.157107
1.000000 0.542168 0.167300
1.000000 0.561273 0.181247
0.058961 0.157870 0.113252
0.065187 0.159487 0.114199
0.073487 0.161654 0.115267
0.084657 0.166049 0.112245
0.107790 0.171878 0.110719
0.147585 0.179721 0.103822
0.195865 0.186923 0.100740
0.226871 0.182773 0.101869
0.253819 0.178683 0.103670
0.278965 0.175723 0.105989
0.307073 0.175021 0.108553
0.339330 0.176333 0.111818
0.376135 0.180423 0.116396
0.417517 0.186374 0.121248
0.462654 0.193942 0.125917
0.510307 0.203983 0.130648
0.559167 0.216892 0.134829
0.615473 0.237064 0.138888
0.668025 0.260502 0.141817
0.717220 0.286717 0.143648
0.763394 0.315496 0.144289
0.806332 0.345464 0.143984
0.880278 0.409369 0.147372
0.907866 0.432837 0.148257
0.932036 0.454170 0.149599
0.953704 0.473945 0.151675
0.973449 0.492744 0.154879
0.991730 0.510765 0.159792
1.000000 0.528435 0.166262
1.000000 0.545830 0.175479
1.000000 0.562890 0.187533
1.000000 0.579675 0.203037
0.047181 0.191775 0.129824
0.059998 0.192782 0.130678
0.070466 0.194308 0.131930
0.090669 0.197910 0.135286
0.106264 0.202426 0.130068
0.136080 0.207889 0.126406
0.179110 0.213260 0.117891
0.224399 0.216495 0.114656
0.252537 0.210300 0.117220
0.281621 0.207401 0.119448
0.312902 0.206760 0.122164
0.347204 0.208225 0.125643
0.385657 0.212528 0.130495
0.428199 0.218570 0.135042
0.473640 0.226230 0.139132
0.520928 0.235843 0.143038
0.574090 0.250645 0.146426
0.630671 0.271427 0.149386
0.683070 0.294713 0.151186
0.733059 0.321202 0.151980
0.781247 0.351110 0.151736
0.825742 0.381933 0.150790
0.864195 0.411139 0.150546
0.897154 0.437598 0.150912
0.925200 0.461219 0.152285
0.949065 0.481910 0.154574
0.969970 0.500877 0.158022
0.988830 0.518517 0.162692
1.000000 0.535698 0.169314
1.000000 0.552483 0.178408
1.000000 0.568963 0.190127
1.000000 0.585290 0.205509
0.043915 0.218235 0.145418
0.059144 0.218967 0.146334
0.070710 0.219821 0.147921
0.091768 0.221744 0.151614
0.108156 0.225284 0.148806
0.131441 0.228519 0.149844
0.161746 0.232975 0.144137
0.201541 0.236454 0.135683
0.244419 0.239628 0.132418
0.273472 0.235599 0.135012
0.306523 0.235416 0.137575
0.345220 0.238651 0.140017
0.384070 0.242344 0.144289
0.426642 0.248203 0.148226
0.472236 0.255619 0.151797
0.520043 0.265049 0.154391
0.576562 0.281163 0.157443
0.630457 0.299565 0.159091
0.681147 0.320531 0.159579
0.729976 0.344457 0.159487
0.777462 0.371588 0.158297
0.821561 0.399969 0.156680
0.859953 0.426886 0.155581
0.892943 0.451453 0.155795
0.921233 0.473671 0.156558
0.945434 0.493324 0.158846
0.966644 0.511345 0.161990
0.985870 0.528283 0.166598
1.000000 0.544854 0.173281
1.000000 0.560967 0.182345
1.000000 0.576989 0.194339
1.000000 0.592767 0.209842
0.056336 0.240909 0.161959
0.067231 0.241184 0.163210
0.078096 0.241733 0.165042
0.098482 0.242741 0.169406
0.124941 0.244572 0.176699
0.136599 0.247532 0.171481
0.158267 0.250462 0.172305
0.186130 0.254215 0.164950
0.222232 0.257206 0.156374
0.265629 0.263371 0.152285
0.298436 0.263035 0.154940
0.336645 0.266392 0.157351
0.380835 0.272892 0.160128
0.427619 0.280369 0.162539
0.473304 0.287327 0.165103
0.527031 0.299535 0.167514
0.580957 0.314061 0.168826
0.633082 0.330938 0.168856
0.682185 0.349737 0.168338
0.730098 0.371588 0.167025
0.776669 0.396460 0.165011
0.820066 0.422187 0.162692
0.857969 0.446723 0.161288
0.890684 0.469398 0.161196
0.918853 0.489967 0.162203
0.943084 0.508171 0.164248
0.964446 0.525048 0.167544
0.983734 0.540917 0.172366
1.000000 0.556481 0.179141
1.000000 0.571801 0.188327
1.000000 0.586938 0.200473
1.000000 0.602045 0.215915
0.073121 0.260410 0.179049
0.080842 0.260563 0.180423
0.090486 0.260777 0.182315
0.108644 0.261418 0.186679
0.132296 0.262547 0.193271
0.147097 0.264927 0.192935
0.163119 0.267704 0.192844
0.183261 0.271000 0.191653
0.209720 0.274693 0.184756
0.243503 0.278111 0.176669
0.289555 0.287938 0.171450
0.327092 0.291814 0.173587
0.370794 0.298833 0.175875
0.420172 0.308202 0.177401
0.479377 0.322606 0.178622
0.534813 0.335576 0.179599
0.588159 0.349737 0.179202
0.639582 0.365759 0.178195
0.687800 0.383276 0.176608
0.734157 0.403082 0.174411
0.778927 0.424872 0.171542
0.819944 0.447089 0.169223
0.856016 0.468269 0.167300
0.887449 0.488075 0.166934
0.915068 0.506401 0.167636
0.939361 0.523247 0.169711
0.961120 0.539178 0.173098
0.980957 0.554437 0.178286
0.999329 0.569512 0.185641
1.000000 0.584314 0.195529
1.000000 0.599084 0.208530
1.000000 0.613703 0.224979
0.089509 0.278416 0.195651
0.095857 0.278569 0.197086
0.104128 0.278813 0.198886
0.119905 0.279301 0.202823
0.140200 0.280430 0.208621
0.162295 0.282261 0.215549
0.170047 0.285863 0.210452
0.187137 0.289372 0.211673
0.207614 0.293462 0.208774
0.234531 0.297795 0.202426
0.268193 0.301793 0.194858
0.318669 0.315618 0.188418
0.362005 0.323644 0.190127
0.415320 0.336553 0.191745
0.473640 0.351263 0.191958
0.534447 0.367742 0.190921
0.592981 0.384894 0.188510
0.642908 0.399603 0.186557
0.689845 0.415290 0.183932
0.735317 0.433021 0.181216
0.779232 0.452735 0.178195
0.819608 0.472908 0.175479
0.855222 0.492317 0.173983
0.886381 0.510246 0.173678
0.913725 0.526940 0.174868
0.937774 0.542107 0.177035
0.959289 0.556542 0.180819
0.979004 0.570520 0.186160
0.997284 0.584283 0.193881
1.000000 0.598047 0.203983
1.000000 0.611902 0.217105
1.000000 0.625788 0.234165
0.105287 0.298161 0.212863
0.110323 0.298466 0.214054
0.117586 0.298680 0.215763
0.130465 0.299290 0.219059
0.148135 0.300481 0.223728
0.167269 0.302617 0.229099
0.179019 0.306310 0.228092
0.191806 0.310521 0.226505
0.210269 0.315221 0.227543
0.233127 0.320226 0.223209
0.262394 0.325261 0.217136
0.299138 0.330877 0.210239
0.380926 0.368841 0.209110
0.440558 0.385992 0.209171
0.503990 0.404120 0.207614
0.567681 0.423285 0.204685
0.629145 0.443580 0.200504
0.685451 0.463325 0.196078
0.731136 0.478187 0.192721
0.772396 0.492805 0.189761
0.810605 0.507958 0.187228
0.844572 0.522759 0.186007
0.874662 0.536614 0.185794
0.901579 0.550011 0.186923
0.925658 0.562585 0.189242
0.947265 0.574640 0.192874
0.966827 0.586053 0.197757
0.984833 0.597314 0.204105
1.000000 0.608728 0.212650
1.000000 0.620417 0.223636
1.000000 0.632288 0.237736
1.000000 0.644587 0.255436
0.120363 0.325963 0.233524
0.124575 0.326116 0.234440
0.130282 0.326238 0.235477
0.141329 0.326696 0.237797
0.156039 0.327703 0.240940
0.172610 0.329534 0.244419
0.190585 0.332738 0.247990
0.196445 0.337865 0.240848
0.214755 0.343236 0.241672
0.236484 0.349737 0.242008
0.266667 0.358709 0.237858
0.305852 0.369635 0.233158
0.352819 0.380194 0.227115
0.426368 0.407660 0.218265
0.489967 0.427283 0.216739
0.553765 0.446906 0.213962
0.615320 0.466865 0.209873
0.671778 0.485695 0.205447
0.723659 0.504234 0.201205
0.771420 0.522820 0.197086
0.808713 0.535912 0.195010
0.842161 0.548669 0.193820
0.871794 0.560662 0.194125
0.898436 0.572320 0.195590
0.922393 0.583398 0.198093
0.943969 0.593927 0.201846
0.963592 0.604150 0.207126
0.981659 0.614374 0.213809
0.998657 0.624750 0.222629
1.000000 0.635584 0.234134
1.000000 0.646754 0.248600
1.000000 0.658442 0.267155
0.128939 0.351720 0.250095
0.132631 0.351934 0.250736
0.137392 0.352148 0.251560
0.146578 0.352819 0.253117
0.159609 0.353887 0.255192
0.174868 0.355932 0.257603
0.191867 0.359289 0.260166
0.202914 0.364508 0.256901
0.216342 0.371740 0.253574
0.239841 0.381659 0.255558
0.268894 0.392584 0.255222
0.305943 0.403235 0.250340
0.350134 0.413489 0.244327
0.400183 0.422736 0.236820
0.476265 0.449836 0.225376
0.539483 0.469551 0.222507
0.600336 0.488655 0.218875
0.657191 0.507073 0.214847
0.709987 0.525017 0.210788
0.759487 0.543786 0.206943
0.804685 0.562402 0.203983
0.840757 0.576226 0.203159
0.870085 0.586633 0.203861
0.896574 0.596643 0.205814
0.920317 0.606226 0.208988
0.941833 0.615381 0.213199
0.961395 0.624353 0.218875
0.979492 0.633448 0.226017
0.996460 0.642786 0.235447
1.000000 0.652674 0.247532
1.000000 0.663050 0.262913
1.000000 0.674006 0.282200
0.133547 0.381476 0.266667
0.136568 0.381903 0.267247
0.140749 0.382055 0.267643
0.149264 0.382818 0.268620
0.161196 0.383917 0.270054
0.175601 0.386755 0.271824
0.192599 0.391730 0.274357
0.212253 0.398444 0.276890
0.217655 0.407660 0.266941
0.242100 0.417182 0.268620
0.271366 0.428565 0.270512
0.306981 0.439765 0.267948
0.349645 0.449775 0.261723
0.397925 0.458747 0.254246
0.449439 0.465949 0.245304
0.525139 0.491371 0.231449
0.586450 0.510704 0.227817
0.643580 0.528679 0.224094
0.696895 0.546197 0.220523
0.747158 0.564294 0.217227
0.793515 0.582422 0.214725
0.833860 0.598749 0.213779
0.868498 0.613062 0.214908
0.894804 0.621698 0.217411
0.918486 0.629908 0.221134
0.940063 0.637995 0.226261
0.959930 0.646143 0.232883
0.978332 0.654597 0.241703
0.995605 0.663478 0.252567
1.000000 0.672816 0.266514
1.000000 0.682734 0.283940
1.000000 0.693172 0.305608
0.133303 0.419074 0.285618
0.136568 0.419806 0.286107
0.140169 0.420508 0.286595
0.148196 0.422126 0.287541
0.160220 0.424506 0.288792
0.175021 0.428107 0.290349
0.192813 0.433143 0.292210
0.213901 0.439887 0.294255
0.229038 0.448676 0.289952
0.244511 0.458808 0.283635
0.275303 0.469184 0.285374
0.310643 0.480690 0.287175
0.351232 0.488930 0.281132
0.397040 0.496010 0.272953
0.445930 0.501640 0.263615
0.496132 0.505913 0.253117
0.569299 0.529747 0.237888
0.628931 0.549065 0.233524
0.683894 0.567071 0.230625
0.735927 0.585626 0.228122
0.784237 0.604181 0.226230
0.826200 0.620661 0.226444
0.862181 0.634821 0.228428
0.893400 0.647364 0.232212
0.919310 0.656916 0.237491
0.940551 0.663691 0.243778
0.960143 0.670527 0.251347
0.978271 0.677790 0.260990
0.995148 0.685389 0.273106
1.000000 0.693477 0.287572
1.000000 0.702052 0.305516
1.000000 0.711299 0.327672
0.128054 0.460334 0.305516
0.130831 0.460914 0.305669
0.134981 0.461372 0.306004
0.143618 0.462715 0.306493
0.156283 0.464790 0.307225
0.172091 0.467994 0.308293
0.191196 0.472480 0.309697
0.213565 0.478492 0.311345
0.239963 0.486152 0.313420
0.246098 0.496437 0.299687
0.276310 0.506340 0.299931
0.312596 0.517052 0.301884
0.352850 0.527733 0.302464
0.397681 0.534142 0.294102
0.445502 0.539208 0.284520
0.494148 0.542840 0.273686
0.542504 0.545464 0.261875
0.611414 0.567041 0.245579
0.670008 0.586847 0.240665
0.722683 0.604944 0.238804
0.772122 0.623377 0.237705
0.815549 0.639765 0.238285
0.852873 0.653803 0.240970
0.885344 0.666163 0.245701
0.913695 0.677089 0.252171
0.938659 0.686885 0.260777
0.958709 0.693446 0.269566
0.976776 0.699702 0.280278
0.993591 0.706355 0.293248
1.000000 0.713588 0.309178
1.000000 0.721431 0.328374
1.000000 0.729976 0.351965
0.117556 0.503593 0.326574
0.121218 0.504601 0.327001
0.121065 0.528283 0.339086
0.132387 0.529473 0.339330
0.149142 0.531273 0.339727
0.169009 0.533776 0.340215
0.192599 0.537316 0.341039
0.219333 0.542138 0.342107
0.250217 0.548516 0.343786
0.271336 0.557244 0.337652
0.288945 0.567285 0.326146
0.329442 0.576410 0.328038
0.372595 0.585504 0.329961
0.418036 0.592432 0.326940
0.465034 0.595514 0.315984
0.512535 0.597498 0.303746
0.559411 0.598657 0.290654
0.604822 0.599329 0.276616
0.667567 0.616846 0.259129
0.723262 0.636042 0.253819
0.771511 0.652613 0.253666
0.814145 0.667445 0.255528
0.851102 0.680110 0.259403
0.883024 0.690974 0.265110
0.910704 0.700069 0.272129
0.935058 0.708309 0.280797
0.956725 0.715846 0.291051
0.975830 0.722621 0.302953
0.992065 0.727810 0.315892
1.000000 0.733913 0.332372
1.000000 0.740810 0.352544
1.000000 0.748501 0.376928
0.100587 0.553765 0.352789
0.104341 0.557519 0.354681
0.109773 0.561456 0.356725
0.122225 0.565576 0.358618
0.140749 0.569543 0.360174
0.163760 0.572992 0.361242
0.189578 0.576532 0.362127
0.218662 0.580835 0.363104
0.251102 0.586572 0.364660
0.287236 0.593439 0.366827
0.295872 0.603174 0.349310
0.330297 0.611810 0.346227
0.374395 0.619593 0.348363
0.419745 0.627314 0.350378
0.465248 0.631220 0.343328
0.510979 0.632563 0.330846
0.556451 0.633295 0.317479
0.601129 0.633692 0.303288
0.644770 0.634180 0.288548
0.703456 0.650050 0.270939
0.757900 0.669825 0.265446
0.802640 0.685328 0.268223
0.841306 0.698390 0.272953
0.874693 0.709377 0.279667
0.903563 0.718624 0.287938
0.928923 0.726772 0.297765
0.951415 0.734188 0.309239
0.971557 0.741390 0.323339
0.989868 0.748653 0.340124
1.000000 0.754635 0.358282
1.000000 0.760616 0.379278
1.000000 0.767544 0.404761
0.079164 0.595758 0.376318
0.085359 0.599329 0.378393
0.092714 0.603052 0.380499
0.109071 0.606867 0.382361
0.131716 0.610498 0.383917
0.158053 0.613611 0.384894
0.187442 0.616602 0.385626
0.218967 0.620294 0.386603
0.253635 0.625055 0.388098
0.291417 0.630945 0.390082
0.317174 0.638758 0.383276
0.333165 0.647883 0.367193
0.378149 0.654658 0.369574
0.423835 0.661402 0.371954
0.469398 0.667781 0.374151
0.513329 0.669032 0.362432
0.557336 0.669398 0.348699
0.600885 0.669520 0.334325
0.643793 0.669764 0.319249
0.685878 0.670558 0.303838
0.740536 0.684749 0.286229
0.791714 0.703487 0.281376
0.831968 0.716915 0.287236
0.866575 0.727962 0.295048
0.896483 0.737118 0.304417
0.922606 0.745022 0.315160
0.945678 0.752102 0.327764
0.966339 0.758968 0.342840
0.985016 0.765866 0.360784
1.000000 0.772976 0.382025
1.000000 0.780117 0.406622
1.000000 0.786252 0.432898
0.039185 0.637568 0.402106
0.059266 0.640864 0.404181
0.072663 0.644404 0.406256
0.096315 0.647883 0.408270
0.124483 0.651209 0.409888
0.155001 0.653803 0.410803
0.187289 0.656336 0.411414
0.221469 0.659297 0.412207
0.258244 0.663111 0.413581
0.297795 0.667750 0.415503
0.340032 0.673396 0.418311
0.350469 0.681880 0.399542
0.383093 0.688746 0.392767
0.429175 0.694606 0.395453
0.474769 0.700557 0.398322
0.519097 0.705684 0.398413
0.562493 0.706905 0.385473
0.606134 0.708186 0.371832
0.649622 0.709651 0.357794
0.692317 0.711452 0.343359
0.733669 0.713588 0.328252
0.784024 0.726192 0.311894
0.830259 0.742428 0.308843
0.865721 0.753597 0.319371
0.896178 0.762692 0.331487
0.922484 0.770260 0.345068
0.945556 0.776944 0.360449
0.966064 0.783230 0.378027
0.984405 0.789548 0.398444
1.000000 0.795987 0.422004
1.000000 0.802762 0.449287
1.000000 0.810025 0.480873
0.000000 0.690578 0.438758
0.010864 0.692226 0.439765
0.053468 0.693660 0.440681
0.088930 0.695247 0.441505
0.123537 0.696895 0.442145
0.158358 0.698543 0.442664
0.193820 0.700465 0.443214
0.230991 0.703090 0.444373
0.270512 0.706569 0.446082
0.312505 0.710872 0.448768
0.357214 0.715908 0.452308
0.387060 0.722438 0.446296
0.399542 0.730404 0.425940
0.445686 0.735164 0.429145
0.490517 0.739712 0.432380
0.534081 0.744350 0.435889
0.575433 0.747066 0.431983
0.615961 0.747372 0.418006
0.656489 0.747768 0.403632
0.696498 0.748196 0.388495
0.735348 0.748806 0.372808
0.772702 0.749599 0.356512
0.816617 0.758572 0.339635
0.857481 0.771481 0.335851
0.888609 0.780209 0.348638
0.915740 0.787655 0.363317
0.939544 0.794247 0.380011
0.960632 0.800412 0.399054
0.979370 0.806516 0.420966
0.995972 0.812711 0.445899
1.000000 0.819150 0.474556
1.000000 0.826230 0.507530
0.000000 0.730251 0.468605
0.000946 0.731838 0.469795
0.052491 0.733303 0.470771
0.092805 0.734737 0.471717
0.129427 0.736141 0.472389
0.166018 0.737270 0.472755
0.203311 0.738582 0.473213
0.241733 0.740383 0.474128
0.282597 0.742824 0.475807
0.325719 0.745937 0.478340
0.370977 0.749538 0.482094
0.417762 0.753414 0.487098
0.429511 0.760128 0.468971
0.457343 0.765621 0.459663
0.501122 0.769314 0.463478
0.543511 0.773129 0.467750
0.584466 0.777096 0.472511
0.622522 0.778561 0.464607
0.660395 0.778927 0.450904
0.698116 0.779385 0.436683
0.735378 0.779965 0.421820
0.771572 0.780697 0.406378
0.806424 0.781582 0.390295
0.846189 0.788876 0.373816
0.879179 0.795468 0.362799
0.907317 0.802884 0.378210
0.932067 0.809567 0.396033
0.953887 0.815702 0.416236
0.973205 0.821653 0.439216
0.990326 0.827726 0.465614
1.000000 0.834165 0.496162
1.000000 0.841154 0.530694
0.059541 0.776303 0.507286
0.077882 0.777798 0.508690
0.095705 0.778744 0.509453
0.123934 0.779385 0.509972
0.156344 0.779812 0.510124
0.191012 0.779995 0.510155
0.227848 0.780209 0.510216
0.266392 0.780514 0.510552
0.307042 0.781125 0.511498
0.349584 0.782223 0.513542
0.393561 0.783536 0.516716
0.439033 0.785336 0.521538
0.468452 0.788724 0.516991
0.477424 0.794064 0.496254
0.515435 0.796262 0.497505
0.554406 0.798306 0.500725
0.592065 0.800565 0.504479
0.628717 0.803433 0.509300
0.662501 0.803677 0.496376
0.697353 0.804227 0.482979
0.732326 0.804990 0.469398
0.766781 0.805692 0.454902
0.800046 0.806180 0.439307
0.831907 0.806363 0.422126
0.867277 0.811460 0.404578
0.901122 0.820432 0.398016
0.926207 0.826596 0.416449
0.948272 0.832212 0.437232
0.967803 0.837736 0.461036
0.985138 0.843412 0.488411
1.000000 0.849577 0.519738
1.000000 0.856291 0.555230
0.107424 0.807675 0.536187
0.119783 0.808896 0.537530
0.133364 0.809720 0.538354
0.155886 0.810178 0.538933
0.184421 0.810391 0.539239
0.217105 0.810422 0.539513
0.252903 0.810452 0.540032
0.290837 0.810605 0.540948
0.331548 0.810941 0.542779
0.374151 0.811643 0.545708
0.418067 0.812497 0.550042
0.463539 0.813626 0.556298
0.509300 0.814817 0.564752
0.520348 0.819394 0.549523
0.539696 0.823026 0.538781
0.575769 0.824765 0.542687
0.610681 0.826658 0.547051
0.644617 0.828977 0.552361
0.676875 0.831266 0.554437
0.706996 0.831754 0.542046
0.737972 0.832334 0.529198
0.769009 0.832914 0.515557
0.799649 0.833310 0.500603
0.829587 0.833524 0.484291
0.858701 0.833494 0.466529
0.890654 0.837308 0.448768
0.921782 0.844999 0.441077
0.944091 0.850340 0.463600
0.963806 0.855619 0.489418
0.981140 0.860990 0.518395
0.996368 0.866819 0.550927
1.000000 0.873228 0.587518
0.162203 0.838499 0.567712
0.171206 0.839200 0.568688
0.180972 0.839536 0.569207
0.198611 0.839536 0.569543
0.222843 0.839200 0.569635
0.252049 0.838773 0.569848
0.285222 0.838254 0.570336
0.321569 0.837858 0.571588
0.360754 0.837705 0.573816
0.402075 0.837797 0.577508
0.445319 0.837980 0.582757
0.489937 0.838499 0.590295
0.534142 0.839017 0.599512
0.562097 0.841154 0.599268
0.570611 0.845274 0.583520
0.598169 0.847166 0.583307
0.629603 0.848569 0.587579
0.660273 0.850370 0.592706
0.690425 0.852689 0.599023
0.717922 0.854368 0.597253
0.744503 0.854978 0.585687
0.771756 0.855589 0.573449
0.799222 0.856077 0.560082
0.826658 0.856352 0.545464
0.853758 0.856443 0.529320
0.880400 0.856352 0.511589
0.909514 0.859342 0.494209
0.938628 0.866300 0.484993
0.958312 0.870848 0.510918
0.976013 0.876005 0.540673
0.991455 0.881437 0.573693
1.000000 0.887480 0.610712
0.212100 0.864195 0.596338
0.218875 0.864561 0.597040
0.227024 0.864775 0.597528
0.242618 0.864744 0.598047
0.265232 0.864591 0.598901
0.293339 0.864530 0.600244
0.326848 0.864775 0.602747
0.364172 0.865171 0.606317
0.405066 0.865751 0.611536
0.448280 0.866453 0.618494
0.493050 0.867094 0.627253
0.537560 0.867735 0.637751
0.580896 0.868315 0.649775
0.622370 0.868681 0.663233
0.633173 0.872313 0.654505
0.645869 0.875395 0.646204
0.672206 0.876555 0.651026
0.697993 0.877989 0.656306
0.723384 0.879759 0.662684
0.748043 0.881895 0.669947
0.769223 0.883085 0.664363
0.790524 0.883787 0.653590
0.812711 0.884337 0.641779
0.835569 0.884672 0.628809
0.858854 0.884855 0.614649
0.882322 0.884916 0.599207
0.905974 0.884947 0.582483
0.931701 0.887205 0.566064
0.958251 0.893370 0.556481
0.974548 0.896757 0.584924
0.989258 0.901488 0.618616
1.000000 0.906798 0.655665
0.290410 0.894713 0.636164
0.295781 0.894865 0.636713
0.301976 0.894774 0.637018
0.314580 0.894377 0.637507
0.333410 0.893797 0.638331
0.357519 0.893095 0.639765
0.386542 0.892393 0.642145
0.419654 0.891722 0.645686
0.456397 0.891020 0.650660
0.495125 0.890379 0.657191
0.534508 0.889708 0.665095
0.574304 0.889128 0.674678
0.613306 0.888487 0.685878
0.651057 0.887877 0.698665
