data/fiter_cube/69180065/1023051/file.cube
# Created by Adobe Lightroom plugin Export LUT (1.17.0)
# www.johnrellis.com/lightroom/exportlut.htm
# Preset: 室内文艺胶片_04 云集
# Color profile: C:\Program Files (x86)\Common Files\Adobe\Color\Profiles\Recommended\AdobeRGB1998.icc
LUT_3D_SIZE 5
DOMAIN_MIN 0.000000 0.000000 0.000000
DOMAIN_MAX 0.903226 0.903226 0.903226
0.056275 0.073884 0.070130
0.235752 0.103731 0.084535
0.476600 0.124300 0.102113
0.825528 0.317571 0.130861
1.000000 0.495674 0.147829
0.043915 0.218235 0.145418
0.201541 0.236454 0.135683
0.472236 0.255619 0.151797
0.821561 0.399969 0.156680
1.000000 0.544854 0.173281
0.133547 0.381476 0.266667
0.212253 0.398444 0.276890
0.449439 0.465949 0.245304
0.833860 0.598749 0.213779
0.995605 0.663478 0.252567
0.000000 0.690578 0.438758
0.230991 0.703090 0.444373
0.490517 0.739712 0.432380
0.772702 0.749599 0.356512
0.979370 0.806516 0.420966
0.344884 0.915068 0.664912
0.465919 0.911437 0.677668
0.694789 0.898955 0.729580
0.811551 0.914427 0.747768
0.935302 0.920134 0.680507
0.017517 0.113130 0.219425
0.213260 0.151980 0.213169
0.419745 0.214084 0.240330
0.770901 0.295109 0.245182
0.985168 0.475257 0.246036
0.081422 0.225071 0.239750
0.213382 0.246281 0.250065
0.433722 0.276066 0.256291
0.777401 0.368780 0.253513
0.985321 0.522210 0.262730
0.154055 0.378790 0.302556
0.228428 0.397955 0.316899
0.429816 0.445930 0.299992
0.805295 0.572320 0.297520
0.985473 0.655848 0.339117
0.103609 0.684047 0.473243
0.258793 0.696620 0.483162
0.505791 0.732784 0.485328
0.767025 0.745296 0.422339
0.972625 0.806210 0.493507
0.343206 0.912718 0.683131
0.462623 0.909209 0.694209
0.707057 0.902922 0.753872
0.821988 0.915709 0.777707
0.934600 0.921599 0.718715
0.093507 0.189151 0.369055
0.205875 0.208743 0.366522
0.437415 0.241611 0.381537
0.750973 0.256352 0.408484
0.963195 0.453254 0.462409
0.142702 0.266331 0.387915
0.221256 0.272190 0.388281
0.443397 0.298314 0.400183
0.742916 0.321691 0.418769
0.964630 0.502342 0.474708
0.131777 0.418006 0.432807
0.224765 0.426856 0.436774
0.481758 0.484443 0.481483
0.767025 0.537316 0.486488
0.964141 0.643183 0.531701
0.146212 0.667659 0.556268
0.274723 0.672602 0.561364
0.539239 0.711452 0.605402
0.763973 0.745815 0.590784
0.956542 0.809781 0.659449
0.356359 0.901579 0.738430
0.454932 0.901335 0.745327
0.670710 0.899413 0.774502
0.826841 0.909300 0.815915
0.927794 0.917693 0.780392
0.068238 0.255070 0.616938
0.230472 0.256901 0.615381
0.476509 0.251225 0.608423
0.759335 0.347295 0.641901
0.944182 0.553643 0.699489
0.003845 0.315068 0.632502
0.223575 0.315160 0.630274
0.476997 0.311559 0.620386
0.753017 0.404425 0.646998
0.938811 0.577020 0.702693
0.000000 0.494270 0.663905
0.202029 0.493507 0.664271
0.476112 0.493721 0.670466
0.745632 0.553460 0.677729
0.930022 0.656947 0.725154
0.085206 0.704463 0.724269
0.255528 0.703182 0.722499
0.513237 0.712642 0.731106
0.775204 0.759426 0.772824
0.933806 0.794553 0.782223
0.372198 0.895933 0.823362
0.457099 0.894255 0.824338
0.652461 0.891814 0.832181
0.821561 0.901915 0.858915
0.925170 0.917540 0.855772
0.248844 0.348302 0.874266
0.362493 0.347051 0.872007
0.583154 0.349157 0.865629
0.784543 0.387427 0.857053
0.930205 0.632563 0.851072
0.220859 0.405951 0.874662
0.344060 0.404730 0.872526
0.573022 0.405829 0.866209
0.774685 0.427558 0.854856
0.927062 0.654719 0.853422
0.042420 0.566033 0.881804
0.244663 0.555688 0.880034
0.541558 0.558495 0.873381
0.755581 0.559075 0.860960
0.922820 0.725582 0.867491
0.223148 0.754299 0.894530
0.316899 0.750118 0.892821
0.520928 0.740475 0.889982
0.754238 0.749386 0.886748
0.922118 0.821103 0.894469
0.423621 0.894926 0.915557
0.482307 0.894102 0.915435
0.639796 0.893645 0.916197
0.795987 0.897704 0.917540
0.928557 0.921324 0.931762
