data/fiter_cube/69180065/1023051/file.cube
# Created by Adobe Lightroom plugin Export LUT (1.17.0)
# www.johnrellis.com/lightroom/exportlut.htm
# Preset: 室内文艺胶片_04 云集
# Color profile: C:\Program Files (x86)\Common Files\Adobe\Color\Profiles\Recommended\AdobeRGB1998.icc
LUT_3D_SIZE 8
DOMAIN_MIN 0.000000 0.000000 0.000000
DOMAIN_MAX 0.903226 0.903226 0.903226
0.056275 0.073884 0.070130
0.132509 0.093080 0.079469
0.260929 0.104921 0.085573
0.387945 0.111238 0.092714
0.573022 0.151553 0.111940
0.783413 0.281041 0.129244
0.916442 0.405676 0.134920
1.000000 0.495674 0.147829
0.062470 0.130098 0.100252
0.117708 0.146517 0.095125
0.255283 0.152377 0.096010
0.377356 0.156405 0.106874
0.559625 0.192966 0.126101
0.762509 0.296361 0.138277
0.903990 0.412543 0.139162
0.995117 0.502434 0.149813
0.056336 0.240909 0.161959
0.124941 0.244572 0.176699
0.222232 0.257206 0.156374
0.380835 0.272892 0.160128
0.580957 0.314061 0.168826
0.776669 0.396460 0.165011
0.918853 0.489967 0.162203
1.000000 0.556481 0.179141
0.120363 0.325963 0.233524
0.156039 0.327703 0.240940
0.214755 0.343236 0.241672
0.352819 0.380194 0.227115
0.615320 0.466865 0.209873
0.808713 0.535912 0.195010
0.922393 0.583398 0.198093
0.998657 0.624750 0.222629
0.128054 0.460334 0.305516
0.156283 0.464790 0.307225
0.239963 0.486152 0.313420
0.352850 0.527733 0.302464
0.542504 0.545464 0.261875
0.772122 0.623377 0.237705
0.913695 0.677089 0.252171
0.993591 0.706355 0.293248
0.039185 0.637568 0.402106
0.124483 0.651209 0.409888
0.258244 0.663111 0.413581
0.383093 0.688746 0.392767
0.562493 0.706905 0.385473
0.733669 0.713588 0.328252
0.896178 0.762692 0.331487
0.984405 0.789548 0.398444
0.107424 0.807675 0.536187
0.184421 0.810391 0.539239
0.331548 0.810941 0.542779
0.509300 0.814817 0.564752
0.610681 0.826658 0.547051
0.737972 0.832334 0.529198
0.858701 0.833494 0.466529
0.963806 0.855619 0.489418
0.344884 0.915068 0.664912
0.384070 0.913848 0.667933
0.500328 0.910521 0.683467
0.648859 0.907134 0.722347
0.712703 0.904906 0.718044
0.793484 0.912322 0.743740
0.861112 0.917937 0.726406
0.935302 0.920134 0.680507
0.061158 0.093568 0.131624
0.123659 0.102327 0.130739
0.239963 0.141054 0.151034
0.353521 0.176028 0.174289
0.534966 0.202396 0.186069
0.740078 0.273960 0.187503
0.892546 0.385779 0.178683
0.988800 0.481453 0.180270
0.050904 0.140169 0.146304
0.123690 0.153964 0.154208
0.237766 0.179721 0.168856
0.352758 0.200809 0.182498
0.534020 0.228214 0.191958
0.732601 0.294163 0.190677
0.883513 0.395758 0.180148
0.982666 0.487648 0.180575
0.081483 0.238285 0.190890
0.144656 0.243412 0.207187
0.223270 0.256535 0.204746
0.362707 0.278935 0.208927
0.549462 0.310918 0.210391
0.743496 0.376196 0.202731
0.892424 0.464027 0.193606
0.987945 0.539910 0.202548
0.136385 0.319188 0.247288
0.168124 0.322759 0.254917
0.222568 0.339666 0.257969
0.337194 0.364813 0.244724
0.565087 0.431006 0.233494
0.762783 0.497047 0.221714
0.896300 0.556390 0.218906
0.985809 0.609277 0.237980
0.142367 0.456092 0.317144
0.167056 0.458900 0.318090
0.243442 0.476081 0.323552
0.344671 0.508659 0.314183
0.516472 0.522515 0.275975
0.748348 0.602411 0.257542
0.901244 0.664515 0.271519
0.985626 0.697414 0.307652
0.087465 0.623682 0.405921
0.138247 0.627649 0.407416
0.254307 0.640681 0.412116
0.374792 0.670100 0.397436
0.551598 0.694392 0.396857
0.725826 0.706508 0.345220
0.889738 0.756924 0.349889
0.979187 0.784451 0.410468
0.096712 0.792203 0.531487
0.166537 0.791257 0.530236
0.312779 0.794797 0.535149
0.492531 0.803738 0.558526
0.604028 0.819059 0.549126
0.730495 0.825345 0.533349
0.849790 0.824918 0.467933
0.957244 0.848173 0.487037
0.325444 0.909514 0.662074
0.368353 0.909239 0.666163
0.487404 0.906645 0.681361
0.638941 0.904051 0.719142
0.728634 0.907561 0.737972
0.798276 0.913176 0.754299
0.860105 0.916533 0.731655
0.932677 0.917479 0.681819
0.008148 0.121279 0.243503
0.110994 0.129824 0.242771
0.234928 0.175082 0.235935
0.344274 0.208774 0.248814
0.521172 0.222049 0.261662
0.729915 0.273808 0.269413
0.889525 0.378546 0.269169
0.987793 0.478584 0.277653
0.079042 0.170047 0.249149
0.139620 0.184482 0.248844
0.231418 0.207889 0.245762
0.338872 0.226352 0.254887
0.518090 0.243412 0.265812
0.722896 0.292699 0.270146
0.883452 0.391211 0.268833
0.984649 0.488319 0.278264
0.105776 0.246494 0.260746
0.156008 0.251957 0.261906
0.237797 0.269841 0.273198
0.350683 0.283665 0.274632
0.542168 0.313817 0.281376
0.736172 0.370245 0.281163
0.886625 0.455116 0.281559
0.983581 0.534752 0.294987
0.151522 0.322942 0.285313
0.179446 0.327642 0.290745
0.247471 0.349004 0.307408
0.355444 0.378637 0.302831
0.577173 0.438605 0.305486
0.758663 0.492226 0.305486
0.894072 0.554345 0.312139
0.983276 0.609979 0.333745
0.150454 0.455665 0.350011
0.178744 0.461555 0.354559
0.261784 0.482368 0.368200
0.372930 0.519829 0.372808
0.535485 0.536950 0.342779
0.753567 0.607355 0.339300
0.898131 0.664485 0.364080
0.980407 0.697780 0.397009
0.112520 0.622248 0.440986
0.163394 0.626673 0.444739
0.276402 0.638941 0.453712
0.426307 0.662104 0.469368
0.558068 0.691035 0.459052
0.719814 0.701472 0.409003
0.882872 0.753445 0.424903
0.974517 0.788022 0.493812
0.144686 0.793606 0.566735
0.202945 0.793515 0.567285
0.333593 0.794614 0.570916
0.498390 0.800320 0.589319
0.616175 0.814237 0.590539
0.735378 0.824582 0.588830
0.850645 0.828061 0.534997
0.955993 0.854246 0.565362
0.327855 0.908171 0.682856
0.360784 0.906798 0.683436
0.477119 0.903624 0.695033
0.634546 0.902739 0.731838
0.746700 0.903075 0.766751
0.804532 0.911803 0.774746
0.863371 0.916838 0.761349
0.932128 0.919036 0.719966
0.067903 0.162600 0.319249
0.125032 0.173953 0.319677
0.224796 0.197269 0.317052
0.348455 0.228214 0.323095
0.528191 0.231388 0.340093
0.701259 0.222995 0.342382
0.862791 0.332403 0.366888
0.972290 0.454261 0.389990
0.125704 0.208743 0.326970
0.158938 0.215213 0.326452
0.233127 0.224338 0.323705
0.350011 0.245212 0.329168
0.527123 0.250065 0.344793
0.694881 0.255009 0.350195
0.860380 0.352209 0.369055
0.971191 0.466102 0.390417
0.140383 0.266209 0.338567
0.169619 0.271305 0.339452
0.240482 0.280430 0.344274
0.357153 0.297551 0.349645
0.529564 0.309087 0.362982
0.714290 0.348943 0.378637
0.876921 0.440833 0.399756
0.975891 0.526726 0.417243
0.145174 0.347784 0.362036
0.171969 0.351232 0.363622
0.247471 0.365087 0.372290
0.387488 0.403296 0.402045
0.551934 0.421668 0.400244
0.730129 0.468086 0.408637
0.876432 0.535790 0.424201
0.973114 0.603662 0.451301
0.147555 0.466041 0.410498
0.179202 0.468574 0.411994
0.271031 0.483711 0.422980
0.412390 0.525628 0.458259
0.558526 0.554803 0.448035
0.759609 0.614923 0.462501
0.886442 0.658839 0.484565
0.970459 0.698085 0.514000
0.136995 0.628168 0.499916
0.185428 0.638972 0.509575
0.299290 0.648066 0.518669
0.451026 0.670161 0.541314
0.592554 0.702815 0.557702
0.729305 0.711574 0.517327
0.878996 0.757809 0.543359
0.966674 0.794705 0.605158
0.176822 0.790188 0.613855
0.229557 0.792294 0.616846
0.357122 0.797177 0.625544
0.514122 0.804379 0.644190
0.661769 0.814939 0.674159
0.753170 0.829618 0.677150
0.849821 0.830716 0.622797
0.949828 0.857511 0.654444
0.361852 0.907988 0.724025
0.395148 0.907744 0.726284
0.486213 0.905669 0.732235
0.619043 0.902556 0.751522
0.749722 0.900755 0.789700
0.812284 0.909941 0.802029
0.867643 0.917052 0.799374
0.930907 0.920256 0.765743
0.104952 0.211795 0.427527
0.146029 0.216648 0.427710
0.237736 0.225986 0.424201
0.354620 0.232212 0.423468
0.537774 0.256626 0.451148
0.721950 0.286870 0.476539
0.857298 0.333196 0.489143
0.951415 0.461677 0.536278
0.129732 0.239628 0.434943
0.161105 0.242039 0.436164
0.243931 0.245975 0.432593
0.357580 0.248569 0.429969
0.537102 0.275822 0.454932
0.720668 0.307652 0.480568
0.856077 0.351904 0.492775
0.951354 0.475624 0.539269
0.134615 0.297032 0.452308
0.165225 0.298955 0.453193
0.246677 0.300847 0.454200
0.366125 0.303441 0.451637
0.535607 0.335668 0.468269
0.709499 0.365606 0.488380
0.848020 0.402564 0.499519
0.949950 0.514397 0.543420
0.122866 0.383734 0.476570
0.156924 0.385504 0.477150
0.247105 0.393713 0.483467
0.384436 0.408453 0.498299
0.550317 0.437110 0.505974
0.709895 0.458076 0.515923
0.847654 0.507897 0.533837
0.954467 0.585199 0.560204
0.103334 0.497414 0.511772
0.149477 0.500023 0.513146
0.256596 0.507927 0.517327
0.400427 0.527977 0.532494
0.577905 0.569512 0.568536
0.726864 0.585748 0.562554
0.859617 0.630182 0.577600
0.954223 0.682338 0.605127
0.108980 0.618067 0.558892
0.162417 0.620600 0.560815
0.280461 0.627070 0.565698
0.430426 0.643915 0.581628
0.588678 0.677729 0.617273
0.725277 0.708949 0.616602
0.870695 0.758206 0.653986
0.953307 0.789700 0.688777
0.201297 0.780575 0.665217
0.245396 0.780301 0.665187
0.356817 0.783047 0.670253
0.498512 0.791257 0.684565
0.644678 0.803922 0.709468
0.759426 0.824338 0.737636
0.843778 0.827756 0.700191
0.941405 0.856535 0.729183
0.366400 0.898192 0.759640
0.393927 0.897490 0.760342
0.476661 0.895842 0.763851
0.600122 0.898436 0.779202
0.718532 0.898100 0.798611
0.816800 0.904448 0.828153
0.869505 0.915099 0.833524
0.927184 0.917998 0.802853
0.079316 0.248692 0.583429
0.141360 0.249851 0.582574
0.258122 0.251011 0.576471
0.396887 0.249760 0.575586
0.552056 0.253605 0.581323
0.723995 0.323339 0.607233
0.863951 0.436164 0.639673
0.947845 0.536767 0.672358
0.087648 0.267185 0.581750
0.143221 0.267613 0.580346
0.257237 0.268498 0.577783
0.392554 0.266575 0.573816
0.545953 0.270970 0.578637
0.718715 0.340124 0.605707
0.860563 0.447517 0.640009
0.945861 0.543297 0.672633
0.074769 0.332616 0.605737
0.130159 0.330114 0.604822
0.255253 0.329229 0.602533
0.400153 0.328313 0.597162
0.549737 0.332616 0.594415
0.719509 0.405280 0.619196
0.856840 0.498054 0.652552
0.942412 0.576623 0.682612
0.000000 0.434943 0.629389
0.116213 0.433845 0.628046
0.246067 0.433814 0.630304
0.409064 0.439216 0.639277
0.565820 0.441779 0.633753
0.730831 0.510552 0.653956
0.855192 0.575769 0.678828
0.938872 0.629847 0.701564
0.000000 0.548058 0.648646
0.108064 0.548974 0.649287
0.252293 0.552300 0.651911
0.404974 0.559411 0.660182
0.570306 0.570825 0.672877
0.726986 0.607416 0.680842
0.843015 0.637629 0.690974
0.931609 0.684108 0.714229
0.018585 0.660304 0.678157
0.140078 0.663416 0.680995
0.279179 0.666682 0.683467
0.429389 0.673762 0.689662
0.582574 0.688380 0.702571
0.744503 0.728298 0.739284
0.851408 0.745174 0.740261
0.938842 0.778225 0.758175
0.178531 0.787839 0.741878
0.230900 0.789731 0.744106
0.350317 0.791073 0.746273
0.494331 0.794247 0.751553
0.638758 0.800351 0.761929
0.765499 0.818570 0.789700
0.846555 0.833036 0.784512
0.939117 0.864530 0.811002
0.378637 0.896025 0.810208
0.404578 0.895018 0.809934
0.483680 0.892485 0.810391
0.594629 0.891234 0.815488
0.702022 0.892790 0.826535
0.800534 0.899107 0.845304
0.874479 0.914092 0.867674
0.925780 0.917998 0.845884
0.086458 0.284215 0.745632
0.164645 0.284794 0.746914
0.302739 0.282811 0.743618
0.452216 0.277592 0.738796
0.589532 0.273594 0.729183
0.735500 0.316289 0.740688
0.850584 0.455848 0.744320
0.937530 0.620722 0.779843
0.066743 0.301061 0.741817
0.154055 0.301549 0.742733
0.294652 0.299504 0.739834
0.443519 0.294133 0.733700
0.581353 0.289891 0.723964
0.726436 0.327550 0.733791
0.843748 0.458412 0.738491
0.933501 0.615442 0.773922
0.000000 0.365026 0.756893
0.097505 0.361303 0.756344
0.281071 0.362249 0.752071
0.439246 0.358495 0.745846
0.581170 0.355077 0.735378
0.724727 0.388403 0.741451
0.843961 0.513176 0.749844
0.933013 0.652461 0.787625
0.000000 0.478462 0.773617
0.070100 0.474891 0.771725
0.251408 0.465797 0.769009
0.428321 0.463264 0.766873
0.581872 0.460792 0.758145
0.723323 0.481758 0.757839
0.844694 0.592157 0.769314
0.930907 0.696162 0.802731
0.000000 0.592523 0.782071
0.067140 0.590326 0.780606
0.245914 0.584955 0.778714
0.398199 0.577569 0.779324
0.569665 0.577996 0.778592
0.707851 0.577630 0.769406
0.837522 0.664759 0.783993
0.926024 0.736324 0.813840
0.064027 0.701411 0.798245
0.150454 0.701106 0.798215
0.287633 0.700191 0.798215
0.432349 0.700099 0.799741
0.577478 0.701900 0.802518
0.726070 0.717678 0.809934
0.842039 0.756130 0.817472
0.922606 0.783688 0.829099
0.221317 0.798703 0.821714
0.261662 0.799313 0.822507
0.362890 0.799161 0.822904
0.489540 0.800076 0.824460
0.619715 0.802182 0.826291
0.744106 0.812009 0.833249
0.851865 0.839017 0.854704
0.927398 0.852293 0.856352
0.339055 0.893248 0.860197
0.365148 0.893004 0.860288
0.456611 0.894255 0.863371
0.568627 0.893065 0.864866
0.685634 0.891630 0.867155
0.788083 0.894682 0.873960
0.870817 0.907683 0.891051
0.926116 0.919036 0.889006
0.248844 0.348302 0.874266
0.289281 0.348760 0.874357
0.391791 0.346654 0.871153
0.519554 0.347234 0.867918
0.643488 0.352331 0.862547
0.753414 0.366125 0.855100
0.869291 0.473487 0.864927
0.930205 0.632563 0.851072
0.238376 0.364721 0.872648
0.280125 0.365148 0.872740
0.385473 0.363195 0.870085
0.513603 0.362676 0.866300
0.638758 0.366949 0.860960
0.749599 0.379065 0.853544
0.865476 0.479530 0.862577
0.928130 0.635065 0.849912
0.199893 0.420600 0.874418
0.252934 0.422522 0.873960
0.365393 0.419440 0.870512
0.504356 0.422736 0.869322
0.631922 0.424750 0.863432
0.743771 0.431708 0.855161
0.859770 0.516869 0.862638
0.925780 0.660426 0.853696
0.099489 0.510033 0.879606
0.179721 0.509422 0.879637
0.323369 0.505852 0.877226
0.485878 0.511925 0.874174
0.621546 0.513359 0.869291
0.738033 0.517845 0.862150
0.852811 0.578454 0.866361
0.924163 0.702846 0.862638
0.084779 0.622858 0.884001
0.158694 0.621607 0.884337
0.280278 0.613092 0.882963
0.422919 0.598932 0.880980
0.602106 0.610681 0.875853
0.725246 0.610986 0.869230
0.839597 0.644556 0.869322
0.922423 0.752224 0.874418
0.183627 0.727565 0.890257
0.219883 0.725826 0.889494
0.315801 0.720668 0.887663
0.437232 0.713313 0.885954
0.569024 0.705837 0.884672
0.724941 0.721889 0.883452
0.830533 0.730861 0.880735
0.922942 0.808957 0.891295
0.296818 0.818814 0.901122
0.321172 0.817990 0.900664
0.394873 0.815579 0.899504
0.501030 0.813474 0.898833
0.620081 0.812924 0.898253
0.733822 0.816983 0.898955
0.838132 0.830014 0.902617
0.921538 0.860685 0.906798
0.423621 0.894926 0.915557
0.441230 0.894530 0.915373
0.501213 0.894041 0.915618
0.591058 0.893706 0.916106
0.687160 0.893919 0.916289
0.775357 0.896452 0.917082
0.854612 0.903410 0.920165
0.928557 0.921324 0.931762
