data/fiter_cube/21023058/1023007/file.cube
# Created by Adobe Lightroom plugin Export LUT (1.17.0)
# www.johnrellis.com/lightroom/exportlut.htm
# Preset: 温暖焦糖婚礼婚纱_03 云集
# Color profile: C:\Program Files (x86)\Common Files\Adobe\Color\Profiles\Recommended\AdobeRGB1998.icc
LUT_3D_SIZE 32
DOMAIN_MIN 0.0 0.0 0.0
DOMAIN_MAX 1.0 1.0 1.0
0.029511 0.057588 0.054475
0.032227 0.057252 0.054444
0.037263 0.057465 0.055146
0.053407 0.057832 0.055573
0.066529 0.057923 0.057465
0.080598 0.057801 0.058869
0.098787 0.055940 0.059937
0.124483 0.048524 0.060609
0.159335 0.024140 0.060700
0.203281 0.000000 0.060670
0.257176 0.000000 0.059144
0.317266 0.000000 0.054261
0.380407 0.000000 0.046052
0.443793 0.000000 0.033631
0.503746 0.000000 0.019715
0.558434 0.000000 0.006348
0.607416 0.000000 0.000000
0.650843 0.000000 0.000000
0.689235 0.000000 0.000000
0.724239 0.000000 0.000000
0.756405 0.000000 0.000000
0.785336 0.000000 0.000824
0.811917 0.000000 0.033722
0.836118 0.000000 0.069184
0.858701 0.000000 0.096071
0.880095 0.000000 0.125643
0.900237 0.152621 0.158328
0.919036 0.223819 0.196078
0.936492 0.279606 0.237583
0.952422 0.329412 0.283146
0.966857 0.375189 0.331518
0.979675 0.418982 0.382391
0.031830 0.058137 0.055207
0.032807 0.058747 0.055940
0.038117 0.059358 0.054932
0.053742 0.060029 0.056092
0.067140 0.060487 0.057893
0.081453 0.060304 0.059083
0.100069 0.059632 0.060121
0.126864 0.051179 0.060792
0.162264 0.028534 0.060761
0.207401 0.000000 0.060121
0.261906 0.000000 0.058900
0.322850 0.000000 0.053407
0.386450 0.000000 0.045075
0.449836 0.000000 0.030915
0.509789 0.000000 0.017487
0.563989 0.000000 0.003418
0.612543 0.000000 0.000000
0.655634 0.000000 0.000000
0.693629 0.000000 0.000000
0.728237 0.000000 0.000000
0.759945 0.000000 0.000000
0.788449 0.000000 0.002380
0.814511 0.000000 0.036744
0.838437 0.000000 0.071504
0.860685 0.000000 0.097993
0.881865 0.050507 0.128145
0.901762 0.167758 0.161471
0.920317 0.234287 0.199649
0.937591 0.287968 0.240879
0.953399 0.335973 0.286473
0.967651 0.380621 0.335088
0.980346 0.423651 0.385504
0.033234 0.060121 0.057343
0.035584 0.060426 0.058076
0.036774 0.060792 0.057984
0.054902 0.062745 0.056458
0.068666 0.063020 0.058259
0.082612 0.063325 0.059236
0.101869 0.062379 0.060243
0.129122 0.056580 0.060426
0.165255 0.035126 0.060700
0.210880 0.000000 0.059998
0.265843 0.000000 0.058564
0.327153 0.000000 0.052369
0.390784 0.000000 0.043183
0.453956 0.000000 0.029664
0.513359 0.000000 0.014557
0.567498 0.000000 0.001129
0.615595 0.000000 0.000000
0.658320 0.000000 0.000000
0.696132 0.000000 0.000000
0.730404 0.000000 0.000000
0.761715 0.000000 0.000000
0.789944 0.000000 0.001068
0.815732 0.000000 0.034546
0.839384 0.000000 0.071717
0.861570 0.000000 0.098970
0.882658 0.090608 0.129488
0.902434 0.180819 0.163180
0.920897 0.243168 0.200900
0.938048 0.294835 0.243168
0.953735 0.341588 0.288548
0.967926 0.385473 0.337377
0.980591 0.427741 0.387732
0.042725 0.065400 0.061311
0.046021 0.066041 0.062074
0.046235 0.066041 0.061646
0.051270 0.066499 0.061524
0.067567 0.068391 0.060151
0.084077 0.069490 0.059510
0.104219 0.068330 0.060029
0.132113 0.064759 0.060487
0.168643 0.052247 0.060243
0.215030 0.005402 0.059693
0.270451 0.000000 0.056580
0.332341 0.000000 0.050538
0.395727 0.000000 0.039979
0.458625 0.000000 0.025513
0.517937 0.000000 0.010681
0.571344 0.000000 0.000000
0.619013 0.000000 0.000000
0.661585 0.000000 0.000000
0.699062 0.000000 0.000000
0.733333 0.000000 0.000000
0.764462 0.000000 0.000000
0.792233 0.000000 0.000000
0.817563 0.000000 0.033204
0.840665 0.000000 0.071595
0.862242 0.000000 0.099001
0.882841 0.128878 0.129183
0.902281 0.199954 0.163485
0.920592 0.256138 0.201358
0.937713 0.304784 0.243748
0.953460 0.349432 0.289494
0.967712 0.392096 0.338445
0.980499 0.433722 0.389502
0.054688 0.071443 0.066468
0.057160 0.072023 0.067170
0.059205 0.072969 0.067445
0.059358 0.072969 0.066651
0.065217 0.073732 0.065675
0.081025 0.076844 0.063630
0.108125 0.079103 0.060060
0.137514 0.077150 0.059815
0.175540 0.070008 0.059663
0.222873 0.046998 0.058717
0.279057 0.000000 0.053895
0.340459 0.000000 0.046906
0.404089 0.000000 0.033539
0.465827 0.000000 0.019043
0.523491 0.000000 0.003143
0.575341 0.000000 0.000000
0.621912 0.000000 0.000000
0.663355 0.000000 0.000000
0.700343 0.000000 0.000000
0.734340 0.000000 0.000000
0.765194 0.000000 0.000000
0.792905 0.000000 0.000000
0.817990 0.000000 0.022248
0.840909 0.000000 0.068513
0.862333 0.090608 0.097871
0.882811 0.170474 0.129610
0.902159 0.227604 0.164706
0.920470 0.276463 0.203159
0.937591 0.320653 0.245670
0.953338 0.362615 0.291661
0.967620 0.402869 0.340856
0.980346 0.442725 0.391974
0.063172 0.079622 0.072023
0.064912 0.080446 0.072969
0.066804 0.081819 0.073854
0.067323 0.082460 0.073060
0.069368 0.082551 0.072297
0.077272 0.083101 0.070985
0.099397 0.087678 0.068177
0.136385 0.092226 0.062867
0.181094 0.090303 0.058595
0.228977 0.079805 0.055116
0.285130 0.051423 0.049073
0.346380 0.000000 0.039094
0.408484 0.000000 0.025483
0.469795 0.000000 0.009461
0.526360 0.000000 0.000000
0.577478 0.000000 0.000000
0.623102 0.000000 0.000000
0.663783 0.000000 0.000000
0.700160 0.000000 0.000000
0.733761 0.000000 0.000000
0.764157 0.000000 0.000000
0.791653 0.000000 0.000000
0.800534 0.000000 0.000000
0.825528 0.000000 0.031495
0.848600 0.098054 0.076356
0.870481 0.169741 0.109224
0.891325 0.224887 0.144900
0.911040 0.272587 0.183841
0.929503 0.316472 0.226169
0.946502 0.358099 0.273442
0.962005 0.398291 0.323644
0.975921 0.438148 0.376226
0.070069 0.088960 0.078187
0.071443 0.089937 0.079042
0.073121 0.091188 0.080201
0.076295 0.093385 0.081147
0.075868 0.093477 0.079225
0.080354 0.094331 0.078035
0.091829 0.094942 0.076661
0.118776 0.100465 0.073610
0.164553 0.106783 0.066651
0.223178 0.106874 0.056153
0.277379 0.096620 0.047211
0.335515 0.075410 0.033265
0.397040 0.000000 0.019074
0.457893 0.000000 0.001221
0.515740 0.000000 0.000000
0.568109 0.000000 0.000000
0.614923 0.000000 0.000000
0.656428 0.000000 0.000000
0.693019 0.000000 0.000000
0.726223 0.000000 0.000000
0.755978 0.000000 0.000000
0.782620 0.000000 0.000000
0.806912 0.073243 0.000000
0.829374 0.133639 0.022278
0.850553 0.179324 0.075929
0.871427 0.222354 0.110323
0.891783 0.264256 0.146853
0.911254 0.303990 0.186862
0.929564 0.342077 0.230320
0.946563 0.379431 0.277745
0.962005 0.416358 0.328099
0.975860 0.453651 0.381506
0.080201 0.104189 0.088014
0.081666 0.105470 0.088716
0.084077 0.107118 0.089876
0.088869 0.110719 0.092103
0.089570 0.111818 0.090883
0.090303 0.111788 0.088960
0.099489 0.113130 0.087404
0.116152 0.114199 0.085573
0.151034 0.121004 0.082216
0.208316 0.129366 0.071870
0.277745 0.130861 0.057313
0.345647 0.124086 0.029938
0.405280 0.109194 0.009033
0.464302 0.089296 0.000000
0.520470 0.064210 0.000000
0.571679 0.012970 0.000000
0.617426 0.000000 0.000000
0.658228 0.000000 0.000000
0.694270 0.052094 0.000000
0.727077 0.087343 0.000000
0.756649 0.118379 0.000000
0.783169 0.147311 0.000000
0.807279 0.176761 0.000000
0.829648 0.206790 0.001740
0.850797 0.237369 0.071565
0.871550 0.269932 0.109163
0.891783 0.302892 0.148043
0.911162 0.336065 0.189792
0.929412 0.369055 0.234012
0.946319 0.402411 0.282200
0.961700 0.435981 0.333257
0.975525 0.470344 0.386297
0.095247 0.125063 0.100649
0.096986 0.126436 0.101411
0.099702 0.128237 0.102571
0.104952 0.132326 0.105257
0.110811 0.136538 0.107149
0.109346 0.136446 0.103761
0.112154 0.136141 0.101595
0.126497 0.138308 0.099428
0.148684 0.139742 0.096895
0.189944 0.146548 0.093568
0.257694 0.158450 0.079438
0.332891 0.163821 0.059998
0.410010 0.166049 0.005982
0.469703 0.160494 0.000000
0.523735 0.156619 0.000000
0.573266 0.156435 0.000000
0.617914 0.160281 0.000000
0.658045 0.167330 0.000000
0.693629 0.176791 0.000000
0.726131 0.190219 0.000000
0.755612 0.206332 0.000000
0.782223 0.223697 0.000000
0.806363 0.243168 0.000000
0.828794 0.264195 0.000000
0.849973 0.287449 0.064485
0.870787 0.312810 0.108309
0.891020 0.339757 0.149233
0.910430 0.367742 0.191897
0.928679 0.396368 0.237430
0.945647 0.426001 0.286381
0.961059 0.456214 0.337774
0.974975 0.487831 0.390753
0.115541 0.152285 0.117342
0.117739 0.153750 0.118318
0.120455 0.155734 0.119600
0.126558 0.160067 0.122621
0.136965 0.166842 0.127169
0.137057 0.167727 0.124483
0.135622 0.167605 0.119936
0.142947 0.167666 0.117708
0.162295 0.170535 0.115236
0.189853 0.172122 0.111696
0.236179 0.178378 0.108583
0.311803 0.195743 0.090028
0.389776 0.207828 0.065309
0.464668 0.217685 0.000000
0.526970 0.224765 0.000000
0.574487 0.227726 0.000000
0.617273 0.232547 0.000000
0.655787 0.239506 0.000000
0.690547 0.248325 0.000000
0.723171 0.258824 0.000000
0.753262 0.271183 0.000000
0.780423 0.284977 0.000000
0.805234 0.300023 0.000000
0.828061 0.316411 0.000000
0.849546 0.334722 0.057130
0.870390 0.354986 0.107729
0.890562 0.376745 0.151064
0.909789 0.400092 0.195254
0.927916 0.424567 0.241337
0.944701 0.450080 0.290135
0.960021 0.477028 0.341772
0.973877 0.505425 0.394598
0.142641 0.187076 0.139498
0.144808 0.188632 0.140536
0.147860 0.190677 0.142000
0.154482 0.195071 0.145235
0.164797 0.201846 0.150088
0.172244 0.206760 0.151980
0.169345 0.206088 0.145968
0.169223 0.204440 0.140810
0.180972 0.205570 0.137789
0.204593 0.208560 0.134096
0.237156 0.210300 0.129671
0.285679 0.216251 0.127596
0.364752 0.240787 0.105257
0.441779 0.259586 0.076295
0.512139 0.275731 0.000000
0.573785 0.291325 0.000000
0.617365 0.297246 0.000000
0.655085 0.302983 0.000000
0.689509 0.310002 0.000000
0.721645 0.319097 0.000000
0.751369 0.328954 0.000000
0.778561 0.339117 0.000000
0.803372 0.350256 0.000000
0.826230 0.362890 0.000000
0.847837 0.376959 0.035950
0.868894 0.393347 0.106020
0.889158 0.411536 0.152468
0.908537 0.431342 0.198154
0.926726 0.452583 0.245701
0.943633 0.474952 0.295323
0.959014 0.498970 0.346868
0.972930 0.524712 0.399664
0.174380 0.227573 0.166445
0.176608 0.228946 0.167514
0.179751 0.231052 0.169131
0.186496 0.235569 0.172641
0.197177 0.242588 0.178073
0.211185 0.251804 0.185245
0.209110 0.251255 0.179202
0.204990 0.249210 0.170382
0.206546 0.246006 0.165133
0.224155 0.248508 0.161166
0.251469 0.251743 0.156619
0.286473 0.254032 0.151003
0.313787 0.241581 0.142641
0.390784 0.269688 0.119295
0.464668 0.292119 0.090791
0.530999 0.311254 0.034821
0.589349 0.328435 0.000000
0.636561 0.340642 0.000000
0.672328 0.346868 0.000000
0.705989 0.354833 0.000000
0.737362 0.364111 0.000000
0.766110 0.373754 0.000000
0.792813 0.384039 0.000000
0.817319 0.394873 0.000000
0.840024 0.406958 0.000000
0.861875 0.421180 0.089723
0.882933 0.436896 0.142550
0.903044 0.454597 0.191257
0.922026 0.473548 0.240177
0.939605 0.493874 0.290867
0.955657 0.515923 0.343908
0.970123 0.539635 0.397650
0.202090 0.263645 0.191714
0.204349 0.265049 0.192905
0.207675 0.267613 0.194949
0.214755 0.272557 0.199008
0.225620 0.280552 0.205264
0.239963 0.290776 0.213352
0.247349 0.296208 0.214817
0.243290 0.294072 0.205722
0.239292 0.290837 0.195834
0.243412 0.286778 0.190066
0.264256 0.289342 0.184665
0.291325 0.290745 0.178042
0.325475 0.291661 0.171054
0.367285 0.292485 0.172580
0.441993 0.323888 0.145724
0.510399 0.348272 0.115999
0.570581 0.368353 0.077241
0.623926 0.385138 0.000000
0.670893 0.399359 0.000000
0.705867 0.406500 0.000000
0.736995 0.413458 0.000000
0.765530 0.420691 0.000000
0.791867 0.428626 0.000000
0.816312 0.437140 0.000000
0.839048 0.446723 0.000000
0.860929 0.457984 0.091157
0.882048 0.471229 0.146517
0.902190 0.485969 0.196292
0.921111 0.502220 0.246677
0.938628 0.519860 0.298009
0.954650 0.539055 0.350866
0.969116 0.560235 0.403967
0.240909 0.314824 0.229587
0.242863 0.316167 0.230716
0.246189 0.318547 0.232547
0.252781 0.323308 0.236698
0.262913 0.330632 0.242893
0.276951 0.340246 0.251194
0.292882 0.350958 0.260441
0.288792 0.348608 0.251225
0.283391 0.345037 0.239567
0.280827 0.339818 0.229282
0.288518 0.336614 0.222019
0.310918 0.338750 0.215457
0.339513 0.340368 0.208621
0.374670 0.341894 0.201175
0.414496 0.341863 0.204166
0.485512 0.374670 0.178927
0.549065 0.399939 0.149844
0.604944 0.419562 0.117586
0.654353 0.434943 0.072480
0.698939 0.448493 0.000000
0.736172 0.458228 0.000000
0.764431 0.463600 0.000000
0.790494 0.469368 0.000000
0.814725 0.475715 0.000000
0.837461 0.482918 0.000000
0.859373 0.492164 0.093019
0.880522 0.502983 0.150149
0.900694 0.515435 0.201389
0.919615 0.529320 0.252567
0.937163 0.544518 0.303899
0.953185 0.561547 0.357000
0.967773 0.580346 0.409735
0.279698 0.365423 0.269383
0.281437 0.366644 0.270329
0.284306 0.368719 0.272190
0.290745 0.373144 0.276219
0.300603 0.379858 0.282383
0.313359 0.388312 0.290288
0.328679 0.398108 0.299687
0.333562 0.401129 0.298650
0.328008 0.397436 0.286992
0.321263 0.392767 0.273075
0.320195 0.385534 0.263218
0.332677 0.384405 0.256107
0.356268 0.386419 0.249180
0.385657 0.388678 0.242069
0.421118 0.390967 0.235172
0.459083 0.391638 0.238865
0.523308 0.421485 0.217868
0.582696 0.445502 0.190768
0.634791 0.463661 0.162448
0.682033 0.478920 0.130861
0.724422 0.491737 0.088777
0.761471 0.502037 0.000000
0.788907 0.507164 0.000000
0.812955 0.511925 0.000000
0.835630 0.517388 0.052644
0.857664 0.524254 0.095247
0.878569 0.532830 0.153933
0.898528 0.542992 0.205753
0.917327 0.554345 0.256260
0.934752 0.567224 0.307530
0.950805 0.581781 0.359747
0.965393 0.598444 0.412146
0.318273 0.413642 0.310063
0.319951 0.414374 0.310857
0.322362 0.415900 0.312291
0.327581 0.419043 0.315557
0.336217 0.424262 0.320928
0.347387 0.430884 0.327794
0.360723 0.438514 0.335729
0.374029 0.445991 0.343175
0.368627 0.442542 0.332189
0.362402 0.438178 0.319066
0.356542 0.432807 0.305241
0.356878 0.426398 0.296300
0.375280 0.428534 0.290715
0.400153 0.431647 0.284794
0.430213 0.434668 0.278904
0.464607 0.437537 0.272648
0.499550 0.438178 0.276493
0.557153 0.463355 0.260105
0.612604 0.485786 0.235142
0.662226 0.503227 0.210391
0.706935 0.517723 0.184268
0.746304 0.529137 0.155459
0.780880 0.538170 0.121767
0.809812 0.544396 0.096284
0.832395 0.548516 0.112245
0.854368 0.553704 0.129305
0.875700 0.560143 0.156649
0.895720 0.568505 0.208499
0.914641 0.578302 0.260227
0.932280 0.589685 0.312230
0.948638 0.602655 0.364446
0.963592 0.617762 0.417243
0.356725 0.457893 0.351080
0.358404 0.458656 0.352026
0.360815 0.460060 0.353552
0.365759 0.462684 0.356481
0.373297 0.466835 0.361273
0.383246 0.472053 0.367132
0.394873 0.478096 0.374304
0.408606 0.484932 0.382238
0.410376 0.485420 0.378668
0.404700 0.481788 0.367071
0.397864 0.477302 0.353216
0.393988 0.471382 0.340795
0.396887 0.466529 0.332036
0.417273 0.469398 0.327153
0.441962 0.472328 0.321843
0.471015 0.475654 0.316899
0.503288 0.478614 0.311192
0.535424 0.479072 0.314916
0.587701 0.500572 0.303685
0.640467 0.522423 0.281743
0.687861 0.539635 0.260533
0.730007 0.553277 0.238895
0.766690 0.563653 0.216770
0.799191 0.571771 0.192874
0.828550 0.578302 0.165957
0.851774 0.582940 0.171450
0.873106 0.587945 0.187655
0.893614 0.594171 0.214939
0.912535 0.602441 0.266697
0.930236 0.612177 0.318181
0.946624 0.623529 0.370550
0.961669 0.637018 0.422309
0.392981 0.495705 0.389349
0.394110 0.495918 0.389776
0.383215 0.484230 0.377508
0.387579 0.486397 0.380255
0.394598 0.489967 0.384588
0.403754 0.494789 0.390387
0.414740 0.500481 0.397131
0.427192 0.506706 0.404669
0.437751 0.511894 0.409918
0.433021 0.509148 0.400183
0.427070 0.505577 0.388098
0.420905 0.501854 0.374853
0.420447 0.496803 0.365881
0.428656 0.495308 0.359380
0.449592 0.499031 0.355840
0.474189 0.502556 0.351843
0.502342 0.506279 0.348028
0.533227 0.509697 0.343725
0.562951 0.510216 0.347143
0.611048 0.529442 0.341405
0.662165 0.551476 0.323308
0.707790 0.568627 0.305394
0.747646 0.581628 0.287816
0.782498 0.591791 0.270603
0.813901 0.599969 0.252720
0.843137 0.607355 0.234134
0.869383 0.613733 0.224186
0.890501 0.619165 0.242313
0.910338 0.625666 0.273228
0.928191 0.634241 0.325139
0.944732 0.644312 0.376959
0.959960 0.656550 0.428870
0.425025 0.527245 0.422736
0.424659 0.526329 0.421851
0.424628 0.525505 0.421180
0.427100 0.525994 0.422004
0.431861 0.527733 0.424353
0.439216 0.531090 0.428687
0.448432 0.535454 0.434180
0.459297 0.540642 0.440742
0.471687 0.546380 0.447944
0.471839 0.546044 0.443610
0.466682 0.543053 0.433478
0.460914 0.539757 0.421881
0.456580 0.536034 0.410315
0.456580 0.531243 0.402106
0.469062 0.532341 0.397711
0.489570 0.536034 0.394842
0.513329 0.539757 0.391882
0.539910 0.543206 0.388464
0.568750 0.546380 0.384955
0.595941 0.546502 0.387610
0.639124 0.562615 0.385809
0.687526 0.583490 0.370397
0.729763 0.599268 0.355718
0.766690 0.611322 0.342016
0.799466 0.620874 0.328679
0.829740 0.629023 0.315221
0.858518 0.636439 0.300847
0.885771 0.643244 0.285893
0.907500 0.648829 0.296086
0.926116 0.655604 0.332036
0.942718 0.664668 0.384039
0.958160 0.675868 0.435676
0.460578 0.561120 0.459327
0.460426 0.560266 0.458473
0.460426 0.559625 0.457954
0.462379 0.559899 0.458656
0.466468 0.561364 0.460639
0.472877 0.564080 0.464271
0.480964 0.567651 0.469001
0.490578 0.571923 0.474525
0.501244 0.576623 0.480659
0.508568 0.579858 0.483375
0.504051 0.577295 0.475013
0.498817 0.574365 0.465003
0.493263 0.571221 0.453681
0.490974 0.567590 0.444587
0.491157 0.563134 0.436957
0.507347 0.566339 0.434638
0.527276 0.570031 0.432410
0.549889 0.573480 0.429847
0.574823 0.576745 0.427344
0.601495 0.579431 0.423804
0.626307 0.579217 0.425727
0.664942 0.592462 0.427008
0.710018 0.612055 0.414618
0.749294 0.626764 0.403174
0.783963 0.638361 0.393408
0.815274 0.647883 0.383795
0.845029 0.656489 0.374151
0.873198 0.664332 0.364294
0.899870 0.671260 0.353613
0.923705 0.677363 0.349615
0.940948 0.685115 0.392432
0.956542 0.695399 0.443702
0.494942 0.592309 0.493629
0.494514 0.591577 0.492836
0.494514 0.590967 0.492348
0.496345 0.591211 0.492836
0.499886 0.592309 0.494606
0.505303 0.594507 0.497505
0.512352 0.597620 0.501549
0.520806 0.601190 0.506432
0.530388 0.605310 0.511864
0.540703 0.609735 0.517693
0.539483 0.608911 0.512993
0.534966 0.606409 0.504509
0.529839 0.603723 0.494972
0.524559 0.600855 0.484138
0.524071 0.597009 0.477150
0.527001 0.594385 0.470954
0.543236 0.597436 0.468727
0.561761 0.600366 0.466407
0.582544 0.602930 0.463630
0.605127 0.605188 0.460395
0.629511 0.607080 0.456641
0.651759 0.606073 0.457343
0.685756 0.616480 0.460548
0.727657 0.634730 0.450477
0.764401 0.648676 0.441627
0.797147 0.660090 0.434516
0.827878 0.670069 0.427832
0.856992 0.679194 0.421271
0.884672 0.687434 0.414740
0.910796 0.695003 0.408148
0.935424 0.701900 0.401740
0.953063 0.711299 0.443824
0.522881 0.617151 0.521111
0.523125 0.617029 0.521019
0.523705 0.617121 0.521111
0.525811 0.617792 0.522240
0.529381 0.619165 0.524163
0.534600 0.621241 0.527062
0.540856 0.623896 0.530602
0.548150 0.626886 0.534630
0.556359 0.630213 0.539208
0.565332 0.633845 0.544091
0.570275 0.635615 0.545190
0.566125 0.633356 0.537835
0.561456 0.630945 0.529503
0.556664 0.628473 0.520287
0.552941 0.625635 0.511376
0.552789 0.622034 0.504967
0.559289 0.621332 0.500481
0.575158 0.624384 0.498848
0.592950 0.627283 0.497047
0.612696 0.629816 0.494636
0.634394 0.632166 0.492195
0.657374 0.634241 0.489326
0.678248 0.633509 0.490089
0.707912 0.641657 0.496162
0.747066 0.659297 0.489509
0.781643 0.673030 0.483650
0.813352 0.684840 0.479316
0.843320 0.695460 0.475380
0.871855 0.705257 0.471962
0.898802 0.714260 0.469306
0.924224 0.722652 0.467262
0.947997 0.731136 0.470771
0.554833 0.644770 0.551934
0.555016 0.644617 0.551904
0.555474 0.644556 0.551904
0.557275 0.645106 0.552819
0.560449 0.646296 0.554528
0.564843 0.648035 0.557000
0.570581 0.650385 0.560204
0.577234 0.652949 0.563867
0.584558 0.655756 0.567987
0.592706 0.658869 0.572412
0.601465 0.662104 0.577020
0.598993 0.660792 0.571923
0.594873 0.658778 0.564691
0.590478 0.656641 0.556725
0.585718 0.654414 0.547845
0.583520 0.651423 0.540520
0.582971 0.647852 0.534112
0.592554 0.648859 0.531273
0.607538 0.651484 0.529747
0.624231 0.653895 0.527977
0.642664 0.656001 0.525841
0.662440 0.657862 0.523461
0.683589 0.659663 0.520928
0.702358 0.658534 0.521233
0.729946 0.666621 0.532067
0.766323 0.683558 0.527886
0.799191 0.697475 0.524559
0.830228 0.710079 0.522759
0.859586 0.721645 0.521813
0.887419 0.732265 0.521721
0.913542 0.742214 0.522820
0.938079 0.751919 0.526177
0.582025 0.667170 0.577752
0.582025 0.666926 0.577478
0.582544 0.666987 0.577661
0.584314 0.667567 0.578546
0.587427 0.668757 0.580285
0.591608 0.670405 0.582727
0.596857 0.672419 0.585687
0.603113 0.674800 0.589227
0.610101 0.677516 0.593194
0.617670 0.680354 0.597498
0.626062 0.683436 0.602228
0.629725 0.684688 0.602777
0.626215 0.683253 0.596826
0.622522 0.681666 0.590295
0.618708 0.680140 0.583093
0.614557 0.678492 0.574975
0.614160 0.675898 0.569787
0.613733 0.672816 0.563897
0.626154 0.675441 0.562982
0.639948 0.677607 0.561456
0.655268 0.679652 0.559808
0.672053 0.681483 0.557977
0.690364 0.683375 0.556207
0.709987 0.685298 0.554498
0.727382 0.684596 0.555200
0.749325 0.688991 0.564660
0.783780 0.705989 0.562982
0.816190 0.721035 0.562432
0.846738 0.734768 0.563256
0.875547 0.747433 0.565454
0.902678 0.759304 0.569329
0.928130 0.770901 0.575586
0.613184 0.691066 0.606409
0.613184 0.690883 0.606256
0.613581 0.690913 0.606256
0.615106 0.691371 0.607080
0.617823 0.692256 0.608606
0.621546 0.693629 0.610620
0.626154 0.695308 0.613336
0.631464 0.697200 0.616297
0.637568 0.699397 0.619776
0.644038 0.701625 0.623346
0.651118 0.704128 0.627314
0.658503 0.706752 0.631373
0.655848 0.705623 0.626764
0.652461 0.704158 0.620966
0.648951 0.702754 0.614801
0.645167 0.701259 0.607782
0.642420 0.699458 0.601251
0.641718 0.696895 0.596063
0.643763 0.695338 0.591547
0.655268 0.697627 0.590631
0.668025 0.699611 0.589380
0.682246 0.701686 0.588159
0.697749 0.703639 0.586847
0.714656 0.705653 0.585687
0.732753 0.707698 0.584649
0.748653 0.707210 0.585290
0.767422 0.710231 0.595605
0.800900 0.727962 0.596063
0.832670 0.744015 0.597803
0.862791 0.758724 0.601129
0.891142 0.772702 0.606561
0.917082 0.785183 0.612970
0.642145 0.712428 0.632746
0.642298 0.712398 0.632746
0.642756 0.712428 0.632929
0.644312 0.712978 0.633814
0.646815 0.713863 0.635248
0.650050 0.715114 0.637171
0.654108 0.716640 0.639521
0.658747 0.718318 0.642237
0.663966 0.720211 0.645167
0.669459 0.722194 0.648341
0.675471 0.724331 0.651728
0.681758 0.726589 0.655268
0.683589 0.727108 0.654780
0.680842 0.725948 0.650019
0.677852 0.724727 0.644770
0.674861 0.723507 0.639063
0.671382 0.722133 0.632563
0.669734 0.720211 0.627344
0.668971 0.717800 0.622522
0.673610 0.717708 0.619684
0.684291 0.719905 0.618982
0.696132 0.721950 0.618219
0.709163 0.724025 0.617395
0.723476 0.726192 0.616724
0.738979 0.728389 0.616144
0.755673 0.730678 0.615686
0.770260 0.730526 0.616266
0.787381 0.733486 0.627375
0.819821 0.751614 0.629603
0.851255 0.768887 0.633906
0.880735 0.784604 0.639765
0.907378 0.798398 0.646540
0.670619 0.733669 0.658991
0.670802 0.733639 0.659022
0.671290 0.733761 0.659236
0.672480 0.734157 0.659937
0.674372 0.734829 0.661006
0.676875 0.735714 0.662409
0.679713 0.736629 0.663996
0.683070 0.737667 0.665736
0.686793 0.738827 0.667689
0.690913 0.740078 0.669795
0.695369 0.741482 0.672114
0.700282 0.743069 0.674678
0.705226 0.744778 0.677272
0.702480 0.743374 0.672724
0.699763 0.742092 0.667994
0.696986 0.740902 0.662898
0.694026 0.739651 0.657282
0.690944 0.738338 0.651209
0.690303 0.736324 0.647120
0.689601 0.734066 0.642512
0.696529 0.735256 0.641199
0.706661 0.737606 0.640925
0.718013 0.739986 0.640620
0.730526 0.742458 0.640436
0.744228 0.744961 0.640314
0.759060 0.747616 0.640345
0.774868 0.750332 0.640436
0.788815 0.750698 0.641321
0.805509 0.754238 0.652064
0.836423 0.772152 0.657130
0.866667 0.789425 0.662531
0.895048 0.805386 0.669947
0.692836 0.751431 0.680293
0.693080 0.751461 0.680385
0.693568 0.751614 0.680690
0.694728 0.752132 0.681422
0.696498 0.752865 0.682521
0.698848 0.753872 0.684016
0.701625 0.754971 0.685695
0.704891 0.756252 0.687587
0.708431 0.757626 0.689693
0.712428 0.759152 0.691981
0.716670 0.760861 0.694484
0.721340 0.762692 0.697200
0.726284 0.764767 0.700099
0.727230 0.765103 0.699153
