data/fiter_cube/21023058/1023007/file.cube
# Created by Adobe Lightroom plugin Export LUT (1.17.0)
# www.johnrellis.com/lightroom/exportlut.htm
# Preset: 温暖焦糖婚礼婚纱_03 云集
# Color profile: C:\Program Files (x86)\Common Files\Adobe\Color\Profiles\Recommended\AdobeRGB1998.icc
LUT_3D_SIZE 5
DOMAIN_MIN 0.000000 0.000000 0.000000
DOMAIN_MAX 0.903226 0.903226 0.903226
0.029511 0.057588 0.054475
0.124483 0.048524 0.060609
0.503746 0.000000 0.019715
0.785336 0.000000 0.000824
0.936492 0.279606 0.237583
0.080201 0.104189 0.088014
0.116152 0.114199 0.085573
0.520470 0.064210 0.000000
0.783169 0.147311 0.000000
0.929412 0.369055 0.234012
0.279698 0.365423 0.269383
0.333562 0.401129 0.298650
0.421118 0.390967 0.235172
0.761471 0.502037 0.000000
0.917327 0.554345 0.256260
0.522881 0.617151 0.521111
0.548150 0.626886 0.534630
0.552941 0.625635 0.511376
0.657374 0.634241 0.489326
0.871855 0.705257 0.471962
0.718318 0.773404 0.705837
0.728328 0.777737 0.712032
0.753902 0.790738 0.726864
0.746365 0.783108 0.699580
0.825071 0.802701 0.703212
0.081514 0.087922 0.097108
0.121462 0.097749 0.107454
0.555535 0.000000 0.130037
0.801053 0.000000 0.135256
0.941588 0.338140 0.257603
0.125765 0.142916 0.132876
0.208194 0.184970 0.171389
0.565606 0.174807 0.166140
0.795224 0.273594 0.161013
0.936584 0.411566 0.259800
0.333532 0.409155 0.330663
0.401282 0.450233 0.375525
0.488136 0.464454 0.350622
0.773312 0.534661 0.262974
0.919493 0.570031 0.312657
0.546899 0.629938 0.546166
0.571832 0.639765 0.559899
0.595697 0.648371 0.557855
0.675196 0.652705 0.533654
0.876371 0.715846 0.514458
0.724056 0.777005 0.713222
0.733761 0.781369 0.719265
0.762356 0.794095 0.736782
0.752316 0.786557 0.709224
0.827512 0.805692 0.712398
0.293736 0.266056 0.341985
0.331975 0.274693 0.348425
0.458228 0.330114 0.387030
0.747341 0.407843 0.503716
0.928222 0.465095 0.512444
0.368383 0.365393 0.398474
0.418036 0.395575 0.424262
0.502800 0.420813 0.442390
0.761349 0.463416 0.521538
0.925994 0.509911 0.522881
0.446571 0.498604 0.471412
0.492927 0.523430 0.495613
0.598474 0.583032 0.554803
0.774197 0.594934 0.551629
0.912871 0.616083 0.550195
0.603815 0.661799 0.605982
0.627588 0.672145 0.619715
0.679805 0.694606 0.648890
0.717983 0.696681 0.632197
0.893217 0.741360 0.606134
0.746761 0.791562 0.740658
0.753079 0.794308 0.744137
0.774258 0.804379 0.756039
0.785458 0.809842 0.751431
0.841123 0.821347 0.747127
0.569268 0.559289 0.613519
0.580591 0.559594 0.612970
0.616266 0.558526 0.611597
0.691768 0.598108 0.632258
0.851774 0.682399 0.726589
0.607538 0.604395 0.636042
0.617456 0.605646 0.637049
0.643793 0.601556 0.634699
0.705470 0.627955 0.649409
0.859342 0.693019 0.733272
0.641260 0.654963 0.657923
0.659541 0.664240 0.665614
0.702510 0.685634 0.684993
0.733761 0.687282 0.685939
0.880674 0.713649 0.740414
0.677729 0.707942 0.685786
0.691890 0.714412 0.692805
0.727871 0.731655 0.711208
0.779171 0.760800 0.742153
0.901427 0.766629 0.738735
0.777493 0.811429 0.778500
0.784817 0.815427 0.783047
0.803922 0.826047 0.794949
0.831083 0.840726 0.810575
0.862455 0.846067 0.800015
0.753506 0.738979 0.775204
0.756222 0.738094 0.774533
0.766781 0.735622 0.773037
0.785428 0.729519 0.769070
0.827573 0.751308 0.781460
0.761471 0.750057 0.780453
0.763699 0.748959 0.779690
0.772793 0.745937 0.777981
0.788815 0.738125 0.773007
0.829343 0.757382 0.784451
0.770291 0.768582 0.787259
0.775296 0.770718 0.789487
0.791775 0.776944 0.795407
0.803586 0.768368 0.790188
0.840482 0.782162 0.800198
0.788540 0.800626 0.803708
0.792325 0.801907 0.805020
0.807218 0.808377 0.811978
0.835904 0.822019 0.826780
0.866880 0.830747 0.835538
0.819974 0.844968 0.833158
0.823178 0.846311 0.834562
0.836728 0.853330 0.842008
0.861051 0.866270 0.855680
0.900633 0.889982 0.880797
