data/fiter_cube/21023058/1023007/file.cube
# Created by Adobe Lightroom plugin Export LUT (1.17.0)
# www.johnrellis.com/lightroom/exportlut.htm
# Preset: 温暖焦糖婚礼婚纱_03 云集
# Color profile: C:\Program Files (x86)\Common Files\Adobe\Color\Profiles\Recommended\AdobeRGB1998.icc
LUT_3D_SIZE 8
DOMAIN_MIN 0.000000 0.000000 0.000000
DOMAIN_MAX 0.903226 0.903226 0.903226
0.029511 0.057588 0.054475
0.066529 0.057923 0.057465
0.159335 0.024140 0.060700
0.380407 0.000000 0.046052
0.607416 0.000000 0.000000
0.756405 0.000000 0.000000
0.858701 0.000000 0.096071
0.936492 0.279606 0.237583
0.054688 0.071443 0.066468
0.065217 0.073732 0.065675
0.175540 0.070008 0.059663
0.404089 0.000000 0.033539
0.621912 0.000000 0.000000
0.765194 0.000000 0.000000
0.862333 0.090608 0.097871
0.937591 0.320653 0.245670
0.095247 0.125063 0.100649
0.110811 0.136538 0.107149
0.148684 0.139742 0.096895
0.410010 0.166049 0.005982
0.617914 0.160281 0.000000
0.755612 0.206332 0.000000
0.849973 0.287449 0.064485
0.928679 0.396368 0.237430
0.202090 0.263645 0.191714
0.225620 0.280552 0.205264
0.239292 0.290837 0.195834
0.325475 0.291661 0.171054
0.570581 0.368353 0.077241
0.736995 0.413458 0.000000
0.839048 0.446723 0.000000
0.921111 0.502220 0.246677
0.356725 0.457893 0.351080
0.373297 0.466835 0.361273
0.410376 0.485420 0.378668
0.396887 0.466529 0.332036
0.503288 0.478614 0.311192
0.687861 0.539635 0.260533
0.828550 0.578302 0.165957
0.912535 0.602441 0.266697
0.494942 0.592309 0.493629
0.499886 0.592309 0.494606
0.530388 0.605310 0.511864
0.529839 0.603723 0.494972
0.543236 0.597436 0.468727
0.629511 0.607080 0.456641
0.764401 0.648676 0.441627
0.884672 0.687434 0.414740
0.613184 0.691066 0.606409
0.617823 0.692256 0.608606
0.637568 0.699397 0.619776
0.655848 0.705623 0.626764
0.642420 0.699458 0.601251
0.668025 0.699611 0.589380
0.732753 0.707698 0.584649
0.832670 0.744015 0.597803
0.718318 0.773404 0.705837
0.721431 0.774777 0.707790
0.731319 0.778988 0.713832
0.746700 0.785245 0.722835
0.749905 0.788937 0.718929
0.744198 0.783658 0.702083
0.774380 0.791287 0.700862
0.825071 0.802701 0.703212
0.054292 0.067720 0.067964
0.064179 0.069032 0.069612
0.192142 0.010498 0.075105
0.423163 0.000000 0.065217
0.630945 0.000000 0.000000
0.771298 0.000000 0.000000
0.866453 0.073518 0.104036
0.941100 0.314275 0.253086
0.065553 0.078492 0.075929
0.083162 0.088136 0.084504
0.205997 0.077760 0.083314
0.432898 0.000000 0.068879
0.636469 0.000000 0.000275
0.773465 0.000000 0.000000
0.868315 0.185946 0.105928
0.942229 0.349676 0.261295
0.114473 0.141817 0.117067
0.141939 0.158694 0.131106
0.185916 0.168338 0.126192
0.442817 0.193149 0.078889
0.636835 0.204135 0.012909
0.766323 0.256229 0.000000
0.859434 0.328313 0.083864
0.934691 0.419501 0.256779
0.234470 0.293919 0.223453
0.259373 0.310582 0.238590
0.288487 0.330388 0.242283
0.368170 0.334783 0.216800
0.603998 0.410651 0.138796
0.754177 0.443122 0.070802
0.849241 0.470222 0.102937
0.927153 0.517296 0.266789
0.378119 0.472419 0.373571
0.394415 0.481392 0.383948
0.443275 0.506828 0.413855
0.427741 0.490974 0.369818
0.526299 0.503166 0.351843
0.701534 0.557885 0.304021
0.834348 0.589563 0.225376
0.916564 0.609827 0.281498
0.510033 0.601892 0.508659
0.518547 0.605310 0.513359
0.546990 0.617121 0.529168
0.552575 0.617792 0.518700
0.558251 0.608820 0.489693
0.638483 0.616388 0.476204
0.769223 0.656062 0.461921
0.887785 0.693751 0.437964
0.625055 0.698116 0.617517
0.631434 0.700557 0.621271
0.649073 0.706600 0.630915
0.669062 0.713039 0.639826
0.653773 0.705806 0.613275
0.676265 0.705470 0.601434
0.739162 0.714351 0.598108
0.837980 0.751217 0.611231
0.723201 0.777218 0.711269
0.725826 0.778103 0.712703
0.735256 0.782071 0.718379
0.750118 0.788083 0.726986
0.750820 0.788357 0.720211
0.746242 0.784573 0.704799
0.776883 0.793515 0.705226
0.827878 0.805844 0.708858
0.094850 0.098482 0.111788
0.103975 0.099306 0.113222
0.154849 0.113924 0.128542
0.395239 0.001831 0.176516
0.643580 0.000000 0.167147
0.773251 0.000000 0.183902
0.863218 0.215640 0.187686
0.940124 0.339971 0.254337
0.122194 0.125307 0.132357
0.143008 0.135073 0.142214
0.187930 0.144137 0.152407
0.433173 0.084199 0.193210
0.653925 0.000000 0.188785
0.774899 0.149844 0.196231
0.863859 0.267277 0.200015
0.940063 0.367559 0.258885
0.161563 0.179355 0.166232
0.188144 0.193698 0.179629
0.271550 0.238865 0.223148
0.478523 0.243717 0.221775
0.646662 0.267552 0.219974
0.767117 0.317662 0.221256
0.857053 0.375586 0.230442
0.935546 0.436622 0.262974
0.275792 0.325536 0.271580
0.299870 0.340856 0.286992
0.373175 0.390234 0.335332
0.428901 0.401099 0.320134
0.633478 0.453071 0.262760
0.753689 0.469673 0.268803
0.844785 0.494270 0.283696
0.925353 0.529137 0.313237
0.411383 0.494331 0.413611
0.428077 0.502586 0.424170
0.475898 0.527092 0.454292
0.491646 0.533623 0.446906
0.556725 0.536706 0.427588
0.715969 0.582666 0.390936
0.831266 0.603204 0.359136
0.912413 0.622126 0.390967
0.531640 0.613397 0.532341
0.541161 0.617243 0.537835
0.570062 0.629877 0.554772
0.600092 0.642786 0.568414
0.590539 0.630884 0.536370
0.659876 0.638300 0.525872
0.778744 0.672267 0.510857
0.890532 0.702327 0.484047
0.636622 0.702602 0.629725
0.642451 0.704829 0.633173
0.660243 0.711574 0.643336
0.685389 0.721187 0.657588
0.679957 0.717983 0.641596
0.690455 0.714595 0.625422
0.745724 0.721675 0.620447
0.841276 0.756832 0.627832
0.728389 0.780301 0.718074
0.731350 0.781857 0.720089
0.741146 0.786282 0.726223
0.754818 0.791409 0.733730
0.763851 0.795651 0.735286
0.756680 0.791226 0.717952
0.781460 0.797391 0.715633
0.830350 0.808865 0.718074
0.210910 0.190066 0.244785
0.222568 0.191440 0.245365
0.265782 0.197574 0.253330
0.358434 0.235111 0.287480
0.566705 0.292302 0.387884
0.747707 0.281132 0.407172
0.859159 0.335790 0.406104
0.936614 0.416480 0.420996
0.252811 0.232853 0.276371
0.264347 0.235050 0.279149
0.298802 0.237247 0.283391
0.379217 0.268589 0.309880
0.580621 0.319463 0.402350
0.753262 0.314183 0.415198
0.859983 0.376959 0.421942
0.935821 0.433783 0.425666
0.299443 0.303105 0.319188
0.324041 0.319493 0.333288
0.388464 0.361181 0.370520
0.441993 0.374823 0.381781
0.618769 0.394720 0.436774
0.763760 0.394903 0.427527
0.849027 0.442115 0.432593
0.928466 0.481300 0.435401
0.350500 0.394873 0.370825
0.371283 0.407782 0.382788
0.432776 0.445167 0.418158
0.511925 0.494270 0.465705
0.649928 0.504570 0.464607
0.755947 0.519738 0.464668
0.840818 0.537957 0.465461
0.919585 0.560784 0.469551
0.456977 0.523156 0.467720
0.473426 0.532067 0.477638
0.517082 0.555322 0.504417
0.570397 0.583642 0.536675
0.603906 0.586511 0.523827
0.738643 0.615686 0.495552
0.827298 0.624384 0.498146
0.907744 0.640681 0.509972
0.560327 0.628382 0.563958
0.566064 0.629633 0.566247
0.594324 0.642847 0.583215
0.632013 0.659815 0.605005
0.639185 0.661128 0.596399
0.685206 0.664485 0.585809
0.792355 0.693233 0.570977
0.894530 0.714687 0.551171
0.656184 0.711788 0.650507
0.660517 0.713191 0.652766
0.674800 0.718441 0.660517
0.696345 0.726925 0.672419
0.713710 0.733944 0.678828
0.708919 0.726528 0.656916
0.757778 0.734859 0.654047
0.851316 0.769833 0.657160
0.737118 0.784970 0.729366
0.739162 0.785794 0.730495
0.746731 0.789487 0.734981
0.760464 0.795926 0.743191
0.781216 0.805936 0.756313
0.774258 0.802609 0.740017
0.789334 0.804318 0.732815
0.835569 0.815061 0.734371
0.378973 0.356634 0.435187
0.386969 0.357641 0.435035
0.417212 0.364508 0.439399
0.459785 0.368597 0.441047
0.537011 0.421607 0.471443
0.669184 0.504112 0.551598
0.807065 0.511986 0.585229
0.907561 0.533165 0.595392
0.410803 0.396948 0.456489
0.414679 0.394568 0.454047
0.438087 0.396948 0.455848
0.477028 0.399817 0.458381
0.547478 0.444221 0.484474
0.676356 0.514977 0.558831
0.809354 0.521691 0.588312
0.908934 0.540307 0.596368
0.451759 0.457252 0.484565
0.466377 0.466926 0.491920
0.499794 0.485054 0.507256
0.526268 0.483345 0.507164
0.579492 0.507591 0.523278
0.700526 0.551904 0.583276
0.818906 0.554345 0.599390
0.914977 0.563958 0.599115
0.484901 0.514000 0.512871
0.498268 0.521996 0.519707
0.537652 0.544945 0.539544
0.587335 0.573327 0.565240
0.619745 0.579614 0.570672
0.730373 0.595270 0.606836
0.833860 0.592798 0.604791
0.916472 0.605859 0.602655
0.524132 0.573877 0.546319
0.534142 0.578637 0.551049
0.566766 0.594781 0.567346
0.613062 0.618708 0.591669
0.663966 0.646937 0.620722
0.752499 0.650874 0.619226
0.831327 0.656580 0.617090
0.908232 0.665431 0.615503
0.600275 0.653285 0.608698
0.608423 0.656886 0.612970
0.635370 0.669215 0.627741
0.670588 0.685908 0.647852
0.702449 0.701900 0.666529
0.720790 0.700496 0.653925
0.815274 0.719417 0.635065
0.896269 0.730068 0.635889
0.684138 0.726436 0.679255
0.688502 0.728328 0.681849
0.701320 0.734005 0.689387
0.719081 0.742092 0.699702
0.739498 0.752071 0.711086
0.741573 0.750515 0.701289
0.776944 0.755703 0.695735
0.868894 0.788418 0.694057
0.755428 0.797086 0.751034
0.757687 0.798276 0.752529
0.764858 0.801999 0.757015
0.773251 0.805417 0.760830
0.788876 0.813474 0.769863
0.802701 0.820310 0.774838
0.801785 0.815732 0.757626
0.845609 0.826535 0.759121
0.525658 0.515068 0.574670
0.530358 0.515984 0.575036
0.547753 0.520287 0.577874
0.572168 0.521782 0.578607
0.604089 0.523766 0.578058
0.663478 0.565759 0.602869
0.747860 0.644587 0.664973
0.861784 0.656092 0.707240
0.549401 0.542290 0.590723
0.553246 0.542718 0.590936
0.566064 0.543328 0.591272
0.586816 0.542565 0.590845
0.615198 0.541955 0.588983
0.669947 0.578241 0.610498
0.752285 0.650294 0.669703
0.864042 0.660273 0.709499
0.577508 0.578759 0.607050
0.585687 0.583856 0.611200
0.600580 0.588739 0.615442
0.616297 0.586816 0.614527
0.639704 0.584741 0.613184
0.684413 0.609949 0.628626
0.763668 0.663996 0.680995
0.870359 0.670283 0.713497
0.597650 0.610986 0.620935
0.605982 0.615930 0.624933
0.630213 0.629603 0.635950
0.655634 0.640925 0.645747
0.670527 0.636622 0.643275
0.702754 0.649226 0.651881
0.780758 0.681453 0.695094
0.881132 0.682673 0.715297
0.624475 0.649592 0.641505
0.630640 0.652461 0.644129
0.650782 0.662287 0.653010
0.679805 0.677028 0.666743
0.710689 0.692897 0.682643
0.730648 0.695644 0.685389
0.809262 0.706233 0.712978
0.900755 0.701534 0.713466
0.653071 0.687098 0.663478
0.657221 0.688502 0.664942
0.673152 0.695338 0.672236
0.697444 0.706569 0.684291
0.726467 0.721523 0.700252
0.758694 0.739712 0.719570
0.828794 0.741115 0.716213
0.901091 0.745510 0.713863
0.701839 0.736568 0.703395
0.705104 0.737911 0.705013
0.717861 0.744228 0.712367
0.737179 0.754696 0.724147
0.760800 0.768399 0.739254
0.783291 0.781003 0.752926
0.800504 0.781521 0.743374
0.889158 0.805631 0.734432
0.774563 0.809171 0.773434
0.776699 0.810391 0.774929
0.783444 0.814237 0.779416
0.793149 0.819455 0.785397
0.806394 0.826871 0.793515
0.822904 0.835569 0.802670
0.823514 0.833402 0.792050
0.858213 0.841123 0.790249
0.664729 0.651972 0.692836
0.668055 0.653315 0.693904
0.674495 0.653101 0.693538
0.685023 0.651575 0.692287
0.700862 0.649683 0.691157
0.720089 0.647669 0.687648
0.758358 0.676600 0.704128
0.822110 0.740475 0.758206
0.668147 0.656733 0.693477
0.670954 0.657740 0.694331
0.676905 0.657282 0.693965
0.686915 0.655726 0.692866
0.701015 0.652522 0.690852
0.718593 0.648859 0.686305
0.755612 0.675654 0.701564
0.818784 0.737850 0.754665
0.690700 0.682582 0.707637
0.693599 0.683894 0.708644
0.696956 0.682063 0.707240
0.704433 0.679774 0.705684
0.714809 0.675257 0.702632
0.730159 0.671138 0.698726
0.764157 0.693202 0.712825
0.825925 0.751308 0.764706
0.702449 0.700740 0.715328
0.705562 0.702358 0.716640
0.715969 0.707668 0.721157
0.728878 0.712459 0.725734
0.736812 0.708492 0.722988
0.749599 0.704524 0.720150
0.777951 0.718898 0.730648
0.839933 0.763363 0.777310
0.710658 0.717647 0.721523
0.712947 0.718471 0.722164
0.722133 0.722713 0.725856
0.738247 0.731075 0.733974
0.756191 0.739071 0.742550
0.766018 0.734432 0.739651
0.788693 0.742275 0.745541
0.856229 0.773922 0.788205
0.723659 0.739895 0.732692
0.726284 0.741176 0.733974
0.735012 0.745541 0.738308
0.749752 0.753262 0.746242
0.769162 0.763485 0.756893
0.793576 0.776761 0.770962
0.810513 0.779141 0.773465
0.880613 0.791592 0.801175
0.742367 0.767849 0.750332
0.745113 0.769406 0.752010
0.752682 0.773159 0.756008
0.765469 0.779812 0.763058
0.782345 0.788449 0.772183
0.805142 0.801022 0.785489
0.834928 0.819272 0.804837
0.900084 0.823056 0.804410
0.783932 0.816159 0.791409
0.785946 0.817288 0.792660
0.794614 0.822751 0.798672
0.806912 0.829984 0.806607
0.822843 0.839109 0.816526
0.842710 0.850950 0.829313
0.860014 0.860472 0.839261
0.875700 0.861387 0.830625
0.753506 0.738979 0.775204
0.754849 0.739284 0.775570
0.757015 0.737636 0.774197
0.762936 0.736568 0.773617
0.771084 0.734096 0.772091
0.782010 0.730129 0.769833
0.796078 0.727352 0.766079
0.827573 0.751308 0.781460
0.754788 0.741146 0.775570
0.756069 0.741482 0.775937
0.758450 0.740139 0.774929
0.763638 0.738430 0.773800
0.771542 0.735897 0.772274
0.782132 0.731746 0.769924
0.795529 0.728206 0.765621
0.826627 0.751278 0.780606
0.763394 0.752926 0.781704
0.764218 0.752804 0.781674
0.765469 0.750637 0.779843
0.771786 0.750698 0.780606
0.778225 0.747311 0.778470
0.787076 0.742092 0.775174
0.799832 0.738094 0.771115
0.829496 0.758846 0.784939
0.767697 0.762722 0.785489
0.770352 0.764431 0.786923
0.777523 0.768338 0.790158
0.783871 0.769100 0.791226
0.789700 0.766140 0.789578
0.797696 0.761410 0.786801
0.809415 0.756863 0.783078
0.836576 0.773617 0.794705
0.773587 0.775601 0.789975
0.775723 0.776883 0.791226
0.780880 0.779019 0.793362
0.790036 0.783169 0.798093
0.802396 0.787747 0.802548
0.809171 0.783261 0.799893
0.820554 0.779202 0.797482
0.846250 0.793423 0.808042
0.783322 0.793454 0.798825
0.784298 0.793637 0.799008
0.788327 0.794980 0.800412
0.796445 0.798428 0.804105
0.809476 0.804532 0.810697
0.828000 0.813870 0.820737
0.840269 0.812894 0.821775
0.863310 0.823789 0.830594
0.800717 0.818753 0.815122
0.801785 0.819120 0.815518
0.805753 0.820798 0.817258
0.813779 0.824704 0.821408
0.825925 0.830869 0.827939
0.842954 0.839994 0.837675
0.863615 0.850919 0.849393
0.878233 0.852537 0.851133
0.819974 0.844968 0.833158
0.820798 0.845243 0.833463
0.824399 0.846921 0.835203
0.831785 0.850736 0.839261
0.842435 0.856321 0.845151
0.856748 0.863890 0.853178
0.875761 0.874632 0.864500
0.900633 0.889982 0.880797
