data/fiter_cube/80369196/1023064/file.cube
# Created by Adobe Lightroom plugin Export LUT (1.17.0)
# www.johnrellis.com/lightroom/exportlut.htm
# Preset: Dream Travel_02
# Color profile: C:\Program Files (x86)\Common Files\Adobe\Color\Profiles\Recommended\AdobeRGB1998.icc
LUT_3D_SIZE 8
DOMAIN_MIN 0.000000 0.000000 0.000000
DOMAIN_MAX 0.903226 0.903226 0.903226
0.000000 0.000000 0.000000
0.117342 0.001801 0.032380
0.366308 0.000000 0.045960
0.618463 0.000000 0.044862
0.787869 0.000000 0.095064
0.894102 0.243809 0.169406
0.968170 0.368048 0.268467
1.000000 0.478523 0.401068
0.027741 0.083406 0.063508
0.105440 0.096895 0.059693
0.378759 0.080629 0.000000
0.620264 0.000000 0.000000
0.784695 0.166659 0.060578
0.887510 0.282353 0.149294
0.963806 0.385809 0.253513
1.000000 0.487770 0.390204
0.011475 0.243534 0.116091
0.116243 0.238468 0.112001
0.329381 0.317113 0.109957
0.648066 0.384131 0.000000
0.799924 0.392767 0.000000
0.895476 0.422522 0.090974
0.971679 0.477852 0.238773
1.000000 0.544335 0.385779
0.092775 0.430732 0.202121
0.163577 0.430793 0.201755
0.271366 0.383642 0.173129
0.586816 0.581933 0.248875
0.803769 0.631189 0.176333
0.908019 0.597955 0.000000
0.976501 0.595880 0.188296
1.000000 0.620478 0.358404
0.182162 0.597711 0.308904
0.226841 0.594995 0.305241
0.324498 0.563867 0.280491
0.468147 0.576623 0.279484
0.728573 0.739925 0.423041
0.877958 0.762661 0.395026
0.970184 0.729000 0.266209
1.000000 0.712428 0.315038
0.282902 0.726162 0.430365
0.317144 0.728359 0.433448
0.393866 0.713283 0.419348
0.470283 0.671870 0.368658
0.633082 0.736965 0.438544
0.824125 0.842588 0.600824
0.935363 0.856107 0.605585
1.000000 0.827420 0.503166
0.405615 0.836515 0.574273
0.426825 0.835782 0.576410
0.482948 0.828855 0.575219
0.539025 0.806943 0.540978
0.600214 0.773404 0.483406
0.762142 0.853910 0.623835
0.897826 0.912444 0.742367
0.975952 0.915557 0.749233
0.543481 0.925658 0.724483
0.556207 0.924743 0.726101
0.596857 0.922210 0.732174
0.646296 0.916258 0.730190
0.685451 0.899016 0.694789
0.757382 0.897185 0.692439
0.870909 0.938048 0.787655
0.957702 0.961059 0.841703
0.013642 0.012451 0.086702
0.105501 0.008484 0.089052
0.337530 0.000000 0.100649
0.596338 0.000000 0.105745
0.774716 0.120699 0.106508
0.882322 0.256779 0.149569
0.960571 0.366369 0.252018
1.000000 0.471595 0.387610
0.013275 0.081636 0.096254
0.113802 0.103700 0.107881
0.350011 0.107118 0.108644
0.601862 0.116335 0.103914
0.774044 0.208255 0.104494
0.880583 0.297459 0.134249
0.957702 0.386023 0.240146
1.000000 0.480720 0.376440
0.041566 0.246250 0.155581
0.140902 0.254063 0.161135
0.327550 0.314641 0.174319
0.628779 0.372259 0.087984
0.781094 0.392554 0.098939
0.884337 0.425269 0.130739
0.962768 0.470680 0.219699
1.000000 0.535485 0.369635
0.114290 0.428504 0.233280
0.179995 0.430030 0.234257
0.282994 0.391150 0.207706
0.567987 0.562615 0.287114
0.781155 0.610742 0.226932
0.889708 0.587274 0.159091
0.965545 0.588586 0.201877
1.000000 0.612696 0.342473
0.198581 0.597589 0.336034
0.239109 0.594232 0.331487
0.332250 0.566278 0.307317
0.460761 0.565423 0.297063
0.717098 0.729580 0.443488
0.867948 0.755856 0.420539
0.963165 0.725734 0.304967
1.000000 0.708461 0.305119
0.287938 0.722469 0.445350
0.316503 0.720699 0.443610
0.393988 0.708522 0.432776
0.468788 0.668605 0.383154
0.627436 0.730587 0.449775
0.820554 0.840848 0.617670
0.931334 0.855070 0.622004
1.000000 0.826932 0.523186
0.400427 0.830961 0.577142
0.418677 0.828519 0.575891
0.476417 0.822721 0.576104
0.536004 0.803189 0.547570
0.597467 0.770932 0.491890
0.757595 0.849912 0.627710
0.894041 0.909972 0.746548
0.972900 0.913787 0.752743
0.537285 0.923156 0.724483
0.550988 0.922698 0.726925
0.592676 0.920409 0.733211
0.644709 0.915038 0.733822
0.690974 0.902953 0.708888
0.757443 0.897429 0.698451
0.869718 0.937255 0.790799
0.956542 0.960449 0.844572
0.000000 0.034516 0.212650
0.122164 0.024689 0.214694
0.333257 0.000000 0.232456
0.567407 0.000000 0.255467
0.748318 0.189853 0.282963
0.865751 0.325902 0.317754
0.954864 0.411170 0.345281
1.000000 0.480018 0.393957
0.000000 0.108675 0.222446
0.131319 0.121309 0.230747
0.330541 0.145754 0.245640
0.555108 0.153597 0.261540
0.745846 0.253849 0.288304
0.863371 0.355413 0.317327
0.952422 0.429450 0.343328
1.000000 0.491188 0.386603
0.000000 0.245548 0.244083
0.136690 0.269230 0.260349
0.332036 0.315221 0.280522
0.586969 0.357183 0.288945
0.757107 0.410040 0.309911
0.867338 0.458534 0.332189
0.952605 0.503014 0.357031
1.000000 0.540276 0.380102
0.115511 0.452888 0.335943
0.194858 0.455848 0.336400
0.326726 0.441932 0.321202
0.569024 0.569940 0.414038
0.768795 0.604700 0.367834
0.874052 0.601373 0.365057
0.954009 0.612482 0.387945
1.000000 0.625360 0.407843
0.203830 0.611048 0.416388
0.255497 0.609766 0.415747
0.368200 0.600519 0.408148
0.463416 0.563043 0.366461
0.714015 0.734737 0.546471
0.858213 0.758358 0.524681
0.954437 0.732143 0.437201
1.000000 0.723262 0.453101
0.300542 0.730617 0.507042
0.333867 0.729030 0.507317
0.415290 0.721157 0.502617
0.485878 0.684840 0.456764
0.621790 0.724086 0.500267
0.814664 0.840635 0.673610
0.923980 0.856229 0.676905
1.000000 0.831937 0.598566
0.412634 0.836332 0.621027
0.432410 0.834379 0.621210
0.487617 0.828031 0.619562
0.548821 0.811246 0.599634
0.602930 0.778103 0.541924
0.754238 0.847776 0.659113
0.894041 0.912810 0.782071
0.971771 0.917571 0.787259
0.536217 0.924895 0.744442
0.547509 0.923827 0.744625
0.589532 0.921141 0.749569
0.651209 0.918120 0.759152
0.693111 0.905577 0.733211
0.751247 0.893797 0.708186
0.869078 0.937224 0.806119
0.957000 0.961975 0.861326
0.000000 0.062745 0.385565
0.124269 0.066712 0.393896
0.356359 0.099580 0.410651
0.568170 0.151644 0.435615
0.728817 0.246525 0.453620
0.828611 0.351019 0.474556
0.924773 0.458076 0.516197
1.000000 0.528435 0.547051
0.000000 0.138399 0.395148
0.142061 0.149416 0.402289
0.364385 0.192874 0.421393
0.565393 0.231601 0.445777
0.721981 0.294163 0.459358
0.825650 0.381079 0.479652
0.923552 0.475959 0.518639
1.000000 0.538231 0.545953
0.000000 0.268132 0.393103
0.097780 0.277684 0.397131
0.340429 0.321965 0.429389
0.545129 0.368505 0.460609
0.702113 0.404425 0.472450
0.831754 0.484749 0.509911
0.928191 0.549798 0.545739
1.000000 0.587060 0.560449
0.000000 0.439033 0.436439
0.156466 0.453559 0.447944
0.348028 0.486488 0.475929
0.544823 0.545098 0.509331
0.722530 0.576959 0.518486
0.837461 0.608606 0.543694
0.927916 0.636561 0.565057
1.000000 0.657008 0.578912
0.211978 0.639216 0.550500
0.266758 0.636988 0.546838
0.387793 0.630335 0.535210
0.489570 0.596582 0.494820
0.708888 0.740810 0.657832
0.842618 0.753597 0.625574
0.932372 0.745388 0.608209
1.000000 0.743435 0.613245
0.318669 0.749081 0.605676
0.355596 0.750454 0.608820
0.439612 0.742519 0.603510
0.524163 0.723018 0.583886
0.614191 0.716793 0.569451
0.811276 0.844541 0.747463
0.917174 0.858183 0.741238
0.997375 0.835050 0.678584
0.423590 0.843900 0.684565
0.444526 0.843107 0.685695
0.502342 0.839322 0.686397
0.571893 0.831205 0.680690
0.620233 0.799710 0.630060
0.748806 0.845090 0.702052
0.894285 0.916289 0.824857
0.969757 0.920287 0.823758
0.544152 0.929290 0.782773
0.556481 0.928954 0.783841
0.592706 0.927062 0.785214
0.648493 0.923430 0.787808
0.699153 0.912657 0.774716
0.747707 0.896086 0.739528
0.866178 0.936217 0.825528
0.957702 0.963928 0.883330
0.000000 0.106142 0.572656
0.139101 0.114351 0.579767
0.385290 0.155703 0.599756
0.561028 0.199557 0.610193
0.720790 0.325994 0.623560
0.824308 0.421942 0.629938
0.902953 0.513024 0.656428
0.971649 0.603998 0.705348
0.000000 0.174411 0.573266
0.158175 0.184512 0.581567
0.387060 0.224430 0.602594
0.561120 0.267063 0.615045
0.716640 0.370642 0.628626
0.820005 0.449561 0.635370
0.900145 0.530510 0.661585
0.971893 0.612146 0.706203
0.000000 0.292515 0.551965
0.105837 0.304479 0.565393
0.359442 0.345678 0.596735
0.554559 0.409491 0.623926
0.701259 0.477485 0.641108
0.803616 0.518364 0.645869
0.889769 0.576501 0.672023
0.972473 0.636316 0.705623
0.000000 0.445777 0.571466
0.097566 0.451270 0.572992
0.301366 0.468696 0.580468
0.529778 0.534325 0.624903
0.672206 0.572442 0.645655
0.786343 0.600855 0.659052
0.893400 0.650263 0.690822
0.977874 0.678950 0.705867
0.131228 0.605615 0.614313
0.210849 0.612238 0.619593
0.369574 0.636378 0.641138
0.529412 0.653468 0.656031
0.676783 0.707088 0.695186
0.807919 0.724544 0.699184
0.903441 0.741054 0.715114
0.980804 0.750576 0.722591
0.335790 0.763668 0.711330
0.368658 0.762509 0.709834
0.453010 0.756771 0.703212
0.543053 0.746639 0.689631
0.598322 0.707790 0.636561
0.805112 0.844602 0.803861
0.909087 0.850187 0.783993
0.984466 0.835813 0.761532
0.438270 0.852750 0.758999
0.457313 0.851499 0.758541
0.512688 0.847837 0.756741
0.581048 0.842069 0.751217
0.637995 0.826017 0.726314
0.724025 0.827420 0.724300
0.891844 0.917327 0.861418
0.967895 0.919371 0.851835
0.544762 0.930755 0.823056
0.556390 0.930144 0.823270
0.592645 0.928496 0.823880
0.646632 0.927947 0.825834
0.702205 0.922942 0.820676
0.747097 0.905089 0.788907
0.855772 0.931334 0.840208
0.957671 0.965332 0.904631
0.081300 0.167880 0.733974
0.210269 0.177066 0.737423
0.409705 0.216587 0.747463
0.602075 0.324132 0.767453
0.693751 0.347875 0.740688
0.817075 0.487953 0.756222
0.897948 0.572625 0.768002
0.964996 0.644831 0.791440
0.104738 0.221439 0.728054
0.214420 0.229892 0.731502
0.407019 0.266667 0.743618
0.596643 0.362554 0.764309
0.690242 0.386053 0.741024
0.813046 0.512169 0.758267
0.894926 0.586419 0.770199
0.963226 0.653407 0.793393
0.000000 0.334783 0.717891
0.178592 0.341497 0.723232
0.387793 0.378576 0.738003
0.583612 0.463020 0.762722
0.687984 0.497261 0.753323
0.805539 0.587091 0.771298
0.888090 0.632593 0.781033
0.959380 0.684016 0.802457
0.000000 0.457649 0.696986
0.000000 0.459327 0.696132
0.296269 0.476600 0.708461
0.543938 0.555138 0.752071
0.686976 0.617212 0.773281
0.794736 0.668757 0.787350
0.879698 0.691646 0.795560
0.955200 0.726558 0.814786
0.059937 0.606256 0.720211
0.169192 0.609094 0.721035
0.326604 0.618311 0.723751
0.478584 0.633112 0.728725
0.659297 0.693324 0.768826
0.768063 0.716365 0.781674
0.865171 0.735592 0.795041
0.957031 0.767575 0.818173
0.253696 0.735012 0.751247
0.299809 0.738003 0.753689
0.414343 0.749416 0.763729
0.543999 0.765469 0.779019
0.650355 0.772976 0.785092
0.781247 0.822110 0.824918
0.889860 0.830747 0.828153
0.968353 0.834501 0.834012
0.456214 0.864683 0.832486
0.480507 0.865751 0.834836
0.542290 0.865995 0.837369
0.608423 0.862333 0.832944
0.670069 0.854795 0.821653
0.706294 0.822477 0.774014
0.895720 0.922759 0.900389
0.969116 0.916594 0.880003
0.557458 0.936797 0.872007
0.568811 0.936278 0.871977
0.604120 0.934752 0.871733
0.655116 0.933349 0.871427
0.709560 0.930571 0.867948
0.759243 0.922698 0.854337
0.833799 0.920684 0.850004
0.958801 0.967681 0.929229
0.245731 0.242802 0.849943
0.308629 0.254490 0.853300
0.452277 0.292424 0.857542
0.611536 0.376104 0.864347
0.743618 0.480354 0.870817
0.804990 0.497383 0.842741
0.890257 0.608545 0.844938
0.957214 0.677729 0.854795
0.236088 0.277195 0.841062
0.298741 0.287572 0.844480
0.441444 0.320989 0.849119
0.601068 0.397040 0.856840
0.735225 0.497719 0.864500
0.795346 0.506798 0.835996
0.882475 0.609705 0.839414
0.951476 0.673945 0.849577
0.206821 0.377325 0.838376
0.273014 0.385016 0.839811
0.423957 0.414710 0.844358
0.589715 0.482277 0.854154
0.733211 0.581842 0.865873
0.791165 0.580255 0.842313
0.881193 0.663600 0.850858
0.951995 0.712612 0.861845
0.000000 0.481086 0.818173
0.119234 0.484016 0.820218
0.349981 0.506004 0.830869
0.553735 0.567803 0.847227
0.717006 0.655848 0.865873
0.787930 0.671473 0.854673
0.880522 0.732387 0.867552
0.950622 0.757473 0.874754
0.000000 0.605737 0.813565
0.038514 0.604273 0.811521
0.256382 0.602136 0.807767
0.417914 0.605066 0.809049
0.652216 0.684108 0.846830
0.777096 0.737392 0.862303
0.867918 0.777127 0.872160
0.945739 0.797330 0.883330
0.190341 0.732204 0.829129
0.237034 0.733181 0.829252
0.348363 0.736416 0.829740
0.471351 0.742367 0.831662
0.585626 0.746700 0.832853
0.759274 0.801846 0.868223
0.858610 0.825254 0.880400
0.942229 0.838651 0.891386
0.353674 0.839933 0.854490
0.382147 0.841581 0.855985
0.457679 0.844144 0.858335
0.556329 0.852079 0.865507
0.660670 0.862852 0.875700
0.760494 0.871031 0.884398
0.876127 0.906310 0.911864
0.959136 0.902739 0.907866
0.532280 0.936675 0.906096
0.547051 0.936736 0.906767
0.598566 0.938964 0.911131
0.667842 0.940826 0.916472
0.729335 0.939940 0.916411
0.784298 0.936950 0.911833
0.818021 0.919921 0.885069
0.962280 0.971618 0.954772
0.356878 0.337896 0.924895
0.395422 0.342229 0.925933
0.494331 0.360418 0.925444
0.622858 0.423468 0.926787
0.749569 0.522271 0.928405
0.838529 0.570642 0.928313
0.889403 0.598962 0.905699
0.948333 0.683528 0.898375
0.350622 0.347875 0.921721
0.387762 0.356359 0.922576
0.487007 0.382177 0.922454
0.615778 0.440192 0.923583
0.743923 0.534234 0.925811
0.834348 0.583490 0.926268
0.885039 0.606317 0.903899
0.945586 0.687800 0.897551
0.312413 0.416938 0.916075
0.353277 0.423743 0.916655
0.460121 0.444831 0.916136
0.602350 0.503777 0.920928
0.733394 0.582910 0.923766
0.828367 0.635187 0.925017
0.879942 0.647547 0.905821
0.943359 0.717617 0.902190
0.144198 0.494179 0.907286
0.231907 0.501244 0.908965
0.392065 0.522240 0.911040
0.560601 0.569757 0.915343
0.709865 0.639185 0.921111
0.823972 0.708583 0.927001
0.876066 0.709529 0.912474
0.943175 0.765011 0.912261
0.000000 0.599908 0.892363
0.000000 0.599481 0.892821
0.152499 0.592676 0.892210
0.425269 0.606989 0.902586
0.644892 0.672419 0.912688
0.800900 0.754177 0.924895
0.867643 0.768124 0.918578
0.944732 0.819150 0.925658
0.000000 0.725704 0.897734
0.000000 0.723842 0.896605
0.220523 0.718776 0.894072
0.355627 0.711116 0.891630
0.479255 0.696803 0.888884
0.738766 0.777432 0.918730
0.878538 0.841581 0.938476
0.945190 0.868589 0.938384
0.264042 0.839841 0.912474
0.289769 0.839445 0.912169
0.363806 0.838865 0.911711
0.464424 0.840208 0.912749
0.572992 0.842527 0.914733
0.680537 0.843870 0.917052
0.848478 0.881712 0.937285
0.938323 0.904143 0.944732
0.423224 0.925444 0.929198
0.438270 0.925078 0.929046
0.488624 0.925078 0.929473
0.567498 0.926543 0.931365
0.658778 0.928771 0.934142
0.756374 0.936522 0.941344
0.857176 0.943603 0.949767
0.949462 0.962585 0.965301
