data/fiter_cube/80369196/1023064/file.cube
# Created by Adobe Lightroom plugin Export LUT (1.17.0)
# www.johnrellis.com/lightroom/exportlut.htm
# Preset: Dream Travel_02
# Color profile: C:\Program Files (x86)\Common Files\Adobe\Color\Profiles\Recommended\AdobeRGB1998.icc
LUT_3D_SIZE 32
DOMAIN_MIN 0.0 0.0 0.0
DOMAIN_MAX 1.0 1.0 1.0
0.000000 0.000000 0.000000
0.019013 0.000244 0.003815
0.046937 0.001343 0.008392
0.077577 0.003662 0.018311
0.117342 0.001801 0.032380
0.171847 0.000000 0.041260
0.233280 0.000000 0.047028
0.298833 0.000000 0.048188
0.366308 0.000000 0.045960
0.433661 0.000000 0.042756
0.499611 0.000000 0.039338
0.561669 0.000000 0.039490
0.618463 0.000000 0.044862
0.668025 0.000000 0.054994
0.711177 0.000000 0.065126
0.750027 0.000000 0.078492
0.787869 0.000000 0.095064
0.819486 0.100923 0.111849
0.846555 0.160952 0.129885
0.871305 0.205295 0.149020
0.894102 0.243809 0.169406
0.915007 0.278477 0.192081
0.934203 0.310063 0.215732
0.951812 0.340185 0.241489
0.968170 0.368048 0.268467
0.983490 0.395422 0.297856
0.997955 0.422797 0.329564
1.000000 0.450263 0.363653
1.000000 0.478523 0.401068
1.000000 0.507591 0.441291
1.000000 0.537682 0.483986
1.000000 0.568719 0.528496
0.003418 0.010895 0.007691
0.016449 0.011048 0.008392
0.049195 0.011505 0.005341
0.079103 0.016999 0.016022
0.119478 0.016388 0.028717
0.173587 0.000000 0.038331
0.234745 0.000000 0.042939
0.299382 0.000000 0.044160
0.366247 0.000000 0.041199
0.433417 0.000000 0.037476
0.498634 0.000000 0.034180
0.560266 0.000000 0.033204
0.616968 0.000000 0.036072
0.666468 0.000000 0.046723
0.709499 0.000000 0.061372
0.748653 0.000000 0.074739
0.785519 0.000000 0.091279
0.816709 0.109865 0.108278
0.843748 0.164675 0.126040
0.868528 0.207431 0.145083
0.891356 0.244663 0.165774
0.912505 0.278538 0.187900
0.931853 0.309636 0.211948
0.949676 0.339117 0.237552
0.966278 0.367132 0.264530
0.981781 0.394415 0.293980
0.996490 0.421546 0.325689
1.000000 0.449134 0.360113
1.000000 0.477272 0.397284
1.000000 0.506188 0.437446
1.000000 0.536370 0.480568
1.000000 0.567376 0.525322
0.008179 0.024933 0.019379
0.022339 0.024872 0.021180
0.040894 0.026551 0.019471
0.079377 0.039185 0.014160
0.121889 0.040192 0.023163
0.176455 0.013703 0.033448
0.236851 0.000000 0.037354
0.300908 0.000000 0.038087
0.367468 0.000000 0.034485
0.433722 0.000000 0.030518
0.498939 0.000000 0.025360
0.560388 0.000000 0.022583
0.616754 0.000000 0.024140
0.666224 0.000000 0.033051
0.708980 0.000000 0.054322
0.748318 0.000000 0.070161
0.784604 0.033661 0.086458
0.815396 0.126619 0.104402
0.842344 0.174197 0.122438
0.867124 0.214145 0.141512
0.890074 0.249393 0.162570
0.911284 0.282231 0.184939
0.930724 0.312749 0.209323
0.948638 0.341344 0.234897
0.965332 0.368872 0.261753
0.980926 0.395727 0.291295
0.995727 0.422614 0.322972
1.000000 0.449897 0.357397
1.000000 0.477852 0.395117
1.000000 0.506737 0.435523
1.000000 0.536400 0.478126
1.000000 0.567376 0.523430
0.019593 0.058198 0.046357
0.034791 0.059266 0.047669
0.052277 0.058350 0.045441
0.072572 0.063447 0.043214
0.121218 0.074952 0.029664
0.183536 0.071687 0.019532
0.243412 0.051087 0.024292
0.306920 0.000000 0.023651
0.372290 0.000000 0.019074
0.437964 0.000000 0.011383
0.501976 0.000000 0.005066
0.562646 0.000000 0.000000
0.618189 0.000000 0.000183
0.666896 0.000000 0.008576
0.709346 0.000000 0.029114
0.749020 0.000000 0.058625
0.784115 0.110353 0.077882
0.814298 0.157809 0.096559
0.840757 0.195285 0.115206
0.865202 0.229496 0.135500
0.887999 0.261387 0.156832
0.909239 0.291539 0.179385
0.928954 0.320287 0.203891
0.947295 0.347997 0.229801
0.964416 0.374823 0.257877
0.980438 0.401343 0.288304
0.995514 0.427893 0.320897
1.000000 0.454719 0.355718
1.000000 0.482094 0.393622
1.000000 0.510155 0.433906
1.000000 0.539117 0.476722
1.000000 0.569177 0.521294
0.027741 0.083406 0.063508
0.043854 0.085267 0.063569
0.059937 0.084291 0.063020
0.075257 0.084657 0.062104
0.105440 0.096895 0.059693
0.173587 0.115969 0.039368
0.248356 0.115358 0.003174
0.314244 0.101625 0.000000
0.378759 0.080629 0.000000
0.443091 0.044709 0.000000
0.506004 0.000000 0.000000
0.565606 0.000000 0.000000
0.620264 0.000000 0.000000
0.668208 0.029206 0.000000
0.710445 0.090120 0.000000
0.750271 0.131380 0.018433
0.784695 0.166659 0.060578
0.814481 0.198520 0.084321
0.840818 0.227390 0.105348
0.864988 0.255467 0.127443
0.887510 0.282353 0.149294
0.908568 0.309239 0.173190
0.928222 0.335180 0.197910
0.946624 0.360723 0.224582
0.963806 0.385809 0.253513
0.979919 0.410834 0.284092
0.995056 0.436042 0.317021
1.000000 0.461402 0.352239
1.000000 0.487770 0.390204
1.000000 0.514855 0.430854
1.000000 0.542931 0.473548
1.000000 0.572412 0.518700
0.031403 0.115846 0.074189
0.046082 0.117800 0.073426
0.060822 0.118654 0.073121
0.078187 0.115175 0.071778
0.104005 0.121584 0.069917
0.151156 0.142641 0.066560
0.233158 0.167910 0.041962
0.312871 0.169314 0.000000
0.389319 0.161746 0.000000
0.452522 0.151308 0.000000
0.514031 0.144137 0.000000
0.572229 0.142397 0.000000
0.625391 0.147982 0.000000
0.672267 0.159518 0.000000
0.714748 0.177279 0.000000
0.753231 0.198978 0.000000
0.786618 0.221530 0.005341
0.815915 0.244022 0.062593
0.841855 0.266056 0.091249
0.865965 0.288396 0.115877
0.888426 0.311284 0.140688
0.909483 0.334142 0.166171
0.942962 0.378820 0.211765
0.959838 0.400488 0.240269
0.975525 0.421881 0.269505
0.990143 0.443336 0.300786
1.000000 0.465248 0.333837
1.000000 0.487800 0.368841
1.000000 0.511376 0.406470
1.000000 0.535943 0.446021
1.000000 0.561700 0.488014
1.000000 0.588647 0.531609
0.023590 0.157900 0.086427
0.039094 0.159548 0.086030
0.058930 0.161746 0.085481
0.081209 0.157992 0.084199
0.106264 0.151553 0.081178
0.145724 0.170932 0.080537
0.208927 0.200473 0.076478
0.303563 0.232242 0.050935
0.386603 0.235935 0.000000
0.465217 0.233494 0.000000
0.532097 0.230777 0.000000
0.589441 0.231693 0.000000
0.639734 0.235416 0.000000
0.684657 0.242496 0.000000
0.727504 0.255009 0.000000
0.763790 0.268772 0.000000
0.795377 0.283268 0.000000
0.823301 0.298375 0.003876
0.848631 0.314702 0.073030
0.872465 0.332433 0.105776
0.895232 0.351751 0.135012
0.916960 0.372320 0.164370
0.937255 0.393408 0.194858
0.956023 0.414527 0.226230
0.973144 0.435706 0.258671
0.988586 0.456214 0.291752
1.000000 0.476844 0.326146
1.000000 0.497963 0.361700
1.000000 0.519890 0.400061
1.000000 0.543206 0.440223
1.000000 0.567590 0.482399
1.000000 0.593286 0.526177
0.013306 0.199741 0.100191
0.032868 0.200900 0.099855
0.057008 0.202426 0.098878
0.082826 0.200687 0.098054
0.110170 0.193545 0.094881
0.140047 0.191501 0.092348
0.192416 0.221286 0.092836
0.266911 0.256901 0.090150
0.368658 0.295659 0.071717
0.450813 0.302922 0.000000
0.526482 0.305089 0.000000
0.594202 0.305852 0.000000
0.644556 0.308019 0.000000
0.692164 0.314946 0.000000
0.732296 0.321782 0.000000
0.766537 0.328405 0.000000
0.796963 0.336706 0.000000
0.824094 0.346288 0.000000
0.848844 0.357366 0.000000
0.872282 0.370306 0.079652
0.894804 0.385077 0.116365
0.916197 0.401404 0.149874
0.936278 0.418952 0.182773
0.954894 0.436744 0.215763
0.972015 0.454810 0.248905
0.987518 0.472938 0.282933
1.000000 0.491371 0.317479
1.000000 0.510521 0.354284
1.000000 0.530755 0.392676
1.000000 0.552300 0.433600
1.000000 0.575311 0.476356
1.000000 0.599756 0.520592
0.011475 0.243534 0.116091
0.035096 0.244419 0.115785
0.060334 0.245731 0.115785
0.087709 0.245640 0.115572
0.116243 0.238468 0.112001
0.144259 0.228977 0.107576
0.182895 0.240391 0.106874
0.245792 0.276127 0.109438
0.329381 0.317113 0.109957
0.434730 0.363226 0.098390
0.513725 0.373938 0.015564
0.585382 0.380194 0.000000
0.648066 0.384131 0.000000
0.697902 0.384802 0.000000
0.736172 0.386755 0.000000
0.769924 0.389227 0.000000
0.799924 0.392767 0.000000
0.826291 0.397314 0.000000
0.850401 0.403479 0.000000
0.873411 0.411841 0.003388
0.895476 0.422522 0.090974
0.916472 0.434699 0.132601
0.936309 0.448219 0.168643
0.954742 0.462776 0.203769
0.971679 0.477852 0.238773
0.987121 0.493172 0.273503
1.000000 0.509178 0.309606
1.000000 0.526207 0.346807
1.000000 0.544335 0.385779
1.000000 0.563989 0.427161
1.000000 0.585168 0.470344
1.000000 0.607965 0.515099
0.023224 0.288609 0.134249
0.049012 0.289220 0.134005
0.068055 0.289799 0.133730
0.095369 0.291173 0.133913
0.124056 0.284367 0.131075
0.152377 0.274662 0.125978
0.180117 0.263249 0.120485
0.231846 0.292332 0.124788
0.303838 0.333227 0.130037
0.392004 0.378882 0.134432
0.500725 0.433967 0.133089
0.575738 0.448219 0.084016
0.639460 0.454170 0.000000
0.692775 0.454292 0.000000
0.738308 0.451148 0.000000
0.772854 0.449348 0.000000
0.802670 0.449287 0.000000
0.829465 0.450202 0.000000
0.853727 0.452583 0.000000
0.876066 0.456641 0.000000
0.897246 0.462776 0.037568
0.917388 0.470619 0.109316
0.936431 0.480018 0.151400
0.954223 0.490639 0.189487
0.970825 0.502281 0.226047
0.986175 0.514794 0.262150
1.000000 0.528374 0.299107
1.000000 0.543267 0.337530
1.000000 0.559594 0.377996
1.000000 0.577478 0.420142
1.000000 0.597101 0.464332
1.000000 0.618372 0.510369
0.047456 0.332952 0.153902
0.064912 0.333440 0.153719
0.079103 0.333867 0.153475
0.103639 0.334874 0.153048
0.133883 0.330327 0.151644
0.161959 0.320989 0.146548
0.189975 0.309728 0.140719
0.222080 0.306310 0.136995
0.286351 0.347662 0.145724
0.366705 0.395056 0.155612
0.458717 0.446021 0.164858
0.563256 0.504234 0.173983
0.628504 0.515343 0.132113
0.683467 0.517693 0.077821
0.730098 0.515435 0.000000
0.770291 0.510307 0.000000
0.804227 0.504295 0.000000
0.830381 0.501701 0.000000
0.854368 0.500389 0.000000
0.877195 0.500938 0.000000
0.898528 0.503410 0.000000
0.918334 0.507683 0.071107
0.937133 0.513970 0.129152
0.954711 0.521447 0.172885
0.971099 0.530053 0.212436
0.986267 0.539818 0.251072
1.000000 0.550622 0.289006
1.000000 0.562951 0.328679
1.000000 0.576928 0.369512
1.000000 0.592523 0.412421
1.000000 0.610071 0.457374
1.000000 0.629480 0.503777
0.070314 0.378058 0.175265
0.080598 0.378241 0.175113
0.093446 0.378515 0.174777
0.115999 0.379065 0.174228
0.145846 0.376776 0.174014
0.173159 0.367742 0.168734
0.201541 0.357824 0.162783
0.229252 0.345525 0.156161
0.274174 0.361242 0.158724
0.345922 0.407416 0.171298
0.429725 0.457618 0.185336
0.520439 0.510216 0.200320
0.638727 0.590845 0.239780
0.693782 0.596277 0.201358
0.740108 0.594232 0.160555
0.779690 0.588128 0.113161
0.814023 0.579644 0.008087
0.844144 0.570123 0.000000
0.867948 0.562829 0.000000
0.888945 0.559136 0.000000
0.909056 0.557153 0.000000
0.928252 0.556939 0.006653
0.945434 0.558526 0.115755
0.961639 0.562066 0.165805
0.976898 0.566949 0.208072
0.991119 0.573266 0.248386
1.000000 0.580926 0.287755
1.000000 0.590234 0.328344
1.000000 0.601129 0.369360
1.000000 0.614069 0.412634
1.000000 0.628962 0.457496
1.000000 0.645930 0.503960
0.092775 0.430732 0.202121
0.101686 0.431098 0.202060
0.113100 0.431006 0.201602
0.133791 0.431128 0.200870
0.163577 0.430793 0.201755
0.190066 0.421790 0.196170
0.217655 0.411017 0.189548
0.244846 0.398077 0.181704
0.271366 0.383642 0.173129
0.332372 0.421210 0.185000
0.410925 0.472541 0.203494
0.498360 0.527092 0.224460
0.586816 0.581933 0.248875
0.675563 0.636500 0.287266
0.725734 0.640772 0.251530
0.767758 0.638087 0.215091
0.803769 0.631189 0.176333
0.835019 0.622065 0.132082
0.862882 0.612085 0.069673
0.888243 0.602502 0.000000
0.908019 0.597955 0.000000
0.927001 0.595117 0.052583
0.945037 0.593500 0.088991
0.961456 0.593774 0.138796
0.976501 0.595880 0.188296
0.990631 0.599542 0.231907
1.000000 0.604700 0.273594
1.000000 0.611719 0.315740
1.000000 0.620478 0.358404
1.000000 0.631220 0.402533
1.000000 0.644068 0.448676
1.000000 0.659144 0.496284
0.115206 0.476814 0.227726
0.122805 0.476783 0.227451
0.132235 0.476570 0.227085
0.150881 0.476051 0.226108
0.175906 0.475013 0.224674
0.204807 0.467811 0.221775
0.231266 0.456947 0.214694
0.257572 0.444404 0.206363
0.283391 0.430243 0.197330
0.315435 0.425605 0.192508
0.386816 0.475196 0.212345
0.467414 0.528008 0.235111
0.550835 0.581353 0.261875
0.631250 0.631006 0.292027
0.710475 0.679896 0.340154
0.754879 0.681453 0.304601
0.792325 0.676814 0.268498
0.824735 0.669123 0.232792
0.853727 0.659876 0.194888
0.880369 0.650324 0.154452
0.905150 0.640711 0.104189
0.926177 0.633722 0.082399
0.944030 0.629877 0.107881
0.961181 0.627405 0.127871
0.976776 0.626398 0.164736
0.990784 0.627588 0.214023
1.000000 0.630426 0.259037
1.000000 0.635065 0.303075
1.000000 0.641596 0.347478
1.000000 0.650233 0.393286
1.000000 0.660945 0.440131
1.000000 0.674037 0.489326
0.137240 0.519982 0.254246
0.143862 0.519951 0.254002
0.152132 0.519402 0.253300
0.169039 0.518456 0.252171
0.192172 0.516899 0.250370
0.220340 0.511864 0.248508
0.245151 0.501366 0.241032
0.270756 0.489174 0.232517
0.295964 0.475807 0.223117
0.320867 0.460700 0.212985
0.366400 0.476936 0.218357
0.441016 0.528252 0.242557
0.519768 0.580346 0.270512
0.596429 0.629206 0.302190
0.669337 0.673579 0.336767
0.740444 0.717311 0.392523
0.780087 0.716915 0.357275
0.813840 0.711208 0.321813
0.843839 0.703334 0.287144
0.871427 0.694423 0.252506
0.896880 0.685267 0.217288
0.920714 0.675959 0.179110
0.942931 0.666590 0.133272
0.960113 0.661738 0.146792
0.976318 0.658289 0.162722
0.991241 0.656458 0.193393
1.000000 0.657313 0.243381
1.000000 0.659998 0.290684
1.000000 0.664637 0.337377
1.000000 0.671382 0.385534
1.000000 0.680385 0.434730
1.000000 0.691218 0.484565
0.159670 0.560601 0.281407
0.165896 0.560693 0.281376
0.173037 0.560296 0.280644
0.188235 0.559533 0.279698
0.209628 0.558190 0.277958
0.237980 0.555871 0.278111
0.261601 0.546410 0.270481
0.286412 0.535271 0.261875
0.311406 0.522393 0.252049
0.335515 0.508141 0.241581
0.358618 0.492134 0.230106
0.419226 0.529290 0.248264
0.492775 0.579095 0.276463
0.565393 0.626490 0.308629
0.634974 0.669886 0.343328
0.701045 0.708980 0.379614
0.765286 0.748623 0.442115
0.801419 0.747280 0.408118
0.833005 0.741634 0.374243
0.861784 0.734585 0.341741
0.888334 0.726589 0.309606
0.912932 0.717983 0.277440
0.935943 0.708980 0.243351
0.957519 0.699733 0.205753
0.976318 0.692134 0.184634
0.991760 0.687984 0.197665
1.000000 0.685603 0.227573
1.000000 0.686213 0.278569
1.000000 0.688655 0.327550
1.000000 0.693233 0.377020
1.000000 0.699977 0.427771
1.000000 0.708095 0.477180
0.182162 0.597711 0.308904
0.187076 0.597559 0.308598
0.193606 0.597070 0.307958
0.207156 0.596277 0.306950
0.226841 0.594995 0.305241
0.250309 0.593225 0.302678
0.276890 0.586023 0.299168
0.300481 0.575799 0.290684
0.324498 0.563867 0.280491
0.348180 0.550469 0.269963
0.371130 0.535515 0.258122
0.398627 0.527703 0.250858
0.468147 0.576623 0.279484
0.537560 0.623194 0.312078
0.604791 0.666346 0.347692
0.668391 0.705196 0.384863
0.728573 0.739925 0.423041
0.786557 0.774929 0.486458
0.820890 0.774533 0.458167
0.850645 0.769375 0.426032
0.877958 0.762661 0.395026
0.903349 0.754971 0.364141
0.926970 0.746731 0.333227
0.949187 0.738064 0.301091
0.970184 0.729000 0.266209
0.990051 0.719722 0.228214
1.000000 0.714290 0.230289
1.000000 0.711910 0.263157
1.000000 0.712428 0.315038
1.000000 0.715023 0.367041
1.000000 0.719722 0.419257
1.000000 0.725643 0.469795
0.206180 0.632685 0.337560
0.210788 0.632807 0.337865
0.227176 0.645563 0.349065
0.239139 0.644678 0.347967
0.256931 0.643061 0.346136
0.278111 0.640833 0.343206
0.304021 0.635523 0.341039
0.325505 0.625788 0.331304
0.348089 0.614679 0.320684
0.370916 0.602167 0.309087
0.393133 0.588037 0.296300
0.414221 0.572320 0.282658
0.454780 0.583825 0.288518
0.521141 0.629206 0.322179
0.585168 0.671138 0.359075
0.646418 0.709316 0.397528
0.704616 0.743587 0.437110
0.759152 0.773770 0.475929
0.810147 0.802853 0.536828
0.842405 0.803464 0.516167
0.869932 0.798062 0.485176
0.895567 0.791379 0.454963
0.919524 0.783780 0.424720
0.941955 0.775509 0.394018
0.963012 0.766506 0.361913
0.982971 0.757229 0.328161
1.000000 0.747524 0.291478
1.000000 0.738949 0.263890
1.000000 0.736477 0.301457
1.000000 0.737148 0.356146
1.000000 0.739528 0.409216
1.000000 0.743343 0.460914
0.233768 0.668452 0.370550
0.238956 0.669886 0.371954
0.245731 0.671168 0.373083
0.257969 0.671870 0.373571
0.274540 0.671565 0.373144
0.294804 0.670130 0.371496
0.320653 0.667323 0.371466
0.340520 0.658808 0.362097
0.361761 0.649104 0.351965
0.383398 0.637995 0.340490
0.404974 0.625544 0.327672
0.425818 0.611536 0.314000
0.445441 0.595727 0.299046
0.498329 0.625422 0.321386
0.560388 0.667048 0.358068
0.620050 0.705196 0.396979
0.676753 0.739590 0.436988
0.730465 0.770291 0.476967
0.780789 0.797299 0.516106
0.827054 0.822568 0.573724
0.857908 0.824491 0.560937
0.884123 0.819883 0.533196
0.908751 0.813809 0.505089
0.931762 0.806729 0.476631
0.953368 0.798825 0.447242
0.973938 0.790311 0.416419
0.993500 0.781399 0.384222
1.000000 0.772183 0.349554
1.000000 0.762600 0.310796
1.000000 0.759457 0.344335
1.000000 0.759670 0.398932
1.000000 0.761563 0.451637
0.257755 0.697810 0.399786
0.262821 0.698939 0.400946
0.268894 0.700099 0.402380
0.279637 0.700618 0.402808
0.294926 0.700313 0.402502
0.313634 0.698970 0.401038
0.334722 0.696803 0.398718
0.357488 0.690517 0.394751
0.377020 0.682063 0.384985
0.397345 0.672267 0.373663
0.418006 0.661250 0.361303
0.438361 0.648890 0.347601
0.457862 0.634974 0.332921
0.479347 0.623865 0.320989
0.539544 0.665003 0.357641
0.597620 0.702876 0.396826
0.653040 0.737331 0.437171
0.705653 0.768215 0.477974
0.755215 0.795590 0.518334
0.801816 0.819608 0.556847
0.843778 0.841306 0.609735
0.873075 0.844297 0.604120
0.897917 0.840208 0.579248
0.921233 0.834653 0.553765
0.943175 0.827939 0.527306
0.964050 0.820340 0.499153
0.984009 0.812253 0.470039
1.000000 0.803738 0.439307
1.000000 0.794980 0.406378
1.000000 0.785458 0.370825
1.000000 0.779751 0.386969
1.000000 0.779843 0.441596
0.282902 0.726162 0.430365
0.287388 0.727230 0.431586
0.293034 0.728206 0.432807
0.303166 0.728634 0.433570
0.317144 0.728359 0.433448
0.334173 0.727077 0.432319
0.353399 0.725093 0.430518
0.376165 0.720882 0.429175
0.393866 0.713283 0.419348
0.412634 0.704707 0.408667
0.431769 0.695003 0.396399
0.451301 0.684077 0.383124
0.470283 0.671870 0.368658
0.488594 0.658289 0.353063
0.521508 0.664332 0.357153
0.578271 0.702144 0.396918
0.633082 0.736965 0.438544
0.685267 0.768429 0.480873
0.734524 0.796475 0.523278
0.780789 0.821073 0.563836
0.824125 0.842588 0.600824
0.862425 0.861326 0.649683
0.889982 0.864927 0.649897
0.913359 0.861234 0.628168
0.935363 0.856107 0.605585
0.956146 0.849943 0.581994
0.976074 0.842985 0.557488
0.995361 0.835447 0.531334
1.000000 0.827420 0.503166
1.000000 0.818112 0.469306
1.000000 0.808774 0.443214
1.000000 0.801328 0.443244
0.315038 0.758328 0.468086
0.318395 0.758724 0.468635
0.322637 0.758846 0.469001
0.330968 0.758602 0.469032
0.343236 0.757839 0.468757
0.358495 0.756374 0.467781
0.376226 0.754482 0.466224
0.398199 0.751949 0.466773
0.415290 0.745632 0.458991
0.432380 0.738491 0.449042
0.450294 0.730312 0.437781
0.468605 0.720974 0.424933
0.486885 0.710506 0.410956
0.504723 0.698695 0.395727
0.521965 0.685664 0.379095
0.564965 0.706294 0.401373
0.618128 0.740322 0.443458
0.669093 0.771267 0.486122
0.717281 0.798795 0.528862
0.762509 0.823087 0.569299
0.804807 0.844266 0.606653
0.844266 0.862699 0.640528
0.878599 0.878141 0.683528
0.903899 0.881498 0.686946
0.925658 0.877867 0.667048
0.946349 0.873075 0.646754
0.966217 0.867338 0.625635
0.985443 0.861051 0.603815
1.000000 0.853849 0.579675
1.000000 0.845670 0.552087
1.000000 0.836637 0.520165
1.000000 0.829068 0.508080
0.342565 0.784451 0.500969
0.345739 0.784787 0.501396
0.349706 0.785031 0.502190
0.357397 0.784787 0.502403
0.368536 0.784024 0.502281
0.382269 0.782681 0.501518
0.398413 0.780911 0.500511
0.416693 0.778653 0.499336
0.436042 0.774136 0.497078
0.451179 0.767788 0.487282
0.467414 0.760739 0.476753
0.484260 0.752773 0.464881
0.501457 0.743709 0.451331
0.518761 0.733608 0.436744
0.535851 0.722530 0.421241
0.552544 0.710445 0.404395
0.604181 0.743282 0.445869
0.654200 0.773770 0.489265
0.701595 0.801083 0.532616
0.746242 0.825223 0.573816
0.787900 0.846433 0.611872
0.826932 0.864927 0.646509
0.863340 0.881010 0.677821
0.894377 0.893950 0.715785
0.916350 0.895750 0.718532
0.936828 0.892424 0.700862
0.956542 0.888090 0.682979
0.975463 0.882841 0.664179
0.993408 0.876616 0.643641
1.000000 0.869688 0.621271
1.000000 0.862211 0.596460
1.000000 0.854185 0.568078
0.376532 0.813230 0.540185
0.379583 0.813626 0.541100
0.383093 0.813687 0.541650
0.389685 0.813291 0.541833
0.399481 0.812345 0.541619
0.411658 0.810971 0.541100
0.426154 0.809079 0.540307
0.442603 0.806760 0.539330
0.462074 0.803342 0.539910
0.474830 0.797635 0.530480
0.488594 0.791196 0.519707
0.503380 0.784085 0.507958
0.518883 0.776120 0.495033
0.534722 0.767208 0.480842
0.550713 0.757321 0.465461
0.566644 0.746548 0.448951
0.592065 0.747097 0.448524
0.640650 0.776516 0.491371
0.687160 0.803220 0.534508
0.731075 0.827115 0.575952
0.772305 0.848234 0.614649
0.810727 0.866697 0.649836
0.846555 0.882628 0.681239
0.880003 0.896452 0.709163
0.907866 0.906950 0.741817
0.929168 0.909758 0.749599
0.948363 0.906676 0.734188
0.966491 0.902251 0.717250
0.983978 0.897032 0.699641
1.000000 0.891264 0.681270
1.000000 0.885100 0.661860
1.000000 0.878630 0.640803
0.405615 0.836515 0.574273
0.408515 0.836851 0.575250
0.411872 0.836973 0.575738
0.417853 0.836606 0.576135
0.426825 0.835782 0.576410
0.437934 0.834531 0.576349
0.451362 0.832975 0.576135
0.466407 0.831083 0.575799
0.482948 0.828855 0.575219
0.498421 0.824399 0.571740
0.510948 0.819150 0.562463
0.524590 0.813352 0.552270
0.539025 0.806943 0.540978
0.553826 0.799710 0.528405
0.568963 0.791653 0.514336
0.584466 0.782925 0.499458
0.600214 0.773404 0.483406
0.633875 0.785153 0.501335
0.679194 0.810758 0.544457
0.722042 0.833677 0.585657
0.762142 0.853910 0.623835
0.799680 0.871763 0.658808
0.834623 0.887297 0.690211
0.867277 0.900786 0.717952
0.897826 0.912444 0.742367
0.922606 0.920714 0.769955
0.941558 0.922820 0.778378
0.959045 0.919585 0.763973
0.975952 0.915557 0.749233
0.992187 0.910887 0.734371
1.000000 0.905882 0.719203
1.000000 0.900725 0.703334
0.438270 0.859953 0.611322
0.440650 0.860166 0.611963
0.443397 0.860075 0.612329
0.448493 0.859648 0.612543
0.456092 0.858762 0.612512
0.466011 0.857603 0.612512
0.477790 0.856107 0.612329
0.491463 0.854398 0.612268
0.506584 0.852537 0.612299
0.523033 0.849516 0.612238
0.534417 0.845182 0.604334
0.546960 0.840543 0.595911
0.560296 0.835355 0.586328
0.574212 0.829496 0.575463
0.588556 0.822995 0.563470
0.603265 0.815854 0.550347
0.618372 0.808164 0.536126
0.633875 0.800107 0.521233
0.673884 0.819760 0.556054
0.715389 0.841367 0.596338
0.754482 0.860685 0.633875
0.790951 0.877714 0.668391
0.824979 0.892638 0.699336
0.856535 0.905425 0.726345
0.885863 0.916411 0.749599
0.913359 0.925872 0.769986
0.935393 0.932219 0.792844
0.952331 0.933867 0.801999
0.968322 0.930785 0.789273
0.983978 0.927214 0.776883
0.998840 0.923247 0.764614
1.000000 0.919249 0.752712
0.469459 0.881407 0.646448
0.471534 0.881498 0.646998
0.473976 0.881407 0.647425
0.478614 0.881071 0.647730
0.485725 0.880491 0.648188
0.495216 0.879759 0.648920
0.506828 0.879026 0.650141
0.520287 0.878202 0.651545
0.535302 0.877317 0.653315
0.553307 0.876097 0.657069
0.565270 0.873411 0.652827
0.577447 0.870390 0.646967
0.590326 0.866911 0.640284
0.603754 0.862852 0.632319
0.617609 0.858213 0.623346
0.631769 0.852934 0.613031
0.646357 0.847196 0.601709
0.661555 0.841276 0.590051
0.681147 0.839292 0.585901
0.720424 0.858457 0.624140
0.757076 0.875425 0.659205
0.791196 0.890257 0.690730
0.823026 0.903319 0.718929
0.852750 0.914702 0.743954
0.880583 0.924651 0.765805
0.906676 0.933288 0.784756
0.931182 0.940703 0.801144
0.950072 0.944976 0.819181
0.964477 0.945922 0.828092
0.978637 0.942870 0.817014
0.992523 0.939757 0.807034
1.000000 0.936522 0.797604
0.509667 0.905943 0.689448
0.511254 0.905974 0.689784
0.513298 0.905791 0.689998
0.517296 0.905425 0.690303
0.523491 0.904814 0.690639
0.531579 0.904051 0.691249
0.541650 0.903197 0.692103
0.553429 0.902220 0.693355
0.566674 0.901213 0.694759
0.580987 0.900084 0.696315
0.595331 0.897948 0.696834
0.605646 0.895293 0.691554
0.616938 0.892332 0.685664
0.628901 0.888975 0.678981
