data/fiter_cube/80369196/1023064/file.cube
# Created by Adobe Lightroom plugin Export LUT (1.17.0)
# www.johnrellis.com/lightroom/exportlut.htm
# Preset: Dream Travel_02
# Color profile: C:\Program Files (x86)\Common Files\Adobe\Color\Profiles\Recommended\AdobeRGB1998.icc
LUT_3D_SIZE 5
DOMAIN_MIN 0.000000 0.000000 0.000000
DOMAIN_MAX 0.903226 0.903226 0.903226
0.000000 0.000000 0.000000
0.298833 0.000000 0.048188
0.711177 0.000000 0.065126
0.915007 0.278477 0.192081
1.000000 0.478523 0.401068
0.013306 0.199741 0.100191
0.266911 0.256901 0.090150
0.732296 0.321782 0.000000
0.916197 0.401404 0.149874
1.000000 0.530755 0.392676
0.137240 0.519982 0.254246
0.270756 0.489174 0.232517
0.669337 0.673579 0.336767
0.920714 0.675959 0.179110
1.000000 0.664637 0.337377
0.315038 0.758328 0.468086
0.398199 0.751949 0.466773
0.521965 0.685664 0.379095
0.844266 0.862699 0.640528
1.000000 0.853849 0.579675
0.543481 0.925658 0.724483
0.584314 0.922911 0.730068
0.659815 0.905425 0.708156
0.788510 0.909331 0.720455
0.957702 0.961059 0.841703
0.000000 0.029664 0.174136
0.268650 0.000000 0.189059
0.670832 0.080842 0.226261
0.893156 0.327672 0.271702
1.000000 0.475319 0.388098
0.000000 0.199222 0.202548
0.273564 0.258152 0.230961
0.686641 0.331945 0.247013
0.894530 0.429847 0.282597
1.000000 0.523308 0.376074
0.158389 0.529564 0.344579
0.310277 0.521721 0.338659
0.648371 0.657465 0.441718
0.901976 0.670802 0.341894
1.000000 0.669062 0.387121
0.332677 0.762509 0.524773
0.414588 0.756802 0.524071
0.532860 0.697475 0.444526
0.839475 0.863035 0.692897
0.997253 0.857145 0.640803
0.541283 0.926635 0.742397
0.583032 0.923919 0.747402
0.670802 0.912261 0.741329
0.786984 0.908812 0.736355
0.958068 0.962493 0.858640
0.000000 0.081880 0.481514
0.316106 0.114107 0.503899
0.655573 0.238468 0.538170
0.848051 0.410040 0.561273
0.987152 0.567742 0.634089
0.000000 0.245487 0.471565
0.301213 0.286931 0.508415
0.641535 0.391974 0.557610
0.832883 0.484077 0.577417
0.988586 0.600000 0.636988
0.061677 0.525902 0.528862
0.306371 0.558465 0.556481
0.617243 0.634272 0.611200
0.846555 0.677211 0.634882
0.990387 0.707393 0.658381
0.353887 0.781582 0.673121
0.437446 0.775113 0.668788
0.573388 0.746578 0.635035
0.831601 0.865812 0.796109
0.986511 0.857847 0.744778
0.541833 0.928923 0.800473
0.581140 0.927977 0.803098
0.674495 0.922789 0.803586
0.759274 0.894102 0.750332
0.956970 0.964080 0.892760
0.127230 0.183047 0.763272
0.367742 0.217746 0.772885
0.670130 0.377111 0.797574
0.835966 0.520165 0.780972
0.962585 0.652125 0.808164
0.113985 0.313664 0.753841
0.354406 0.345373 0.764889
0.666194 0.495155 0.798459
0.827543 0.588128 0.790372
0.957733 0.679957 0.814694
0.000000 0.529870 0.729580
0.229831 0.535027 0.728603
0.599176 0.621271 0.775784
0.799466 0.698878 0.800900
0.948699 0.749020 0.831052
0.285527 0.765988 0.782650
0.396185 0.770352 0.786038
0.604334 0.795315 0.809720
0.805447 0.845304 0.849912
0.964935 0.851194 0.853513
0.560815 0.938323 0.883909
0.597772 0.937255 0.884092
0.688045 0.934966 0.883268
0.774868 0.923308 0.863310
0.959350 0.968444 0.935424
0.356878 0.337896 0.924895
0.465858 0.351049 0.925566
0.687984 0.469368 0.927672
0.857084 0.569207 0.928069
0.948333 0.683528 0.898375
0.330327 0.400061 0.918914
0.443244 0.423133 0.919524
0.674861 0.525994 0.923430
0.848234 0.617975 0.925322
0.944854 0.710567 0.901610
0.000000 0.541039 0.897581
0.235386 0.543420 0.901335
0.600580 0.619440 0.912016
0.830900 0.732723 0.924712
0.942992 0.790249 0.917937
0.088594 0.760159 0.903441
0.237949 0.756588 0.901274
0.447059 0.747036 0.897948
0.765743 0.804837 0.922545
0.943755 0.877562 0.940154
0.423224 0.925444 0.929198
0.472694 0.924956 0.929229
0.612329 0.927611 0.932708
0.781247 0.938415 0.943328
0.949462 0.962585 0.965301
