data/fiter_cube/26597975/1022851/file.cube
# Created by Adobe Lightroom plugin Export LUT (1.17.0)
# www.johnrellis.com/lightroom/exportlut.htm
# Preset:  城市电影胶片_07 云集
# Color profile: C:\Program Files (x86)\Common Files\Adobe\Color\Profiles\Recommended\AdobeRGB1998.icc
LUT_3D_SIZE 5
DOMAIN_MIN 0.000000 0.000000 0.000000
DOMAIN_MAX 0.903226 0.903226 0.903226
0.025635 0.089357 0.111055
0.094148 0.100954 0.111604
0.282353 0.141421 0.099336
0.828672 0.418799 0.000000
1.000000 0.606714 0.000000
0.078370 0.109621 0.114015
0.121706 0.116426 0.113527
0.316625 0.172122 0.091798
0.840635 0.468147 0.000000
1.000000 0.639490 0.000000
0.204532 0.177279 0.111727
0.232914 0.177615 0.111940
0.622156 0.356878 0.000000
0.932433 0.581628 0.000000
1.000000 0.691371 0.000000
0.667811 0.528801 0.000000
0.719936 0.550134 0.000000
0.862364 0.589075 0.000000
1.000000 0.676387 0.000000
1.000000 0.725002 0.000000
1.000000 0.837247 0.000000
1.000000 0.829648 0.000000
1.000000 0.793545 0.000000
1.000000 0.760922 0.000000
1.000000 0.764248 0.000000
0.000000 0.112703 0.179751
0.077180 0.124758 0.160525
0.270024 0.156710 0.101808
0.754299 0.415717 0.000000
1.000000 0.615564 0.000000
0.059663 0.130495 0.167605
0.103243 0.139498 0.161990
0.316869 0.180209 0.099123
0.786221 0.445350 0.000000
1.000000 0.641321 0.000000
0.217288 0.203922 0.136019
0.262852 0.209415 0.128481
0.537896 0.308568 0.000000
0.889769 0.548302 0.000000
1.000000 0.689082 0.000000
0.690913 0.555016 0.000000
0.741726 0.576440 0.000000
0.853391 0.595972 0.000000
1.000000 0.675471 0.000000
1.000000 0.725460 0.000000
1.000000 0.842832 0.000000
1.000000 0.835325 0.000000
1.000000 0.810941 0.000000
1.000000 0.767910 0.000000
1.000000 0.767453 0.000000
0.000000 0.241520 0.578607
0.000000 0.236912 0.533867
0.252262 0.274205 0.388190
0.741543 0.294560 0.156954
1.000000 0.662043 0.000000
0.000000 0.271244 0.557458
0.000000 0.275181 0.549554
0.290196 0.307927 0.396063
0.775387 0.384314 0.000000
1.000000 0.670558 0.000000
0.072969 0.357153 0.484382
0.198337 0.369085 0.467262
0.467353 0.447089 0.432105
0.887053 0.564599 0.000000
1.000000 0.694270 0.000000
0.486610 0.644007 0.475990
0.641016 0.683314 0.386725
0.839719 0.688960 0.256657
0.995392 0.688563 0.000000
1.000000 0.728084 0.000000
0.991211 0.875700 0.000000
1.000000 0.866087 0.000000
1.000000 0.833982 0.000000
1.000000 0.784543 0.000000
1.000000 0.769558 0.000000
0.000000 0.496590 0.969970
0.000000 0.513695 0.966796
0.323125 0.599786 0.945922
0.636408 0.683497 0.856596
0.930755 0.879606 0.933684
0.000000 0.529595 0.965881
0.000000 0.541131 0.962158
0.356847 0.617762 0.940124
0.646326 0.692866 0.848173
0.934783 0.808804 0.877806
0.000000 0.624933 0.948211
0.074006 0.639124 0.944701
0.467781 0.693233 0.934325
0.702174 0.746242 0.844358
1.000000 0.708675 0.577752
0.535882 0.791867 0.926299
0.573907 0.796628 0.920287
0.702815 0.827756 0.910918
0.857023 0.871397 0.899718
1.000000 0.753292 0.185428
0.848814 0.889525 0.924102
0.860105 0.895628 0.929046
0.892088 0.940795 0.930541
0.990845 0.905699 0.774289
1.000000 0.779904 0.000000
0.384192 0.728176 1.000000
0.485512 0.756954 1.000000
0.704036 0.836667 0.997925
0.852995 0.903593 0.987823
0.909880 0.928588 0.975982
0.408850 0.739101 1.000000
0.500237 0.765255 1.000000
0.706233 0.839261 0.997284
0.850736 0.902678 0.987243
0.911620 0.930053 0.975769
0.539117 0.794644 1.000000
0.570733 0.802548 1.000000
0.713985 0.849943 0.996918
0.857206 0.909483 0.987427
0.919799 0.936736 0.975982
0.751980 0.886503 0.994354
0.763027 0.889372 0.993713
0.805783 0.902739 0.992432
0.881956 0.931334 0.990845
0.938628 0.951904 0.978241
0.880003 0.946624 0.987915
0.884398 0.947845 0.987549
0.904387 0.954528 0.987091
0.933410 0.964111 0.985931
0.972351 0.976013 0.983886
