data/fiter_cube/26597975/1022851/file.cube
# Created by Adobe Lightroom plugin Export LUT (1.17.0)
# www.johnrellis.com/lightroom/exportlut.htm
# Preset:  城市电影胶片_07 云集
# Color profile: C:\Program Files (x86)\Common Files\Adobe\Color\Profiles\Recommended\AdobeRGB1998.icc
LUT_3D_SIZE 32
DOMAIN_MIN 0.0 0.0 0.0
DOMAIN_MAX 1.0 1.0 1.0
0.025635 0.089357 0.111055
0.027985 0.089540 0.111238
0.034058 0.090150 0.111391
0.049470 0.091554 0.111421
0.061524 0.093629 0.111818
0.071168 0.095979 0.111971
0.082185 0.098146 0.111849
0.094148 0.100954 0.111604
0.108400 0.103792 0.111299
0.125307 0.107332 0.110536
0.146151 0.111421 0.109529
0.171817 0.116426 0.108248
0.202853 0.122774 0.106508
0.239658 0.130831 0.103578
0.282353 0.141421 0.099336
0.331121 0.155154 0.092866
0.386969 0.173342 0.082307
0.450813 0.197452 0.063355
0.559686 0.247684 0.000000
0.663386 0.305760 0.000000
0.754543 0.364996 0.000000
0.828672 0.418799 0.000000
0.885069 0.463691 0.000000
0.928008 0.500175 0.000000
0.961028 0.529290 0.000000
0.987793 0.553246 0.000000
1.000000 0.573754 0.000000
1.000000 0.591394 0.000000
1.000000 0.606714 0.000000
1.000000 0.619593 0.000000
1.000000 0.630518 0.000000
1.000000 0.639582 0.000000
0.026459 0.089906 0.111208
0.029999 0.090333 0.111391
0.037476 0.091218 0.111299
0.049836 0.092714 0.111543
0.062348 0.094697 0.111757
0.071901 0.096742 0.111910
0.082033 0.098970 0.111788
0.094087 0.101503 0.111574
0.107820 0.104402 0.111055
0.124331 0.107759 0.110536
0.144594 0.111788 0.109529
0.169284 0.116640 0.108339
0.199252 0.122835 0.106477
0.234806 0.130556 0.103944
0.275792 0.140536 0.099794
0.322881 0.153628 0.093782
0.376806 0.170932 0.084138
0.439796 0.194278 0.066804
0.541894 0.239933 0.000000
0.641321 0.293950 0.000000
0.731991 0.350835 0.000000
0.808072 0.404303 0.000000
0.867613 0.450111 0.000000
0.913756 0.488533 0.000000
0.949615 0.519554 0.000000
0.978759 0.545403 0.000000
1.000000 0.567498 0.000000
1.000000 0.586816 0.000000
1.000000 0.603052 0.000000
1.000000 0.616876 0.000000
1.000000 0.628473 0.000000
1.000000 0.638025 0.000000
0.031006 0.090883 0.111360
0.033570 0.091066 0.111330
0.039643 0.091707 0.111452
0.052216 0.093721 0.111696
0.063172 0.095735 0.111666
0.072572 0.097719 0.111818
0.082673 0.099702 0.111727
0.094301 0.102235 0.111513
0.107729 0.105165 0.110994
0.124025 0.108309 0.110506
0.143954 0.112398 0.109529
0.168460 0.117281 0.108095
0.197665 0.123293 0.106538
0.232822 0.131228 0.103792
0.273198 0.141146 0.099977
0.319341 0.153780 0.094148
0.372229 0.170779 0.084901
0.436042 0.194125 0.067781
0.533715 0.237736 0.000000
0.630701 0.289403 0.000000
0.720974 0.345373 0.000000
0.797818 0.398444 0.000000
0.858854 0.444617 0.000000
0.906462 0.483528 0.000000
0.943725 0.515587 0.000000
0.973907 0.542046 0.000000
0.999878 0.565057 0.000000
1.000000 0.584894 0.000000
1.000000 0.601709 0.000000
1.000000 0.616022 0.000000
1.000000 0.627893 0.000000
1.000000 0.637568 0.000000
0.040772 0.093660 0.111757
0.043488 0.093568 0.111757
0.047211 0.093416 0.111940
0.057130 0.095125 0.112184
0.066102 0.097353 0.112154
0.075166 0.099580 0.111849
0.085237 0.101991 0.111513
0.096590 0.104189 0.111116
0.109621 0.107057 0.110780
0.125917 0.110109 0.110109
0.145510 0.114321 0.109071
0.169406 0.119234 0.107881
0.198306 0.125368 0.106050
0.232578 0.133364 0.103578
0.272099 0.143099 0.099580
0.317510 0.155886 0.093782
0.369360 0.172396 0.084749
0.435187 0.196994 0.066773
0.525658 0.237369 0.000000
0.616571 0.285130 0.000000
0.703273 0.337255 0.000000
0.780301 0.389166 0.000000
0.844388 0.436347 0.000000
0.896330 0.477943 0.000000
0.937713 0.512932 0.000000
0.970977 0.541955 0.000000
0.998688 0.566491 0.000000
1.000000 0.586877 0.000000
1.000000 0.603723 0.000000
1.000000 0.617639 0.000000
1.000000 0.629236 0.000000
1.000000 0.638514 0.000000
0.051392 0.096803 0.112123
0.053285 0.096712 0.112337
0.055451 0.096315 0.112337
0.060914 0.096742 0.112673
0.069215 0.099153 0.112825
0.078645 0.101228 0.112520
0.087953 0.103639 0.111971
0.098939 0.106050 0.111330
0.111971 0.109316 0.110567
0.127626 0.113008 0.109590
0.146792 0.116945 0.108583
0.170291 0.122164 0.107118
0.198581 0.128450 0.105501
0.232517 0.136355 0.102754
0.271977 0.146548 0.098878
0.317662 0.159823 0.092927
0.370184 0.176944 0.083375
0.441321 0.204135 0.062898
0.528649 0.243961 0.000000
0.616144 0.290318 0.000000
0.699611 0.340429 0.000000
0.774807 0.390600 0.000000
0.838499 0.436988 0.000000
0.891203 0.478340 0.000000
0.933776 0.513848 0.000000
0.968048 0.543450 0.000000
0.996368 0.568261 0.000000
1.000000 0.588464 0.000000
1.000000 0.605432 0.000000
1.000000 0.619379 0.000000
1.000000 0.630823 0.000000
1.000000 0.640162 0.000000
0.060487 0.100282 0.112673
0.061494 0.100191 0.112856
0.062654 0.099794 0.112886
0.065156 0.099550 0.113283
0.072236 0.100649 0.113527
0.082612 0.103548 0.113130
0.093416 0.105837 0.112551
0.103975 0.108431 0.111879
0.116640 0.111543 0.110903
0.132479 0.115450 0.109865
0.151949 0.120119 0.108309
0.175631 0.126162 0.106477
0.204013 0.133669 0.104189
0.238193 0.142092 0.101442
0.277775 0.152865 0.097261
0.323857 0.166934 0.090730
0.377264 0.185061 0.080232
0.454170 0.216159 0.050233
0.539757 0.256565 0.000000
0.625818 0.303166 0.000000
0.708431 0.353796 0.000000
0.783139 0.404059 0.000000
0.943206 0.534783 0.000000
0.974517 0.561608 0.000000
0.998871 0.582086 0.000000
1.000000 0.598596 0.000000
1.000000 0.611963 0.000000
1.000000 0.623407 0.000000
1.000000 0.633051 0.000000
1.000000 0.641352 0.000000
1.000000 0.648280 0.000000
1.000000 0.653925 0.000000
0.069978 0.104952 0.113252
0.070832 0.104860 0.113436
0.071656 0.104768 0.113649
0.074189 0.104494 0.114046
0.079011 0.104433 0.114382
0.089509 0.106813 0.114229
0.102785 0.110201 0.113466
0.116762 0.113527 0.112642
0.130983 0.116793 0.111299
0.148898 0.121157 0.109865
0.170932 0.126650 0.108217
0.197940 0.133761 0.105898
0.229618 0.142367 0.102724
0.266331 0.153445 0.098451
0.307958 0.167117 0.092287
0.355444 0.184756 0.082795
0.414832 0.207889 0.066316
0.503502 0.248112 0.000000
0.593072 0.295232 0.000000
0.683284 0.348852 0.000000
0.769955 0.406439 0.000000
0.846494 0.462196 0.000000
0.907927 0.511254 0.000000
0.953979 0.550042 0.000000
0.987549 0.578576 0.000000
1.000000 0.598810 0.000000
1.000000 0.614038 0.000000
1.000000 0.625849 0.000000
1.000000 0.635645 0.000000
1.000000 0.643915 0.000000
1.000000 0.650782 0.000000
1.000000 0.656336 0.000000
0.078370 0.109621 0.114015
0.079225 0.109285 0.114015
0.079927 0.109438 0.114199
0.082246 0.108919 0.114412
0.085512 0.108766 0.114778
0.093721 0.109316 0.115175
0.106142 0.112428 0.114473
0.121706 0.116426 0.113527
0.139223 0.120729 0.112184
0.157229 0.125093 0.110689
0.179690 0.130770 0.108705
0.206699 0.137819 0.106325
0.238407 0.146883 0.102968
0.274937 0.158114 0.098268
0.316625 0.172122 0.091798
0.363867 0.190036 0.081880
0.433753 0.220401 0.057923
0.515343 0.261357 0.000000
0.598535 0.308995 0.000000
0.683772 0.360327 0.000000
0.766354 0.414740 0.000000
0.840635 0.468147 0.000000
0.901427 0.515618 0.000000
0.947692 0.553613 0.000000
0.981903 0.582086 0.000000
1.000000 0.602411 0.000000
1.000000 0.617578 0.000000
1.000000 0.629480 0.000000
1.000000 0.639490 0.000000
1.000000 0.647578 0.000000
1.000000 0.654444 0.000000
1.000000 0.659998 0.000000
0.088655 0.114626 0.114260
0.088899 0.114809 0.114443
0.089876 0.114687 0.114626
0.091859 0.114412 0.114809
0.095460 0.113954 0.114992
0.099367 0.113619 0.115541
0.112062 0.115511 0.115724
0.127260 0.119295 0.114565
0.146517 0.124422 0.113283
0.169406 0.130220 0.111177
0.192447 0.136202 0.109255
0.220218 0.143740 0.106386
0.252720 0.153323 0.102724
0.289891 0.165194 0.097566
0.331823 0.180056 0.090150
0.385534 0.201511 0.077089
0.459266 0.235203 0.035798
0.536065 0.275242 0.000000
0.614099 0.321172 0.000000
0.694484 0.373510 0.000000
0.772610 0.429358 0.000000
0.843137 0.481971 0.000000
0.901274 0.526848 0.000000
0.946197 0.563073 0.000000
0.979889 0.590204 0.000000
1.000000 0.609491 0.000000
1.000000 0.624231 0.000000
1.000000 0.635676 0.000000
1.000000 0.645106 0.000000
1.000000 0.652949 0.000000
1.000000 0.659358 0.000000
1.000000 0.664576 0.000000
0.100038 0.120760 0.114717
0.100618 0.120668 0.114717
0.101472 0.120546 0.114931
0.103487 0.120485 0.115084
0.106569 0.120272 0.115236
0.110536 0.119875 0.115785
0.118959 0.120241 0.116152
0.134432 0.123171 0.115877
0.153567 0.128145 0.114351
0.177676 0.134707 0.112276
0.206546 0.142519 0.109560
0.234775 0.150484 0.106447
0.268070 0.160647 0.102144
0.306523 0.173526 0.096345
0.351812 0.190433 0.087434
0.419684 0.219547 0.067628
0.493507 0.255467 0.000000
0.568688 0.297032 0.000000
0.643671 0.342962 0.000000
0.718135 0.392981 0.000000
0.788022 0.443793 0.000000
0.850034 0.492561 0.000000
0.901732 0.536370 0.000000
0.942870 0.571588 0.000000
0.975189 0.596490 0.000000
1.000000 0.615351 0.000000
1.000000 0.630091 0.000000
1.000000 0.641749 0.000000
1.000000 0.651575 0.000000
1.000000 0.659327 0.000000
1.000000 0.665736 0.000000
1.000000 0.670771 0.000000
0.112551 0.127382 0.114870
0.113313 0.127260 0.115053
0.114046 0.127352 0.115053
0.116060 0.127260 0.115206
0.119203 0.126955 0.115572
0.123873 0.126833 0.115846
0.129610 0.126650 0.116304
0.144015 0.128573 0.116274
0.163882 0.133211 0.115328
0.188388 0.139773 0.113161
0.218540 0.148470 0.110170
0.254032 0.159182 0.105989
0.287877 0.170291 0.101137
0.328130 0.184421 0.094087
0.387213 0.208652 0.080171
0.453223 0.238834 0.051209
0.522850 0.274784 0.000000
0.593317 0.315221 0.000000
0.663081 0.358984 0.000000
0.732448 0.406287 0.000000
0.797848 0.454292 0.000000
0.856535 0.500694 0.000000
0.905852 0.542687 0.000000
0.945190 0.577966 0.000000
0.975982 0.606287 0.000000
1.000000 0.626246 0.000000
1.000000 0.639551 0.000000
1.000000 0.650324 0.000000
1.000000 0.659113 0.000000
1.000000 0.666407 0.000000
1.000000 0.672358 0.000000
1.000000 0.676967 0.000000
0.127993 0.135500 0.115114
0.128878 0.135561 0.115084
0.129763 0.135439 0.115053
0.131899 0.135439 0.115206
0.135409 0.135409 0.115511
0.139986 0.135561 0.115755
0.146334 0.135531 0.115938
0.155856 0.135744 0.116213
0.177584 0.139864 0.115724
0.203372 0.146609 0.113771
0.234379 0.156039 0.110414
0.272160 0.168215 0.105592
0.374762 0.210086 0.087495
0.451453 0.245609 0.060548
0.530510 0.287144 0.000000
0.606165 0.331182 0.000000
0.675593 0.375311 0.000000
0.737423 0.417334 0.000000
0.792172 0.456947 0.000000
0.842679 0.495796 0.000000
0.887114 0.532097 0.000000
0.925048 0.564935 0.000000
0.956085 0.592645 0.000000
0.981933 0.615930 0.000000
1.000000 0.635187 0.000000
1.000000 0.651057 0.000000
1.000000 0.664240 0.000000
1.000000 0.672053 0.000000
1.000000 0.677363 0.000000
1.000000 0.681758 0.000000
1.000000 0.685328 0.000000
1.000000 0.688258 0.000000
0.155001 0.149874 0.114534
0.155734 0.149752 0.114504
0.156435 0.149630 0.114504
0.158328 0.149447 0.114656
0.161410 0.149050 0.114778
0.165743 0.148745 0.114839
0.172183 0.148653 0.115206
0.180850 0.148684 0.115450
0.198978 0.151522 0.115084
0.230442 0.158358 0.113558
0.266423 0.170352 0.109102
0.314458 0.188022 0.101930
0.392309 0.221408 0.085206
0.485115 0.267308 0.030976
0.563073 0.310521 0.000000
0.634730 0.353979 0.000000
0.698329 0.395239 0.000000
0.753414 0.433173 0.000000
0.803281 0.469398 0.000000
0.848753 0.504417 0.000000
0.889921 0.537987 0.000000
0.925658 0.568627 0.000000
0.955230 0.594751 0.000000
0.980224 0.617029 0.000000
1.000000 0.635615 0.000000
1.000000 0.651148 0.000000
1.000000 0.664332 0.000000
1.000000 0.675715 0.000000
1.000000 0.685176 0.000000
1.000000 0.689357 0.000000
1.000000 0.692744 0.000000
1.000000 0.695430 0.000000
0.177310 0.161868 0.113436
0.178042 0.162020 0.113375
0.178775 0.161868 0.113588
0.180728 0.161654 0.113527
0.183780 0.161379 0.113619
0.188449 0.161044 0.113863
0.195377 0.161135 0.113924
0.204471 0.161563 0.114015
0.216556 0.162234 0.114107
0.246616 0.169223 0.112612
0.290043 0.182193 0.108125
0.350195 0.206790 0.097902
0.425452 0.241306 0.077852
0.511345 0.286137 0.000885
0.598016 0.336797 0.000000
0.663111 0.377386 0.000000
0.719356 0.414557 0.000000
0.768948 0.448920 0.000000
0.814298 0.482033 0.000000
0.856291 0.514397 0.000000
0.894774 0.545800 0.000000
0.928557 0.574670 0.000000
0.956878 0.599359 0.000000
0.981018 0.620661 0.000000
1.000000 0.638544 0.000000
1.000000 0.653590 0.000000
1.000000 0.666346 0.000000
1.000000 0.677516 0.000000
1.000000 0.687526 0.000000
1.000000 0.696559 0.000000
1.000000 0.701381 0.000000
1.000000 0.703639 0.000000
0.204532 0.177279 0.111727
0.205661 0.177310 0.111666
0.206332 0.177066 0.111666
0.208316 0.176913 0.111788
0.211490 0.176822 0.111818
0.216281 0.176608 0.111788
0.223392 0.176944 0.111757
0.232914 0.177615 0.111940
0.245731 0.178836 0.111543
0.273381 0.185855 0.110018
0.325200 0.202823 0.104311
0.388861 0.228519 0.092103
0.462684 0.264897 0.065888
0.543023 0.309117 0.000000
0.622156 0.356878 0.000000
0.692805 0.402686 0.000000
0.744533 0.437446 0.000000
0.788113 0.467903 0.000000
0.828550 0.497566 0.000000
0.866392 0.526848 0.000000
0.901335 0.555322 0.000000
0.932433 0.581628 0.000000
0.959014 0.604578 0.000000
0.982116 0.624750 0.000000
1.000000 0.641993 0.000000
1.000000 0.656825 0.000000
1.000000 0.669734 0.000000
1.000000 0.681209 0.000000
1.000000 0.691371 0.000000
1.000000 0.700526 0.000000
1.000000 0.708553 0.000000
1.000000 0.714321 0.000000
0.237217 0.196170 0.108339
0.238499 0.196719 0.108400
0.239658 0.196719 0.108309
0.242313 0.196963 0.108309
0.246464 0.197269 0.108186
0.252262 0.197726 0.108156
0.262547 0.199832 0.107698
0.278691 0.204349 0.106538
0.299077 0.209689 0.104891
0.324285 0.216342 0.102785
0.369909 0.232120 0.095705
0.437110 0.258488 0.079957
0.505699 0.293339 0.030762
0.575616 0.333593 0.000000
0.643885 0.375799 0.000000
0.706813 0.417090 0.000000
0.762814 0.455573 0.000000
0.805722 0.486061 0.000000
0.843839 0.514305 0.000000
0.879973 0.542565 0.000000
0.912963 0.569665 0.000000
0.942199 0.594293 0.000000
0.967102 0.615656 0.000000
0.988739 0.634302 0.000000
1.000000 0.650324 0.000000
1.000000 0.664149 0.000000
1.000000 0.676173 0.000000
1.000000 0.686793 0.000000
1.000000 0.696193 0.000000
1.000000 0.704463 0.000000
1.000000 0.711818 0.000000
1.000000 0.718257 0.000000
0.277714 0.221530 0.102602
0.279301 0.222110 0.102602
0.280980 0.222446 0.102388
0.285252 0.223819 0.102174
0.291844 0.225681 0.101442
0.301244 0.228458 0.100649
0.313725 0.231968 0.099367
0.329747 0.236759 0.097505
0.350134 0.242771 0.094881
0.375189 0.250065 0.091188
0.406409 0.259373 0.085634
0.472175 0.287907 0.063142
0.545312 0.321386 0.000000
0.609918 0.360266 0.000000
0.671870 0.399603 0.000000
0.727779 0.436744 0.000000
0.777554 0.471321 0.000000
0.822019 0.503441 0.000000
0.857847 0.530205 0.000000
0.889982 0.555322 0.000000
0.920043 0.579828 0.000000
0.946929 0.602350 0.000000
0.970459 0.622278 0.000000
0.991241 0.639857 0.000000
1.000000 0.655177 0.000000
1.000000 0.668513 0.000000
1.000000 0.680201 0.000000
1.000000 0.690547 0.000000
1.000000 0.699641 0.000000
1.000000 0.707729 0.000000
1.000000 0.714870 0.000000
1.000000 0.721126 0.000000
0.337987 0.262119 0.089540
0.340795 0.263493 0.089052
0.392035 0.299474 0.070558
0.397559 0.301610 0.069123
0.405921 0.304692 0.066133
0.416907 0.308324 0.062745
0.431159 0.313329 0.056458
0.449439 0.319738 0.043183
0.472450 0.327764 0.019928
0.500633 0.337987 0.000000
0.532891 0.349248 0.000000
0.580163 0.369116 0.000000
0.647120 0.402197 0.000000
0.709255 0.435706 0.000000
0.758236 0.468849 0.000000
0.801633 0.499062 0.000000
0.839445 0.526299 0.000000
0.872190 0.550683 0.000000
0.900969 0.572747 0.000000
0.925444 0.591943 0.000000
0.947295 0.609400 0.000000
0.968200 0.626398 0.000000
0.987121 0.641810 0.000000
1.000000 0.655451 0.000000
1.000000 0.667079 0.000000
1.000000 0.677363 0.000000
1.000000 0.686641 0.000000
1.000000 0.695277 0.000000
1.000000 0.703456 0.000000
1.000000 0.710994 0.000000
1.000000 0.717769 0.000000
1.000000 0.723720 0.000000
0.421668 0.323522 0.046693
0.431678 0.330571 0.032685
0.442756 0.338109 0.015625
0.455573 0.346075 0.000000
0.469245 0.353460 0.000000
0.482368 0.359197 0.000000
0.496376 0.364294 0.000000
0.512932 0.369970 0.000000
0.533806 0.377386 0.000000
0.558343 0.386053 0.000000
0.586969 0.396155 0.000000
0.618372 0.406409 0.000000
0.672023 0.431708 0.000000
0.730648 0.460609 0.000000
0.777951 0.488380 0.000000
0.816098 0.515038 0.000000
0.849882 0.539269 0.000000
0.879820 0.561425 0.000000
0.906737 0.582055 0.000000
0.931060 0.601068 0.000000
0.952453 0.618006 0.000000
0.972381 0.633967 0.000000
0.990631 0.648676 0.000000
1.000000 0.661646 0.000000
1.000000 0.672786 0.000000
1.000000 0.682643 0.000000
1.000000 0.691493 0.000000
1.000000 0.699702 0.000000
1.000000 0.707393 0.000000
1.000000 0.714534 0.000000
1.000000 0.720974 0.000000
1.000000 0.726650 0.000000
0.489601 0.377142 0.000000
0.500450 0.385321 0.000000
0.512047 0.393774 0.000000
0.524620 0.402014 0.000000
0.537957 0.409430 0.000000
0.550011 0.414862 0.000000
0.562676 0.419257 0.000000
0.577478 0.424140 0.000000
0.595911 0.430426 0.000000
0.617884 0.438056 0.000000
0.643305 0.446693 0.000000
0.670954 0.455634 0.000000
0.701961 0.465309 0.000000
0.754513 0.491218 0.000000
0.802182 0.513512 0.000000
0.836820 0.536339 0.000000
0.866514 0.557702 0.000000
0.893095 0.577386 0.000000
0.917296 0.595636 0.000000
0.939513 0.612879 0.000000
0.959564 0.628504 0.000000
0.978210 0.643153 0.000000
0.995483 0.656764 0.000000
1.000000 0.668727 0.000000
1.000000 0.679042 0.000000
1.000000 0.688106 0.000000
1.000000 0.696254 0.000000
1.000000 0.703883 0.000000
1.000000 0.711086 0.000000
1.000000 0.717769 0.000000
1.000000 0.723903 0.000000
1.000000 0.729305 0.000000
0.559228 0.435065 0.000000
0.570245 0.443580 0.000000
0.581750 0.452399 0.000000
0.594232 0.460853 0.000000
0.606500 0.467872 0.000000
0.617426 0.472633 0.000000
0.628382 0.476051 0.000000
0.640986 0.479561 0.000000
0.656672 0.484291 0.000000
0.675196 0.489784 0.000000
0.696651 0.496529 0.000000
0.719753 0.503014 0.000000
0.743130 0.508263 0.000000
0.778286 0.521752 0.000000
0.821866 0.542168 0.000000
0.860227 0.560327 0.000000
0.888487 0.581231 0.000000
0.914305 0.600763 0.000000
0.937835 0.618860 0.000000
0.959228 0.635462 0.000000
0.978393 0.650355 0.000000
0.995453 0.663478 0.000000
1.000000 0.674922 0.000000
1.000000 0.685481 0.000000
1.000000 0.694423 0.000000
1.000000 0.702083 0.000000
1.000000 0.708858 0.000000
1.000000 0.715114 0.000000
1.000000 0.721004 0.000000
1.000000 0.726436 0.000000
1.000000 0.731411 0.000000
1.000000 0.735866 0.000000
0.667811 0.528801 0.000000
0.673487 0.533104 0.000000
0.678737 0.536675 0.000000
0.685084 0.540185 0.000000
0.692226 0.543145 0.000000
0.699580 0.545129 0.000000
0.708492 0.547082 0.000000
0.719936 0.550134 0.000000
0.734340 0.554498 0.000000
0.751431 0.559625 0.000000
0.770474 0.565332 0.000000
0.790402 0.570367 0.000000
0.809751 0.573693 0.000000
0.828733 0.575402 0.000000
0.862364 0.589075 0.000000
0.894499 0.602106 0.000000
0.920562 0.614862 0.000000
0.940734 0.629603 0.000000
0.959167 0.643091 0.000000
0.976104 0.655451 0.000000
0.991363 0.666529 0.000000
1.000000 0.676387 0.000000
1.000000 0.684901 0.000000
1.000000 0.692531 0.000000
1.000000 0.700313 0.000000
1.000000 0.707271 0.000000
1.000000 0.713649 0.000000
1.000000 0.719478 0.000000
1.000000 0.725002 0.000000
1.000000 0.730037 0.000000
1.000000 0.734676 0.000000
1.000000 0.738918 0.000000
0.732937 0.587243 0.000000
0.738216 0.591333 0.000000
0.743282 0.594934 0.000000
0.748959 0.597955 0.000000
0.754757 0.600000 0.000000
0.760525 0.600855 0.000000
0.767178 0.601343 0.000000
0.775479 0.602197 0.000000
0.786587 0.604273 0.000000
0.800076 0.607416 0.000000
0.815366 0.610742 0.000000
0.831632 0.613977 0.000000
0.847654 0.615625 0.000000
0.863798 0.616266 0.000000
0.883391 0.618952 0.000000
0.911986 0.629816 0.000000
0.937591 0.638148 0.000000
0.957000 0.648859 0.000000
0.973358 0.660487 0.000000
0.988495 0.671077 0.000000
1.000000 0.680751 0.000000
1.000000 0.689357 0.000000
1.000000 0.696925 0.000000
1.000000 0.703395 0.000000
1.000000 0.704341 0.000000
1.000000 0.710842 0.000000
1.000000 0.716915 0.000000
1.000000 0.722530 0.000000
1.000000 0.727749 0.000000
1.000000 0.732723 0.000000
1.000000 0.737362 0.000000
1.000000 0.741604 0.000000
0.817899 0.665217 0.000000
0.822721 0.668971 0.000000
0.826169 0.671229 0.000000
0.829191 0.672145 0.000000
0.832090 0.671748 0.000000
0.834958 0.670405 0.000000
0.838407 0.668482 0.000000
0.842710 0.666285 0.000000
0.848631 0.664393 0.000000
0.856413 0.663020 0.000000
0.865354 0.661738 0.000000
0.875914 0.660853 0.000000
0.887053 0.659358 0.000000
0.898009 0.656580 0.000000
0.908476 0.652338 0.000000
0.926299 0.653956 0.000000
0.947021 0.658320 0.000000
0.966430 0.661769 0.000000
0.980926 0.671229 0.000000
0.994965 0.680781 0.000000
1.000000 0.689662 0.000000
1.000000 0.697414 0.000000
1.000000 0.703975 0.000000
1.000000 0.709285 0.000000
1.000000 0.713588 0.000000
1.000000 0.717250 0.000000
1.000000 0.722347 0.000000
1.000000 0.727169 0.000000
1.000000 0.731807 0.000000
1.000000 0.736324 0.000000
1.000000 0.740658 0.000000
1.000000 0.744778 0.000000
0.861540 0.706477 0.000000
0.865599 0.709651 0.000000
0.868467 0.711543 0.000000
0.870939 0.712093 0.000000
0.873259 0.711452 0.000000
0.875792 0.710170 0.000000
0.878904 0.708400 0.000000
0.882872 0.706355 0.000000
0.888365 0.704707 0.000000
0.895232 0.703395 0.000000
0.903166 0.702083 0.000000
0.912352 0.700801 0.000000
0.921904 0.698878 0.000000
0.931243 0.695827 0.000000
0.940307 0.691402 0.000000
0.949340 0.686091 0.000000
0.966979 0.688197 0.000000
0.983581 0.689418 0.000000
0.998383 0.691768 0.000000
1.000000 0.698939 0.000000
1.000000 0.705562 0.000000
1.000000 0.711513 0.000000
1.000000 0.716548 0.000000
1.000000 0.720790 0.000000
1.000000 0.724178 0.000000
1.000000 0.727047 0.000000
1.000000 0.729519 0.000000
1.000000 0.733730 0.000000
1.000000 0.737850 0.000000
1.000000 0.741848 0.000000
1.000000 0.745754 0.000000
1.000000 0.749508 0.000000
0.905760 0.748531 0.000000
0.908202 0.750240 0.000000
0.909575 0.750759 0.000000
0.910704 0.750240 0.000000
0.911650 0.748684 0.000000
0.912840 0.746487 0.000000
0.914672 0.743862 0.000000
0.917449 0.741238 0.000000
0.921538 0.738949 0.000000
0.927001 0.736995 0.000000
0.933410 0.734829 0.000000
0.941039 0.733059 0.000000
0.948974 0.730434 0.000000
0.956817 0.726955 0.000000
0.964263 0.722164 0.000000
0.971557 0.716243 0.000000
0.981689 0.712032 0.000000
0.995850 0.711452 0.000000
1.000000 0.710414 0.000000
1.000000 0.712795 0.000000
1.000000 0.717922 0.000000
1.000000 0.722560 0.000000
1.000000 0.726558 0.000000
1.000000 0.729915 0.000000
1.000000 0.732662 0.000000
1.000000 0.734890 0.000000
1.000000 0.736873 0.000000
1.000000 0.738552 0.000000
1.000000 0.742031 0.000000
1.000000 0.745754 0.000000
1.000000 0.749386 0.000000
1.000000 0.752895 0.000000
0.937041 0.778195 0.000000
0.938415 0.778927 0.000000
0.939483 0.779263 0.000000
0.940612 0.778897 0.000000
0.942138 0.777981 0.000000
0.944579 0.777218 0.000000
0.948455 0.776822 0.000000
0.953491 0.776761 0.000000
0.959716 0.776852 0.000000
0.966827 0.776944 0.000000
0.974426 0.776669 0.000000
0.982208 0.775692 0.000000
0.989746 0.773739 0.000000
0.996765 0.770352 0.000000
1.000000 0.765652 0.000000
1.000000 0.759457 0.000000
1.000000 0.752285 0.000000
1.000000 0.747860 0.000000
1.000000 0.744167 0.000000
1.000000 0.740139 0.000000
1.000000 0.741787 0.000000
1.000000 0.744106 0.000000
1.000000 0.746059 0.000000
1.000000 0.747707 0.000000
1.000000 0.748959 0.000000
1.000000 0.750027 0.000000
1.000000 0.750851 0.000000
1.000000 0.751583 0.000000
1.000000 0.752255 0.000000
1.000000 0.754604 0.000000
1.000000 0.757351 0.000000
1.000000 0.760037 0.000000
0.981079 0.818326 0.000000
0.981811 0.818540 0.000000
0.982086 0.818235 0.000000
0.982452 0.817258 0.000000
0.983032 0.815763 0.000000
0.984039 0.813931 0.000000
0.985748 0.812039 0.000000
0.988220 0.809995 0.000000
0.991485 0.807919 0.000000
0.995422 0.805722 0.000000
0.999756 0.803006 0.000000
1.000000 0.799985 0.000000
1.000000 0.796170 0.000000
1.000000 0.791684 0.000000
