data/fiter_cube/26597975/1022851/file.cube
# Created by Adobe Lightroom plugin Export LUT (1.17.0)
# www.johnrellis.com/lightroom/exportlut.htm
# Preset:  城市电影胶片_07 云集
# Color profile: C:\Program Files (x86)\Common Files\Adobe\Color\Profiles\Recommended\AdobeRGB1998.icc
LUT_3D_SIZE 8
DOMAIN_MIN 0.000000 0.000000 0.000000
DOMAIN_MAX 0.903226 0.903226 0.903226
0.025635 0.089357 0.111055
0.061524 0.093629 0.111818
0.108400 0.103792 0.111299
0.202853 0.122774 0.106508
0.386969 0.173342 0.082307
0.754543 0.364996 0.000000
0.961028 0.529290 0.000000
1.000000 0.606714 0.000000
0.051392 0.096803 0.112123
0.069215 0.099153 0.112825
0.111971 0.109316 0.110567
0.198581 0.128450 0.105501
0.370184 0.176944 0.083375
0.699611 0.340429 0.000000
0.933776 0.513848 0.000000
1.000000 0.605432 0.000000
0.088655 0.114626 0.114260
0.095460 0.113954 0.114992
0.146517 0.124422 0.113283
0.252720 0.153323 0.102724
0.459266 0.235203 0.035798
0.772610 0.429358 0.000000
0.979889 0.590204 0.000000
1.000000 0.645106 0.000000
0.155001 0.149874 0.114534
0.161410 0.149050 0.114778
0.198978 0.151522 0.115084
0.392309 0.221408 0.085206
0.698329 0.395239 0.000000
0.889921 0.537987 0.000000
1.000000 0.635615 0.000000
1.000000 0.685176 0.000000
0.277714 0.221530 0.102602
0.291844 0.225681 0.101442
0.350134 0.242771 0.094881
0.545312 0.321386 0.000000
0.777554 0.471321 0.000000
0.920043 0.579828 0.000000
1.000000 0.655177 0.000000
1.000000 0.699641 0.000000
0.559228 0.435065 0.000000
0.606500 0.467872 0.000000
0.656672 0.484291 0.000000
0.743130 0.508263 0.000000
0.888487 0.581231 0.000000
0.978393 0.650355 0.000000
1.000000 0.694423 0.000000
1.000000 0.721004 0.000000
0.861540 0.706477 0.000000
0.873259 0.711452 0.000000
0.888365 0.704707 0.000000
0.921904 0.698878 0.000000
0.966979 0.688197 0.000000
1.000000 0.705562 0.000000
1.000000 0.724178 0.000000
1.000000 0.737850 0.000000
1.000000 0.837247 0.000000
1.000000 0.834745 0.000000
1.000000 0.827573 0.000000
1.000000 0.816281 0.000000
1.000000 0.782528 0.000000
1.000000 0.762539 0.000000
1.000000 0.764126 0.000000
1.000000 0.764248 0.000000
0.012116 0.097810 0.135744
0.047639 0.102296 0.129976
0.102419 0.107912 0.112825
0.190402 0.130465 0.105501
0.356939 0.180362 0.083803
0.664149 0.327916 0.000000
0.913481 0.502190 0.000000
1.000000 0.597894 0.000000
0.033234 0.103517 0.131533
0.059510 0.106722 0.129793
0.110384 0.111788 0.113985
0.196628 0.133547 0.105989
0.360143 0.187076 0.081880
0.647822 0.327153 0.000000
0.890959 0.490852 0.000000
1.000000 0.594232 0.000000
0.088655 0.120607 0.123079
0.098573 0.120851 0.122866
0.143374 0.125002 0.114778
0.240330 0.151492 0.105257
0.422766 0.220401 0.065858
0.704463 0.382635 0.000000
0.927947 0.553063 0.000000
1.000000 0.632654 0.000000
0.153811 0.149752 0.114382
0.162905 0.150576 0.114565
0.193637 0.151919 0.115297
0.341131 0.199039 0.097261
0.567346 0.310002 0.000000
0.790646 0.457252 0.000000
0.954437 0.592248 0.000000
1.000000 0.669703 0.000000
0.288182 0.228946 0.100832
0.298253 0.230716 0.099977
0.343206 0.240757 0.095735
0.484016 0.287724 0.059632
0.701656 0.415045 0.000000
0.876158 0.541497 0.000000
0.989563 0.637171 0.000000
1.000000 0.691371 0.000000
0.533623 0.414527 0.000000
0.548608 0.420844 0.000000
0.597620 0.438025 0.000000
0.693751 0.471931 0.000000
0.860105 0.557122 0.000000
0.968322 0.641901 0.000000
1.000000 0.689143 0.000000
1.000000 0.716701 0.000000
0.821836 0.671351 0.000000
0.822110 0.665797 0.000000
0.846128 0.667475 0.000000
0.895262 0.676356 0.000000
0.951110 0.676143 0.000000
1.000000 0.696437 0.000000
1.000000 0.716274 0.000000
1.000000 0.731930 0.000000
0.990661 0.829465 0.000000
0.994232 0.828641 0.000000
1.000000 0.822873 0.000000
1.000000 0.813291 0.000000
1.000000 0.791989 0.000000
1.000000 0.766598 0.000000
1.000000 0.763302 0.000000
1.000000 0.762448 0.000000
0.000000 0.121614 0.207126
0.000000 0.124300 0.200687
0.090730 0.135927 0.175875
0.192935 0.128511 0.139162
0.401007 0.208164 0.077790
0.724666 0.397803 0.000000
0.941405 0.565850 0.000000
1.000000 0.630304 0.000000
0.000000 0.128206 0.199130
0.013214 0.130434 0.195682
0.097108 0.140139 0.175021
0.200473 0.134676 0.128054
0.401221 0.210788 0.079652
0.707271 0.386999 0.000000
0.928801 0.560662 0.000000
1.000000 0.632074 0.000000
0.066072 0.143832 0.185428
0.081788 0.146975 0.183719
0.126741 0.156252 0.177462
0.247684 0.165866 0.128695
0.484688 0.259434 0.035035
0.758114 0.429816 0.000000
0.945251 0.580804 0.000000
1.000000 0.655299 0.000000
0.125582 0.180850 0.179232
0.162722 0.192447 0.170993
0.219577 0.194278 0.159304
0.371954 0.227573 0.120333
0.622034 0.352758 0.000000
0.834501 0.499641 0.000000
0.974578 0.616846 0.000000
1.000000 0.679652 0.000000
0.314977 0.275334 0.133394
0.333806 0.281132 0.130434
0.396796 0.297154 0.114351
0.522484 0.330175 0.018585
0.748379 0.456733 0.000000
0.897154 0.566155 0.000000
0.996735 0.648493 0.000000
1.000000 0.696742 0.000000
0.569207 0.456641 0.000000
0.588586 0.464912 0.000000
0.638209 0.479408 0.000000
0.714443 0.501610 0.000000
0.853178 0.558190 0.000000
0.960876 0.638972 0.000000
1.000000 0.689540 0.000000
1.000000 0.720272 0.000000
0.850553 0.704097 0.000000
0.853971 0.701503 0.000000
0.868650 0.695674 0.000000
0.903288 0.693385 0.000000
0.945556 0.682887 0.000000
1.000000 0.700130 0.000000
1.000000 0.722744 0.000000
1.000000 0.738735 0.000000
0.993561 0.837644 0.000000
0.993744 0.834287 0.000000
1.000000 0.827085 0.000000
1.000000 0.820615 0.000000
1.000000 0.799252 0.000000
1.000000 0.773495 0.000000
1.000000 0.766567 0.000000
1.000000 0.765805 0.000000
0.000000 0.179843 0.392889
0.000000 0.182223 0.388586
0.000000 0.185122 0.346929
0.175967 0.204440 0.278019
0.382300 0.223484 0.292912
0.684169 0.325719 0.000000
0.923674 0.560327 0.000000
1.000000 0.650752 0.000000
0.000000 0.193820 0.400031
0.000000 0.193790 0.392676
0.000000 0.194644 0.349737
0.190066 0.215640 0.284825
0.385351 0.197024 0.252964
0.687007 0.344396 0.000000
0.920531 0.559289 0.000000
1.000000 0.653742 0.000000
0.000000 0.209598 0.361883
0.000000 0.211337 0.357336
0.076356 0.218112 0.346471
0.224155 0.243656 0.291020
0.466316 0.231907 0.171267
0.769406 0.439582 0.000000
0.967468 0.609705 0.000000
1.000000 0.674037 0.000000
0.091707 0.253696 0.337743
0.120089 0.257206 0.334203
0.194522 0.273503 0.325597
0.324773 0.312383 0.312108
0.585565 0.357763 0.145357
0.824582 0.500481 0.000000
0.975860 0.625330 0.000000
1.000000 0.685481 0.000000
0.263157 0.285527 0.305547
0.268894 0.303807 0.317357
0.350591 0.403449 0.308476
0.549157 0.447822 0.260319
0.756832 0.500633 0.130220
0.913298 0.592248 0.000000
1.000000 0.664027 0.000000
1.000000 0.703365 0.000000
0.586053 0.588037 0.222751
0.649226 0.619318 0.210727
0.693263 0.613733 0.182071
0.774228 0.614221 0.111574
0.873411 0.614984 0.000000
0.973968 0.658869 0.000000
1.000000 0.699519 0.000000
1.000000 0.724971 0.000000
0.860929 0.760708 0.000000
0.870939 0.761746 0.000000
0.897337 0.758450 0.000000
0.934051 0.746609 0.000000
0.970703 0.726925 0.000000
1.000000 0.715602 0.000000
1.000000 0.730098 0.000000
1.000000 0.743282 0.000000
1.000000 0.856474 0.000000
1.000000 0.855253 0.000000
1.000000 0.848478 0.000000
1.000000 0.835935 0.000000
1.000000 0.814542 0.000000
1.000000 0.785824 0.000000
1.000000 0.771298 0.000000
1.000000 0.770047 0.000000
0.000000 0.316564 0.760678
0.000000 0.317082 0.756527
0.000000 0.317693 0.732357
0.000000 0.335271 0.680476
0.345830 0.371740 0.536828
0.620966 0.661494 0.696407
0.905303 0.411170 0.188327
1.000000 0.627375 0.000000
0.000000 0.331731 0.766049
0.000000 0.338079 0.772946
0.000000 0.339117 0.750393
0.000000 0.347112 0.681056
0.355749 0.380774 0.535210
0.649836 0.692348 0.730129
0.912749 0.434150 0.158450
1.000000 0.637446 0.000000
0.000000 0.371588 0.761471
0.000000 0.375372 0.762631
0.000000 0.372412 0.742947
0.132631 0.379553 0.672694
0.387823 0.410864 0.529290
0.676600 0.524987 0.607477
0.924254 0.499123 0.000000
1.000000 0.663813 0.000000
0.000000 0.418402 0.721126
0.000000 0.418616 0.713924
0.000000 0.430304 0.702602
0.260410 0.460243 0.687984
0.474617 0.500114 0.563989
0.772457 0.449531 0.304845
0.957641 0.605005 0.000000
1.000000 0.683070 0.000000
0.086397 0.493141 0.664546
0.153811 0.499306 0.662440
0.281773 0.516228 0.648096
0.435584 0.555779 0.629084
0.617456 0.607324 0.597040
0.859373 0.596124 0.252537
0.988037 0.656153 0.000000
1.000000 0.702235 0.000000
0.394903 0.524437 0.549126
0.415381 0.525780 0.546624
0.489906 0.536309 0.556451
0.586847 0.675685 0.581811
0.783871 0.685023 0.470771
0.934936 0.692805 0.315312
1.000000 0.706722 0.000000
1.000000 0.726650 0.000000
0.645045 0.801114 0.673396
0.672053 0.807797 0.660060
0.782284 0.826658 0.576989
0.886168 0.822965 0.473579
0.943847 0.788266 0.317021
1.000000 0.745113 0.081361
1.000000 0.732265 0.000000
1.000000 0.744350 0.000000
0.962982 0.911162 0.506859
0.966705 0.907530 0.485847
0.980407 0.894591 0.403967
1.000000 0.876005 0.240330
1.000000 0.835813 0.000000
1.000000 0.803220 0.000000
1.000000 0.774563 0.000000
1.000000 0.772152 0.000000
0.000000 0.488838 0.965789
0.000000 0.493385 0.964782
0.000000 0.500908 0.955108
0.000000 0.538872 0.940093
0.447089 0.605737 0.907256
0.589227 0.635523 0.821164
0.771176 0.812741 0.857664
0.957763 0.723934 0.771481
0.000000 0.482948 0.955200
0.000000 0.484596 0.953063
0.000000 0.493935 0.945281
0.000000 0.526848 0.929900
0.430762 0.593408 0.897185
0.583612 0.629236 0.810117
0.778195 0.819150 0.863920
0.963073 0.710597 0.744411
0.000000 0.532280 0.956237
0.000000 0.531426 0.954162
0.000000 0.539727 0.947997
0.183108 0.575128 0.932708
0.482551 0.632593 0.899840
0.618952 0.664332 0.817197
0.830137 0.865019 0.905699
0.986358 0.690608 0.658717
0.000000 0.590356 0.946899
0.000000 0.590936 0.944121
0.000000 0.607630 0.940185
0.371801 0.657862 0.939055
0.590082 0.717617 0.915038
0.698177 0.742641 0.849363
0.879576 0.878294 0.925902
1.000000 0.673335 0.435920
0.089235 0.654566 0.924163
0.174838 0.660121 0.923247
0.321080 0.679011 0.919768
0.478859 0.713527 0.914855
0.621454 0.751553 0.906554
0.734707 0.776913 0.844602
0.922850 0.727199 0.679255
1.000000 0.701320 0.000000
0.421759 0.734951 0.894682
0.454597 0.744900 0.896910
0.522118 0.759487 0.893004
0.614862 0.781613 0.885801
0.710109 0.805447 0.873777
0.827512 0.841489 0.868986
0.976837 0.788144 0.592187
1.000000 0.737636 0.000000
0.677760 0.829099 0.886381
0.692744 0.833310 0.887724
0.723507 0.835477 0.882536
0.776547 0.838315 0.878996
0.826688 0.887968 0.891173
0.921202 0.879545 0.828824
0.998383 0.833066 0.663600
1.000000 0.757443 0.000000
0.837034 0.899138 0.920562
0.836423 0.903319 0.920134
0.838102 0.918181 0.915038
0.883299 0.935332 0.904356
0.954192 0.930785 0.833433
1.000000 0.883177 0.616358
1.000000 0.807279 0.227726
1.000000 0.778347 0.000000
0.000000 0.589654 0.998230
0.000000 0.601465 0.997986
0.000000 0.631159 0.994568
0.401190 0.690333 0.987823
0.605249 0.759030 0.976532
0.734371 0.810605 0.961120
0.785489 0.823941 0.933135
0.864469 0.893858 0.929198
0.000000 0.588342 0.995697
0.000000 0.598535 0.995422
0.000000 0.626062 0.992218
0.368902 0.677729 0.985260
0.578882 0.744015 0.973754
0.714443 0.796201 0.956939
0.768002 0.808438 0.925170
0.856901 0.887572 0.924285
0.000000 0.632227 0.995178
0.000000 0.637171 0.994629
0.189944 0.659419 0.991241
0.430426 0.706722 0.984314
0.606958 0.762875 0.972930
0.737758 0.814054 0.957244
0.789944 0.828000 0.929503
0.883635 0.909483 0.941070
0.249363 0.696651 0.991363
0.270848 0.698116 0.990417
0.361120 0.712154 0.988067
0.511559 0.750362 0.983642
0.660395 0.798581 0.973510
0.774960 0.842985 0.960296
0.822080 0.856077 0.936156
0.917327 0.936309 0.959991
0.413794 0.750759 0.982483
0.425208 0.751919 0.981537
0.478584 0.762173 0.979248
0.569055 0.784939 0.976715
0.677028 0.816800 0.972290
0.785275 0.854307 0.959106
0.835630 0.867887 0.933867
0.948150 0.957488 0.974823
0.580377 0.817197 0.972656
0.592676 0.820157 0.972229
0.632349 0.830014 0.970794
0.693416 0.847013 0.969055
0.758419 0.866361 0.966766
0.829526 0.890776 0.964569
0.877531 0.903288 0.944305
0.959716 0.893400 0.916808
0.731258 0.878813 0.964233
0.740963 0.881773 0.964324
0.762997 0.887602 0.963348
0.796658 0.897185 0.962005
0.832151 0.906737 0.959014
0.872770 0.918517 0.955474
0.922637 0.932891 0.953094
0.996796 0.890043 0.844877
0.842130 0.923949 0.961151
0.845090 0.924559 0.960876
0.862211 0.930114 0.962036
0.879271 0.933532 0.960815
0.899290 0.933776 0.957458
0.921691 0.953246 0.960906
0.969390 0.948363 0.937194
1.000000 0.902007 0.840726
0.384192 0.728176 1.000000
0.423621 0.739162 1.000000
0.513207 0.765743 1.000000
0.642878 0.812222 1.000000
0.756466 0.858976 0.994934
0.836881 0.895781 0.989166
0.884703 0.917998 0.983856
0.909880 0.928588 0.975982
0.378698 0.727138 1.000000
0.417609 0.737758 1.000000
0.509545 0.764920 1.000000
0.634791 0.808896 1.000000
0.750301 0.855924 0.994537
0.832914 0.893431 0.988708
0.881804 0.915984 0.983185
0.908446 0.927459 0.975311
0.409003 0.740261 1.000000
0.438941 0.748318 1.000000
0.516808 0.770626 1.000000
0.651362 0.818692 0.999969
0.757137 0.860990 0.994232
0.834409 0.895140 0.988434
0.885161 0.918639 0.983062
0.911284 0.929778 0.975433
0.485328 0.772244 1.000000
0.508690 0.779110 1.000000
0.563867 0.794888 1.000000
0.666041 0.829679 0.999573
0.769558 0.870420 0.994263
0.844694 0.903197 0.988952
0.895964 0.926970 0.983978
0.917205 0.934600 0.975952
0.598596 0.819669 1.000000
0.611902 0.823758 1.000000
0.637659 0.830564 0.999634
0.681270 0.843168 0.998535
0.769192 0.875242 0.994720
0.848814 0.908537 0.989532
0.905089 0.934508 0.984985
0.924071 0.940154 0.976379
0.715023 0.870268 0.995270
0.717800 0.870756 0.995026
0.731472 0.874235 0.994324
0.759121 0.882444 0.993469
0.798917 0.895689 0.992676
0.861479 0.920684 0.991333
0.917662 0.945159 0.987152
0.936553 0.950225 0.978241
0.816678 0.916655 0.991119
0.818936 0.917266 0.990967
0.827787 0.919921 0.990570
0.846006 0.926055 0.990234
0.870970 0.934874 0.989960
0.894987 0.942901 0.989258
0.924773 0.953399 0.988403
0.948180 0.959655 0.979187
0.880003 0.946624 0.987915
0.881010 0.946838 0.987762
0.886290 0.948455 0.987488
0.897429 0.952178 0.987274
0.911833 0.956970 0.986816
0.928771 0.962554 0.986145
0.948363 0.968994 0.985077
0.972351 0.976013 0.983886
