data/fiter_cube/87192323/1023454/file.cube
# Created by Adobe Lightroom plugin Export LUT (1.17.0)
# www.johnrellis.com/lightroom/exportlut.htm
# Preset: 日系清新自然_05 云集
# Color profile: C:\Program Files (x86)\Common Files\Adobe\Color\Profiles\Recommended\AdobeRGB1998.icc
LUT_3D_SIZE 8
DOMAIN_MIN 0.000000 0.000000 0.000000
DOMAIN_MAX 0.903226 0.903226 0.903226
0.000000 0.000000 0.000000
0.152712 0.007111 0.000000
0.319829 0.043610 0.000000
0.486366 0.078370 0.000000
0.652552 0.101076 0.000000
0.797208 0.116304 0.000000
0.917693 0.121187 0.000000
1.000000 0.111360 0.000000
0.060609 0.131533 0.074678
0.143435 0.152346 0.019074
0.313909 0.156100 0.000000
0.479164 0.167330 0.000000
0.645686 0.178317 0.000000
0.789853 0.182528 0.000000
0.911009 0.180087 0.000000
1.000000 0.168612 0.000000
0.115877 0.288212 0.149325
0.175753 0.292180 0.159030
0.307225 0.325475 0.041688
0.478798 0.319707 0.000000
0.646204 0.318517 0.000000
0.791012 0.314305 0.000000
0.915831 0.303593 0.000000
1.000000 0.285191 0.000000
0.201053 0.454322 0.248753
0.238682 0.458900 0.253117
0.352026 0.476265 0.289220
0.494545 0.520684 0.108583
0.665644 0.502831 0.000000
0.795041 0.459602 0.000000
0.913420 0.437659 0.000000
1.000000 0.411688 0.000000
0.289647 0.628626 0.351293
0.314855 0.632959 0.352361
0.414374 0.647486 0.382696
0.525841 0.673457 0.376623
0.658869 0.684901 0.171908
0.795377 0.638544 0.000000
0.907744 0.585168 0.000000
1.000000 0.539696 0.000000
0.394751 0.763455 0.459449
0.413550 0.769528 0.462928
0.487922 0.776425 0.488502
0.593835 0.788388 0.533623
0.666041 0.803891 0.462898
0.787839 0.807340 0.250248
0.912840 0.755612 0.000000
1.000000 0.693660 0.000000
0.517632 0.867185 0.577081
0.526055 0.869383 0.576562
0.574578 0.871519 0.593561
0.650111 0.876249 0.624598
0.736660 0.882261 0.665553
0.779049 0.896239 0.548699
0.889952 0.899107 0.331365
1.000000 0.846891 0.000000
0.628138 0.943145 0.679835
0.632563 0.943725 0.678798
0.662440 0.944305 0.688441
0.714473 0.945464 0.708949
0.772641 0.943725 0.730587
0.823819 0.949767 0.728878
0.868437 0.963561 0.621576
0.970825 0.968292 0.403052
0.000000 0.000427 0.159060
0.147219 0.000000 0.157259
0.309422 0.000000 0.136446
0.473426 0.003937 0.121401
0.640986 0.061036 0.097780
0.784970 0.090944 0.065766
0.907378 0.104189 0.000000
1.000000 0.094850 0.000000
0.005615 0.139101 0.144533
0.140352 0.153811 0.151217
0.305638 0.148684 0.135286
0.470802 0.152804 0.118318
0.638025 0.161624 0.093202
0.781430 0.168826 0.057221
0.902556 0.169223 0.000000
1.000000 0.158358 0.000000
0.123171 0.283238 0.199039
0.183932 0.294133 0.208560
0.300786 0.321294 0.166659
0.468849 0.307195 0.106905
0.637201 0.309911 0.075624
0.780453 0.305730 0.004578
0.903655 0.296086 0.000000
1.000000 0.279240 0.000000
0.215122 0.444373 0.285893
0.244541 0.452461 0.284916
0.351598 0.473487 0.316777
0.479866 0.506920 0.192630
0.645716 0.486030 0.011749
0.778470 0.449287 0.000000
0.900603 0.430518 0.000000
1.000000 0.407019 0.000000
0.309667 0.621454 0.386175
0.321813 0.626581 0.377661
0.412512 0.641138 0.400763
0.523674 0.664485 0.408240
0.647211 0.674495 0.229709
0.785306 0.630243 0.000000
0.900481 0.579156 0.000000
1.000000 0.536797 0.000000
0.407568 0.756405 0.481819
0.418250 0.760037 0.478737
0.484657 0.768582 0.497475
0.591119 0.782650 0.543267
0.666041 0.799802 0.490364
0.784360 0.804685 0.294713
0.908934 0.752804 0.000000
1.000000 0.690791 0.000000
0.523430 0.861357 0.589014
0.529747 0.862455 0.586755
0.572137 0.866392 0.598535
0.649256 0.872862 0.631006
0.736904 0.880674 0.673274
0.779263 0.893889 0.568658
0.886046 0.896025 0.362310
1.000000 0.843687 0.000000
0.632807 0.940612 0.688411
0.637720 0.941558 0.687861
0.663600 0.942992 0.694026
0.715877 0.944549 0.714809
0.778103 0.945556 0.740993
0.828885 0.950195 0.742519
0.869871 0.962951 0.637873
0.969390 0.967315 0.429969
0.000000 0.000000 0.323888
0.130220 0.000000 0.322820
0.298833 0.000000 0.317266
0.457221 0.000000 0.307652
0.630610 0.000000 0.277531
0.780453 0.000000 0.265476
0.905821 0.100649 0.253056
1.000000 0.102113 0.228428
0.000000 0.163577 0.319890
0.110445 0.146670 0.318791
0.294774 0.140566 0.313359
0.454932 0.123873 0.300420
0.629755 0.000000 0.265110
0.776577 0.153109 0.265415
0.902312 0.166873 0.249790
1.000000 0.161563 0.225315
0.059571 0.283299 0.293095
0.147555 0.289982 0.296086
0.281590 0.308171 0.301671
0.453803 0.299809 0.285435
0.630365 0.301213 0.274540
0.775998 0.300847 0.262486
0.900908 0.295537 0.246159
1.000000 0.281132 0.220401
0.178408 0.425238 0.342565
0.223850 0.433814 0.348425
0.337316 0.464118 0.369696
0.466438 0.497475 0.330541
0.634028 0.470558 0.273259
0.774868 0.449378 0.257237
0.899657 0.432868 0.240574
1.000000 0.409888 0.212314
0.280888 0.601526 0.427619
0.315801 0.608209 0.434424
0.407355 0.630884 0.452338
0.542351 0.662165 0.508293
0.641566 0.671565 0.363561
0.779080 0.624323 0.260227
0.896239 0.573571 0.231601
1.000000 0.539361 0.197421
0.399451 0.744839 0.518700
0.428443 0.748745 0.527855
0.493202 0.761532 0.543145
0.594507 0.778378 0.583093
0.677455 0.796780 0.575586
0.777920 0.800626 0.411597
0.902342 0.749294 0.250919
1.000000 0.689143 0.194644
0.533684 0.856870 0.624048
0.552911 0.858335 0.631525
0.587701 0.864408 0.636622
0.657679 0.872038 0.662531
0.744076 0.881437 0.703517
0.789425 0.893858 0.638331
0.885740 0.897154 0.469673
1.000000 0.845182 0.211887
0.649928 0.938537 0.719051
0.660670 0.938933 0.723079
0.676081 0.941711 0.720607
0.724422 0.945068 0.737942
0.785824 0.946715 0.763485
0.842802 0.950164 0.780941
0.876860 0.962890 0.690913
0.968933 0.967834 0.517052
0.000000 0.000000 0.480171
0.080262 0.000000 0.480049
0.286229 0.000000 0.475685
0.445869 0.000000 0.469123
0.601404 0.000000 0.461830
0.757229 0.000000 0.438270
0.891661 0.000000 0.401038
1.000000 0.000000 0.365393
0.000000 0.145632 0.479713
0.001160 0.143069 0.478706
0.280064 0.133333 0.474311
0.444404 0.116274 0.467994
0.600488 0.098329 0.459754
0.756100 0.000000 0.434241
0.890379 0.000000 0.397070
1.000000 0.141024 0.380835
0.000000 0.319707 0.466957
0.000000 0.319738 0.468574
0.253452 0.295567 0.466590
0.437598 0.289342 0.461830
0.603326 0.283635 0.451698
0.760494 0.269596 0.424842
0.893797 0.301823 0.413275
1.000000 0.313298 0.399664
0.094057 0.422004 0.434791
0.158114 0.426032 0.436683
0.282017 0.439796 0.442969
0.424445 0.461341 0.450202
0.603693 0.456275 0.438758
0.755612 0.453529 0.429633
0.887846 0.446723 0.417060
1.000000 0.429328 0.394781
0.216098 0.563317 0.483742
0.251743 0.568902 0.486854
0.355566 0.590295 0.500725
0.502983 0.629816 0.537682
0.619318 0.654505 0.500481
0.760067 0.611963 0.437263
0.887266 0.581262 0.416114
0.999054 0.553338 0.389441
0.350225 0.723659 0.560876
0.381445 0.729854 0.568200
0.469276 0.741665 0.587243
0.583764 0.765896 0.623072
0.702083 0.795743 0.679591
0.770138 0.796628 0.549462
0.892729 0.746731 0.435126
0.998199 0.689021 0.390082
0.498390 0.845579 0.647761
0.519036 0.847807 0.653895
0.583520 0.855253 0.675135
0.662470 0.869566 0.701839
0.750668 0.883330 0.741451
0.807218 0.896025 0.726772
0.883726 0.897490 0.593439
0.995911 0.845945 0.417304
0.631434 0.936187 0.737118
0.644465 0.937041 0.741665
0.685878 0.939635 0.756680
0.732723 0.945251 0.769497
0.792721 0.948638 0.792294
0.857237 0.951843 0.822293
0.887114 0.962860 0.760189
0.967834 0.968231 0.623102
0.000000 0.000000 0.630976
0.000000 0.000000 0.630457
0.261112 0.000000 0.626856
0.434607 0.000000 0.621881
0.594202 0.000000 0.618799
0.733181 0.000000 0.598108
0.868162 0.000000 0.572076
0.992462 0.000000 0.536736
0.000000 0.142824 0.629511
0.000000 0.140536 0.629603
0.253056 0.130007 0.626368
0.430854 0.105531 0.620630
0.592828 0.061280 0.617609
0.732113 0.053529 0.596582
0.868223 0.000000 0.570916
0.992309 0.000000 0.535821
0.000000 0.323125 0.622950
0.000000 0.316472 0.622583
0.220310 0.287724 0.620447
0.418891 0.280644 0.617853
0.586816 0.270329 0.612024
0.725368 0.271977 0.589837
0.866697 0.262821 0.566186
0.990478 0.249149 0.532708
0.000000 0.460182 0.605676
0.000000 0.461219 0.606744
0.221897 0.464363 0.610590
0.397009 0.446632 0.610132
0.578119 0.440894 0.603967
0.723537 0.441840 0.585534
0.867948 0.435767 0.564569
0.990906 0.425086 0.535515
0.122072 0.557519 0.573297
0.174472 0.560235 0.574640
0.288731 0.568902 0.577966
0.423926 0.584314 0.583490
0.561181 0.602869 0.588281
0.725399 0.601129 0.582483
0.866453 0.597070 0.574975
0.985718 0.580926 0.556146
0.250797 0.673671 0.603967
0.280552 0.677577 0.606256
0.370397 0.690517 0.614252
0.501183 0.714839 0.634119
0.645197 0.754330 0.676387
0.745388 0.777127 0.649226
0.871672 0.738186 0.588525
0.985809 0.699794 0.556878
0.430671 0.822934 0.681147
0.451148 0.824643 0.683803
0.517571 0.831693 0.694911
0.617121 0.846281 0.719142
0.725582 0.870726 0.756802
0.824887 0.894621 0.804929
0.877012 0.893828 0.695369
0.984161 0.844541 0.575891
0.589227 0.927459 0.758877
0.602136 0.928130 0.761563
0.644831 0.930907 0.771450
0.715267 0.938537 0.793271
0.786893 0.948089 0.816190
0.858518 0.954131 0.847593
0.898802 0.962524 0.829374
0.965362 0.967590 0.719295
0.000000 0.011872 0.759762
0.000000 0.000000 0.759213
0.222293 0.000000 0.756130
0.405524 0.000000 0.754086
0.569909 0.000000 0.750790
0.722499 0.000000 0.745113
0.853422 0.000000 0.720089
0.975647 0.000000 0.691646
0.000000 0.143252 0.756130
0.000000 0.141115 0.755428
0.212650 0.132418 0.753231
0.400824 0.114534 0.751644
0.566613 0.074891 0.747951
0.720089 0.000000 0.742702
0.851652 0.000000 0.718349
0.974762 0.000000 0.690547
0.000000 0.298497 0.754482
0.000000 0.287785 0.754330
0.181888 0.284733 0.752895
0.389319 0.278538 0.750393
0.560784 0.267704 0.745785
0.717494 0.255528 0.740261
0.849332 0.257450 0.716121
0.974426 0.248112 0.689021
0.000000 0.473243 0.748989
0.000000 0.470069 0.748196
0.195377 0.460914 0.747005
0.373541 0.438849 0.747372
0.553460 0.434577 0.743893
0.715175 0.428840 0.738216
0.846433 0.431006 0.715480
0.974884 0.421088 0.690028
0.000000 0.585657 0.725704
0.000000 0.587091 0.726284
0.229252 0.591791 0.728328
0.384863 0.600488 0.732174
0.537957 0.589624 0.731930
0.702907 0.583276 0.726558
0.839902 0.582422 0.710048
0.972442 0.575463 0.689906
0.179202 0.677943 0.696895
0.217502 0.680446 0.698299
0.314336 0.686458 0.700252
0.435615 0.696834 0.703395
0.560082 0.710323 0.707027
0.689204 0.728664 0.713527
0.845762 0.733394 0.716152
0.970977 0.726375 0.707912
0.322698 0.798825 0.734066
0.345525 0.799588 0.734920
0.412604 0.800168 0.735744
0.516594 0.810880 0.743099
0.644892 0.833829 0.762997
0.785641 0.871794 0.809049
0.866056 0.886687 0.783658
0.971405 0.845090 0.718288
0.522484 0.916136 0.796628
0.535882 0.916777 0.797635
0.581140 0.919707 0.801999
0.653864 0.926482 0.812467
0.746151 0.936919 0.832212
0.844511 0.952819 0.865782
0.918791 0.963958 0.899840
0.963745 0.967895 0.811948
0.000000 0.045380 0.869963
0.000000 0.033204 0.869780
0.168246 0.000000 0.868894
0.368688 0.000000 0.867247
0.532799 0.000000 0.863951
0.687831 0.000000 0.860075
0.837919 0.000000 0.855741
0.964782 0.000000 0.829648
0.000000 0.144564 0.869535
0.000000 0.143130 0.869261
0.158785 0.136416 0.868223
0.365179 0.121798 0.866178
0.530724 0.092470 0.863188
0.686976 0.000000 0.859464
0.837430 0.000000 0.855192
0.964294 0.000000 0.829160
0.000000 0.282292 0.867735
0.000000 0.281559 0.867399
0.121523 0.278874 0.866331
0.354040 0.273625 0.864347
0.524590 0.264439 0.861479
0.684230 0.250950 0.857877
0.835904 0.234745 0.853758
0.963012 0.225040 0.827848
0.000000 0.460243 0.862608
0.000000 0.458259 0.862242
0.128603 0.439551 0.862242
0.339483 0.424109 0.860960
0.516350 0.419562 0.858274
0.680293 0.412818 0.854887
0.833005 0.405524 0.850919
0.960266 0.399359 0.826017
0.000000 0.592828 0.853147
0.000000 0.593469 0.853483
0.151095 0.595697 0.854765
0.360754 0.592767 0.854490
0.509758 0.573297 0.853605
0.673854 0.567895 0.850340
0.828519 0.561639 0.846433
0.955566 0.557824 0.824460
0.008118 0.700893 0.835782
0.131838 0.702052 0.836057
0.263279 0.706416 0.837217
0.394293 0.713741 0.839384
0.525628 0.722621 0.843137
0.667292 0.715206 0.844114
0.822202 0.709255 0.840085
0.951598 0.706569 0.824582
0.268925 0.792325 0.815091
0.293523 0.793515 0.815335
0.364996 0.797391 0.816251
0.461433 0.804044 0.817807
0.572412 0.813748 0.820249
0.690944 0.826444 0.824063
0.812192 0.842191 0.829984
0.954437 0.847929 0.835752
0.418982 0.911864 0.855436
0.433997 0.911894 0.855406
0.481605 0.912169 0.855528
0.553796 0.912596 0.855741
0.649805 0.917113 0.858824
0.773220 0.933135 0.874144
0.902403 0.959014 0.915435
0.961852 0.967956 0.894133
0.000000 0.067659 0.974792
0.000000 0.063691 0.974609
0.070832 0.035492 0.973846
0.329168 0.000000 0.972564
0.496559 0.000000 0.970794
0.652857 0.000000 0.968566
0.803159 0.000000 0.965972
0.952728 0.000000 0.963073
0.000000 0.147372 0.974395
0.000000 0.145998 0.974212
0.036408 0.140108 0.973480
0.326329 0.128206 0.972198
0.494911 0.104707 0.970459
0.651850 0.027466 0.968231
0.802731 0.000000 0.965667
0.952453 0.000000 0.962799
0.000000 0.278111 0.973114
0.000000 0.277714 0.972930
0.000000 0.275120 0.972259
0.317021 0.270634 0.971099
0.489906 0.262455 0.969421
0.648676 0.249302 0.967224
0.801419 0.230259 0.964721
0.951629 0.202060 0.961883
0.000000 0.450111 0.969665
0.000000 0.439063 0.969970
0.000000 0.417792 0.970153
0.307103 0.415473 0.969055
0.484382 0.411200 0.967437
0.644923 0.404547 0.965393
0.799863 0.394812 0.962921
0.950164 0.381170 0.960143
0.000000 0.588830 0.965270
0.000000 0.588281 0.965240
0.142641 0.586938 0.965026
0.355138 0.585779 0.964721
0.483589 0.560723 0.964508
0.642786 0.555993 0.962524
0.798825 0.548882 0.960113
0.947662 0.541253 0.957336
0.000000 0.708309 0.956115
0.000000 0.709071 0.956298
0.203464 0.711666 0.956970
0.349096 0.715236 0.958465
0.505943 0.716945 0.959167
0.645258 0.702571 0.958648
0.797086 0.697139 0.956359
0.944549 0.690578 0.953582
0.240146 0.814298 0.943847
0.265049 0.815152 0.943999
0.336156 0.817960 0.944518
0.433600 0.822965 0.945586
0.545068 0.830076 0.947387
0.664576 0.838407 0.950408
0.796170 0.833005 0.951690
0.940795 0.827237 0.948974
0.390509 0.902892 0.930388
0.404334 0.903532 0.930480
0.449592 0.905882 0.930785
0.520958 0.910094 0.931426
0.610559 0.916228 0.932464
0.711971 0.924346 0.934112
0.822049 0.934661 0.936919
0.935424 0.947906 0.942626
