data/fiter_cube/87192323/1023454/file.cube
# Created by Adobe Lightroom plugin Export LUT (1.17.0)
# www.johnrellis.com/lightroom/exportlut.htm
# Preset: 日系清新自然_05 云集
# Color profile: C:\Program Files (x86)\Common Files\Adobe\Color\Profiles\Recommended\AdobeRGB1998.icc
LUT_3D_SIZE 5
DOMAIN_MIN 0.000000 0.000000 0.000000
DOMAIN_MAX 0.903226 0.903226 0.903226
0.000000 0.000000 0.000000
0.279393 0.032044 0.000000
0.572473 0.090944 0.000000
0.830411 0.118379 0.000000
1.000000 0.111360 0.000000
0.097200 0.249180 0.126894
0.266697 0.282750 0.023224
0.564111 0.279637 0.000000
0.826139 0.278691 0.000000
1.000000 0.254856 0.000000
0.243687 0.543023 0.299474
0.352300 0.560937 0.324041
0.585138 0.612177 0.139132
0.823941 0.536675 0.000000
1.000000 0.475441 0.000000
0.428229 0.794400 0.491981
0.489113 0.801663 0.508568
0.661982 0.819730 0.584924
0.816159 0.833219 0.270665
1.000000 0.732570 0.000000
0.628138 0.943145 0.679835
0.652430 0.944121 0.684779
0.740108 0.943175 0.716396
0.830808 0.953704 0.707637
0.970825 0.968292 0.403052
0.000000 0.000000 0.283024
0.261845 0.000000 0.278111
0.550408 0.000000 0.242618
0.812528 0.067445 0.219242
1.000000 0.089387 0.177676
0.041169 0.248600 0.257420
0.247440 0.270878 0.265476
0.546288 0.261234 0.237430
0.810422 0.263859 0.214359
1.000000 0.247379 0.172274
0.240299 0.520439 0.369543
0.344854 0.547021 0.386328
0.561425 0.591852 0.308873
0.807126 0.519768 0.200565
1.000000 0.473915 0.150210
0.447303 0.784085 0.543938
0.504204 0.795438 0.556725
0.669062 0.818601 0.626215
0.811460 0.830686 0.396765
1.000000 0.730007 0.128817
0.653101 0.940703 0.716426
0.667811 0.943145 0.713710
0.753079 0.946105 0.744289
0.844327 0.954314 0.751644
0.970336 0.968750 0.495338
0.000000 0.000000 0.559319
0.229770 0.000000 0.555749
0.520958 0.000000 0.545403
0.778592 0.000000 0.515221
1.000000 0.000000 0.451850
0.000000 0.285527 0.552636
0.192111 0.253300 0.550286
0.518242 0.236667 0.543267
0.777707 0.223941 0.507836
1.000000 0.206638 0.450233
0.103853 0.491768 0.506035
0.250248 0.502098 0.510643
0.494697 0.534874 0.521721
0.776883 0.529808 0.507805
0.993957 0.506981 0.478279
0.349004 0.741024 0.603052
0.433570 0.750790 0.615167
0.639063 0.793057 0.674342
0.794827 0.820462 0.617548
0.990784 0.728939 0.478218
0.611627 0.931609 0.745602
0.654810 0.934783 0.758724
0.759274 0.946288 0.792325
0.874144 0.953918 0.842893
0.966003 0.967407 0.670192
0.000000 0.018494 0.786191
0.148440 0.000000 0.784604
0.479438 0.000000 0.781521
0.751034 0.000000 0.772641
0.970581 0.000000 0.726284
0.000000 0.249454 0.782956
0.092744 0.246098 0.781979
0.469764 0.232120 0.777707
0.746700 0.203525 0.768582
0.967254 0.190829 0.723384
0.000000 0.530755 0.767422
0.095613 0.532280 0.769039
0.446876 0.507866 0.766964
0.736873 0.498146 0.759243
0.966491 0.490272 0.721462
0.200412 0.708522 0.728298
0.297673 0.712581 0.728817
0.499397 0.729458 0.733577
0.719722 0.757534 0.742794
0.965698 0.756741 0.739712
0.497871 0.911833 0.808194
0.544366 0.915007 0.811521
0.679164 0.927886 0.827756
0.860258 0.954833 0.879332
0.963104 0.967803 0.833310
0.000000 0.067659 0.974792
0.000000 0.047700 0.974090
0.415351 0.000000 0.971740
0.691554 0.000000 0.967926
0.952728 0.000000 0.963073
0.000000 0.244266 0.973541
0.000000 0.241520 0.972869
0.408728 0.230747 0.970672
0.688655 0.203189 0.966949
0.951934 0.144686 0.962188
0.000000 0.522515 0.967468
0.086152 0.521172 0.967254
0.398901 0.488624 0.966888
0.682826 0.478920 0.963439
0.949065 0.462165 0.958862
0.000000 0.736019 0.953216
0.207034 0.738827 0.953826
0.435431 0.746517 0.956451
0.683925 0.736446 0.957061
0.943664 0.725917 0.952483
0.390509 0.902892 0.930388
0.435462 0.905119 0.930663
0.563958 0.912932 0.931884
0.738796 0.926726 0.934661
0.935424 0.947906 0.942626
