data/fiter_cube/87192323/1023454/file.cube
# Created by Adobe Lightroom plugin Export LUT (1.17.0)
# www.johnrellis.com/lightroom/exportlut.htm
# Preset: 日系清新自然_05 云集
# Color profile: C:\Program Files (x86)\Common Files\Adobe\Color\Profiles\Recommended\AdobeRGB1998.icc
LUT_3D_SIZE 32
DOMAIN_MIN 0.0 0.0 0.0
DOMAIN_MAX 1.0 1.0 1.0
0.000000 0.000000 0.000000
0.044984 0.000824 0.000000
0.073579 0.001831 0.000000
0.108766 0.003388 0.000000
0.152712 0.007111 0.000000
0.196384 0.012757 0.000000
0.238621 0.019867 0.000000
0.279393 0.032044 0.000000
0.319829 0.043610 0.000000
0.360449 0.055848 0.000000
0.401862 0.063905 0.000000
0.443915 0.071107 0.000000
0.486366 0.078370 0.000000
0.529442 0.085115 0.000000
0.572473 0.090944 0.000000
0.613550 0.096956 0.000000
0.652552 0.101076 0.000000
0.689448 0.105165 0.000000
0.723781 0.109133 0.000000
0.761563 0.113222 0.000000
0.797208 0.116304 0.000000
0.830411 0.118379 0.000000
0.861326 0.119936 0.000000
0.890288 0.121370 0.000000
0.917693 0.121187 0.000000
0.943999 0.120027 0.000000
0.969635 0.119020 0.000000
0.994720 0.115938 0.000000
1.000000 0.111360 0.000000
1.000000 0.105074 0.000000
1.000000 0.095674 0.000000
1.000000 0.082612 0.000000
0.007172 0.033600 0.011139
0.038880 0.043885 0.002960
0.072938 0.042054 0.000000
0.108370 0.044800 0.000000
0.151980 0.052094 0.000000
0.195438 0.058625 0.000000
0.237613 0.062135 0.000000
0.278294 0.066163 0.000000
0.318547 0.070283 0.000000
0.359136 0.076234 0.000000
0.400458 0.080537 0.000000
0.442237 0.086305 0.000000
0.484627 0.091890 0.000000
0.527581 0.098146 0.000000
0.570550 0.103212 0.000000
0.611414 0.107912 0.000000
0.650416 0.111971 0.000000
0.687343 0.115511 0.000000
0.721798 0.118837 0.000000
0.759396 0.122408 0.000000
0.794675 0.124941 0.000000
0.827756 0.126680 0.000000
0.858671 0.127901 0.000000
0.887724 0.128847 0.000000
0.915251 0.128847 0.000000
0.941741 0.127626 0.000000
0.967590 0.125338 0.000000
0.992859 0.123018 0.000000
1.000000 0.118257 0.000000
1.000000 0.112398 0.000000
1.000000 0.103975 0.000000
1.000000 0.092012 0.000000
0.018067 0.065736 0.026490
0.042481 0.065492 0.030243
0.068635 0.073304 0.006622
0.107637 0.074647 0.000000
0.151308 0.077150 0.000000
0.194736 0.081270 0.000000
0.236728 0.084260 0.000000
0.277195 0.086976 0.000000
0.317388 0.090761 0.000000
0.357946 0.093965 0.000000
0.399054 0.098756 0.000000
0.440986 0.103090 0.000000
0.483375 0.107790 0.000000
0.526268 0.113008 0.000000
0.569055 0.117159 0.000000
0.610132 0.121157 0.000000
0.649073 0.125277 0.000000
0.686061 0.128237 0.000000
0.720638 0.130770 0.000000
0.758236 0.133272 0.000000
0.793393 0.135836 0.000000
0.826352 0.137270 0.000000
0.857237 0.137972 0.000000
0.886320 0.138186 0.000000
0.913939 0.137728 0.000000
0.940520 0.136538 0.000000
0.966400 0.134432 0.000000
0.991821 0.131746 0.000000
1.000000 0.127382 0.000000
1.000000 0.121675 0.000000
1.000000 0.113527 0.000000
1.000000 0.103029 0.000000
0.043854 0.095766 0.058747
0.061494 0.095552 0.060243
0.073304 0.096468 0.062379
0.103426 0.109773 0.014038
0.150637 0.115206 0.000000
0.193698 0.114168 0.000000
0.235569 0.116762 0.000000
0.276066 0.118959 0.000000
0.316258 0.121431 0.000000
0.356603 0.124331 0.000000
0.397742 0.127687 0.000000
0.439551 0.131106 0.000000
0.481697 0.135317 0.000000
0.524376 0.139101 0.000000
0.567346 0.142702 0.000000
0.608392 0.145541 0.000000
0.647364 0.148287 0.000000
0.684352 0.151003 0.000000
0.719783 0.152438 0.000000
0.756527 0.154452 0.000000
0.791104 0.155947 0.000000
0.823850 0.156527 0.000000
0.854826 0.156954 0.000000
0.884245 0.157137 0.000000
0.912413 0.155978 0.000000
0.939483 0.154452 0.000000
0.965789 0.152071 0.000000
0.991424 0.149111 0.000000
1.000000 0.145113 0.000000
1.000000 0.139437 0.000000
1.000000 0.132235 0.000000
1.000000 0.122866 0.000000
0.060609 0.131533 0.074678
0.070924 0.131563 0.074800
0.084108 0.131472 0.077455
0.103975 0.136446 0.073579
0.143435 0.152346 0.019074
0.192142 0.158114 0.000000
0.233707 0.155764 0.000000
0.273686 0.154330 0.000000
0.313909 0.156100 0.000000
0.354253 0.158572 0.000000
0.395331 0.161257 0.000000
0.436957 0.164370 0.000000
0.479164 0.167330 0.000000
0.521996 0.170901 0.000000
0.564996 0.173556 0.000000
0.606317 0.176425 0.000000
0.645686 0.178317 0.000000
0.682856 0.179782 0.000000
0.719570 0.180667 0.000000
0.755734 0.182223 0.000000
0.789853 0.182528 0.000000
0.822354 0.182803 0.000000
0.853269 0.182528 0.000000
0.882811 0.181186 0.000000
0.911009 0.180087 0.000000
0.938293 0.178256 0.000000
0.964691 0.175631 0.000000
0.990387 0.172549 0.000000
1.000000 0.168612 0.000000
1.000000 0.163149 0.000000
1.000000 0.156344 0.000000
1.000000 0.148074 0.000000
0.070192 0.169284 0.089662
0.079500 0.169558 0.088869
0.092531 0.169680 0.091005
0.114382 0.169986 0.095857
0.140414 0.180087 0.080781
0.184176 0.195346 0.015839
0.233036 0.200870 0.000000
0.272953 0.197757 0.000000
0.312352 0.193851 0.000000
0.352697 0.193912 0.000000
0.393622 0.196506 0.000000
0.435248 0.199069 0.000000
0.477455 0.201968 0.000000
0.520378 0.204746 0.000000
0.563439 0.207523 0.000000
0.604944 0.209567 0.000000
0.644373 0.211032 0.000000
0.681758 0.211704 0.000000
0.719753 0.212863 0.000000
0.755550 0.213016 0.000000
0.789609 0.213016 0.000000
0.822202 0.212314 0.000000
0.868711 0.214878 0.000000
0.897429 0.213107 0.000000
0.924590 0.211093 0.000000
0.950683 0.208347 0.000000
0.975799 0.205020 0.000000
1.000000 0.201266 0.000000
1.000000 0.196933 0.000000
1.000000 0.191318 0.000000
1.000000 0.184878 0.000000
1.000000 0.176852 0.000000
0.082246 0.210452 0.107515
0.089540 0.211032 0.105928
0.102968 0.211337 0.107790
0.125643 0.211917 0.112490
0.152834 0.213138 0.120119
0.182040 0.227512 0.089235
0.227298 0.240818 0.013703
0.275761 0.245579 0.000000
0.315709 0.242008 0.000000
0.355901 0.238285 0.000000
0.396277 0.234745 0.000000
0.438361 0.237217 0.000000
0.480598 0.239536 0.000000
0.523674 0.242191 0.000000
0.566583 0.244297 0.000000
0.607416 0.245640 0.000000
0.646509 0.246494 0.000000
0.685939 0.247257 0.000000
0.723812 0.247623 0.000000
0.759945 0.247471 0.000000
0.794858 0.247013 0.000000
0.828672 0.245823 0.000000
0.860960 0.244785 0.000000
0.891661 0.242863 0.000000
0.920562 0.240360 0.000000
0.947631 0.237430 0.000000
0.973419 0.233890 0.000000
0.998169 0.230045 0.000000
1.000000 0.225162 0.000000
1.000000 0.219760 0.000000
1.000000 0.213291 0.000000
1.000000 0.205692 0.000000
0.097200 0.249180 0.126894
0.102327 0.249638 0.124666
0.114290 0.250095 0.126711
0.136202 0.251011 0.131014
0.163272 0.252415 0.137972
0.189914 0.258030 0.135409
0.221836 0.271092 0.100221
0.266697 0.282750 0.023224
0.314397 0.286503 0.000000
0.355505 0.283696 0.000000
0.396002 0.280217 0.000000
0.436744 0.276707 0.000000
0.478309 0.275303 0.000000
0.521172 0.277684 0.000000
0.564111 0.279637 0.000000
0.605097 0.281041 0.000000
0.645380 0.281682 0.000000
0.685481 0.282383 0.000000
0.722560 0.282109 0.000000
0.758114 0.281102 0.000000
0.792569 0.280186 0.000000
0.826139 0.278691 0.000000
0.858366 0.276829 0.000000
0.888945 0.274327 0.000000
0.917845 0.271397 0.000000
0.945098 0.268193 0.000000
0.971008 0.264286 0.000000
0.996033 0.259892 0.000000
1.000000 0.254856 0.000000
1.000000 0.249180 0.000000
1.000000 0.242893 0.000000
1.000000 0.235447 0.000000
0.115877 0.288212 0.149325
0.119234 0.288884 0.146548
0.129549 0.289342 0.148379
0.149722 0.290410 0.152621
0.175753 0.292180 0.159030
0.204227 0.294316 0.167910
0.228916 0.303410 0.151980
0.262547 0.315343 0.113527
0.307225 0.325475 0.041688
0.353277 0.328008 0.000000
0.396765 0.326787 0.000000
0.437659 0.323369 0.000000
0.478798 0.319707 0.000000
0.519982 0.315618 0.000000
0.562463 0.316014 0.000000
0.604364 0.317418 0.000000
0.646204 0.318517 0.000000
0.685267 0.318639 0.000000
0.721645 0.317327 0.000000
0.756802 0.316014 0.000000
0.791012 0.314305 0.000000
0.824430 0.312139 0.000000
0.856443 0.309697 0.000000
0.886992 0.306889 0.000000
0.915831 0.303593 0.000000
0.943145 0.299596 0.000000
0.969177 0.295354 0.000000
0.994324 0.290440 0.000000
1.000000 0.285191 0.000000
1.000000 0.279484 0.000000
1.000000 0.272862 0.000000
1.000000 0.265568 0.000000
0.136049 0.327794 0.172671
0.138705 0.328496 0.170565
0.147066 0.329107 0.171695
0.165286 0.330144 0.175479
0.189273 0.332128 0.181552
0.216983 0.334569 0.189517
0.246586 0.337835 0.199741
0.269413 0.349340 0.168978
0.304387 0.360113 0.127993
0.348516 0.368994 0.063081
0.392645 0.369726 0.000000
0.438300 0.369635 0.000000
0.479744 0.366339 0.000000
0.521355 0.362737 0.000000
0.564141 0.359350 0.000000
0.605859 0.355688 0.000000
0.647120 0.356237 0.000000
0.685817 0.355505 0.000000
0.721798 0.353918 0.000000
0.756497 0.351659 0.000000
0.790280 0.349126 0.000000
0.822904 0.346441 0.000000
0.854337 0.343236 0.000000
0.884337 0.339696 0.000000
0.913024 0.335821 0.000000
0.940368 0.331365 0.000000
0.966644 0.326696 0.000000
0.992126 0.321660 0.000000
1.000000 0.316106 0.000000
1.000000 0.310124 0.000000
1.000000 0.303563 0.000000
1.000000 0.296086 0.000000
0.156985 0.367285 0.197452
0.159060 0.368231 0.195071
0.165530 0.368872 0.195377
0.181827 0.370153 0.199008
0.204471 0.372290 0.204471
0.230625 0.375036 0.211978
0.259892 0.378820 0.221561
0.286290 0.385351 0.220554
0.311345 0.396277 0.186923
0.347356 0.406012 0.143618
0.391241 0.413886 0.077363
0.433631 0.412726 0.000000
0.482094 0.414374 0.000000
0.525933 0.412390 0.000000
0.568688 0.409033 0.000000
0.609186 0.403937 0.000000
0.647578 0.397040 0.000000
0.684627 0.392035 0.000000
0.720302 0.389685 0.000000
0.754879 0.386938 0.000000
0.788479 0.383917 0.000000
0.821103 0.380560 0.000000
0.852506 0.377111 0.000000
0.882567 0.373144 0.000000
0.911254 0.368688 0.000000
0.938628 0.363836 0.000000
0.964904 0.358587 0.000000
0.990356 0.353216 0.000000
1.000000 0.347326 0.000000
1.000000 0.341009 0.000000
1.000000 0.334203 0.000000
1.000000 0.326696 0.000000
0.178225 0.408301 0.222324
0.180148 0.409094 0.220462
0.184939 0.409827 0.219669
0.199344 0.411261 0.222934
0.220554 0.413519 0.227939
0.245762 0.416602 0.234775
0.273869 0.420539 0.243565
0.304234 0.425391 0.254337
0.327642 0.434363 0.239597
0.355077 0.444495 0.203952
0.392004 0.453315 0.158816
0.437903 0.462348 0.092103
0.491646 0.471504 0.000000
0.544518 0.474434 0.000000
0.587030 0.469673 0.000000
0.626917 0.462989 0.000000
0.664515 0.454719 0.000000
0.699458 0.445014 0.000000
0.732143 0.434333 0.000000
0.765469 0.429023 0.000000
0.798062 0.424750 0.000000
0.829496 0.420111 0.000000
0.859678 0.415290 0.000000
0.888640 0.410163 0.000000
0.916411 0.404730 0.000000
0.943084 0.399023 0.000000
0.968688 0.393103 0.000000
0.993561 0.386786 0.000000
1.000000 0.380285 0.000000
1.000000 0.373419 0.000000
1.000000 0.366217 0.000000
1.000000 0.358190 0.000000
0.201053 0.454322 0.248753
0.202853 0.455024 0.247532
0.205783 0.455726 0.245762
0.219486 0.457008 0.248631
0.238682 0.458900 0.253117
0.262699 0.461616 0.259220
0.290074 0.465400 0.267369
0.319860 0.470192 0.277195
0.352026 0.476265 0.289220
0.374395 0.489174 0.260746
0.406348 0.501244 0.223850
0.447181 0.512047 0.177279
0.494545 0.520684 0.108583
0.536706 0.517815 0.000000
0.588403 0.518669 0.000000
0.628412 0.511681 0.000000
0.665644 0.502831 0.000000
0.700038 0.492409 0.000000
0.732387 0.481270 0.000000
0.763912 0.470069 0.000000
0.795041 0.459602 0.000000
0.826444 0.454566 0.000000
0.856565 0.449195 0.000000
0.885557 0.443610 0.000000
0.913420 0.437659 0.000000
0.940124 0.431586 0.000000
0.965942 0.425177 0.000000
0.990967 0.418677 0.000000
1.000000 0.411688 0.000000
1.000000 0.404608 0.000000
1.000000 0.397070 0.000000
1.000000 0.388891 0.000000
0.221378 0.496345 0.273075
0.223117 0.497017 0.271824
0.225223 0.497841 0.269810
0.237217 0.499184 0.271977
0.255253 0.500969 0.276127
0.278569 0.504509 0.282261
0.305760 0.509545 0.290440
0.335851 0.515618 0.300420
0.368688 0.522911 0.312383
0.398505 0.532586 0.313542
0.422461 0.544060 0.280827
0.455543 0.554345 0.241886
0.495949 0.562799 0.192996
0.541619 0.568658 0.123720
0.583459 0.565087 0.000000
0.629633 0.560235 0.000000
0.666377 0.550530 0.000000
0.700374 0.539300 0.000000
0.732448 0.527398 0.000000
0.763760 0.515709 0.000000
0.794430 0.503929 0.000000
0.824308 0.492195 0.000000
0.853849 0.483314 0.000000
0.883024 0.477241 0.000000
0.910948 0.470985 0.000000
0.937835 0.464363 0.000000
0.963775 0.457527 0.000000
0.988952 0.450538 0.000000
1.000000 0.443366 0.000000
1.000000 0.435920 0.000000
1.000000 0.428107 0.000000
1.000000 0.419776 0.000000
0.243687 0.543023 0.299474
0.245243 0.543847 0.298466
0.247044 0.544671 0.296300
0.257298 0.546349 0.297704
0.275059 0.548486 0.301762
0.297154 0.551629 0.307500
0.323033 0.555718 0.314946
0.352300 0.560937 0.324041
0.384039 0.567224 0.335332
0.418341 0.574853 0.348669
0.442969 0.584466 0.334905
0.468269 0.594293 0.300145
0.501427 0.602564 0.259495
0.541039 0.608698 0.208560
0.585138 0.612177 0.139132
0.626612 0.608392 0.000000
0.666285 0.597528 0.000000
0.701137 0.586358 0.000000
0.733028 0.573816 0.000000
0.764096 0.561181 0.000000
0.794369 0.548943 0.000000
0.823941 0.536675 0.000000
0.852659 0.524407 0.000000
0.880552 0.511833 0.000000
0.908507 0.504112 0.000000
0.935637 0.497200 0.000000
0.961944 0.490120 0.000000
0.987579 0.482856 0.000000
1.000000 0.475441 0.000000
1.000000 0.467781 0.000000
1.000000 0.459754 0.000000
1.000000 0.451118 0.000000
0.266575 0.588190 0.325994
0.268193 0.589075 0.324987
0.270054 0.589929 0.323461
0.278386 0.591424 0.323674
0.295018 0.593408 0.327703
0.316442 0.596338 0.333074
0.341192 0.600092 0.340276
0.369390 0.604791 0.349187
0.400305 0.610376 0.359747
0.433509 0.616815 0.372320
0.468208 0.623957 0.386877
0.486732 0.632715 0.356817
0.511772 0.639979 0.319707
0.543999 0.645624 0.276371
0.581689 0.649134 0.224277
0.623682 0.650477 0.154299
0.665309 0.647059 0.000000
0.699275 0.631617 0.000000
0.733700 0.619776 0.000000
0.764889 0.606867 0.000000
0.795315 0.594202 0.000000
0.824826 0.581415 0.000000
0.853483 0.568627 0.000000
0.881254 0.555718 0.000000
0.908263 0.542809 0.000000
0.934752 0.530694 0.000000
0.961212 0.523186 0.000000
0.986938 0.515618 0.000000
1.000000 0.507713 0.000000
1.000000 0.499702 0.000000
1.000000 0.491188 0.000000
1.000000 0.482124 0.000000
0.289647 0.628626 0.351293
0.290898 0.629145 0.350439
0.292790 0.629877 0.349248
0.299565 0.631189 0.348547
0.314855 0.632959 0.352361
0.334661 0.635462 0.357580
0.358190 0.638636 0.364324
0.385046 0.642664 0.372656
0.414374 0.647486 0.382696
0.446082 0.652979 0.394537
0.479438 0.659205 0.408484
0.507836 0.666194 0.410193
0.525841 0.673457 0.376623
0.550896 0.679164 0.337774
0.582116 0.683009 0.293339
0.618433 0.684932 0.240391
0.658869 0.684901 0.171908
0.701076 0.682338 0.000000
0.730922 0.664118 0.000000
0.765133 0.651972 0.000000
0.795377 0.638544 0.000000
0.824735 0.625055 0.000000
0.853178 0.611810 0.000000
0.880797 0.598566 0.000000
0.907744 0.585168 0.000000
0.934020 0.571771 0.000000
0.959747 0.558404 0.000000
0.985351 0.547845 0.000000
1.000000 0.539696 0.000000
1.000000 0.531243 0.000000
1.000000 0.522484 0.000000
1.000000 0.513176 0.000000
0.313725 0.666224 0.377539
0.315190 0.666957 0.376806
0.324193 0.677546 0.383429
0.329351 0.678767 0.381903
0.343786 0.680110 0.385657
0.362066 0.681880 0.390417
0.383917 0.684199 0.396735
0.409033 0.687160 0.404608
0.436988 0.690822 0.414252
0.467079 0.695125 0.425666
0.498848 0.699977 0.438727
0.531762 0.705196 0.453498
0.551751 0.711116 0.439246
0.569055 0.716457 0.402869
0.593042 0.720363 0.361761
0.623102 0.722591 0.315190
0.658198 0.723171 0.261295
0.697261 0.722103 0.193423
0.739254 0.719448 0.076326
0.766262 0.699336 0.000000
0.799741 0.685939 0.000000
0.828519 0.671412 0.000000
0.856474 0.657038 0.000000
0.883452 0.642847 0.000000
0.909575 0.628565 0.000000
0.935058 0.614405 0.000000
0.960082 0.600244 0.000000
0.984802 0.586328 0.000000
1.000000 0.572351 0.000000
1.000000 0.562829 0.000000
1.000000 0.553674 0.000000
1.000000 0.543999 0.000000
0.341131 0.703212 0.406012
0.343297 0.704952 0.406165
0.346044 0.706783 0.406317
0.350866 0.709102 0.405493
0.364660 0.711116 0.409766
0.381872 0.713100 0.414862
0.402441 0.715267 0.421149
0.425879 0.717830 0.428687
0.452155 0.720974 0.437842
0.480446 0.724575 0.448676
0.510430 0.728634 0.461097
0.541680 0.733059 0.475319
0.573571 0.737728 0.490639
0.585321 0.743160 0.459419
0.602380 0.747524 0.421698
0.625757 0.750515 0.379553
0.654932 0.752071 0.332403
0.689082 0.752132 0.277836
0.727443 0.750820 0.210391
0.768734 0.748196 0.105867
0.794766 0.728267 0.000000
0.828305 0.714595 0.000000
0.856229 0.699763 0.000000
0.883268 0.685023 0.000000
0.909331 0.670283 0.000000
0.934813 0.655634 0.000000
0.959747 0.641199 0.000000
0.984375 0.626917 0.000000
1.000000 0.612665 0.000000
1.000000 0.598322 0.000000
1.000000 0.584863 0.000000
1.000000 0.574853 0.000000
0.367041 0.734310 0.432136
0.369329 0.735683 0.432837
0.371862 0.737331 0.432990
0.376165 0.739345 0.432166
0.388098 0.741176 0.435706
0.404028 0.742885 0.440742
0.423041 0.744686 0.446723
0.444770 0.746853 0.453986
0.469093 0.749508 0.462837
0.495674 0.752560 0.473213
0.523980 0.756100 0.485023
0.553277 0.759854 0.498085
0.583215 0.763851 0.512047
0.607080 0.768246 0.514275
0.618036 0.772976 0.480812
0.634638 0.776577 0.441901
0.657374 0.778988 0.398627
0.685878 0.780087 0.350561
0.719356 0.779965 0.295354
0.757015 0.778622 0.228275
0.797635 0.776089 0.132174
0.822995 0.756405 0.000000
0.856382 0.742367 0.000000
0.883268 0.727077 0.000000
0.909300 0.711727 0.000000
0.934600 0.696620 0.000000
0.959350 0.681636 0.000000
0.983764 0.666896 0.000000
1.000000 0.652308 0.000000
1.000000 0.637659 0.000000
1.000000 0.622919 0.000000
1.000000 0.607660 0.000000
0.394751 0.763455 0.459449
0.396796 0.764706 0.460090
0.399329 0.766140 0.460517
0.403510 0.767971 0.460334
0.413550 0.769528 0.462928
0.428229 0.770993 0.467628
0.445563 0.772519 0.473365
0.465400 0.774289 0.480262
0.487922 0.776425 0.488502
0.512352 0.778958 0.497963
0.538415 0.781888 0.508659
0.565881 0.785061 0.520684
0.593835 0.788388 0.533623
0.622278 0.791867 0.547509
0.637934 0.796201 0.534997
0.649256 0.800473 0.501396
0.666041 0.803891 0.462898
0.688655 0.806424 0.419257
0.716976 0.807889 0.370825
0.750332 0.808164 0.316045
0.787839 0.807340 0.250248
0.828702 0.805295 0.158663
0.853696 0.786038 0.000000
0.886503 0.771328 0.000000
0.912840 0.755612 0.000000
0.938079 0.739864 0.000000
0.962646 0.724208 0.000000
0.986816 0.708919 0.000000
1.000000 0.693660 0.000000
1.000000 0.678492 0.000000
1.000000 0.663111 0.000000
1.000000 0.647333 0.000000
0.428229 0.794400 0.491981
0.429725 0.795071 0.492226
0.431464 0.795773 0.492012
0.434607 0.796811 0.491341
0.442298 0.797940 0.492744
0.455299 0.798917 0.496986
0.470863 0.800168 0.502068
0.489113 0.801663 0.508568
0.509667 0.803586 0.516258
0.532372 0.805844 0.525200
0.556695 0.808377 0.535393
0.582269 0.811093 0.546563
0.608484 0.813901 0.558495
0.635157 0.816770 0.571344
0.661982 0.819730 0.584924
0.670039 0.824094 0.558282
0.681392 0.827878 0.524987
0.697871 0.830930 0.486702
0.719814 0.833158 0.442969
0.747189 0.834318 0.393103
0.779568 0.834379 0.337224
0.816159 0.833219 0.270665
0.855924 0.830869 0.182895
0.880186 0.811704 0.000000
0.911559 0.795926 0.000000
0.937743 0.780148 0.000000
0.962219 0.764034 0.000000
0.986267 0.748165 0.000000
1.000000 0.732570 0.000000
1.000000 0.716945 0.000000
1.000000 0.701167 0.000000
1.000000 0.685054 0.000000
0.457313 0.819699 0.519951
0.458747 0.820340 0.520165
0.460304 0.820981 0.520134
0.463325 0.821897 0.519646
0.469490 0.822904 0.520287
0.481086 0.823697 0.524193
0.495033 0.824582 0.528832
0.511284 0.825772 0.534569
0.530205 0.827237 0.541741
0.550805 0.829007 0.549798
0.573114 0.831052 0.559014
0.596765 0.833280 0.569299
0.621118 0.835569 0.580285
0.646143 0.838010 0.592157
0.671351 0.840482 0.604669
0.691066 0.843626 0.606897
0.698360 0.847837 0.578302
0.709987 0.851499 0.545342
0.726497 0.854490 0.507988
0.748135 0.856687 0.464881
0.774899 0.857969 0.415106
0.806699 0.858183 0.358465
0.842679 0.857237 0.292210
0.882139 0.855131 0.205844
0.904173 0.835050 0.018585
0.934722 0.818845 0.000000
0.960967 0.802823 0.000000
0.984863 0.786587 0.000000
1.000000 0.770474 0.000000
1.000000 0.754421 0.000000
1.000000 0.738369 0.000000
1.000000 0.722103 0.000000
0.489937 0.845853 0.550896
0.491279 0.846403 0.551202
0.492653 0.846921 0.551232
0.495186 0.847593 0.550713
0.499763 0.848325 0.550469
0.509789 0.848783 0.553765
0.522148 0.849332 0.557855
0.536614 0.849973 0.562890
0.553277 0.850889 0.568841
0.571710 0.851987 0.575921
0.591760 0.853300 0.583948
0.613031 0.854856 0.592889
0.635279 0.856535 0.602594
0.658137 0.858213 0.612940
0.681239 0.860014 0.623926
0.704555 0.861845 0.635370
0.716640 0.865049 0.624811
0.724117 0.868833 0.596216
0.735866 0.872282 0.563836
0.752346 0.875212 0.527062
0.773709 0.877470 0.484443
0.799954 0.878843 0.435065
0.830930 0.879057 0.377722
0.866056 0.878050 0.310643
0.904570 0.875853 0.224918
0.928405 0.858061 0.086732
0.958190 0.841672 0.000000
0.984314 0.825132 0.000000
1.000000 0.808469 0.000000
1.000000 0.791897 0.000000
1.000000 0.775448 0.000000
1.000000 0.758724 0.000000
0.517632 0.867185 0.577081
0.518944 0.867704 0.577447
0.520317 0.868162 0.577508
0.522576 0.868711 0.577295
0.526055 0.869383 0.576562
0.535149 0.869749 0.579614
0.546319 0.870176 0.583398
0.559411 0.870787 0.588037
0.574578 0.871519 0.593561
0.591516 0.872465 0.600031
0.609796 0.873564 0.607385
0.629541 0.874846 0.615656
0.650111 0.876249 0.624598
0.671321 0.877684 0.633997
0.692897 0.879149 0.644038
0.714748 0.880674 0.654566
0.736660 0.882261 0.665553
0.742611 0.886137 0.643702
0.750729 0.889921 0.616297
0.762783 0.893339 0.584955
0.779049 0.896239 0.548699
0.799863 0.898436 0.506798
0.825376 0.899718 0.457557
0.855467 0.899992 0.399695
0.889952 0.899107 0.331365
0.928038 0.897093 0.245609
0.952575 0.880644 0.117403
0.981445 0.863890 0.000000
1.000000 0.846891 0.000000
1.000000 0.829862 0.000000
1.000000 0.812863 0.000000
1.000000 0.795621 0.000000
0.546258 0.887968 0.603906
0.547387 0.888334 0.604211
0.548363 0.888609 0.604028
0.550286 0.888945 0.603754
0.553033 0.889433 0.602838
0.560540 0.889647 0.605035
0.570306 0.889891 0.608240
0.582086 0.890257 0.612268
0.595727 0.890776 0.617304
0.610925 0.891478 0.623102
0.627680 0.892302 0.629755
0.645747 0.893339 0.637201
0.664637 0.894438 0.645197
0.684321 0.895537 0.653925
0.704250 0.896635 0.662898
0.724514 0.897765 0.672389
0.744930 0.898924 0.682246
0.760952 0.900938 0.684169
0.766262 0.904906 0.660670
0.774868 0.908659 0.633936
0.787015 0.911986 0.603326
0.803128 0.914824 0.567834
0.823484 0.916960 0.526177
0.848325 0.918273 0.477699
0.877775 0.918639 0.419409
0.911589 0.917937 0.349737
0.949279 0.916197 0.263554
0.975708 0.901884 0.138582
1.000000 0.884092 0.000000
1.000000 0.866636 0.000000
1.000000 0.849149 0.000000
1.000000 0.831449 0.000000
0.572900 0.906706 0.628779
0.573663 0.906950 0.628840
0.574548 0.907164 0.628687
0.576287 0.907469 0.628382
0.578912 0.907988 0.627771
0.585351 0.908354 0.629541
0.594720 0.908782 0.633051
0.605982 0.909422 0.637324
0.618891 0.910185 0.642420
0.633417 0.911101 0.648402
0.649226 0.912078 0.654994
0.666102 0.913146 0.662196
0.683742 0.914183 0.669917
0.701991 0.915129 0.677943
0.720577 0.916045 0.686275
0.739284 0.916838 0.694728
0.758145 0.917601 0.703609
0.777096 0.918456 0.712856
0.787015 0.921202 0.704616
0.792874 0.925139 0.682094
0.801663 0.928771 0.656306
0.813748 0.932036 0.626551
0.829465 0.934752 0.591852
0.849180 0.936858 0.551232
0.873289 0.938201 0.502953
0.901946 0.938689 0.445045
0.935180 0.938231 0.374090
0.972595 0.936767 0.286503
1.000000 0.924651 0.163607
1.000000 0.905669 0.000000
1.000000 0.887205 0.000000
1.000000 0.868650 0.000000
0.603449 0.926848 0.657069
0.604089 0.927001 0.657038
0.604700 0.927123 0.656855
0.606043 0.927306 0.656367
0.608270 0.927581 0.655756
0.613245 0.927794 0.656672
0.621241 0.927916 0.659388
0.630823 0.928130 0.662837
0.642023 0.928435 0.667018
0.654597 0.928832 0.671839
0.668421 0.929259 0.677211
0.683314 0.929778 0.683223
0.699031 0.930266 0.689601
0.715450 0.930755 0.696529
