data/fiter_cube/69180065/1023054/file.cube
# Created by Adobe Lightroom plugin Export LUT (1.17.0)
# www.johnrellis.com/lightroom/exportlut.htm
# Preset: 室内文艺胶片_07 云集
# Color profile: C:\Program Files (x86)\Common Files\Adobe\Color\Profiles\Recommended\AdobeRGB1998.icc
LUT_3D_SIZE 8
DOMAIN_MIN 0.000000 0.000000 0.000000
DOMAIN_MAX 0.903226 0.903226 0.903226
0.000000 0.000000 0.000000
0.077211 0.028717 0.011963
0.182956 0.042878 0.028473
0.343236 0.000000 0.025330
0.498573 0.000000 0.020935
0.633021 0.111330 0.067018
0.745846 0.229404 0.123659
0.847410 0.335119 0.189822
0.030823 0.077424 0.041688
0.074311 0.084779 0.038758
0.187320 0.096559 0.031830
0.342077 0.087709 0.025391
0.494911 0.095125 0.024506
0.628046 0.160555 0.069337
0.739498 0.252537 0.122957
0.842863 0.349950 0.189761
0.059297 0.176272 0.080262
0.087190 0.178866 0.083101
0.175937 0.202548 0.068269
0.345037 0.228000 0.031281
0.503655 0.242130 0.036805
0.635004 0.282261 0.088350
0.746609 0.345617 0.145968
0.848112 0.417639 0.211948
0.103883 0.317876 0.141207
0.128817 0.318730 0.141451
0.208011 0.323949 0.159213
0.327153 0.354345 0.121309
0.496986 0.387610 0.101472
0.638849 0.418158 0.127504
0.747189 0.453315 0.176028
0.846281 0.499947 0.238560
0.188510 0.456855 0.232517
0.202762 0.458015 0.229679
0.272160 0.461128 0.247288
0.357824 0.472389 0.250828
0.463386 0.483345 0.201938
0.596429 0.506126 0.175631
0.723110 0.543206 0.216800
0.841703 0.587152 0.275120
0.284489 0.575494 0.332280
0.294499 0.579919 0.330327
0.347997 0.580102 0.343542
0.423377 0.581415 0.367224
0.492042 0.586572 0.343389
0.578820 0.591211 0.292149
0.690730 0.612726 0.263157
0.817166 0.661128 0.325322
0.394293 0.679194 0.442786
0.400061 0.680537 0.440375
0.434272 0.679683 0.446204
0.491585 0.679713 0.463966
0.552178 0.680964 0.481300
0.607813 0.686488 0.444099
0.681819 0.691127 0.395361
0.785489 0.715633 0.360571
0.510369 0.780484 0.555169
0.513420 0.780880 0.553002
0.535546 0.781949 0.556115
0.579889 0.784543 0.570916
0.625452 0.781735 0.583307
0.674952 0.789822 0.585962
0.730465 0.801419 0.559747
0.802060 0.812528 0.522545
0.033417 0.036805 0.081544
0.080568 0.051637 0.081697
0.187472 0.066438 0.092988
0.342443 0.063752 0.105196
0.493568 0.082887 0.118227
0.624414 0.154910 0.142336
0.735103 0.245426 0.180453
0.838071 0.340734 0.231846
0.038056 0.088258 0.086915
0.086702 0.098268 0.092012
0.195621 0.111299 0.099092
0.345281 0.119265 0.106996
0.493538 0.138125 0.119997
0.622614 0.191196 0.144289
0.730709 0.266453 0.179782
0.833524 0.353857 0.230381
0.072267 0.187503 0.116335
0.112551 0.197513 0.127016
0.192477 0.214755 0.119631
0.352605 0.238712 0.114595
0.501732 0.256138 0.128664
0.626581 0.291814 0.155886
0.733761 0.346899 0.193881
0.837217 0.416205 0.247196
0.132662 0.322698 0.182498
0.157565 0.327001 0.184482
0.227329 0.331792 0.199069
0.331243 0.355261 0.166903
0.489052 0.383368 0.155001
0.627375 0.412940 0.176455
0.733791 0.447333 0.214511
0.835782 0.495674 0.267857
0.220981 0.460853 0.273075
0.228092 0.461769 0.265232
0.284886 0.463874 0.274144
0.363592 0.470405 0.278843
0.460792 0.479561 0.231296
0.592187 0.503502 0.210941
0.718349 0.541131 0.249058
0.836515 0.584924 0.301518
0.303685 0.573602 0.358404
0.309789 0.574792 0.353491
0.351720 0.576074 0.357427
0.425574 0.578515 0.380591
0.493568 0.584894 0.363073
0.578943 0.591028 0.315282
0.689418 0.612482 0.288792
0.813840 0.659327 0.345525
0.402380 0.674342 0.456031
0.405676 0.674189 0.451728
0.433478 0.674891 0.452216
0.491615 0.676478 0.471077
0.553887 0.679042 0.492409
0.606806 0.684230 0.455573
0.678157 0.687556 0.405921
0.780484 0.711330 0.371679
0.514092 0.777127 0.562402
0.517693 0.778134 0.560876
0.535637 0.780056 0.560571
0.580041 0.782986 0.575250
0.631769 0.786221 0.593683
0.678737 0.792020 0.595697
0.730465 0.800931 0.566827
0.799954 0.810422 0.528344
0.014832 0.071077 0.198184
0.091585 0.075593 0.197665
0.205966 0.086976 0.201511
0.355230 0.106783 0.209110
0.500267 0.172488 0.255924
0.628687 0.235477 0.287907
0.734920 0.305150 0.317144
0.837034 0.380407 0.353887
0.022553 0.113130 0.211154
0.104555 0.122591 0.211185
0.213046 0.135744 0.211734
0.357763 0.159548 0.224277
0.501976 0.201175 0.258793
0.626368 0.258152 0.287602
0.731838 0.320806 0.315923
0.834684 0.392798 0.353155
0.068757 0.218235 0.225772
0.123079 0.226993 0.230533
0.236973 0.253178 0.246403
0.373541 0.269291 0.255436
0.513207 0.297337 0.274815
0.629694 0.333959 0.296025
0.732143 0.382238 0.323308
0.834073 0.441047 0.360479
0.138338 0.345678 0.263188
0.179538 0.351324 0.270878
0.276493 0.368627 0.294865
0.367102 0.384009 0.285435
0.514153 0.411902 0.288457
0.634455 0.437842 0.310857
0.734035 0.469734 0.338445
0.834867 0.513573 0.375891
0.230350 0.473335 0.332677
0.260227 0.476661 0.341253
0.330297 0.485969 0.358099
0.404456 0.490761 0.375006
0.484291 0.498573 0.331975
0.606012 0.521263 0.321660
0.724544 0.555749 0.355200
0.835538 0.594781 0.396582
0.324346 0.580529 0.411841
0.345922 0.582238 0.418830
0.389654 0.586145 0.424689
0.449866 0.587884 0.436744
0.511315 0.592370 0.432563
0.585809 0.597070 0.388312
0.693446 0.619593 0.370153
0.817533 0.667170 0.420905
0.428901 0.678950 0.502129
0.442542 0.679042 0.506188
0.463783 0.680323 0.502586
0.508873 0.681483 0.510277
0.568170 0.683467 0.530846
0.616266 0.688899 0.504387
0.683864 0.693568 0.460639
0.787594 0.720333 0.434607
0.534844 0.778836 0.594415
0.542046 0.778683 0.595605
0.551598 0.780850 0.589227
0.588342 0.786038 0.597040
0.638453 0.789059 0.613245
0.687190 0.795224 0.622004
0.735531 0.804440 0.594690
0.803738 0.814389 0.558587
0.000000 0.101350 0.347997
0.101381 0.108156 0.348241
0.229862 0.126955 0.344884
0.358404 0.149538 0.350591
0.500877 0.180789 0.349004
0.620661 0.266300 0.395056
0.722927 0.361425 0.453559
0.826749 0.417792 0.481025
0.068360 0.153079 0.361181
0.128328 0.157717 0.359930
0.241001 0.170413 0.354955
0.363928 0.189548 0.358465
0.503960 0.220310 0.360449
0.620386 0.294774 0.403998
0.721767 0.380591 0.460121
0.826108 0.427131 0.479591
0.085451 0.250645 0.379217
0.140902 0.258183 0.382116
0.260929 0.273991 0.381842
0.381659 0.291752 0.383856
0.514855 0.325078 0.398169
0.627192 0.383642 0.441840
0.729671 0.426703 0.465187
0.830503 0.471077 0.487037
0.152926 0.373754 0.395239
0.191958 0.379126 0.398169
0.291234 0.396521 0.408820
0.415869 0.426612 0.430610
0.529351 0.440833 0.437598
0.630823 0.462959 0.450385
0.728237 0.493294 0.468849
0.830533 0.532250 0.493477
0.237827 0.495674 0.430213
0.266453 0.497414 0.432898
0.348180 0.505241 0.445411
0.449165 0.521355 0.470741
0.515496 0.526329 0.455573
0.626184 0.548119 0.457801
0.732753 0.576410 0.481910
0.833188 0.607019 0.505516
0.335546 0.594202 0.481483
0.358648 0.597681 0.487892
0.418006 0.600641 0.499977
0.489448 0.608057 0.516472
0.547631 0.611658 0.528252
0.603265 0.613581 0.487770
0.705104 0.636103 0.479164
0.825559 0.679500 0.516625
0.435096 0.685206 0.546685
0.449134 0.686122 0.550164
0.492073 0.688716 0.561334
0.539605 0.693812 0.569482
0.590661 0.696681 0.581079
0.635676 0.700557 0.572076
0.692653 0.702419 0.531548
0.795651 0.730282 0.513298
0.540368 0.785336 0.626246
0.548791 0.786069 0.628168
0.574884 0.787625 0.633478
0.603723 0.791897 0.633448
0.647547 0.795590 0.642176
0.700923 0.801236 0.660548
0.743374 0.809995 0.634546
0.808957 0.819577 0.599939
0.095949 0.152102 0.486061
0.150942 0.158022 0.485542
0.260197 0.174380 0.481025
0.377600 0.198642 0.474922
0.495949 0.233005 0.488472
0.610437 0.276432 0.486305
0.714534 0.358770 0.519554
0.817899 0.453132 0.573938
0.134737 0.196017 0.492866
0.176059 0.200320 0.492744
0.272343 0.211307 0.487892
0.384466 0.230564 0.481636
0.498360 0.261387 0.492714
0.611841 0.301030 0.491096
0.714992 0.378485 0.525170
0.818051 0.466377 0.578149
0.157687 0.283879 0.509606
0.203342 0.292607 0.510521
0.297856 0.305241 0.507836
0.402289 0.317479 0.500816
0.506126 0.341253 0.505669
0.614710 0.370367 0.503777
0.715084 0.436408 0.542229
0.817807 0.505669 0.589868
0.199619 0.398535 0.524498
0.230930 0.403021 0.525719
0.316930 0.417762 0.531182
0.428840 0.434180 0.532769
0.524224 0.448737 0.531731
0.624292 0.474556 0.540063
0.720790 0.519799 0.573816
0.825010 0.548211 0.592676
0.264866 0.507927 0.534478
0.289464 0.510582 0.536034
0.360357 0.519280 0.540948
0.454322 0.534905 0.551080
0.550774 0.557916 0.566705
0.636988 0.567529 0.570275
0.727840 0.585351 0.579217
0.829587 0.611048 0.592889
0.340124 0.602838 0.556573
0.358556 0.603998 0.558007
0.413794 0.606928 0.562493
0.491829 0.613855 0.572869
0.569543 0.625666 0.588830
0.621576 0.630060 0.576196
0.722469 0.655177 0.580194
0.838346 0.690211 0.603632
0.440253 0.691859 0.600671
0.452247 0.692042 0.601892
0.491310 0.693690 0.607111
0.547814 0.698634 0.617029
0.605219 0.706752 0.626642
0.656489 0.711849 0.635798
0.702266 0.711269 0.597864
0.806790 0.740200 0.588769
0.538964 0.787808 0.662013
0.546349 0.788052 0.662806
0.570886 0.789517 0.665858
0.613062 0.796231 0.674220
0.654078 0.802426 0.675990
0.706661 0.808194 0.688808
0.751705 0.815640 0.679042
0.812863 0.822873 0.643336
0.208713 0.215549 0.601709
0.238437 0.220096 0.601160
0.319066 0.233951 0.599023
0.418158 0.254459 0.593805
0.510674 0.280461 0.583978
0.603754 0.321721 0.594995
0.703395 0.374975 0.600031
0.812985 0.449653 0.630182
0.226658 0.248692 0.603479
0.252506 0.251896 0.602869
0.326146 0.261723 0.599939
0.420386 0.277989 0.594141
0.511315 0.300572 0.584741
0.603418 0.339605 0.595544
0.703120 0.389258 0.601160
0.812467 0.460761 0.632105
0.265751 0.336736 0.616754
0.286534 0.337804 0.615412
0.350225 0.343236 0.611536
0.436194 0.353155 0.605249
0.521172 0.367681 0.595605
0.608240 0.399603 0.603510
0.706294 0.438514 0.609247
0.814450 0.500023 0.641627
0.275822 0.431708 0.628748
0.298436 0.433387 0.628046
0.366308 0.440681 0.627283
0.459113 0.455604 0.624506
0.539971 0.463661 0.616419
0.620172 0.485359 0.620142
0.715084 0.510399 0.624720
0.821164 0.558526 0.658289
0.320562 0.527153 0.631220
0.339086 0.529442 0.631861
0.395483 0.536858 0.634180
0.472694 0.549401 0.639063
0.556420 0.558373 0.638697
0.631556 0.568292 0.636896
0.723476 0.587915 0.646082
0.828397 0.625116 0.677180
0.378180 0.612146 0.636347
0.393957 0.614130 0.637720
0.439490 0.618738 0.640253
0.504479 0.627192 0.645014
0.575341 0.639826 0.652552
0.657923 0.662562 0.668025
0.741482 0.673579 0.672908
0.841855 0.691798 0.681819
0.453803 0.702785 0.664485
0.465278 0.703944 0.665705
0.499397 0.706172 0.668116
0.549310 0.711147 0.672511
0.610651 0.718776 0.678981
0.679072 0.731258 0.691096
0.723964 0.730739 0.673487
0.833951 0.761044 0.676783
0.542138 0.796323 0.710475
0.548760 0.796536 0.710750
0.571435 0.798032 0.712245
0.608942 0.802640 0.715877
0.657832 0.809354 0.720912
0.713283 0.819303 0.726894
0.770108 0.827909 0.737758
0.822965 0.831479 0.698634
0.326848 0.293034 0.699031
0.344213 0.295720 0.697902
0.397864 0.305638 0.694972
0.471901 0.321599 0.690120
0.548394 0.342138 0.681971
0.622278 0.368078 0.676448
0.698726 0.410864 0.683986
0.801999 0.470497 0.702388
0.337743 0.319341 0.701350
0.353735 0.321172 0.700282
0.404547 0.328771 0.697322
0.475807 0.341833 0.692012
0.551385 0.360601 0.684413
0.624567 0.384436 0.678614
0.700862 0.425574 0.686610
0.804654 0.482277 0.705379
0.356146 0.385718 0.705135
0.371038 0.386908 0.704341
0.417823 0.391943 0.701778
0.484382 0.400641 0.696803
0.557092 0.413336 0.689631
0.626825 0.429725 0.681392
0.702510 0.464759 0.690120
0.806027 0.510369 0.708186
0.359777 0.463325 0.713252
0.374762 0.464454 0.712795
0.432990 0.477089 0.710689
0.495644 0.480995 0.705745
0.565332 0.487160 0.698787
0.632013 0.494667 0.688838
0.706233 0.521508 0.696834
0.810880 0.553613 0.713802
0.389776 0.558404 0.721279
0.402808 0.560052 0.721675
0.443336 0.564843 0.722805
0.502800 0.565545 0.721157
0.575769 0.569696 0.715572
0.643366 0.571038 0.705776
0.716335 0.588861 0.710231
0.821714 0.610620 0.723537
0.436408 0.639765 0.725460
0.446815 0.640711 0.725734
0.479957 0.643977 0.726833
0.527886 0.648554 0.728847
0.586206 0.654566 0.732723
0.658106 0.657465 0.730983
0.731258 0.666133 0.729183
0.837369 0.686946 0.744411
0.486183 0.712337 0.731533
0.494026 0.712856 0.731655
0.520165 0.715328 0.732998
0.560540 0.719966 0.735500
0.613916 0.728237 0.740414
0.679744 0.741970 0.749081
0.763943 0.766659 0.766262
0.859861 0.779538 0.772549
0.549493 0.806058 0.767361
0.555688 0.806790 0.767819
0.574884 0.808316 0.768551
0.608209 0.813077 0.771237
0.654505 0.821225 0.775875
0.715236 0.832090 0.782315
0.789456 0.847013 0.794858
0.843412 0.848936 0.773556
0.468482 0.412970 0.813077
0.478828 0.414679 0.812222
0.513512 0.422217 0.810178
0.565362 0.433692 0.805844
0.626001 0.448798 0.799710
0.688136 0.466011 0.791684
0.752651 0.486793 0.790341
0.819883 0.519310 0.794980
0.472450 0.430030 0.814420
0.482399 0.431525 0.813535
0.516106 0.437629 0.811460
0.567346 0.447852 0.807340
0.627405 0.461219 0.801205
0.689296 0.476875 0.793271
0.753689 0.496101 0.791714
0.821317 0.527367 0.796689
0.479286 0.477302 0.817594
0.488899 0.478309 0.816892
0.521386 0.482551 0.815122
0.570275 0.488380 0.810391
0.629511 0.497810 0.804685
0.691157 0.508904 0.797147
0.754543 0.522881 0.793942
0.823392 0.550561 0.799893
0.482856 0.540917 0.823575
0.492164 0.541253 0.822904
0.523552 0.543175 0.821012
0.572045 0.545922 0.817044
0.630457 0.549981 0.811246
0.692226 0.554986 0.803555
0.754665 0.561822 0.797024
0.826505 0.585931 0.804868
0.482979 0.613123 0.832914
0.490547 0.612329 0.832395
0.515923 0.609735 0.831571
0.564660 0.609705 0.828733
0.626673 0.610315 0.823239
0.692195 0.611261 0.815427
0.756222 0.611902 0.804562
0.832578 0.633478 0.813626
0.512779 0.693019 0.839841
0.519158 0.693294 0.840208
0.540185 0.693690 0.841215
0.573022 0.692592 0.842496
0.618769 0.684077 0.840909
0.688685 0.680079 0.833097
0.759854 0.676661 0.820706
0.840757 0.693324 0.825681
0.551263 0.765835 0.846372
0.556664 0.766201 0.846738
0.574243 0.767300 0.847837
0.603235 0.768429 0.849271
0.643885 0.769802 0.851591
0.696742 0.771115 0.855070
0.770382 0.767697 0.851438
0.858305 0.776974 0.849241
0.594293 0.837186 0.856809
0.598810 0.837827 0.857267
0.613733 0.839506 0.858274
0.639460 0.842161 0.859525
0.677089 0.846860 0.861997
0.728359 0.854734 0.866453
0.798154 0.868254 0.874693
0.895506 0.896513 0.895598
