data/fiter_cube/69180065/1023054/file.cube
# Created by Adobe Lightroom plugin Export LUT (1.17.0)
# www.johnrellis.com/lightroom/exportlut.htm
# Preset: 室内文艺胶片_07 云集
# Color profile: C:\Program Files (x86)\Common Files\Adobe\Color\Profiles\Recommended\AdobeRGB1998.icc
LUT_3D_SIZE 32
DOMAIN_MIN 0.0 0.0 0.0
DOMAIN_MAX 1.0 1.0 1.0
0.000000 0.000000 0.000000
0.012482 0.002564 0.001617
0.028687 0.006867 0.003021
0.059632 0.014832 0.006836
0.077211 0.028717 0.011963
0.095399 0.045502 0.016388
0.119173 0.052583 0.021302
0.148745 0.050416 0.026398
0.182956 0.042878 0.028473
0.220676 0.023102 0.029633
0.260685 0.000000 0.029206
0.301854 0.000000 0.028229
0.343236 0.000000 0.025330
0.384131 0.000000 0.022522
0.423896 0.000000 0.020813
0.462257 0.000000 0.019501
0.498573 0.000000 0.020935
0.532921 0.000000 0.026093
0.565026 0.000000 0.037598
0.597833 0.072206 0.051514
0.633021 0.111330 0.067018
0.664607 0.144564 0.080079
0.693385 0.174380 0.094301
0.720302 0.202792 0.108949
0.745846 0.229404 0.123659
0.770748 0.255558 0.138308
0.795651 0.281834 0.154269
0.821042 0.308202 0.171115
0.847410 0.335119 0.189822
0.875029 0.362829 0.210849
0.904173 0.390387 0.234012
0.934661 0.418311 0.260014
0.003723 0.013306 0.004211
0.011170 0.015564 0.004913
0.028779 0.020844 0.005127
0.060273 0.028565 0.007813
0.077638 0.043671 0.012879
0.095827 0.054383 0.018677
0.119570 0.059480 0.022583
0.148867 0.058869 0.026520
0.182742 0.052918 0.029694
0.220340 0.037751 0.030701
0.259953 0.013184 0.030335
0.300847 0.000000 0.028290
0.341772 0.000000 0.025422
0.382788 0.000000 0.022431
0.422339 0.000000 0.019867
0.460395 0.000000 0.020874
0.496651 0.000000 0.021241
0.530968 0.000000 0.026551
0.563165 0.024445 0.038300
0.596155 0.079866 0.052094
0.630884 0.115724 0.066011
0.662196 0.146700 0.079896
0.690822 0.175784 0.093233
0.717769 0.203403 0.107729
0.743343 0.229557 0.121553
0.768338 0.255528 0.137148
0.793362 0.281529 0.152407
0.818906 0.307927 0.169711
0.845304 0.334783 0.188174
0.873014 0.362280 0.209232
0.902251 0.389776 0.231724
0.932799 0.417762 0.257603
0.007874 0.029999 0.010315
0.015259 0.031037 0.012207
0.027710 0.038422 0.010193
0.059693 0.049958 0.011444
0.077882 0.058442 0.014588
0.096437 0.063233 0.019379
0.120027 0.065309 0.024567
0.149050 0.065309 0.027314
0.183169 0.062348 0.029297
0.220310 0.054139 0.031342
0.259709 0.034821 0.030823
0.300267 0.008606 0.028656
0.341436 0.000000 0.025574
0.382055 0.000000 0.022522
0.421546 0.000000 0.020874
0.459693 0.000000 0.020813
0.495796 0.000000 0.022217
0.530114 0.001221 0.027466
0.562249 0.059632 0.039063
0.595544 0.092012 0.051423
0.629908 0.123293 0.066316
0.661006 0.152407 0.079591
0.689570 0.180117 0.092836
0.716426 0.206729 0.106813
0.742061 0.232547 0.121309
0.767086 0.257755 0.136172
0.792142 0.283421 0.152316
0.817685 0.309667 0.169497
0.844205 0.336126 0.187900
0.871946 0.363531 0.208591
0.901183 0.390784 0.230991
0.931762 0.418647 0.256901
0.017823 0.060700 0.024292
0.025208 0.061128 0.026184
0.035126 0.061860 0.027924
0.058045 0.066529 0.024079
0.077333 0.072084 0.022461
0.097719 0.075563 0.023896
0.122316 0.077577 0.025574
0.151461 0.078035 0.029145
0.185031 0.076509 0.030945
0.221744 0.073121 0.031525
0.260960 0.067231 0.030640
0.301122 0.059602 0.028016
0.341619 0.044038 0.025757
0.381903 0.030030 0.023377
0.421180 0.021515 0.021515
0.459083 0.024506 0.022278
0.495155 0.046479 0.023438
0.529076 0.068269 0.029938
0.561089 0.088563 0.038178
0.594812 0.112215 0.054414
0.628290 0.138552 0.066896
0.658900 0.164187 0.080354
0.687495 0.189883 0.093202
0.714565 0.214969 0.107546
0.740627 0.239963 0.122042
0.766140 0.264897 0.137118
0.791531 0.290074 0.153323
0.817380 0.315862 0.170321
0.843931 0.341924 0.188785
0.871611 0.368505 0.209537
0.900664 0.395239 0.231815
0.930999 0.422217 0.257481
0.030823 0.077424 0.041688
0.037232 0.077455 0.042603
0.047211 0.077638 0.044465
0.060548 0.079469 0.045594
0.074311 0.084779 0.038758
0.095888 0.091218 0.033600
0.121492 0.094728 0.032380
0.153536 0.096315 0.031769
0.187320 0.096559 0.031830
0.223514 0.095491 0.031952
0.261967 0.093050 0.030640
0.301823 0.090242 0.028473
0.342077 0.087709 0.025391
0.382025 0.085176 0.022797
0.421057 0.084993 0.022614
0.458747 0.088289 0.021668
0.494911 0.095125 0.024506
0.528923 0.106050 0.030335
0.560937 0.119814 0.042634
0.595361 0.139223 0.058778
0.628046 0.160555 0.069337
0.658167 0.183139 0.081392
0.686427 0.205844 0.094484
0.713466 0.229221 0.108614
0.739498 0.252537 0.122957
0.765011 0.276066 0.138613
0.790494 0.300206 0.154482
0.816312 0.324743 0.171511
0.842863 0.349950 0.189761
0.870512 0.375708 0.210452
0.899565 0.401556 0.232486
0.929961 0.428016 0.258152
0.042664 0.094728 0.055879
0.047547 0.095094 0.055695
0.054108 0.095277 0.057099
0.064149 0.095857 0.059693
0.074372 0.100435 0.058015
0.092103 0.107362 0.049897
0.119478 0.114992 0.042176
0.150820 0.119326 0.039368
0.187167 0.121706 0.035767
0.227268 0.122530 0.031769
0.265263 0.122286 0.029694
0.304387 0.121675 0.026978
0.344030 0.121126 0.024567
0.383551 0.121431 0.022278
0.422370 0.123018 0.020233
0.459846 0.127016 0.022797
0.495735 0.132448 0.026398
0.529564 0.141146 0.034943
0.562341 0.152529 0.047639
0.596796 0.169192 0.061280
0.628962 0.187594 0.072419
0.658869 0.207065 0.085451
0.702632 0.243778 0.108919
0.729061 0.265354 0.123476
0.754208 0.286656 0.138582
0.778805 0.308110 0.153719
0.803372 0.329900 0.169436
0.828305 0.352331 0.186618
0.854093 0.375372 0.205692
0.881163 0.398810 0.225650
0.909453 0.422644 0.248295
0.938842 0.446906 0.272770
0.049622 0.118471 0.064607
0.052644 0.119020 0.063600
0.059480 0.119142 0.064363
0.067536 0.119966 0.066011
0.078004 0.121736 0.067750
0.092927 0.129061 0.063935
0.116335 0.136934 0.058564
0.150576 0.145968 0.046357
0.187320 0.151064 0.041871
0.227604 0.154482 0.036133
0.270146 0.156588 0.028717
0.313237 0.157321 0.022065
0.352392 0.158114 0.020691
0.391333 0.159365 0.019654
0.429053 0.161410 0.019409
0.465614 0.165042 0.022766
0.500603 0.170260 0.029114
0.533715 0.177432 0.038605
0.568566 0.189303 0.054261
0.602960 0.204349 0.067201
0.635523 0.221439 0.078798
0.666255 0.240391 0.092958
0.695613 0.260685 0.107729
0.723690 0.281498 0.122927
0.750332 0.302464 0.138796
0.775875 0.323308 0.154940
0.800870 0.344213 0.171450
0.826017 0.365393 0.188174
0.851957 0.387121 0.206851
0.878965 0.409430 0.226749
0.907286 0.432197 0.248631
0.936645 0.455573 0.273625
0.054536 0.145235 0.071290
0.055787 0.145541 0.070130
0.061555 0.145937 0.070680
0.069825 0.146761 0.072114
0.082155 0.147768 0.074769
0.095979 0.152071 0.074556
0.115724 0.160128 0.069154
0.144320 0.168429 0.062165
0.182589 0.177890 0.049378
0.222171 0.183780 0.042695
0.264134 0.188022 0.035004
0.307988 0.191104 0.028656
0.351873 0.193668 0.019318
0.393317 0.195377 0.017334
0.430610 0.197635 0.019928
0.466560 0.200687 0.023468
0.501183 0.205539 0.031586
0.535668 0.212528 0.044190
0.570184 0.223209 0.059510
0.603265 0.236240 0.071077
0.634852 0.250889 0.082856
0.664942 0.267247 0.096773
0.693843 0.284947 0.110964
0.721614 0.303502 0.126040
0.748074 0.322393 0.141482
0.773526 0.341619 0.157626
0.798550 0.360845 0.173556
0.823789 0.380682 0.190249
0.849790 0.401221 0.209018
0.876829 0.422248 0.228855
0.905211 0.444038 0.251133
0.934722 0.466407 0.275364
0.059297 0.176272 0.080262
0.060548 0.176638 0.078859
0.064485 0.177096 0.079011
0.073915 0.177768 0.080598
0.087190 0.178866 0.083101
0.102876 0.180240 0.086488
0.120333 0.186587 0.083070
0.144167 0.194583 0.076570
0.175937 0.202548 0.068269
0.217288 0.213016 0.053468
0.258244 0.218753 0.045594
0.301366 0.223789 0.038788
0.345037 0.228000 0.031281
0.388525 0.231449 0.025452
0.431037 0.234867 0.021180
0.468544 0.237797 0.025269
0.503655 0.242130 0.036805
0.539147 0.249882 0.052094
0.572168 0.258427 0.064851
0.604364 0.269566 0.076295
0.635004 0.282261 0.088350
0.664454 0.296361 0.101350
0.692897 0.311955 0.116060
0.720302 0.328557 0.130220
0.746609 0.345617 0.145968
0.771908 0.362768 0.161349
0.796872 0.380438 0.177340
0.822110 0.398505 0.193973
0.848112 0.417639 0.211948
0.875151 0.437293 0.231846
0.903471 0.457893 0.254032
0.932982 0.479164 0.278264
0.064729 0.209689 0.090791
0.065705 0.210086 0.089876
0.069032 0.210391 0.089204
0.079469 0.210727 0.090822
0.093690 0.211734 0.093233
0.110689 0.212955 0.097353
0.129091 0.215427 0.099947
0.149477 0.222812 0.093721
0.176425 0.230381 0.085695
0.209751 0.237888 0.075685
0.253086 0.248325 0.060609
0.293462 0.253819 0.052552
0.336980 0.259617 0.048829
0.380468 0.264775 0.045045
0.423224 0.269230 0.040436
0.465705 0.274449 0.040284
0.508232 0.281193 0.044343
0.543297 0.287694 0.059907
0.575311 0.295232 0.070771
0.606348 0.304143 0.082704
0.636011 0.314916 0.094636
0.664393 0.326848 0.107820
0.691890 0.339910 0.121065
0.718502 0.354070 0.135164
0.744259 0.368933 0.150027
0.769467 0.384375 0.165255
0.794522 0.400549 0.180667
0.820005 0.417426 0.197848
0.846281 0.435248 0.216220
0.873655 0.454078 0.235996
0.902251 0.473671 0.257908
0.932097 0.494118 0.282475
0.072908 0.243565 0.104128
0.074617 0.243961 0.103304
0.076905 0.244327 0.101747
0.087251 0.245029 0.103761
0.102449 0.245701 0.106447
0.120058 0.246769 0.110384
0.139620 0.248234 0.115145
0.159152 0.252720 0.114321
0.182040 0.259800 0.106783
0.210849 0.267124 0.097566
0.245090 0.273899 0.086458
0.287236 0.282475 0.070710
0.328679 0.288945 0.062379
0.372045 0.295415 0.061158
0.416510 0.302617 0.061250
0.460121 0.309728 0.063539
0.501823 0.316228 0.065980
0.540673 0.323247 0.071077
0.576928 0.330724 0.076967
0.607080 0.338415 0.088167
0.636103 0.347265 0.100465
0.664057 0.357305 0.113771
0.691188 0.369055 0.127291
0.717586 0.381537 0.141115
0.743191 0.394781 0.155734
0.768276 0.408209 0.170565
0.793149 0.422705 0.186069
0.818479 0.437995 0.203067
0.844694 0.454414 0.220768
0.871977 0.471809 0.240818
0.900664 0.490303 0.262516
0.930480 0.509697 0.286717
0.085817 0.278752 0.120516
0.087587 0.279057 0.119844
0.089296 0.279423 0.117952
0.098878 0.279820 0.119448
0.113771 0.280674 0.122408
0.131258 0.281621 0.125887
0.151186 0.283177 0.131106
0.172457 0.284672 0.136934
0.192538 0.290623 0.131380
0.217166 0.297368 0.122713
0.246983 0.303807 0.112306
0.281529 0.309880 0.100160
0.331243 0.325231 0.088075
0.376684 0.335027 0.078676
0.422187 0.344060 0.079683
0.466011 0.352087 0.083070
0.507134 0.359533 0.087495
0.545708 0.366522 0.092073
0.581872 0.373907 0.099062
0.616144 0.382208 0.106508
0.647303 0.390417 0.116060
0.673854 0.398474 0.128725
0.699611 0.407599 0.141909
0.724788 0.417639 0.155795
0.749416 0.428412 0.169680
0.773709 0.440070 0.184817
0.798123 0.452399 0.199588
0.822934 0.465766 0.216007
0.848569 0.480232 0.233524
0.875517 0.495949 0.252598
0.903716 0.512627 0.273716
0.933165 0.530480 0.297642
0.103883 0.317876 0.141207
0.105074 0.318090 0.140475
0.107027 0.318212 0.139132
0.114565 0.318456 0.138918
0.128817 0.318730 0.141451
0.145754 0.319188 0.145052
0.165347 0.320043 0.149691
0.186496 0.321172 0.155398
0.208011 0.323949 0.159213
0.229252 0.330236 0.150790
0.255955 0.336980 0.142031
0.289403 0.346044 0.132662
0.327153 0.354345 0.121309
0.367742 0.361364 0.106905
0.412329 0.370855 0.094423
0.455665 0.379858 0.097292
0.496986 0.387610 0.101472
0.535271 0.394598 0.106020
0.571496 0.401923 0.112520
0.606195 0.409949 0.119692
0.638849 0.418158 0.127504
0.669978 0.427008 0.137148
0.697780 0.435615 0.149203
0.722713 0.444007 0.162509
0.747189 0.453315 0.176028
0.771420 0.463447 0.190402
0.795712 0.474525 0.205356
0.820584 0.486671 0.221103
0.846281 0.499947 0.238560
0.873320 0.514641 0.257847
0.901610 0.530419 0.278965
0.931304 0.547448 0.302647
0.121920 0.352148 0.161440
0.123384 0.352361 0.160678
0.124636 0.352514 0.159243
0.130709 0.352697 0.158511
0.143923 0.352819 0.160555
0.160128 0.353094 0.164065
0.178988 0.353826 0.168551
0.199741 0.354894 0.174105
0.222263 0.356603 0.180758
0.244388 0.362676 0.180392
0.268620 0.370367 0.173098
0.297490 0.378241 0.164462
0.330144 0.385321 0.154055
0.365881 0.391516 0.141299
0.403479 0.396674 0.126680
0.444434 0.403693 0.111421
0.485206 0.411994 0.115053
0.523796 0.419562 0.120272
0.560204 0.427131 0.125765
0.595453 0.435218 0.132265
0.628748 0.443488 0.140352
0.660334 0.451911 0.149874
0.690608 0.460792 0.159701
0.719875 0.470069 0.170840
0.745693 0.478737 0.183230
0.769833 0.487587 0.197910
0.794186 0.497414 0.212375
0.818967 0.508537 0.228336
0.844755 0.520836 0.245487
0.871855 0.534569 0.264469
0.900328 0.549493 0.285435
0.930114 0.565637 0.309392
0.141848 0.385992 0.183047
0.142947 0.386175 0.182284
0.144198 0.386389 0.180789
0.148318 0.386572 0.178988
0.160922 0.386938 0.181491
0.176913 0.387701 0.184970
0.195438 0.389380 0.189883
0.215976 0.391028 0.195529
0.238590 0.393317 0.202609
0.262638 0.396002 0.210697
0.283421 0.402411 0.204349
0.308171 0.409155 0.195987
0.336584 0.415442 0.186374
0.368017 0.421118 0.175387
0.401648 0.425483 0.162234
0.436225 0.428656 0.146517
0.473732 0.433936 0.128939
0.511955 0.441657 0.132967
0.548669 0.449561 0.138521
0.584314 0.458076 0.144411
0.618250 0.466407 0.152621
0.650294 0.474800 0.161166
0.681025 0.483375 0.170718
0.710811 0.492378 0.181796
0.739651 0.501701 0.193698
0.767941 0.511559 0.206149
0.793088 0.521019 0.220890
0.818326 0.531426 0.236790
0.844541 0.543236 0.254612
0.872099 0.556481 0.273472
0.900999 0.570947 0.295476
0.931182 0.586572 0.319768
0.164736 0.422797 0.207736
0.166171 0.423133 0.207248
0.167208 0.423438 0.205753
0.170413 0.424079 0.203799
0.182040 0.424475 0.205936
0.197177 0.425299 0.209567
0.214633 0.426307 0.213779
0.234623 0.427741 0.219150
0.256413 0.429328 0.225772
0.279210 0.431434 0.233127
0.301488 0.434577 0.236820
0.322301 0.439796 0.228519
0.346288 0.444831 0.219150
0.373266 0.449195 0.208377
0.402472 0.452796 0.196017
0.433539 0.455421 0.181704
0.465553 0.457435 0.166049
0.501366 0.462776 0.148562
0.536645 0.469490 0.150423
0.573144 0.478798 0.156863
0.607996 0.487831 0.164736
0.640894 0.496590 0.173342
0.672389 0.505394 0.183566
0.702754 0.514458 0.194278
0.732204 0.523796 0.205997
0.761105 0.533593 0.218814
0.789792 0.544060 0.232425
0.818601 0.555200 0.247044
0.844816 0.566186 0.264866
0.872282 0.578454 0.283635
0.901061 0.591821 0.304967
0.931029 0.606439 0.328649
0.188510 0.456855 0.232517
0.188998 0.457008 0.231327
0.190463 0.457191 0.230716
0.192966 0.457649 0.228061
0.202762 0.458015 0.229679
0.216526 0.458381 0.232486
0.233005 0.459113 0.236667
0.251591 0.459998 0.241398
0.272160 0.461128 0.247288
0.294102 0.462562 0.254063
0.317113 0.464393 0.262211
0.337072 0.467933 0.259739
0.357824 0.472389 0.250828
0.381292 0.476143 0.240726
0.407050 0.479286 0.229252
0.434577 0.481575 0.216159
0.463386 0.483345 0.201938
0.493141 0.484565 0.185946
0.527947 0.490394 0.168338
0.560845 0.496315 0.168276
0.596429 0.506126 0.175631
0.629969 0.515312 0.184329
0.662013 0.524346 0.194064
0.693111 0.533745 0.205356
0.723110 0.543206 0.216800
0.752651 0.553094 0.229770
0.781949 0.563622 0.243351
0.811490 0.574945 0.258518
0.841703 0.587152 0.275120
0.871916 0.599786 0.293278
0.900877 0.612604 0.314641
0.931060 0.626703 0.338506
0.211765 0.488685 0.257053
0.213016 0.489082 0.256718
0.221256 0.498451 0.263249
0.223667 0.498665 0.260929
0.231479 0.498909 0.261204
0.244144 0.498909 0.263645
0.259525 0.499001 0.267247
0.276921 0.499245 0.271580
0.296361 0.499733 0.276768
0.317235 0.500572 0.282963
0.339147 0.501610 0.290166
0.361395 0.502800 0.298192
0.378943 0.505943 0.288945
0.399023 0.508812 0.278874
0.421118 0.511162 0.267460
0.445136 0.512993 0.254978
0.470924 0.514214 0.241154
0.497566 0.514977 0.226230
0.524987 0.515465 0.209781
0.558709 0.521508 0.192294
0.588495 0.525994 0.189731
0.622492 0.535607 0.198123
0.654841 0.544915 0.207919
0.686061 0.554192 0.218814
0.716182 0.563470 0.229892
0.745602 0.573022 0.242466
0.774807 0.583062 0.255863
0.804410 0.594018 0.270665
0.834836 0.606012 0.286717
0.866392 0.619013 0.304753
0.898863 0.632715 0.324865
0.930724 0.646662 0.348058
0.237583 0.521050 0.283757
0.239384 0.522362 0.284459
0.241398 0.523766 0.284245
0.244541 0.525139 0.283391
0.251225 0.526268 0.283391
0.263554 0.526604 0.286168
0.278050 0.526757 0.289555
0.294316 0.526848 0.293370
0.312505 0.527245 0.298314
0.332341 0.527764 0.304234
0.353063 0.528527 0.310643
0.374548 0.529412 0.318029
0.393988 0.530938 0.319829
0.411200 0.533349 0.310246
0.430640 0.535454 0.299504
0.451850 0.537072 0.287694
0.474800 0.538262 0.274662
0.498970 0.539147 0.260960
0.524163 0.539757 0.245823
0.550072 0.540246 0.230045
0.583062 0.546685 0.212619
0.610468 0.550134 0.207645
0.643671 0.560174 0.217319
0.675715 0.570153 0.228305
0.706569 0.580011 0.240085
0.736721 0.590021 0.252964
0.766659 0.600427 0.266697
0.796780 0.611780 0.281834
0.827756 0.624048 0.298192
0.859861 0.637232 0.316503
0.893004 0.651270 0.337285
0.926848 0.665858 0.360052
0.260868 0.548638 0.307805
0.262699 0.549859 0.308476
0.264622 0.551202 0.308751
0.267460 0.552392 0.307744
0.272435 0.553429 0.306462
0.283879 0.553735 0.309239
0.297215 0.553857 0.312322
0.312627 0.553887 0.316075
0.329808 0.554162 0.320531
0.348638 0.554528 0.325963
0.368261 0.555138 0.332067
0.388922 0.555840 0.338872
0.409552 0.556451 0.346288
0.426368 0.558190 0.341894
0.443214 0.559960 0.331914
0.461769 0.561364 0.320714
0.482033 0.562463 0.308354
0.503655 0.563287 0.295506
0.526604 0.563867 0.281621
0.550500 0.564477 0.267002
0.575067 0.564843 0.251377
0.606195 0.570825 0.234592
0.632532 0.574060 0.226535
0.665278 0.584741 0.238163
0.696834 0.595209 0.250065
0.727565 0.605676 0.262577
0.758053 0.616510 0.276555
0.788724 0.628138 0.291630
0.820188 0.640681 0.308690
0.852720 0.654353 0.327581
0.886534 0.668727 0.348516
0.921111 0.683742 0.371740
0.284489 0.575494 0.332280
0.286290 0.576654 0.332921
0.288029 0.577783 0.333043
0.290959 0.578912 0.332586
0.294499 0.579919 0.330327
0.305028 0.580163 0.332921
0.317479 0.580133 0.335882
0.331823 0.580072 0.339330
0.347997 0.580102 0.343542
0.365484 0.580285 0.348363
0.384314 0.580560 0.354040
0.403662 0.580987 0.360388
0.423377 0.581415 0.367224
0.442786 0.581933 0.373602
0.457404 0.583673 0.364294
0.473823 0.585199 0.354101
0.492042 0.586572 0.343389
0.511833 0.587915 0.331579
0.533043 0.589044 0.319005
0.555444 0.590234 0.306004
0.578820 0.591211 0.292149
0.602747 0.592096 0.276738
0.631617 0.597101 0.261082
0.658106 0.601251 0.250706
0.690730 0.612726 0.263157
0.722377 0.624109 0.276951
0.753597 0.635737 0.291783
0.784970 0.648005 0.307561
0.817166 0.661128 0.325322
0.850370 0.675196 0.344823
0.884764 0.690089 0.366522
0.920012 0.705592 0.390539
0.313420 0.604883 0.361852
0.314580 0.605463 0.361822
0.315618 0.605890 0.361212
0.317693 0.606470 0.360113
0.320806 0.606928 0.358160
0.329229 0.606958 0.359380
0.340673 0.606867 0.362005
0.354131 0.606806 0.365240
0.369390 0.606867 0.369390
0.386114 0.607141 0.374151
0.403876 0.607477 0.379797
0.422339 0.607874 0.385840
0.441108 0.608179 0.392432
0.459785 0.608545 0.399359
0.476112 0.609369 0.399939
0.490089 0.610712 0.390204
0.505882 0.611994 0.379919
0.523308 0.613092 0.368841
0.542107 0.614099 0.356970
0.562249 0.615015 0.344305
0.583368 0.615839 0.330968
0.605310 0.616541 0.316991
0.627771 0.617060 0.301884
0.654078 0.620539 0.285588
0.680934 0.625666 0.273075
0.712612 0.637049 0.285313
0.744533 0.649378 0.300542
0.776608 0.662318 0.317082
0.809384 0.676081 0.335027
0.843198 0.690791 0.354864
0.878264 0.706355 0.377050
0.914366 0.722560 0.401587
0.338781 0.629328 0.387396
0.339971 0.629816 0.387518
0.341070 0.630304 0.387152
0.342931 0.630793 0.386267
0.345739 0.631220 0.384344
0.352361 0.631312 0.384436
0.362982 0.631098 0.386908
0.375158 0.630915 0.389868
0.389380 0.630793 0.393652
0.404822 0.630884 0.397955
0.421485 0.631128 0.403204
0.438849 0.631403 0.408850
0.456306 0.631708 0.414954
0.474220 0.632044 0.421637
0.491981 0.632441 0.428595
0.505699 0.633661 0.423468
0.519463 0.635004 0.414099
0.535027 0.636286 0.404059
0.551904 0.637507 0.393103
0.570214 0.638758 0.381872
0.589715 0.639826 0.369482
0.610193 0.640833 0.356542
0.631403 0.641749 0.342748
0.653162 0.642481 0.328008
0.675135 0.642725 0.309300
0.703578 0.649928 0.297154
0.734218 0.660914 0.307347
0.766995 0.674525 0.324010
0.800320 0.689021 0.342657
0.834867 0.704494 0.363012
0.870756 0.720974 0.385748
0.907927 0.738247 0.410925
0.368627 0.656214 0.417273
0.369787 0.656794 0.417426
0.370825 0.657099 0.417304
0.372290 0.657435 0.416083
0.374548 0.657618 0.414038
0.379431 0.657649 0.413184
0.388983 0.657191 0.415259
0.399939 0.656703 0.417639
0.412482 0.656306 0.420783
0.426490 0.656031 0.424506
0.441382 0.655726 0.428656
0.457160 0.655726 0.433692
0.473487 0.655726 0.439124
0.489967 0.655726 0.444862
0.506340 0.655726 0.450996
0.522148 0.655909 0.455818
0.533806 0.656947 0.446723
0.547021 0.657954 0.436866
0.561975 0.659174 0.426947
0.578546 0.660548 0.416449
0.596460 0.661952 0.405432
0.615320 0.663233 0.393500
0.635035 0.664271 0.380835
0.655299 0.665003 0.366827
0.675898 0.665431 0.351598
0.697871 0.666590 0.335515
0.728237 0.676051 0.324102
0.758236 0.686793 0.331884
0.792081 0.701930 0.350622
0.827146 0.718166 0.371618
0.863828 0.735531 0.394873
0.902007 0.753964 0.420874
0.394293 0.679194 0.442786
0.395392 0.679713 0.443000
0.396399 0.680079 0.442878
0.397986 0.680354 0.442206
0.400061 0.680537 0.440375
0.403449 0.680659 0.438666
0.412360 0.680323 0.440650
0.422583 0.679988 0.443061
0.434272 0.679683 0.446204
0.447303 0.679500 0.449653
0.461219 0.679500 0.453864
0.476143 0.679561 0.458656
0.491585 0.679713 0.463966
0.507256 0.679866 0.469520
0.523186 0.680018 0.475563
0.538903 0.680262 0.481788
0.552178 0.680964 0.481300
0.563775 0.682185 0.472816
0.576989 0.683528 0.463722
0.591699 0.685054 0.454261
0.607813 0.686488 0.444099
0.625086 0.687953 0.433295
0.643305 0.689204 0.421637
0.662257 0.690272 0.408972
0.681819 0.691127 0.395361
0.701930 0.691768 0.380102
0.722530 0.692317 0.364233
0.755062 0.704341 0.354253
0.785489 0.715633 0.360571
0.821347 0.732937 0.382147
0.858885 0.751461 0.406409
0.898283 0.771237 0.433509
0.422187 0.703182 0.470375
0.422919 0.703578 0.470344
0.423651 0.703792 0.470100
0.424872 0.703914 0.469032
0.426581 0.703944 0.467384
0.428748 0.704036 0.465126
0.436469 0.703639 0.466712
0.445838 0.703243 0.468788
0.456519 0.702998 0.471565
0.468513 0.702876 0.475044
0.481514 0.702846 0.478889
0.495583 0.703029 0.483558
0.510063 0.703273 0.488655
0.525109 0.703487 0.493874
0.540124 0.703731 0.499519
0.555200 0.703975 0.505333
0.570367 0.704341 0.511559
0.581353 0.705501 0.506310
0.592828 0.706996 0.498085
0.605890 0.708583 0.489540
0.620325 0.710262 0.480446
0.636042 0.711910 0.470802
0.652735 0.713466 0.460304
0.670436 0.714900 0.449073
0.688869 0.716091 0.436500
0.708003 0.717159 0.423224
0.727871 0.718166 0.408911
0.748287 0.719081 0.393256
0.782254 0.732815 0.384741
0.813687 0.745205 0.389624
0.852140 0.764981 0.414710
0.892515 0.786099 0.442481
0.449073 0.726558 0.496681
0.449531 0.726833 0.496407
0.450233 0.726955 0.496162
0.451484 0.727138 0.495552
0.453162 0.727352 0.494270
0.455726 0.727749 0.492683
0.462562 0.727993 0.494087
0.471931 0.728298 0.496925
0.482673 0.728817 0.500450
0.494667 0.729458 0.504448
0.507652 0.730190 0.509087
0.521416 0.731044 0.514214
0.535668 0.731838 0.519463
0.550195 0.732631 0.525017
0.564691 0.733242 0.530632
0.579156 0.733730 0.536156
0.593652 0.734279 0.541924
0.607202 0.735164 0.545769
0.617273 0.736782 0.538811
0.628779 0.738613 0.531334
0.641627 0.740475 0.523552
0.655665 0.742367 0.515038
0.670832 0.744198 0.505821
0.687037 0.745907 0.495827
0.704189 0.747524 0.484840
0.722255 0.749081 0.473152
0.741207 0.750576 0.460426
0.760983 0.752041 0.446723
0.781704 0.753689 0.432227
0.817777 0.769558 0.425360
0.851560 0.783932 0.430488
0.892943 0.806424 0.459236
0.482551 0.755032 0.528710
0.483131 0.755215 0.528740
0.483650 0.755276 0.528435
0.484504 0.755306 0.527642
0.485878 0.755398 0.526268
0.487892 0.755550 0.524712
0.493019 0.755642 0.524987
0.500969 0.755642 0.527123
0.510277 0.755795 0.529747
0.520836 0.756069 0.533104
0.532128 0.756435 0.536736
0.544427 0.756893 0.540673
0.557244 0.757351 0.545068
0.570428 0.757931 0.549798
