data/fiter_cube/69180065/1023054/file.cube
# Created by Adobe Lightroom plugin Export LUT (1.17.0)
# www.johnrellis.com/lightroom/exportlut.htm
# Preset: 室内文艺胶片_07 云集
# Color profile: C:\Program Files (x86)\Common Files\Adobe\Color\Profiles\Recommended\AdobeRGB1998.icc
LUT_3D_SIZE 5
DOMAIN_MIN 0.000000 0.000000 0.000000
DOMAIN_MAX 0.903226 0.903226 0.903226
0.000000 0.000000 0.000000
0.148745 0.050416 0.026398
0.423896 0.000000 0.020813
0.664607 0.144564 0.080079
0.847410 0.335119 0.189822
0.054536 0.145235 0.071290
0.144320 0.168429 0.062165
0.430610 0.197635 0.019928
0.664942 0.267247 0.096773
0.849790 0.401221 0.209018
0.141848 0.385992 0.183047
0.215976 0.391028 0.195529
0.401648 0.425483 0.162234
0.650294 0.474800 0.161166
0.844541 0.543236 0.254612
0.313420 0.604883 0.361852
0.354131 0.606806 0.365240
0.476112 0.609369 0.399939
0.605310 0.616541 0.316991
0.809384 0.676081 0.335027
0.510369 0.780484 0.555169
0.526848 0.781674 0.553613
0.598383 0.779721 0.572869
0.687221 0.792721 0.580194
0.802060 0.812528 0.522545
0.033204 0.065431 0.161044
0.167697 0.076539 0.164706
0.426764 0.133455 0.208560
0.653346 0.230259 0.253910
0.835111 0.366522 0.317479
0.057984 0.180789 0.185367
0.193668 0.210483 0.201999
0.436378 0.241703 0.221134
0.654536 0.309911 0.261448
0.835264 0.418647 0.326177
0.181155 0.404791 0.273167
0.270237 0.417945 0.295293
0.417975 0.435615 0.275029
0.649989 0.484993 0.288731
0.837369 0.551659 0.359258
0.354437 0.609247 0.427863
0.393164 0.613306 0.431617
0.497871 0.616052 0.458503
0.610773 0.621424 0.387915
0.810452 0.680842 0.406134
0.535912 0.781094 0.590661
0.545312 0.782986 0.584253
0.611749 0.787472 0.599512
0.696559 0.797879 0.609339
0.805661 0.816342 0.553124
0.017029 0.125063 0.420752
0.211612 0.144228 0.417212
0.430854 0.189578 0.423072
0.643336 0.290013 0.447852
0.820768 0.454902 0.547051
0.112520 0.239780 0.444770
0.244022 0.257298 0.441352
0.445136 0.289860 0.443549
0.644770 0.369299 0.472999
0.824613 0.479072 0.545525
0.207401 0.445289 0.470710
0.298405 0.456855 0.477241
0.488502 0.497200 0.504967
0.655818 0.523217 0.518029
0.829252 0.573877 0.547845
0.364080 0.622400 0.531640
0.418280 0.624079 0.538689
0.541924 0.637537 0.565820
0.632776 0.642329 0.541253
0.822354 0.697261 0.557244
0.538231 0.785122 0.641657
0.564843 0.787686 0.646967
0.627924 0.796231 0.653834
0.715267 0.805325 0.675471
0.809079 0.819455 0.619165
0.235264 0.231724 0.624994
0.313817 0.245182 0.623285
0.474128 0.279820 0.613245
0.626520 0.342443 0.616693
0.809689 0.445533 0.642115
0.275364 0.321172 0.633692
0.338598 0.327245 0.630640
0.483040 0.347936 0.619806
0.628199 0.396124 0.621088
0.809262 0.481849 0.648402
0.308385 0.484779 0.649500
0.367376 0.492927 0.651057
0.509667 0.507439 0.646448
0.643153 0.529839 0.643397
0.819638 0.582879 0.674556
0.407813 0.638056 0.661036
0.447059 0.640711 0.661952
0.549096 0.654200 0.669551
0.682918 0.687068 0.691096
0.843442 0.710170 0.701259
0.542290 0.798398 0.723568
0.564935 0.800351 0.725246
0.632197 0.809171 0.731411
0.731502 0.826108 0.742855
0.825986 0.833921 0.714168
0.468482 0.412970 0.813077
0.502800 0.419959 0.810880
0.595087 0.440803 0.802945
0.703273 0.470344 0.789303
0.819883 0.519310 0.794980
0.477150 0.462989 0.816251
0.509483 0.467262 0.814176
0.598413 0.480964 0.806546
0.705623 0.502068 0.793423
0.822324 0.542901 0.798489
0.473732 0.570031 0.828305
0.506218 0.572076 0.826993
0.599542 0.578729 0.820127
0.708949 0.583276 0.807309
0.829404 0.608423 0.809018
0.521019 0.710719 0.840482
0.540978 0.711482 0.841489
0.599329 0.710170 0.844022
0.706569 0.699641 0.836576
0.844480 0.711879 0.830655
0.594293 0.837186 0.856809
0.608972 0.839048 0.858000
0.656703 0.844175 0.860533
0.743771 0.857420 0.867979
0.895506 0.896513 0.895598
