data/fiter_cube/28334299/1023166/file.cube
# Created by Adobe Lightroom plugin Export LUT (1.17.0)
# www.johnrellis.com/lightroom/exportlut.htm
# Preset: 梦幻人像_05 云集
# Color profile: C:\Program Files (x86)\Common Files\Adobe\Color\Profiles\Recommended\AdobeRGB1998.icc
LUT_3D_SIZE 8
DOMAIN_MIN 0.000000 0.000000 0.000000
DOMAIN_MAX 0.903226 0.903226 0.903226
0.000000 0.000000 0.000000
0.141665 0.000000 0.001526
0.330053 0.000000 0.000000
0.505852 0.000000 0.000000
0.645594 0.000000 0.000000
0.754238 0.000000 0.000000
0.847715 0.000000 0.048829
0.948577 0.000000 0.117067
0.000000 0.140627 0.000000
0.137728 0.136568 0.000000
0.331853 0.139590 0.000000
0.506584 0.119753 0.000000
0.645411 0.078187 0.000000
0.752071 0.002930 0.000000
0.844816 0.011444 0.051820
0.946471 0.093935 0.119081
0.000000 0.330144 0.000000
0.092348 0.331090 0.000000
0.322423 0.317205 0.000000
0.517845 0.314214 0.000000
0.659449 0.288975 0.000000
0.759304 0.261784 0.000000
0.853971 0.250370 0.084901
0.952972 0.256535 0.141665
0.000000 0.501762 0.005371
0.000000 0.503288 0.000000
0.274998 0.499763 0.000000
0.491646 0.484199 0.000000
0.658198 0.461463 0.000000
0.772396 0.433845 0.079011
0.861814 0.407721 0.129702
0.956512 0.399603 0.175021
0.000000 0.638422 0.064088
0.000000 0.639094 0.000000
0.196689 0.636500 0.000000
0.423804 0.629053 0.000000
0.611933 0.603967 0.000000
0.741543 0.563989 0.015534
0.861357 0.554894 0.174624
0.960449 0.542779 0.223087
0.000000 0.734493 0.113771
0.000000 0.736416 0.097078
0.095857 0.735256 0.000000
0.359808 0.729580 0.000000
0.540429 0.717189 0.000000
0.703151 0.695705 0.031525
0.827695 0.664942 0.148074
0.951904 0.669001 0.247959
0.000000 0.833036 0.160616
0.000000 0.833249 0.160861
0.000000 0.832822 0.091249
0.318059 0.829221 0.095613
0.489052 0.823789 0.101259
0.651728 0.811765 0.127535
0.800595 0.795132 0.161105
0.923095 0.771633 0.222324
0.000000 0.940673 0.203677
0.000000 0.940032 0.211765
0.070771 0.939361 0.210727
0.300359 0.939361 0.187106
0.464363 0.933196 0.185489
0.613611 0.931029 0.193790
0.770230 0.922271 0.222965
0.912566 0.911650 0.253910
0.000000 0.000000 0.113985
0.140444 0.000000 0.115511
0.326207 0.000000 0.119051
0.498421 0.000000 0.103792
0.638392 0.000000 0.100008
0.746029 0.000000 0.110933
0.839109 0.000000 0.134188
0.941527 0.000000 0.167788
0.000000 0.132967 0.116915
0.136599 0.130129 0.116793
0.325505 0.117311 0.113466
0.501335 0.082216 0.103029
0.640131 0.016266 0.100679
0.745998 0.000000 0.112947
0.837522 0.061402 0.135897
0.939422 0.112184 0.168795
0.000000 0.323095 0.139101
0.072999 0.326146 0.112398
0.321843 0.315190 0.091341
0.514672 0.307866 0.107301
0.651453 0.283085 0.109438
0.751675 0.261418 0.126894
0.843870 0.253178 0.152316
0.944915 0.261112 0.185916
0.000000 0.495949 0.145022
0.000000 0.497902 0.111116
0.266606 0.497047 0.000000
0.486275 0.477852 0.022889
0.649561 0.454658 0.108003
0.760708 0.429755 0.160037
0.851164 0.406622 0.183017
0.948760 0.400763 0.212833
0.000000 0.635157 0.154330
0.000000 0.635279 0.130129
0.191653 0.633326 0.000000
0.419318 0.624720 0.000000
0.607660 0.598901 0.059358
0.737789 0.561395 0.136660
0.857023 0.555962 0.224002
0.955200 0.543603 0.256901
0.000000 0.730922 0.170474
0.000000 0.730922 0.161440
0.108248 0.730434 0.094881
0.361273 0.725399 0.098604
0.539483 0.714443 0.110719
0.702144 0.693996 0.137423
0.826108 0.664424 0.193820
0.949248 0.669642 0.279667
0.000000 0.828397 0.196445
0.000000 0.827604 0.195926
0.056550 0.827298 0.168154
0.322637 0.825254 0.157717
0.490974 0.820859 0.161990
0.650813 0.809140 0.176364
0.797818 0.791775 0.198093
0.919646 0.768887 0.247471
0.000000 0.937987 0.225498
0.000000 0.937743 0.232609
0.154147 0.936065 0.258366
0.307652 0.937194 0.222110
0.471412 0.934783 0.225956
0.617121 0.931365 0.230594
0.770352 0.921355 0.251133
0.911254 0.910002 0.275822
0.000000 0.000000 0.269963
0.150973 0.000000 0.270878
0.329503 0.000000 0.277623
0.507317 0.000000 0.273045
0.639277 0.000000 0.248661
0.741421 0.000000 0.244205
0.831632 0.073213 0.267735
0.937072 0.130282 0.281956
0.000000 0.121187 0.276982
0.131655 0.100587 0.278813
0.331243 0.000000 0.280552
0.504143 0.000000 0.266789
0.636286 0.000000 0.249149
0.736263 0.105043 0.260533
0.830900 0.149416 0.269352
0.936339 0.178561 0.283757
0.000000 0.314549 0.282689
0.023804 0.315160 0.284215
0.317662 0.302647 0.278080
0.494972 0.295048 0.276432
0.637598 0.286778 0.275090
0.741268 0.282200 0.276555
0.835325 0.283146 0.282628
0.938811 0.291356 0.295354
0.000000 0.492134 0.285924
0.000000 0.493843 0.280125
0.267247 0.492897 0.264561
0.489876 0.477180 0.256107
0.651850 0.466011 0.299962
0.750179 0.441108 0.304967
0.843656 0.425422 0.308629
0.943877 0.421149 0.318639
0.000000 0.631434 0.281224
0.000000 0.631678 0.276524
0.228824 0.629541 0.267704
0.425391 0.623713 0.250858
0.611810 0.600183 0.254124
0.739284 0.568597 0.291539
0.853239 0.570855 0.347417
0.949554 0.556512 0.353460
0.000000 0.728603 0.277806
0.000000 0.728237 0.277409
0.206790 0.725582 0.279973
0.378088 0.721798 0.262058
0.543816 0.712520 0.264103
0.702235 0.692012 0.271519
0.826169 0.667872 0.303593
0.948760 0.680781 0.376501
0.000000 0.827573 0.285954
0.000000 0.826780 0.287816
0.183413 0.824247 0.297307
0.348577 0.822446 0.282231
0.503655 0.817990 0.283391
0.655207 0.808316 0.288914
0.799863 0.792386 0.299443
0.922698 0.774075 0.333410
0.000000 0.937407 0.292241
0.000000 0.936706 0.294621
0.141695 0.934386 0.317327
0.335882 0.934997 0.315740
0.486030 0.932647 0.317357
0.625940 0.929931 0.320256
0.773465 0.921233 0.331304
0.912749 0.910521 0.346777
0.000000 0.000000 0.421424
0.165377 0.000000 0.422705
0.330144 0.000000 0.426551
0.502556 0.000000 0.430884
0.646357 0.000000 0.408759
0.743648 0.000000 0.376623
0.832273 0.000000 0.364111
0.933776 0.000000 0.364202
0.000000 0.069947 0.429755
0.135805 0.029572 0.430579
0.321935 0.000000 0.432166
0.504479 0.000000 0.433509
0.645563 0.000000 0.407904
0.741054 0.000000 0.378759
0.829465 0.061921 0.368292
0.931792 0.123995 0.368872
0.000000 0.289494 0.434363
0.000000 0.279881 0.436164
0.287236 0.256321 0.437690
0.501335 0.237919 0.435981
0.637903 0.252781 0.410681
0.734249 0.274235 0.394934
0.825956 0.292638 0.392218
0.927764 0.326207 0.408515
0.000000 0.479530 0.438209
0.000000 0.480049 0.439368
0.260563 0.477729 0.440162
0.483223 0.462379 0.431983
0.621912 0.457984 0.431464
0.725673 0.452186 0.429297
0.824613 0.446448 0.427375
0.932464 0.442664 0.428046
0.000000 0.626764 0.420691
0.000000 0.626032 0.419287
0.231388 0.622736 0.417578
0.446540 0.614069 0.420264
0.613886 0.597223 0.413336
0.736568 0.588861 0.456855
0.838041 0.581720 0.463539
0.939849 0.570703 0.458991
0.000000 0.726558 0.399115
0.000000 0.727230 0.400580
0.220798 0.723415 0.404334
0.421546 0.716579 0.417365
0.558831 0.710811 0.410468
0.705226 0.691463 0.409125
0.828458 0.678523 0.436713
0.948028 0.700679 0.497871
0.000000 0.824979 0.391699
0.000000 0.824765 0.393408
0.190402 0.823148 0.400946
0.397284 0.819394 0.419440
0.527123 0.816373 0.412848
0.663905 0.809049 0.412970
0.801938 0.792050 0.413825
0.925048 0.779629 0.437598
0.000000 0.937072 0.390692
0.000000 0.936980 0.392370
0.068116 0.935698 0.399023
0.368811 0.932219 0.425788
0.505760 0.930236 0.424659
0.637690 0.927886 0.425422
0.776852 0.920958 0.429267
0.914214 0.910521 0.436316
0.041444 0.000000 0.547906
0.173007 0.000000 0.548516
0.318669 0.000000 0.550500
0.473671 0.000000 0.553338
0.636927 0.000000 0.554955
0.744961 0.000000 0.515892
0.838285 0.000000 0.486397
0.939879 0.000000 0.472541
0.000000 0.000000 0.552361
0.141848 0.000000 0.553460
0.306340 0.000000 0.554528
0.470344 0.000000 0.555627
0.637263 0.000000 0.556207
0.744106 0.000000 0.516716
0.836851 0.000000 0.488472
0.938628 0.000000 0.475257
0.000000 0.241093 0.558587
0.000000 0.232395 0.559747
0.270420 0.220737 0.559686
0.461707 0.203830 0.560327
0.634577 0.182712 0.557855
0.738186 0.218997 0.520134
0.830014 0.243076 0.496376
0.933135 0.241703 0.484230
0.000000 0.434058 0.559716
0.000000 0.432258 0.560479
0.249912 0.427893 0.562066
0.453285 0.423224 0.561425
0.625727 0.416236 0.558190
0.725338 0.427527 0.529747
0.819150 0.424140 0.514183
0.926238 0.408484 0.501946
0.000000 0.605829 0.561028
0.000000 0.605768 0.561517
0.226474 0.603845 0.561791
0.440558 0.597803 0.560113
0.606195 0.583429 0.551751
0.709377 0.579675 0.550530
0.812436 0.573327 0.547173
0.924681 0.565118 0.542565
0.000000 0.718044 0.525444
0.000000 0.717311 0.525628
0.213931 0.713466 0.526543
0.415442 0.706630 0.530541
0.573999 0.697261 0.537743
0.703395 0.685481 0.533013
0.829068 0.696315 0.573693
0.938323 0.697139 0.579950
0.000000 0.819669 0.506676
0.000000 0.818936 0.507439
0.182895 0.816800 0.511131
0.386664 0.813504 0.519310
0.546746 0.808957 0.532158
0.668940 0.805692 0.527398
0.801358 0.788663 0.522515
0.927733 0.784848 0.543969
0.000000 0.932036 0.497902
0.000000 0.931609 0.498695
0.000000 0.930388 0.502159
0.332891 0.930541 0.510735
0.516533 0.926757 0.529808
0.643763 0.924712 0.526757
0.776181 0.919829 0.526299
0.913634 0.908110 0.525994
0.073884 0.000000 0.651301
0.169314 0.000000 0.651453
0.301579 0.000000 0.651667
0.442023 0.000000 0.652766
0.590539 0.000000 0.655268
0.736049 0.000000 0.650690
0.839689 0.000000 0.616602
0.947234 0.000000 0.595575
0.000000 0.000000 0.651789
0.142184 0.000000 0.651911
0.287755 0.000000 0.652399
0.435981 0.000000 0.653223
0.588281 0.000000 0.655146
0.734737 0.000000 0.650294
0.838315 0.000000 0.616846
0.945769 0.000000 0.596277
0.000000 0.195560 0.656764
0.000000 0.192813 0.656580
0.255192 0.183993 0.656672
0.426703 0.169467 0.657527
0.585351 0.148592 0.657282
0.732509 0.132326 0.651728
0.835691 0.163577 0.620844
0.942596 0.143008 0.601068
0.000000 0.388708 0.658412
0.000000 0.388067 0.658442
0.252842 0.389593 0.659022
0.429664 0.390845 0.659846
0.584649 0.386236 0.659358
0.728023 0.382422 0.654505
0.831601 0.388190 0.630274
0.937652 0.368078 0.610498
0.000000 0.549706 0.656580
0.000000 0.549584 0.656825
0.235416 0.549737 0.657221
0.425757 0.551293 0.656916
0.579644 0.550958 0.654902
0.715572 0.546319 0.651942
0.818265 0.544396 0.635645
0.926757 0.523644 0.619409
0.000000 0.699245 0.654719
0.000000 0.699397 0.655360
0.210056 0.698024 0.655726
0.410193 0.694667 0.655482
0.568658 0.688350 0.653346
0.699916 0.677790 0.647578
0.807767 0.674220 0.646418
0.923827 0.667109 0.642237
0.000000 0.815244 0.631769
0.000000 0.815061 0.632410
0.174166 0.813046 0.633448
0.380072 0.809598 0.635889
0.538140 0.804776 0.639765
0.671534 0.799924 0.637995
0.801968 0.786435 0.628504
0.935180 0.798947 0.668482
0.000000 0.928771 0.615564
0.000000 0.928344 0.615930
0.000000 0.927123 0.617517
0.310735 0.926055 0.621118
0.489357 0.924071 0.626368
0.638880 0.922210 0.629145
0.769924 0.920195 0.623041
0.913664 0.906340 0.617304
0.000000 0.000000 0.749905
0.137057 0.000000 0.750118
0.283207 0.000000 0.750484
0.417456 0.000000 0.752102
0.555291 0.000000 0.753445
0.697047 0.000000 0.754299
0.833127 0.000000 0.748318
0.944457 0.000000 0.722957
0.000000 0.000000 0.750576
0.131106 0.000000 0.750820
0.270451 0.000000 0.751400
0.410040 0.000000 0.752712
0.552148 0.000000 0.753750
0.695857 0.000000 0.754360
0.832242 0.000000 0.748226
0.943572 0.000000 0.723049
0.000000 0.136751 0.754910
0.000000 0.132357 0.755032
0.228916 0.116518 0.755337
0.394751 0.082582 0.755673
0.547051 0.000000 0.755764
0.693935 0.000000 0.755795
0.830869 0.000000 0.749905
0.942626 0.000000 0.725978
0.000000 0.346960 0.757595
0.000000 0.347295 0.757565
0.225559 0.348730 0.757748
0.394720 0.344427 0.757656
0.546502 0.337713 0.757382
0.691463 0.328405 0.757198
0.827451 0.320012 0.752255
0.940337 0.293858 0.730983
0.000000 0.508293 0.757412
0.000000 0.508415 0.757473
0.208164 0.509697 0.757748
0.395789 0.512627 0.757931
0.545678 0.510246 0.757656
0.686213 0.503227 0.757321
0.820920 0.497017 0.753933
0.935943 0.482795 0.738186
0.000000 0.657130 0.757809
0.000000 0.657099 0.757961
0.170748 0.657069 0.758389
0.376867 0.656764 0.758785
0.537591 0.656001 0.758572
0.675257 0.648280 0.758022
0.813321 0.639734 0.756252
0.929686 0.626642 0.740047
0.000000 0.800443 0.758907
0.000000 0.800259 0.759152
0.090883 0.799405 0.759579
0.349584 0.797635 0.760159
0.519707 0.794400 0.760281
0.657435 0.789731 0.759426
0.797910 0.779110 0.753567
0.918914 0.774105 0.751003
0.000000 0.923919 0.743130
0.000000 0.923735 0.743313
0.000000 0.923308 0.744045
0.276677 0.922057 0.745022
0.471290 0.919860 0.747005
0.618585 0.918669 0.746120
0.767330 0.915587 0.744228
0.912627 0.903258 0.733547
0.000000 0.000000 0.872313
0.000000 0.000000 0.872496
0.236240 0.000000 0.872770
0.393408 0.000000 0.873411
0.534661 0.000000 0.874235
0.672602 0.000000 0.875364
0.813413 0.000000 0.876463
0.946105 0.000000 0.867369
0.000000 0.000000 0.872709
0.000000 0.000000 0.872892
0.239261 0.000000 0.873228
0.389654 0.000000 0.873869
0.529290 0.000000 0.874784
0.670039 0.000000 0.875731
0.812375 0.000000 0.876585
0.945617 0.000000 0.867491
0.000000 0.000000 0.875364
0.000000 0.000000 0.875486
0.173098 0.000000 0.875608
0.358740 0.000000 0.876280
0.514977 0.000000 0.876707
0.664088 0.000000 0.877043
0.809720 0.000000 0.877501
0.944366 0.000000 0.868742
0.000000 0.283879 0.878080
0.000000 0.282597 0.878172
0.086030 0.277317 0.878141
0.338445 0.267582 0.878294
0.505669 0.252140 0.878447
0.658595 0.228458 0.878569
0.805539 0.191226 0.878843
0.941924 0.140871 0.871092
0.000000 0.464942 0.878904
0.000000 0.464637 0.879088
0.000000 0.463722 0.879301
0.328222 0.461555 0.879637
0.497200 0.452888 0.879698
0.651026 0.441047 0.879759
0.798825 0.425635 0.880034
0.937530 0.410712 0.874113
0.000000 0.621881 0.880064
0.000000 0.621424 0.880125
0.000000 0.620111 0.880278
0.293431 0.617731 0.880644
0.483650 0.615595 0.880980
0.640040 0.607874 0.881529
0.789059 0.595972 0.882231
0.932464 0.581720 0.878538
0.000000 0.771298 0.882017
0.000000 0.770932 0.882048
0.000000 0.769711 0.882322
0.238834 0.767819 0.882780
0.456703 0.765499 0.883268
0.613672 0.757412 0.884184
0.767758 0.744991 0.884733
0.924620 0.736233 0.882780
0.000000 0.918669 0.884764
0.000000 0.918456 0.884794
0.000000 0.917754 0.885161
0.129793 0.916411 0.885801
0.419165 0.914244 0.886534
0.586938 0.911711 0.887419
0.748135 0.907500 0.887633
0.909453 0.898619 0.883879
