data/fiter_cube/28334299/1023166/file.cube
# Created by Adobe Lightroom plugin Export LUT (1.17.0)
# www.johnrellis.com/lightroom/exportlut.htm
# Preset: 梦幻人像_05 云集
# Color profile: C:\Program Files (x86)\Common Files\Adobe\Color\Profiles\Recommended\AdobeRGB1998.icc
LUT_3D_SIZE 32
DOMAIN_MIN 0.0 0.0 0.0
DOMAIN_MAX 1.0 1.0 1.0
0.000000 0.000000 0.000000
0.000000 0.000000 0.000000
0.033539 0.000000 0.000549
0.100710 0.000000 0.000977
0.141665 0.000000 0.001526
0.186221 0.000000 0.000000
0.233646 0.000000 0.000000
0.281926 0.000000 0.000000
0.330053 0.000000 0.000000
0.376501 0.000000 0.000000
0.421820 0.000000 0.000000
0.464942 0.000000 0.000000
0.505852 0.000000 0.000000
0.544457 0.000000 0.000000
0.580468 0.000000 0.000000
0.614160 0.000000 0.000000
0.645594 0.000000 0.000000
0.675013 0.000000 0.000000
0.702907 0.000000 0.000000
0.729976 0.000000 0.000000
0.754238 0.000000 0.000000
0.777310 0.000000 0.000000
0.800534 0.000000 0.000000
0.823941 0.000000 0.012879
0.847715 0.000000 0.048829
0.871916 0.000000 0.070283
0.896757 0.000000 0.085786
0.922271 0.000000 0.101167
0.948577 0.000000 0.117067
0.975555 0.000000 0.133822
1.000000 0.023957 0.151369
1.000000 0.094881 0.170748
0.000000 0.000000 0.000000
0.000000 0.000000 0.000000
0.037629 0.000000 0.000519
0.101045 0.000000 0.000275
0.141665 0.000000 0.000000
0.185977 0.000000 0.000000
0.233524 0.000000 0.000000
0.281712 0.000000 0.000000
0.329656 0.000000 0.000000
0.376226 0.000000 0.000000
0.421271 0.000000 0.000000
0.464424 0.000000 0.000000
0.505241 0.000000 0.000000
0.543755 0.000000 0.000000
0.579706 0.000000 0.000000
0.613336 0.000000 0.000000
0.644739 0.000000 0.000000
0.674159 0.000000 0.000000
0.702113 0.000000 0.000000
0.728878 0.000000 0.000000
0.753017 0.000000 0.000000
0.775937 0.000000 0.000000
0.799069 0.000000 0.000000
0.822477 0.000000 0.010010
0.846189 0.000000 0.045686
0.870420 0.000000 0.068940
0.895323 0.000000 0.084840
0.920928 0.000000 0.100618
0.947265 0.000000 0.116213
0.974334 0.000000 0.132906
1.000000 0.049866 0.150484
1.000000 0.100557 0.169863
0.000000 0.040894 0.000000
0.000000 0.049622 0.000000
0.036286 0.051301 0.000000
0.100618 0.046021 0.000000
0.141390 0.038849 0.000000
0.185977 0.030243 0.000000
0.233402 0.018555 0.000000
0.281498 0.005219 0.000000
0.329503 0.000000 0.000000
0.376043 0.000000 0.000000
0.421180 0.000000 0.000000
0.464271 0.000000 0.000000
0.505058 0.000000 0.000000
0.543542 0.000000 0.000000
0.579492 0.000000 0.000000
0.613123 0.000000 0.000000
0.644495 0.000000 0.000000
0.673854 0.000000 0.000000
0.701961 0.000000 0.000000
0.728450 0.000000 0.000000
0.752560 0.000000 0.000000
0.775387 0.000000 0.000000
0.798459 0.000000 0.000000
0.821805 0.000000 0.009796
0.845518 0.000000 0.045502
0.869749 0.000000 0.069001
0.894652 0.000000 0.084932
0.920256 0.000000 0.100496
0.946654 0.000000 0.116304
0.973724 0.000000 0.132815
1.000000 0.070954 0.150271
1.000000 0.109987 0.169711
0.000000 0.099947 0.000000
0.000000 0.101289 0.000000
0.019074 0.101381 0.000000
0.096895 0.098207 0.000000
0.140414 0.093355 0.000000
0.186679 0.093874 0.000000
0.234226 0.093477 0.000000
0.282597 0.092531 0.000000
0.330571 0.089296 0.000000
0.377111 0.084108 0.000000
0.422004 0.076234 0.000000
0.465034 0.064729 0.000000
0.505638 0.041474 0.000000
0.543999 0.001434 0.000000
0.579858 0.000000 0.000000
0.613397 0.000000 0.000000
0.644648 0.000000 0.000000
0.673945 0.000000 0.000000
0.702083 0.000000 0.000000
0.728054 0.000000 0.000000
0.751827 0.000000 0.000000
0.774472 0.000000 0.000000
0.797543 0.000000 0.000000
0.821012 0.000000 0.010010
0.844999 0.000000 0.047578
0.869505 0.000000 0.070100
0.894621 0.000000 0.085969
0.920348 0.000000 0.101961
0.946746 0.004944 0.117586
0.973754 0.069429 0.133974
1.000000 0.100252 0.151339
1.000000 0.129152 0.170413
0.000000 0.140627 0.000000
0.000000 0.141543 0.000000
0.000000 0.141604 0.000000
0.085634 0.140749 0.000000
0.137728 0.136568 0.000000
0.182620 0.134646 0.000000
0.234287 0.139376 0.000000
0.283818 0.140780 0.000000
0.331853 0.139590 0.000000
0.378302 0.137301 0.000000
0.423072 0.132906 0.000000
0.466011 0.127169 0.000000
0.506584 0.119753 0.000000
0.544762 0.111147 0.000000
0.580621 0.101076 0.000000
0.614099 0.090578 0.000000
0.645411 0.078187 0.000000
0.674830 0.065187 0.000000
0.703182 0.045106 0.000000
0.728695 0.019440 0.000000
0.752071 0.002930 0.000000
0.774563 0.000000 0.000000
0.797482 0.000000 0.000000
0.820890 0.000000 0.014160
0.844816 0.011444 0.051820
0.869352 0.031922 0.072450
0.894438 0.060212 0.088197
0.920165 0.076570 0.103456
0.946471 0.093935 0.119081
0.973388 0.112734 0.135592
1.000000 0.132265 0.152773
1.000000 0.153872 0.171725
0.000000 0.185702 0.000000
0.000000 0.186404 0.000000
0.000000 0.186526 0.000000
0.076936 0.186007 0.000000
0.133242 0.184054 0.000000
0.182010 0.179568 0.000000
0.227634 0.177646 0.000000
0.281315 0.183749 0.000000
0.334356 0.187045 0.000000
0.380865 0.185153 0.000000
0.425696 0.181949 0.000000
0.468452 0.177249 0.000000
0.508751 0.171695 0.000000
0.546807 0.165042 0.000000
0.582513 0.158053 0.000000
0.615869 0.150546 0.000000
0.647059 0.142885 0.000000
0.677211 0.135531 0.000000
0.704891 0.128481 0.000000
0.729976 0.122560 0.000000
0.753140 0.117678 0.000000
0.775631 0.113863 0.000000
0.808225 0.118349 0.008331
0.831601 0.118990 0.048280
0.855283 0.121187 0.069978
0.879332 0.124758 0.085725
0.903838 0.130556 0.100587
0.928832 0.137911 0.115267
0.954467 0.147738 0.130190
0.980713 0.159518 0.146120
1.000000 0.173770 0.162997
1.000000 0.190280 0.181125
0.000000 0.235721 0.000000
0.000000 0.236271 0.000000
0.000000 0.236820 0.000000
0.060395 0.236301 0.000000
0.126955 0.235599 0.000000
0.181735 0.232273 0.000000
0.230991 0.227329 0.000000
0.276127 0.223026 0.000000
0.330938 0.229099 0.000000
0.385016 0.232670 0.000000
0.432868 0.231540 0.000000
0.475380 0.226932 0.000000
0.515435 0.221439 0.000000
0.552972 0.215335 0.000000
0.588037 0.208560 0.000000
0.620722 0.201419 0.000000
0.651820 0.194766 0.000000
0.682490 0.188296 0.000000
0.709499 0.182315 0.000000
0.734310 0.176822 0.000000
0.757565 0.172366 0.000000
0.780911 0.169039 0.000000
0.804868 0.167514 0.008331
0.829221 0.166812 0.050355
0.853788 0.167910 0.072724
0.878355 0.169772 0.088685
0.903075 0.173342 0.103761
0.928130 0.178225 0.118227
0.953735 0.184817 0.133181
0.979858 0.193606 0.148684
1.000000 0.204562 0.165194
1.000000 0.218173 0.183139
0.000000 0.283238 0.000000
0.000000 0.283879 0.000000
0.000000 0.284581 0.000000
0.000000 0.284398 0.000000
0.115450 0.283635 0.000000
0.172885 0.282444 0.000000
0.227909 0.277958 0.000000
0.277043 0.272618 0.000000
0.321263 0.265263 0.000000
0.375433 0.270848 0.000000
0.428199 0.273960 0.000000
0.478767 0.274601 0.000000
0.518547 0.268956 0.000000
0.555810 0.262486 0.000000
0.590631 0.255741 0.000000
0.623011 0.248478 0.000000
0.655451 0.242374 0.000000
0.684840 0.235721 0.000000
0.711025 0.229282 0.000000
0.735256 0.223209 0.000000
0.758083 0.218173 0.000000
0.781216 0.214267 0.000000
0.804959 0.211765 0.021118
0.829099 0.210330 0.060212
0.853513 0.209873 0.077913
0.877958 0.210910 0.093751
0.902617 0.212680 0.107759
0.927611 0.215946 0.122164
0.953124 0.220829 0.136721
0.979156 0.227451 0.151858
1.000000 0.236393 0.168429
1.000000 0.247532 0.186191
0.000000 0.330144 0.000000
0.000000 0.330694 0.000000
0.000000 0.331579 0.000000
0.000000 0.331670 0.000000
0.092348 0.331090 0.000000
0.161685 0.329900 0.000000
0.218112 0.327977 0.000000
0.272648 0.322972 0.000000
0.322423 0.317205 0.000000
0.365637 0.307836 0.000000
0.418219 0.311711 0.000000
0.469337 0.313725 0.000000
0.517845 0.314214 0.000000
0.559686 0.310185 0.000000
0.594293 0.302800 0.000000
0.628168 0.296117 0.000000
0.659449 0.288975 0.000000
0.687861 0.281804 0.000000
0.713191 0.274418 0.000000
0.736873 0.267613 0.000000
0.759304 0.261784 0.000000
0.782254 0.257023 0.000000
0.805814 0.253758 0.038453
0.829770 0.251652 0.068177
0.853971 0.250370 0.084901
0.878264 0.250156 0.099977
0.902770 0.250980 0.113649
0.927611 0.253025 0.127443
0.952972 0.256535 0.141665
0.978851 0.261631 0.156619
1.000000 0.268650 0.172671
1.000000 0.278019 0.190005
0.000000 0.375525 0.000000
0.000000 0.376013 0.000000
0.000000 0.376745 0.000000
0.000000 0.377539 0.000000
0.028717 0.376684 0.000000
0.143465 0.375677 0.000000
0.205386 0.374304 0.000000
0.261875 0.371283 0.000000
0.315984 0.365850 0.000000
0.365759 0.359930 0.000000
0.408698 0.349767 0.000000
0.458198 0.350317 0.000000
0.507195 0.351751 0.000000
0.554376 0.351873 0.000000
0.599359 0.351019 0.000000
0.633387 0.343725 0.000000
0.664027 0.335668 0.000000
0.691615 0.327276 0.000000
0.716274 0.318914 0.000000
0.739254 0.311101 0.000000
0.761257 0.304326 0.000000
0.783749 0.298802 0.018158
0.806790 0.294530 0.059297
0.830259 0.291386 0.077150
0.854093 0.289250 0.092164
0.878172 0.288060 0.106630
0.902617 0.287999 0.119814
0.927459 0.289189 0.133455
0.952850 0.291722 0.147677
0.978729 0.295750 0.162325
1.000000 0.301640 0.178042
1.000000 0.309636 0.195285
0.000000 0.418494 0.000519
0.000000 0.418982 0.000000
0.000000 0.419654 0.000000
0.000000 0.420661 0.000000
0.000000 0.420233 0.000000
0.116335 0.419318 0.000000
0.189334 0.418189 0.000000
0.247227 0.416876 0.000000
0.304601 0.412604 0.000000
0.357885 0.407019 0.000000
0.407294 0.400793 0.000000
0.450477 0.390936 0.000000
0.497261 0.388708 0.000000
0.545373 0.389837 0.000000
0.590204 0.389258 0.000000
0.631983 0.387274 0.000000
0.667964 0.382116 0.000000
0.694575 0.372503 0.000000
0.718624 0.362799 0.000000
0.741054 0.353887 0.000000
0.762844 0.346166 0.002289
0.785275 0.339727 0.047852
0.808225 0.334783 0.072023
0.831571 0.330846 0.088014
0.855192 0.327947 0.102266
0.879057 0.326024 0.115572
0.903258 0.325078 0.128145
0.927825 0.325414 0.141207
0.952972 0.326940 0.154635
0.978637 0.329839 0.168612
1.000000 0.334569 0.184146
1.000000 0.341283 0.200870
0.000000 0.459876 0.000397
0.000000 0.460334 0.000000
0.000000 0.460761 0.000000
0.000000 0.461677 0.000000
0.000000 0.461921 0.000000
0.070527 0.461036 0.000000
0.167910 0.460029 0.000000
0.232212 0.458747 0.000000
0.288273 0.457099 0.000000
0.345769 0.452094 0.000000
0.399176 0.447395 0.000000
0.448951 0.441962 0.000000
0.500084 0.439124 0.000000
0.543145 0.432685 0.000000
0.588983 0.432319 0.000000
0.631159 0.430304 0.000000
0.669978 0.427070 0.000000
0.703822 0.422004 0.000000
0.728267 0.411872 0.000000
0.749599 0.401312 0.018524
0.771115 0.392218 0.059907
0.793057 0.384741 0.078431
0.815427 0.378546 0.092866
0.838163 0.373632 0.106111
0.861234 0.369757 0.118410
0.884550 0.366979 0.130526
0.908171 0.365118 0.142061
0.932219 0.364385 0.153933
0.956664 0.364965 0.166690
0.981750 0.366857 0.179995
1.000000 0.370428 0.194553
1.000000 0.375830 0.210666
0.000000 0.501762 0.005371
0.000000 0.502037 0.000000
0.000000 0.502312 0.000000
0.000000 0.502922 0.000000
0.000000 0.503288 0.000000
0.000000 0.502190 0.000000
0.140902 0.500877 0.000000
0.214755 0.500237 0.000000
0.274998 0.499763 0.000000
0.331914 0.498268 0.000000
0.388769 0.494148 0.000000
0.441810 0.489418 0.000000
0.491646 0.484199 0.000000
0.535607 0.475288 0.000000
0.574609 0.465187 0.000000
0.618341 0.464149 0.000000
0.658198 0.461463 0.000000
0.693324 0.456764 0.000000
0.724086 0.450813 0.000000
0.751003 0.443885 0.060853
0.772396 0.433845 0.079011
0.794247 0.425330 0.093477
0.816403 0.418280 0.106661
0.838956 0.412421 0.118532
0.861814 0.407721 0.129702
0.884947 0.404089 0.140566
0.908385 0.401526 0.151644
0.932189 0.399969 0.163088
0.956512 0.399603 0.175021
0.981384 0.400793 0.187869
1.000000 0.403418 0.201907
1.000000 0.407904 0.217594
0.000000 0.538659 0.014374
0.000000 0.538933 0.000000
0.000000 0.539330 0.000000
0.000000 0.540093 0.000000
0.000000 0.541039 0.000000
0.000000 0.540490 0.000000
0.104219 0.539727 0.000000
0.193698 0.538872 0.000000
0.258396 0.537926 0.000000
0.315282 0.537072 0.000000
0.371862 0.534173 0.000000
0.426825 0.529595 0.000000
0.478035 0.524407 0.000000
0.526268 0.518517 0.000000
0.571527 0.511772 0.000000
0.603754 0.495766 0.000000
0.645045 0.493721 0.000000
0.681636 0.489662 0.000000
0.713802 0.483955 0.000000
0.742794 0.477913 0.050904
0.771267 0.473121 0.092073
0.795712 0.466102 0.110323
0.817838 0.458106 0.121675
0.840299 0.451514 0.132113
0.862974 0.446052 0.142458
0.885924 0.441566 0.152651
0.909148 0.438148 0.162814
0.932738 0.435859 0.173526
0.956847 0.434852 0.184848
0.981506 0.435187 0.197147
1.000000 0.437049 0.210880
1.000000 0.440620 0.226017
0.000000 0.575311 0.027771
0.000000 0.575586 0.004700
0.000000 0.575738 0.000000
0.000000 0.576104 0.000000
0.000000 0.576684 0.000000
0.000000 0.576440 0.000000
0.009674 0.575280 0.000000
0.168307 0.574182 0.000000
0.239353 0.573144 0.000000
0.298894 0.572076 0.000000
0.352911 0.571038 0.000000
0.409064 0.567041 0.000000
0.461891 0.562005 0.000000
0.511345 0.556420 0.000000
0.557916 0.549950 0.000000
0.601587 0.542748 0.000000
0.630396 0.524041 0.000000
0.668940 0.520928 0.000000
0.702785 0.515679 0.000000
0.732937 0.509697 0.009064
0.761807 0.504448 0.084199
0.790799 0.500786 0.113954
0.819394 0.498146 0.137209
0.841703 0.490578 0.147097
0.864286 0.484260 0.156283
0.887144 0.479133 0.165682
0.910307 0.475135 0.175296
0.933928 0.472297 0.185794
0.958007 0.470771 0.196658
0.982666 0.470558 0.208652
1.000000 0.471809 0.221988
1.000000 0.474800 0.237064
0.000000 0.608576 0.048371
0.000000 0.608789 0.026825
0.000000 0.608972 0.000000
0.000000 0.609277 0.000000
0.000000 0.609735 0.000000
0.000000 0.610101 0.000000
0.000000 0.609125 0.000000
0.138491 0.608148 0.000000
0.219211 0.607019 0.000000
0.281743 0.605798 0.000000
0.337346 0.604395 0.000000
0.389746 0.602472 0.000000
0.443915 0.597314 0.000000
0.494392 0.591547 0.000000
0.541650 0.585168 0.000000
0.586236 0.578271 0.000000
0.628382 0.570825 0.000000
0.654475 0.550134 0.000000
0.690517 0.545983 0.000000
0.722652 0.540368 0.000000
0.752224 0.534997 0.068574
0.781857 0.531151 0.107149
0.811429 0.528618 0.134463
0.840726 0.527092 0.157076
0.866636 0.523491 0.172244
0.889342 0.517601 0.180880
0.912352 0.512810 0.189822
0.935698 0.509331 0.199374
0.959503 0.506981 0.209842
0.983734 0.506004 0.221012
1.000000 0.506340 0.233677
1.000000 0.508385 0.247868
0.000000 0.638422 0.064088
0.000000 0.638575 0.053315
0.000000 0.638605 0.029297
0.000000 0.638849 0.000000
0.000000 0.639094 0.000000
0.000000 0.639765 0.000000
0.000000 0.638880 0.000000
0.099672 0.637751 0.000000
0.196689 0.636500 0.000000
0.263157 0.635218 0.000000
0.320073 0.633753 0.000000
0.372259 0.632166 0.000000
0.423804 0.629053 0.000000
0.475410 0.623621 0.000000
0.523735 0.617609 0.000000
0.568994 0.611017 0.000000
0.611933 0.603967 0.000000
0.652766 0.596674 0.000000
0.678065 0.576349 0.000000
0.710719 0.569696 0.000000
0.741543 0.563989 0.015534
0.771695 0.559869 0.093324
0.801816 0.557183 0.126436
0.831815 0.555657 0.152255
0.861357 0.554894 0.174624
0.890257 0.554833 0.195041
0.913695 0.550011 0.204410
0.936858 0.545830 0.213352
0.960449 0.542779 0.223087
0.984436 0.541131 0.233890
1.000000 0.540764 0.245853
1.000000 0.542077 0.259648
0.000000 0.665339 0.076753
0.000000 0.665522 0.070710
0.000000 0.671168 0.066712
0.000000 0.671199 0.031769
0.000000 0.671168 0.000000
0.000000 0.671473 0.000000
0.000000 0.670863 0.000000
0.029633 0.669490 0.000000
0.176242 0.667994 0.000000
0.247013 0.666438 0.000000
0.305608 0.664759 0.000000
0.358221 0.662806 0.000000
0.407263 0.660609 0.000000
0.457984 0.656123 0.000000
0.507073 0.650355 0.000000
0.553155 0.644099 0.000000
0.596857 0.637415 0.000000
0.638270 0.630396 0.000000
0.677790 0.623133 0.000000
0.702754 0.603662 0.000000
0.731899 0.594232 0.000153
0.763058 0.589654 0.078431
0.793881 0.586603 0.116670
0.824308 0.584894 0.146670
0.854276 0.583917 0.171420
0.883574 0.583581 0.193271
0.912139 0.583734 0.213230
0.938354 0.582635 0.228763
0.961456 0.578729 0.237491
0.985077 0.576226 0.247471
1.000000 0.575128 0.258824
1.000000 0.575586 0.271885
0.000000 0.690944 0.089784
0.000000 0.691646 0.086641
0.000000 0.692348 0.081086
0.000000 0.692988 0.068788
0.000000 0.693385 0.029999
0.000000 0.693751 0.000000
0.000000 0.693812 0.000000
0.000000 0.692531 0.000000
0.151278 0.691188 0.000000
0.227512 0.689723 0.000000
0.287968 0.688045 0.000000
0.341131 0.686183 0.000000
0.390265 0.684077 0.000000
0.436500 0.681666 0.000000
0.486183 0.676478 0.000000
0.532921 0.670680 0.000000
0.577142 0.664546 0.000000
0.619104 0.658106 0.000000
0.659236 0.651484 0.000000
0.697749 0.644678 0.000000
0.722927 0.626673 0.000000
0.750912 0.616510 0.067384
0.782895 0.613458 0.103395
0.814389 0.611597 0.134157
0.845182 0.610742 0.163272
0.875395 0.610590 0.187716
0.904906 0.610956 0.209751
0.933562 0.611872 0.230350
0.961486 0.613336 0.250248
0.985809 0.611414 0.262181
1.000000 0.609583 0.272801
1.000000 0.609308 0.285161
0.000000 0.712703 0.101900
0.000000 0.713283 0.099519
0.000000 0.713924 0.096193
0.000000 0.714382 0.088350
0.000000 0.714717 0.075227
0.000000 0.714900 0.010376
0.000000 0.715419 0.000000
0.000000 0.714321 0.000000
0.125154 0.713069 0.000000
0.209476 0.711696 0.000000
0.271519 0.710231 0.000000
0.325109 0.708614 0.000000
0.374365 0.706691 0.000000
0.420447 0.704585 0.000000
0.465888 0.701595 0.000000
0.513268 0.696254 0.000000
0.557977 0.690608 0.000000
0.600427 0.684688 0.000000
0.641016 0.678553 0.000000
0.680018 0.672297 0.000000
0.717494 0.665919 0.000000
0.743618 0.650141 0.053193
0.771023 0.639582 0.095460
0.803616 0.637873 0.125032
0.835660 0.636927 0.151095
0.866789 0.636927 0.179507
0.897124 0.637446 0.204013
0.926726 0.638514 0.226474
0.955444 0.640040 0.247868
0.983276 0.642115 0.268620
1.000000 0.643763 0.287114
1.000000 0.642634 0.298741
0.000000 0.734493 0.113771
0.000000 0.735073 0.112306
0.000000 0.735653 0.110109
0.000000 0.736172 0.104829
0.000000 0.736416 0.097078
0.000000 0.736355 0.086519
0.000000 0.736873 0.000000
0.000000 0.736416 0.000000
0.095857 0.735256 0.000000
0.191867 0.734005 0.000000
0.256077 0.732753 0.000000
0.310582 0.731258 0.000000
0.359808 0.729580 0.000000
0.405982 0.727718 0.000000
0.449805 0.725704 0.000000
0.494911 0.722164 0.000000
0.540429 0.717189 0.000000
0.583673 0.712001 0.000000
0.625055 0.706661 0.000000
0.664820 0.701198 0.000000
0.703151 0.695705 0.031525
0.740139 0.690028 0.065156
0.767300 0.676204 0.093080
0.794339 0.665278 0.121218
0.827695 0.664942 0.148074
0.860349 0.665126 0.171908
0.891752 0.665949 0.199527
0.922301 0.667292 0.224735
0.951904 0.669001 0.247959
0.980468 0.671199 0.270176
1.000000 0.673732 0.292027
1.000000 0.676875 0.313817
0.000000 0.759396 0.126558
0.000000 0.759670 0.125673
0.000000 0.759854 0.123995
0.000000 0.760006 0.120882
0.000000 0.760006 0.115816
0.000000 0.759823 0.110628
0.000000 0.760098 0.058350
0.000000 0.760189 0.000000
0.061524 0.759304 0.000000
0.176425 0.758328 0.000000
0.243320 0.757290 0.000000
0.298802 0.756069 0.000000
0.348272 0.754635 0.000000
0.394263 0.752987 0.000000
0.437995 0.751186 0.000000
0.479988 0.749172 0.000000
0.524804 0.745083 0.000000
0.568658 0.740230 0.000000
0.610468 0.735256 0.017884
0.650629 0.730129 0.054841
0.689296 0.724849 0.073274
0.726619 0.719448 0.087098
0.762661 0.713954 0.098909
0.790127 0.701350 0.118257
0.816312 0.689662 0.141054
0.850065 0.690425 0.166476
0.882994 0.691432 0.190127
0.914763 0.693019 0.216220
0.945373 0.695003 0.242161
0.974914 0.697353 0.266300
1.000000 0.700069 0.289708
1.000000 0.703334 0.313115
0.000000 0.782650 0.137789
0.000000 0.782956 0.137118
0.000000 0.783200 0.136233
0.000000 0.783291 0.134340
0.000000 0.783291 0.131807
0.000000 0.783047 0.129397
0.000000 0.783108 0.105562
0.000000 0.783627 0.000000
0.000000 0.782773 0.000000
0.160586 0.781888 0.000000
0.230594 0.780941 0.000000
0.286809 0.779843 0.000000
0.336645 0.778622 0.000000
0.382879 0.777188 0.000000
0.426429 0.775662 0.000000
0.468299 0.774014 0.001099
0.509178 0.772061 0.010986
0.553643 0.767727 0.047028
0.596124 0.763210 0.068605
0.636896 0.758602 0.081880
0.676173 0.753872 0.093996
0.714137 0.749050 0.105348
0.750820 0.744137 0.115999
0.786404 0.739071 0.125795
0.812924 0.726406 0.138674
0.838437 0.714107 0.158419
0.872648 0.715877 0.183902
0.905882 0.717800 0.207584
0.937835 0.719997 0.232761
0.968475 0.722652 0.259709
0.998047 0.725765 0.285100
1.000000 0.729305 0.310430
0.000000 0.808713 0.150301
0.000000 0.809018 0.150118
0.000000 0.809171 0.149660
0.000000 0.809140 0.148928
0.000000 0.808988 0.147860
0.000000 0.808621 0.147372
0.000000 0.808286 0.139223
0.000000 0.808682 0.086213
0.000000 0.808103 0.059937
0.147066 0.807065 0.060822
0.219821 0.805966 0.061799
0.276677 0.804837 0.063294
0.326696 0.803586 0.064973
0.372717 0.802182 0.066743
0.416052 0.800565 0.067689
0.457557 0.798825 0.069978
0.497749 0.797024 0.071839
0.538689 0.794461 0.077577
0.581659 0.790341 0.088594
0.622980 0.786191 0.099428
0.662867 0.781979 0.109743
0.701381 0.777646 0.119600
0.738613 0.773129 0.129305
0.774594 0.768399 0.138155
0.809323 0.763455 0.146670
0.837522 0.753201 0.158846
0.862943 0.740841 0.177096
0.896971 0.742885 0.202121
0.930205 0.745480 0.226566
0.962249 0.748165 0.251102
0.992950 0.751644 0.279423
1.000000 0.755489 0.306889
0.000000 0.833036 0.160616
0.000000 0.833341 0.160739
0.000000 0.833494 0.160708
0.000000 0.833433 0.160739
0.000000 0.833249 0.160861
0.000000 0.832883 0.162051
0.000000 0.832334 0.164370
0.000000 0.832822 0.126589
0.000000 0.832822 0.091249
0.133486 0.831998 0.092531
0.209506 0.831144 0.093080
0.267735 0.830198 0.094423
0.318059 0.829221 0.095613
0.364202 0.828031 0.096742
0.407568 0.826749 0.098207
0.448981 0.825284 0.099611
0.489052 0.823789 0.101259
0.528008 0.822293 0.103120
0.569390 0.819394 0.109651
0.611322 0.815640 0.118715
0.651728 0.811765 0.127535
0.690761 0.807889 0.136416
0.728573 0.803769 0.144686
0.765133 0.799527 0.153079
0.800595 0.795132 0.161105
0.835019 0.790555 0.168765
0.863981 0.781735 0.179507
0.889921 0.770474 0.197635
0.923095 0.771633 0.222324
0.956573 0.775082 0.248112
0.988769 0.778653 0.273960
1.000000 0.782742 0.303593
0.000000 0.858732 0.171389
0.000000 0.858915 0.171664
0.000000 0.858946 0.172000
0.000000 0.858824 0.172671
0.000000 0.858488 0.173831
0.000000 0.858030 0.176059
0.000000 0.857420 0.179782
0.000000 0.857572 0.157351
0.000000 0.858030 0.115511
0.119753 0.857328 0.116091
0.200595 0.856565 0.116915
0.259434 0.855833 0.118135
0.310216 0.854978 0.119020
0.356573 0.854002 0.120607
0.399817 0.852873 0.121431
0.441077 0.851621 0.122683
0.480964 0.850248 0.124056
0.519738 0.848905 0.125734
0.557702 0.847654 0.127535
0.599573 0.844480 0.134707
0.640528 0.841032 0.142550
0.680140 0.837461 0.150912
0.718441 0.833829 0.158694
0.755581 0.830045 0.166629
0.791623 0.826108 0.174289
0.826627 0.822019 0.182071
0.860777 0.817960 0.189670
0.891752 0.811582 0.198611
0.916838 0.800168 0.217685
0.949523 0.800687 0.242710
0.983062 0.804929 0.270146
1.000000 0.809201 0.298039
0.000000 0.884398 0.181582
0.000000 0.884459 0.181888
0.000000 0.884489 0.182406
0.000000 0.884398 0.183597
0.000000 0.884154 0.185672
0.000000 0.883879 0.189303
0.000000 0.883604 0.194827
0.000000 0.883909 0.184909
0.000000 0.885008 0.149477
0.113893 0.885161 0.140841
0.196719 0.884947 0.142550
0.256107 0.884733 0.143954
0.306981 0.884367 0.145785
0.353307 0.883818 0.147433
0.396582 0.883024 0.148928
0.437720 0.882048 0.149996
0.477455 0.880919 0.151431
0.515984 0.879789 0.152865
0.553826 0.878691 0.154696
0.591882 0.877317 0.157443
0.633356 0.874205 0.164706
0.673426 0.871031 0.172183
0.712276 0.867704 0.179385
0.749966 0.864286 0.186740
0.786557 0.860746 0.194186
0.822171 0.857115 0.201511
0.856992 0.853513 0.208896
0.891081 0.849912 0.216617
0.924193 0.846189 0.224552
0.948363 0.834470 0.244633
0.980438 0.834409 0.270359
1.000000 0.839139 0.299962
0.000000 0.913664 0.194156
0.000000 0.913725 0.194766
0.000000 0.913634 0.195712
0.000000 0.913420 0.197391
0.000000 0.913085 0.200381
0.000000 0.912627 0.204898
0.000000 0.912108 0.211398
0.000000 0.911833 0.211673
0.000000 0.912596 0.182773
0.110964 0.912963 0.163088
0.193393 0.912505 0.164096
0.252232 0.912078 0.165103
0.302678 0.911528 0.166323
0.348547 0.910887 0.167605
