data/fiter_cube/28334299/1023166/file.cube
# Created by Adobe Lightroom plugin Export LUT (1.17.0)
# www.johnrellis.com/lightroom/exportlut.htm
# Preset: 梦幻人像_05 云集
# Color profile: C:\Program Files (x86)\Common Files\Adobe\Color\Profiles\Recommended\AdobeRGB1998.icc
LUT_3D_SIZE 5
DOMAIN_MIN 0.000000 0.000000 0.000000
DOMAIN_MAX 0.903226 0.903226 0.903226
0.000000 0.000000 0.000000
0.281926 0.000000 0.000000
0.580468 0.000000 0.000000
0.777310 0.000000 0.000000
0.948577 0.000000 0.117067
0.000000 0.283238 0.000000
0.277043 0.272618 0.000000
0.590631 0.255741 0.000000
0.781216 0.214267 0.000000
0.953124 0.220829 0.136721
0.000000 0.575311 0.027771
0.168307 0.574182 0.000000
0.557916 0.549950 0.000000
0.790799 0.500786 0.113954
0.958007 0.470771 0.196658
0.000000 0.759396 0.126558
0.000000 0.760189 0.000000
0.437995 0.751186 0.000000
0.726619 0.719448 0.087098
0.945373 0.695003 0.242161
0.000000 0.940673 0.203677
0.021149 0.938506 0.234928
0.383978 0.934386 0.182559
0.653437 0.929320 0.200168
0.912566 0.911650 0.253910
0.000000 0.000000 0.227695
0.280247 0.000000 0.234928
0.574670 0.000000 0.216922
0.761105 0.000000 0.223880
0.937102 0.098787 0.250340
0.000000 0.268376 0.239933
0.271794 0.258885 0.236667
0.572229 0.239994 0.230808
0.765438 0.233005 0.236576
0.940032 0.250584 0.262303
0.000000 0.568139 0.248936
0.177462 0.567956 0.224033
0.553765 0.542809 0.207248
0.780850 0.509667 0.289403
0.949493 0.484596 0.308110
0.000000 0.755825 0.254246
0.127474 0.754574 0.256138
0.450813 0.747646 0.235050
0.726802 0.717739 0.247349
0.943877 0.701656 0.340612
0.000000 0.939574 0.273442
0.000000 0.937407 0.295293
0.407904 0.935271 0.291844
0.660029 0.930022 0.298283
0.914000 0.912139 0.328954
0.000000 0.000000 0.488411
0.286442 0.000000 0.490913
0.573693 0.000000 0.495888
0.767300 0.000000 0.438483
0.936645 0.000000 0.416571
0.000000 0.211673 0.499947
0.233341 0.184329 0.501457
0.575097 0.125856 0.500969
0.760006 0.198459 0.445991
0.932677 0.229313 0.430518
0.000000 0.547601 0.503838
0.166659 0.546288 0.504814
0.549096 0.526879 0.495430
0.741115 0.519341 0.493233
0.928405 0.507652 0.488136
0.000000 0.747250 0.457252
0.143526 0.743954 0.459510
0.497078 0.733913 0.479286
0.728267 0.713497 0.471382
0.942168 0.726864 0.542901
0.000000 0.933867 0.442512
0.000000 0.933471 0.447456
0.445777 0.929320 0.477485
0.673182 0.925200 0.475593
0.913176 0.908568 0.479713
0.068452 0.000000 0.672847
0.262882 0.000000 0.673579
0.506065 0.000000 0.676631
0.758480 0.000000 0.672938
0.947631 0.000000 0.627466
0.000000 0.125582 0.677546
0.211826 0.105531 0.677699
0.497719 0.000000 0.679133
0.755642 0.000000 0.673213
0.943572 0.000000 0.629480
0.000000 0.458564 0.679042
0.183841 0.459113 0.679561
0.497963 0.463142 0.678828
0.744411 0.453864 0.674281
0.933440 0.435218 0.641382
0.000000 0.723873 0.679866
0.120790 0.722133 0.679591
0.480781 0.716548 0.679316
0.722866 0.701320 0.671839
0.921996 0.691188 0.666316
0.000000 0.927611 0.646052
0.000000 0.926787 0.647578
0.400671 0.924773 0.653498
0.669734 0.921721 0.655909
0.913207 0.905394 0.642878
0.000000 0.000000 0.872313
0.191623 0.000000 0.872648
0.465858 0.000000 0.873808
0.707607 0.000000 0.875669
0.946105 0.000000 0.867369
0.000000 0.000000 0.874601
0.144961 0.000000 0.874968
0.443854 0.000000 0.875975
0.702083 0.000000 0.876890
0.944884 0.000000 0.868467
0.000000 0.379828 0.878477
0.000000 0.378882 0.878721
0.420996 0.367193 0.878843
0.692042 0.340032 0.878965
0.939940 0.300816 0.872404
0.000000 0.659876 0.880705
0.000000 0.658564 0.880919
0.386938 0.654688 0.881529
0.670436 0.640467 0.882383
0.931029 0.618494 0.879698
0.000000 0.918669 0.884764
0.000000 0.917998 0.885039
0.305364 0.915465 0.886168
0.626154 0.910918 0.887602
0.909453 0.898619 0.883879
