data/fiter_cube/81078425/1022773/file.cube
# Created by Adobe Lightroom plugin Export LUT (1.17.0)
# www.johnrellis.com/lightroom/exportlut.htm
# Preset: 旅拍情绪景观_07 云集视觉
# Color profile: C:\Program Files (x86)\Common Files\Adobe\Color\Profiles\Recommended\AdobeRGB1998.icc
LUT_3D_SIZE 5
DOMAIN_MIN 0.000000 0.000000 0.000000
DOMAIN_MAX 0.903226 0.903226 0.903226
0.108125 0.108125 0.108125
0.163088 0.121920 0.117403
0.423224 0.183780 0.135714
0.768307 0.325200 0.233799
0.951080 0.537530 0.477211
0.122896 0.133669 0.122347
0.174014 0.149996 0.123629
0.469215 0.242802 0.135409
0.789364 0.373968 0.249027
0.958373 0.570245 0.499733
0.164889 0.218204 0.162295
0.209934 0.233982 0.153384
0.513024 0.382483 0.178164
0.860929 0.534234 0.320012
0.969268 0.641962 0.535790
0.262028 0.418494 0.253300
0.315618 0.437751 0.238712
0.521935 0.516869 0.261082
0.834958 0.659632 0.430213
0.985168 0.755398 0.610681
0.462867 0.678950 0.451667
0.493202 0.687739 0.436500
0.623621 0.711635 0.402197
0.836515 0.785641 0.539025
0.961791 0.836027 0.699794
0.129671 0.147189 0.170901
0.185275 0.145083 0.183841
0.395880 0.221714 0.232212
0.731991 0.392187 0.369726
0.928466 0.593378 0.562676
0.152560 0.166567 0.171817
0.188998 0.188998 0.188998
0.443519 0.272801 0.250034
0.754421 0.431800 0.385168
0.934630 0.615564 0.575219
0.208194 0.242374 0.227298
0.235538 0.287358 0.233066
0.506188 0.408789 0.287297
0.824979 0.567681 0.447883
0.952544 0.687282 0.618555
0.325933 0.450294 0.358221
0.350256 0.480598 0.343786
0.533227 0.546502 0.350256
0.825223 0.685725 0.522118
0.971923 0.787747 0.685298
0.511589 0.690242 0.533165
0.519768 0.700557 0.511040
0.631922 0.728634 0.467292
0.840696 0.803464 0.594354
0.957183 0.852262 0.742824
0.194797 0.322484 0.448280
0.266758 0.342931 0.468635
0.475563 0.285954 0.470619
0.688136 0.472328 0.518608
0.886870 0.698909 0.707851
0.256077 0.360510 0.450294
0.310979 0.380957 0.467720
0.476844 0.342718 0.472786
0.686397 0.516136 0.543267
0.895567 0.714046 0.717128
0.336919 0.409155 0.434089
0.377752 0.428840 0.447303
0.483406 0.483406 0.483406
0.753719 0.634394 0.622034
0.919036 0.764065 0.747829
0.477760 0.485725 0.484840
0.493263 0.516320 0.511681
0.551629 0.607111 0.549248
0.803647 0.737575 0.671656
0.945892 0.841001 0.799496
0.616388 0.699001 0.662409
0.627405 0.715511 0.668910
0.650568 0.758236 0.645808
0.817838 0.816587 0.683009
0.945556 0.879942 0.815671
0.485206 0.597131 0.735317
0.525841 0.613977 0.743221
0.602594 0.618830 0.747982
0.731289 0.545098 0.725826
0.879454 0.720821 0.768063
0.513085 0.615229 0.731716
0.543328 0.626978 0.737392
0.610986 0.637018 0.746670
0.728145 0.567041 0.723171
0.877287 0.732784 0.772519
0.553185 0.645655 0.719295
0.577264 0.655482 0.724086
0.643397 0.682643 0.739925
0.723293 0.629999 0.720333
0.878416 0.780880 0.798581
0.615534 0.684291 0.709621
0.630152 0.689845 0.712093
0.677546 0.712001 0.725277
0.739925 0.739864 0.739895
0.916320 0.859648 0.854246
0.734066 0.755093 0.755215
0.744167 0.759335 0.759152
0.770626 0.777218 0.776364
0.789914 0.830320 0.788266
0.937346 0.908263 0.881163
0.752407 0.808896 0.889830
0.766354 0.815610 0.891752
0.808530 0.837095 0.899443
0.828489 0.818906 0.898039
0.895720 0.783963 0.892149
0.754604 0.811276 0.887877
0.767788 0.817594 0.889860
0.808347 0.838071 0.897642
0.830808 0.825406 0.897337
0.895018 0.789425 0.891661
0.763210 0.821408 0.884977
0.771633 0.825010 0.886595
0.808164 0.842618 0.894011
0.845609 0.851926 0.900298
0.895872 0.811032 0.893126
0.792752 0.845274 0.884337
0.798459 0.847623 0.885466
0.820157 0.858030 0.891966
0.862730 0.880125 0.906859
0.900084 0.849882 0.898405
0.826169 0.867216 0.883024
0.830014 0.868894 0.883909
0.846555 0.877348 0.889311
0.873289 0.891112 0.898100
0.904814 0.904814 0.904814
