data/fiter_cube/81078425/1022773/file.cube
# Created by Adobe Lightroom plugin Export LUT (1.17.0)
# www.johnrellis.com/lightroom/exportlut.htm
# Preset: 旅拍情绪景观_07 云集视觉
# Color profile: C:\Program Files (x86)\Common Files\Adobe\Color\Profiles\Recommended\AdobeRGB1998.icc
LUT_3D_SIZE 32
DOMAIN_MIN 0.0 0.0 0.0
DOMAIN_MAX 1.0 1.0 1.0
0.108125 0.108125 0.108125
0.110109 0.108736 0.108461
0.112795 0.109224 0.109010
0.118898 0.110719 0.109834
0.127321 0.113008 0.111513
0.136812 0.115785 0.113527
0.148592 0.118471 0.115389
0.163088 0.121920 0.117403
0.181827 0.126192 0.119448
0.205264 0.131502 0.121767
0.235080 0.138033 0.124361
0.272557 0.146273 0.126833
0.318029 0.156710 0.129427
0.369360 0.169345 0.132265
0.423224 0.183780 0.135714
0.476448 0.198978 0.140536
0.528893 0.215763 0.147036
0.580072 0.233341 0.155550
0.628412 0.251682 0.167117
0.673732 0.271519 0.182040
0.721920 0.296208 0.204105
0.768307 0.325200 0.233799
0.808103 0.354986 0.266117
0.842130 0.385168 0.300328
0.871244 0.415137 0.334630
0.895964 0.445014 0.369268
0.917144 0.475196 0.404517
0.935332 0.506035 0.440497
0.951080 0.537530 0.477211
0.964569 0.569757 0.514519
0.976165 0.601373 0.550988
0.986206 0.631495 0.585534
0.108644 0.109224 0.108675
0.110506 0.109377 0.108614
0.113466 0.110048 0.108919
0.119753 0.111482 0.109743
0.128115 0.113771 0.111452
0.137545 0.116518 0.113436
0.149081 0.119234 0.115297
0.163516 0.122652 0.117311
0.181735 0.127016 0.119570
0.205203 0.132082 0.121736
0.234714 0.138674 0.124117
0.271641 0.146944 0.126650
0.316442 0.157473 0.129122
0.367224 0.170108 0.132021
0.420264 0.184085 0.135653
0.473396 0.199588 0.140322
0.525322 0.215824 0.146548
0.576165 0.233280 0.155062
0.624720 0.251591 0.166140
0.670497 0.271244 0.180575
0.718288 0.295415 0.202060
0.763973 0.323186 0.230381
0.803525 0.352026 0.261845
0.837949 0.381567 0.295079
0.867491 0.411322 0.329015
0.892821 0.440986 0.363684
0.914519 0.471168 0.399176
0.933349 0.502129 0.435187
0.949462 0.533928 0.472480
0.963378 0.566155 0.509972
0.975219 0.598138 0.547021
0.985473 0.628473 0.581750
0.109377 0.110475 0.109438
0.110964 0.110933 0.109133
0.113680 0.111391 0.109468
0.120729 0.112917 0.109804
0.128817 0.114961 0.111513
0.138399 0.117647 0.113527
0.149874 0.120333 0.115175
0.164248 0.123720 0.117189
0.182528 0.127993 0.119448
0.205844 0.133211 0.121767
0.235142 0.139956 0.124178
0.271824 0.148379 0.126497
0.316411 0.158999 0.129305
0.366949 0.171603 0.132052
0.420020 0.185855 0.135470
0.472694 0.201083 0.140200
0.524437 0.217288 0.146456
0.575158 0.234714 0.154696
0.623804 0.252842 0.165560
0.669398 0.272435 0.179721
0.717159 0.296178 0.201358
0.762509 0.323430 0.228885
0.801816 0.351843 0.260105
0.836210 0.380987 0.292973
0.865751 0.410254 0.326940
0.891264 0.439734 0.361395
0.913359 0.469886 0.396551
0.932433 0.500786 0.432746
0.948821 0.532464 0.469947
0.962829 0.564843 0.507805
0.974853 0.596796 0.544823
0.985168 0.627222 0.579828
0.111177 0.113802 0.111055
0.113008 0.114443 0.110536
0.114931 0.114778 0.110658
0.120577 0.115816 0.111055
0.131197 0.118257 0.111391
0.140688 0.120424 0.113222
0.152499 0.122927 0.115053
0.166903 0.126314 0.117067
0.185245 0.130800 0.119478
0.208530 0.136324 0.121736
0.238163 0.143221 0.124056
0.274998 0.151980 0.126467
0.319554 0.163058 0.129000
0.369482 0.175875 0.132052
0.421942 0.190341 0.135225
0.474037 0.205539 0.140139
0.525628 0.221775 0.146181
0.575525 0.238560 0.154574
0.623529 0.256596 0.165347
0.668757 0.275578 0.179385
0.715999 0.298802 0.200504
0.760037 0.324804 0.227268
0.799222 0.352575 0.257633
0.834104 0.381415 0.290410
0.864561 0.411017 0.325017
0.890898 0.441138 0.360601
0.913481 0.471565 0.396521
0.932738 0.502708 0.433295
0.949035 0.534417 0.470893
0.962982 0.566278 0.508171
0.974853 0.597620 0.544701
0.985046 0.627375 0.579126
0.113436 0.117800 0.113436
0.114717 0.118257 0.112947
0.116945 0.118776 0.112612
0.120699 0.118990 0.112917
0.129549 0.121462 0.113497
0.143008 0.124697 0.113588
0.156039 0.127413 0.114931
0.170504 0.130770 0.117098
0.189151 0.135256 0.119265
0.212619 0.141115 0.121462
0.242283 0.148501 0.123842
0.279271 0.157748 0.126497
0.323583 0.169192 0.129091
0.373602 0.182620 0.131746
0.425666 0.197208 0.135012
0.477729 0.212711 0.139925
0.529351 0.229221 0.146090
0.579187 0.246067 0.154788
0.627070 0.263859 0.165469
0.671473 0.282292 0.179904
0.718410 0.305303 0.201785
0.761440 0.330510 0.227756
0.799771 0.357122 0.257572
0.834165 0.385351 0.290715
0.864530 0.414313 0.324834
0.890898 0.444007 0.360327
0.913420 0.474128 0.396582
0.932616 0.504601 0.432868
0.948974 0.535729 0.470008
0.962860 0.567254 0.507347
0.974701 0.598413 0.543999
0.984955 0.627893 0.578332
0.115999 0.122377 0.115846
0.117189 0.122835 0.115572
0.119173 0.123354 0.115053
0.122835 0.123995 0.115114
0.127108 0.123659 0.115633
0.140230 0.128115 0.116060
0.158053 0.133455 0.116152
0.176761 0.138064 0.116945
0.195834 0.142519 0.119234
0.220127 0.148745 0.121645
0.250217 0.156649 0.124025
0.288090 0.166690 0.126558
0.332616 0.178866 0.129000
0.382391 0.192630 0.131777
0.434150 0.207675 0.135103
0.485817 0.223423 0.139925
0.536645 0.239628 0.146944
0.586175 0.256596 0.155215
0.633204 0.273991 0.166903
0.678279 0.292790 0.182071
0.724514 0.315740 0.204196
0.766445 0.340124 0.231449
0.834379 0.393622 0.293431
0.865293 0.423255 0.329351
0.890990 0.452125 0.364721
0.912352 0.480385 0.399268
0.930327 0.508659 0.433845
0.945678 0.536980 0.468208
0.958923 0.565637 0.502647
0.970306 0.594293 0.536828
0.980346 0.621424 0.568780
0.989014 0.647242 0.598993
0.119326 0.127810 0.119112
0.120272 0.128267 0.118837
0.121889 0.129000 0.118318
0.125765 0.129976 0.117739
0.131228 0.130800 0.118288
0.137240 0.131075 0.119478
0.155734 0.138186 0.119753
0.180758 0.146609 0.119692
0.210178 0.155581 0.119478
0.236606 0.162539 0.121920
0.270176 0.171725 0.124422
0.311192 0.183413 0.126345
0.357153 0.196597 0.129122
0.407172 0.211276 0.131716
0.457008 0.225986 0.135714
0.506798 0.241550 0.140871
0.555749 0.257145 0.148257
0.603662 0.273503 0.157900
0.648798 0.290440 0.170321
0.695399 0.310643 0.188907
0.742702 0.335210 0.214694
0.786191 0.362524 0.246769
0.825528 0.392157 0.283024
0.859831 0.422919 0.321111
0.888121 0.453559 0.359808
0.910918 0.482765 0.396429
0.929595 0.511223 0.431830
0.945129 0.539300 0.466712
0.958526 0.567346 0.500908
0.969970 0.595300 0.534752
0.980011 0.621912 0.566644
0.988739 0.647364 0.596704
0.122896 0.133669 0.122347
0.123781 0.134096 0.122103
0.125093 0.134829 0.121798
0.128664 0.135958 0.120821
0.134005 0.137118 0.120943
0.140993 0.138460 0.121584
0.150149 0.140017 0.123232
0.174014 0.149996 0.123629
0.206577 0.162203 0.123354
0.246891 0.176577 0.122286
0.284031 0.187716 0.123873
0.325658 0.199924 0.125917
0.371923 0.213779 0.128206
0.420630 0.228275 0.131075
0.469215 0.242802 0.135409
0.517815 0.257816 0.140902
0.565667 0.273259 0.148440
0.612390 0.288914 0.158450
0.656153 0.305180 0.171359
0.702998 0.325383 0.191806
0.747860 0.348608 0.217502
0.789364 0.373968 0.249027
0.827420 0.402106 0.284276
0.860472 0.431128 0.321904
0.888273 0.460212 0.359594
0.910826 0.488289 0.396063
0.929442 0.515526 0.430762
0.944945 0.542718 0.465400
0.958373 0.570245 0.499733
0.969818 0.597528 0.533532
0.979858 0.623804 0.565393
0.988617 0.648768 0.595453
0.126986 0.140871 0.126436
0.127840 0.141268 0.126192
0.129091 0.141970 0.125917
0.132296 0.143252 0.124971
0.137911 0.144778 0.124483
0.144808 0.146365 0.125032
0.152773 0.147646 0.125948
0.166964 0.151888 0.127596
0.197879 0.165530 0.127993
0.240238 0.183017 0.127626
0.292790 0.203647 0.125490
0.345220 0.222080 0.124575
0.391272 0.235996 0.126741
0.438453 0.249882 0.130434
0.486091 0.264378 0.134737
0.533165 0.278538 0.140780
0.579644 0.293126 0.149142
0.624811 0.308202 0.159701
0.668788 0.324407 0.174929
0.713466 0.343633 0.195682
0.755825 0.365209 0.221836
0.795377 0.389166 0.253452
0.831693 0.415412 0.288273
0.863554 0.442756 0.324987
0.890318 0.470283 0.362219
0.912230 0.496681 0.397772
0.930327 0.523003 0.432715
0.945586 0.549126 0.466926
0.958801 0.575433 0.500633
0.970062 0.601923 0.534112
0.980072 0.627100 0.565332
0.988739 0.651240 0.594842
0.131594 0.149355 0.130922
0.132387 0.149874 0.130678
0.133639 0.150546 0.130220
0.136660 0.151736 0.129488
0.142580 0.153597 0.128054
0.149508 0.155306 0.128756
0.158389 0.157717 0.129458
0.166873 0.158206 0.130892
0.189120 0.167422 0.132753
0.228428 0.185611 0.132876
0.282933 0.209812 0.131930
0.346471 0.236301 0.128511
0.411658 0.261845 0.124971
0.458442 0.275486 0.128389
0.504997 0.288975 0.133883
0.551537 0.302983 0.140688
0.597375 0.316991 0.149813
0.640803 0.331060 0.161807
0.685451 0.347875 0.179629
0.726925 0.365515 0.201968
0.766354 0.385290 0.228397
0.803067 0.407050 0.259068
0.836637 0.430549 0.292576
0.866056 0.455177 0.328283
0.891661 0.480201 0.363439
0.912902 0.505089 0.398535
0.930846 0.530175 0.433082
0.946136 0.555535 0.467353
0.959350 0.581537 0.501701
0.970703 0.607355 0.535119
0.980621 0.632288 0.566857
0.989258 0.655970 0.596429
0.136599 0.158999 0.135866
0.137575 0.159487 0.135622
0.138582 0.160098 0.135042
0.141665 0.161501 0.134127
0.147250 0.163363 0.133089
0.154910 0.165743 0.132448
0.164157 0.168399 0.133394
0.175692 0.171878 0.134493
0.185733 0.172274 0.136446
0.217807 0.187503 0.138552
0.268437 0.212009 0.138125
0.335698 0.243473 0.136172
0.405951 0.274052 0.131991
0.479225 0.304326 0.126955
0.526635 0.318303 0.131655
0.571313 0.330602 0.140383
0.615167 0.343236 0.150484
0.659144 0.357610 0.165469
0.700160 0.372290 0.184573
0.739132 0.388220 0.207340
0.776028 0.406439 0.234684
0.810819 0.426276 0.265263
0.842832 0.448188 0.299077
0.870970 0.471138 0.334264
0.895232 0.494453 0.369268
0.915587 0.517540 0.403143
0.932708 0.540887 0.437049
0.947478 0.564782 0.470497
0.960204 0.589319 0.504204
0.971344 0.613733 0.536797
0.981109 0.637568 0.567926
0.989624 0.660365 0.597101
0.142367 0.170535 0.141146
0.143252 0.170962 0.141085
0.144564 0.171633 0.140658
0.147494 0.172915 0.139803
0.152804 0.175051 0.138430
0.161440 0.177737 0.136690
0.170932 0.180728 0.137728
0.182681 0.184848 0.138827
0.197482 0.189395 0.140169
0.212070 0.191684 0.143313
0.255344 0.213779 0.144839
0.318456 0.245670 0.143893
0.416205 0.296178 0.143252
0.490822 0.329076 0.140261
0.564263 0.359442 0.137331
0.617243 0.376593 0.144045
0.661830 0.389563 0.160616
0.703822 0.403082 0.181338
0.741176 0.416388 0.205753
0.776059 0.431220 0.233860
0.808865 0.447700 0.263645
0.838987 0.465858 0.296025
0.865690 0.484810 0.329198
0.889281 0.504906 0.362463
0.909392 0.525078 0.395483
0.926482 0.545708 0.428138
0.941131 0.566552 0.459846
0.953857 0.587762 0.491127
0.965026 0.609583 0.522087
0.974945 0.631159 0.551873
0.983703 0.652216 0.580194
0.991577 0.672633 0.607019
0.149905 0.186313 0.148348
0.150790 0.186709 0.148135
0.152255 0.187167 0.147585
0.155184 0.188540 0.146578
0.160433 0.190463 0.144991
0.168917 0.193088 0.143008
0.179690 0.196414 0.142580
0.192172 0.200717 0.143801
0.207675 0.206271 0.145174
0.224369 0.211093 0.147433
0.248661 0.218814 0.152102
0.309117 0.251682 0.152834
0.386175 0.292027 0.152102
0.470069 0.333288 0.151217
0.545586 0.366888 0.150668
0.623407 0.401007 0.153292
0.684504 0.424598 0.165408
0.721645 0.434638 0.187594
0.755459 0.445167 0.213077
0.787259 0.457191 0.241154
0.817624 0.471290 0.271031
0.845548 0.486824 0.302831
0.870573 0.503685 0.335241
0.892699 0.521233 0.367559
0.911772 0.539361 0.399634
0.928222 0.558099 0.431128
0.942443 0.577264 0.462196
0.954833 0.597253 0.493172
0.965728 0.617670 0.523674
0.975463 0.638239 0.553368
0.984192 0.658228 0.581170
0.991974 0.677882 0.607721
0.156954 0.201114 0.155093
0.157992 0.201572 0.154574
0.159304 0.202213 0.154177
0.162295 0.203464 0.153079
0.167697 0.205478 0.151522
0.175937 0.208194 0.149294
0.187778 0.211704 0.147250
0.200565 0.216464 0.148470
0.216464 0.222477 0.150088
0.236118 0.230167 0.151949
0.254520 0.234623 0.155001
0.292058 0.250645 0.160616
0.363867 0.290715 0.161227
0.444556 0.333013 0.161654
0.533715 0.378180 0.165042
0.612848 0.414771 0.170504
0.680598 0.443854 0.180270
0.738613 0.467628 0.195377
0.769314 0.475380 0.221286
0.798703 0.484810 0.249577
0.826902 0.496529 0.279789
0.853025 0.509911 0.311223
0.876463 0.524346 0.342840
0.897337 0.539971 0.374517
0.915343 0.556237 0.406134
0.931029 0.573144 0.436957
0.944640 0.590723 0.467414
0.956512 0.609186 0.497963
0.967102 0.628199 0.527825
0.976593 0.647333 0.556634
0.985077 0.666285 0.584131
0.992645 0.684871 0.610285
0.164889 0.218204 0.162295
0.165805 0.218723 0.161929
0.167239 0.219303 0.161440
0.170474 0.220676 0.160342
0.175845 0.222782 0.158816
0.184054 0.225498 0.156558
0.195865 0.229221 0.153811
0.209934 0.233982 0.153384
0.226474 0.240818 0.154971
0.246860 0.249149 0.156924
0.271275 0.259434 0.159457
0.291142 0.262852 0.163851
0.343999 0.289342 0.170291
0.425879 0.335882 0.172763
0.513024 0.382483 0.178164
0.598230 0.425422 0.186496
0.667506 0.456825 0.198611
0.725734 0.481544 0.214084
0.777523 0.503136 0.232609
0.811063 0.514397 0.259220
0.836881 0.523461 0.288914
0.860929 0.534234 0.320012
0.882719 0.546349 0.350866
0.902220 0.559747 0.381964
0.919158 0.574121 0.413214
0.934112 0.589624 0.444251
0.947295 0.606165 0.475013
0.958923 0.623835 0.505882
0.969268 0.641962 0.535790
0.978576 0.660182 0.564446
0.986755 0.678340 0.591974
0.994049 0.695979 0.617700
0.173526 0.237705 0.170565
0.174685 0.238346 0.170199
0.176150 0.239017 0.169680
0.179446 0.240421 0.168643
0.185061 0.242710 0.166903
0.193698 0.245975 0.164736
0.205814 0.249882 0.161654
0.221439 0.255131 0.159091
0.238895 0.262608 0.160891
0.259739 0.271641 0.162997
0.284855 0.282383 0.165377
0.313237 0.293950 0.168399
0.340032 0.300755 0.175692
0.407935 0.337560 0.184573
0.490700 0.383948 0.190005
0.573419 0.427497 0.199344
0.649561 0.465400 0.213382
0.710903 0.493111 0.230869
0.764309 0.516350 0.250919
0.812436 0.537804 0.274266
0.848386 0.553002 0.301579
0.870817 0.561852 0.333165
0.890959 0.571893 0.364294
0.908995 0.583368 0.394781
0.924895 0.596094 0.425727
0.938842 0.609979 0.456519
0.951202 0.624872 0.486641
0.962036 0.641047 0.516930
0.971771 0.657343 0.545678
0.980499 0.673610 0.572778
0.988251 0.689693 0.598352
0.995056 0.705684 0.622950
0.183108 0.259098 0.179355
0.184268 0.259586 0.178775
0.185702 0.260349 0.178500
0.189212 0.261906 0.177218
0.195041 0.264317 0.175631
0.203708 0.267613 0.173190
0.215976 0.271946 0.170108
0.232212 0.276982 0.166293
0.250401 0.284337 0.166690
0.271794 0.293706 0.168978
0.298528 0.306432 0.171908
0.330327 0.321508 0.175601
0.361822 0.333684 0.181216
0.397375 0.345068 0.191196
0.468971 0.384131 0.202029
0.549340 0.428595 0.211398
0.626154 0.468727 0.225895
0.693141 0.501701 0.245548
0.749294 0.527672 0.266911
0.798581 0.550164 0.290684
0.842588 0.570703 0.316289
0.878904 0.588098 0.343389
0.897490 0.595941 0.374060
0.914153 0.605493 0.405066
0.929076 0.616327 0.435584
0.942290 0.628534 0.465827
0.954009 0.642054 0.495857
0.964446 0.656611 0.525322
0.973785 0.671412 0.553277
0.982147 0.686305 0.579706
0.989532 0.701137 0.604822
0.996124 0.715877 0.628534
0.193729 0.283543 0.189303
0.195102 0.284245 0.188846
0.200290 0.292576 0.191745
0.204105 0.294224 0.190280
0.210422 0.296696 0.188418
0.219547 0.299840 0.185611
0.232273 0.303899 0.182101
0.248905 0.308934 0.177951
0.270878 0.317815 0.175723
0.295445 0.330114 0.178897
0.324010 0.344091 0.182956
0.356909 0.359716 0.187686
0.393469 0.376410 0.193088
0.423621 0.384588 0.201999
0.466804 0.399847 0.217288
0.540856 0.440864 0.232151
0.618097 0.483162 0.247379
0.684901 0.517571 0.268559
0.743557 0.546502 0.292576
0.793851 0.570397 0.317266
0.837400 0.590967 0.342931
0.874876 0.609369 0.369390
0.905882 0.625513 0.396979
0.923064 0.634211 0.425788
0.935912 0.642054 0.453590
0.947326 0.651453 0.481788
0.957702 0.661982 0.508843
0.967163 0.673610 0.535576
0.975860 0.686122 0.561547
0.983734 0.699336 0.586938
0.990814 0.712642 0.610895
0.997040 0.725856 0.633539
0.206851 0.312535 0.201175
0.208621 0.314214 0.201297
0.211032 0.316381 0.201236
0.215702 0.319585 0.200778
0.223056 0.323644 0.199435
0.233341 0.328405 0.197116
0.246952 0.333715 0.194125
0.264439 0.339879 0.190249
0.286564 0.347173 0.185367
0.310796 0.358160 0.187411
0.338933 0.371466 0.191623
0.370703 0.386053 0.196597
0.405768 0.401709 0.202609
0.444007 0.418311 0.209812
0.469612 0.420996 0.221408
0.518578 0.440162 0.241428
0.593317 0.482582 0.258305
0.662531 0.519799 0.277745
0.723384 0.551171 0.301884
0.776852 0.578027 0.328161
0.823056 0.600763 0.354742
0.862760 0.620691 0.382361
0.895598 0.638025 0.410437
0.922484 0.653346 0.438392
0.940185 0.663844 0.465705
0.950988 0.671626 0.493202
0.960784 0.680537 0.519677
0.969665 0.690669 0.545892
0.977935 0.701534 0.570611
0.985412 0.713008 0.594751
0.992065 0.724849 0.617792
0.997986 0.736690 0.639521
0.222049 0.345129 0.215427
0.224338 0.347143 0.215640
0.226841 0.349493 0.215702
0.231693 0.352667 0.215396
0.239261 0.356542 0.213931
0.249485 0.360876 0.211582
0.263035 0.365637 0.207950
0.279942 0.371160 0.203891
0.301396 0.377569 0.198550
0.326116 0.386206 0.196292
0.353521 0.398962 0.201205
0.384466 0.412970 0.206790
0.418280 0.427771 0.213260
0.455207 0.443580 0.221012
0.491493 0.457130 0.230625
0.515648 0.457252 0.244663
0.571038 0.481941 0.269627
0.642420 0.522698 0.289281
0.704921 0.556085 0.311925
0.760342 0.585016 0.338781
0.808865 0.609857 0.366278
0.850462 0.631342 0.394720
0.885313 0.649989 0.423529
0.913603 0.666224 0.452491
0.936706 0.680415 0.479774
0.954467 0.692348 0.505821
0.963653 0.699428 0.531060
0.972076 0.707546 0.555505
0.979797 0.716762 0.579461
0.986877 0.726528 0.602228
0.993225 0.736782 0.624079
0.998810 0.747189 0.644831
0.238834 0.378058 0.231235
0.241032 0.380194 0.231479
0.243870 0.382666 0.231998
0.248997 0.385809 0.231388
0.256504 0.389502 0.229984
0.266606 0.393439 0.227512
0.279576 0.397650 0.223484
0.296056 0.402533 0.219089
0.316442 0.408057 0.213565
0.340826 0.414466 0.207095
0.367498 0.426032 0.211337
0.397650 0.439338 0.217380
0.430488 0.453559 0.224704
0.466285 0.468818 0.233219
0.504662 0.484810 0.242741
0.537499 0.494545 0.255619
0.566918 0.498329 0.273777
0.625666 0.526970 0.302678
0.691310 0.564477 0.327825
0.749722 0.596582 0.355138
0.800839 0.624353 0.385321
0.844175 0.647852 0.415991
0.879667 0.667659 0.446662
0.908965 0.685115 0.477211
0.932586 0.700404 0.506371
0.951904 0.713680 0.532769
0.968048 0.725368 0.556481
0.976623 0.732357 0.578729
0.983520 0.739559 0.600458
0.989776 0.747433 0.621332
0.995300 0.755764 0.641230
1.000000 0.764126 0.659754
0.262028 0.418494 0.253300
0.263859 0.419928 0.253361
0.266331 0.421393 0.253391
0.270726 0.423468 0.252140
0.277531 0.426093 0.250248
0.287266 0.429267 0.247166
0.299687 0.433204 0.243473
0.315618 0.437751 0.238712
0.335576 0.443153 0.232914
0.359167 0.449378 0.226291
0.386633 0.458839 0.225650
0.416663 0.472175 0.232822
0.449287 0.486305 0.241245
0.484504 0.501183 0.250584
0.521935 0.516869 0.261082
0.561669 0.533196 0.273014
0.590265 0.538201 0.289220
0.624079 0.545556 0.312810
0.679347 0.572992 0.344152
0.738735 0.606897 0.371679
0.790829 0.635370 0.399908
0.834958 0.659632 0.430213
0.870878 0.679438 0.460151
0.899748 0.695888 0.488899
0.924437 0.711543 0.518242
0.944854 0.725154 0.544915
0.961822 0.737026 0.568566
0.976043 0.747646 0.590112
0.985168 0.755398 0.610681
0.991058 0.761624 0.630121
0.996246 0.768460 0.648890
1.000000 0.775265 0.666041
0.282963 0.452338 0.273930
0.285100 0.453712 0.274174
0.287327 0.455299 0.273930
0.291997 0.457343 0.273045
0.298466 0.459876 0.270817
0.307347 0.462562 0.267674
0.319127 0.465919 0.263584
0.333989 0.469917 0.258640
0.352667 0.474739 0.252567
0.375128 0.480385 0.245823
0.401465 0.486793 0.238437
0.430823 0.499611 0.246220
0.462684 0.513329 0.255039
0.497230 0.528008 0.265141
0.533898 0.543389 0.276371
0.572290 0.559197 0.289220
0.612055 0.575219 0.303471
0.635157 0.575006 0.323095
0.672297 0.585748 0.352209
0.725856 0.613977 0.384619
0.779965 0.645106 0.414557
0.826352 0.671015 0.444251
0.864012 0.692531 0.475776
0.893706 0.709834 0.505669
0.915160 0.719753 0.525597
0.936828 0.733730 0.552209
0.954864 0.746212 0.576989
0.969970 0.757198 0.599176
0.982544 0.766903 0.619104
0.992004 0.774685 0.637079
0.997009 0.780117 0.654810
1.000000 0.785916 0.671473
0.311559 0.493904 0.301549
0.313695 0.495613 0.301884
0.315892 0.496864 0.302037
0.319982 0.498451 0.300572
0.325780 0.500328 0.297978
0.333776 0.502464 0.294560
0.344366 0.505058 0.290074
0.357855 0.508080 0.284245
0.375036 0.511803 0.277440
0.395575 0.516197 0.270207
0.419928 0.521019 0.261387
0.447883 0.530175 0.262333
0.478706 0.543023 0.271366
0.511589 0.556329 0.281468
0.545983 0.569970 0.292699
0.581689 0.583612 0.305303
0.618647 0.597559 0.319066
0.652125 0.607874 0.335485
0.674098 0.606744 0.356054
0.713954 0.621088 0.389776
0.765652 0.649775 0.422919
0.814328 0.678157 0.454047
0.854276 0.700862 0.484321
0.885435 0.718807 0.514000
0.909911 0.732937 0.540612
0.929870 0.744198 0.563592
0.948608 0.756771 0.588220
0.964294 0.767666 0.610285
0.977447 0.777279 0.629969
0.988373 0.785763 0.647730
0.997498 0.792721 0.662684
1.000000 0.797269 0.677913
0.335424 0.527794 0.325048
0.337560 0.529412 0.325414
0.339666 0.530755 0.325444
0.343359 0.532189 0.324132
0.348913 0.533928 0.321569
0.356542 0.536004 0.318059
0.366674 0.538598 0.313725
0.379431 0.541588 0.308171
0.395575 0.545312 0.301701
0.415320 0.549767 0.294560
0.438453 0.554650 0.286290
0.465339 0.560876 0.279423
0.495766 0.573388 0.289433
0.527855 0.586175 0.300603
0.561242 0.599176 0.313024
0.595789 0.612238 0.326390
0.631556 0.625666 0.341009
0.668421 0.639643 0.356847
0.697200 0.645930 0.376440
0.718776 0.644862 0.399115
0.759457 0.661830 0.437537
0.807553 0.689906 0.470802
0.848783 0.714137 0.502068
0.881132 0.732662 0.530785
0.906493 0.747280 0.557641
0.926696 0.758785 0.580987
0.943145 0.768154 0.601373
0.959350 0.779355 0.623926
0.972900 0.789242 0.644160
0.984161 0.797818 0.662165
0.993500 0.804929 0.677455
1.000000 0.810422 0.689754
0.363165 0.565362 0.352178
0.365118 0.566613 0.352483
0.366827 0.567407 0.352178
0.369940 0.568475 0.350683
0.374762 0.569665 0.347875
0.381598 0.571221 0.344152
0.390600 0.573175 0.339422
0.402472 0.575830 0.333928
0.417456 0.579095 0.327916
0.435676 0.583093 0.320897
0.457374 0.587579 0.312810
0.482765 0.592523 0.303899
0.511711 0.602075 0.308049
0.542809 0.614252 0.319951
0.575006 0.626398 0.332860
0.608362 0.638788 0.346410
0.642786 0.651453 0.361364
0.678248 0.664729 0.377539
0.714626 0.678553 0.395300
0.737942 0.680537 0.417487
0.761685 0.682338 0.444007
0.798947 0.698451 0.483589
0.841947 0.724514 0.515770
0.875700 0.744228 0.544976
0.902281 0.759152 0.570703
0.923186 0.771084 0.594446
0.940124 0.780667 0.615198
0.953887 0.788418 0.633204
0.967773 0.798215 0.653468
0.979583 0.807034 0.671901
0.989349 0.814298 0.687495
0.997375 0.820035 0.700374
0.390265 0.600061 0.379126
0.391760 0.600946 0.379065
0.393530 0.601648 0.378759
0.396429 0.602686 0.377356
0.401343 0.604089 0.375219
0.408240 0.606256 0.372045
0.417823 0.609308 0.369085
0.430274 0.613184 0.365057
0.445655 0.617914 0.361028
0.464240 0.623285 0.355993
0.486122 0.628962 0.349981
0.511009 0.634913 0.343145
0.539147 0.642176 0.339757
0.570275 0.654505 0.353491
0.602380 0.666926 0.368231
0.635187 0.679042 0.383124
0.668513 0.691157 0.399207
0.702480 0.703609 0.416388
0.737240 0.716548 0.435218
0.770718 0.728542 0.455482
0.789334 0.727443 0.479713
0.813413 0.731563 0.510338
0.845212 0.745937 0.547112
0.878386 0.765621 0.575708
0.904295 0.780392 0.601038
0.924804 0.791684 0.623163
0.941161 0.800870 0.643366
0.954437 0.808255 0.660731
0.965362 0.814176 0.675715
0.976501 0.821897 0.692500
0.986053 0.828885 0.707698
0.993988 0.834257 0.719905
0.430823 0.645045 0.419409
0.432013 0.645655 0.419348
0.433234 0.646052 0.418860
0.435737 0.646632 0.417273
0.439582 0.647578 0.414557
0.445411 0.649012 0.411353
0.453376 0.651026 0.407630
0.463752 0.653681 0.402838
0.476997 0.656977 0.397772
0.493019 0.660883 0.392157
0.511803 0.665034 0.385443
0.533928 0.669581 0.377813
0.558862 0.674098 0.369085
0.587793 0.683650 0.377111
