data/fiter_cube/81078425/1022773/file.cube
# Created by Adobe Lightroom plugin Export LUT (1.17.0)
# www.johnrellis.com/lightroom/exportlut.htm
# Preset: 旅拍情绪景观_07 云集视觉
# Color profile: C:\Program Files (x86)\Common Files\Adobe\Color\Profiles\Recommended\AdobeRGB1998.icc
LUT_3D_SIZE 8
DOMAIN_MIN 0.000000 0.000000 0.000000
DOMAIN_MAX 0.903226 0.903226 0.903226
0.108125 0.108125 0.108125
0.127321 0.113008 0.111513
0.181827 0.126192 0.119448
0.318029 0.156710 0.129427
0.528893 0.215763 0.147036
0.721920 0.296208 0.204105
0.871244 0.415137 0.334630
0.951080 0.537530 0.477211
0.113436 0.117800 0.113436
0.129549 0.121462 0.113497
0.189151 0.135256 0.119265
0.323583 0.169192 0.129091
0.529351 0.229221 0.146090
0.718410 0.305303 0.201785
0.864530 0.414313 0.324834
0.948974 0.535729 0.470008
0.126986 0.140871 0.126436
0.137911 0.144778 0.124483
0.197879 0.165530 0.127993
0.391272 0.235996 0.126741
0.579644 0.293126 0.149142
0.755825 0.365209 0.221836
0.890318 0.470283 0.362219
0.958801 0.575433 0.500633
0.149905 0.186313 0.148348
0.160433 0.190463 0.144991
0.207675 0.206271 0.145174
0.386175 0.292027 0.152102
0.684504 0.424598 0.165408
0.817624 0.471290 0.271031
0.911772 0.539361 0.399634
0.965728 0.617670 0.523674
0.183108 0.259098 0.179355
0.195041 0.264317 0.175631
0.250401 0.284337 0.166690
0.361822 0.333684 0.181216
0.626154 0.468727 0.225895
0.842588 0.570703 0.316289
0.929076 0.616327 0.435584
0.973785 0.671412 0.553277
0.238834 0.378058 0.231235
0.256504 0.389502 0.229984
0.316442 0.408057 0.213565
0.430488 0.453559 0.224704
0.566918 0.498329 0.273777
0.800839 0.624353 0.385321
0.932586 0.700404 0.506371
0.983520 0.739559 0.600458
0.335424 0.527794 0.325048
0.348913 0.533928 0.321569
0.395575 0.545312 0.301701
0.495766 0.573388 0.289433
0.631556 0.625666 0.341009
0.759457 0.661830 0.437537
0.906493 0.747280 0.557641
0.972900 0.789242 0.644160
0.462867 0.678950 0.451667
0.470863 0.681361 0.447089
0.505394 0.691066 0.432013
0.581628 0.708492 0.406500
0.686183 0.734493 0.435065
0.815122 0.782284 0.515496
0.897246 0.801205 0.625422
0.961791 0.836027 0.699794
0.117372 0.122103 0.129366
0.133700 0.122072 0.133333
0.179019 0.139773 0.141543
0.307683 0.170260 0.161563
0.510643 0.226749 0.189334
0.702327 0.311772 0.251286
0.849699 0.426001 0.364691
0.939086 0.546227 0.495308
0.123293 0.127260 0.129000
0.134737 0.134737 0.134737
0.188937 0.149477 0.145296
0.320043 0.182071 0.162081
0.518914 0.240360 0.189578
0.704433 0.322057 0.250858
0.845884 0.427008 0.358129
0.936736 0.543206 0.487312
0.139315 0.147127 0.143557
0.147860 0.159457 0.147402
0.204898 0.179263 0.151644
0.377935 0.238804 0.165133
0.563806 0.297856 0.195132
0.735134 0.374243 0.267521
0.866453 0.471656 0.382177
0.946258 0.578210 0.512139
0.163302 0.194766 0.170871
0.169314 0.204410 0.167819
0.217746 0.221714 0.164950
0.379553 0.295201 0.180240
0.650660 0.414282 0.214878
0.782925 0.463203 0.300298
0.889128 0.534844 0.411902
0.954528 0.618616 0.533165
0.198642 0.274876 0.207767
0.203738 0.280400 0.199954
0.257633 0.298955 0.185763
0.368383 0.345617 0.202701
0.606928 0.462959 0.254978
0.825223 0.570764 0.349767
0.916411 0.620783 0.460853
0.966003 0.677150 0.569787
0.248539 0.387335 0.257328
0.260288 0.393072 0.253239
0.312993 0.410681 0.237034
0.424964 0.453040 0.244511
0.560113 0.499367 0.295384
0.793820 0.628504 0.413306
0.926329 0.708217 0.533532
0.977722 0.745968 0.618585
0.337865 0.523827 0.342962
0.346197 0.525841 0.336553
0.388861 0.539117 0.319280
0.486854 0.567864 0.303136
0.624628 0.623468 0.357519
0.751247 0.660243 0.449317
0.899107 0.746029 0.566033
0.968139 0.790127 0.651606
0.464057 0.674891 0.465034
0.472541 0.678645 0.462104
0.504631 0.689235 0.448585
0.577569 0.707637 0.425299
0.693477 0.744503 0.462806
0.815976 0.787320 0.536584
0.894438 0.802976 0.635676
0.959167 0.837919 0.707576
0.134585 0.161288 0.195193
0.147097 0.166232 0.202976
0.212650 0.156161 0.210971
0.315618 0.193790 0.221469
0.494423 0.277165 0.290013
0.692012 0.392157 0.385595
0.837827 0.509941 0.490517
0.926818 0.618158 0.594812
0.146761 0.171237 0.195743
0.158846 0.176974 0.201938
0.212558 0.171054 0.211460
0.314305 0.211795 0.229221
0.502831 0.290990 0.295537
0.692805 0.397498 0.384192
0.836576 0.510552 0.486244
0.926543 0.618677 0.592309
0.166934 0.186679 0.193973
0.179232 0.194369 0.200107
0.217075 0.217075 0.217075
0.359564 0.267826 0.257389
0.553704 0.349584 0.322820
0.722316 0.442664 0.405005
0.851530 0.543145 0.503014
0.932189 0.638453 0.602594
0.208988 0.211643 0.211398
0.217441 0.226596 0.224765
0.245121 0.274846 0.244114
0.402502 0.343969 0.278721
0.635126 0.455024 0.364477
0.769314 0.522118 0.443336
0.876188 0.601801 0.536584
0.942260 0.675685 0.624628
0.246586 0.296147 0.274601
0.257267 0.312993 0.284031
0.289799 0.360204 0.286687
0.404730 0.403845 0.294469
0.618799 0.508934 0.377874
0.820462 0.623285 0.491096
0.900664 0.671046 0.574304
0.953338 0.722225 0.651759
0.310857 0.411353 0.349187
0.322332 0.424964 0.353826
0.346868 0.456428 0.341558
0.438727 0.486030 0.325505
0.579919 0.541009 0.381689
0.783627 0.653834 0.502739
0.915221 0.742031 0.620233
0.965728 0.781430 0.693141
0.404730 0.548455 0.441840
0.411994 0.556512 0.441108
0.423163 0.573083 0.415961
0.494362 0.592309 0.387640
0.625147 0.639704 0.428016
0.750210 0.681697 0.515373
0.894987 0.771084 0.634791
0.962219 0.820706 0.719387
0.521813 0.686122 0.550256
0.520745 0.689082 0.542473
0.527947 0.700008 0.519677
0.586114 0.721401 0.503197
0.689204 0.750149 0.511894
0.810941 0.795224 0.585016
0.890013 0.814664 0.676600
0.954864 0.853849 0.749142
0.157931 0.252659 0.347875
0.177798 0.260258 0.358801
0.241581 0.258610 0.374792
0.379644 0.222934 0.375189
0.510887 0.299046 0.371862
0.644923 0.433722 0.465034
0.794614 0.566003 0.577691
0.901213 0.671504 0.671321
0.183474 0.270512 0.354284
0.199557 0.276097 0.361517
0.249699 0.277073 0.377417
0.383124 0.243503 0.379278
0.511467 0.320134 0.379767
0.641810 0.450172 0.474739
0.796872 0.570703 0.579278
0.902464 0.673457 0.671229
0.214664 0.292546 0.347417
0.231235 0.299931 0.353735
0.283543 0.322148 0.373785
0.384924 0.301823 0.382300
0.517510 0.386389 0.412360
0.677455 0.503410 0.512535
0.824582 0.615290 0.612909
0.913237 0.699397 0.690089
0.262852 0.323217 0.343938
0.277165 0.330694 0.349371
0.324285 0.355962 0.367834
0.394171 0.394171 0.394171
0.569543 0.478096 0.468666
0.722072 0.567132 0.550195
0.846036 0.653712 0.632410
0.923247 0.728115 0.706905
0.335912 0.355291 0.355383
0.348669 0.362768 0.362585
0.388495 0.394293 0.393561
0.434943 0.469490 0.433600
0.611597 0.556817 0.501488
0.787320 0.662806 0.607782
0.878660 0.719814 0.674708
0.936645 0.770077 0.733944
0.407172 0.442878 0.434211
0.419898 0.460212 0.448920
0.442695 0.496376 0.472847
0.480385 0.550561 0.477516
0.603784 0.598657 0.499306
0.777707 0.695399 0.610010
0.905455 0.788327 0.719600
0.950744 0.819730 0.768826
0.481147 0.566888 0.529381
0.488289 0.576165 0.534661
0.510613 0.603571 0.546319
0.537438 0.638972 0.532982
0.631037 0.669368 0.526116
0.755764 0.718318 0.601251
0.888029 0.800595 0.710994
0.954223 0.853239 0.788235
0.588190 0.699947 0.635218
0.592157 0.705104 0.636316
0.602655 0.719997 0.634089
0.614374 0.741604 0.608698
0.680079 0.759152 0.578637
0.800809 0.804746 0.643305
0.883482 0.830472 0.725460
0.949279 0.873381 0.797848
0.262760 0.401221 0.544854
0.285924 0.409857 0.552117
0.350561 0.429999 0.567926
0.423407 0.399817 0.568414
0.562646 0.357458 0.557031
0.669184 0.438087 0.531914
0.779812 0.582849 0.623346
0.869749 0.718837 0.734890
0.290105 0.417273 0.547845
0.311406 0.426795 0.556451
0.367346 0.444648 0.570794
0.429938 0.416602 0.568811
0.561700 0.371954 0.556481
0.669642 0.453040 0.537530
0.780087 0.592554 0.629053
0.872374 0.722866 0.737453
0.332280 0.445533 0.546441
0.349767 0.452674 0.551324
0.392920 0.466773 0.561242
0.450568 0.465614 0.567559
0.558831 0.415778 0.554498
0.666011 0.495003 0.551476
0.777768 0.619623 0.644038
0.879667 0.732753 0.742550
0.368475 0.469947 0.534752
0.381170 0.474830 0.537560
0.423835 0.493263 0.549401
0.485908 0.519219 0.567193
0.563500 0.487984 0.561059
0.672023 0.568109 0.589471
0.796017 0.672053 0.680446
0.897032 0.756710 0.757290
0.416724 0.494789 0.522148
0.427802 0.500114 0.525780
0.461952 0.516533 0.536553
0.513481 0.541772 0.552697
0.567041 0.567041 0.567041
0.717708 0.650782 0.644221
0.840299 0.730159 0.718959
0.915770 0.793576 0.781186
0.474128 0.512444 0.515251
0.483467 0.517937 0.520104
0.512200 0.533501 0.534020
0.557885 0.559075 0.558984
0.589105 0.618128 0.587945
0.751278 0.710109 0.670588
0.883696 0.806332 0.773648
0.935729 0.841917 0.816190
0.576837 0.584833 0.583917
0.579339 0.591150 0.589624
0.590295 0.613275 0.608637
0.609918 0.650111 0.634302
0.633295 0.692531 0.630884
0.748196 0.741726 0.661952
0.876280 0.820462 0.766201
0.947967 0.877836 0.838376
0.653895 0.704494 0.689143
0.655451 0.708278 0.691310
0.661372 0.721584 0.697841
0.678187 0.750423 0.709041
0.688838 0.777218 0.685084
0.777005 0.806546 0.686732
0.872618 0.842924 0.763210
0.943206 0.889006 0.836728
0.455665 0.572747 0.714656
0.470008 0.578454 0.717220
0.508354 0.590845 0.720912
0.552819 0.592401 0.723812
0.597101 0.546868 0.713649
0.703578 0.511406 0.698054
0.794034 0.585687 0.678950
0.879423 0.724147 0.763027
0.456214 0.570275 0.704524
0.467842 0.574334 0.706172
0.506584 0.588464 0.712551
0.552544 0.594293 0.717769
0.595331 0.551934 0.709102
0.700404 0.516869 0.694911
0.792386 0.591424 0.679652
0.878386 0.727230 0.764065
0.492500 0.595666 0.706569
0.500572 0.597955 0.707088
0.531243 0.608820 0.711910
0.580743 0.626886 0.722408
0.609674 0.588556 0.711757
0.701503 0.548882 0.696834
0.794217 0.620783 0.691127
0.878538 0.744503 0.773709
0.518364 0.615564 0.700099
0.526055 0.617853 0.700496
0.555932 0.630030 0.706416
0.604456 0.652552 0.721004
0.641535 0.648066 0.722713
0.709804 0.602655 0.706355
0.801572 0.670954 0.715053
0.880797 0.774807 0.792599
0.542626 0.631067 0.685969
0.550683 0.634668 0.687984
0.576318 0.645991 0.694240
0.614771 0.663691 0.704891
0.657771 0.681300 0.716732
0.705348 0.647242 0.703456
0.800961 0.717739 0.735317
0.885771 0.806607 0.812650
0.574884 0.646265 0.672297
0.583093 0.650904 0.675807
0.603388 0.660365 0.681636
0.633906 0.674647 0.690181
0.668666 0.690364 0.698848
0.709102 0.709102 0.709102
0.841886 0.795132 0.790677
0.917205 0.850980 0.844572
0.633082 0.676051 0.681422
0.639643 0.680079 0.684871
0.656306 0.688716 0.691890
0.682399 0.701900 0.702754
0.713924 0.714534 0.714504
0.735256 0.760037 0.734279
0.864622 0.837827 0.812863
0.940856 0.895903 0.877226
0.725734 0.736233 0.735836
0.728237 0.736843 0.736446
0.737606 0.739284 0.739162
0.746487 0.758846 0.756893
0.755337 0.786435 0.775021
0.767910 0.817777 0.765927
0.864286 0.858610 0.802304
0.938659 0.905058 0.873533
0.611933 0.700526 0.818387
0.622278 0.705898 0.821073
0.647517 0.716823 0.825010
0.687892 0.734890 0.832303
0.709987 0.722652 0.827878
0.732662 0.672786 0.819730
0.812802 0.648432 0.807736
0.881804 0.723781 0.800931
0.609735 0.698268 0.813352
0.619165 0.703151 0.815793
0.643671 0.713771 0.820066
0.681727 0.730098 0.826658
0.705348 0.720089 0.822782
0.726558 0.669703 0.813901
0.806149 0.643366 0.801175
0.877409 0.717769 0.794919
0.630396 0.714382 0.815793
0.636530 0.716884 0.816770
0.656428 0.724819 0.819638
0.690700 0.739376 0.825803
0.713191 0.734005 0.824887
0.733852 0.691890 0.815763
0.809567 0.664912 0.805112
0.881071 0.736141 0.802640
0.650965 0.731685 0.815885
0.654780 0.732692 0.815885
0.671229 0.738888 0.818112
0.703365 0.753109 0.824796
0.738125 0.765225 0.830869
0.750637 0.731044 0.822263
0.815183 0.698665 0.811490
0.884367 0.762051 0.812741
0.662379 0.741390 0.806821
0.665492 0.742123 0.806699
0.679530 0.747402 0.808865
0.705318 0.758755 0.815183
0.740322 0.773922 0.823880
0.763333 0.766445 0.822568
0.812131 0.726070 0.809415
0.885618 0.793637 0.825254
0.683162 0.756008 0.799680
0.687282 0.757870 0.800687
0.701045 0.764065 0.804105
0.724025 0.775113 0.810727
0.752743 0.788663 0.819211
0.788785 0.805295 0.830716
0.819547 0.774685 0.818021
0.890867 0.835416 0.847288
0.713191 0.773495 0.796078
0.717617 0.775906 0.797848
0.728847 0.781155 0.800961
0.747372 0.790097 0.806424
0.769345 0.799924 0.811765
0.795712 0.811856 0.818204
0.822324 0.822293 0.822324
0.918120 0.888579 0.885832
0.757259 0.797757 0.804410
0.759579 0.798672 0.804990
0.772519 0.806332 0.811337
0.788754 0.814878 0.817960
0.808011 0.823758 0.824704
0.830411 0.831662 0.831601
0.843503 0.862058 0.842741
0.933562 0.917296 0.902434
0.752407 0.808896 0.889830
0.757626 0.811704 0.890837
0.770718 0.817685 0.892363
0.794583 0.829892 0.896635
0.814908 0.835843 0.899687
0.826291 0.825193 0.898375
0.842374 0.792508 0.896269
0.895720 0.783963 0.892149
0.751034 0.808011 0.888182
0.756222 0.810788 0.889250
0.769741 0.817166 0.891081
0.792721 0.828672 0.895079
0.814359 0.835966 0.898619
0.825864 0.825803 0.897429
0.841306 0.793118 0.895140
0.894682 0.783932 0.891112
0.754055 0.811246 0.886870
0.758358 0.813413 0.887633
0.770108 0.818540 0.888975
0.795346 0.831998 0.894560
0.819638 0.842741 0.899260
0.830320 0.833768 0.897673
0.843748 0.802914 0.895598
0.894560 0.790707 0.891203
0.758816 0.817136 0.886015
0.763272 0.819486 0.886961
0.775204 0.824918 0.888731
0.797299 0.835966 0.893248
0.824308 0.849699 0.899443
0.839780 0.848539 0.900755
0.850523 0.822049 0.898466
0.895720 0.803799 0.892729
0.769375 0.826749 0.884031
0.772763 0.828519 0.885008
0.780850 0.832029 0.886748
0.795346 0.838712 0.890684
0.822568 0.852232 0.896941
0.849485 0.864286 0.903990
0.858274 0.844541 0.901518
0.896696 0.820371 0.894194
0.785275 0.839628 0.882872
0.786831 0.840146 0.883055
0.793088 0.842741 0.884337
0.805356 0.848478 0.887816
0.824063 0.857816 0.894102
0.854459 0.874296 0.904723
0.872465 0.873686 0.907378
0.900053 0.844450 0.898192
0.807340 0.855741 0.884184
0.808835 0.856413 0.884520
0.814481 0.859007 0.886015
0.825620 0.864744 0.889738
0.840024 0.871916 0.894347
0.858549 0.881254 0.900786
0.882811 0.893339 0.909728
0.901244 0.869841 0.900175
0.826169 0.867216 0.883024
0.827146 0.867582 0.883177
0.831601 0.869657 0.884367
0.840665 0.874327 0.887358
0.853178 0.880705 0.891447
0.868833 0.888762 0.896605
0.887480 0.898375 0.902708
0.904814 0.904814 0.904814
