data/fiter_cube/65184230/1022647/file.cube
# Created by Adobe Lightroom plugin Export LUT (1.17.0)
# www.johnrellis.com/lightroom/exportlut.htm
# Preset: ins网红旅拍风景人像_06 云集
# Color profile: C:\Program Files (x86)\Common Files\Adobe\Color\Profiles\Recommended\AdobeRGB1998.icc
LUT_3D_SIZE 5
DOMAIN_MIN 0.000000 0.000000 0.000000
DOMAIN_MAX 0.903226 0.903226 0.903226
0.070954 0.079286 0.099153
0.111330 0.057221 0.092958
0.557000 0.000000 0.164858
0.879667 0.000000 0.385870
0.959380 0.594812 0.713161
0.025727 0.148135 0.082368
0.172946 0.118624 0.079652
0.703334 0.000000 0.000000
0.919188 0.000000 0.201907
0.988525 0.521996 0.632105
0.161196 0.688197 0.177371
0.515892 0.670802 0.154543
0.738949 0.487373 0.000000
0.976257 0.649500 0.000000
1.000000 0.487800 0.225925
0.542260 0.921569 0.555810
0.672694 0.914244 0.620691
0.893584 0.892088 0.408881
0.945861 0.754086 0.000000
1.000000 0.745998 0.000000
0.756313 0.974792 0.827237
0.797391 0.971130 0.847532
0.870909 0.963043 0.854368
0.968505 0.947051 0.741176
1.000000 0.863615 0.462776
0.062348 0.069795 0.088045
0.102144 0.076143 0.108675
0.583581 0.000000 0.082368
0.876097 0.000000 0.236454
0.962310 0.533532 0.667292
0.054536 0.137301 0.133852
0.197787 0.133272 0.105257
0.689967 0.000000 0.000000
0.910887 0.000000 0.122805
0.990387 0.436835 0.566705
0.136477 0.657008 0.256229
0.500053 0.653468 0.267643
0.701717 0.459358 0.000000
0.964202 0.633265 0.000000
1.000000 0.480507 0.201022
0.542718 0.918578 0.590753
0.671382 0.911620 0.651453
0.880735 0.890898 0.488106
0.939086 0.758999 0.170352
1.000000 0.745052 0.000000
0.753933 0.974090 0.833677
0.791714 0.971038 0.850095
0.875456 0.964782 0.874784
0.964782 0.950072 0.777859
1.000000 0.871122 0.539818
0.076509 0.100710 0.167178
0.116243 0.128695 0.149630
0.491035 0.244450 0.353368
0.854185 0.000000 0.399969
0.963165 0.542351 0.672847
0.113008 0.225132 0.264866
0.247166 0.245609 0.268803
0.580987 0.242008 0.359716
0.889647 0.000000 0.315496
0.986419 0.470375 0.596674
0.328710 0.633875 0.537957
0.429297 0.664271 0.499489
0.717189 0.550683 0.353094
0.953155 0.585687 0.000000
1.000000 0.465156 0.276921
0.581537 0.905364 0.726833
0.630457 0.905150 0.709346
0.831083 0.891051 0.675135
0.920745 0.785580 0.471077
1.000000 0.748714 0.000000
0.765438 0.968383 0.865049
0.786404 0.968505 0.868803
0.861143 0.965118 0.893950
0.953552 0.954803 0.833433
0.993683 0.884794 0.676631
0.212314 0.240360 0.387671
0.302678 0.273045 0.355627
0.462745 0.452033 0.471107
0.766537 0.597559 0.687037
0.911162 0.754330 0.828702
0.289982 0.376165 0.493416
0.378180 0.364294 0.465675
0.531884 0.534173 0.549950
0.775113 0.610498 0.695064
0.921965 0.732631 0.809720
0.387701 0.627741 0.636469
0.481605 0.644221 0.652857
0.677882 0.668818 0.683925
0.863371 0.609735 0.636469
0.965240 0.674525 0.727993
0.678431 0.890501 0.849271
0.703975 0.892851 0.846525
0.778378 0.898070 0.833555
0.886198 0.832578 0.741176
1.000000 0.752682 0.507530
0.796719 0.961181 0.907439
0.810361 0.961700 0.908782
0.847166 0.964355 0.911864
0.914092 0.962158 0.908873
0.969726 0.911254 0.827420
0.466133 0.495979 0.706569
0.529137 0.514549 0.679072
0.579644 0.596551 0.608820
0.755917 0.811490 0.820737
0.885618 0.855955 0.890135
0.484413 0.573114 0.745998
0.533410 0.561120 0.724544
0.608698 0.635248 0.645594
0.766018 0.821836 0.830930
0.887449 0.858854 0.892058
0.458106 0.748074 0.810666
0.497047 0.739620 0.807187
0.687984 0.732387 0.793423
0.807004 0.861143 0.869352
0.895903 0.871977 0.901244
0.672663 0.898070 0.892760
0.698360 0.896727 0.893523
0.765377 0.893400 0.896666
0.846433 0.895201 0.902068
0.922087 0.886625 0.908904
0.822629 0.953948 0.937102
0.834165 0.954101 0.938964
0.865507 0.957214 0.944121
0.900206 0.962219 0.947356
0.946563 0.944396 0.931701
