data/fiter_cube/65184230/1022647/file.cube
# Created by Adobe Lightroom plugin Export LUT (1.17.0)
# www.johnrellis.com/lightroom/exportlut.htm
# Preset: ins网红旅拍风景人像_06 云集
# Color profile: C:\Program Files (x86)\Common Files\Adobe\Color\Profiles\Recommended\AdobeRGB1998.icc
LUT_3D_SIZE 32
DOMAIN_MIN 0.0 0.0 0.0
DOMAIN_MAX 1.0 1.0 1.0
0.070954 0.079286 0.099153
0.070497 0.079347 0.099153
0.067231 0.078798 0.097749
0.061402 0.076173 0.093904
0.059846 0.073121 0.090639
0.068910 0.069520 0.089357
0.085542 0.065003 0.090059
0.111330 0.057221 0.092958
0.147616 0.029511 0.097353
0.194949 0.000000 0.103548
0.252720 0.000000 0.111330
0.318395 0.000000 0.120272
0.388159 0.000000 0.130617
0.469734 0.000000 0.144656
0.557000 0.000000 0.164858
0.627802 0.000000 0.187350
0.686336 0.000000 0.212253
0.736538 0.000000 0.239719
0.780117 0.000000 0.269993
0.818997 0.000000 0.305028
0.852140 0.000000 0.343938
0.879667 0.000000 0.385870
0.901579 0.000000 0.429267
0.919005 0.177920 0.473701
0.932433 0.278691 0.519188
0.942748 0.363531 0.565942
0.950408 0.444465 0.614649
0.955810 0.521752 0.664027
0.959380 0.594812 0.713161
0.961791 0.661830 0.760189
0.963928 0.720302 0.802182
0.966369 0.768338 0.836790
0.070985 0.078920 0.099153
0.069642 0.078737 0.099214
0.064485 0.078035 0.099336
0.057893 0.078187 0.097444
0.059846 0.074952 0.092988
0.071351 0.070314 0.090059
0.089204 0.064607 0.089448
0.115633 0.053834 0.090730
0.151827 0.021485 0.093965
0.199039 0.000000 0.099184
0.255955 0.000000 0.106233
0.320256 0.000000 0.114504
0.388830 0.000000 0.123995
0.470375 0.000000 0.137423
0.552667 0.000000 0.155459
0.621057 0.000000 0.175814
0.678279 0.000000 0.199039
0.728084 0.000000 0.225162
0.772000 0.000000 0.254368
0.811734 0.000000 0.288701
0.845945 0.000000 0.327306
0.874510 0.000000 0.369299
0.897520 0.000000 0.412909
0.915923 0.133669 0.457984
0.930266 0.250492 0.504112
0.941375 0.340368 0.551751
0.949615 0.424872 0.601831
0.955535 0.504936 0.652552
0.959411 0.581048 0.703243
0.961913 0.650782 0.752010
0.963958 0.711971 0.795956
0.966339 0.762020 0.832120
0.070924 0.075380 0.098390
0.066682 0.074861 0.098756
0.064210 0.076661 0.099428
0.054414 0.075837 0.099580
0.061189 0.076478 0.095979
0.074617 0.072053 0.091524
0.094575 0.065095 0.088441
0.122011 0.049805 0.087526
0.158816 0.011078 0.089540
0.206119 0.000000 0.093446
0.262882 0.000000 0.099489
0.326574 0.000000 0.106813
0.394171 0.000000 0.115450
0.476509 0.000000 0.128267
0.554986 0.000000 0.144869
0.620752 0.000000 0.164370
0.676844 0.000000 0.186160
0.725765 0.000000 0.211521
0.769497 0.000000 0.240482
0.809537 0.000000 0.274388
0.844205 0.000000 0.313207
0.873228 0.000000 0.355596
0.896727 0.000000 0.399725
0.915373 0.088991 0.445686
0.930083 0.229252 0.492622
0.941497 0.323980 0.541100
0.950072 0.410742 0.591943
0.956115 0.493294 0.644038
0.960082 0.571649 0.696071
0.962585 0.643153 0.746029
0.964446 0.706172 0.791409
0.966644 0.757626 0.828702
0.068696 0.069673 0.094972
0.065248 0.069459 0.093996
0.060548 0.069673 0.095369
0.056123 0.073487 0.098207
0.065003 0.077974 0.099336
0.084749 0.079957 0.096590
0.108003 0.072541 0.091157
0.138827 0.058259 0.087160
0.177462 0.004883 0.084871
0.225925 0.000000 0.084413
0.282506 0.000000 0.085237
0.345098 0.000000 0.088502
0.410895 0.000000 0.095827
0.494057 0.000000 0.107027
0.565667 0.000000 0.122286
0.627344 0.000000 0.140230
0.680415 0.000000 0.161410
0.727352 0.000000 0.185977
0.769528 0.000000 0.213931
0.808408 0.000000 0.246799
0.842649 0.000000 0.285222
0.871916 0.000000 0.327855
0.896239 0.000000 0.373632
0.916014 0.000000 0.422217
0.931670 0.192569 0.472938
0.943755 0.301549 0.525231
0.952636 0.395178 0.579431
0.958679 0.482094 0.634119
0.962402 0.562829 0.688014
0.964569 0.636042 0.739528
0.966064 0.700038 0.785977
0.967834 0.752255 0.824155
0.065461 0.069978 0.091279
0.063630 0.070710 0.090181
0.063600 0.071901 0.089570
0.064088 0.072847 0.092500
0.063966 0.074281 0.095277
0.087800 0.084993 0.098421
0.132570 0.095338 0.096315
0.165530 0.080415 0.089815
0.206271 0.041993 0.084108
0.255222 0.000000 0.080110
0.310704 0.000000 0.077974
0.371588 0.000000 0.077333
0.443122 0.000000 0.079225
0.516442 0.000000 0.084352
0.581750 0.000000 0.093935
0.639918 0.000000 0.107332
0.691279 0.000000 0.124666
0.737118 0.000000 0.147097
0.778012 0.000000 0.176761
0.815396 0.000000 0.210636
0.848203 0.000000 0.249638
0.876585 0.000000 0.293278
0.900420 0.000000 0.340734
0.920043 0.000000 0.391821
0.935698 0.131289 0.445502
0.947814 0.267216 0.500908
0.956664 0.368414 0.557885
0.962402 0.460639 0.615869
0.965881 0.545068 0.672511
0.967651 0.621515 0.726680
0.968566 0.689021 0.776211
0.969787 0.743862 0.816861
0.060700 0.080751 0.088167
0.061158 0.082399 0.087190
0.064149 0.084382 0.086397
0.073915 0.085664 0.086976
0.081697 0.084443 0.088899
0.082948 0.081483 0.092073
0.125368 0.096834 0.094911
0.194522 0.114839 0.091310
0.252995 0.103578 0.084718
0.301152 0.040864 0.076143
0.355474 0.000000 0.069062
0.418372 0.000000 0.062989
0.487068 0.000000 0.058961
0.550896 0.000000 0.060975
0.609003 0.000000 0.068879
0.661860 0.000000 0.082246
0.709377 0.000000 0.100130
0.752468 0.000000 0.121523
0.791745 0.000000 0.146639
0.827512 0.000000 0.176181
0.859403 0.000000 0.210422
0.887266 0.000000 0.249729
0.940948 0.000000 0.361975
0.953216 0.090181 0.418952
0.962188 0.248966 0.476356
0.968383 0.350530 0.533959
0.972198 0.439277 0.591150
0.974090 0.520073 0.646967
0.974670 0.593896 0.700465
0.974395 0.660426 0.750607
0.974243 0.717342 0.794156
0.974640 0.763180 0.829099
0.047517 0.109590 0.084810
0.054414 0.111604 0.084504
0.062898 0.114290 0.084688
0.080568 0.118166 0.084138
0.110048 0.118990 0.081575
0.119997 0.109651 0.083223
0.122927 0.097871 0.086702
0.190829 0.115877 0.085817
0.282231 0.138521 0.079774
0.384649 0.154269 0.059907
0.448310 0.087953 0.028138
0.513939 0.000000 0.000000
0.573602 0.000000 0.000000
0.626947 0.000000 0.000000
0.673610 0.000000 0.000000
0.715389 0.000000 0.013153
0.754330 0.000000 0.063203
0.790738 0.000000 0.092439
0.824887 0.000000 0.122591
0.857023 0.000000 0.157107
0.886900 0.000000 0.197299
0.913603 0.000000 0.244358
0.936065 0.000000 0.297154
0.953826 0.000000 0.354589
0.966979 0.132052 0.414313
0.974762 0.282414 0.481514
0.979034 0.388464 0.547417
0.980743 0.479927 0.610651
0.980774 0.562127 0.670924
0.979767 0.634607 0.726589
0.978546 0.697749 0.776120
0.977996 0.748043 0.815549
0.025727 0.148135 0.082368
0.038727 0.150423 0.082795
0.057588 0.153414 0.083650
0.084169 0.159396 0.085664
0.120668 0.160189 0.079042
0.164675 0.156130 0.073335
0.168185 0.138003 0.075776
0.172946 0.118624 0.079652
0.267155 0.138064 0.071504
0.377417 0.164675 0.051118
0.493202 0.195529 0.000000
0.573480 0.187716 0.000000
0.620905 0.098756 0.000000
0.664240 0.000000 0.000000
0.703334 0.000000 0.000000
0.739162 0.000000 0.000000
0.773495 0.000000 0.000000
0.806027 0.000000 0.000000
0.836851 0.000000 0.066285
0.866300 0.000000 0.110353
0.894102 0.000000 0.153750
0.919188 0.000000 0.201907
0.940673 0.000000 0.254887
0.957977 0.000000 0.312688
0.971130 0.097322 0.373541
0.980407 0.239841 0.435157
0.986358 0.336767 0.497505
0.988983 0.429603 0.563378
0.988525 0.521996 0.632105
0.986694 0.603235 0.695735
0.984344 0.673579 0.752590
0.982544 0.730037 0.798489
0.000000 0.201053 0.080873
0.008911 0.203342 0.081727
0.041077 0.206516 0.083162
0.086580 0.212558 0.086580
0.132540 0.215152 0.080018
0.190585 0.215305 0.065675
0.235966 0.205051 0.054414
0.246250 0.181674 0.059052
0.256077 0.152316 0.064271
0.363317 0.166445 0.024598
0.475227 0.198093 0.000000
0.578454 0.242039 0.000000
0.665980 0.295384 0.000000
0.705318 0.243381 0.000000
0.737850 0.165408 0.000000
0.768338 0.000000 0.000000
0.797971 0.000000 0.000000
0.826169 0.000000 0.000000
0.853117 0.000000 0.000000
0.879484 0.000000 0.000000
0.904631 0.000000 0.093172
0.927642 0.000000 0.150668
0.947662 0.000000 0.207218
0.964111 0.000000 0.266728
0.976898 0.107210 0.329137
0.986053 0.230076 0.393042
0.992248 0.320134 0.458076
0.995605 0.404303 0.524498
0.996521 0.487129 0.591608
0.995392 0.566369 0.657038
0.991821 0.644465 0.722408
0.988495 0.708156 0.776425
0.000000 0.273899 0.079042
0.000000 0.276524 0.080751
0.010712 0.279973 0.082856
0.092348 0.286931 0.088136
0.153811 0.292943 0.085328
0.219303 0.293065 0.061311
0.300938 0.288609 0.000000
0.324041 0.261021 0.000000
0.331853 0.226963 0.000000
0.340673 0.186984 0.019532
0.448768 0.197879 0.000000
0.552850 0.237186 0.000000
0.642664 0.290745 0.000000
0.718257 0.347692 0.000000
0.770047 0.362768 0.000000
0.798032 0.301244 0.000000
0.824582 0.235477 0.000000
0.849485 0.160739 0.000000
0.873106 0.008820 0.000000
0.895750 0.000000 0.000000
0.917327 0.000000 0.000000
0.937163 0.000000 0.065705
0.954711 0.000000 0.144198
0.969665 0.000000 0.208774
0.981842 0.137087 0.273259
0.991211 0.227237 0.339422
0.997864 0.305852 0.407965
1.000000 0.383978 0.478859
1.000000 0.464973 0.551904
1.000000 0.544793 0.623590
0.999603 0.618463 0.690333
0.996094 0.683650 0.749325
0.000000 0.354101 0.079103
0.000000 0.356146 0.081575
0.000000 0.358831 0.084901
0.102052 0.364111 0.092042
0.176638 0.370001 0.100130
0.242283 0.369146 0.070497
0.324163 0.364904 0.000000
0.404150 0.350134 0.000000
0.410925 0.315587 0.000000
0.419196 0.274876 0.000000
0.427436 0.226658 0.000000
0.528893 0.238041 0.000000
0.621576 0.285618 0.000000
0.699336 0.342504 0.000000
0.764584 0.399176 0.000000
0.817929 0.450111 0.000000
0.844877 0.411109 0.000000
0.866667 0.353246 0.000000
0.887480 0.296269 0.000000
0.907774 0.241733 0.000000
0.927337 0.192081 0.000000
0.945647 0.151492 0.000000
0.962249 0.136629 0.000000
0.976532 0.156741 0.133669
0.988342 0.199893 0.209751
0.997559 0.252049 0.281376
1.000000 0.310704 0.353674
1.000000 0.375616 0.428168
1.000000 0.447395 0.505211
1.000000 0.523857 0.582940
1.000000 0.596796 0.655695
1.000000 0.663691 0.721401
0.000000 0.434607 0.085145
0.000000 0.436286 0.088319
0.015076 0.438239 0.092836
0.120638 0.442145 0.101900
0.200565 0.447486 0.115145
0.270939 0.447425 0.094179
0.349035 0.443763 0.011566
0.437476 0.436805 0.000000
0.488594 0.412512 0.000000
0.496590 0.375067 0.000000
0.505303 0.330175 0.000000
0.514366 0.276799 0.000000
0.669856 0.347204 0.000000
0.744045 0.401984 0.000000
0.803159 0.455665 0.000000
0.849241 0.501946 0.000000
0.885710 0.538811 0.000000
0.911254 0.542718 0.000000
0.926360 0.484199 0.000000
0.941527 0.428962 0.000000
0.956207 0.379187 0.000000
0.970092 0.338323 0.000000
0.982635 0.309087 0.000000
0.993805 0.297459 0.000000
1.000000 0.304601 0.146700
1.000000 0.327550 0.234287
1.000000 0.362890 0.314611
1.000000 0.409613 0.394385
1.000000 0.466468 0.475288
1.000000 0.531640 0.556634
1.000000 0.596979 0.632776
1.000000 0.659785 0.702419
0.000000 0.553765 0.111574
0.042908 0.554528 0.115358
0.105013 0.553979 0.120150
0.172549 0.554009 0.130220
0.251011 0.553582 0.145052
0.327153 0.550042 0.139773
0.397070 0.543389 0.088930
0.476783 0.535821 0.000000
0.560906 0.528557 0.000000
0.584985 0.498573 0.000000
0.597711 0.463264 0.000000
0.612238 0.420264 0.000000
0.627008 0.366766 0.000000
0.708492 0.388128 0.000000
0.778592 0.443946 0.000000
0.831693 0.492988 0.000000
0.871885 0.534081 0.000000
0.903868 0.565698 0.000000
0.929778 0.591241 0.000000
0.945647 0.553735 0.000000
0.959655 0.501366 0.000000
0.973175 0.452949 0.000000
0.985657 0.411963 0.000000
0.996979 0.381628 0.000000
1.000000 0.366308 0.000000
1.000000 0.367742 0.122713
1.000000 0.384436 0.226963
1.000000 0.414893 0.316655
1.000000 0.458320 0.405310
1.000000 0.512718 0.493355
1.000000 0.574273 0.579217
1.000000 0.636896 0.658930
0.085389 0.623072 0.139620
0.120119 0.623682 0.143679
0.152956 0.622950 0.147860
0.210269 0.622278 0.157443
0.282078 0.620813 0.171450
0.362737 0.618433 0.186435
0.424262 0.612299 0.144289
0.494545 0.605921 0.075685
0.569757 0.600031 0.000000
0.637629 0.588342 0.000000
0.648585 0.559930 0.000000
0.661433 0.525658 0.000000
0.674617 0.482582 0.000000
0.686946 0.427832 0.000000
0.755032 0.441901 0.000000
0.813901 0.489387 0.000000
0.857939 0.528832 0.000000
0.892180 0.562585 0.000000
0.920317 0.590204 0.000000
0.943938 0.612848 0.000000
0.962280 0.611383 0.000000
0.975372 0.562493 0.000000
0.987823 0.515404 0.000000
0.999420 0.474525 0.000000
1.000000 0.443061 0.000000
1.000000 0.425238 0.000000
1.000000 0.423529 0.094362
1.000000 0.437110 0.223301
1.000000 0.465278 0.324437
1.000000 0.505852 0.421149
1.000000 0.558160 0.516258
1.000000 0.617243 0.607233
0.161196 0.688197 0.177371
0.182803 0.688777 0.181186
0.207828 0.687922 0.184939
0.255894 0.686580 0.193698
0.319615 0.684230 0.206546
0.392798 0.681361 0.223514
0.454994 0.676570 0.203464
0.515892 0.670802 0.154543
0.582361 0.665797 0.071778
0.652277 0.661585 0.000000
0.695338 0.645380 0.000000
0.706386 0.619013 0.000000
0.717983 0.585534 0.000000
0.729122 0.542535 0.000000
0.738949 0.487373 0.000000
0.795132 0.492470 0.000000
0.844114 0.530602 0.000000
0.881376 0.561791 0.000000
0.911254 0.589593 0.000000
0.936309 0.613428 0.000000
0.957794 0.633021 0.000000
0.976257 0.649500 0.000000
0.988861 0.613336 0.000000
1.000000 0.568139 0.000000
1.000000 0.527459 0.000000
1.000000 0.495552 0.000000
1.000000 0.476722 0.000000
1.000000 0.474617 0.057069
1.000000 0.487800 0.225925
1.000000 0.515129 0.340002
1.000000 0.555962 0.447944
1.000000 0.608057 0.551873
0.227512 0.744961 0.222202
0.245274 0.745632 0.226169
0.265690 0.745449 0.230228
0.306859 0.744839 0.239048
0.363287 0.743557 0.252262
0.429541 0.741939 0.269902
0.493385 0.739742 0.273991
0.546441 0.735653 0.234073
0.605249 0.731319 0.181552
0.667170 0.726711 0.099367
0.730251 0.721553 0.000000
0.750362 0.699428 0.000000
0.757992 0.671870 0.000000
0.765682 0.636957 0.000000
0.773098 0.592889 0.000000
0.779934 0.537804 0.000000
0.826413 0.534356 0.000000
0.868803 0.565606 0.000000
0.902068 0.591699 0.000000
0.929381 0.615076 0.000000
0.952270 0.636042 0.000000
0.972015 0.653132 0.000000
0.988830 0.667536 0.000000
1.000000 0.657832 0.000000
1.000000 0.614893 0.000000
1.000000 0.575463 0.000000
1.000000 0.543816 0.000000
1.000000 0.525048 0.000000
1.000000 0.521843 0.000000
1.000000 0.533745 0.233280
1.000000 0.559503 0.358740
1.000000 0.598352 0.474372
0.286748 0.789761 0.268956
0.299748 0.789639 0.271855
0.316655 0.789120 0.275578
0.351324 0.788235 0.283757
0.399695 0.786923 0.296239
0.456886 0.785245 0.312840
0.518975 0.783444 0.333379
0.566247 0.779904 0.303044
0.617578 0.775875 0.260044
0.672908 0.771542 0.205356
0.730465 0.766842 0.124392
0.783810 0.757168 0.000000
0.790555 0.736324 0.000000
0.797208 0.710018 0.000000
0.803494 0.676814 0.000000
0.809323 0.635004 0.000000
0.815122 0.583185 0.000000
0.854002 0.572778 0.000000
0.891234 0.597986 0.000000
0.920806 0.618830 0.000000
0.945373 0.637690 0.000000
0.965972 0.655238 0.000000
0.983856 0.669764 0.000000
0.999359 0.682307 0.000000
1.000000 0.692866 0.000000
1.000000 0.653346 0.000000
1.000000 0.614954 0.000000
1.000000 0.583551 0.000000
1.000000 0.564080 0.000000
1.000000 0.560510 0.000000
1.000000 0.571893 0.239567
1.000000 0.597162 0.377478
0.345068 0.827939 0.321935
0.357488 0.828428 0.325963
0.415534 0.852781 0.375280
0.441444 0.851560 0.382788
0.478279 0.849454 0.394049
0.522210 0.846708 0.408484
0.571862 0.843320 0.426337
0.615595 0.839384 0.417365
0.656855 0.834928 0.378302
0.703182 0.830045 0.331853
0.752682 0.824674 0.275242
0.803555 0.818601 0.201450
0.835752 0.804196 0.108736
0.840299 0.783474 0.000000
0.844846 0.757900 0.000000
0.849302 0.726436 0.000000
0.853849 0.687617 0.000000
0.858610 0.640070 0.000000
0.889220 0.622126 0.000000
0.919829 0.638483 0.000000
0.944518 0.652125 0.000000
0.965423 0.665187 0.000000
0.983124 0.678157 0.000000
0.998596 0.689387 0.000000
1.000000 0.699001 0.000000
1.000000 0.707576 0.000000
1.000000 0.687831 0.000000
1.000000 0.649561 0.000000
1.000000 0.617884 0.000000
1.000000 0.597955 0.000000
1.000000 0.593927 0.000000
1.000000 0.604730 0.247166
0.409186 0.863523 0.387854
0.422858 0.865904 0.396368
0.439338 0.868101 0.406012
0.466102 0.869352 0.418463
0.500969 0.869352 0.433234
0.540978 0.867796 0.449134
0.585016 0.865232 0.466682
0.629969 0.861936 0.479866
0.664759 0.858457 0.446204
0.704494 0.854398 0.406256
0.748501 0.849821 0.358740
0.794919 0.844541 0.301091
0.842069 0.838315 0.226963
0.858824 0.821622 0.161898
0.862913 0.801724 0.090120
0.867033 0.777462 0.000000
0.871275 0.747951 0.000000
0.875792 0.712245 0.000000
0.880919 0.669062 0.000000
0.907805 0.648676 0.000000
0.935454 0.661433 0.000000
0.958465 0.672450 0.000000
0.977874 0.682826 0.000000
0.994263 0.693294 0.000000
1.000000 0.702846 0.000000
1.000000 0.711086 0.000000
1.000000 0.718410 0.000000
1.000000 0.716274 0.000000
1.000000 0.679133 0.000000
1.000000 0.647456 0.000000
1.000000 0.627283 0.000000
1.000000 0.622980 0.000000
0.450202 0.884581 0.436744
0.461921 0.886229 0.444617
0.475654 0.887785 0.453315
0.498085 0.888518 0.464820
0.527977 0.888243 0.478553
0.562432 0.886717 0.493385
0.600916 0.884337 0.509880
0.642176 0.881407 0.528283
0.675410 0.878538 0.513298
0.708919 0.875303 0.478584
0.747036 0.871580 0.437964
0.788540 0.867124 0.389593
0.831785 0.861753 0.330510
0.875059 0.855131 0.256962
0.879484 0.837278 0.209842
0.883482 0.818326 0.153170
0.887572 0.795682 0.045136
0.891905 0.768460 0.000000
0.896818 0.735927 0.000000
0.902495 0.697078 0.000000
0.926024 0.675654 0.000000
0.951019 0.684230 0.000000
0.972168 0.692348 0.000000
0.990021 0.699947 0.000000
1.000000 0.707637 0.000000
1.000000 0.715328 0.000000
1.000000 0.722164 0.000000
1.000000 0.728511 0.000000
1.000000 0.734371 0.000000
1.000000 0.704921 0.000000
1.000000 0.673030 0.000000
1.000000 0.652125 0.000000
0.489174 0.902220 0.486366
0.499092 0.903410 0.493690
0.511070 0.904509 0.501854
0.530205 0.904906 0.512627
0.555688 0.904417 0.525292
0.585229 0.902953 0.538842
0.618158 0.900755 0.553674
0.653986 0.898070 0.570306
0.688380 0.895262 0.576867
0.715694 0.892638 0.547356
0.747616 0.889586 0.512413
0.783566 0.885801 0.470466
0.822354 0.881285 0.420478
0.863005 0.876097 0.360815
0.893370 0.865629 0.297185
0.897673 0.851102 0.256046
0.902403 0.834043 0.207614
0.907591 0.814023 0.145815
0.913359 0.790402 0.000000
0.919738 0.762417 0.000000
0.926757 0.728908 0.000000
0.947906 0.708248 0.000000
0.970153 0.711879 0.000000
0.989227 0.716487 0.000000
1.000000 0.720638 0.000000
1.000000 0.725368 0.000000
1.000000 0.731136 0.000000
1.000000 0.736446 0.000000
1.000000 0.741390 0.000000
1.000000 0.745998 0.000000
1.000000 0.730282 0.000000
1.000000 0.698360 0.000000
0.542260 0.921569 0.555810
0.548547 0.921813 0.559991
0.556085 0.921874 0.564477
0.570001 0.921355 0.571435
0.589807 0.920317 0.580835
0.613886 0.918669 0.591974
0.641779 0.916594 0.605280
0.672694 0.914244 0.620691
0.705989 0.911742 0.638178
0.730220 0.909789 0.622217
0.756039 0.907652 0.594293
0.786007 0.904875 0.560235
0.819333 0.901335 0.518761
0.855436 0.897063 0.468666
0.893584 0.892088 0.408881
0.912383 0.880522 0.356695
0.916960 0.867124 0.317266
0.921965 0.851377 0.272221
0.927367 0.832975 0.219974
0.933196 0.811246 0.153628
0.939422 0.785397 0.000000
0.945861 0.754086 0.000000
0.963714 0.732357 0.000000
0.982879 0.730922 0.000000
1.000000 0.732723 0.000000
1.000000 0.734463 0.000000
1.000000 0.737179 0.000000
1.000000 0.741726 0.000000
1.000000 0.745998 0.000000
1.000000 0.749935 0.000000
1.000000 0.753567 0.000000
1.000000 0.751705 0.000000
0.576135 0.932860 0.602594
0.581628 0.933013 0.606439
0.588159 0.933074 0.610742
0.600244 0.932586 0.617182
0.616938 0.931609 0.625605
0.637385 0.930053 0.635431
0.661067 0.928130 0.646967
0.687465 0.925933 0.660365
0.716365 0.923552 0.675776
0.742153 0.921416 0.679622
0.762448 0.919799 0.656458
0.786648 0.917693 0.628534
0.814542 0.914946 0.594537
0.846067 0.911559 0.553460
0.880339 0.907561 0.504356
0.916777 0.903014 0.445533
0.926024 0.890929 0.404669
0.931121 0.878660 0.367376
0.936522 0.864225 0.325383
0.942321 0.847349 0.277409
0.948516 0.827481 0.221103
0.955047 0.803830 0.147799
0.961883 0.775540 0.000000
0.977996 0.754482 0.000000
0.992767 0.746181 0.000000
1.000000 0.746181 0.000000
1.000000 0.746273 0.000000
1.000000 0.747402 0.000000
1.000000 0.751034 0.000000
1.000000 0.754330 0.000000
1.000000 0.757382 0.000000
1.000000 0.760189 0.000000
0.619928 0.944701 0.661433
0.624842 0.944854 0.665187
0.630091 0.944732 0.668605
0.639368 0.944152 0.673487
0.652461 0.943084 0.679927
0.668788 0.941588 0.687739
0.688045 0.939727 0.697078
0.709712 0.937560 0.707698
0.733425 0.935210 0.719753
0.758511 0.932738 0.732815
0.774594 0.931121 0.717678
0.792660 0.929381 0.694331
0.814603 0.927153 0.665949
0.840238 0.924315 0.631586
0.869322 0.920745 0.589563
0.901427 0.916533 0.538964
0.931853 0.909056 0.480049
0.936461 0.898802 0.445441
0.941650 0.887114 0.408392
0.947417 0.873747 0.368078
0.953613 0.858244 0.323583
0.960143 0.839902 0.271611
0.966766 0.817868 0.207950
0.973480 0.791165 0.115541
0.987762 0.769924 0.000000
1.000000 0.762539 0.000000
1.000000 0.760678 0.000000
1.000000 0.758755 0.000000
1.000000 0.757992 0.000000
1.000000 0.760555 0.000000
1.000000 0.762844 0.000000
1.000000 0.764889 0.000000
0.648249 0.951965 0.699733
0.652461 0.952026 0.703029
0.657130 0.951934 0.706172
0.665095 0.951385 0.710536
0.676295 0.950469 0.716182
0.690425 0.949157 0.723232
0.707179 0.947570 0.731655
0.726040 0.945800 0.741268
0.746792 0.943816 0.752041
0.768856 0.941772 0.763638
0.787533 0.940032 0.765835
0.801358 0.938842 0.748714
0.818357 0.937285 0.727749
0.838712 0.935241 0.701411
0.862638 0.932647 0.668727
0.890043 0.929442 0.629023
0.920745 0.925719 0.581445
0.942290 0.917906 0.534173
0.947356 0.908690 0.502678
0.952972 0.898100 0.468025
0.959075 0.885801 0.429633
0.965515 0.871427 0.386419
0.972229 0.854337 0.336126
0.979126 0.833860 0.276677
0.986053 0.809110 0.202457
0.999145 0.788357 0.123049
1.000000 0.778927 0.000000
1.000000 0.775540 0.000000
1.000000 0.771847 0.000000
1.000000 0.769375 0.000000
1.000000 0.770901 0.000000
1.000000 0.772030 0.000000
0.678096 0.958709 0.738216
0.681422 0.958709 0.740597
0.684810 0.958526 0.742580
0.691035 0.957977 0.745724
0.700038 0.957092 0.749996
0.711666 0.955871 0.755489
0.725673 0.954437 0.762203
0.741756 0.952819 0.770138
0.759762 0.951080 0.779263
0.778988 0.949310 0.789212
0.799161 0.947448 0.799588
0.811337 0.946502 0.790707
0.824399 0.945434 0.775570
0.840299 0.943969 0.756527
0.859159 0.942077 0.732448
0.881498 0.939635 0.702205
0.907408 0.936706 0.664820
0.936706 0.933318 0.620203
0.950469 0.925261 0.582971
0.955749 0.916777 0.553979
0.961547 0.907042 0.521691
0.967864 0.895598 0.484688
0.974487 0.882139 0.442023
0.981445 0.866117 0.392737
0.988617 0.846921 0.334874
0.995880 0.823789 0.265599
1.000000 0.803616 0.200473
1.000000 0.792660 0.000000
1.000000 0.787961 0.000000
1.000000 0.782864 0.000000
1.000000 0.779171 0.000000
1.000000 0.779873 0.000000
0.702052 0.964111 0.767819
0.704585 0.964050 0.769497
0.707515 0.963867 0.771206
0.712886 0.963439 0.773983
0.721187 0.962707 0.778195
0.732021 0.961822 0.783841
0.745449 0.960784 0.791135
0.760830 0.959716 0.799710
0.777920 0.958556 0.809354
0.795895 0.957427 0.819608
0.814450 0.956268 0.830014
0.830076 0.955352 0.834684
0.840177 0.954986 0.825864
0.852079 0.954253 0.814481
0.866178 0.953155 0.799893
0.882780 0.951598 0.780972
0.902556 0.949554 0.757015
0.925750 0.947143 0.727016
0.952697 0.944305 0.689662
0.959472 0.936461 0.663233
0.964752 0.929015 0.637934
0.970550 0.920287 0.608759
0.976898 0.909941 0.574243
0.983795 0.897673 0.533745
0.991180 0.882933 0.485634
0.999023 0.865141 0.428473
1.000000 0.843717 0.361486
1.000000 0.824155 0.301549
1.000000 0.811673 0.195468
1.000000 0.804776 0.000000
1.000000 0.797238 0.000000
1.000000 0.791562 0.000000
0.736446 0.970581 0.805997
0.738308 0.970489 0.807126
0.740383 0.970306 0.808133
0.744625 0.969879 0.810117
0.751095 0.969207 0.813138
0.759640 0.968353 0.817258
0.770199 0.967407 0.822446
0.782498 0.966308 0.828672
0.796201 0.965179 0.835691
0.811002 0.964019 0.843320
0.826291 0.962799 0.851133
0.841978 0.961578 0.859007
0.851225 0.960998 0.855283
0.859892 0.960418 0.846647
