data/fiter_cube/65184230/1022647/file.cube
# Created by Adobe Lightroom plugin Export LUT (1.17.0)
# www.johnrellis.com/lightroom/exportlut.htm
# Preset: ins网红旅拍风景人像_06 云集
# Color profile: C:\Program Files (x86)\Common Files\Adobe\Color\Profiles\Recommended\AdobeRGB1998.icc
LUT_3D_SIZE 8
DOMAIN_MIN 0.000000 0.000000 0.000000
DOMAIN_MAX 0.903226 0.903226 0.903226
0.070954 0.079286 0.099153
0.059846 0.073121 0.090639
0.147616 0.029511 0.097353
0.388159 0.000000 0.130617
0.686336 0.000000 0.212253
0.852140 0.000000 0.343938
0.932433 0.278691 0.519188
0.959380 0.594812 0.713161
0.065461 0.069978 0.091279
0.063966 0.074281 0.095277
0.206271 0.041993 0.084108
0.443122 0.000000 0.079225
0.691279 0.000000 0.124666
0.848203 0.000000 0.249638
0.935698 0.131289 0.445502
0.965881 0.545068 0.672511
0.000000 0.201053 0.080873
0.132540 0.215152 0.080018
0.256077 0.152316 0.064271
0.665980 0.295384 0.000000
0.797971 0.000000 0.000000
0.904631 0.000000 0.093172
0.976898 0.107210 0.329137
0.996521 0.487129 0.591608
0.000000 0.553765 0.111574
0.251011 0.553582 0.145052
0.560906 0.528557 0.000000
0.627008 0.366766 0.000000
0.871885 0.534081 0.000000
0.959655 0.501366 0.000000
1.000000 0.366308 0.000000
1.000000 0.458320 0.405310
0.286748 0.789761 0.268956
0.399695 0.786923 0.296239
0.617578 0.775875 0.260044
0.790555 0.736324 0.000000
0.815122 0.583185 0.000000
0.945373 0.637690 0.000000
1.000000 0.692866 0.000000
1.000000 0.564080 0.000000
0.489174 0.902220 0.486366
0.555688 0.904417 0.525292
0.688380 0.895262 0.576867
0.822354 0.881285 0.420478
0.902403 0.834043 0.207614
0.926757 0.728908 0.000000
1.000000 0.720638 0.000000
1.000000 0.741390 0.000000
0.648249 0.951965 0.699733
0.676295 0.950469 0.716182
0.746792 0.943816 0.752041
0.818357 0.937285 0.727749
0.920745 0.925719 0.581445
0.959075 0.885801 0.429633
0.986053 0.809110 0.202457
1.000000 0.771847 0.000000
0.756313 0.974792 0.827237
0.769223 0.973571 0.833494
0.809689 0.970153 0.853819
0.863462 0.966369 0.879423
0.894316 0.961364 0.832792
0.964172 0.952300 0.756497
0.985351 0.924437 0.669917
1.000000 0.863615 0.462776
0.067811 0.075441 0.091463
0.061036 0.070771 0.088289
0.158511 0.019013 0.085664
0.412604 0.000000 0.084474
0.669062 0.000000 0.132998
0.830747 0.000000 0.254856
0.925292 0.128969 0.451392
0.958831 0.541222 0.675410
0.062898 0.069703 0.088045
0.069032 0.072358 0.087160
0.215183 0.066468 0.081849
0.469551 0.000000 0.060151
0.688228 0.000000 0.091554
0.838193 0.000000 0.190219
0.929534 0.000000 0.384741
0.964935 0.486030 0.631464
0.006073 0.189548 0.098878
0.137240 0.209232 0.098695
0.248142 0.148348 0.072572
0.628870 0.264347 0.000000
0.777584 0.000000 0.000000
0.887846 0.000000 0.000000
0.963226 0.000000 0.269963
0.994598 0.419837 0.541344
0.000000 0.499763 0.132387
0.239719 0.509819 0.164584
0.531609 0.496590 0.000000
0.574395 0.323613 0.000000
0.830991 0.479774 0.000000
0.936187 0.485603 0.000000
0.992065 0.335424 0.000000
1.000000 0.415290 0.358556
0.292943 0.778195 0.287602
0.395514 0.773831 0.309209
0.603418 0.760189 0.275517
0.766934 0.712154 0.000000
0.788602 0.552728 0.000000
0.932738 0.622034 0.000000
1.000000 0.685420 0.000000
1.000000 0.555474 0.000000
0.478492 0.894408 0.482612
0.532464 0.892271 0.503777
0.671290 0.884123 0.559625
0.809598 0.871824 0.414466
0.893553 0.827115 0.223209
0.921263 0.725551 0.000000
1.000000 0.718624 0.000000
1.000000 0.738674 0.000000
0.629999 0.947723 0.683101
0.653773 0.945220 0.692866
0.730648 0.939025 0.733150
0.810147 0.933318 0.718502
0.915099 0.922759 0.580743
0.954314 0.882567 0.430732
0.980194 0.803891 0.207614
1.000000 0.768490 0.000000
0.746426 0.973632 0.820615
0.761105 0.972595 0.828275
0.803342 0.969238 0.849668
0.860502 0.965332 0.878599
0.896605 0.962890 0.845426
0.963256 0.953399 0.769528
0.983520 0.924468 0.676692
1.000000 0.862760 0.468452
0.060365 0.069490 0.091127
0.062501 0.070558 0.088838
0.137697 0.085359 0.128450
0.422705 0.000000 0.129427
0.710842 0.000000 0.104128
0.863798 0.000000 0.197696
0.944244 0.000000 0.415503
0.964508 0.553063 0.679408
0.060395 0.081697 0.105531
0.075898 0.085237 0.106447
0.184207 0.075959 0.128573
0.469337 0.000000 0.103731
0.721920 0.000000 0.067964
0.867430 0.000000 0.158022
0.949340 0.000000 0.353826
0.971496 0.513054 0.644526
0.059388 0.190829 0.168795
0.102998 0.221714 0.158206
0.283360 0.176364 0.122560
0.627222 0.216678 0.000000
0.797787 0.079286 0.000000
0.907469 0.000000 0.000000
0.971801 0.000000 0.250126
0.997040 0.428077 0.540429
0.086885 0.510124 0.254887
0.194369 0.530053 0.233890
0.527520 0.520012 0.177554
0.602350 0.366064 0.089967
0.845151 0.500633 0.000000
0.944121 0.503563 0.000000
0.998962 0.374456 0.000000
1.000000 0.432868 0.367773
0.270237 0.774014 0.362982
0.367834 0.776516 0.368322
0.604669 0.768734 0.386999
0.773404 0.730617 0.211337
0.801297 0.586755 0.000000
0.937652 0.636164 0.000000
1.000000 0.687556 0.000000
1.000000 0.558648 0.000000
0.468605 0.894438 0.524163
0.529259 0.892210 0.547631
0.669368 0.883635 0.605737
0.798032 0.870878 0.492683
0.885191 0.828244 0.328832
0.913817 0.730159 0.155154
0.999573 0.725002 0.000000
1.000000 0.739437 0.000000
0.637385 0.947906 0.713649
0.661341 0.945800 0.723537
0.731044 0.939483 0.755062
0.807431 0.932769 0.753964
0.903258 0.922759 0.635248
0.947539 0.886198 0.505760
0.976654 0.813718 0.331456
1.000000 0.780117 0.000000
0.748348 0.972778 0.831601
0.754452 0.972320 0.831785
0.794919 0.968994 0.850217
0.855222 0.965576 0.880766
0.893004 0.962799 0.859251
0.959380 0.955230 0.794949
0.978058 0.928283 0.720516
1.000000 0.870390 0.544884
0.064759 0.082216 0.129702
0.082094 0.089082 0.123598
0.118105 0.130465 0.151553
0.368780 0.170108 0.261753
0.639582 0.000000 0.297765
0.845365 0.000000 0.255039
0.944121 0.000000 0.375433
0.962402 0.539666 0.671534
0.079896 0.120912 0.170169
0.106477 0.118563 0.161318
0.158846 0.169467 0.188968
0.403998 0.187381 0.281865
0.671107 0.000000 0.264958
0.854185 0.000000 0.232151
0.950256 0.000000 0.331975
0.968902 0.511559 0.645930
0.095857 0.208408 0.223087
0.144717 0.222995 0.235935
0.326085 0.252171 0.239170
0.562036 0.166934 0.219181
0.762631 0.000000 0.193271
0.898192 0.000000 0.187442
0.980804 0.128389 0.247868
0.995880 0.455268 0.567132
0.220706 0.498360 0.412543
0.263981 0.512627 0.403021
0.461830 0.537285 0.361395
0.614557 0.422187 0.257847
0.842313 0.531365 0.000000
0.932525 0.463661 0.000000
0.996094 0.385290 0.000000
1.000000 0.438025 0.394598
0.358495 0.772549 0.536156
0.393500 0.774838 0.517174
0.567620 0.777035 0.516411
0.768856 0.749477 0.391363
0.808072 0.631067 0.289860
0.940215 0.667628 0.000000
1.000000 0.659693 0.000000
1.000000 0.550988 0.000000
0.523583 0.892973 0.650629
0.557244 0.897185 0.654780
0.658045 0.891539 0.671443
0.785702 0.880003 0.630579
0.880369 0.844724 0.494942
0.910521 0.754910 0.364202
0.997925 0.746151 0.000000
1.000000 0.738125 0.000000
0.661646 0.943877 0.769863
0.675654 0.943969 0.771237
0.729244 0.941741 0.786893
0.810452 0.935943 0.815152
0.886503 0.928069 0.735714
0.938079 0.896696 0.625971
0.967102 0.827970 0.478828
1.000000 0.794888 0.138064
0.765316 0.971008 0.857786
0.772213 0.970947 0.859190
0.791714 0.970489 0.861784
0.843259 0.966857 0.883360
0.887907 0.963500 0.881956
0.946593 0.958190 0.833829
0.970184 0.934081 0.775265
0.999786 0.881498 0.642542
0.098787 0.128267 0.215427
0.131044 0.137423 0.207340
0.160189 0.170748 0.190188
0.340459 0.318669 0.342382
0.594049 0.334905 0.452216
0.770626 0.348669 0.527031
0.911833 0.353857 0.547662
0.964111 0.546990 0.675441
0.127169 0.172976 0.260166
0.160800 0.175235 0.251957
0.205997 0.212589 0.230564
0.379950 0.335637 0.367437
0.605310 0.345403 0.461311
0.789090 0.330877 0.511467
0.920256 0.337011 0.527031
0.970642 0.525414 0.654139
0.163363 0.299626 0.346441
0.211887 0.311254 0.357977
0.334569 0.321508 0.348302
0.474830 0.378180 0.427192
0.668055 0.336706 0.452338
0.840909 0.246403 0.416602
0.942931 0.294530 0.447181
0.992432 0.434607 0.560143
0.258946 0.452857 0.445228
0.312108 0.470588 0.462745
0.449470 0.529961 0.510216
0.627527 0.512840 0.433509
0.805570 0.504662 0.363989
0.900114 0.455451 0.351965
0.969390 0.425360 0.374792
1.000000 0.429908 0.452796
0.443030 0.747860 0.657496
0.468666 0.755001 0.655207
0.538079 0.771054 0.625391
0.728725 0.761654 0.556878
0.791958 0.660121 0.462959
0.929076 0.693751 0.280278
0.993683 0.623072 0.199557
1.000000 0.529656 0.228672
0.557580 0.876463 0.736538
0.574975 0.877623 0.733272
0.622736 0.879454 0.712825
0.744137 0.872679 0.719844
0.854307 0.847044 0.605554
0.892729 0.771359 0.520348
0.989349 0.767330 0.316655
1.000000 0.725826 0.000000
0.686946 0.936980 0.820279
0.695613 0.936828 0.819303
0.724422 0.937011 0.816678
0.788632 0.934569 0.832303
0.856107 0.929259 0.806241
0.922301 0.904875 0.720180
0.951141 0.841611 0.607630
1.000000 0.808591 0.344518
0.772366 0.966339 0.876982
0.777432 0.966247 0.877317
0.793881 0.966155 0.878447
0.827451 0.967102 0.886809
0.879362 0.963867 0.904845
0.925719 0.959808 0.870115
0.961059 0.940002 0.820768
0.986969 0.892058 0.725704
0.189883 0.219516 0.356725
0.229465 0.230655 0.349950
0.288487 0.269963 0.312444
0.349920 0.340185 0.358923
0.580285 0.520500 0.562280
0.743832 0.551415 0.649195
0.845914 0.640742 0.741543
0.924895 0.720974 0.805295
0.213504 0.256107 0.390845
0.247929 0.259190 0.380377
0.314946 0.291447 0.340490
0.372137 0.360723 0.379828
0.588556 0.521019 0.565972
0.744564 0.551110 0.648096
0.845579 0.640101 0.739956
0.928130 0.711971 0.797391
0.258091 0.400214 0.489937
0.312688 0.398627 0.493629
0.413855 0.393347 0.468360
0.475288 0.466072 0.484779
0.638056 0.561303 0.610285
0.761166 0.577813 0.666560
0.873625 0.620478 0.718349
0.941955 0.692439 0.775448
0.339269 0.548699 0.578698
0.372595 0.552209 0.581994
0.475257 0.573205 0.602045
0.600275 0.624048 0.634882
0.715023 0.618402 0.663478
0.842222 0.576593 0.637201
0.920287 0.597711 0.662654
0.968231 0.656245 0.723232
0.474250 0.726680 0.700252
0.506767 0.735714 0.710719
0.599268 0.762814 0.743221
0.665461 0.784390 0.725765
0.786374 0.734737 0.655940
0.898314 0.714992 0.580529
0.952087 0.660761 0.590509
0.994812 0.638941 0.627802
0.632624 0.870268 0.819394
0.647761 0.873381 0.821195
0.682551 0.878386 0.818173
0.725612 0.883696 0.799313
0.835935 0.870176 0.756527
0.874907 0.808072 0.694362
0.974884 0.799344 0.536858
1.000000 0.715541 0.454200
0.728908 0.931945 0.868803
0.737697 0.932738 0.869841
0.759060 0.933837 0.869261
0.788144 0.935851 0.865568
0.844907 0.932891 0.871397
0.908293 0.919188 0.815793
0.933288 0.867094 0.750271
1.000000 0.835691 0.554559
0.792233 0.962402 0.902098
0.796048 0.962371 0.902220
0.809232 0.962615 0.902922
0.830900 0.963928 0.904784
0.862455 0.964416 0.909789
0.904723 0.962158 0.906798
0.952148 0.948547 0.868254
0.973114 0.907561 0.810422
0.317266 0.336828 0.523430
0.353491 0.347478 0.518578
0.421363 0.376440 0.481880
0.445930 0.433967 0.453315
0.572564 0.587121 0.599908
0.730343 0.710445 0.745876
0.826474 0.734920 0.796872
0.894682 0.807767 0.862028
0.318578 0.354467 0.536950
0.354101 0.362219 0.531548
0.428290 0.388006 0.496590
0.453254 0.441749 0.461006
0.572473 0.586969 0.599786
0.725063 0.698421 0.735744
0.821286 0.722133 0.786557
0.892485 0.801785 0.857542
0.383948 0.492744 0.627192
0.414374 0.487984 0.625513
0.477424 0.471778 0.593805
0.523247 0.523278 0.539666
0.618311 0.647974 0.657801
0.746395 0.719692 0.757534
0.831510 0.742702 0.801694
0.897826 0.815549 0.866484
0.394812 0.634394 0.697505
0.415534 0.632013 0.695918
0.483253 0.630335 0.696468
0.618616 0.639612 0.684901
0.684779 0.731899 0.740810
0.777676 0.754940 0.790799
0.845731 0.769924 0.821012
0.910185 0.818723 0.867063
0.485115 0.754910 0.763760
0.502678 0.754147 0.763607
0.561700 0.756619 0.768002
0.644404 0.763333 0.778531
0.732509 0.786679 0.795987
0.804929 0.769192 0.800992
0.886503 0.758816 0.798428
0.935882 0.796841 0.840299
0.635889 0.864073 0.844450
0.652369 0.865812 0.847532
0.701015 0.871580 0.857572
0.762875 0.881193 0.873136
0.792874 0.884947 0.864347
0.858885 0.854459 0.825589
0.928862 0.829862 0.787716
0.964721 0.804135 0.803738
0.763729 0.925628 0.901122
0.769589 0.926452 0.901793
0.785824 0.928466 0.902739
0.808621 0.931548 0.903166
0.832120 0.934234 0.897948
0.886595 0.927794 0.881804
0.915557 0.891264 0.847745
0.992432 0.866178 0.730282
0.808530 0.956664 0.921080
0.812100 0.956909 0.921447
0.826383 0.958495 0.923949
0.844602 0.960296 0.926024
0.865537 0.962493 0.927184
0.897734 0.963348 0.931975
0.943999 0.958190 0.909545
0.960388 0.925170 0.878141
0.466133 0.495979 0.706569
0.490730 0.504082 0.701381
0.543267 0.521324 0.668940
0.575708 0.572045 0.612451
0.594568 0.616388 0.627619
0.727108 0.780728 0.790036
0.825986 0.837522 0.861601
0.885618 0.855955 0.890135
0.459571 0.505669 0.713893
0.485756 0.513207 0.708949
0.544091 0.530632 0.679438
0.581323 0.575708 0.622980
0.599084 0.622461 0.633387
0.727810 0.781521 0.790829
0.825742 0.836515 0.860868
0.885130 0.855070 0.889403
0.489754 0.599390 0.755337
0.501701 0.590173 0.751003
0.546532 0.573663 0.725032
0.617548 0.619562 0.686183
0.633265 0.667506 0.676814
0.743130 0.798093 0.807401
0.834287 0.845090 0.868681
0.887663 0.859220 0.892241
0.417639 0.698665 0.788754
0.448157 0.698299 0.790555
0.556420 0.692531 0.792813
0.644526 0.684443 0.773220
0.684810 0.731930 0.740871
0.772305 0.828092 0.837125
0.848112 0.859831 0.881590
0.893187 0.867857 0.898436
0.511650 0.797818 0.834714
0.526574 0.798459 0.835935
0.562493 0.793423 0.834409
0.612177 0.780941 0.830076
0.738949 0.788113 0.824521
0.800229 0.854887 0.863279
0.857572 0.869993 0.890105
0.899626 0.877592 0.905119
0.645716 0.883879 0.884031
0.653986 0.883238 0.884001
0.681239 0.881437 0.884398
0.721157 0.878538 0.885283
0.765347 0.873075 0.885191
0.824216 0.876432 0.884123
0.871336 0.886198 0.902831
0.914794 0.888182 0.911803
0.747677 0.928191 0.913512
0.753628 0.928069 0.914031
0.773220 0.927947 0.916045
0.804196 0.928801 0.920287
0.840513 0.930846 0.926390
0.872587 0.933379 0.931579
0.903410 0.918700 0.912718
0.943755 0.901183 0.904967
0.822629 0.953948 0.937102
0.825925 0.953887 0.937560
0.838132 0.954314 0.939696
0.856168 0.955962 0.942809
0.875303 0.958556 0.945434
0.895384 0.961486 0.947356
0.921569 0.962066 0.947234
0.946563 0.944396 0.931701
