data/fiter_cube/69180065/1023052/file.cube
# Created by Adobe Lightroom plugin Export LUT (1.17.0)
# www.johnrellis.com/lightroom/exportlut.htm
# Preset: 室内文艺胶片_05 云集
# Color profile: C:\Program Files (x86)\Common Files\Adobe\Color\Profiles\Recommended\AdobeRGB1998.icc
LUT_3D_SIZE 8
DOMAIN_MIN 0.000000 0.000000 0.000000
DOMAIN_MAX 0.903226 0.903226 0.903226
0.066560 0.089662 0.103578
0.081788 0.090547 0.105989
0.144869 0.086061 0.110292
0.267216 0.021729 0.113680
0.429938 0.000000 0.117861
0.610559 0.000000 0.125521
0.798062 0.000000 0.152193
0.934386 0.000000 0.221714
0.063447 0.106844 0.112551
0.079835 0.103304 0.108461
0.145815 0.104036 0.109468
0.268132 0.082063 0.112520
0.430274 0.000000 0.116182
0.609766 0.000000 0.123598
0.794522 0.000000 0.149477
0.932067 0.000000 0.218875
0.000000 0.191775 0.149477
0.070558 0.180850 0.139773
0.146548 0.168673 0.120424
0.284886 0.172763 0.105715
0.448035 0.151278 0.108064
0.631647 0.090517 0.115389
0.810575 0.000000 0.145480
0.938170 0.117250 0.221927
0.000000 0.359258 0.224186
0.000000 0.348028 0.211673
0.171695 0.297154 0.208255
0.294560 0.314305 0.150240
0.493782 0.329107 0.069215
0.666529 0.313939 0.085054
0.824155 0.315129 0.129091
0.939940 0.347906 0.219181
0.000000 0.580682 0.335729
0.000000 0.571038 0.323400
0.149783 0.535912 0.303410
0.324132 0.442573 0.321141
0.484016 0.503990 0.197665
0.692622 0.526513 0.000000
0.833921 0.509300 0.085664
0.940551 0.527123 0.214542
0.000000 0.783688 0.468544
0.000000 0.782071 0.463081
0.000000 0.760678 0.441871
0.378119 0.708461 0.435981
0.503105 0.640742 0.440833
0.679957 0.707210 0.282200
0.850858 0.719722 0.092348
0.942412 0.700374 0.221317
0.000000 0.919066 0.610620
0.000000 0.916503 0.608270
0.140719 0.903777 0.602167
0.461585 0.877562 0.621942
0.602472 0.831235 0.633661
0.684993 0.814969 0.607568
0.824887 0.849943 0.441108
0.942962 0.845243 0.266423
0.000000 0.987518 0.739864
0.104372 0.984710 0.742000
0.381811 0.974273 0.754726
0.590234 0.956054 0.785306
0.710231 0.933959 0.805295
0.776822 0.909636 0.821988
0.823331 0.914763 0.795193
0.908080 0.928313 0.674037
0.065217 0.092195 0.122530
0.081910 0.091829 0.116609
0.147036 0.092805 0.113619
0.268040 0.076905 0.112581
0.429541 0.000000 0.116335
0.607630 0.000000 0.124086
0.791196 0.000000 0.149386
0.929839 0.000000 0.217227
0.052827 0.111147 0.134096
0.082490 0.108614 0.127047
0.150820 0.109926 0.120363
0.271275 0.103334 0.111513
0.432410 0.000000 0.114809
0.610315 0.000000 0.122072
0.789242 0.000000 0.146883
0.927459 0.000000 0.214481
0.000000 0.202853 0.178866
0.059907 0.192569 0.166384
0.153384 0.177005 0.147097
0.288090 0.177127 0.121736
0.448096 0.165835 0.106600
0.626825 0.121431 0.113436
0.800748 0.005951 0.141665
0.932647 0.119112 0.216037
0.000000 0.366491 0.252537
0.000000 0.356481 0.240513
0.176181 0.313176 0.228244
0.294987 0.315099 0.180545
0.482856 0.322210 0.116335
0.652857 0.312505 0.083864
0.813474 0.313939 0.124300
0.934905 0.343786 0.212711
0.000000 0.586633 0.362982
0.000000 0.576623 0.350103
0.138582 0.541436 0.323613
0.329015 0.450843 0.334600
0.479805 0.499916 0.227420
0.685725 0.520714 0.103609
0.829557 0.507439 0.082155
0.938048 0.524285 0.210208
0.000000 0.783902 0.488258
0.000000 0.778866 0.479561
0.000000 0.758206 0.456367
0.374395 0.710414 0.447303
0.504692 0.638666 0.458442
0.679500 0.707271 0.311986
0.848600 0.718410 0.160739
0.941100 0.698207 0.217960
0.000000 0.917418 0.621241
0.000000 0.913939 0.616846
0.097932 0.901946 0.609522
0.451118 0.877104 0.625635
0.602258 0.832486 0.640925
0.684016 0.812772 0.619837
0.821408 0.847776 0.459998
0.939635 0.843198 0.296117
0.000000 0.987640 0.744472
0.000000 0.985077 0.746670
0.366339 0.974823 0.758114
0.582483 0.956695 0.786954
0.715084 0.936065 0.813443
0.779446 0.911528 0.827146
0.823423 0.914488 0.801328
0.906462 0.927825 0.685389
0.015290 0.096651 0.202731
0.087617 0.094881 0.196689
0.165896 0.090547 0.177676
0.295506 0.013581 0.158236
0.445716 0.000000 0.142031
0.625360 0.000000 0.121920
0.802945 0.000000 0.150088
0.935637 0.000000 0.222324
0.000000 0.122103 0.212192
0.072175 0.118135 0.209964
0.168063 0.116823 0.189456
0.294896 0.084169 0.165988
0.448371 0.017334 0.150607
0.627100 0.000000 0.119600
0.801999 0.000000 0.147616
0.934691 0.000000 0.220737
0.000000 0.208469 0.257389
0.000000 0.205295 0.249271
0.169223 0.198520 0.226658
0.305180 0.192447 0.204929
0.467018 0.178897 0.176364
0.642481 0.163577 0.132052
0.809781 0.134096 0.141573
0.936400 0.158450 0.219608
0.000000 0.408484 0.362432
0.000000 0.403357 0.349798
0.154238 0.365545 0.301732
0.316930 0.338872 0.270481
0.497871 0.334051 0.223148
0.666377 0.329137 0.171389
0.823026 0.337377 0.125032
0.939483 0.358068 0.218051
0.000000 0.621454 0.459113
0.000000 0.612421 0.445319
0.010651 0.579675 0.406378
0.356176 0.504997 0.393347
0.499641 0.521874 0.324651
0.693294 0.530449 0.243717
0.834287 0.517052 0.163088
0.941222 0.530571 0.215457
0.000000 0.802609 0.564660
0.000000 0.797574 0.556481
0.000000 0.777798 0.529961
0.381994 0.736080 0.513603
0.523827 0.646509 0.526665
0.683528 0.714290 0.405402
0.846281 0.721431 0.298314
0.943664 0.700557 0.224399
0.000000 0.925780 0.674678
0.000000 0.922576 0.670741
0.000000 0.910582 0.659663
0.435004 0.886198 0.661738
0.611475 0.845182 0.677852
0.692622 0.815488 0.672267
0.821500 0.852201 0.545129
0.936950 0.847776 0.411475
0.000000 0.991760 0.770779
0.000000 0.989258 0.770596
0.317082 0.979187 0.777249
0.563653 0.961120 0.800412
0.724269 0.938903 0.833646
0.784573 0.916320 0.840055
0.826566 0.915221 0.824247
0.904082 0.929137 0.732143
0.000000 0.105013 0.347570
0.010925 0.103517 0.347662
0.224430 0.091890 0.340551
0.341924 0.034302 0.302098
0.506371 0.000000 0.268559
0.645991 0.000000 0.216556
0.808225 0.000000 0.185519
0.938964 0.000000 0.225315
0.000000 0.133700 0.357855
0.000000 0.133913 0.357397
0.220218 0.130678 0.351415
0.344213 0.108217 0.313115
0.504723 0.000000 0.276493
0.641291 0.000000 0.232944
0.808347 0.000000 0.192599
0.938903 0.000000 0.224552
0.000000 0.225467 0.380072
0.000000 0.223148 0.374640
0.172702 0.219486 0.373297
0.345159 0.224125 0.346563
0.499580 0.182223 0.302831
0.654170 0.169223 0.271336
0.820493 0.159457 0.220188
0.943389 0.164981 0.227237
0.000000 0.386114 0.461372
0.000000 0.383551 0.454780
0.060700 0.377173 0.433906
0.338842 0.367803 0.400000
0.505180 0.356054 0.365087
0.671656 0.346746 0.322515
0.825986 0.345586 0.261662
0.945006 0.358495 0.225223
0.000000 0.640406 0.596307
0.000000 0.639124 0.590478
0.000000 0.638209 0.571252
0.340063 0.581750 0.500175
0.520043 0.549035 0.462043
0.697047 0.542657 0.402533
0.835874 0.532097 0.337072
0.946044 0.531914 0.240879
0.000000 0.836179 0.696773
0.000000 0.833860 0.690089
0.000000 0.815122 0.658198
0.340154 0.777798 0.615351
0.560388 0.706050 0.610895
0.692531 0.730648 0.542901
0.842069 0.729397 0.461463
0.940612 0.704555 0.370214
0.000000 0.938903 0.758694
0.000000 0.936492 0.754849
0.000000 0.926421 0.741970
0.392676 0.904692 0.728634
0.629206 0.868406 0.743465
0.709133 0.821256 0.744381
0.819669 0.857816 0.657649
0.928252 0.852598 0.557763
0.000000 0.998810 0.819211
0.000000 0.996643 0.818479
0.207706 0.988220 0.816709
0.510216 0.970703 0.823484
0.704311 0.947326 0.845487
0.790616 0.924773 0.858732
0.831357 0.916014 0.854002
0.901244 0.930907 0.790127
0.000000 0.124086 0.537926
0.000000 0.122103 0.540032
0.242649 0.106203 0.544366
0.435187 0.016083 0.533715
0.568475 0.000000 0.478157
0.728298 0.000000 0.435065
0.842771 0.000000 0.356115
0.941253 0.000000 0.320775
0.000000 0.156863 0.542565
0.000000 0.156924 0.545403
0.232242 0.150881 0.550378
0.438392 0.129458 0.544182
0.568414 0.071626 0.487007
0.726314 0.000000 0.442329
0.840665 0.000000 0.361639
0.941375 0.000000 0.324865
0.000000 0.252811 0.539757
0.000000 0.250462 0.545342
0.162264 0.247349 0.558923
0.431098 0.266941 0.569909
0.564660 0.252415 0.514824
0.714595 0.208316 0.462928
0.830594 0.085054 0.376898
0.941009 0.185031 0.335576
0.000000 0.393317 0.596521
0.000000 0.391028 0.591516
0.000000 0.384314 0.575463
0.350042 0.392309 0.580438
0.555108 0.418280 0.559899
0.695338 0.373846 0.494850
0.819181 0.355718 0.434089
0.943786 0.339757 0.347356
0.000000 0.592889 0.684474
0.000000 0.591852 0.680812
0.000000 0.587121 0.666407
0.280552 0.580011 0.641993
0.529656 0.570184 0.605615
0.686519 0.552056 0.557946
0.826291 0.536339 0.496101
0.940795 0.523674 0.407874
0.000000 0.816495 0.785275
0.000000 0.816281 0.782895
0.000000 0.814237 0.773342
0.190311 0.810971 0.757015
0.538354 0.763394 0.700679
0.692897 0.740902 0.674281
0.829709 0.732448 0.616297
0.931121 0.710170 0.531792
0.000000 0.951019 0.851102
0.000000 0.950317 0.849485
0.000000 0.943267 0.838743
0.282231 0.924559 0.816617
0.578027 0.893553 0.794186
0.726650 0.845243 0.796963
0.816159 0.862150 0.755306
0.916014 0.855253 0.688838
0.000000 1.000000 0.875883
0.000000 1.000000 0.874235
0.000000 0.997345 0.869078
0.420478 0.983032 0.864469
0.648463 0.961181 0.863920
0.792599 0.936461 0.880491
0.836484 0.915648 0.882353
0.898863 0.932311 0.840543
0.000000 0.159060 0.744656
0.000000 0.157382 0.746914
0.259953 0.145693 0.752621
0.500420 0.124788 0.763455
0.659358 0.000000 0.742458
0.765774 0.073274 0.669551
0.880125 0.139406 0.623774
0.959716 0.090974 0.545861
0.000000 0.192416 0.742550
0.000000 0.191989 0.744564
0.244663 0.187350 0.751644
0.490883 0.182528 0.762570
0.657465 0.152193 0.745815
0.762905 0.168063 0.674403
0.877195 0.200870 0.628992
0.957580 0.161440 0.550408
0.000000 0.287846 0.740871
0.000000 0.283207 0.744656
0.164950 0.286503 0.753475
0.460090 0.305272 0.766873
0.657618 0.325383 0.764309
0.757778 0.328130 0.696712
0.869169 0.337346 0.650752
0.951293 0.291356 0.567498
0.000000 0.420417 0.742184
0.000000 0.417609 0.738247
0.000000 0.412848 0.738460
0.374884 0.432166 0.766079
0.649348 0.506035 0.788083
0.748684 0.501030 0.733730
0.855009 0.484230 0.683375
0.940826 0.420020 0.589410
0.000000 0.588281 0.794156
0.000000 0.587060 0.791867
0.000000 0.582635 0.783383
0.244144 0.574212 0.767361
0.545586 0.597192 0.773770
0.726894 0.643244 0.763851
0.829496 0.596643 0.699733
0.921691 0.562036 0.623285
0.000000 0.766720 0.842405
0.000000 0.767178 0.841489
0.000000 0.766049 0.836210
0.212467 0.763546 0.826474
0.494606 0.759548 0.811185
0.698116 0.755734 0.789181
0.813626 0.738155 0.749050
0.916472 0.718166 0.687312
0.000000 0.927825 0.896117
0.000000 0.929168 0.896635
0.000000 0.931609 0.896941
0.216800 0.926085 0.890593
0.521508 0.917296 0.881926
0.720974 0.884764 0.853696
0.817655 0.869383 0.838895
0.905486 0.859190 0.799588
0.000000 1.000000 0.926146
0.000000 1.000000 0.925444
0.000000 1.000000 0.923064
0.290013 0.996460 0.919432
0.585107 0.976318 0.908354
0.758633 0.953002 0.900572
0.846891 0.925872 0.906279
0.899351 0.935027 0.886809
0.000000 0.223728 0.887694
0.067414 0.225193 0.889525
0.329839 0.226200 0.892088
0.538872 0.238102 0.896483
0.730251 0.296300 0.900938
0.821927 0.249699 0.877684
0.882597 0.318822 0.812833
0.953399 0.398688 0.777890
0.000000 0.251499 0.883970
0.000000 0.253178 0.885649
0.313481 0.256413 0.888731
0.527214 0.270420 0.893126
0.720943 0.326024 0.897704
0.817868 0.287968 0.876921
0.877440 0.343847 0.811521
0.949554 0.411017 0.776333
0.000000 0.333837 0.883665
0.000000 0.336309 0.884611
0.260960 0.345678 0.887327
0.500694 0.370001 0.892180
0.703761 0.428992 0.897032
0.815244 0.425666 0.884733
0.872404 0.460731 0.827146
0.943664 0.504997 0.796384
0.000000 0.458595 0.873472
0.000000 0.456550 0.874571
0.000000 0.455177 0.880003
0.431525 0.483009 0.888487
0.669093 0.548760 0.895384
0.806912 0.595666 0.893065
0.863676 0.603357 0.849454
0.933715 0.611749 0.819120
0.000000 0.600855 0.884886
0.000000 0.598260 0.882902
0.000000 0.590112 0.876738
0.216312 0.577874 0.868711
0.575433 0.627466 0.885130
0.790677 0.722469 0.897765
0.849119 0.714351 0.865476
0.920165 0.701991 0.835935
0.000000 0.755337 0.906584
0.000000 0.754665 0.905699
0.000000 0.752316 0.902434
0.204135 0.747494 0.896422
0.461860 0.738827 0.885069
0.711330 0.770199 0.888426
0.838865 0.812985 0.886198
0.904997 0.776181 0.847257
0.000000 0.886595 0.926024
0.000000 0.886809 0.925780
0.000000 0.886107 0.923980
0.259983 0.884611 0.920836
0.504509 0.880766 0.915099
0.683925 0.876127 0.906889
0.818662 0.872953 0.895689
0.895048 0.858396 0.870939
0.000000 0.984527 0.949798
0.000000 0.984283 0.949584
0.000000 0.984833 0.950286
0.330541 0.984405 0.951141
0.556359 0.977050 0.948302
0.724361 0.966705 0.943328
0.842527 0.947448 0.930938
0.902708 0.938506 0.924498
0.289403 0.340398 0.961608
0.332769 0.343877 0.961791
0.447761 0.353185 0.961303
0.598138 0.380499 0.961059
0.746731 0.438911 0.960021
0.859800 0.518212 0.957336
0.908080 0.452003 0.936919
0.944732 0.507622 0.893095
0.276524 0.361761 0.960235
0.321538 0.365240 0.960449
0.439948 0.375402 0.960174
0.591638 0.401953 0.959808
0.741939 0.459449 0.958862
0.857420 0.542260 0.956420
0.905943 0.476265 0.937041
0.942351 0.524315 0.893584
0.220981 0.427405 0.957946
0.275883 0.431067 0.958007
0.408576 0.441688 0.957488
0.574640 0.474556 0.957916
0.729854 0.530571 0.956786
0.850919 0.616968 0.954833
0.902312 0.563317 0.940093
0.936767 0.592157 0.899351
0.000000 0.509758 0.954223
0.000000 0.513390 0.954559
0.330175 0.531456 0.954528
0.527398 0.561303 0.954589
0.703029 0.615473 0.953887
0.833738 0.691005 0.952911
0.899046 0.676051 0.946075
0.929473 0.684688 0.909209
0.000000 0.627131 0.949615
0.000000 0.625605 0.949187
0.000000 0.618250 0.947936
0.362585 0.620813 0.950072
0.634272 0.678279 0.949950
0.801419 0.746700 0.950103
0.887694 0.776120 0.947570
0.921508 0.774136 0.920562
0.000000 0.760616 0.956573
0.000000 0.758999 0.955871
0.000000 0.753933 0.953643
0.228000 0.744533 0.949706
0.440497 0.729610 0.942748
0.735836 0.789303 0.946807
0.882628 0.860166 0.952239
0.917418 0.852049 0.934844
0.000000 0.877928 0.964233
0.000000 0.877379 0.963806
0.000000 0.875608 0.962432
0.304387 0.873014 0.960021
0.499825 0.868589 0.955901
0.655543 0.861082 0.949126
0.829282 0.879759 0.948089
0.914092 0.904601 0.946319
0.000000 0.958282 0.970947
0.000000 0.957794 0.970672
0.136110 0.956390 0.969818
0.384710 0.953857 0.968383
0.560815 0.949950 0.966125
0.704860 0.945708 0.962921
0.816159 0.942443 0.958618
0.904112 0.939513 0.952331
