data/fiter_cube/69180065/1023052/file.cube
# Created by Adobe Lightroom plugin Export LUT (1.17.0)
# www.johnrellis.com/lightroom/exportlut.htm
# Preset: 室内文艺胶片_05 云集
# Color profile: C:\Program Files (x86)\Common Files\Adobe\Color\Profiles\Recommended\AdobeRGB1998.icc
LUT_3D_SIZE 32
DOMAIN_MIN 0.0 0.0 0.0
DOMAIN_MAX 1.0 1.0 1.0
0.066560 0.089662 0.103578
0.067872 0.089784 0.103792
0.070100 0.089815 0.104189
0.074647 0.090089 0.104799
0.081788 0.090547 0.105989
0.092012 0.090669 0.107149
0.105989 0.090120 0.108186
0.123262 0.088960 0.109316
0.144869 0.086061 0.110292
0.170199 0.081666 0.111055
0.199344 0.074067 0.111971
0.231754 0.061372 0.112825
0.267216 0.021729 0.113680
0.305211 0.000000 0.114534
0.345281 0.000000 0.115541
0.387091 0.000000 0.116640
0.429938 0.000000 0.117861
0.473762 0.000000 0.119326
0.517906 0.000000 0.120790
0.563500 0.000000 0.122896
0.610559 0.000000 0.125521
0.660334 0.000000 0.129671
0.709987 0.000000 0.135042
0.755764 0.000000 0.142611
0.798062 0.000000 0.152193
0.836912 0.000000 0.164614
0.872587 0.000000 0.179721
0.905028 0.000000 0.198642
0.934386 0.000000 0.221714
0.960662 0.000000 0.250217
0.983948 0.000000 0.285130
1.000000 0.000000 0.328405
0.066438 0.091127 0.104402
0.067475 0.091005 0.104158
0.069856 0.091035 0.104128
0.074800 0.091249 0.104952
0.082002 0.091707 0.105928
0.092195 0.091829 0.107057
0.106081 0.091585 0.108064
0.123354 0.090425 0.109224
0.144747 0.087953 0.110201
0.169924 0.083772 0.110933
0.198978 0.076875 0.111849
0.231296 0.065431 0.112673
0.266636 0.033661 0.113558
0.304479 0.000000 0.114382
0.344457 0.000000 0.115389
0.385992 0.000000 0.116335
0.428870 0.000000 0.117739
0.472480 0.000000 0.119020
0.516564 0.000000 0.120485
0.562158 0.000000 0.122621
0.609125 0.000000 0.125490
0.658900 0.000000 0.129000
0.707912 0.000000 0.134524
0.753597 0.000000 0.142061
0.795834 0.000000 0.151675
0.834897 0.000000 0.163729
0.870756 0.000000 0.178683
0.903471 0.000000 0.197391
0.933013 0.000000 0.220462
0.959533 0.000000 0.248783
0.982971 0.000000 0.283604
1.000000 0.000000 0.326604
0.065980 0.093446 0.105623
0.068055 0.092653 0.105623
0.069764 0.092775 0.104677
0.074495 0.093050 0.104829
0.081636 0.093477 0.106020
0.091859 0.093904 0.107149
0.105806 0.093690 0.108156
0.123384 0.092805 0.109071
0.144717 0.090700 0.110018
0.169894 0.086641 0.110780
0.198947 0.080446 0.111666
0.231144 0.070192 0.112459
0.266392 0.047974 0.113344
0.304509 0.000000 0.114351
0.344182 0.000000 0.115145
0.385840 0.000000 0.116304
0.428504 0.000000 0.117250
0.472206 0.000000 0.118715
0.516197 0.000000 0.120394
0.561730 0.000000 0.122316
0.608728 0.000000 0.125154
0.658503 0.000000 0.129061
0.707301 0.000000 0.134249
0.752773 0.000000 0.141787
0.794949 0.000000 0.151125
0.833921 0.000000 0.163119
0.869902 0.000000 0.178134
0.902678 0.000000 0.196872
0.932403 0.000000 0.219791
0.958953 0.000000 0.247959
0.982513 0.000000 0.282719
1.000000 0.000000 0.325566
0.065370 0.098390 0.108186
0.067872 0.097871 0.108186
0.070314 0.096773 0.108675
0.073610 0.097017 0.106386
0.081697 0.097383 0.105959
0.092226 0.097719 0.107088
0.106050 0.098054 0.108064
0.123781 0.097444 0.108949
0.145235 0.095705 0.109895
0.170596 0.092744 0.110567
0.199466 0.087648 0.111421
0.231907 0.079042 0.112184
0.267185 0.065309 0.112978
0.304997 0.024567 0.113985
0.344793 0.000000 0.114961
0.386328 0.000000 0.115785
0.428931 0.000000 0.116976
0.472419 0.000000 0.118379
0.516136 0.000000 0.119844
0.561395 0.000000 0.121798
0.608331 0.000000 0.124361
0.658228 0.000000 0.128237
0.706477 0.000000 0.133639
0.751949 0.000000 0.140871
0.794339 0.000000 0.150515
0.833646 0.000000 0.162722
0.869871 0.000000 0.177707
0.902800 0.000000 0.196414
0.932433 0.000000 0.219455
0.958923 0.000000 0.247745
0.982300 0.000000 0.282506
1.000000 0.072114 0.325078
0.063447 0.106844 0.112551
0.066285 0.106111 0.112154
0.069886 0.105257 0.111940
0.074006 0.101778 0.112581
0.079835 0.103304 0.108461
0.092073 0.104768 0.106783
0.106538 0.104738 0.107759
0.124331 0.104891 0.108583
0.145815 0.104036 0.109468
0.171328 0.102022 0.110109
0.200443 0.098207 0.110903
0.232761 0.091981 0.111788
0.268132 0.082063 0.112520
0.305943 0.065797 0.113252
0.345769 0.016144 0.114107
0.387518 0.000000 0.114870
0.430274 0.000000 0.116182
0.473854 0.000000 0.117678
0.517662 0.000000 0.119081
0.562921 0.000000 0.121096
0.609766 0.000000 0.123598
0.659632 0.000000 0.127565
0.707240 0.000000 0.132601
0.752285 0.000000 0.140017
0.794522 0.000000 0.149477
0.833677 0.000000 0.161593
0.869780 0.000000 0.176730
0.902525 0.000000 0.195773
0.932067 0.000000 0.218875
0.958465 0.000000 0.247288
0.981811 0.000000 0.281682
1.000000 0.113802 0.324437
0.059388 0.120089 0.118502
0.062715 0.119020 0.117739
0.066560 0.117891 0.116579
0.073671 0.114412 0.115969
0.079591 0.109865 0.116243
0.089631 0.112825 0.110567
0.107118 0.115450 0.107301
0.125307 0.115511 0.108125
0.147127 0.115084 0.108949
0.172946 0.114290 0.109712
0.202213 0.112001 0.110384
0.234836 0.107942 0.110933
0.270481 0.100923 0.111757
0.308354 0.090364 0.112367
0.348425 0.072999 0.113130
0.390204 0.028077 0.114168
0.433021 0.000000 0.114900
0.476448 0.000000 0.116335
0.520439 0.000000 0.117983
0.565667 0.000000 0.119875
0.613581 0.000000 0.122499
0.662928 0.000000 0.126131
0.725917 0.000000 0.133700
0.770230 0.000000 0.142031
0.810910 0.000000 0.152773
0.848142 0.000000 0.165774
0.882017 0.000000 0.182376
0.912627 0.000000 0.201846
0.940215 0.000000 0.226261
0.964874 0.000000 0.255528
0.986694 0.000000 0.291112
1.000000 0.181094 0.334783
0.045899 0.139406 0.127169
0.052247 0.138155 0.125765
0.059663 0.136843 0.124178
0.069703 0.133852 0.122042
0.081697 0.126467 0.122316
0.089540 0.122866 0.120577
0.104372 0.127169 0.113008
0.128054 0.131624 0.108034
0.150973 0.131533 0.107881
0.177371 0.130373 0.108644
0.207675 0.129458 0.109133
0.240909 0.126925 0.109743
0.276890 0.122560 0.110353
0.315312 0.115145 0.110964
0.355261 0.104311 0.111543
0.397009 0.088258 0.112642
0.439521 0.063081 0.113405
0.482979 0.000000 0.114870
0.526909 0.000000 0.116335
0.572778 0.000000 0.118105
0.623011 0.000000 0.121218
0.673548 0.000000 0.125277
0.721859 0.000000 0.131258
0.767300 0.000000 0.139467
0.809171 0.000000 0.150210
0.847105 0.000000 0.163943
0.881163 0.000000 0.180545
0.911772 0.000000 0.200595
0.939330 0.000000 0.224826
0.963928 0.000000 0.254124
0.985718 0.118807 0.289647
1.000000 0.210178 0.333227
0.017090 0.162722 0.136904
0.026581 0.161685 0.135622
0.038636 0.160281 0.133669
0.061128 0.157015 0.130556
0.077821 0.151003 0.128298
0.093019 0.139834 0.131228
0.102968 0.139803 0.126009
0.122896 0.145327 0.116274
0.153475 0.151858 0.109255
0.180117 0.151797 0.106752
0.210605 0.150546 0.107515
0.244083 0.148562 0.108064
0.280186 0.146090 0.108492
0.318791 0.141604 0.109133
0.358953 0.134493 0.109743
0.400519 0.125002 0.110445
0.443153 0.111818 0.111238
0.486397 0.093111 0.112337
0.530175 0.064790 0.113832
0.577569 0.000000 0.115999
0.626703 0.000000 0.118593
0.676173 0.000000 0.122774
0.723476 0.000000 0.128573
0.768032 0.000000 0.137148
0.809293 0.000000 0.148165
0.846799 0.000000 0.161563
0.880644 0.000000 0.178500
0.911101 0.000000 0.198734
0.938537 0.000000 0.223178
0.963043 0.091859 0.252903
0.984802 0.172274 0.288426
1.000000 0.242313 0.332189
0.000000 0.191775 0.149477
0.000000 0.190707 0.147890
0.000000 0.189425 0.146151
0.034424 0.186038 0.142336
0.070558 0.180850 0.139773
0.092866 0.170260 0.139467
0.108064 0.156619 0.143587
0.121340 0.161471 0.133272
0.146548 0.168673 0.120424
0.184298 0.177707 0.110353
0.214939 0.177127 0.106325
0.248508 0.175875 0.105165
0.284886 0.172763 0.105715
0.323522 0.169863 0.106172
0.363836 0.165743 0.106752
0.405463 0.159670 0.107454
0.448035 0.151278 0.108064
0.491279 0.140658 0.109133
0.536522 0.127687 0.110780
0.583276 0.111391 0.112520
0.631647 0.090517 0.115389
0.679957 0.060883 0.119722
0.726253 0.000000 0.125765
0.770016 0.000000 0.134310
0.810575 0.000000 0.145480
0.847471 0.000000 0.159670
0.880919 0.000000 0.176486
0.911009 0.061372 0.197147
0.938170 0.117250 0.221927
0.962463 0.167178 0.251713
0.984009 0.219120 0.287541
1.000000 0.275700 0.331456
0.000000 0.226078 0.164431
0.000000 0.224857 0.162783
0.000000 0.223362 0.160739
0.000000 0.220066 0.156954
0.051453 0.215000 0.153170
0.085359 0.206943 0.149538
0.112306 0.192264 0.153872
0.126680 0.179782 0.156161
0.144717 0.188022 0.141756
0.174868 0.196658 0.125795
0.220005 0.208560 0.111452
0.254002 0.207218 0.106142
0.290257 0.205814 0.101289
0.328954 0.202457 0.101900
0.369451 0.197879 0.102602
0.411414 0.194278 0.103243
0.455085 0.189456 0.103761
0.499641 0.183352 0.104707
0.544213 0.175753 0.106386
0.590387 0.167178 0.108095
0.637812 0.158175 0.110842
0.684413 0.148714 0.115450
0.729274 0.139315 0.121523
0.771603 0.132540 0.130617
0.811215 0.129335 0.142275
0.847562 0.132204 0.156588
0.880674 0.143557 0.174166
0.910674 0.162478 0.195010
0.937743 0.189090 0.220645
0.961975 0.222568 0.250767
0.983429 0.263218 0.287358
1.000000 0.311437 0.331823
0.000000 0.264500 0.181216
0.000000 0.263554 0.179873
0.000000 0.262119 0.177798
0.000000 0.258762 0.173922
0.000000 0.253758 0.169497
0.075807 0.246677 0.166934
0.110048 0.234012 0.165988
0.135683 0.217044 0.171267
0.150210 0.209232 0.168704
0.173037 0.219211 0.151888
0.208072 0.229374 0.132418
0.260685 0.244419 0.112825
0.297459 0.242252 0.105715
0.336126 0.240208 0.097963
0.376928 0.237034 0.095918
0.419348 0.232334 0.097047
0.463050 0.228519 0.097963
0.507042 0.224918 0.098634
0.551171 0.220157 0.100160
0.596582 0.215457 0.102174
0.643214 0.210910 0.104982
0.688991 0.206363 0.109651
0.733089 0.202853 0.116762
0.774563 0.200748 0.125887
0.813291 0.200717 0.138277
0.848997 0.204257 0.153231
0.881437 0.212161 0.171359
0.910857 0.225803 0.192874
0.937469 0.245365 0.218997
0.961364 0.271458 0.249912
0.982605 0.304875 0.286931
1.000000 0.346563 0.331731
0.000000 0.308080 0.200778
0.000000 0.307195 0.199588
0.000000 0.305882 0.197696
0.000000 0.302464 0.193668
0.000000 0.297459 0.188663
0.040650 0.290562 0.184787
0.101472 0.280919 0.181888
0.138460 0.263828 0.185550
0.162570 0.244144 0.191470
0.178653 0.243351 0.183139
0.205997 0.254887 0.163119
0.246159 0.266758 0.140078
0.314488 0.292485 0.113985
0.356054 0.290318 0.103578
0.398138 0.287724 0.092317
0.441169 0.284550 0.084993
0.484627 0.279362 0.086336
0.527916 0.273747 0.088869
0.571649 0.270848 0.090242
0.616693 0.268620 0.092805
0.661738 0.266331 0.096620
0.705379 0.264530 0.102449
0.747036 0.262913 0.111116
0.786282 0.262699 0.122164
0.822965 0.264042 0.135714
0.856718 0.268070 0.152071
0.887449 0.274815 0.171481
0.915404 0.285832 0.194278
0.940703 0.301823 0.221195
0.963531 0.323308 0.253147
0.983825 0.351659 0.290837
1.000000 0.388098 0.336584
0.000000 0.359258 0.224186
0.000000 0.358221 0.222812
0.000000 0.356725 0.220920
0.000000 0.353277 0.217014
0.000000 0.348028 0.211673
0.000000 0.340826 0.206577
0.088746 0.331762 0.204288
0.134310 0.316930 0.201785
0.171695 0.297154 0.208255
0.194095 0.275822 0.215610
0.214176 0.284794 0.200504
0.247745 0.299229 0.177676
0.294560 0.314305 0.150240
0.361395 0.336309 0.117281
0.408087 0.336004 0.101350
0.451118 0.332647 0.087037
0.493782 0.329107 0.069215
0.536278 0.323613 0.072877
0.578668 0.317357 0.076905
0.622614 0.314702 0.080171
0.666529 0.313939 0.085054
0.709194 0.313268 0.091951
0.749752 0.312963 0.102083
0.788235 0.313542 0.114351
0.824155 0.315129 0.129091
0.857206 0.318730 0.146883
0.887449 0.325078 0.167483
0.914977 0.334569 0.191165
0.939940 0.347906 0.219181
0.962524 0.366461 0.251743
0.982635 0.391028 0.290379
1.000000 0.423224 0.336522
0.000000 0.411414 0.248936
0.000000 0.410254 0.247440
0.000000 0.408881 0.245762
0.000000 0.405676 0.241672
0.000000 0.400610 0.236423
0.000000 0.393622 0.230808
0.049409 0.385046 0.226841
0.128420 0.373816 0.225132
0.172946 0.354437 0.226505
0.207248 0.332341 0.233799
0.228183 0.312596 0.239200
0.252506 0.328191 0.217838
0.290532 0.344213 0.192508
0.341039 0.360082 0.160555
0.410010 0.382635 0.121492
0.460700 0.384405 0.099519
0.502983 0.379736 0.080140
0.544671 0.375341 0.050324
0.586481 0.370275 0.047333
0.629297 0.365423 0.058991
0.671656 0.361273 0.068330
0.713466 0.361364 0.077943
0.753231 0.361639 0.089937
0.790921 0.362676 0.104860
0.826047 0.364660 0.121736
0.858457 0.367987 0.141146
0.888090 0.373480 0.163241
0.915099 0.381689 0.188205
0.939635 0.393286 0.217288
0.961883 0.409369 0.250675
0.981689 0.430945 0.290196
0.999176 0.459632 0.337743
0.000000 0.467781 0.276463
0.000000 0.466743 0.275151
0.000000 0.465187 0.273136
0.000000 0.461799 0.269139
0.000000 0.456641 0.263767
0.000000 0.449653 0.257359
0.000000 0.440925 0.252140
0.113130 0.430274 0.250156
0.166842 0.414221 0.245609
0.213779 0.392309 0.252964
0.245243 0.368414 0.261173
0.265293 0.357183 0.259861
0.294041 0.374090 0.236088
0.335637 0.391150 0.207309
0.389075 0.407843 0.171939
0.458412 0.430182 0.127108
0.512535 0.434455 0.097444
0.553826 0.428473 0.072480
0.594995 0.423835 0.012055
0.637018 0.420172 0.000000
0.678187 0.415625 0.013184
0.718227 0.410681 0.051545
0.756832 0.409827 0.072724
0.793729 0.410834 0.092073
0.828092 0.412696 0.111818
0.859922 0.415869 0.134035
0.889097 0.420996 0.158419
0.915770 0.428443 0.185306
0.940002 0.438727 0.216220
0.961944 0.453132 0.251499
0.981506 0.472694 0.292760
0.998718 0.498573 0.341558
0.000000 0.524865 0.305516
0.000000 0.523857 0.304173
0.000000 0.522515 0.302464
0.000000 0.519585 0.298833
0.000000 0.514549 0.293248
0.000000 0.508171 0.286931
0.000000 0.500053 0.280797
0.079835 0.489998 0.277012
0.166201 0.477424 0.276951
0.214115 0.456886 0.274693
0.256779 0.432502 0.282414
0.284916 0.406226 0.290959
0.305547 0.404150 0.281621
0.337713 0.421668 0.255344
0.381659 0.438697 0.223423
0.436500 0.455604 0.184054
0.505394 0.477333 0.133883
0.562768 0.484962 0.096864
0.604028 0.479225 0.065309
0.645350 0.475257 0.000000
0.685969 0.471809 0.000000
0.725124 0.467323 0.000000
0.762448 0.462806 0.028107
0.797940 0.459876 0.075685
0.831510 0.461494 0.101015
0.862608 0.464332 0.126741
0.891020 0.468482 0.153933
0.916991 0.474952 0.183047
0.940612 0.483925 0.215457
0.961913 0.496162 0.252110
0.980926 0.512932 0.294652
0.997650 0.535943 0.344884
0.000000 0.580682 0.335729
0.000000 0.579675 0.334234
0.000000 0.578363 0.332647
0.000000 0.575433 0.328771
0.000000 0.571038 0.323400
0.000000 0.564813 0.317144
0.000000 0.557275 0.310765
0.000000 0.547601 0.305364
0.149783 0.535912 0.303410
0.206516 0.519463 0.296483
0.261112 0.496010 0.304143
0.299260 0.470283 0.312352
0.324132 0.442573 0.321141
0.347082 0.451545 0.303014
0.382116 0.469368 0.274662
0.428077 0.486854 0.240146
0.484016 0.503990 0.197665
0.551965 0.525414 0.143801
0.612757 0.536889 0.097505
0.653193 0.531243 0.059754
0.692622 0.526513 0.000000
0.730861 0.522515 0.000000
0.767147 0.517906 0.000000
0.801663 0.513359 0.027649
0.833921 0.509300 0.085664
0.864195 0.510765 0.117647
0.891997 0.514275 0.147799
0.917449 0.519707 0.179873
0.940551 0.527123 0.214542
0.961456 0.537743 0.252842
0.980163 0.552483 0.296788
0.996551 0.572839 0.348547
0.000000 0.636316 0.367559
0.000000 0.635645 0.366400
0.000000 0.646693 0.372320
0.000000 0.643885 0.368688
0.000000 0.639582 0.363134
0.000000 0.633570 0.356390
0.000000 0.625879 0.349310
0.000000 0.616327 0.342809
0.128695 0.605005 0.338872
0.216800 0.591638 0.340002
0.265354 0.570184 0.333684
0.314092 0.544610 0.341405
0.348394 0.516747 0.349584
0.370275 0.488960 0.356664
0.396521 0.507195 0.330114
0.433967 0.525200 0.298680
0.482063 0.543053 0.261357
0.538598 0.560388 0.215152
0.605219 0.580835 0.156527
0.666316 0.593927 0.104402
0.704005 0.586603 0.062867
0.740627 0.580835 0.000000
0.775723 0.575738 0.000000
0.808560 0.570397 0.000000
0.839078 0.565362 0.062837
0.867399 0.560815 0.107637
0.893767 0.560052 0.142794
0.918181 0.563867 0.177493
0.940520 0.569757 0.213931
0.960876 0.578515 0.254215
0.979187 0.591119 0.299474
0.995239 0.608820 0.352453
0.000000 0.691951 0.402289
0.000000 0.692744 0.402258
0.000000 0.693141 0.401587
0.000000 0.692226 0.399115
0.000000 0.689570 0.394690
0.000000 0.685145 0.389166
0.000000 0.678553 0.382025
0.000000 0.670436 0.375616
0.094148 0.660700 0.370703
0.203342 0.648829 0.369268
0.258976 0.633204 0.359533
0.317906 0.609491 0.366674
0.361089 0.583093 0.374640
0.391516 0.554345 0.382971
0.412116 0.537926 0.381933
0.441016 0.556329 0.353399
0.480568 0.574670 0.320134
0.529534 0.592523 0.280827
0.586114 0.609796 0.232670
0.649805 0.628321 0.171633
0.710109 0.642237 0.116548
0.745785 0.634852 0.077302
0.780056 0.628565 0.000000
0.812436 0.623133 0.000000
0.842100 0.617548 0.000000
0.869596 0.612573 0.091920
0.895079 0.608728 0.136141
0.918669 0.606622 0.175113
0.940490 0.611231 0.213718
0.960388 0.618341 0.255680
0.978210 0.628901 0.302983
0.993927 0.644282 0.357610
0.000000 0.739620 0.435157
0.000000 0.740291 0.434913
0.000000 0.740780 0.434607
0.000000 0.739925 0.432288
0.000000 0.737606 0.428290
0.000000 0.733761 0.423102
0.000000 0.728237 0.416602
0.000000 0.721157 0.410132
0.021363 0.712795 0.405219
0.191958 0.702480 0.402564
0.273075 0.690394 0.405005
0.319646 0.671901 0.396063
0.370611 0.648737 0.403326
0.408850 0.622827 0.411170
0.435615 0.593988 0.419623
0.456672 0.589197 0.409644
0.487831 0.607507 0.379767
0.528466 0.625208 0.344701
0.577417 0.642145 0.303685
0.632837 0.658289 0.253788
0.692988 0.674647 0.191531
0.751308 0.688716 0.136568
0.784573 0.680934 0.100771
0.815915 0.674067 0.021881
0.845212 0.668055 0.000000
0.871794 0.662379 0.074861
0.896391 0.657527 0.129030
0.919219 0.654017 0.172274
0.940307 0.652491 0.214298
0.959655 0.656672 0.258152
0.977081 0.665370 0.307134
0.992462 0.678309 0.363104
0.000000 0.783688 0.468544
0.000000 0.784390 0.468788
0.000000 0.784634 0.468208
0.000000 0.784085 0.466560
0.000000 0.782071 0.463081
0.000000 0.778653 0.458198
0.000000 0.773983 0.452552
0.000000 0.768002 0.446815
0.000000 0.760678 0.441871
0.183658 0.751766 0.438911
0.270756 0.741329 0.439979
0.324804 0.727962 0.432074
0.378119 0.708461 0.435981
0.422797 0.685847 0.442939
0.456580 0.660975 0.450813
0.480201 0.633692 0.459388
0.503105 0.640742 0.440833
0.535973 0.658595 0.410315
0.577478 0.675685 0.374670
0.626215 0.691951 0.332525
0.679957 0.707210 0.282200
0.737179 0.721859 0.218967
0.792203 0.734859 0.164828
0.822538 0.726894 0.134035
0.850858 0.719722 0.092348
0.877012 0.713344 0.063691
0.900511 0.707607 0.128939
0.922271 0.703151 0.176547
0.942412 0.700374 0.221317
0.960845 0.699763 0.267857
0.977569 0.704036 0.318517
0.992279 0.714809 0.376532
0.000000 0.827481 0.506371
0.000000 0.827451 0.506126
0.000000 0.827176 0.505180
0.000000 0.826108 0.503288
0.000000 0.824094 0.500114
0.000000 0.821042 0.496040
0.000000 0.816983 0.491249
0.000000 0.811856 0.486244
0.000000 0.805814 0.482246
0.186587 0.798276 0.479988
0.276555 0.789517 0.480812
0.350378 0.778744 0.486397
0.390600 0.764248 0.476265
0.438758 0.745418 0.482643
0.477272 0.724300 0.489754
0.506737 0.700832 0.497353
0.527276 0.675227 0.505669
0.551904 0.692103 0.478157
0.584894 0.708339 0.446357
0.625422 0.723537 0.409613
0.672023 0.737728 0.366308
0.722713 0.750759 0.314580
0.775509 0.762631 0.250431
0.825742 0.773373 0.197452
0.852842 0.764950 0.168643
0.878355 0.757412 0.134096
0.901884 0.750851 0.126864
0.922911 0.745510 0.177646
0.942351 0.741665 0.225010
0.960174 0.739773 0.273594
0.976440 0.740719 0.325628
0.990875 0.745968 0.385016
0.000000 0.862150 0.540642
0.000000 0.862181 0.540551
0.000000 0.861997 0.539971
0.000000 0.861021 0.538293
0.000000 0.859342 0.535912
0.000000 0.856687 0.532341
0.000000 0.853178 0.528466
0.000000 0.848661 0.524285
0.000000 0.843381 0.521355
0.195285 0.836912 0.519860
0.286259 0.829160 0.520897
0.359747 0.820035 0.525933
0.410742 0.809232 0.524010
0.453803 0.794125 0.523644
0.495003 0.776761 0.530205
0.528313 0.757321 0.537072
0.553857 0.735958 0.544762
0.572839 0.722255 0.545220
0.597955 0.737697 0.517479
0.630549 0.752316 0.485634
0.669642 0.765927 0.448310
0.713893 0.778256 0.404486
0.761471 0.789395 0.352300
0.810300 0.799313 0.288518
0.853452 0.805295 0.232944
0.878599 0.797452 0.204715
0.901915 0.790066 0.174990
0.923125 0.783688 0.181216
0.941924 0.778927 0.230167
0.959258 0.775937 0.279850
0.975067 0.775570 0.333776
0.989136 0.778683 0.394965
0.000000 0.894347 0.577783
0.000000 0.894377 0.577783
0.000000 0.894102 0.577264
0.000000 0.893156 0.575982
0.000000 0.891508 0.573938
0.000000 0.889067 0.571069
0.000000 0.885893 0.568078
0.000000 0.881865 0.565148
0.078889 0.876890 0.562860
0.219333 0.871031 0.562158
0.304295 0.864103 0.563775
0.375982 0.856016 0.568750
0.440467 0.846586 0.578454
0.473518 0.835599 0.569299
0.514672 0.821073 0.574548
0.549126 0.804807 0.580102
0.577020 0.787106 0.586572
0.598535 0.767666 0.593866
0.616419 0.763760 0.586389
0.641108 0.777523 0.558831
0.672358 0.790372 0.527062
0.709407 0.802029 0.489631
0.750576 0.812253 0.445197
0.794369 0.821134 0.392523
0.838682 0.828733 0.327947
0.877806 0.833036 0.275944
0.902129 0.826566 0.246311
0.923400 0.819211 0.218875
0.942199 0.813352 0.239628
0.958862 0.809354 0.289860
0.974121 0.807675 0.344884
0.987671 0.809018 0.407019
0.000000 0.919066 0.610620
0.000000 0.919066 0.610773
0.000000 0.918791 0.610498
0.000000 0.917998 0.609766
0.000000 0.916503 0.608270
0.000000 0.914366 0.606409
0.000000 0.911528 0.604456
0.000000 0.908110 0.602991
0.140719 0.903777 0.602167
0.249088 0.898711 0.602991
0.328588 0.892699 0.605951
0.398474 0.885618 0.611933
0.461585 0.877562 0.621942
0.508049 0.868803 0.626215
0.539330 0.858061 0.623011
0.573602 0.845212 0.627924
0.602472 0.831235 0.633661
0.625910 0.815915 0.639887
0.644129 0.799374 0.647181
0.661463 0.803281 0.633600
0.684993 0.814969 0.607568
0.714015 0.825559 0.576501
0.747799 0.834958 0.539208
0.785275 0.843015 0.494392
0.824887 0.849943 0.441108
0.865415 0.855833 0.376135
0.899748 0.857511 0.322972
0.923186 0.852140 0.292729
0.942962 0.845243 0.266423
0.959350 0.840360 0.305455
0.973938 0.837644 0.361334
0.986694 0.837430 0.424262
0.000000 0.940642 0.643824
0.000000 0.940520 0.643854
0.000000 0.940246 0.643732
0.000000 0.939361 0.643183
0.000000 0.937926 0.642237
0.000000 0.935943 0.641260
0.000000 0.933349 0.640345
0.000000 0.930114 0.639979
0.196902 0.926207 0.640711
0.286046 0.921569 0.642847
0.359472 0.916106 0.646998
0.425696 0.909850 0.654139
0.486213 0.902739 0.664118
0.540368 0.894926 0.676600
0.566064 0.887388 0.670283
0.598718 0.877073 0.674434
0.626978 0.865965 0.679255
0.650965 0.853941 0.684565
0.670619 0.841001 0.690669
0.685878 0.827115 0.697658
0.702663 0.836362 0.679042
0.724422 0.845914 0.655299
0.750759 0.854459 0.626520
0.781003 0.861936 0.590661
0.814542 0.868345 0.546471
0.850431 0.873777 0.492744
0.887663 0.878325 0.427710
0.918578 0.878386 0.372930
0.941009 0.873686 0.340398
0.959472 0.867491 0.320653
0.973236 0.863737 0.376989
0.985443 0.862242 0.439979
0.000000 0.958434 0.675227
0.000000 0.958251 0.675288
0.000000 0.957946 0.675349
0.000000 0.957183 0.675227
0.000000 0.955840 0.675074
0.000000 0.954131 0.675288
0.000000 0.951873 0.676081
0.162692 0.949096 0.677699
0.258885 0.945708 0.680598
0.335210 0.941650 0.685054
0.403113 0.936858 0.691646
0.465614 0.931334 0.700404
0.521843 0.925261 0.710750
0.572625 0.918639 0.722652
0.611872 0.911925 0.730678
0.632868 0.904936 0.726680
0.659144 0.896300 0.730770
0.682002 0.887083 0.735286
0.701625 0.877317 0.740444
0.717708 0.866880 0.746242
0.730404 0.859617 0.748379
0.745541 0.867826 0.731289
0.764553 0.875273 0.710353
0.787228 0.881865 0.684382
0.813382 0.887602 0.652064
0.842649 0.892485 0.611139
0.874693 0.896605 0.559045
0.908843 0.899962 0.493629
0.936950 0.898924 0.436500
0.958221 0.894469 0.401099
0.974090 0.889158 0.403174
0.985290 0.886656 0.467018
0.000000 0.975036 0.709895
0.000000 0.974823 0.710140
0.000000 0.974456 0.710323
0.000000 0.973632 0.710445
0.000000 0.972259 0.710811
0.000000 0.970459 0.711757
0.164950 0.968109 0.713191
0.250980 0.965240 0.715694
0.321935 0.961761 0.719448
0.387121 0.957671 0.724880
0.447700 0.952941 0.731685
0.503441 0.947723 0.739925
0.554559 0.942107 0.749416
0.601099 0.936095 0.760006
