data/fiter_cube/69180065/1023052/file.cube
# Created by Adobe Lightroom plugin Export LUT (1.17.0)
# www.johnrellis.com/lightroom/exportlut.htm
# Preset: 室内文艺胶片_05 云集
# Color profile: C:\Program Files (x86)\Common Files\Adobe\Color\Profiles\Recommended\AdobeRGB1998.icc
LUT_3D_SIZE 5
DOMAIN_MIN 0.000000 0.000000 0.000000
DOMAIN_MAX 0.903226 0.903226 0.903226
0.066560 0.089662 0.103578
0.123262 0.088960 0.109316
0.345281 0.000000 0.115541
0.660334 0.000000 0.129671
0.934386 0.000000 0.221714
0.017090 0.162722 0.136904
0.122896 0.145327 0.116274
0.358953 0.134493 0.109743
0.676173 0.000000 0.122774
0.938537 0.000000 0.223178
0.000000 0.467781 0.276463
0.113130 0.430274 0.250156
0.389075 0.407843 0.171939
0.718227 0.410681 0.051545
0.940002 0.438727 0.216220
0.000000 0.827481 0.506371
0.000000 0.811856 0.486244
0.477272 0.724300 0.489754
0.722713 0.750759 0.314580
0.942351 0.741665 0.225010
0.000000 0.987518 0.739864
0.322087 0.977722 0.749783
0.664210 0.943725 0.799649
0.788022 0.902922 0.827146
0.908080 0.928313 0.674037
0.045014 0.095186 0.174899
0.135439 0.092195 0.155947
0.356786 0.000427 0.133120
0.665522 0.000000 0.126040
0.932250 0.000000 0.219181
0.000000 0.176028 0.218173
0.138766 0.168032 0.194034
0.372778 0.154299 0.157687
0.678218 0.088289 0.118410
0.934661 0.049683 0.218845
0.000000 0.501823 0.373877
0.000000 0.466194 0.330877
0.398444 0.418524 0.266545
0.715175 0.415290 0.146822
0.940368 0.445014 0.216495
0.000000 0.839963 0.575463
0.000000 0.825193 0.554345
0.489693 0.748745 0.541192
0.725460 0.756497 0.409766
0.943572 0.742184 0.228672
0.000000 0.991241 0.764309
0.273106 0.981720 0.770565
0.659205 0.948943 0.813535
0.794980 0.908629 0.840970
0.905577 0.929564 0.722225
0.000000 0.112978 0.439307
0.186709 0.102480 0.440070
0.453162 0.000000 0.384863
0.721340 0.000000 0.293645
0.942840 0.000000 0.229191
0.000000 0.212161 0.447333
0.123445 0.204990 0.458503
0.455390 0.200076 0.417395
0.711604 0.000000 0.313237
0.945037 0.097902 0.229923
0.000000 0.489693 0.575830
0.000000 0.483101 0.557214
0.434974 0.467292 0.500938
0.719844 0.445228 0.422919
0.945953 0.438788 0.285344
0.000000 0.875975 0.774319
0.000000 0.867521 0.755703
0.456458 0.811337 0.687037
0.729580 0.773892 0.635340
0.932616 0.747127 0.488685
0.000000 1.000000 0.846006
0.000000 0.995117 0.842496
0.582757 0.965820 0.843931
0.804562 0.923491 0.869841
0.899413 0.931151 0.814511
0.000000 0.170962 0.785733
0.201389 0.164065 0.791989
0.616785 0.160555 0.808896
0.801389 0.145357 0.709987
0.959045 0.198917 0.610315
0.000000 0.263401 0.783993
0.101106 0.268986 0.790677
0.593652 0.306279 0.810391
0.794400 0.315892 0.727718
0.951965 0.314183 0.626154
0.000000 0.502495 0.794156
0.000000 0.495216 0.784726
0.464240 0.516533 0.800381
0.768093 0.584802 0.773678
0.930877 0.517479 0.662135
0.000000 0.803983 0.870115
0.000000 0.802243 0.865629
0.368597 0.798459 0.851835
0.732631 0.791714 0.822629
0.908476 0.758755 0.744503
0.000000 1.000000 0.935027
0.000000 1.000000 0.933013
0.446174 0.989502 0.927001
0.782864 0.951659 0.909361
0.899779 0.935729 0.896849
0.289403 0.340398 0.961608
0.414130 0.349737 0.961395
0.674708 0.404883 0.960723
0.875120 0.503502 0.955627
0.944732 0.507622 0.893095
0.245396 0.409857 0.958984
0.386236 0.420661 0.958892
0.660365 0.478248 0.958221
0.868406 0.586633 0.953826
0.938750 0.574578 0.898161
0.000000 0.563989 0.950622
0.000000 0.560876 0.951537
0.580652 0.619074 0.951781
0.845945 0.736965 0.950988
0.925200 0.729580 0.914336
0.000000 0.794308 0.959014
0.000000 0.790677 0.957092
0.362005 0.777646 0.950256
0.759945 0.814298 0.946502
0.916625 0.867247 0.938048
0.000000 0.958282 0.970947
0.000000 0.956847 0.970062
0.477058 0.952056 0.967346
0.735622 0.944823 0.961975
0.904112 0.939513 0.952331
