data/fiter_cube/12898295/1023042/file.cube
# Created by Adobe Lightroom plugin Export LUT (1.17.0)
# www.johnrellis.com/lightroom/exportlut.htm
# Preset: 经典婚礼摄影_04 云集
# Color profile: C:\Program Files (x86)\Common Files\Adobe\Color\Profiles\Recommended\AdobeRGB1998.icc
LUT_3D_SIZE 32
DOMAIN_MIN 0.0 0.0 0.0
DOMAIN_MAX 1.0 1.0 1.0
0.000000 0.000000 0.000000
0.012604 0.000153 0.002899
0.027741 0.001068 0.005676
0.058991 0.002014 0.011170
0.078218 0.004425 0.020356
0.099336 0.004730 0.029023
0.125948 0.000000 0.036805
0.156863 0.000000 0.043458
0.192416 0.000000 0.048829
0.232700 0.000000 0.051759
0.278050 0.000000 0.053101
0.327062 0.000000 0.052399
0.378515 0.000000 0.049195
0.430610 0.000000 0.044526
0.481849 0.000000 0.037018
0.531426 0.000000 0.028717
0.578820 0.000000 0.021027
0.623529 0.000000 0.012665
0.665156 0.000000 0.006928
0.712520 0.000000 0.005646
0.765469 0.000000 0.014893
0.809751 0.000000 0.039765
0.846525 0.000000 0.066438
0.878080 0.000000 0.086549
0.905882 0.106294 0.107301
0.931426 0.161624 0.129946
0.956023 0.207065 0.155367
0.980163 0.249851 0.185367
1.000000 0.292821 0.220890
1.000000 0.337865 0.264286
1.000000 0.386084 0.316716
1.000000 0.438727 0.379309
0.003326 0.008484 0.010040
0.010132 0.008576 0.008759
0.028870 0.009064 0.007172
0.059724 0.010010 0.009369
0.078401 0.012604 0.017517
0.099123 0.014374 0.026093
0.124910 0.007630 0.034028
0.154940 0.000000 0.040711
0.189578 0.000000 0.045869
0.229038 0.000000 0.049989
0.273136 0.000000 0.050782
0.321172 0.000000 0.050446
0.371618 0.000000 0.047700
0.423102 0.000000 0.043122
0.473823 0.000000 0.035340
0.523156 0.000000 0.027680
0.570367 0.000000 0.018708
0.615381 0.000000 0.010010
0.657435 0.000000 0.003510
0.705684 0.000000 0.001343
0.757015 0.000000 0.007019
0.800931 0.000000 0.027039
0.837797 0.000000 0.059693
0.869749 0.000000 0.079164
0.898070 0.094575 0.100252
0.924254 0.152773 0.122438
0.949554 0.198734 0.147829
0.974365 0.242161 0.177188
0.999023 0.285466 0.212284
1.000000 0.330602 0.255009
1.000000 0.378576 0.306371
1.000000 0.430793 0.368170
0.008728 0.017700 0.022126
0.011566 0.019684 0.019715
0.022034 0.019074 0.020600
0.058686 0.024201 0.018036
0.079042 0.025177 0.017517
0.099153 0.026184 0.022950
0.123995 0.020356 0.030976
0.153323 0.008148 0.037720
0.187289 0.000000 0.043030
0.225895 0.000000 0.047150
0.269352 0.000000 0.048798
0.316808 0.000000 0.048554
0.366735 0.000000 0.045655
0.417853 0.000000 0.038911
0.468391 0.000000 0.032441
0.517723 0.000000 0.023041
0.564904 0.000000 0.014099
0.610101 0.000000 0.008118
0.652766 0.000000 0.003784
0.702235 0.000000 0.000549
0.752682 0.000000 0.005829
0.796201 0.000000 0.019501
0.833097 0.000000 0.049256
0.865232 0.000000 0.073701
0.893767 0.098207 0.094514
0.920256 0.153231 0.117128
0.945892 0.198398 0.142550
0.971099 0.241001 0.172000
0.996155 0.283940 0.207156
1.000000 0.328801 0.249485
1.000000 0.376196 0.300481
1.000000 0.427802 0.361852
0.018891 0.043153 0.050080
0.022675 0.046082 0.049012
0.027649 0.046632 0.044160
0.049226 0.046448 0.044678
0.075044 0.055451 0.037873
0.100008 0.053651 0.028016
0.124331 0.048676 0.031800
0.152956 0.036774 0.036530
0.185855 0.015747 0.039704
0.223331 0.000000 0.042695
0.265537 0.000000 0.043824
0.311955 0.000000 0.042390
0.360967 0.000000 0.039094
0.411261 0.000000 0.034730
0.461707 0.000000 0.028595
0.510887 0.000000 0.022553
0.558160 0.000000 0.016266
0.603296 0.000000 0.009308
0.645960 0.000000 0.004364
0.696895 0.000000 0.000000
0.745205 0.000000 0.002167
0.787716 0.000000 0.013306
0.825040 0.000000 0.034485
0.858366 0.004028 0.062593
0.888701 0.116518 0.086213
0.916930 0.166262 0.110567
0.943908 0.209140 0.137301
0.969940 0.250462 0.167819
0.995331 0.291691 0.203464
1.000000 0.334447 0.245762
1.000000 0.379767 0.296269
1.000000 0.428962 0.356207
0.030304 0.066835 0.066346
0.037354 0.068055 0.066957
0.037568 0.068574 0.063661
0.049744 0.068299 0.061402
0.067323 0.068360 0.061463
0.090730 0.073640 0.057374
0.120577 0.073060 0.045380
0.151064 0.068055 0.040375
0.182742 0.061952 0.043549
0.218662 0.047272 0.045563
0.259525 0.013581 0.046693
0.304631 0.000000 0.045411
0.352667 0.000000 0.042206
0.402594 0.000000 0.036866
0.453040 0.000000 0.031525
0.502983 0.000000 0.024018
0.551385 0.000000 0.017762
0.597589 0.000000 0.009857
0.642267 0.000000 0.002625
0.695033 0.000000 0.000000
0.741299 0.000000 0.000000
0.782803 0.000000 0.007813
0.819791 0.000000 0.026917
0.853300 0.094514 0.054658
0.884092 0.146120 0.072724
0.912963 0.186282 0.100252
0.940398 0.224430 0.128206
0.966766 0.261814 0.159670
0.992401 0.300328 0.195315
1.000000 0.340703 0.237888
1.000000 0.384039 0.288304
1.000000 0.431525 0.347997
0.040558 0.085634 0.077913
0.047303 0.086885 0.078401
0.050629 0.087678 0.076997
0.052216 0.087739 0.071412
0.065858 0.087526 0.070832
0.082155 0.087160 0.070436
0.109529 0.094545 0.067720
0.143160 0.096132 0.060121
0.180911 0.090791 0.048768
0.216739 0.085542 0.047730
0.256413 0.078187 0.048493
0.300572 0.066346 0.047272
0.347692 0.034241 0.044007
0.396979 0.000000 0.038392
0.447120 0.000000 0.031464
0.497383 0.000000 0.025391
0.546227 0.000000 0.017090
0.592859 0.000000 0.008240
0.644221 0.000000 0.000214
0.695094 0.000000 0.000000
0.740658 0.000000 0.000000
0.782254 0.026307 0.004730
0.870695 0.187686 0.071901
0.900847 0.220859 0.091279
0.927672 0.250950 0.111116
0.952331 0.279698 0.131014
0.975525 0.307774 0.161105
0.997925 0.336919 0.195682
1.000000 0.368414 0.235203
1.000000 0.403143 0.281437
1.000000 0.441505 0.334630
1.000000 0.484169 0.395789
0.048890 0.114137 0.093263
0.053956 0.115267 0.093629
0.059693 0.116732 0.094179
0.060426 0.116823 0.088472
0.065827 0.116304 0.082856
0.082185 0.116091 0.082216
0.103731 0.115785 0.081605
0.137026 0.125307 0.078889
0.177005 0.129427 0.069032
0.221225 0.126772 0.059693
0.267765 0.119234 0.047303
0.312749 0.114168 0.044953
0.360357 0.106477 0.040558
0.409461 0.095918 0.035187
0.458534 0.082399 0.027924
0.506798 0.065980 0.020966
0.554131 0.038941 0.011841
0.603784 0.023346 0.002441
0.660121 0.061830 0.000000
0.711360 0.092988 0.000000
0.759487 0.127413 0.000000
0.804685 0.162936 0.012726
0.845853 0.198642 0.048829
0.882628 0.233005 0.076295
0.915038 0.265354 0.099306
0.943053 0.294347 0.122103
0.968292 0.321752 0.145418
0.991791 0.348821 0.179171
1.000000 0.377813 0.219577
1.000000 0.409583 0.265232
1.000000 0.445289 0.318547
1.000000 0.485389 0.379187
0.051637 0.141176 0.107485
0.057710 0.142031 0.107790
0.062165 0.143313 0.108248
0.065858 0.143679 0.104768
0.067353 0.143252 0.096071
0.077363 0.141909 0.093233
0.099763 0.142061 0.092653
0.124178 0.142000 0.092378
0.160494 0.152651 0.090822
0.204166 0.160189 0.079316
0.252232 0.160342 0.068086
0.303593 0.154421 0.052338
0.352575 0.147982 0.039704
0.400793 0.143435 0.033173
0.449317 0.137819 0.026978
0.497444 0.131685 0.017853
0.546380 0.127993 0.007599
0.603662 0.133120 0.000000
0.655879 0.143496 0.000000
0.704829 0.158968 0.000000
0.751553 0.180392 0.000000
0.795956 0.205875 0.000031
0.836820 0.233707 0.033021
0.873655 0.261967 0.067659
0.906432 0.289158 0.091279
0.935088 0.314702 0.114443
0.960967 0.339147 0.138125
0.985351 0.363928 0.163149
1.000000 0.390478 0.201694
1.000000 0.419623 0.248356
1.000000 0.452766 0.301854
1.000000 0.490425 0.362951
0.058900 0.170871 0.123018
0.062531 0.171633 0.123445
0.067231 0.172763 0.123995
0.074189 0.174166 0.122988
0.075257 0.173465 0.114748
0.079103 0.172183 0.106477
0.095583 0.170993 0.104921
0.120699 0.171237 0.104677
0.147921 0.171603 0.104341
0.187594 0.183352 0.104616
0.235355 0.194339 0.091554
0.286931 0.197086 0.078004
0.340429 0.193790 0.062287
0.394629 0.184939 0.027985
0.442512 0.182284 0.020600
0.493141 0.181064 0.011109
0.549981 0.184390 0.000000
0.603021 0.189944 0.000000
0.652674 0.198581 0.000000
0.700069 0.210697 0.000000
0.745724 0.227573 0.000000
0.789609 0.248142 0.000000
0.830198 0.271031 0.014557
0.866972 0.294835 0.059724
0.899901 0.318090 0.084779
0.928954 0.340093 0.108736
0.955322 0.361761 0.132509
0.980163 0.383856 0.158206
1.000000 0.407813 0.186923
1.000000 0.434028 0.231540
1.000000 0.464149 0.285496
1.000000 0.498756 0.347021
0.064546 0.203189 0.140261
0.068391 0.203799 0.140475
0.072755 0.204593 0.140810
0.082765 0.206485 0.141543
0.084260 0.205692 0.134371
0.085573 0.204471 0.124331
0.095033 0.202426 0.118685
0.116884 0.201572 0.117525
0.144442 0.202396 0.117372
0.174014 0.203250 0.117128
0.216312 0.215183 0.118379
0.267765 0.228946 0.104463
0.321630 0.234012 0.089387
0.376593 0.233310 0.071412
0.438575 0.231601 0.037720
0.498360 0.230228 0.000000
0.552697 0.234836 0.000000
0.604395 0.240879 0.000000
0.652705 0.249210 0.000000
0.698543 0.259709 0.000000
0.742306 0.273106 0.000000
0.783902 0.289311 0.000000
0.822568 0.306889 0.000000
0.857969 0.325628 0.037690
0.890379 0.344701 0.074006
0.919829 0.363684 0.099031
0.947265 0.383062 0.123903
0.973388 0.403815 0.150454
0.998871 0.426398 0.180819
1.000000 0.451301 0.215549
1.000000 0.479622 0.270176
1.000000 0.512596 0.334264
0.071412 0.235599 0.157412
0.074769 0.236210 0.157717
0.079774 0.237003 0.158114
0.089113 0.238773 0.158755
0.094972 0.239292 0.154635
0.096132 0.238224 0.145327
0.097505 0.237064 0.133577
0.113680 0.234745 0.131533
0.141085 0.235325 0.131106
0.171481 0.236790 0.130953
0.203616 0.237919 0.130861
0.248417 0.249454 0.132082
0.307713 0.269718 0.119905
0.368566 0.280308 0.102998
0.430121 0.284733 0.082765
0.490211 0.284764 0.054047
0.547967 0.281468 0.000000
0.599023 0.284886 0.000000
0.646387 0.291997 0.000000
0.691524 0.301427 0.000000
0.734981 0.313329 0.000000
0.776761 0.327520 0.000000
0.815763 0.343236 0.000000
0.851591 0.359686 0.013733
0.884337 0.376165 0.065705
0.914061 0.392523 0.092683
0.941680 0.409216 0.118105
0.968017 0.427314 0.145174
0.993744 0.447456 0.175601
1.000000 0.469947 0.210178
1.000000 0.495491 0.251072
1.000000 0.525566 0.316197
0.079591 0.271458 0.176669
0.083314 0.271946 0.176944
0.088014 0.272770 0.177279
0.097292 0.274418 0.177798
0.107485 0.276097 0.176791
0.108400 0.275151 0.167666
0.109377 0.273960 0.156252
0.117586 0.272374 0.147677
0.136934 0.270573 0.145693
0.168978 0.272374 0.145754
0.205997 0.278630 0.147494
0.245274 0.284245 0.148928
0.331670 0.331090 0.164279
0.402228 0.356023 0.151064
0.468025 0.368566 0.129335
0.530388 0.374426 0.104189
0.588190 0.376226 0.071565
0.640803 0.374762 0.000000
0.687770 0.372168 0.000000
0.729122 0.379492 0.000000
0.768643 0.388434 0.000000
0.805692 0.398657 0.000000
0.839963 0.409216 0.000000
0.871916 0.420813 0.054475
0.901457 0.432807 0.086244
0.928862 0.445258 0.112367
0.954498 0.458259 0.138277
0.978943 0.472724 0.165316
1.000000 0.489113 0.195438
1.000000 0.508293 0.230533
1.000000 0.530388 0.271244
1.000000 0.556481 0.322515
0.092714 0.321630 0.204166
0.096254 0.322026 0.204166
0.100801 0.322087 0.204013
0.110170 0.322667 0.204135
0.123690 0.323613 0.204135
0.125307 0.321508 0.195163
0.126009 0.319402 0.183505
0.127871 0.321355 0.171145
0.145785 0.322881 0.167819
0.175265 0.327123 0.168399
0.216983 0.335424 0.171115
0.262364 0.344427 0.174289
0.310735 0.353368 0.177401
0.369390 0.369146 0.181491
0.442969 0.397528 0.171237
0.507439 0.411780 0.149172
0.566583 0.418860 0.123934
0.620356 0.421332 0.093965
0.669245 0.420630 0.048524
0.714839 0.418585 0.000000
0.756344 0.421515 0.000000
0.793912 0.430060 0.000000
0.828641 0.439094 0.000000
0.861143 0.448768 0.015534
0.891264 0.459052 0.071443
0.919341 0.469703 0.100832
0.945647 0.481209 0.127718
0.970916 0.493996 0.155947
0.995666 0.508812 0.186679
1.000000 0.526513 0.221988
1.000000 0.547082 0.262913
1.000000 0.571466 0.311986
0.106111 0.365545 0.229343
0.109804 0.366278 0.229648
0.114412 0.366705 0.229709
0.124086 0.367956 0.230137
0.138064 0.369909 0.230655
0.145815 0.370245 0.225772
0.146609 0.369818 0.214694
0.147677 0.369665 0.201480
0.154116 0.370214 0.189395
0.177035 0.370825 0.187961
0.214664 0.376349 0.189425
0.260227 0.384558 0.192508
0.307744 0.392584 0.195621
0.356359 0.399451 0.198001
0.410742 0.410132 0.201144
0.482582 0.438025 0.193332
0.542351 0.451209 0.170016
0.597436 0.458534 0.145235
0.648157 0.461646 0.118044
0.695338 0.462806 0.086244
0.740108 0.462837 0.015015
0.782315 0.462196 0.000000
0.818326 0.469276 0.000000
0.851743 0.478035 0.000000
0.882719 0.487037 0.053407
0.911559 0.496529 0.089845
0.938659 0.506676 0.119600
0.964630 0.518212 0.148928
0.990143 0.531762 0.180545
1.000000 0.548028 0.216861
1.000000 0.567224 0.258762
1.000000 0.590112 0.308446
0.125673 0.417609 0.261082
0.129335 0.418280 0.261387
0.133425 0.418128 0.261051
0.142611 0.418372 0.260929
0.155856 0.418738 0.260777
0.168582 0.418769 0.258091
0.168765 0.416815 0.246433
0.169284 0.415595 0.232883
0.170291 0.415534 0.217533
0.185885 0.415808 0.209812
0.210697 0.416571 0.208377
0.256870 0.424048 0.211490
0.304509 0.431525 0.214725
0.352728 0.437903 0.217319
0.400275 0.442481 0.219211
0.448920 0.447974 0.220859
0.518761 0.475380 0.216526
0.574792 0.488350 0.192630
0.627222 0.496162 0.168795
0.675929 0.500572 0.144228
0.721706 0.503136 0.117769
0.765072 0.504540 0.084749
0.805112 0.504662 0.006104
0.841886 0.506218 0.000000
0.873930 0.514580 0.009949
0.904082 0.523613 0.077485
0.932830 0.533715 0.111940
0.960571 0.545373 0.145571
0.987732 0.559106 0.180880
1.000000 0.575402 0.220371
1.000000 0.594598 0.265843
1.000000 0.617212 0.319097
0.146975 0.465156 0.292546
0.150515 0.465949 0.293065
0.154421 0.466255 0.293126
0.163546 0.466743 0.293065
0.176730 0.467292 0.293065
0.193820 0.468696 0.293431
0.196078 0.467750 0.283330
0.196658 0.466865 0.269902
0.197513 0.466621 0.254459
0.199588 0.466896 0.237156
0.224155 0.465705 0.234562
0.255344 0.466407 0.233310
0.301854 0.471046 0.235416
0.348363 0.474830 0.237247
0.394049 0.477485 0.238590
0.438117 0.478828 0.239170
0.481666 0.480385 0.239719
0.550469 0.508629 0.240116
0.605768 0.523400 0.217472
0.657374 0.533257 0.195560
0.705745 0.540124 0.174105
0.751156 0.544945 0.151858
0.793118 0.547662 0.128115
0.832181 0.549096 0.099489
0.868711 0.549493 0.059876
0.901091 0.555108 0.071107
0.930632 0.564599 0.110536
0.959014 0.575463 0.146120
0.986603 0.587945 0.183261
1.000000 0.602655 0.223453
1.000000 0.619776 0.269230
1.000000 0.640131 0.321874
0.168917 0.506767 0.322576
0.171878 0.507042 0.322545
0.175784 0.506950 0.322515
0.183780 0.507164 0.322393
0.196170 0.507591 0.322148
0.212345 0.508659 0.322423
0.221012 0.508659 0.316472
0.221134 0.507530 0.303410
0.221653 0.506859 0.288273
0.222446 0.506828 0.270817
0.233921 0.506523 0.258762
0.259281 0.505241 0.256016
0.297154 0.507012 0.256016
0.343908 0.510582 0.258213
0.389563 0.512840 0.259495
0.433204 0.513695 0.260227
0.475166 0.513756 0.260380
0.515496 0.513787 0.260624
0.582544 0.541924 0.265873
0.635767 0.557214 0.244572
0.685603 0.568078 0.224582
0.732387 0.575952 0.205325
0.775875 0.581445 0.186221
0.816556 0.585199 0.166903
0.854582 0.587701 0.146731
0.890440 0.589532 0.125032
0.924712 0.591180 0.100984
0.954253 0.601678 0.140566
0.982849 0.613703 0.180423
1.000000 0.627710 0.222934
1.000000 0.644160 0.270390
1.000000 0.663600 0.325292
0.194339 0.548730 0.355230
0.197910 0.549828 0.356115
0.228641 0.586786 0.387396
0.236423 0.586603 0.386969
0.248020 0.586236 0.386267
0.262974 0.585840 0.385260
0.277256 0.585077 0.382116
0.275395 0.582483 0.367437
0.274693 0.580407 0.351019
0.274327 0.578973 0.332250
0.274144 0.577874 0.310735
0.295048 0.575067 0.303563
0.319371 0.570977 0.298436
0.363531 0.571191 0.298619
0.409216 0.571527 0.299413
0.452827 0.570855 0.299413
0.494057 0.569543 0.299077
0.533074 0.567926 0.298589
0.570397 0.566644 0.298222
0.632166 0.591547 0.308873
0.681178 0.605402 0.288243
0.727718 0.615625 0.269688
0.771115 0.622858 0.252049
0.811276 0.627588 0.235264
0.848173 0.630091 0.218235
0.882933 0.631525 0.201541
0.916106 0.632563 0.185000
0.948547 0.633906 0.169986
0.979309 0.639582 0.177432
1.000000 0.652461 0.221195
1.000000 0.667811 0.270390
1.000000 0.685817 0.325536
0.229740 0.597528 0.396704
0.236271 0.602350 0.401007
0.243748 0.607080 0.405219
0.254551 0.611261 0.408942
0.268193 0.614252 0.411383
0.283604 0.615534 0.412329
0.301152 0.615991 0.412238
0.302586 0.614252 0.400763
0.301549 0.612604 0.385626
0.300969 0.611231 0.368414
0.300511 0.610224 0.348363
0.306279 0.608789 0.330449
0.329900 0.604944 0.325414
0.356329 0.601007 0.320500
0.401892 0.600763 0.321141
0.445197 0.599817 0.321111
0.486091 0.598383 0.320775
0.524987 0.596796 0.320439
0.562585 0.595697 0.320684
0.599145 0.595453 0.321294
0.657618 0.618708 0.335119
0.707057 0.635157 0.320348
0.752590 0.646723 0.304265
0.794675 0.654902 0.289769
0.833341 0.660426 0.275578
0.869688 0.664332 0.262394
0.904234 0.667445 0.250431
0.937743 0.670649 0.240635
0.970825 0.674647 0.234379
1.000000 0.679438 0.231632
1.000000 0.691920 0.270756
1.000000 0.708919 0.327306
0.257237 0.630030 0.426368
0.263798 0.634211 0.430365
0.270939 0.638422 0.434394
0.281163 0.642054 0.437812
0.293980 0.644739 0.440284
0.308110 0.645808 0.441108
0.324620 0.646143 0.441291
0.332708 0.645441 0.434943
0.331426 0.644038 0.421271
0.330571 0.642969 0.405493
0.330083 0.642206 0.387366
0.329717 0.641444 0.366522
0.343969 0.638636 0.355047
0.366430 0.634455 0.349340
0.398077 0.631342 0.345830
0.441169 0.630213 0.345953
0.481910 0.628687 0.345830
0.520592 0.627161 0.345800
0.557946 0.626123 0.346075
0.594629 0.625940 0.347234
0.630213 0.626429 0.348974
0.685267 0.648157 0.364660
0.734676 0.666621 0.356970
0.778347 0.678584 0.343847
0.818418 0.687098 0.331487
0.855863 0.693294 0.320195
0.891295 0.698268 0.310460
0.925505 0.703059 0.303655
0.959228 0.708431 0.300542
0.992645 0.714534 0.301915
1.000000 0.721553 0.307774
1.000000 0.730739 0.325811
0.287846 0.661585 0.456641
0.294011 0.665339 0.460517
0.301213 0.669154 0.464424
0.311009 0.672419 0.467750
0.322850 0.674769 0.470100
0.336065 0.675685 0.471015
0.350988 0.675807 0.471107
0.364904 0.675593 0.469215
0.363348 0.674281 0.456916
0.362005 0.673152 0.442481
0.361120 0.672328 0.426062
0.360266 0.671534 0.407111
0.360204 0.670222 0.385626
0.381445 0.666560 0.380163
0.403021 0.662409 0.374456
0.439948 0.660914 0.373327
0.482063 0.660914 0.375067
0.522515 0.661311 0.377142
0.561975 0.662470 0.379980
0.600549 0.664424 0.384100
0.638148 0.667109 0.388861
0.674739 0.670436 0.394629
0.726558 0.690913 0.413397
0.774960 0.710964 0.414557
0.816648 0.723659 0.405890
0.855192 0.733089 0.398322
0.891417 0.740658 0.392859
0.926055 0.747433 0.390051
0.959930 0.754299 0.391424
0.993103 0.761685 0.397101
1.000000 0.769802 0.407538
1.000000 0.778836 0.423499
0.339605 0.706630 0.503014
0.343572 0.708309 0.504814
0.347936 0.709621 0.506279
0.354650 0.710628 0.507469
0.363867 0.711238 0.508202
0.375006 0.711177 0.508324
0.388434 0.711086 0.508446
0.404547 0.711238 0.508904
0.406836 0.710903 0.500420
0.406226 0.710658 0.488563
0.405890 0.710689 0.474861
0.405554 0.710567 0.458839
0.404517 0.709895 0.439307
0.412573 0.707820 0.424903
0.432044 0.704097 0.419013
0.451911 0.699977 0.412818
0.492500 0.699458 0.414191
0.531609 0.699306 0.416022
0.569482 0.699641 0.418616
0.606256 0.700435 0.421668
0.641840 0.701656 0.425483
0.676295 0.703365 0.429847
0.709377 0.705257 0.434485
0.754849 0.721462 0.451362
0.800778 0.741115 0.457679
0.840238 0.753750 0.451392
0.877531 0.764126 0.447578
0.913115 0.773281 0.446876
0.947570 0.782132 0.450172
0.981170 0.791012 0.457618
1.000000 0.800504 0.470008
1.000000 0.811398 0.488899
0.376440 0.735683 0.534112
0.380468 0.737240 0.535943
0.384771 0.738613 0.537621
0.391272 0.739651 0.538964
0.399451 0.740078 0.539666
0.409247 0.739864 0.539788
0.421088 0.739437 0.539727
0.434974 0.739101 0.539910
0.442695 0.738827 0.535576
0.441718 0.738460 0.524926
0.441077 0.738399 0.512718
0.440681 0.738369 0.498817
0.439521 0.738003 0.482002
0.438392 0.737453 0.462501
0.453742 0.734890 0.455207
0.472450 0.731807 0.449897
0.497322 0.729580 0.446784
0.535943 0.729793 0.449409
0.573480 0.730465 0.452674
0.609918 0.731624 0.456764
0.645289 0.733333 0.461494
0.679622 0.735470 0.467018
0.712703 0.738003 0.473091
0.744381 0.740688 0.479255
0.777188 0.746151 0.483528
0.821866 0.766659 0.495979
0.860319 0.780240 0.493263
0.896880 0.791989 0.493721
0.932097 0.802914 0.497993
0.966400 0.813718 0.506584
1.000000 0.825101 0.520409
1.000000 0.838285 0.541527
0.432349 0.774044 0.578546
0.436500 0.775692 0.580682
0.440070 0.776669 0.582025
0.445014 0.776944 0.582696
0.451270 0.776638 0.582666
0.458991 0.775784 0.582238
0.468299 0.774624 0.581476
0.479469 0.773312 0.580804
0.490303 0.772091 0.579126
0.487556 0.770748 0.568475
0.484749 0.769436 0.556176
0.482551 0.768521 0.542718
0.480110 0.767575 0.527214
0.477455 0.766262 0.509178
0.478523 0.764004 0.491981
0.493446 0.760037 0.485420
0.509209 0.756100 0.478828
0.536767 0.754177 0.477028
0.572808 0.754452 0.479927
0.608698 0.755856 0.484504
0.643854 0.757900 0.490211
0.677699 0.760281 0.496315
0.709773 0.762387 0.502098
0.739986 0.764126 0.507317
0.768307 0.765377 0.511650
0.804196 0.775723 0.524773
0.847349 0.796689 0.542443
0.883909 0.810513 0.542351
0.919188 0.823117 0.546258
0.953674 0.835416 0.554681
0.988159 0.848722 0.569390
1.000000 0.863371 0.590600
0.469917 0.798642 0.608209
0.473915 0.800168 0.610315
0.477363 0.801114 0.611627
0.481819 0.801358 0.612360
0.487312 0.801083 0.612421
0.494331 0.800412 0.612238
0.502770 0.799557 0.611994
0.513115 0.798703 0.611841
0.525353 0.798032 0.612146
0.526604 0.797452 0.605249
0.524956 0.796902 0.595392
0.523827 0.796719 0.584588
0.522637 0.796536 0.572107
0.520958 0.796078 0.557549
0.518730 0.795285 0.540520
0.526909 0.793088 0.530663
0.541405 0.790188 0.525353
0.557092 0.787747 0.520623
0.588525 0.787747 0.522759
0.622553 0.788968 0.527367
0.655818 0.790738 0.532799
0.688014 0.792813 0.538720
0.718654 0.794827 0.544457
0.747768 0.796628 0.549828
0.775296 0.798062 0.554681
0.801419 0.799222 0.558923
0.833463 0.807767 0.570794
0.875425 0.829587 0.593744
0.911131 0.844877 0.598596
0.946166 0.859586 0.608148
0.981109 0.874876 0.623713
1.000000 0.891112 0.645106
0.514275 0.826230 0.642786
0.517266 0.827237 0.644251
0.519554 0.827604 0.644892
0.522637 0.827451 0.644984
0.526635 0.826749 0.644495
0.532036 0.825742 0.643854
0.538872 0.824674 0.643244
0.547539 0.823697 0.642969
0.558251 0.823026 0.643244
0.564263 0.822690 0.640253
0.563104 0.822446 0.631952
0.562585 0.822690 0.623072
0.562066 0.822934 0.612909
0.561028 0.822965 0.600855
0.559319 0.822599 0.586694
0.558190 0.821897 0.571160
0.570916 0.819486 0.566583
0.584924 0.817441 0.562493
0.602625 0.816342 0.560266
0.634424 0.817319 0.564508
0.665827 0.818875 0.569635
0.696407 0.820798 0.575372
0.725673 0.822690 0.581048
0.753658 0.824460 0.586450
0.780179 0.825986 0.591363
0.805417 0.827237 0.595880
0.829740 0.828611 0.600397
0.858518 0.835538 0.610895
0.899168 0.857847 0.638117
0.934936 0.875273 0.648249
0.970184 0.892332 0.663050
1.000000 0.909880 0.683253
0.552941 0.850156 0.673121
0.555077 0.850797 0.674067
0.557122 0.851102 0.674678
0.559991 0.851072 0.674922
0.564446 0.850950 0.675227
0.570672 0.851011 0.675990
0.579461 0.851621 0.677729
0.590356 0.852659 0.680232
0.603418 0.854246 0.683680
0.616754 0.856260 0.687007
0.619684 0.858488 0.683375
0.622583 0.860777 0.678828
0.625147 0.862913 0.673213
0.626917 0.864591 0.665766
0.627649 0.865690 0.656306
0.627192 0.866087 0.644434
0.631983 0.865629 0.635889
0.643977 0.864469 0.633173
0.657588 0.863890 0.631373
0.677699 0.864164 0.632380
0.705348 0.865415 0.637171
0.732418 0.866911 0.642359
0.758419 0.868376 0.647303
0.783444 0.869749 0.652155
0.807340 0.871000 0.656672
0.830320 0.872129 0.660945
0.852628 0.873320 0.665217
0.874632 0.874937 0.670039
0.900053 0.880949 0.679805
0.938476 0.903319 0.709682
0.973144 0.922026 0.723751
1.000000 0.940642 0.742367
0.615961 0.886656 0.721859
0.617487 0.887022 0.722469
0.618524 0.886961 0.722560
0.620417 0.886625 0.722408
0.623377 0.886107 0.722194
0.627680 0.885588 0.722164
0.633722 0.885344 0.722652
0.641474 0.885374 0.723751
0.650965 0.885771 0.725460
0.661982 0.886473 0.727871
0.665095 0.887327 0.724819
0.666011 0.888396 0.719722
0.666835 0.889464 0.713710
0.667262 0.890349 0.706600
