data/fiter_cube/12898295/1023042/file.cube
# Created by Adobe Lightroom plugin Export LUT (1.17.0)
# www.johnrellis.com/lightroom/exportlut.htm
# Preset: 经典婚礼摄影_04 云集
# Color profile: C:\Program Files (x86)\Common Files\Adobe\Color\Profiles\Recommended\AdobeRGB1998.icc
LUT_3D_SIZE 8
DOMAIN_MIN 0.000000 0.000000 0.000000
DOMAIN_MAX 0.903226 0.903226 0.903226
0.000000 0.000000 0.000000
0.078218 0.004425 0.020356
0.192416 0.000000 0.048829
0.378515 0.000000 0.049195
0.578820 0.000000 0.021027
0.765469 0.000000 0.014893
0.905882 0.106294 0.107301
1.000000 0.292821 0.220890
0.030304 0.066835 0.066346
0.067323 0.068360 0.061463
0.182742 0.061952 0.043549
0.352667 0.000000 0.042206
0.551385 0.000000 0.017762
0.741299 0.000000 0.000000
0.884092 0.146120 0.072724
0.992401 0.300328 0.195315
0.058900 0.170871 0.123018
0.075257 0.173465 0.114748
0.147921 0.171603 0.104341
0.340429 0.193790 0.062287
0.549981 0.184390 0.000000
0.745724 0.227573 0.000000
0.899901 0.318090 0.084779
1.000000 0.407813 0.186923
0.092714 0.321630 0.204166
0.123690 0.323613 0.204135
0.145785 0.322881 0.167819
0.310735 0.353368 0.177401
0.566583 0.418860 0.123934
0.756344 0.421515 0.000000
0.891264 0.459052 0.071443
0.995666 0.508812 0.186679
0.168917 0.506767 0.322576
0.196170 0.507591 0.322148
0.221653 0.506859 0.288273
0.297154 0.507012 0.256016
0.475166 0.513756 0.260380
0.685603 0.568078 0.224582
0.854582 0.587701 0.146731
0.982849 0.613703 0.180423
0.287846 0.661585 0.456641
0.322850 0.674769 0.470100
0.363348 0.674281 0.456916
0.360204 0.670222 0.385626
0.482063 0.660914 0.375067
0.638148 0.667109 0.388861
0.816648 0.723659 0.405890
0.959930 0.754299 0.391424
0.469917 0.798642 0.608209
0.487312 0.801083 0.612421
0.525353 0.798032 0.612146
0.522637 0.796536 0.572107
0.541405 0.790188 0.525353
0.655818 0.790738 0.532799
0.775296 0.798062 0.554681
0.911131 0.844877 0.598596
0.655055 0.910155 0.752895
0.661677 0.909758 0.753384
0.687709 0.910735 0.758236
0.708766 0.916533 0.753994
0.684718 0.904753 0.700740
0.731014 0.910918 0.699428
0.826993 0.921447 0.725277
0.907622 0.928038 0.743771
0.029236 0.021088 0.071229
0.067750 0.014832 0.074800
0.175631 0.003937 0.093904
0.349554 0.000000 0.101839
0.548302 0.000000 0.101778
0.731930 0.000000 0.106844
0.875120 0.000000 0.131350
0.984039 0.260472 0.190341
0.039307 0.063416 0.081849
0.074891 0.074647 0.092195
0.176852 0.074128 0.097505
0.341894 0.000000 0.101076
0.536278 0.000000 0.100374
0.719448 0.000000 0.103182
0.858579 0.108278 0.120699
0.971130 0.268467 0.174960
0.064118 0.162844 0.135958
0.098512 0.172427 0.144106
0.155825 0.175723 0.132509
0.335393 0.185458 0.099672
0.529534 0.180056 0.096071
0.714534 0.206394 0.096651
0.861875 0.276799 0.120912
0.978576 0.372595 0.189090
0.098939 0.305638 0.210697
0.130220 0.311040 0.214359
0.160586 0.318883 0.188907
0.289982 0.327306 0.188846
0.511864 0.370977 0.142550
0.702235 0.374243 0.072084
0.849577 0.416510 0.104372
0.969665 0.476936 0.184024
0.174472 0.495979 0.329686
0.198276 0.494759 0.327855
0.238499 0.493294 0.305333
0.284123 0.481727 0.260136
0.446174 0.483864 0.260563
0.657923 0.541070 0.226596
0.833616 0.563531 0.153536
0.965942 0.594812 0.188540
0.277012 0.644282 0.450629
0.297673 0.645838 0.451789
0.354284 0.648341 0.449592
0.353887 0.648127 0.385229
0.467933 0.644648 0.373907
0.629725 0.657984 0.394079
0.807584 0.713680 0.405737
0.949493 0.740352 0.380194
0.439918 0.778866 0.589654
0.448920 0.776150 0.586938
0.493233 0.776089 0.590021
0.508965 0.779660 0.562768
0.530236 0.778286 0.519005
0.641382 0.777646 0.523125
0.758724 0.781582 0.538781
0.896056 0.827420 0.575525
0.635950 0.899626 0.741054
0.645716 0.900816 0.743709
0.674128 0.902678 0.749783
0.702754 0.909270 0.750271
0.705989 0.914092 0.722896
0.738979 0.914641 0.710323
0.823301 0.917937 0.723720
0.900877 0.921050 0.736477
0.067933 0.070619 0.153079
0.091615 0.066743 0.161257
0.173251 0.056214 0.167727
0.367437 0.000000 0.203952
0.564843 0.000000 0.226535
0.749752 0.000000 0.242039
0.886198 0.143404 0.268376
0.990265 0.297093 0.314946
0.089998 0.108339 0.161685
0.109682 0.113100 0.171450
0.176394 0.104036 0.177493
0.356207 0.099153 0.206699
0.550530 0.000000 0.217563
0.736690 0.000000 0.234897
0.874540 0.174929 0.257298
0.983612 0.309789 0.305119
0.091859 0.165438 0.183780
0.118410 0.174990 0.189853
0.187381 0.199710 0.205844
0.352148 0.203159 0.209171
0.559350 0.208408 0.220279
0.732143 0.234623 0.231724
0.868620 0.296605 0.253788
0.979034 0.384466 0.302983
0.104891 0.312688 0.255894
0.141482 0.323186 0.263920
0.234592 0.346410 0.281468
0.328679 0.354711 0.266026
0.548547 0.379858 0.224216
0.721431 0.392279 0.221164
0.862150 0.433295 0.248875
0.975341 0.490272 0.305455
0.178866 0.494057 0.366705
0.210513 0.497932 0.370855
0.296178 0.508415 0.380926
0.333867 0.507561 0.336828
0.481605 0.509392 0.337285
0.678157 0.552239 0.299718
0.843717 0.558404 0.236362
0.967437 0.598840 0.301488
0.286534 0.644160 0.481453
0.310918 0.646204 0.484352
0.376440 0.648615 0.488502
0.413001 0.648341 0.456245
0.475502 0.641352 0.418738
0.629664 0.653956 0.437415
0.805753 0.709346 0.443763
0.953613 0.738643 0.425635
0.454780 0.782834 0.615503
0.466468 0.781369 0.614862
0.504936 0.778531 0.614405
0.548058 0.778531 0.605646
0.548211 0.776577 0.551568
0.647272 0.777615 0.554376
0.769070 0.789456 0.579217
0.908965 0.840696 0.618006
0.635004 0.898863 0.750362
0.639246 0.897490 0.749020
0.665095 0.897642 0.752407
0.719539 0.907500 0.770260
0.720058 0.911254 0.742702
0.746822 0.914885 0.726619
0.827665 0.920226 0.740291
0.906981 0.926116 0.755917
0.123201 0.128389 0.280674
0.148714 0.129152 0.291325
0.236393 0.109529 0.313787
0.351659 0.089418 0.308263
0.573449 0.103548 0.360143
0.744106 0.153170 0.401587
0.867460 0.252384 0.438972
0.974304 0.322362 0.455451
0.158083 0.181491 0.297612
0.174136 0.178958 0.303716
0.244358 0.160464 0.321813
0.356390 0.142611 0.317693
0.576501 0.165499 0.369940
0.737301 0.195834 0.401740
0.861082 0.271916 0.435584
0.971588 0.333684 0.448402
0.177096 0.238102 0.295964
0.200565 0.248356 0.301183
0.256352 0.263737 0.326940
0.359350 0.250401 0.337804
0.577722 0.285344 0.392523
0.739895 0.315007 0.423499
0.875914 0.356451 0.440833
0.978149 0.418799 0.463142
0.169833 0.322576 0.334539
0.194430 0.329320 0.339269
0.268345 0.350530 0.354559
0.373022 0.381750 0.377569
0.559106 0.390723 0.383886
0.720302 0.409400 0.393774
0.857450 0.446723 0.414588
0.971191 0.503410 0.454200
0.194247 0.504234 0.437385
0.223178 0.504784 0.437720
0.309239 0.513725 0.446418
0.430640 0.535210 0.467536
0.521386 0.536156 0.445808
0.703548 0.555535 0.402472
0.850248 0.568048 0.402533
0.966552 0.607050 0.449866
0.310613 0.655909 0.540398
0.344335 0.666072 0.551537
0.407263 0.665187 0.553002
0.499214 0.670466 0.561822
0.526604 0.665492 0.516472
0.655055 0.671626 0.525994
0.817746 0.714992 0.516106
0.960784 0.729091 0.484565
0.463386 0.782559 0.647700
0.479530 0.784176 0.650538
0.525750 0.787167 0.656825
0.591760 0.791562 0.665400
0.616999 0.792050 0.637720
0.669581 0.789242 0.615229
0.780270 0.796750 0.631189
0.916289 0.844633 0.654536
0.647150 0.903105 0.775692
0.655177 0.904143 0.777340
0.676692 0.904936 0.779171
0.717067 0.907958 0.785489
0.748714 0.911223 0.780362
0.759823 0.916320 0.753384
0.831724 0.922240 0.763241
0.912932 0.930297 0.780240
0.223209 0.219883 0.454047
0.245457 0.219394 0.461097
0.316136 0.205539 0.476234
0.449348 0.152834 0.504051
0.562158 0.163973 0.491646
0.748745 0.287755 0.549462
0.862547 0.354253 0.574853
0.959228 0.446693 0.613642
0.250706 0.264134 0.461769
0.269810 0.264164 0.470344
0.329656 0.249454 0.484077
0.450507 0.203616 0.507256
0.564477 0.212070 0.498390
0.747280 0.319646 0.554009
0.861234 0.377508 0.578546
0.958160 0.460212 0.615595
0.284733 0.338994 0.460334
0.302098 0.345098 0.469978
0.351537 0.346471 0.485603
0.452003 0.326543 0.516228
0.563165 0.321874 0.511498
0.732448 0.392493 0.557061
0.851316 0.433295 0.582025
0.951629 0.492287 0.614038
0.297032 0.404242 0.474281
0.317144 0.410529 0.477577
0.382086 0.434424 0.491188
0.462989 0.459693 0.524010
0.564385 0.449348 0.535149
0.723262 0.490364 0.572961
0.844999 0.513695 0.593011
0.955810 0.530236 0.599847
0.290379 0.494789 0.509148
0.310735 0.499153 0.512474
0.371466 0.510277 0.520073
0.458747 0.528985 0.533593
0.546319 0.546319 0.544091
0.700587 0.554131 0.548241
0.836545 0.573754 0.559777
0.953491 0.606867 0.581476
0.314549 0.633570 0.579278
0.334051 0.635584 0.581048
0.390600 0.639063 0.583368
0.479438 0.647303 0.591608
0.575280 0.657557 0.601221
0.661158 0.668879 0.594171
0.824491 0.698817 0.573480
0.956481 0.714748 0.580255
0.464576 0.775570 0.682002
0.475837 0.774716 0.681575
0.516167 0.775143 0.683589
0.579889 0.780270 0.690547
0.652613 0.787503 0.698177
0.675563 0.785702 0.661952
0.780880 0.792660 0.673518
0.917632 0.834226 0.676387
0.629419 0.890410 0.786343
0.635218 0.890196 0.786282
0.656214 0.890654 0.787228
0.705440 0.902037 0.800748
0.752590 0.906584 0.805447
0.775967 0.912078 0.787442
0.825925 0.917235 0.781308
0.909911 0.924895 0.796139
0.376684 0.343725 0.630610
0.391882 0.341924 0.633356
0.439063 0.328161 0.638483
0.528283 0.301122 0.653468
0.650080 0.271427 0.675959
0.730068 0.308598 0.652918
0.858640 0.450111 0.689601
0.951141 0.530205 0.718837
0.384131 0.370001 0.623041
0.396185 0.367010 0.625086
0.440406 0.355230 0.632837
0.525811 0.331884 0.649989
0.644373 0.302251 0.671962
0.724269 0.332921 0.650294
0.855161 0.465827 0.689601
0.948821 0.537774 0.718471
0.431586 0.458473 0.630365
0.439796 0.456458 0.631830
0.474769 0.451667 0.643336
0.545434 0.439521 0.663203
0.650660 0.410132 0.683223
0.725185 0.424598 0.662074
0.854337 0.531365 0.703029
0.947509 0.575952 0.726650
0.462928 0.527123 0.628504
0.475654 0.531243 0.628901
0.512230 0.544457 0.645899
0.578027 0.563134 0.675929
0.660273 0.550561 0.701167
0.735592 0.548455 0.690211
0.857786 0.615259 0.727138
0.949493 0.634241 0.742000
0.448005 0.572229 0.637903
0.462470 0.576165 0.640070
0.508507 0.589258 0.646845
0.575708 0.612207 0.658778
0.639155 0.630396 0.682185
0.717678 0.623224 0.690883
0.842741 0.660639 0.723690
0.943267 0.674159 0.737392
0.436896 0.639948 0.654902
0.454108 0.645075 0.659480
0.496803 0.652308 0.664790
0.557641 0.663294 0.672572
0.623041 0.675135 0.680171
0.697108 0.692683 0.691981
0.832273 0.708003 0.703944
0.949462 0.727687 0.717311
0.502129 0.774014 0.733791
0.516075 0.776883 0.736782
0.550530 0.780117 0.739773
0.603082 0.787106 0.745480
0.666957 0.794888 0.751431
0.738094 0.802060 0.756344
0.799252 0.803861 0.742092
0.937438 0.830411 0.726711
0.633906 0.888640 0.817411
0.639033 0.888273 0.817105
0.658686 0.888640 0.817624
0.696773 0.894011 0.823178
0.743038 0.900481 0.828397
0.800046 0.909789 0.835538
0.827298 0.917266 0.814939
0.913695 0.925139 0.827695
0.518822 0.474464 0.750668
0.528252 0.473640 0.752804
0.558038 0.466194 0.757809
0.615991 0.454231 0.769833
0.696559 0.425940 0.783413
0.780240 0.403754 0.788083
0.836484 0.443214 0.760922
0.935393 0.567315 0.789456
0.526696 0.495857 0.749020
0.534997 0.494606 0.751003
0.563348 0.488106 0.756924
0.616022 0.474067 0.767391
0.693782 0.447303 0.780972
0.777371 0.424018 0.786526
0.833433 0.458259 0.759976
0.932952 0.574395 0.788632
0.563287 0.566064 0.754330
0.568780 0.564385 0.755795
0.588952 0.557794 0.760678
0.629877 0.545281 0.769833
0.696315 0.523064 0.782650
0.778042 0.499916 0.791440
0.834623 0.522515 0.769162
0.934295 0.618250 0.798947
0.584649 0.622034 0.751125
0.589837 0.622553 0.753017
0.621118 0.634668 0.762600
0.652369 0.630518 0.772915
0.702815 0.616175 0.786221
0.781094 0.596521 0.801175
0.837064 0.606104 0.783963
0.936034 0.676997 0.813321
0.593805 0.662470 0.748379
0.601556 0.664851 0.748989
0.628443 0.674372 0.752407
0.665949 0.688411 0.764523
0.710414 0.695583 0.785336
0.774960 0.683345 0.805203
0.836149 0.683345 0.797330
0.937224 0.736141 0.828153
0.591638 0.708370 0.763149
0.599390 0.710170 0.764157
0.625269 0.716670 0.767727
0.666224 0.728115 0.774258
0.717403 0.744625 0.783383
0.772793 0.763424 0.806119
0.839170 0.762631 0.816770
0.939757 0.789578 0.841306
0.596368 0.769924 0.784451
0.603845 0.771511 0.785733
0.627039 0.775570 0.788724
0.663813 0.782895 0.794247
0.710567 0.792660 0.801389
0.765713 0.805905 0.810849
0.822873 0.818082 0.818051
0.941070 0.830137 0.827054
0.647608 0.876188 0.847105
0.653437 0.877134 0.847929
0.674891 0.881682 0.852140
0.707057 0.888182 0.857481
0.749722 0.897765 0.864683
0.802762 0.909697 0.873289
0.864347 0.922148 0.881315
0.922850 0.928923 0.873411
0.670466 0.631891 0.859159
0.675074 0.630854 0.860288
0.689418 0.624384 0.862760
0.718044 0.612909 0.868162
0.762905 0.592920 0.875761
0.827268 0.561852 0.886046
0.889769 0.549584 0.887480
0.929778 0.579553 0.859159
0.675074 0.643915 0.858701
0.679316 0.642817 0.859770
0.692836 0.636530 0.862394
0.719692 0.624689 0.867460
0.763027 0.605341 0.875090
0.826017 0.575372 0.885374
0.888304 0.561120 0.886992
0.928588 0.588251 0.859281
0.691951 0.682124 0.859434
0.695064 0.680781 0.860258
0.705287 0.674403 0.862394
0.729274 0.665522 0.868406
0.767056 0.648157 0.875761
0.824613 0.621363 0.885649
0.886809 0.604089 0.888945
0.928069 0.623560 0.863798
0.707576 0.724208 0.859281
0.714809 0.727718 0.861173
0.727382 0.727901 0.864561
0.744259 0.720150 0.869810
0.774624 0.706996 0.877592
0.824308 0.686397 0.887907
0.886259 0.666926 0.894194
0.929046 0.676967 0.872892
0.724910 0.762448 0.851682
0.727932 0.763363 0.853544
0.736507 0.764462 0.858885
0.755337 0.767483 0.869200
0.784512 0.766384 0.878965
0.823545 0.751949 0.889860
0.885374 0.734249 0.901183
0.930907 0.739773 0.885557
0.726741 0.792905 0.862608
0.730282 0.793668 0.862791
0.742947 0.796811 0.863859
0.765591 0.803494 0.866667
0.795346 0.813352 0.874754
0.831998 0.819486 0.894224
0.886229 0.810575 0.911803
0.937194 0.811704 0.905211
0.733455 0.835538 0.880095
0.736690 0.836057 0.880339
0.748074 0.838102 0.881498
0.769162 0.842863 0.884489
0.799985 0.850858 0.889494
0.841093 0.864378 0.897704
0.889067 0.882017 0.918700
0.945068 0.882444 0.927703
0.746395 0.889036 0.902892
0.749172 0.889494 0.903166
0.759579 0.891539 0.904692
0.779019 0.895964 0.908080
0.807095 0.902800 0.913268
0.844114 0.912840 0.920897
0.891386 0.927611 0.932280
0.947265 0.945403 0.945495
