data/fiter_cube/12898295/1023042/file.cube
# Created by Adobe Lightroom plugin Export LUT (1.17.0)
# www.johnrellis.com/lightroom/exportlut.htm
# Preset: 经典婚礼摄影_04 云集
# Color profile: C:\Program Files (x86)\Common Files\Adobe\Color\Profiles\Recommended\AdobeRGB1998.icc
LUT_3D_SIZE 5
DOMAIN_MIN 0.000000 0.000000 0.000000
DOMAIN_MAX 0.903226 0.903226 0.903226
0.000000 0.000000 0.000000
0.156863 0.000000 0.043458
0.481849 0.000000 0.037018
0.809751 0.000000 0.039765
1.000000 0.292821 0.220890
0.051637 0.141176 0.107485
0.124178 0.142000 0.092378
0.449317 0.137819 0.026978
0.795956 0.205875 0.000031
1.000000 0.390478 0.201694
0.125673 0.417609 0.261082
0.169284 0.415595 0.232883
0.400275 0.442481 0.219211
0.765072 0.504540 0.084749
0.987732 0.559106 0.180880
0.339605 0.706630 0.503014
0.404547 0.711238 0.508904
0.432044 0.704097 0.419013
0.676295 0.703365 0.429847
0.947570 0.782132 0.450172
0.655055 0.910155 0.752895
0.678828 0.910063 0.756130
0.681971 0.901671 0.716213
0.756222 0.913603 0.706081
0.907622 0.928038 0.743771
0.059998 0.059785 0.124819
0.137636 0.045747 0.138491
0.457588 0.000000 0.186007
0.774228 0.000000 0.202640
0.982879 0.271946 0.268406
0.077913 0.134401 0.154818
0.153262 0.163058 0.173709
0.443091 0.156619 0.178653
0.765255 0.193210 0.197543
0.980499 0.357916 0.270207
0.135012 0.403693 0.295689
0.229160 0.414984 0.305425
0.386877 0.418891 0.270695
0.739590 0.463966 0.177829
0.975738 0.548425 0.278843
0.346746 0.700069 0.525994
0.412818 0.705104 0.533898
0.459022 0.702052 0.466041
0.675532 0.699428 0.469368
0.944762 0.774990 0.476173
0.650202 0.907225 0.758541
0.674037 0.907073 0.761471
0.719661 0.912932 0.756039
0.767880 0.919982 0.730037
0.913451 0.932860 0.762448
0.168032 0.171786 0.366064
0.244511 0.162173 0.386206
0.454627 0.115389 0.394446
0.779507 0.240604 0.486152
0.964355 0.408698 0.555993
0.223789 0.273747 0.376562
0.278538 0.280400 0.399329
0.466651 0.254276 0.421698
0.768093 0.332311 0.493416
0.966094 0.438300 0.548180
0.224430 0.409400 0.422766
0.293492 0.423682 0.432380
0.461280 0.465217 0.461952
0.745815 0.489448 0.476722
0.962768 0.558129 0.522667
0.351141 0.687587 0.590570
0.407111 0.685512 0.590173
0.561639 0.699947 0.609461
0.692134 0.705043 0.584161
0.947051 0.748318 0.542016
0.632013 0.893492 0.775753
0.659052 0.897246 0.781277
0.732601 0.906096 0.793576
0.770352 0.912627 0.760800
0.907378 0.923705 0.781857
0.402747 0.365942 0.654627
0.448524 0.359045 0.663447
0.603601 0.320317 0.695552
0.756313 0.337682 0.679011
0.945220 0.540520 0.735561
0.445258 0.455085 0.656947
0.475685 0.447608 0.664546
0.603296 0.420325 0.695796
0.749599 0.415961 0.681849
0.939727 0.567895 0.736965
0.477241 0.558068 0.649592
0.519188 0.573114 0.655268
0.611475 0.598322 0.690974
0.742123 0.582452 0.701808
0.938140 0.656947 0.754543
0.485542 0.679805 0.694606
0.516625 0.681514 0.694820
0.611688 0.698909 0.707210
0.728603 0.723781 0.723293
0.942840 0.746883 0.738643
0.633753 0.886961 0.824735
0.655299 0.889006 0.827024
0.723384 0.899077 0.837125
0.818540 0.915129 0.849149
0.913634 0.923919 0.835447
0.670466 0.631891 0.859159
0.684596 0.626459 0.861936
0.738308 0.604150 0.871702
0.845914 0.553613 0.888609
0.929778 0.579553 0.859159
0.687526 0.671504 0.859617
0.698482 0.666102 0.862119
0.744076 0.645686 0.871702
0.843626 0.599207 0.888762
0.928649 0.613733 0.862882
0.711727 0.740688 0.855619
0.722011 0.741756 0.860899
0.763333 0.742306 0.873350
0.837522 0.711757 0.890867
0.929503 0.706783 0.878355
0.729458 0.803738 0.867582
0.741329 0.806332 0.868528
0.782345 0.817868 0.873869
0.845212 0.834073 0.899229
0.938842 0.829374 0.910430
0.746395 0.889036 0.902892
0.756161 0.890806 0.904143
0.791989 0.899077 0.910430
0.854948 0.916014 0.923369
0.947265 0.945403 0.945495
