data/fiter_cube/29797953/1022860/file.cube
# Created by Adobe Lightroom plugin Export LUT (1.17.0)
# www.johnrellis.com/lightroom/exportlut.htm
# Preset: 电影灰蓝色_05 云集
# Color profile: C:\Program Files (x86)\Common Files\Adobe\Color\Profiles\Recommended\AdobeRGB1998.icc
LUT_3D_SIZE 32
DOMAIN_MIN 0.0 0.0 0.0
DOMAIN_MAX 1.0 1.0 1.0
0.069123 0.076112 0.088075
0.070893 0.076570 0.087984
0.073701 0.077180 0.088472
0.079194 0.078431 0.088838
0.088167 0.080995 0.089815
0.102083 0.084199 0.090547
0.121584 0.087984 0.090974
0.147219 0.091890 0.090944
0.179141 0.095644 0.090303
0.217838 0.098878 0.089082
0.264622 0.100465 0.086793
0.318700 0.099153 0.083375
0.375006 0.095247 0.078462
0.429938 0.091157 0.072633
0.481025 0.090059 0.066041
0.527001 0.095033 0.058228
0.571283 0.109071 0.042969
0.608515 0.130251 0.026276
0.639979 0.154238 0.014679
0.668025 0.180423 0.006043
0.692805 0.207156 0.002319
0.714656 0.233799 0.006165
0.733883 0.260075 0.018738
0.751095 0.285924 0.041016
0.767575 0.311894 0.062745
0.783993 0.338903 0.078309
0.800381 0.366857 0.095155
0.816861 0.395422 0.114137
0.833402 0.424659 0.135958
0.850034 0.454170 0.161288
0.866819 0.484169 0.191226
0.883726 0.514641 0.226596
0.069734 0.076692 0.088869
0.071046 0.077607 0.088502
0.074006 0.078218 0.088380
0.079316 0.079835 0.089021
0.089052 0.082155 0.089693
0.102815 0.085664 0.090425
0.122591 0.089570 0.090822
0.148043 0.093416 0.090791
0.179904 0.097566 0.090089
0.218784 0.101137 0.088808
0.265354 0.102663 0.086793
0.319219 0.101961 0.083009
0.375402 0.098482 0.078401
0.430030 0.095369 0.072511
0.480934 0.094545 0.065919
0.526757 0.099428 0.058045
0.570672 0.113313 0.041840
0.607416 0.133059 0.025971
0.638727 0.156466 0.014649
0.666773 0.181949 0.005280
0.691585 0.208225 0.001770
0.713497 0.234623 0.004578
0.732876 0.260502 0.015229
0.750179 0.286046 0.037720
0.766690 0.312016 0.061433
0.783139 0.338750 0.077119
0.799588 0.366522 0.093996
0.816129 0.395178 0.112764
0.832731 0.424292 0.134554
0.849424 0.453773 0.160006
0.866239 0.483680 0.189761
0.883177 0.514061 0.224979
0.070100 0.078401 0.089845
0.071138 0.078553 0.090913
0.073487 0.079683 0.089418
0.079835 0.081422 0.089174
0.089754 0.084352 0.089815
0.103944 0.087922 0.090486
0.123751 0.091646 0.090883
0.149264 0.096162 0.090761
0.181308 0.100313 0.090059
0.220249 0.103883 0.088685
0.266941 0.106386 0.086244
0.320897 0.105928 0.082673
0.376776 0.103151 0.077974
0.431189 0.100710 0.071992
0.481727 0.100496 0.065339
0.527550 0.105653 0.056580
0.571099 0.119234 0.039948
0.607416 0.138369 0.024262
0.638514 0.160586 0.012268
0.666468 0.185458 0.002930
0.691310 0.211154 0.000000
0.713191 0.237064 0.002472
0.732540 0.262699 0.014221
0.749844 0.287846 0.035798
0.766384 0.313359 0.060822
0.782773 0.340002 0.076326
0.799283 0.367620 0.093385
0.815824 0.396002 0.112123
0.832456 0.424964 0.134035
0.849180 0.454292 0.159487
0.865934 0.484047 0.189242
0.882933 0.514336 0.224308
0.071870 0.081483 0.092866
0.073121 0.082246 0.094087
0.073793 0.082124 0.094881
0.078737 0.084474 0.091676
0.090181 0.087404 0.090364
0.106630 0.093355 0.090242
0.126802 0.097444 0.090547
0.152926 0.102083 0.090333
0.185153 0.106905 0.089448
0.224491 0.111147 0.087861
0.271641 0.113985 0.085512
0.325536 0.114443 0.081697
0.380865 0.113344 0.076661
0.434699 0.112093 0.070832
0.484749 0.113039 0.063355
0.530663 0.118929 0.052857
0.572930 0.131624 0.036622
0.608423 0.149416 0.020294
0.638941 0.170199 0.008667
0.666468 0.193332 0.000031
0.691005 0.217899 0.000000
0.712795 0.242771 0.000000
0.732174 0.267826 0.010834
0.749569 0.292424 0.032410
0.766262 0.317754 0.059663
0.782834 0.344030 0.076020
0.799405 0.371344 0.093080
0.816007 0.399481 0.112276
0.832639 0.428016 0.134218
0.849271 0.456947 0.159548
0.865965 0.486152 0.189181
0.882811 0.515953 0.224033
0.073548 0.085969 0.096407
0.074891 0.086702 0.097353
0.076814 0.087312 0.099001
0.077913 0.087068 0.100954
0.087709 0.092195 0.093812
0.105562 0.096040 0.091127
0.129213 0.105226 0.090547
0.158206 0.113313 0.089479
0.191104 0.118349 0.088380
0.231022 0.123171 0.086793
0.278660 0.126528 0.084108
0.332555 0.128389 0.079774
0.387243 0.128450 0.074678
0.440314 0.128634 0.068330
0.489601 0.130861 0.060700
0.535607 0.137545 0.047669
0.576410 0.149722 0.028809
0.611078 0.166262 0.013489
0.641077 0.185641 0.002747
0.668055 0.207248 0.000000
0.692073 0.230045 0.000000
0.713497 0.253452 0.000000
0.732631 0.277073 0.006622
0.749905 0.300694 0.029541
0.766506 0.325048 0.057893
0.783078 0.350622 0.074922
0.799557 0.377234 0.092592
0.816098 0.404547 0.112032
0.832670 0.432349 0.134127
0.849271 0.460609 0.159457
0.865904 0.489326 0.189151
0.882719 0.518547 0.223758
0.075837 0.092164 0.100862
0.076997 0.093141 0.101717
0.078706 0.094270 0.103517
0.082277 0.095064 0.106813
0.085328 0.097139 0.106386
0.101595 0.103944 0.095827
0.126986 0.108095 0.091432
0.157931 0.120150 0.089845
0.198734 0.135134 0.086854
0.240879 0.141421 0.084596
0.289616 0.145510 0.081239
0.343206 0.147982 0.076631
0.397192 0.149294 0.071199
0.449134 0.150759 0.064057
0.497169 0.154025 0.053285
0.542657 0.161440 0.036286
0.581811 0.173098 0.018311
0.615320 0.188144 0.004150
0.644465 0.205722 0.000000
0.670863 0.225620 0.000000
0.694331 0.246860 0.000000
0.715358 0.268528 0.000000
0.741054 0.301183 0.012146
0.757443 0.323278 0.041596
0.773526 0.346288 0.065827
0.789487 0.370336 0.082673
0.805447 0.395331 0.100587
0.821378 0.420966 0.120668
0.837369 0.447089 0.142916
0.853452 0.473884 0.168673
0.869627 0.501122 0.198703
0.885954 0.528893 0.233127
0.078248 0.102480 0.107668
0.079774 0.103304 0.108675
0.082002 0.104707 0.110506
0.087984 0.107454 0.115633
0.092226 0.107210 0.119966
0.098817 0.114443 0.113436
0.122225 0.122133 0.098207
0.155612 0.124361 0.091096
0.195560 0.139498 0.088472
0.247196 0.157473 0.083467
0.308171 0.173434 0.076112
0.361761 0.175784 0.070802
0.414374 0.177371 0.064240
0.464515 0.179477 0.054322
0.511864 0.183841 0.036103
0.555230 0.192020 0.017060
0.592096 0.203098 0.000183
0.623835 0.216861 0.000000
0.651820 0.232975 0.000000
0.677272 0.251194 0.000000
0.700191 0.270848 0.000000
0.720882 0.291539 0.000000
0.739498 0.312749 0.000214
0.756558 0.334386 0.031342
0.773190 0.357031 0.062531
0.789425 0.380377 0.081025
0.805447 0.404456 0.099825
0.821347 0.429023 0.120241
0.837308 0.454078 0.142855
0.853300 0.479805 0.168460
0.869383 0.506065 0.198337
0.885679 0.533013 0.232547
0.082246 0.117250 0.117006
0.083833 0.118318 0.118288
0.086580 0.119875 0.119905
0.092622 0.123201 0.124697
0.101503 0.125093 0.132296
0.106477 0.124758 0.139132
0.119539 0.139101 0.121370
0.149081 0.145083 0.100862
0.188357 0.143099 0.090364
0.237827 0.160891 0.085817
0.300114 0.181094 0.078462
0.369665 0.201846 0.065461
0.428626 0.211490 0.049561
0.477089 0.213413 0.031586
0.524041 0.218265 0.011048
0.564202 0.225254 0.000000
0.598871 0.234928 0.000000
0.628992 0.246616 0.000000
0.655848 0.260472 0.000000
0.680293 0.276249 0.000000
0.702419 0.293553 0.000000
0.722438 0.311925 0.000000
0.740566 0.330846 0.000000
0.757321 0.350561 0.024079
0.773709 0.371313 0.060243
0.789822 0.393225 0.080293
0.805722 0.415656 0.099641
0.821561 0.438788 0.119966
0.837400 0.462715 0.142855
0.853300 0.487251 0.168643
0.869352 0.512535 0.198428
0.885557 0.538506 0.232395
0.088167 0.138735 0.130526
0.090120 0.139895 0.131960
0.093294 0.141787 0.134005
0.100343 0.145205 0.138613
0.113222 0.150332 0.149111
0.121828 0.149813 0.156435
0.127565 0.150332 0.165255
0.149355 0.172183 0.131014
0.183658 0.174228 0.103731
0.227359 0.164675 0.088930
0.288060 0.185214 0.081605
0.356298 0.206180 0.070985
0.425452 0.228244 0.049134
0.493233 0.254276 0.000000
0.537438 0.259190 0.000000
0.574670 0.264500 0.000000
0.607141 0.271763 0.000000
0.635767 0.281010 0.000000
0.661189 0.292241 0.000000
0.684382 0.305333 0.000000
0.705562 0.319921 0.000000
0.724819 0.335668 0.000000
0.742306 0.352117 0.000000
0.758724 0.369726 0.016846
0.774899 0.388708 0.059174
0.790768 0.408545 0.079835
0.806485 0.429358 0.099886
0.822141 0.450874 0.120729
0.837858 0.473243 0.143771
0.853605 0.496437 0.169650
0.869474 0.520500 0.199466
0.885588 0.545251 0.232975
0.096834 0.167819 0.148898
0.099397 0.168978 0.150240
0.102937 0.170687 0.152255
0.111055 0.174441 0.157259
0.124147 0.179995 0.166201
0.140261 0.182559 0.178225
0.150729 0.182162 0.188388
0.158206 0.189944 0.184970
0.188907 0.212711 0.142092
0.226474 0.208774 0.106874
0.272282 0.188632 0.086244
0.341619 0.210544 0.075074
0.412848 0.233707 0.059876
0.480354 0.258976 0.015076
0.540063 0.286839 0.000000
0.586114 0.308934 0.000000
0.616724 0.313542 0.000000
0.643732 0.319951 0.000000
0.667781 0.328283 0.000000
0.689570 0.338170 0.000000
0.709468 0.349737 0.000000
0.727626 0.362463 0.000000
0.744228 0.376013 0.000000
0.760189 0.390967 0.010163
0.775967 0.407507 0.056001
0.791623 0.425391 0.079011
0.807218 0.444282 0.100069
0.822782 0.464271 0.121553
0.838376 0.485267 0.145144
0.854063 0.507103 0.171237
0.869902 0.529931 0.201053
0.886015 0.553582 0.234623
0.109316 0.203647 0.171481
0.112306 0.204929 0.173068
0.116609 0.206729 0.175204
0.125734 0.210391 0.180179
0.140200 0.216007 0.188937
0.162448 0.222293 0.204471
0.177523 0.221958 0.215183
0.189425 0.222171 0.228305
0.200046 0.237949 0.206668
0.239811 0.260014 0.154208
0.279240 0.248539 0.110323
0.324590 0.215274 0.081209
0.398138 0.238865 0.065675
0.465553 0.263249 0.034241
0.526421 0.290105 0.000000
0.578088 0.319280 0.000000
0.621759 0.349340 0.000000
0.651331 0.361883 0.000000
0.673854 0.366552 0.000000
0.694392 0.373175 0.000000
0.713283 0.381445 0.000000
0.730617 0.391150 0.000000
0.746639 0.402228 0.000000
0.762295 0.414893 0.004364
0.777829 0.429175 0.055329
0.793149 0.444800 0.080323
0.808469 0.461616 0.101656
0.823789 0.479713 0.123507
0.839170 0.498878 0.147005
0.854643 0.519097 0.173220
0.870359 0.540398 0.203067
0.886259 0.562646 0.236362
0.126986 0.247044 0.199191
0.130434 0.248356 0.200717
0.135195 0.250126 0.203067
0.145418 0.253666 0.207950
0.161501 0.259495 0.216556
0.184634 0.266361 0.230259
0.209323 0.269291 0.246372
0.226963 0.269230 0.259892
0.240482 0.269902 0.276310
0.255131 0.293889 0.230320
0.304326 0.314519 0.168185
0.341436 0.293553 0.114748
0.391669 0.253300 0.072938
0.460822 0.274327 0.044007
0.522698 0.300999 0.000000
0.575250 0.329808 0.000000
0.619318 0.359503 0.000000
0.656458 0.388830 0.000000
0.686885 0.415381 0.000000
0.705257 0.417792 0.000000
0.722225 0.421973 0.000000
0.737942 0.427893 0.000000
0.752926 0.435615 0.000000
0.767880 0.445350 0.016541
0.782742 0.456916 0.064790
0.797574 0.470069 0.087984
0.812345 0.484535 0.109468
0.827146 0.500237 0.131167
0.842008 0.517266 0.154696
0.857053 0.535424 0.180758
0.872343 0.554772 0.209995
0.887968 0.575189 0.242557
0.152651 0.301091 0.233677
0.156313 0.302342 0.235233
0.161776 0.303746 0.237430
0.173007 0.307073 0.242344
0.190951 0.311925 0.250553
0.214817 0.317998 0.262882
0.248936 0.323857 0.283696
0.271244 0.323125 0.297002
0.292271 0.325139 0.314672
0.307286 0.329992 0.330449
0.325566 0.357763 0.260594
0.376989 0.373053 0.186587
0.407813 0.342931 0.122225
0.441291 0.288426 0.067170
0.502647 0.302220 0.019104
0.558495 0.330083 0.000000
0.605066 0.359136 0.000000
0.644251 0.388128 0.000000
0.677150 0.415808 0.000000
0.704860 0.441413 0.000000
0.725734 0.456306 0.000000
0.740719 0.459083 0.000000
0.755398 0.464118 0.000000
0.770016 0.471351 0.016663
0.784604 0.480568 0.066346
0.799130 0.491432 0.090425
0.813626 0.503838 0.112306
0.828153 0.517723 0.134676
0.842832 0.532799 0.157931
0.857694 0.549371 0.183993
0.872831 0.567041 0.212924
0.888365 0.585992 0.244999
0.185397 0.354162 0.269871
0.189548 0.355230 0.271519
0.195163 0.356420 0.273716
0.207614 0.359197 0.278721
0.226658 0.363104 0.286809
0.252903 0.368933 0.299321
0.286778 0.375647 0.318059
0.318486 0.378546 0.336706
0.341588 0.379309 0.352209
0.360784 0.381201 0.369970
0.370214 0.392035 0.363195
0.391028 0.413275 0.289189
0.439460 0.422583 0.206027
0.461921 0.385138 0.132479
0.486519 0.324987 0.064942
0.539513 0.330327 0.000000
0.589166 0.358312 0.000000
0.630518 0.386969 0.000000
0.665858 0.414893 0.000000
0.695583 0.440955 0.000000
0.720821 0.464973 0.000000
0.742580 0.487037 0.000000
0.758328 0.494026 0.000000
0.772641 0.498848 0.023468
0.786923 0.505791 0.071138
0.801144 0.514519 0.095369
0.815366 0.524865 0.117311
0.829618 0.536675 0.139376
0.844022 0.550011 0.162966
0.858701 0.564721 0.188846
0.873655 0.580774 0.217411
0.889036 0.598169 0.248844
0.230991 0.408698 0.311650
0.235569 0.409674 0.313390
0.241367 0.410681 0.315618
0.254246 0.413123 0.320562
0.273625 0.416632 0.328435
0.298466 0.421027 0.339391
0.327764 0.426184 0.353796
0.364630 0.430457 0.375463
0.387701 0.430426 0.389044
0.408118 0.431342 0.404730
0.424262 0.433417 0.421942
0.429175 0.447700 0.393347
0.450782 0.462501 0.317449
0.494392 0.466743 0.228550
0.509270 0.424689 0.146059
0.526635 0.361028 0.067140
0.570520 0.357519 0.000000
0.615564 0.385260 0.000000
0.653285 0.413397 0.000000
0.685328 0.440192 0.000000
0.712337 0.464607 0.000000
0.735378 0.487007 0.000000
0.756344 0.508568 0.000000
0.775509 0.527214 0.038300
0.789487 0.531975 0.078828
0.803464 0.538659 0.102388
0.817472 0.547082 0.124544
0.831571 0.557244 0.146883
0.845823 0.568841 0.170413
0.860380 0.581964 0.196353
0.875212 0.596429 0.224521
0.890471 0.612268 0.255711
0.283757 0.459907 0.354589
0.288212 0.460731 0.356268
0.293400 0.461524 0.358129
0.305364 0.463294 0.362646
0.323064 0.465858 0.369635
0.346014 0.469184 0.379370
0.372442 0.473152 0.391791
0.404578 0.477211 0.409674
0.432044 0.478584 0.426154
0.451789 0.478767 0.439551
0.468269 0.479591 0.454414
0.480415 0.481544 0.470283
0.481666 0.495674 0.421515
0.502068 0.504479 0.344579
0.538293 0.503441 0.253452
0.548760 0.460151 0.163058
0.560662 0.395697 0.075471
0.596979 0.383001 0.000000
0.639094 0.411322 0.000000
0.674037 0.438849 0.000000
0.703212 0.464088 0.000000
0.727962 0.487160 0.000000
0.749722 0.508721 0.006226
0.770504 0.530541 0.061921
0.790402 0.552239 0.089357
0.806485 0.564446 0.113069
0.820157 0.570825 0.134432
0.833951 0.578973 0.156497
0.847898 0.588708 0.180026
0.862119 0.599847 0.204868
0.876646 0.612421 0.232242
0.891600 0.626459 0.262547
0.335943 0.503899 0.394873
0.339544 0.504295 0.396155
0.344274 0.504845 0.397955
0.354742 0.506065 0.401740
0.370336 0.507897 0.407813
0.390295 0.510246 0.416236
0.413489 0.513176 0.426886
0.439002 0.516411 0.440162
0.469398 0.518914 0.459358
0.487556 0.518639 0.470924
0.503410 0.519036 0.483680
0.516136 0.520165 0.497414
0.524132 0.522911 0.507378
0.524956 0.535027 0.446235
0.544182 0.539727 0.370245
0.574121 0.534600 0.279484
0.582391 0.492317 0.183658
0.590723 0.428992 0.089113
0.621118 0.408087 0.000000
0.660700 0.436469 0.000000
0.692592 0.462287 0.000000
0.719142 0.486030 0.000000
0.742000 0.507805 0.019654
0.763516 0.529656 0.069551
0.784115 0.551507 0.095705
0.803769 0.573083 0.120546
0.822446 0.594049 0.145724
0.836088 0.600855 0.167300
0.849790 0.608667 0.190249
0.863767 0.618097 0.214603
0.878111 0.628962 0.241001
0.892851 0.641413 0.270420
0.385992 0.541833 0.432959
0.389380 0.542290 0.434333
0.402960 0.549432 0.443000
0.411749 0.550256 0.446326
0.424994 0.551446 0.451514
0.441382 0.552972 0.458442
0.460609 0.554864 0.467323
0.481483 0.557122 0.478218
0.505852 0.559380 0.493538
0.525628 0.559991 0.506737
0.539940 0.559930 0.517418
0.551995 0.560296 0.528954
0.561334 0.561151 0.541039
0.563500 0.565728 0.533349
0.566278 0.573236 0.474037
0.583948 0.574640 0.399847
0.608728 0.566217 0.309850
0.615442 0.525414 0.210422
0.620935 0.464088 0.108339
0.646082 0.435370 0.000000
0.682155 0.462318 0.000000
0.710994 0.486275 0.000000
0.735073 0.508324 0.029297
0.757168 0.530022 0.074891
0.778256 0.551690 0.101381
0.798367 0.573297 0.126131
0.817533 0.594263 0.151003
0.835782 0.614588 0.177096
0.851835 0.629267 0.202121
0.865537 0.636835 0.225345
0.879606 0.645930 0.250706
0.894102 0.656733 0.278965
0.434821 0.576776 0.470558
0.438544 0.577813 0.472450
0.443305 0.578943 0.474769
0.451606 0.580346 0.478431
0.463355 0.581811 0.483528
0.477607 0.583429 0.489906
0.493874 0.585138 0.497688
0.511498 0.587060 0.506981
0.530632 0.589288 0.518608
0.552422 0.590936 0.534142
0.565637 0.590631 0.543450
0.577234 0.590784 0.553552
0.586816 0.591302 0.564263
0.593896 0.592157 0.575250
0.592920 0.597406 0.552667
0.597009 0.601892 0.495247
0.613733 0.601312 0.423713
0.634882 0.590906 0.336004
0.641108 0.552209 0.236484
0.645441 0.493812 0.129030
0.666011 0.458167 0.000000
0.699489 0.483894 0.000000
0.726070 0.506401 0.015290
0.749111 0.528222 0.072145
0.771023 0.550134 0.101198
0.791989 0.572137 0.127138
0.811917 0.593652 0.152956
0.830900 0.614557 0.180117
0.849088 0.634516 0.207950
0.866667 0.653590 0.236606
0.881193 0.663508 0.261906
0.895476 0.672724 0.289158
0.475471 0.605921 0.503197
0.478614 0.606836 0.504875
0.482490 0.607752 0.506859
0.489357 0.608881 0.510124
0.499153 0.610101 0.514580
0.511009 0.611353 0.520104
0.524773 0.612604 0.526879
0.539849 0.614160 0.535058
0.555962 0.615961 0.544793
0.574640 0.617548 0.558221
0.589319 0.618097 0.569268
0.599939 0.618067 0.577905
0.608972 0.618280 0.586938
0.616236 0.618891 0.596338
0.621393 0.619776 0.605859
0.618708 0.624720 0.571801
0.623743 0.627039 0.516594
0.639429 0.625208 0.448066
0.657771 0.613489 0.363165
0.664057 0.577142 0.264378
0.667811 0.521874 0.153140
0.684535 0.480079 0.016846
0.715633 0.504417 0.019196
0.740352 0.526024 0.066011
0.763241 0.548119 0.096742
0.785061 0.570459 0.124971
0.805814 0.592462 0.152285
0.825559 0.613916 0.180606
0.844419 0.634516 0.209598
0.862638 0.654108 0.239109
0.880278 0.672877 0.269505
0.896788 0.689021 0.300359
0.512016 0.631586 0.533867
0.514641 0.632288 0.535332
0.517876 0.633021 0.537102
0.523735 0.633906 0.539971
0.531884 0.634852 0.543938
0.541955 0.635798 0.548852
0.553521 0.636835 0.554864
0.566400 0.638025 0.562066
0.580194 0.639368 0.570581
0.594720 0.640925 0.580743
0.610529 0.642176 0.593469
0.619898 0.642023 0.600732
0.628229 0.642115 0.608392
0.635248 0.642512 0.616327
0.640772 0.643153 0.624567
0.644068 0.644434 0.630152
0.641382 0.648585 0.590478
0.647303 0.649683 0.538720
0.662348 0.647395 0.473548
0.678676 0.635126 0.392676
0.685359 0.601495 0.296147
0.689357 0.549706 0.182773
0.703243 0.502586 0.059174
0.731960 0.525780 0.068574
0.756283 0.547784 0.094484
0.779171 0.570428 0.122835
0.800870 0.593103 0.152834
0.821439 0.615198 0.182956
0.841032 0.636347 0.213565
0.859861 0.656489 0.244388
0.878111 0.675746 0.276188
0.895659 0.694301 0.309300
0.548028 0.655787 0.565209
0.549920 0.656123 0.566247
0.552148 0.656458 0.567407
0.556603 0.656886 0.569665
0.563256 0.657435 0.572961
0.571527 0.658106 0.577203
0.581201 0.658930 0.582483
0.592004 0.659937 0.588739
0.603479 0.661219 0.596033
0.615351 0.662715 0.604273
0.628779 0.664118 0.615137
0.639185 0.664668 0.623713
0.646632 0.664729 0.630213
0.653162 0.665003 0.636927
0.658595 0.665431 0.643854
0.662837 0.666102 0.651026
0.663478 0.668086 0.646265
0.662440 0.670649 0.609522
0.668513 0.670649 0.561669
0.682551 0.667689 0.499336
0.696712 0.654749 0.422126
0.703487 0.623102 0.327520
0.707820 0.574792 0.213993
0.719326 0.522698 0.079805
0.746365 0.545006 0.092714
0.770840 0.567681 0.116518
0.793820 0.590631 0.144991
0.815366 0.613550 0.177798
0.835813 0.635523 0.210483
0.855467 0.656397 0.243015
0.874388 0.676356 0.276432
0.892638 0.695521 0.310857
0.577295 0.675074 0.591760
0.578820 0.675380 0.592645
0.580743 0.675685 0.593744
0.584436 0.676051 0.595697
0.589807 0.676570 0.598535
0.596582 0.677150 0.602197
0.604517 0.677943 0.606653
0.613367 0.678889 0.611963
0.623041 0.680171 0.618219
0.633021 0.681697 0.625208
0.643671 0.683375 0.633478
0.655085 0.684932 0.643458
0.661921 0.684993 0.648981
0.668238 0.685237 0.654902
0.673793 0.685664 0.661219
0.678553 0.686305 0.667933
0.682307 0.687160 0.675013
0.681270 0.689540 0.660914
0.681575 0.691127 0.626429
0.687953 0.690364 0.582300
0.701167 0.686976 0.523827
0.713527 0.673487 0.450477
0.720119 0.643641 0.359319
0.724971 0.598688 0.247227
0.736110 0.548058 0.109133
0.760647 0.564019 0.113527
0.785428 0.587396 0.137575
0.808408 0.610651 0.167788
0.829862 0.633570 0.202976
0.850401 0.655390 0.238102
0.870176 0.676204 0.273442
0.889250 0.696223 0.309789
0.604120 0.694942 0.617914
0.605402 0.695277 0.618708
0.606897 0.695552 0.619562
0.609827 0.695918 0.621180
0.614130 0.696407 0.623499
0.619532 0.697017 0.626520
0.625971 0.697780 0.630213
0.633234 0.698756 0.634638
0.641169 0.699947 0.639765
0.649500 0.701411 0.645441
0.658106 0.703120 0.651789
0.668544 0.704707 0.660731
0.676844 0.705440 0.667903
0.682979 0.705470 0.673274
0.688472 0.705592 0.678920
0.693294 0.705898 0.684932
0.697353 0.706447 0.691371
0.700526 0.707301 0.698146
0.698238 0.709682 0.675135
0.699550 0.710506 0.641566
0.706233 0.709194 0.600946
0.718715 0.705531 0.546746
0.729519 0.691646 0.476997
0.735866 0.663142 0.389075
0.740841 0.620905 0.278813
0.753353 0.573968 0.139071
0.775937 0.584222 0.135561
0.800870 0.608148 0.160708
0.823758 0.631495 0.193271
0.845243 0.654231 0.230564
0.865904 0.675959 0.268437
0.885832 0.696834 0.306950
0.624659 0.713130 0.639673
0.625727 0.713466 0.640375
0.627008 0.713771 0.641169
0.629419 0.714168 0.642512
0.632990 0.714717 0.644556
0.637598 0.715389 0.647150
0.643061 0.716274 0.650416
0.649317 0.717372 0.654200
0.656336 0.718746 0.658778
0.664057 0.720302 0.664088
0.672267 0.722042 0.670192
0.681453 0.723842 0.677821
0.691676 0.725551 0.687251
0.697688 0.725643 0.692256
0.703243 0.725765 0.697597
0.708278 0.726040 0.703243
0.712642 0.726497 0.709194
0.716335 0.727230 0.715541
0.718807 0.728359 0.720577
0.716091 0.730495 0.691218
0.718166 0.730739 0.658015
0.725002 0.728939 0.619989
0.736812 0.724971 0.570367
0.746242 0.710842 0.504631
0.752438 0.683986 0.420905
0.757870 0.644526 0.313420
0.770382 0.600183 0.175692
0.792233 0.605707 0.159487
0.817441 0.630152 0.187045
0.840360 0.653559 0.222721
0.862089 0.676143 0.262211
0.882994 0.698024 0.303563
0.642725 0.731716 0.660304
0.643580 0.731991 0.660853
0.644556 0.732235 0.661463
0.646571 0.732570 0.662593
0.649592 0.733059 0.664271
0.653620 0.733730 0.666560
0.658564 0.734554 0.669520
0.664363 0.735622 0.673121
0.670985 0.736934 0.677485
0.678248 0.738430 0.682612
0.686061 0.740169 0.688472
0.694301 0.742123 0.695125
0.704158 0.743893 0.704067
0.711940 0.744839 0.711177
0.717433 0.744930 0.716060
0.722438 0.745144 0.721248
0.726955 0.745449 0.726650
0.730861 0.745998 0.732387
0.734127 0.746853 0.738430
0.734737 0.748379 0.735439
0.733028 0.749874 0.706996
0.735775 0.749722 0.674281
0.742824 0.747646 0.637385
0.754177 0.743618 0.592065
0.762417 0.729549 0.531212
0.768673 0.704250 0.451545
0.774716 0.667506 0.347326
0.787625 0.626154 0.212802
0.808743 0.627283 0.184665
0.834195 0.651881 0.214023
0.857328 0.675349 0.253269
0.879454 0.698054 0.295262
0.658656 0.749264 0.679316
0.659388 0.749477 0.679835
0.660334 0.749722 0.680385
0.662226 0.750057 0.681514
0.665156 0.750607 0.683253
0.669062 0.751369 0.685664
0.673976 0.752407 0.688777
0.679713 0.753719 0.692622
0.686305 0.755276 0.697200
0.693538 0.757076 0.702541
0.701320 0.759030 0.708553
0.709407 0.761196 0.715175
0.718318 0.763333 0.723079
0.727932 0.765347 0.732387
0.733455 0.765560 0.737087
0.738399 0.765743 0.741787
0.742947 0.766049 0.746700
0.747005 0.766506 0.751858
0.750546 0.767178 0.757259
0.753445 0.768063 0.762875
0.752560 0.769650 0.752895
0.751644 0.770687 0.725826
0.754818 0.770199 0.694087
0.762173 0.768063 0.657679
0.773251 0.764157 0.615717
0.780423 0.750179 0.560876
0.786954 0.726589 0.485542
0.793790 0.692714 0.385840
0.807584 0.654963 0.255589
0.828305 0.652552 0.217502
0.854093 0.677028 0.249485
0.877531 0.700710 0.293126
0.675898 0.767727 0.700099
0.676600 0.767910 0.700526
0.677394 0.768063 0.701015
0.679164 0.768368 0.702083
0.681880 0.768795 0.703700
0.685481 0.769436 0.705959
0.689967 0.770321 0.708858
0.695308 0.771420 0.712398
0.701381 0.772732 0.716640
0.708125 0.774258 0.721553
0.715328 0.775998 0.727047
0.722927 0.777890 0.733150
0.730678 0.779934 0.739742
0.739834 0.781796 0.748287
