data/fiter_cube/29797953/1022860/file.cube
# Created by Adobe Lightroom plugin Export LUT (1.17.0)
# www.johnrellis.com/lightroom/exportlut.htm
# Preset: 电影灰蓝色_05 云集
# Color profile: C:\Program Files (x86)\Common Files\Adobe\Color\Profiles\Recommended\AdobeRGB1998.icc
LUT_3D_SIZE 8
DOMAIN_MIN 0.000000 0.000000 0.000000
DOMAIN_MAX 0.903226 0.903226 0.903226
0.069123 0.076112 0.088075
0.088167 0.080995 0.089815
0.179141 0.095644 0.090303
0.375006 0.095247 0.078462
0.571283 0.109071 0.042969
0.692805 0.207156 0.002319
0.767575 0.311894 0.062745
0.833402 0.424659 0.135958
0.073548 0.085969 0.096407
0.087709 0.092195 0.093812
0.191104 0.118349 0.088380
0.387243 0.128450 0.074678
0.576410 0.149722 0.028809
0.692073 0.230045 0.000000
0.766506 0.325048 0.057893
0.832670 0.432349 0.134127
0.088167 0.138735 0.130526
0.113222 0.150332 0.149111
0.183658 0.174228 0.103731
0.425452 0.228244 0.049134
0.607141 0.271763 0.000000
0.705562 0.319921 0.000000
0.774899 0.388708 0.059174
0.837858 0.473243 0.143771
0.152651 0.301091 0.233677
0.190951 0.311925 0.250553
0.292271 0.325139 0.314672
0.407813 0.342931 0.122225
0.605066 0.359136 0.000000
0.725734 0.456306 0.000000
0.784604 0.480568 0.066346
0.842832 0.532799 0.157931
0.335943 0.503899 0.394873
0.370336 0.507897 0.407813
0.469398 0.518914 0.459358
0.524132 0.522911 0.507378
0.582391 0.492317 0.183658
0.692592 0.462287 0.000000
0.784115 0.551507 0.095705
0.849790 0.608667 0.190249
0.512016 0.631586 0.533867
0.531884 0.634852 0.543938
0.580194 0.639368 0.570581
0.628229 0.642115 0.608392
0.641382 0.648585 0.590478
0.685359 0.601495 0.296147
0.756283 0.547784 0.094484
0.841032 0.636347 0.213565
0.624659 0.713130 0.639673
0.632990 0.714717 0.644556
0.656336 0.718746 0.658778
0.691676 0.725551 0.687251
0.712642 0.726497 0.709194
0.718166 0.730739 0.658015
0.752438 0.683986 0.420905
0.817441 0.630152 0.187045
0.690791 0.783413 0.718135
0.696468 0.784451 0.721675
0.715206 0.788327 0.734340
0.743465 0.795560 0.756588
0.767941 0.798062 0.777951
0.782559 0.800504 0.796109
0.787472 0.803861 0.727565
0.821134 0.763882 0.539117
0.070161 0.081056 0.100771
0.090608 0.080629 0.103700
0.173068 0.098116 0.108553
0.365179 0.109133 0.107240
0.561791 0.129610 0.096620
0.682979 0.216373 0.093202
0.760922 0.317357 0.114382
0.828153 0.427070 0.168521
0.072816 0.090089 0.103670
0.088624 0.099153 0.111208
0.185336 0.121248 0.111727
0.379767 0.137575 0.105928
0.568872 0.163973 0.094453
0.684932 0.239811 0.090974
0.760739 0.330846 0.112642
0.827420 0.434302 0.167056
0.088136 0.149996 0.143862
0.117372 0.164706 0.161074
0.189059 0.185916 0.129000
0.426490 0.242069 0.096162
0.596979 0.274022 0.082033
0.697902 0.323339 0.084932
0.767605 0.389319 0.115602
0.832120 0.473182 0.175540
0.156435 0.310918 0.247837
0.198245 0.322942 0.264805
0.305486 0.339940 0.325505
0.403632 0.346014 0.154208
0.596704 0.362982 0.072480
0.716426 0.451881 0.075654
0.777188 0.478004 0.124910
0.837400 0.531792 0.189639
0.343755 0.509026 0.405951
0.375433 0.512047 0.416602
0.466651 0.521508 0.459785
0.525902 0.523583 0.511101
0.577478 0.492561 0.211948
0.689509 0.466712 0.079896
0.780941 0.555566 0.148684
0.845762 0.608545 0.223026
0.512169 0.631769 0.537041
0.528801 0.633173 0.544182
0.576379 0.637598 0.568933
0.626581 0.641535 0.607172
0.641627 0.648188 0.597528
0.683375 0.602960 0.317327
0.755032 0.551965 0.137209
0.838895 0.639124 0.242466
0.622400 0.711757 0.639094
0.629877 0.712551 0.642939
0.653559 0.716762 0.657038
0.688899 0.724239 0.684749
0.712184 0.726467 0.708675
0.717464 0.730220 0.662013
0.749844 0.683253 0.430671
0.815061 0.630945 0.209110
0.688838 0.782742 0.717556
0.694728 0.783932 0.721248
0.713588 0.787900 0.733761
0.742061 0.795163 0.755734
0.769558 0.800259 0.780179
0.783780 0.801999 0.797330
0.787381 0.804196 0.731106
0.819821 0.763699 0.544182
0.063325 0.090791 0.141115
0.080598 0.086702 0.160037
0.206760 0.080934 0.171115
0.349676 0.126467 0.178531
0.546471 0.168734 0.187961
0.671992 0.259129 0.200931
0.752590 0.352270 0.221195
0.821134 0.451881 0.265232
0.075196 0.111421 0.140658
0.084627 0.115175 0.162905
0.202304 0.120241 0.179416
0.357580 0.161288 0.189181
0.552911 0.199344 0.192813
0.674098 0.278264 0.202152
0.752987 0.364416 0.221530
0.821256 0.459480 0.265385
0.078737 0.164553 0.176638
0.104891 0.178470 0.188754
0.197910 0.219303 0.211734
0.413519 0.259190 0.207004
0.582544 0.296025 0.205997
0.687221 0.350622 0.210910
0.758633 0.414527 0.230686
0.824399 0.491585 0.272953
0.139590 0.344305 0.295933
0.191318 0.355962 0.306950
0.324498 0.380468 0.349615
0.418250 0.378515 0.249943
0.604059 0.412268 0.212528
0.706020 0.466163 0.231662
0.768795 0.495674 0.251896
0.830472 0.546319 0.290379
0.339330 0.524681 0.432593
0.377173 0.528435 0.442603
0.468696 0.537530 0.474006
0.543084 0.543847 0.524102
0.581292 0.513207 0.306737
0.691127 0.498817 0.218418
0.777920 0.582055 0.281621
0.838560 0.616663 0.320256
0.512566 0.638880 0.551690
0.531060 0.640314 0.558587
0.578271 0.643915 0.579126
0.629145 0.648280 0.612726
0.649104 0.653132 0.625666
0.679500 0.611109 0.383154
0.753384 0.571069 0.244114
0.836210 0.655146 0.334844
0.622736 0.716426 0.647486
0.630640 0.717372 0.651209
0.653437 0.720851 0.662928
0.685756 0.727291 0.684565
0.714412 0.730831 0.711635
0.720302 0.734218 0.681697
0.747616 0.689326 0.473610
0.815244 0.645319 0.290288
0.686122 0.784909 0.721065
0.691249 0.785611 0.723690
0.710201 0.789181 0.735042
0.739651 0.796567 0.756191
0.770321 0.803311 0.782315
0.786282 0.805417 0.799680
0.788693 0.806973 0.745266
0.818570 0.767056 0.567010
0.000000 0.109529 0.215366
0.005035 0.104646 0.239475
0.226963 0.067445 0.325261
0.441199 0.002197 0.295048
0.554772 0.149264 0.272374
0.641596 0.297063 0.313451
0.731594 0.386694 0.336156
0.804654 0.475044 0.371405
0.057649 0.142061 0.218173
0.056825 0.137911 0.242405
0.219242 0.119905 0.329259
0.440955 0.125551 0.305211
0.548486 0.203891 0.288060
0.645380 0.316625 0.319249
0.732631 0.398993 0.339513
0.805570 0.481453 0.371740
0.075441 0.193637 0.231907
0.098787 0.204013 0.242039
0.185092 0.240818 0.304784
0.421057 0.270848 0.333013
0.542962 0.329900 0.337652
0.661402 0.385748 0.342962
0.740566 0.447272 0.357855
0.810849 0.511589 0.381659
0.101167 0.327489 0.322576
0.144747 0.341283 0.333806
0.283726 0.388830 0.375128
0.424842 0.420264 0.384009
0.587945 0.456580 0.375463
0.681361 0.481514 0.373297
0.750027 0.512932 0.378729
0.817044 0.559503 0.397986
0.325597 0.546380 0.483955
0.364477 0.551415 0.490974
0.457343 0.556085 0.502129
0.547082 0.561303 0.531090
0.581689 0.539635 0.421912
0.688533 0.549828 0.382788
0.765347 0.601129 0.416266
0.826413 0.624506 0.426215
0.509483 0.651087 0.579034
0.529076 0.653010 0.584497
0.575952 0.654719 0.596857
0.626246 0.658198 0.618067
0.660670 0.662867 0.649531
0.675654 0.625971 0.470375
0.750759 0.604456 0.380560
0.832212 0.680018 0.449805
0.619013 0.722774 0.660517
0.627222 0.723934 0.663722
0.650660 0.727687 0.673396
0.682948 0.733486 0.690028
0.717098 0.738827 0.716823
0.727901 0.742336 0.714931
0.743923 0.697963 0.530694
0.813687 0.666102 0.393408
0.683803 0.789914 0.730648
0.689082 0.790799 0.733059
0.705653 0.793484 0.740841
0.733211 0.798886 0.756619
0.766812 0.807004 0.781582
0.789334 0.810544 0.802731
0.791531 0.811612 0.768063
0.816617 0.771817 0.598474
0.000000 0.138277 0.307164
0.000000 0.130159 0.330632
0.148867 0.130465 0.409216
0.466346 0.000000 0.475380
0.613886 0.180148 0.430823
0.671534 0.290379 0.401190
0.712764 0.412787 0.432319
0.780392 0.508141 0.478401
0.000000 0.171420 0.308049
0.000000 0.165652 0.330358
0.145266 0.162905 0.406073
0.465614 0.115145 0.479988
0.610620 0.228244 0.437354
0.667842 0.315801 0.408087
0.709255 0.429908 0.440742
0.781735 0.514000 0.480049
0.069551 0.209079 0.271061
0.088716 0.221927 0.289616
0.163668 0.257359 0.385168
0.456275 0.274235 0.491432
0.596582 0.341680 0.455116
0.653803 0.385290 0.427832
0.709041 0.470008 0.458289
0.786221 0.532525 0.483589
0.100008 0.326696 0.359289
0.134066 0.335760 0.366491
0.233433 0.365698 0.390600
0.399329 0.424659 0.458320
0.570336 0.461219 0.479622
0.644312 0.491951 0.476661
0.722377 0.524804 0.479652
0.796902 0.565332 0.488136
0.244419 0.494057 0.467811
0.279759 0.500999 0.474311
0.381262 0.521386 0.494850
0.513268 0.562402 0.538109
0.576959 0.563714 0.521965
0.675807 0.586236 0.514336
0.741421 0.597223 0.507378
0.809354 0.622492 0.508263
0.477760 0.646265 0.595178
0.498756 0.649866 0.600916
0.557885 0.661341 0.619471
0.611627 0.662928 0.626673
0.653620 0.663325 0.642206
0.668513 0.639704 0.549035
0.747127 0.644648 0.512352
0.824674 0.697230 0.547082
0.611261 0.730251 0.680812
0.618860 0.730831 0.682338
0.641627 0.733364 0.687770
0.673365 0.737881 0.697444
0.707881 0.742977 0.713466
0.736904 0.749233 0.743038
0.738643 0.706783 0.587091
0.811429 0.691768 0.499550
0.676844 0.794430 0.743069
0.681849 0.795041 0.744594
0.698177 0.797299 0.750118
0.724208 0.802396 0.761166
0.755825 0.808591 0.777737
0.789700 0.815702 0.804044
0.797086 0.817807 0.797421
0.813474 0.776486 0.631525
0.000000 0.174533 0.400244
0.000000 0.168215 0.418921
0.073732 0.174319 0.481270
0.430365 0.146639 0.574823
0.621332 0.195743 0.578088
0.702235 0.345464 0.539208
0.741604 0.430579 0.520043
0.786709 0.509239 0.538628
0.000000 0.201358 0.395636
0.000000 0.197299 0.414038
0.077821 0.196445 0.475563
0.418555 0.193423 0.568475
0.620264 0.237034 0.581231
0.699367 0.368139 0.542168
0.738888 0.442420 0.522820
0.784207 0.517967 0.542473
0.000000 0.246250 0.358343
0.055085 0.258640 0.382238
0.139559 0.275425 0.454536
0.385504 0.302617 0.550286
0.619898 0.347295 0.595056
0.692195 0.437507 0.554925
0.731197 0.481422 0.534234
0.776669 0.547539 0.556878
0.080720 0.314702 0.377325
0.106416 0.318914 0.380774
0.176638 0.333349 0.392706
0.360571 0.414038 0.509239
0.605005 0.474067 0.604395
0.678614 0.518486 0.572595
0.719112 0.533867 0.551843
0.766873 0.588251 0.577081
0.220035 0.471199 0.481331
0.245212 0.475990 0.485054
0.320745 0.490944 0.497475
0.422827 0.512627 0.516960
0.546868 0.555505 0.569909
0.657527 0.585412 0.588190
0.706874 0.598383 0.581994
0.783383 0.624903 0.587121
0.403174 0.609277 0.579339
0.423011 0.612512 0.583246
0.479835 0.621912 0.594690
0.555749 0.636713 0.613062
0.632410 0.663813 0.644923
0.663355 0.657496 0.625177
0.739559 0.675471 0.618463
0.806027 0.686030 0.609400
0.581079 0.715755 0.679011
0.591211 0.718349 0.682704
0.620356 0.726986 0.694575
0.660212 0.743252 0.715023
0.697047 0.749752 0.723781
0.730892 0.750729 0.736324
0.735225 0.719234 0.645167
0.812375 0.728298 0.613367
0.668544 0.801633 0.764034
0.673335 0.802121 0.764858
0.689357 0.803952 0.768002
0.714443 0.807736 0.774136
0.745235 0.812894 0.783749
0.780087 0.819821 0.800320
0.809079 0.826871 0.826596
0.810483 0.784024 0.673548
0.000000 0.220798 0.493812
0.000000 0.216342 0.507744
0.000000 0.219303 0.553460
0.370764 0.235874 0.622614
0.630793 0.273869 0.685908
0.707515 0.371344 0.652857
0.762783 0.477302 0.629175
0.806485 0.545312 0.627680
0.000000 0.242161 0.487648
0.000000 0.239078 0.501610
0.000000 0.235203 0.548028
0.364324 0.260166 0.617884
0.628931 0.305577 0.686183
0.705959 0.391852 0.654566
0.761440 0.489235 0.631525
0.805325 0.551415 0.629328
0.000000 0.287114 0.454047
0.000000 0.297734 0.473518
0.117067 0.300084 0.524071
0.338079 0.324498 0.600031
0.608576 0.388037 0.677516
0.700679 0.450874 0.660365
0.756985 0.526238 0.639490
0.801480 0.570611 0.634424
0.000000 0.287419 0.376379
0.000000 0.287968 0.377722
0.136690 0.339574 0.448371
0.315831 0.403388 0.557122
0.558618 0.468391 0.652461
0.695674 0.524559 0.674006
0.750423 0.576043 0.651972
0.795285 0.597650 0.640986
0.159945 0.442023 0.487190
0.176608 0.442695 0.487617
0.224704 0.443397 0.488045
0.284703 0.437781 0.484749
0.487709 0.521202 0.598077
0.683894 0.596307 0.686091
0.739620 0.622705 0.662959
0.786069 0.628138 0.646967
0.361944 0.591943 0.589136
0.374914 0.593103 0.590387
0.415717 0.596704 0.594537
0.471809 0.601404 0.600397
0.533013 0.605524 0.606439
0.629725 0.638605 0.650019
0.723751 0.668086 0.673152
0.771481 0.674800 0.664454
0.521599 0.688869 0.665309
0.530785 0.689998 0.666926
0.559625 0.694148 0.672663
0.600336 0.702113 0.683040
0.646448 0.715389 0.699031
0.704524 0.743557 0.731197
0.730892 0.734798 0.709682
0.807523 0.749172 0.700954
0.633936 0.778927 0.749966
0.639185 0.780575 0.752102
0.657038 0.786465 0.759579
0.686976 0.797116 0.773098
0.728206 0.813413 0.793698
0.768856 0.825315 0.808804
0.804349 0.830564 0.822568
0.806821 0.796139 0.730129
0.000000 0.306188 0.608148
0.000000 0.302312 0.616846
0.130709 0.297795 0.644953
0.385595 0.326390 0.685847
0.601465 0.375830 0.739376
0.735531 0.445991 0.769619
0.783444 0.517937 0.737942
0.827207 0.585107 0.720058
0.000000 0.322606 0.601617
0.000000 0.319615 0.610559
0.119814 0.307927 0.640040
0.378424 0.339513 0.681971
0.595697 0.391272 0.736202
0.733883 0.459998 0.769863
0.782437 0.526879 0.739071
0.826658 0.590326 0.721279
0.038911 0.365484 0.574853
0.086244 0.365789 0.584863
0.168490 0.362005 0.618311
0.346136 0.374212 0.667018
0.573083 0.433204 0.724117
0.728176 0.501946 0.770932
0.779080 0.554223 0.742947
0.824887 0.607111 0.725338
0.000000 0.354650 0.497932
0.000000 0.364538 0.511772
0.158511 0.401404 0.560540
0.309819 0.427832 0.630854
0.523339 0.475776 0.698878
0.717372 0.557641 0.773190
0.773465 0.591638 0.749691
0.822385 0.631952 0.731868
0.010254 0.434333 0.514336
0.035126 0.429175 0.510643
0.072480 0.407721 0.495674
0.178714 0.418097 0.523827
0.440040 0.505913 0.647700
0.660395 0.588983 0.742061
0.767727 0.631830 0.762203
0.819028 0.665064 0.741512
0.324163 0.590448 0.615717
0.328801 0.588861 0.614588
0.342138 0.582086 0.609888
0.355261 0.564813 0.597803
0.354925 0.523583 0.568811
0.566583 0.597040 0.672663
0.756954 0.680079 0.776761
0.812650 0.705104 0.753475
0.502098 0.691279 0.688808
0.506798 0.691279 0.688991
0.522148 0.690883 0.689326
0.546288 0.689601 0.689296
0.575616 0.686122 0.687648
0.604913 0.676204 0.680537
0.681361 0.699214 0.723079
0.799466 0.749447 0.765774
0.601556 0.766781 0.751308
0.605188 0.767422 0.752163
0.617426 0.769894 0.755337
0.639094 0.774716 0.761349
0.670893 0.782681 0.771084
0.713863 0.795377 0.786282
0.773342 0.819425 0.814054
0.805692 0.818540 0.806271
