data/fiter_cube/29797953/1022860/file.cube
# Created by Adobe Lightroom plugin Export LUT (1.17.0)
# www.johnrellis.com/lightroom/exportlut.htm
# Preset: 电影灰蓝色_05 云集
# Color profile: C:\Program Files (x86)\Common Files\Adobe\Color\Profiles\Recommended\AdobeRGB1998.icc
LUT_3D_SIZE 5
DOMAIN_MIN 0.000000 0.000000 0.000000
DOMAIN_MAX 0.903226 0.903226 0.903226
0.069123 0.076112 0.088075
0.147219 0.091890 0.090944
0.481025 0.090059 0.066041
0.714656 0.233799 0.006165
0.833402 0.424659 0.135958
0.082246 0.117250 0.117006
0.149081 0.145083 0.100862
0.524041 0.218265 0.011048
0.722438 0.311925 0.000000
0.837400 0.462715 0.142855
0.230991 0.408698 0.311650
0.364630 0.430457 0.375463
0.509270 0.424689 0.146059
0.735378 0.487007 0.000000
0.845823 0.568841 0.170413
0.548028 0.655787 0.565209
0.592004 0.659937 0.588739
0.658595 0.665431 0.643854
0.703487 0.623102 0.327520
0.835813 0.635523 0.210483
0.690791 0.783413 0.718135
0.709377 0.787015 0.730220
0.758297 0.797452 0.769619
0.785000 0.801572 0.800839
0.821134 0.763882 0.539117
0.066712 0.087587 0.127047
0.164645 0.082582 0.147768
0.458350 0.133242 0.160098
0.697658 0.268193 0.173587
0.822660 0.442847 0.236271
0.077180 0.137179 0.150973
0.157809 0.178317 0.178195
0.501244 0.236088 0.171786
0.707454 0.335302 0.178683
0.825895 0.475776 0.243473
0.235233 0.434455 0.350805
0.367010 0.453590 0.392767
0.507866 0.442267 0.245121
0.729427 0.514122 0.207401
0.837125 0.577813 0.277440
0.551049 0.661097 0.578058
0.594049 0.664729 0.598077
0.662013 0.671351 0.648066
0.699550 0.630091 0.389715
0.832822 0.649378 0.302403
0.688045 0.785214 0.721065
0.706722 0.788632 0.732235
0.756924 0.800595 0.770016
0.788571 0.805722 0.804196
0.819852 0.767147 0.562158
0.000000 0.123079 0.260533
0.117769 0.114778 0.344640
0.543389 0.088869 0.365423
0.660487 0.330297 0.365850
0.793545 0.491554 0.427741
0.072511 0.184482 0.239384
0.129702 0.215640 0.328832
0.530175 0.265904 0.390845
0.661036 0.395941 0.392828
0.798367 0.513481 0.432166
0.159609 0.417060 0.399878
0.290684 0.447761 0.426856
0.512932 0.500664 0.459174
0.695552 0.541222 0.447669
0.812955 0.592004 0.456001
0.538872 0.674952 0.615076
0.581018 0.675685 0.622705
0.656336 0.681636 0.649561
0.689937 0.650141 0.522393
0.825895 0.690517 0.493294
0.680171 0.791562 0.735592
0.697139 0.794369 0.742550
0.744228 0.803464 0.766873
0.793698 0.813718 0.808133
0.814633 0.773465 0.613611
0.000000 0.184024 0.421576
0.000000 0.180453 0.479866
0.563195 0.161105 0.622553
0.717128 0.380987 0.561364
0.791836 0.513848 0.557519
0.000000 0.249119 0.396796
0.066621 0.255344 0.459754
0.542443 0.298497 0.615595
0.709895 0.441810 0.571496
0.785977 0.533410 0.563012
0.123568 0.381109 0.428473
0.197696 0.393652 0.437812
0.445777 0.478553 0.545220
0.687098 0.562493 0.597559
0.764279 0.606195 0.596429
0.438087 0.632807 0.604059
0.486671 0.639429 0.612665
0.601953 0.662959 0.642329
0.679927 0.676326 0.645960
0.805325 0.700069 0.630671
0.661707 0.797513 0.762051
0.680293 0.803342 0.770260
0.726925 0.812039 0.782956
0.786709 0.823117 0.806485
0.809415 0.786252 0.685756
0.000000 0.306188 0.608148
0.000000 0.292058 0.636561
0.499489 0.346868 0.711025
0.752804 0.461494 0.767086
0.827207 0.585107 0.720058
0.000000 0.353826 0.584039
0.128023 0.348974 0.615900
0.475563 0.389807 0.698390
0.747433 0.501305 0.768124
0.825437 0.601984 0.724086
0.000000 0.348730 0.455909
0.000000 0.367163 0.486580
0.376287 0.466102 0.638666
0.728664 0.591028 0.773281
0.820829 0.647395 0.736233
0.377081 0.619867 0.636072
0.392004 0.615900 0.633448
0.421546 0.592584 0.617212
0.596857 0.621759 0.681849
0.810086 0.715663 0.756497
0.601556 0.766781 0.751308
0.613519 0.769100 0.754299
0.653681 0.778225 0.765682
0.726558 0.799527 0.791196
0.805692 0.818540 0.806271
