data/fiter_cube/37639453/1023437/file.cube
# Created by Adobe Lightroom plugin Export LUT (1.17.0)
# www.johnrellis.com/lightroom/exportlut.htm
# Preset: 油管牛人_03 云集
# Color profile: C:\Program Files (x86)\Common Files\Adobe\Color\Profiles\Recommended\AdobeRGB1998.icc
LUT_3D_SIZE 8
DOMAIN_MIN 0.000000 0.000000 0.000000
DOMAIN_MAX 0.903226 0.903226 0.903226
0.028626 0.033387 0.048890
0.068849 0.041871 0.054475
0.137362 0.048371 0.060670
0.300786 0.000000 0.052308
0.552300 0.000000 0.000000
0.773190 0.000000 0.000000
0.902739 0.000000 0.000000
0.983917 0.203189 0.000000
0.032105 0.068208 0.058991
0.065339 0.071138 0.062135
0.136141 0.077180 0.061616
0.294530 0.049439 0.052796
0.542748 0.000000 0.000000
0.760586 0.000000 0.000000
0.894743 0.058564 0.000000
0.980072 0.232975 0.000000
0.014221 0.130037 0.066529
0.058259 0.133761 0.073640
0.123323 0.151003 0.070008
0.305669 0.183841 0.033143
0.560113 0.183871 0.000000
0.768002 0.209415 0.000000
0.902159 0.273106 0.000000
0.982544 0.342473 0.000000
0.000000 0.259007 0.061860
0.000000 0.261662 0.063661
0.103426 0.256931 0.080812
0.276768 0.321599 0.048798
0.587243 0.396918 0.000000
0.782773 0.419043 0.000000
0.900572 0.437751 0.000000
0.977996 0.466224 0.000000
0.000000 0.443275 0.000000
0.000000 0.444862 0.000000
0.021271 0.446204 0.083742
0.217044 0.418372 0.070771
0.500511 0.517937 0.000000
0.758053 0.586053 0.000000
0.889616 0.591699 0.000000
0.971160 0.596887 0.000000
0.000000 0.641718 0.000000
0.000000 0.648951 0.000000
0.000000 0.647333 0.000000
0.246830 0.623346 0.088350
0.412634 0.598627 0.008057
0.693233 0.692500 0.000000
0.875090 0.736629 0.116182
0.960723 0.728115 0.194766
0.000000 0.805722 0.000000
0.000000 0.806577 0.000000
0.000000 0.802518 0.008881
0.305394 0.787381 0.205570
0.449958 0.756558 0.151278
0.618616 0.758968 0.131075
0.819669 0.812772 0.231235
0.941253 0.834867 0.360845
0.000000 0.916442 0.181460
0.000000 0.915709 0.185885
0.000000 0.912993 0.208835
0.408423 0.899870 0.362036
0.538293 0.879973 0.362585
0.638758 0.865202 0.311528
0.781491 0.876555 0.364202
0.905394 0.898070 0.488136
0.035218 0.040681 0.075929
0.068330 0.043549 0.077729
0.133791 0.044709 0.080903
0.288304 0.000000 0.086030
0.535302 0.000000 0.069215
0.752773 0.000000 0.000000
0.890318 0.000000 0.000000
0.977173 0.190249 0.060487
0.031403 0.070863 0.079225
0.065675 0.073030 0.083375
0.133577 0.078950 0.086702
0.289158 0.052399 0.086336
0.533745 0.000000 0.067201
0.747951 0.000000 0.000000
0.884611 0.000000 0.000000
0.973266 0.220218 0.037476
0.019074 0.132265 0.084871
0.054078 0.138857 0.089662
0.126162 0.153872 0.094575
0.301549 0.179294 0.083375
0.545281 0.173404 0.047395
0.752255 0.190921 0.000000
0.887816 0.252781 0.000000
0.974731 0.330388 0.058289
0.000000 0.259892 0.089113
0.000000 0.264622 0.089418
0.108217 0.265629 0.105928
0.269017 0.312200 0.093446
0.555566 0.370642 0.000000
0.758114 0.393988 0.000000
0.885924 0.419287 0.000000
0.970550 0.455665 0.064668
0.000000 0.447150 0.071473
0.000000 0.447761 0.064729
0.007324 0.449897 0.112978
0.219272 0.418219 0.103120
0.486641 0.504631 0.058778
0.746365 0.572961 0.000000
0.882750 0.582849 0.000000
0.966369 0.591272 0.105104
0.000000 0.638025 0.000000
0.000000 0.639002 0.000000
0.000000 0.639002 0.055268
0.246067 0.620020 0.127626
0.406714 0.592401 0.091188
0.690822 0.689570 0.100893
0.871702 0.733150 0.166903
0.957427 0.724727 0.224460
0.000000 0.798856 0.068818
0.000000 0.797330 0.052399
0.000000 0.795438 0.048157
0.303136 0.783627 0.229587
0.448951 0.754818 0.180240
0.612634 0.753689 0.158206
0.814572 0.807980 0.250278
0.937072 0.830564 0.370520
0.000000 0.913603 0.201999
0.000000 0.913420 0.207126
0.000000 0.911101 0.227909
0.394079 0.899260 0.362402
0.551049 0.883513 0.396185
0.643275 0.867247 0.338079
0.779812 0.875273 0.377844
0.903380 0.896422 0.497292
0.029755 0.051392 0.129183
0.067567 0.049958 0.138552
0.151064 0.026215 0.151034
0.325902 0.000000 0.158572
0.552667 0.000000 0.154726
0.757626 0.000000 0.172793
0.892699 0.000000 0.185183
0.977020 0.215640 0.220066
0.026062 0.076600 0.132265
0.061555 0.076905 0.142245
0.147616 0.075105 0.154879
0.314519 0.000000 0.160403
0.540978 0.000000 0.166812
0.752712 0.000000 0.171267
0.888701 0.000000 0.182010
0.974853 0.244419 0.217624
0.000000 0.147585 0.149935
0.017456 0.152987 0.155367
0.134432 0.165377 0.170504
0.306035 0.175021 0.174685
0.556603 0.159915 0.175479
0.757198 0.176455 0.173251
0.888060 0.250217 0.184451
0.972564 0.340459 0.222873
0.000000 0.284154 0.157778
0.000000 0.289799 0.162325
0.107454 0.303929 0.175021
0.294987 0.330480 0.186770
0.575280 0.371618 0.178256
0.763119 0.389715 0.174990
0.887755 0.421424 0.192050
0.969329 0.465400 0.238315
0.000000 0.469734 0.167849
0.000000 0.473426 0.170169
0.000000 0.481544 0.175540
0.259403 0.463539 0.197452
0.513451 0.523278 0.196811
0.753841 0.575280 0.196414
0.883238 0.582849 0.207095
0.963409 0.596429 0.265110
0.000000 0.655421 0.178927
0.000000 0.656916 0.179904
0.000000 0.658015 0.177554
0.277012 0.645960 0.238926
0.417029 0.599664 0.194003
0.693690 0.690761 0.237736
0.868498 0.731106 0.295109
0.954376 0.728054 0.342077
0.000000 0.809354 0.215824
0.000000 0.808438 0.215152
0.000000 0.805264 0.212009
0.282689 0.794461 0.282200
0.468269 0.765835 0.281010
0.613001 0.753750 0.248203
0.817044 0.811185 0.351354
0.934905 0.834653 0.467567
0.000000 0.916197 0.286290
0.000000 0.915129 0.286198
0.000000 0.912108 0.303044
0.363012 0.904021 0.383673
0.570886 0.885039 0.470771
0.652308 0.870024 0.411414
0.779263 0.874784 0.435279
0.902647 0.897581 0.554589
0.000000 0.059052 0.227481
0.019562 0.056306 0.242130
0.187961 0.000000 0.291783
0.366155 0.000000 0.301091
0.621057 0.000000 0.318120
0.778103 0.000000 0.309819
0.888731 0.000000 0.319921
0.965423 0.265019 0.384863
0.000000 0.081209 0.234134
0.000000 0.081727 0.246555
0.177707 0.065278 0.292638
0.364202 0.000000 0.305303
0.614862 0.000000 0.319036
0.771603 0.000000 0.311040
0.883452 0.000000 0.326726
0.964599 0.285771 0.382727
0.000000 0.149111 0.227573
0.000000 0.151278 0.233371
0.128359 0.165164 0.281987
0.351324 0.166598 0.317266
0.593713 0.122377 0.326085
0.761257 0.139498 0.328618
0.883543 0.280400 0.367010
0.965087 0.377600 0.397742
0.000000 0.297551 0.279332
0.000000 0.303990 0.285588
0.075319 0.324437 0.306493
0.323308 0.348455 0.342931
0.565850 0.359350 0.348425
0.752377 0.383490 0.356481
0.878172 0.428412 0.374914
0.960449 0.487251 0.411475
0.000000 0.509758 0.309209
0.000000 0.517327 0.314000
0.000000 0.523430 0.326024
0.302708 0.527916 0.347753
0.543267 0.544549 0.367376
0.756985 0.577050 0.385443
0.876097 0.588128 0.402991
0.954528 0.611414 0.440101
0.000000 0.689387 0.333440
0.000000 0.694911 0.339422
0.000000 0.693477 0.345373
0.275792 0.688411 0.356451
0.483558 0.651820 0.366217
0.706233 0.702541 0.407050
0.864256 0.733913 0.459998
0.947082 0.735195 0.490394
0.000000 0.823178 0.361822
0.000000 0.823453 0.363958
0.000000 0.822171 0.370367
0.271183 0.815763 0.382361
0.521447 0.790982 0.448219
0.616480 0.757076 0.372625
0.818235 0.814664 0.486793
0.928862 0.837125 0.577203
0.000000 0.922026 0.413062
0.000000 0.921569 0.415473
0.000000 0.918547 0.421454
0.341650 0.910857 0.448249
0.588739 0.890837 0.556786
0.672084 0.874876 0.525566
0.776425 0.872984 0.514672
0.900999 0.898589 0.628504
0.000000 0.060945 0.375219
0.000000 0.052155 0.391485
0.190005 0.000000 0.446235
0.452674 0.000000 0.517174
0.645930 0.000000 0.519280
0.812955 0.000000 0.513939
0.902342 0.000000 0.499306
0.965667 0.294621 0.525200
0.000000 0.086702 0.377142
0.000000 0.085695 0.393408
0.176547 0.049897 0.446113
0.451270 0.000000 0.521874
0.642176 0.000000 0.520562
0.809384 0.000000 0.515923
0.899596 0.000000 0.503899
0.963226 0.327581 0.530877
0.000000 0.158755 0.355962
0.000000 0.161746 0.376745
0.106630 0.166842 0.429816
0.426215 0.150515 0.525780
0.627405 0.102235 0.524620
0.792111 0.155642 0.519249
0.887572 0.277470 0.515892
0.953826 0.414069 0.547112
0.000000 0.280278 0.373144
0.000000 0.282567 0.378149
0.000000 0.289982 0.396796
0.316991 0.330388 0.488441
0.604669 0.365789 0.539757
0.766262 0.398535 0.536431
0.868009 0.451392 0.544121
0.941497 0.533104 0.580591
0.000000 0.490974 0.457099
0.000000 0.496407 0.462623
0.000000 0.512535 0.480476
0.293462 0.535729 0.512627
0.560754 0.556756 0.555352
0.735286 0.569940 0.559350
0.856260 0.594507 0.569848
0.938567 0.628992 0.591089
0.000000 0.686854 0.487800
0.000000 0.691310 0.492348
0.000000 0.703822 0.506737
0.346441 0.708553 0.528069
0.528069 0.693874 0.542412
0.709560 0.706752 0.571221
0.853819 0.733700 0.606561
0.933959 0.741756 0.625666
0.000000 0.837797 0.517418
0.000000 0.836820 0.519158
0.000000 0.833463 0.525994
0.346929 0.826566 0.539117
0.520806 0.812894 0.554040
0.651820 0.778683 0.549676
0.815763 0.815274 0.611627
0.921538 0.836057 0.669215
0.000000 0.923552 0.540917
0.000000 0.922545 0.542809
0.182406 0.918914 0.549584
0.387823 0.914122 0.567468
0.545586 0.902464 0.590936
0.701015 0.881163 0.649348
0.765469 0.867094 0.588861
0.897398 0.897551 0.697230
0.000000 0.046784 0.565087
0.000000 0.013672 0.578058
0.219913 0.000000 0.618616
0.497719 0.000000 0.686488
0.698238 0.000000 0.718929
0.812528 0.000000 0.685878
0.913176 0.075776 0.668513
0.966888 0.358953 0.665156
0.000000 0.088777 0.557397
0.000000 0.082734 0.569757
0.197330 0.000000 0.611536
0.480964 0.000000 0.679103
0.691768 0.000000 0.716335
0.808194 0.000000 0.684871
0.910277 0.175082 0.670222
0.964233 0.385718 0.668116
0.000000 0.162570 0.543999
0.000000 0.165042 0.556329
0.099062 0.168215 0.599481
0.435492 0.144961 0.668513
0.682765 0.125460 0.721401
0.800534 0.199588 0.691585
0.901122 0.344457 0.681056
0.956451 0.472053 0.682948
0.000000 0.268223 0.478676
0.000000 0.268498 0.484474
0.000000 0.291051 0.549279
0.333867 0.323461 0.641108
0.664118 0.401434 0.728817
0.788357 0.436683 0.707759
0.885863 0.513451 0.702846
0.944915 0.577874 0.705409
0.000000 0.460975 0.553063
0.000000 0.462623 0.556390
0.000000 0.466560 0.567529
0.209628 0.468513 0.586481
0.544427 0.527184 0.674647
0.759823 0.596765 0.715023
0.861143 0.630488 0.713191
0.928161 0.664363 0.719539
0.000000 0.678828 0.633448
0.000000 0.682643 0.637598
0.000000 0.689601 0.647395
0.263523 0.697780 0.663752
0.528588 0.704555 0.686427
0.725704 0.723690 0.723629
0.839048 0.735531 0.728573
0.920134 0.752743 0.738369
0.000000 0.827176 0.652277
0.000000 0.829099 0.655787
0.163363 0.832059 0.665614
0.433509 0.835111 0.686427
0.605463 0.833219 0.710658
0.706081 0.817380 0.716274
0.819699 0.821927 0.734432
0.916686 0.839902 0.763607
0.179507 0.927276 0.673915
0.230747 0.925994 0.675807
0.351385 0.921782 0.683223
0.484047 0.915526 0.696803
0.600153 0.907103 0.710353
0.700191 0.895811 0.722194
0.781186 0.873838 0.713985
0.895811 0.898253 0.771359
0.000000 0.000000 0.731411
0.000000 0.000000 0.739834
0.286198 0.000000 0.761563
0.511070 0.000000 0.796414
0.720241 0.000000 0.835508
0.838987 0.000000 0.838193
0.901762 0.165286 0.790768
0.963653 0.402228 0.776242
0.000000 0.082277 0.721736
0.000000 0.069398 0.730098
0.260105 0.000000 0.753048
0.493935 0.000000 0.788449
0.708278 0.000000 0.828885
0.831632 0.000000 0.833097
0.896147 0.199191 0.786801
0.959960 0.407874 0.772702
0.000000 0.174197 0.712581
0.000000 0.173678 0.719692
0.173709 0.167514 0.742611
0.453681 0.147555 0.779995
0.684352 0.183810 0.821866
0.823514 0.246159 0.833646
0.891234 0.358282 0.794125
0.955474 0.504570 0.786069
0.000000 0.293248 0.672236
0.000000 0.292515 0.681697
0.000000 0.282017 0.714656
0.356909 0.310948 0.759640
0.637415 0.376684 0.808377
0.810483 0.464240 0.835630
0.882078 0.523400 0.806363
0.947723 0.610864 0.802426
0.000000 0.434882 0.650233
0.000000 0.430640 0.649256
0.000000 0.416938 0.648890
0.097841 0.423255 0.691066
0.524956 0.487526 0.770565
0.785275 0.614435 0.830869
0.865202 0.642054 0.812436
0.934966 0.698146 0.814176
0.000000 0.640558 0.711208
0.000000 0.639979 0.712062
0.000000 0.637263 0.714931
0.020966 0.630121 0.720302
0.395117 0.614038 0.725978
0.698939 0.686305 0.795071
0.851408 0.754818 0.826719
0.921263 0.776272 0.827359
0.000000 0.822324 0.769894
0.000000 0.823239 0.771572
0.000000 0.823362 0.775051
0.271916 0.822171 0.781399
0.511772 0.817502 0.789548
0.692134 0.816678 0.804013
0.828183 0.830869 0.831205
0.907622 0.838224 0.834501
0.000000 0.910307 0.765164
0.111391 0.910033 0.766598
0.324163 0.910552 0.775204
0.493782 0.908690 0.787320
0.644465 0.906889 0.805600
0.756802 0.905882 0.826108
0.815305 0.895811 0.826535
0.896788 0.900298 0.840421
0.172885 0.025025 0.851804
0.233341 0.000000 0.854978
0.371496 0.000000 0.862638
0.538628 0.000000 0.877379
0.703639 0.000000 0.895232
0.839658 0.186618 0.909606
0.922210 0.276585 0.907988
0.955016 0.426520 0.860655
0.129824 0.101411 0.847623
0.204105 0.091798 0.850919
0.354955 0.002289 0.859434
0.527276 0.000000 0.874083
0.696315 0.000000 0.892454
0.836271 0.232609 0.907988
0.918669 0.304051 0.906035
0.952667 0.440467 0.859953
0.000000 0.195041 0.838865
0.000000 0.193698 0.841978
0.287724 0.185367 0.850462
0.493996 0.188052 0.868559
0.676295 0.237339 0.887358
0.828916 0.363165 0.905730
0.910491 0.410193 0.903899
0.947692 0.509148 0.862943
0.000000 0.294255 0.821225
0.000000 0.286961 0.825681
0.000000 0.295476 0.836576
0.409369 0.316442 0.855650
0.634058 0.375006 0.877653
0.806546 0.492164 0.898924
0.898589 0.542535 0.902464
0.941100 0.604150 0.869871
0.000000 0.428748 0.772488
0.000000 0.428595 0.778592
0.000000 0.423285 0.795926
0.154269 0.417762 0.827268
0.533684 0.468025 0.857328
0.761440 0.579767 0.885252
0.882444 0.657191 0.900145
0.932982 0.699123 0.878752
0.000000 0.618585 0.798947
0.000000 0.614099 0.797757
0.000000 0.598779 0.794675
0.000000 0.567987 0.790524
0.275669 0.542809 0.806180
0.672755 0.641932 0.861936
0.869627 0.765866 0.902251
0.927031 0.788388 0.892302
0.000000 0.793210 0.835233
0.000000 0.791531 0.834867
0.000000 0.785824 0.834043
0.000000 0.776089 0.834043
0.359350 0.760037 0.833646
0.553552 0.736934 0.832303
0.803128 0.798367 0.877409
0.917540 0.851072 0.900755
0.000000 0.922423 0.868803
0.000000 0.921721 0.868925
0.144228 0.919097 0.869657
0.370214 0.914183 0.871458
0.538018 0.907012 0.874052
0.681514 0.899321 0.878111
0.801297 0.895415 0.885954
0.902922 0.905882 0.906218
