data/fiter_cube/37639453/1023437/file.cube
# Created by Adobe Lightroom plugin Export LUT (1.17.0)
# www.johnrellis.com/lightroom/exportlut.htm
# Preset: 油管牛人_03 云集
# Color profile: C:\Program Files (x86)\Common Files\Adobe\Color\Profiles\Recommended\AdobeRGB1998.icc
LUT_3D_SIZE 5
DOMAIN_MIN 0.000000 0.000000 0.000000
DOMAIN_MAX 0.903226 0.903226 0.903226
0.028626 0.033387 0.048890
0.113619 0.050660 0.060273
0.423590 0.000000 0.024933
0.813046 0.000000 0.000000
0.983917 0.203189 0.000000
0.024872 0.108888 0.065187
0.103395 0.123934 0.068788
0.426093 0.142947 0.000000
0.809689 0.170535 0.000000
0.984283 0.316411 0.000000
0.000000 0.342962 0.034089
0.020630 0.349432 0.084199
0.390723 0.423865 0.000000
0.809293 0.508263 0.000000
0.974334 0.530663 0.000000
0.000000 0.692073 0.000000
0.000000 0.693385 0.000000
0.339239 0.652461 0.085664
0.730800 0.728054 0.077577
0.956146 0.756924 0.234745
0.000000 0.916442 0.181460
0.000000 0.913909 0.199710
0.489418 0.886595 0.384253
0.663874 0.861448 0.297581
0.905394 0.898070 0.488136
0.035645 0.048920 0.111025
0.120455 0.041016 0.125948
0.416876 0.000000 0.130617
0.792142 0.000000 0.136172
0.975647 0.199191 0.177066
0.004883 0.121340 0.127047
0.109224 0.133608 0.141817
0.419928 0.128725 0.144900
0.793118 0.127810 0.134585
0.974151 0.308415 0.182254
0.000000 0.363989 0.139010
0.000000 0.375525 0.145357
0.390723 0.418097 0.158236
0.797482 0.489143 0.124971
0.968750 0.530480 0.212222
0.000000 0.703609 0.156710
0.000000 0.706050 0.151644
0.365667 0.672267 0.209415
0.732570 0.728756 0.229984
0.951629 0.757565 0.343450
0.000000 0.918120 0.267216
0.000000 0.915343 0.282353
0.513939 0.892699 0.457008
0.673945 0.866239 0.375830
0.904601 0.899168 0.546227
0.000000 0.060822 0.296086
0.136233 0.001770 0.347601
0.513695 0.000000 0.407477
0.824674 0.000000 0.407263
0.964752 0.267674 0.451545
0.000000 0.133516 0.288914
0.081361 0.138338 0.341283
0.504356 0.024445 0.418494
0.810147 0.047089 0.416175
0.954711 0.398291 0.491341
0.000000 0.391821 0.364630
0.000000 0.410315 0.383764
0.446387 0.453101 0.449592
0.779873 0.487037 0.463508
0.949859 0.561852 0.507469
0.000000 0.740444 0.424231
0.000000 0.738094 0.429725
0.410590 0.727047 0.454871
0.740078 0.737179 0.504906
0.936980 0.763210 0.570306
0.000000 0.921752 0.473976
0.000000 0.919707 0.482490
0.450416 0.906584 0.519310
0.697902 0.872709 0.566186
0.898314 0.897124 0.659144
0.000000 0.034791 0.606012
0.162387 0.000000 0.643336
0.625696 0.000000 0.746761
0.838834 0.000000 0.715267
0.966278 0.367376 0.694057
0.000000 0.143648 0.591455
0.000000 0.139956 0.628687
0.589990 0.000000 0.734615
0.829709 0.165896 0.718196
0.958160 0.449866 0.703883
0.000000 0.347448 0.533562
0.000000 0.343236 0.541161
0.428779 0.405524 0.677943
0.797208 0.517906 0.729824
0.936980 0.623255 0.733730
0.000000 0.722530 0.674769
0.000000 0.725429 0.680201
0.400824 0.733669 0.704250
0.755428 0.755154 0.755184
0.915496 0.774838 0.763943
0.207187 0.925780 0.701717
0.362768 0.923705 0.712245
0.570489 0.912963 0.735042
0.734371 0.895720 0.753048
0.895476 0.898283 0.788479
0.172885 0.025025 0.851804
0.332769 0.000000 0.860044
0.622583 0.000000 0.886168
0.860990 0.209537 0.909239
0.955016 0.426520 0.860655
0.000000 0.172549 0.842802
0.266606 0.161776 0.851896
0.597192 0.163058 0.879911
0.852598 0.340520 0.906157
0.949584 0.492256 0.862699
0.000000 0.368719 0.800351
0.000000 0.358526 0.815824
0.467567 0.386633 0.855283
0.822904 0.565667 0.897368
0.936858 0.650782 0.873533
0.000000 0.669123 0.811215
0.000000 0.657588 0.808804
0.000000 0.610834 0.802914
0.706447 0.683528 0.864164
0.924620 0.804746 0.894285
0.000000 0.922423 0.868803
0.000000 0.919951 0.869413
0.457923 0.910857 0.872709
0.713893 0.897765 0.879576
0.902922 0.905882 0.906218
