data/fiter_cube/37639453/1023437/file.cube
# Created by Adobe Lightroom plugin Export LUT (1.17.0)
# www.johnrellis.com/lightroom/exportlut.htm
# Preset: 油管牛人_03 云集
# Color profile: C:\Program Files (x86)\Common Files\Adobe\Color\Profiles\Recommended\AdobeRGB1998.icc
LUT_3D_SIZE 32
DOMAIN_MIN 0.0 0.0 0.0
DOMAIN_MAX 1.0 1.0 1.0
0.028626 0.033387 0.048890
0.036225 0.034455 0.049470
0.045167 0.035279 0.050050
0.058686 0.038148 0.051972
0.068849 0.041871 0.054475
0.080232 0.047456 0.056672
0.094850 0.050172 0.059052
0.113619 0.050660 0.060273
0.137362 0.048371 0.060670
0.166964 0.038666 0.060883
0.203586 0.017548 0.060182
0.248325 0.000000 0.058259
0.300786 0.000000 0.052308
0.360082 0.000000 0.042329
0.423590 0.000000 0.024933
0.488563 0.000000 0.001740
0.552300 0.000000 0.000000
0.612604 0.000000 0.000000
0.672694 0.000000 0.000000
0.726711 0.000000 0.000000
0.773190 0.000000 0.000000
0.813046 0.000000 0.000000
0.847257 0.000000 0.000000
0.876829 0.000000 0.000000
0.902739 0.000000 0.000000
0.925750 0.000000 0.000000
0.946654 0.108888 0.000000
0.965911 0.160769 0.000000
0.983917 0.203189 0.000000
1.000000 0.241886 0.000000
1.000000 0.279942 0.070405
1.000000 0.318669 0.119936
0.028565 0.040375 0.050080
0.034974 0.040467 0.050752
0.045106 0.042267 0.051270
0.058839 0.043946 0.052430
0.068971 0.047456 0.054932
0.080323 0.050904 0.058015
0.094636 0.053773 0.059358
0.113222 0.054444 0.060151
0.136812 0.052338 0.060975
0.166201 0.045594 0.060731
0.202304 0.025574 0.060487
0.246281 0.000000 0.058808
0.298283 0.000000 0.053071
0.357061 0.000000 0.042451
0.419959 0.000000 0.025422
0.484718 0.000000 0.002411
0.548333 0.000000 0.000000
0.608667 0.000000 0.000000
0.668513 0.000000 0.000000
0.722133 0.000000 0.000000
0.768521 0.000000 0.000000
0.808682 0.000000 0.000000
0.843290 0.000000 0.000000
0.873381 0.000000 0.000000
0.899687 0.000000 0.000000
0.923125 0.000000 0.000000
0.944457 0.109987 0.000000
0.964050 0.161044 0.000000
0.982269 0.203006 0.000000
0.999451 0.241703 0.000000
1.000000 0.279240 0.064546
1.000000 0.317693 0.115389
0.029480 0.047974 0.052003
0.035492 0.048951 0.053437
0.043305 0.049744 0.053223
0.057801 0.050996 0.053559
0.068452 0.052888 0.056153
0.079957 0.056306 0.058412
0.094331 0.058930 0.059541
0.112978 0.059297 0.060365
0.136233 0.058076 0.060761
0.165377 0.052918 0.060914
0.201389 0.037720 0.060182
0.245182 0.006256 0.058900
0.296971 0.000000 0.053223
0.355261 0.000000 0.042664
0.417823 0.000000 0.025635
0.482551 0.000000 0.003876
0.546136 0.000000 0.000000
0.606378 0.000000 0.000000
0.666499 0.000000 0.000000
0.719753 0.000000 0.000000
0.766171 0.000000 0.000000
0.806546 0.000000 0.000000
0.841245 0.000000 0.000000
0.871550 0.000000 0.000000
0.898131 0.000000 0.000000
0.921721 0.004028 0.000000
0.943236 0.117067 0.000000
0.962982 0.165927 0.000000
0.981384 0.206302 0.000000
0.998688 0.244144 0.000000
1.000000 0.281163 0.061036
1.000000 0.319036 0.114015
0.030152 0.059419 0.055055
0.038025 0.059754 0.059205
0.044434 0.059785 0.059571
0.055756 0.060731 0.059358
0.067597 0.062715 0.059358
0.080232 0.064363 0.059236
0.094606 0.065339 0.060304
0.113161 0.066102 0.061067
0.136385 0.065675 0.061006
0.165621 0.063905 0.061097
0.201389 0.059022 0.060212
0.244846 0.037537 0.058106
0.295995 0.000000 0.052857
0.353948 0.000000 0.042969
0.416266 0.000000 0.024537
0.480568 0.000000 0.002350
0.544060 0.000000 0.000000
0.604089 0.000000 0.000000
0.664118 0.000000 0.000000
0.716274 0.000000 0.000000
0.762295 0.000000 0.000000
0.802548 0.000000 0.000000
0.837919 0.000000 0.000000
0.868894 0.000000 0.000000
0.896300 0.000000 0.000000
0.920623 0.078920 0.000000
0.942596 0.137453 0.000000
0.962585 0.179843 0.000000
0.981079 0.217594 0.000000
0.998322 0.253147 0.000000
1.000000 0.288365 0.060761
1.000000 0.324651 0.113039
0.032105 0.068208 0.058991
0.037873 0.068238 0.060670
0.045960 0.068544 0.062715
0.054108 0.068757 0.062593
0.065339 0.071138 0.062135
0.077913 0.073365 0.061524
0.093782 0.075166 0.061158
0.113039 0.076448 0.060945
0.136141 0.077180 0.061616
0.165042 0.077333 0.061158
0.200565 0.075227 0.060548
0.243595 0.068910 0.058503
0.294530 0.049439 0.052796
0.352087 0.000000 0.041047
0.414343 0.000000 0.024140
0.478889 0.000000 0.000000
0.542748 0.000000 0.000000
0.604700 0.000000 0.000000
0.663874 0.000000 0.000000
0.715236 0.000000 0.000000
0.760586 0.000000 0.000000
0.800687 0.000000 0.000000
0.835996 0.000000 0.000000
0.867185 0.000000 0.000000
0.894743 0.058564 0.000000
0.919341 0.120974 0.000000
0.941405 0.162814 0.000000
0.961547 0.199069 0.000000
0.980072 0.232975 0.000000
0.997375 0.265690 0.000000
1.000000 0.298802 0.057557
1.000000 0.333227 0.111849
0.031525 0.078157 0.061463
0.035035 0.078676 0.061799
0.044282 0.078859 0.064302
0.054261 0.079286 0.065370
0.063661 0.079774 0.065156
0.075105 0.083284 0.064424
0.091188 0.087404 0.063752
0.111360 0.090211 0.062898
0.136873 0.092714 0.061463
0.165957 0.094118 0.061189
0.201328 0.094453 0.060334
0.244511 0.092592 0.057343
0.295232 0.085512 0.050935
0.352758 0.070527 0.038636
0.414801 0.019471 0.019318
0.479347 0.000000 0.000000
0.543053 0.000000 0.000000
0.606897 0.000000 0.000000
0.664912 0.000000 0.000000
0.715877 0.000000 0.000000
0.761074 0.000000 0.000000
0.801114 0.000000 0.000000
0.859281 0.084230 0.000000
0.887297 0.127108 0.000000
0.911803 0.160372 0.000000
0.933562 0.190402 0.000000
0.953246 0.218173 0.000000
0.971344 0.245609 0.000000
0.988190 0.273167 0.000000
1.000000 0.301366 0.011536
1.000000 0.330724 0.091615
1.000000 0.362005 0.135378
0.029084 0.092287 0.063691
0.032837 0.092714 0.063600
0.038483 0.093324 0.064759
0.053651 0.094240 0.067994
0.062928 0.094118 0.067842
0.072419 0.096162 0.067750
0.088075 0.101900 0.066896
0.110231 0.108705 0.065431
0.136934 0.113039 0.063600
0.169833 0.117189 0.061189
0.208530 0.119783 0.059022
0.253391 0.120089 0.054231
0.305547 0.117586 0.045624
0.363684 0.110933 0.029419
0.425635 0.098512 0.008698
0.489235 0.080110 0.000000
0.553094 0.050507 0.000000
0.618372 0.004181 0.000000
0.675288 0.000000 0.000000
0.725948 0.022797 0.000000
0.771725 0.075044 0.000000
0.812650 0.107118 0.000000
0.848783 0.139132 0.000000
0.880156 0.168582 0.000000
0.907164 0.195651 0.000000
0.930358 0.221134 0.000000
0.950744 0.245029 0.000000
0.969177 0.268864 0.000000
0.986297 0.293339 0.000000
1.000000 0.318761 0.000000
1.000000 0.345556 0.087587
1.000000 0.374578 0.132753
0.024872 0.108888 0.065187
0.027100 0.109529 0.065064
0.031800 0.110079 0.065339
0.048066 0.111299 0.069245
0.061555 0.111757 0.070558
0.070558 0.111421 0.070375
0.083803 0.115511 0.069734
0.103395 0.123934 0.068788
0.131960 0.133730 0.066377
0.164950 0.139925 0.063203
0.205203 0.145327 0.059358
0.253819 0.149111 0.050111
0.306340 0.149630 0.039582
0.364324 0.147585 0.021729
0.426093 0.142947 0.000000
0.489082 0.135561 0.000000
0.556207 0.129854 0.000000
0.618860 0.127474 0.000000
0.674159 0.129885 0.000000
0.723903 0.138064 0.000000
0.769039 0.152529 0.000000
0.809689 0.170535 0.000000
0.845670 0.191531 0.000000
0.877073 0.212741 0.000000
0.904234 0.233829 0.000000
0.927581 0.254185 0.000000
0.948272 0.274266 0.000000
0.966949 0.294926 0.000000
0.984283 0.316411 0.000000
1.000000 0.339025 0.000000
1.000000 0.363622 0.085664
1.000000 0.390509 0.131899
0.014221 0.130037 0.066529
0.017792 0.130526 0.066407
0.021210 0.131197 0.066255
0.035645 0.132479 0.068971
0.058259 0.133761 0.073640
0.068788 0.133242 0.073487
0.080140 0.132509 0.072969
0.097841 0.140047 0.071778
0.123323 0.151003 0.070008
0.159274 0.164462 0.066255
0.200351 0.172671 0.061189
0.248844 0.179141 0.052003
0.305669 0.183841 0.033143
0.367071 0.185855 0.008606
0.428382 0.184787 0.000000
0.494820 0.184207 0.000000
0.560113 0.183871 0.000000
0.620905 0.186130 0.000000
0.674708 0.190494 0.000000
0.723598 0.197818 0.000000
0.768002 0.209415 0.000000
0.808225 0.222934 0.000000
0.843839 0.239353 0.000000
0.875059 0.256046 0.000000
0.902159 0.273106 0.000000
0.925597 0.289555 0.000000
0.946380 0.306493 0.000000
0.965118 0.324010 0.000000
0.982544 0.342473 0.000000
0.998810 0.362432 0.000000
1.000000 0.384405 0.084443
1.000000 0.408820 0.131441
0.000000 0.155215 0.067475
0.000244 0.155642 0.067353
0.003845 0.156161 0.066804
0.017243 0.157565 0.068330
0.044434 0.159304 0.074647
0.064210 0.159213 0.076448
0.078187 0.158022 0.075685
0.092470 0.157534 0.074983
0.116182 0.169039 0.073365
0.148135 0.182712 0.070192
0.191623 0.199100 0.064393
0.242588 0.210239 0.054231
0.299107 0.217716 0.033570
0.362402 0.223362 0.003845
0.433478 0.228702 0.000000
0.501579 0.231876 0.000000
0.565942 0.235111 0.000000
0.625452 0.239506 0.000000
0.678035 0.244663 0.000000
0.725521 0.252018 0.000000
0.768582 0.261295 0.000000
0.807340 0.272190 0.000000
0.841855 0.284489 0.000000
0.872282 0.297398 0.000000
0.899107 0.310826 0.000000
0.922637 0.324529 0.000000
0.943694 0.338781 0.000000
0.962829 0.353704 0.000000
0.980591 0.370031 0.000000
0.997162 0.387823 0.000000
1.000000 0.407935 0.085695
1.000000 0.430549 0.134127
0.000000 0.183688 0.067292
0.000000 0.184298 0.067109
0.000000 0.184878 0.066560
0.000000 0.186221 0.066468
0.015534 0.188022 0.072877
0.055695 0.189303 0.078981
0.073671 0.187778 0.078340
0.090303 0.186160 0.077607
0.109377 0.188418 0.076387
0.139162 0.203037 0.073579
0.178531 0.219608 0.068421
0.230900 0.238376 0.060029
0.293767 0.253483 0.033051
0.360113 0.263340 0.000000
0.430610 0.271427 0.000000
0.501793 0.278294 0.000000
0.569177 0.284520 0.000000
0.627070 0.289616 0.000000
0.678614 0.295079 0.000000
0.725307 0.301701 0.000000
0.767666 0.309636 0.000000
0.806088 0.318730 0.000000
0.840360 0.329046 0.000000
0.870695 0.339757 0.000000
0.897368 0.350683 0.000000
0.920836 0.361639 0.000000
0.941802 0.373053 0.000000
0.960937 0.385534 0.000000
0.978668 0.399145 0.000000
0.995270 0.414740 0.000000
1.000000 0.432380 0.086610
1.000000 0.452888 0.135714
0.000000 0.216861 0.065858
0.000000 0.217350 0.065309
0.000000 0.218021 0.065034
0.000000 0.219303 0.063661
0.000000 0.220981 0.069947
0.023377 0.223148 0.079255
0.065217 0.222324 0.080964
0.086152 0.219944 0.080171
0.105837 0.217197 0.078950
0.130983 0.224125 0.076875
0.168124 0.241794 0.072450
0.217746 0.263005 0.064271
0.301213 0.301091 0.031647
0.382513 0.322911 0.000000
0.456916 0.333989 0.000000
0.529107 0.343236 0.000000
0.596185 0.351995 0.000000
0.655573 0.359319 0.000000
0.704311 0.363836 0.000000
0.746944 0.368139 0.000000
0.785580 0.373236 0.000000
0.820371 0.379339 0.000000
0.851377 0.385779 0.000000
0.879149 0.392676 0.000000
0.903777 0.399939 0.000000
0.925750 0.407782 0.000000
0.945556 0.416175 0.000000
0.963714 0.425574 0.000000
0.980652 0.436530 0.000000
0.996643 0.449256 0.023102
1.000000 0.464393 0.103792
1.000000 0.482460 0.150149
0.000000 0.259007 0.061860
0.000000 0.259373 0.061646
0.000000 0.259770 0.061006
0.000000 0.260502 0.058839
0.000000 0.261662 0.063661
0.000000 0.263035 0.074372
0.043091 0.263310 0.082765
0.078889 0.260258 0.081971
0.103426 0.256931 0.080812
0.126223 0.253788 0.079316
0.161440 0.269841 0.075349
0.211460 0.294469 0.067628
0.276768 0.321599 0.048798
0.356603 0.349340 0.000000
0.446204 0.375555 0.000000
0.519768 0.386999 0.000000
0.587243 0.396918 0.000000
0.646723 0.404639 0.000000
0.698543 0.410315 0.000000
0.744503 0.415259 0.000000
0.782773 0.419043 0.000000
0.817350 0.423011 0.000000
0.848173 0.427497 0.000000
0.875883 0.432349 0.000000
0.900572 0.437751 0.000000
0.922606 0.443305 0.000000
0.942565 0.449805 0.000000
0.960906 0.457374 0.000000
0.977996 0.466224 0.000000
0.994171 0.477211 0.024292
1.000000 0.490455 0.105135
1.000000 0.506554 0.152773
0.000000 0.298924 0.053162
0.000000 0.299260 0.051942
0.000000 0.299504 0.050813
0.000000 0.300206 0.047486
0.000000 0.301183 0.050111
0.000000 0.302434 0.066865
0.000000 0.303868 0.082124
0.065187 0.302037 0.083345
0.097383 0.299382 0.082002
0.125063 0.296635 0.080507
0.151034 0.293065 0.078309
0.197848 0.317174 0.071565
0.258274 0.344060 0.058839
0.332677 0.372717 0.013428
0.418494 0.402045 0.000000
0.509117 0.429450 0.000000
0.577295 0.440070 0.000000
0.637446 0.448249 0.000000
0.689876 0.453864 0.000000
0.736629 0.458747 0.000000
0.778561 0.463264 0.000000
0.814786 0.466682 0.000000
0.845579 0.469459 0.000000
0.873289 0.472724 0.000000
0.897978 0.476143 0.000000
0.920104 0.480018 0.000000
0.940154 0.484749 0.000000
0.958556 0.490364 0.000000
0.975799 0.497536 0.000000
0.992065 0.506676 0.035828
1.000000 0.518212 0.109712
1.000000 0.532586 0.158236
0.000000 0.342962 0.034089
0.000000 0.343481 0.032105
0.000000 0.343908 0.030182
0.000000 0.344854 0.024079
0.000000 0.346288 0.017029
0.000000 0.347723 0.049958
0.000000 0.349554 0.072755
0.020630 0.349432 0.084199
0.087465 0.345617 0.082521
0.121584 0.341894 0.080903
0.151644 0.337316 0.078614
0.184268 0.338964 0.075349
0.240879 0.365881 0.064515
0.310124 0.394446 0.033112
0.390723 0.423865 0.000000
0.477974 0.452979 0.000000
0.567071 0.482368 0.000000
0.628321 0.491096 0.000000
0.681697 0.496590 0.000000
0.729091 0.501061 0.000000
0.771481 0.504967 0.000000
0.809293 0.508263 0.000000
0.842618 0.510979 0.000000
0.870634 0.512688 0.000000
0.895415 0.514488 0.000000
0.917693 0.516930 0.000000
0.938048 0.520226 0.000000
0.956817 0.524712 0.000000
0.974334 0.530663 0.000000
0.990845 0.538537 0.063630
1.000000 0.548791 0.123110
1.000000 0.561913 0.171298
0.000000 0.393835 0.002167
0.000000 0.394293 0.000000
0.000000 0.394659 0.000000
0.000000 0.395514 0.000000
0.000000 0.396582 0.000000
0.000000 0.398016 0.006928
0.000000 0.399512 0.055756
0.000000 0.401251 0.082979
0.070954 0.397375 0.082979
0.116243 0.392462 0.080842
0.151736 0.386511 0.078187
0.183200 0.379736 0.075227
0.224765 0.387182 0.068696
0.289097 0.414710 0.048798
0.363836 0.442969 0.000000
0.446448 0.471656 0.000000
0.532097 0.500481 0.000000
0.618097 0.531640 0.000000
0.673274 0.538048 0.000000
0.722194 0.543053 0.000000
0.765469 0.546777 0.000000
0.804105 0.549767 0.000000
0.838102 0.551965 0.000000
0.868193 0.553613 0.000000
0.894377 0.554589 0.000000
0.916655 0.555444 0.000000
0.936950 0.557153 0.000000
0.955657 0.560052 0.000000
0.973083 0.564355 0.000000
0.989502 0.570459 0.080140
1.000000 0.578759 0.134493
1.000000 0.590051 0.182193
0.000000 0.443275 0.000000
0.000000 0.443671 0.000000
0.000000 0.443702 0.000000
0.000000 0.444160 0.000000
0.000000 0.444862 0.000000
0.000000 0.446021 0.000000
0.000000 0.446967 0.010468
0.000000 0.448127 0.067964
0.021271 0.446204 0.083742
0.106325 0.440681 0.081300
0.148959 0.434333 0.078218
0.184817 0.427008 0.074922
0.217044 0.418372 0.070771
0.269352 0.433783 0.059876
0.339757 0.461707 0.018616
0.418036 0.489876 0.000000
0.500511 0.517937 0.000000
0.582727 0.546777 0.000000
0.662104 0.575860 0.000000
0.713649 0.582574 0.000000
0.758053 0.586053 0.000000
0.797147 0.588464 0.000000
0.831754 0.590082 0.000000
0.862425 0.591211 0.000000
0.889616 0.591699 0.000000
0.913817 0.592187 0.000000
0.934783 0.592554 0.000000
0.953613 0.594049 0.000000
0.971160 0.596887 0.000000
0.987640 0.601648 0.094911
1.000000 0.608637 0.147097
1.000000 0.618433 0.195529
0.000000 0.493599 0.000000
0.000000 0.494240 0.000000
0.000000 0.512535 0.000000
0.000000 0.512810 0.000000
0.000000 0.513115 0.000000
0.000000 0.513268 0.000000
0.000000 0.513268 0.000000
0.000000 0.512932 0.028534
0.000000 0.512627 0.086336
0.100496 0.505821 0.084169
0.153048 0.498177 0.079622
0.194491 0.489357 0.074800
0.230472 0.479072 0.069551
0.262791 0.467536 0.063478
0.328435 0.491432 0.035065
0.404395 0.518944 0.000000
0.484810 0.546593 0.000000
0.563836 0.573480 0.000000
0.638911 0.599237 0.000000
0.709194 0.624048 0.000000
0.756954 0.630610 0.000000
0.795926 0.631769 0.000000
0.830106 0.632105 0.000000
0.860288 0.631830 0.000000
0.886839 0.630762 0.000000
0.910613 0.629694 0.000000
0.932128 0.628595 0.000000
0.951843 0.628321 0.000000
0.969177 0.629450 0.016938
0.985626 0.632593 0.110048
1.000000 0.638056 0.160403
1.000000 0.646296 0.208194
0.000000 0.548577 0.000000
0.000000 0.551019 0.000000
0.000000 0.553796 0.000000
0.000000 0.556237 0.000000
0.000000 0.558160 0.000000
0.000000 0.559167 0.000000
0.000000 0.559289 0.000000
0.000000 0.558648 0.000000
0.000000 0.558068 0.069551
0.085145 0.554040 0.088777
0.149172 0.546258 0.083772
0.195560 0.537407 0.077760
0.235050 0.527245 0.071473
0.269841 0.515526 0.063752
0.306249 0.508110 0.050141
0.379156 0.535302 0.005097
0.456886 0.562310 0.000000
0.533898 0.588220 0.000000
0.607996 0.613184 0.000000
0.677668 0.637354 0.000000
0.741848 0.659602 0.000000
0.788144 0.667597 0.000000
0.823453 0.667811 0.000000
0.854429 0.667079 0.000000
0.881590 0.665736 0.000000
0.905791 0.664057 0.000000
0.927733 0.662562 0.000000
0.947814 0.661738 0.012604
0.966583 0.661769 0.082399
0.983642 0.663386 0.127291
0.999359 0.667414 0.175509
1.000000 0.674311 0.223636
0.000000 0.596185 0.000000
0.000000 0.598535 0.000000
0.000000 0.600855 0.000000
0.000000 0.602991 0.000000
0.000000 0.604608 0.000000
0.000000 0.605402 0.000000
0.000000 0.605310 0.000000
0.000000 0.604608 0.000000
0.000000 0.603876 0.033204
0.068208 0.602045 0.097505
0.146639 0.594751 0.091981
0.198062 0.586419 0.084932
0.240635 0.576349 0.076478
0.278416 0.565332 0.067872
0.311986 0.552544 0.054353
0.357855 0.553429 0.026154
0.432929 0.579614 0.000000
0.508202 0.604547 0.000000
0.580896 0.628626 0.000000
0.649805 0.651789 0.000000
0.714321 0.673976 0.000000
0.772946 0.693843 0.000000
0.816892 0.702358 0.000000
0.848569 0.701381 0.000000
0.876371 0.699489 0.000000
0.900877 0.697322 0.040284
0.923033 0.695277 0.081575
0.943359 0.693782 0.108736
0.962219 0.693233 0.135622
0.980041 0.693935 0.163058
0.997009 0.696162 0.192447
1.000000 0.701595 0.239139
0.000000 0.641718 0.000000
0.000000 0.643702 0.000000
0.000000 0.645838 0.000000
0.000000 0.647669 0.000000
0.000000 0.648951 0.000000
0.000000 0.649439 0.000000
0.000000 0.649256 0.000000
0.000000 0.648585 0.000000
0.000000 0.647333 0.000000
0.000000 0.645350 0.089357
0.145998 0.640436 0.105989
0.201297 0.632593 0.098085
0.246830 0.623346 0.088350
0.287236 0.613092 0.077852
0.323247 0.601526 0.064790
0.355993 0.588830 0.041138
0.412634 0.598627 0.008057
0.487373 0.623529 0.000000
0.559838 0.647517 0.000000
0.628748 0.670619 0.000000
0.693233 0.692500 0.000000
0.753201 0.713130 0.000000
0.806271 0.730495 0.072267
0.846983 0.738827 0.106966
0.875090 0.736629 0.116182
0.899840 0.733974 0.129366
0.921874 0.731289 0.150546
0.942016 0.729244 0.171542
0.960723 0.728115 0.194766
0.978271 0.728176 0.219638
0.994965 0.729885 0.248234
1.000000 0.733791 0.281224
0.000000 0.692073 0.000000
0.000000 0.693019 0.000000
0.000000 0.693660 0.000000
0.000000 0.694209 0.000000
0.000000 0.694514 0.000000
0.000000 0.694423 0.000000
0.000000 0.694301 0.000000
0.000000 0.693385 0.000000
0.000000 0.692164 0.000000
0.000000 0.690486 0.084657
0.155367 0.687617 0.128817
0.212436 0.680598 0.120394
0.259495 0.672480 0.110536
0.301244 0.662989 0.099184
0.339239 0.652461 0.085664
0.373785 0.640894 0.069642
0.405463 0.628199 0.039155
0.470954 0.645106 0.016663
0.541741 0.667536 0.010010
0.608881 0.688930 0.019440
0.672053 0.709133 0.052399
0.730800 0.728054 0.077577
0.784665 0.745541 0.102846
0.831968 0.759609 0.133913
0.869261 0.767117 0.168032
0.894347 0.764096 0.178958
0.916930 0.761013 0.192264
0.937316 0.758541 0.212100
0.956146 0.756924 0.234745
0.973754 0.756619 0.259983
0.990448 0.757839 0.288792
1.000000 0.761044 0.322057
0.000000 0.731380 0.000000
0.000000 0.732204 0.000000
0.000000 0.732967 0.000000
0.000000 0.733394 0.000000
0.000000 0.733608 0.000000
0.000000 0.733333 0.000000
0.000000 0.732967 0.000000
0.000000 0.731991 0.000000
0.000000 0.730587 0.000000
0.000000 0.728542 0.083833
0.142977 0.725856 0.134951
0.222416 0.720546 0.146487
0.269780 0.713222 0.136568
0.312169 0.704891 0.125093
0.351080 0.695552 0.111940
0.386999 0.685389 0.096742
0.420111 0.674311 0.078187
0.452888 0.664179 0.053590
0.523217 0.685695 0.059419
0.589807 0.706172 0.070985
0.652308 0.725460 0.088045
0.710719 0.743465 0.109529
0.764462 0.760067 0.132876
0.813504 0.775174 0.158389
0.853269 0.784207 0.181918
0.887846 0.791470 0.220890
0.910796 0.788205 0.233860
0.931701 0.785367 0.249332
0.950805 0.783291 0.270603
0.968536 0.782528 0.296483
0.985321 0.783566 0.326909
1.000000 0.786252 0.360235
0.000000 0.773281 0.000000
0.000000 0.774136 0.000000
0.000000 0.774533 0.000000
0.000000 0.774716 0.000000
0.000000 0.774411 0.000000
0.000000 0.773831 0.000000
0.000000 0.773007 0.000000
0.000000 0.771603 0.000000
0.000000 0.769467 0.000000
0.000000 0.766842 0.094331
0.134371 0.763363 0.143984
0.239506 0.758755 0.178714
0.284886 0.751858 0.167849
0.326146 0.744045 0.156191
0.364172 0.735348 0.143496
0.399451 0.725643 0.128054
0.432563 0.715206 0.110719
0.463569 0.704311 0.091035
0.503929 0.702052 0.076661
0.569940 0.721492 0.090242
0.632105 0.739895 0.107820
0.690028 0.756985 0.129213
0.743343 0.772457 0.152529
0.792020 0.786343 0.177951
0.835935 0.798734 0.204227
0.874052 0.808194 0.233982
0.905638 0.815000 0.278294
0.926513 0.811673 0.293462
0.945708 0.809201 0.311803
0.963622 0.807828 0.335454
0.980285 0.808255 0.365606
0.996124 0.810575 0.400031
0.000000 0.805722 0.000000
0.000000 0.806424 0.000000
0.000000 0.806821 0.000000
0.000000 0.806882 0.000000
0.000000 0.806577 0.000000
0.000000 0.806119 0.000000
0.000000 0.805386 0.000000
0.000000 0.804410 0.000000
0.000000 0.802518 0.008881
0.000000 0.800076 0.110170
0.128389 0.796933 0.157290
0.246860 0.792813 0.198947
0.305394 0.787381 0.205570
0.344884 0.780789 0.193973
0.381781 0.773495 0.181308
0.416815 0.765377 0.167117
0.449958 0.756558 0.151278
0.481147 0.747341 0.134218
0.510674 0.737728 0.113985
0.557336 0.742061 0.111971
0.618616 0.758968 0.131075
0.675624 0.774594 0.153689
0.728145 0.788785 0.177890
0.776150 0.801450 0.203738
0.819669 0.812772 0.231235
0.859098 0.822965 0.259586
0.893736 0.831266 0.289403
0.921508 0.836667 0.338323
0.941253 0.834867 0.360845
0.959197 0.833280 0.383581
0.975860 0.833036 0.410620
0.991516 0.835111 0.446113
0.000000 0.837064 0.000000
0.000000 0.837552 0.000000
0.000000 0.837644 0.000000
0.000000 0.837491 0.000000
0.000000 0.836973 0.000000
0.000000 0.836362 0.000000
0.000000 0.835477 0.000000
0.000000 0.834470 0.000000
0.000000 0.832670 0.074067
0.000000 0.830289 0.131289
0.133150 0.827176 0.175631
0.251652 0.823362 0.216709
0.329656 0.818601 0.247013
0.366430 0.813138 0.236057
0.401282 0.806912 0.223117
0.434607 0.800076 0.209842
0.466468 0.792569 0.194308
0.496986 0.784787 0.178470
0.526329 0.776699 0.160708
0.554681 0.768399 0.141482
0.606134 0.777554 0.151583
0.662287 0.791684 0.175143
0.714015 0.804501 0.200381
0.761379 0.816007 0.227573
0.804471 0.826352 0.255283
0.843442 0.835599 0.284642
0.878782 0.844144 0.314824
0.910826 0.851957 0.345647
0.934813 0.855985 0.396948
0.953552 0.855711 0.426612
0.970214 0.855161 0.453254
0.986114 0.856626 0.485206
0.000000 0.864286 0.081483
0.000000 0.864530 0.082551
0.000000 0.864622 0.082246
0.000000 0.864530 0.081971
0.000000 0.864256 0.080446
0.000000 0.863981 0.080140
0.000000 0.863828 0.080262
0.000000 0.863645 0.083619
0.000000 0.862882 0.119753
0.000000 0.861295 0.166934
0.166049 0.858976 0.209506
0.276921 0.855833 0.250828
0.361212 0.851713 0.291386
0.405829 0.847440 0.295628
0.437324 0.842863 0.284581
0.467384 0.837491 0.271336
0.496864 0.831662 0.256901
0.525536 0.825559 0.242130
0.553643 0.819181 0.225925
0.581170 0.812558 0.208621
0.607874 0.805814 0.190188
0.661219 0.817105 0.214389
0.711116 0.827787 0.241215
0.756649 0.837430 0.269535
0.798093 0.846098 0.299199
0.835599 0.854032 0.329686
0.869657 0.861357 0.360479
0.900481 0.868162 0.392401
0.928405 0.874510 0.424506
0.949218 0.878019 0.475349
0.966461 0.879393 0.511894
0.982208 0.880613 0.541497
0.000000 0.894041 0.140230
0.000000 0.894133 0.140719
0.000000 0.894102 0.141268
0.000000 0.893797 0.141390
0.000000 0.893339 0.142092
0.000000 0.892790 0.143465
0.000000 0.892180 0.146059
0.000000 0.891478 0.149874
0.000000 0.890318 0.166171
0.000000 0.888060 0.205966
0.201968 0.885069 0.244877
0.301061 0.881376 0.283940
0.380774 0.876921 0.323186
0.439857 0.872129 0.349798
