data/fiter_cube/25649002/1023274/file.cube
# Created by Adobe Lightroom plugin Export LUT (1.17.0)
# www.johnrellis.com/lightroom/exportlut.htm
# Preset: 高级电影质感情绪胶片_04 云集
# Color profile: C:\Program Files (x86)\Common Files\Adobe\Color\Profiles\Recommended\AdobeRGB1998.icc
LUT_3D_SIZE 32
DOMAIN_MIN 0.0 0.0 0.0
DOMAIN_MAX 1.0 1.0 1.0
0.068147 0.076265 0.088075
0.070771 0.076936 0.088258
0.073579 0.077546 0.088746
0.080293 0.079622 0.090089
0.093568 0.082918 0.091432
0.113161 0.086793 0.092470
0.139956 0.090944 0.092988
0.173220 0.094789 0.093172
0.213260 0.098299 0.092744
0.260136 0.100832 0.091646
0.313268 0.101442 0.089906
0.368505 0.101625 0.087404
0.421332 0.103304 0.084474
0.470680 0.109529 0.081971
0.521538 0.124086 0.079713
0.570855 0.149783 0.079988
0.609003 0.178714 0.082429
0.640497 0.208621 0.087282
0.666712 0.238468 0.094362
0.689906 0.269017 0.105287
0.710567 0.299657 0.119265
0.729335 0.330205 0.135439
0.747005 0.360845 0.154391
0.764523 0.391852 0.175296
0.781765 0.422980 0.199252
0.799100 0.454902 0.227817
0.817075 0.487831 0.261051
0.835813 0.521386 0.299443
0.855344 0.555901 0.342962
0.875425 0.591089 0.392218
0.895567 0.626856 0.446632
0.915068 0.662837 0.504479
0.068696 0.077211 0.088869
0.069886 0.077729 0.089357
0.074647 0.079164 0.088594
0.082673 0.080659 0.088869
0.096773 0.084321 0.090150
0.116945 0.088136 0.091402
0.143435 0.092378 0.092195
0.176974 0.096620 0.092012
0.216342 0.099702 0.091585
0.262455 0.102510 0.090455
0.315221 0.103365 0.088380
0.369299 0.103639 0.085939
0.421271 0.105592 0.083314
0.469917 0.111421 0.080690
0.520317 0.125460 0.078218
0.567559 0.149447 0.077699
0.604608 0.176211 0.079561
0.635584 0.204837 0.084047
0.661982 0.233585 0.090486
0.685237 0.263157 0.100954
0.706294 0.293370 0.113710
0.725246 0.323369 0.129397
0.743130 0.353674 0.147219
0.760525 0.384375 0.168154
0.777890 0.415473 0.191196
0.795377 0.447486 0.218906
0.813565 0.480720 0.251896
0.832578 0.514763 0.289677
0.852323 0.549767 0.333227
0.872618 0.585473 0.382818
0.893065 0.621637 0.437324
0.912871 0.657954 0.495552
0.069917 0.079133 0.090089
0.070863 0.080018 0.091096
0.072572 0.080110 0.091035
0.083314 0.083192 0.089235
0.101228 0.086671 0.088746
0.122316 0.090852 0.090181
0.149203 0.095064 0.090608
0.182498 0.099092 0.090639
0.221805 0.102663 0.090059
0.267857 0.105104 0.088869
0.319860 0.105989 0.086671
0.373510 0.106722 0.083772
0.424781 0.108980 0.081056
0.472267 0.114992 0.078431
0.522667 0.129305 0.075715
0.568017 0.151705 0.074464
0.603845 0.177340 0.076600
0.634363 0.204898 0.079774
0.660304 0.232761 0.086946
0.683680 0.261936 0.096742
0.704891 0.291691 0.109377
0.723781 0.321324 0.125307
0.741573 0.351263 0.143252
0.759091 0.381445 0.163058
0.776394 0.412421 0.186130
0.793912 0.444190 0.213260
0.812131 0.477516 0.246128
0.831205 0.511650 0.283848
0.851011 0.546838 0.327611
0.871458 0.582727 0.377020
0.891966 0.618891 0.431586
0.911894 0.655268 0.489998
0.072419 0.083040 0.093019
0.073487 0.084138 0.094728
0.074525 0.084962 0.095186
0.077424 0.085206 0.094850
0.099519 0.092348 0.090822
0.130800 0.099306 0.088563
0.164340 0.103609 0.087343
0.197940 0.107088 0.087434
0.237675 0.110140 0.086580
0.283665 0.112490 0.084993
0.334539 0.113375 0.082399
0.386114 0.114504 0.079194
0.435065 0.117250 0.075990
0.480934 0.123995 0.072694
0.530236 0.138369 0.069520
0.572351 0.159854 0.067689
0.606195 0.183688 0.069306
0.635126 0.209018 0.072999
0.659998 0.234928 0.079164
0.682429 0.262272 0.089326
0.703120 0.290471 0.101472
0.721798 0.318883 0.117311
0.739773 0.348333 0.134829
0.757595 0.378851 0.155703
0.775631 0.410590 0.179324
0.793942 0.443427 0.207218
0.812741 0.477394 0.240879
0.832059 0.512139 0.279911
0.851957 0.547143 0.323583
0.872099 0.582574 0.373205
0.892302 0.618006 0.426978
0.911772 0.653590 0.484535
0.075166 0.088899 0.096437
0.076478 0.090120 0.098299
0.078553 0.091829 0.099886
0.081514 0.093721 0.100649
0.085664 0.093172 0.099123
0.118013 0.104646 0.093690
0.167575 0.117464 0.087068
0.213931 0.123445 0.083467
0.261418 0.125734 0.079927
0.307713 0.127016 0.077607
0.355810 0.127687 0.074556
0.404913 0.129183 0.070344
0.451118 0.132021 0.066560
0.494789 0.139132 0.062135
0.542443 0.154360 0.055451
0.581018 0.174075 0.051484
0.612909 0.196048 0.054170
0.640681 0.220188 0.059510
0.664454 0.244480 0.067567
0.685847 0.269963 0.078462
0.705440 0.296147 0.091432
0.723415 0.322911 0.107973
0.740902 0.351019 0.126101
0.758572 0.380652 0.147250
0.776516 0.411597 0.170748
0.794705 0.443793 0.199130
0.813443 0.477211 0.232517
0.832547 0.511345 0.271763
0.852262 0.545800 0.315190
0.872282 0.580743 0.364446
0.892363 0.615869 0.418402
0.911803 0.651179 0.476295
0.079225 0.097353 0.100893
0.080995 0.099458 0.102815
0.083833 0.102113 0.105806
0.087587 0.105592 0.107912
0.093538 0.107942 0.107820
0.098451 0.104646 0.105043
0.141176 0.120577 0.096895
0.210849 0.140200 0.084657
0.277043 0.152560 0.075349
0.335210 0.153689 0.067445
0.389685 0.153353 0.058961
0.434607 0.153750 0.048981
0.476417 0.156405 0.039734
0.520195 0.164340 0.024567
0.561059 0.178653 0.013306
0.595392 0.196231 0.006989
0.624842 0.216403 0.008240
0.650141 0.237949 0.018585
0.672297 0.260319 0.038697
0.692622 0.283909 0.061555
0.711238 0.308354 0.078737
0.728756 0.333837 0.096986
0.773709 0.408759 0.150454
0.790219 0.436774 0.175875
0.806455 0.465126 0.205173
0.822812 0.493843 0.237613
0.839353 0.522698 0.273472
0.856321 0.551995 0.313176
0.873747 0.582025 0.357031
0.891417 0.612696 0.405280
0.908721 0.643549 0.456916
0.924987 0.674647 0.510857
0.086244 0.113771 0.108156
0.088594 0.116304 0.110506
0.092226 0.120058 0.114137
0.099367 0.126802 0.119844
0.107820 0.134432 0.123232
0.116518 0.133944 0.119387
0.120333 0.124636 0.114076
0.175723 0.145235 0.102480
0.267735 0.172122 0.082002
0.358556 0.190463 0.059113
0.428077 0.198001 0.018067
0.480293 0.197879 0.000000
0.524254 0.200534 0.000000
0.566979 0.211673 0.000000
0.600519 0.224704 0.000000
0.627924 0.239261 0.000000
0.651728 0.255863 0.000000
0.672541 0.273320 0.000000
0.691646 0.292729 0.000000
0.709926 0.314397 0.019684
0.728206 0.338872 0.065278
0.747036 0.366735 0.092500
0.766354 0.397131 0.120546
0.785641 0.428748 0.150393
0.804440 0.460212 0.182864
0.822232 0.490425 0.217319
0.839353 0.519921 0.255253
0.856443 0.549035 0.295659
0.873747 0.578759 0.340459
0.891173 0.608667 0.388647
0.908324 0.639063 0.440620
0.924651 0.669703 0.495003
0.095277 0.134432 0.117250
0.098238 0.137484 0.119875
0.102266 0.141512 0.123812
0.111940 0.150515 0.133028
0.122133 0.159762 0.137667
0.135775 0.169986 0.141695
0.143862 0.162844 0.132387
0.144869 0.146853 0.124239
0.206790 0.169223 0.110353
0.312261 0.201266 0.083253
0.415473 0.225132 0.028016
0.492622 0.243870 0.000000
0.547143 0.252171 0.000000
0.589776 0.260227 0.000000
0.621973 0.268193 0.000000
0.644678 0.276646 0.000000
0.664515 0.286870 0.000000
0.682521 0.299535 0.000000
0.699672 0.314488 0.000000
0.716152 0.332219 0.000000
0.733120 0.353155 0.000000
0.751034 0.377691 0.062165
0.769528 0.405035 0.096040
0.788083 0.433631 0.128237
0.806241 0.462593 0.161532
0.823545 0.490974 0.197238
0.840391 0.519158 0.235233
0.857237 0.547326 0.276310
0.874479 0.576135 0.320989
0.891722 0.605402 0.369879
0.908843 0.635309 0.422614
0.925048 0.665583 0.478340
0.109041 0.163180 0.130587
0.112306 0.166262 0.133486
0.116793 0.170596 0.137667
0.127596 0.180209 0.147402
0.141878 0.192569 0.157107
0.157382 0.206027 0.163302
0.172244 0.211521 0.162448
0.179629 0.199283 0.149203
0.175784 0.175204 0.137850
0.242649 0.197940 0.121736
0.357946 0.234257 0.088502
0.476417 0.269200 0.000000
0.552544 0.296574 0.000000
0.605035 0.316289 0.000000
0.635462 0.319890 0.000000
0.660456 0.323095 0.000000
0.680537 0.327459 0.000000
0.695796 0.334081 0.000000
0.710323 0.343633 0.000000
0.725124 0.356725 0.000000
0.740993 0.373968 0.000000
0.757931 0.394934 0.000000
0.775296 0.418677 0.060395
0.793057 0.444007 0.101472
0.810422 0.470039 0.138613
0.827054 0.495857 0.175845
0.843442 0.522026 0.214878
0.859892 0.548547 0.256260
0.876646 0.576043 0.301701
0.893523 0.604181 0.351080
0.910246 0.632929 0.404089
0.926207 0.662257 0.460365
0.127871 0.199344 0.147860
0.131502 0.202457 0.151186
0.136629 0.207065 0.155489
0.148226 0.216770 0.165560
0.166964 0.232059 0.180545
0.183627 0.246372 0.187655
0.206943 0.265629 0.197024
0.217960 0.259312 0.186648
0.222995 0.241032 0.168978
0.213138 0.208347 0.154025
0.289464 0.234348 0.137240
0.414435 0.277684 0.098573
0.520623 0.313787 0.000000
0.592096 0.343145 0.000000
0.642115 0.368505 0.000000
0.670497 0.374487 0.000000
0.691005 0.375463 0.000000
0.709010 0.377020 0.000000
0.724025 0.380438 0.000000
0.737301 0.388861 0.000000
0.751553 0.401160 0.000000
0.766537 0.416785 0.000000
0.782162 0.435309 0.000000
0.798032 0.455756 0.051331
0.814084 0.477729 0.105165
0.830014 0.500511 0.146365
0.846098 0.524529 0.187015
0.862486 0.549889 0.230900
0.879240 0.576532 0.278508
0.896208 0.603998 0.329473
0.912963 0.632258 0.384588
0.928801 0.661158 0.443366
0.151156 0.240360 0.168215
0.154849 0.243687 0.171572
0.160525 0.248295 0.176272
0.173098 0.258732 0.186709
0.194247 0.275242 0.203861
0.215427 0.292760 0.215854
0.240360 0.312840 0.226413
0.270756 0.334722 0.237919
0.274723 0.314946 0.215579
0.282628 0.295995 0.195621
0.266026 0.254124 0.176730
0.338109 0.273686 0.156527
0.458015 0.318547 0.115328
0.553582 0.355261 0.021698
0.623072 0.385931 0.000000
0.665949 0.407843 0.000000
0.698116 0.423102 0.000000
0.714717 0.420874 0.000000
0.730373 0.420630 0.000000
0.746487 0.423468 0.000000
0.761746 0.430243 0.000000
0.775753 0.441566 0.000000
0.790494 0.456336 0.000000
0.805600 0.473091 0.000000
0.820737 0.491432 0.044770
0.835813 0.510887 0.111543
0.851133 0.531731 0.157107
0.866667 0.554498 0.203861
0.882872 0.578882 0.252018
0.899290 0.604456 0.303899
0.915557 0.631281 0.360418
0.931060 0.658900 0.420356
0.181003 0.289860 0.193149
0.185336 0.293309 0.196628
0.191287 0.298039 0.201419
0.204410 0.308141 0.212100
0.227024 0.324376 0.229953
0.254185 0.343481 0.249271
0.279515 0.362890 0.261173
0.315923 0.390417 0.280186
0.344396 0.404242 0.285710
0.347753 0.383215 0.257755
0.348516 0.355596 0.228061
0.322118 0.301854 0.202090
0.425025 0.347417 0.195102
0.536645 0.397040 0.151644
0.617426 0.434028 0.088380
0.675471 0.459022 0.000000
0.710536 0.473640 0.000000
0.738125 0.486397 0.000000
0.757076 0.489967 0.000000
0.771206 0.488655 0.000000
0.785916 0.490028 0.000000
0.801144 0.493843 0.000000
0.814939 0.500786 0.000000
0.827512 0.511955 0.000000
0.840543 0.525078 0.000000
0.853849 0.540063 0.087068
0.867399 0.556756 0.143801
0.881285 0.575433 0.194247
0.895628 0.595941 0.244450
0.910277 0.618158 0.297490
0.924865 0.641627 0.353185
0.938750 0.666438 0.413031
0.227451 0.357427 0.230533
0.232303 0.360571 0.234318
0.238132 0.364141 0.238956
0.252018 0.372381 0.250065
0.277226 0.388190 0.270298
0.312291 0.409888 0.298894
0.341650 0.431403 0.315923
0.375219 0.455543 0.335058
0.414221 0.483009 0.358160
0.427893 0.480018 0.346990
0.428962 0.457954 0.315343
0.426856 0.427955 0.278843
0.397040 0.369085 0.242924
0.449683 0.374060 0.215976
0.555200 0.425269 0.177493
0.631250 0.462257 0.126558
0.685176 0.484901 0.000000
0.721645 0.498238 0.000000
0.748806 0.510887 0.000000
0.774502 0.524590 0.000000
0.788663 0.523705 0.000000
0.803159 0.524865 0.000000
0.817899 0.527733 0.000000
0.833066 0.532036 0.000000
0.846464 0.540002 0.000000
0.858976 0.551324 0.000000
0.871824 0.564813 0.079133
0.885222 0.580468 0.145357
0.899077 0.598718 0.203159
0.913481 0.618982 0.259281
0.927855 0.640803 0.317632
0.941527 0.664332 0.380560
0.279210 0.418647 0.272190
0.284703 0.421820 0.276555
0.291112 0.425269 0.281804
0.305669 0.433356 0.293706
0.328679 0.445747 0.312566
0.358495 0.461830 0.337530
0.388281 0.479927 0.359380
0.416388 0.498939 0.376074
0.448707 0.520958 0.396551
0.483833 0.545556 0.420600
0.482673 0.527764 0.391241
0.480842 0.504784 0.356878
0.473579 0.472206 0.316533
0.441169 0.410986 0.273533
0.478828 0.406043 0.242527
0.575036 0.455177 0.206760
0.644312 0.488441 0.162112
0.693660 0.508354 0.100984
0.732509 0.521416 0.000000
0.759762 0.534661 0.000000
0.785824 0.548730 0.000000
0.806241 0.556909 0.000000
0.820340 0.557580 0.000000
0.834897 0.559991 0.000000
0.849729 0.563470 0.000000
0.864775 0.567956 0.000000
0.877867 0.577050 0.000000
0.890654 0.589593 0.073854
0.904143 0.604730 0.151858
0.918059 0.622675 0.216434
0.932067 0.642603 0.279576
0.945525 0.664210 0.344976
0.334356 0.474739 0.317418
0.339086 0.477119 0.321447
0.344793 0.479683 0.325994
0.357153 0.485481 0.336431
0.376196 0.494484 0.352758
0.401190 0.506340 0.374548
0.430732 0.521447 0.400275
0.453651 0.536584 0.414862
0.480354 0.554803 0.433051
0.509636 0.575494 0.454505
0.530510 0.586542 0.463264
0.527825 0.568414 0.432959
0.523522 0.544732 0.396063
0.512413 0.510185 0.352300
0.479500 0.449134 0.304051
0.504234 0.435859 0.269718
0.592340 0.482277 0.237369
0.655940 0.512657 0.198001
0.702174 0.531090 0.150668
0.740963 0.544823 0.072450
0.771603 0.558373 0.000000
0.797513 0.572259 0.000000
0.821836 0.585657 0.000000
0.837064 0.587945 0.000000
0.851255 0.589654 0.000000
0.865965 0.592737 0.000000
0.881285 0.597101 0.000000
0.897337 0.603052 0.000000
0.911284 0.615229 0.075563
0.925200 0.631006 0.168368
0.939086 0.649104 0.241093
0.952148 0.669093 0.313359
0.384924 0.520958 0.360204
0.389349 0.523278 0.364141
0.394629 0.525689 0.368780
0.405707 0.530541 0.378515
0.422522 0.538140 0.393591
0.444343 0.548363 0.413794
0.470527 0.561578 0.438849
0.493202 0.575555 0.457618
0.515373 0.590997 0.473915
0.539086 0.607630 0.492409
0.563409 0.624720 0.512749
0.570550 0.622431 0.504448
0.565332 0.603235 0.471412
0.557885 0.577600 0.431037
0.542779 0.540581 0.383917
0.509911 0.481117 0.331792
0.524437 0.460975 0.294896
0.606775 0.505913 0.267185
0.666499 0.535149 0.234379
0.711208 0.553857 0.195895
0.750820 0.569299 0.142428
0.785183 0.583276 0.070222
0.811124 0.597162 0.039002
0.835386 0.610163 0.000000
0.855497 0.618830 0.000000
0.869657 0.620417 0.000031
0.884398 0.623255 0.018433
0.899840 0.627649 0.040986
0.915831 0.633356 0.067201
0.932372 0.640314 0.086519
0.945312 0.655146 0.186221
0.957610 0.672053 0.265385
0.428260 0.558038 0.398810
0.431434 0.559533 0.401862
0.435523 0.561120 0.405646
0.444770 0.565118 0.414282
0.458686 0.571374 0.427558
0.476844 0.579858 0.445380
0.498299 0.590692 0.467048
0.520867 0.603204 0.489387
0.539117 0.615656 0.503655
0.558831 0.629206 0.519982
0.579461 0.643488 0.538109
0.599969 0.657862 0.557580
0.597772 0.646601 0.534630
0.592340 0.628290 0.501488
0.584771 0.603845 0.460945
0.568536 0.567010 0.413031
0.536858 0.510002 0.359106
0.543572 0.485023 0.320043
0.620844 0.528496 0.297124
0.676631 0.556359 0.269810
0.720058 0.575525 0.238376
0.759792 0.591852 0.195499
0.796323 0.605493 0.131655
0.823087 0.618921 0.115419
0.847227 0.631495 0.110780
0.869749 0.643061 0.108003
0.885771 0.647150 0.115206
0.900633 0.650294 0.125002
0.916106 0.654749 0.136690
0.932067 0.660517 0.150790
0.948180 0.667140 0.166995
0.963256 0.676112 0.202426
0.468025 0.591821 0.436805
0.471626 0.593774 0.440436
0.502495 0.618189 0.472236
0.509361 0.621057 0.479500
0.519738 0.625422 0.490547
0.533135 0.631189 0.504997
0.548913 0.638239 0.522606
0.567193 0.646967 0.543572
0.581903 0.655940 0.557488
0.596582 0.665705 0.570794
0.611933 0.676234 0.585199
0.627741 0.687556 0.599878
0.638972 0.694118 0.606592
0.632258 0.678981 0.579980
0.625483 0.660792 0.545769
0.617762 0.637812 0.504204
0.601984 0.602930 0.455482
0.572747 0.549615 0.399542
0.571862 0.519585 0.356664
0.641962 0.559838 0.338720
0.692164 0.584894 0.316899
0.734981 0.604547 0.290745
0.774441 0.621241 0.255680
0.810483 0.634272 0.206760
0.839231 0.644984 0.173190
0.862119 0.655909 0.172702
0.883452 0.665797 0.172854
0.902159 0.673457 0.176333
0.916472 0.676173 0.186374
0.931548 0.680446 0.199161
0.946868 0.685847 0.214969
0.961975 0.692073 0.234287
0.509117 0.626337 0.479316
0.514366 0.629877 0.484993
0.520653 0.633783 0.491829
0.529503 0.638575 0.501457
0.540459 0.643915 0.513664
0.552941 0.649622 0.527764
0.566857 0.655818 0.543877
0.582544 0.663020 0.562463
0.597559 0.671168 0.579370
0.609949 0.679591 0.590692
0.623377 0.689235 0.602991
0.637446 0.699702 0.615717
0.651667 0.710628 0.628229
0.655451 0.709133 0.623529
0.648157 0.693446 0.597955
0.640436 0.674922 0.565423
0.632929 0.653071 0.524651
0.617945 0.620142 0.477424
0.592065 0.571283 0.422889
0.587213 0.539239 0.379583
0.652613 0.577752 0.366369
0.700923 0.603143 0.350134
0.743923 0.624262 0.329198
0.783444 0.641810 0.300847
0.819455 0.655024 0.260990
0.851316 0.664820 0.213993
0.874235 0.675624 0.216770
0.895537 0.685725 0.222080
0.915465 0.695247 0.230259
0.931151 0.700252 0.242588
0.945617 0.704433 0.258091
0.959991 0.709590 0.276982
0.535576 0.648188 0.508446
0.540093 0.651087 0.513634
0.545251 0.654170 0.519493
0.552667 0.658076 0.528008
0.562066 0.662531 0.538842
0.572564 0.667170 0.551232
0.584649 0.672419 0.565667
0.597894 0.678553 0.581689
0.612604 0.686305 0.599481
0.623926 0.694270 0.610040
0.635767 0.703273 0.620722
0.648341 0.713008 0.631739
0.661067 0.723018 0.642664
0.674281 0.733333 0.653712
0.671565 0.724300 0.639673
0.663844 0.708248 0.615351
0.655573 0.689693 0.584771
0.647669 0.668421 0.546349
0.633814 0.637690 0.500877
0.611383 0.593530 0.448524
0.603418 0.560143 0.404822
0.664027 0.596735 0.396216
0.711238 0.622644 0.384314
0.754116 0.644617 0.367895
0.793332 0.662409 0.344732
0.829252 0.675746 0.312108
0.862303 0.685176 0.266270
0.886748 0.695094 0.259861
0.907866 0.705257 0.269566
0.927153 0.714443 0.281102
0.943969 0.722133 0.295811
0.957519 0.726345 0.315007
0.559838 0.667720 0.536553
0.563775 0.670100 0.541192
0.568200 0.672786 0.546532
0.574548 0.675990 0.554101
0.582452 0.679713 0.563561
0.591485 0.683803 0.574334
0.601526 0.688502 0.586481
0.613031 0.694331 0.600244
0.625696 0.701289 0.615442
0.637537 0.709133 0.628138
0.647883 0.717250 0.637140
0.659022 0.726162 0.646632
0.670741 0.735348 0.656580
0.682948 0.744839 0.667048
0.693935 0.752590 0.675380
0.687312 0.739254 0.655177
0.680171 0.723903 0.632624
0.672511 0.706538 0.605676
0.664942 0.686793 0.572076
0.652186 0.658839 0.531121
0.634180 0.620722 0.482460
0.625422 0.588281 0.439979
0.680720 0.622736 0.436652
0.728176 0.650263 0.430243
0.771389 0.673243 0.419226
0.810544 0.691218 0.402533
0.846311 0.704555 0.378088
0.879118 0.714076 0.343664
0.905760 0.722164 0.323278
0.925475 0.731441 0.336706
0.942870 0.739803 0.352819
0.957794 0.747494 0.371954
0.590997 0.692592 0.574121
0.593194 0.693904 0.576776
0.595605 0.695308 0.579706
0.599847 0.697414 0.584710
0.605524 0.700221 0.591547
0.612696 0.703700 0.600092
0.621180 0.708095 0.610224
0.631128 0.713558 0.622065
0.642390 0.720363 0.635340
0.654871 0.728481 0.649866
0.664576 0.736263 0.658412
0.675044 0.744564 0.667628
0.685908 0.753017 0.677180
0.697139 0.761563 0.687007
0.708644 0.770199 0.697139
0.713680 0.771237 0.696590
0.707057 0.758297 0.676173
0.699916 0.743313 0.653590
0.692164 0.726406 0.628748
0.683864 0.706905 0.598077
0.669825 0.679255 0.560357
0.653040 0.643854 0.513390
0.644678 0.613336 0.471626
0.693538 0.642878 0.468513
0.740505 0.670588 0.464424
0.783261 0.693385 0.456397
0.822171 0.711452 0.444587
0.857725 0.725093 0.426703
0.890043 0.734829 0.400641
0.918669 0.741146 0.367590
0.937072 0.750118 0.384771
0.952789 0.758389 0.404913
0.610712 0.710231 0.597742
0.612665 0.711543 0.600092
0.614771 0.712886 0.602625
0.618463 0.714961 0.607019
0.623438 0.717617 0.612909
0.629450 0.720729 0.620050
0.636622 0.724636 0.628565
0.645075 0.729549 0.638422
0.654963 0.735622 0.649958
0.666255 0.742824 0.663264
0.676997 0.750393 0.674556
0.686549 0.757839 0.683101
0.696559 0.765530 0.692073
0.707057 0.773434 0.701472
0.717891 0.781430 0.711177
0.729030 0.789487 0.721096
0.729061 0.785245 0.712856
0.722957 0.773190 0.693111
0.716457 0.759335 0.671229
0.709407 0.743435 0.647150
0.701442 0.725246 0.619928
0.687312 0.698939 0.586481
0.671015 0.666133 0.544030
0.664302 0.639368 0.505943
0.705165 0.660548 0.495918
0.751888 0.688716 0.494697
0.794614 0.711849 0.490333
0.833341 0.730037 0.482856
0.868376 0.743893 0.470527
0.899870 0.753964 0.452247
0.927764 0.760464 0.426337
0.947112 0.768032 0.431373
0.634668 0.733486 0.626215
0.636439 0.734829 0.628321
0.638209 0.736019 0.630365
0.640925 0.737575 0.633570
0.644770 0.739681 0.638025
0.649500 0.742214 0.643580
0.655482 0.745449 0.650568
0.662654 0.749386 0.658991
0.671138 0.754238 0.669062
0.681025 0.760067 0.680842
0.691951 0.766690 0.693812
0.700130 0.772793 0.701106
0.708949 0.779324 0.708919
0.718135 0.785916 0.717037
0.727504 0.792508 0.725246
0.737179 0.799161 0.733639
0.747189 0.805997 0.742336
0.742184 0.796811 0.726528
0.736324 0.785367 0.707240
0.730465 0.772457 0.686030
0.724269 0.757961 0.662959
0.717067 0.741024 0.637293
0.702785 0.715816 0.607233
0.686488 0.684749 0.568505
0.679835 0.659724 0.532616
0.720485 0.682307 0.528161
0.767025 0.710567 0.529839
0.809110 0.733028 0.528283
0.846952 0.750881 0.524651
0.880797 0.764706 0.517937
0.910430 0.775051 0.508019
0.935851 0.782254 0.494820
0.649958 0.749722 0.643977
0.651545 0.751003 0.645808
0.653162 0.752102 0.647700
0.655634 0.753597 0.650629
0.659083 0.755459 0.654688
0.663539 0.757809 0.659998
0.669184 0.760830 0.666712
0.675959 0.764523 0.674769
0.684108 0.769100 0.684504
0.693477 0.774533 0.695796
0.703975 0.780728 0.708461
0.713558 0.787015 0.718685
0.721920 0.793057 0.726284
0.730648 0.799222 0.734005
0.739559 0.805356 0.741878
0.748684 0.811582 0.749874
0.758145 0.817868 0.758053
0.764767 0.821225 0.761685
0.759426 0.812009 0.745541
0.754208 0.801755 0.727535
0.749020 0.790097 0.707424
0.743465 0.776730 0.684871
0.737057 0.761074 0.659541
0.723079 0.737301 0.632197
0.707362 0.708797 0.598413
0.701625 0.687068 0.568170
0.739040 0.706905 0.563775
0.785458 0.734981 0.568353
0.827115 0.757321 0.570764
0.863859 0.775051 0.572015
0.895598 0.788968 0.572076
0.922210 0.799619 0.571740
0.666835 0.767575 0.663722
0.668177 0.768551 0.665309
0.669337 0.769314 0.666773
0.671351 0.770321 0.669215
0.674250 0.771725 0.672633
0.678248 0.773648 0.677424
0.683223 0.776181 0.683436
0.689418 0.779355 0.690883
0.696986 0.783383 0.700008
0.705653 0.788235 0.710506
0.715541 0.793820 0.722377
0.726467 0.800168 0.735317
0.734279 0.805722 0.742367
0.742458 0.811307 0.749630
0.750698 0.816861 0.756832
0.759121 0.822416 0.764126
0.767758 0.828031 0.771481
0.776699 0.833799 0.779110
0.779232 0.833280 0.776730
0.774563 0.825071 0.761959
0.770016 0.815824 0.745266
0.765377 0.805234 0.726223
0.760555 0.793057 0.704677
0.754788 0.778592 0.680354
0.742123 0.756680 0.653773
0.727657 0.730892 0.624140
0.723293 0.712551 0.599329
0.757656 0.729793 0.595331
0.803250 0.756863 0.601709
0.844022 0.778897 0.607416
0.878996 0.796445 0.612726
0.907988 0.810330 0.618738
0.681727 0.783108 0.681514
0.682826 0.783810 0.682795
0.683864 0.784451 0.684108
0.685817 0.785428 0.686458
0.688899 0.787015 0.690150
0.692988 0.789151 0.695155
0.698543 0.792203 0.701900
0.705440 0.796048 0.710231
0.713649 0.800717 0.720150
0.722957 0.806088 0.731380
0.733455 0.812131 0.743832
0.744778 0.818601 0.757046
0.754543 0.824674 0.767269
0.762539 0.830045 0.774411
0.770504 0.835233 0.781338
0.778225 0.840116 0.787900
0.786007 0.844968 0.794461
0.793942 0.849821 0.801114
0.802090 0.854795 0.808011
0.801236 0.851499 0.801114
0.797391 0.844633 0.788144
0.793668 0.836851 0.773373
0.789883 0.827817 0.756222
0.786160 0.817441 0.736568
0.781613 0.804929 0.714168
0.771359 0.786069 0.689387
0.759945 0.764187 0.662196
0.758907 0.750729 0.643732
0.790311 0.765255 0.641230
0.833341 0.789792 0.649134
0.870634 0.810147 0.658503
0.900755 0.826108 0.669093
0.704189 0.805020 0.708705
0.705013 0.805509 0.709712
0.705837 0.805875 0.710689
0.707454 0.806577 0.712673
0.710018 0.807675 0.715755
0.713527 0.809232 0.719997
0.718196 0.811460 0.725612
0.723934 0.814267 0.732479
0.730892 0.817777 0.740810
0.738949 0.821897 0.750240
0.747860 0.826474 0.760647
0.757687 0.831601 0.771847
0.768093 0.837064 0.783505
0.774868 0.841398 0.789334
