data/fiter_cube/25649002/1023274/file.cube
# Created by Adobe Lightroom plugin Export LUT (1.17.0)
# www.johnrellis.com/lightroom/exportlut.htm
# Preset: 高级电影质感情绪胶片_04 云集
# Color profile: C:\Program Files (x86)\Common Files\Adobe\Color\Profiles\Recommended\AdobeRGB1998.icc
LUT_3D_SIZE 5
DOMAIN_MIN 0.000000 0.000000 0.000000
DOMAIN_MAX 0.903226 0.903226 0.903226
0.068147 0.076265 0.088075
0.173220 0.094789 0.093172
0.521538 0.124086 0.079713
0.729335 0.330205 0.135439
0.855344 0.555901 0.342962
0.095277 0.134432 0.117250
0.144869 0.146853 0.124239
0.621973 0.268193 0.000000
0.751034 0.377691 0.062165
0.874479 0.576135 0.320989
0.334356 0.474739 0.317418
0.453651 0.536584 0.414862
0.479500 0.449134 0.304051
0.797513 0.572259 0.000000
0.911284 0.615229 0.075563
0.590997 0.692592 0.574121
0.631128 0.713558 0.622065
0.708644 0.770199 0.697139
0.653040 0.643854 0.513390
0.890043 0.734829 0.400641
0.719203 0.819394 0.726741
0.738125 0.827878 0.749142
0.786038 0.850126 0.800839
0.823423 0.868742 0.823880
0.803311 0.806668 0.714931
0.070069 0.088319 0.128786
0.186648 0.094057 0.149752
0.460548 0.196384 0.192477
0.688258 0.346990 0.232914
0.827634 0.554314 0.392004
0.097230 0.144045 0.141848
0.189639 0.198245 0.191714
0.567681 0.279606 0.171054
0.716976 0.392157 0.211368
0.843381 0.568414 0.372259
0.318791 0.456550 0.321721
0.450752 0.524926 0.434791
0.471962 0.451118 0.343664
0.782559 0.575586 0.193637
0.893919 0.625452 0.270695
0.586236 0.687373 0.574609
0.626764 0.708461 0.622095
0.706447 0.766567 0.702266
0.651667 0.646998 0.532921
0.888853 0.738308 0.434852
0.713954 0.816190 0.722713
0.732753 0.824643 0.744900
0.791836 0.854185 0.809873
0.829129 0.873381 0.834501
0.806699 0.811154 0.724849
0.000000 0.145449 0.315496
0.215396 0.119936 0.393103
0.558984 0.247349 0.380957
0.576806 0.425574 0.415656
0.774289 0.597498 0.538659
0.173678 0.265263 0.319707
0.253391 0.288273 0.401190
0.521141 0.371405 0.409125
0.626581 0.459510 0.428260
0.792538 0.608972 0.535637
0.287327 0.440040 0.364141
0.392554 0.490394 0.423621
0.541924 0.542718 0.490761
0.735897 0.592859 0.461128
0.847807 0.652613 0.511223
0.552605 0.664759 0.553460
0.592370 0.680842 0.595819
0.689082 0.746487 0.701198
0.656062 0.664118 0.589929
0.885100 0.753201 0.545373
0.694759 0.802792 0.708278
0.713130 0.812375 0.729183
0.770840 0.842100 0.792203
0.835355 0.878660 0.851377
0.801663 0.809262 0.733242
0.177951 0.288121 0.538781
0.293248 0.287083 0.576593
0.614740 0.283696 0.641505
0.709224 0.498543 0.576776
0.727413 0.636164 0.630610
0.310857 0.410346 0.532738
0.347784 0.399908 0.569818
0.606531 0.401862 0.642481
0.692805 0.533593 0.581415
0.711391 0.639857 0.629328
0.390112 0.538811 0.535332
0.445075 0.552972 0.553063
0.573602 0.596826 0.632349
0.644160 0.604242 0.597162
0.748959 0.666896 0.642664
0.514183 0.646571 0.570153
0.548638 0.657435 0.590478
0.631281 0.696071 0.652461
0.684993 0.706111 0.667994
0.860014 0.746365 0.654994
0.665858 0.783871 0.689082
0.681483 0.791958 0.705928
0.734249 0.820584 0.762295
0.822202 0.869169 0.848539
0.802945 0.816190 0.760739
0.432013 0.500969 0.700465
0.468086 0.497566 0.714260
0.609857 0.480751 0.762661
0.764401 0.547967 0.764401
0.845274 0.663294 0.742977
0.470100 0.552667 0.689906
0.482521 0.541161 0.704829
0.601953 0.532647 0.754360
0.758358 0.574762 0.765896
0.840726 0.673671 0.744564
0.507958 0.614710 0.655604
0.524376 0.615656 0.661463
0.585748 0.631739 0.726101
0.752712 0.643427 0.787106
0.829374 0.707424 0.753597
0.565484 0.715999 0.698421
0.576715 0.715480 0.700710
0.614679 0.717433 0.713680
0.704341 0.743709 0.785550
0.804471 0.757382 0.768795
0.639124 0.780636 0.719600
0.647700 0.782620 0.723995
0.686030 0.798459 0.749783
0.755276 0.829160 0.799069
0.822141 0.846311 0.829465
