data/fiter_cube/25649002/1023274/file.cube
# Created by Adobe Lightroom plugin Export LUT (1.17.0)
# www.johnrellis.com/lightroom/exportlut.htm
# Preset: 高级电影质感情绪胶片_04 云集
# Color profile: C:\Program Files (x86)\Common Files\Adobe\Color\Profiles\Recommended\AdobeRGB1998.icc
LUT_3D_SIZE 8
DOMAIN_MIN 0.000000 0.000000 0.000000
DOMAIN_MAX 0.903226 0.903226 0.903226
0.068147 0.076265 0.088075
0.093568 0.082918 0.091432
0.213260 0.098299 0.092744
0.421332 0.103304 0.084474
0.609003 0.178714 0.082429
0.710567 0.299657 0.119265
0.781765 0.422980 0.199252
0.855344 0.555901 0.342962
0.075166 0.088899 0.096437
0.085664 0.093172 0.099123
0.261418 0.125734 0.079927
0.451118 0.132021 0.066560
0.612909 0.196048 0.054170
0.705440 0.296147 0.091432
0.776516 0.411597 0.170748
0.852262 0.545800 0.315190
0.109041 0.163180 0.130587
0.141878 0.192569 0.157107
0.175784 0.175204 0.137850
0.552544 0.296574 0.000000
0.680537 0.327459 0.000000
0.740993 0.373968 0.000000
0.810422 0.470039 0.138613
0.876646 0.576043 0.301701
0.227451 0.357427 0.230533
0.277226 0.388190 0.270298
0.414221 0.483009 0.358160
0.397040 0.369085 0.242924
0.685176 0.484901 0.000000
0.788663 0.523705 0.000000
0.846464 0.540002 0.000000
0.899077 0.598718 0.203159
0.428260 0.558038 0.398810
0.458686 0.571374 0.427558
0.539117 0.615656 0.503655
0.597772 0.646601 0.534630
0.536858 0.510002 0.359106
0.720058 0.575525 0.238376
0.847227 0.631495 0.110780
0.916106 0.654749 0.136690
0.559838 0.667720 0.536553
0.582452 0.679713 0.563561
0.625696 0.701289 0.615442
0.670741 0.735348 0.656580
0.680171 0.723903 0.632624
0.634180 0.620722 0.482460
0.771389 0.673243 0.419226
0.905760 0.722164 0.323278
0.649958 0.749722 0.643977
0.659083 0.755459 0.654688
0.684108 0.769100 0.684504
0.721920 0.793057 0.726284
0.758145 0.817868 0.758053
0.749020 0.790097 0.707424
0.707362 0.708797 0.598413
0.827115 0.757321 0.570764
0.719203 0.819394 0.726741
0.724636 0.821744 0.733242
0.744686 0.831052 0.756863
0.780056 0.848661 0.796841
0.799802 0.858457 0.812467
0.825650 0.872892 0.832761
0.818265 0.852384 0.788632
0.803311 0.806668 0.714931
0.070771 0.080995 0.100282
0.094514 0.082185 0.104219
0.183810 0.109041 0.116945
0.391241 0.130831 0.119997
0.576165 0.188449 0.126101
0.682734 0.287388 0.148379
0.759396 0.404852 0.211612
0.837583 0.538933 0.338018
0.074525 0.090272 0.100771
0.093599 0.103029 0.113802
0.233494 0.129305 0.109773
0.429999 0.150088 0.107424
0.591577 0.207767 0.110933
0.686915 0.295811 0.133242
0.758022 0.400153 0.191226
0.834318 0.528740 0.312352
0.110109 0.162905 0.137270
0.150973 0.198611 0.176211
0.187350 0.189334 0.160250
0.537896 0.293187 0.025422
0.656367 0.315465 0.000000
0.721492 0.364599 0.075532
0.785397 0.446937 0.160067
0.856748 0.556390 0.296086
0.222385 0.344945 0.233433
0.275700 0.380591 0.277043
0.403021 0.467567 0.361822
0.373968 0.351202 0.246616
0.660121 0.460029 0.082490
0.761929 0.495857 0.000000
0.821500 0.517693 0.000000
0.880735 0.583246 0.213046
0.424659 0.551446 0.400763
0.451820 0.562737 0.425849
0.529839 0.604425 0.499153
0.585046 0.633509 0.526207
0.520012 0.494423 0.354498
0.710048 0.565972 0.243992
0.836728 0.624048 0.144717
0.906249 0.647272 0.160128
0.550439 0.659174 0.528069
0.565820 0.665644 0.545678
0.611048 0.687098 0.599451
0.660090 0.723507 0.646693
0.674037 0.717617 0.629480
0.630365 0.617700 0.484291
0.767666 0.670405 0.422095
0.899626 0.718563 0.333013
0.639216 0.738613 0.632593
0.645472 0.741451 0.639857
0.671687 0.756832 0.670649
0.713375 0.784482 0.717372
0.752712 0.812680 0.753017
0.743954 0.785367 0.703639
0.699031 0.700069 0.590173
0.818418 0.747921 0.558129
0.712123 0.813535 0.718807
0.718502 0.816770 0.726467
0.739132 0.826749 0.750912
0.775357 0.845182 0.792020
0.804318 0.861753 0.818265
0.828122 0.874754 0.836667
0.817288 0.851743 0.788968
0.798764 0.802365 0.710262
0.068299 0.092531 0.146975
0.095338 0.087221 0.169955
0.237034 0.101686 0.174929
0.318639 0.199008 0.215335
0.540703 0.252262 0.232456
0.664271 0.346807 0.260624
0.746334 0.452735 0.319921
0.828580 0.570916 0.426551
0.090181 0.122591 0.151797
0.104707 0.126436 0.177340
0.218296 0.155947 0.189792
0.368444 0.208560 0.214572
0.557366 0.264012 0.225315
0.669673 0.351385 0.250095
0.747646 0.450294 0.305516
0.829099 0.567010 0.412024
0.111025 0.174655 0.163973
0.144594 0.202152 0.188785
0.241398 0.246281 0.229618
0.522667 0.310613 0.202335
0.635065 0.353491 0.211276
0.706233 0.408026 0.235203
0.770687 0.482002 0.288457
0.843900 0.579065 0.389960
0.221958 0.350805 0.250645
0.276707 0.387152 0.295476
0.422858 0.478187 0.410071
0.415320 0.400793 0.323583
0.675135 0.501183 0.229587
0.755856 0.516960 0.208469
0.811429 0.546227 0.247623
0.871611 0.607996 0.346319
0.409979 0.541222 0.400183
0.445258 0.557702 0.431800
0.535180 0.605310 0.519829
0.604303 0.652369 0.575921
0.542077 0.525963 0.413855
0.719326 0.592065 0.329137
0.836790 0.643763 0.284154
0.900847 0.656733 0.284092
0.545006 0.654994 0.529137
0.562524 0.662470 0.548791
0.607874 0.683772 0.601465
0.657954 0.719326 0.652552
0.676814 0.721675 0.646357
0.629816 0.622278 0.507378
0.769131 0.678431 0.456733
0.897612 0.728725 0.409735
0.638331 0.738247 0.635584
0.645472 0.741939 0.643824
0.669917 0.755581 0.672084
0.711971 0.781796 0.720882
0.751247 0.810544 0.756405
0.747555 0.790066 0.717830
0.703304 0.707576 0.608087
0.828611 0.760678 0.585534
0.707790 0.811154 0.716030
0.712123 0.812863 0.721126
0.731838 0.822080 0.744350
0.770321 0.842374 0.787930
0.803403 0.860624 0.819760
0.830533 0.876402 0.842222
0.820157 0.855161 0.798245
0.802365 0.807156 0.720577
0.036133 0.120211 0.246311
0.084657 0.118837 0.274327
0.288548 0.063966 0.334051
0.472114 0.168917 0.306249
0.450874 0.322484 0.338048
0.591577 0.381811 0.362402
0.700496 0.473030 0.409400
0.793973 0.583459 0.497719
0.106783 0.174960 0.262028
0.114290 0.167330 0.288243
0.299474 0.135256 0.348455
0.462715 0.232242 0.322148
0.447608 0.343297 0.350072
0.606073 0.391791 0.363165
0.705409 0.476448 0.405524
0.796963 0.583276 0.491676
0.143252 0.251499 0.271336
0.177249 0.267704 0.289525
0.294530 0.305303 0.366339
0.409216 0.363745 0.369421
0.554040 0.396277 0.369696
0.660945 0.452003 0.382177
0.740139 0.523156 0.424384
0.821012 0.607446 0.496529
0.214755 0.355993 0.295415
0.254948 0.378149 0.318517
0.386358 0.450050 0.404242
0.473823 0.469215 0.420020
0.659419 0.526513 0.388891
0.717433 0.534081 0.386206
0.776730 0.566949 0.408423
0.847471 0.629236 0.472755
0.390417 0.528954 0.402014
0.420905 0.542077 0.427344
0.510918 0.588617 0.508659
0.608850 0.655146 0.605066
0.564019 0.560632 0.484474
0.733120 0.628565 0.439338
0.822751 0.656031 0.425483
0.884672 0.671412 0.434333
0.536858 0.650752 0.531701
0.559411 0.662196 0.555901
0.603204 0.681788 0.604181
0.660304 0.719509 0.667201
0.694606 0.742397 0.686946
0.639033 0.640986 0.554376
0.780301 0.699825 0.517815
0.895445 0.742733 0.500175
0.629480 0.731624 0.631769
0.638117 0.736843 0.641566
0.665034 0.753262 0.672145
0.708705 0.780667 0.722499
0.755276 0.813291 0.768887
0.759762 0.803952 0.747829
0.708309 0.716701 0.630823
0.837766 0.770962 0.610864
0.704891 0.810452 0.717311
0.710445 0.813260 0.723720
0.727504 0.821347 0.743099
0.759884 0.837247 0.778958
0.801450 0.858824 0.821958
0.830838 0.876463 0.846189
0.824582 0.860533 0.812650
0.805661 0.812192 0.733455
0.000000 0.176974 0.384253
0.093233 0.176699 0.405402
0.280766 0.144533 0.467903
0.520226 0.153079 0.474586
0.618647 0.329351 0.447028
0.586511 0.424140 0.439429
0.632410 0.503777 0.486763
0.750362 0.611566 0.574517
0.125460 0.231540 0.393256
0.141390 0.225559 0.414160
0.294408 0.205814 0.474556
0.522362 0.221622 0.482979
0.609247 0.360632 0.452064
0.577844 0.440131 0.447517
0.642725 0.510796 0.490486
0.755337 0.613672 0.573816
0.224704 0.327153 0.382818
0.258915 0.343725 0.400855
0.329229 0.359686 0.471992
0.520592 0.369970 0.502708
0.575830 0.438605 0.467323
0.554925 0.475746 0.465736
0.671138 0.530175 0.497047
0.769833 0.616999 0.565606
0.265751 0.438453 0.421668
0.297337 0.447791 0.432410
0.394385 0.481025 0.470130
0.521752 0.522301 0.536309
0.567803 0.531060 0.511681
0.650080 0.544549 0.502403
0.720150 0.576196 0.513390
0.804135 0.637873 0.560937
0.364294 0.514397 0.431586
0.391943 0.526268 0.446815
0.469368 0.561059 0.493294
0.573968 0.621424 0.583154
0.593866 0.601312 0.551446
0.724758 0.644709 0.536553
0.782223 0.645777 0.523369
0.847776 0.675166 0.548089
0.496010 0.622278 0.504601
0.513085 0.629633 0.520531
0.562097 0.651179 0.568627
0.625635 0.687037 0.636378
0.689662 0.739101 0.701228
0.639612 0.650050 0.588830
0.794400 0.719478 0.575036
0.886534 0.744778 0.569512
0.610529 0.716518 0.618891
0.617731 0.719997 0.626673
0.642298 0.734127 0.653407
0.683894 0.760922 0.699794
0.738857 0.798001 0.760037
0.768856 0.815274 0.775875
0.707790 0.720211 0.648463
0.846403 0.777310 0.630640
0.687526 0.797910 0.703304
0.692073 0.799985 0.708370
0.708431 0.807950 0.726619
0.742153 0.826993 0.763760
0.783810 0.848447 0.807218
0.825925 0.872770 0.845762
0.828794 0.866239 0.829129
0.802762 0.811673 0.740749
0.150759 0.268345 0.517479
0.188785 0.268498 0.529992
0.323827 0.261204 0.572076
0.547631 0.220279 0.625666
0.656855 0.353277 0.587213
0.694820 0.473610 0.555871
0.684779 0.539849 0.553002
0.711421 0.638239 0.626581
0.200900 0.309239 0.514122
0.221866 0.306371 0.526177
0.331151 0.299779 0.565209
0.541253 0.264714 0.621088
0.651392 0.378668 0.586053
0.687739 0.484108 0.555230
0.678889 0.542748 0.552300
0.705684 0.638025 0.625086
0.317845 0.418830 0.507256
0.336095 0.426032 0.521599
0.379980 0.421485 0.563439
0.534447 0.413336 0.620783
0.647089 0.472358 0.600336
0.672267 0.529473 0.566247
0.663600 0.565576 0.563012
0.712123 0.645899 0.629572
0.364721 0.496803 0.513115
0.383978 0.501152 0.518242
0.447578 0.521355 0.540490
0.531609 0.555657 0.611933
0.644953 0.581628 0.628138
0.649866 0.588586 0.588586
0.642603 0.599115 0.583093
0.753872 0.664790 0.640070
0.408698 0.573785 0.536156
0.426703 0.578943 0.543114
0.480873 0.596246 0.566308
0.554498 0.623346 0.602747
0.629053 0.649287 0.643153
0.652644 0.637018 0.615076
0.713527 0.644526 0.609033
0.798184 0.683436 0.635554
0.484749 0.621698 0.541558
0.500938 0.628565 0.551873
0.543938 0.645106 0.579156
0.598718 0.669795 0.619379
0.663081 0.712825 0.684657
0.667964 0.687709 0.648280
0.798337 0.733669 0.647181
0.860166 0.735134 0.638239
0.588617 0.705257 0.609461
0.598077 0.708858 0.617731
0.623011 0.719814 0.641108
0.661433 0.744289 0.682399
0.714107 0.779355 0.739956
0.779477 0.826963 0.804257
0.715084 0.733272 0.680171
0.868070 0.794766 0.673457
0.671656 0.787839 0.693355
0.675776 0.789670 0.697780
0.691066 0.797147 0.714290
0.719936 0.812772 0.745541
0.760159 0.834440 0.787320
0.813352 0.863676 0.839719
0.840177 0.877897 0.855192
0.803586 0.815793 0.756954
0.290745 0.376959 0.617487
0.315587 0.379400 0.626184
0.394079 0.375677 0.648707
0.530510 0.361761 0.684840
0.667720 0.390692 0.703090
0.732662 0.499550 0.668849
0.761746 0.575769 0.647944
0.781094 0.642237 0.665095
0.305852 0.398474 0.610590
0.326574 0.400275 0.619013
0.396521 0.397772 0.642023
0.523735 0.385138 0.677485
0.660792 0.406104 0.697932
0.726162 0.504265 0.664179
0.753780 0.574334 0.641810
0.773709 0.638849 0.659358
0.395056 0.490791 0.603937
0.409918 0.495003 0.613336
0.429633 0.479683 0.636378
0.525383 0.477394 0.671931
0.655268 0.483619 0.701045
0.722469 0.553277 0.673884
0.747555 0.601434 0.650324
0.771389 0.653559 0.667201
0.436286 0.543206 0.584955
0.446235 0.544121 0.586755
0.483192 0.561120 0.613123
0.536461 0.573358 0.660517
0.648341 0.576410 0.710201
0.719905 0.616358 0.692134
0.736782 0.635950 0.661402
0.761318 0.671168 0.674464
0.464271 0.608545 0.604425
0.473152 0.609186 0.606134
0.505058 0.613855 0.614527
0.554650 0.624384 0.631128
0.615290 0.647089 0.685786
0.708003 0.664149 0.703487
0.710353 0.660761 0.662593
0.733303 0.691859 0.682399
0.510063 0.662593 0.621851
0.518730 0.664302 0.625147
0.546441 0.670405 0.636316
0.586572 0.682033 0.655879
0.631006 0.700313 0.683589
0.700832 0.726497 0.730892
0.712337 0.706966 0.691371
0.790768 0.728237 0.704585
0.573297 0.698390 0.632074
0.580682 0.701534 0.637049
0.601373 0.710323 0.651118
0.631922 0.726284 0.673884
0.672358 0.748714 0.705989
0.738033 0.791135 0.771176
0.739986 0.764370 0.733059
0.866117 0.799985 0.734310
0.647211 0.775998 0.686976
0.651087 0.777737 0.689937
0.666560 0.785916 0.702968
0.692470 0.796780 0.724819
0.731563 0.816739 0.764157
0.784329 0.846128 0.816190
0.844450 0.882475 0.870176
0.805234 0.822354 0.780453
0.432013 0.500969 0.700465
0.443854 0.501579 0.705440
0.480690 0.495979 0.718776
0.557122 0.488106 0.745449
0.671107 0.469886 0.781521
0.759548 0.525444 0.781247
0.811551 0.606256 0.754482
0.845274 0.663294 0.742977
0.436591 0.512016 0.695705
0.447456 0.512718 0.700649
0.482216 0.508598 0.714687
0.554009 0.500755 0.740810
0.665553 0.485023 0.777432
0.756161 0.533410 0.779751
0.808865 0.609491 0.753384
0.842802 0.664790 0.742000
0.481758 0.566491 0.685359
0.482795 0.562737 0.690181
0.493019 0.549462 0.704341
0.555474 0.550835 0.734310
0.654383 0.541070 0.771267
0.749538 0.567742 0.780606
0.806302 0.629023 0.757748
0.838926 0.676387 0.744594
0.496468 0.596521 0.661494
0.505089 0.600641 0.667659
0.530999 0.610529 0.686854
0.559197 0.607843 0.719966
0.637018 0.607935 0.760861
0.741421 0.617029 0.786923
0.804715 0.662196 0.768704
0.833799 0.696407 0.750790
0.521355 0.642084 0.664179
0.527642 0.643061 0.665949
0.543206 0.642054 0.668452
0.569116 0.645533 0.682643
0.614588 0.658747 0.737972
0.723598 0.663447 0.793881
0.799527 0.700862 0.782040
0.824521 0.720577 0.757595
0.552972 0.698329 0.687495
0.556207 0.697810 0.687770
0.568597 0.696986 0.690089
0.590509 0.697139 0.696345
0.621088 0.698451 0.707942
0.682612 0.723232 0.773281
0.791043 0.748318 0.800381
0.811154 0.751278 0.768032
0.596612 0.748135 0.712093
0.599451 0.748775 0.713405
0.609796 0.751614 0.718929
0.630060 0.758785 0.731258
0.657496 0.766873 0.746914
0.696315 0.776944 0.768002
0.769375 0.799130 0.817258
0.773617 0.779446 0.775601
0.639124 0.780636 0.719600
0.641444 0.781003 0.720607
0.651057 0.783719 0.726009
0.671931 0.792477 0.740139
0.702327 0.805386 0.761135
0.743130 0.823484 0.790158
0.801999 0.852720 0.837461
0.822141 0.846311 0.829465
