data/fiter_cube/25649002/1023273/file.cube
# Created by Adobe Lightroom plugin Export LUT (1.17.0)
# www.johnrellis.com/lightroom/exportlut.htm
# Preset: 高级电影质感情绪胶片_03 云集
# Color profile: C:\Program Files (x86)\Common Files\Adobe\Color\Profiles\Recommended\AdobeRGB1998.icc
LUT_3D_SIZE 5
DOMAIN_MIN 0.000000 0.000000 0.000000
DOMAIN_MAX 0.903226 0.903226 0.903226
0.068147 0.076265 0.088075
0.106264 0.086091 0.093019
0.271855 0.105318 0.096223
0.513420 0.138399 0.100069
0.699153 0.297826 0.142214
0.079194 0.098970 0.101228
0.101656 0.111666 0.109529
0.373907 0.160037 0.070283
0.564569 0.192569 0.072541
0.717983 0.334051 0.122469
0.144472 0.243503 0.165988
0.215091 0.300999 0.225254
0.296635 0.305791 0.212100
0.627131 0.395819 0.000000
0.770291 0.459846 0.000000
0.336400 0.500786 0.322850
0.402441 0.531151 0.380163
0.545312 0.612268 0.510430
0.536614 0.541009 0.397681
0.718807 0.577447 0.258091
0.551690 0.681849 0.527916
0.579858 0.691829 0.561425
0.650996 0.728328 0.646998
0.721523 0.782315 0.715969
0.694331 0.715023 0.609766
0.070436 0.086275 0.119692
0.121309 0.084962 0.135348
0.209140 0.144961 0.160830
0.457771 0.181582 0.175296
0.673610 0.316350 0.216922
0.080751 0.114229 0.125185
0.116976 0.137972 0.153536
0.299474 0.172427 0.161013
0.516350 0.215366 0.168460
0.694179 0.346960 0.207370
0.140810 0.238560 0.174899
0.206485 0.292821 0.233310
0.319982 0.336431 0.270054
0.630213 0.416205 0.146365
0.753811 0.464729 0.153017
0.328771 0.492378 0.328099
0.393561 0.522698 0.383368
0.541924 0.605554 0.520592
0.545373 0.555138 0.435431
0.724697 0.590875 0.305333
0.543542 0.677760 0.523308
0.572045 0.687526 0.556359
0.646815 0.725917 0.644770
0.722316 0.782681 0.721645
0.697353 0.719936 0.622248
0.023163 0.124727 0.253696
0.108492 0.121767 0.297276
0.385443 0.082490 0.328344
0.437781 0.238437 0.291234
0.566155 0.366186 0.359533
0.116152 0.184909 0.242130
0.139620 0.198825 0.294347
0.378485 0.190707 0.347570
0.415412 0.287999 0.313787
0.600549 0.386084 0.364141
0.136294 0.285405 0.268956
0.188174 0.312444 0.297520
0.360296 0.394232 0.388647
0.541650 0.418524 0.375402
0.689631 0.476661 0.376867
0.273716 0.454322 0.315831
0.334691 0.478889 0.359197
0.494911 0.566400 0.495521
0.570214 0.593988 0.528038
0.748592 0.631769 0.429908
0.513787 0.661433 0.508263
0.541314 0.671351 0.536156
0.617334 0.706020 0.618555
0.714717 0.774746 0.725643
0.703883 0.731106 0.651789
0.043122 0.220584 0.455879
0.139559 0.220951 0.480598
0.399390 0.177768 0.555932
0.612940 0.267033 0.534447
0.675105 0.438727 0.507256
0.180941 0.298253 0.445563
0.192782 0.287938 0.472450
0.387732 0.272892 0.546990
0.606378 0.331518 0.541772
0.665431 0.456214 0.508690
0.234897 0.387762 0.425696
0.277226 0.399451 0.438087
0.398413 0.450050 0.511620
0.585229 0.466468 0.559716
0.625483 0.496620 0.506767
0.300175 0.507988 0.456825
0.337407 0.517388 0.469978
0.440497 0.549187 0.513207
0.573907 0.610315 0.590997
0.689631 0.613062 0.562799
0.463935 0.641688 0.512078
0.487282 0.648615 0.525841
0.557153 0.670985 0.572747
0.667628 0.737057 0.685359
0.719326 0.754360 0.705257
0.306371 0.402045 0.637842
0.337316 0.399145 0.646937
0.454139 0.387121 0.677821
0.641718 0.363806 0.723232
0.739101 0.490486 0.686946
0.347051 0.449073 0.627192
0.350622 0.434119 0.637690
0.450935 0.426184 0.669917
0.633814 0.399786 0.721035
0.735744 0.509972 0.688777
0.382757 0.505791 0.582696
0.397498 0.510796 0.596368
0.451789 0.515862 0.643915
0.596460 0.508873 0.703365
0.731960 0.573632 0.702419
0.423468 0.600916 0.604059
0.435828 0.599329 0.604974
0.480079 0.597650 0.612787
0.571496 0.622705 0.668269
0.727413 0.655177 0.725307
0.496895 0.682612 0.630518
0.508415 0.684047 0.634119
0.548272 0.691249 0.648951
0.609277 0.708370 0.678279
0.717311 0.762570 0.753506
