data/fiter_cube/25649002/1023273/file.cube
# Created by Adobe Lightroom plugin Export LUT (1.17.0)
# www.johnrellis.com/lightroom/exportlut.htm
# Preset: 高级电影质感情绪胶片_03 云集
# Color profile: C:\Program Files (x86)\Common Files\Adobe\Color\Profiles\Recommended\AdobeRGB1998.icc
LUT_3D_SIZE 32
DOMAIN_MIN 0.0 0.0 0.0
DOMAIN_MAX 1.0 1.0 1.0
0.068147 0.076265 0.088075
0.069459 0.076417 0.088319
0.071229 0.076875 0.088258
0.075196 0.078004 0.088960
0.079896 0.079683 0.090089
0.086397 0.081575 0.091188
0.094881 0.083955 0.092134
0.106264 0.086091 0.093019
0.120638 0.088746 0.093629
0.138186 0.091402 0.094057
0.158877 0.094301 0.094728
0.182925 0.097444 0.095277
0.209659 0.100221 0.095674
0.239353 0.102998 0.096101
0.271855 0.105318 0.096223
0.306249 0.107057 0.096529
0.341466 0.108888 0.096468
0.377478 0.111055 0.096773
0.413092 0.114504 0.096986
0.447791 0.119905 0.097566
0.481117 0.127687 0.098543
0.513420 0.138399 0.100069
0.543908 0.152346 0.102113
0.572839 0.169619 0.104952
0.600397 0.189761 0.108705
0.626917 0.212985 0.113802
0.652461 0.239017 0.120699
0.676539 0.267308 0.129793
0.699153 0.297826 0.142214
0.720607 0.330571 0.158785
0.742428 0.366766 0.179873
0.765835 0.407111 0.207004
0.068421 0.076905 0.088319
0.069184 0.077150 0.088869
0.071504 0.077882 0.088167
0.076020 0.078614 0.088594
0.081086 0.080201 0.089479
0.087861 0.082002 0.090578
0.096498 0.084321 0.091798
0.107881 0.086702 0.092653
0.122499 0.089509 0.093263
0.140139 0.092348 0.093660
0.161074 0.095033 0.094301
0.184909 0.098085 0.094820
0.211948 0.101137 0.095186
0.241337 0.103670 0.095644
0.273716 0.106111 0.095705
0.308232 0.108095 0.095949
0.342931 0.109865 0.095949
0.378882 0.111940 0.095979
0.413825 0.115511 0.096254
0.447761 0.120760 0.097230
0.481025 0.128542 0.097963
0.513085 0.138857 0.099336
0.543511 0.152834 0.101167
0.572198 0.169680 0.104158
0.599695 0.189639 0.107973
0.626429 0.212650 0.112490
0.651972 0.238468 0.119142
0.676051 0.266850 0.128542
0.698665 0.297215 0.140963
0.720150 0.329900 0.157321
0.742061 0.365759 0.177829
0.765316 0.406043 0.205112
0.069001 0.077882 0.089082
0.069612 0.078462 0.089845
0.070527 0.078676 0.089815
0.076143 0.079988 0.088777
0.082948 0.081270 0.088808
0.089876 0.083345 0.089876
0.098878 0.085481 0.091096
0.110567 0.087709 0.091920
0.125277 0.090333 0.092561
0.142794 0.093355 0.093446
0.163821 0.096437 0.093782
0.188113 0.099397 0.094270
0.214755 0.102327 0.094881
0.244785 0.104860 0.094972
0.276951 0.107393 0.095277
0.311345 0.109163 0.095247
0.345922 0.111208 0.095430
0.381720 0.113375 0.095186
0.415808 0.116884 0.095796
0.449714 0.122194 0.095979
0.482490 0.129915 0.097322
0.514549 0.140536 0.098116
0.544518 0.153994 0.100343
0.572992 0.170962 0.103120
0.600336 0.190829 0.106996
0.626795 0.213596 0.111604
0.652247 0.239353 0.118318
0.676204 0.267430 0.127504
0.698939 0.297612 0.139559
0.720363 0.330144 0.155795
0.742092 0.365942 0.176822
0.765408 0.405921 0.203464
0.070405 0.080446 0.090791
0.071290 0.080934 0.092103
0.071931 0.081483 0.092592
0.073487 0.082246 0.092775
0.080537 0.083894 0.091157
0.092134 0.086458 0.089570
0.104585 0.088441 0.089601
0.116732 0.090913 0.090639
0.131899 0.093416 0.091493
0.149966 0.096468 0.092348
0.171206 0.099275 0.092897
0.195621 0.102235 0.093050
0.222782 0.105165 0.093538
0.252537 0.107942 0.093782
0.285191 0.110323 0.093935
0.319371 0.112245 0.093812
0.353094 0.114199 0.093721
0.387976 0.116609 0.093721
0.421546 0.120363 0.094026
0.454170 0.125673 0.094575
0.486336 0.133181 0.095186
0.517357 0.143771 0.096651
0.547082 0.157534 0.098329
0.575433 0.174350 0.101137
0.602533 0.194125 0.104829
0.628931 0.216983 0.109682
0.654292 0.242679 0.116457
0.678004 0.270573 0.125582
0.700374 0.300450 0.138033
0.721553 0.332372 0.153994
0.743130 0.367651 0.174594
0.766110 0.407080 0.201480
0.071901 0.083467 0.092988
0.072847 0.083955 0.093965
0.074128 0.084718 0.095186
0.075471 0.085756 0.095888
0.077455 0.086397 0.095521
0.085145 0.088411 0.093904
0.104036 0.093233 0.090883
0.122560 0.097322 0.089876
0.142428 0.099916 0.089662
0.161318 0.102602 0.090394
0.183017 0.105318 0.090822
0.207889 0.108034 0.091127
0.235416 0.110933 0.091463
0.265812 0.113588 0.091493
0.298192 0.115755 0.091493
0.331853 0.117617 0.091218
0.365454 0.119539 0.090944
0.399512 0.122133 0.090852
0.431708 0.126131 0.091157
0.463416 0.131777 0.091402
0.494270 0.139528 0.092103
0.524163 0.150179 0.093385
0.552850 0.163729 0.095155
0.580255 0.180636 0.098085
0.606928 0.200137 0.101625
0.632776 0.222782 0.106416
0.657343 0.247807 0.113130
0.680507 0.275029 0.122469
0.702388 0.304265 0.134859
0.723140 0.335607 0.151156
0.744564 0.370245 0.171572
0.767483 0.409094 0.197940
0.073732 0.086946 0.095033
0.074617 0.087739 0.096010
0.075868 0.088441 0.097200
0.077760 0.090486 0.099245
0.080079 0.091920 0.100069
0.082979 0.091829 0.099031
0.090822 0.093599 0.097230
0.115572 0.101564 0.093019
0.144900 0.109041 0.090028
0.172244 0.113313 0.088716
0.200992 0.116243 0.087373
0.226139 0.118379 0.087770
0.254276 0.120607 0.087892
0.284947 0.122652 0.087709
0.317449 0.124453 0.087160
0.350042 0.126131 0.086976
0.382757 0.128237 0.086793
0.415167 0.131197 0.086305
0.445991 0.135256 0.086610
0.476112 0.140993 0.086854
0.505699 0.149233 0.087800
0.534417 0.160159 0.088808
0.572747 0.181064 0.091981
0.598474 0.198489 0.095216
0.623438 0.218601 0.098787
0.647059 0.240970 0.104799
0.669581 0.265171 0.112306
0.690913 0.291386 0.122377
0.711116 0.319341 0.135744
0.730892 0.349523 0.152560
0.751827 0.383215 0.173465
0.774166 0.420783 0.200412
0.076234 0.091951 0.097932
0.077089 0.092988 0.098573
0.078126 0.093904 0.099977
0.080812 0.096529 0.102815
0.083803 0.099275 0.105104
0.087221 0.101411 0.105562
0.091005 0.100191 0.103517
0.098116 0.100221 0.101442
0.129397 0.111727 0.096254
0.171054 0.123659 0.090364
0.212100 0.132937 0.086458
0.246342 0.135561 0.084352
0.283238 0.137362 0.081727
0.313756 0.138094 0.081239
0.344976 0.138888 0.080812
0.375982 0.140047 0.080171
0.407660 0.142123 0.079652
0.438239 0.145052 0.079316
0.467109 0.149233 0.079561
0.495644 0.155489 0.080323
0.523980 0.164309 0.081025
0.551812 0.176242 0.082246
0.578332 0.190860 0.084993
0.604089 0.208316 0.087922
0.628962 0.228428 0.092378
0.652216 0.250340 0.098238
0.674006 0.273838 0.106142
0.694606 0.298833 0.116243
0.714168 0.325750 0.129854
0.733486 0.354742 0.146731
0.754086 0.387488 0.167422
0.776242 0.423957 0.193851
0.079194 0.098970 0.101228
0.080018 0.099641 0.102113
0.080934 0.101045 0.103426
0.084077 0.103853 0.106325
0.088746 0.108248 0.110964
0.093019 0.112520 0.113100
0.097475 0.114199 0.112856
0.101656 0.111666 0.109529
0.106355 0.108705 0.107027
0.143465 0.123354 0.100465
0.194614 0.139132 0.092439
0.247227 0.151827 0.085054
0.296422 0.159304 0.078889
0.335821 0.160098 0.075166
0.373907 0.160037 0.070283
0.403296 0.159762 0.069947
0.432593 0.161105 0.069032
0.460304 0.163272 0.068971
0.486610 0.166964 0.069520
0.512902 0.172885 0.070222
0.538994 0.181552 0.070832
0.564569 0.192569 0.072541
0.589563 0.206760 0.075044
0.613733 0.223239 0.078645
0.637049 0.242069 0.083040
0.659052 0.262974 0.089296
0.679622 0.284916 0.097627
0.699275 0.308568 0.108278
0.717983 0.334051 0.122469
0.736934 0.361913 0.139071
0.757259 0.393378 0.159884
0.779080 0.428443 0.186069
0.082918 0.108431 0.105745
0.083986 0.109468 0.106569
0.085481 0.110903 0.107973
0.088502 0.114290 0.111116
0.093843 0.119783 0.116793
0.100099 0.125643 0.121492
0.107332 0.132204 0.124941
0.112398 0.131991 0.122560
0.116060 0.127382 0.117617
0.116426 0.118807 0.114076
0.159213 0.136995 0.106538
0.216800 0.155886 0.096437
0.284001 0.173007 0.083680
0.346136 0.185550 0.071839
0.390143 0.188174 0.064393
0.427436 0.188052 0.057527
0.461433 0.188052 0.044984
0.486000 0.188754 0.045472
0.509575 0.191257 0.047272
0.533104 0.196292 0.048859
0.556695 0.204074 0.051789
0.579889 0.214084 0.056519
0.602869 0.227115 0.060487
0.625391 0.242466 0.064088
0.647028 0.260014 0.069520
0.667353 0.278843 0.076722
0.686641 0.299229 0.086061
0.704952 0.321050 0.098482
0.722805 0.344793 0.113039
0.741329 0.371099 0.130068
0.761196 0.401190 0.151064
0.782712 0.434607 0.176974
0.088533 0.121645 0.111543
0.089387 0.122744 0.112490
0.090974 0.124361 0.113985
0.094148 0.128084 0.117464
0.100221 0.134035 0.123415
0.109377 0.142519 0.132265
0.117159 0.149783 0.136049
0.127749 0.159426 0.141146
0.131777 0.154482 0.134920
0.134768 0.146670 0.127687
0.132387 0.134066 0.122255
0.175723 0.151858 0.114076
0.239567 0.173953 0.101900
0.317937 0.195102 0.084260
0.385870 0.210239 0.067292
0.444587 0.222416 0.036042
0.478004 0.222049 0.020722
0.508171 0.222202 0.004364
0.535271 0.223545 0.000000
0.555535 0.226383 0.000000
0.576196 0.232181 0.000549
0.597040 0.240909 0.006043
0.617700 0.251896 0.012299
0.637812 0.265110 0.024781
0.657435 0.280400 0.038941
0.676051 0.297154 0.057557
0.693935 0.315496 0.070436
0.711269 0.335546 0.084321
0.728359 0.357366 0.100343
0.746609 0.382452 0.118257
0.766140 0.410895 0.139803
0.787350 0.442756 0.166415
0.095308 0.138186 0.118685
0.096559 0.139467 0.119905
0.098207 0.141146 0.121462
0.101869 0.145266 0.125338
0.108309 0.151766 0.131594
0.118471 0.160830 0.141054
0.129549 0.171054 0.149630
0.140841 0.181796 0.155367
0.153872 0.191775 0.159976
0.156161 0.181918 0.149844
0.157412 0.170382 0.139925
0.151400 0.152407 0.132174
0.193179 0.168154 0.123293
0.264317 0.194217 0.109590
0.347021 0.217777 0.089326
0.422492 0.236454 0.063203
0.480781 0.251713 0.015290
0.522454 0.260472 0.000000
0.548363 0.260716 0.000000
0.573144 0.262699 0.000000
0.596490 0.266697 0.000000
0.615106 0.272923 0.000000
0.633631 0.281712 0.000000
0.651820 0.292546 0.000000
0.669306 0.305241 0.000000
0.686152 0.319341 0.000000
0.702419 0.335088 0.030335
0.718441 0.352544 0.063111
0.734829 0.372564 0.082826
0.752407 0.395605 0.103304
0.771603 0.422095 0.125856
0.792325 0.451972 0.153079
0.104097 0.158541 0.127596
0.105318 0.160037 0.129030
0.107362 0.162020 0.130922
0.111482 0.166140 0.134890
0.118624 0.173190 0.141604
0.129335 0.182864 0.151431
0.144381 0.195743 0.165103
0.156771 0.207523 0.171939
0.172519 0.221561 0.179873
0.185306 0.228000 0.181003
0.185641 0.213962 0.167544
0.184970 0.198459 0.154696
0.178195 0.177920 0.145785
0.217655 0.190433 0.135714
0.297978 0.220737 0.119722
0.383825 0.246738 0.097139
0.463478 0.269688 0.061341
0.519768 0.287449 0.000000
0.566278 0.305699 0.000000
0.592950 0.310033 0.000000
0.614740 0.312291 0.000000
0.635767 0.316350 0.000000
0.655177 0.321569 0.000000
0.670405 0.328893 0.000000
0.685237 0.337743 0.000000
0.699947 0.348852 0.000000
0.714199 0.361395 0.000000
0.728786 0.376165 0.006287
0.744411 0.393805 0.058961
0.761318 0.414466 0.085359
0.779690 0.438514 0.110780
0.799893 0.465827 0.139254
0.115816 0.184543 0.139284
0.117128 0.185916 0.140566
0.119234 0.188022 0.142519
0.124025 0.192569 0.146914
0.131594 0.199527 0.153994
0.142977 0.209476 0.164096
0.158724 0.222782 0.178012
0.176303 0.237430 0.191318
0.193088 0.252750 0.199802
0.214267 0.271244 0.210086
0.225162 0.271702 0.206210
0.224063 0.253971 0.189609
0.220645 0.233738 0.173159
0.203677 0.202121 0.158785
0.235966 0.208194 0.147585
0.320562 0.241611 0.131136
0.406226 0.269841 0.108278
0.483589 0.294499 0.073854
0.543450 0.316106 0.000000
0.587915 0.335760 0.000000
0.624720 0.353704 0.000000
0.644373 0.355505 0.000000
0.662989 0.358770 0.000000
0.680598 0.362890 0.000000
0.696864 0.368200 0.000000
0.709987 0.375830 0.000000
0.723110 0.385412 0.000000
0.736995 0.397742 0.000000
0.751949 0.412970 0.000000
0.768368 0.431373 0.040406
0.786191 0.452918 0.085328
0.805997 0.477974 0.117586
0.128939 0.212345 0.151675
0.130556 0.213870 0.153231
0.132753 0.215824 0.155123
0.137667 0.220432 0.159670
0.145907 0.227695 0.166995
0.157900 0.238010 0.177554
0.174411 0.251347 0.191623
0.196109 0.268528 0.209751
0.215213 0.285283 0.220920
0.237858 0.304936 0.232334
0.265324 0.327276 0.246128
0.269749 0.317540 0.233494
0.265171 0.294865 0.212345
0.257389 0.269078 0.191806
0.234440 0.230900 0.174105
0.254459 0.226383 0.160586
0.341680 0.262058 0.144015
0.426215 0.292393 0.121248
0.501579 0.319097 0.089448
0.564721 0.344640 0.003998
0.608057 0.365942 0.000000
0.645502 0.386969 0.000000
0.670649 0.397833 0.000000
0.687160 0.399908 0.000000
0.702907 0.402899 0.000000
0.718013 0.406806 0.000000
0.732845 0.412665 0.000000
0.746090 0.422248 0.000000
0.760555 0.435004 0.000000
0.776333 0.450721 0.000000
0.793698 0.469795 0.020325
0.812924 0.492317 0.087312
0.144472 0.243503 0.165988
0.146517 0.244999 0.167605
0.148928 0.247227 0.169711
0.154330 0.251926 0.174197
0.163027 0.259312 0.181857
0.175418 0.269841 0.192538
0.192660 0.283787 0.206790
0.215091 0.300999 0.225254
0.240757 0.320348 0.244419
0.263584 0.339117 0.256565
0.290410 0.360296 0.271031
0.321447 0.383734 0.287785
0.315465 0.362066 0.263005
0.307713 0.335943 0.237308
0.296635 0.305791 0.212100
0.267887 0.261448 0.190311
0.272953 0.244388 0.173922
0.361212 0.282322 0.157809
0.445228 0.314977 0.136049
0.518883 0.344396 0.106874
0.580194 0.371710 0.059236
0.627131 0.395819 0.000000
0.662196 0.416327 0.000000
0.691859 0.434791 0.000000
0.708553 0.438270 0.000000
0.723049 0.440406 0.000000
0.738064 0.444617 0.000000
0.753933 0.450904 0.000000
0.770291 0.459846 0.000000
0.785672 0.473213 0.000000
0.802579 0.489754 0.000000
0.821408 0.509728 0.009827
0.163210 0.278538 0.182193
0.165103 0.280400 0.183780
0.168093 0.282750 0.186069
0.173678 0.287785 0.190951
0.183169 0.295506 0.198764
0.196475 0.306218 0.209964
0.214450 0.319738 0.224582
0.237552 0.336126 0.243412
0.266606 0.355474 0.267185
0.291875 0.373968 0.283665
0.317510 0.393622 0.297887
0.346410 0.415045 0.314122
0.369238 0.428626 0.322942
0.359442 0.403479 0.293858
0.348333 0.374426 0.263188
0.334295 0.341192 0.233188
0.302586 0.292943 0.207675
0.290257 0.261845 0.187747
0.379675 0.302464 0.172580
0.463630 0.338048 0.152346
0.536126 0.370123 0.125490
0.595972 0.399329 0.086549
0.645350 0.425360 0.000000
0.678309 0.444923 0.000000
0.706142 0.462104 0.000000
0.729030 0.475288 0.000000
0.743771 0.477943 0.000000
0.759213 0.482826 0.000000
0.775601 0.489784 0.000000
0.793271 0.499031 0.000000
0.811704 0.511040 0.000000
0.829831 0.527977 0.000000
0.184756 0.316228 0.200046
0.186770 0.317784 0.201663
0.189303 0.319829 0.203922
0.195651 0.324651 0.209018
0.205417 0.332036 0.217105
0.219028 0.341741 0.228214
0.237247 0.354284 0.243168
0.260655 0.369482 0.262272
0.288792 0.386877 0.285435
0.319219 0.405921 0.309606
0.343420 0.424079 0.323613
0.370001 0.443519 0.339147
0.398474 0.463935 0.356115
0.411536 0.466987 0.354925
0.400061 0.441169 0.323919
0.386816 0.410834 0.290593
0.370886 0.376043 0.256535
0.337133 0.324865 0.226352
0.313939 0.284031 0.202640
0.398413 0.323003 0.188235
0.481788 0.361334 0.169558
0.552148 0.395544 0.145449
0.610468 0.426062 0.112978
0.658076 0.451850 0.060700
0.692622 0.471077 0.000000
0.719234 0.487434 0.000000
0.744717 0.504173 0.000000
0.764340 0.514122 0.000000
0.780331 0.519677 0.000000
0.797482 0.527428 0.000000
0.816098 0.537407 0.000000
0.836606 0.549828 0.000000
0.208530 0.353918 0.219577
0.210849 0.355535 0.221439
0.218418 0.364324 0.227726
0.225193 0.368811 0.233097
0.235569 0.375525 0.241642
0.249882 0.384283 0.253208
0.268589 0.395544 0.268650
0.291844 0.409155 0.287877
0.318853 0.424567 0.310338
0.349889 0.442329 0.336248
0.375982 0.459541 0.354955
0.400366 0.476905 0.369696
0.425788 0.494881 0.385657
0.452094 0.513176 0.402564
0.454627 0.505943 0.390295
0.442054 0.480110 0.357488
0.427619 0.449500 0.321965
0.410224 0.413886 0.284703
0.375463 0.361212 0.249638
0.349157 0.315923 0.221225
0.419867 0.346380 0.206241
0.502129 0.387335 0.189639
0.570001 0.423163 0.168185
0.626337 0.454383 0.141024
0.671443 0.478737 0.103944
0.706996 0.497017 0.031067
0.733333 0.513298 0.000000
0.759182 0.530602 0.000000
0.784665 0.548547 0.000000
0.802090 0.555840 0.000000
0.820157 0.564355 0.000000
0.840055 0.575158 0.000000
0.237308 0.393133 0.242618
0.240146 0.395422 0.245060
0.244053 0.398260 0.248173
0.251347 0.403021 0.254154
0.262425 0.409613 0.263218
0.277165 0.418067 0.275395
0.295506 0.428290 0.290532
0.317449 0.440284 0.308812
0.342992 0.454292 0.330205
0.371344 0.469886 0.354467
0.401373 0.486732 0.379980
0.423407 0.502251 0.394171
0.446632 0.518425 0.409339
0.470069 0.534874 0.425330
0.493416 0.551415 0.441901
0.487770 0.536004 0.419348
0.475257 0.510948 0.385931
0.460853 0.481270 0.349126
0.443336 0.446082 0.310460
0.409216 0.394018 0.272618
0.381201 0.346166 0.239811
0.438178 0.367620 0.223911
0.518944 0.410681 0.209598
0.585138 0.448157 0.191714
0.639612 0.479286 0.168765
0.682795 0.502983 0.140597
0.718227 0.521019 0.100771
0.747524 0.538506 0.073610
0.774228 0.556756 0.062013
0.800595 0.575494 0.047913
0.824491 0.591241 0.043305
0.843809 0.600702 0.063752
0.267399 0.429236 0.266880
0.270237 0.431250 0.269352
0.274174 0.433722 0.272435
0.281254 0.437903 0.278294
0.292210 0.443885 0.287297
0.306157 0.451423 0.299016
0.323888 0.460578 0.313664
0.344518 0.471321 0.331029
0.368170 0.483528 0.351293
0.394659 0.497353 0.374395
0.422980 0.512413 0.399725
0.447181 0.527153 0.419196
0.467903 0.541680 0.433539
0.489021 0.556664 0.448615
0.509941 0.571618 0.464118
0.529107 0.584802 0.477607
0.518120 0.564111 0.447791
0.506035 0.540002 0.414374
0.492409 0.511894 0.377539
0.475563 0.478309 0.337865
0.442695 0.427466 0.297917
0.413703 0.378241 0.261418
0.456580 0.389319 0.243259
0.535454 0.434485 0.231815
0.600061 0.472847 0.216953
0.652430 0.503716 0.198825
0.693874 0.526665 0.176547
0.729427 0.545495 0.147280
0.762631 0.564019 0.111757
0.790249 0.583337 0.110811
0.817655 0.602777 0.112062
0.845060 0.622339 0.118196
0.299443 0.464210 0.292729
0.302464 0.465949 0.295293
0.306310 0.468391 0.298405
0.313237 0.472084 0.304112
0.323552 0.477363 0.312932
0.337133 0.484108 0.324193
0.353002 0.491859 0.337804
0.372259 0.501122 0.354376
0.394293 0.511925 0.373693
0.418433 0.523919 0.395331
0.444160 0.537011 0.418952
0.470497 0.551263 0.444221
0.488869 0.564202 0.457618
0.507744 0.577752 0.471687
0.526726 0.591485 0.486275
0.545617 0.605127 0.501396
0.556603 0.610285 0.505364
0.546807 0.591302 0.476631
0.535698 0.568719 0.444068
0.523095 0.542351 0.407691
0.507652 0.510948 0.367926
0.477455 0.463020 0.326604
0.448280 0.413214 0.287175
0.477638 0.414252 0.265934
0.554467 0.461219 0.258152
0.617334 0.500298 0.247288
0.667018 0.530297 0.234257
0.706752 0.552880 0.217929
0.743465 0.573419 0.195590
0.779324 0.593225 0.163516
0.809720 0.613245 0.157137
0.838224 0.633417 0.166384
0.336400 0.500786 0.322850
0.338872 0.502129 0.324926
0.341802 0.503593 0.327428
0.348089 0.506493 0.332708
0.357397 0.510796 0.340734
0.369543 0.516197 0.351202
0.384741 0.523064 0.364477
0.402441 0.531151 0.380163
0.422370 0.540520 0.398352
0.444556 0.551263 0.418921
0.467567 0.562890 0.441138
0.491341 0.575647 0.464881
0.511681 0.588190 0.483803
0.528496 0.600275 0.496864
0.545312 0.612268 0.510430
0.561975 0.624048 0.524529
0.578302 0.635737 0.538964
0.582300 0.634089 0.533684
0.573541 0.617060 0.505760
0.563439 0.596216 0.473854
0.551568 0.571221 0.437873
0.536614 0.541009 0.397681
0.508568 0.495827 0.355200
0.479805 0.446296 0.312902
0.496254 0.437049 0.288365
0.571069 0.485237 0.283726
0.631891 0.524254 0.276982
0.679408 0.553918 0.268956
0.718807 0.577447 0.258091
0.756924 0.599878 0.241947
0.794400 0.621424 0.219242
0.828824 0.641230 0.199893
0.370428 0.532097 0.351141
0.372686 0.533165 0.353124
0.375555 0.534630 0.355627
0.381323 0.537072 0.360632
0.389868 0.540673 0.368170
0.401038 0.545495 0.378180
0.414618 0.551293 0.390509
0.430518 0.558282 0.405188
0.448432 0.566430 0.422156
0.468055 0.575799 0.441199
0.488716 0.586175 0.461921
0.509911 0.597375 0.483833
0.531395 0.609094 0.506645
0.546807 0.619715 0.519829
0.561791 0.630243 0.532677
0.576745 0.640742 0.545922
0.591394 0.651087 0.559503
0.605615 0.661311 0.573114
0.604273 0.654627 0.559930
0.596460 0.639185 0.532921
0.587671 0.620386 0.501946
0.577478 0.597955 0.467170
0.563928 0.569848 0.427863
0.538048 0.527520 0.385016
0.509087 0.478340 0.339422
0.514061 0.459663 0.310918
0.587549 0.508782 0.310002
0.646082 0.547662 0.308049
0.691402 0.576867 0.304936
0.731960 0.602472 0.299290
0.771847 0.627222 0.289799
0.810330 0.649470 0.273686
0.406958 0.563653 0.382544
0.409155 0.564691 0.384405
0.411444 0.565667 0.386603
0.416663 0.567834 0.391363
0.424201 0.570855 0.398322
0.433845 0.574762 0.407355
0.445899 0.579736 0.418769
0.459571 0.585626 0.432227
0.475319 0.592615 0.447822
0.492378 0.600610 0.465217
0.510369 0.609308 0.484077
0.529076 0.618616 0.504112
0.548119 0.628443 0.525200
0.564904 0.638209 0.542962
0.578027 0.647211 0.554711
0.590936 0.656184 0.566644
0.603845 0.665187 0.578759
0.616449 0.674220 0.590906
0.629145 0.683680 0.603082
0.623316 0.672541 0.583581
0.616327 0.658534 0.558312
0.608759 0.641871 0.528679
0.599908 0.621515 0.494942
0.588098 0.595880 0.456458
0.564630 0.556481 0.413977
0.537926 0.510552 0.368292
0.533593 0.484108 0.335912
0.605341 0.533776 0.339269
0.660975 0.571923 0.342046
0.705257 0.601740 0.344366
0.747311 0.629450 0.343755
0.788296 0.655299 0.339208
0.438911 0.590661 0.411109
0.440681 0.591577 0.412848
0.443091 0.592645 0.415106
0.447395 0.594354 0.419257
0.454078 0.597009 0.425788
0.462776 0.600549 0.434424
0.473304 0.604852 0.445014
0.485664 0.610010 0.457588
0.499428 0.615991 0.472023
0.514702 0.622797 0.488258
0.530846 0.630243 0.505821
0.547662 0.638300 0.524681
0.564904 0.646845 0.544549
0.582116 0.655665 0.564935
0.594476 0.663783 0.577203
0.605921 0.671809 0.587976
0.617395 0.680049 0.598840
0.629053 0.688808 0.609796
0.640803 0.697993 0.620661
0.649744 0.704097 0.626947
0.642847 0.691585 0.607385
0.635737 0.677760 0.584131
0.628748 0.662470 0.556542
0.621332 0.644373 0.524041
0.611353 0.621393 0.486824
0.591333 0.586236 0.445686
0.566644 0.543023 0.399664
0.557183 0.512596 0.364874
0.624475 0.560418 0.372198
0.677058 0.598016 0.380865
0.721614 0.628992 0.387488
0.765347 0.658717 0.391913
0.469856 0.616693 0.440528
0.471382 0.617365 0.442145
0.473274 0.618128 0.444038
0.476936 0.619501 0.447852
0.482673 0.621698 0.453773
0.490181 0.624506 0.461585
0.499397 0.628046 0.471321
0.510155 0.632380 0.482918
0.522454 0.637415 0.496284
0.535912 0.643122 0.511192
0.550347 0.649500 0.527611
0.565515 0.656428 0.545251
0.581079 0.663813 0.563806
0.596399 0.671504 0.582422
0.609918 0.679438 0.598169
0.620294 0.687037 0.607782
0.630823 0.695033 0.617487
0.641474 0.703456 0.627161
0.652338 0.712215 0.636927
0.663478 0.721279 0.646601
0.668025 0.722530 0.646265
0.661463 0.710262 0.628595
0.654383 0.696712 0.607599
0.647211 0.681666 0.582483
0.640253 0.665034 0.552361
0.632166 0.644862 0.516960
0.615442 0.613764 0.477607
0.594171 0.574731 0.432502
0.588342 0.549279 0.400366
0.643030 0.586786 0.407294
0.692866 0.623499 0.420203
0.739712 0.657374 0.432166
0.497810 0.639643 0.468879
0.499214 0.640253 0.470314
0.500877 0.640864 0.472145
0.504051 0.642054 0.475593
0.509239 0.643915 0.481239
0.516045 0.646448 0.488655
0.524468 0.649683 0.497993
0.534508 0.653620 0.509239
0.545861 0.658228 0.522148
0.558160 0.663416 0.536431
0.571496 0.669093 0.552300
0.585260 0.675257 0.568902
0.599207 0.682094 0.585840
0.613214 0.689662 0.602869
0.626978 0.697932 0.619593
0.637354 0.705562 0.629847
0.646967 0.713313 0.638422
0.656794 0.721401 0.646998
0.667048 0.729763 0.656001
0.677577 0.738338 0.665309
0.688380 0.747036 0.674952
0.688930 0.743771 0.668849
0.682582 0.731899 0.651514
0.675807 0.718715 0.632593
0.668605 0.704250 0.610498
0.661372 0.688167 0.583795
0.653651 0.669551 0.551659
0.640284 0.642878 0.514672
0.623560 0.609522 0.472328
0.620325 0.588006 0.442390
0.663874 0.616785 0.449775
0.714382 0.655482 0.468330
0.527184 0.662867 0.500328
0.528222 0.663264 0.501549
0.529473 0.663691 0.502953
0.532372 0.664607 0.506218
0.536767 0.666102 0.511254
0.542626 0.668086 0.517967
0.549920 0.670649 0.526390
0.558526 0.673793 0.536492
0.568292 0.677455 0.548089
0.579095 0.681758 0.561089
0.590631 0.686793 0.575036
0.602655 0.692561 0.589654
0.614923 0.699001 0.604547
0.627405 0.706142 0.619654
