data/fiter_cube/25649002/1023273/file.cube
# Created by Adobe Lightroom plugin Export LUT (1.17.0)
# www.johnrellis.com/lightroom/exportlut.htm
# Preset: 高级电影质感情绪胶片_03 云集
# Color profile: C:\Program Files (x86)\Common Files\Adobe\Color\Profiles\Recommended\AdobeRGB1998.icc
LUT_3D_SIZE 8
DOMAIN_MIN 0.000000 0.000000 0.000000
DOMAIN_MAX 0.903226 0.903226 0.903226
0.068147 0.076265 0.088075
0.079896 0.079683 0.090089
0.120638 0.088746 0.093629
0.209659 0.100221 0.095674
0.341466 0.108888 0.096468
0.481117 0.127687 0.098543
0.600397 0.189761 0.108705
0.699153 0.297826 0.142214
0.071901 0.083467 0.092988
0.077455 0.086397 0.095521
0.142428 0.099916 0.089662
0.235416 0.110933 0.091463
0.365454 0.119539 0.090944
0.494270 0.139528 0.092103
0.606928 0.200137 0.101625
0.702388 0.304265 0.134859
0.082918 0.108431 0.105745
0.093843 0.119783 0.116793
0.116060 0.127382 0.117617
0.284001 0.173007 0.083680
0.461433 0.188052 0.044984
0.556695 0.204074 0.051789
0.647028 0.260014 0.069520
0.722805 0.344793 0.113039
0.115816 0.184543 0.139284
0.131594 0.199527 0.153994
0.193088 0.252750 0.199802
0.220645 0.233738 0.173159
0.406226 0.269841 0.108278
0.624720 0.353704 0.000000
0.696864 0.368200 0.000000
0.751949 0.412970 0.000000
0.184756 0.316228 0.200046
0.205417 0.332036 0.217105
0.288792 0.386877 0.285435
0.398474 0.463935 0.356115
0.370886 0.376043 0.256535
0.481788 0.361334 0.169558
0.692622 0.471077 0.000000
0.780331 0.519677 0.000000
0.299443 0.464210 0.292729
0.323552 0.477363 0.312932
0.394293 0.511925 0.373693
0.488869 0.564202 0.457618
0.556603 0.610285 0.505364
0.507652 0.510948 0.367926
0.554467 0.461219 0.258152
0.743465 0.573419 0.195590
0.438911 0.590661 0.411109
0.454078 0.597009 0.425788
0.499428 0.615991 0.472023
0.564904 0.646845 0.544549
0.617395 0.680049 0.598840
0.642847 0.691585 0.607385
0.611353 0.621393 0.486824
0.624475 0.560418 0.372198
0.551690 0.681849 0.527916
0.560327 0.684688 0.538079
0.588586 0.695430 0.572015
0.630579 0.716609 0.622797
0.673152 0.744137 0.671504
0.711299 0.774472 0.706508
0.720333 0.769741 0.692561
0.694331 0.715023 0.609766
0.070466 0.080446 0.098573
0.081727 0.080293 0.101076
0.106538 0.096529 0.110780
0.192020 0.110933 0.117037
0.320470 0.124178 0.120760
0.458595 0.142611 0.124819
0.583917 0.196567 0.135134
0.689113 0.300084 0.166110
0.072602 0.086946 0.099092
0.080446 0.091920 0.105928
0.125521 0.102571 0.110048
0.216220 0.118257 0.113771
0.345953 0.132235 0.116548
0.475105 0.152529 0.120302
0.592309 0.206424 0.129885
0.692531 0.306004 0.159701
0.084047 0.110536 0.109560
0.095949 0.123049 0.123110
0.123903 0.139101 0.135134
0.288792 0.178378 0.102419
0.437263 0.186313 0.092775
0.538231 0.205722 0.098116
0.631525 0.258579 0.109682
0.713313 0.344121 0.143008
0.116518 0.184756 0.144198
0.133059 0.200229 0.160250
0.196719 0.253605 0.213199
0.226474 0.242435 0.190494
0.408850 0.275029 0.126314
0.609796 0.342473 0.007996
0.684779 0.361730 0.000000
0.743252 0.410163 0.089296
0.186099 0.315648 0.206241
0.205264 0.329931 0.222202
0.283482 0.381292 0.286229
0.393561 0.456794 0.361303
0.372656 0.380041 0.271092
0.485725 0.367987 0.184115
0.690883 0.473548 0.074861
0.775479 0.516869 0.000000
0.296818 0.459480 0.294896
0.317449 0.469886 0.311864
0.386175 0.504234 0.370245
0.484169 0.558007 0.458106
0.558587 0.612055 0.514885
0.509667 0.514733 0.379919
0.558343 0.467659 0.270573
0.743679 0.575738 0.212589
0.432654 0.585260 0.408087
0.446387 0.590478 0.421241
0.492531 0.610285 0.467170
0.559411 0.642451 0.539849
0.615412 0.677546 0.598901
0.643336 0.692317 0.611963
0.610437 0.621515 0.491585
0.624659 0.561425 0.376654
0.547417 0.679225 0.524346
0.556390 0.682246 0.534874
0.585138 0.693080 0.569055
0.627680 0.714290 0.620233
0.674189 0.744930 0.674189
0.711788 0.774777 0.708553
0.721340 0.770962 0.696010
0.693965 0.715114 0.611902
0.069642 0.089143 0.131594
0.078492 0.087892 0.142519
0.144869 0.086305 0.154086
0.190311 0.125307 0.156527
0.256229 0.166110 0.182101
0.406592 0.188449 0.193179
0.547906 0.231571 0.206699
0.667353 0.325994 0.239536
0.080720 0.104494 0.131441
0.084565 0.107057 0.144930
0.142641 0.104829 0.160647
0.183963 0.145083 0.167941
0.280766 0.172030 0.184054
0.424506 0.194186 0.192203
0.558526 0.238926 0.204166
0.672663 0.332158 0.235996
0.084596 0.129519 0.138827
0.095460 0.137728 0.148135
0.138308 0.164004 0.178500
0.243931 0.185855 0.183871
0.374090 0.205264 0.185275
0.492866 0.230106 0.188785
0.600061 0.279210 0.198703
0.693751 0.363195 0.227451
0.110048 0.182895 0.150179
0.126925 0.196170 0.165286
0.189212 0.248264 0.223239
0.259373 0.283421 0.252232
0.456123 0.316899 0.189151
0.590356 0.342748 0.170565
0.662104 0.370672 0.180270
0.726925 0.423926 0.208255
0.175418 0.304295 0.208774
0.195834 0.320256 0.226596
0.272007 0.371466 0.290227
0.392889 0.450050 0.384771
0.398901 0.412909 0.331640
0.517967 0.408270 0.242527
0.695430 0.495735 0.193393
0.766903 0.519127 0.181888
0.285740 0.449470 0.297002
0.307805 0.460639 0.315251
0.375433 0.494850 0.371923
0.473243 0.547478 0.458869
0.556817 0.608362 0.529229
0.520012 0.530785 0.421118
0.576104 0.493965 0.315435
0.750881 0.591302 0.272190
0.424079 0.579278 0.408942
0.438666 0.584894 0.422400
0.483772 0.604120 0.465858
0.549645 0.635767 0.534539
0.612604 0.673121 0.603449
0.651087 0.700954 0.633143
0.615961 0.631159 0.518700
0.637110 0.579431 0.408453
0.539025 0.675166 0.519921
0.546960 0.677699 0.528710
0.576074 0.688045 0.562341
0.620478 0.709468 0.614771
0.669276 0.740688 0.671870
0.711055 0.773617 0.712428
0.726833 0.777371 0.710353
0.697078 0.720089 0.624353
0.053529 0.108370 0.204074
0.067903 0.108675 0.217227
0.147829 0.095918 0.263340
0.293217 0.083040 0.262455
0.363928 0.151369 0.239689
0.346258 0.229435 0.255650
0.456580 0.272831 0.282506
0.612085 0.350591 0.322026
0.084230 0.136324 0.207645
0.083162 0.132479 0.220706
0.143740 0.123293 0.263310
0.291905 0.115877 0.269413
0.357366 0.174746 0.246494
0.338872 0.242802 0.263157
0.471901 0.279301 0.285100
0.620172 0.355962 0.321233
0.102388 0.171969 0.205020
0.116030 0.179049 0.213504
0.158358 0.202640 0.255894
0.285100 0.198550 0.291234
0.334844 0.241855 0.272313
0.388037 0.277348 0.286229
0.529259 0.313176 0.298039
0.650568 0.385595 0.324834
0.112947 0.223911 0.218570
0.127169 0.232700 0.227787
0.178805 0.262181 0.259556
0.278599 0.313603 0.316991
0.406104 0.333837 0.316808
0.510491 0.349615 0.308751
0.605493 0.381994 0.307958
0.691493 0.439033 0.325261
0.159304 0.297398 0.228183
0.175692 0.308690 0.239231
0.236790 0.346746 0.279973
0.358953 0.421302 0.376287
0.434607 0.458534 0.413977
0.564721 0.470283 0.341558
0.680293 0.506188 0.324315
0.740658 0.522881 0.322698
0.261631 0.429328 0.293797
0.283360 0.441779 0.311254
0.348638 0.475624 0.363958
0.446632 0.528740 0.446662
0.545769 0.594629 0.537072
0.538903 0.558434 0.482033
0.607965 0.537774 0.387945
0.758328 0.615656 0.371405
0.400793 0.564263 0.401740
0.416083 0.570520 0.414893
0.463142 0.590997 0.457191
0.530510 0.623926 0.522698
0.603388 0.664179 0.602380
0.658137 0.708888 0.655238
0.623255 0.644617 0.557458
0.655726 0.605280 0.454841
0.526452 0.668605 0.515557
0.534783 0.671473 0.524254
0.561334 0.680964 0.552667
0.604517 0.699947 0.601038
0.656001 0.731228 0.660182
0.707485 0.769650 0.715541
0.736660 0.788357 0.733730
0.702022 0.727749 0.642573
0.000000 0.145296 0.309422
0.026398 0.146059 0.321477
0.131868 0.141421 0.361608
0.320043 0.077638 0.422889
0.466529 0.110231 0.391760
0.534234 0.217746 0.359350
0.516320 0.298405 0.347692
0.519036 0.382086 0.387549
0.078828 0.176761 0.311681
0.073823 0.170352 0.323522
0.138338 0.166720 0.361547
0.317021 0.119661 0.426215
0.464027 0.149111 0.396307
0.529290 0.240452 0.364141
0.510887 0.308782 0.351324
0.511955 0.385901 0.388891
0.136080 0.222019 0.289555
0.146304 0.231052 0.305089
0.174166 0.242222 0.353979
0.289342 0.228733 0.415839
0.454932 0.244511 0.411841
0.510033 0.302525 0.377722
0.487831 0.345190 0.365972
0.552880 0.402472 0.397101
0.144015 0.282841 0.308293
0.159731 0.289128 0.315251
0.214237 0.311070 0.339544
0.304753 0.352575 0.393774
0.442542 0.361486 0.437201
0.476326 0.382300 0.400946
0.486000 0.393927 0.391333
0.619196 0.439094 0.407935
0.169680 0.350896 0.322484
0.186313 0.357977 0.330175
0.242557 0.380743 0.355840
0.331304 0.417914 0.398260
0.433082 0.465827 0.452766
0.528679 0.477455 0.446693
0.610529 0.485145 0.428717
0.688167 0.512810 0.427131
0.239017 0.419043 0.327337
0.255253 0.426642 0.336584
0.308568 0.451362 0.367010
0.390387 0.491035 0.416510
0.498421 0.553216 0.504479
0.558221 0.586755 0.542138
0.646876 0.586572 0.473487
0.752529 0.623651 0.463752
0.358312 0.541375 0.387854
0.373358 0.545312 0.397803
0.420844 0.562554 0.433570
0.490242 0.596704 0.494514
0.569360 0.640558 0.571923
0.643000 0.692409 0.650172
0.631189 0.659297 0.598138
0.680903 0.636927 0.509972
0.499611 0.653651 0.500786
0.507836 0.656458 0.508568
0.534936 0.666255 0.535027
0.578882 0.684718 0.580316
0.630579 0.713375 0.636316
0.694179 0.757259 0.708553
0.748684 0.801205 0.760922
0.707271 0.736355 0.664149
0.000000 0.203098 0.428107
0.060883 0.203799 0.436530
0.151125 0.202243 0.464454
0.299596 0.181643 0.510643
0.492744 0.134829 0.544396
0.589288 0.233463 0.508721
0.653620 0.344823 0.491096
0.652918 0.424598 0.477485
0.096681 0.230930 0.425818
0.096284 0.225040 0.433997
0.162448 0.223697 0.461158
0.297215 0.208194 0.506645
0.489204 0.171450 0.544518
0.586419 0.256504 0.510796
0.649989 0.357855 0.492531
0.649470 0.429511 0.477852
0.177401 0.292363 0.410773
0.189120 0.297215 0.421393
0.209934 0.294041 0.453620
0.301061 0.289616 0.498726
0.482643 0.267643 0.550469
0.580438 0.327703 0.520775
0.639368 0.400244 0.499275
0.637751 0.446845 0.480049
0.208957 0.339605 0.395819
0.222873 0.343877 0.400122
0.269535 0.359472 0.416236
0.338231 0.395880 0.481971
0.454841 0.393439 0.542840
0.572473 0.421057 0.538109
0.620386 0.456611 0.508293
0.612665 0.470710 0.481544
0.227848 0.415442 0.418860
0.242405 0.419440 0.423285
0.289555 0.432898 0.438270
0.360998 0.454688 0.463416
0.446845 0.490120 0.510521
0.558740 0.506279 0.554559
0.582177 0.504173 0.510246
0.576471 0.500359 0.487434
0.270298 0.477089 0.429206
0.284154 0.481453 0.434577
0.326909 0.494209 0.451026
0.391638 0.515129 0.478248
0.466499 0.543450 0.514580
0.549920 0.585290 0.565820
0.621393 0.589044 0.554589
0.689479 0.593194 0.536034
0.346929 0.537133 0.438025
0.359197 0.541650 0.444282
0.396948 0.555322 0.463905
0.453559 0.578088 0.495644
0.519432 0.609003 0.537865
0.605768 0.659266 0.618463
0.645869 0.681300 0.645686
0.722744 0.683070 0.585595
0.467048 0.643091 0.501823
0.474006 0.644984 0.506035
0.497536 0.651942 0.520897
0.541131 0.663508 0.552453
0.596582 0.689357 0.607599
0.659205 0.731411 0.674281
0.735836 0.789212 0.756893
0.716457 0.750118 0.695705
0.158724 0.289220 0.540612
0.177523 0.291081 0.547387
0.234897 0.289952 0.564935
0.340276 0.281346 0.595148
0.491066 0.253574 0.633021
0.615015 0.276921 0.642237
0.671107 0.372168 0.603082
0.733547 0.477241 0.604517
0.181399 0.306737 0.532616
0.188052 0.304051 0.539513
0.238010 0.303227 0.557427
0.335393 0.295964 0.587488
0.481453 0.271061 0.625757
0.607630 0.286076 0.636988
0.665309 0.373297 0.598474
0.727138 0.473762 0.597986
0.260227 0.375647 0.525109
0.271305 0.378515 0.532036
0.273381 0.360632 0.550072
0.345953 0.358038 0.580224
0.471260 0.344884 0.618769
0.601556 0.350591 0.639551
0.662989 0.421241 0.606775
0.724269 0.504448 0.606165
0.292485 0.413062 0.493660
0.300267 0.416999 0.499825
0.330968 0.431373 0.523583
0.374945 0.440253 0.565606
0.460456 0.437903 0.607721
0.593286 0.439002 0.646571
0.659388 0.486854 0.620142
0.715328 0.541314 0.612604
0.307927 0.467903 0.499275
0.315801 0.468238 0.500175
0.344793 0.472206 0.506096
0.392676 0.480873 0.518914
0.460548 0.513024 0.578729
0.560082 0.516503 0.634394
0.647883 0.542931 0.627710
0.695247 0.573785 0.610986
0.332647 0.536675 0.520165
0.341711 0.538048 0.522332
0.371374 0.542809 0.529747
0.417853 0.551476 0.543297
0.474220 0.563073 0.562280
0.549035 0.593683 0.607050
0.641627 0.615381 0.647791
0.662013 0.605707 0.606836
0.382300 0.586877 0.531090
0.391180 0.589349 0.534539
0.416510 0.594965 0.543481
0.456519 0.605249 0.559319
0.506249 0.618708 0.580621
0.566949 0.639734 0.611872
0.634089 0.674342 0.657618
0.696681 0.674006 0.642237
0.446601 0.632837 0.538689
0.452430 0.634089 0.541070
0.479652 0.644190 0.556023
0.516930 0.656825 0.576196
0.563561 0.673396 0.603876
0.614618 0.698054 0.639734
0.690822 0.751095 0.716213
0.731655 0.771176 0.740597
0.306371 0.402045 0.637842
0.316777 0.402472 0.641382
0.347875 0.397986 0.649805
0.411597 0.392340 0.666957
0.502708 0.379431 0.690181
0.617182 0.356847 0.720729
0.696010 0.411658 0.717739
0.739101 0.490486 0.686946
0.312993 0.412543 0.633051
0.319371 0.411017 0.636744
0.349340 0.407507 0.645991
0.409155 0.401404 0.662837
0.498360 0.389746 0.686366
0.611902 0.368933 0.717128
0.692470 0.416754 0.715389
0.736599 0.493294 0.685481
0.358190 0.461616 0.622827
0.358953 0.458137 0.626184
0.359625 0.440558 0.636042
0.414313 0.441077 0.656336
0.493141 0.432410 0.679988
0.599817 0.416266 0.710689
0.686915 0.447944 0.715358
0.734340 0.515282 0.688838
0.373846 0.493996 0.600153
0.381842 0.497078 0.605097
0.405982 0.503288 0.619348
0.424140 0.492775 0.643000
0.486671 0.490150 0.669398
0.583154 0.483375 0.702754
0.680446 0.498482 0.719203
0.733120 0.552819 0.697536
0.391943 0.526421 0.579950
0.397925 0.527276 0.581537
0.413184 0.525383 0.583093
0.439948 0.535912 0.609613
0.483833 0.543633 0.648768
0.558221 0.543694 0.686366
0.669184 0.552453 0.723293
0.731899 0.597620 0.709499
0.412146 0.582879 0.595880
0.415503 0.581994 0.595819
0.428748 0.580163 0.596857
0.453193 0.578546 0.600793
0.488838 0.577295 0.608331
0.552972 0.605585 0.662684
0.649744 0.621057 0.724727
0.729305 0.644160 0.722774
0.443702 0.642847 0.618952
0.447150 0.642573 0.619287
0.460090 0.642176 0.621241
0.485023 0.643519 0.626856
0.520562 0.646235 0.635889
0.565972 0.652003 0.650080
0.626093 0.675196 0.692195
0.721828 0.695338 0.736568
0.496895 0.682612 0.630518
0.500328 0.683040 0.631586
0.512322 0.684627 0.635401
0.534325 0.688472 0.643458
0.563745 0.694636 0.655451
0.599329 0.704738 0.672663
0.644617 0.723415 0.700313
0.717311 0.762570 0.753506
