data/fiter_cube/39179523/1023430/file.cube
# Created by Adobe Lightroom plugin Export LUT (1.17.0)
# www.johnrellis.com/lightroom/exportlut.htm
# Preset: 日系大师人物肖像_04 云集
# Color profile: C:\Program Files (x86)\Common Files\Adobe\Color\Profiles\Recommended\AdobeRGB1998.icc
LUT_3D_SIZE 32
DOMAIN_MIN 0.0 0.0 0.0
DOMAIN_MAX 1.0 1.0 1.0
0.065766 0.085786 0.095003
0.066255 0.085725 0.095003
0.070649 0.085176 0.094972
0.089021 0.084962 0.094606
0.114107 0.085603 0.093843
0.151980 0.085512 0.092317
0.205234 0.081697 0.089479
0.271763 0.069245 0.084504
0.348425 0.016602 0.076112
0.428016 0.000000 0.062440
0.504997 0.000000 0.023835
0.574151 0.000000 0.000000
0.633753 0.000000 0.000000
0.684657 0.000000 0.000000
0.727565 0.000000 0.000000
0.764309 0.005158 0.000000
0.795682 0.083131 0.000000
0.824399 0.119753 0.000000
0.851591 0.151003 0.000000
0.874784 0.177371 0.000000
0.897185 0.201694 0.000000
0.918669 0.224216 0.000000
0.939055 0.244877 0.000000
0.958556 0.264225 0.000000
0.977386 0.281926 0.000000
0.995880 0.298833 0.000000
1.000000 0.315465 0.000000
1.000000 0.332586 0.000000
1.000000 0.350622 0.000000
1.000000 0.366247 0.000000
1.000000 0.380255 0.000000
1.000000 0.393072 0.000000
0.065766 0.085786 0.095003
0.066255 0.085725 0.095003
0.070863 0.086397 0.094881
0.088899 0.088411 0.094331
0.113649 0.090028 0.093507
0.151064 0.090730 0.091951
0.203128 0.088472 0.089113
0.268803 0.080171 0.084047
0.344305 0.057191 0.075685
0.423590 0.000000 0.061952
0.500267 0.000000 0.022614
0.569329 0.000000 0.000000
0.629175 0.000000 0.000000
0.680354 0.000000 0.000000
0.723568 0.000000 0.000000
0.760647 0.050843 0.000000
0.792355 0.095216 0.000000
0.821592 0.127504 0.000000
0.848356 0.156374 0.000000
0.871153 0.180453 0.000000
0.893217 0.203281 0.000000
0.914580 0.224735 0.000000
0.934966 0.244968 0.000000
0.954589 0.263645 0.000000
0.973571 0.281346 0.000000
0.992309 0.298283 0.000000
1.000000 0.314824 0.000000
1.000000 0.331884 0.000000
1.000000 0.350011 0.000000
1.000000 0.365911 0.000000
1.000000 0.379919 0.000000
1.000000 0.392981 0.000000
0.065980 0.087312 0.094881
0.066773 0.088167 0.094820
0.070710 0.089815 0.094636
0.088106 0.093843 0.093935
0.113069 0.095644 0.093080
0.149966 0.097566 0.091432
0.201266 0.097078 0.088502
0.265904 0.092134 0.083314
0.340978 0.077607 0.074739
0.419715 0.036469 0.060731
0.496437 0.000000 0.019379
0.565881 0.000000 0.000000
0.625971 0.000000 0.000000
0.677516 0.000000 0.000000
0.721035 0.023407 0.000000
0.758419 0.079957 0.000000
0.790311 0.111513 0.000000
0.820005 0.139681 0.000000
0.846525 0.165316 0.000000
0.869017 0.187655 0.000000
0.891020 0.208804 0.000000
0.912383 0.229343 0.000000
0.932799 0.248600 0.000000
0.952453 0.266667 0.000000
0.971496 0.283970 0.000000
0.990326 0.300481 0.000000
1.000000 0.316716 0.000000
1.000000 0.333410 0.000000
1.000000 0.351385 0.000000
1.000000 0.367559 0.000000
1.000000 0.381506 0.000000
1.000000 0.394507 0.000000
0.063569 0.100404 0.094148
0.067842 0.101015 0.094026
0.074983 0.101289 0.093843
0.087465 0.104097 0.093324
0.112581 0.107881 0.091981
0.149447 0.111727 0.090089
0.200168 0.114290 0.086793
0.264378 0.114046 0.081147
0.338598 0.107576 0.071901
0.416968 0.095216 0.054994
0.493111 0.078645 0.008270
0.562432 0.066346 0.000000
0.622431 0.067292 0.000000
0.674189 0.078706 0.000000
0.718013 0.098085 0.000000
0.755520 0.119478 0.000000
0.787778 0.140841 0.000000
0.818143 0.164065 0.000000
0.843931 0.184848 0.000000
0.865843 0.203189 0.000000
0.887297 0.221530 0.000000
0.908446 0.239445 0.000000
0.929076 0.257481 0.000000
0.949279 0.274846 0.000000
0.969116 0.291539 0.000000
0.988739 0.307958 0.000000
1.000000 0.324041 0.000000
1.000000 0.340185 0.000000
1.000000 0.357092 0.000000
1.000000 0.373419 0.000000
1.000000 0.387030 0.000000
1.000000 0.399329 0.000000
0.058473 0.115511 0.094057
0.065095 0.116091 0.094423
0.073213 0.116457 0.094514
0.088045 0.117952 0.093751
0.108644 0.122927 0.091554
0.147311 0.130831 0.088502
0.197177 0.136660 0.084749
0.260014 0.140841 0.078065
0.333349 0.140749 0.067720
0.410773 0.136965 0.044556
0.486946 0.130343 0.000000
0.556481 0.126589 0.000000
0.617029 0.128206 0.000000
0.669337 0.135988 0.000000
0.713924 0.148196 0.000000
0.752224 0.163210 0.000000
0.785214 0.178714 0.000000
0.816953 0.197543 0.000000
0.842405 0.213718 0.000000
0.864073 0.227848 0.000000
0.885191 0.242588 0.000000
0.906126 0.257816 0.000000
0.926696 0.273320 0.000000
0.946960 0.289036 0.000000
0.966979 0.304601 0.000000
0.986816 0.319951 0.000000
1.000000 0.335119 0.000000
1.000000 0.349920 0.000000
1.000000 0.365209 0.000000
1.000000 0.381659 0.000000
1.000000 0.395087 0.000000
1.000000 0.406928 0.000000
0.047395 0.136294 0.094118
0.060182 0.137057 0.095979
0.071321 0.137331 0.097780
0.088899 0.138338 0.097536
0.110536 0.143008 0.095338
0.140383 0.151461 0.090333
0.195865 0.165713 0.083284
0.258701 0.172641 0.075471
0.331395 0.176852 0.063630
0.408545 0.177920 0.032197
0.484291 0.177523 0.000000
0.553582 0.178439 0.000000
0.614099 0.182223 0.000000
0.666590 0.189212 0.000000
0.711421 0.198550 0.000000
0.749996 0.209201 0.000000
0.784421 0.221592 0.000000
0.816342 0.235721 0.000000
0.841489 0.247196 0.000000
0.863157 0.257939 0.000000
0.884428 0.269688 0.000000
0.905638 0.282444 0.000000
0.949645 0.319005 0.000000
0.969238 0.332250 0.000000
0.988037 0.345129 0.000000
1.000000 0.357671 0.000000
1.000000 0.370062 0.000000
1.000000 0.382208 0.000000
1.000000 0.393866 0.000000
1.000000 0.406714 0.000000
1.000000 0.418891 0.000000
1.000000 0.427771 0.000000
0.021546 0.170718 0.095735
0.040681 0.171572 0.096773
0.065492 0.172244 0.100862
0.088136 0.173709 0.100679
0.118563 0.175509 0.099825
0.149508 0.185763 0.095094
0.193057 0.198398 0.087739
0.268650 0.219730 0.073701
0.343816 0.226871 0.057588
0.422370 0.231540 0.011872
0.498054 0.235142 0.000000
0.566186 0.238590 0.000000
0.624872 0.242924 0.000000
0.675502 0.248356 0.000000
0.718410 0.254276 0.000000
0.755184 0.260685 0.000000
0.791470 0.271061 0.000000
0.821897 0.280797 0.000000
0.846311 0.288579 0.000000
0.868650 0.296788 0.000000
0.891478 0.307439 0.000000
0.914763 0.319829 0.000000
0.937896 0.333440 0.000000
0.960357 0.347204 0.000000
0.981720 0.360723 0.000000
1.000000 0.373114 0.000000
1.000000 0.385168 0.000000
1.000000 0.396765 0.000000
1.000000 0.407874 0.000000
1.000000 0.418524 0.000000
1.000000 0.430762 0.000000
1.000000 0.439582 0.000000
0.000000 0.210941 0.097414
0.000000 0.211978 0.094820
0.035798 0.212985 0.099641
0.080323 0.214176 0.101076
0.117098 0.215915 0.100282
0.155276 0.221439 0.097627
0.197360 0.234653 0.090303
0.252232 0.250278 0.078767
0.339269 0.274388 0.049531
0.417487 0.281102 0.000000
0.493172 0.286290 0.000000
0.561242 0.290623 0.000000
0.620203 0.294621 0.000000
0.670924 0.298344 0.000000
0.714199 0.302129 0.000000
0.752865 0.307134 0.000000
0.790005 0.315251 0.000000
0.819211 0.320775 0.000000
0.843229 0.325139 0.000000
0.865202 0.330205 0.000000
0.887724 0.337804 0.000000
0.910796 0.347326 0.000000
0.933745 0.358434 0.000000
0.956115 0.370001 0.000000
0.977508 0.381476 0.000000
0.997681 0.392523 0.000000
1.000000 0.403052 0.000000
1.000000 0.413581 0.000000
1.000000 0.424201 0.000000
1.000000 0.433997 0.000000
1.000000 0.444160 0.000000
1.000000 0.453834 0.000000
0.000000 0.261173 0.096529
0.000000 0.262058 0.092836
0.000000 0.263462 0.094820
0.060883 0.264836 0.100313
0.110689 0.266545 0.099001
0.159091 0.267765 0.097566
0.204501 0.277928 0.090913
0.257328 0.293278 0.078248
0.322423 0.310277 0.055177
0.414435 0.335729 0.000000
0.490150 0.340978 0.000000
0.558160 0.344915 0.000000
0.617182 0.347906 0.000000
0.667994 0.350164 0.000000
0.711177 0.351720 0.000000
0.753780 0.357214 0.000000
0.788998 0.361181 0.000000
0.817319 0.363165 0.000000
0.840909 0.364446 0.000000
0.862730 0.366613 0.000000
0.885069 0.371374 0.000000
0.907897 0.378393 0.000000
0.930724 0.386938 0.000000
0.953002 0.396277 0.000000
0.974365 0.406012 0.000000
0.994598 0.415076 0.000000
1.000000 0.424262 0.000000
1.000000 0.433448 0.000000
1.000000 0.442969 0.000000
1.000000 0.452277 0.000000
1.000000 0.460548 0.000000
1.000000 0.470069 0.000000
0.000000 0.318242 0.092317
0.000000 0.319066 0.087495
0.000000 0.319982 0.086061
0.000000 0.321691 0.097292
0.095460 0.322728 0.096162
0.154726 0.323796 0.094392
0.212039 0.325078 0.091341
0.263432 0.339544 0.077913
0.325139 0.355657 0.052094
0.395544 0.372839 0.000000
0.485267 0.396796 0.000000
0.553399 0.399512 0.000000
0.612726 0.401068 0.000000
0.663935 0.401709 0.000000
0.712917 0.405554 0.000000
0.754299 0.407996 0.000000
0.788724 0.408789 0.000000
0.816709 0.407752 0.000000
0.840055 0.406256 0.000000
0.861540 0.405737 0.000000
0.883391 0.407721 0.000000
0.905425 0.411658 0.000000
0.927367 0.417243 0.000000
0.948913 0.423865 0.000000
0.969909 0.431098 0.000000
0.990143 0.438605 0.000000
1.000000 0.446387 0.000000
1.000000 0.454597 0.000000
1.000000 0.463203 0.000000
1.000000 0.471992 0.000000
1.000000 0.480446 0.000000
1.000000 0.487404 0.000000
0.000000 0.376104 0.085847
0.000000 0.376837 0.079896
0.000000 0.377996 0.072969
0.000000 0.379522 0.089021
0.066560 0.380774 0.093629
0.144869 0.381750 0.091585
0.210849 0.382330 0.088808
0.271122 0.388037 0.080079
0.330266 0.402960 0.054627
0.396857 0.418799 0.000000
0.467720 0.434974 0.000000
0.549706 0.456184 0.000000
0.609400 0.455970 0.000000
0.665644 0.458473 0.000000
0.712886 0.458656 0.000000
0.752773 0.457435 0.000000
0.786313 0.455146 0.000000
0.813840 0.451484 0.000000
0.837064 0.447211 0.000000
0.858549 0.444221 0.000000
0.880308 0.443885 0.000000
0.902342 0.445747 0.000000
0.924376 0.449470 0.000000
0.946014 0.454292 0.000000
0.967041 0.459815 0.000000
0.987304 0.465492 0.000000
1.000000 0.471626 0.000000
1.000000 0.478248 0.000000
1.000000 0.485451 0.000000
1.000000 0.493050 0.000000
1.000000 0.500725 0.000000
1.000000 0.507195 0.000000
0.000000 0.435676 0.077028
0.000000 0.436500 0.070008
0.000000 0.437415 0.059144
0.000000 0.438636 0.076295
0.000000 0.439918 0.093355
0.130709 0.440497 0.091493
0.205600 0.440803 0.088563
0.276524 0.440162 0.084321
0.337377 0.450172 0.066072
0.400336 0.464363 0.000000
0.467201 0.478859 0.000000
0.536217 0.495399 0.000000
0.640253 0.540978 0.000000
0.693874 0.539147 0.000000
0.738186 0.534783 0.000000
0.774929 0.528801 0.000000
0.804532 0.521080 0.000000
0.828824 0.512596 0.000000
0.849943 0.504723 0.000000
0.871092 0.499550 0.000000
0.892241 0.496681 0.000000
0.913329 0.495857 0.000000
0.934112 0.496437 0.000000
0.954559 0.498360 0.000000
0.974517 0.500999 0.000000
0.993957 0.504234 0.000000
1.000000 0.507927 0.000000
1.000000 0.512078 0.000000
1.000000 0.516869 0.000000
1.000000 0.522179 0.000000
1.000000 0.527672 0.000000
1.000000 0.532799 0.000000
0.000000 0.504234 0.067292
0.000000 0.504723 0.059083
0.000000 0.504875 0.032074
0.000000 0.505119 0.060700
0.000000 0.504753 0.099641
0.115694 0.503532 0.097688
0.202762 0.502312 0.094759
0.278233 0.500572 0.090944
0.350134 0.499825 0.084504
0.410224 0.512718 0.053681
0.477302 0.529259 0.000000
0.549187 0.549981 0.000000
0.618769 0.570245 0.000000
0.686427 0.587915 0.000000
0.731930 0.582391 0.000000
0.769162 0.574792 0.000000
0.799100 0.564996 0.000000
0.823514 0.554376 0.000000
0.844816 0.544488 0.000000
0.865873 0.537316 0.000000
0.886961 0.532738 0.000000
0.908110 0.530022 0.000000
0.928862 0.528985 0.000000
0.949371 0.529137 0.000000
0.969451 0.530266 0.000000
0.989044 0.532006 0.000000
1.000000 0.534386 0.000000
1.000000 0.537346 0.000000
1.000000 0.540887 0.000000
1.000000 0.545190 0.000000
1.000000 0.549767 0.000000
1.000000 0.554223 0.000000
0.000000 0.553979 0.066926
0.000000 0.554376 0.057923
0.000000 0.554376 0.033478
0.000000 0.554559 0.045747
0.000000 0.553857 0.101595
0.096712 0.552483 0.111757
0.195529 0.550866 0.109255
0.274144 0.548821 0.106081
0.348333 0.546349 0.101961
0.418250 0.554101 0.092744
0.481910 0.570092 0.067231
0.546471 0.586419 0.000000
0.609461 0.602441 0.000000
0.669764 0.617426 0.000000
0.725521 0.628595 0.000000
0.763058 0.619074 0.000000
0.792966 0.607446 0.000000
0.817655 0.595209 0.000000
0.839231 0.583612 0.000000
0.860441 0.574762 0.000000
0.881773 0.568658 0.000000
0.903075 0.564691 0.000000
0.924010 0.562341 0.000000
0.944762 0.561242 0.000000
0.965026 0.561120 0.000000
0.984833 0.561639 0.000000
1.000000 0.562768 0.000000
1.000000 0.564599 0.000000
1.000000 0.567102 0.000000
1.000000 0.570306 0.000000
1.000000 0.573846 0.000000
1.000000 0.577295 0.000000
0.000000 0.599542 0.073915
0.000000 0.599908 0.068147
0.000000 0.599817 0.057893
0.000000 0.599939 0.044923
0.000000 0.598871 0.106264
0.082399 0.597162 0.132448
0.192447 0.596551 0.131472
0.275212 0.596643 0.130220
0.351934 0.596429 0.129000
0.425666 0.595880 0.127260
0.486122 0.605585 0.116274
0.544305 0.618738 0.098238
0.601831 0.631739 0.070771
0.657282 0.644129 0.000000
0.709957 0.655238 0.000000
0.756558 0.661769 0.000000
0.787228 0.649104 0.000000
0.812070 0.635340 0.000000
0.833829 0.622248 0.000000
0.855161 0.611963 0.000000
0.876555 0.604364 0.000000
0.897887 0.598962 0.000000
0.918975 0.595361 0.000000
0.939849 0.593225 0.000000
0.960418 0.592126 0.000000
0.980682 0.591791 0.000000
1.000000 0.592401 0.000000
1.000000 0.593805 0.000000
1.000000 0.595911 0.000000
1.000000 0.598596 0.000000
1.000000 0.601434 0.000000
1.000000 0.603845 0.000000
0.000000 0.643305 0.092256
0.000000 0.643977 0.088136
0.000000 0.644465 0.082643
0.000000 0.645533 0.070192
0.000000 0.645655 0.120516
0.093935 0.645167 0.165042
0.201511 0.644678 0.164492
0.283024 0.643793 0.164004
0.358282 0.642329 0.163180
0.429114 0.640436 0.162295
0.493843 0.639490 0.160311
0.545373 0.649287 0.149538
0.596399 0.658869 0.135744
0.646479 0.668116 0.116762
0.694728 0.676783 0.088655
0.740597 0.684657 0.011505
0.779660 0.687495 0.000000
0.805875 0.673610 0.000000
0.828275 0.659785 0.000000
0.850278 0.648768 0.000000
0.872221 0.640497 0.000000
0.894041 0.634394 0.000000
0.915526 0.630030 0.000000
0.936767 0.627100 0.000000
0.957671 0.625269 0.000000
0.978271 0.624445 0.000000
0.998749 0.624262 0.000000
1.000000 0.624811 0.000000
1.000000 0.625971 0.000000
1.000000 0.627527 0.000000
1.000000 0.629023 0.000000
1.000000 0.630030 0.000000
0.000000 0.684565 0.118624
0.000000 0.684810 0.115877
0.000000 0.684901 0.113649
0.000000 0.685237 0.107088
0.000000 0.684779 0.140536
0.092561 0.683192 0.187961
0.211460 0.681605 0.198154
0.288853 0.679744 0.196994
0.360327 0.677485 0.196323
0.427680 0.674861 0.195377
0.491035 0.671992 0.194644
0.544915 0.674098 0.190677
0.591638 0.682246 0.181857
0.637751 0.690089 0.170474
0.682429 0.697169 0.155642
0.724910 0.703426 0.135988
0.765530 0.709010 0.109773
0.798917 0.709529 0.078340
0.822324 0.695491 0.069581
0.844388 0.683497 0.059998
0.866484 0.674250 0.028962
0.888457 0.667231 0.000000
0.910185 0.662043 0.000000
0.931701 0.658412 0.000000
0.952911 0.655940 0.000000
0.973907 0.654505 0.000000
0.994781 0.653986 0.000000
1.000000 0.654170 0.000000
1.000000 0.654841 0.000000
1.000000 0.655848 0.000000
1.000000 0.656764 0.000000
1.000000 0.657038 0.000000
0.000000 0.719600 0.147250
0.000000 0.720027 0.146517
0.000000 0.735683 0.162966
0.000000 0.735592 0.161593
0.000000 0.734524 0.184176
0.133242 0.731777 0.227390
0.250889 0.728511 0.252262
0.319097 0.725612 0.250462
0.384192 0.722408 0.248997
0.446052 0.718929 0.247837
0.504265 0.715267 0.246647
0.558740 0.711238 0.245243
0.601984 0.714809 0.239506
0.642603 0.720180 0.231571
0.682246 0.725032 0.221408
0.720729 0.729335 0.208743
0.757809 0.733211 0.193912
0.793362 0.736751 0.175051
0.821805 0.735439 0.156252
0.844297 0.723018 0.149294
0.866056 0.712734 0.141207
0.887846 0.704738 0.131411
0.909453 0.698604 0.118959
0.930663 0.693874 0.101808
0.951354 0.689967 0.073518
0.971740 0.687037 0.000000
0.992004 0.684932 0.000000
1.000000 0.683803 0.000000
1.000000 0.683650 0.000000
1.000000 0.684047 0.000000
1.000000 0.684413 0.000000
1.000000 0.683986 0.000000
0.000000 0.753231 0.181064
0.000000 0.755154 0.183566
0.000000 0.756954 0.185885
0.000000 0.758389 0.188693
0.000000 0.758572 0.204593
0.137026 0.756313 0.245640
0.267338 0.752468 0.284245
0.328740 0.749630 0.282750
0.388434 0.746426 0.281163
0.445441 0.742885 0.279698
0.500053 0.739132 0.278141
0.551690 0.735073 0.276646
0.598718 0.731868 0.274174
0.635706 0.736110 0.267704
0.672206 0.739986 0.259892
0.707912 0.743465 0.250340
0.742641 0.746670 0.238682
0.776333 0.749660 0.225071
0.809293 0.752895 0.209354
0.837003 0.752895 0.193576
0.859556 0.742855 0.187320
0.881743 0.734676 0.180301
0.903746 0.728237 0.171756
0.925353 0.723262 0.161074
0.946471 0.719203 0.146639
0.967254 0.716091 0.126284
0.987976 0.713741 0.096895
1.000000 0.712428 0.023682
1.000000 0.711940 0.000000
1.000000 0.712032 0.000000
1.000000 0.712123 0.000000
1.000000 0.711299 0.000000
0.000000 0.776455 0.207980
0.000000 0.777951 0.210910
0.000000 0.779385 0.214054
0.000000 0.780392 0.217868
0.000000 0.780423 0.227512
0.148959 0.777920 0.265507
0.277348 0.773770 0.307591
0.341527 0.770535 0.314763
0.395270 0.767483 0.313115
0.447761 0.764065 0.311406
0.498512 0.760464 0.310063
0.547112 0.756558 0.308507
0.593011 0.752255 0.306249
0.631952 0.751614 0.302647
0.665492 0.754726 0.296330
0.698451 0.757595 0.288731
0.730861 0.760281 0.279393
0.762936 0.763149 0.268833
0.794766 0.766354 0.256657
0.826230 0.770108 0.243107
0.853361 0.771206 0.229526
0.876036 0.763607 0.223392
0.898344 0.757076 0.217197
0.920256 0.751888 0.208896
0.941619 0.747585 0.198276
0.962676 0.744137 0.183871
0.983551 0.741482 0.165499
1.000000 0.739864 0.141939
1.000000 0.739071 0.108064
1.000000 0.738827 0.013428
1.000000 0.738674 0.000000
1.000000 0.737728 0.000000
0.000000 0.796658 0.234501
0.000000 0.797879 0.237705
0.000000 0.799008 0.241245
0.000000 0.799649 0.245884
0.000000 0.799557 0.252201
0.166506 0.796963 0.286351
0.283635 0.792844 0.325566
0.356970 0.788876 0.346380
0.405005 0.785885 0.344671
0.452247 0.782650 0.342962
0.498787 0.779171 0.341070
0.543969 0.775418 0.339330
0.587091 0.771359 0.337102
0.628473 0.767056 0.334722
0.660945 0.768551 0.330480
0.691920 0.771481 0.324834
0.723140 0.774685 0.318700
0.754330 0.778286 0.311437
0.785519 0.782315 0.303624
0.816556 0.786831 0.295171
0.847379 0.791745 0.285161
0.874632 0.794675 0.275242
0.897459 0.789425 0.270359
0.920012 0.784726 0.265202
0.942016 0.780880 0.258122
0.963439 0.777707 0.248386
0.984649 0.775174 0.236271
1.000000 0.773465 0.221195
1.000000 0.772457 0.201877
1.000000 0.771847 0.176059
1.000000 0.771115 0.138308
1.000000 0.769436 0.058625
0.000000 0.819547 0.270970
0.000000 0.819944 0.273198
0.000000 0.820157 0.275669
0.000000 0.819883 0.279850
0.000000 0.819059 0.285863
0.195682 0.816373 0.312535
0.299443 0.812253 0.349279
0.380865 0.807614 0.383154
0.422766 0.805081 0.381598
0.465278 0.802304 0.380438
0.507561 0.799374 0.379400
0.549096 0.796109 0.377783
0.589258 0.792508 0.375891
0.627771 0.788602 0.373419
0.663478 0.785672 0.370397
0.692256 0.788632 0.365972
0.721340 0.791775 0.360632
0.750607 0.795254 0.354711
0.779965 0.799069 0.348028
0.809354 0.803189 0.340429
0.838529 0.807645 0.331823
0.867460 0.812314 0.321691
0.893309 0.815091 0.311376
0.914916 0.810483 0.304784
0.936858 0.806332 0.298253
0.958495 0.803037 0.290227
0.979950 0.800504 0.280369
1.000000 0.798795 0.268467
1.000000 0.797757 0.253941
1.000000 0.797024 0.235080
1.000000 0.796231 0.209659
1.000000 0.794705 0.173129
0.000000 0.837064 0.296910
0.000000 0.837461 0.299382
0.000000 0.837736 0.302098
0.000000 0.837430 0.306859
0.113222 0.836515 0.313573
0.218296 0.834043 0.334508
0.312139 0.829953 0.368750
0.393805 0.824949 0.406409
0.437751 0.821988 0.412085
0.475654 0.819455 0.410681
0.514000 0.816709 0.409369
0.552178 0.813779 0.407843
0.589532 0.810544 0.405951
0.626093 0.807095 0.403815
0.661402 0.803464 0.401373
0.692103 0.803250 0.398383
0.719539 0.806607 0.394354
0.747311 0.810269 0.389837
0.775357 0.814206 0.384985
0.803525 0.818509 0.379461
0.831724 0.823087 0.373053
0.859770 0.827878 0.365667
0.887633 0.832853 0.357000
0.912688 0.836088 0.347509
0.930510 0.828977 0.332128
0.952270 0.825589 0.325139
0.973938 0.823117 0.317205
0.995605 0.821439 0.307408
1.000000 0.820371 0.295567
1.000000 0.819730 0.280827
1.000000 0.819150 0.261601
1.000000 0.818173 0.236759
0.000000 0.859312 0.331701
0.000000 0.859739 0.334447
0.000000 0.859831 0.337316
0.117952 0.859251 0.341924
0.183017 0.857908 0.348516
0.253422 0.855436 0.364233
0.335454 0.851133 0.395758
0.410010 0.845975 0.430701
0.460517 0.841764 0.447669
0.492988 0.839048 0.445197
0.526543 0.836027 0.442786
0.560601 0.833005 0.440375
0.594690 0.829801 0.437873
0.628229 0.826291 0.434821
0.660853 0.822477 0.431373
0.692683 0.818570 0.427893
0.718685 0.820371 0.423590
0.744411 0.823575 0.419104
0.770809 0.827359 0.414649
0.797787 0.831662 0.410315
0.824949 0.836332 0.405646
0.852018 0.841154 0.400000
0.878721 0.845884 0.392706
0.905028 0.850431 0.383276
0.928527 0.853056 0.372381
0.948089 0.849302 0.363592
0.969635 0.846586 0.356420
0.991150 0.844572 0.347601
1.000000 0.843320 0.337255
1.000000 0.842557 0.324926
1.000000 0.842100 0.310185
1.000000 0.841306 0.291783
0.054200 0.876829 0.355138
0.094972 0.877226 0.358099
0.126284 0.877317 0.361089
0.169680 0.876707 0.365881
0.219120 0.875395 0.372778
0.274571 0.873228 0.384710
0.350439 0.869169 0.414954
0.420294 0.864347 0.448219
0.479500 0.859586 0.477241
0.508965 0.857237 0.475319
0.539605 0.854765 0.473457
0.571283 0.852232 0.471656
0.603052 0.849516 0.469856
0.634516 0.846586 0.467414
0.665461 0.843351 0.464759
0.695827 0.840024 0.461860
0.724422 0.837919 0.458900
0.748562 0.841215 0.455390
0.773373 0.844938 0.451972
0.798795 0.849119 0.448554
0.824430 0.853635 0.444831
0.850126 0.858244 0.440314
0.875639 0.862852 0.434180
0.900847 0.867247 0.426612
0.925780 0.871519 0.417060
0.948150 0.873899 0.405921
0.966827 0.870512 0.397192
0.988373 0.868650 0.390356
1.000000 0.867491 0.382391
1.000000 0.866819 0.372869
1.000000 0.866545 0.362402
1.000000 0.865782 0.348943
0.151186 0.896300 0.382330
0.167422 0.896513 0.384955
0.184726 0.896330 0.387396
0.215763 0.895476 0.392004
0.255131 0.893950 0.398657
0.299229 0.891875 0.407599
0.366949 0.887877 0.434974
0.432532 0.883146 0.466621
0.494423 0.878050 0.500481
0.525841 0.875486 0.504143
0.553796 0.873320 0.502434
0.582971 0.871183 0.501213
0.612634 0.868864 0.499641
0.642206 0.866300 0.497871
0.671290 0.863523 0.495460
0.700038 0.860533 0.492958
0.728359 0.857542 0.490303
0.753506 0.857908 0.487526
0.776669 0.861479 0.484596
0.800534 0.865476 0.481666
0.824735 0.869780 0.478492
0.849088 0.874205 0.474861
0.873350 0.878630 0.470008
0.897459 0.882902 0.463691
0.921355 0.887022 0.455482
0.945098 0.890959 0.445380
0.966491 0.893065 0.434241
0.984405 0.889982 0.424781
1.000000 0.888457 0.418219
1.000000 0.887938 0.410803
1.000000 0.887755 0.402594
1.000000 0.887053 0.392432
0.200229 0.914794 0.406226
0.212039 0.914794 0.408484
0.226047 0.914580 0.411139
0.251591 0.913817 0.415778
0.287236 0.912505 0.423102
0.328161 0.910857 0.433204
0.388037 0.907958 0.458198
0.451240 0.904356 0.490181
0.511711 0.900450 0.524559
0.552667 0.898131 0.541588
0.579614 0.897246 0.542473
0.607416 0.896269 0.543175
0.635523 0.895048 0.543633
0.663539 0.893492 0.543450
0.691066 0.891569 0.542626
0.717952 0.889281 0.540948
0.744564 0.886931 0.539178
0.770871 0.884642 0.537469
0.792782 0.887358 0.535515
0.814572 0.891142 0.533165
0.836851 0.895048 0.530663
0.859312 0.899168 0.527672
0.881773 0.903166 0.523400
0.904204 0.907073 0.517998
0.926574 0.910857 0.511192
0.948913 0.914427 0.502647
0.971344 0.917906 0.492164
0.991394 0.919402 0.480903
1.000000 0.916350 0.471199
1.000000 0.914885 0.465980
1.000000 0.914336 0.460334
1.000000 0.912871 0.453254
0.269078 0.939818 0.445350
0.277531 0.939727 0.447425
0.287816 0.939361 0.449714
0.308202 0.938354 0.454170
0.337133 0.936858 0.461158
0.371862 0.934905 0.470649
0.420233 0.931945 0.490517
0.476783 0.928038 0.519493
0.531762 0.923796 0.550683
0.578241 0.920073 0.576257
0.601343 0.918761 0.575769
0.625696 0.917388 0.575311
0.650721 0.915892 0.574731
0.676173 0.914214 0.573999
