data/fiter_cube/39179523/1023430/file.cube
# Created by Adobe Lightroom plugin Export LUT (1.17.0)
# www.johnrellis.com/lightroom/exportlut.htm
# Preset: 日系大师人物肖像_04 云集
# Color profile: C:\Program Files (x86)\Common Files\Adobe\Color\Profiles\Recommended\AdobeRGB1998.icc
LUT_3D_SIZE 5
DOMAIN_MIN 0.000000 0.000000 0.000000
DOMAIN_MAX 0.903226 0.903226 0.903226
0.065766 0.085786 0.095003
0.271763 0.069245 0.084504
0.727565 0.000000 0.000000
0.918669 0.224216 0.000000
1.000000 0.350622 0.000000
0.000000 0.210941 0.097414
0.252232 0.250278 0.078767
0.714199 0.302129 0.000000
0.910796 0.347326 0.000000
1.000000 0.424201 0.000000
0.000000 0.599542 0.073915
0.275212 0.596643 0.130220
0.709957 0.655238 0.000000
0.897887 0.598962 0.000000
1.000000 0.595911 0.000000
0.000000 0.819547 0.270970
0.380865 0.807614 0.383154
0.663478 0.785672 0.370397
0.867460 0.812314 0.321691
1.000000 0.797757 0.253941
0.305486 0.959258 0.470375
0.494514 0.948516 0.541192
0.702724 0.926299 0.587732
0.865476 0.931243 0.585443
1.000000 0.955413 0.540642
0.000000 0.098634 0.277287
0.236301 0.156832 0.271885
0.709590 0.000000 0.226902
0.895995 0.271458 0.201968
1.000000 0.363500 0.000000
0.000000 0.251713 0.314641
0.250431 0.272618 0.302678
0.703426 0.318059 0.265110
0.890501 0.382910 0.227512
1.000000 0.437903 0.076387
0.000000 0.615259 0.347967
0.237003 0.621759 0.348577
0.682307 0.642390 0.355200
0.874144 0.612390 0.326482
1.000000 0.622126 0.249973
0.000000 0.820554 0.424048
0.348058 0.812863 0.459724
0.665553 0.786465 0.507469
0.853605 0.811002 0.487831
1.000000 0.808347 0.445563
0.286900 0.960113 0.528985
0.463447 0.951263 0.570336
0.716304 0.932891 0.657832
0.867063 0.933379 0.649500
1.000000 0.957641 0.620630
0.000000 0.179049 0.700496
0.318456 0.294743 0.712398
0.710445 0.587518 0.721370
0.860105 0.608667 0.703822
0.999634 0.584283 0.624048
0.000000 0.313970 0.688746
0.306645 0.403235 0.698360
0.703853 0.626703 0.720943
0.850065 0.598627 0.676967
0.999603 0.611963 0.626337
0.000000 0.637354 0.706111
0.238010 0.645899 0.701137
0.660883 0.663661 0.689906
0.835966 0.682734 0.675990
0.994659 0.703456 0.643336
0.000000 0.828153 0.687343
0.356970 0.817319 0.687892
0.661372 0.799374 0.705287
0.828458 0.813535 0.713832
0.983825 0.829831 0.689540
0.260594 0.960052 0.695796
0.430701 0.954559 0.707729
0.668513 0.941192 0.731289
0.852781 0.926848 0.745693
0.986816 0.954620 0.738094
0.232364 0.419989 0.865690
0.476173 0.512474 0.868864
0.763790 0.710506 0.881529
0.874449 0.801938 0.885801
0.971832 0.843198 0.906981
0.238834 0.478737 0.858732
0.492958 0.566613 0.860288
0.756893 0.721981 0.875639
0.870420 0.809232 0.883574
0.970367 0.838193 0.900908
0.000000 0.606561 0.847898
0.368811 0.629511 0.844236
0.701503 0.726436 0.849851
0.859556 0.827054 0.877440
0.970825 0.813046 0.870512
0.244602 0.804074 0.855344
0.420111 0.804471 0.851865
0.655573 0.810391 0.846494
0.813352 0.819303 0.840482
0.973175 0.833616 0.825834
0.292851 0.964874 0.872526
0.431464 0.960540 0.872404
0.642359 0.953491 0.869474
0.803403 0.945434 0.844266
0.972900 0.956085 0.847349
0.592004 0.666560 0.974487
0.659022 0.699489 0.973724
0.796017 0.776333 0.974121
0.923796 0.878508 0.976928
0.976013 0.923827 0.974517
0.565728 0.669734 0.973114
0.653803 0.713191 0.971679
0.791318 0.783536 0.973022
0.922393 0.882048 0.976684
0.976501 0.928466 0.975341
0.290745 0.644953 0.973083
0.480720 0.685573 0.971038
0.749294 0.789181 0.969390
0.912902 0.888121 0.976135
0.979339 0.943816 0.979095
0.304112 0.799496 0.974182
0.427436 0.805631 0.972259
0.630823 0.819669 0.968353
0.852262 0.873899 0.970977
0.984161 0.966369 0.985107
0.341497 0.945006 0.979370
0.443122 0.945312 0.978607
0.628931 0.948211 0.977325
0.790768 0.953429 0.974640
0.961151 0.963317 0.968750
